takenoko1/special-research/HandMotion_SimilarSearch_自分用/NewProject/handData/test_key/d4_feature_d2/34.csv
frame,vel_0x_L,vel_0y_L,vel_0x_R,vel_0y_R,posFromWrist_0x_L,posFromWrist_1x_L,posFromWrist_2x_L,posFromWrist_3x_L,posFromWrist_4x_L,posFromWrist_5x_L,posFromWrist_6x_L,posFromWrist_7x_L,posFromWrist_8x_L,posFromWrist_9x_L,posFromWrist_0y_L,posFromWrist_1y_L,posFromWrist_2y_L,posFromWrist_3y_L,posFromWrist_4y_L,posFromWrist_5y_L,posFromWrist_6y_L,posFromWrist_7y_L,posFromWrist_8y_L,posFromWrist_9y_L,posFromWrist_0x_R,posFromWrist_1x_R,posFromWrist_2x_R,posFromWrist_3x_R,posFromWrist_4x_R,posFromWrist_5x_R,posFromWrist_6x_R,posFromWrist_7x_R,posFromWrist_8x_R,posFromWrist_9x_R,posFromWrist_0y_R,posFromWrist_1y_R,posFromWrist_2y_R,posFromWrist_3y_R,posFromWrist_4y_R,posFromWrist_5y_R,posFromWrist_6y_R,posFromWrist_7y_R,posFromWrist_8y_R,posFromWrist_9y_R,posFromBody_0x_L,posFromBody_0y_L,posFromBody_0x_R,posFromBody_0y_R
2,-10.542698,-18.723281,-0.106144,-0.909707,0.0,-12.961178,-18.513165,29.555569,-27.159576,31.362705,-33.65078,22.070103,-38.064938,-2.530346,0.0,18.476094,13.13703,41.025059,28.629961,52.082273,40.382608,56.461119,49.548037,59.146644,0.0,67.839317,26.140423,90.124168,15.697918,87.794495,6.150169,74.268379,-1.918087,53.549194,0.0,17.616652,30.910095,58.111584,49.435095,72.0673,61.54466,79.812901,67.953858,82.964334,0.669651,288.013987,-51.022224,272.562119
3,-15.828209,-1.621504,-0.039024,0.293006,0.0,11.014996,-0.331078,49.140987,-10.067253,51.380711,-19.663696,40.017643,-28.704929,16.696072,0.0,13.777011,10.640584,39.986726,26.945163,51.748636,40.104793,56.419067,51.192821,60.50682,0.0,67.810822,26.181736,89.61731,16.029797,87.54673,6.595402,74.300423,-1.4744,54.312859,0.0,17.394103,30.765537,57.046821,49.050946,71.347291,61.156682,79.592947,67.749835,82.991072,-15.764494,286.29765,-51.667185,272.760292
4,13.054619,-2.911655,0.248108,0.574217,0.0,-3.505783,-12.920551,36.418247,-23.143215,38.675938,-31.6436,26.892643,-38.759079,2.705212,0.0,11.263831,14.922975,41.814106,32.387165,54.680113,46.213082,60.644894,57.090911,64.778776,0.0,67.85099,25.750408,89.384308,15.690193,87.446823,6.391926,74.61628,-1.447563,55.188789,0.0,17.064109,30.714717,57.305,49.171606,70.537804,61.359594,78.996067,67.886797,82.102977,-3.144064,283.419571,-51.853266,273.368086
5,-8.903618,11.552267,-0.292797,-0.674253,0.0,19.209995,-8.871632,36.587849,-16.368084,45.777111,-19.42234,27.957287,-19.370384,-5.354862,0.0,12.62765,5.130471,28.644781,23.511284,44.01557,38.381463,50.673438,51.075742,54.219393,0.0,67.478886,25.973911,89.836178,15.581646,87.371006,5.926952,74.328976,-2.281036,53.877468,0.0,17.781957,31.389834,57.552557,49.647269,71.183034,61.551761,79.786534,67.880437,82.663671,-12.389746,295.126214,-52.488127,272.848209
6,15.310078,-9.87315,-0.611172,0.539266,0.0,-11.758347,-21.036644,29.271011,-31.159687,31.388512,-38.520985,20.037689,-43.395653,-4.244728,0.0,12.35212,16.086847,44.048113,32.418349,55.003068,44.761453,59.2862,54.462443,62.532543,0.0,67.950668,25.748577,91.036263,15.704098,88.985825,6.807747,76.031456,-0.337372,56.458054,0.0,16.960677,31.070523,57.342359,49.500674,70.309698,61.600358,79.218863,67.903161,82.597104,2.732477,285.352189,-53.287153,273.4866
7,-9.887924,17.425905,0.422916,-0.118376,0.0,5.271206,-13.379002,39.480858,-20.672379,42.788315,-24.126034,24.809647,-24.90572,-3.082066,0.0,-14.111636,5.556858,26.158833,23.305532,36.618921,37.235992,42.92055,48.203483,43.14032,0.0,67.752857,25.587902,90.175037,15.428295,88.303814,6.273079,75.146542,-1.306229,54.998188,0.0,17.455421,31.6892,56.915478,49.848576,71.013591,61.698727,79.317725,68.005729,82.719185,-7.276239,302.827463,-52.985029,273.417594
8,12.704086,-17.930529,-0.40329,-0.084289,0.0,-17.109776,-25.681114,25.740623,-35.477142,29.531479,-41.642017,18.360443,-45.170288,-6.87521,0.0,15.017083,18.462879,44.281344,34.233317,54.926497,45.848384,58.567611,54.612188,61.957955,0.0,67.900372,25.156975,90.621357,14.980259,88.828068,6.015129,75.638866,-1.344509,55.07967,0.0,17.663891,31.04996,57.021874,49.401565,70.814384,61.463273,79.245477,67.81245,82.702883,5.351944,284.909377,-53.464222,273.345748
9,-14.18438,18.358583,0.222187,0.175433,0.0,10.09655,-8.732929,42.249985,-15.192604,42.891426,-18.802071,25.097466,-19.829865,-6.121845,0.0,-15.39728,7.622162,27.143011,24.508059,37.441992,37.572223,44.24312,48.355142,45.999117,0.0,67.415543,24.985199,90.242386,14.934883,88.635406,6.105881,75.238609,-1.063156,55.112,0.0,17.658333,31.259355,57.022368,49.493696,71.13808,61.46531,79.172241,67.794481,82.743576,-8.892946,303.310753,-53.302546,273.563974
10,24.521599,-8.261402,-0.00967,-0.042484,0.0,-41.437569,-36.150227,11.25721,-43.429012,15.163994,-46.150074,7.436142,-46.270752,-16.557598,0.0,20.088521,10.094896,38.720534,21.855756,46.68751,30.778752,48.685816,37.926239,49.142892,0.0,67.521687,24.759121,90.212116,14.9576,88.274517,6.393185,75.232487,-0.599213,55.699024,0.0,17.770595,31.201619,56.901584,49.431205,70.516315,61.580475,79.039231,68.086807,82.831879,15.584507,295.07385,-53.356361,273.545989
11,-13.013878,6.672132,-0.610199,-0.006546,0.0,-2.644157,-21.183758,27.751236,-25.769463,30.364609,-27.303314,16.307259,-26.513615,-32.0014,0.0,-21.391207,9.207172,23.973486,24.862198,36.034021,36.817695,45.086322,46.231978,49.9094,0.0,67.250004,25.301685,90.271168,15.498848,88.548603,6.815472,75.424061,-0.250568,55.89838,0.0,17.747192,31.120664,56.715036,49.462327,70.556453,61.713917,78.977418,68.27601,82.426426,2.560186,301.78595,-53.977003,273.579411
12,4.490891,-10.068281,-0.272884,0.150362,0.0,-26.765556,-30.837421,21.144905,-39.149723,25.399704,-43.250828,17.798424,-44.2939,-4.636803,0.0,18.870926,12.957645,42.45242,24.863309,50.176532,33.428153,52.084682,40.055887,52.390779,0.0,67.336922,25.330524,90.448494,15.835247,89.258308,7.431622,76.571617,0.531464,57.242775,0.0,17.243432,30.97271,56.548434,49.328823,70.313589,61.635556,78.89881,68.237046,82.522633,7.045755,291.734094,-54.255209,273.746199
13,3.346024,-7.794569,1.150246,0.575576,0.0,-22.872276,-33.543377,18.299904,-43.177128,23.462791,-47.415733,15.258522,-49.159698,-6.868286,0.0,4.666046,16.638155,44.087386,34.952833,57.483644,49.026554,61.947766,59.893639,65.159776,0.0,66.862564,24.865608,90.139961,14.804707,88.569946,5.775146,75.337143,-1.644402,55.4813,0.0,16.548184,29.213441,57.151921,47.637788,70.920039,60.087597,78.746534,66.994442,82.06778,10.347548,283.982503,-53.149195,274.364753
14,-21.428661,17.315557,-0.965195,-0.439663,0.0,19.987507,-15.326328,40.4603,-22.141399,50.144749,-24.334602,37.618732,-23.232536,9.759521,0.0,-11.837801,3.929426,20.769381,21.731575,37.7358,36.386677,45.957435,48.604552,48.713603,0.0,67.597961,25.503845,91.058121,15.375767,89.032288,6.239491,75.746384,-1.355553,55.542412,0.0,16.973397,29.538371,57.447705,48.178165,71.424046,60.566163,79.013975,67.253115,82.171829,-11.065893,301.305053,-54.099169,273.932083
15,-9.745674,-1.356471,0.192776,-0.199392,0.0,22.156162,-5.577335,50.838833,-12.314472,57.253933,-15.826664,47.283382,-16.16003,22.718639,0.0,-11.354357,6.517385,26.445849,23.910254,45.175984,37.212898,50.556977,47.021395,54.672209,0.0,66.969395,25.100384,90.924511,15.013275,88.849697,6.089458,75.487347,-1.372147,55.341625,0.0,17.300366,29.672864,57.104743,48.525079,71.087754,61.091782,79.152728,67.918969,82.298356,-20.79257,299.976369,-53.887396,273.760479
16,-0.314541,-4.476781,-0.460854,0.521112,0.0,32.066574,-9.172668,46.465874,-16.147213,57.247581,-17.674656,45.285187,-15.648708,17.0644,0.0,4.786768,3.335449,33.845154,22.721743,46.341276,38.697872,52.923314,51.104332,54.093237,0.0,66.872692,24.651833,90.411587,14.85918,88.946056,6.316738,75.731678,-0.719147,55.885906,0.0,16.518482,29.121186,56.284945,47.935239,70.177305,60.537819,78.553625,67.387113,81.908649,-21.112947,295.514531,-54.354086,274.296534
17,25.821648,-12.451909,0.531063,-0.167838,0.0,-12.655334,-27.816296,25.482559,-37.501774,31.109047,-42.526703,21.08345,-45.412216,-2.913208,0.0,1.399944,17.391016,43.947521,35.558851,57.720148,49.499995,62.250467,60.453283,65.341569,0.0,66.88076,24.794312,90.320892,14.966183,89.032631,6.251392,75.455933,-0.934868,55.924644,0.0,16.598943,28.867206,57.045031,47.380412,70.87243,59.915745,78.494345,66.947141,81.933534,4.740114,283.091769,-53.791609,274.157843
18,-17.192173,15.877698,0.039997,0.009757,0.0,20.534077,-16.719189,39.167118,-22.822495,51.374989,-24.217243,38.447514,-22.651291,16.623745,0.0,-7.906708,6.173744,26.439921,24.384188,40.11986,39.170756,46.886964,51.365475,49.163579,0.0,66.802425,24.915161,90.611172,14.882812,88.853703,5.889187,74.970074,-1.458321,55.232906,0.0,16.319955,29.361765,57.230714,47.803526,71.384279,60.167317,78.88541,66.975547,82.13552,-12.413664,298.999694,-53.713217,274.197826
19,1.144123,5.777554,-1.011257,-0.322337,0.0,10.658855,-16.944695,40.780563,-23.371468,46.454544,-25.909023,38.238373,-24.852619,12.686234,0.0,-18.780338,3.507917,24.23858,19.692083,40.145178,32.459969,44.789241,42.415555,47.235051,0.0,67.335548,25.239258,91.003304,15.440197,89.03286,6.576176,74.66835,-0.846462,54.878654,0.0,16.172556,29.337374,56.39097,47.68268,71.284552,60.006272,78.77957,66.885514,81.776256,-11.209316,304.782265,-54.664249,273.880506
20,-9.811993,-3.822536,0.199871,-0.258425,0.0,20.455627,-4.380112,51.646214,-11.342983,55.217571,-15.573864,44.068737,-16.984921,20.911388,0.0,-15.125269,4.740147,24.983167,21.71657,43.560223,34.794875,48.552805,44.30061,52.202378,0.0,67.721958,24.70974,91.711979,15.150146,89.761562,6.713791,76.169643,-0.205193,56.891956,0.0,16.20584,29.723005,56.526883,48.061519,70.423751,60.365288,78.569619,67.110656,82.382398,-20.863609,300.935739,-54.306679,273.598091
21,40.25053,-16.272036,0.27935,-0.186116,0.0,-30.068264,-39.681072,11.316261,-51.201324,14.47403,-56.85791,2.823143,-59.493141,-24.501629,0.0,-0.025873,13.821533,41.536106,32.776131,55.37357,47.546459,60.487246,59.191969,64.71931,0.0,67.739239,24.717236,91.091137,14.975853,89.049511,6.395473,75.242901,-0.645676,55.82056,0.0,16.409493,29.703862,56.890408,48.061581,71.02341,60.440315,78.63668,67.273307,82.171582,19.546509,284.641642,-53.867741,273.389915
22,-28.300323,14.898769,-0.019112,0.143261,0.0,9.367447,-18.138199,38.517265,-25.940781,47.573318,-28.246994,37.385788,-27.889709,16.342735,0.0,-18.242862,4.523465,22.719582,21.706752,39.876008,35.343898,47.069066,46.170598,47.859163,0.0,67.982082,24.650974,90.694828,14.882011,88.68639,6.341,74.853115,-0.657349,55.516834,0.0,16.409616,29.487242,57.159578,47.80933,70.851373,60.178308,78.511512,67.058724,81.887283,-8.663607,299.469445,-53.796644,273.462209
23,-11.443863,1.912719,-0.033302,-0.327586,0.0,22.137108,-7.849331,51.161842,-14.251041,58.580017,-17.048149,48.237991,-16.833973,26.425896,0.0,-18.211432,3.278515,23.12627,20.16151,41.591125,33.701646,47.934931,44.174701,50.664546,0.0,68.295879,24.938622,90.995922,15.103455,88.951435,6.32658,75.475674,-0.954094,55.913258,0.0,16.467723,29.777222,57.278138,47.971734,71.094176,60.260683,79.196262,67.152894,82.665215,-19.946594,301.356352,-53.669071,273.108811
24,-3.826504,-4.929782,-0.00824,0.603363,0.0,28.699436,-2.316113,56.923313,-9.576302,57.742367,-13.816795,46.818523,-15.078793,22.36227,0.0,-8.058738,9.101208,30.145069,26.096712,47.759559,38.866883,52.054671,48.22065,56.355649,0.0,68.323803,24.529552,90.847034,14.795666,88.953037,6.232052,75.443172,-0.655975,56.294231,0.0,15.810452,29.523613,56.674837,47.963274,70.568865,60.397831,78.270438,67.275654,81.568342,-23.606443,296.426616,-53.510656,273.712221
25,29.032574,-15.300888,-1.172447,-0.119425,0.0,-18.439865,-24.748421,25.39959,-34.715881,28.900795,-41.614609,18.527069,-46.293411,-7.64946,0.0,11.973961,16.58332,46.145651,34.426349,58.610712,48.415905,63.978552,59.287559,66.961962,0.0,69.126835,25.563869,91.703739,16.367512,90.411358,8.298912,77.109432,1.479206,57.965183,0.0,15.864422,29.180528,55.703441,48.093753,69.767653,60.851326,77.854425,67.894578,81.637997,5.717726,281.125435,-54.391508,273.592502
26,-18.35495,15.784455,0.48254,0.226192,0.0,16.770859,-15.467262,37.899055,-23.136349,52.045784,-25.258598,39.193497,-24.375629,19.459305,0.0,-0.770769,2.513242,24.091491,21.403866,41.05612,37.960819,48.082699,51.755676,49.140978,0.0,68.511086,25.637569,91.083183,16.593132,90.734596,8.463135,77.050438,1.6222,58.024063,0.0,15.415743,29.168795,55.739997,47.899918,69.903072,60.470141,77.475587,67.429906,81.434344,-12.446423,296.924926,-53.718166,273.83373
27,-16.251926,5.166472,0.50869,-0.084783,0.0,29.823818,9.309254,65.829334,1.993504,66.043224,-5.028706,53.445568,-9.903603,29.776783,0.0,-18.391557,3.65513,28.66695,20.469335,45.745817,33.52294,49.692471,43.464448,52.630864,0.0,68.593712,25.467453,91.087074,16.416779,90.541077,8.348179,76.978455,1.623058,57.950249,0.0,15.150464,29.624081,56.207757,48.295491,70.20676,60.795627,77.776929,67.664681,81.519559,-28.508377,302.05356,-53.019505,273.711109
28,31.096973,-20.508176,1.110363,-0.078732,0.0,-4.684181,-19.222298,32.577667,-29.96624,35.305023,-38.562069,24.465408,-45.788784,0.657806,0.0,2.724799,15.147129,43.49946,33.552827,57.731386,48.778503,64.947231,61.296793,68.706349,0.0,68.581982,25.7757,90.354824,16.843071,89.821644,8.704834,76.144352,1.663227,57.265949,0.0,15.419448,29.851014,56.276423,48.40306,70.661676,60.8349,77.820895,67.779907,81.183699,2.731791,281.527399,-51.765947,273.614393
29,-17.296429,10.639411,1.178284,0.008028,0.0,12.768002,-10.204124,39.759007,-17.716827,55.324116,-20.50375,41.262074,-20.537281,18.111706,0.0,17.218053,2.937714,27.495976,23.226985,47.139585,40.665116,51.274516,55.128236,52.611845,0.0,67.713604,25.313988,90.87347,16.243572,89.706173,8.049088,75.994205,1.035118,56.188145,0.0,14.909019,28.81478,55.366346,47.531886,70.499272,60.121004,77.761244,67.184572,81.068843,-14.454432,292.19043,-50.477457,273.64604
30,33.661709,-3.168661,1.501064,0.548158,0.0,-37.622681,-39.510326,11.61026,-47.448635,17.056847,-50.067673,10.612793,-50.031223,-11.730652,0.0,19.332695,12.150135,41.1782,28.084273,52.139516,40.411816,55.875107,49.761508,57.343656,0.0,67.976875,24.851704,90.330048,15.723438,89.108162,7.567062,76.024361,0.790272,56.852188,0.0,14.515916,28.397779,55.656758,47.003549,69.835702,59.645896,77.182149,66.72274,80.680557,19.366465,289.051841,-48.817205,274.224271
31,-13.454247,10.570189,1.552334,-0.218905,0.0,2.9076,-24.152126,30.086403,-32.222328,35.576248,-34.207077,23.645554,-33.098373,-4.156265,0.0,-16.216276,4.936266,25.35688,22.346424,39.311609,35.968133,45.985161,46.371163,47.275127,0.0,67.717724,25.097008,89.801388,15.925541,88.82967,7.638474,75.821285,0.690193,56.547375,0.0,14.680296,28.071861,54.941318,46.946059,69.510833,59.687639,77.377218,66.752751,80.94985,6.150541,299.684506,-47.026548,274.067842
32,-7.838688,2.139405,2.210083,0.058786,0.0,8.785458,-16.19957,38.001537,-23.521385,43.614864,-26.238556,36.244869,-25.334816,17.499905,0.0,-16.271172,2.696455,23.711294,19.807186,40.663449,33.175038,47.614693,43.784191,50.717095,0.0,67.720242,26.655979,90.272083,17.188683,88.905087,8.094921,75.022488,0.241013,55.531597,0.0,15.120453,28.070564,55.092236,46.784644,69.796799,59.498127,77.210122,66.787455,80.669935,-1.349058,301.814818,-44.477377,274.117535
33,-1.398869,-2.223077,1.651154,-0.03353,0.0,13.560677,-10.621891,43.413162,-18.156567,47.452698,-22.034969,39.21833,-22.689743,18.816833,0.0,-14.234396,4.825362,28.560615,22.220886,44.060339,35.52989,49.352597,45.479672,53.368596,0.0,66.918354,27.102127,90.625362,18.083267,89.981976,9.215183,75.793133,1.305828,56.432819,0.0,14.463923,28.135155,54.945702,46.953408,69.789513,59.84146,76.926317,67.414839,80.236942,-2.510204,299.629548,-42.588501,274.121811
34,20.199966,-20.108651,3.230896,0.310296,0.0,-15.936241,-22.638645,25.659142,-32.300034,26.801605,-38.900242,15.655861,-43.315086,-12.431717,0.0,9.868519,20.340833,44.630296,38.869353,57.931396,52.806359,64.578457,63.126705,68.429151,0.0,68.081875,28.05891,90.608311,18.642025,89.475117,9.523201,75.530376,1.510563,56.313114,0.0,14.091815,27.744892,54.360925,46.932351,68.517948,59.996639,76.178334,67.672956,79.735466,18.055401,279.526346,-38.991966,274.437557
35,-13.784637,11.960376,3.194904,0.454668,0.0,17.785149,-13.30719,42.964554,-22.212753,49.704323,-25.497894,36.330414,-25.736389,16.275215,0.0,1.420877,8.728421,33.518062,27.514316,45.805529,42.817921,52.167736,54.909578,54.208711,0.0,67.806015,29.678936,90.173721,20.260906,88.695602,10.689411,74.982376,1.962433,55.665207,0.0,13.333952,26.903234,53.628566,45.944283,67.908534,59.048955,75.586703,67.096454,79.67316,4.819164,291.403112,-35.248661,274.808615
36,1.361389,-9.252126,3.567982,0.388534,0.0,14.081383,1.019783,47.452011,-9.404011,45.227852,-20.014114,31.655273,-30.114899,6.169395,0.0,0.30233,11.876518,37.980085,31.146352,52.215407,47.188862,60.586849,60.065799,65.905597,0.0,67.38596,31.015663,90.090008,21.580868,88.051357,11.464748,74.464817,2.13438,55.232105,0.0,13.32191,26.514701,53.412377,45.377784,66.886811,58.339443,74.585544,66.504761,79.028301,6.634598,282.114738,-31.226635,275.160901
37,31.05732,3.846186,4.25045,0.123995,0.0,-33.768654,-30.225677,12.542038,-37.619019,13.511353,-41.8503,4.478188,-43.997555,-19.091034,0.0,12.295557,16.886947,39.505567,34.024354,54.042232,47.00534,59.740992,56.746776,63.363394,0.0,66.573086,31.322765,88.496189,21.834984,87.045193,11.433449,73.005581,1.59811,53.058872,0.0,13.209216,27.361916,53.15352,45.72087,66.624372,58.400761,74.62704,66.526189,79.035773,38.211622,285.926066,-26.45648,275.250038
38,-19.321518,14.456204,3.956509,0.596632,0.0,16.030197,-6.094437,41.454277,-14.86124,45.873413,-21.071033,32.356796,-25.329552,6.807632,0.0,-10.728517,3.72849,26.030392,19.157757,39.106289,32.643306,45.288431,42.76426,49.67586,0.0,67.320099,32.456474,88.058167,23.382626,87.251129,13.155441,73.263474,3.006363,53.392525,0.0,12.579609,26.062626,51.256856,44.570151,64.648791,57.817837,73.688002,66.639686,79.13235,19.53392,300.401289,-21.856155,275.865689
39,-7.280159,2.519911,3.69381,0.406626,0.0,18.706284,6.807404,58.103828,-0.602074,53.613167,-7.347279,41.781578,-12.130108,10.593109,0.0,-20.946419,4.251022,25.356572,18.842274,37.114344,30.764364,42.133232,39.427823,51.476996,0.0,67.25235,33.177338,87.37999,24.399605,86.580505,14.11417,73.415794,3.79034,54.138451,0.0,12.218925,25.560163,50.404824,44.253495,64.193752,57.661608,72.419031,66.721382,77.767419,13.098164,303.098177,-17.317944,276.449292
40,21.584129,-11.193312,2.613087,0.104235,0.0,-17.649651,-21.650734,27.493858,-25.674133,31.822929,-26.951981,25.605698,-25.772667,6.4991,0.0,26.486419,14.489858,35.18168,26.630791,44.746942,35.586145,48.0672,41.812871,54.330976,0.0,68.151226,33.025761,87.253246,24.814396,86.833363,15.041542,74.415607,5.249348,55.747776,0.0,10.93112,25.911337,49.495487,44.547365,62.930401,57.908734,71.500432,67.060515,76.435277,35.585575,292.186308,-13.801575,276.83497
41,-6.447601,17.711315,3.19994,0.316471,0.0,-29.130535,-17.757912,26.653862,-16.045647,39.547234,-13.06263,41.624565,-8.910484,29.599228,0.0,38.242154,7.974201,30.378609,4.680619,29.358801,0.068296,22.188282,-5.621758,15.209312,0.0,67.273178,33.080292,86.3657,24.466667,84.476509,14.132023,72.99408,3.79406,53.953743,0.0,10.814103,25.732817,48.764671,44.260164,62.583302,57.401083,71.423305,66.093504,76.354076,30.111837,310.118365,-9.627771,277.372183
42,14.180489,-19.668,1.630325,-0.043658,0.0,-14.288635,-21.161728,23.285866,-27.147903,23.535461,-29.885788,16.019325,-29.89563,-3.379211,0.0,18.850425,11.315454,33.560608,26.330993,47.706886,38.49743,53.443191,47.712938,60.518985,0.0,68.262291,33.684654,86.695404,25.19474,85.552597,14.798012,73.399887,4.290276,53.694534,0.0,10.218643,25.418507,48.649753,43.593383,62.994992,56.816184,71.330371,65.690212,77.161462,45.674887,290.650421,-6.614885,277.528582
43,-20.740128,1.999725,2.738914,0.610897,0.0,24.388962,4.98745,51.162758,-1.392288,49.098244,-7.740784,41.374168,-12.653389,23.831635,0.0,4.898969,4.330248,25.505267,20.915297,41.407789,35.47308,49.437565,47.518609,56.971424,0.0,67.731514,34.168968,86.055222,25.641289,84.160194,14.990387,71.709251,4.095612,52.071991,0.0,9.904272,24.540849,48.280795,42.493978,62.120482,55.805206,70.495691,65.038683,76.128378,26.338663,292.542299,-2.472067,278.031631
44,25.640831,2.116866,3.893108,0.460473,0.0,-29.313698,-24.540596,17.043571,-26.471443,21.504593,-25.599403,17.504997,-22.784042,0.908203,0.0,26.700569,10.736421,33.339603,22.498145,42.44606,31.922308,45.687648,38.715532,51.931232,0.0,68.136692,33.798809,84.738064,25.397701,82.289028,15.101337,70.455379,4.401569,51.293163,0.0,9.58564,24.256303,48.222255,41.986699,61.571151,55.250687,69.434572,64.7098,75.487347,53.180923,294.302602,2.622471,278.135542
45,9.673462,24.119464,5.56366,-1.601126,0.0,-57.570763,-40.829544,-0.96302,-35.958939,14.672928,-27.859726,22.518425,-18.437462,14.591103,0.0,39.744665,2.279516,37.158557,-10.985337,27.213777,-24.322623,14.194197,-36.477389,-0.721862,0.0,65.987835,33.301449,80.687084,24.750996,77.560329,14.250011,66.00008,3.006878,48.67979,0.0,10.556356,23.746059,51.185843,41.237975,65.84891,54.284478,72.896485,63.784841,80.531615,64.098101,318.280411,9.429846,276.39276
46,-6.363258,0.062491,14.501209,-8.861925,0.0,-49.764919,-27.282028,-32.338371,-20.965004,19.17469,-10.347977,31.833801,1.247749,29.300308,0.0,38.849901,4.488205,30.123086,-11.085681,30.738305,-27.227733,14.28497,-42.551221,-6.632921,0.0,63.797035,29.695129,71.929893,17.188568,60.529976,1.62941,36.693306,-15.739231,7.164688,0.0,12.800613,26.227561,63.087061,39.418314,81.016108,48.676183,89.588733,53.740087,83.417088,59.008255,318.383442,25.204468,267.571374
47,1.913681,-51.652182,5.690804,2.309959,0.0,-63.172932,-36.150513,-62.482681,-30.899162,-61.712151,-25.349693,-51.384888,-18.973274,-43.674088,0.0,19.273662,43.466362,47.456118,58.126342,59.718021,67.737547,63.195866,74.027135,72.137449,0.0,16.718903,31.665802,29.010315,23.9217,-11.852303,11.006813,-34.131546,-4.561615,-36.472263,0.0,59.807744,23.85264,66.459313,20.408758,72.672022,17.534091,63.914764,14.314178,53.433064,61.182604,266.791173,31.155939,269.941247
48,12.643089,-1.685539,25.130882,-62.168956,0.0,-62.20396,-32.909431,-90.248165,-24.034424,-88.310795,-13.637695,-78.115082,-3.299675,-57.487564,0.0,36.788919,34.473835,64.436617,50.85591,79.121235,61.392815,88.723733,67.360128,92.354781,0.0,65.257187,45.406036,68.458557,38.697395,61.032257,30.708618,49.930229,21.022797,41.944427,0.0,4.459059,4.40336,19.645523,13.806219,22.244351,22.576568,27.301648,30.532862,28.212652,74.819813,265.107147,57.280941,207.773803
49,5.520172,1.247605,-1.468735,-63.216243,0.0,-65.002041,-33.216934,-93.293152,-25.265694,-93.145065,-17.523537,-83.421192,-10.079041,-59.674759,0.0,35.450541,33.148918,61.072392,49.456584,74.263392,60.516701,84.853896,66.991478,90.874006,0.0,57.69104,37.783699,74.629211,40.895462,73.589287,41.442604,69.873505,37.958221,66.229248,0.0,-39.433103,5.500541,-10.127685,24.107299,1.616935,40.511852,16.722814,54.299299,26.811041,80.697298,267.060775,56.169519,145.263583
50,-1.815262,-0.693889,-4.245071,-43.677301,0.0,-68.260059,-31.786079,-94.579296,-23.842735,-95.181999,-16.043472,-82.691975,-8.836212,-59.276848,0.0,35.135861,33.182819,62.258309,49.64023,74.351201,60.623096,86.061858,66.844203,90.792804,0.0,34.216347,55.756989,59.027824,65.38559,65.556793,68.380623,68.233566,66.495209,67.847099,0.0,-54.337399,-1.713296,-28.309168,15.611554,-17.229569,29.98106,1.843342,42.701274,19.48985,79.729013,266.353872,52.771425,101.573268
51,-2.021942,0.266144,0.349274,-37.794895,0.0,-67.056198,-30.130005,-94.716797,-22.800293,-95.993385,-15.533638,-83.382568,-8.742714,-59.758186,0.0,35.350073,33.650455,61.807716,50.48195,73.960444,61.267956,85.715809,66.979252,90.423845,0.0,15.385208,42.903328,42.627983,58.548546,53.027802,68.067856,60.514297,73.067665,63.412399,0.0,-57.871128,-9.196705,-33.622667,3.549383,-24.527048,14.617588,-10.969436,24.666789,3.028209,78.710861,266.405356,54.124489,63.563713
52,-3.665428,-0.617319,33.141403,14.439994,0.0,-65.456486,-30.224762,-90.860138,-21.994858,-90.466232,-13.962364,-79.261379,-6.676254,-56.725159,0.0,35.55916,34.30186,63.497763,51.044743,74.647171,61.932946,86.704,67.791455,91.479654,0.0,30.865517,19.811897,35.047302,6.817131,28.481598,-9.790192,13.334541,-28.054276,-24.263878,0.0,-42.978287,-15.880446,-68.508223,-24.396137,-81.325879,-32.406925,-85.294455,-38.951789,-92.222203,75.692282,266.032091,87.912741,78.24776
53,-0.426064,0.211125,-31.570587,-68.904969,0.0,-64.063797,-30.468979,-89.203262,-22.054825,-88.503056,-13.803864,-77.984562,-6.361656,-56.439629,0.0,35.041445,34.382629,62.172476,50.94798,73.533193,61.734172,85.94941,67.683021,90.988553,0.0,-1.4851,35.383301,37.97802,53.226471,45.532379,65.062523,58.521538,71.950836,67.850876,0.0,-52.187867,-11.800936,-36.452256,-6.036998,-37.412722,-1.408558,-30.255201,2.789482,-20.662861,75.379372,267.195793,56.455307,10.295368
54,0.997925,-0.564584,-3.829765,-9.305509,0.0,-63.815117,-29.836349,-92.315369,-21.568336,-92.533493,-13.471184,-80.527668,-6.071205,-57.823563,0.0,35.301723,34.935851,63.551733,51.366895,74.869102,61.864094,86.480032,67.468377,90.557905,0.0,4.059792,27.169533,42.596626,45.266418,50.929527,57.468796,63.546867,63.921776,70.167847,0.0,-51.014856,-3.394791,-47.640721,4.752651,-46.34143,8.45005,-39.767821,8.302127,-28.515074,76.493483,268.496056,52.741728,2.854706
55,0.859451,0.661717,0.665474,-10.811293,0.0,-62.491207,-28.996696,-93.925896,-20.749969,-94.439678,-12.793465,-81.377563,-5.622826,-58.067093,0.0,35.094735,35.426644,62.496666,51.88776,74.511876,62.285109,86.425197,67.693086,90.113426,0.0,5.062065,28.45356,44.368515,44.899063,51.143074,55.790062,61.513481,61.683426,68.135147,0.0,-50.901853,-4.433772,-49.374703,4.268682,-45.806579,8.618382,-37.40525,9.274727,-26.66602,77.829552,270.453358,53.88382,-6.661002
56,1.927185,0.835668,-0.906143,-9.591568,0.0,-62.440166,-28.963852,-95.110645,-20.978966,-96.41201,-13.252487,-82.76619,-6.192627,-59.210472,0.0,35.53341,35.234044,61.478834,51.888068,74.532871,62.438806,86.543696,67.953056,89.981465,0.0,4.87484,30.705414,46.221428,45.966797,53.598747,56.079483,63.955307,61.666946,70.042419,0.0,-48.485096,-4.660458,-47.491254,4.115325,-44.039807,8.561633,-35.621621,9.129644,-25.575261,80.521574,273.51868,53.742514,-14.022916
57,1.283112,0.771263,-2.390099,-7.620433,0.0,-62.469006,-27.975426,-94.169312,-20.089874,-94.635715,-12.636681,-81.75333,-6.023254,-57.970963,0.0,34.147422,35.485677,61.644819,51.915239,73.622237,62.297521,85.630408,67.859071,89.718779,0.0,5.257988,33.574562,45.693398,47.470436,53.351784,56.172066,62.954521,60.687332,68.816185,0.0,-47.395602,-6.3133,-48.884775,2.843977,-45.165147,7.872128,-35.892242,9.38563,-24.751819,82.493477,276.999319,52.041206,-18.933973
58,0.842171,-0.560632,-2.871895,-6.347078,0.0,-60.984535,-26.74015,-92.073212,-19.054985,-92.180557,-11.829758,-80.100002,-5.341759,-56.261902,0.0,34.345147,35.51118,61.616908,51.740361,73.281066,62.039527,85.167774,67.600893,90.117254,0.0,5.54512,35.143089,45.932808,48.932076,52.785759,57.313385,61.436234,61.540718,67.734489,0.0,-47.054493,-7.901459,-50.388274,0.876825,-47.122974,5.447992,-38.737546,6.492346,-28.947605,83.364401,278.285163,49.198065,-23.434575
59,1.715469,0.606821,-1.986694,-6.731412,0.0,-60.34584,-26.387558,-89.179573,-18.834915,-89.141121,-11.990662,-78.947353,-5.894394,-56.346931,0.0,33.38783,35.991722,59.662507,51.672189,71.323578,61.50835,84.084733,66.821603,90.276509,0.0,3.517113,35.641708,43.619156,48.900604,50.923233,56.595612,60.026436,60.450783,66.300087,0.0,-50.321368,-10.234452,-53.788005,-2.473814,-50.432148,1.752538,-41.839455,2.923357,-32.485965,84.908724,279.707522,47.040224,-29.350449
60,0.525284,0.184942,-4.282379,-6.773341,0.0,-60.445862,-26.26133,-85.173683,-18.972244,-85.878525,-12.217484,-76.557083,-5.930557,-55.557976,0.0,33.39487,35.082015,58.469489,50.168134,70.521502,59.890922,84.345876,65.5995,91.315892,0.0,1.295013,38.688698,43.272285,51.245842,49.703178,57.692871,57.615852,60.184135,63.23616,0.0,-46.796037,-14.517429,-57.320345,-7.530988,-55.29629,-3.493715,-47.407706,-1.918647,-38.41453,85.19886,281.211685,42.522697,-34.80457
61,0.543137,0.229526,-15.806561,-20.546863,0.0,-62.846031,-25.433578,-82.250404,-17.780342,-83.062477,-10.684547,-73.579788,-4.467888,-53.909454,0.0,34.048251,33.578886,55.548201,49.139249,68.666335,59.221547,83.844277,64.754878,90.813058,0.0,7.952385,35.94492,38.56699,51.425953,45.965672,61.881581,52.804471,68.911458,62.068081,0.0,-50.241962,-27.080998,-71.056472,-18.743514,-58.190058,-10.541084,-38.239344,-2.418455,-28.187046,85.445194,282.557674,26.419334,-54.23497
62,-0.225105,0.156537,-15.80656,-20.546863,0.0,-62.110863,-26.514015,-79.915752,-18.386993,-78.840523,-10.656509,-70.028458,-3.878517,-52.587891,0.0,33.462981,32.703327,55.494169,48.155256,68.280765,58.545072,83.522804,64.613779,90.485472,0.0,14.609756,33.201141,33.861694,51.606064,42.228165,66.07029,47.993088,77.638779,60.900001,0.0,-53.687887,-39.644567,-84.792599,-29.956041,-61.083827,-17.588452,-29.070983,-2.918263,-17.959562,84.957819,282.767332,10.350504,-74.728712
63,-1.580429,1.166712,-15.806561,-20.546863,0.0,-61.784019,-26.053047,-72.024536,-17.084084,-71.944542,-8.804283,-66.376705,-2.018166,-51.371613,0.0,34.224981,33.020292,50.451507,48.62425,66.250041,58.954971,81.956752,64.671021,90.792186,0.0,21.267128,30.457363,29.156399,51.786175,38.490658,70.258999,43.181705,86.3661,59.731922,0.0,-57.133812,-52.208136,-98.528726,-41.168567,-63.977595,-24.635821,-19.902621,-3.418071,-7.732078,82.556419,284.121611,-6.277027,-95.088008
64,1.104355,0.725073,20.047932,15.877235,0.0,-62.297287,-25.817986,-64.388695,-17.208481,-65.639076,-9.213638,-61.588783,-2.836761,-50.878716,0.0,34.707931,32.139484,42.033752,48.36496,58.494498,59.457681,73.77544,65.466861,87.623402,0.0,2.318001,37.01889,25.820732,52.510185,37.176361,60.47699,47.750931,64.013901,53.72921,0.0,-51.934628,-23.81877,-61.986499,-24.72397,-61.7066,-24.379649,-59.645804,-21.968388,-53.482063,82.694778,284.789334,12.804909,-79.268124
65,1.055031,-1.378084,3.376408,8.382248,0.0,-60.111237,-23.995399,-57.127304,-16.335297,-56.336288,-9.07711,-53.682289,-3.209724,-47.825203,0.0,38.343177,33.588025,35.602756,50.351718,48.214104,61.275984,64.47095,67.000247,83.088082,0.0,5.764675,38.159809,48.577824,53.976116,54.486179,62.666073,66.613598,66.190853,70.442562,0.0,-56.063292,-20.175125,-62.168076,-14.833468,-57.613937,-11.281615,-51.44081,-9.016116,-43.993834,83.214569,283.346675,15.646076,-70.950451
66,0.829697,-0.286337,4.836674,6.445415,0.0,-58.628769,-22.980194,-55.462875,-15.345383,-54.217873,-8.21949,-50.792313,-2.387466,-44.66835,0.0,37.653425,33.752343,34.300934,50.498252,46.505285,61.270303,62.014889,66.838152,79.362679,0.0,5.799179,38.563614,47.239952,52.900314,54.196243,60.730019,65.92907,63.690834,70.721283,0.0,-55.58979,-22.872476,-62.873745,-16.594126,-60.227431,-11.658632,-52.085207,-8.785169,-44.54332,83.708782,283.058285,20.147266,-64.507089
67,0.712166,0.501907,-0.37056,0.520093,0.0,-58.934669,-23.872032,-52.852821,-16.69178,-52.338867,-9.90406,-48.137283,-4.175034,-43.484344,0.0,35.308947,34.037939,31.611086,50.746242,44.406883,61.601346,60.419691,67.249348,78.808161,0.0,7.55127,36.294937,42.924385,51.452522,50.780754,60.541077,61.772919,65.029335,67.752113,0.0,-53.394871,-20.053354,-62.600376,-13.166299,-57.436837,-8.434149,-49.303443,-5.981515,-41.80719,84.023323,283.605949,19.379082,-63.941239
68,0.374107,-0.06669,-0.092354,2.763362,0.0,-59.367943,-23.827057,-50.820808,-17.130089,-49.777222,-10.882874,-44.962921,-5.500946,-41.257896,0.0,33.823788,34.869717,31.428984,51.156326,43.667051,61.820622,59.761431,67.579836,76.193154,0.0,7.227859,36.609764,44.057808,51.873779,50.487099,60.831528,61.484299,65.00061,67.710686,0.0,-55.857292,-20.45399,-67.247341,-13.745117,-60.132675,-9.358954,-51.711092,-7.220599,-44.17572,84.349108,283.516998,19.238405,-61.200139
69,0.138588,-0.794234,0.583534,-0.113775,0.0,-58.184509,-24.483719,-49.4244,-17.941475,-48.096428,-11.412964,-44.074516,-5.667915,-39.8489,0.0,34.485814,35.037307,30.662229,51.272355,43.510637,61.975183,60.163426,67.912177,77.324113,0.0,9.79248,35.921288,45.540619,51.105309,53.206673,60.161018,64.958611,64.308357,71.133385,0.0,-54.953853,-19.818517,-67.249965,-12.925658,-61.176318,-8.201504,-53.258619,-5.844738,-44.874457,84.471645,282.661368,19.805889,-61.375309
70,-0.59761,0.682033,0.671997,-0.35383,0.0,-55.987244,-24.215584,-46.232872,-17.934837,-45.636177,-11.620789,-40.987015,-6.032753,-36.492348,0.0,34.520827,34.909052,30.692795,50.89469,43.206393,61.438881,58.702597,67.192105,74.062024,0.0,9.995728,36.545677,48.755264,51.4571,56.576157,60.114899,66.866112,63.869591,72.019958,0.0,-54.529566,-19.796256,-66.439584,-12.764335,-60.493174,-7.832268,-51.991253,-5.275924,-43.166903,83.811407,283.186988,20.415258,-61.885553
71,0.229568,0.405885,-0.498161,0.754837,0.0,-56.187286,-25.742912,-44.814491,-19.098358,-44.371834,-12.407227,-40.511856,-6.495094,-38.133774,0.0,32.160664,35.21663,29.660081,51.013374,42.765618,61.55985,59.048152,67.353891,77.80589,0.0,6.57589,37.427788,46.594849,52.397919,55.764084,60.752792,66.107254,64.169884,71.725845,0.0,-55.879028,-20.46668,-67.04341,-13.545447,-61.611844,-8.567345,-52.681746,-5.816673,-43.230784,84.02009,283.450122,19.896212,-61.273467
72,-0.314941,0.346729,0.388985,0.717015,0.0,-55.32486,-24.610176,-45.77774,-18.428192,-45.063629,-12.076149,-41.261902,-6.437759,-37.840919,0.0,33.618653,35.312344,28.971194,51.294956,41.65232,61.798392,58.068544,67.33092,75.827839,0.0,6.203499,36.415558,48.008423,51.267471,56.958618,59.846535,67.140427,63.550415,72.557487,0.0,-56.517435,-21.940014,-67.344876,-14.853784,-62.266645,-9.431418,-53.60896,-6.099243,-44.226355,83.689013,283.696846,20.26906,-60.656457
73,-0.064087,-0.073606,-0.474243,0.697347,0.0,-57.089424,-25.103531,-47.536812,-18.831825,-46.244087,-12.337646,-41.557159,-6.560555,-37.371826,0.0,31.374396,35.520442,30.774676,51.452605,43.757268,62.014024,59.497078,67.84808,75.417137,0.0,6.324921,36.012497,50.116196,50.779839,59.443703,59.409485,69.813652,63.332291,73.564568,0.0,-57.136637,-20.546492,-69.320765,-13.978873,-63.343326,-9.413264,-55.462676,-6.902677,-46.557495,83.620834,283.599512,19.790726,-59.982837
74,-0.158615,0.444603,0.35923,-1.660438,0.0,-57.229042,-24.791565,-48.317184,-18.397522,-47.419739,-11.913872,-43.449326,-6.218376,-40.247726,0.0,30.696747,35.073864,30.758868,51.135084,43.586714,61.859401,60.024364,67.821342,77.719501,0.0,5.814857,36.5308,46.379471,51.570282,54.382553,60.322723,64.569855,64.195747,70.400162,0.0,-56.078945,-19.524153,-66.752504,-12.778908,-60.261424,-8.150838,-52.345948,-5.965923,-44.600501,83.460875,284.041784,20.148611,-61.645606
75,0.264473,-0.149436,0.024147,-0.703306,0.0,-57.125473,-24.88266,-48.063812,-18.446503,-47.109146,-12.055893,-43.198929,-6.480331,-40.147476,0.0,31.332715,35.448874,30.745345,51.405674,43.561458,62.055583,60.013126,67.947128,77.846892,0.0,5.450363,36.050377,48.235703,50.919685,57.509537,59.546814,66.499672,63.528442,71.680641,0.0,-55.888044,-19.850133,-66.905151,-13.061046,-61.072763,-8.186252,-52.955239,-5.530645,-44.577375,83.78108,283.889106,20.228491,-62.352154
76,-0.193634,0.176853,-1.29158,0.338114,0.0,-57.144012,-24.873962,-48.054886,-18.428307,-46.824417,-12.000275,-43.048782,-6.37825,-40.308151,0.0,30.604677,35.348776,30.456353,51.23407,43.151744,61.868602,60.020659,67.833013,78.162498,0.0,6.248932,36.787605,46.11866,51.316223,55.896492,59.720993,66.550255,63.695183,72.203178,0.0,-56.034979,-19.83874,-66.906571,-13.287515,-60.260838,-8.64478,-52.095025,-6.068306,-44.41031,83.522758,284.060617,18.872223,-62.019381
77,-0.541878,0.523335,0.077591,-0.056255,0.0,-57.142754,-24.979591,-48.389854,-18.150215,-47.857933,-11.696892,-43.889694,-6.176834,-41.849556,0.0,31.415028,34.215224,30.266162,50.168628,43.492544,61.086719,60.562025,67.496226,79.439682,0.0,5.297585,37.198906,44.109535,51.5728,53.615112,59.729919,64.851608,63.343964,70.489311,0.0,-56.493877,-19.883447,-66.10184,-13.068826,-58.922614,-8.154821,-50.941002,-5.37948,-43.40668,82.929955,284.595299,18.898888,-62.064289
78,-0.353737,0.117264,0.365639,-0.182503,0.0,-57.392807,-23.799591,-47.4543,-17.201385,-46.190414,-11.049271,-42.106361,-5.851936,-39.444008,0.0,32.571675,34.303589,30.392565,50.450395,43.267217,61.415848,59.646822,67.825171,78.241045,0.0,5.673065,35.85022,44.317703,50.696526,52.657928,59.281998,63.580742,63.350487,70.442505,0.0,-56.723836,-19.94881,-67.130262,-13.001889,-60.182723,-8.221882,-52.581093,-5.713333,-44.796342,82.455883,284.662946,19.144192,-62.296409
79,0.244331,0.049647,-0.039711,0.605741,0.0,-58.034592,-24.27887,-49.060249,-17.712135,-48.479233,-11.308136,-44.37561,-5.823784,-41.75869,0.0,31.813442,34.087215,31.299308,50.36765,43.841125,61.344403,60.369982,67.629669,78.752462,0.0,4.935837,35.707397,43.873672,50.408707,54.546089,59.011574,65.454369,63.082237,71.722298,0.0,-56.871172,-21.320379,-67.460781,-14.601935,-61.393464,-9.487611,-53.499353,-6.340193,-45.464235,82.616329,284.657281,19.020596,-61.745981
80,-0.09922,-0.042299,-0.373993,-0.553037,0.0,-58.97049,-24.295921,-49.929199,-17.758255,-49.579697,-11.46389,-45.756798,-6.203499,-43.044434,0.0,32.076005,33.5293,32.042227,50.346963,44.55601,61.647968,61.285123,68.024316,80.049838,0.0,4.889832,37.276154,44.21711,51.308784,54.862404,59.244919,64.988823,62.737427,70.974426,0.0,-56.61639,-21.153406,-66.517173,-14.375866,-60.773304,-9.172838,-52.721174,-5.984263,-45.048222,82.445841,284.61157,18.575335,-62.30243
81,-0.012589,-0.173951,0.005836,0.110996,0.0,-59.778671,-23.613625,-50.238304,-17.153664,-49.440651,-11.00235,-45.96508,-5.855255,-42.710838,0.0,32.114166,33.627298,32.461512,50.520112,44.885572,61.825068,61.390716,68.12219,78.948149,0.0,5.098915,37.595444,45.638237,51.74469,55.93483,59.647865,66.295624,63.15937,71.951637,0.0,-56.823933,-21.185794,-66.579479,-14.338199,-60.879145,-9.045139,-52.397386,-5.682921,-44.553818,82.402754,284.363966,18.550673,-62.265086
82,-0.049095,0.322522,-0.83004,0.446363,0.0,-60.473099,-24.702301,-51.20636,-17.787209,-50.390167,-11.07193,-46.948013,-5.33123,-44.279251,0.0,31.98412,33.42908,31.915824,50.342764,44.986904,61.565964,62.110355,67.740881,81.282932,0.0,4.033813,37.956619,46.298218,52.241592,55.835953,60.103569,65.92907,63.399239,71.847038,0.0,-57.56642,-21.144391,-67.821836,-14.070696,-61.066526,-8.664818,-52.317604,-5.225968,-43.934121,82.310743,284.656679,17.677717,-61.848533
83,-0.710678,0.172407,0.870552,0.033345,0.0,-60.503998,-23.934631,-50.527382,-16.830482,-49.842453,-10.147133,-46.680679,-4.630966,-44.275703,0.0,32.588718,33.196836,32.697955,49.961394,46.359431,61.167365,63.058965,67.510676,81.63917,0.0,4.296112,37.662048,45.088806,52.058372,54.018288,60.00206,64.346008,63.28846,70.434952,0.0,-57.670192,-21.399544,-66.590409,-14.370741,-60.078952,-8.988205,-51.555419,-5.546484,-43.430516,81.59606,284.811533,18.544264,-61.832741
84,-0.528946,0.070889,-1.047935,-0.193433,0.0,-60.95089,-23.544159,-51.450806,-16.019211,-50.248375,-9.231033,-47.454643,-3.833656,-45.360603,0.0,32.493067,31.712233,33.88276,48.889036,47.678913,60.660702,64.585744,67.544515,82.393389,0.0,4.956894,37.875023,45.09819,52.278214,55.483131,60.402946,66.220665,63.896027,71.678696,0.0,-58.095158,-20.485545,-66.634314,-13.356583,-60.115817,-8.029283,-51.579471,-4.738603,-43.279474,81.076097,284.87211,17.505312,-62.036486
85,0.315971,-0.057366,-0.01442,1.965701,0.0,-61.887932,-24.537277,-56.426582,-17.707329,-53.926849,-11.043205,-50.639648,-5.388222,-46.011887,0.0,33.4686,31.694881,36.414465,48.793138,48.652594,60.457235,65.398441,67.077682,80.066696,0.0,5.308456,37.130356,48.181801,51.503792,57.078896,59.888191,67.29641,63.742332,73.708076,0.0,-58.829031,-23.305593,-67.842862,-16.221092,-61.666184,-10.412756,-52.846188,-6.391013,-44.643109,81.462536,284.806624,17.561359,-60.078906
86,-0.442657,0.357041,0.202789,1.50177,0.0,-62.555466,-24.63913,-57.740364,-17.215004,-55.724831,-10.131111,-52.17865,-4.354134,-46.725769,0.0,33.965938,32.034693,38.300384,48.536565,52.064304,59.893454,67.711612,66.223859,82.353807,0.0,5.045128,37.114677,46.275558,51.60759,55.566559,59.946785,68.295364,63.373146,73.02166,0.0,-58.617536,-22.498454,-68.933127,-15.367856,-63.284169,-9.740078,-55.413523,-6.185662,-46.368168,81.187191,285.1919,17.931461,-58.5489
87,-0.838737,-0.214089,0.233002,0.301651,0.0,-62.852554,-26.522026,-59.262543,-18.478317,-58.832359,-10.700455,-55.202637,-4.205246,-48.005791,0.0,31.89841,33.177385,39.007118,49.127208,55.343621,60.005469,71.741999,65.982847,86.178196,0.0,5.585518,37.160339,41.998444,51.589737,51.329269,59.931564,63.477058,63.56472,69.764786,0.0,-57.873783,-21.588129,-63.756868,-13.821564,-57.764824,-7.470719,-49.682375,-3.381669,-42.061756,80.325422,284.974276,18.141432,-58.250785
88,0.232315,0.160551,1.798096,3.952891,0.0,-63.544006,-27.239571,-64.602814,-19.291534,-64.797935,-11.522141,-59.793663,-4.860764,-49.572144,0.0,30.850629,32.88864,43.052202,48.593437,62.091213,59.431622,77.607547,65.406654,87.905231,0.0,6.627274,34.780884,40.947304,50.084839,50.195274,59.566612,62.857933,64.438019,69.774513,0.0,-58.598331,-20.903255,-61.779466,-12.998894,-57.872887,-6.762288,-49.490887,-3.013235,-41.500754,80.647659,285.131292,20.029449,-54.301429
89,-1.493568,-0.320361,2.432671,5.927978,0.0,-63.765965,-26.724586,-69.559422,-18.218422,-68.571568,-10.116005,-63.399754,-3.426247,-50.879517,0.0,32.264529,32.911364,46.664292,48.470677,63.794351,59.146644,79.18595,65.262343,90.854122,0.0,6.825142,37.781982,44.281082,51.982384,52.330284,60.105286,63.905869,63.628693,69.37809,0.0,-57.967396,-17.829413,-61.435392,-9.535838,-59.714285,-3.495012,-50.206636,-0.320083,-41.243965,78.757954,285.313271,22.065983,-47.871112
90,-0.946312,0.325178,4.825401,9.384272,0.0,-63.640938,-26.92337,-75.779915,-18.166466,-73.986969,-9.63398,-67.943115,-2.464714,-53.056297,0.0,31.123072,32.539256,53.61214,48.732869,67.641401,59.5529,82.527203,65.700895,91.105261,0.0,6.141129,37.573128,45.487061,51.167564,50.859604,59.615936,60.463028,64.130287,66.426888,0.0,-60.176672,-15.300641,-59.75538,-7.25836,-56.037048,-2.067774,-45.38115,0.48931,-37.619586,76.941719,286.253112,26.021461,-37.872176
91,0.152435,0.320176,3.188667,12.547066,0.0,-62.84729,-26.447525,-80.223541,-18.150673,-78.915539,-10.235481,-70.592422,-3.586235,-54.282761,0.0,31.033102,32.976758,55.306509,49.039584,68.788724,59.579453,83.972533,65.477111,90.669921,0.0,6.794586,40.032806,41.353111,53.29319,49.317055,61.587753,60.664101,66.393127,67.031708,0.0,-65.115377,-14.17456,-58.20424,-6.375143,-52.17706,-1.015115,-40.672125,2.209862,-32.610022,76.96744,286.776292,29.083414,-25.122105
92,-0.123024,0.344629,7.141571,16.786139,0.0,-62.91441,-26.553612,-84.447899,-18.589325,-83.298798,-10.920868,-73.300781,-4.289131,-55.169563,0.0,30.69897,33.386657,55.570307,49.716615,67.639178,60.337563,82.71937,66.246459,89.81054,0.0,6.300545,32.038879,36.233025,47.070122,46.464958,57.703171,57.02076,65.618019,63.462524,0.0,-69.582834,-14.893427,-53.631962,-5.445707,-45.726828,0.407861,-35.073493,3.304975,-28.24927,76.488876,286.9958,35.869446,-8.461088
93,-0.093842,0.42651,2.500534,16.939836,0.0,-62.565765,-25.834579,-88.167,-17.996635,-87.744083,-10.606041,-76.126213,-4.018593,-56.154556,0.0,30.071401,32.543146,56.933262,49.192416,69.404376,60.166205,83.828222,66.241519,89.462885,0.0,12.049255,32.581444,33.063812,46.999054,43.114929,56.780891,54.074593,63.214417,59.342766,0.0,-65.911618,-12.149579,-38.604227,-1.357737,-30.739849,5.154986,-21.002396,8.704801,-15.111314,75.727501,285.630452,37.702446,6.68689
94,0.858307,0.26034,11.408844,8.80459,0.0,-63.542404,-25.923729,-93.853512,-18.327255,-95.341587,-11.00132,-81.225414,-4.313393,-58.987198,0.0,29.523242,31.635601,57.996728,48.590226,69.512192,59.990093,83.088267,66.242199,89.193221,0.0,11.243134,16.906815,21.346321,30.833702,34.262581,41.526947,43.158531,49.688301,49.366493,0.0,-49.631523,-4.24602,-21.029319,5.609809,-17.680594,10.954955,-12.35987,12.978732,-9.968987,76.101751,281.522027,48.627234,11.122716
95,-1.170044,0.075583,-5.340958,37.380519,0.0,-63.476486,-26.16806,-94.085827,-18.712921,-96.233597,-11.486435,-81.269531,-4.76429,-59.021301,0.0,30.075168,32.32986,59.476453,49.684814,72.087678,61.116174,85.301093,67.101888,89.956703,0.0,32.016563,28.722095,32.088833,40.739937,42.206211,49.071979,49.449291,54.462604,54.441662,0.0,-47.200888,-3.308356,-22.651363,10.50444,-13.343755,21.190148,-3.600265,29.449929,4.817427,73.730993,278.026799,42.085562,44.932425
96,0.557556,-0.187783,-5.340958,37.380519,0.0,-62.768211,-26.529121,-94.871979,-19.405632,-97.213154,-12.069626,-82.265739,-5.08873,-59.491653,0.0,30.033239,31.641282,57.672291,49.24231,71.474249,61.055226,84.483456,67.770707,88.974625,0.0,52.789993,40.537376,42.831345,50.646172,50.149841,56.617012,55.740051,59.236908,59.51683,0.0,-44.770253,-2.370691,-24.273408,15.399071,-9.006915,31.42534,5.15934,45.921126,19.603842,72.869797,274.667453,35.325851,79.141381
97,0.125198,-0.240518,0.843602,30.204535,0.0,-62.713966,-24.929352,-94.81596,-17.881393,-97.287655,-10.964584,-82.444725,-4.535179,-59.285545,0.0,29.515647,30.797339,58.147214,48.759422,71.754164,60.935245,84.541625,67.850365,89.59991,0.0,59.100551,42.194767,45.016193,47.141647,48.923893,48.548526,49.119758,47.124595,48.808651,0.0,-27.013289,1.928913,-14.064212,22.060983,3.375926,40.243639,19.03282,56.708028,34.044268,71.03322,274.315183,34.207678,109.234163
98,-0.241699,-0.004755,0.843601,30.204535,0.0,-62.663898,-25.325203,-95.094967,-18.293953,-96.732502,-11.431961,-81.900272,-4.805374,-58.770332,0.0,28.519181,30.614866,56.898435,48.444742,70.905528,60.482059,84.269243,67.332773,88.79135,0.0,65.41111,43.852158,47.201042,43.637123,47.697945,40.480042,42.499466,35.012283,38.100471,0.0,-9.256325,6.228517,-3.855016,28.722895,15.758767,49.061937,32.906301,67.494929,48.484694,68.380909,274.360214,32.640667,139.488484
99,-0.281525,0.620592,-6.29694,37.068432,0.0,-62.200012,-26.32164,-95.554333,-19.570999,-97.688026,-12.882957,-82.708168,-6.140556,-59.933052,0.0,26.485246,31.082317,55.528132,48.382806,69.380416,59.995774,82.983662,66.501921,87.68787,0.0,61.302395,40.417557,46.529674,38.216171,42.462673,33.62915,36.645241,27.125301,31.224689,0.0,9.710098,6.203972,8.776339,27.366301,26.03734,46.815736,42.740363,63.406311,57.713541,66.941986,274.917141,25.186329,176.493252
100,-1.498489,8.80635,-6.29694,37.068433,0.0,-61.312466,-23.922844,-95.072365,-18.706856,-96.676655,-13.051643,-82.473335,-6.995316,-59.609756,0.0,19.188632,24.135951,44.870505,39.522795,59.469352,50.628298,71.516116,57.099309,78.204797,0.0,57.19368,36.982956,45.858307,32.795219,37.227402,26.778259,30.791016,19.238319,24.348907,0.0,28.676521,6.179425,21.407695,26.009706,36.315911,44.569533,52.574424,59.317693,66.942387,64.351902,283.836139,17.797794,213.674333
101,-4.734421,7.403072,10.749436,30.753712,0.0,-39.994125,-24.736862,-89.916687,-20.141602,-95.380955,-14.287491,-83.382511,-6.189423,-57.261887,0.0,23.222663,24.846081,36.464359,34.365586,50.307505,41.570686,60.693862,46.808912,70.464321,0.0,57.564296,23.023166,29.70972,13.051872,12.202548,4.200325,0.020313,-3.567124,-7.601538,0.0,17.924508,8.365946,20.074133,26.600009,36.52929,43.896639,52.672947,57.9661,68.785698,59.240026,291.337008,28.169775,244.525842
102,8.748779,34.906396,10.749435,30.753712,0.0,-65.184574,-21.828804,-97.412624,-19.878616,-94.913692,-16.558571,-52.908783,-12.770462,-45.06752,0.0,37.988051,15.208324,22.255095,-2.423333,2.366152,-22.880998,-21.06041,-44.116656,-43.960612,0.0,57.934914,9.063377,13.561134,-6.691475,-12.822304,-18.377609,-30.750389,-26.372566,-39.551983,0.0,7.172496,10.552466,18.740571,27.190312,36.742668,43.223745,52.77147,56.614507,70.62901,67.265768,326.285426,38.196173,275.321576
103,-4.588737,0.068543,-27.556629,1.643734,0.0,-69.057999,-21.364517,-90.139961,-18.725739,-59.987354,-15.696144,-42.764053,-13.676834,-34.781113,0.0,37.053705,17.861739,4.721066,0.219399,-15.689421,-20.955311,-30.454809,-42.730606,-42.676821,0.0,61.723022,17.445373,42.861786,1.97339,23.693504,-10.621691,4.934463,-20.527125,-7.626715,0.0,15.629863,20.842,27.619231,38.509472,39.498065,52.90235,51.78192,63.515116,64.246426,61.780729,326.428795,9.743243,277.040135
104,-7.768478,-50.445764,-27.556629,1.643735,0.0,-42.992706,-10.658684,-75.643559,-6.786118,-82.344532,-4.700661,-74.828281,-4.000397,-59.384022,0.0,19.239699,50.024935,52.501497,59.144915,62.086766,61.362434,65.091109,58.47974,67.772189,0.0,65.511131,25.82737,72.162437,10.638256,60.209312,-2.865772,40.619316,-14.681683,24.298553,0.0,24.08723,31.131532,36.49789,49.82863,42.25346,62.580955,50.792369,70.415724,57.863841,52.5844,276.036352,-19.241238,278.737192
105,1.133652,1.86832,-17.064056,3.537928,0.0,-48.604088,-21.352844,-67.395744,-17.329445,-72.311268,-13.961563,-63.132648,-10.462875,-51.512375,0.0,15.324847,43.686811,32.111943,57.17026,42.743326,63.349007,53.437757,64.482929,59.427114,0.0,70.078697,28.571949,86.166115,16.003819,79.961929,4.814301,67.191811,-4.511147,48.61805,0.0,27.262622,33.770436,49.450347,51.408391,61.770666,62.380637,69.34034,67.758357,72.327578,53.074551,277.953903,-36.948795,282.32435
106,-3.624344,-2.855154,-5.91774,0.314618,0.0,-47.954407,-20.702019,-70.304947,-14.70623,-68.260288,-9.185028,-58.15361,-3.885612,-42.533798,0.0,19.19104,37.22815,46.315156,50.862456,59.194007,58.489928,64.894002,61.446538,67.362536,0.0,71.998558,28.986683,88.96328,17.676773,84.581108,7.226372,71.62159,-2.264957,52.464523,0.0,23.876538,32.190799,59.443787,49.858826,71.912369,60.883498,81.27404,66.641045,82.18597,49.197292,275.033541,-43.11945,282.57376
107,-1.479492,-0.638067,-3.148155,-0.179694,0.0,-48.507957,-25.487366,-58.923969,-20.558624,-56.369362,-14.467163,-47.864113,-7.090416,-36.572914,0.0,16.610737,30.320687,27.297325,45.416996,39.846676,55.556722,53.344884,61.595851,62.313823,0.0,71.105804,26.815796,88.936958,16.590443,86.510239,7.301502,73.950119,-0.748272,55.721054,0.0,27.193523,30.445114,57.857543,48.419177,70.475745,60.090623,81.270767,66.934421,84.860133,47.685099,274.425438,-46.300306,282.424031
108,-1.480293,-0.21026,-4.153748,-0.150733,0.0,-48.720016,-27.709579,-48.812428,-22.84893,-37.923889,-15.486946,-26.068039,-6.200867,-18.895683,0.0,15.024369,25.028924,33.441924,39.481114,50.687826,50.27311,63.895745,58.00772,72.599712,0.0,68.265381,26.834393,90.349274,17.074127,89.053116,8.046227,74.779358,0.350475,55.941353,0.0,26.847721,32.566118,57.905523,49.808562,70.670753,60.452974,81.098854,66.481235,85.499559,45.951176,274.304762,-50.707684,282.362882
109,-2.484398,-0.328512,-3.072968,-0.094108,0.0,-45.962849,-25.489311,-52.408218,-19.397278,-43.104515,-11.829872,-29.568329,-2.887115,-22.348251,0.0,14.146834,26.06417,17.092452,41.298552,29.573878,51.909125,45.780582,58.644366,58.975287,0.0,65.729485,28.088951,90.641327,17.868404,87.916145,8.300171,73.07579,0.023003,54.15905,0.0,26.073741,33.444517,59.220498,50.602734,71.659748,61.024536,81.305841,66.630362,83.925849,43.200417,274.004841,-54.047012,282.297365
110,-0.826607,0.916808,-2.764606,-1.039506,0.0,-47.517929,-23.967705,-55.734615,-18.130074,-35.218849,-10.877724,-24.538422,-2.852669,-20.671921,0.0,13.103067,22.943798,15.843365,39.832289,23.343323,50.884562,36.973738,57.240224,49.38483,0.0,65.121403,27.318249,90.528889,17.028923,86.880741,7.601109,72.549992,-0.36272,53.738594,0.0,25.637227,33.701275,59.632002,50.818675,71.660612,61.00385,81.341409,66.074855,83.885403,42.030029,274.950224,-57.155399,281.286434
111,-5.292778,3.671154,-3.165493,-1.488988,0.0,-48.993902,-38.231048,-39.052935,-37.207489,-23.865795,-33.269005,-21.464996,-27.552423,-26.98019,0.0,15.388296,21.672203,32.726391,39.914139,44.099088,53.63647,54.229737,63.541823,62.013747,0.0,63.964462,24.878826,90.512123,14.790745,87.61631,6.209679,73.747101,-0.560417,54.884548,0.0,27.728961,33.631683,60.950991,50.774585,73.459278,61.110739,82.638971,66.104372,84.284434,36.675253,278.492505,-60.382891,279.668573
112,-5.292778,3.671155,-1.352921,-0.343826,0.0,-50.469875,-52.494392,-22.371254,-56.284904,-12.512741,-55.660286,-18.391571,-52.252178,-33.28846,0.0,17.673524,20.400607,49.609416,39.995989,64.854852,56.388377,71.485735,69.843421,74.642663,0.0,62.443886,23.910198,88.651543,13.58923,86.119194,4.85836,72.395782,-2.055016,52.240276,0.0,28.586118,32.926184,60.12156,50.150844,73.843798,60.840643,83.171321,66.00199,85.126833,31.17219,281.907103,-61.946096,279.068189
113,-0.86998,-0.240086,-2.181358,-0.618924,0.0,-48.500347,-48.172531,-25.12825,-49.243984,-10.764198,-46.933994,-15.39711,-41.624165,-30.183105,0.0,16.872189,21.698292,55.025051,37.733763,68.540302,51.364795,71.490366,62.307092,72.744641,0.0,61.434288,21.513348,87.259712,11.656837,85.656509,3.748112,72.385254,-2.134323,52.926006,0.0,29.663478,33.609699,60.859168,50.579268,74.121181,61.019905,83.57134,65.88664,85.628802,30.132923,281.589567,-64.296741,278.371814
114,-4.232254,-5.962682,-2.335625,-0.239345,0.0,-45.468407,-34.529915,-44.490795,-31.491108,-27.763653,-26.379547,-20.531387,-19.028206,-23.780136,0.0,17.297093,28.086496,42.88986,42.69053,64.164853,54.45423,71.168276,63.651522,76.406996,0.0,60.866318,20.705452,86.053734,10.779076,84.741898,3.04842,72.51091,-2.599869,53.468742,0.0,29.986741,33.825023,61.759922,50.625087,74.013118,60.979335,83.63482,65.732634,85.012842,25.842218,275.519486,-66.690817,278.02507
115,-1.159859,0.786268,-1.490479,-0.125662,0.0,-44.705772,-29.6628,-50.670547,-26.310596,-34.797363,-20.617905,-23.147278,-12.826424,-19.68853,0.0,15.456622,24.470145,37.540175,38.16478,57.882798,49.386621,66.466353,58.319497,72.489797,0.0,59.305,18.894939,84.802208,8.998661,83.804398,1.658478,72.102814,-3.377724,53.136005,0.0,30.153035,33.22271,61.098945,50.172333,73.19122,60.739187,83.365156,65.753629,85.165983,24.564686,276.2275,-68.298969,277.821155
116,-0.345497,1.688256,-1.879807,-0.506045,0.0,-44.868908,-26.558075,-51.916466,-22.53994,-34.018421,-16.056747,-21.945877,-7.422409,-18.988266,0.0,10.840717,20.970687,26.857601,34.168232,44.142653,45.016791,54.798612,54.187963,63.348204,0.0,58.544083,18.06015,84.103546,8.051949,83.388176,0.730705,71.900826,-3.989124,52.277126,0.0,30.757016,33.160836,60.810756,50.21667,73.053146,60.876458,83.391338,65.948946,85.488197,24.167604,277.701143,-70.23036,277.100497
117,-1.075058,1.061922,-1.265144,-0.160057,0.0,-45.332336,-26.748562,-50.826931,-21.649361,-26.439514,-13.714828,-16.283684,-3.914223,-13.658295,0.0,7.013427,16.581529,14.880923,30.944428,26.484319,42.13175,38.001945,51.222399,49.089108,0.0,56.948776,16.348743,81.970482,6.47398,81.70372,-0.474129,70.701485,-4.698658,51.310272,0.0,30.992655,32.112499,60.731592,49.108003,72.82893,60.116249,83.436107,65.734549,85.746684,23.094521,278.620452,-71.49353,276.797827
118,-3.592071,2.712665,-2.163563,-0.333576,0.0,-49.750071,-41.599817,-37.939425,-40.950279,-20.164318,-36.605129,-16.8536,-30.085716,-22.824068,0.0,14.01336,18.726275,34.782587,33.825733,45.151932,46.152659,52.900682,56.290564,58.805751,0.0,56.433277,16.780586,82.032795,7.102203,81.993198,0.034275,70.673561,-4.494495,51.580868,0.0,30.812282,32.816948,60.973592,49.663078,72.513818,60.4179,83.034853,65.823346,86.185112,19.501534,281.27606,-73.658009,276.407194
119,-3.592072,2.712664,-1.592789,0.040138,0.0,-54.167805,-56.451073,-25.051918,-60.251198,-13.889122,-59.49543,-17.423515,-56.25721,-31.989841,0.0,21.013295,20.871022,54.684251,36.707038,63.819545,50.173568,67.799421,61.358729,68.522394,0.0,55.003567,16.07975,81.955547,6.750469,82.135677,0.045319,70.669842,-4.190197,51.492691,0.0,30.83371,32.954466,60.954449,49.560757,72.297012,60.250433,82.914995,65.707378,86.548513,15.971203,283.86317,-75.189056,276.321778
120,0.351791,-1.717094,-1.296444,0.32351,0.0,-48.483067,-47.556496,-28.877163,-49.293766,-13.567886,-47.531033,-17.587738,-42.66655,-32.681694,0.0,17.660494,20.477548,52.059611,36.854622,65.900287,51.180964,69.920115,63.413536,72.53296,0.0,54.751339,15.388012,81.574402,6.084824,81.817474,-0.385838,70.718021,-4.279976,52.009163,0.0,31.291713,32.272186,60.438833,49.116648,72.200866,60.219311,83.123588,66.137285,87.182134,16.550817,281.977236,-76.257677,276.476447
121,-4.453926,0.540655,-2.04689,0.35278,0.0,-49.710846,-49.927283,-25.678168,-52.987376,-12.665921,-51.934691,-15.814162,-47.969971,-30.310421,0.0,20.852806,21.0417,52.526661,37.35088,64.276931,51.274609,67.933049,62.809833,69.85679,0.0,55.445194,15.334854,82.081833,6.424484,83.18058,0.356884,72.214966,-3.028564,53.853664,0.0,30.322602,32.654482,60.231352,49.474986,72.485412,60.615933,83.304579,66.557373,87.919743,12.282801,282.218463,-78.118658,276.5298
122,-4.453926,0.540656,-0.073357,0.676105,0.0,-50.938625,-52.298069,-22.479172,-56.680984,-11.763954,-56.338348,-14.040585,-53.273392,-27.939148,0.0,24.045116,21.605852,52.99371,37.847136,62.653574,51.368253,65.945982,62.20613,67.18062,0.0,54.326077,15.278549,80.784416,6.084709,81.513863,-0.474529,70.127678,-4.466171,51.556034,0.0,30.593995,32.725125,60.015843,49.256451,72.132818,60.079261,82.698869,65.837178,86.863317,7.974672,282.633272,-78.046217,277.080058
123,3.02021,-0.003952,-1.167984,0.078114,0.0,-48.846073,-51.919556,-23.118153,-55.175972,-9.499626,-53.819675,-16.00399,-49.198837,-29.456806,0.0,23.450151,19.512574,55.398765,36.571187,65.978586,51.499103,70.255728,64.123913,71.627884,0.0,54.358749,14.721508,81.447716,5.631237,82.174988,-0.612831,71.029816,-4.027634,52.602825,0.0,29.535469,32.660225,60.024056,49.328267,72.541605,60.372699,82.820147,66.334392,86.733579,11.164827,282.453023,-79.044256,276.981874
124,-1.218739,-0.878461,-0.740604,-0.286769,0.0,-49.78323,-53.146019,-22.418546,-57.551937,-11.431589,-56.839428,-17.718544,-53.121986,-30.825376,0.0,23.074585,20.816033,54.243692,38.55001,64.544278,53.636346,69.595616,65.883151,71.41182,0.0,54.612637,14.465046,80.711231,5.249062,81.467228,-1.12524,70.648785,-4.540958,52.049847,0.0,29.462171,32.595078,60.406167,49.108559,72.35623,60.160895,82.868744,66.109312,87.108713,10.216999,281.483325,-79.51395,276.603869
125,-1.218738,-0.878462,-0.81316,-0.1256,0.0,-50.720387,-54.372482,-21.718941,-59.927902,-13.363552,-59.85918,-19.433098,-57.045135,-32.193947,0.0,22.699019,22.119492,53.08862,40.528833,63.109971,55.77359,68.935505,67.642389,71.195755,0.0,55.118694,13.429356,80.69561,4.490948,82.014771,-1.251869,71.210289,-3.764534,52.652321,0.0,29.129769,32.254895,60.002814,48.994629,71.962633,60.271984,82.119773,66.373912,86.936614,9.383297,280.570762,-79.942074,276.444167
126,0.091438,2.804827,-0.684643,-0.25435,0.0,-47.744122,-53.927822,-21.794472,-57.918377,-8.524704,-56.684132,-15.513611,-51.945934,-29.097977,0.0,21.393739,17.47018,52.459321,34.870025,63.794165,50.42409,69.24191,63.906242,71.202239,0.0,55.930138,14.037437,81.369381,4.981556,82.525692,-0.895157,71.353397,-3.557339,52.429104,0.0,29.564059,32.382534,60.374181,49.126467,72.420945,60.379862,82.80088,66.431402,87.648905,9.842091,283.315707,-80.259361,276.129935
127,-3.170815,-2.266734,1.134968,0.110657,0.0,-44.404678,-38.926163,-22.21796,-38.091545,-11.461086,-34.549084,-11.264305,-28.855476,-21.432209,0.0,22.203904,26.370019,51.78618,41.240568,63.814234,53.590466,67.532597,63.583411,71.758301,0.0,54.917564,14.280396,80.792313,4.97263,82.018661,-1.325684,70.704689,-4.476414,51.919212,0.0,29.919186,32.657755,60.684291,49.531117,72.952307,60.778399,83.060356,66.874399,87.217023,7.104979,281.052585,-78.690691,276.244204
128,1.930333,0.090804,0.434933,0.565078,0.0,-47.350645,-46.015234,-23.225813,-47.133952,-12.017298,-44.687233,-13.130608,-39.827957,-24.534045,0.0,22.564773,24.644805,52.962402,40.355283,63.671529,53.368843,67.674067,63.83915,70.305468,0.0,55.02634,14.856319,81.2673,5.492878,82.152386,-1.029282,70.952454,-4.433842,52.178936,0.0,29.678298,32.562289,60.205787,49.284301,72.053468,60.399498,82.48583,66.383978,86.60804,9.38962,281.141645,-77.901449,276.807537
129,1.930332,0.090804,1.083698,0.49635,0.0,-50.296612,-53.104305,-24.233665,-56.176357,-12.573509,-54.825382,-14.99691,-50.800438,-27.63588,0.0,22.925643,22.919592,54.138624,39.469999,63.528824,53.147221,67.815537,64.09489,68.852636,0.0,54.844723,14.523239,81.215172,5.192127,82.045326,-1.336269,70.836296,-4.834614,52.140427,0.0,29.269881,32.3997,59.606932,48.924419,71.617943,59.91519,81.895496,65.815874,86.249147,11.940565,281.230874,-76.197138,277.302313
130,3.305969,1.160784,1.439724,0.259722,0.0,-49.845314,-53.43338,-22.884464,-56.502514,-8.806,-55.051517,-14.789314,-50.436573,-28.835564,0.0,23.284228,19.719685,55.423712,36.398101,64.515904,51.321755,69.118348,64.105264,71.047801,0.0,54.575043,14.727688,81.015987,5.116196,81.29179,-1.733437,70.052891,-5.527382,51.476326,0.0,30.059854,32.222168,59.00468,48.568366,71.308573,59.423965,81.717902,65.285808,85.898899,15.878735,282.36966,-74.125214,277.540036
131,-2.425804,-2.374056,1.152935,0.486099,0.0,-43.161049,-38.991966,-25.890141,-38.252964,-13.710251,-35.28162,-13.229828,-29.839497,-22.975101,0.0,21.461788,26.208727,47.698488,42.221227,62.256951,55.271744,67.248545,66.14383,71.740332,0.0,54.52692,14.462585,81.139297,4.98436,81.71505,-1.712151,70.774441,-5.360241,52.612839,0.0,29.961423,32.289661,58.315298,48.748801,70.513722,59.634966,80.723411,65.401837,84.901012,13.994722,279.943748,-72.430487,277.974281
132,-0.424805,-2.452232,0.955238,-0.061874,0.0,-43.798656,-29.37315,-35.483208,-27.438011,-21.174316,-23.811607,-14.138432,-18.500347,-19.289474,0.0,20.263706,25.523483,44.274181,41.726482,61.571151,54.947184,67.601881,66.160997,74.585112,0.0,54.955673,15.029583,80.713921,5.083466,80.854912,-2.077332,69.940624,-6.222668,51.868515,0.0,29.067339,31.939351,59.244519,48.620854,70.624317,59.754206,81.236063,65.732634,85.21526,14.134026,277.441081,-70.91114,277.861972
133,0.759831,2.657553,-0.263329,-0.345679,0.0,-46.888075,-42.383194,-27.758503,-42.825051,-15.222531,-39.759693,-12.210017,-34.432926,-20.357809,0.0,20.680058,23.602458,47.991401,40.687223,62.004514,54.559761,67.473254,65.809019,71.97665,0.0,56.368446,15.395966,82.435684,6.028633,82.54303,-0.724983,71.7132,-4.671993,53.271503,0.0,30.355082,32.361291,58.808067,49.19081,70.779063,60.280937,81.349931,66.000322,85.256386,15.698576,279.94645,-70.369749,277.364109
134,0.75983,2.657552,0.268707,0.875374,0.0,-49.977493,-55.393238,-20.033798,-58.21209,-9.270744,-55.707779,-10.281601,-50.365505,-21.426144,0.0,21.096411,21.681434,51.708622,39.647964,62.437879,54.17234,67.344629,65.457042,69.36819,0.0,56.613121,16.131306,82.988548,6.797333,82.982254,0.009727,71.987801,-4.006577,53.676167,0.0,30.09925,31.658942,57.98975,48.509456,70.232449,59.67356,80.932128,65.452596,84.78171,16.983633,282.464199,-69.575815,278.09968
135,4.416962,0.18803,0.495014,-0.005743,0.0,-46.205006,-51.168652,-20.047131,-55.688324,-8.046913,-55.048027,-15.631485,-51.130543,-30.386009,0.0,15.325773,17.224104,49.403417,36.442314,63.955457,52.934923,71.150924,67.034703,73.513989,0.0,56.860142,16.282997,81.81982,7.070217,82.627201,0.32095,71.91576,-3.882751,53.950253,0.0,29.762525,31.800165,57.715331,48.848404,70.068748,60.063452,80.654621,65.937584,84.364833,21.972685,282.475345,-68.508711,277.917053
136,-0.52145,-0.096948,0.951233,0.139124,0.0,-48.604403,-53.186531,-19.01762,-57.911854,-8.626785,-57.284718,-14.094887,-53.653708,-28.262215,0.0,16.160546,18.956327,49.236876,37.83176,62.932963,53.871708,69.576566,67.317304,72.292133,0.0,56.800976,16.256561,81.724949,6.849804,82.777691,0.001488,71.785641,-4.202785,53.661289,0.0,29.714298,31.846416,57.833398,48.957209,70.090176,60.165896,81.105029,65.954936,84.688591,22.01314,282.298894,-66.995573,277.976673
137,-0.52145,-0.096948,0.344524,0.195749,0.0,-51.003799,-55.204411,-17.98811,-60.135384,-9.206657,-59.521408,-12.558289,-56.176872,-26.13842,0.0,16.995319,20.688549,49.070335,39.221206,61.910469,54.808492,68.002209,67.599905,71.070278,0.0,56.986656,16.474171,82.19696,7.251434,83.148766,0.570202,72.465935,-3.487244,54.561253,0.0,29.669776,31.888777,57.243929,49.036867,69.556467,60.321322,80.320058,66.21861,84.143581,22.022438,282.148392,-66.1203,278.118869
138,1.809425,0.319682,0.558414,0.513208,0.0,-43.763294,-51.060905,-17.299232,-56.578217,-8.239632,-56.502113,-15.558929,-52.558365,-30.500221,0.0,17.283446,19.042592,51.436179,37.043763,65.486435,52.78135,71.176921,66.362612,73.435689,0.0,56.644192,17.19698,82.534847,7.74416,82.580509,0.604191,71.405582,-4.111633,53.310699,0.0,29.340523,31.447447,56.656682,48.526376,69.00448,59.710178,80.134004,65.670637,84.038482,24.211235,282.432027,-65.182514,278.59603
139,0.889778,1.103665,0.26556,0.184881,0.0,-39.987488,-44.19445,-18.628807,-47.259579,-12.321396,-45.880966,-15.846291,-41.340237,-28.44389,0.0,18.691541,17.634127,45.644176,34.772583,61.677855,49.386065,67.549949,61.850695,73.165593,0.0,56.844063,17.777367,83.484077,8.414268,83.104477,1.311321,71.835594,-3.396492,53.797245,0.0,28.861031,31.063174,56.08475,48.117341,68.421124,59.273973,79.695761,65.191824,83.824208,25.458612,283.501714,-64.559355,278.746933
140,-0.510807,-1.718699,0.657349,-0.15944,0.0,-43.653116,-50.327482,-18.622055,-54.526663,-11.930065,-53.550396,-15.688133,-49.424343,-28.41136,0.0,19.134106,21.024996,48.328249,38.606542,62.97415,53.111066,68.163964,65.086725,72.220348,0.0,56.426868,17.457905,83.404312,8.04348,83.271332,0.73225,71.597672,-4.444141,52.909698,0.0,28.731602,31.222058,56.044674,48.176745,68.450517,59.197218,79.329087,64.984034,83.9248,25.175628,281.733461,-63.674183,278.537938
141,-0.510807,-1.7187,-0.145397,0.236072,0.0,-47.318745,-56.460514,-18.615303,-61.793747,-11.538734,-61.219826,-15.529976,-57.50845,-28.37883,0.0,19.576671,24.415866,51.012324,42.440502,64.270446,56.836067,68.777979,68.322755,71.275104,0.0,57.340279,17.192802,83.743916,7.87611,84.056797,0.973377,72.899494,-3.459949,53.643322,0.0,28.356592,30.462775,56.233136,47.730166,68.421432,59.173382,79.342425,65.142547,83.998777,24.98188,280.048153,-63.502522,278.807402
142,0.161018,0.883216,0.464687,0.112077,0.0,-42.408028,-49.294567,-17.277832,-54.497051,-8.409233,-54.142399,-15.149918,-49.765949,-29.053173,0.0,21.151492,19.703074,50.595879,37.930685,66.26659,53.849632,72.295221,67.624976,75.037372,0.0,56.675549,17.874641,83.960037,8.408432,83.35453,1.127357,71.237068,-3.919201,52.392426,0.0,28.684548,30.317291,55.92741,47.482238,68.372156,58.741314,79.322603,64.670527,83.766904,25.380735,280.937004,-62.799997,278.925113
143,0.919647,1.919635,0.307846,0.325425,0.0,-40.559578,-41.568546,-21.058044,-44.186668,-12.709351,-42.846909,-14.854889,-38.31007,-29.049454,0.0,14.626141,18.180186,44.031811,35.801222,61.058869,50.669362,68.061428,63.71142,74.45383,0.0,56.907578,16.909161,83.284264,7.714348,83.230591,0.727043,71.63681,-4.012527,53.354073,0.0,28.575868,30.233434,55.405434,47.578631,68.027897,58.989736,79.351626,64.940438,83.929554,26.5977,282.840537,-62.194834,279.234437
144,-1.859093,-1.305065,0.128517,-0.283187,0.0,-43.996382,-45.916443,-22.699385,-48.407335,-14.371347,-46.672697,-15.806551,-41.99976,-27.656107,0.0,19.454159,24.755185,48.779862,40.940307,62.445197,53.891623,67.158637,64.394565,71.634708,0.0,56.651745,16.591587,82.990036,7.304592,83.231392,0.323067,71.653748,-4.325695,52.964973,0.0,28.761736,30.078811,56.043809,47.332123,68.16665,58.691729,79.694526,64.577099,84.412998,24.879742,281.489932,-61.925182,278.905708
145,-1.859093,-1.305064,0.65443,0.030566,0.0,-47.433186,-50.264339,-24.340725,-52.628002,-16.033344,-50.498486,-16.758213,-45.689449,-26.26276,0.0,24.282176,31.330183,53.527912,46.079392,63.831524,57.113882,66.255846,65.077709,68.815585,0.0,55.995026,18.153877,82.711315,8.689156,82.841434,1.134624,70.634937,-4.440594,51.819305,0.0,29.711828,30.196939,55.421983,47.447041,68.681216,58.96059,80.267508,65.308471,84.63814,23.090429,280.163919,-61.200972,278.915326
146,3.230896,-1.447924,-0.328903,-0.162095,0.0,-45.818939,-49.452152,-17.089005,-53.621178,-6.937637,-52.677784,-15.258064,-48.606491,-29.461727,0.0,23.712467,21.423688,52.899602,40.751937,66.518532,57.489695,73.616742,71.447326,76.506784,0.0,56.280499,17.511635,83.55669,8.210106,83.550282,0.984192,71.636982,-4.175434,52.741928,0.0,30.054728,30.426775,55.397653,47.688238,68.528199,59.09218,80.139746,65.095741,84.42751,26.393967,278.666626,-61.457233,278.703862
147,-1.870422,-0.156383,-0.218639,0.296711,0.0,-45.945768,-50.732059,-19.377823,-54.196529,-10.220489,-52.479887,-14.517517,-47.670507,-26.344786,0.0,23.789902,24.98292,51.674041,43.623362,65.475598,58.98424,71.126502,71.189271,74.200375,0.0,56.172924,17.367039,82.891159,8.273048,83.650017,1.22858,71.961937,-3.817806,52.945404,0.0,30.181996,29.763081,55.310956,47.145081,68.289348,58.776697,79.814939,65.080735,84.493644,24.633322,278.445807,-61.566095,278.936136
148,-1.870422,-0.156383,0.253201,-0.102876,0.0,-46.072598,-52.011967,-21.666641,-54.771881,-13.503342,-52.28199,-13.77697,-46.734524,-23.227844,0.0,23.867337,28.542152,50.448481,46.494787,64.432665,60.478786,68.636262,70.931216,71.893967,0.0,55.994968,17.482052,83.386631,8.23534,83.47887,0.910606,71.375141,-4.507656,52.348309,0.0,30.243376,30.214785,55.15096,47.721706,68.570004,59.242049,80.20724,65.342433,84.523902,22.839174,278.289532,-61.23662,278.833368
149,2.916183,2.709917,0.162907,0.094416,0.0,-46.915913,-51.284809,-15.636292,-55.775928,-4.376106,-54.587688,-10.361481,-49.642239,-25.41338,0.0,22.421822,19.44928,52.76937,37.215615,66.037805,53.154322,71.949048,66.776031,74.631177,0.0,55.452118,17.165623,82.752113,8.131256,83.447456,0.997982,71.019974,-4.294109,51.819878,0.0,30.624561,30.445608,55.628661,47.636614,68.793108,58.975101,80.031436,65.07561,84.563237,25.809574,281.001656,-61.019497,278.929992
