takenoko1/special-research/HandMotion_SimilarSearch_自分用/NewProject/handData/test_key/d4_feature_d2/37.csv
frame,vel_0x_L,vel_0y_L,vel_0x_R,vel_0y_R,posFromWrist_0x_L,posFromWrist_1x_L,posFromWrist_2x_L,posFromWrist_3x_L,posFromWrist_4x_L,posFromWrist_5x_L,posFromWrist_6x_L,posFromWrist_7x_L,posFromWrist_8x_L,posFromWrist_9x_L,posFromWrist_0y_L,posFromWrist_1y_L,posFromWrist_2y_L,posFromWrist_3y_L,posFromWrist_4y_L,posFromWrist_5y_L,posFromWrist_6y_L,posFromWrist_7y_L,posFromWrist_8y_L,posFromWrist_9y_L,posFromWrist_0x_R,posFromWrist_1x_R,posFromWrist_2x_R,posFromWrist_3x_R,posFromWrist_4x_R,posFromWrist_5x_R,posFromWrist_6x_R,posFromWrist_7x_R,posFromWrist_8x_R,posFromWrist_9x_R,posFromWrist_0y_R,posFromWrist_1y_R,posFromWrist_2y_R,posFromWrist_3y_R,posFromWrist_4y_R,posFromWrist_5y_R,posFromWrist_6y_R,posFromWrist_7y_R,posFromWrist_8y_R,posFromWrist_9y_R,posFromBody_0x_L,posFromBody_0y_L,posFromBody_0x_R,posFromBody_0y_R
2,5.008621,1.162884,-1.077461,-0.497461,0.0,-58.94474,-47.7705,-10.715561,-46.897488,0.520363,-41.725216,0.715256,-33.907242,-21.506424,0.0,36.358951,3.530765,33.457485,-4.705011,27.206614,-13.302459,18.005556,-22.382301,5.616385,0.0,57.352066,19.543762,80.932503,8.732872,78.671265,-0.244331,65.806503,-7.256012,45.93195,0.0,22.50821,28.14133,58.0042,45.370683,73.070559,57.382435,80.974983,64.337013,82.04098,27.25256,323.989206,-48.518658,276.930328
3,0.937271,2.768765,0.652714,0.053599,0.0,-47.931747,-39.205799,-12.43515,-38.684692,-1.994362,-35.24826,-1.015778,-29.530849,-14.900436,0.0,32.487077,5.25391,26.131663,-3.065105,22.2228,-11.586971,12.304943,-20.735171,-0.363833,0.0,56.413937,19.290276,80.748653,8.364029,78.467617,-0.673256,65.65836,-7.884178,45.611343,0.0,23.19611,28.461074,59.190919,45.7297,73.432972,57.639131,80.665922,64.548817,82.130765,28.974981,326.546383,-47.080793,276.77234
4,-2.830696,-24.656322,-0.183849,-0.542971,0.0,-32.314625,-29.363937,-0.456619,-30.659866,4.501762,-29.629669,-3.02845,-26.273518,-13.238297,0.0,-9.0607,15.281127,28.271376,27.921993,41.681158,37.960757,47.389921,45.629232,51.639214,0.0,57.638168,20.456829,81.076469,9.209404,78.777122,-0.487747,65.516281,-8.325634,44.451427,0.0,21.988457,28.939269,58.853762,45.881915,73.458661,57.454374,81.518757,63.930325,83.878055,26.757431,301.709287,-46.651497,276.048594
5,-5.340843,20.519168,0.552864,0.120105,0.0,-64.725437,-48.151245,-0.473785,-49.07999,11.291313,-45.45187,11.514015,-40.112514,-62.603474,0.0,35.213172,2.132427,30.128644,-2.495705,24.660645,-8.695508,18.375688,-14.219576,19.083841,0.0,57.191849,19.566422,80.584717,8.535118,78.767395,-0.735569,66.14399,-8.203068,45.064774,0.0,22.482708,28.747904,59.052104,45.806394,73.327997,57.644751,81.350549,64.427169,83.577083,21.841106,322.105448,-45.674114,276.045692
6,1.303482,0.221128,0.635948,0.113744,0.0,-43.193607,-43.198586,-1.203232,-44.146671,7.811165,-40.823421,4.351501,-35.122204,-19.104767,0.0,30.099189,5.134115,28.142936,2.101058,26.83463,-2.268278,20.753387,-7.737388,14.414893,0.0,57.033691,19.594231,80.464439,8.486824,78.346481,-0.978355,65.40493,-8.692532,44.012947,0.0,22.425774,28.945444,59.041668,45.820843,73.33164,57.459746,81.103979,64.058951,83.429129,23.645668,322.150541,-44.537086,275.983401
7,-3.253441,-3.879346,-0.010586,0.109051,0.0,-63.788223,-46.524181,2.017593,-47.672882,11.938019,-44.515572,10.581436,-39.951153,-66.025314,0.0,35.53588,3.118025,32.28398,1.136887,27.897169,-2.546587,23.050626,-5.635404,25.215904,0.0,57.226238,19.71777,80.168438,8.719254,78.300304,-0.645905,65.685024,-8.163185,44.55431,0.0,22.090778,28.630085,58.369206,45.570013,73.102237,57.302221,81.175795,63.934339,83.577083,20.634813,318.16679,-44.305086,275.988048
8,-0.960274,13.193223,0.002232,-0.551493,0.0,-46.485958,-41.314373,-2.347412,-40.876751,11.410217,-36.484451,11.518021,-30.056648,-12.834549,0.0,30.76492,1.998923,23.77113,-8.754294,17.335749,-20.485082,7.087465,-32.482569,-6.213573,0.0,57.355042,19.398766,80.041237,8.521557,78.589325,-0.842171,66.084137,-8.503475,44.398785,0.0,23.142202,28.911234,59.507143,45.61645,73.90666,57.169519,81.773786,63.752546,83.741524,19.835215,331.311214,-44.142179,275.387757
9,2.33963,-9.262871,0.397625,-0.076324,0.0,-65.90807,-47.511978,0.259781,-48.798351,11.733055,-45.185852,11.92131,-39.671059,-63.087044,0.0,32.512271,1.31831,30.850938,-3.180578,25.028059,-9.396066,18.19692,-14.841156,17.708042,0.0,56.776028,19.815388,80.070591,8.802681,78.301334,-0.876045,65.098286,-8.975601,43.689537,0.0,23.725002,28.629158,58.933914,45.479919,73.541159,57.249795,81.463305,64.142993,83.32545,22.306852,322.01875,-43.612547,275.281839
10,1.878891,-8.498709,0.318661,0.300478,0.0,-37.159996,-42.824478,3.253441,-45.098934,11.55407,-42.64595,5.318413,-38.195057,-41.688194,0.0,28.768344,8.473515,31.138016,10.822501,32.720308,11.300758,31.482892,10.611994,34.764432,0.0,57.137947,19.451866,80.966606,8.397217,79.279976,-1.192245,65.905495,-9.055653,44.516315,0.0,23.068225,28.760193,58.555816,45.573657,72.809849,57.33075,80.800167,64.173189,83.115993,24.243135,313.486989,-43.236494,275.549265
11,-2.385406,5.843503,-0.154896,-0.225389,0.0,-61.145897,-46.009884,2.52491,-48.12458,13.506546,-45.953007,12.254562,-41.805038,-50.038433,0.0,33.555791,2.778583,30.880949,-0.208161,27.69154,-5.03729,22.25491,-9.472637,21.034475,0.0,56.554241,19.89006,80.992184,8.848686,78.438091,-0.881538,64.69408,-8.86179,43.249855,0.0,22.880627,28.521774,57.92942,45.347094,73.019121,57.062382,81.493192,63.776875,83.702128,21.897182,319.312585,-43.351936,275.305968
12,-0.957413,-4.935649,0.880051,0.316656,0.0,-31.646519,-39.827671,7.491989,-43.008728,15.710335,-41.299038,8.797302,-37.237473,-18.033829,0.0,28.569507,8.081709,29.563071,10.488801,32.952613,10.700605,31.601391,9.706486,30.482103,0.0,56.908665,20.201168,80.78825,9.149952,78.049679,-0.602417,64.241009,-8.832321,42.473202,0.0,23.434158,28.874616,57.975918,45.556428,72.75557,57.162542,80.504691,63.92804,82.396971,21.020079,314.367565,-42.391577,275.613254
13,0.776253,11.064254,0.739746,0.357103,0.0,-68.577747,-49.699974,-6.183929,-46.892223,9.148865,-40.026855,15.70015,-31.742306,-38.21291,0.0,33.907028,1.115768,30.248563,-8.942571,22.597316,-20.337128,13.323331,-30.76881,1.840224,0.0,56.115589,18.301163,80.847416,7.180538,78.425732,-2.158585,65.436344,-9.373169,45.027065,0.0,22.841416,27.862218,57.507232,44.547303,72.348944,56.021518,80.195013,62.520193,82.214313,21.769953,325.407366,-41.678209,275.945903
14,3.447075,-0.359696,0.53278,0.342591,0.0,-53.475151,-50.14349,-3.397064,-48.955536,9.354973,-42.425423,11.948662,-33.628235,-28.977299,0.0,33.976806,2.798467,29.980813,-5.292628,23.949156,-14.456018,14.965953,-23.52419,6.080378,0.0,55.646667,17.657604,79.824257,6.620235,78.125381,-2.587509,64.674911,-9.638443,44.096947,0.0,22.190505,27.08052,56.693609,43.876817,71.983937,55.60674,80.358281,62.482154,82.804832,25.138836,325.043748,-41.223621,276.284573
15,-1.649208,-7.466798,0.155296,-0.247496,0.0,-29.571705,-38.702145,1.872253,-39.591064,10.682259,-36.464882,5.475311,-31.103954,-24.478626,0.0,25.665941,9.10306,27.143629,8.346927,29.122544,6.331393,25.182497,3.0388,23.10015,0.0,56.11496,18.262825,80.222626,7.302189,78.334236,-2.108631,65.134277,-9.5121,44.641399,0.0,22.325985,27.754031,56.809823,44.464002,72.146464,55.998299,80.528095,62.567617,82.82237,23.399963,317.567811,-41.15799,276.027939
16,1.207237,4.194458,-0.056591,-0.171851,0.0,-64.096069,-47.420025,-0.542221,-48.752289,10.266838,-45.329361,10.925674,-40.285664,-59.457664,0.0,35.489135,0.860677,30.733674,-4.292456,25.292722,-11.089201,18.906185,-17.229353,15.107979,0.0,56.629086,17.703037,80.058002,6.765175,78.559513,-2.311764,65.199795,-9.222794,44.390545,0.0,22.449671,27.779287,56.879045,44.701432,72.26731,56.390476,80.579348,62.928116,82.647554,24.496765,321.737276,-41.325016,275.831094
17,0.777626,-4.617943,0.127373,0.095343,0.0,-39.858112,-41.80069,2.468033,-43.002434,11.154327,-39.678268,7.472191,-33.97728,-20.785904,0.0,31.344139,7.156379,28.761304,6.371963,29.78173,4.192544,24.952168,0.847833,23.254279,0.0,56.570721,17.908001,80.293179,6.890831,78.575306,-2.34272,65.100346,-9.422264,44.644661,0.0,22.634367,27.785524,56.419622,44.693343,71.860313,56.39554,80.696118,63.034203,83.081968,25.106907,317.101148,-41.365128,275.908251
18,-4.558525,6.358563,0.347385,-0.329315,0.0,-60.923595,-47.265072,1.906929,-47.89896,14.930191,-43.974609,17.666588,-37.817802,-27.027225,0.0,35.174146,2.23024,30.94344,-5.117812,25.847487,-14.211302,17.412875,-22.465788,6.439642,0.0,56.188545,18.781757,80.01915,7.66943,78.161087,-1.998425,64.605103,-9.732971,43.764896,0.0,22.837525,28.25421,57.022739,44.925709,71.889397,56.489771,80.627328,63.061744,82.895853,20.271378,323.453521,-41.294746,275.572745
19,0.50869,-10.426989,0.083084,-0.240333,0.0,-35.484695,-36.675396,6.184731,-38.348408,14.026794,-36.12299,8.598518,-31.913567,-23.69133,0.0,28.518749,9.094168,29.793833,11.194794,33.191464,11.013927,31.848516,9.4777,32.490226,0.0,56.667137,18.351402,79.946136,7.131729,78.168526,-2.454987,64.671364,-10.039616,43.69051,0.0,22.76571,28.101007,57.441159,44.95467,71.88526,56.596043,80.754719,63.163817,82.865039,20.501633,313.000133,-41.490097,275.306014
20,2.156754,-1.005173,0.08646,-0.079349,0.0,-57.489681,-45.292168,6.952744,-48.788452,15.166283,-47.685356,11.629257,-44.717789,-56.518192,0.0,35.650859,4.890633,32.868818,7.40159,32.64664,7.50107,30.800426,7.267344,36.488998,0.0,56.891155,18.972588,80.288944,7.950783,78.329487,-1.611156,64.685268,-9.306278,43.867035,0.0,22.237805,28.59853,57.484817,45.243539,71.88736,56.809021,81.103238,63.382599,83.119883,22.382526,311.967388,-41.679497,275.199094
21,-3.659019,20.476375,-0.430126,-0.518209,0.0,-48.805962,-42.896061,1.390572,-42.218857,15.717316,-36.554718,16.993675,-28.377171,-8.937035,0.0,29.853669,2.203131,22.874452,-10.027711,15.687754,-23.452436,5.1724,-37.11138,-10.157943,0.0,57.263947,18.702564,80.84404,7.702103,78.653183,-1.686974,65.345306,-9.084435,44.445705,0.0,22.772132,28.481513,57.799868,45.362161,72.468554,56.970189,81.305718,63.515115,83.326438,18.453512,332.362484,-42.379618,274.599605
22,-6.847,-18.812016,0.470123,0.028467,0.0,-19.25457,-30.773048,14.325371,-32.827492,24.024696,-30.121078,17.572975,-25.06794,-18.459721,0.0,15.910426,9.106766,25.468896,14.442804,30.616348,17.686059,33.094207,19.249888,36.99072,0.0,57.294846,19.190769,80.411568,8.244438,78.467674,-1.201515,65.176163,-8.802166,44.600258,0.0,22.606949,28.114036,57.663523,45.04143,72.203028,56.823594,80.942625,63.607432,83.104322,11.438112,313.514483,-42.077894,274.592087
23,10.170822,1.924019,-0.240097,0.366674,0.0,-62.061653,-44.700451,3.892136,-47.19389,13.901138,-45.433388,12.002449,-42.319508,-56.633434,0.0,35.347047,1.581675,32.946624,0.693395,30.777023,-1.995465,26.981102,-4.378536,30.210031,0.0,58.198586,18.373947,80.003815,7.661591,78.021698,-1.188183,65.368996,-8.089027,45.373535,0.0,22.384648,27.404215,57.591089,44.566754,72.483992,56.552756,80.803749,63.513201,82.526091,21.399879,315.35446,-42.527046,274.874719
24,-3.038406,18.157956,0.01585,-0.462078,0.0,-53.552284,-40.86319,-3.287659,-39.580421,12.255363,-33.911476,15.376854,-26.66256,-3.655472,0.0,30.392565,1.954339,20.523984,-13.590833,14.03099,-30.822656,0.037359,-48.08165,-19.901046,0.0,57.989788,18.894825,79.842625,7.868557,77.799397,-1.498489,65.101719,-8.904762,45.033932,0.0,22.68636,27.420888,57.187612,44.595962,72.597551,56.597155,80.971463,63.522217,82.891715,18.172388,333.48716,-42.700281,274.387384
25,-7.73037,-6.07482,-0.037937,-0.207296,0.0,-30.159988,-32.345581,7.447586,-33.188324,23.114548,-29.624519,21.941528,-24.153843,-2.263184,0.0,33.31762,8.959306,25.102283,-3.399113,16.71454,-16.942337,6.039623,-30.175203,-10.84646,0.0,58.653488,18.303051,79.778023,7.338066,79.083138,-1.660423,66.821136,-8.495178,46.393547,0.0,23.283857,27.570694,57.990985,44.597259,72.463738,56.511445,80.921815,63.278982,83.463895,10.288811,327.338687,-42.891426,274.106436
26,16.780472,-10.509673,-0.292397,0.124983,0.0,-68.451061,-49.363632,-4.583931,-51.409893,6.466827,-48.389397,8.916779,-43.659039,-41.233292,0.0,32.672822,0.099603,34.324955,-3.437275,30.259307,-8.295612,23.638799,-12.519526,20.297175,0.0,59.447823,18.19582,80.1614,7.432766,79.581413,-1.368084,67.569809,-8.016357,46.996422,0.0,22.968868,27.201674,58.243791,44.199401,72.18475,56.192319,80.855557,63.050196,83.285004,26.901569,316.767711,-43.351536,274.170116
27,5.898285,11.577893,0.315399,-0.967567,0.0,-60.416679,-50.802097,-14.431915,-51.003685,-1.268578,-46.126099,-0.296288,-38.235512,-15.172691,0.0,33.499907,1.911731,30.204967,-11.604817,20.512375,-25.926219,6.465145,-40.515989,-13.170684,0.0,59.56398,18.741875,80.385475,7.714405,79.064598,-1.38937,67.121887,-8.354988,46.144066,0.0,23.016169,27.693701,58.193835,44.905147,72.824916,57.022862,81.701353,63.933536,83.699287,32.639723,328.325536,-43.196268,273.18248
28,0.012589,-3.743866,0.56036,-0.401625,0.0,-52.524834,-43.990459,-10.13649,-44.699821,0.322495,-41.369648,-0.298576,-35.705338,-24.266624,0.0,36.549081,4.580399,29.284639,-7.877871,20.862871,-20.743507,7.990936,-33.808783,-15.035546,0.0,59.06702,18.408394,80.79134,7.034225,79.225559,-2.42403,66.276226,-9.873219,43.637238,0.0,23.041116,27.41249,57.30253,44.649438,72.509495,56.547816,81.394083,63.140908,82.378199,32.401199,324.525292,-42.88702,272.724477
29,-1.823158,-27.662764,-0.252628,-1.496706,0.0,-23.624725,-32.871723,-2.432556,-34.237461,2.936325,-32.363892,0.954094,-28.532066,-11.917305,0.0,13.924224,18.456395,34.130873,25.571154,44.128079,30.588314,46.73018,34.038,48.751024,0.0,58.850784,18.619137,80.547981,7.531471,79.226646,-1.884956,65.027504,-9.420261,42.970963,0.0,21.539099,26.982954,56.559487,44.374402,72.230692,56.478594,81.5337,63.226988,83.482173,30.275946,296.774008,-43.441744,271.139251
30,0.445175,24.29607,1.581745,-1.636509,0.0,-71.906605,-55.880756,-14.138718,-55.442219,-0.613403,-49.06002,3.055687,-39.836197,-35.881348,0.0,34.735904,-1.215001,32.559881,-12.166684,25.690456,-24.004979,13.437198,-34.959255,-2.100379,0.0,55.694103,19.707413,79.610882,9.172783,78.775234,-0.680466,64.587078,-9.342041,42.132854,0.0,19.802801,24.549803,54.607927,41.761742,71.803256,54.239277,82.371098,61.743496,84.439922,30.527945,321.008652,-42.053175,269.441315
31,-3.223228,0.599226,3.195705,-5.376238,0.0,-63.298874,-49.379082,-18.975449,-46.586781,-2.683182,-38.942356,5.279961,-28.457222,-2.813187,0.0,34.507489,1.934208,30.874033,-11.808902,25.085055,-26.131292,9.941569,-40.062803,-9.214335,0.0,56.494446,17.045059,75.932465,6.052437,74.845848,-4.908714,58.10051,-15.076618,34.625416,0.0,15.986935,19.01252,54.592489,35.370883,75.444677,48.060469,87.567518,56.697252,88.281044,27.099409,321.584969,-39.062777,264.042168
32,-13.830185,-2.408328,-0.060482,-7.501625,0.0,-56.660614,-44.877148,-17.165108,-38.517838,7.395973,-27.113342,16.007881,-12.881012,14.872513,0.0,33.38431,-0.724332,27.499187,-15.884058,22.860003,-30.994631,6.578518,-43.76931,-12.99346,0.0,60.274944,19.645271,75.263386,8.395615,70.261288,-2.657204,55.432491,-13.10051,34.169998,0.0,17.573056,16.750417,58.137148,31.397429,78.037207,44.449984,86.194313,55.138548,87.823288,13.154182,319.126469,-39.2383,256.490371
33,-8.294907,-11.478537,3.103638,-6.864793,0.0,-43.621731,-30.174866,-20.989895,-22.526894,4.61174,-10.859528,13.001633,2.995033,14.84951,0.0,38.460318,-0.989612,21.107155,-15.861149,12.572322,-30.014344,-3.072206,-42.246606,-24.12286,0.0,55.722942,15.02203,62.21117,2.981129,50.188465,-8.531742,34.305897,-18.25819,16.131763,0.0,23.452683,8.447889,55.331148,20.290197,75.315187,32.701351,80.317649,45.157212,78.990386,4.664698,307.608489,-36.329241,249.586134
34,34.039192,-54.126891,2.355938,-22.597749,0.0,-41.387844,-37.463036,-73.982849,-28.592491,-66.308727,-17.449493,-39.856167,-5.558281,-25.94593,0.0,44.08331,31.389772,74.484829,34.281482,62.758487,34.186757,40.260528,31.596327,39.520819,0.0,50.106354,38.551025,52.155304,27.934341,30.741978,13.510208,7.694092,-3.693466,-2.469807,0.0,37.75624,17.821972,80.414165,27.500731,96.201152,39.018974,104.347946,50.341962,102.27801,39.059429,253.469016,-33.617764,226.975804
35,4.150429,-21.829141,-21.041508,-33.901285,0.0,-27.98687,-32.653999,-62.023144,-22.821922,-73.435879,-10.071831,-25.653992,3.284225,-9.269142,0.0,39.568923,19.89166,62.092695,32.714936,79.046332,42.318175,59.481825,49.059961,50.335231,0.0,53.221607,48.44141,71.429272,43.902397,58.275547,35.705166,37.855568,24.878769,38.043537,0.0,28.322259,27.765764,77.344058,42.61964,101.397511,53.312774,107.486596,59.892836,99.602797,43.4412,231.632418,-54.427929,193.067063
36,7.346878,-16.152796,-14.43964,-30.867549,0.0,-27.979889,-33.647118,-69.435253,-27.219429,-70.175228,-17.837334,-21.383286,-7.938652,-12.674446,0.0,40.428921,20.223877,54.382538,31.699759,67.918105,40.650914,43.365524,47.030658,44.394409,0.0,51.797962,20.639648,61.972847,12.107277,60.150204,3.170013,45.920105,-4.280319,36.869659,0.0,14.858384,-14.594092,10.312072,-2.663789,25.163602,14.066312,43.3654,32.925628,57.79394,50.371885,216.614409,-69.283762,163.334301
37,12.093888,-43.159678,0.35202,-15.297553,0.0,-47.270909,-37.116337,-79.331818,-30.126915,-74.234591,-20.813542,-35.849304,-11.452332,-23.713818,0.0,44.09566,17.181928,57.209996,31.693429,60.958462,43.702989,46.894281,52.270025,48.931149,0.0,38.215828,18.046961,51.107054,4.02792,40.079413,-8.883276,28.965655,-18.363189,20.229006,0.0,6.390674,-29.297529,-30.256853,-23.835952,-21.837061,-11.268647,24.258557,6.642075,32.998278,61.72637,174.206619,-69.671145,148.788636
38,12.093887,-43.159679,0.352021,-15.297553,0.0,-66.561928,-40.585556,-89.228382,-33.034401,-78.293953,-23.789749,-50.315323,-14.966011,-34.753189,0.0,47.7624,14.13998,60.037456,31.6871,53.998821,46.755065,50.42304,57.509394,53.467891,0.0,24.633694,15.454273,40.241261,-4.051437,20.008621,-20.936565,12.011204,-32.44606,3.588352,0.0,-2.077037,-44.000966,-70.825777,-45.008115,-68.837723,-36.603606,5.151713,-19.641478,8.202616,73.045835,132.317779,-70.093546,134.761922
39,1.009369,-15.954022,-0.343323,-19.258965,0.0,-73.642731,-36.859131,-72.248154,-30.711136,-52.230835,-22.418175,-38.554459,-13.623047,-28.545113,0.0,34.409306,29.066228,33.68769,39.350018,31.138324,45.492825,34.10679,47.531515,42.639586,0.0,24.502716,12.229443,27.348518,-3.560886,15.371075,-19.307957,2.709332,-32.155895,-6.240005,0.0,-22.658789,-49.07472,-92.020093,-51.98162,-91.886064,-46.790726,-22.130421,-35.777201,-16.033803,73.328476,119.786321,-71.163597,118.92552
40,5.978508,-46.121722,1.198425,-38.293437,0.0,-68.857269,-37.180481,-80.43045,-31.894226,-72.394867,-24.400635,-47.000313,-16.139374,-33.621483,0.0,37.330409,5.249773,38.465381,24.172014,42.634738,41.328933,43.157486,54.398686,47.677647,0.0,12.713699,9.152584,24.052849,-8.628273,11.911354,-24.998474,-3.032627,-38.272591,-14.823875,0.0,-23.411372,-51.439174,-95.642743,-52.392508,-87.36226,-46.993978,-17.293172,-36.64007,-12.470156,78.473854,75.414975,-70.798302,82.38246
41,7.806931,-8.920465,0.530834,-23.662356,0.0,-60.680809,-34.007721,-90.860825,-31.916428,-90.818768,-27.574883,-48.157196,-21.92585,-37.809906,0.0,29.883649,1.403062,19.966749,14.196358,27.063199,26.409663,29.457417,36.545407,35.489722,0.0,9.438286,8.802395,26.058998,-9.194527,8.999062,-26.376572,-5.778408,-40.791264,-18.917713,0.0,-27.426198,-54.118123,-101.498102,-55.420439,-99.434002,-50.172364,-17.789985,-39.793725,-15.727212,85.651302,68.319189,-70.89695,60.544782
42,3.10524,-20.469984,-6.12648,-18.214581,0.0,-52.193756,-32.705383,-92.179298,-32.079849,-99.737663,-29.078865,-44.160461,-24.84066,-38.042679,0.0,28.670099,0.685337,11.155459,13.840676,22.430559,27.1779,28.364095,39.025334,36.977042,0.0,14.072914,11.866951,28.467121,-4.292336,13.35989,-20.573444,1.130333,-34.643383,-10.95932,0.0,-27.650075,-52.809817,-99.919299,-56.993253,-104.238123,-52.841618,-21.991792,-42.88597,-15.931637,88.85047,50.689292,-76.929502,45.170287
43,-0.171776,-20.174384,4.152145,-19.553885,0.0,-58.770103,-33.631668,-93.227291,-32.572517,-102.212906,-29.354897,-48.91571,-24.365158,-41.050072,0.0,27.247832,0.200442,10.720705,16.698732,25.737263,31.984676,30.679581,44.663888,38.830388,0.0,12.864017,13.245964,29.530106,-4.319687,18.83852,-21.630821,-1.768112,-36.515064,-13.588543,0.0,-26.996539,-55.202429,-103.560319,-57.931118,-104.443659,-54.041213,-15.959548,-44.690811,-13.888563,87.685261,32.79285,-73.77079,27.894344
44,2.104568,-12.13834,-0.104485,-10.531718,0.0,-59.968643,-34.057961,-96.848259,-33.185349,-106.998596,-30.9692,-53.208389,-27.098923,-45.764008,0.0,22.59429,-3.991763,11.197634,14.240016,24.620785,31.361552,29.830049,46.413123,40.296837,0.0,14.781132,13.447781,28.343582,-3.38007,18.893623,-20.61945,0.658035,-35.812397,-9.77972,0.0,-29.772004,-53.870349,-104.993762,-57.166679,-106.544871,-53.056695,-23.235816,-44.085009,-16.825999,89.210873,25.784718,-74.454231,22.492835
45,-1.731262,-8.207525,2.018394,-7.771475,0.0,-57.042961,-35.530586,-97.020092,-34.083595,-104.753094,-29.958458,-54.873619,-24.28688,-45.811501,0.0,21.935753,-4.787046,13.261518,12.610206,27.551428,29.784416,32.539688,45.410635,40.512099,0.0,15.392075,13.659897,29.146156,-3.44799,19.462223,-20.676956,2.043571,-35.331345,-8.720226,0.0,-29.54467,-54.486649,-103.015403,-58.744556,-106.739848,-54.860672,-23.523048,-45.593725,-16.612652,86.795712,18.197275,-73.119736,15.341442
46,-1.041069,-3.212349,2.061653,-2.207855,0.0,-59.186211,-35.560799,-97.037888,-34.215546,-106.444931,-30.143623,-55.257683,-24.38324,-45.445976,0.0,19.948224,-4.69368,11.875253,12.723302,25.817106,29.83607,31.775681,45.450742,40.968156,0.0,14.130535,14.169731,31.20369,-2.573891,24.073334,-20.192471,3.026047,-35.223026,-7.427444,0.0,-32.254432,-55.007699,-105.713556,-59.224944,-107.977481,-56.048225,-18.983126,-47.471864,-16.344562,85.792809,15.42374,-71.019917,13.572401
47,-1.80336,-1.269465,3.120117,1.253564,0.0,-56.036224,-35.619049,-97.219906,-33.414917,-104.059868,-28.740349,-55.167389,-22.482605,-44.080009,0.0,19.975178,-5.176414,14.126086,11.094697,26.371254,27.961513,34.4571,44.074449,44.674169,0.0,14.171448,16.900349,32.499561,0.369759,27.925987,-17.830181,3.76379,-33.284054,-4.864426,0.0,-28.836053,-54.462505,-103.048223,-59.236275,-106.295152,-56.511044,-16.018057,-47.321008,-15.369029,83.971338,14.464494,-67.91791,15.136184
48,-2.05204,0.434013,1.350689,4.988414,0.0,-56.081543,-35.024071,-97.597103,-32.162704,-103.055878,-27.219543,-57.40654,-21.062622,-44.79332,0.0,22.843917,-5.826614,12.982839,10.085571,26.623906,27.041617,35.474624,43.590079,45.144399,0.0,19.307499,20.685139,34.13372,5.18692,30.249596,-12.099152,4.905338,-27.391148,-4.597893,0.0,-23.052046,-49.522256,-94.64356,-54.893029,-98.474741,-53.082229,-15.191281,-44.714523,-13.514788,81.844711,14.644203,-66.641808,19.870295
49,-1.031113,1.1137,5.250664,10.670533,0.0,-55.681343,-35.23922,-99.112072,-33.097687,-104.667835,-28.340492,-53.654366,-21.649132,-45.169373,0.0,25.370527,-4.460603,13.07565,11.955189,27.128098,28.750035,32.433941,44.722829,43.096323,0.0,24.427814,18.718128,42.841015,4.544964,33.88607,-11.146832,6.319027,-24.987659,-4.210854,0.0,-24.574904,-48.476729,-91.81218,-52.955826,-95.082265,-51.049529,-14.606689,-43.78626,-12.645959,80.978222,15.633043,-61.226521,30.415968
50,-1.490593,2.098742,2.382946,8.374313,0.0,-56.693115,-35.226173,-98.214169,-32.766724,-105.182133,-28.128319,-49.980011,-21.707726,-40.566559,0.0,23.13686,-5.13538,12.856189,11.386405,25.56924,28.620204,32.292193,45.367626,43.275244,0.0,38.330097,19.659691,41.587143,5.370197,33.766136,-8.299541,14.556198,-20.248032,-0.073071,0.0,-15.99172,-44.794521,-56.528056,-47.33166,-53.271401,-43.328504,-1.808608,-35.046138,-0.577706,79.438505,17.600566,-58.892698,38.659062
51,0.955238,1.819507,4.605732,18.844744,0.0,-57.882957,-36.305351,-98.573456,-35.073624,-107.84483,-30.632401,-50.067787,-24.362869,-40.682144,0.0,16.807999,-4.091521,9.299427,13.087104,23.280368,30.419519,32.529222,46.675654,43.965614,0.0,31.526041,26.097908,62.880506,10.959777,40.468454,-4.829379,13.938646,-19.584074,-1.55325,0.0,-2.816498,-36.058721,-51.42193,-41.657538,-46.964368,-39.883619,1.391654,-32.164694,2.929393,80.170527,19.811848,-54.510183,57.895581
52,-5.341415,2.638719,4.605732,18.844744,0.0,-61.820984,-34.684868,-82.255096,-31.37764,-87.90493,-24.617615,-46.289062,-16.087646,-36.288414,0.0,12.439404,2.477118,21.852761,21.226117,37.293266,37.844296,38.053352,52.180518,46.702855,0.0,24.721985,32.536125,84.17387,16.549358,47.170773,-1.359215,13.321095,-18.920116,-3.033428,0.0,10.358724,-27.322921,-46.315804,-35.983416,-40.657336,-36.438733,4.591915,-29.283249,6.436492,74.543695,22.476008,-50.189867,76.765766
53,-0.239983,8.82577,-2.817707,-0.499159,0.0,-54.143257,-36.692276,-65.53791,-33.778954,-96.466541,-26.986198,-45.521278,-18.624687,-33.634987,0.0,20.586692,2.256576,21.932789,21.188666,40.255588,38.159068,38.370934,52.123399,47.593111,0.0,24.641418,31.322536,74.845963,15.243874,44.615993,-1.114998,15.376797,-17.227306,2.246704,0.0,19.480433,-27.326008,-31.847898,-33.184517,-21.971877,-31.458902,12.424059,-22.302273,13.572926,74.094,31.830269,-53.217287,76.795097
54,-0.560074,6.010322,-1.072311,5.764895,0.0,-51.557693,-37.494621,-66.19709,-34.089317,-89.799671,-26.638641,-47.706413,-17.182159,-37.832336,0.0,18.734828,3.999265,21.924793,22.356335,41.483278,38.416506,40.383318,51.71421,48.512667,0.0,25.478611,30.794163,60.198097,15.325642,42.310009,-1.045475,16.588898,-17.136955,3.269176,0.0,17.710667,-29.719362,-27.094414,-35.989221,-18.66221,-34.561335,10.947267,-26.482405,11.739649,73.594179,37.711594,-54.229345,82.430995
55,-0.087662,4.100413,-2.158642,2.138293,0.0,-52.388306,-37.427216,-63.973618,-34.123306,-84.376602,-27.554169,-45.547485,-19.440422,-35.686455,0.0,18.965281,0.239777,19.624188,18.811028,37.677539,36.040443,40.331664,50.588006,48.610634,0.0,26.652946,30.132236,58.483715,14.606152,45.977554,-1.863155,16.085014,-17.964878,4.083652,0.0,17.178254,-28.843617,-21.756183,-35.626221,-22.504752,-35.021777,9.76907,-26.797857,11.388937,73.558273,41.538267,-56.336231,84.295549
56,0.470352,2.800566,-2.869949,-0.040632,0.0,-53.214684,-36.185532,-75.163536,-33.76236,-81.395645,-28.283615,-49.049263,-20.903778,-38.871574,0.0,17.60671,2.330831,21.121975,20.554273,34.674462,37.02564,39.157017,51.023624,46.945411,0.0,28.654346,29.291039,58.645763,14.797726,46.876831,-0.797596,18.790283,-16.026936,7.757263,0.0,20.071385,-27.85169,-17.575371,-34.39322,-17.135678,-33.640513,13.753422,-24.921447,14.663037,74.14607,44.363132,-59.088736,84.279216
57,0.153923,2.627048,-0.476418,1.242017,0.0,-53.461533,-36.9104,-68.770294,-34.203529,-62.249451,-28.813362,-46.836891,-21.542587,-37.533417,0.0,17.727216,0.899086,19.628603,19.556572,31.430126,36.306587,39.943717,50.340943,48.488369,0.0,32.013874,28.943768,59.854488,15.38578,48.160057,-0.268421,20.196018,-15.583248,7.876053,0.0,19.905307,-24.803689,-15.754506,-32.140781,-16.559701,-32.33937,14.445367,-24.853831,15.442358,74.429026,46.743348,-59.436121,85.274401
58,-0.40844,1.842293,1.171532,2.174016,0.0,-53.922157,-36.015472,-68.415756,-33.273125,-85.179234,-27.894402,-50.328026,-21.147079,-39.566574,0.0,19.829107,1.474044,18.987572,19.844792,34.070265,37.026813,38.77929,51.715229,47.841718,0.0,32.908916,28.216324,59.299908,15.212688,47.430553,-0.180531,17.709045,-15.449181,6.181526,0.0,20.319621,-25.502828,-18.939376,-33.389528,-17.473483,-33.969581,15.385733,-26.812214,15.786061,74.017096,48.350588,-58.26808,87.213364
59,-2.656403,1.762573,0.580959,1.595909,0.0,-55.412064,-34.864311,-65.454369,-31.233902,-65.800438,-25.801277,-47.067146,-19.385834,-38.278885,0.0,20.507466,3.052477,21.059762,21.243932,31.617353,37.821602,39.26156,51.723133,47.865986,0.0,31.38113,29.09174,58.137016,15.515671,47.316227,-0.573521,17.242298,-16.630211,4.775791,0.0,20.316133,-26.01798,-16.79003,-33.635141,-18.630007,-33.859449,14.969411,-25.775116,16.092435,71.363611,49.823181,-57.684202,88.519293
60,1.870079,1.096965,1.35973,1.325473,0.0,-56.10157,-36.274452,-66.456871,-32.932091,-64.854012,-27.517776,-49.110031,-20.643768,-39.932556,0.0,17.897307,2.622293,20.948395,20.942807,32.993245,37.494078,40.757588,51.367543,49.128443,0.0,29.781361,27.399445,54.173183,12.858067,41.816139,-3.319359,17.727013,-18.788853,3.603115,0.0,19.529988,-26.835618,-16.218653,-34.057637,-20.66425,-33.871459,15.718475,-25.673197,15.429421,73.16062,50.563661,-56.397543,89.48828
61,1.399727,0.632818,1.491108,-0.065949,0.0,-53.749695,-35.252037,-68.634567,-32.328758,-66.394272,-27.460556,-52.115707,-21.217117,-43.174324,0.0,19.004955,2.153329,20.041961,20.502094,32.212843,37.09761,40.717512,51.01535,48.870635,0.0,28.200531,26.898193,56.447411,11.811447,43.23595,-4.741631,17.330189,-20.661163,4.399395,0.0,21.621042,-28.006498,-15.718012,-34.442682,-19.900645,-33.500494,16.880741,-24.619056,16.516105,74.559746,51.107265,-54.907036,89.333117
62,0.513725,0.581102,-1.23333,-0.031493,0.0,-53.689613,-36.465454,-63.838463,-33.982887,-62.558212,-28.998985,-49.640007,-22.146835,-40.995827,0.0,17.683589,2.817857,19.64648,21.008818,32.109875,37.358104,40.869881,51.137986,48.936522,0.0,28.294144,26.617355,57.573967,11.791706,46.044559,-4.048176,18.820667,-19.289818,6.308384,0.0,22.314993,-28.732992,-15.859667,-34.217725,-15.023844,-32.443759,15.560486,-22.999157,15.985453,75.02964,51.576985,-56.184196,89.190242
63,-1.584892,0.219739,0.664444,-0.687004,0.0,-52.266541,-35.775261,-65.42038,-32.958641,-63.364563,-27.769432,-48.537025,-20.894737,-40.05249,0.0,18.149959,2.991097,20.346267,20.953212,32.834392,37.315712,41.164183,50.974409,48.596432,0.0,25.3545,26.110897,57.270927,11.120281,45.475616,-4.971714,18.653984,-20.343246,6.239777,0.0,22.117763,-28.507572,-14.89,-33.909776,-13.159322,-32.021602,18.733963,-22.542019,17.488921,73.388414,51.740871,-55.576086,88.447384
64,-0.35717,0.108526,0.372219,0.710191,0.0,-53.200951,-35.5513,-64.365234,-32.702522,-60.767326,-27.383308,-48.425903,-20.247688,-39.168091,0.0,17.699706,3.910715,20.197232,21.707338,32.572787,37.674451,41.053959,50.867797,48.386079,0.0,25.572224,26.489353,56.363125,11.583767,44.955711,-4.454556,16.833858,-19.901791,5.832653,0.0,20.745915,-29.007874,-15.260873,-34.376825,-15.367979,-32.693601,15.214561,-23.195122,16.141774,72.920151,51.734927,-55.31496,89.043106
65,-1.087074,-0.039212,-0.230255,0.299428,0.0,-53.595543,-35.693321,-62.975235,-32.502708,-59.177856,-27.030373,-47.1595,-19.852066,-38.410263,0.0,18.040908,3.89608,20.823196,21.878202,33.135024,38.108865,41.444005,51.604047,48.971072,0.0,25.711441,26.241989,57.146587,11.37886,45.43745,-4.51767,16.725082,-20.046329,5.845127,0.0,21.418594,-28.655834,-15.038417,-34.228006,-14.681716,-32.756154,16.845852,-23.227479,16.881297,71.716318,51.591636,-55.661974,89.238454
66,-0.673141,0.703522,-0.271797,-0.88124,0.0,-55.645638,-34.841881,-64.570084,-31.74099,-60.192375,-26.492615,-47.223015,-19.740715,-38.253365,0.0,17.150714,5.219577,19.540733,23.006166,31.47752,38.852279,40.34738,51.723998,48.202155,0.0,26.000347,26.596413,57.348576,11.919537,46.080208,-3.97007,14.821415,-19.765091,3.947639,0.0,21.538266,-27.680734,-13.592624,-33.216318,-14.781844,-31.861206,18.371396,-22.45353,17.623506,70.99371,52.243118,-55.983238,88.305173
67,-0.951118,0.008213,-1.113453,1.448912,0.0,-53.795013,-34.341431,-67.479172,-31.141434,-63.296814,-25.813866,-47.950058,-18.963203,-37.81208,0.0,17.389935,4.789177,21.234145,22.310578,32.456727,38.12242,40.858457,51.245895,48.637187,0.0,27.191048,26.519279,58.29895,12.205696,46.250896,-3.545094,16.968498,-19.052753,5.564804,0.0,20.778334,-26.854945,-15.526215,-32.684987,-18.363646,-31.565112,15.892179,-22.503023,17.155839,70.033064,52.102713,-57.106218,89.605467
68,1.659164,0.538247,1.333694,1.167577,0.0,-53.430977,-33.612442,-67.5737,-31.014404,-75.799599,-26.074104,-50.203514,-19.683037,-39.538994,0.0,17.638913,3.794686,18.487363,21.511466,33.094578,37.604859,39.8828,51.099917,48.035491,0.0,25.876579,25.468483,56.632462,10.797043,44.408569,-5.357552,19.43058,-20.597076,5.432739,0.0,19.681277,-27.831405,-17.445973,-33.731471,-19.655311,-32.52916,14.498503,-23.824204,15.891129,71.69755,52.455339,-55.767202,90.587422
69,0.392532,0.28257,-0.426922,-0.544608,0.0,-53.813438,-34.810982,-67.969551,-32.236748,-71.275635,-27.345085,-50.463867,-20.898514,-39.828758,0.0,17.369125,3.927017,19.083563,21.858195,32.766837,37.904225,40.195165,51.124555,48.084644,0.0,27.705059,25.465508,57.303028,11.121712,45.890865,-4.327984,17.500134,-19.277058,4.159412,0.0,20.921348,-28.119686,-15.599019,-33.425004,-16.660323,-32.096907,15.336024,-23.317974,15.128388,72.1245,52.583023,-56.159706,89.887929
70,0.376968,0.636678,0.167713,1.425941,0.0,-55.138893,-34.92897,-67.750626,-32.115555,-61.504669,-27.249985,-48.901405,-20.776291,-39.4701,0.0,16.46127,3.178386,19.361348,21.149362,31.298474,37.231824,40.33611,50.599461,48.159177,0.0,28.249512,25.699997,56.028786,11.504574,44.401989,-4.287014,18.312149,-19.711361,5.167694,0.0,18.495113,-27.033404,-16.397112,-33.089915,-20.063048,-32.443975,14.916368,-24.269857,15.990918,72.516518,53.003605,-55.976944,91.097774
71,-1.474915,-0.089137,0.540619,-1.838125,0.0,-54.545403,-34.512978,-68.378105,-31.130104,-70.611763,-25.714073,-47.915039,-19.08062,-38.105507,0.0,18.742763,3.666739,21.093447,21.293178,34.017592,37.295983,40.210448,50.889348,47.896861,0.0,28.824005,24.626427,55.481987,10.250816,43.680496,-5.452766,18.378868,-20.612183,5.686913,0.0,20.886614,-27.762399,-14.728183,-32.274285,-15.584909,-30.155196,17.757504,-21.165633,18.37189,71.081085,52.681191,-55.396843,89.026372
72,-0.157471,-0.034518,0.936928,0.376523,0.0,-55.347061,-35.823784,-65.141602,-32.272453,-56.433563,-26.486893,-44.86702,-19.146423,-36.168137,0.0,17.988636,3.002892,22.290355,20.779786,33.677285,37.017211,42.200602,50.96138,50.169801,0.0,27.728863,25.102615,55.35553,10.113544,42.541809,-6.403599,18.484268,-22.340755,4.750957,0.0,21.405008,-27.491839,-14.706972,-32.417886,-17.107828,-30.456909,18.247648,-21.121234,19.076617,70.970964,52.493855,-54.412565,89.250078
73,-0.63755,-0.324931,0.380116,-1.289379,0.0,-55.478783,-34.949226,-61.168442,-31.335526,-56.387444,-25.515175,-44.119835,-18.168068,-34.976234,0.0,17.476385,4.737708,21.052352,22.660827,33.419385,38.679007,41.975367,52.053745,49.720413,0.0,27.383823,24.437428,54.769077,9.472675,40.96653,-7.037544,18.899059,-22.625484,4.596806,0.0,22.262938,-27.183458,-12.935507,-31.705873,-16.689068,-29.44062,18.687774,-20.092226,19.234883,70.339966,51.891326,-54.025898,87.6831
74,1.163521,0.178737,0.549774,-1.185855,0.0,-54.015312,-35.180855,-66.344948,-32.202415,-64.443169,-26.744843,-46.807022,-19.577293,-36.717224,0.0,17.958533,3.33057,20.680182,21.0978,33.135734,37.411518,41.904416,51.197421,50.160446,0.0,26.834736,23.298912,53.139782,8.454094,39.418945,-7.792797,18.033886,-23.098526,3.962288,0.0,22.468104,-26.595161,-12.324055,-30.960576,-13.777165,-28.365793,20.150147,-18.803958,19.682728,71.539049,52.026374,-53.440561,86.453556
75,-1.508331,-0.034302,0.223446,-0.86747,0.0,-54.911499,-34.493523,-64.783516,-31.174622,-58.149261,-25.543213,-44.323082,-18.28743,-34.7509,0.0,17.432419,4.358313,21.684336,21.964158,33.221259,37.989564,41.950729,51.736008,50.220776,0.0,26.091442,22.498741,51.20224,8.220234,39.607944,-7.77729,16.892338,-23.376732,3.04985,0.0,23.839827,-25.570228,-10.470523,-30.075384,-12.652011,-27.675886,19.992499,-17.9267,20.352257,70.032463,51.885321,-53.21537,85.479335
76,1.540947,-0.008707,0.461826,-1.912596,0.0,-52.786331,-35.695152,-68.83461,-33.098717,-68.131371,-27.627754,-46.843185,-20.174904,-35.971069,0.0,17.913177,3.293952,21.560619,20.942251,33.969087,37.283973,42.268466,51.431918,50.890645,0.0,29.050941,20.879173,50.266628,6.769352,38.727207,-9.107895,16.841812,-24.642334,2.793159,0.0,23.1573,-23.868788,-8.593465,-27.630561,-9.037667,-24.674724,21.356534,-14.980187,21.857485,71.57218,51.805215,-52.754774,83.495341
77,-0.082169,-0.02504,-1.288719,-0.27516,0.0,-55.815353,-36.034813,-67.092934,-33.156853,-59.65107,-27.702942,-46.213875,-20.313148,-36.20327,0.0,17.242413,5.037043,21.834266,22.612785,33.00152,38.389892,41.874189,51.734526,50.221857,0.0,28.238468,21.673107,51.093235,7.942944,40.211048,-7.544632,17.342777,-23.020592,4.019623,0.0,24.804245,-23.074956,-7.292847,-27.163697,-8.515999,-24.418953,24.353251,-14.781443,22.928051,71.484747,51.714828,-54.048758,83.154834
78,1.444817,0.262408,-0.54491,1.852049,0.0,-53.134003,-36.299858,-69.440117,-33.611069,-71.055336,-28.218613,-48.408508,-21.005402,-37.765274,0.0,19.115025,2.804302,21.118734,20.630597,34.464171,37.223117,42.271461,51.487185,50.685294,0.0,26.565971,22.415943,51.423798,8.656769,40.511055,-7.073708,19.064026,-22.497082,4.47813,0.0,24.384713,-23.775854,-8.933432,-28.966223,-11.972355,-26.91367,21.241277,-17.655616,20.539607,72.930079,51.872554,-54.593153,84.902201
79,-0.95089,-0.040014,0.543766,-0.558285,0.0,-54.349251,-35.953674,-65.047417,-33.150215,-57.527618,-27.765541,-44.734612,-20.542603,-35.462723,0.0,17.76794,3.857363,20.736591,21.661952,32.579023,37.733948,41.791166,51.384926,50.359221,0.0,27.357159,22.543144,51.734905,8.456326,39.905949,-7.621365,19.697399,-23.311501,4.54977,0.0,22.779079,-23.78206,-8.785015,-28.531068,-11.034706,-26.042588,21.458824,-16.465624,21.410226,71.965485,51.805091,-54.063091,84.316467
80,0.252686,-0.148541,1.308346,0.764717,0.0,-55.917091,-35.734634,-66.273193,-32.720833,-60.463142,-27.294388,-45.576668,-20.116768,-35.689087,0.0,18.098737,2.648753,20.878247,20.63353,32.371665,37.152382,41.704005,51.278592,50.487322,0.0,29.01638,21.460419,52.191811,7.092476,39.264851,-9.391136,18.602028,-25.331497,2.740402,0.0,21.091625,-24.679324,-11.059591,-29.061936,-11.551588,-26.257448,19.353166,-16.625434,20.236475,72.196569,51.655146,-52.776346,85.079779
81,-0.189285,-0.067678,1.542664,0.855892,0.0,-56.567917,-35.557022,-66.453094,-32.538528,-65.244141,-27.033463,-45.874786,-19.868317,-35.95768,0.0,17.523285,3.129202,20.517068,21.007151,33.192699,37.388856,41.15421,51.414628,49.632388,0.0,27.429657,21.308327,50.005188,6.472378,35.717125,-10.222034,15.858135,-26.470413,0.950089,0.0,21.90037,-25.996368,-12.00851,-30.431715,-13.995947,-27.729918,19.172237,-17.67445,19.67612,71.989288,51.559896,-51.251678,85.908099
82,0.109291,0.432654,-0.026207,-2.799054,0.0,-56.891785,-35.323563,-66.624527,-32.561302,-65.586662,-27.40963,-46.107101,-20.591927,-36.370354,0.0,17.053704,2.881861,19.614771,20.518705,32.189656,36.792501,40.414008,50.840257,49.511264,0.0,28.798313,20.127296,49.267616,5.755806,37.07056,-10.034351,15.063572,-25.731525,1.609783,0.0,22.100565,-25.073662,-10.420506,-28.611436,-8.962177,-25.255363,23.236093,-15.01029,22.389001,72.09343,51.982006,-51.283035,83.098502
83,1.184921,-0.415272,-0.562191,-0.256573,0.0,-55.523415,-36.087799,-68.682175,-33.48175,-62.870178,-28.418198,-46.465988,-21.477928,-37.475052,0.0,16.49866,1.515293,20.246138,19.392748,32.084094,36.042233,40.775279,50.606902,49.991034,0.0,31.941776,20.154247,49.470921,6.165791,36.82354,-9.290028,15.631657,-25.079155,1.771603,0.0,21.814228,-24.404072,-10.143493,-28.00764,-10.235995,-24.928765,23.031638,-14.930879,22.283161,73.277664,51.625537,-51.845913,82.900731
84,-0.190086,-0.263489,0.065346,0.068389,0.0,-54.578476,-35.822754,-64.038277,-33.189011,-69.422836,-27.91214,-46.468163,-20.963173,-37.603683,0.0,17.5746,1.686219,18.55958,20.024424,33.235739,36.928383,40.323822,51.466344,48.947236,0.0,28.621902,21.090546,49.648418,6.722603,37.219677,-9.187202,14.583378,-25.778675,1.746826,0.0,24.600067,-24.07346,-9.317211,-28.041727,-12.322603,-25.284015,22.893626,-15.377489,23.183822,73.086834,51.366633,-51.781311,82.973704
85,0.189743,0.857157,-3.410339,3.073472,0.0,-52.2155,-36.47541,-70.885735,-33.737869,-88.60548,-28.031044,-46.7799,-20.599594,-36.208305,0.0,19.746392,0.101857,20.344075,17.497442,34.107809,34.491835,39.008198,50.002303,48.424858,0.0,28.502197,22.118168,52.90575,8.958721,42.680569,-5.894737,16.109962,-21.418018,3.556767,0.0,23.593999,-24.274457,-13.699669,-29.415303,-17.055618,-27.40156,19.579543,-17.745,19.041604,73.274088,52.240756,-55.194139,86.064143
86,0.340805,0.532042,-2.544594,2.83419,0.0,-55.08522,-35.100632,-74.368401,-33.121147,-97.082062,-27.642059,-46.84433,-20.342445,-36.270676,0.0,16.567883,0.390602,19.108696,18.356607,34.716853,35.445385,38.164811,50.797309,47.350247,0.0,32.367382,21.903477,54.592152,9.895191,45.744667,-3.756065,19.312019,-17.737427,8.115978,0.0,20.493233,-25.610582,-16.852706,-31.062649,-21.980831,-29.480419,17.524582,-20.440745,17.12589,73.561392,52.783913,-57.792234,88.909447
87,0.677032,0.734058,4.290676,2.99153,0.0,-58.655434,-35.212097,-87.664433,-31.895828,-106.125927,-25.975685,-47.108116,-18.790398,-35.80307,0.0,21.808393,-0.836595,20.908689,16.704752,37.707395,34.07397,37.28777,50.073471,47.448523,0.0,29.352894,33.835087,72.790031,16.94006,47.495842,-0.49736,17.510719,-17.576523,2.976665,0.0,15.602569,-28.236055,-29.145392,-35.506363,-32.692243,-34.844059,11.704791,-25.999363,15.636563,74.128017,53.651243,-53.611965,92.03425
88,3.690033,1.125926,-2.990513,1.43227,0.0,-57.995224,-37.322845,-99.620304,-33.964119,-108.508129,-28.008041,-45.639954,-20.71907,-36.325836,0.0,17.523131,-1.884623,24.128016,15.190663,36.411316,32.472751,38.172715,48.931243,47.869846,0.0,32.072353,28.941936,69.573841,13.610229,45.863113,-3.142776,18.374405,-18.641968,3.649693,0.0,14.57637,-28.916761,-43.437092,-36.15252,-43.85082,-36.180616,15.852936,-28.415811,16.717689,77.574921,54.688743,-56.845608,93.378093
89,3.93734,3.620334,-1.763535,-0.734552,0.0,-52.921028,-40.412636,-101.816025,-37.625771,-109.497986,-30.965195,-43.6092,-22.53479,-34.406776,0.0,18.911187,-2.620996,22.830239,15.276126,39.187892,32.750381,38.288034,49.224063,48.442426,0.0,37.320786,28.226337,63.407192,12.970047,46.150188,-3.485527,20.507469,-17.839394,6.68993,0.0,14.336871,-28.260107,-47.480015,-35.521183,-41.548981,-35.888629,12.224204,-27.914799,14.451696,80.842466,57.915032,-59.278936,92.249496
90,-0.810013,7.261848,1.007652,0.225019,0.0,-52.433624,-38.599892,-103.268394,-34.469261,-109.564247,-26.989517,-45.119247,-17.749329,-32.802544,0.0,29.035908,-0.560231,26.123759,16.963919,44.62588,33.251362,40.041036,47.51898,47.916282,0.0,43.871784,20.157738,61.736469,5.011368,45.30447,-9.975357,16.369114,-22.048302,4.040451,0.0,10.600601,-31.336111,-54.567326,-36.980315,-41.746243,-35.749907,14.005518,-26.369865,11.659589,79.716625,64.797146,-58.587112,92.094781
91,-2.164078,10.015639,-6.612225,2.248209,0.0,-52.3312,-36.094551,-103.577785,-30.739174,-105.672798,-22.532272,-68.26355,-13.693199,-45.937843,0.0,33.971217,1.762326,29.238172,18.627074,47.673418,34.915381,67.58175,48.965977,62.90391,0.0,31.774521,22.867813,65.698814,7.157478,51.480446,-8.223095,21.10033,-20.524464,8.575115,0.0,9.0159,-32.36972,-50.237511,-36.699536,-44.639589,-33.668208,13.476379,-21.671307,13.9375,77.230082,73.212354,-65.521803,92.742558
92,-0.299149,13.11375,-4.359684,1.909384,0.0,-50.887299,-36.585503,-101.357002,-29.725227,-101.927776,-20.255814,-79.730186,-10.591164,-56.875992,0.0,29.819181,5.13044,33.35782,21.52184,55.984097,37.289592,77.613475,50.466389,75.477096,0.0,31.377411,21.740799,68.330441,5.112362,57.024937,-9.988003,26.047382,-21.766834,12.397099,0.0,14.333104,-34.061064,-43.024692,-36.366547,-36.476308,-30.059421,16.810531,-15.074294,16.171939,76.448908,84.600426,-70.363512,92.926265
93,-2.632713,14.022407,-4.444313,2.061105,0.0,-48.832626,-37.653122,-99.700871,-31.277962,-99.941025,-21.776161,-82.053452,-11.516762,-60.062943,0.0,27.209732,10.616748,41.696904,27.474796,66.880513,42.80767,87.775185,54.893893,85.550132,0.0,32.745724,18.982258,68.381367,3.808079,58.739834,-8.495178,26.29921,-17.75362,13.883228,0.0,21.097306,-32.656026,-32.798546,-30.885673,-21.239425,-21.150689,17.55944,-4.177817,21.596713,73.038597,97.221732,-75.585423,93.586269
94,-1.63765,14.9189,-0.616951,5.398345,0.0,-48.671379,-38.492317,-99.34679,-33.099289,-100.45927,-24.637527,-86.883316,-14.991989,-62.78595,0.0,28.529246,15.800078,50.799841,32.539812,76.316161,47.629698,90.12732,59.542835,92.16107,0.0,40.036983,15.978069,71.733799,2.06068,63.904095,-9.511299,35.936279,-18.856716,20.57579,0.0,17.008842,-29.290752,-26.55453,-25.365248,-7.11303,-13.081609,31.285815,4.134468,33.355133,71.172867,110.373211,-76.430454,97.217193
95,-2.011414,17.547615,-3.485584,4.292703,0.0,-50.920944,-36.986618,-102.113857,-29.706459,-100.743599,-20.890617,-88.215466,-11.564255,-63.314552,0.0,31.075895,17.984128,62.300793,34.492113,83.374233,49.309865,94.235142,61.254186,97.769983,0.0,56.330051,17.124882,72.981834,3.918858,65.818748,-7.470703,46.810284,-16.479263,26.450443,0.0,6.740829,-19.794712,-11.584377,-13.335712,17.410837,-0.324159,43.226616,16.073169,49.736468,68.796215,125.170524,-80.281277,98.759595
96,-3.708572,19.894254,-0.036449,7.542504,0.0,-45.128403,-38.850632,-102.524014,-31.756325,-99.991093,-22.778893,-86.357689,-13.175812,-62.185249,0.0,38.023434,21.156185,66.989811,36.114481,86.27076,50.54475,97.41603,62.465235,99.94193,0.0,53.868771,17.115784,71.14603,2.854671,67.259045,-9.011135,54.460659,-16.912937,26.28273,0.0,5.625926,-14.233871,12.299818,-6.977642,34.452006,4.798625,48.702519,19.577443,51.003092,64.927282,143.800361,-80.478086,105.037682
97,-6.190567,19.764269,0.550575,4.861054,0.0,-37.634468,-37.055283,-100.505905,-29.245949,-99.67495,-19.687729,-86.400089,-9.551697,-62.462997,0.0,42.725419,21.912689,69.265437,37.473299,86.513686,52.598445,99.244521,64.869672,99.717529,0.0,50.052166,15.561104,68.33147,3.816719,61.140575,-6.784172,46.641312,-14.556713,26.420288,0.0,9.045694,-3.556175,35.95322,5.90936,53.300949,15.505065,55.377862,25.874997,57.291631,58.643303,162.593126,-80.020924,108.927233
98,-2.618294,17.872483,-6.938095,36.981303,0.0,-44.330978,-35.382385,-101.026211,-27.953224,-101.721611,-18.427734,-89.119034,-8.102303,-63.933334,0.0,36.210997,21.504519,70.42369,39.264617,86.836826,55.215181,98.063545,67.455347,99.947611,0.0,70.348263,23.864822,84.833736,10.8605,80.220737,1.176167,68.805485,-4.878674,51.125851,0.0,13.520006,-13.240585,28.043332,0.673573,43.65927,17.593495,49.837523,35.241022,52.768444,55.909481,179.481247,-87.074547,144.924172
99,-6.246185,16.381829,-2.995834,15.429884,0.0,-40.652733,-34.059219,-99.070702,-25.576172,-100.152225,-15.32238,-86.215668,-4.537582,-60.435047,0.0,39.84291,24.343062,72.925693,41.256685,85.975963,55.805144,97.553733,66.847353,99.520484,0.0,66.081676,24.205456,86.395054,13.216896,85.74789,3.014946,73.972778,-5.777779,48.368168,0.0,10.40513,-7.812415,34.438267,4.371744,48.691682,19.473733,54.310475,36.387048,58.023219,50.067701,195.257998,-89.665976,159.74898
100,-1.036491,14.914824,0.504341,14.088109,0.0,-34.087486,-35.548096,-89.607868,-29.310722,-104.669209,-20.724335,-90.861053,-10.083275,-64.695282,0.0,33.271369,26.663581,60.71072,43.097095,79.561701,56.306743,93.413615,65.581222,99.456634,0.0,67.432938,25.559635,86.528378,16.454144,89.094715,6.73439,73.943024,-3.019352,49.011841,0.0,10.344553,0.752861,39.625857,13.211315,52.09098,27.010927,58.415272,41.498685,63.921248,49.560213,208.925248,-88.632631,172.589515
101,-3.801041,15.550112,5.771141,18.771755,0.0,-44.635735,-33.634987,-101.623192,-28.312454,-101.796341,-20.972672,-88.308907,-11.76384,-64.892464,0.0,20.692254,33.681577,60.194734,44.411823,74.869349,52.139887,87.518735,55.945071,88.770849,0.0,65.989094,23.460674,77.905025,13.50729,81.216373,3.65221,67.992039,-5.915737,46.817951,0.0,9.070395,3.31223,36.083791,16.630559,53.648696,30.358664,64.492871,44.300672,68.862207,46.337099,223.570377,-82.283564,190.456286
102,5.396461,53.707544,16.506042,22.421451,0.0,-67.781296,-31.196823,-98.612709,-33.798065,-112.828903,-34.980011,-98.046513,-35.49305,-74.52404,0.0,21.288763,20.996252,40.595771,7.498044,-6.673738,-10.094834,-34.901395,-29.681756,-45.387047,0.0,62.961903,36.799908,79.472523,27.865391,71.757832,16.194363,62.000484,2.91029,48.979855,0.0,26.919536,18.994303,61.604125,32.518446,78.846755,45.490664,88.730525,57.955849,89.174264,52.238274,276.465147,-65.272808,212.064963
103,-9.274864,6.299592,-3.882809,12.215096,0.0,-67.974129,-32.213058,-96.000481,-32.771759,-97.531929,-31.522064,-80.856285,-30.271683,-57.543411,0.0,35.034652,21.16625,26.722923,6.695288,-10.352518,-9.754898,-29.532752,-28.139601,-34.365895,0.0,65.757065,22.974644,88.148232,11.735802,85.456238,1.527729,72.256393,-8.549252,48.284855,0.0,14.409706,12.25616,47.792905,26.239973,62.531678,39.840872,68.45132,52.268821,72.159988,43.164511,282.283286,-68.954515,223.798606
104,-5.992813,-2.727516,-2.021599,4.996473,0.0,-60.398655,-28.371506,-94.999695,-27.427368,-98.531857,-25.390434,-87.729778,-24.118996,-70.911598,0.0,35.149693,28.597727,23.361786,18.955153,-0.753355,6.63397,-13.701181,-8.3234,-19.159424,0.0,67.40593,20.822697,87.981262,10.966301,83.674622,2.557755,72.439041,-5.304623,51.432896,0.0,18.370624,15.884614,53.619426,33.313853,71.007663,48.868041,79.603444,61.001441,81.546112,37.674952,279.291124,-70.47286,228.530432
105,-8.641777,-15.767659,-0.421371,10.205738,0.0,-55.975513,-18.700218,-84.235096,-13.279381,-87.100182,-9.328995,-76.827507,-7.309914,-56.67675,0.0,8.543293,48.987528,47.80297,49.236506,31.104424,44.007234,28.194435,34.242641,34.054488,0.0,67.204971,21.410408,88.289795,13.3461,86.573067,6.130085,75.772247,-0.867119,56.799259,0.0,15.438715,16.443702,49.571687,35.052683,67.996466,50.789837,76.505426,62.242563,79.719782,29.821959,262.989154,-70.105448,238.201859
106,1.259079,1.133614,3.287086,6.592536,0.0,-56.269627,-19.655457,-75.230999,-16.021957,-78.099575,-12.554169,-68.693333,-9.959908,-54.34679,0.0,-0.865247,40.590151,33.539551,46.279834,32.780577,47.146254,39.059853,43.381085,46.241734,0.0,67.827072,24.027157,92.170944,15.566769,90.276718,8.006916,79.475441,1.160831,60.280495,0.0,14.882961,19.170601,51.650082,36.653871,68.190054,51.593951,76.682403,62.630602,80.847221,32.16116,263.656629,-65.738239,244.328256
107,1.355896,7.182993,2.987022,5.906489,0.0,-54.224052,-15.492668,-73.8731,-11.622391,-75.390987,-9.125519,-66.420307,-8.010864,-53.663864,0.0,-7.006078,39.217131,33.571105,42.144594,32.307754,38.744431,30.431282,31.273558,27.851659,0.0,66.581039,27.672215,91.436119,19.193745,89.28875,10.84528,78.135567,2.843056,58.559647,0.0,14.547162,22.893718,53.612696,39.749234,70.879593,53.447946,78.416478,63.411992,82.138484,34.31016,270.839762,-61.958113,250.234884
108,1.467705,-3.864464,3.148785,5.829424,0.0,-50.660763,-19.0662,-73.061829,-15.419312,-72.494602,-11.69323,-62.62928,-7.87365,-45.751305,0.0,0.925083,35.009087,35.20496,43.669768,44.309564,48.757261,49.172718,50.438601,54.42848,0.0,64.985332,26.736259,91.138744,17.614918,89.340763,8.410263,77.383862,-0.246105,55.94553,0.0,15.223514,23.345546,54.53253,40.553472,70.623267,53.929846,78.498235,63.622746,82.281312,36.530914,266.998901,-58.056278,256.087912
109,-3.985977,5.646519,2.454529,7.347929,0.0,-51.107712,-25.23365,-34.557838,-19.092865,-21.337624,-12.311554,-12.843132,-5.162315,-10.296822,0.0,0.8403,24.537576,47.755422,33.790443,56.106857,40.324625,56.591042,44.513958,59.935135,0.0,65.16592,25.847569,91.388683,16.70557,89.632816,7.80304,77.140675,-0.14328,57.476635,0.0,17.501487,24.504231,52.352617,41.864803,68.545366,55.037339,79.193915,64.080687,83.483099,33.459206,272.786582,-54.687481,263.577002
110,-34.537239,48.430663,2.424774,4.361123,0.0,-50.589123,-38.564243,9.44973,-37.90535,30.182877,-32.747498,36.257286,-25.081787,16.381531,0.0,44.391136,8.763804,28.856647,-10.408094,18.370933,-30.631292,1.341095,-50.073162,-23.296825,0.0,63.139629,25.417156,88.269024,16.460438,87.597599,7.148495,73.394337,-1.392117,52.794056,0.0,20.780866,27.248543,55.034622,44.227621,69.618649,56.411163,79.885088,64.261801,81.771069,-0.075102,321.356184,-51.259775,268.077064
111,-5.951042,-29.581041,1.600056,3.172489,0.0,-2.860336,-23.114376,39.361496,-27.945042,42.858238,-27.845993,34.242897,-23.479099,-47.003918,0.0,33.808783,13.387983,42.567708,25.012251,47.968091,33.50318,54.959349,41.144917,71.826659,0.0,61.03466,25.647125,88.334541,16.57299,87.476463,7.103748,74.03801,-1.655445,53.142586,0.0,18.34895,25.859158,54.344685,42.569993,70.142416,54.809913,78.941788,62.833823,81.55451,-5.426502,291.900311,-49.060078,271.374721
112,7.546921,30.070722,1.02459,-0.035259,0.0,-47.155724,-39.095821,10.82428,-39.445038,32.864456,-34.959183,38.878784,-27.774582,19.174919,0.0,46.731724,12.083321,29.518179,-7.079623,20.227521,-27.497458,4.138945,-46.983789,-19.414577,0.0,60.728302,23.558121,86.79245,14.384708,86.757545,5.049076,74.258995,-3.386307,52.035942,0.0,18.914954,26.093872,54.091138,43.597149,70.517735,55.911602,79.256901,63.377659,81.079032,2.927999,322.072288,-47.227907,271.440717
113,-8.108711,-33.087662,-1.611557,-0.537661,0.0,8.944473,-21.626129,36.71093,-25.945988,42.286835,-25.753212,33.889961,-21.492004,-46.85051,0.0,33.625261,17.710327,44.359026,30.233063,50.299848,39.680382,57.384226,48.105732,75.88187,0.0,61.296387,24.771996,87.887878,16.16684,88.231201,7.194843,76.158257,-1.060181,53.932114,0.0,19.002146,26.494632,51.766667,43.866566,69.342749,56.117107,78.328607,63.658376,80.62035,-4.586248,289.139759,-48.245001,271.058188
114,18.817749,35.671052,-0.921021,0.522532,0.0,-63.516254,-47.446404,0.859337,-47.512379,16.934738,-41.820431,22.619133,-33.412514,-11.463318,0.0,41.728705,5.511039,24.241421,-10.993302,15.514174,-28.723945,0.069099,-45.923164,-17.274616,0.0,60.993004,24.783726,88.973122,16.091709,88.63369,7.07056,75.703697,-1.191502,53.969307,0.0,19.774211,25.754862,51.24043,43.545897,68.61644,55.898202,77.049447,63.481955,79.827289,14.858665,324.82827,-48.538857,271.59818
115,0.293312,3.754055,-0.091896,0.071692,0.0,-52.801151,-45.386009,-26.732769,-45.858364,19.570656,-39.588947,25.833778,-30.332165,-0.843773,0.0,40.334875,7.351263,20.278341,-9.687343,13.06262,-28.337079,-0.386496,-45.6669,-24.607045,0.0,60.978928,24.471188,88.398514,15.504799,87.677879,6.248016,74.314728,-2.183647,52.349396,0.0,19.374501,25.556581,51.174419,43.24758,68.439587,55.603776,76.998009,63.209451,79.705765,15.759802,328.548069,-48.022928,271.635616
116,-3.331604,-4.784298,-0.482025,-0.403107,0.0,-58.934155,-46.660194,2.07756,-46.603203,19.077301,-41.187458,26.540451,-32.761517,5.207748,0.0,44.758181,9.07694,26.214594,-8.731076,17.174642,-27.399584,2.270933,-45.592614,-18.137763,0.0,61.253242,24.316692,88.929405,14.862442,87.337418,5.394115,73.46489,-3.112793,51.599464,0.0,19.634655,26.357608,52.077519,43.908433,68.535671,56.170645,77.302006,63.495108,80.556191,12.899237,323.733374,-48.033915,271.202113
117,-0.081596,4.860931,-0.488605,0.002964,0.0,-49.625015,-44.740334,0.998268,-44.422359,22.999992,-38.337364,27.929306,-29.761105,-7.840919,0.0,40.273125,7.024665,19.779151,-9.923476,11.97464,-28.433162,-1.29503,-45.578597,-31.38724,0.0,60.121593,23.561783,88.475475,14.169273,87.931423,5.153446,74.855289,-2.766552,51.933117,0.0,19.94952,26.197798,50.532338,43.861194,66.884712,56.241843,77.05908,63.648743,81.165483,13.394938,328.575224,-47.945223,271.185996
118,0.825462,-4.083678,-0.627308,0.276148,0.0,-63.371487,-49.334106,-5.667801,-48.589897,18.215904,-42.268009,25.633392,-33.538227,13.117561,0.0,43.019104,7.493042,24.895543,-10.436128,15.701216,-28.784337,1.607116,-46.019618,-17.795234,0.0,59.490852,23.682861,88.744698,14.164639,87.718391,4.987965,74.279022,-3.098602,51.825142,0.0,20.143972,25.898555,50.28157,43.750229,66.378852,56.230543,76.539944,63.679618,80.577804,14.723482,324.512772,-48.069448,271.483371
119,-1.162605,2.012693,-0.040741,-0.124921,0.0,-47.319832,-43.52211,-9.441261,-44.107647,21.804428,-38.559837,26.487465,-30.239811,-2.588196,0.0,41.225316,7.959196,21.67106,-8.155253,13.770404,-25.790492,0.42262,-42.660457,-21.892065,0.0,59.552422,23.02494,88.437767,13.46117,87.406311,4.310646,73.647079,-3.723793,51.564674,0.0,20.707074,25.804324,50.356164,43.622035,66.692853,56.077463,76.740942,63.504062,80.403668,14.019356,326.529741,-47.651711,271.362726
120,2.856331,-1.543575,0.50869,-0.000494,0.0,-65.740643,-52.352829,-1.956482,-51.166077,15.535698,-44.471798,22.488556,-35.177364,3.029137,0.0,40.983934,7.22029,24.799398,-9.998874,15.580926,-28.031476,0.904952,-45.254777,-19.378391,0.0,59.193306,22.517052,88.07785,12.727947,86.458168,3.47929,72.822876,-4.570198,50.462379,0.0,21.093632,26.039037,50.899321,43.783327,66.984377,56.188182,77.278109,63.604098,81.145228,17.488146,325.040491,-46.530561,271.416557
121,0.510979,3.399237,-0.214806,-0.293561,0.0,-54.413738,-45.970631,-2.919044,-45.526485,17.437134,-39.862003,20.201225,-31.853027,0.516129,0.0,39.660684,6.193134,18.592617,-10.829602,11.100131,-29.447907,-3.709409,-47.278215,-26.326979,0.0,59.636192,23.400421,87.408829,13.954639,86.509094,4.705524,73.272743,-3.421154,51.592941,0.0,20.913444,25.740165,50.012153,43.474081,66.945783,55.759387,77.051608,62.889831,80.22558,18.290892,328.494902,-46.4536,271.178169
122,-1.368599,1.025366,-0.175037,0.186548,0.0,-48.695869,-41.835022,-13.882999,-42.428913,20.108414,-36.369209,23.59108,-28.569775,-10.087395,0.0,39.788322,7.238754,16.430056,-9.312394,8.6776,-28.094708,-4.581016,-45.919459,-38.140883,0.0,59.765797,24.21381,87.858181,14.419842,85.512257,4.626217,72.040844,-3.965435,50.609493,0.0,20.439139,25.198429,51.199428,42.918945,67.899024,55.344548,76.883771,62.665862,80.134065,17.174006,329.554276,-46.376925,271.398726
123,-3.072395,-5.053592,-0.271683,-0.08997,0.0,-63.593559,-46.504726,4.685211,-46.658993,19.315109,-41.488037,23.087997,-33.570042,-10.855522,0.0,40.669871,8.234541,25.04782,-8.281471,12.543546,-25.942892,-0.134863,-42.965443,-17.435538,0.0,59.960117,23.966789,88.033619,14.259796,86.050014,4.769611,72.618656,-3.406849,51.692905,0.0,20.79581,25.756776,51.498485,43.461051,67.809856,55.676086,76.797073,62.73564,79.728612,14.243002,324.533659,-46.507215,271.341731
124,-1.977654,-0.589902,-0.256062,-0.065579,0.0,-43.002548,-38.936691,5.756378,-39.889755,27.045479,-35.604858,29.046822,-28.473415,-1.678505,0.0,42.675154,11.733319,23.364133,-4.842653,14.80744,-23.171286,0.674129,-40.746071,-18.61213,0.0,60.025063,23.972855,88.442802,14.230213,86.488724,4.6455,72.897377,-3.721962,51.100502,0.0,20.656501,25.286238,50.937359,43.235724,67.672771,55.718385,76.742177,63.031054,79.94795,12.427711,323.979326,-46.600914,271.31172
125,1.174164,-0.21662,-0.083828,-0.019884,0.0,-63.236847,-45.423546,6.435356,-46.173019,21.347237,-41.807041,23.290329,-34.962502,-24.479942,0.0,41.834854,8.961405,25.030777,-7.153229,13.323145,-24.589261,-0.10442,-41.457992,-15.213078,0.0,59.545612,24.130497,87.631588,14.574623,86.179676,5.079803,73.082943,-3.262825,51.46677,0.0,20.747521,24.903571,51.045175,42.858985,67.905878,55.379931,76.760085,62.75293,79.526935,13.745041,323.813958,-46.541576,271.343089
126,-4.530487,-1.217101,0.059566,0.20921,0.0,-39.583626,-38.134117,11.338692,-39.180336,30.362663,-34.470692,34.517899,-26.161022,-22.881203,0.0,43.820192,12.038119,25.99081,-3.219111,16.214238,-19.62885,5.159247,-35.056203,-6.749938,0.0,59.820442,24.756374,87.678795,15.469894,86.482773,5.968895,73.398628,-2.397995,52.374229,0.0,20.025041,24.751109,50.805275,42.614515,67.658074,55.10156,76.305293,62.426764,78.896278,9.402037,322.659627,-46.294527,271.615069
127,-0.93338,-3.220346,-0.291882,-0.157896,0.0,-51.31588,-39.638443,15.188599,-42.332497,28.113785,-39.717064,28.143997,-34.12674,-13.057251,0.0,46.981689,13.404471,29.994583,-3.823709,17.046263,-22.178154,3.107466,-39.889284,-10.556295,0.0,60.373249,24.845524,87.911968,15.605278,86.743412,6.019192,74.318104,-2.511177,53.064823,0.0,20.020348,24.856393,50.443603,42.75438,67.372416,55.277981,76.242246,62.732552,78.831811,8.501301,319.48794,-46.553764,271.505832
128,-10.134315,-5.934709,0.00412,-0.187042,0.0,-19.369812,-26.208973,28.605423,-29.019356,42.948074,-27.952709,40.213623,-23.033581,-35.07494,0.0,47.481374,16.601166,33.836632,7.071472,25.268516,-3.908184,19.320716,-13.931387,22.542544,0.0,60.486088,23.961697,87.982235,14.603577,86.765614,5.19001,74.128475,-3.007336,52.810192,0.0,20.16293,24.266183,50.32004,42.412097,67.468994,55.149416,76.325794,62.707235,78.773457,-1.580601,313.57151,-46.497231,271.337068
129,12.819557,6.522511,0.416279,-0.116894,0.0,-53.384171,-41.800747,11.831589,-44.879036,24.666252,-42.556286,24.455109,-37.228947,-22.498455,0.0,46.568394,13.594971,28.128177,-3.333534,16.105619,-21.59449,1.631816,-39.252699,-11.178368,0.0,60.308304,24.477997,87.541237,15.239925,86.7239,5.765133,74.269066,-2.653427,53.207474,0.0,20.075182,24.932593,49.860926,42.938458,67.261945,55.491822,76.123561,62.866983,79.102648,11.257324,320.101786,-46.062584,271.22794
130,-11.491184,-5.082985,-0.222931,-0.311963,0.0,-21.686268,-27.482128,24.48,-29.383392,43.267879,-27.085419,41.273975,-21.33791,-30.962505,0.0,44.497779,14.375311,30.31303,5.328381,22.803439,-4.802885,16.969322,-13.820545,22.5163,0.0,60.381317,24.468155,87.819672,15.240269,86.570892,5.879745,74.527245,-2.295456,53.160439,0.0,20.363248,25.142236,50.688381,43.114693,67.504933,55.604455,76.5045,62.758302,78.86176,-0.218782,315.028588,-46.270437,270.925764
131,9.974384,6.419388,0.191174,-0.256141,0.0,-52.516308,-43.074646,3.53611,-44.59734,23.919067,-40.308723,29.637794,-33.521976,6.283951,0.0,45.808679,10.602854,25.890342,-6.929631,15.905424,-25.863975,1.010298,-44.312528,-17.807707,0.0,60.20422,23.904133,87.823391,14.466648,86.310711,5.113506,74.309521,-2.977638,52.534046,0.0,20.555354,25.092774,50.767669,43.153596,67.507032,55.671022,76.648996,62.789177,79.215528,9.789362,321.48853,-46.045504,270.710178
132,-7.573185,-4.989372,-0.719147,0.024515,0.0,-27.109737,-32.126312,19.483852,-33.557281,38.946247,-30.118275,40.132313,-23.345718,-37.830105,0.0,44.939418,14.36716,30.401889,4.259976,21.552376,-6.866028,14.624968,-17.007175,21.167053,0.0,60.653286,23.482647,87.749805,14.305744,86.947803,5.298157,74.677563,-2.381458,52.739124,0.0,20.280379,23.965397,51.029923,42.332686,68.080817,55.291381,77.224262,62.932994,79.873046,2.244415,316.548188,-46.736412,270.783723
133,18.19376,9.749711,1.632614,0.134863,0.0,-68.024426,-50.974674,-20.571327,-52.106438,14.384422,-47.101192,20.25238,-39.615326,2.031898,0.0,37.943837,6.852011,23.040067,-11.16361,11.294521,-30.057878,-1.929577,-47.548867,-21.8778,0.0,58.9044,23.258972,86.905117,13.638439,85.992565,4.150257,73.271313,-4.090462,51.203098,0.0,19.999662,23.495476,49.847526,41.628299,66.797705,54.640655,76.588357,62.492714,79.204536,20.5303,326.346497,-45.011673,270.967184
134,-2.14222,-0.081387,0.476761,-0.320114,0.0,-54.36945,-43.082142,-23.855324,-44.11274,18.037148,-39.69429,21.866341,-32.43679,-1.840096,0.0,40.437628,7.694781,19.37203,-9.44065,12.644941,-28.052101,-2.41228,-45.959103,-26.548108,0.0,58.663044,23.679314,87.042103,13.963223,85.529537,4.297829,72.536144,-4.171486,50.873508,0.0,20.646991,23.36228,50.217041,41.600388,67.134492,54.721239,76.872409,62.650424,79.606717,18.525095,326.293623,-44.397898,270.675583
135,-5.140114,0.670795,-0.218239,-0.494436,0.0,-38.729954,-37.815285,-16.835232,-38.935719,24.647141,-33.65387,31.050797,-25.958691,-13.076649,0.0,37.85572,9.741745,21.240166,-5.486277,10.968849,-22.128507,0.143137,-38.096114,-18.882164,0.0,59.040012,23.882961,87.253017,14.263859,86.128407,4.607277,73.541965,-3.881721,51.37476,0.0,20.664775,24.203136,50.612614,42.351026,67.422867,55.288478,77.430571,62.983135,79.958818,13.442831,326.983437,-44.558287,270.200166
136,-7.346992,-8.021193,0.415993,0.002347,0.0,-47.369614,-39.137878,14.164925,-41.385441,30.582504,-37.829876,33.576393,-31.36322,4.947052,0.0,47.140944,13.789361,28.984161,-4.180256,18.185435,-23.669242,2.706829,-42.716835,-17.592198,0.0,58.921223,23.867054,87.187328,14.327888,86.086864,4.615631,73.347988,-3.928757,51.30724,0.0,20.318417,23.451139,50.433661,41.681528,67.29424,54.790955,77.250568,62.690253,80.089605,6.115637,318.977836,-44.122496,270.218105
137,-12.261372,-32.5902,0.783806,0.540131,0.0,18.196735,-17.648563,42.766285,-21.58556,46.112309,-21.688728,35.074368,-17.69886,-40.630531,0.0,22.960594,15.245497,41.333935,30.912009,50.17857,42.989155,58.662027,52.860329,79.874714,0.0,58.631458,24.002609,86.735973,14.563236,85.407429,4.812527,72.839184,-3.822441,51.093693,0.0,19.726231,23.571985,49.799052,41.604525,66.665127,54.593848,76.307269,62.48728,79.440114,-6.111546,286.385088,-43.304501,270.755688
138,13.134556,33.251115,-0.349617,-0.578231,0.0,-47.190571,-39.396,-1.765709,-40.164413,27.005997,-35.550098,32.678261,-28.859882,14.733582,0.0,47.522067,10.063032,27.31196,-8.045832,17.998763,-27.174998,3.026017,-45.378958,-18.46998,0.0,58.642673,23.920784,86.85545,14.442673,85.836697,4.71508,73.041859,-3.81403,50.555592,0.0,20.365471,23.867522,50.156278,42.057403,67.34432,55.013195,77.061612,62.751757,80.043601,7.043953,319.557147,-43.633175,270.098402
139,-10.444336,-31.867165,0.692997,0.203159,0.0,8.415756,-20.749969,37.048645,-23.506908,43.212547,-22.22683,36.52977,-17.11916,-39.811134,0.0,32.049884,20.034304,40.640169,31.043908,48.376137,38.78531,54.472385,45.086755,76.984177,0.0,57.717133,23.511887,86.083145,14.147873,84.896507,4.496498,72.199516,-4.037132,50.202141,0.0,20.444018,23.92705,49.704574,41.960825,67.173457,54.817446,76.966146,62.602938,80.091519,-3.352919,287.682511,-42.892714,270.294089
140,4.006119,28.549994,-0.522194,-0.264415,0.0,-39.50037,-32.657776,3.187695,-33.366623,31.703682,-29.250641,38.273506,-23.106022,18.72036,0.0,49.711305,13.966523,31.777133,-4.090965,21.476052,-23.425945,5.845541,-41.834175,-15.858494,0.0,58.231659,23.056011,86.298065,13.62751,85.408058,4.276485,72.935028,-3.719444,50.869789,0.0,20.299892,23.442309,49.889887,41.52567,67.072371,54.516413,76.608364,62.476844,79.519711,0.639868,316.232366,-43.42824,270.029534
141,-9.287395,-35.614488,-0.240326,-0.179632,0.0,21.199093,-12.655506,47.008266,-17.884998,46.925297,-19.594059,29.566555,-17.731018,-34.031181,0.0,28.838616,20.503051,48.848404,35.45085,57.327539,47.11365,67.410269,56.599131,83.816798,0.0,57.668495,23.923187,86.270943,14.623604,85.359192,5.147438,72.610359,-3.170929,50.38147,0.0,20.382576,23.64732,49.960591,41.605884,67.176976,54.589958,76.766568,62.622019,79.66044,-8.724632,280.61973,-43.74567,269.851755
142,8.01693,35.341119,-0.087204,0.018896,0.0,-38.619633,-30.946884,14.230671,-31.024933,34.102077,-26.97258,39.887066,-20.574703,17.94817,0.0,49.52383,13.714643,31.691546,-3.917384,21.81747,-22.603985,6.726966,-40.252562,-13.787755,0.0,57.682915,22.760239,86.149406,13.534298,85.564957,4.476242,73.060913,-3.214874,51.475296,0.0,20.22468,23.306026,49.597622,41.353448,66.93121,54.382291,76.533275,62.363717,79.221518,-0.818968,315.950969,-43.944139,269.860771
143,-10.431461,-35.289002,0.279121,0.055514,0.0,25.025368,-10.859184,50.458488,-16.045303,50.345078,-17.866344,35.213928,-16.156139,-30.187855,0.0,27.266512,19.5939,50.366477,35.103751,58.639303,47.373928,68.078903,56.917701,84.827652,0.0,57.591476,22.79314,85.868111,13.650398,85.17437,4.610138,72.750778,-3.206463,51.317711,0.0,19.58649,22.492464,49.274915,40.384831,66.626101,53.413057,76.253917,61.634136,79.362,-11.48037,280.627294,-43.894958,269.881611
144,16.848679,37.555674,0.053959,0.612379,0.0,-43.968372,-38.740768,2.595177,-38.740711,27.930107,-33.570156,35.124664,-26.05299,21.544418,0.0,48.441654,9.781883,27.481033,-7.767831,19.787796,-26.087697,5.622746,-42.941854,-15.24241,0.0,57.666035,22.640591,86.279812,13.603306,85.044193,4.571056,72.49609,-3.254986,51.563473,0.0,19.183815,22.840304,48.919664,40.726126,66.098444,53.544091,75.435662,61.483465,77.989721,5.1723,318.12605,-44.037008,270.437072
145,-9.780865,-15.377952,1.066818,-0.317335,0.0,-10.763454,-19.381256,34.925823,-21.395302,46.875515,-20.516338,41.082859,-16.226234,-34.690819,0.0,45.107194,14.885678,34.762086,15.596549,35.000998,15.111623,35.571757,14.545063,47.460564,0.0,57.433033,22.926064,85.68655,13.604507,84.203396,4.379539,71.245136,-3.910904,50.115681,0.0,19.773038,23.534688,49.732794,41.345235,66.300244,54.047357,75.802274,61.858228,78.5372,-4.813643,302.487265,-43.175268,269.858903
146,3.058205,11.390049,-1.003933,-0.071877,0.0,-34.331131,-31.809711,7.70113,-30.74707,31.421642,-25.416641,41.452618,-17.799911,27.282772,0.0,53.619859,13.354391,31.804611,-3.832478,23.884257,-21.917691,9.511478,-38.769934,-9.558593,0.0,57.508965,24.145317,86.979561,15.067749,85.31044,5.862007,72.048798,-2.408066,51.088715,0.0,19.211109,23.864311,49.484989,41.774709,66.447395,54.518698,75.949734,62.354146,78.932773,-2.035618,313.706898,-44.459381,269.616609
147,-12.741623,-34.96895,0.193577,0.179323,0.0,26.466808,-7.649574,50.250034,-11.304073,53.895206,-12.334499,39.050274,-10.098209,-24.489899,0.0,29.833785,20.855955,49.152896,36.674064,58.246385,49.129616,67.107939,58.696669,86.890981,0.0,57.674732,24.427013,86.971378,15.21801,85.293674,5.801868,72.491398,-2.697201,51.392956,0.0,18.702533,22.901808,49.596264,40.747491,66.267578,53.621835,75.491546,61.771284,78.270376,-15.18322,278.647468,-44.671783,269.705453
148,20.029736,41.581245,0.378513,-0.590025,0.0,-45.472012,-38.096066,-3.653755,-38.497524,27.509766,-33.366966,34.958725,-25.752811,21.347694,0.0,45.677521,8.302281,26.498213,-9.883833,17.804126,-29.085062,2.466003,-47.203744,-18.832641,0.0,57.753181,24.427185,86.830673,15.139503,84.961395,5.561485,71.179962,-3.112564,50.471649,0.0,20.350713,24.651197,50.669918,42.403205,66.798755,54.912233,76.343887,62.505187,78.642855,4.475012,320.179637,-44.664774,269.066351
149,-10.614567,-29.225235,0.599728,-0.253856,0.0,3.969269,-17.445602,40.193424,-20.676842,46.574306,-20.673923,39.258671,-17.084427,-37.641163,0.0,36.77589,15.258095,41.16159,24.757346,46.241487,31.872475,51.403019,37.910554,68.846214,0.0,58.439655,24.216385,87.03455,14.569988,84.826756,5.073967,71.661701,-3.336239,50.913105,0.0,19.777298,23.939153,50.207716,41.918032,66.692483,54.656339,76.063478,62.415279,79.331063,-6.507282,290.918834,-44.432774,268.776927
150,7.915993,28.105083,0.466919,-0.051623,0.0,-39.963169,-35.577278,2.018337,-35.969124,29.365368,-31.138859,36.507511,-23.729324,19.861622,0.0,47.415301,8.835619,28.505472,-9.18982,19.111629,-28.344118,3.126856,-46.346833,-19.176035,0.0,57.850857,23.645496,86.274776,14.24921,84.485836,4.77356,71.568203,-3.856544,50.231724,0.0,19.37271,24.664226,49.553903,42.213323,66.000322,54.608668,76.126031,62.272882,79.765107,0.976124,318.984644,-44.398441,268.686031
