takenoko1/special-research/HandMotion_SimilarSearch_自分用/NewProject/handData/test_key/d4_feature_d2/39.csv
frame,vel_0x_L,vel_0y_L,vel_0x_R,vel_0y_R,posFromWrist_0x_L,posFromWrist_1x_L,posFromWrist_2x_L,posFromWrist_3x_L,posFromWrist_4x_L,posFromWrist_5x_L,posFromWrist_6x_L,posFromWrist_7x_L,posFromWrist_8x_L,posFromWrist_9x_L,posFromWrist_0y_L,posFromWrist_1y_L,posFromWrist_2y_L,posFromWrist_3y_L,posFromWrist_4y_L,posFromWrist_5y_L,posFromWrist_6y_L,posFromWrist_7y_L,posFromWrist_8y_L,posFromWrist_9y_L,posFromWrist_0x_R,posFromWrist_1x_R,posFromWrist_2x_R,posFromWrist_3x_R,posFromWrist_4x_R,posFromWrist_5x_R,posFromWrist_6x_R,posFromWrist_7x_R,posFromWrist_8x_R,posFromWrist_9x_R,posFromWrist_0y_R,posFromWrist_1y_R,posFromWrist_2y_R,posFromWrist_3y_R,posFromWrist_4y_R,posFromWrist_5y_R,posFromWrist_6y_R,posFromWrist_7y_R,posFromWrist_8y_R,posFromWrist_9y_R,posFromBody_0x_L,posFromBody_0y_L,posFromBody_0x_R,posFromBody_0y_R
2,46.664085,-19.618168,2.385521,-0.313013,0.0,-33.217392,-45.757427,5.500717,-56.466465,9.077911,-59.750175,-6.120186,-59.510078,-86.784611,0.0,1.261993,15.786246,48.169335,34.938692,57.743984,48.284932,65.098149,58.644552,77.523814,0.0,65.020351,23.427486,86.079998,13.687534,83.31934,4.669476,69.274693,-3.156281,47.446232,0.0,9.791701,30.060533,53.426456,47.690152,67.627384,59.287991,77.036047,65.534168,78.242589,27.031746,282.585277,-42.127819,275.25081
3,-9.632034,7.117476,0.077362,0.242185,0.0,-28.237839,-35.606461,17.773247,-45.596981,20.388336,-49.235973,6.447601,-49.751015,-78.129215,0.0,19.681462,12.136426,44.75182,28.139354,55.704244,40.383287,61.374722,50.685479,69.53084,0.0,64.627018,23.513203,86.998158,13.720722,83.900013,4.848003,69.834995,-2.767067,48.680019,0.0,9.388656,29.256542,53.509079,46.812987,66.479197,58.746378,76.283927,65.502738,78.392333,16.807394,289.711506,-42.642775,275.501748
4,-21.725636,11.326816,0.051899,0.211804,0.0,-17.509346,-17.050037,37.666912,-21.47644,39.832249,-22.664394,34.821682,-20.043068,-41.143627,0.0,-6.204496,6.927408,29.558564,22.584349,43.205405,34.004038,47.483906,42.494534,60.704607,0.0,64.83387,22.864494,86.377144,12.969532,83.542557,4.182873,68.974686,-3.123264,47.010498,0.0,9.202973,28.993856,53.266029,47.241412,66.49414,59.470957,76.086882,66.221945,77.368079,-5.241823,301.050348,-42.914457,275.725578
5,27.942982,-18.832332,-0.349274,0.342097,0.0,-33.425446,-40.768433,10.423164,-53.491802,13.211632,-58.623219,-4.438019,-59.783592,-85.515747,0.0,4.395888,17.503093,51.309591,35.997464,59.052166,48.769549,65.845638,58.51963,77.5826,0.0,65.364418,23.600349,86.767159,13.95956,84.140167,5.067902,69.599075,-2.622128,48.788338,0.0,8.839448,29.862067,53.330188,47.819828,65.585236,59.772793,74.715281,66.364094,76.688331,22.387018,282.23438,-43.577871,276.084039
6,-13.841629,5.390626,-0.051556,0.196984,0.0,-12.609673,-29.66938,27.699394,-40.15995,30.255318,-43.921909,17.125854,-44.018097,-62.913895,0.0,7.289266,10.480774,42.036222,30.244426,53.907924,45.623798,63.004748,57.751579,70.853905,0.0,65.276585,24.19733,87.184238,14.356098,84.020061,5.14658,69.431477,-2.878475,48.0546,0.0,8.682787,29.599195,53.006801,47.230605,65.79247,59.033703,74.952218,65.556213,76.954907,8.436613,287.632122,-43.738203,276.288139
7,-22.592068,14.180797,0.446892,0.02612,0.0,0.11055,-6.527996,51.481419,-12.460842,51.266727,-16.619854,38.942013,-17.523594,-32.266216,0.0,-8.210582,6.85232,37.110145,21.549227,47.987789,32.853133,50.411184,41.367527,59.698075,0.0,64.868145,23.139324,86.149578,13.299065,83.365116,4.322662,68.620892,-3.387394,47.14262,0.0,9.012226,29.945862,52.829824,47.67033,65.759619,59.330784,74.949316,65.662177,76.500795,-14.258509,301.819542,-43.394365,276.320882
8,35.810223,-18.878398,-0.46772,-0.059466,0.0,-29.087906,-41.843834,12.346916,-53.312073,15.624847,-57.280483,-1.650009,-57.426281,-82.405128,0.0,1.922661,16.402947,49.49277,35.617885,58.668078,48.920714,65.388746,58.943671,77.948533,0.0,65.8671,24.437313,87.258739,14.487133,83.937092,5.227718,69.412823,-2.942791,47.770901,0.0,8.59609,29.417341,53.161547,47.252712,65.905288,59.213952,75.392622,65.869658,77.544315,21.529913,282.949758,-43.883886,276.270031
9,-14.682426,6.875291,-0.063915,-0.066073,0.0,0.166397,-28.286877,31.717415,-39.584999,33.369713,-43.47662,18.577538,-42.756786,-66.215343,0.0,-1.876101,8.685072,41.928221,29.179354,52.713918,44.638941,60.37628,56.20189,68.375243,0.0,65.760269,24.521542,87.3563,14.683228,84.118195,5.354118,69.467239,-2.855186,48.03154,0.0,9.394708,30.048677,53.072071,47.951603,65.954257,59.741795,74.889973,66.208606,76.669497,6.829691,289.838449,-43.965597,276.217358
10,-21.165447,10.536473,-0.358028,-0.871731,0.0,4.648762,-7.7421,50.294666,-13.356686,51.191311,-17.350044,41.80521,-17.833443,-30.257721,0.0,-7.504466,7.594251,37.212342,23.09311,48.350264,34.706881,49.430711,43.456605,59.847882,0.0,65.427303,24.725132,87.000446,14.86227,83.423595,5.519428,69.268627,-2.693596,47.602558,0.0,10.060748,30.120554,53.946457,48.061519,66.477715,59.936123,76.171788,66.442517,77.928835,-14.337273,300.372838,-44.325142,275.343543
11,33.632755,-18.067059,0.1157,0.417803,0.0,-31.30497,-40.927048,13.088608,-53.113232,16.253929,-57.045135,-0.097275,-56.579704,-83.586102,0.0,0.748477,17.82969,52.974999,35.725701,58.592311,48.000015,65.347744,57.760162,79.055162,0.0,65.694981,24.504948,87.01086,14.61937,84.026241,5.381069,69.60474,-2.646904,48.459721,0.0,10.053585,30.876009,53.449119,48.880021,66.023355,60.68318,75.27826,67.142026,77.312813,19.301605,282.311691,-44.20332,275.767259
12,-8.574829,9.456767,0.173378,0.07867,0.0,-22.408504,-30.744095,26.58062,-41.277008,27.699623,-44.962463,15.032158,-44.614391,-67.674122,0.0,8.753677,8.171803,40.509197,27.638311,50.07557,42.79001,58.709019,54.962436,65.921097,0.0,65.815029,23.948078,87.119808,13.748302,83.749409,4.370899,69.169178,-3.807392,46.985722,0.0,9.027848,30.44919,53.930463,48.292095,66.423621,60.158116,75.718973,66.713848,77.734012,10.740337,291.771808,-44.01638,275.849279
13,-4.316597,-14.86882,-0.53484,-0.760642,0.0,-13.283501,-29.532681,23.18367,-40.635166,26.801949,-46.229324,8.066254,-47.793846,-69.924717,0.0,0.106705,24.589817,55.600318,43.352494,64.847813,55.461256,71.130485,64.654225,86.741421,0.0,65.0037,23.792782,87.184639,13.323669,83.108368,3.833199,68.469658,-4.320946,46.098747,0.0,9.647329,30.741455,54.784966,48.843897,67.684812,60.646315,76.864752,66.878784,77.969466,6.459904,276.921776,-44.515057,275.107425
14,-15.668678,13.757313,-0.524254,-0.410146,0.0,-0.163422,-14.324913,46.878891,-22.617245,42.259941,-26.348133,25.106277,-26.151981,-37.356777,0.0,18.090154,17.668584,41.03988,34.186881,49.470293,46.90339,56.891025,58.523274,67.629916,0.0,66.051979,24.887867,87.692757,14.388199,83.309784,4.517441,68.046799,-4.226303,44.94873,0.0,9.870062,31.350993,55.09063,48.993888,68.600509,60.418579,77.643548,66.40806,78.696886,-9.164715,290.661675,-44.995251,274.679865
15,21.93512,-10.894996,0.079079,0.231935,0.0,-18.700047,-33.247776,15.953064,-44.647865,20.092506,-50.7617,3.004646,-53.222637,-75.4632,0.0,2.614945,21.568307,50.908645,39.921086,61.489763,52.060414,67.557235,61.561517,83.624754,0.0,65.477486,25.118065,87.47509,14.718304,83.534775,4.89996,68.523102,-3.728428,46.192017,0.0,10.462064,30.880702,55.197891,48.699401,68.012954,60.27149,77.121819,66.391573,78.21406,12.85449,279.719949,-44.832087,274.86507
16,-18.624973,8.777698,0.343952,0.215385,0.0,13.42226,-17.255745,42.483387,-26.886349,40.560322,-31.106243,26.974812,-30.870781,-42.121468,0.0,8.277087,14.497638,41.891541,33.331452,51.507315,47.432653,59.171777,59.301329,70.285554,0.0,65.57848,23.609447,86.924686,13.311024,83.318768,4.112034,68.343372,-3.478661,46.742306,0.0,10.040185,30.734971,54.949283,48.926457,67.659062,60.697814,76.415888,66.944733,76.917054,-5.674639,288.470677,-44.39229,275.053486
17,-10.034752,4.933734,-0.339489,-0.348458,0.0,19.184589,-6.614628,52.091846,-13.509579,53.266582,-18.194389,39.3437,-20.301418,-29.380932,0.0,-5.129915,10.973974,38.477176,29.3249,53.124126,43.125253,56.077216,53.127461,67.413048,0.0,65.315666,24.25106,87.28672,13.984165,83.589249,4.713421,68.752785,-3.138199,47.130089,0.0,9.888587,31.366184,55.862387,49.561066,67.94299,61.382812,76.799358,67.826529,77.566977,-15.523167,293.383571,-44.545555,274.684188
18,23.325405,-15.15281,-0.238953,0.010436,0.0,-15.144711,-28.465405,21.660233,-40.312214,24.163971,-46.704311,5.327225,-49.022026,-67.492676,0.0,6.62514,23.351783,52.211023,41.690111,61.556577,53.940529,67.976891,63.300347,84.467277,0.0,65.620079,24.339523,87.314873,14.036922,83.828659,4.762974,69.182281,-3.016663,47.63752,0.0,10.121325,31.168459,55.965139,49.482581,67.878214,61.497297,76.574525,68.038518,77.540054,7.918968,278.218797,-44.667778,274.68266
19,-14.186668,16.054551,-0.056133,0.141038,0.0,-16.593704,-19.15369,43.513641,-25.833092,44.774094,-27.944813,31.708374,-26.719437,-34.192486,0.0,27.7226,16.882007,37.592601,30.067758,44.384282,40.693521,53.075652,50.502821,64.176833,0.0,65.68903,24.437599,87.353497,14.069881,83.842106,4.708958,69.140453,-3.201599,46.78236,0.0,9.954228,31.397985,55.415314,49.71044,67.714205,61.552749,76.341664,67.880314,77.006839,-6.024055,294.262789,-44.480267,274.813138
20,22.808189,-13.05379,-0.295658,-0.308196,0.0,-24.073162,-35.381355,13.750076,-47.977924,16.232643,-54.334087,-1.517944,-56.795998,-79.227448,0.0,8.600597,19.807494,50.633238,37.76544,59.815092,50.11929,65.737636,59.803977,81.421314,0.0,65.972099,24.137592,86.977615,13.820686,83.417587,4.546852,69.058342,-3.357468,46.943893,0.0,9.843139,31.575826,55.23914,49.735573,67.990044,61.521935,77.223151,67.763605,78.235672,17.01067,281.185889,-44.549389,274.481832
21,-18.014717,7.351572,0.216236,0.515245,0.0,10.533257,-21.38546,37.060089,-31.011028,36.772156,-34.473209,25.417213,-33.864784,-47.794819,0.0,3.065167,13.574161,40.787012,33.638413,50.187462,48.388179,58.803682,59.740251,68.811016,0.0,65.950184,24.188862,87.100925,13.792934,83.269558,4.311104,68.20467,-3.731174,45.965939,0.0,9.881177,30.750779,54.976021,48.889407,67.994861,60.80489,76.663075,67.332773,77.326027,-0.872641,288.536828,-44.201746,274.996444
22,-10.098267,7.09679,0.258121,-0.046189,0.0,19.431725,-8.9538,48.234787,-15.739803,49.275627,-19.894981,37.857971,-20.237103,-42.087765,0.0,-9.700002,10.318988,38.414684,28.494666,50.814352,42.430128,53.689451,52.741089,68.021907,0.0,65.820122,23.907223,86.6502,13.624935,82.807388,4.242554,67.966347,-3.821354,45.499306,0.0,10.031416,30.659141,54.909454,48.805982,67.958119,60.697567,76.725937,67.190006,77.305588,-10.741796,295.645936,-43.714514,274.962574
23,-0.635548,10.44854,-0.183392,0.142705,0.0,-0.804691,-7.79583,45.507832,-12.824993,45.210056,-16.608124,34.102421,-18.030224,-40.13998,0.0,-12.648707,8.212002,33.584752,21.449314,43.773817,31.562179,46.067536,39.053739,53.398298,0.0,66.290302,23.966618,86.756916,13.58345,82.544575,4.175949,67.445011,-3.84407,45.373936,0.0,9.384148,30.46648,55.063151,48.575715,68.245259,60.512748,76.59589,67.210445,77.148803,-11.168404,306.094847,-43.688965,275.10565
24,33.827419,-21.17576,-0.079823,0.115165,0.0,-26.992092,-40.063076,9.82132,-52.544003,10.329552,-58.508549,-5.331345,-60.913467,-86.939964,0.0,0.965776,17.460855,46.239511,35.568114,55.527514,47.854902,61.760971,57.903979,78.258829,0.0,66.364746,24.544544,87.098694,14.294987,82.974472,4.807606,67.822037,-3.486328,45.926628,0.0,9.252064,30.582139,54.776691,48.602576,67.386743,60.563199,75.991786,67.362289,77.289224,22.80261,284.935544,-43.625193,275.237271
25,-23.533859,-2.137738,0.159416,-0.275283,0.0,8.378792,-21.66647,38.472633,-32.514668,37.616501,-36.403198,25.948563,-35.950527,-48.363247,0.0,6.307928,15.067409,46.58661,36.283492,57.828273,51.700224,64.953653,62.57021,73.675034,0.0,65.746536,23.055496,87.053947,12.670212,83.257256,3.353462,68.988991,-4.301605,47.896156,0.0,9.887723,30.550955,54.818681,48.698104,67.032666,60.553998,75.61622,66.858715,77.153991,-0.688047,282.798671,-43.422575,274.962852
26,-12.081242,6.690163,0.056305,-0.333329,0.0,20.467358,-11.630001,54.883518,-18.156624,55.759678,-21.390324,42.244663,-21.438675,-7.120171,0.0,6.802981,15.429328,40.744651,33.506082,51.667681,46.749817,56.046897,56.420302,65.58431,0.0,66.163673,23.106308,87.229614,12.548447,83.255424,3.244972,69.04438,-4.551086,47.030754,0.0,10.049077,30.832475,55.367272,49.076943,67.44627,61.168476,76.404155,67.709759,78.153236,-12.734013,289.49683,-43.330994,274.63752
27,25.225239,-8.799681,0.817223,0.061318,0.0,-15.169601,-31.193161,21.579781,-42.774925,21.993828,-49.593201,3.299446,-52.283649,-71.440659,0.0,-2.860773,20.852188,47.006884,39.714345,56.977167,52.208491,64.052467,62.057497,83.883736,0.0,66.009178,22.526894,86.504631,12.019157,82.86438,2.834358,68.444252,-4.778709,46.587181,0.0,10.075197,30.538975,54.741802,48.895458,67.308381,61.179282,76.376059,67.895257,78.042394,12.530308,280.698107,-42.474689,274.699795
28,-17.594604,8.88786,-0.326614,0.036988,0.0,10.29213,-15.880623,41.32267,-25.199604,40.186615,-29.587727,26.227341,-29.969215,-30.148544,0.0,10.683377,14.096508,38.514288,31.833943,50.643798,45.497827,57.494327,57.429612,66.835497,0.0,65.856514,23.437958,87.281914,12.857323,83.491402,3.393631,69.069672,-4.571228,47.032127,0.0,9.922427,29.984086,54.424034,48.33742,66.715948,60.749006,75.893232,67.652702,77.948163,-5.049763,289.594288,-42.78677,274.745105
29,-13.772049,9.492459,-0.24107,-0.601573,0.0,6.324577,-4.765663,50.841751,-10.127106,54.946175,-13.814278,40.216599,-15.638981,-18.750515,0.0,16.472478,12.20182,35.457704,24.395735,46.247415,34.43981,49.288006,42.412159,61.47093,0.0,66.233311,23.892574,87.023106,13.406754,83.033123,3.882751,68.509197,-4.266014,46.560001,0.0,9.978187,30.796412,55.908761,49.198467,67.858392,61.358791,76.547293,68.049942,78.051224,-18.802757,299.091378,-43.008785,274.148163
30,34.513779,-17.489507,0.224705,0.380444,0.0,-16.946297,-31.833172,17.687073,-44.400787,16.628494,-51.715679,-4.203644,-54.743671,-74.757671,0.0,-1.454469,20.501075,48.478396,39.089369,57.437948,51.401475,63.728154,61.100736,81.35802,0.0,66.329498,23.605213,86.944656,12.883301,82.533875,3.20446,67.402153,-4.885368,46.221886,0.0,9.554888,31.070646,56.115378,49.444481,67.829617,61.515884,75.559533,68.116077,77.177764,15.726357,281.607304,-42.768745,274.534042
31,-15.469666,8.844512,-0.141106,-0.546553,0.0,7.862549,-18.319988,37.614441,-29.059696,34.905167,-34.568996,18.83503,-35.67049,-47.975178,0.0,3.59443,11.203562,39.307781,30.041328,49.274853,44.180012,56.391896,55.975637,64.491019,0.0,66.667213,23.09618,86.871185,12.770004,84.063263,3.555279,70.021706,-4.121647,48.725967,0.0,9.36797,30.840132,54.553587,49.345557,66.829322,61.704902,76.229525,68.337761,78.355715,0.269251,290.466096,-42.897291,274.001769
32,-13.599014,2.163734,0.207424,-0.300786,0.0,20.411797,-7.771912,52.152328,-14.395466,52.694435,-19.113007,40.508766,-20.807247,-35.990868,0.0,-8.133209,12.793883,40.462822,30.67143,54.594465,44.311725,56.243325,54.046863,67.994861,0.0,66.721516,23.753128,87.113285,13.310795,83.468456,3.942604,69.073391,-3.943577,47.895412,0.0,10.366721,31.495304,55.367457,49.741748,67.473193,61.850942,76.532164,68.511156,78.45853,-13.338432,292.65893,-42.698536,273.730082
33,8.913918,-18.377725,0.575638,0.096578,0.0,4.942017,-18.536053,35.456772,-29.1782,39.486694,-36.262665,18.113823,-39.267368,-58.697433,0.0,-4.110293,24.698127,53.67,43.772953,66.203296,56.535713,74.66619,66.464377,88.073131,0.0,66.647358,23.484821,86.330395,13.330936,83.303547,4.241467,69.480457,-3.367252,48.807049,0.0,9.985597,31.092567,55.296815,49.301776,67.266885,61.437399,76.756812,68.051177,78.750239,-4.463997,274.282486,-42.16238,273.827941
34,-12.412491,18.646587,-0.17601,-0.091329,0.0,-23.235741,-5.128269,54.357147,-10.828457,52.754288,-12.893772,42.09137,-11.650543,11.398487,0.0,30.50668,18.167897,34.601102,32.590138,44.601396,41.861963,47.941723,49.254475,51.793899,0.0,66.067944,24.619789,86.918621,14.240055,82.634296,4.687214,68.906765,-3.540916,48.278675,0.0,9.689751,30.611532,56.061779,48.743182,67.894763,60.800999,77.135157,67.627075,78.693552,-16.912937,292.964919,-42.37484,273.772458
35,7.309399,-19.281751,1.354122,0.177594,0.0,11.923084,-9.234009,43.36092,-19.573631,42.857265,-28.802776,19.009724,-34.337482,-53.730927,0.0,-8.589421,27.244282,50.674488,46.364185,66.550519,58.231256,74.081414,67.048597,86.058832,0.0,66.394958,24.243107,86.423378,13.76152,82.649345,3.710918,68.181267,-5.256329,45.755081,0.0,10.00579,30.197186,54.525614,47.812973,67.249842,59.345851,76.450345,65.654273,78.134278,-9.608545,273.781891,-41.025724,274.048776
36,5.416489,-1.353507,0.951118,-1.615329,0.0,8.529339,-15.465488,37.96114,-25.146561,37.252979,-32.536812,11.230373,-35.959625,-58.456192,0.0,-6.710479,28.808914,49.776081,47.581718,65.900657,59.01845,72.832017,67.716552,85.539758,0.0,67.779922,24.869442,85.959663,15.005608,82.967377,5.702591,69.074821,-2.489204,48.464584,0.0,10.208516,30.586832,56.745603,48.320809,69.429755,60.302982,78.092165,66.990984,79.63611,-4.244671,272.490273,-40.12722,272.495336
37,2.582531,2.148112,4.238491,-4.990607,0.0,5.939941,-12.266006,38.287582,-24.11356,38.876495,-34.510345,13.897705,-41.562538,-53.878384,0.0,-7.942647,24.302492,56.400912,41.73735,68.718822,52.911952,74.15045,61.659886,84.365574,0.0,64.112835,26.005383,81.128483,15.835304,79.356937,4.861107,64.301548,-5.834427,40.815182,0.0,12.662539,27.175368,63.130904,44.041999,80.046256,56.254687,87.139341,64.135769,89.288687,-1.656218,274.805558,-35.882807,267.671904
38,12.872429,-1.295462,4.372272,-9.193587,0.0,0.984535,-19.472179,26.198959,-38.159008,21.112404,-49.960041,1.010742,-55.833378,-40.665493,0.0,10.111877,13.220578,64.767352,31.422253,77.830837,45.459171,83.046153,56.45976,86.033206,0.0,64.648361,24.066925,76.507072,11.765099,67.774887,-1.646233,50.165634,-14.77375,27.712898,0.0,16.489213,23.51221,69.38196,39.383301,93.409601,52.103454,99.839054,61.478587,97.937265,11.104975,274.006122,-31.621771,258.974343
39,-12.986412,49.756753,2.354393,-9.123747,0.0,-36.348381,-31.914654,-11.448097,-20.593185,7.289658,-4.589539,20.673866,14.086189,28.010101,0.0,27.983125,-15.059382,29.582893,-30.889162,23.77959,-42.887205,0.906249,-51.151263,-19.27113,0.0,64.739571,23.231049,69.840317,10.151253,56.252747,-4.433498,32.057533,-18.939743,10.768833,0.0,23.378768,16.923441,66.115055,28.62922,91.425931,39.659943,108.040497,49.66987,100.804584,-2.318029,324.858945,-29.70397,250.946666
40,44.129906,-67.514381,4.631367,-9.549825,0.0,-51.242352,-23.649445,-63.594589,-11.866722,-61.376324,0.93029,-38.684464,13.244019,-9.675751,0.0,31.121405,35.545019,70.902935,45.173082,96.651992,50.819972,98.16605,53.464989,96.773764,0.0,40.351238,12.864647,58.355885,-1.808796,35.751743,-18.438835,17.009411,-34.013958,-6.056271,0.0,45.767059,8.220647,51.038877,17.546318,82.390981,28.020731,91.192391,38.652176,86.819782,40.858126,259.126218,-26.026354,243.178495
41,5.194016,-8.855565,-25.247526,-34.870489,0.0,-29.484444,-20.62912,-43.271255,-6.222954,-31.315155,10.853004,-11.031532,28.294029,17.600784,0.0,50.181596,25.51243,89.555943,30.466604,99.972373,34.221893,102.490987,36.701296,92.151992,0.0,45.679836,18.41629,63.069534,2.578668,37.069244,-16.006651,14.01741,-33.787308,-16.897431,0.0,48.853684,7.388684,49.437442,12.127904,77.378886,18.930145,78.172872,27.254007,72.874316,45.066862,251.894102,-52.259159,209.931455
42,29.763794,-47.875588,-25.247526,-34.870489,0.0,-22.088242,-29.009285,-51.814613,-16.028252,-40.652275,0.787926,-19.416618,18.912621,10.288124,0.0,61.50835,39.393922,105.746222,47.116799,122.828485,51.483171,122.316945,53.096709,111.200265,0.0,51.008434,23.967934,67.783184,6.966133,38.386745,-13.574467,11.02541,-33.560658,-27.73859,0.0,51.940309,6.55672,47.836006,6.709491,72.36679,9.839558,65.153354,15.855839,58.92885,74.183321,207.152764,-78.15402,178.195217
43,2.090492,-15.784023,-38.894463,-35.781276,0.0,-20.482864,-24.658928,-40.460815,-10.766144,-27.235107,7.367249,-2.854042,27.048912,28.008041,0.0,57.118575,34.054117,95.275513,38.682125,106.159332,39.625857,100.44569,38.902327,89.497033,0.0,42.691784,33.357067,66.804543,16.59874,39.598274,-2.277946,6.92585,-19.95203,-9.519711,0.0,52.896576,17.420347,55.967856,22.872167,84.530262,26.90978,46.084826,30.357058,37.18511,75.634489,196.853459,-117.687807,147.898659
44,15.521507,-48.876686,-2.158642,5.547534,0.0,-22.183228,-25.554428,-45.513954,-11.305504,-30.379486,6.726837,-3.962975,26.870956,29.292755,0.0,63.828005,32.345607,101.131058,35.074172,107.025505,35.453135,103.554453,33.462734,86.649722,0.0,14.337845,22.665539,22.172527,4.930286,2.342491,-16.199856,-22.058601,-37.79932,-51.603642,0.0,53.414045,10.52474,36.292384,1.175357,35.999749,-5.771379,17.028849,-9.568535,2.429879,90.794878,151.060789,-120.207567,156.530209
45,11.332626,-31.567027,-19.607706,-13.5184,0.0,-28.149033,-22.325134,-42.87426,-9.489212,-25.904846,7.459717,-4.549599,27.020073,32.735825,0.0,63.814018,18.457291,78.325303,17.109959,84.800637,15.606521,79.046548,13.778586,66.344859,0.0,3.568554,19.016075,5.70199,5.369225,-14.705543,-11.723013,-34.578581,-29.816723,-57.495003,0.0,56.935547,7.958146,42.587499,-4.557906,31.489313,-15.134656,11.308877,-23.666664,1.416878,101.66007,121.123047,-140.282707,144.641093
46,0.0737,11.484805,-19.607706,-13.518401,0.0,-17.982674,-9.971352,-17.602386,4.9823,-2.63546,21.728554,12.345543,36.713219,50.967178,0.0,42.455631,-3.253845,30.566454,-19.671613,22.091766,-32.522707,1.743955,-41.878234,-17.949888,0.0,-7.200737,15.366611,-10.768547,5.808163,-31.753578,-7.24617,-47.09856,-21.834126,-63.386364,0.0,60.45705,5.391552,48.882614,-10.291169,26.978878,-24.497932,5.588906,-37.764792,0.403879,100.997801,135.538773,-160.626383,134.053614
47,29.124527,-49.384892,8.488712,-24.288691,0.0,-32.458191,-31.488876,-50.500374,-19.350357,-36.825027,-4.459877,-24.151039,11.568146,-9.633522,0.0,52.948755,-8.267022,25.595422,-16.145263,27.835789,-20.227644,25.289943,-21.640463,15.122645,0.0,-13.835506,3.301334,-13.177185,-14.268951,-41.500225,-31.814117,-67.103291,-46.619968,-85.058155,0.0,65.778237,24.080129,94.72331,16.256506,86.81722,6.277609,66.117926,-3.802806,33.684819,128.991337,90.554092,-153.268661,114.165134
48,-0.055618,5.995162,8.280773,7.942122,0.0,-20.111618,-23.391495,-43.437653,-9.23069,-23.173943,9.012794,-0.191803,27.026253,26.066895,0.0,38.333637,-15.651105,-9.360189,-25.771287,-23.181444,-30.989043,-30.59523,-32.866472,-31.652582,0.0,-16.77103,-3.108273,1.002903,-15.829182,-26.148148,-28.626595,-54.871502,-38.780193,-83.041935,0.0,55.895855,29.757462,85.317271,25.544108,86.023264,18.273182,76.162094,8.4691,42.382766,127.892361,99.96785,-146.031246,125.525852
49,-0.119019,-4.149659,28.611717,20.351948,0.0,-16.437492,-24.141769,-34.026947,-9.219589,-5.337639,7.655869,16.568527,24.06189,40.726089,0.0,35.052004,-18.445558,-11.349448,-27.712906,-27.638867,-32.113981,-29.831284,-32.601593,-29.686912,0.0,-12.492886,4.416847,-2.316856,-12.317963,-34.676685,-30.434875,-58.374538,-46.764107,-86.31197,0.0,67.358337,35.887857,92.460868,30.953444,76.688578,21.572445,64.832746,8.90231,41.652629,126.79224,98.035062,-118.400631,148.09467
50,0.673485,-33.215979,8.265266,2.998415,0.0,-36.18679,-38.088341,-56.059685,-27.206726,-38.113518,-13.585968,-20.288544,-0.171089,-16.410942,0.0,34.070111,6.665494,49.632542,12.30766,71.100165,18.263827,65.934743,22.642857,60.896682,0.0,-6.737995,6.000881,14.687576,-4.746552,-11.797028,-17.858334,-35.953445,-33.318386,-60.705414,0.0,65.755976,26.662346,78.311008,22.834253,74.289142,17.017673,64.676023,9.707103,40.970472,126.746492,65.316915,-110.854597,151.590917
51,-22.699699,35.643388,39.312344,-1.77341,0.0,-32.310562,-30.632858,-55.304489,-29.780731,-58.711395,-24.126091,-53.009148,-15.344124,-36.143761,0.0,49.337807,-1.210987,45.139242,-2.712634,47.168207,0.557328,42.589938,6.295547,45.961943,0.0,11.864548,14.098663,14.672985,-2.839222,-20.287285,-23.677311,-43.372364,-44.919834,-77.5494,0.0,69.064625,23.996025,78.572274,16.601043,76.955031,8.225711,70.395778,1.194747,42.204122,103.489466,100.295529,-72.099581,149.152732
52,-7.668343,4.793407,7.4156,-9.148385,0.0,-35.487328,-32.822914,-72.19986,-22.2052,-58.407326,-7.835426,-32.561188,9.022179,2.520905,0.0,40.643504,14.156375,63.109909,14.571986,73.047773,15.267295,70.381452,15.036287,60.924006,0.0,15.729389,14.951363,31.376495,1.878319,-6.541901,-16.134224,-28.607655,-37.959538,-66.728096,0.0,72.379819,21.052012,73.279584,15.503058,78.367818,9.267193,61.655625,4.770806,45.011481,94.34206,104.827376,-66.163044,139.742788
53,-28.119507,33.446987,4.7616,-8.39256,0.0,-16.456261,-27.962608,-49.562073,-16.697388,-22.676582,-1.237564,-6.442566,16.185493,21.631966,0.0,58.118994,26.542488,93.163402,25.061281,98.306779,23.981946,97.600972,22.969671,73.138299,0.0,16.478577,16.668148,36.901531,2.807407,-6.296024,-15.78249,-27.338333,-36.871319,-64.319515,0.0,72.810714,20.19152,66.037805,14.099688,75.270356,7.212572,57.807525,1.88172,38.275684,64.092522,137.914698,-63.531475,130.990562
54,7.983398,14.287934,-4.513435,-4.359456,0.0,-23.701973,-26.952667,-45.024033,-15.18425,-21.462936,-1.10527,-1.899147,14.432373,22.909126,0.0,60.460014,37.530912,103.599469,36.955152,106.807279,34.72448,98.475729,31.71495,83.047141,0.0,10.029945,11.351967,22.976303,-4.969196,-22.816715,-25.20813,-39.202023,-43.384495,-70.254707,0.0,67.17852,11.808562,58.391128,4.540539,71.665367,-3.475437,44.505251,-9.630131,26.773064,69.577932,150.363473,-70.542898,124.791948
55,13.306961,7.292291,-5.24683,1.694925,0.0,-23.715706,-22.382011,-33.752975,-10.851402,-14.706459,3.267975,4.000053,18.988152,31.795807,0.0,54.054705,47.776911,115.388117,50.50208,120.537607,49.3513,110.191943,45.626206,93.507476,0.0,-4.543076,4.744663,-9.761639,-11.783009,-44.392948,-29.005852,-58.983765,-44.317417,-69.28196,0.0,51.678302,13.352662,46.912714,3.779835,61.817411,-4.217214,47.342003,-9.050295,23.43669,79.217806,157.442278,-79.456816,126.273387
56,9.797058,7.232394,-38.874092,-12.777719,0.0,-33.358612,-9.679527,-11.304474,5.241623,9.87133,21.351585,29.607239,37.273293,59.414978,0.0,45.592058,47.599132,113.912652,49.153143,116.657458,46.364556,106.86761,40.686482,89.434357,0.0,-14.731436,-0.58568,-18.227063,-18.559599,-48.038578,-37.525063,-67.132388,-53.597718,-84.230004,0.0,64.709568,19.155842,63.656631,11.07756,55.455466,2.613231,44.265335,-4.506221,25.808198,87.122984,164.086313,-120.222787,112.90731
57,32.74601,7.032724,-38.874093,-12.77772,0.0,-13.677234,-3.812885,1.840553,10.45269,19.234028,25.591908,35.676155,40.158577,67.433224,0.0,58.22082,41.717374,96.416661,38.622289,94.176047,31.675152,83.726025,21.967246,63.049116,0.0,-24.919796,-5.916023,-26.692486,-25.336189,-51.684208,-46.044273,-75.28101,-62.878017,-99.178047,0.0,77.740836,24.959023,80.400549,18.375286,49.093523,9.443676,41.188667,0.037853,28.179708,118.985452,170.78103,-159.980421,99.791583
58,32.74601,7.032724,-14.861012,9.101177,0.0,6.004143,2.053757,14.98558,15.663757,28.596725,29.83223,41.745071,43.043861,75.451469,0.0,70.849582,35.835617,78.92067,28.091436,71.694637,16.985748,60.584441,3.24801,36.663875,0.0,-27.773094,-15.697575,-30.295944,-30.678921,-68.068886,-44.139004,-92.628021,-54.866753,-105.750904,0.0,63.468926,26.317408,85.269415,17.101869,58.491657,5.832635,47.591845,-6.759478,23.915163,153.368998,177.340576,-173.203897,108.419583
59,17.949028,8.314693,-42.150421,-7.158694,0.0,14.278679,3.214989,21.00174,16.29879,39.960251,30.193977,54.76902,41.522369,87.649612,0.0,44.804493,14.398961,35.562309,-1.783352,23.934645,-17.701497,9.326782,-30.524464,-16.165455,0.0,-40.126076,-14.092026,-65.828419,-1.253128,-39.910069,12.812233,-8.003311,26.911526,9.504318,0.0,40.172225,20.074503,52.337828,26.153615,77.234667,31.562889,92.646891,35.354674,87.143139,174.992466,185.433029,-211.679878,101.038648
60,35.935593,-85.58743,28.80209,24.576324,0.0,5.039749,-2.930603,15.458794,20.54203,34.323235,43.332825,51.394615,63.581429,70.912399,0.0,65.804574,33.946455,98.36149,31.555541,71.37372,25.070482,53.766269,16.974138,33.889583,0.0,-12.558403,-7.824898,-12.322826,-26.827583,-38.892803,-44.809971,-73.32653,-60.543079,-102.205868,0.0,59.702521,42.547454,108.532833,41.345668,98.988936,36.807506,90.340482,29.469581,68.145593,213.767538,98.801971,-180.038309,124.571345
61,0.97435,6.618903,17.089634,28.229633,0.0,8.487625,1.306343,26.194038,22.949982,43.735428,44.407997,60.944824,61.813202,76.442299,0.0,56.924309,-3.190891,45.664491,-9.559767,31.996439,-14.812565,25.172401,-17.128792,13.391688,0.0,-19.36512,-2.965393,-3.368454,-21.249676,-40.49881,-40.159035,-71.126289,-57.613564,-99.929066,0.0,70.409425,32.495599,101.056587,28.326149,90.067298,21.855385,78.912457,13.302397,53.159942,216.278057,104.860397,-161.412506,152.2405
62,-18.103104,-3.582944,0.180073,1.577908,0.0,0.457573,-10.07019,9.075241,6.899757,22.152443,24.323959,36.599388,39.726181,48.769074,0.0,57.592283,-0.993924,42.518349,-7.876059,31.438359,-13.108614,24.163317,-16.036314,13.762263,0.0,-14.983177,0.448723,-10.307579,-7.829475,-24.376259,-17.154121,-37.807045,-27.336502,-55.780735,0.0,58.021799,26.103875,83.140137,26.897183,87.903132,25.192069,79.778383,21.349958,61.874036,198.455248,101.696043,-160.952139,154.236999
63,-18.103104,-3.582944,30.597039,-3.73306,0.0,-7.572479,-21.446724,-8.043556,-9.150467,0.569458,4.239922,12.253952,17.639161,21.095848,0.0,58.260258,1.203042,39.372207,-6.192352,30.88028,-11.404663,23.154233,-14.943837,14.132837,0.0,-7.982569,6.759481,9.335689,-5.293723,-15.531178,-19.899159,-37.23733,-35.3827,-62.600785,0.0,61.843223,29.416569,88.032468,29.104328,90.258756,26.339947,85.149619,21.405101,66.572872,180.724735,98.210464,-129.982509,150.601304
64,-18.103103,-3.582944,30.597038,-3.733059,0.0,-15.602531,-32.823257,-25.162354,-25.200691,-21.013527,-15.844116,-12.091484,-4.447861,-6.577377,0.0,58.928233,3.400009,36.226064,-4.508645,30.3222,-9.700712,22.145149,-13.851358,14.503412,0.0,-0.98196,13.07024,28.978958,-2.757969,-6.686096,-22.644196,-36.667614,-43.428898,-69.420834,0.0,65.664647,32.729262,92.924799,31.311473,92.614379,27.487825,90.520855,21.460244,71.271708,163.873158,95.08401,-98.133945,147.324735
65,-31.285744,16.653716,12.204666,-7.872467,0.0,-23.620949,-47.53006,-51.294022,-38.86631,-36.715851,-25.489426,-26.127892,-8.257942,-12.787743,0.0,60.466374,7.075115,45.235697,-3.09172,35.272268,-10.774027,25.603481,-16.085982,13.557766,0.0,5.135593,18.247719,36.460075,1.750546,1.6749,-18.550186,-27.568188,-38.56144,-62.926197,0.0,69.301777,23.892871,88.912473,20.68716,88.697582,17.945997,84.893077,15.577684,68.661117,134.979744,111.492052,-83.536949,139.206594
66,-38.124046,6.892921,7.983341,-7.905195,0.0,-16.579285,-34.035416,-50.969582,-19.54628,-37.02919,-0.119591,-14.27639,20.978394,20.788307,0.0,70.881229,11.78309,59.557562,9.551893,55.147657,7.568964,40.131006,4.803657,17.650861,0.0,6.184559,16.449566,38.52459,1.995564,0.276432,-17.812843,-20.052395,-38.058643,-62.524509,0.0,68.839977,24.61038,80.665119,21.894597,83.167246,18.858267,79.797093,15.703439,71.174451,98.885479,117.876735,-73.523827,130.793162
67,-26.782379,23.050719,2.496471,-14.15585,0.0,-12.261543,-33.160858,-48.415375,-18.435516,-31.917458,0.294914,-11.835022,20.176849,12.783165,0.0,73.907092,10.867702,69.098464,4.694019,56.145574,1.815709,43.165576,1.141642,29.623525,0.0,7.136364,15.713539,41.03159,0.959129,3.821812,-18.338871,-21.388435,-38.030148,-61.664543,0.0,65.035472,24.557954,81.843502,23.158257,90.16153,20.721586,84.10048,17.973785,69.042765,72.594681,140.48387,-70.535774,116.193728
68,-5.076942,5.552227,-4.860191,-8.68711,0.0,-10.685005,-29.399185,-59.051514,-19.776764,-45.013847,-4.775505,-18.158226,12.344971,9.055824,0.0,64.691584,13.872292,71.512288,10.634965,75.309814,10.13102,77.714375,10.077358,50.98608,0.0,9.024181,14.960804,39.916821,-1.189899,0.801773,-21.381111,-30.207138,-41.209202,-65.56097,0.0,65.527746,22.247408,78.161881,20.972725,89.890013,18.379115,78.712139,15.75077,64.980391,67.149725,145.838125,-75.763979,107.308646
69,-0.455589,15.073646,-16.273613,-17.104,0.0,-21.503906,-33.729057,-59.433289,-25.061073,-47.13089,-10.548706,-16.068993,6.896667,5.52372,0.0,57.543912,15.484472,72.260888,11.994338,77.68313,9.575266,76.966825,6.760744,54.939959,0.0,8.569851,13.664703,39.258213,-2.668762,-0.375824,-21.599293,-30.709591,-39.531441,-61.298733,0.0,65.0167,26.551504,86.332819,26.887272,104.254085,26.034375,89.334136,23.573374,73.690966,66.469231,160.404167,-92.262497,89.697043
70,1.917458,11.19782,-10.90313,2.851171,0.0,-15.011215,-33.844643,-55.752182,-24.646339,-47.228966,-9.287109,-21.928253,9.335175,3.845787,0.0,65.155762,15.863619,78.562517,11.036651,81.467751,7.617469,73.033139,4.799798,55.933894,0.0,2.246704,8.942585,28.81216,-8.073292,-5.234985,-26.603909,-41.396999,-44.191303,-67.296925,0.0,61.782738,23.238563,79.092923,22.132181,94.426847,19.297868,77.565711,15.981779,62.30385,68.222208,171.114236,-103.330107,92.060463
71,1.992073,5.121023,-12.864475,6.379589,0.0,-10.577087,-31.175194,-49.404488,-21.535492,-37.305565,-6.38649,-10.520554,11.533813,9.853821,0.0,64.80996,19.817189,81.569701,16.535525,83.737387,14.491154,78.42926,13.296901,63.023829,0.0,-4.762001,5.311317,14.353008,-10.028172,-16.721535,-27.055035,-46.919289,-43.335228,-66.346436,0.0,60.355655,18.796548,72.186232,14.211919,77.212283,8.781927,61.857858,3.928685,48.144573,70.013237,174.467839,-116.395626,96.672632
72,2.704582,5.191295,-26.541939,11.51534,0.0,-17.627907,-27.199974,-39.905663,-15.920105,-18.757896,-0.252457,0.327759,17.353935,20.428848,0.0,58.345371,21.02336,84.521185,15.275817,80.749285,11.666444,77.865417,9.387668,59.019438,0.0,8.335018,7.411823,12.454777,-15.737686,-27.013664,-39.342556,-63.073082,-60.487118,-86.339893,0.0,75.334515,5.536141,59.54197,-3.219512,52.804753,-8.563516,50.652875,-10.668927,40.532476,72.623777,178.465097,-143.031607,106.993935
73,6.760826,2.242404,-7.106667,-7.024109,0.0,-17.344093,-25.420761,-41.783638,-15.234146,-28.06263,-0.527115,-5.125923,16.264114,20.586205,0.0,53.893104,20.219925,80.07213,14.756187,81.576493,11.65255,76.154313,10.020239,58.240519,0.0,-2.417965,1.078606,0.848923,-17.035332,-33.58881,-37.038288,-63.968582,-55.292931,-91.349087,0.0,79.577015,16.464296,75.280607,12.293303,72.793238,7.130382,65.374914,3.219172,50.59273,79.451895,179.582471,-150.070982,98.844795
74,3.279762,-1.283668,-4.660378,4.557705,0.0,-20.937767,-24.413109,-40.735588,-13.924026,-28.906746,0.983047,-3.212357,18.123894,23.311844,0.0,54.273672,20.263645,77.333684,15.069632,80.342103,11.661751,75.322165,9.913102,56.112599,0.0,-5.709171,-5.717354,2.188683,-22.950268,-30.645218,-40.985584,-66.569424,-57.198257,-93.590355,0.0,65.613178,15.245065,77.606528,10.413157,69.244349,5.474822,62.182016,0.972754,50.586462,83.346291,177.954468,-154.116726,103.058165
75,1.592674,-2.099205,-7.829361,-3.86502,0.0,-19.772301,-24.092445,-41.084061,-13.910179,-29.662971,1.054802,-4.51458,18.822098,26.52626,0.0,54.962621,18.928477,77.578525,14.039512,80.800476,10.925747,74.741155,9.456088,57.714343,0.0,0.15564,0.354538,2.3493,-17.451382,-33.903809,-36.097584,-65.3409,-53.12994,-88.502941,0.0,79.975459,24.646504,94.893556,19.302345,78.470602,14.78839,77.01922,11.561499,63.218744,85.719652,175.601561,-161.1654,98.939443
76,-0.310936,-0.090711,4.021683,5.42181,0.0,-20.614815,-23.449745,-41.129723,-12.410774,-28.185654,3.337097,-3.507614,21.671104,26.971779,0.0,57.488028,17.475614,77.360546,11.948025,79.129757,8.191563,72.360183,6.16547,54.347402,0.0,-11.177044,-5.28265,4.613228,-22.363415,-34.012356,-40.829716,-65.394115,-56.491356,-91.857719,0.0,62.038385,23.414614,88.940384,18.67845,77.882553,14.003511,73.462705,9.091174,57.678065,86.385555,175.03091,-156.166878,103.881313
77,-1.308403,-2.443587,-7.539368,-10.155288,0.0,-17.262383,-22.122459,-39.346046,-11.804924,-26.853905,3.312149,-1.859093,21.005745,28.230286,0.0,57.195763,18.211493,79.200584,12.762699,80.794301,9.424718,74.130876,7.91029,54.732539,0.0,-1.80851,5.309372,12.830887,-12.167473,-17.648277,-31.047993,-50.449104,-48.5602,-81.908798,0.0,73.253001,32.135378,103.555534,31.242621,93.42507,28.336461,90.286667,24.101896,77.37305,85.921555,172.054015,-162.861843,93.192718
78,-1.628036,-1.089524,8.068256,10.055746,0.0,-19.139099,-22.331429,-38.236885,-11.924515,-27.44957,3.330688,-1.708488,21.189194,28.101196,0.0,55.914134,18.156844,79.475127,13.193902,81.74007,10.175789,75.54743,8.920032,56.657732,0.0,-8.722858,-1.526985,9.910469,-19.425259,-25.252361,-38.104362,-60.467262,-53.655624,-88.912983,0.0,61.345545,24.034526,87.551926,20.207236,80.729679,16.286826,76.204485,12.401335,61.238038,85.030146,170.680763,-154.056959,102.964736
79,-1.361961,-0.378345,-5.055885,-4.559774,0.0,-17.533493,-21.508827,-37.864952,-11.433907,-28.104744,3.596077,-2.428207,21.123848,27.635651,0.0,54.949407,18.360682,78.848298,13.477336,81.640775,10.942297,76.405946,10.028761,57.608133,0.0,0.316887,6.955147,16.279564,-10.670586,-12.01664,-30.093956,-48.747826,-49.09853,-83.791866,0.0,76.359479,24.606798,95.441097,21.584671,89.146384,17.890268,82.430471,14.074617,69.777008,84.408846,169.97474,-158.372183,98.077284
80,-1.166611,0.81739,6.283894,3.125157,0.0,-18.183746,-22.927437,-37.365646,-12.133827,-27.994537,3.564034,-3.160057,21.531029,27.483444,0.0,57.16884,17.174766,79.015827,12.237017,81.54852,9.672461,74.637476,8.936026,57.158219,0.0,-7.846813,-0.309219,12.626953,-17.722893,-18.559456,-36.275311,-56.090183,-52.349567,-86.913757,0.0,60.540351,22.629704,81.134607,19.3452,85.557481,16.074589,78.261114,12.483926,63.130966,83.638029,170.745786,-151.692495,101.156098
81,-0.793877,1.034319,-6.287613,-7.877531,0.0,-17.769127,-22.133675,-38.273277,-11.185341,-27.661972,4.346237,-4.037933,22.318497,27.859497,0.0,56.916404,17.068493,77.370055,12.488033,79.202005,10.160536,72.137325,9.386742,55.751359,0.0,1.847649,7.365131,18.172874,-10.560265,-14.171047,-29.868565,-47.39193,-47.733936,-80.083237,0.0,71.536339,26.278351,96.923786,24.939417,95.110979,22.467795,87.787442,19.428964,74.168883,83.250189,171.793629,-157.574072,93.29209
82,0.178528,0.680675,6.776733,5.830659,0.0,-15.988655,-22.84893,-38.888741,-11.966171,-29.757729,3.477974,-5.8778,21.345062,26.87542,0.0,57.748615,16.851811,77.071986,12.612769,80.083677,10.655836,73.3895,9.989302,56.399554,0.0,-10.939751,1.052399,15.369244,-15.717373,-12.117176,-34.831467,-54.649258,-51.529312,-85.880127,0.0,60.474618,24.824345,86.379903,21.117962,90.866194,17.499635,76.892694,12.730496,63.487173,83.712559,172.472822,-150.513496,99.121267
83,-0.05127,-0.195502,-11.007786,-6.692386,0.0,-18.268089,-23.454323,-39.112816,-12.866936,-30.877419,2.347069,-7.068901,20.238762,26.528091,0.0,54.99572,16.933321,76.849623,12.67174,80.741566,10.79039,73.716222,10.430818,57.993517,0.0,2.490349,14.240627,24.795742,-3.647461,2.362118,-23.551369,-29.970703,-42.217884,-68.771095,0.0,69.012477,26.229136,92.792745,26.586022,100.883223,25.273733,84.122741,22.724707,77.667476,83.964901,172.228892,-161.21767,92.380453
84,-0.882225,-1.09465,10.474377,7.122787,0.0,-19.961243,-23.884735,-40.563583,-13.848495,-33.432541,1.031342,-10.39856,18.961945,24.910812,0.0,56.454635,16.358672,77.562902,12.990434,81.711727,11.98946,74.566895,12.71231,60.325706,0.0,-1.509132,4.750786,16.998081,-12.457123,-13.273602,-32.041454,-50.717068,-49.898357,-82.526836,0.0,68.636046,23.334493,83.068352,19.330349,80.711771,15.573485,74.475042,11.413761,63.483839,83.420792,171.01261,-150.405178,99.381607
85,-2.193947,-0.238295,-4.584389,-0.587493,0.0,-28.315086,-26.077423,-42.081871,-15.774536,-35.344505,-0.545082,-14.815407,17.949371,18.099174,0.0,53.488577,14.885925,76.497831,12.827351,80.460972,12.507237,74.13421,13.998633,60.735482,0.0,17.280464,13.329563,29.206238,-3.82021,-1.078091,-23.406773,-33.470879,-42.849026,-68.354588,0.0,72.725097,16.102161,79.024812,11.834065,82.92046,8.506397,67.032017,6.3468,63.872928,81.426373,170.129162,-154.790039,98.148961
86,-2.617722,-0.799236,7.002697,-3.49566,0.0,-34.320374,-27.719078,-50.007362,-16.854172,-42.500839,-1.725197,-24.163857,16.279564,3.153191,0.0,44.469003,13.663328,72.306336,13.62245,78.005776,14.870981,74.293773,17.809189,63.590266,0.0,16.133881,13.358803,34.93309,-3.694897,9.444008,-23.400421,-30.182648,-43.097534,-58.061886,0.0,66.573675,19.023604,71.013715,18.162062,80.529021,18.405451,70.105613,17.553975,63.345425,79.195604,168.675388,-147.400389,93.998762
87,-3.049049,-2.961859,3.552933,3.74578,0.0,-37.952728,-30.413475,-57.88147,-20.094681,-54.164658,-5.939484,-39.003296,10.412178,-14.440269,0.0,38.808775,10.237107,68.785883,13.11764,79.130127,18.468745,78.531272,25.609378,68.845658,0.0,33.105984,14.648094,54.192924,-1.744251,24.068184,-19.914665,-13.403835,-37.288685,-36.56559,0.0,50.831457,8.429549,56.794941,11.660238,65.941598,16.128281,66.324327,20.024825,60.754872,76.584921,165.066832,-143.40909,97.097845
88,-5.201111,1.003012,-1.33667,-3.894691,0.0,-40.552025,-29.210243,-68.442421,-19.126854,-67.935104,-6.196404,-54.211121,7.919998,-30.331078,0.0,35.915028,4.995979,60.772285,11.374117,72.556549,20.777161,76.41737,31.771575,73.109833,0.0,37.223682,21.807346,67.373886,8.752213,42.833118,-7.849445,19.192772,-23.806744,-6.481819,0.0,46.782637,8.842381,47.7176,13.918358,63.743252,21.001284,75.334792,29.061504,74.612683,72.057981,164.127979,-144.071589,91.261289
89,-6.556892,0.744216,4.505711,8.194094,0.0,-38.644638,-34.103622,-76.926212,-24.559021,-78.032799,-12.196426,-67.05574,1.379128,-41.471901,0.0,41.344309,6.584693,58.704264,16.732509,73.804772,29.178552,78.090003,41.743711,77.794775,0.0,52.066841,27.200546,74.855061,15.870609,66.607075,2.161961,48.723507,-11.947346,25.393581,0.0,33.684016,3.64843,39.565619,13.453284,62.45872,25.638895,76.882814,38.539081,80.113163,66.014585,163.684025,-139.052382,98.267213
90,-4.537926,5.877034,6.055412,11.082408,0.0,-41.731224,-35.412941,-84.60331,-27.007027,-86.448555,-15.77282,-74.642086,-3.155937,-49.668045,0.0,36.761194,5.348574,53.99172,17.595656,70.62549,31.514138,77.295214,45.379081,77.005296,0.0,55.106792,28.37225,80.900059,19.668446,79.469547,8.293419,66.161385,-4.542789,43.468552,0.0,28.824814,3.348015,38.901617,14.000887,67.301187,26.702453,78.353338,40.173676,81.350888,61.910563,168.254713,-132.563066,108.043276
91,-7.391281,7.896951,7.336063,13.984184,0.0,-44.459839,-32.917328,-88.246994,-25.503273,-90.507946,-15.704384,-78.856716,-4.622726,-55.073433,0.0,33.168061,9.160797,52.504214,23.08181,67.962812,37.688438,77.684674,51.428769,81.030249,0.0,55.639572,24.828701,80.766563,16.907787,83.039131,7.961082,70.692673,-1.560631,51.865768,0.0,21.729939,2.0842,38.02754,14.986424,61.461451,29.406812,73.25825,43.999299,81.30791,56.388388,173.870928,-123.357897,119.746723
92,-4.058075,11.036095,3.40456,15.873777,0.0,-50.050278,-33.593788,-86.357861,-27.477264,-94.481564,-18.947525,-85.015697,-8.999176,-59.343567,0.0,22.46585,13.116961,56.076352,29.056965,72.519313,44.031131,82.768091,57.051761,86.320283,0.0,56.478481,22.85574,76.435032,15.86792,80.395489,8.449574,70.734959,0.486603,54.233208,0.0,14.670045,3.669518,34.909299,17.075965,58.20248,30.591216,68.94205,43.483035,75.640735,53.463192,183.400221,-118.820457,134.113697
93,-4.155235,10.286569,24.505062,23.184316,0.0,-28.62957,-32.358055,-43.363724,-30.346756,-92.454414,-24.119682,-85.002594,-15.058479,-61.404934,0.0,27.756625,24.548568,30.94591,39.520881,65.946538,51.733075,82.721284,59.954031,92.56183,0.0,80.055485,36.742401,99.782295,26.604824,96.446972,14.927673,84.767818,2.24699,60.454445,0.0,6.198939,10.762294,56.17577,23.813244,73.281313,38.183244,79.968389,53.18915,79.819879,50.1717,192.429289,-93.451653,156.040512
94,6.855011,45.086569,5.680332,15.74901,0.0,-52.336807,-32.247505,-90.856705,-34.095039,-96.450291,-33.74794,-82.508411,-32.607307,-73.132153,0.0,13.730883,27.003887,46.587537,19.190608,-0.873645,7.544171,-16.409987,-4.976095,-16.482667,0.0,79.084625,36.429405,97.977047,27.088566,95.55891,17.465172,82.38493,6.988735,60.869923,0.0,2.273527,13.579595,56.169163,27.938356,74.811056,43.138961,84.245717,57.917626,86.424148,57.394352,236.021699,-87.403679,170.295363
95,-12.167015,-10.441748,22.672577,22.641283,0.0,-52.025299,-31.749001,-82.196903,-27.417412,-83.477211,-20.856285,-70.61697,-13.480339,-59.773464,0.0,16.861135,26.169207,12.81389,35.015633,20.336757,42.493917,33.127676,46.988853,58.890936,0.0,70.131855,38.01796,86.58205,29.517689,76.484585,18.48547,61.300049,5.060577,45.788498,0.0,5.718335,19.984348,65.115933,38.123902,89.069041,54.651955,101.227883,69.450565,103.084718,45.438881,223.841152,-64.519558,191.197847
96,7.205658,43.524716,1.761246,13.120234,0.0,-64.11541,-26.366386,-83.107681,-25.597687,-84.995041,-24.550781,-74.778385,-24.695206,-65.820694,0.0,38.935055,27.233722,25.11945,14.6501,-10.884436,-2.419875,-32.493993,-22.011922,-42.74592,0.0,73.8624,34.129543,94.377193,24.298325,91.924381,13.800259,78.877316,3.018265,56.502056,0.0,7.092899,21.476793,62.468631,38.677926,77.598902,53.517971,85.256077,65.116118,88.353477,52.592497,266.703951,-62.810354,203.656162
97,-30.974235,8.64092,3.438778,14.24934,0.0,-40.283976,-18.520089,-36.141816,-18.522234,-33.606034,-18.858433,-30.663443,-19.862852,-35.375719,0.0,45.114975,22.043045,22.268681,12.829358,3.636513,0.667275,-9.982633,-12.990619,-16.873362,0.0,75.449409,34.516811,95.925179,24.503975,95.187836,14.176426,80.498085,3.668575,55.075951,0.0,4.803071,21.806355,64.140276,38.549918,80.777196,53.136971,86.6948,64.295764,89.103992,21.501961,274.793486,-59.487877,217.354117
98,-30.974236,8.640921,4.440708,12.257025,0.0,-16.452541,-10.67379,10.824051,-11.446781,17.782974,-13.166084,13.4515,-15.030499,-4.930744,0.0,51.294894,16.852367,19.417911,11.008616,18.157462,3.754425,12.528726,-3.969316,8.999196,0.0,74.549732,36.2253,94.278316,25.673561,89.276562,14.549217,74.036808,3.145466,47.885056,0.0,6.853863,24.575676,67.957378,40.91996,83.632844,55.204251,88.602887,65.85385,88.722621,-9.540138,283.116068,-55.115032,229.292803
99,18.508415,19.8451,4.083881,11.045667,0.0,-43.318806,-43.697491,3.352203,-46.143551,25.506935,-42.560921,27.564354,-35.972157,0.933609,0.0,46.349489,10.29719,28.528567,-5.606814,22.847035,-22.423118,9.614169,-38.20992,-9.685305,0.0,72.451744,33.686657,90.720062,23.325462,88.346901,12.82814,73.570175,2.265015,49.493408,0.0,5.756682,25.48421,65.771228,41.33128,84.994502,55.006773,90.674737,65.451608,93.438068,8.611279,302.955147,-51.388149,240.332449
100,-4.385605,-17.647033,2.725983,7.78685,0.0,-1.360016,-22.918682,26.383781,-29.35564,35.403671,-32.153721,24.228172,-31.675358,-38.946819,0.0,18.179136,8.37774,39.016874,14.313251,45.929895,18.75255,52.232327,23.451818,60.057895,0.0,72.691727,32.679348,90.216522,22.394199,89.436493,11.926403,73.578186,1.56847,50.665283,0.0,5.892471,24.160528,64.829164,40.365689,83.155575,54.169684,90.178634,64.849356,93.651169,4.029894,285.312252,-48.857946,248.123437
101,20.252609,24.964395,-0.300407,5.67369,0.0,-61.20369,-48.870163,3.252869,-51.795731,11.383781,-48.8447,9.769821,-43.175983,-50.288715,0.0,40.021986,1.047102,30.319514,-6.291379,25.824269,-13.734897,19.725428,-19.874802,13.998386,0.0,72.203064,32.342033,89.321365,22.897453,88.880196,12.841702,74.900093,2.663383,53.603325,0.0,6.386969,25.096294,64.436987,41.752418,80.86729,55.259023,87.881951,65.533489,90.56408,24.142656,310.249168,-49.298201,253.769647
102,0.75737,9.626025,1.041183,4.112083,0.0,-47.73016,-44.291267,-8.806458,-41.398087,4.803543,-33.465042,11.756516,-23.197174,7.072792,0.0,36.337647,3.828155,27.369697,-9.869198,19.905863,-24.464896,8.916945,-38.112848,-7.600673,0.0,70.882874,31.094456,87.764511,21.322117,87.952538,10.727692,72.894859,0.047379,51.332703,0.0,6.484287,27.946693,65.336444,44.678029,81.311522,57.390092,87.917026,66.343099,89.620905,24.888039,319.795504,-48.269005,257.802042
103,-1.750145,-2.311009,-0.153751,4.183529,0.0,-42.685089,-41.331196,-3.692551,-38.391438,8.527794,-30.999641,14.972763,-21.75127,8.567734,0.0,41.63713,8.269677,32.319919,-5.858509,23.943722,-20.667986,13.336916,-34.27858,-2.537139,0.0,70.346317,31.146297,87.959576,21.291046,87.104816,10.388603,72.978687,-0.66061,51.1833,0.0,6.035979,27.858204,64.570492,43.66489,81.254897,55.617423,88.674827,64.396479,90.748591,22.942371,317.424797,-48.618279,261.925873
104,-8.334732,-44.201068,-1.390171,2.963773,0.0,-19.365578,-32.564278,16.134109,-43.208885,17.936554,-50.133362,5.427246,-54.070702,-58.935013,0.0,11.55554,24.517631,61.190768,39.640862,70.73769,49.62541,75.364402,58.416569,87.968278,0.0,69.541512,31.917057,89.396667,22.32399,87.594681,11.636639,73.411674,0.638409,51.676826,0.0,6.537948,28.256186,65.521571,43.674955,81.84307,55.369495,89.175931,64.178932,91.321696,14.421301,273.11724,-50.194788,264.783158
105,-22.908382,19.045124,-0.262585,3.966599,0.0,-18.517857,-16.106529,42.717533,-22.545433,48.449535,-25.05106,36.481762,-24.51519,-24.083176,0.0,33.847747,11.819091,52.24832,21.782952,59.599769,28.909567,62.992522,36.410698,63.135165,0.0,68.93652,31.021214,88.593235,21.705151,87.493343,11.244507,73.701611,0.288391,52.631435,0.0,5.924273,27.400696,62.84006,42.434019,78.352134,53.814867,86.167575,62.586513,88.877306,-8.76895,291.962432,-50.739241,268.549825
106,32.580814,24.895296,-0.03788,0.937989,0.0,-63.042641,-47.587738,-0.766068,-45.205193,7.966347,-37.951126,13.064575,-29.397755,-41.44186,0.0,37.838306,5.992383,38.246106,-0.446949,33.722579,-7.931408,25.430549,-14.675973,13.549337,0.0,67.31741,30.430069,88.185253,21.461105,87.67725,11.435509,73.931751,1.110706,52.735119,0.0,7.307173,28.451996,62.451279,44.448811,78.709792,56.299827,86.012025,65.045846,88.932943,23.560038,316.59146,-51.028948,269.221546
107,3.964577,6.927964,0.231285,2.286494,0.0,-50.020981,-46.307316,-10.982895,-43.610115,4.209023,-36.230221,9.417343,-26.459885,2.971458,0.0,37.303424,6.966558,36.359939,-4.31586,29.094942,-16.228564,18.090648,-27.962501,3.603878,0.0,67.359638,29.752407,88.375111,20.314293,87.04874,9.714947,72.981091,-1.129074,51.177235,0.0,8.020514,27.943976,61.459444,44.021189,78.09766,55.878936,85.712536,64.582224,88.720892,27.359276,323.335547,-50.963001,271.324163
108,-2.297173,-13.13635,-0.329533,1.331586,0.0,-40.210533,-42.5984,0.486031,-42.506447,8.022652,-36.854324,7.698326,-29.341793,-19.375534,0.0,24.689791,7.911648,38.540285,11.389308,41.226119,13.057495,40.179635,13.38539,34.808398,0.0,68.587532,28.377285,86.813049,19.109116,85.937576,9.312973,72.101326,-0.336514,51.598377,0.0,9.735817,29.044615,62.986099,45.572669,78.997673,57.291476,86.794156,65.31162,88.970858,24.967546,310.04482,-51.387091,272.501373
109,4.232025,3.732998,1.886501,1.564076,0.0,-59.251041,-47.017937,-2.078362,-47.784348,1.409683,-43.876534,-1.028481,-38.336449,-61.387138,0.0,37.52801,4.761327,36.275033,5.337644,34.416283,5.007279,33.030542,5.208771,33.859171,0.0,67.266254,26.864777,86.369762,17.496986,85.520267,7.873878,71.467152,-1.457005,50.153561,0.0,9.884574,29.76376,62.783743,46.304534,77.869122,57.901509,86.318369,65.480199,87.809271,29.089794,313.474824,-49.610367,273.762455
110,-4.068489,9.240146,0.079308,0.312272,0.0,-45.578499,-44.304085,-3.174133,-41.853504,8.473778,-34.527454,12.0187,-24.574585,-2.9282,0.0,33.543627,4.384156,34.492051,-1.015424,30.505136,-7.564487,22.584287,-14.145723,12.832724,0.0,66.768551,26.736946,86.278324,17.606678,85.687237,7.785015,71.478367,-1.785164,50.104179,0.0,9.849499,29.921656,62.400767,46.135771,76.945645,57.722618,84.332476,65.437529,86.973356,24.958334,322.459494,-49.59403,273.81925
111,-3.546982,1.222164,0.313911,0.677526,0.0,-34.201069,-34.808865,6.035271,-33.547096,16.05011,-28.130207,17.528343,-20.244083,-1.25988,0.0,26.168157,4.87785,28.878692,0.81986,25.808214,-4.555081,20.772159,-10.041358,11.132673,0.0,66.730671,26.331425,87.452145,17.330647,87.09795,7.725449,72.772694,-1.572704,51.398335,0.0,10.594024,29.438336,60.335463,45.874999,75.286349,57.549655,82.76346,65.121676,86.593405,21.302347,323.486326,-49.389124,274.301443
112,2.055016,-3.516254,0.397682,0.706239,0.0,-63.299561,-48.6866,1.486931,-50.286083,11.13121,-46.145668,12.625122,-39.952297,-41.649399,0.0,35.904407,0.37396,34.224487,-3.451169,31.30468,-8.643082,24.272914,-13.158704,16.644391,0.0,66.737423,26.586113,88.250256,17.743435,87.965298,8.195744,73.562794,-1.109104,52.390766,0.0,10.207096,28.877024,58.803188,45.408227,73.261986,57.086589,81.362775,64.710171,85.865059,23.233051,319.853117,-49.115753,274.890728
113,-0.862312,-7.333911,0.315685,-0.018402,0.0,-39.070244,-42.458153,2.371788,-42.759018,12.986412,-37.992268,14.529648,-30.361061,-10.952339,0.0,18.146161,10.253594,36.28516,12.728489,37.804528,12.182554,36.737728,10.499237,33.169049,0.0,64.938354,26.175728,88.095589,17.360802,87.35424,7.720242,73.167915,-1.801929,51.744347,0.0,11.896896,28.914136,59.073099,45.38223,72.872958,57.039164,81.270335,64.697327,85.835604,22.294664,312.451836,-48.876143,274.804956
114,9.205513,-15.401356,0.436649,0.001606,0.0,-54.485893,-51.127338,1.295013,-59.548531,8.881187,-60.526085,-1.033058,-59.042187,-84.239559,0.0,30.886259,8.168097,45.015742,20.477425,49.22891,30.216761,52.42221,39.77801,61.889412,0.0,64.146824,26.606026,88.92786,17.60004,87.362423,7.717953,73.434734,-2.039623,51.671619,0.0,12.856683,28.482872,58.268986,44.85624,73.148612,56.573566,81.84412,64.350907,86.112246,31.43446,297.024221,-48.505211,274.780302
115,-15.499763,5.021173,0.472584,0.733965,0.0,-41.783924,-41.758289,11.561394,-49.483337,20.259247,-49.924335,12.13932,-47.049923,-58.451271,0.0,30.847727,8.27684,40.892173,18.443181,46.817742,25.8691,48.387067,31.834746,56.58005,0.0,64.036789,26.947403,87.84153,18.011227,86.801033,8.028545,72.293129,-1.871624,51.034355,0.0,12.553118,28.241119,58.413481,44.912804,72.871167,56.887444,81.533762,64.71085,85.602373,15.871639,302.04578,-48.095684,275.514654
116,-10.262375,6.218266,-0.100708,0.4325,0.0,-2.719803,-22.528267,30.927887,-30.534782,28.30616,-34.159756,19.176865,-33.740845,-59.102955,0.0,-28.028389,3.893981,34.312728,18.981768,46.341955,30.594118,51.247655,39.98722,54.090582,0.0,64.798622,26.894588,88.804321,18.089561,87.547188,8.404083,73.231087,-1.019382,52.101746,0.0,12.588748,28.133055,57.524893,44.965909,71.697045,57.150253,80.209895,65.133408,85.145729,5.583229,308.284208,-48.222427,275.967315
117,-11.499825,4.421947,0.854702,-0.0268,0.0,-0.973949,-16.938229,37.921028,-23.697681,38.87352,-26.417141,33.827477,-24.633465,-15.385208,0.0,-18.01525,0.207173,34.274381,12.261409,43.800493,21.190704,46.937353,27.603052,49.14882,0.0,64.403172,25.94593,87.594395,16.914139,86.218815,7.311802,72.068996,-1.838722,51.454296,0.0,13.168584,27.951386,57.939547,45.222544,72.238287,57.638823,80.230087,65.571404,84.849203,-5.9624,312.68763,-47.41353,275.92199
118,29.687805,-12.584425,0.249195,0.130355,0.0,-53.787403,-45.156441,8.229561,-53.978405,14.153824,-56.266308,4.949799,-55.460186,-52.76825,0.0,30.564416,5.563218,41.579022,16.116364,49.093924,24.391042,51.673239,32.225255,56.541085,0.0,64.119759,25.784798,87.245865,16.27264,85.720825,6.420422,71.519852,-2.826748,50.735207,0.0,13.477707,27.961266,58.253363,45.423974,72.370124,57.785789,80.347351,65.433392,84.624988,23.696222,300.083753,-47.193518,276.032894
119,-11.251259,-1.221855,-0.174294,0.12381,0.0,-12.280483,-30.432873,23.121414,-39.771767,25.168991,-42.978916,10.507278,-42.510967,-55.950737,0.0,-14.760757,10.203021,40.836412,27.907234,52.817536,39.907871,58.665794,48.842785,64.225924,0.0,63.651466,26.174126,86.745758,16.675587,85.097237,6.760712,70.844421,-2.722549,49.975891,0.0,14.012527,28.41896,57.722927,45.584833,72.347647,57.566204,80.030201,64.913577,84.212989,12.41518,298.846337,-47.397594,276.141142
120,12.647781,1.359868,0.177155,-0.335181,0.0,-55.362682,-46.8433,5.26062,-55.039616,11.402321,-56.494389,4.359512,-55.256195,-58.672543,0.0,29.30761,5.261938,41.149054,16.979017,48.240163,26.308701,51.554616,34.381086,56.417214,0.0,64.098587,25.050488,86.229401,15.554867,84.865723,5.812511,70.597115,-3.373489,49.609451,0.0,14.645098,28.895364,58.282138,46.018445,72.701909,57.868349,80.67222,65.060234,84.532979,25.055723,300.175839,-47.227678,275.775595
121,-15.173492,-3.748003,0.278206,0.400945,0.0,-17.680264,-32.531662,23.443565,-41.56477,26.945229,-43.981304,15.078621,-42.85326,-35.293293,0.0,3.669518,12.724846,38.655758,29.395049,52.943198,40.974856,58.172161,49.28288,63.715187,0.0,64.283524,24.496021,86.654549,14.843788,84.889183,5.181828,70.802193,-3.638878,50.213699,0.0,14.457624,28.974158,57.455115,45.905442,71.841417,57.561635,79.295371,64.634403,83.847056,9.879999,296.391079,-46.951704,276.139784
122,9.77726,23.775885,0.196495,0.141347,0.0,-64.882565,-49.098186,3.199768,-50.822067,14.764023,-46.863384,16.425247,-40.840015,-31.55714,0.0,34.464634,2.447786,34.039915,-2.5548,30.782272,-8.375517,22.224838,-12.844209,15.402282,0.0,63.537025,23.709984,85.735931,14.097404,84.320984,4.63623,70.723801,-3.861408,50.606575,0.0,14.233285,28.406054,56.696326,45.457813,71.410152,57.252018,79.24066,64.478051,83.759803,19.621754,320.142603,-46.790714,276.25677
123,-5.135994,-3.79092,0.054245,-0.100468,0.0,-31.528473,-40.666695,8.359108,-41.261902,21.485138,-37.246799,20.845642,-30.980415,1.046448,0.0,34.184472,7.778699,33.725914,7.780675,32.31609,6.393391,30.027558,4.264607,25.872929,0.0,63.5289,24.024811,85.182152,14.505329,83.658142,4.937496,69.853821,-3.80373,49.882965,0.0,14.763783,28.722216,57.438689,45.613547,71.478695,57.309137,79.382686,64.503801,83.78969,14.459009,316.31911,-46.76322,276.123729
124,8.899384,-15.660892,0.297375,0.024577,0.0,-53.74403,-48.220425,7.495537,-55.780792,12.656822,-56.32822,4.615173,-54.20763,-53.256912,0.0,28.724192,5.259777,38.937155,16.518853,46.444276,25.146373,48.568119,32.818244,55.527267,0.0,63.119488,23.810062,84.89336,14.210186,83.378048,4.575005,69.544315,-4.170456,49.598293,0.0,14.954653,28.163066,57.466909,45.177466,71.73428,56.952467,79.355022,64.235557,83.738313,23.277082,300.566487,-46.547155,276.056575
125,-17.304382,-1.803853,-0.122967,-0.321596,0.0,-13.246307,-34.504738,22.258072,-39.595242,30.003204,-38.957806,22.236786,-35.259018,-24.105148,0.0,3.313898,14.483497,39.060408,28.406672,50.933716,37.794093,54.038774,44.31932,60.559061,0.0,63.254471,24.004383,85.019188,14.421558,83.291702,4.705009,69.25209,-4.341545,49.191971,0.0,14.856964,28.046481,56.888802,45.173576,71.764168,57.037127,79.398433,64.433529,83.822356,5.851822,298.727822,-46.791,275.700167
126,21.923332,-2.036467,0.01894,-0.352286,0.0,-49.425831,-48.70451,2.550087,-58.610401,5.737839,-60.966454,-6.580009,-60.377083,-72.720108,0.0,17.828394,7.986243,39.62561,23.540183,49.730694,34.973087,54.065882,44.494198,61.404363,0.0,63.316555,24.142685,84.625454,14.633217,83.211079,4.876556,69.240131,-4.196491,49.27248,0.0,15.238211,28.27749,57.210954,45.284603,71.93781,57.088626,79.902687,64.481633,84.550825,27.67539,296.624403,-46.871824,275.280928
127,-23.958321,-0.500302,-0.190945,-0.364142,0.0,-12.754097,-30.583477,29.819183,-39.177246,31.770401,-40.599918,20.548668,-37.933216,-34.722347,0.0,0.848389,11.822425,36.651648,29.624945,50.321831,42.257289,56.21634,50.918278,63.2754,0.0,63.175964,23.698883,85.601234,13.939648,83.477554,4.12405,69.586487,-4.852581,49.292336,0.0,15.184735,28.253778,57.26548,45.346292,72.375126,57.264121,80.506606,64.706651,84.883475,3.568182,296.109497,-47.211657,274.902182
128,22.059746,-3.603384,0.49015,0.044399,0.0,-45.940304,-46.769543,4.56871,-57.012634,7.623596,-60.223618,-3.156281,-60.206509,-63.582687,0.0,15.574442,11.914495,42.081239,28.665344,53.804307,40.682962,58.133196,50.449778,65.914119,0.0,62.965965,23.283176,85.413094,13.480968,83.623924,3.777122,69.741783,-5.090675,49.442253,0.0,15.174299,27.718834,56.431479,44.922992,71.706431,57.06794,79.834699,64.742158,84.431894,25.448513,292.51817,-46.900921,274.958638
129,-25.885906,5.302076,-0.06609,0.361672,0.0,1.127872,-25.987816,36.694164,-34.563503,38.198147,-36.28109,26.786785,-33.643684,-38.000679,0.0,-9.39798,9.106951,38.526638,28.236981,51.779573,41.432983,56.744121,50.839732,61.272464,0.0,63.042355,23.113918,85.311069,13.420143,83.234653,3.857746,69.449558,-4.863052,49.297314,0.0,14.148316,27.796516,55.992433,44.888721,71.263619,56.896891,79.245662,64.46706,83.939496,-0.639782,297.836424,-47.169399,275.336488
130,23.944416,2.714919,0.400772,0.009633,0.0,-56.367416,-48.587379,4.300232,-54.975471,10.211563,-54.879856,3.286057,-52.084923,-55.40657,0.0,30.700885,4.138019,37.76791,16.141743,45.508572,25.53114,48.527549,33.384125,55.249761,0.0,62.837276,23.274078,85.414181,13.587799,83.603268,3.848248,69.064922,-5.074196,48.729229,0.0,14.136831,27.399461,55.83639,44.432077,71.431642,56.456302,79.45654,64.152071,83.745909,23.16287,300.557996,-46.910391,275.352775
131,-17.612686,-3.775235,0.354652,-0.054958,0.0,-0.865059,-33.327713,24.832535,-40.261116,30.70015,-40.776272,20.695152,-37.52037,-42.56012,0.0,-3.186754,14.402357,38.272597,30.524772,51.093155,41.690173,55.739195,48.853097,67.153573,0.0,62.739887,22.194958,84.617901,12.421932,82.866383,2.875328,68.770695,-5.654869,48.676929,0.0,14.117564,27.317888,55.67201,44.474561,71.371064,56.610678,79.96209,64.30972,84.058057,5.472307,296.760809,-46.633615,275.275865
132,20.047646,10.313616,-0.366154,-0.194761,0.0,-62.635918,-50.581055,0.959358,-56.107121,7.509842,-54.930954,1.184006,-51.527996,-69.812908,0.0,30.795857,0.094293,33.775191,9.372478,39.132656,16.920539,41.311828,23.563772,46.711717,0.0,62.406235,22.430763,84.724846,12.697392,83.733444,3.343163,69.919739,-4.989853,49.708557,0.0,14.66208,27.298313,56.184106,44.589478,70.911456,56.975314,79.819694,64.867511,83.853107,25.371552,307.105099,-47.14817,275.111779
133,-5.545921,-6.108413,-0.662041,0.29103,0.0,-34.047775,-43.319607,5.549355,-50.24231,12.762108,-50.185146,2.758598,-46.806679,-68.681946,0.0,10.262239,10.762603,38.519289,22.044465,46.444893,29.74542,49.499871,35.579476,58.902606,0.0,62.482338,25.091743,85.776787,16.329517,85.125389,6.694279,71.756287,-2.885857,51.184959,0.0,14.188145,27.121584,55.146082,43.689096,69.458469,55.821076,78.52522,64.19227,83.88108,19.739714,301.015999,-47.896128,275.422121
134,-14.727859,9.096824,0.164509,0.053291,0.0,-12.341137,-26.91988,25.838814,-34.642296,25.87532,-36.839161,18.373947,-34.956551,-59.296417,0.0,-26.928058,-0.383717,28.634098,14.959531,40.282326,27.122757,46.034438,37.289901,51.707881,0.0,63.064785,24.32642,84.983997,15.422688,84.736347,5.934391,71.367931,-3.167896,51.144848,0.0,13.782074,26.515195,56.11297,43.666804,70.372684,56.20399,78.965809,64.622362,83.359969,4.905882,310.18487,-47.837591,275.547459
135,-13.962708,-0.774597,-0.435905,-0.267935,0.0,9.721069,-13.873959,35.398178,-20.569038,38.652649,-23.444481,33.112793,-21.744461,-9.506664,0.0,-18.616329,0.988068,30.59171,14.601194,42.804089,25.518975,47.89294,33.809153,50.994602,0.0,63.63184,24.892902,85.343685,15.894299,84.988575,6.252308,71.110439,-2.959328,51.056957,0.0,13.589969,26.940161,56.540097,44.079544,70.841925,56.524351,79.546016,64.752779,83.727569,-9.096851,309.426838,-48.313522,275.296088
136,-0.490837,1.654602,0.150719,-0.186671,0.0,5.912704,-13.569431,36.611252,-20.658073,39.018745,-23.707123,32.468605,-21.952114,-16.42971,0.0,-20.574126,-0.408664,28.916236,12.854522,41.43817,23.750999,46.345907,31.75799,49.539515,0.0,63.099804,24.80072,85.347347,15.894184,84.86887,6.333561,71.343098,-2.798195,51.182384,0.0,13.708344,27.261448,56.242275,44.227312,70.729292,56.439321,79.302473,64.462243,83.654518,-9.646339,311.09998,-48.221455,275.127957
137,-2.349358,-2.685834,0.902252,0.546985,0.0,12.867393,-10.071831,41.21624,-18.822212,42.799416,-23.146591,32.528114,-22.329712,-34.853783,0.0,-18.195068,1.98824,30.523784,15.60612,43.93832,26.601583,48.221082,34.965245,52.137293,0.0,62.826862,24.428215,84.725933,15.463715,83.886738,5.910416,70.333385,-3.277416,50.387592,0.0,13.090779,26.908483,54.966573,43.92455,69.987052,56.233568,78.450996,64.444829,83.584925,-12.10104,308.444697,-47.424545,275.705493
138,0.703697,2.636249,-0.323467,-0.342097,0.0,8.170395,-12.669582,38.945732,-19.955921,41.5131,-23.215427,33.516312,-21.432953,-26.007099,0.0,-20.250801,0.985845,30.128705,13.524019,42.953834,23.833127,47.056593,31.598365,50.233096,0.0,63.193817,25.463791,85.102501,16.487503,84.401093,6.593056,70.792007,-3.091621,50.761185,0.0,13.076391,27.092561,55.50973,43.864837,70.135994,56.034362,78.715597,64.169793,83.729545,-11.452761,311.088958,-47.803431,275.371408
139,-1.946926,-2.209677,0.656433,-0.098554,0.0,12.011318,-7.869587,44.043903,-16.919174,44.824848,-21.830406,33.951702,-21.567936,-30.02861,0.0,-15.838116,3.086594,30.952826,15.580926,45.04038,25.753874,48.714406,33.45872,53.533532,0.0,62.696457,25.057983,85.471115,15.791473,84.258156,5.71907,70.356445,-3.967495,49.943848,0.0,13.011491,26.625049,55.854359,43.339033,70.18169,55.594822,79.176687,63.858324,84.247137,-13.481827,308.923386,-47.229137,275.31696
140,36.736965,-13.156481,0.271854,0.090773,0.0,-47.256145,-46.032715,4.346352,-55.294075,7.369537,-57.519665,-1.231842,-57.002907,-62.114983,0.0,23.556177,5.121332,41.640896,20.441301,50.869372,32.118057,54.63553,41.899322,60.641066,0.0,62.508488,24.225655,84.937534,15.044518,83.913174,5.255527,70.372982,-4.126568,49.736538,0.0,12.796908,26.217805,55.718879,42.973841,70.072021,55.318057,79.105118,63.667454,84.164144,23.036356,295.797889,-47.176065,275.438716
141,-25.980892,4.677408,-0.305843,-0.419224,0.0,-15.275974,-23.58633,30.335941,-31.059551,35.863781,-32.861767,27.044163,-30.99472,-28.668823,0.0,4.668763,6.123912,36.285777,21.126236,50.117499,32.54469,54.541792,40.714825,58.543466,0.0,63.172302,24.107895,85.261116,15.021515,84.686737,5.388508,71.309967,-3.754005,50.485382,0.0,13.300236,26.196748,55.849913,42.965751,70.417515,55.322009,79.752077,63.680606,84.505007,-3.048849,300.482229,-47.586222,275.026424
142,22.516079,-10.306823,0.093498,0.035321,0.0,-31.252098,-39.738464,10.219574,-51.67511,8.541641,-56.501884,-3.073883,-57.44339,-53.261604,0.0,12.697861,8.862296,44.129623,26.388359,56.385721,39.243375,60.926291,49.629732,67.421693,0.0,62.992401,24.36739,85.48954,15.252171,84.76387,5.633526,71.468925,-3.463211,51.004486,0.0,13.115047,26.441897,56.046897,43.353173,70.412451,55.705417,79.740407,63.976206,84.393547,19.380169,290.17627,-47.579784,275.06261
143,-24.3647,9.094354,0.662155,-0.113497,0.0,3.662338,-19.305782,39.08432,-28.112297,40.529938,-32.036648,30.129204,-31.514397,-19.095726,0.0,-7.964815,5.666527,38.025657,23.443791,52.456604,36.508017,56.345584,46.399815,59.382592,0.0,63.12561,24.236526,85.497437,14.928303,84.384499,5.157795,70.872688,-3.990841,50.513649,0.0,13.203967,26.559223,56.584126,43.219916,70.546326,55.393269,79.488033,63.419464,84.106037,-5.069532,299.277741,-47.00263,274.956229
144,19.669876,-13.068981,-0.154667,-0.466771,0.0,-25.922241,-35.898514,14.934425,-47.212372,13.95401,-52.024269,2.699432,-53.184013,-48.896255,0.0,13.906934,14.178142,46.466938,31.867473,58.738042,44.269673,63.382475,54.108366,71.401446,0.0,62.99509,24.298553,85.784626,14.781475,84.45219,5.021152,70.778217,-3.936424,50.290661,0.0,14.160543,26.73694,56.950491,43.813091,70.912506,56.161259,79.70842,64.072104,84.476663,14.528303,286.231499,-47.229338,274.512197
145,-20.216274,11.996253,1.315441,0.440589,0.0,-0.056534,-19.119015,40.721798,-25.785484,41.678524,-28.057938,30.666103,-26.783009,-27.188702,0.0,0.352842,8.379407,39.508778,26.004272,52.692429,38.856755,56.728807,48.631846,60.697135,0.0,61.945381,23.892574,83.904533,14.446964,82.653923,4.693165,68.862648,-4.603329,48.46756,0.0,13.263741,25.609934,55.33862,42.640759,70.603198,55.109958,78.82261,63.547905,83.268022,-5.773029,298.247682,-45.998955,274.972717
146,34.239292,-4.834687,-0.215378,-0.251077,0.0,-43.433018,-49.84457,3.239822,-61.45443,4.160156,-64.109459,-5.76828,-63.669033,-69.372368,0.0,19.106812,6.543506,43.128093,22.785223,52.721205,34.667175,56.706021,44.716684,62.82209,0.0,61.879807,24.112759,84.009132,14.870625,83.021164,5.112877,69.388161,-4.090691,48.790512,0.0,13.15784,26.011744,56.004968,43.091846,70.850323,55.567528,79.570902,63.733403,83.912573,28.33374,293.397558,-46.346855,274.706202
147,-27.952538,4.631837,0.687847,-0.204641,0.0,0.886345,-24.446754,31.873169,-33.289547,34.911461,-35.740757,25.555115,-34.385605,-33.231754,0.0,-6.644406,6.738699,34.768878,25.440182,50.669918,38.808652,55.606431,48.414917,60.347751,0.0,61.946125,23.848515,83.299427,14.514942,82.38802,4.722404,68.548565,-4.497185,47.97575,0.0,13.703404,26.666668,56.775614,43.673843,71.402187,55.956988,79.92819,63.872094,83.945301,0.28224,298.058679,-45.757971,274.530846
148,22.126236,0.918476,0.184364,-0.338948,0.0,-55.48708,-46.776524,3.597107,-54.248314,9.056053,-54.934387,1.320419,-52.97596,-53.899899,0.0,30.341003,2.571349,38.603085,15.96242,46.879431,26.488765,50.314977,34.976545,54.411684,0.0,62.324238,24.029675,83.497982,14.723454,82.293606,4.892464,68.414097,-4.407463,47.697887,0.0,13.951394,26.895454,56.836252,43.772891,71.731625,56.022135,80.040267,63.98059,84.441218,22.314892,298.956839,-45.667191,274.171582
149,-21.262894,1.671831,0.192432,-0.05891,0.0,-8.372841,-25.441303,28.745155,-33.328056,33.327484,-35.239792,23.939095,-33.529873,-31.964951,0.0,-2.969639,9.157586,34.030714,25.099196,48.376076,36.232054,52.330757,43.707436,58.590088,0.0,62.176552,24.100342,83.177719,14.555626,82.477112,4.601212,68.491516,-4.726753,47.756424,0.0,13.7872,26.509761,56.462786,43.739422,71.427134,56.231901,79.780483,64.291627,84.326239,0.969343,300.637238,-45.557413,274.12124
150,25.322113,-9.181484,0.305672,0.673944,0.0,-49.723434,-48.328571,3.628922,-59.927044,8.637543,-63.087959,-1.917458,-63.032513,-67.944946,0.0,22.927002,6.205731,41.522274,24.360538,53.753672,38.5514,58.28467,49.875684,61.856931,0.0,62.173119,22.378807,83.314819,13.194637,82.630806,3.967037,68.585129,-4.541874,48.379669,0.0,13.214032,27.281703,55.561477,44.361681,70.827352,56.520893,79.009961,64.273102,83.871139,26.180964,291.528403,-45.362234,274.867834
