takenoko1/special-research/HandMotion_SimilarSearch_自分用/NewProject/handData/test_key/d4_feature_d2/4.csv
frame,vel_0x_L,vel_0y_L,vel_0x_R,vel_0y_R,posFromWrist_0x_L,posFromWrist_1x_L,posFromWrist_2x_L,posFromWrist_3x_L,posFromWrist_4x_L,posFromWrist_5x_L,posFromWrist_6x_L,posFromWrist_7x_L,posFromWrist_8x_L,posFromWrist_9x_L,posFromWrist_0y_L,posFromWrist_1y_L,posFromWrist_2y_L,posFromWrist_3y_L,posFromWrist_4y_L,posFromWrist_5y_L,posFromWrist_6y_L,posFromWrist_7y_L,posFromWrist_8y_L,posFromWrist_9y_L,posFromWrist_0x_R,posFromWrist_1x_R,posFromWrist_2x_R,posFromWrist_3x_R,posFromWrist_4x_R,posFromWrist_5x_R,posFromWrist_6x_R,posFromWrist_7x_R,posFromWrist_8x_R,posFromWrist_9x_R,posFromWrist_0y_R,posFromWrist_1y_R,posFromWrist_2y_R,posFromWrist_3y_R,posFromWrist_4y_R,posFromWrist_5y_R,posFromWrist_6y_R,posFromWrist_7y_R,posFromWrist_8y_R,posFromWrist_9y_R,posFromBody_0x_L,posFromBody_0y_L,posFromBody_0x_R,posFromBody_0y_R
2,11.742611,-13.181613,1.616306,0.7754,0.0,31.220455,8.990879,66.817303,0.048695,65.137539,-10.233078,48.006649,-18.769226,-25.672646,0.0,-8.865877,24.939015,46.8459,45.446327,65.880959,58.449729,74.860951,68.343133,85.967936,0.0,67.571526,25.715733,89.649239,16.65556,86.452789,7.558365,72.791748,-0.765324,53.057213,0.0,7.214054,29.530467,55.749754,46.758338,69.241478,58.709328,80.230643,65.958209,82.646319,-29.227982,276.337462,-49.294796,279.572937
3,0.84074,1.238281,0.636635,0.363401,0.0,29.867134,9.008846,65.080948,-0.161648,62.621841,-10.611248,45.148544,-19.207535,-28.668308,0.0,-9.058909,25.313038,47.504592,45.626638,66.762755,57.990491,74.696077,67.070148,84.677228,0.0,67.473907,25.945015,89.457092,16.564808,84.859772,7.144547,71.766701,-1.397324,52.156105,0.0,7.008857,29.391529,56.124023,46.623599,69.656688,58.365131,79.09567,65.344533,81.085516,-30.425091,277.46748,-50.696011,279.828074
4,-2.245846,-1.640708,-0.521564,-0.413604,0.0,38.047543,8.176689,68.510456,-0.357571,67.211895,-10.009804,49.539013,-17.863255,-21.167049,0.0,-9.336415,24.891468,46.906663,46.016037,65.991863,59.291325,76.187658,68.864121,86.864366,0.0,67.710285,26.475334,89.402447,17.328014,85.428829,7.950439,72.574253,-0.621243,52.785931,0.0,7.42382,30.037376,56.961174,47.181884,70.481303,58.926442,80.022668,66.041016,82.365231,-33.868504,275.67664,-52.415142,279.264339
5,3.080292,0.964233,0.235291,0.048536,0.0,33.920116,5.370083,66.367893,-3.068562,66.527424,-12.508049,49.121418,-20.136566,-24.016628,0.0,-9.207419,24.036163,48.165013,44.671421,65.849528,57.856308,75.797951,67.606883,86.326829,0.0,68.031063,25.697021,89.129162,16.643715,86.124744,7.391109,73.361378,-1.061268,53.375187,0.0,7.354906,30.209537,56.391958,47.451919,70.298769,59.26187,79.95573,66.378297,82.526709,-31.497431,276.566896,-52.889071,279.238898
6,4.454842,1.645463,-0.035934,0.127329,0.0,20.948696,2.8339,58.563137,-5.307884,58.37225,-15.022373,42.617283,-22.945232,-30.438938,0.0,-10.351901,23.859556,47.054864,44.022733,63.343758,56.54652,72.020494,65.92264,83.454138,0.0,68.412724,25.1964,88.245564,16.309605,86.103001,7.315636,73.738575,-0.934868,53.956089,0.0,7.29859,29.751781,56.061408,47.13903,69.668544,59.038272,79.622834,66.169457,82.294712,-27.607784,278.13707,-53.4902,279.290938
7,-3.242054,-2.202699,0.303726,-0.039706,0.0,26.56723,5.228806,61.278191,-3.046589,63.333549,-13.224621,47.784805,-21.954002,-27.897949,0.0,-6.618841,23.929643,49.033903,44.910704,65.263084,58.776821,74.992603,69.485207,88.657784,0.0,67.265453,25.525646,88.130436,16.590843,85.964298,7.37606,73.447895,-1.15448,53.5536,0.0,7.172557,29.442905,55.776924,46.862573,69.329966,58.839436,79.4361,66.060529,82.214128,-31.062469,275.862324,-53.399105,279.179186
8,-2.147198,-0.123995,-0.086575,-0.028158,0.0,30.643101,5.702877,62.807293,-2.82114,67.459774,-12.921581,51.777248,-21.286068,-28.017483,0.0,-4.255591,23.029322,48.368727,44.345441,64.254947,58.345186,73.940437,68.777362,88.716693,0.0,67.879486,25.58979,88.581848,16.659966,86.559563,7.504864,73.607025,-0.95541,53.635025,0.0,7.251721,29.305943,55.736848,46.730427,69.761849,58.734337,79.022434,66.102581,81.97256,-33.454399,275.682522,-53.730412,279.09522
9,-2.980843,-1.077359,-0.14637,0.03421,0.0,31.339016,9.536247,64.829578,1.092739,69.263248,-9.72147,52.90472,-19.218864,-24.82584,0.0,2.116001,23.931125,48.63728,45.759649,65.654458,59.764025,75.062504,70.115864,89.254354,0.0,68.615456,25.745602,88.948631,16.945152,86.762695,7.991238,73.987427,-0.265331,54.302673,0.0,7.176201,29.104575,55.601862,46.715792,69.171453,58.850366,78.570236,66.288573,81.844305,-36.58639,274.539213,-54.027929,279.063481
10,3.809052,1.29892,-0.311565,-0.027541,0.0,26.449184,6.112461,61.192646,-2.205963,66.176205,-12.353497,50.869274,-21.253281,-25.529366,0.0,-2.434633,23.367961,48.120367,44.446588,64.517139,58.172346,73.765684,68.524185,88.434741,0.0,69.142399,26.01757,89.575596,17.092724,87.425022,8.047371,74.268093,-0.254745,54.545231,0.0,7.073201,29.110503,56.009908,46.875726,69.282727,59.148497,78.516328,66.655556,82.107176,-32.869263,275.7657,-54.431419,278.963507
11,-1.445503,-0.77892,0.216465,-0.152215,0.0,26.226482,7.51545,63.394489,-1.243401,67.617359,-11.940022,51.327839,-21.426945,-26.154785,0.0,5.603171,24.232467,48.536256,44.431644,65.409556,57.553607,74.468527,67.787379,88.328036,0.0,69.383469,25.809116,89.515572,16.958084,87.271385,8.032322,74.49543,-0.107002,55.012779,0.0,7.228812,29.61877,56.523178,47.276362,69.276182,59.417605,78.603026,66.722802,82.558881,-34.445314,274.945269,-54.345503,278.76978
12,-0.086002,0.280656,-0.034389,-0.116214,0.0,31.152763,6.677399,63.694611,-1.252785,67.625999,-10.823135,52.314377,-19.177895,-25.19783,0.0,-6.940376,24.198319,47.489278,45.897167,64.242226,59.90321,74.385164,70.358666,89.543655,0.0,69.529438,26.006527,89.081326,17.391014,87.461872,8.609104,74.412174,0.515099,55.581379,0.0,7.433453,29.764131,56.409001,47.609382,69.298782,59.838928,78.850768,67.263304,82.440258,-34.617691,275.171954,-54.466267,278.599596
13,-4.456043,-1.151645,0.320377,-0.71649,0.0,45.108662,11.192722,72.061672,2.689133,71.428127,-6.993427,54.263592,-14.948101,-22.018089,0.0,-8.604611,23.420264,46.215058,45.46584,64.226789,60.245307,76.170615,70.928252,90.154922,0.0,70.032578,26.778889,89.828796,18.530502,88.997726,9.752769,75.903282,1.4645,56.999016,0.0,8.544034,29.788028,56.841007,47.739182,69.187323,60.106307,78.728503,67.721677,82.807488,-39.080744,274.000966,-54.152899,277.863763
14,-1.16787,-0.76941,0.351334,-0.237492,0.0,44.192562,13.994865,71.531696,5.171013,71.539021,-5.572014,54.465237,-14.715214,-19.539185,0.0,-5.609222,24.571971,47.286057,46.779704,64.802117,61.346441,75.882056,71.992768,89.80455,0.0,69.491959,27.04668,89.629669,18.727512,88.96122,9.908409,75.522766,1.505299,56.441803,0.0,8.814501,29.829216,57.118761,47.884851,69.63489,60.328918,78.883311,68.11268,83.355152,-40.296278,273.240695,-53.84923,277.63541
15,0.963306,0.463931,-0.035992,0.291091,0.0,42.064018,12.824421,72.056236,3.275013,70.678139,-7.657757,54.005013,-16.821098,-20.448017,0.0,-8.393363,23.579951,47.213006,45.583784,64.53727,60.035356,75.977275,70.492974,88.675321,0.0,69.329395,26.940079,89.443417,18.508644,88.693714,9.626656,75.209484,1.235905,56.284733,0.0,8.286844,29.943084,57.177547,47.827608,69.727886,60.012385,78.878247,67.511849,83.162985,-39.353313,273.683661,-53.905563,277.905537
16,-1.413403,-0.008398,0.726242,-0.21415,0.0,45.500393,13.302326,73.347416,4.724064,72.302113,-5.304508,56.680698,-13.603134,-17.676373,0.0,-11.655884,21.336867,44.923672,44.326854,63.192902,60.04079,74.958022,71.465296,88.544472,0.0,69.337521,26.58474,88.975811,18.082123,88.07539,9.221821,74.802761,0.883598,55.690098,0.0,8.292833,29.614942,57.29549,47.625623,70.231708,60.058265,79.42338,67.720133,83.319646,-40.840931,273.6009,-53.253536,277.617024
17,2.402573,1.067479,0.2845,0.022107,0.0,40.467968,10.973682,72.257252,2.356911,70.907421,-7.572098,54.230289,-15.640697,-17.647533,0.0,-10.987807,22.593549,45.310909,44.155558,62.906318,58.827086,73.721717,69.506017,86.011717,0.0,69.45837,26.72636,89.024792,18.040981,87.91151,9.032764,74.7579,0.631142,55.636425,0.0,8.483457,29.437286,57.268938,47.492304,69.963587,59.869988,79.282342,67.418544,83.249744,-38.5326,274.5892,-53.063278,277.559951
18,-2.48457,-0.568783,0.077019,0.141347,0.0,46.668549,14.749947,74.96315,5.261307,73.17318,-5.591698,56.145401,-14.23439,-13.528633,0.0,-11.684166,21.089742,45.361544,44.089547,61.976851,59.637251,74.276545,70.788696,86.012519,0.0,68.799763,27.157402,89.146328,18.148441,87.932796,8.736877,74.341106,-0.001373,54.921627,0.0,8.60986,30.205029,56.912329,48.129197,69.868862,60.128229,79.180207,67.303256,83.118401,-41.084347,273.986053,-53.053436,277.666933
19,1.666832,-0.61207,0.144596,-0.082375,0.0,44.134598,14.125385,73.21312,4.430065,72.65625,-6.755104,56.016884,-16.040096,-3.897057,0.0,-2.393322,23.181105,48.193603,44.706249,64.723386,59.466758,75.134505,70.242699,82.633969,0.0,68.805084,26.868382,88.553238,18.092766,87.830429,8.822079,74.15062,0.10191,54.992638,0.0,8.180509,29.42049,57.004831,47.544853,70.148653,59.963293,79.653647,67.529942,83.462598,-39.529839,273.318778,-53.021164,277.529353
20,0.919075,0.471341,0.51218,0.70062,0.0,43.057709,12.986469,72.691727,3.39592,72.424965,-7.473335,54.085236,-16.578655,-16.36116,0.0,-4.288443,22.386068,46.846888,44.103009,65.033805,59.150411,75.96758,70.246713,87.37461,0.0,68.825626,26.173954,88.41814,17.450809,87.482014,8.343716,73.75906,-0.161018,54.430218,0.0,7.502922,28.691464,56.264752,46.50862,69.574868,58.72069,78.527628,66.335442,82.570922,-38.710527,273.715802,-52.608747,278.155657
21,9.520855,0.534265,-0.33783,-0.289239,0.0,25.61182,1.199341,62.612858,-7.153015,64.396763,-15.985394,48.736668,-22.617989,-33.938141,0.0,-5.776072,25.262588,49.838325,45.202104,66.782144,58.529572,76.654306,68.661456,89.276708,0.0,69.156017,26.744957,88.939991,18.130932,88.097019,9.084778,74.415607,0.536156,55.012722,0.0,7.796484,29.081542,56.138782,46.939761,69.375538,59.057353,78.374426,66.524398,82.640638,-29.257736,274.224178,-53.014641,277.840529
22,-5.032425,0.245828,-0.006924,0.032295,0.0,32.842541,8.25491,68.115864,-1.371403,67.501202,-12.093945,49.963932,-20.665741,-23.726463,0.0,-7.532377,23.433108,48.071028,44.438993,65.975066,58.658692,76.152646,69.3241,87.148912,0.0,69.063263,26.624794,88.92952,17.965851,88.075676,9.006157,74.578514,0.629768,55.288239,0.0,7.419497,29.098708,56.175647,47.110871,69.310885,59.363141,78.370412,66.880204,82.435874,-34.322805,274.427738,-53.054209,277.830557
23,-3.204803,-0.578354,-0.043716,-0.264415,0.0,41.461201,11.601048,70.565701,1.883869,69.121342,-9.136162,50.318127,-18.119144,-23.33353,0.0,-4.49333,21.690882,46.670467,43.280061,64.86393,58.560139,75.757999,70.225471,88.462529,0.0,69.089241,26.963654,88.714943,18.247662,87.443733,9.119453,73.727989,0.520248,54.315834,0.0,7.349411,29.305202,56.077772,47.079008,69.516823,59.140593,78.648906,66.607329,82.561412,-37.608232,273.794889,-53.178549,277.511647
24,-0.300808,-0.890688,0.470467,0.18414,0.0,40.347519,12.56361,70.89283,3.029881,68.942413,-8.149967,50.921059,-17.477016,-23.042049,0.0,-7.899668,22.578976,46.644656,44.516798,64.620633,59.561607,76.080398,70.850447,88.97376,0.0,69.052277,26.700211,89.098892,17.672882,87.102928,8.421936,73.47084,-0.04652,54.072762,0.0,7.507739,29.565603,56.458216,47.466121,69.965193,59.542526,78.498914,66.892986,82.227837,-37.966547,272.85883,-52.765589,277.650415
25,-5.93153,-1.421865,0.231342,0.699323,0.0,53.667126,19.127712,75.465832,9.550095,73.435421,-1.806507,55.58321,-11.38464,-14.45034,0.0,-4.803009,22.484375,46.20666,46.157383,63.26904,61.815991,74.933322,72.925384,88.448882,0.0,68.527279,25.3545,89.387341,16.372433,87.68034,7.445583,73.774052,-0.688305,54.425526,0.0,6.636317,27.446885,55.708999,45.441387,68.614341,57.929482,76.98004,65.713183,80.899894,-43.943911,271.426977,-52.58008,278.33975
26,2.887459,-0.232676,-0.23838,0.27621,0.0,51.071262,15.875587,72.830944,5.964317,70.539951,-5.367336,53.09927,-14.545326,-10.056267,0.0,-0.530189,23.829607,47.865461,46.097177,64.239695,61.329151,75.359153,72.449659,86.310959,0.0,68.9744,25.904217,89.628925,17.104111,87.990131,8.314476,74.115658,0.267963,54.895306,0.0,5.954098,27.221681,55.546225,45.383157,68.279715,57.993393,76.347592,65.978586,80.298568,-41.148548,271.180531,-52.910557,278.60219
27,2.309589,0.73977,0.355854,-0.886736,0.0,42.828598,10.430202,69.139938,0.877075,71.326447,-10.074291,54.041176,-18.989754,-23.626785,0.0,5.779221,23.208213,48.502417,44.673027,65.103027,59.637745,76.417493,71.104056,90.742045,0.0,68.7117,25.876522,89.669724,16.951904,88.479767,7.875366,73.814278,-0.442829,54.352341,0.0,6.629154,26.898047,55.92037,45.386182,68.879621,58.204827,76.583231,66.303826,80.536616,-38.885307,271.87175,-52.601051,277.666903
28,-2.15086,0.931875,-0.281868,-0.751009,0.0,53.297596,16.587296,72.199802,6.08923,69.604397,-5.743103,50.035343,-15.123539,-14.775124,0.0,-3.380403,22.50432,46.52276,44.701617,61.917262,59.443911,72.833561,69.993166,84.74466,0.0,68.562012,26.79348,89.681969,18.185635,88.398628,8.976231,74.381561,0.176811,54.632835,0.0,6.72252,27.01772,55.229013,45.217542,69.312244,58.038039,77.752414,66.211571,81.260825,-41.12174,272.749872,-52.968493,276.86214
29,5.953274,-2.066972,0.045147,-1.28904,0.0,37.231636,8.930397,65.088387,1.162663,63.819466,-8.729095,45.791817,-17.205963,-25.233707,0.0,19.386418,25.277099,48.504578,46.04543,65.17509,59.820279,74.638587,70.19299,89.177907,0.0,67.58543,26.172123,89.876347,17.280407,87.749119,7.954388,74.721737,-0.620556,53.446941,0.0,7.140509,27.883707,56.446484,45.800034,70.419058,58.294797,79.008973,66.058862,81.572726,-35.178595,270.650111,-52.933474,275.540311
30,5.471478,1.366969,0.863457,-2.470449,0.0,33.460064,4.146423,63.418636,-5.668316,65.638218,-15.965652,46.9277,-24.123917,-29.505787,0.0,3.637902,24.162874,49.577739,43.619133,68.184064,56.258269,76.939655,65.933323,88.44246,0.0,66.54356,26.020432,87.489796,16.73933,86.354885,6.945934,71.892872,-2.397594,50.723133,0.0,5.704935,27.131526,57.543727,44.456036,73.269519,56.717692,81.815097,64.543198,83.830754,-29.705372,271.997319,-52.068272,273.050102
31,4.246788,0.225142,2.11544,-3.891326,0.0,27.148762,-0.101852,57.345715,-11.439457,62.109776,-21.329041,41.191006,-28.507347,-28.658867,0.0,-1.475094,20.189112,55.986876,39.543976,69.571719,53.326853,78.137798,63.83702,88.873601,0.0,66.305752,24.21032,83.067455,15.010529,82.599163,4.819164,68.966961,-5.425644,46.577625,0.0,4.034216,22.851604,57.892864,39.845565,77.066675,52.856253,86.129783,62.382427,87.955187,-25.45804,272.156574,-49.952288,269.092889
32,38.473606,39.606899,2.739315,-9.315729,0.0,-44.420528,-53.767834,-8.10379,-55.583038,6.913147,-51.721115,10.160179,-44.83881,-7.83165,0.0,46.850223,5.947738,41.365675,-5.546113,34.677488,-18.888772,24.054564,-31.996593,4.409473,0.0,65.454941,21.79636,73.803406,10.860844,69.679756,-1.020069,52.964859,-12.906418,30.270767,0.0,7.27247,22.089728,61.458518,37.827808,84.140864,50.000544,92.603017,58.664003,87.293964,13.024464,311.745766,-47.204075,259.759453
33,7.082176,3.531753,0.048637,-9.270466,0.0,-55.93689,-34.35791,-55.060444,-32.984505,-35.375175,-28.289795,-27.015038,-21.02108,-25.322914,0.0,30.038735,9.913905,12.317231,-4.597503,-6.355167,-22.687904,-20.918817,-41.558089,-35.588862,0.0,66.051178,16.400242,62.35199,4.582558,56.960678,-6.272621,38.025856,-16.209469,15.160503,0.0,8.332971,9.081201,49.831594,24.072904,69.361397,38.553931,80.746321,51.652429,80.88106,20.107155,315.344765,-47.154922,250.556233
34,16.472397,-51.099578,-9.477825,-30.576519,0.0,-53.089829,-35.496827,-68.213397,-30.376225,-43.643704,-22.608891,-30.840168,-13.729706,-24.450589,0.0,37.32269,17.711562,40.813349,19.456629,25.398007,17.246891,20.563166,12.528264,17.205302,0.0,57.158947,45.208111,70.793324,39.005527,62.936611,28.277035,44.200573,12.69722,27.126045,0.0,18.859626,35.841298,75.368354,49.525312,84.151671,59.664668,92.550653,66.339332,96.293839,36.964331,264.138823,-56.247969,219.873349
35,16.472396,-51.099577,-19.163704,-40.439357,0.0,-50.242767,-36.635742,-81.366348,-27.767944,-51.912231,-16.927986,-34.665298,-6.438332,-23.578262,0.0,44.606645,25.509219,69.309465,43.510761,57.15118,57.181684,62.045147,66.614615,69.999464,0.0,50.061779,42.826252,46.356068,35.290718,40.122471,24.143658,28.192234,10.68861,16.757469,0.0,6.421981,20.745854,25.439132,34.827109,49.025072,45.334003,53.927993,51.636189,54.543954,53.189764,213.032793,-75.658636,179.427539
36,5.180283,-15.168124,-24.145775,-44.546315,0.0,-58.017426,-36.801453,-45.635605,-29.462013,-32.959785,-19.603386,-22.338982,-8.619576,-15.94059,0.0,39.932756,28.78409,36.504559,41.729199,45.314675,52.089498,48.35718,58.209211,56.149156,0.0,25.256996,28.376656,45.613117,26.232204,35.39875,21.019821,34.134235,14.460697,31.983204,0.0,-56.197877,-1.154486,4.727797,13.470297,27.635656,27.757181,37.103353,40.917428,47.520832,57.396441,197.909931,-100.778017,134.926487
37,26.656952,-51.50713,-3.168526,-15.525659,0.0,-64.115067,-34.750557,-63.607407,-33.021126,-47.865715,-28.454819,-37.697067,-21.991882,-28.733139,0.0,22.437815,0.959107,20.026647,20.245428,26.199341,38.475817,36.417923,54.071687,48.648333,0.0,24.586086,-1.368713,-9.026699,-20.115452,8.737965,-33.816605,2.977753,-42.173138,-5.189095,0.0,-35.899714,-51.10424,-112.788795,-49.738012,-21.24878,-39.035214,-3.161806,-23.154984,2.182383,84.616785,147.157407,-103.38315,120.155434
38,14.10141,-33.016216,-11.516075,-47.831406,0.0,-64.152832,-33.620682,-50.114937,-35.370483,-45.124512,-34.593086,-38.997231,-31.975021,-34.17881,0.0,7.826309,-6.308237,0.344073,12.922756,13.684818,31.327343,26.642215,47.47032,39.176067,0.0,-1.429482,-14.380131,-26.561165,-30.440998,-2.305069,-42.83884,-12.508678,-53.282547,-24.559536,0.0,-54.497425,-52.256039,-118.834067,-45.598264,-30.11336,-34.201485,-16.820411,-19.964371,-12.492602,99.450445,115.651636,-114.166975,73.834474
39,4.411011,-10.328714,-18.006878,-39.764981,0.0,-65.156364,-30.313797,-45.301895,-28.781548,-40.177231,-26.655464,-34.279518,-23.851776,-36.49292,0.0,-19.556016,-1.775139,-6.717673,10.375644,6.371685,21.851279,14.077025,30.751798,25.161842,0.0,-11.708908,-16.68314,-35.552902,-31.78133,-8.414154,-43.166256,-12.432747,-52.432308,-25.992451,0.0,-58.771665,-52.394514,-121.057669,-42.994157,-32.058282,-30.939087,-12.503872,-17.125273,-6.325805,104.023733,105.81495,-132.011576,34.56152
40,9.298839,-28.789879,-14.328747,-26.73623,0.0,-70.781021,-27.78202,-47.427635,-30.088119,-44.874744,-31.594047,-42.031746,-31.803017,-42.843132,0.0,-21.030107,-6.491034,-10.51239,8.841501,4.149735,23.431116,14.558169,35.858587,27.154558,0.0,-10.214424,-15.50663,-29.584293,-29.079952,-5.713978,-41.363239,-14.210358,-52.84687,-24.264851,0.0,-67.022724,-42.427905,-103.316806,-36.881792,-43.635496,-28.827439,-26.677135,-17.153801,-21.747723,112.121086,79.300342,-147.541809,10.100561
41,9.29884,-28.789879,-8.290672,-15.10449,0.0,-76.405678,-25.250244,-49.553375,-31.394691,-49.572258,-36.532631,-49.783974,-39.754257,-49.193344,0.0,-22.504197,-11.206928,-14.307107,7.307359,1.927786,25.010955,15.039313,40.965378,29.147275,0.0,-6.842937,-18.49411,-17.491322,-30.454388,-7.680874,-41.077538,-14.270325,-51.07687,-27.051659,0.0,-74.175892,-41.798082,-86.17375,-36.09855,-48.22454,-29.393875,-36.395446,-20.984426,-29.256295,119.327087,51.769986,-157.92532,-3.744406
42,3.544807,-5.095706,0.995522,-14.483467,0.0,-72.096062,-22.071877,-76.801758,-31.527214,-54.518166,-38.898811,-54.52446,-44.148903,-57.49649,0.0,-33.813476,-16.7029,-32.059795,-0.680798,-14.434591,15.548321,2.972912,29.78914,17.082665,0.0,-8.551025,-17.861595,-0.413361,-29.31633,-6.724491,-39.921341,-14.334812,-49.942245,-24.038773,0.0,-71.206685,-42.455014,-51.41327,-34.736984,-43.612957,-26.454772,-33.057095,-17.00489,-26.904469,121.034174,47.509841,-158.767519,-17.392312
43,-9.234352,-13.952135,9.697266,-4.276,0.0,-74.109192,-20.699387,-57.396698,-28.223648,-45.989685,-34.848175,-47.566681,-39.818573,-48.705826,0.0,-27.512742,-14.760818,-18.198186,2.980631,-1.746363,20.751349,12.952056,37.486298,27.797133,0.0,-6.697884,-16.907387,-27.095776,-28.894787,-5.627003,-40.665836,-13.13633,-51.453266,-21.403885,0.0,-65.823932,-47.154158,-108.215497,-41.759179,-45.580418,-34.241777,-32.268913,-24.028444,-28.508158,109.862337,33.666402,-151.007738,-21.559616
44,1.435776,0.145577,17.000999,-2.186397,0.0,-70.485077,-20.86441,-80.616302,-29.879036,-49.083366,-37.574844,-51.673851,-43.212204,-54.178963,0.0,-30.938963,-18.102751,-33.037057,-1.601065,-8.728452,15.496328,6.618625,30.764642,20.83604,0.0,-6.093235,-20.171871,-24.45488,-32.561932,2.115669,-43.353996,-8.573742,-52.573299,-18.502979,0.0,-62.627885,-51.365629,-111.801745,-45.765206,-40.422375,-36.99424,-24.222865,-25.733218,-20.758852,111.493149,34.31299,-133.811703,-23.245001
45,-2.943535,-3.217598,15.740662,11.662615,0.0,-70.788345,-21.85318,-81.808205,-31.423302,-48.630066,-39.631805,-52.115936,-45.182076,-55.772781,0.0,-33.376159,-17.175877,-35.097205,-1.06927,-11.158114,15.690625,3.435083,30.764796,18.052949,0.0,5.268745,-10.642319,-11.493816,-23.663921,6.452808,-35.207577,-6.672821,-46.459866,-15.569229,0.0,-54.097436,-52.961414,-116.655791,-48.45842,-35.378046,-39.785142,-18.25123,-28.240841,-17.866494,109.602757,33.413287,-117.017899,-9.264491
46,-2.364349,-0.854873,31.014519,26.26455,0.0,-65.129929,-22.797546,-84.882088,-33.763962,-52.808189,-43.020859,-56.615753,-49.229622,-59.387627,0.0,-32.044604,-18.024266,-36.886825,-2.458871,-15.368659,13.697446,-0.656901,28.201907,13.967233,0.0,10.245724,-6.342659,-2.964191,-20.888557,4.854641,-33.827534,-7.876682,-45.968571,-17.400055,0.0,-55.485462,-53.195356,-126.500011,-49.566932,-31.050361,-42.601949,-22.968899,-33.127738,-20.548777,109.229193,33.152808,-84.012594,17.594452
47,-4.477501,-2.295726,18.005905,11.61235,0.0,-64.480133,-24.632835,-86.266708,-35.283165,-53.64418,-44.007454,-57.865791,-49.684525,-59.981575,0.0,-30.272368,-17.212094,-35.805359,-1.234761,-16.886607,14.846497,-3.172211,29.287881,12.027406,0.0,15.130405,-7.373085,11.730022,-24.25066,4.143162,-37.056599,-7.260303,-48.546638,-15.150833,0.0,-42.055025,-53.164727,-84.029251,-49.712077,-16.722691,-39.773934,-8.477683,-28.796718,-10.470616,108.286629,30.82207,-62.471752,29.17179
48,-3.558311,-2.564402,8.315563,27.512448,0.0,-65.282593,-28.433304,-87.893486,-38.61248,-51.085968,-46.464958,-56.068497,-51.59317,-59.28051,0.0,-29.51574,-15.71656,-33.075744,-0.115288,-13.258894,15.792421,1.558982,30.171004,15.895081,0.0,24.949722,4.831295,28.806725,-12.515087,9.718695,-26.670256,-5.225229,-38.47023,-11.749105,0.0,-28.34347,-51.526442,-89.580566,-50.986635,-7.802041,-41.20429,-5.574441,-29.019189,-6.949931,106.406479,28.283572,-52.478027,56.710142
49,-3.170242,1.153559,8.315563,27.512449,0.0,-63.667145,-29.862556,-89.155655,-39.5644,-50.570068,-46.660309,-55.127563,-51.236687,-57.568932,0.0,-28.001311,-18.48162,-29.664805,-2.650112,-13.689943,13.766791,2.182105,28.77245,16.127942,0.0,34.769039,17.035675,45.883427,-0.779514,15.294228,-16.283913,-3.190155,-28.393822,-8.347378,0.0,-14.631914,-49.888158,-95.131882,-52.261195,1.118609,-42.634646,-2.671199,-29.241661,-3.429247,103.656979,30.221424,-43.741722,85.006883
50,1.893997,4.689018,3.639565,2.072807,0.0,-67.151756,-25.863419,-89.820671,-37.039719,-51.730042,-45.901108,-57.716904,-52.395973,-60.25074,0.0,-28.85041,-15.068613,-28.645059,0.239622,-17.066363,15.36659,-4.27072,28.809346,10.620947,0.0,35.230923,14.327145,45.102825,-3.428535,17.310619,-18.987751,0.223331,-31.638279,-6.075554,0.0,-17.952543,-46.462708,-90.597642,-49.530067,2.097692,-40.778521,2.454054,-28.116506,2.674688,105.499277,35.508602,-40.153856,87.677851
51,3.82576,3.809815,-3.330517,-2.18226,0.0,-61.358986,-27.915802,-91.374092,-38.692818,-54.44355,-46.998024,-60.483055,-52.965775,-62.954407,0.0,-30.30278,-14.15446,-29.341511,0.54717,-19.635705,14.8741,-6.896008,27.308255,6.812614,0.0,36.816559,15.760059,54.104004,-1.278763,14.105759,-16.539688,-0.904541,-29.445305,-8.087368,0.0,-17.920186,-45.010894,-86.780231,-49.357567,3.908708,-42.544953,4.176643,-30.983084,5.961076,108.973961,39.628605,-43.835449,85.805779
52,1.988297,0.632355,-0.685387,-0.24481,0.0,-61.720848,-28.682785,-94.340858,-39.420433,-54.013252,-47.45327,-60.940247,-53.07621,-63.380814,0.0,-30.697365,-14.852734,-30.139481,0.139216,-19.581642,14.957957,-6.800079,27.989486,7.91702,0.0,38.07827,15.747471,54.870529,-0.561848,15.843143,-15.639839,0.963764,-28.565712,-5.803413,0.0,-20.08321,-45.621637,-87.520835,-50.928035,1.84748,-44.935404,4.652616,-33.519822,5.139734,111.012297,40.539809,-44.470797,85.839819
53,1.644745,2.003029,0.075417,-0.92076,0.0,-58.990746,-31.0215,-96.336136,-42.040215,-57.76062,-49.455986,-62.74189,-53.997574,-65.776176,0.0,-33.082536,-14.874007,-33.92722,-0.46566,-22.885845,13.7784,-9.581472,26.387834,3.753993,0.0,38.279343,16.038609,54.440117,-0.184822,17.176323,-15.544624,1.943951,-28.651772,-4.333935,0.0,-19.89376,-44.629338,-86.058678,-50.454502,3.303647,-44.189552,6.136632,-32.306426,5.036549,112.66757,42.823648,-44.384851,85.199869
54,0.450325,0.030042,0.045261,0.606605,0.0,-58.797798,-30.646019,-96.842422,-41.867523,-58.527718,-49.515953,-63.398438,-54.140854,-66.766777,0.0,-33.485921,-14.850387,-33.889336,-0.330426,-23.905159,14.025278,-10.596278,26.619429,3.037503,0.0,38.325863,15.901394,53.525562,-0.079193,17.049179,-15.362492,1.149387,-28.470554,-5.346222,0.0,-19.909537,-44.594758,-88.102616,-50.463456,4.044528,-44.286222,6.835616,-32.747911,4.911967,113.103676,42.910392,-44.353809,85.863176
55,-0.517845,-1.742535,-0.283184,0.759129,0.0,-60.473557,-30.860252,-95.717125,-42.022362,-56.106949,-49.798622,-62.955208,-54.70356,-65.978394,0.0,-31.983317,-14.530242,-32.271846,0.426294,-21.645712,15.15917,-8.661854,27.913996,5.715093,0.0,38.020248,15.035076,50.495567,-1.206093,18.021011,-16.47274,2.315369,-29.741135,-4.86145,0.0,-19.881502,-45.197411,-86.569076,-50.640154,1.770477,-44.564284,5.773787,-33.167999,3.816669,112.614527,41.172087,-44.608297,86.626535
56,-0.806236,-0.240672,-0.134754,0.460905,0.0,-59.771347,-34.107399,-96.999435,-44.721107,-56.319122,-51.653824,-62.097244,-55.771751,-64.29142,0.0,-32.258477,-15.193349,-33.741506,-0.481128,-21.138185,13.976804,-7.245145,26.658919,6.376101,0.0,37.092075,14.854488,50.940342,-1.30743,16.559715,-16.5271,1.747284,-29.894829,-6.634769,0.0,-20.499377,-45.937644,-89.980138,-51.71631,0.358214,-45.765453,2.79365,-34.551332,0.80223,111.820135,40.90159,-44.731207,87.057614
57,-0.487862,-0.803188,-0.366783,-1.002302,0.0,-59.53228,-34.118385,-96.768494,-44.948616,-56.947975,-52.040749,-61.745224,-56.144257,-64.015388,0.0,-32.516254,-14.359194,-33.234195,-0.196181,-20.615375,13.91808,-6.119497,26.300458,7.087898,0.0,36.167736,15.141277,49.616947,-1.163406,16.755352,-16.636047,1.129475,-30.100193,-6.766663,0.0,-20.391221,-45.099105,-87.782194,-50.778568,3.495536,-44.709305,6.019245,-33.561472,3.085761,111.313162,40.111663,-45.117102,86.068573
58,-1.190872,-0.888805,0.269394,-0.107291,0.0,-58.529205,-35.01709,-96.733932,-45.897446,-56.456451,-52.774429,-60.86792,-56.688881,-63.082237,0.0,-32.660225,-13.43303,-34.27012,0.40394,-20.752801,14.058994,-5.996336,26.022581,7.477697,0.0,36.720371,14.236908,47.551403,-2.149887,17.062054,-17.719002,1.761017,-31.255703,-5.967007,0.0,-19.898947,-45.115499,-87.04619,-50.795858,2.775897,-44.585341,5.481893,-33.090533,2.836073,110.123892,39.230207,-44.846106,85.96863
59,-0.553207,-1.183694,-0.815048,-0.097041,0.0,-58.90789,-33.923836,-96.049576,-44.836121,-54.487495,-51.814156,-59.783707,-55.770035,-62.138557,0.0,-31.996964,-13.996688,-34.633737,0.011362,-18.927922,14.209109,-3.708915,26.720607,10.098107,0.0,36.929455,14.880695,48.804302,-1.259136,16.645088,-16.515369,2.314682,-30.053158,-6.161957,0.0,-21.479202,-45.545313,-89.673331,-51.412467,1.259925,-45.795279,4.383044,-34.892966,1.843034,109.586878,38.148648,-45.64496,85.973725
60,-0.173264,0.01692,0.744095,0.668325,0.0,-58.742523,-33.661995,-96.975288,-44.819641,-54.305191,-52.095222,-59.662285,-56.18969,-62.270508,0.0,-31.668143,-14.549045,-35.796992,-0.471248,-19.591121,13.789793,-4.188345,26.339268,9.73838,0.0,36.879101,13.753853,46.967182,-2.67128,16.748714,-17.924595,2.967911,-31.468563,-6.787434,0.0,-22.149255,-46.585344,-90.831429,-52.133588,-2.137182,-46.563454,1.703941,-35.877669,-1.948565,109.447231,38.183197,-44.867249,86.659679
61,-3.125496,-2.470819,0.453529,0.245828,0.0,-61.97731,-32.606735,-93.284798,-42.372665,-52.658386,-49.001083,-57.142639,-52.866554,-59.877892,0.0,-29.072989,-14.637626,-32.950576,0.803929,-17.085536,16.083883,-1.568954,29.230762,12.801571,0.0,36.19051,13.086205,47.465343,-3.470993,16.474171,-18.99828,2.878876,-32.715397,-6.523533,0.0,-22.803871,-46.836823,-88.823429,-52.144641,-1.917937,-46.231916,1.881257,-35.230216,-1.550985,106.327085,35.845404,-44.408369,87.038533
62,-1.055832,0.630009,-0.882912,0.648688,0.0,-59.338188,-33.288803,-92.639122,-43.030014,-53.009605,-49.423828,-56.830101,-53.175774,-59.063301,0.0,-28.762539,-15.069416,-33.699145,0.062893,-16.612929,15.249943,-0.536549,28.477684,14.183236,0.0,36.28973,13.57687,47.65852,-2.702637,16.944695,-17.729702,3.051224,-31.106129,-7.005558,0.0,-23.733647,-47.042544,-88.689245,-52.442865,-3.747972,-46.878566,0.621147,-36.360094,-2.800072,105.288677,36.60461,-45.273857,87.816419
63,-1.109619,0.207296,-0.565166,0.57678,0.0,-59.468994,-30.589714,-89.849167,-40.29007,-53.200836,-47.00592,-56.591492,-51.206474,-58.494759,0.0,-26.517726,-14.371359,-31.118039,1.487629,-16.781446,17.026163,-1.683934,30.468271,13.499319,0.0,37.197533,13.395596,47.756195,-3.07085,16.864357,-18.285141,3.361015,-31.622143,-6.020622,0.0,-23.554232,-47.094754,-89.673794,-52.709102,-2.115415,-46.922841,1.167947,-36.154218,-2.423611,104.259739,36.770641,-45.758343,88.351934
64,1.414604,6.601737,-0.92577,0.218257,0.0,-58.95298,-30.575867,-90.674286,-40.739365,-55.436554,-47.530174,-58.699036,-51.708641,-60.052643,0.0,-29.359048,-14.151404,-33.540539,0.931381,-20.158885,15.703284,-5.053283,28.50751,9.807818,0.0,36.747265,12.121983,46.706371,-4.853897,18.007336,-20.045757,4.391155,-33.229752,-6.801453,0.0,-24.548629,-47.267594,-91.799768,-51.668824,-3.775204,-45.160701,1.221794,-33.622358,-1.943903,105.695457,43.375465,-46.662998,88.573278
65,-1.861839,5.007866,-2.072754,1.032343,0.0,-59.852028,-28.610115,-83.609047,-38.60218,-56.387444,-45.414963,-57.230644,-49.512978,-56.967773,0.0,-27.36593,-12.696348,-30.510971,2.971769,-17.588215,17.767014,-3.43888,30.590537,12.197559,0.0,33.54475,8.749352,45.147572,-8.322144,15.607052,-22.479172,3.251152,-33.723106,-7.593155,0.0,-26.538845,-49.907609,-95.258439,-53.150525,-6.046477,-45.928505,-0.196799,-33.35149,-0.754189,103.745899,48.290644,-48.823471,89.512934
66,-1.078033,8.556014,-5.010223,2.187477,0.0,-61.606064,-29.057922,-68.330612,-38.429832,-53.153915,-45.162964,-54.687653,-49.860306,-55.641861,0.0,-26.693684,-13.737614,-23.861532,2.342564,-13.556562,17.773436,1.029348,31.288532,16.698824,0.0,33.503723,7.901459,42.026768,-9.185371,19.601212,-22.570438,5.087299,-33.097286,-6.850491,0.0,-27.853697,-50.684213,-97.697241,-52.64411,-7.061993,-44.722088,0.381648,-31.888376,-0.379178,102.576084,56.832702,-53.925476,91.686456
67,1.611099,11.822857,-4.064198,2.692935,0.0,-60.115814,-27.70237,-76.36425,-36.978035,-55.6287,-43.632317,-56.418915,-48.46035,-56.441689,0.0,-24.463105,-12.89185,-24.03431,4.005811,-13.465449,19.561265,1.143278,33.206469,15.869269,0.0,34.501076,6.038761,39.561539,-11.030331,21.220837,-24.156075,7.157936,-34.213715,-3.28228,0.0,-29.50765,-50.276475,-97.334982,-51.049189,-4.833359,-42.014764,3.606718,-28.764731,3.203148,104.20289,68.513935,-57.973967,94.237767
68,-2.538643,9.98112,-8.383484,6.207028,0.0,-62.342033,-25.997543,-75.681152,-33.593788,-58.157387,-39.233665,-56.887665,-43.424606,-58.05542,0.0,-20.725785,-9.122574,-17.586857,8.288387,-7.409432,23.638922,4.903106,36.677367,18.551862,0.0,38.643322,8.687782,46.849022,-7.333775,27.451286,-19.342403,12.449398,-28.997955,0.461998,0.0,-29.333916,-49.348861,-95.960974,-50.226365,-3.071095,-41.225347,6.65194,-27.806982,4.155957,101.38773,78.191567,-66.633968,100.141307
69,-3.692093,11.437905,-4.400139,5.494953,0.0,-64.318886,-29.553795,-90.21286,-34.157867,-57.253418,-37.249832,-54.729652,-40.132484,-53.674278,0.0,-13.378937,-5.044175,-12.658557,12.639043,-1.81151,28.39497,13.111465,41.659421,25.556767,0.0,38.832092,8.417873,50.41523,-7.578506,29.055119,-18.852654,14.935112,-27.556171,3.622971,0.0,-25.63945,-48.286352,-82.496142,-46.870817,2.199426,-35.435814,8.351033,-20.394895,4.239166,97.264652,88.675645,-71.465092,104.682432
70,-2.398567,16.974385,-2.648392,9.791485,0.0,-62.655144,-28.999557,-94.542961,-34.219666,-59.844131,-37.553329,-56.281357,-40.201607,-53.108368,0.0,-12.789467,-5.600608,-11.177041,12.194904,1.166712,27.677646,15.31543,40.729892,27.200809,0.0,43.600559,6.386719,52.543545,-8.985672,36.609478,-19.56665,21.724262,-27.718678,7.278728,0.0,-23.596067,-46.168035,-67.387144,-43.985868,8.266559,-32.085267,17.207987,-16.819639,11.511821,94.579754,104.68146,-74.399815,113.505347
71,-3.16555,13.565361,-3.263454,4.678273,0.0,-62.197037,-35.890617,-104.334641,-37.910271,-63.138542,-37.637215,-59.652786,-36.601639,-55.803452,0.0,-2.758237,-1.175512,-2.269976,16.141033,6.314258,31.149038,18.633341,43.899819,30.04951,0.0,48.512135,7.865925,56.461601,-6.154003,47.100506,-15.648079,32.724895,-22.39769,19.781513,0.0,-17.456811,-39.485745,-45.424282,-34.025187,19.797861,-19.603317,28.348626,-2.316845,25.414494,91.070108,116.534914,-78.007364,116.471713
72,-5.893936,16.616696,-5.081921,1.661364,0.0,-60.473442,-34.357796,-102.073402,-35.028076,-61.626549,-34.143677,-57.657967,-32.840309,-52.898712,0.0,-2.207824,0.001667,3.658835,18.774595,11.079629,34.461176,23.286883,47.195655,35.147717,0.0,52.329082,12.740707,62.79911,0.227737,52.710743,-9.033623,44.495945,-15.499134,30.100765,0.0,-11.295293,-26.000845,-7.933199,-17.031381,26.722645,-1.770724,39.528446,15.023165,41.94795,84.99301,130.937442,-83.272448,115.918908
73,-9.174957,15.491882,0.652428,-2.063853,0.0,-68.232994,-32.541046,-67.123032,-29.646492,-59.902725,-26.214752,-55.497551,-22.963028,-47.811813,0.0,6.156022,2.799393,7.676194,20.152556,19.308736,35.088004,29.540471,46.898635,44.494568,0.0,54.137535,10.283318,65.827446,-2.123165,55.194969,-12.256851,43.862514,-18.014202,28.322353,0.0,4.952599,-4.991625,29.61241,4.095318,48.980489,14.389266,53.675496,25.715033,56.537504,75.865946,144.90838,-82.572126,112.334111
74,-6.358566,16.04955,-9.042664,33.724,0.0,-59.222603,-29.856949,-88.071957,-22.877884,-83.595314,-14.975395,-73.428841,-6.533661,-54.504318,0.0,8.735954,-1.855291,24.596609,12.978084,41.732163,28.421986,55.027706,42.741412,63.926373,0.0,71.293602,22.560482,80.053139,10.321712,78.590012,0.219898,66.110401,-6.986561,43.696861,0.0,4.164633,-11.885349,22.561007,1.116633,39.611654,17.435785,48.560277,34.990933,53.819745,69.459085,159.671128,-91.663084,144.771309
75,-16.606293,72.744888,-3.689518,17.399722,0.0,-69.903145,-38.430405,-96.314449,-39.705963,-115.942039,-39.047585,-82.805386,-36.422424,-63.821411,0.0,2.076049,12.991793,-4.678335,-1.866406,-29.107539,-17.727494,-31.408668,-33.637302,-33.617233,0.0,72.479553,24.624138,86.655407,12.700825,82.941914,1.190529,70.219173,-8.745346,45.088177,0.0,-4.150801,-8.473947,31.138263,3.51366,51.044743,17.87977,56.834956,34.474205,60.359546,53.005857,231.381696,-95.199537,161.136712
76,-8.02803,-17.125427,5.252724,17.701003,0.0,-69.294434,-34.080048,-89.886761,-30.454559,-89.422474,-25.858154,-80.29129,-20.550385,-70.499554,0.0,22.216193,29.493664,14.520795,33.973162,10.948039,35.750216,13.997151,34.185522,25.757394,0.0,75.29211,21.127453,76.046963,8.368721,71.128635,-5.154819,51.992397,-18.238506,25.258713,0.0,0.932678,-0.648009,32.684864,11.572706,57.703228,22.972327,63.860671,34.057822,63.837391,45.23632,213.412264,-89.68832,177.99371
77,-1.032944,39.62703,13.160191,25.589926,0.0,-71.059856,-32.403259,-91.146641,-29.354439,-87.620487,-24.225311,-82.601452,-18.569641,-66.528625,0.0,27.608794,14.390193,13.502963,7.092591,-1.441193,-2.086608,-13.283008,-13.895572,-13.877355,0.0,65.34874,38.263721,77.407837,27.123585,66.277657,13.769703,57.893715,-0.433846,45.545025,0.0,1.734199,21.437458,66.035026,38.374423,81.754211,53.034527,92.570043,65.233814,92.311308,44.71324,251.901342,-76.018267,202.445684
78,-7.323532,-10.753278,-0.848866,16.512184,0.0,-56.165886,-32.27005,-72.811947,-26.994095,-74.698048,-20.960999,-63.962231,-13.59993,-47.868576,0.0,25.035284,21.49927,26.926946,29.265682,35.960414,36.11868,41.637562,40.956764,50.498561,0.0,69.000721,31.135883,83.302631,17.709389,78.331776,4.275227,65.1721,-8.546734,39.972382,0.0,3.583315,20.90449,64.329665,35.112828,78.625688,48.064174,88.447276,58.42719,89.448992,37.345877,240.921316,-76.910963,218.731121
79,-0.909004,65.302851,-1.483784,15.465082,0.0,-79.694881,-44.157944,-102.079525,-42.791061,-100.468597,-40.419388,-93.755035,-37.224083,-77.756367,0.0,33.132616,29.579188,-6.872574,17.084857,-35.294004,-3.248689,-53.951767,-27.021672,-55.911849,0.0,73.414078,32.636662,86.65226,20.674381,82.506294,8.702087,69.198875,-3.333778,45.994377,0.0,-0.187289,23.608788,68.087178,38.420242,88.081529,51.011521,94.51586,60.681265,94.299054,36.424313,306.112569,-78.407307,234.084604
80,-8.806458,-14.015923,1.545582,14.732475,0.0,-82.788105,-32.291565,-94.955578,-27.206039,-93.249378,-21.574173,-84.990349,-16.928215,-71.888351,0.0,50.578898,43.10364,-1.008693,37.253344,-15.403517,23.91155,-23.408778,4.031376,-16.78228,0.0,73.849926,32.608337,90.24107,21.628475,85.258884,10.741138,72.680225,-0.139046,49.899502,0.0,-2.16077,26.429053,69.408266,42.188067,88.976971,54.578472,97.971722,63.018457,96.631614,27.667837,291.812162,-76.811743,248.532595
81,7.403526,-17.636535,5.530758,11.753759,0.0,-67.655983,-49.13063,-53.752842,-45.76561,-38.490257,-39.043121,-33.536682,-30.234032,-41.441574,0.0,0.791949,27.324063,58.416137,35.5662,68.782364,40.150982,67.181361,42.265934,66.95943,0.0,73.848267,30.436134,89.932365,19.339943,86.568031,8.814354,72.752953,-1.761246,49.707298,0.0,-0.052364,30.007613,68.330289,45.629726,86.010605,57.260416,95.05772,65.009599,97.093446,35.216703,274.142451,-71.135645,260.253178
82,0.39505,3.725402,5.861549,8.229971,0.0,-61.329117,-50.874481,-23.442421,-49.365463,-13.609772,-45.113411,-17.136497,-40.138206,-66.179466,0.0,4.628687,20.619883,65.496192,28.839357,72.915689,35.891254,75.33013,41.671216,72.731179,0.0,72.332039,30.787697,89.628639,19.171715,86.260986,8.323631,70.741997,-2.362347,47.877045,0.0,1.287126,30.557624,64.462675,46.055063,83.835817,57.552495,91.457424,65.037139,91.225613,35.70199,277.683421,-65.183859,268.298717
83,-1.017723,20.887139,3.495884,5.321712,0.0,-60.298862,-47.595634,-22.467728,-45.779114,-8.774757,-41.435738,-6.412582,-35.522232,-21.966591,0.0,18.315543,14.351351,46.81027,12.657167,50.318249,10.346158,46.698934,7.439751,36.609411,0.0,72.886791,31.720448,90.930347,21.51226,90.492153,11.112385,75.701694,0.811443,54.171467,0.0,2.130142,31.205324,60.625566,47.368,77.988115,58.731373,87.622538,66.181004,86.586798,34.916296,298.404605,-61.455946,273.454475
84,3.035316,-11.167562,3.623314,4.815668,0.0,-53.075752,-45.635719,-18.24955,-45.346184,-8.695107,-42.322197,-9.957275,-37.382812,-25.668182,0.0,5.765759,22.493637,56.92752,30.95684,65.507431,37.548326,64.442174,41.969038,63.553401,0.0,72.044048,28.856678,89.950962,19.2453,88.774738,9.723072,75.674801,1.019669,55.601177,0.0,3.830872,29.104142,59.673931,46.140772,72.982441,58.185375,82.485151,65.581778,84.801717,38.16659,287.074917,-57.617655,278.108017
85,-3.984146,-4.702603,-1.73687,-0.481036,0.0,-52.893105,-36.405144,-26.858482,-32.140617,-15.013046,-25.872345,-7.546692,-18.034859,-9.946632,0.0,1.976322,26.738175,54.17728,35.2233,66.206322,41.2318,65.691323,44.44523,64.960631,0.0,72.931309,29.673843,91.804447,20.991211,91.631756,11.913986,78.929386,3.445873,58.981876,0.0,3.936095,30.640616,59.836643,47.696883,72.692523,59.811511,81.017529,67.458558,85.075766,34.536009,282.328596,-59.000959,277.583262
86,3.250008,5.434592,-0.652599,-1.506154,0.0,-41.572495,-32.597008,-25.042648,-31.977196,-14.562378,-29.348717,-11.905861,-25.108109,-15.9478,0.0,11.914433,18.339131,40.964482,23.444779,52.619934,27.918967,51.650329,31.238854,49.920206,0.0,72.357445,31.468964,91.872482,22.325993,89.779358,12.541351,77.729988,3.414402,57.837067,0.0,6.031533,31.703403,59.786317,49.176361,72.87975,60.871395,82.303604,67.831716,85.134305,38.268814,287.812156,-59.170761,276.126075
87,-24.105377,4.911257,-0.058193,0.016364,0.0,-41.934814,-40.207329,10.533829,-46.823502,11.681442,-47.990341,3.696556,-46.243744,-42.363453,0.0,20.266979,19.287247,37.890238,30.820557,48.468331,38.309647,50.267923,43.203923,57.397131,0.0,71.282101,28.97192,91.396351,19.643497,89.683399,10.376415,77.130489,2.067261,56.893101,0.0,7.797348,32.415385,58.897172,49.802819,71.398914,61.023363,81.380065,67.337466,84.133763,14.560375,292.743605,-58.832016,276.162632
88,-17.040253,6.551101,-0.542793,0.823874,0.0,19.955864,-21.511116,29.534454,-29.903355,36.072807,-32.634716,25.441475,-31.982975,2.615776,0.0,7.899854,9.388039,31.483077,23.552842,44.775656,36.287197,52.501497,47.001326,56.564365,0.0,72.039585,30.07164,92.898617,21.015701,90.380802,11.695633,77.870808,3.295441,58.752537,0.0,6.337445,32.113425,58.885008,49.326044,71.070155,60.664346,80.342658,67.240518,83.173359,-2.099304,299.249289,-58.994236,276.941088
89,5.265312,-15.410124,0.60236,-0.050821,0.0,-32.313881,-22.697697,22.248688,-31.254044,18.752632,-36.423397,9.27887,-39.114475,-23.475895,0.0,19.649537,20.151197,37.782607,37.141638,52.562012,50.131454,57.988577,59.438971,64.509173,0.0,71.59687,28.694458,91.853943,19.405174,89.574051,10.163498,77.082367,2.031784,57.460899,0.0,7.696139,31.919097,58.772004,49.163702,70.633271,60.45637,80.386995,66.846179,83.440985,4.035587,283.78785,-57.522297,276.838953
90,-28.408813,8.164022,-1.121922,0.40959,0.0,-6.848888,4.721603,52.853966,-1.036091,54.670143,-8.465137,43.548889,-15.693913,11.406441,0.0,24.815268,14.837451,34.844831,27.083175,45.791636,36.721364,48.509395,44.36341,53.4661,0.0,71.889095,29.329605,91.840611,20.113621,89.514828,10.870342,77.059765,2.876186,58.128834,0.0,8.012301,31.933361,59.296451,49.319498,70.969625,60.768766,80.266767,67.254411,83.053748,-23.648443,291.928778,-57.919436,277.225449
91,30.363121,-1.977248,0.302181,-0.324004,0.0,-38.797646,-30.574551,20.456772,-38.863049,20.775719,-42.800102,9.446526,-43.838539,-41.972866,0.0,29.086297,16.181634,39.73849,30.857545,51.440625,41.91618,56.112167,50.332143,63.201979,0.0,71.080399,29.239769,91.121063,19.480133,88.062057,9.716091,75.529976,1.221771,55.91114,0.0,8.104803,31.883837,59.518073,49.232801,71.348649,60.656256,80.682409,67.07478,83.531882,7.297354,289.920099,-57.034578,276.870013
92,-13.385468,12.649448,-0.245304,0.060577,0.0,-0.988541,-23.195057,30.747185,-28.833046,41.086235,-29.198685,33.933678,-26.405582,8.215141,0.0,3.705395,11.27297,33.924441,24.739747,42.782908,35.460853,48.361008,44.583056,48.191257,0.0,71.182537,28.652916,90.739803,19.07959,88.255291,9.526176,75.719776,1.321163,56.330395,0.0,8.833396,31.845552,59.271133,49.318325,71.318824,60.732765,80.543965,67.115844,83.173112,-5.540171,302.693295,-56.731939,277.054338
93,8.762856,-14.589276,-0.816479,-0.272072,0.0,-33.636646,-28.02103,24.480858,-36.468315,24.424095,-41.189404,15.791473,-43.135071,-16.064301,0.0,31.098372,15.168001,39.479323,30.578248,53.775779,42.16491,57.174459,50.643983,59.780944,0.0,71.87645,29.329948,91.496887,19.929886,88.860168,10.413609,76.402817,2.096958,57.095718,0.0,9.391435,32.517335,59.776931,49.865866,71.8161,61.146616,80.953432,67.451951,83.285992,3.699875,288.197941,-57.071228,276.876189
94,-6.48571,3.064611,-0.237179,0.64171,0.0,-30.225677,-20.037575,30.250397,-26.751766,32.746239,-31.185207,24.876595,-34.010639,-3.342476,0.0,34.394424,14.055197,37.6081,26.598928,49.223909,36.134489,50.860295,42.951919,52.179407,0.0,72.02425,29.377956,92.27766,20.242996,90.208111,10.867996,77.648106,2.724667,58.604565,0.0,8.822837,32.569761,59.398462,49.94645,71.294185,61.364595,80.331111,67.851044,83.134271,-2.335482,291.507316,-56.858053,277.762662
95,3.608665,1.180791,-0.406895,-0.20884,0.0,-31.336384,-27.070942,25.781593,-33.526783,29.024048,-36.757507,21.97506,-38.017101,-6.587105,0.0,30.679457,14.335914,36.5187,26.91756,49.090775,36.30529,50.235133,42.951117,52.367869,0.0,71.747589,27.905445,91.163521,18.551102,88.701782,9.421864,76.993675,1.671524,58.26725,0.0,10.349493,32.590509,59.270021,50.108236,70.960918,61.478772,80.506914,67.720133,83.271295,1.756182,292.847269,-56.78195,277.712984
96,-1.210556,7.772154,-0.044746,0.136962,0.0,-46.421814,-26.469841,22.892761,-29.565067,28.889465,-30.422459,23.649902,-29.714355,-7.323189,0.0,42.121129,15.071361,34.322114,20.094202,40.01896,22.903351,37.308549,23.979784,35.858464,0.0,71.82621,27.718964,91.665115,18.298817,88.892326,9.059086,76.797638,1.218166,58.01754,0.0,10.7484,32.379446,58.488261,49.847897,71.345994,61.334152,80.763673,67.811462,83.244681,1.016893,300.689617,-56.355429,277.920141
97,9.412308,-1.652318,-1.171131,1.17758,0.0,-54.784126,-36.792126,13.810158,-41.166916,15.930061,-40.831146,9.285049,-37.344074,-27.793579,0.0,35.054783,14.770081,33.541527,23.392662,41.512641,29.118098,41.395624,32.458301,43.129514,0.0,71.390247,28.528862,92.550144,19.430237,90.247822,10.350666,77.815189,2.277374,58.247051,0.0,9.584528,30.834142,55.72845,48.002794,69.573572,59.579391,78.930735,66.621161,82.056664,10.809402,299.166667,-57.146358,279.227088
98,-1.516914,-3.520206,0.445118,0.383655,0.0,-39.405613,-34.67205,19.833527,-42.750378,19.319572,-45.967255,11.121254,-45.524368,-23.814297,0.0,25.366575,15.822802,35.253928,26.247815,44.526987,33.116437,44.324878,37.599949,47.634021,0.0,70.590363,27.503929,92.034988,18.327198,90.002403,9.1436,77.490921,0.999699,57.350464,0.0,8.617826,30.010391,57.214165,46.985765,69.431916,58.768423,78.772345,66.05491,81.881355,9.723129,295.687788,-56.270599,279.65207
99,4.274254,13.843516,-0.179672,0.204888,0.0,-49.219437,-44.532108,11.217613,-49.95266,18.132706,-49.956837,12.889252,-46.602859,-16.799698,0.0,34.305194,8.163837,32.171903,9.375565,34.179347,8.939051,27.942123,7.628831,23.530797,0.0,70.30426,26.954212,91.998367,17.693939,89.910507,8.634167,77.765694,0.877934,57.384796,0.0,8.804435,29.806553,56.701143,47.012626,69.134835,58.730014,78.612967,65.718246,81.453733,14.252014,309.591449,-56.195641,279.917103
100,9.094734,-17.466907,-0.172005,-0.265033,0.0,-40.761738,-40.742798,2.885513,-51.664753,-0.101395,-56.910725,-8.523674,-58.510094,-58.732624,0.0,18.385382,13.284798,37.519242,27.173022,48.823828,37.621439,53.157348,45.722352,61.648833,0.0,70.321655,28.468266,92.265129,19.200783,90.053101,9.743214,77.426834,1.242428,57.337761,0.0,9.2893,30.114194,57.316856,47.067708,69.923944,58.705129,79.07943,65.848416,82.064445,23.676023,292.138791,-56.03837,279.666319
101,-25.647354,28.802121,-0.075645,0.003149,0.0,-40.357189,-33.931503,19.318085,-31.098289,36.114807,-24.349079,36.13575,-15.137386,18.190956,0.0,31.457698,15.818603,30.563984,10.8895,28.081062,3.839579,21.501617,-3.379477,12.31013,0.0,70.548134,27.359505,91.534996,17.778397,89.321823,8.28598,76.661453,-0.032272,56.150551,0.0,9.102381,29.928016,57.460364,46.978293,69.3241,58.513702,78.747954,65.483965,81.838933,-1.719189,320.941452,-55.861874,279.670009
102,12.023621,-26.648699,0.286217,-0.074841,0.0,-38.106709,-33.145638,18.041382,-42.515488,18.579712,-47.069893,8.199005,-48.078632,-33.339729,0.0,26.226388,14.627561,35.322718,28.202833,46.73864,37.970205,49.217857,45.213837,55.34251,0.0,70.640488,27.216167,91.266403,17.881336,89.332695,8.495693,76.725998,0.191631,56.473503,0.0,9.036185,29.665454,57.313583,46.951988,69.886646,58.950031,78.920732,66.390091,82.159541,10.511541,294.188982,-55.368547,279.491396
103,-0.617409,1.764642,-0.228424,0.157896,0.0,-38.345146,-34.707012,17.833099,-43.589401,20.822754,-47.824001,11.039886,-48.676071,-23.291817,0.0,27.980655,12.861067,36.295842,25.283768,46.286874,34.424558,47.915356,41.416928,51.692196,0.0,70.891457,27.05349,91.595306,17.802143,89.591217,8.484135,76.966095,0.224018,56.815109,0.0,8.809561,29.609076,56.480694,46.759511,69.359113,58.692099,78.635321,66.175261,81.972499,10.103245,295.928336,-55.387859,279.624005
104,-3.2761,1.09854,0.316772,-0.067246,0.0,-39.537506,-33.784046,19.60041,-40.067024,24.625168,-42.317848,17.378998,-41.450729,-16.628036,0.0,32.920874,17.039162,37.081184,25.825813,44.496297,31.246079,43.463336,34.747327,45.697898,0.0,70.615654,26.627941,91.26091,17.409897,89.365425,8.166561,76.629753,-0.108891,56.509438,0.0,9.113373,29.333175,56.012317,46.59365,69.391655,58.669437,78.547018,66.276408,81.996828,6.975231,297.027077,-54.923,279.556959
105,5.24929,-12.581338,0.100079,0.116955,0.0,-30.36026,-34.049664,17.726097,-45.153465,18.211098,-51.076412,8.181953,-53.72921,-23.200264,0.0,16.719171,19.77594,43.117781,37.893079,58.35945,51.360782,63.295037,61.423197,67.556309,0.0,70.494976,26.534786,91.071796,17.290592,89.260883,8.114033,76.510906,0.032444,56.662159,0.0,9.197168,29.224556,55.993421,46.770133,69.70967,58.952933,78.613523,66.541441,81.864374,12.417297,284.421209,-54.630146,279.649384
106,-17.180214,32.66109,-0.267849,0.184016,0.0,-24.434566,-26.129837,24.288139,-26.865749,38.13961,-23.959923,35.812683,-18.121605,10.653419,0.0,21.99315,14.779467,30.869957,14.709442,32.92322,13.189085,30.92825,11.879359,24.744625,0.0,70.388718,26.899796,91.221886,17.638378,89.222832,8.384457,76.033516,0.164967,56.412392,0.0,9.075273,29.534975,55.543631,46.994348,69.438585,58.929159,78.359235,66.279928,81.765141,-4.583101,317.105223,-54.71818,279.856325
107,16.881523,-28.734628,0.027351,-0.186116,0.0,-29.475231,-35.660992,17.194633,-46.809196,19.398651,-52.694607,10.153656,-54.727879,-14.481125,0.0,16.313409,19.114161,42.338985,34.064924,54.734762,44.961648,57.229047,53.030945,59.561175,0.0,70.095749,26.557617,91.314812,17.385921,89.565239,8.217545,76.45443,0.117588,56.646309,0.0,9.503141,29.42086,55.142933,46.881469,69.287976,58.830729,78.320888,66.147597,81.882158,12.447596,288.333576,-54.541655,279.63319
108,-18.588638,31.32407,0.083485,-0.153018,0.0,-26.449471,-24.092159,27.50473,-24.722729,40.550423,-21.596317,36.763458,-15.663185,5.272293,0.0,25.025589,11.89986,28.884434,11.868553,29.839899,10.764764,29.545473,9.747303,23.007154,0.0,70.173626,26.926174,91.284428,17.672653,89.465504,8.244724,76.16003,-0.094929,56.597271,0.0,9.354446,29.693365,55.719743,46.993299,69.426235,58.87167,78.296744,66.251708,82.226787,-6.059933,319.65726,-54.37706,279.479787
109,19.061737,-33.619518,-0.800915,-0.085463,0.0,-26.939449,-40.97065,17.319603,-51.502991,19.485168,-55.910797,10.308151,-56.805668,-18.387566,0.0,12.100734,18.543155,42.770805,36.297633,58.158638,49.357969,62.133326,59.109964,65.150143,0.0,70.693932,27.925758,90.658264,18.68454,89.27742,9.168663,76.156311,0.48357,55.860786,0.0,9.862282,29.864105,56.205163,47.232458,70.047568,58.899334,78.914804,65.92579,82.146573,13.13241,285.943279,-55.047369,279.299861
110,-17.58419,18.529261,-0.103054,0.161663,0.0,-13.313198,-23.455238,30.837135,-28.109093,39.638214,-28.141994,34.415245,-25.568905,-4.144077,0.0,4.420094,11.107541,31.799177,23.65189,44.876,33.633597,49.412247,41.574947,46.342017,0.0,70.798588,27.534027,90.094242,18.506641,89.128704,9.336319,75.969486,0.91753,55.696278,0.0,10.194931,29.83749,56.362318,47.407335,69.674904,59.208827,78.234808,66.190575,81.821087,-4.345608,304.411052,-55.04425,279.400036
111,12.787743,-12.316428,-0.241585,0.349693,0.0,-31.576309,-37.63876,19.336739,-45.532551,23.217773,-48.176937,17.242928,-47.562561,-7.367134,0.0,22.076266,17.306726,40.868213,29.74153,52.522801,38.273338,52.892192,44.574782,53.735147,0.0,70.491886,28.512096,90.665073,19.669933,89.552822,10.390663,76.225948,1.682281,55.953083,0.0,9.961515,29.458034,56.462477,46.736479,69.46026,58.496474,78.055423,65.672366,81.789223,8.532858,291.96748,-55.195112,279.622584
112,1.743279,-7.543739,0.079479,-0.36723,0.0,-18.248005,-36.10548,21.075211,-47.311764,21.578522,-53.147278,12.164383,-55.536289,-16.052284,0.0,9.06459,17.469686,43.563928,35.872976,59.630397,49.972571,64.439889,60.790811,68.507204,0.0,70.712242,27.541866,90.264702,18.692665,89.958916,9.606686,76.85257,1.243629,56.718407,0.0,10.431682,29.80643,56.435492,47.323478,69.11032,59.181348,77.750252,66.273691,81.394021,10.448141,284.322377,-54.943628,279.153991
113,-17.324524,16.192317,-0.09367,0.325548,0.0,9.962425,-20.041637,35.137367,-26.642647,43.31131,-28.24316,36.174202,-26.721783,0.984077,0.0,0.406256,8.638883,27.737174,25.487112,47.081602,39.456043,53.249233,50.032222,52.888672,0.0,70.736675,28.555012,90.677433,19.798622,89.730091,10.469627,76.339359,1.772518,56.249485,0.0,10.01919,29.176823,56.243078,46.618474,69.227893,58.57675,77.831948,65.873981,82.201593,-6.7729,300.395315,-54.933815,279.360161
114,6.730499,-14.355612,0.094013,-0.17179,0.0,-7.861404,-24.941254,32.028809,-35.208206,35.265083,-42.010288,25.139465,-46.489048,-1.772346,0.0,12.036514,16.14199,42.581046,32.674922,56.965187,45.63306,61.159214,55.854174,64.334358,0.0,71.009674,27.704945,90.403976,18.773746,89.581718,9.507294,76.538429,1.049137,56.632805,0.0,10.220681,29.452291,56.404061,47.167805,69.040851,59.205369,77.589516,66.379285,81.641825,0.074444,285.943372,-54.722958,279.09204
115,-11.505947,14.416189,0.111923,0.188771,0.0,20.633068,-13.639069,40.895863,-21.141357,46.737843,-24.144287,35.172558,-24.561596,1.564693,0.0,-0.865185,8.511059,31.508456,25.430549,46.245254,39.542185,53.531309,50.679613,51.171146,0.0,70.541382,28.258152,90.362206,19.25869,89.099007,9.766502,75.907402,0.993061,55.742455,0.0,9.757059,29.201832,56.21529,46.712025,69.185656,58.720999,77.896169,65.969879,82.31509,-11.352825,300.308833,-54.532356,279.230083
116,7.28548,-13.657153,-0.515327,-0.069469,0.0,1.064301,-18.648891,38.542786,-29.58498,40.562553,-38.070259,29.24057,-44.527359,3.972473,0.0,8.774178,13.189826,39.787581,30.405779,55.060125,44.828082,60.772347,56.462539,64.463849,0.0,70.737762,28.476219,90.964508,19.700718,89.97242,10.367432,76.695099,1.663742,56.573753,0.0,10.316827,29.829525,56.15496,47.321564,69.013681,59.171097,77.636014,66.255043,81.791755,-3.990469,286.575511,-54.970808,279.084445
117,-11.435566,10.827379,0.249767,-0.236875,0.0,14.008198,-10.793724,44.831944,-17.035789,50.445728,-18.371716,40.621662,-17.422085,10.567074,0.0,10.159301,11.1809,33.732274,28.626071,48.380707,42.045053,53.28653,52.510945,49.668388,0.0,70.337734,29.083099,91.235332,20.203228,89.827824,10.65073,76.544323,1.770916,56.620617,0.0,10.429151,30.3557,56.545099,47.754249,69.229375,59.476824,77.84152,66.416088,82.171767,-15.329132,297.382404,-54.624138,278.827085
118,14.575024,-12.32038,-0.180874,-0.208161,0.0,-5.260048,-21.667385,33.731689,-31.844616,35.494995,-39.236641,24.626884,-44.290009,-4.686356,0.0,7.933446,17.471476,41.511529,34.432894,56.670576,47.937277,61.72034,58.569525,66.403553,0.0,70.196571,28.972492,91.235733,19.964848,90.052528,10.418072,76.5802,1.637936,56.811676,0.0,10.658862,30.304138,56.54442,47.805378,69.420863,59.566238,77.929329,66.525386,82.133358,-0.716887,285.010169,-54.76779,278.567069
119,-11.066895,12.528479,0.103226,0.142273,0.0,18.347626,-11.187115,39.901085,-19.09956,46.712379,-22.103176,34.896584,-22.676067,5.031166,0.0,5.214514,9.152584,31.393354,26.470981,48.082761,40.922369,53.668456,52.51749,51.056414,0.0,70.136375,28.621502,91.111565,19.682293,90.070152,10.22398,76.605034,1.493797,56.912842,0.0,10.47923,29.935241,56.296616,47.535529,69.30965,59.426744,77.897404,66.48636,82.000595,-11.760206,297.457956,-54.640989,278.62865
120,4.530201,-4.039218,0.198498,-0.444171,0.0,-16.42662,-18.865643,37.382526,-26.170521,41.94437,-31.747112,30.327129,-35.008106,-5.761299,0.0,25.053192,15.876525,36.711052,27.795095,46.643235,36.176047,49.156477,42.777721,55.291195,0.0,69.388103,28.692684,90.915356,19.826889,89.973278,10.310726,77.049122,1.417694,57.368259,0.0,10.652625,30.399543,56.325824,47.949936,69.171515,59.779092,78.086483,66.905522,82.493178,-7.198133,293.344097,-54.41062,278.109838
