takenoko1/special-research/HandMotion_SimilarSearch_自分用/NewProject/handData/test_key/d4_feature_d2/44.csv
frame,vel_0x_L,vel_0y_L,vel_0x_R,vel_0y_R,posFromWrist_0x_L,posFromWrist_1x_L,posFromWrist_2x_L,posFromWrist_3x_L,posFromWrist_4x_L,posFromWrist_5x_L,posFromWrist_6x_L,posFromWrist_7x_L,posFromWrist_8x_L,posFromWrist_9x_L,posFromWrist_0y_L,posFromWrist_1y_L,posFromWrist_2y_L,posFromWrist_3y_L,posFromWrist_4y_L,posFromWrist_5y_L,posFromWrist_6y_L,posFromWrist_7y_L,posFromWrist_8y_L,posFromWrist_9y_L,posFromWrist_0x_R,posFromWrist_1x_R,posFromWrist_2x_R,posFromWrist_3x_R,posFromWrist_4x_R,posFromWrist_5x_R,posFromWrist_6x_R,posFromWrist_7x_R,posFromWrist_8x_R,posFromWrist_9x_R,posFromWrist_0y_R,posFromWrist_1y_R,posFromWrist_2y_R,posFromWrist_3y_R,posFromWrist_4y_R,posFromWrist_5y_R,posFromWrist_6y_R,posFromWrist_7y_R,posFromWrist_8y_R,posFromWrist_9y_R,posFromBody_0x_L,posFromBody_0y_L,posFromBody_0x_R,posFromBody_0y_R
2,-30.135098,12.574977,1.393776,-0.065579,0.0,13.993664,-9.150696,48.745937,-15.819912,53.549366,-17.975807,43.941135,-17.436504,20.587177,0.0,20.409561,14.678937,47.229123,30.494762,59.133306,42.937161,61.05325,52.835196,59.415629,0.0,67.762585,23.924217,86.067524,14.481297,86.123486,5.617962,73.554897,-2.253628,53.550282,0.0,13.965535,31.089048,59.353384,48.322229,74.297663,59.824972,84.913547,66.278014,87.539545,-29.290667,309.468303,-61.077776,290.85784
3,27.642803,-13.314006,0.499477,0.021057,0.0,-17.054272,-32.815132,18.875999,-44.151707,23.573112,-51.797791,11.210976,-56.80212,-53.832779,0.0,11.007134,20.706889,57.039658,39.035646,68.669422,51.349543,73.229011,61.66285,82.093344,0.0,67.13665,23.416672,85.55706,13.641872,85.081558,4.574776,72.345314,-3.283024,52.684593,0.0,13.334816,30.607518,60.231475,48.43974,75.196194,60.363806,85.247247,67.168455,87.367323,-1.119232,296.014463,-60.049667,290.739063
4,-26.591377,8.742006,-0.289707,-0.202233,0.0,23.508682,-10.457726,51.737251,-19.270535,55.612564,-23.459358,42.320251,-24.541798,10.573196,0.0,16.062949,18.157523,47.590116,36.380317,60.173862,50.490842,64.598773,61.108825,64.595994,0.0,67.25172,23.285866,84.846783,13.630657,85.208187,4.758968,73.024807,-3.003216,53.382397,0.0,13.663637,30.910774,59.623728,48.947699,74.673785,60.841508,85.505981,67.39971,87.506879,-27.423906,304.675962,-60.052671,290.456324
5,-5.1091,7.349905,-0.114155,-0.138753,0.0,14.280167,-2.12986,57.899551,-9.250546,64.086456,-13.006783,50.691032,-13.365211,19.615517,0.0,22.484437,7.922454,39.96956,23.129049,54.18154,36.543956,62.714583,48.323279,66.920218,0.0,67.062492,23.504677,84.190292,13.786182,84.696693,4.750443,72.67662,-3.129616,52.958336,0.0,13.898042,30.210463,59.191598,48.220958,74.120255,60.325151,85.273861,67.082313,87.6967,-32.241096,312.002833,-59.874916,290.294538
6,26.046295,-19.195733,0.21595,-0.052735,0.0,-6.388092,-27.776241,26.648598,-39.927692,30.635147,-48.812943,15.093727,-54.547691,-50.629749,0.0,12.440423,21.824263,57.117217,40.674379,69.539115,53.686734,75.858529,64.345164,86.503497,0.0,66.192055,23.234539,84.16626,13.775253,84.772224,4.81287,72.524872,-3.26889,53.308411,0.0,13.685497,29.896091,59.218336,47.849097,74.589372,60.156263,85.328325,67.417988,88.121172,-5.869589,292.766546,-59.333754,290.201248
7,-24.14772,7.569983,-0.230541,-0.126033,0.0,17.224846,-9.856739,53.220291,-18.519287,54.641762,-21.805115,41.280098,-21.887856,13.69875,0.0,26.969616,17.491175,51.650515,36.734826,62.783002,51.730049,67.199948,63.357837,68.19629,0.0,65.625515,23.471489,84.529781,13.778744,85.09409,4.540901,72.343311,-3.808708,52.375202,0.0,13.85636,29.508175,59.527088,47.343485,74.442715,59.684737,85.225881,67.029578,87.942343,-29.668894,300.305252,-59.215879,290.043939
8,-8.936462,4.025571,-0.01688,0.172407,0.0,30.95192,2.097359,63.344307,-6.260433,69.565086,-10.875492,53.247414,-11.5028,16.441212,0.0,20.697503,11.454887,47.339163,28.796131,62.234597,43.054919,71.408423,55.254454,79.941404,0.0,65.563889,23.468628,84.784012,13.690395,84.424667,4.308643,71.449127,-4.306469,51.742973,0.0,13.613866,29.731403,59.006162,47.320267,74.351263,59.454099,85.417739,66.727866,88.004217,-38.283348,304.310507,-58.910751,290.19603
9,30.436478,-10.572288,-0.105286,0.316224,0.0,-6.57692,-27.028885,28.717117,-38.510571,32.788582,-46.638393,19.950256,-51.93243,-40.083504,0.0,15.501638,20.718066,58.166603,39.734599,69.939134,52.83921,75.437947,63.557538,84.099924,0.0,65.290031,23.483963,84.470673,13.759918,84.444466,4.447517,71.834679,-4.088116,52.549667,0.0,13.218108,29.621179,58.254906,47.154776,73.742651,59.251743,85.253236,66.51353,88.17329,-7.610722,293.739886,-58.779888,290.513921
10,-21.474209,8.115239,0.34584,0.307208,0.0,27.784595,-9.330597,56.545086,-18.329887,57.232876,-22.272606,42.795925,-22.958393,12.75547,0.0,12.826919,18.301587,51.193809,37.360543,62.858523,51.966738,67.213162,63.077799,68.06575,0.0,65.30056,23.29216,84.041748,13.462715,84.14566,4.008007,71.422234,-4.621983,51.765747,0.0,13.353774,29.749372,58.114918,47.386278,73.401171,59.415752,84.921328,66.514086,87.918261,-28.833447,301.858954,-58.182564,290.824958
11,-4.247475,-1.690788,-0.271053,-0.413049,0.0,35.017147,-2.40921,60.1898,-11.481228,61.804676,-16.432343,47.955494,-17.258434,12.919407,0.0,12.423874,15.62483,55.933461,33.279582,67.699385,46.639716,75.125057,57.156861,82.785875,0.0,65.328312,24.151726,84.940624,14.409771,84.422436,4.793358,71.675091,-4.073067,51.981068,0.0,13.721189,30.763438,58.611453,48.09332,73.622423,59.849179,85.007964,66.695508,87.811185,-32.771158,300.256948,-58.143854,290.500691
12,24.090557,-4.446832,-0.035706,-0.179755,0.0,-7.640018,-26.485291,28.569489,-37.790394,33.170242,-45.767269,22.200737,-51.003685,-34.437046,0.0,18.747672,19.119904,57.330935,36.431632,68.288669,48.35576,73.120392,58.298193,80.168831,0.0,65.14555,23.822823,84.936504,14.233704,84.766445,4.839363,72.420216,-3.882866,52.567463,0.0,13.990235,30.620486,58.566622,47.913688,73.492438,59.778289,84.871866,66.76541,88.107093,-8.420105,295.849913,-57.919064,290.360734
13,-20.667515,6.732339,0.206852,0.732669,0.0,22.969379,-7.150383,59.198055,-15.588684,61.059208,-20.044098,43.817081,-21.87933,12.199631,0.0,19.76958,19.43162,54.521353,36.033403,66.009955,48.529464,69.587033,58.510738,70.250603,0.0,65.769196,23.157349,84.99836,13.342152,84.821663,4.152374,71.988029,-4.078388,52.454567,0.0,12.90281,29.471187,58.549888,47.179414,73.171583,59.392596,84.225092,66.664942,87.630812,-28.961992,302.671358,-57.586584,291.182509
14,26.864491,-7.933508,0.313454,0.180435,0.0,-11.94603,-29.468937,22.239189,-40.071144,27.269669,-47.163906,14.224434,-51.844597,-56.94643,0.0,7.659521,19.461507,57.093381,38.407212,69.383504,51.199119,74.547197,61.899601,84.465548,0.0,65.52372,23.011208,85.235138,13.353882,85.134544,4.131546,72.27047,-4.223557,52.572212,0.0,12.84495,29.734738,58.511603,47.129149,73.096309,59.143248,84.02817,66.363415,87.251233,-1.993761,294.822803,-57.16939,291.447896
15,-24.61132,8.429796,0.222416,-0.23107,0.0,9.170265,-8.215485,53.918495,-17.727528,56.153984,-22.687168,41.101685,-24.710255,6.738167,0.0,30.07807,20.212639,53.498704,36.338388,62.859758,48.437702,65.80093,57.873906,65.203001,0.0,65.119228,22.076969,84.784985,12.293301,84.819889,3.304253,72.356815,-4.625587,52.464809,0.0,13.102017,29.324283,58.51926,46.940811,73.182698,59.106074,84.130367,66.343346,87.201956,-26.452532,303.307048,-56.794424,291.271275
16,25.5233,-8.486791,0.018654,0.094787,0.0,-13.032589,-30.204449,22.333488,-41.151924,27.450714,-48.454685,14.784966,-53.245411,-56.704102,0.0,4.395703,19.025302,56.03288,38.570851,68.179865,51.76784,73.47311,62.810605,84.081275,0.0,65.333576,22.743759,84.791279,13.252945,85.018215,4.229622,72.74477,-3.976078,53.0797,0.0,13.10776,29.28081,58.403663,46.798105,72.911614,59.005668,83.549172,66.542614,87.248763,-0.821114,294.827234,-56.667652,291.373039
17,-24.37912,8.305554,0.129776,-0.421941,0.0,21.034126,-9.552155,54.859543,-18.611584,56.117935,-23.526077,40.831604,-24.816513,-6.095581,0.0,17.46209,19.898206,52.310688,38.0921,61.766035,51.327375,65.765486,61.415663,68.886598,0.0,65.261478,22.387505,83.836269,13.417397,84.606457,4.822083,72.841358,-3.055401,53.598003,0.0,13.333149,28.840283,57.845748,46.487686,73.036041,58.884452,83.832606,66.605353,87.632665,-25.139723,303.15386,-56.477365,290.972171
18,-8.401794,2.712449,0.41748,0.22156,0.0,34.359627,0.861683,65.812798,-8.832493,62.361031,-14.151592,46.877518,-15.811787,10.565872,0.0,8.461968,13.886433,50.282311,31.523153,62.68661,44.837468,68.61712,55.334544,76.534819,0.0,64.558697,22.107124,82.90472,13.057137,84.060345,4.243412,71.794109,-3.881149,52.053051,0.0,12.586339,29.223259,57.043857,46.863623,72.833129,59.035617,84.116288,66.465673,87.223568,-33.49062,305.907342,-56.008987,291.234765
19,22.123032,-12.840134,-0.149002,-0.15876,0.0,2.89135,-19.909573,33.66188,-30.039196,38.32386,-38.244209,24.57058,-44.490566,-46.463127,0.0,5.531787,22.046132,55.045985,40.715875,67.929837,53.241143,74.241347,63.556118,86.3498,0.0,64.516811,22.739868,84.524517,13.519821,84.72456,4.495583,72.421474,-3.83028,52.491474,0.0,12.962091,29.181022,57.82216,46.49417,73.065866,58.509689,83.937273,65.952342,87.309402,-11.345816,293.083449,-56.136217,291.092245
20,-20.255527,16.408319,0.180416,-0.02927,0.0,-16.421814,-8.177834,54.156132,-11.392536,63.072338,-11.05814,53.93343,-9.190979,29.439411,0.0,47.868796,17.961898,49.875561,27.861724,54.474176,34.804879,55.634342,41.158996,55.798846,0.0,64.217033,22.371655,83.526535,13.474445,84.462433,4.717426,72.716331,-3.387051,52.831535,0.0,12.67773,29.075922,57.662782,46.392467,73.131075,58.547912,83.856627,66.207865,87.102599,-31.566181,309.508255,-55.920639,291.079463
21,23.753185,-15.621063,0.207081,0.104049,0.0,-5.65876,-24.739437,28.752823,-34.255257,33.263397,-41.064606,21.679802,-45.855961,-44.594707,0.0,9.848697,23.049268,56.494093,40.744651,68.01919,52.464632,73.462057,62.280972,85.718093,0.0,64.451008,21.999321,83.851948,13.07436,84.619274,4.329815,72.509251,-3.6973,52.396603,0.0,12.64951,29.263335,57.461846,46.648978,73.049132,58.716491,83.875893,66.141854,87.00139,-7.795343,293.906489,-55.695906,291.202809
22,-21.340199,13.419291,0.002804,0.445282,0.0,2.398911,-10.658054,52.919369,-15.381489,60.341091,-15.669994,49.916668,-13.438454,28.083172,0.0,37.207587,14.630834,48.979871,27.978494,58.494436,38.881579,60.044372,48.372803,58.807511,0.0,65.027962,23.391323,84.174957,14.394207,84.509468,5.308971,72.105904,-3.245201,52.105179,0.0,12.566085,29.579868,57.211263,46.945071,72.294171,58.851354,83.104013,66.07325,86.604027,-29.123383,307.321689,-55.680943,291.644
23,22.65398,-12.459442,-0.028267,0.091144,0.0,-8.579979,-26.469612,26.033936,-35.53688,30.833359,-41.755714,19.417877,-45.904484,-41.971378,0.0,14.546977,23.884751,56.064249,40.778799,67.520309,51.663606,72.488932,60.530656,82.498612,0.0,65.232124,21.779251,83.720856,12.846622,84.692116,4.098415,72.837067,-3.997879,52.340584,0.0,11.810322,28.50541,56.691201,45.723401,72.177772,57.728422,82.712948,65.197505,86.608226,-6.460304,294.858279,-55.700111,291.731176
24,-19.696884,7.476061,0.084114,-0.672894,0.0,18.203201,-11.698952,51.229134,-18.106384,57.075691,-19.367638,45.374451,-17.903538,22.710915,0.0,19.214073,18.665235,51.08766,35.409909,63.424404,48.069423,67.270775,57.769733,68.012089,0.0,64.881706,23.57769,85.030289,14.210186,85.200348,4.777565,72.536201,-3.932762,51.875267,0.0,12.147541,29.995016,57.346187,47.243573,72.587918,58.925392,83.54312,65.871202,86.664542,-26.14809,302.33647,-55.606899,291.060413
25,18.154678,20.455874,0.345211,-0.586073,0.0,-32.727528,-31.272755,22.317924,-37.512188,33.333092,-39.797688,31.174049,-39.584827,-0.375595,0.0,37.261001,11.14527,45.525862,7.82952,43.297228,1.753526,34.194476,-3.899292,25.164466,0.0,64.921131,23.858986,85.262432,14.268436,84.550152,4.854813,72.010174,-3.630009,52.980938,0.0,13.310672,30.792769,58.08429,48.614556,72.449659,60.433399,83.035594,67.285534,87.45328,-7.984886,322.772723,-55.253162,290.454718
26,-0.456505,-3.449934,0.391445,-0.411999,0.0,-33.433342,-30.574551,24.048843,-36.1409,34.596405,-37.913933,31.221428,-37.316895,-2.827263,0.0,38.9705,13.019272,47.012935,11.895661,46.148923,7.935545,39.040895,4.334694,32.334615,0.0,65.226631,22.614098,85.50499,12.962551,84.805527,3.729687,72.458267,-4.383659,53.137436,0.0,13.882789,30.653707,58.982265,48.487782,72.878515,60.456864,83.604377,67.249842,87.505583,-8.423338,319.321492,-54.843664,290.041423
27,4.651337,-19.83979,0.206966,-0.20248,0.0,-19.622726,-30.208969,24.045181,-40.71579,28.654175,-46.502781,17.552376,-49.250164,-38.989048,0.0,23.898089,18.764036,54.975713,34.504586,65.160949,45.134488,68.605572,53.992399,76.475662,0.0,64.530544,22.843895,85.675564,12.929363,84.376316,3.449535,71.600361,-4.867058,51.924534,0.0,13.735823,31.04045,59.498498,48.578123,72.964781,60.331017,83.643527,66.976226,87.70658,-3.767767,299.466573,-54.632463,289.823814
28,-19.661865,4.23225,-0.145397,0.148201,0.0,21.210938,-12.234249,53.795586,-20.193501,56.683617,-23.616486,43.598785,-24.278011,20.381241,0.0,13.476225,17.794616,51.529978,34.953821,61.614561,48.54805,65.177992,58.649986,68.037283,0.0,65.163345,23.309898,85.219917,13.643703,84.537163,4.338169,72.44442,-3.888531,53.288612,0.0,13.137338,30.627278,59.199255,48.239916,72.673257,60.104702,83.119698,66.925158,87.608953,-23.387718,303.678152,-54.735947,289.951344
29,-5.425243,9.208839,-0.54903,-0.14042,0.0,20.696354,-1.309376,58.180332,-8.899784,61.633816,-13.074989,46.218281,-13.698692,10.162182,0.0,21.778135,6.519176,42.163675,21.440237,53.006554,33.959392,61.56973,45.316281,67.986957,0.0,65.853481,23.404541,85.480213,13.57584,85.017529,4.169598,72.249584,-3.98695,52.477856,0.0,13.302336,30.346869,58.779291,48.185822,73.779454,60.062094,83.94456,66.72132,86.961191,-28.788185,312.888303,-55.260201,289.812236
30,24.769535,-17.956958,0.208225,0.172839,0.0,-3.992386,-24.263878,27.040215,-34.601784,29.842529,-42.007256,18.145065,-46.944923,-46.695843,0.0,3.665381,20.096919,54.777,39.777886,66.737375,52.906209,73.108042,63.495726,84.462214,0.0,66.458702,24.916134,86.312828,15.318832,84.992981,5.543575,72.229729,-3.388138,52.535477,0.0,12.084679,30.619559,58.398538,47.842922,73.463662,59.469475,83.836867,66.264367,87.452477,-4.014101,294.932457,-55.047426,289.986187
31,-19.013386,5.77459,-0.07925,-0.768854,0.0,25.325375,-10.360165,53.934574,-19.161243,56.189289,-23.398075,41.723957,-24.601822,9.219303,0.0,13.572185,18.821279,51.044928,37.023324,61.812409,50.856528,66.181375,61.751462,67.266268,0.0,65.810566,24.674778,86.134472,15.390587,85.653362,6.084023,73.07848,-2.439308,53.367176,0.0,12.292716,30.882801,58.554705,48.278016,74.360834,59.995218,84.346617,66.812032,87.440436,-23.022108,300.711029,-55.121298,289.221315
32,-5.962486,7.626608,0.718517,-0.838385,0.0,22.692661,-4.75708,59.164982,-11.57341,62.679462,-14.332294,47.724781,-13.309708,10.193138,0.0,22.012108,12.250417,49.904089,24.155217,56.297727,33.032024,63.152332,40.687532,70.486058,0.0,66.514778,24.995098,86.695747,15.39854,85.279312,5.818577,72.378273,-2.930889,52.551613,0.0,11.679905,31.000251,58.516852,48.424858,74.163356,60.038135,83.815007,66.595658,87.625872,-28.960876,308.337931,-54.379063,288.383223
33,38.381596,-7.674897,0.118217,-3.762576,0.0,-36.817474,-41.999245,18.145409,-53.561783,23.07003,-58.643646,12.605438,-59.866219,-33.429852,0.0,40.077376,11.905109,51.404316,24.289833,59.412727,32.652259,61.391519,40.098062,65.199358,0.0,66.597519,25.77879,87.907333,16.684856,87.993965,7.533989,74.547844,-0.972633,53.357506,0.0,9.597681,31.268371,61.139021,48.25912,74.443518,59.624654,83.580171,66.037558,88.360332,9.438601,300.654991,-54.242964,284.612604
34,-30.017567,-0.435649,1.930904,-10.744572,0.0,27.706432,-2.758713,58.029842,-12.948074,56.729679,-20.554447,36.584187,-25.168762,-6.624813,0.0,-23.192343,9.539265,49.232368,28.274711,59.154054,42.52121,65.021331,54.018025,72.623239,0.0,65.926952,28.388729,84.923801,17.960415,82.277355,6.586761,64.843655,-4.886398,37.988605,0.0,6.663487,31.580396,68.422174,48.345694,85.669681,60.049003,94.051497,67.328759,93.562557,-20.543919,300.118086,-52.277012,273.766777
35,33.394403,-43.318161,2.107658,-17.050586,0.0,-9.56912,-18.626918,-0.966482,-17.547626,2.181044,-13.720293,-2.603616,-7.969493,-13.224649,0.0,12.512084,24.825641,76.624172,38.680705,90.982346,49.340369,95.238061,57.051174,95.709804,0.0,60.605907,24.653206,78.959827,16.207523,72.837238,6.788063,56.01305,-3.444157,39.220562,0.0,12.458887,27.033466,70.680757,43.815684,88.526749,57.174274,98.443186,68.508007,97.99105,12.990274,256.752162,-50.029564,256.668428
36,33.394404,-43.318161,-10.743484,-13.688152,0.0,-46.844673,-34.495125,-59.962807,-22.147179,-52.367592,-6.886139,-41.79142,9.229774,-19.824486,0.0,48.216512,40.112018,104.015975,49.086699,122.81064,56.15953,125.454792,60.084324,118.796369,0.0,61.269435,40.105676,88.856163,35.629549,85.01667,28.505487,69.824352,18.91119,53.905162,0.0,19.273199,16.467198,63.134115,16.776815,67.155919,15.365015,62.249757,12.394326,39.324607,47.062311,213.418131,-60.095415,242.964406
37,14.640541,-44.869764,-10.743485,-13.688152,0.0,-47.834473,-34.822769,-58.790588,-22.658844,-50.030022,-7.575874,-38.364716,8.162956,-18.572617,0.0,68.389384,37.964277,111.103564,47.228938,127.150088,54.744395,126.434524,59.779956,118.743325,0.0,61.932964,55.558147,98.752499,55.051575,97.196102,50.222912,83.635654,41.266537,68.589764,0.0,26.087511,5.900931,55.587474,-10.262054,45.78509,-26.444243,26.056327,-43.719353,-19.341835,61.720476,168.569007,-70.821276,229.296894
38,16.375923,-54.606939,-19.767208,-116.576936,0.0,-55.910912,-36.876984,-70.198402,-23.374786,-59.699478,-7.857513,-46.84227,7.430992,-25.465393,0.0,57.772512,27.319988,99.196912,36.887905,112.781323,45.625465,113.848494,52.424741,106.257762,0.0,71.454449,52.381268,61.571617,49.281864,49.360485,40.525417,38.780079,28.534184,29.555969,0.0,-7.746898,6.837994,17.455174,24.358253,33.999839,40.33574,46.117184,54.094843,56.428947,78.190098,113.993761,-90.494785,112.751652
39,18.410568,-63.991057,-12.661057,-56.586781,0.0,-56.856766,-47.021828,-59.774666,-38.52459,-54.760094,-27.144814,-41.67881,-12.579231,-25.535431,0.0,24.863927,28.961561,63.788484,41.36268,78.648999,51.017388,79.691161,57.614555,82.633382,0.0,55.702744,23.425312,54.351654,13.29752,40.576744,3.391113,25.532398,-6.133289,11.90752,0.0,-15.814589,-25.105742,-17.781556,-13.82249,-1.427392,1.767112,17.052685,19.734135,28.846396,97.115335,49.951236,-102.641172,56.113402
40,26.600533,-62.030851,0.423889,-46.715947,0.0,-55.078468,-41.795197,-57.175827,-36.168137,-47.996063,-27.817268,-33.769341,-17.053757,-21.886253,0.0,26.828115,-13.500987,24.210885,0.207111,35.794522,16.68422,41.607675,33.16133,47.818562,0.0,45.115299,24.806271,36.684666,8.323345,18.334351,-8.888912,2.673454,-25.212936,-13.338661,0.0,-40.888498,-41.174434,-45.686505,-44.55002,-41.441936,-42.702973,-37.438441,-38.206956,-33.284028,123.16309,-12.407696,-102.770061,9.069376
41,1.484127,-33.296502,-15.484428,-53.693156,0.0,-48.796063,-27.18338,-50.247517,-17.980843,-40.038185,-7.811794,-25.02079,3.946667,-10.09861,0.0,-9.525294,-37.150375,-38.237707,-30.164134,-26.402384,-18.757336,-19.630548,-4.821873,-8.084178,0.0,48.710918,-2.423286,6.311703,-14.418468,-1.927071,-22.92675,-5.771427,-28.584766,-18.932533,0.0,-48.173195,-53.578023,-104.230481,-50.011535,-95.73435,-42.917216,-76.323509,-32.70873,-60.430651,125.553503,-45.195961,-117.348204,-44.115544
42,1.484127,-33.296501,-8.607388,-25.525397,0.0,-42.513657,-12.571564,-43.319206,0.206451,-32.080307,12.19368,-16.27224,24.94709,1.689034,0.0,-45.878704,-60.799764,-100.686301,-60.53538,-88.59929,-54.198892,-80.868772,-42.805077,-63.986919,0.0,42.569504,0.271397,8.166275,-11.903744,-6.89146,-22.859402,-12.907104,-30.61861,-21.475697,0.0,-48.61931,-37.107613,-95.916328,-34.679433,-106.018665,-28.619155,-95.683298,-20.876209,-77.750376,126.294622,-78.674564,-126.698599,-69.823043
43,5.032768,-34.348111,-6.444511,-58.706178,0.0,-45.224075,-7.788506,-19.08165,5.640678,-5.657043,18.006477,7.723045,30.774536,24.315147,0.0,-55.376149,-56.134227,-111.07908,-56.943621,-113.828394,-52.380929,-106.202635,-43.190353,-87.659851,0.0,47.754765,-2.359772,-3.297615,-13.512669,-13.043919,-23.509197,-21.944332,-32.956696,-33.423901,0.0,-49.653692,-63.59113,-126.529157,-62.769433,-132.570771,-57.260817,-121.001507,-47.113959,-98.953646,130.625381,-111.117551,-133.845119,-126.624098
44,0.317688,-29.628342,-5.795116,-25.003776,0.0,-48.076515,-4.176064,-13.205566,8.725662,0.623131,20.404701,14.953651,32.399254,32.903595,0.0,-55.541562,-60.682686,-120.364366,-62.000656,-130.398098,-58.040169,-123.585144,-48.554503,-98.496662,0.0,54.245224,1.075115,0.100536,-11.130295,-9.327736,-21.545277,-18.935165,-30.38681,-29.945526,0.0,-47.788134,-57.983976,-123.243031,-57.656792,-129.592803,-53.205266,-122.055502,-45.977612,-103.234725,129.443808,-137.037255,-141.139498,-147.919237
45,-0.54348,-18.536362,5.03643,-27.4758,0.0,-53.903847,-7.199249,-14.590759,6.128426,-0.342865,19.281807,16.955795,32.968941,32.223358,0.0,-52.156621,-58.92195,-121.869934,-60.941466,-134.011192,-58.569278,-126.350135,-51.16971,-104.857634,0.0,50.732517,-2.333508,-6.798649,-13.702183,-18.632584,-24.94297,-25.568676,-35.894966,-37.426071,0.0,-48.961855,-66.443289,-131.121087,-67.197339,-135.503167,-64.157227,-128.541248,-56.514101,-108.25017,127.831106,-152.015281,-137.172289,-171.8367
46,-9.032021,-20.756876,1.249523,-16.890544,0.0,-53.049774,-3.584518,-12.986984,9.972267,1.910706,22.591667,13.91613,35.320015,36.72821,0.0,-48.964958,-60.737597,-124.978527,-62.847701,-137.64877,-59.244025,-131.623242,-50.17204,-108.581284,0.0,55.89426,-0.251427,-1.441097,-12.18235,-13.177414,-23.192425,-21.451664,-34.385147,-33.97934,0.0,-40.146011,-62.038509,-126.466974,-62.856223,-133.174227,-59.333825,-125.280934,-51.819448,-105.587477,118.587914,-168.146696,-136.133938,-184.101783
47,-3.632812,-5.158969,3.47683,-9.314185,0.0,-51.530228,-5.862579,-11.755829,7.337036,-0.040627,20.261421,14.482498,34.051094,35.285568,0.0,-45.229136,-61.329459,-125.839343,-64.562356,-138.534502,-62.921601,-132.202291,-56.159869,-111.867015,0.0,55.116177,0.508347,-0.494785,-11.865005,-12.426796,-23.027573,-21.004086,-34.016075,-32.257919,0.0,-36.55609,-62.027857,-125.152408,-63.423215,-131.862154,-60.197327,-124.034108,-52.919269,-105.954908,114.984026,-167.628348,-132.628183,-187.738651
48,-2.871437,-5.319026,3.439465,-6.425763,0.0,-52.92572,-6.775017,-14.322281,6.621208,-2.307358,19.448891,12.054749,32.982559,35.054398,0.0,-40.986805,-60.585027,-123.72927,-64.857893,-138.251315,-64.209113,-133.48612,-58.528183,-114.191255,0.0,56.51556,0.02924,1.797867,-12.104874,-9.52858,-23.623238,-19.17366,-34.93103,-31.362705,0.0,-31.591341,-61.599139,-122.082155,-63.121773,-131.609062,-60.113146,-123.157368,-52.89758,-104.754248,112.304392,-171.095186,-128.996916,-192.312226
49,0.231857,-3.46145,1.940174,-1.387347,0.0,-53.820648,-7.876282,-17.52285,5.514221,-6.360054,18.761101,8.506966,33.062096,33.220024,0.0,-38.759375,-59.740158,-122.232694,-64.321823,-137.646917,-63.790368,-132.83074,-58.362769,-114.632986,0.0,55.257626,-0.19558,2.326584,-11.662903,-8.083649,-22.723503,-17.366295,-33.930817,-29.723225,0.0,-30.196445,-60.933747,-122.910459,-63.080361,-131.949253,-61.019357,-124.613736,-55.093007,-106.394339,112.901831,-174.824293,-126.69116,-193.967229
50,-0.450897,-2.006209,0.337429,-2.559879,0.0,-54.348679,-7.012253,-16.941833,6.791954,-4.489861,20.283623,11.167374,34.468689,34.484825,0.0,-36.535496,-61.291807,-123.352993,-65.52063,-137.51403,-64.439334,-131.70855,-58.271502,-113.522783,0.0,55.235939,0.766983,1.794262,-11.146946,-8.739223,-22.859688,-17.474556,-34.93618,-30.124397,0.0,-28.788212,-59.774414,-121.616556,-62.399532,-131.918378,-60.779387,-124.106194,-55.298667,-105.866913,112.768393,-176.987132,-126.036272,-196.683738
51,0.359001,-0.857049,-0.986023,-1.540318,0.0,-55.7547,-6.9944,-15.034561,6.999092,-2.24453,20.623398,12.700996,34.752846,35.555649,0.0,-36.385519,-61.557041,-123.187379,-65.724329,-138.109289,-64.490803,-132.256562,-58.247311,-114.623446,0.0,56.943913,2.011356,2.82526,-10.600204,-7.967319,-22.900486,-16.531105,-35.53997,-29.50716,0.0,-26.900687,-58.76312,-122.251158,-61.64857,-131.131245,-60.387303,-123.490558,-55.633625,-106.501854,113.772984,-177.730869,-126.376705,-198.110744
52,-0.28244,-0.742348,-0.239925,-2.062618,0.0,-55.85804,-6.257172,-14.982948,7.610435,-1.875114,21.227646,12.321739,35.429993,35.856056,0.0,-35.672843,-61.89517,-122.290786,-66.22054,-137.536955,-65.23295,-132.221935,-59.279392,-115.439277,0.0,57.439384,2.202873,4.824829,-10.041733,-5.488472,-22.233524,-14.299335,-35.031223,-28.651943,0.0,-24.351028,-57.285795,-120.540772,-60.139205,-129.994289,-58.720281,-123.147851,-53.689521,-105.645646,114.343615,-178.754182,-125.763559,-200.454326
53,-0.616379,0.233432,-0.144482,0.069886,0.0,-56.009903,-6.037788,-14.10759,7.947578,-0.224533,21.525764,14.243431,35.431709,36.809349,0.0,-36.462291,-62.855111,-122.794747,-67.131497,-137.365783,-65.972411,-131.353238,-59.861343,-115.150779,0.0,57.041874,2.766552,6.39164,-9.650345,-3.870907,-22.06255,-12.758217,-35.057945,-27.431087,0.0,-23.712158,-56.764668,-120.443268,-59.612705,-130.218582,-57.824429,-123.803841,-52.1751,-105.158621,114.920397,-178.698082,-124.71488,-200.561772
54,0.881653,0.70749,0.294628,0.822315,0.0,-56.97567,-6.361198,-15.488663,7.642822,-0.955009,21.064911,13.498993,34.748154,35.799408,0.0,-36.967347,-62.442094,-122.695035,-66.846133,-136.867774,-65.841253,-130.89674,-59.964744,-114.987441,0.0,57.032547,2.881165,8.294277,-9.46558,-2.383289,-21.90897,-12.170048,-35.055313,-26.806812,0.0,-24.809895,-57.240316,-120.409382,-60.483749,-131.387293,-59.013279,-125.503228,-53.589153,-106.66672,116.119909,-178.090843,-124.102392,-199.839709
55,2.053413,1.59279,-0.769329,0.697317,0.0,-59.42482,-8.483505,-17.861481,5.429649,-4.620895,18.720016,9.58786,32.403717,30.510521,0.0,-36.973846,-62.135673,-122.233343,-66.655278,-136.302248,-65.899592,-130.127392,-60.412342,-115.125816,0.0,57.370491,3.881664,10.670357,-8.364658,-0.098362,-20.7621,-9.914761,-33.761215,-24.10532,0.0,-23.348078,-56.671888,-119.100328,-59.881999,-130.870226,-58.595722,-125.12547,-53.323318,-106.658252,118.322639,-176.590633,-124.722404,-199.234972
56,2.806206,0.946464,-3.785419,2.798899,0.0,-61.295815,-9.500084,-23.851433,3.031883,-13.534355,15.452843,-1.258392,28.886719,16.791115,0.0,-35.019878,-58.825218,-119.380049,-62.837605,-132.803554,-61.99712,-126.932086,-56.503804,-110.190646,0.0,60.889835,7.518654,22.76722,-4.539642,13.774452,-17.389355,4.023228,-31.381989,-13.478508,0.0,-22.598428,-55.519255,-116.461277,-58.94347,-126.78654,-58.270159,-121.165755,-53.413041,-104.670028,121.133394,-175.741148,-128.503275,-196.533052
57,1.422615,2.153484,-2.900219,3.741319,0.0,-60.147171,-9.761925,-29.794693,2.730217,-20.761986,15.03891,-10.501671,28.970947,1.768913,0.0,-36.065714,-51.365521,-101.982635,-53.891468,-104.83176,-52.971881,-101.706788,-48.307502,-89.664439,0.0,62.832127,11.203594,37.631893,0.156441,31.561947,-12.588501,21.522045,-27.465763,2.894669,0.0,-26.865319,-48.686078,-91.441646,-51.802328,-95.721429,-52.25766,-95.028419,-49.000727,-87.881905,122.198811,-173.648364,-131.760693,-192.852434
58,-0.049324,2.923002,-0.326672,2.614929,0.0,-65.091591,-10.650101,-36.458931,0.871353,-31.815948,13.171577,-21.737709,27.25399,-9.090843,0.0,-33.131566,-43.596933,-83.327766,-48.505381,-90.210822,-50.686143,-89.902672,-50.317879,-81.740317,0.0,62.281895,11.062031,40.839043,0.176754,34.652824,-12.713814,23.701286,-28.110752,4.245872,0.0,-26.485261,-44.294296,-75.173539,-48.294071,-81.360259,-49.000002,-83.660786,-45.999503,-79.729554,121.825361,-171.162802,-132.411489,-190.674944
59,-2.832413,-0.726555,0.87862,0.769611,0.0,-62.390671,-8.263893,-33.01918,2.797279,-30.25898,15.274086,-19.003944,29.360847,-4.044685,0.0,-32.106231,-40.491104,-76.025255,-43.846142,-79.751182,-44.797778,-78.218321,-43.175873,-71.885723,0.0,61.6535,8.675652,39.072475,-2.530861,31.944523,-15.078964,23.363285,-29.476261,6.405544,0.0,-27.600057,-43.943291,-66.763233,-47.914985,-66.048102,-48.284114,-68.716036,-45.409153,-68.501947,118.982706,-173.359187,-131.543112,-191.375163
60,-0.930862,-0.108202,0.96468,0.987652,0.0,-61.519547,-9.646797,-37.036629,1.544266,-33.447189,14.381218,-20.343819,29.331779,-5.287628,0.0,-32.347058,-40.977434,-70.051458,-43.988601,-72.278518,-43.956568,-70.838127,-41.628423,-66.911187,0.0,60.834103,7.955933,39.195156,-3.088474,30.719318,-15.455933,20.204201,-29.778042,4.544449,0.0,-28.262191,-41.43289,-62.371282,-45.633431,-62.007494,-46.391556,-63.275045,-44.56836,-64.677582,118.080626,-175.060473,-130.54965,-191.980595
61,-0.845146,-1.18763,1.542549,-0.222518,0.0,-59.610214,-8.283691,-34.583702,2.577667,-32.228851,15.207481,-19.746208,29.709663,-4.74575,0.0,-32.242113,-39.099435,-66.714528,-42.372747,-70.307151,-42.716033,-70.315318,-40.322803,-65.928815,0.0,58.362465,7.300587,39.757977,-3.774261,32.206078,-16.753521,19.179955,-31.834259,2.488518,0.0,-28.842645,-40.231397,-61.854431,-44.683463,-64.734701,-45.601722,-64.979681,-44.117505,-65.284048,117.22784,-176.441706,-129.01474,-192.396716
62,-0.294914,-1.378192,-0.224934,-0.774968,0.0,-59.092369,-6.534004,-32.520905,4.406776,-30.299034,17.003975,-18.693237,31.372032,-3.605003,0.0,-32.946052,-38.120567,-66.280777,-41.391919,-69.487121,-41.886848,-69.994478,-39.83286,-65.990211,0.0,57.625065,7.265911,38.746662,-3.500118,31.605492,-16.164894,19.673939,-30.947571,4.558525,0.0,-29.288081,-40.375924,-61.843346,-44.750956,-64.636379,-45.81683,-64.901952,-44.305596,-64.483207,116.683302,-177.904898,-129.489298,-193.256683
63,-0.449409,-0.771062,1.229038,-2.443911,0.0,-57.045364,-6.896667,-32.219124,4.563217,-28.779602,17.589569,-16.573563,32.347412,-1.728401,0.0,-34.048652,-38.713927,-68.568043,-42.218247,-71.004499,-42.433725,-70.162177,-39.799329,-65.068817,0.0,57.081356,6.238003,37.613811,-4.624557,29.497662,-17.425232,17.610397,-32.415733,3.36256,0.0,-28.617024,-38.830295,-60.278452,-42.906672,-61.439653,-43.86087,-61.455029,-42.456419,-62.151157,116.152697,-178.739176,-128.341455,-195.763811
64,0.239296,-0.833507,-1.244717,-0.414932,0.0,-56.256866,-6.586761,-33.190041,4.218063,-30.359917,16.66935,-18.930817,30.877762,-3.967094,0.0,-34.958529,-38.607068,-67.518657,-42.409704,-71.554309,-42.753176,-71.588719,-40.278914,-67.699972,0.0,59.153996,8.510685,39.436226,-2.189369,32.856445,-14.870567,20.45248,-29.735413,5.286655,0.0,-28.265016,-39.209597,-60.899692,-43.676344,-63.425029,-44.975666,-64.138169,-43.714398,-63.731141,116.085634,-179.161055,-129.89253,-195.767115
65,-0.851784,-1.639612,0.392361,-1.935752,0.0,-55.564384,-5.998306,-33.016891,4.704208,-30.410156,17.132492,-19.678001,31.443558,-5.643768,0.0,-34.025604,-38.481051,-68.621627,-42.231693,-71.607383,-42.867151,-71.140674,-41.000205,-66.983821,0.0,58.282185,7.996674,39.675407,-2.594147,32.809982,-15.286789,20.73,-30.192833,5.130959,0.0,-28.040028,-39.220589,-60.206513,-43.651598,-62.760772,-44.752577,-63.950363,-43.508229,-62.674785,115.183926,-180.5097,-129.550095,-197.411899
66,1.150246,-0.397997,0.511265,-1.191536,0.0,-56.872444,-7.47139,-33.803444,2.935524,-32.114983,15.25486,-20.545464,29.627609,-6.233826,0.0,-34.33607,-38.879418,-69.349418,-42.485009,-70.535751,-43.017467,-70.056043,-41.074151,-66.246459,0.0,58.455105,7.026615,39.18251,-3.656502,32.502537,-16.289749,20.609322,-31.245289,4.622955,0.0,-28.551661,-39.148742,-59.709553,-43.446679,-61.284227,-44.536605,-62.298401,-43.382598,-62.156529,116.380234,-180.616327,-128.992767,-198.312066
67,-0.915985,-1.227521,0.347786,-0.818332,0.0,-56.727562,-7.154617,-33.641167,3.832855,-30.876503,16.59771,-19.283409,31.2117,-5.051765,0.0,-34.204989,-38.116785,-69.087102,-41.805832,-71.31535,-42.179267,-70.642456,-39.645632,-65.70886,0.0,58.152523,7.124863,39.938049,-3.804817,31.723251,-16.675072,19.25108,-31.660767,4.696426,0.0,-28.555737,-39.250769,-59.571116,-43.417502,-61.251824,-44.217247,-62.069361,-42.743388,-62.306181,115.679226,-181.605337,-128.430004,-198.891887
68,-0.441284,-0.32754,-0.649452,0.47659,0.0,-55.813637,-7.182655,-32.868462,4.012299,-30.507774,16.824532,-19.039536,31.440811,-5.017548,0.0,-34.509171,-39.108002,-70.404547,-42.751848,-72.586143,-42.919855,-71.697755,-40.247761,-66.17926,0.0,58.40435,7.44072,40.185814,-3.512535,30.826321,-16.365623,19.155521,-31.3694,5.41523,0.0,-29.499623,-39.670549,-61.376722,-43.88344,-63.193318,-44.772677,-64.339205,-43.292812,-64.20462,115.704975,-181.826311,-128.612423,-198.308731
69,-0.681267,-0.042808,0.836334,-0.551215,0.0,-55.766602,-5.897598,-32.853012,4.898071,-30.28862,17.49321,-18.955879,31.916313,-4.927483,0.0,-34.236358,-38.505581,-69.637622,-42.080251,-72.702558,-42.304482,-72.163029,-39.846368,-66.65818,0.0,57.892971,7.450275,39.553528,-3.744049,29.886932,-16.817665,18.266888,-32.003632,4.453468,0.0,-29.424442,-39.604954,-61.180278,-43.791339,-62.914747,-44.545095,-63.727359,-42.847036,-63.724951,115.492086,-181.854469,-127.307711,-198.845296
70,0.959015,0.579049,-0.282784,-0.223428,0.0,-56.523514,-6.608162,-33.723335,4.059792,-30.926285,16.499634,-19.513664,30.694771,-4.859962,0.0,-34.50102,-38.643223,-70.018561,-42.336777,-73.308638,-42.594523,-73.252352,-39.95741,-67.733842,0.0,57.936058,7.831936,39.951668,-3.115883,31.001759,-16.094227,18.924866,-31.204376,4.834499,0.0,-29.494745,-39.694029,-61.373603,-43.720465,-63.384374,-44.470501,-64.053286,-42.935571,-63.724619,116.976757,-181.285779,-127.064838,-199.079083
71,-0.188599,0.387438,0.32032,-0.079149,0.0,-56.088066,-7.012367,-33.977966,3.851166,-31.18618,16.479378,-19.351616,30.902824,-4.513206,0.0,-34.910935,-38.445853,-69.900833,-42.1753,-73.143301,-42.603168,-72.846946,-40.155181,-67.376971,0.0,58.108864,6.972427,39.989719,-3.821011,31.424675,-16.596794,19.335136,-31.538429,5.068703,0.0,-29.246632,-39.655698,-60.353016,-43.759676,-62.82206,-44.561197,-63.63999,-43.081796,-63.674647,117.338505,-180.893787,-126.194172,-199.153677
72,0.420456,0.433828,-0.099106,0.323727,0.0,-56.674004,-7.379379,-34.237747,3.46138,-32.154007,16.028595,-20.280304,30.583534,-5.309715,0.0,-35.039005,-38.859936,-68.901542,-42.422224,-73.051741,-42.730251,-72.673566,-40.23274,-67.294071,0.0,58.091068,7.060204,40.469742,-3.49617,32.710075,-16.241913,20.025043,-31.313667,4.974003,0.0,-30.20418,-39.605649,-60.434557,-43.704255,-63.054272,-44.540233,-63.817739,-43.185212,-64.189005,118.148489,-180.463155,-125.903749,-198.833146
73,-1.894455,-0.293515,-0.013847,0.035012,0.0,-55.566902,-6.633224,-33.17894,4.41227,-30.955925,17.315254,-18.839836,32.071953,-3.750229,0.0,-35.296752,-39.264324,-69.655576,-42.756881,-72.623363,-43.143454,-72.34246,-40.745963,-67.802014,0.0,56.848698,7.244282,40.321255,-3.26683,33.174477,-15.936756,20.245342,-30.977955,4.908085,0.0,-31.082749,-39.563304,-60.155021,-43.970786,-63.70137,-45.139273,-64.497286,-43.980218,-64.21413,116.632433,-180.761302,-125.539198,-198.802765
74,-0.203018,-0.131914,0.1898,0.060948,0.0,-55.269814,-6.562958,-32.728043,4.458847,-31.067963,17.373734,-19.308701,32.151947,-3.812485,0.0,-35.310167,-39.328992,-70.030324,-42.912523,-72.390378,-43.32361,-72.081673,-40.956208,-67.596709,0.0,56.858082,6.405659,40.461731,-3.998909,32.865887,-16.444874,20.502491,-31.231556,5.269661,0.0,-31.435545,-39.742843,-59.997295,-44.131398,-63.355043,-45.326979,-64.637182,-44.265721,-64.629494,116.807356,-180.844943,-124.971457,-198.693544
75,0.463142,0.374362,0.258865,-0.034163,0.0,-55.466194,-6.01593,-33.286285,4.704208,-31.584892,17.361031,-19.783974,31.954536,-3.932419,0.0,-35.101667,-39.460474,-70.067096,-42.914437,-72.020818,-43.211317,-72.070897,-40.712772,-67.350511,0.0,57.071743,6.040821,39.770851,-4.237061,32.442226,-16.659679,19.643154,-31.562119,4.178123,0.0,-31.108823,-39.60162,-59.977357,-43.729172,-63.606737,-44.769682,-64.668443,-43.561936,-64.047203,117.594337,-180.452442,-124.388752,-198.709568
76,0.223389,1.246602,0.126171,-0.121509,0.0,-55.163383,-6.358223,-32.94857,4.573288,-31.096687,17.413445,-19.194717,32.016563,-4.127884,0.0,-36.866478,-40.104824,-70.899446,-43.609129,-73.009982,-43.855204,-73.370574,-41.205741,-68.575114,0.0,56.954041,6.247158,38.731728,-4.155521,30.69706,-16.714668,18.049679,-31.793919,2.86171,0.0,-30.512067,-39.033902,-60.161273,-42.975925,-63.133513,-43.899124,-64.023831,-42.745519,-63.0244,118.115473,-179.165193,-123.964834,-198.790431
77,0.871925,0.254118,-2.189541,1.803066,0.0,-55.48851,-5.229492,-32.877388,5.481148,-31.132278,17.989082,-20.650406,32.030869,-6.590652,0.0,-36.94609,-39.822362,-69.690126,-43.30277,-71.638861,-43.433109,-71.33088,-40.787305,-66.679407,0.0,58.370705,6.624699,41.356144,-3.588467,34.30521,-15.904312,21.927624,-30.617809,6.758423,0.0,-31.177181,-39.568197,-61.137524,-43.763706,-64.484473,-44.946056,-65.568996,-43.949574,-64.946158,119.270039,-178.812582,-125.871735,-196.888873
78,1.538658,3.342612,-0.48317,1.434755,0.0,-56.252403,-5.893135,-32.455559,5.408249,-29.435349,18.371201,-17.803802,33.133621,-2.350845,0.0,-38.22687,-40.416787,-71.835721,-43.560871,-74.95972,-43.240464,-71.973903,-40.277741,-66.83525,0.0,57.517147,5.975761,40.816441,-4.018192,33.411312,-16.217594,22.014198,-30.728703,6.714821,0.0,-31.915345,-40.133677,-60.948197,-44.096417,-63.753047,-45.137544,-64.544873,-44.079667,-64.727615,121.05197,-175.326833,-126.111631,-195.31098
79,3.97831,4.649636,-1.066418,2.504504,0.0,-57.03804,-6.67099,-32.257576,4.597321,-28.194122,17.413788,-16.652298,31.828766,-1.585236,0.0,-41.266071,-40.702954,-74.650768,-43.703175,-76.501397,-43.044869,-72.711589,-39.390541,-65.928661,0.0,57.010403,4.812698,38.715134,-5.775318,29.21093,-18.085899,17.885342,-32.398796,1.979599,0.0,-32.264544,-40.781917,-62.148764,-44.559313,-62.926341,-45.142067,-63.854804,-43.433696,-63.642831,125.35203,-170.406051,-126.856298,-192.53533
80,2.771988,6.29564,-3.194046,5.409861,0.0,-55.107536,-4.470863,-29.514999,6.68232,-25.869942,19.169769,-14.838638,33.157997,0.668221,0.0,-45.085875,-41.418379,-75.3908,-44.144382,-74.812044,-42.97574,-70.818213,-38.544715,-64.240328,0.0,56.330223,4.245872,37.972355,-6.67963,29.719105,-19.06065,19.349957,-32.661953,1.582317,0.0,-34.519252,-41.1175,-62.37812,-44.270985,-61.303771,-44.023104,-62.589013,-41.232587,-60.748002,128.315735,-162.423467,-129.858627,-185.438525
81,0.222015,10.63339,-4.279575,7.097963,0.0,-49.07032,-0.089378,-28.759689,11.169891,-21.056328,23.140526,-6.343346,36.301231,9.030876,0.0,-44.763646,-43.461901,-74.907572,-44.669075,-72.094069,-40.906391,-65.157707,-33.374971,-56.405219,0.0,56.812992,4.378223,38.425426,-5.991726,29.878407,-17.935753,19.987049,-31.077576,2.715054,0.0,-33.617665,-40.29605,-60.735729,-43.449103,-58.656423,-43.213262,-59.654711,-40.071973,-55.231328,128.651876,-151.784936,-134.024076,-178.335421
82,1.974106,10.947329,-1.991329,9.631366,0.0,-47.487946,-0.599098,-32.110405,11.448441,-23.721313,23.59005,-8.008461,36.584702,11.045952,0.0,-39.966256,-38.883246,-65.691709,-40.588762,-62.518664,-37.43415,-57.494759,-30.901759,-48.445977,0.0,52.282276,2.483654,38.916206,-8.323059,31.312923,-20.542889,17.006035,-33.614902,-3.634243,0.0,-34.514482,-38.788351,-55.014476,-43.024522,-54.820379,-42.609513,-52.933071,-38.69429,-44.452809,130.656624,-141.994146,-135.984764,-169.860594
83,-1.710606,23.417284,0.101166,9.25086,0.0,-46.735211,-6.95715,-39.747276,5.618477,-25.385056,17.960701,-11.458683,30.592976,-0.906029,0.0,-43.516889,-44.359412,-54.63238,-45.661157,-46.761341,-42.368524,-43.068041,-35.551758,-39.879828,0.0,51.845512,2.287331,34.909916,-10.378704,16.665516,-23.66621,-1.182289,-36.626587,-8.016014,0.0,-31.386083,-35.332721,-42.033969,-38.828412,-32.940248,-37.422818,-29.291586,-32.978039,-42.969796,129.182024,-123.054477,-135.647593,-165.087349
84,-1.710606,23.417285,0.837421,15.066653,0.0,-45.982475,-13.315201,-47.384148,-0.211487,-27.048798,12.331352,-14.908905,24.60125,-12.858009,0.0,-47.067523,-49.835577,-43.573051,-50.733552,-31.004017,-47.3029,-28.641323,-40.201757,-31.31368,0.0,44.03223,5.216846,31.186867,-7.650776,15.920105,-21.5522,-2.357597,-35.496769,-10.700855,0.0,-35.529396,-36.1176,-32.748003,-38.613397,-26.242381,-36.040613,-23.935509,-30.332898,-31.346084,127.593269,-103.910089,-134.68832,-154.293593
85,2.403946,20.073639,-1.735897,30.974463,0.0,-50.328255,-12.623291,-53.012123,-1.461296,-41.882515,6.731758,-32.616348,12.526817,-32.487602,0.0,-29.769133,-53.545511,-32.708051,-52.147976,-21.356349,-44.482403,-15.161826,-32.840567,-18.017226,0.0,41.700325,1.974849,29.008541,-9.815426,18.055143,-21.215058,4.152317,-32.276373,-1.606436,0.0,-42.054725,-43.483174,-35.085488,-44.479826,-29.897883,-40.770394,-26.738531,-33.621795,-30.920747,129.094334,-87.248284,-137.327099,-126.730964
86,-9.806957,28.846397,-1.735897,30.974462,0.0,-57.723541,-17.528229,-61.698818,-6.692448,-52.324104,2.081394,-44.016953,8.821621,-40.582409,0.0,-16.682816,-44.93596,-17.957931,-43.256982,-7.557294,-35.075253,-2.541277,-22.383382,-3.885167,0.0,39.36842,-1.267147,26.830215,-11.980076,20.190182,-20.877914,10.662231,-29.055977,7.487984,0.0,-48.580053,-50.848747,-37.422973,-50.346253,-33.553383,-45.500174,-29.541551,-36.910691,-30.49541,118.424978,-56.895887,-139.925394,-94.250503
87,-9.806957,28.846396,7.877312,19.041357,0.0,-65.118828,-22.433167,-70.385513,-11.923599,-62.765694,-2.56897,-55.417557,5.116425,-48.677216,0.0,-3.596498,-36.326409,-3.20781,-34.365988,6.241763,-25.668103,10.079273,-11.926197,10.246894,0.0,40.328636,3.736553,33.045216,-9.286652,24.416714,-20.872707,17.992115,-31.205864,12.629642,0.0,-48.693473,-49.561807,-28.83772,-48.867084,-23.684154,-41.889905,-20.113746,-31.155398,-23.532619,108.754435,-27.66278,-131.911669,-74.822434
88,-1.584606,25.08612,6.86039,31.753158,0.0,-65.734292,-29.862557,-84.264393,-21.343918,-79.047318,-12.743397,-71.147748,-4.64676,-59.939805,0.0,-0.646326,-26.013735,9.276795,-21.614466,20.362306,-12.255311,24.59434,0.739677,26.027428,0.0,43.626738,5.681992,36.948423,-7.503805,27.051716,-18.49328,18.677616,-27.531252,11.360292,0.0,-44.831432,-50.147047,-26.609689,-48.224772,-20.162668,-39.946404,-16.244882,-27.525818,-16.568454,107.008439,-0.560648,-125.212669,-41.053264
89,-1.584607,25.08612,6.86039,31.753157,0.0,-66.349754,-37.291946,-98.143272,-30.764236,-95.328941,-22.917824,-86.877937,-14.409943,-71.202393,0.0,2.303846,-15.701061,21.761401,-8.862944,34.48285,1.157481,39.109407,13.405551,41.807962,0.0,46.924839,7.62743,40.851631,-5.720959,29.686718,-16.113853,19.363117,-23.85664,10.090942,0.0,-40.969391,-50.732286,-24.381656,-47.582459,-16.64118,-38.002902,-12.376018,-23.896236,-9.604289,105.440369,23.988615,-118.335743,-9.836964
90,5.649605,23.015089,1.124096,0.092039,0.0,-70.434723,-46.361046,-116.830788,-42.747345,-117.772751,-36.317596,-110.511589,-28.650169,-92.901878,0.0,-7.906183,-14.722595,23.353635,-5.37843,39.614526,7.655693,48.938838,21.474416,55.245037,0.0,45.564823,5.293179,50.541859,-2.091694,50.186062,-5.394573,51.693249,-6.249332,48.338184,0.0,-13.481504,-29.285781,-9.788367,-21.05053,1.307009,-7.383929,4.839874,8.954427,9.032634,109.283895,41.427163,-119.017725,-15.321466
91,-2.727585,29.761815,4.80526,43.867246,0.0,-69.207344,-52.311287,-115.397644,-49.342117,-118.9048,-43.027496,-110.024185,-34.988823,-91.35704,0.0,-16.222327,-9.100868,27.553991,-1.030089,39.645957,8.677971,45.128251,17.355633,45.562294,0.0,63.854256,11.651173,62.957897,1.868019,64.36552,-4.12159,64.531689,-6.804085,52.056999,0.0,-4.27424,-32.061648,-3.736147,-22.908569,8.958781,-7.794631,16.276019,10.567194,23.913465,107.472868,69.765754,-113.295908,27.122556
92,-36.174316,39.493063,7.036372,24.849277,0.0,-67.28508,-49.410896,-95.032368,-45.711937,-91.441841,-37.029419,-82.713203,-25.280113,-68.50399,0.0,7.316775,7.675885,42.3346,22.035882,55.202584,35.976099,60.608709,47.998657,67.73625,0.0,62.175264,23.809003,75.320692,15.850696,75.319261,8.881931,70.934429,3.234243,55.562782,0.0,-4.909714,-19.495547,8.849822,-8.118713,22.136673,7.148814,30.775849,24.51516,36.581638,72.841444,109.499335,-104.716644,52.212351
93,0.819283,21.297841,7.036371,24.849276,0.0,-70.075378,-44.617882,-104.807968,-40.515633,-104.535313,-33.10524,-95.314121,-23.346977,-74.745827,0.0,5.43453,11.62785,49.028345,26.954611,64.84843,41.260637,74.084192,53.083803,77.474969,0.0,60.496273,35.966835,87.683487,29.833374,86.273003,21.885452,77.33717,13.272572,59.068565,0.0,-5.545187,-6.929446,21.435791,6.671144,35.314567,22.09226,45.27568,38.463127,49.249813,74.544897,130.769511,-96.796103,77.033963
94,-2.440567,21.415166,2.565994,28.424981,0.0,-67.426758,-42.483902,-101.23764,-36.530571,-103.868465,-29.870796,-94.456215,-22.198219,-74.496117,0.0,2.937282,14.923346,53.057683,30.836303,73.403579,44.976654,82.105077,55.749569,90.22365,0.0,66.991653,26.317463,90.64024,19.088001,94.192715,11.85379,86.09087,4.371014,62.840652,0.0,-15.849756,-13.299742,15.751913,0.405762,31.826842,16.820442,41.258661,34.919981,51.00337,72.135601,152.313705,-94.198837,105.587971
95,-22.132301,41.207964,17.733879,30.609864,0.0,-59.903011,-38.303375,-83.956776,-33.770142,-84.56234,-26.535072,-77.920589,-16.276131,-62.595406,0.0,18.008026,20.784386,49.305975,33.902211,63.342152,44.854944,73.34788,52.293336,79.271906,0.0,63.03772,32.261524,82.594242,25.016613,84.250088,17.105083,74.90839,10.320282,61.001015,0.0,-3.132043,0.466277,35.975914,15.194492,50.5839,31.297764,56.532008,48.083626,56.500268,50.156851,193.512376,-76.311407,136.188542
96,4.522018,10.76038,4.996948,18.759466,0.0,-66.997375,-35.284882,-92.596493,-30.979271,-98.152428,-23.923874,-91.129761,-14.965668,-67.146149,0.0,0.643748,24.505898,46.381784,41.021293,73.337753,54.867341,83.341135,65.259009,93.955166,0.0,67.86993,31.164093,90.909748,19.996719,93.448963,8.042679,79.270306,-4.15123,50.59536,0.0,0.067184,3.616722,49.789295,16.318596,61.812039,30.649632,69.580735,45.901366,71.259049,55.000906,204.311859,-70.992422,154.987112
97,-40.038414,79.095979,1.470165,22.981157,0.0,-45.464802,-15.177612,-31.70929,-21.076012,-37.175732,-26.977444,-36.686668,-32.027721,-37.993984,0.0,35.697728,2.417158,6.815578,-23.209695,-12.788634,-46.617671,-40.967879,-67.379086,-61.95919,0.0,66.421623,33.530045,88.583908,23.195972,85.095634,11.22179,67.090073,-2.162876,38.676281,0.0,4.174945,12.697552,55.427417,21.602949,67.8269,30.585597,69.638718,37.826882,62.380637,15.313482,283.203491,-69.171267,177.763921
98,16.451168,11.85435,9.935532,28.27539,0.0,-59.24366,-33.739129,-56.37085,-36.747837,-51.956978,-38.025313,-48.60529,-37.574301,-46.395636,0.0,37.27576,10.555091,9.34469,-9.994181,-17.21901,-31.489005,-43.619688,-52.084033,-60.230919,0.0,66.10405,41.275349,86.154671,32.204132,74.576225,20.388165,62.879448,7.332344,51.262321,0.0,13.889705,25.298897,74.070484,43.242887,95.315713,58.894517,104.745248,71.441645,104.778593,31.817837,294.089533,-59.182549,205.071003
99,16.451168,11.85435,-2.057362,16.058565,0.0,-73.022518,-52.300644,-81.03241,-52.419662,-66.738224,-49.073181,-60.523911,-43.12088,-54.797287,0.0,38.853791,18.693023,11.873801,3.221334,-21.649386,-16.360339,-46.271498,-36.788981,-58.502649,0.0,74.147472,36.225414,91.125698,25.149879,87.618771,13.016853,75.596752,0.642242,54.231319,0.0,9.315544,25.786108,67.356855,41.974163,83.598511,56.105683,90.302506,66.847291,92.677797,47.810869,305.788009,-61.698046,220.973695
100,2.431755,0.703399,-0.016708,15.557708,0.0,-83.442593,-41.881828,-99.607143,-40.813866,-87.868938,-37.639275,-71.593094,-33.974648,-62.663097,0.0,43.352,27.418356,3.231584,14.949281,-35.182668,-3.49495,-55.722954,-24.137125,-57.829693,0.0,75.436649,34.558754,90.674343,23.197231,86.88612,11.721725,73.318462,0.11404,48.823643,0.0,5.618979,25.306801,68.394571,40.232925,84.841052,53.24948,94.550502,63.183207,95.671828,49.851894,306.320051,-62.105484,236.360045
101,-3.083496,-1.832505,2.695255,11.214554,0.0,-77.867775,-32.965851,-95.207062,-29.340935,-90.152264,-25.235138,-81.833439,-22.259674,-70.33144,0.0,39.102275,34.832605,2.737458,26.857848,-20.279082,11.674842,-32.755259,-8.392251,-30.694771,0.0,73.381004,30.853786,88.149033,18.78788,83.096008,7.21962,67.043953,-3.975563,41.527634,0.0,9.451271,27.449231,72.609469,42.837866,90.630956,55.506828,95.712583,64.41593,95.640891,46.298475,304.395723,-59.880152,247.482776
102,-21.767693,14.416189,1.026306,10.583465,0.0,-66.405029,-54.705734,-15.779572,-55.364513,-5.400696,-50.648632,1.697273,-42.767487,-29.716873,0.0,42.570302,6.775255,33.216041,-4.169326,25.983585,-16.183363,16.970866,-27.071875,4.498518,0.0,75.238152,29.367371,89.994965,17.921333,87.637711,7.937393,72.346458,-1.052799,49.869976,0.0,9.538463,29.751348,71.918852,46.270325,88.108637,58.457571,95.18789,65.818529,94.766628,24.302988,318.781732,-59.08164,258.036061
103,10.189133,7.65631,3.495369,7.34762,0.0,-62.411327,-50.699959,-27.154884,-47.585335,-8.674965,-41.135445,-1.241226,-32.202301,-16.965179,0.0,38.35034,1.916424,31.833943,-10.261745,30.762758,-22.479126,18.762616,-34.515455,-1.108605,0.0,73.449783,29.850826,89.651642,18.305912,87.295074,7.78759,71.067352,-1.475086,49.453125,0.0,11.772037,30.252144,69.05141,46.495775,86.885917,58.327278,94.009259,66.083747,93.320248,34.01516,326.450731,-56.063232,265.39637
104,1.23539,4.734589,4.815502,4.533468,0.0,-60.033989,-50.435886,-20.961914,-48.633499,-5.511818,-43.47599,1.032829,-35.833626,-8.371353,0.0,38.375411,3.100797,33.489904,-8.844265,28.822561,-20.895228,16.436107,-32.373086,-0.334255,0.0,71.505489,28.745728,87.467365,17.881222,87.511539,7.39151,71.846066,-2.369728,50.183544,0.0,12.222506,30.052073,68.638609,46.331396,85.531916,58.062492,93.735335,65.888184,93.572252,34.760313,331.202626,-51.737967,269.947144
105,-2.359886,3.59974,2.898273,2.985694,0.0,-56.421432,-48.209324,-10.756302,-45.419941,5.216675,-38.641663,10.341682,-29.739876,-2.843971,0.0,37.790943,6.271434,32.654421,-7.572206,23.363392,-21.968574,11.879483,-36.17123,-6.605627,0.0,69.030304,29.872684,88.746986,19.435043,89.709206,8.720856,73.624535,-1.741905,49.073753,0.0,11.083273,31.748604,65.821678,47.967967,84.043052,59.023761,92.894788,65.938942,90.313374,31.873398,334.767339,-49.366722,272.89781
106,-2.742348,-4.141909,2.538528,5.8046,0.0,-42.230244,-46.866188,-3.679733,-44.737186,9.830132,-38.159523,15.502968,-29.249153,-5.256844,0.0,39.398677,9.137023,33.813723,-0.719578,27.148939,-11.099019,19.02135,-21.545336,5.397604,0.0,70.769119,29.343338,88.850441,19.159813,87.839012,8.771667,72.003136,-1.030998,49.762001,0.0,12.492232,30.793263,62.766268,47.394244,78.854103,58.752121,87.759933,65.599006,86.931859,28.73889,330.588086,-47.220354,278.665067
107,-15.310135,-40.200074,1.098118,2.06728,0.0,-32.1908,-28.803234,17.969284,-37.77832,13.571892,-42.900181,-3.219795,-44.79784,-70.965157,0.0,18.058167,29.553932,56.463897,43.194784,61.476981,51.780376,63.767489,59.990463,82.28477,0.0,68.039188,28.579388,87.683659,18.327484,87.619915,7.559566,70.88316,-2.668304,47.170773,0.0,14.902227,30.00471,61.662603,47.03393,77.613414,58.765212,86.083162,65.81643,86.482934,13.325987,290.300589,-46.225004,280.644924
108,-15.420799,17.708536,-0.475216,-0.433056,0.0,-20.355778,-17.879105,40.978889,-23.921814,44.71447,-26.136303,30.124855,-25.48542,-44.839039,0.0,45.318936,15.509172,44.810236,26.733668,48.17761,35.566138,52.881571,43.704286,60.995637,0.0,66.022453,28.330936,87.589188,17.574406,86.598358,5.931416,69.549179,-5.328541,44.596367,0.0,18.278925,31.767993,61.697677,48.628573,78.180406,59.568523,86.49689,65.592152,86.269339,-2.113037,307.867732,-46.718445,280.070476
109,17.088776,-4.4845,-0.061741,0.072063,0.0,-50.08913,-37.242622,13.897476,-43.028469,17.329102,-44.351349,7.005501,-43.692684,-70.452633,0.0,36.667518,12.606841,42.881339,24.420744,46.989347,33.219622,51.636683,41.33869,65.828409,0.0,66.035786,27.803593,89.111423,17.43988,88.637981,6.682949,72.557087,-3.570957,49.470005,0.0,18.287385,30.049479,58.830606,47.918937,76.767495,59.677142,84.661173,66.528721,85.559457,14.923897,303.237933,-46.832027,279.99724
110,-14.370232,5.877281,0.410042,0.690555,0.0,-23.264408,-23.016071,37.998161,-29.278908,38.381195,-30.513611,26.360435,-28.21146,-55.481644,0.0,21.66575,9.638251,41.277186,23.188762,47.981305,33.973595,52.232265,43.60882,56.886085,0.0,65.819836,26.65947,88.183308,16.391315,87.795353,5.704594,71.403065,-4.455013,48.732891,0.0,18.567114,29.695526,58.305974,47.368432,75.509207,59.031047,83.307666,65.861199,84.639746,0.497532,309.025815,-46.478119,280.598395
111,-19.726124,-1.023884,0.848122,0.7239,0.0,-23.316822,-6.797104,47.682781,-10.967617,57.943783,-15.948315,45.497646,-21.010437,-16.412888,0.0,48.68915,8.902063,42.737275,13.15574,42.410368,15.623966,42.482801,18.631705,50.791443,0.0,65.673122,26.403694,86.971149,16.053143,86.054478,5.35183,70.257282,-4.701061,48.878231,0.0,19.55512,29.165461,58.154685,46.945874,74.501625,58.810351,82.212029,65.81396,84.811103,-19.307814,307.924712,-45.709219,281.245076
112,31.321049,12.837602,0.225163,0.55563,0.0,-56.969948,-37.975559,15.153923,-40.911198,22.288742,-40.684147,13.866348,-38.983097,-55.34832,0.0,46.557835,1.937728,32.53691,2.470881,30.133151,2.293657,28.047284,2.55869,36.826525,0.0,64.911118,25.561409,86.838455,15.066662,85.475464,4.455357,69.832535,-5.357666,47.538872,0.0,19.636384,29.435063,57.299381,47.269014,73.241546,59.039137,81.532465,65.749554,84.092452,11.950235,320.711509,-45.547056,281.749902
113,-0.251884,-6.48898,0.746498,-0.237492,0.0,-11.81488,-27.329121,21.045113,-34.525051,25.747948,-36.653366,11.691742,-35.320415,-66.944103,0.0,-4.265965,8.953254,29.179416,22.845368,37.683868,32.88654,45.647201,41.450643,56.307422,0.0,64.825058,24.513016,86.837196,13.337746,84.503632,2.471066,68.686867,-7.323647,45.385323,0.0,20.802294,28.902095,56.767709,47.033128,73.316017,59.110335,81.348511,66.009832,84.380271,11.631575,314.198369,-44.867334,281.48825
114,-7.407417,-12.557873,-0.458164,0.350495,0.0,-40.042877,-29.422417,24.632378,-35.911674,29.891624,-39.265537,16.916084,-40.658226,-50.463753,0.0,46.61798,8.003039,41.36586,21.328222,46.939946,31.766758,52.072085,41.249275,68.297808,0.0,65.086498,24.264393,87.474003,13.174839,84.807644,2.562733,69.445553,-6.734791,46.136913,0.0,20.50972,28.42779,56.391094,46.250873,72.050875,58.286955,80.481103,65.016885,82.927531,4.164648,301.618328,-45.385008,281.816577
115,-13.649025,9.959477,0.637035,-0.162959,0.0,-9.50901,-14.926815,44.500694,-20.418549,48.923035,-21.555691,35.873337,-18.513336,-44.601517,0.0,21.540828,7.747083,39.691312,21.241524,46.126878,31.469986,50.261192,40.116279,53.392308,0.0,64.090118,24.530525,87.217598,13.361721,83.974113,2.54282,68.376961,-6.993656,45.437965,0.0,21.269003,28.390493,57.159763,46.064449,73.198568,57.893605,80.936821,64.511335,83.377691,-9.588718,311.528158,-44.852314,281.60397
116,-1.276703,-7.470935,0.408554,0.288992,0.0,-14.694042,-14.495831,37.748451,-22.650261,44.299393,-29.501495,32.419167,-34.654083,-24.400806,0.0,49.807759,13.366185,46.665466,16.4563,46.223086,17.759789,47.534232,19.437918,56.76351,0.0,64.141388,24.484863,87.105904,13.140392,83.927078,2.289619,68.121986,-6.981468,45.341606,0.0,21.34193,28.289716,56.801116,46.031104,72.679309,57.879279,80.30357,64.358441,82.976252,-10.947533,304.027767,-44.525871,281.863507
117,-7.060719,-6.296813,-0.150146,-0.15098,0.0,0.704212,-5.334721,46.22961,-13.512554,51.727352,-21.563015,37.993183,-28.371677,-16.558056,0.0,49.016983,16.275741,49.126652,24.100198,51.814709,29.145021,54.670974,33.600746,64.774947,0.0,63.533134,24.516964,87.163353,13.110752,83.628616,2.119331,67.739868,-7.514534,45.582962,0.0,21.22868,28.104527,56.732944,45.711916,72.378461,57.394785,80.484622,63.847888,83.558805,-18.084784,297.645338,-44.75255,281.62691
118,5.255699,-1.494977,0.251713,0.121648,0.0,-6.743717,-12.301369,40.783939,-19.283638,45.700436,-25.348377,31.863499,-30.303898,-28.795681,0.0,47.419623,18.29356,49.013896,27.32746,52.815683,33.224994,55.258097,38.709975,68.643178,0.0,63.02702,24.442921,86.886349,13.196812,83.744144,2.334938,68.161526,-7.153416,46.507244,0.0,21.471915,27.818561,56.369358,45.471892,71.906626,57.345261,79.861376,64.071239,83.214299,-12.936945,295.996725,-44.608698,281.594923
119,1.770115,6.586855,0.548172,0.454668,0.0,-15.542164,-13.651543,36.946449,-20.136395,44.796524,-26.128235,32.127342,-31.13142,-27.936974,0.0,50.766557,14.240263,45.968056,19.340908,46.687449,22.001487,46.588648,24.505527,56.778516,0.0,62.422428,24.335289,86.120281,13.135471,82.808132,2.302723,67.295551,-7.262707,45.313396,0.0,21.409794,27.314492,56.236903,45.111393,71.481906,57.050897,78.855894,63.761993,81.892841,-11.291828,302.533624,-44.185524,281.999636
120,-11.04126,1.204874,0.293541,0.36124,0.0,-5.125465,-3.753948,48.350372,-8.30143,57.686234,-13.862514,47.026978,-19.256458,-5.928726,0.0,49.978499,15.120391,46.358751,17.890515,45.334188,18.167095,43.476736,18.372168,50.520544,0.0,62.100391,23.682804,85.861301,12.697392,82.941456,2.029552,66.979122,-7.356491,46.154423,0.0,21.397691,26.915955,55.560489,44.682289,71.369706,56.74233,78.347502,63.584029,81.380497,-22.410593,303.682984,-43.969488,282.305362
121,16.335526,-18.031367,0.051098,0.058725,0.0,-2.733307,-18.453827,32.067947,-26.650543,36.309128,-32.645187,21.188507,-35.826817,-44.940147,0.0,39.753557,22.704515,51.79816,38.653844,61.187001,49.923911,67.929899,59.078719,83.635005,0.0,62.030411,24.483204,85.45784,14.064045,83.440819,3.547668,68.228073,-5.919914,47.236176,0.0,21.111972,25.553802,54.496406,43.394979,71.27461,55.760313,78.584995,63.070759,81.982564,-6.155949,285.565027,-43.999271,282.277497
122,-16.612644,10.477501,-0.386238,-0.145731,0.0,26.805439,-3.564491,61.179829,-10.351067,66.479473,-12.779503,52.788105,-10.252075,-6.290245,0.0,30.922136,14.576185,51.040174,30.171128,57.484323,42.094515,65.319833,51.992365,76.902234,0.0,61.806564,24.524059,85.282631,14.184608,83.291016,3.698387,68.608246,-5.72176,48.311348,0.0,21.598689,25.875831,55.17634,43.618392,71.173834,55.991383,78.360964,63.484611,82.064322,-22.858772,295.983572,-44.475689,282.07281
123,19.669476,23.286389,-0.282784,0.034642,0.0,-41.814308,-28.795338,21.689301,-31.063671,35.147667,-29.227238,36.895294,-25.264549,2.452812,0.0,49.262935,15.682443,41.968482,3.883113,33.512628,-9.051499,21.369903,-21.027497,11.587403,0.0,61.347427,24.520283,86.359062,14.249783,83.903732,3.92704,69.026184,-5.287857,49.291649,0.0,21.010084,25.648157,54.674185,43.589863,70.849335,56.107165,77.906049,63.673382,81.645098,-3.270607,319.135407,-44.839783,281.972898
124,-12.745628,-27.443797,0.351963,-0.542292,0.0,32.233772,-8.617344,49.969482,-15.509377,60.277519,-18.725796,41.522026,-17.786293,0.401688,0.0,23.394823,13.886494,44.358285,31.104918,59.749699,45.694873,70.12278,57.474752,81.086751,0.0,61.109791,24.332142,86.199474,14.192848,83.729153,3.904152,68.80228,-5.357952,48.187122,0.0,21.382562,25.925416,54.925139,43.560161,70.862673,55.846085,78.532568,63.140599,82.372518,-16.084843,291.617972,-44.556427,281.356968
125,10.436211,27.698456,0.339947,0.484926,0.0,-37.888927,-28.648567,24.36676,-30.382805,37.141457,-27.897949,41.12011,-22.992153,15.919762,0.0,46.865475,14.022345,42.56178,3.12982,33.715601,-8.983203,22.817148,-20.012135,12.731823,0.0,60.804749,24.341869,85.764771,14.159775,83.379822,3.820953,68.458557,-5.485497,48.073311,0.0,21.090174,25.651121,54.337028,43.166008,70.395902,55.479658,77.728269,62.981839,81.922975,-5.797434,319.281972,-44.365282,281.807437
126,-10.672817,-24.122737,-0.132408,-0.157402,0.0,29.333439,-9.500542,50.450191,-15.77877,60.926571,-18.278275,42.877293,-16.777153,-3.159027,0.0,24.509294,14.740503,44.467089,29.160829,56.972103,41.500229,67.462819,51.588764,78.051533,0.0,61.155052,24.069157,86.155014,13.953094,83.689842,3.743019,68.951454,-5.300446,48.459091,0.0,20.661379,25.269195,54.510238,42.852872,70.480994,55.336211,77.70783,63.013331,81.81028,-16.563749,295.045815,-44.591188,281.536616
127,10.815296,31.273064,-0.276947,-0.27868,0.0,-46.36734,-30.711708,25.023079,-32.08746,39.973755,-28.72015,44.538116,-23.201351,25.883331,0.0,43.13044,10.398708,37.77106,-5.038216,27.627937,-21.215095,13.480424,-36.500298,-4.305486,0.0,60.895042,24.70768,86.455765,14.650383,84.285393,4.393272,69.645538,-4.823227,48.77243,0.0,21.284256,25.643279,54.408844,43.363115,70.212627,55.815086,77.568089,63.397542,82.24772,-5.83354,326.200843,-44.953222,281.1399
128,-14.809399,-37.757289,0.271854,-0.034642,0.0,30.667248,-5.737209,56.091671,-13.106976,59.701023,-17.209854,44.363422,-16.551819,-20.836945,0.0,31.614791,16.839152,56.346633,34.393559,66.85396,48.860322,74.743748,59.735681,85.403722,0.0,60.901165,24.692001,85.46957,14.813004,83.859272,4.583473,69.313488,-4.708729,48.513966,0.0,21.030276,25.795802,54.560379,43.454938,70.212256,55.85473,77.579698,63.576433,82.628041,-20.737009,288.284608,-44.775438,280.946313
129,17.941303,29.462542,0.165997,0.336478,0.0,-39.04438,-30.715027,24.893188,-33.811741,36.420021,-32.765064,36.75808,-28.782864,3.171272,0.0,47.716458,13.541742,42.652862,3.572076,34.016511,-7.453583,23.920442,-17.512602,16.250053,0.0,60.587311,24.232063,85.292702,14.490795,83.877296,4.550514,69.479599,-4.387264,48.942604,0.0,21.193421,25.202381,54.17623,42.95581,69.85645,55.576729,77.262548,63.537469,82.330589,-2.898731,317.703168,-44.712467,281.238809
130,0.091896,3.421899,0.380516,0.094169,0.0,-42.208099,-32.991199,23.386345,-35.517654,37.272949,-33.119202,39.848671,-27.708435,12.387428,0.0,47.037265,11.664097,41.904138,-0.952068,32.160541,-14.254712,19.904196,-26.316976,8.176619,0.0,59.928818,24.249458,85.095863,14.472027,83.291473,4.438019,68.76297,-4.600067,47.884369,0.0,21.408497,25.399859,54.228594,42.977175,69.798528,55.410806,77.219199,63.173697,82.137187,-2.846003,321.025016,-44.371119,281.232927
131,-12.494144,-31.914712,-0.054016,0.068296,0.0,34.415073,-9.23933,47.582645,-15.894413,54.738407,-19.551029,39.649601,-18.835659,-22.623425,0.0,27.727417,13.627884,48.996852,31.680061,61.571089,46.779704,73.341273,58.253857,86.479908,0.0,60.041771,24.094791,85.330582,14.190903,83.361168,4.059219,68.85006,-4.982872,47.687302,0.0,21.783693,25.206333,54.161657,42.825454,69.759193,55.322997,77.267858,63.136276,82.265257,-15.381374,289.103171,-44.466362,281.294091
132,13.295002,33.028011,0.32032,0.253238,0.0,-46.104927,-33.420982,22.03434,-35.279102,35.828247,-32.44875,38.285408,-26.826324,8.681259,0.0,45.563221,10.168626,40.165247,-2.389679,30.3042,-15.630388,18.433115,-27.632507,6.366406,0.0,59.643974,23.958092,85.591507,13.819485,82.74971,3.478775,67.876396,-5.724678,46.929016,0.0,21.980368,25.296489,54.320973,42.739374,69.765121,55.130274,76.850364,62.830056,81.603046,-2.141247,322.081921,-44.200916,281.498068
133,-10.651646,-28.157817,-0.370159,-0.287263,0.0,21.378193,-10.084476,47.634258,-16.707401,53.355045,-20.371971,36.364002,-19.856586,-37.769165,0.0,31.867226,12.339214,49.867039,27.262869,59.240196,40.302518,68.753279,50.847636,78.764688,0.0,60.209484,23.673763,86.325588,13.490982,83.120213,3.227921,68.290844,-5.825272,47.355709,0.0,21.80654,25.478158,54.003699,43.20806,69.857438,55.672319,77.403524,63.271757,80.91527,-12.95125,293.830042,-44.729433,281.116744
134,17.965107,34.362993,0.270653,0.229341,0.0,-57.098694,-42.512283,9.680328,-43.637352,25.332985,-39.318123,30.052071,-32.078648,7.432938,0.0,40.869942,6.666142,35.545019,-9.25861,25.575168,-25.477232,11.859599,-40.367047,-5.224085,0.0,59.669781,23.936634,86.530094,13.564453,82.969952,3.075829,67.684078,-6.205845,46.517887,0.0,21.483586,25.990748,53.990485,43.48958,69.46168,55.782111,76.962749,63.227111,80.859818,4.869976,328.139343,-44.602661,281.292393
135,-15.74192,-31.765215,0.132923,-0.291338,0.0,11.787758,-15.193005,44.662971,-20.607147,50.010567,-22.344246,37.193069,-20.320015,-43.624535,0.0,30.347302,14.738094,49.743724,28.799713,54.983184,39.629562,60.685279,48.364405,73.511828,0.0,59.746513,23.780537,86.752052,13.11161,82.275009,2.5177,67.156677,-6.682377,46.489334,0.0,22.204213,26.318643,54.522032,43.717316,69.880224,55.871341,77.372031,63.112564,81.742355,-10.990791,296.278384,-44.588585,280.90531
136,8.05069,23.707033,0.087147,-0.238418,0.0,-42.659454,-31.99482,24.992981,-36.282578,38.851433,-36.138725,34.486198,-33.222313,-12.802734,0.0,46.983357,8.994627,38.425614,-1.101257,29.682065,-11.628776,21.984876,-20.670456,15.93809,0.0,59.995136,23.705349,86.616039,12.944241,81.952,2.267075,66.762257,-7.082634,45.869236,0.0,22.510001,26.612452,55.085567,44.052435,70.009591,56.176141,77.755872,63.28491,81.934152,-3.036747,319.959868,-44.598083,280.641343
137,3.873253,3.463704,-0.316772,0.079905,0.0,-49.913063,-37.694607,17.774963,-39.601021,32.240639,-36.352787,33.292007,-30.051613,-0.0951,0.0,45.1963,7.764435,37.330347,-5.182897,27.633865,-18.307762,16.935544,-29.755795,5.63312,0.0,59.996395,24.348679,86.775799,13.735657,81.990337,2.976894,66.895008,-6.579323,45.854588,0.0,22.352352,26.75491,55.235991,43.993155,70.221642,55.933214,77.65738,62.901131,81.771439,0.708303,323.43322,-45.043058,280.730896
138,-10.707436,-29.198188,0.411243,0.079967,0.0,25.638428,-12.493916,42.650986,-19.195461,49.737167,-23.017101,33.03669,-22.793198,-38.501358,0.0,23.70129,14.213401,46.122679,30.862177,56.91449,44.412193,66.442764,54.871169,76.470969,0.0,59.62944,24.373169,86.128235,13.820572,81.940727,3.030453,67.036171,-6.690903,46.181602,0.0,22.662957,26.505994,54.739764,43.60104,69.820512,55.539432,77.640707,62.628873,82.05932,-10.090914,294.23162,-44.723597,280.807451
139,16.259193,33.079078,-0.170746,0.278124,0.0,-58.390846,-45.179844,10.168648,-45.966511,25.836296,-40.90456,30.382347,-32.695885,5.985832,0.0,41.861716,5.714445,35.111778,-9.399154,24.99138,-24.461561,12.42054,-37.71604,-1.644969,0.0,59.550247,24.452076,86.315804,14.091396,82.280846,3.370171,67.5103,-6.309471,46.512566,0.0,22.674072,26.454,54.795216,43.309454,69.482613,55.214563,77.379935,62.396568,81.94434,6.020136,327.31763,-45.042486,281.092507
140,-15.001373,-9.706362,0.069981,0.131899,0.0,-15.136471,-23.103275,37.652664,-24.253979,47.325897,-22.456627,39.787216,-17.623444,-37.02507,0.0,37.381168,12.286171,40.105102,9.429411,33.315582,5.515176,30.609803,1.97237,34.336625,0.0,59.201031,24.282589,86.491528,13.921394,82.170811,3.338127,67.289715,-6.244698,46.265659,0.0,22.263864,26.068307,54.29195,43.240232,69.262905,55.403149,77.102923,62.839504,81.860236,-9.056568,317.620114,-45.047836,281.233251
141,5.895882,1.779585,0.266647,0.216991,0.0,-43.52417,-32.077675,24.989891,-35.286713,39.282074,-34.409809,36.362915,-30.622101,-8.095322,0.0,46.224135,8.388979,39.03367,-0.784292,30.775911,-10.113853,23.677207,-18.037357,16.379173,0.0,59.003162,24.428616,86.250973,14.201946,82.056828,3.568153,67.334919,-6.184902,46.284542,0.0,21.925595,25.989946,53.877605,43.052325,68.719687,55.131324,76.699507,62.518402,81.486214,-3.23988,319.421003,-44.860382,281.471546
142,-2.763176,0.906373,-0.256348,-0.422496,0.0,-40.906334,-30.430126,26.312485,-33.047733,41.419716,-31.770058,41.253891,-27.681198,7.607117,0.0,45.47572,9.041866,39.330813,-1.478058,31.195505,-12.460924,22.006118,-22.161852,10.674361,0.0,59.19714,25.107937,86.841259,14.83017,82.479572,4.017735,67.613468,-5.901546,46.427479,0.0,22.137646,26.710388,54.681163,43.625122,69.508672,55.555672,77.233463,62.838639,81.758719,-6.101274,320.339849,-45.214949,281.061523
143,-2.500076,-6.490524,0.402718,-0.008583,0.0,-33.798866,-24.223824,31.791115,-28.477135,44.485359,-30.28244,38.889427,-29.640255,-6.637688,0.0,48.659325,9.553715,41.685542,4.766082,36.325544,-0.525928,31.818011,-4.909775,28.933403,0.0,59.038067,24.547691,86.490955,14.254074,82.098827,3.584061,67.065525,-6.056557,46.296329,0.0,22.409657,26.364091,54.675791,43.56436,69.691824,55.732217,77.233587,63.163447,81.591931,-8.707323,313.849819,-44.918203,281.053434
144,-2.63031,4.099363,-0.153866,0.158019,0.0,-32.899647,-23.164558,33.42556,-26.83342,48.136024,-27.894287,45.962906,-26.545773,12.046165,0.0,47.405483,9.005371,40.160677,0.379703,33.217893,-8.479505,25.626112,-16.412148,15.989652,0.0,59.584465,24.446297,86.73111,14.162178,82.182541,3.633156,67.144775,-5.816917,46.228752,0.0,22.233915,26.425286,54.670419,43.507673,69.673237,55.505531,77.302377,62.703159,81.68079,-11.384153,317.951822,-45.118589,281.214093
145,6.90834,3.670259,0.743237,0.699694,0.0,-44.373322,-30.216122,24.173355,-33.225574,38.260918,-32.378311,37.205429,-28.657894,-0.204735,0.0,44.620662,7.231035,38.551091,-3.2272,30.539593,-13.748853,21.647842,-23.12874,11.846014,0.0,59.279194,22.689915,85.139866,12.503242,81.32452,2.623672,67.099972,-5.971069,47.244701,0.0,22.46128,26.048238,53.988756,43.113088,68.612118,55.323244,76.495731,62.863772,81.288304,-4.534836,321.6187,-44.434376,281.910406
146,-9.293976,-6.796744,-0.423088,0.018896,0.0,-28.07373,-17.408123,37.310371,-21.945705,49.278603,-25.280685,41.482201,-26.977329,-4.732132,0.0,47.290627,7.613208,40.866176,2.793959,35.382616,-2.230672,31.02106,-6.526092,29.402212,0.0,59.144497,22.508068,84.657726,12.525558,81.029377,2.802429,67.736492,-5.712719,47.950001,0.0,22.844997,25.718738,54.152024,42.809399,68.730555,55.133855,77.232352,62.688215,81.267741,-13.853245,314.810192,-44.881897,281.917538
147,-5.336151,-18.658628,-0.245476,-0.024885,0.0,-4.865513,-8.691502,47.126198,-14.704285,53.589935,-20.879345,40.299911,-25.933456,-17.816677,0.0,44.92645,13.738911,45.595269,23.934398,49.147338,31.446891,54.34944,37.427172,66.991972,0.0,59.549389,22.475166,85.394955,12.447338,81.881618,2.758884,68.162899,-5.65155,48.081951,0.0,22.60133,25.992539,54.27676,42.973408,68.489049,55.129533,76.922673,62.505496,81.102621,-19.221067,296.132298,-45.159044,281.873387
148,-2.952061,-2.713313,-0.231171,-0.118808,0.0,-0.738831,-5.792656,50.009937,-12.249069,56.010647,-18.807793,42.042675,-24.021492,-15.195065,0.0,44.069355,15.423833,47.392391,27.299548,51.420247,36.044209,57.860074,42.802175,71.074539,0.0,59.595623,22.406673,85.340595,12.484646,81.881962,2.91441,68.273678,-5.397205,48.245831,0.0,22.727671,26.035517,54.326901,43.153658,68.526099,55.440137,77.082731,62.918606,81.284908,-22.194471,293.410371,-45.411558,281.745965
149,1.328773,16.638155,0.035248,0.447876,0.0,-17.004089,-10.817585,45.216694,-14.422073,57.396984,-17.975006,49.979496,-20.267544,4.230194,0.0,49.414841,11.185408,44.32778,7.965618,38.779753,4.094238,34.861072,0.845919,34.61512,0.0,59.749317,22.314091,85.179462,12.400932,81.844082,2.928772,68.15237,-5.286713,48.133678,0.0,22.445904,25.46624,53.784979,42.534548,68.182026,54.862524,76.544637,62.450168,80.6461,-20.888071,310.030062,-45.398684,282.175377
150,6.555061,12.894474,0.128689,-0.010065,0.0,-31.248894,-22.419033,32.940159,-24.366703,48.29504,-23.485737,50.700359,-20.665398,25.98547,0.0,44.405215,9.056377,38.628958,-3.92004,30.155814,-17.349581,18.435338,-30.327171,1.162452,0.0,58.946571,22.078915,85.456581,12.114544,82.049904,2.498131,68.427429,-5.853424,48.120232,0.0,22.674998,25.216213,53.829254,42.124526,68.064515,54.400446,76.444787,62.020014,80.619794,-14.351578,322.891252,-45.288563,282.132029
