takenoko1/special-research/HandMotion_SimilarSearch_自分用/NewProject/handData/test_key/d4_feature_d2/46.csv
frame,vel_0x_L,vel_0y_L,vel_0x_R,vel_0y_R,posFromWrist_0x_L,posFromWrist_1x_L,posFromWrist_2x_L,posFromWrist_3x_L,posFromWrist_4x_L,posFromWrist_5x_L,posFromWrist_6x_L,posFromWrist_7x_L,posFromWrist_8x_L,posFromWrist_9x_L,posFromWrist_0y_L,posFromWrist_1y_L,posFromWrist_2y_L,posFromWrist_3y_L,posFromWrist_4y_L,posFromWrist_5y_L,posFromWrist_6y_L,posFromWrist_7y_L,posFromWrist_8y_L,posFromWrist_9y_L,posFromWrist_0x_R,posFromWrist_1x_R,posFromWrist_2x_R,posFromWrist_3x_R,posFromWrist_4x_R,posFromWrist_5x_R,posFromWrist_6x_R,posFromWrist_7x_R,posFromWrist_8x_R,posFromWrist_9x_R,posFromWrist_0y_R,posFromWrist_1y_R,posFromWrist_2y_R,posFromWrist_3y_R,posFromWrist_4y_R,posFromWrist_5y_R,posFromWrist_6y_R,posFromWrist_7y_R,posFromWrist_8y_R,posFromWrist_9y_R,posFromBody_0x_L,posFromBody_0y_L,posFromBody_0x_R,posFromBody_0y_R
2,8.429375,-11.892574,0.65855,-1.329116,0.0,8.222351,3.133278,47.075386,-5.724678,51.571999,-15.567799,40.819588,-24.278183,10.498123,0.0,26.131354,14.239089,45.932241,27.826465,56.113587,36.946074,60.284087,44.180259,61.462346,0.0,62.666874,22.729855,86.295605,13.512268,82.973042,4.354477,70.198002,-3.843555,50.547352,0.0,19.609831,28.257421,53.681115,45.354628,67.272504,57.549593,77.671459,65.284882,83.72232,-28.286877,291.167179,-53.238029,281.756848
3,4.776993,-2.288779,-0.338802,-0.582615,0.0,8.174858,-2.328873,42.299995,-12.586441,46.859322,-22.865524,33.126411,-31.459351,-3.516827,0.0,22.639677,13.88847,46.03734,30.072265,58.441146,41.44206,64.837439,50.389324,68.495533,0.0,63.199539,23.602524,86.087036,13.7677,82.2575,4.072208,69.66877,-4.707069,50.379524,0.0,20.326383,28.562962,55.981565,45.796082,68.625209,58.055947,78.577214,65.611233,84.39083,-23.139296,288.511417,-53.206244,280.807251
4,12.325401,4.750706,0.020199,0.476219,0.0,-13.880539,-17.045746,28.583336,-26.185284,34.505424,-33.443756,24.37603,-38.758392,-13.108749,0.0,27.621392,14.059581,46.354429,26.093069,54.652511,34.052573,58.621704,40.261701,60.432041,0.0,62.982616,23.623924,85.598431,13.896732,81.891003,4.230938,69.28545,-4.514351,49.566364,0.0,20.012629,28.255074,54.271017,45.347959,67.791393,57.517483,77.952423,64.96909,84.319817,-10.504875,293.041952,-52.877026,281.063299
5,-10.309467,5.206054,-0.507545,0.37217,0.0,-5.345821,-5.714436,39.198475,-14.59568,44.877491,-24.192753,33.241367,-32.380371,-15.245819,0.0,34.196514,13.609729,46.261309,20.811371,49.776637,24.446309,50.97268,27.751129,54.98868,0.0,62.061481,23.107224,84.803295,13.487034,81.352558,4.148712,68.829174,-4.24118,49.497128,0.0,19.108418,27.82171,54.383279,45.227113,67.513578,57.718975,77.879187,65.492549,83.863852,-20.470819,298.079566,-53.041048,281.267029
6,-1.222458,-13.713964,-0.110264,-0.076632,0.0,13.027096,-1.746998,43.854618,-13.906174,46.220341,-26.066723,27.276478,-36.60078,-35.305882,0.0,17.944237,18.763789,48.698166,36.64924,61.556763,48.951589,69.208441,59.121141,82.113907,0.0,61.778641,23.635883,84.473076,14.14341,81.044998,4.648762,68.606186,-4.12056,49.130516,0.0,18.880868,27.883831,54.66202,45.19877,67.767125,57.655619,77.828305,65.419004,84.071086,-21.390839,284.224812,-52.848873,281.049606
7,14.349804,27.547229,-0.729904,-0.307085,0.0,-31.989613,-27.670555,20.675583,-32.735996,29.014664,-35.142117,28.407211,-35.295868,-1.692696,0.0,40.379768,11.38622,43.742572,7.113833,40.179758,0.25046,32.692582,-6.10199,22.465109,0.0,62.204819,24.116764,84.905319,14.545326,81.163559,4.974918,68.697166,-3.809624,49.529915,0.0,18.899578,27.941135,54.508015,45.423356,68.043643,57.986045,77.951806,65.778638,83.941472,-6.728468,311.741243,-53.266211,280.711723
8,1.136627,7.426846,-0.503368,0.033839,0.0,-42.607613,-31.239452,14.528046,-33.805504,25.479012,-33.52335,28.290596,-31.048336,2.584877,0.0,42.486074,9.479059,40.816652,-0.313754,34.736521,-11.687562,23.456326,-22.582064,6.846886,0.0,61.817951,24.233437,85.006428,14.679966,81.550083,5.072079,69.122028,-3.662739,50.187893,0.0,18.828936,27.699382,54.370311,45.261693,67.99801,57.85569,77.888265,65.665079,83.674155,-5.258617,319.082024,-53.436356,280.659497
9,-3.74691,-8.152228,-0.515842,0.057366,0.0,-29.570618,-26.500854,22.2995,-30.952034,30.893097,-32.886772,30.940704,-32.745838,2.594147,0.0,41.290648,13.02273,44.040332,8.167109,40.872968,0.462264,32.238655,-6.919195,20.426789,0.0,62.287102,24.617329,85.379333,15.169258,81.811409,5.542545,69.388504,-3.38356,50.520744,0.0,18.610895,27.61781,54.67999,45.23545,67.900444,57.974436,77.636508,65.914613,83.409554,-8.629589,310.842435,-53.57626,280.629502
10,8.237114,-24.183684,-0.557041,0.445838,0.0,-18.201771,-28.723812,20.513306,-39.490185,23.135834,-46.598339,10.913544,-50.647316,-40.043678,0.0,24.424758,17.628631,48.27215,33.567215,58.871176,44.43924,65.887381,53.01384,74.396896,0.0,62.056675,24.322529,86.090755,14.806137,83.065166,5.260048,70.38271,-3.408909,50.73904,0.0,18.049337,27.078914,54.183949,44.650797,67.39934,57.342112,77.184804,65.280498,82.91271,0.149231,286.472033,-53.591595,280.888622
11,-20.742359,11.156756,0.152435,0.107754,0.0,-3.831196,-14.426022,48.161144,-21.044312,53.117008,-23.163586,39.104977,-21.462879,-11.229458,0.0,31.178154,14.69172,45.343081,30.049479,50.89117,41.714441,55.220985,50.78286,60.087473,0.0,62.366924,24.02956,86.102657,14.574394,82.734776,5.11076,70.100269,-3.429508,50.757694,0.0,17.76158,27.554269,54.251195,44.923733,66.792086,57.379533,76.597434,65.056653,82.50948,-20.063038,297.560492,-52.909069,280.928081
12,6.059475,-16.835571,0.032215,-0.332341,0.0,14.224892,-14.115086,37.776031,-25.950222,40.004196,-35.14658,20.500488,-40.874863,-44.345798,0.0,10.907902,18.726492,47.159716,40.090961,60.763208,55.405187,72.274596,66.739351,84.632768,0.0,62.017822,23.564987,84.762497,14.177914,82.286568,4.889488,70.032921,-3.599453,50.843811,0.0,18.47844,27.391742,53.905393,44.861242,67.074039,57.415595,77.241429,65.066718,82.693929,-13.572922,280.556667,-52.446213,280.427486
13,-15.666389,2.067589,-0.846004,0.047486,0.0,31.49025,7.079601,53.674965,-5.500202,54.263878,-17.888203,32.053528,-28.207855,-25.827255,0.0,0.640969,18.205009,42.879054,39.598872,57.009339,54.784904,68.910372,66.049414,80.158148,0.0,62.767124,24.408073,86.343212,15.036793,82.967091,5.748196,70.936489,-2.543049,52.29475,0.0,18.084287,27.687279,53.688772,45.253542,66.715701,57.70471,76.989055,65.304951,82.411482,-28.540306,282.402449,-52.593212,280.253164
14,-1.046734,-0.577119,-0.077419,-0.248916,0.0,35.305996,5.914021,55.379734,-6.131802,56.088352,-17.831955,35.268116,-27.448483,-27.832947,0.0,0.854255,17.890391,44.246146,40.005004,57.352239,55.721349,69.61513,67.240271,81.806267,0.0,63.18821,24.271317,86.068268,14.912338,83.404198,5.498028,71.08429,-3.10524,51.724205,0.0,18.004753,27.125042,53.455726,44.846175,66.902619,57.521435,77.203082,65.366454,82.938522,-28.908949,281.617416,-51.99254,279.796335
15,3.366566,-0.457324,0.064316,0.164812,0.0,29.355698,4.193516,51.502419,-8.482933,52.670288,-20.727253,30.399284,-30.563564,-31.788197,0.0,4.656475,18.306095,45.141527,39.626845,58.469366,54.987692,69.730047,66.498339,81.153379,0.0,62.756767,24.334202,86.227684,15.044518,83.383713,5.643826,71.175842,-3.006706,52.145119,0.0,17.614552,27.037233,53.249727,44.746386,66.70366,57.419917,76.798185,65.261108,82.506146,-25.020676,281.163813,-51.406517,279.964867
16,3.040752,1.174246,-0.579758,-0.185498,0.0,25.884876,1.825676,48.07497,-10.738163,49.756794,-23.075352,27.885761,-33.07394,-36.221008,0.0,1.304601,18.735816,44.739223,39.614804,57.272704,54.491713,68.50177,65.68558,81.191294,0.0,62.923737,24.53476,86.756744,15.484486,83.352928,6.132488,71.67469,-2.605419,52.777748,0.0,17.799865,27.051806,53.499075,44.695504,67.088488,57.358846,77.162821,65.187131,82.635328,-21.443167,282.379339,-51.449518,279.820649
17,1.960945,-1.432116,0.267506,0.02822,0.0,20.160656,-2.145481,46.87151,-14.933224,48.199825,-26.685905,27.632732,-36.155491,-28.893299,0.0,8.694396,18.546798,46.145712,39.736699,58.726988,55.033202,69.951052,66.456411,80.652892,0.0,63.345737,24.398689,86.339664,15.250797,83.210163,5.880661,71.314373,-2.857418,52.328625,0.0,17.543292,27.25867,53.409105,44.939109,67.009695,57.552742,76.988932,65.285253,82.583581,-18.986492,280.992332,-50.686283,279.893977
18,-4.784431,-0.354633,-0.156155,-0.178459,0.0,24.479313,4.719429,53.830891,-8.229561,52.977962,-20.786362,33.546925,-31.413918,-15.635662,0.0,7.80272,19.045927,44.315801,39.619435,59.195983,54.52265,70.002243,65.547754,78.690341,0.0,63.99662,24.438286,86.575584,15.179157,83.334618,5.857658,71.222305,-2.755795,52.143402,0.0,17.690073,27.516292,53.689945,45.31307,67.351483,57.858098,77.23865,65.39276,82.83262,-23.446712,280.670674,-50.518227,279.748493
19,-2.040024,0.217176,0.23283,0.025997,0.0,31.76897,4.350929,54.047642,-7.794113,56.479969,-19.302006,34.359112,-28.484631,-30.67091,0.0,1.452184,19.398521,43.901455,41.268603,58.61485,56.648346,70.061215,68.000171,82.248276,0.0,63.862438,23.960896,86.208744,14.787369,83.235798,5.558167,71.199932,-2.980156,51.902332,0.0,17.20842,27.198895,53.195016,44.977765,67.024638,57.594733,77.243776,65.210782,82.81638,-25.184755,280.876967,-49.983416,279.763607
20,-2.71534,0.326845,0.270767,0.537599,0.0,39.201221,8.132401,59.567127,-4.924679,61.030712,-17.729702,38.392467,-28.739948,-20.030193,0.0,0.027541,16.574675,44.110048,38.828783,58.62263,55.07192,70.512919,67.467327,80.450227,0.0,63.763332,23.709698,85.458241,14.675388,82.933559,5.638905,70.651531,-2.59964,52.01952,0.0,15.951613,26.176926,53.631406,44.235525,66.85748,57.218549,76.94935,65.298961,82.05333,-27.750063,281.189686,-49.562616,280.287081
21,-1.843357,-1.491458,-0.319405,-0.676846,0.0,41.022606,10.041218,59.197769,-2.14365,61.882896,-14.722939,39.124947,-25.591507,-25.731869,0.0,-1.901851,18.158882,46.687325,40.379027,61.288581,56.0837,71.740641,68.092056,80.959421,0.0,64.581013,25.385342,86.431675,16.344452,83.705692,6.989651,70.726376,-1.518517,52.505093,0.0,15.245436,27.004381,54.255764,45.162028,68.425385,58.058664,77.87258,66.197862,82.900422,-29.484587,279.611269,-49.773188,279.523274
22,0.303726,-0.363339,-0.38126,-0.920081,0.0,38.163757,7.977619,59.365883,-3.727398,64.774361,-15.961475,42.53746,-26.918564,-29.857349,0.0,-1.020302,17.362487,51.287299,39.331431,66.466723,54.800465,74.82106,67.182719,84.860812,0.0,64.736938,27.056808,87.86911,18.101864,85.603981,8.176746,71.113014,-1.223717,51.579666,0.0,13.9015,28.910493,55.721843,46.484043,72.271756,58.709081,80.698279,66.500871,85.012224,-29.092255,279.202712,-50.065842,278.557976
23,-9.181824,-1.500659,-0.15564,-0.593298,0.0,51.28624,22.378635,75.785751,10.522556,72.043762,-2.914181,52.172356,-15.275459,-13.447666,0.0,-6.016281,23.347275,48.8426,46.956619,71.773677,61.461791,79.748249,71.535074,84.287336,0.0,65.637016,27.399502,88.937302,18.32119,84.641075,8.099613,70.56118,-2.372475,49.540558,0.0,11.068144,29.814766,59.737472,46.764266,79.337794,58.675118,88.825004,66.781959,90.166531,-38.201895,277.673788,-50.149298,277.936412
24,10.373383,2.754871,0.364037,-2.026216,0.0,39.307594,10.046654,63.678589,-2.921333,62.321663,-16.582088,44.295845,-28.381405,-16.995621,0.0,-5.079898,21.403619,63.718089,42.435686,81.087368,55.763771,87.605865,65.308224,86.779151,0.0,63.916512,26.339664,86.591492,16.85091,81.524963,6.532459,67.020378,-4.220467,44.152451,0.0,11.371091,33.813846,66.489324,50.71938,91.723012,62.014766,100.215114,69.226287,99.885984,-27.853231,280.401905,-49.80998,275.883443
25,42.743111,17.956155,-1.763191,-4.366557,0.0,-42.913227,-43.395538,6.252708,-51.37579,11.300926,-52.842693,2.837448,-52.551556,-59.7155,0.0,35.054474,11.443031,62.075219,19.824476,70.94616,25.011572,68.980335,29.405546,60.209369,0.0,63.514938,25.45332,83.3004,15.65815,78.382874,5.028305,63.335953,-5.919971,40.332813,0.0,8.886008,33.426857,68.655281,49.402306,93.894589,60.114397,103.14406,67.074162,102.763986,14.520922,298.267751,-51.942129,271.426576
26,-5.327454,21.563738,1.196365,-12.407387,0.0,-54.961796,-41.468582,-45.777454,-38.751469,-30.801258,-31.104755,-21.962357,-20.309315,-30.304413,0.0,26.342911,5.864622,26.442761,3.034539,26.917252,-0.164441,19.262177,-3.843407,17.692296,0.0,60.196838,21.798649,78.38047,10.21265,72.109337,-2.367439,53.290787,-14.507389,19.024429,0.0,13.089358,27.58922,70.615486,43.726578,90.507455,55.917345,101.888427,63.293246,102.66784,8.870687,319.937159,-51.068544,259.124859
27,-3.17791,-22.085158,-9.722958,-22.832339,0.0,-50.898457,-25.318966,-73.135014,-19.923191,-75.822144,-11.272659,-63.658218,0.022888,-42.331581,0.0,-5.181909,16.162306,34.348975,28.209194,51.360041,38.424564,59.88839,46.664972,64.053888,0.0,55.789519,24.240761,65.640307,16.03838,63.158255,6.812639,51.812868,-2.663355,32.626534,0.0,9.058137,22.050208,48.711164,38.423268,66.288357,51.653386,78.036188,61.620644,81.784839,5.53565,297.97263,-60.94863,236.41315
28,12.149734,-22.977946,-9.722957,-22.832338,0.0,-63.01775,-40.387573,-92.776794,-32.179012,-89.516888,-21.480675,-77.535095,-10.37487,-55.515404,0.0,25.376579,30.485314,64.154788,47.018987,79.597887,58.751071,88.091717,66.584913,90.844057,0.0,51.382198,26.682873,52.900143,21.864109,54.207172,15.992718,50.334949,9.180679,46.228638,0.0,5.026916,16.511196,26.806842,33.119957,42.069259,47.389427,54.183949,59.948041,60.901838,17.501392,275.242473,-70.855579,213.828601
29,5.371742,-3.400163,-24.936504,-13.567739,0.0,-64.248505,-37.150955,-95.737438,-29.966354,-97.682762,-20.66185,-81.101933,-10.886078,-59.757099,0.0,30.50353,32.393525,64.665649,49.152463,81.912724,60.892575,90.100767,68.599459,92.403749,0.0,54.611778,31.296272,36.538982,32.33305,36.59935,31.490707,33.218422,28.424892,35.827045,0.0,-14.972746,3.811915,-4.1148,1.91309,-2.93228,-1.002394,-5.857212,-3.75918,-6.683803,22.254181,272.27126,-96.411037,200.689812
30,-1.117172,-1.20296,-22.120686,-51.159167,0.0,-64.416561,-36.075096,-95.118771,-28.627739,-97.222309,-19.152031,-81.816959,-9.24099,-59.585094,0.0,30.96919,32.186846,64.562526,50.21031,81.070819,62.855744,89.919777,70.657415,92.884105,0.0,23.15237,11.871872,15.446606,21.830235,26.610718,30.404549,31.621513,36.961155,40.261745,0.0,-37.406331,-10.658306,-13.678272,3.66569,3.726576,17.79653,16.586222,30.261963,28.567593,20.502348,271.716664,-119.166384,150.179009
31,-0.019455,0.476343,16.815948,-18.371983,0.0,-63.845272,-36.463394,-95.056343,-29.469795,-98.664894,-20.228691,-84.595871,-9.97673,-60.785065,0.0,28.769826,31.09337,62.650301,48.222626,78.6494,60.521826,87.90801,68.498991,91.793346,0.0,18.502464,-11.741524,-5.520058,-24.866982,-14.933624,-36.069546,-24.326878,-44.459152,-35.771942,0.0,-31.833048,-21.006163,-33.070341,-22.362665,-35.66886,-22.002197,-44.439641,-20.16469,-46.006434,20.521059,272.509554,-102.312269,132.123574
32,-0.213318,0.125353,-54.90778,-37.511214,0.0,-64.217205,-35.579967,-94.232883,-29.047279,-98.50193,-20.288086,-83.691044,-10.538063,-60.391273,0.0,28.499174,30.931708,61.61734,48.284994,77.547896,60.713129,86.508993,68.796875,90.403468,0.0,2.051411,7.032509,8.190708,21.941185,19.767208,36.122475,37.229748,49.254913,55.383511,0.0,-56.41777,-42.127551,-71.435285,-35.591733,-68.342515,-25.592952,-58.047178,-13.220084,-44.91407,19.546652,272.935215,-157.981138,94.912668
33,-0.478363,-1.101133,6.741943,-31.888561,0.0,-64.032269,-35.251236,-94.298286,-28.393021,-97.71698,-19.299889,-82.590122,-9.435539,-59.423046,0.0,28.629467,30.953753,61.939862,48.773933,77.948533,61.523356,87.321443,69.712448,90.95459,0.0,9.854679,-15.447178,-13.045864,-8.921413,-11.27243,0.035305,0.365753,10.519066,12.940578,0.0,-57.839203,-45.907634,-83.356696,-42.633905,-86.473949,-36.182839,-80.256671,-27.62627,-63.709629,18.486614,271.824696,-151.820869,63.014721
34,-0.142479,-1.322323,-28.747501,-16.859499,0.0,-64.400597,-34.902077,-93.840065,-27.948647,-96.485825,-18.939629,-81.167679,-9.306107,-58.638611,0.0,29.641865,31.74669,63.114787,49.866977,78.588823,62.579226,87.845457,70.532864,91.367021,0.0,2.032642,-3.081322,8.367348,11.750736,22.162971,27.666035,34.018364,42.823334,55.221748,0.0,-72.491279,-21.623049,-44.356649,-16.528486,-38.861356,-12.650714,-30.377189,-11.692718,-73.515131,15.942421,270.457604,-182.970085,46.110453
35,0.319405,-0.189636,-6.177692,-30.830869,0.0,-64.917412,-35.542202,-94.283752,-28.536873,-96.640892,-19.477615,-81.827202,-9.754143,-59.425278,0.0,29.462418,31.894767,63.297692,49.85401,78.437843,62.432384,87.768948,70.383922,91.314101,0.0,17.890263,-4.870434,6.871605,11.241817,23.012638,28.592834,36.017075,45.775108,54.000549,0.0,-70.752233,-24.613807,-40.574683,-15.011649,-35.373971,-7.997543,-26.884462,-3.879871,-67.131034,11.625767,269.782008,-193.783836,14.793623
36,0.514641,0.189018,-1.1273,-12.105613,0.0,-64.827347,-35.365162,-93.870964,-29.098892,-97.176647,-20.590324,-82.665138,-10.978775,-60.636578,0.0,28.588897,32.247609,62.074787,50.006657,77.335784,62.437262,87.12236,70.339771,91.271431,0.0,-0.334167,-5.349827,8.018532,10.109825,20.436058,27.341938,32.251568,43.349075,53.363285,0.0,-75.303732,-27.185619,-47.387143,-21.27064,-40.797108,-16.112041,-35.080594,-13.295234,-76.940334,8.91386,270.236769,-198.137684,2.953754
37,0.850525,0.021304,-2.920074,-11.354172,0.0,-64.411869,-34.999409,-93.511391,-28.562164,-97.360725,-20.023956,-83.603783,-10.275192,-61.086502,0.0,28.132747,32.280398,61.06597,49.527968,76.875681,61.489702,86.820709,69.081668,91.313669,0.0,0.768814,-5.969524,9.428272,9.234295,20.828762,26.298294,33.499718,43.055248,51.365032,0.0,-74.726952,-29.109144,-51.730728,-23.802376,-45.42209,-19.132439,-38.916129,-16.466118,-81.453209,6.147938,270.225746,-204.674206,-8.432744
38,-0.444717,0.227921,-1.428337,-8.380642,0.0,-63.85437,-34.913921,-93.314724,-28.210716,-96.936779,-19.481277,-82.427788,-9.600334,-59.996567,0.0,27.933416,31.834684,61.81914,49.58626,77.272366,61.945296,87.37955,69.615438,91.084451,0.0,-0.198269,-7.047272,8.986931,7.68528,21.430492,24.779205,34.002914,42.054691,49.918842,0.0,-73.952664,-30.334921,-49.178368,-25.257987,-42.605129,-20.092195,-35.496607,-16.88741,-82.472368,3.518772,270.608043,-208.286991,-16.659011
39,0.093384,-0.044893,-1.782703,-3.16934,0.0,-63.384018,-34.633999,-93.210068,-28.168831,-96.72472,-19.37645,-82.767448,-9.387817,-60.091038,0.0,28.01857,31.652335,61.351628,48.992159,76.72254,61.336067,86.522948,69.32904,90.445767,0.0,0.033474,-10.627728,6.114407,6.220722,19.939728,24.778061,32.617321,42.569847,46.130161,0.0,-72.610241,-30.904013,-44.174855,-25.435489,-40.661658,-20.47162,-34.82714,-17.433901,-83.501068,3.360128,271.003462,-210.321722,-19.388039
40,0.360146,0.131467,-5.884895,5.618083,0.0,-62.831841,-34.848175,-93.790455,-27.994194,-97.195129,-18.965149,-82.540798,-8.891487,-60.012589,0.0,28.302437,31.858705,61.423505,49.408604,76.834988,61.669087,86.792674,69.281122,90.092431,0.0,0.205536,-11.97155,7.226601,5.889187,23.017673,25.128593,38.489799,43.691368,49.315281,0.0,-70.464383,-31.856173,-49.332589,-26.084115,-43.211487,-21.176655,-36.658441,-18.445373,-84.438409,4.114723,271.822998,-215.812168,-13.081887
41,0.763779,-0.283373,-3.951416,12.030895,0.0,-62.552319,-35.065212,-94.635086,-28.059654,-97.522373,-18.949127,-83.00972,-9.067955,-60.626221,0.0,28.818609,31.846725,62.115789,49.405393,77.392409,61.678288,87.041405,69.323236,90.325539,0.0,4.414501,-11.252918,5.915394,6.142788,21.151199,24.780293,36.46225,41.775055,47.220154,0.0,-72.252829,-28.924109,-47.80192,-23.736426,-43.613575,-20.133629,-36.041739,-19.241367,-84.944762,4.742661,271.558181,-219.899426,-1.032436
42,0.839996,-0.127329,-4.575348,12.27839,0.0,-63.402386,-35.713348,-94.849663,-28.802605,-98.025169,-19.734535,-83.063736,-9.843864,-60.687447,0.0,28.763342,32.216054,62.589168,49.720011,77.390309,62.023781,87.041281,69.736346,90.353512,0.0,2.374878,-9.587517,4.539528,6.799507,18.726139,24.0378,32.336884,40.260258,43.413734,0.0,-68.520635,-21.732749,-39.749327,-16.480073,-37.726939,-13.720015,-33.654067,-14.012589,-77.386141,5.247145,270.894658,-224.810286,10.70976
43,1.370659,0.078238,-5.139484,15.573485,0.0,-63.59127,-35.875397,-94.534435,-29.196281,-97.141171,-20.309601,-82.940369,-10.366173,-60.702038,0.0,28.663677,32.378458,61.848966,49.790777,76.915572,61.985125,86.713263,69.611733,90.460463,0.0,-10.286236,-4.458218,2.334766,9.974155,19.890518,25.278568,30.691509,41.340466,42.225838,0.0,-54.548647,-16.84755,-30.568615,-12.178447,-28.753801,-9.963151,-25.756591,-11.976554,-66.670006,5.634928,270.017107,-230.932646,25.327456
44,0.648308,0.176915,-3.469076,47.793244,0.0,-64.374332,-36.014214,-95.758381,-29.195595,-98.999977,-20.189209,-84.646339,-10.12207,-61.575909,0.0,28.063524,31.632143,62.887114,48.971226,77.263783,61.23245,86.9079,69.060735,90.316338,0.0,-13.138075,-10.35387,0.56777,5.415974,16.337414,22.389536,29.674101,39.27741,39.722786,0.0,-64.671839,-20.971675,-39.048876,-15.685808,-36.154341,-13.127767,-31.167717,-14.629846,-76.426462,5.811996,270.057708,-234.872961,72.984386
45,0.036049,0.522347,-3.469076,47.793245,0.0,-63.661537,-35.441322,-93.894653,-28.416939,-95.51239,-19.282722,-82.492218,-9.255409,-60.580273,0.0,27.989486,31.392983,61.620119,48.262949,77.115088,60.157807,86.647314,67.635906,89.011119,0.0,-15.989914,-16.249523,-1.199226,0.857792,12.784309,19.500504,28.656693,37.214355,37.219734,0.0,-74.795032,-25.0958,-47.529138,-19.19317,-43.554881,-16.292383,-36.578845,-17.283138,-86.18292,4.210482,270.418531,-239.979601,120.616107
46,1.316071,-0.768237,2.102222,32.055565,0.0,-65.50993,-35.748253,-92.173233,-28.788757,-92.630138,-19.80938,-81.82394,-9.989891,-60.838108,0.0,28.274711,31.690867,62.292272,48.582692,77.93254,60.623096,87.585735,68.300834,90.430823,0.0,-24.140282,-18.869476,-2.830353,-2.666531,8.512573,15.329647,24.500484,32.695484,30.306301,0.0,-66.850409,-14.167459,-39.163315,-9.120659,-34.676561,-7.633524,-30.993149,-10.734136,-77.275207,5.771742,269.684535,-237.632189,152.705913
47,0.093384,-0.034642,-1.503639,9.084659,0.0,-65.021496,-35.556679,-90.557957,-28.501282,-91.123238,-19.495697,-80.463009,-9.494591,-59.911079,0.0,27.642695,31.705687,61.473276,48.704711,78.500149,60.726343,88.323837,68.333685,91.043696,0.0,-28.194122,-16.686859,-8.051033,0.325298,9.060402,17.76701,22.518139,33.934593,33.664341,0.0,-51.931664,-9.895257,-26.884092,-2.75555,-23.937979,-0.526978,-20.128658,-3.425542,-61.493901,6.207247,269.373236,-238.793707,161.513914
48,0.141792,0.487087,1.229153,8.784428,0.0,-64.68996,-35.324707,-88.965054,-28.404579,-90.170116,-19.428864,-79.446774,-9.531212,-59.421673,0.0,27.229585,31.29832,59.637869,48.544839,77.717401,60.739002,87.497123,68.476884,90.699561,0.0,-28.165569,-21.800022,-7.922459,-4.358997,7.027359,13.049583,20.483437,29.558716,28.051758,0.0,-48.289687,-5.768662,-28.359679,1.058711,-21.643334,3.64241,-17.668831,1.852821,-56.481033,6.967535,269.670703,-236.946058,170.108723
49,1.515312,-0.366242,0.130463,8.396018,0.0,-66.075039,-36.776619,-89.215565,-30.394135,-89.128933,-21.782913,-79.532833,-11.936188,-59.455147,0.0,27.382603,31.835734,59.179619,49.37458,76.956266,61.697615,87.103896,69.351023,90.766807,0.0,-31.680737,-26.143513,-11.165142,-9.608173,5.214787,8.96616,16.681881,27.475834,27.017612,0.0,-56.559549,-6.142684,-32.22297,-1.164181,-23.035435,0.407182,-20.552884,-1.768161,-64.147933,8.608761,269.221391,-236.689682,178.421671
50,0.103569,0.119425,-0.207596,-0.272566,0.0,-64.872894,-36.244583,-88.567028,-29.961433,-88.229256,-21.621895,-78.58532,-12.113914,-59.114799,0.0,26.495126,31.818197,58.681293,49.303134,76.62516,61.54114,87.123718,69.079877,90.712837,0.0,-33.748913,-28.667107,-10.785313,-13.76627,6.326752,5.474453,19.007721,25.417271,25.283375,0.0,-57.64333,-6.162506,-40.307026,-0.998998,-27.247369,0.22403,-24.128912,-2.524666,-68.101257,9.133329,269.291648,-236.476278,178.099936
51,-0.210114,0.074347,-4.770355,-3.491862,0.0,-65.231552,-36.221352,-88.982906,-29.405022,-88.913498,-20.471992,-79.191856,-10.509109,-58.994923,0.0,27.325484,31.633131,59.41921,49.015686,76.660666,61.182802,87.376771,68.632557,90.496217,0.0,-28.895359,-22.70319,-14.298019,-7.108212,5.748997,11.79348,17.075272,30.41851,26.847439,0.0,-62.601209,-10.028884,-55.234509,-5.37809,-37.901971,-5.071376,-34.680513,-8.005941,-73.189182,9.20743,269.340616,-240.96242,174.582694
52,0.015907,-0.175309,-2.965508,-3.891264,0.0,-64.857388,-36.160698,-88.774853,-29.203377,-89.354839,-20.073624,-79.260979,-9.778862,-58.537731,0.0,27.909334,31.869326,60.830516,49.018156,77.979964,61.103885,87.969637,68.629717,90.614778,0.0,-27.189846,-20.540943,-9.332714,-4.977493,6.970081,12.625351,19.619694,29.909191,24.349194,0.0,-64.914225,-12.923867,-53.395643,-7.829026,-36.683388,-6.514483,-33.632979,-9.511601,-72.424465,9.125404,269.14286,-244.02586,170.668984
53,-0.514755,-0.155117,-1.09314,-4.892547,0.0,-65.111618,-36.222382,-89.91394,-29.215622,-90.219154,-20.071106,-79.738026,-9.799004,-59.034233,0.0,28.086249,32.201543,61.06702,49.400577,77.899256,61.500817,88.089062,69.115631,90.873141,0.0,-27.32626,-20.897884,-8.307896,-5.115566,7.681675,12.390804,21.171169,29.504528,23.503704,0.0,-65.987262,-12.891448,-56.114514,-8.452952,-37.744878,-7.322981,-34.632657,-10.565928,-73.365356,8.489285,268.97388,-245.240364,165.762574
54,-0.084801,0.00951,0.491982,-1.73778,0.0,-65.388794,-36.724548,-90.828209,-29.903412,-91.323452,-20.789337,-80.812397,-10.509224,-59.770546,0.0,28.232535,31.37557,62.035267,48.236149,78.018435,60.4292,87.854164,68.457186,90.583594,0.0,-27.187443,-22.799549,-5.12146,-6.426487,8.824825,11.507435,22.41251,28.857651,25.166245,0.0,-67.746068,-16.397328,-44.18878,-10.873939,-35.164945,-9.307393,-33.302182,-12.692056,-75.158958,8.236914,268.91179,-244.915953,163.953195
55,0.026321,-0.41206,0.580502,-1.47954,0.0,-64.875069,-35.986862,-90.675488,-29.394379,-91.53019,-20.586891,-81.456356,-10.335617,-59.472713,0.0,28.332324,31.925457,62.572804,48.732684,78.92456,60.788155,88.251095,68.569201,91.352757,0.0,-25.306778,-24.751854,-5.483608,-7.395229,9.144344,11.678352,23.064938,29.811115,27.188587,0.0,-66.907745,-14.444348,-41.818429,-9.257684,-33.341456,-7.994641,-30.7346,-11.497494,-74.391586,8.17111,268.377742,-244.427576,162.351667
56,0.032158,0.286892,-1.477032,-1.663988,0.0,-65.102806,-36.068459,-91.412601,-29.192963,-91.748657,-20.107384,-81.344833,-9.685822,-59.216137,0.0,28.053583,32.270827,62.846297,49.059467,78.614882,60.9647,88.352428,68.420444,90.872462,0.0,-27.086906,-21.836872,-6.342487,-4.839935,10.157146,14.09729,25.251961,32.376022,31.605206,0.0,-64.772971,-11.496506,-39.436715,-6.071362,-31.677344,-4.678273,-29.488353,-7.747948,-71.779976,8.136921,268.570017,-245.970955,160.593061
57,-0.062141,0.041435,1.872597,1.214198,0.0,-65.275497,-36.845055,-92.664528,-29.42379,-92.879677,-19.727097,-81.36343,-8.789062,-59.066505,0.0,28.75482,32.695979,64.522141,49.519076,78.918076,61.37392,88.495071,68.778412,91.124959,0.0,-27.196255,-23.47435,-6.047974,-6.74675,9.976559,11.991405,24.009476,30.399342,31.199913,0.0,-65.796793,-11.011519,-38.257653,-5.181848,-31.306039,-2.95346,-28.240192,-5.193086,-70.865915,8.034267,268.539373,-244.13887,161.735182
58,-0.055847,0.702287,0.254116,1.513564,0.0,-64.879875,-36.849861,-93.192558,-29.716988,-94.79805,-20.2565,-82.346764,-9.596443,-59.81266,0.0,28.527023,31.697166,62.777568,48.647098,77.776929,60.700902,87.808901,68.294227,90.323563,0.0,-25.621204,-25.005398,-7.141514,-7.54097,10.139179,12.093544,23.917923,30.770016,31.610756,0.0,-67.003458,-11.904368,-39.080045,-5.565997,-31.029829,-3.256223,-27.274848,-5.401556,-71.641377,7.897024,269.212113,-243.96615,163.219198
59,0.134583,0.350063,0.492153,0.937371,0.0,-65.077801,-36.680031,-94.724922,-29.688492,-96.619263,-20.375862,-83.043709,-9.853134,-59.74926,0.0,28.443475,31.740391,63.287009,48.722557,77.460458,60.838791,87.541398,68.453851,90.442494,0.0,-26.969833,-24.950581,-6.650505,-8.005714,10.469627,11.374512,23.752155,30.330563,31.307945,0.0,-68.068189,-12.7698,-39.780109,-6.159357,-31.777812,-3.538422,-28.127621,-5.579273,-71.761698,7.930384,269.561173,-243.57522,164.155566
60,0.471954,0.034024,0.107918,0.315977,0.0,-65.183487,-36.757851,-95.467758,-29.814491,-97.69043,-20.574646,-83.551025,-10.20916,-60.135555,0.0,27.974172,31.455042,63.680359,48.396515,77.612302,60.662246,87.31039,68.553764,90.428971,0.0,-26.952896,-24.969578,-6.578236,-7.908955,10.914688,11.515961,24.427299,30.324955,31.368656,0.0,-67.935024,-13.043601,-39.459007,-6.651569,-31.847651,-4.510559,-28.793414,-6.99416,-73.063242,8.357134,269.585564,-243.512506,164.46191
61,-0.012589,0.767743,0.39093,0.965097,0.0,-64.151001,-36.425629,-94.254627,-29.908447,-96.898842,-21.140785,-83.266697,-10.971794,-60.241699,0.0,27.339439,31.907364,62.060646,48.901139,76.960773,60.890785,87.249133,68.403031,90.94928,0.0,-27.616024,-24.709167,-5.796833,-8.067741,11.120052,11.070156,24.839573,30.100021,31.42622,0.0,-68.267921,-14.154306,-41.091935,-7.916712,-33.082413,-5.421933,-30.036821,-7.492795,-73.042957,8.342371,270.332405,-243.123751,165.406105
62,0.148659,-0.280347,0.662613,-0.755208,0.0,-64.248676,-36.034584,-93.894081,-29.49749,-96.766262,-20.665627,-83.079185,-10.548019,-59.738445,0.0,27.650661,32.113055,61.837727,49.295971,76.971703,61.344094,87.218011,68.742473,91.041411,0.0,-28.7673,-24.912758,-6.694965,-7.92366,10.366802,11.501484,24.590263,30.758858,33.029423,0.0,-67.834155,-13.617201,-40.032669,-7.120378,-32.189934,-4.581572,-28.657563,-6.672441,-72.408101,8.480101,270.018234,-242.472067,164.617073
63,-0.419998,-0.266515,0.099964,-0.509997,0.0,-63.547096,-35.497971,-93.326569,-29.016037,-96.869717,-20.245285,-83.026371,-10.171051,-59.935226,0.0,27.807878,31.745455,62.150061,48.95974,76.88729,61.180641,87.038688,68.900492,91.382644,0.0,-26.960907,-24.490414,-5.810909,-7.367592,11.462975,12.113571,25.523586,31.218967,33.22094,0.0,-68.471852,-13.808874,-40.231505,-6.960383,-32.49881,-4.273129,-28.939639,-6.336333,-72.070048,8.035412,269.731342,-242.396793,164.086699
64,0.64373,0.013956,0.8741,0.783119,0.0,-63.483524,-35.987549,-94.012413,-29.610901,-98.004913,-20.863152,-83.696308,-10.775642,-60.265331,0.0,27.626332,31.830361,62.181368,49.090404,77.110827,61.308526,87.296681,69.031403,91.574008,0.0,-27.143784,-24.395142,-5.062294,-7.41354,10.849285,11.680241,24.588604,30.669594,32.903538,0.0,-68.872643,-14.458365,-40.961148,-7.701882,-32.925937,-4.826536,-29.529665,-6.667871,-71.353373,8.617115,269.686511,-241.584721,164.811031
65,-0.162048,-0.042361,0.533066,0.743043,0.0,-63.462009,-35.323563,-93.155193,-28.944168,-96.800194,-20.271263,-82.568893,-10.353699,-59.051914,0.0,27.880373,32.361662,62.01705,49.650234,77.268476,61.663467,87.213935,68.995032,91.162627,0.0,-27.145157,-23.974113,-5.781269,-6.602726,10.539837,12.772293,24.510269,31.696186,33.117027,0.0,-68.19839,-14.269841,-40.899397,-7.97698,-33.500957,-5.436877,-30.368606,-7.419806,-72.496929,8.373442,269.660946,-241.13328,165.57087
66,0.308418,-0.073853,0.81665,0.356547,0.0,-63.704967,-35.554276,-93.832512,-29.007683,-97.578335,-20.06321,-83.207016,-9.886551,-59.697647,0.0,27.957376,31.965101,62.501359,49.382669,77.745374,61.589737,87.454515,69.095932,91.486138,0.0,-26.259499,-23.787575,-5.350113,-6.752014,10.504818,12.308578,24.455051,31.022472,33.589897,0.0,-69.476778,-14.523203,-40.831348,-8.306418,-33.436243,-5.920321,-29.877566,-8.001865,-72.882035,8.634911,269.577969,-240.363579,165.918293
67,0.198212,0.046869,0.602703,0.008645,0.0,-63.587952,-35.117455,-93.323135,-28.549232,-97.513103,-19.618149,-82.932529,-9.43119,-59.059868,0.0,27.440833,32.123799,62.032797,49.480482,77.361842,61.552255,87.423146,68.757849,91.415866,0.0,-27.033405,-23.257198,-4.669418,-6.10199,11.087723,13.19458,24.994125,32.185192,34.575462,0.0,-68.824323,-14.282932,-40.668266,-7.786912,-32.935014,-5.118677,-30.040217,-7.04671,-72.376855,8.784285,269.608134,-239.809713,165.910235
68,0.490723,0.321473,0.939388,0.597003,0.0,-63.585434,-35.328255,-93.533192,-28.772736,-97.423668,-19.957008,-83.157291,-9.886665,-59.58086,0.0,26.662222,31.547853,61.353048,48.784925,76.845979,60.959019,86.945383,68.567102,91.133172,0.0,-27.6614,-23.351784,-4.013329,-6.716022,11.511841,12.128792,25.256138,31.136227,34.152946,0.0,-68.978082,-15.146759,-40.729645,-8.916204,-33.158921,-6.312312,-29.331507,-8.244421,-73.11116,9.223881,269.868999,-238.921452,166.44663
69,0.335999,0.238357,-0.854759,-0.934901,0.0,-63.725109,-35.821953,-93.871708,-29.377556,-97.792854,-20.569496,-83.42577,-10.421906,-60.160675,0.0,26.225523,31.463132,61.796972,48.682913,76.773052,60.973962,86.952175,68.605696,91.027209,0.0,-24.145947,-22.249546,-3.988209,-5.127125,12.65871,14.020557,26.926117,33.122063,35.93708,0.0,-69.704421,-15.122244,-40.172225,-8.740956,-33.082598,-6.011279,-29.621981,-7.698547,-71.394313,9.551983,270.015054,-239.784107,165.419427
70,0.02964,0.149868,0.480137,0.330488,0.0,-63.742561,-35.980682,-93.886242,-29.567986,-97.597847,-20.690002,-83.400078,-10.545387,-60.126114,0.0,27.331844,31.478014,60.985818,48.83519,76.054463,61.166871,86.177949,68.770508,90.892901,0.0,-24.187145,-22.666798,-3.539143,-5.367908,12.610359,13.814907,26.958218,32.945137,35.734234,0.0,-68.86832,-15.98008,-41.328254,-9.690677,-34.462287,-7.084934,-30.462528,-9.035938,-72.967374,9.557905,270.064933,-239.327688,165.649926
71,0.798569,0.561558,0.336342,-1.058279,0.0,-63.361416,-35.641937,-92.528172,-29.366455,-95.828705,-20.68222,-81.909542,-10.765457,-59.250813,0.0,27.072369,31.143759,59.878819,48.682481,75.426893,60.990141,85.939901,68.412911,91.253894,0.0,-25.62006,-21.678257,-3.77964,-4.470749,12.077122,14.597797,26.402435,33.218365,35.53997,0.0,-69.277972,-15.309471,-41.1309,-9.615527,-33.503365,-7.428636,-30.173104,-9.599596,-73.05611,10.421047,270.589703,-238.926773,164.55486
72,-0.770302,0.823318,0.699177,-1.999108,0.0,-63.059349,-35.18795,-93.035202,-28.637238,-95.402699,-20.045929,-81.271591,-10.327263,-59.158058,0.0,25.97315,30.94449,59.664421,48.395218,74.846378,60.80032,85.411873,68.318927,90.265517,0.0,-26.607399,-21.103249,-2.516727,-4.457016,11.843204,14.028568,25.475864,32.15744,34.581299,0.0,-67.077713,-15.014057,-42.10069,-9.243296,-33.822924,-6.899435,-29.652363,-9.08293,-74.181264,9.777632,271.401937,-238.10071,162.544668
73,1.215134,0.633806,0.853615,-1.384568,0.0,-63.654442,-34.067574,-93.378067,-27.409172,-95.854912,-18.822784,-81.656342,-9.48349,-59.559803,0.0,25.179657,30.202374,58.537723,47.477175,73.907648,59.87215,84.63919,67.654678,89.350253,0.0,-24.110985,-21.257114,-2.018108,-4.452667,11.351337,14.078808,25.061245,32.10537,34.050236,0.0,-69.635538,-15.660769,-42.980263,-9.536425,-33.093713,-7.244003,-29.105933,-9.782192,-74.862711,11.350765,272.138126,-236.889095,161.262482
74,0.454788,0.336354,0.307503,-2.6155,0.0,-63.738327,-34.536438,-93.73209,-27.849312,-96.108341,-19.187393,-82.049847,-9.721642,-59.58086,0.0,23.873944,29.960374,58.578108,47.211586,73.457549,59.630706,85.163389,67.310666,89.211005,0.0,-22.506123,-20.908585,-2.091923,-4.336452,12.639141,14.0415,25.9972,32.417564,36.879444,0.0,-70.131209,-16.321251,-41.040868,-9.919401,-32.106941,-7.090676,-28.109899,-8.872176,-73.054875,12.550564,272.522167,-235.836582,158.694669
75,-0.119362,0.014079,0.057564,-3.49285,0.0,-63.537884,-34.594231,-93.386421,-27.799644,-95.282421,-18.899002,-81.250477,-9.190979,-58.897991,0.0,24.463475,29.329037,58.014389,46.901908,72.894015,59.715242,84.660124,67.788553,89.441458,0.0,-18.404045,-18.858776,-2.321663,-1.542206,14.040928,17.369843,27.958832,36.023884,40.018559,0.0,-70.300806,-14.761992,-38.408942,-7.84082,-30.120863,-4.868217,-26.3644,-6.233766,-70.21485,13.233318,272.583393,-234.976902,155.248965
76,0.053101,0.283126,3.334637,-1.209814,0.0,-63.388081,-33.792114,-92.813702,-27.346916,-94.921246,-18.740158,-81.399937,-8.924217,-58.280468,0.0,23.549446,29.353429,57.728608,46.755683,72.721299,59.419087,86.018756,67.275777,91.827,0.0,-17.634373,-17.970829,0.122051,-1.737671,14.777241,16.476002,26.579475,35.558796,41.622105,0.0,-70.074059,-15.533995,-38.489279,-8.234664,-30.651423,-4.142588,-25.679279,-3.651425,-65.660325,13.707619,272.82425,-231.221066,153.996882
77,-0.12291,-0.354509,2.938271,-0.519753,0.0,-64.428234,-33.08773,-93.183403,-26.573868,-94.652824,-17.96299,-81.365376,-8.266182,-58.151836,0.0,24.037953,29.196336,58.539205,46.819471,72.600206,59.649478,85.876792,67.595644,91.66577,0.0,-16.348915,-14.274044,5.185375,0.480194,19.78466,18.394203,30.937843,37.899685,53.717079,0.0,-71.369058,-16.893986,-37.808172,-8.117277,-29.018927,-1.826083,-22.296407,1.733087,-56.14718,14.155283,272.491431,-227.712221,153.498819
78,0.248108,-0.129305,7.182198,-1.819229,0.0,-64.733047,-33.601799,-93.63905,-27.007828,-94.386292,-18.568954,-81.507111,-9.302216,-59.203377,0.0,24.02585,29.635752,58.020193,47.296123,71.714644,60.145642,84.185386,68.249149,91.763273,0.0,-12.387314,-8.84222,19.693909,4.997005,30.054245,22.120972,41.142826,41.457882,61.745052,0.0,-63.275308,-15.212584,-47.78429,-3.62512,-48.027927,6.515842,-45.384206,13.846974,-44.737,14.853773,272.482384,-220.079641,151.799849
79,-0.626335,0.462449,4.181671,4.791091,0.0,-63.893738,-33.602371,-93.700218,-27.188759,-94.739571,-18.87886,-81.715851,-9.880028,-60.229511,0.0,23.413533,29.017321,57.247263,47.222516,71.253924,60.362633,83.841128,68.618972,89.990296,0.0,-1.821957,-3.432312,34.049778,12.183208,49.925537,28.81834,59.675159,44.918861,72.790089,0.0,-67.797908,-13.338521,-76.863517,-3.030463,-75.274709,5.923038,-63.747081,12.436286,-41.917538,15.072069,272.96799,-215.053339,156.614096
80,-0.614662,-0.874386,9.601707,6.883195,0.0,-63.153019,-33.925438,-93.125381,-27.868195,-94.821739,-19.561043,-82.172699,-10.170708,-60.045547,0.0,24.598956,29.353552,55.88789,47.256417,70.263015,60.199118,82.683184,68.397782,89.121035,0.0,4.819336,1.44001,40.723286,16.490192,59.91766,30.754795,67.327366,42.941895,76.890965,0.0,-65.540807,-14.001906,-78.916347,-4.133943,-77.909322,5.110341,-63.643309,13.020321,-36.865243,16.005106,272.124,-203.903933,163.527688
81,0.684128,-0.78176,13.168888,4.015938,0.0,-63.927269,-33.912392,-93.356552,-27.800446,-94.923248,-19.565277,-81.992855,-10.639343,-60.902596,0.0,24.042461,28.420689,54.059028,46.278414,67.961268,59.442737,81.114291,67.966888,88.015888,0.0,11.350708,5.482864,45.86277,18.473568,64.048576,30.632973,66.674824,39.964542,69.640331,0.0,-56.276948,-9.348765,-67.908688,1.801136,-68.195982,10.598532,-53.795045,17.218855,-30.137042,18.354807,271.341468,-189.069471,167.542854
82,0.222359,-1.606437,7.050076,2.008556,0.0,-63.509388,-33.730087,-92.977524,-28.0513,-94.339027,-20.236359,-81.98885,-11.323128,-60.759544,0.0,23.723026,28.882458,53.825858,46.533628,67.503327,59.35357,80.642518,67.57255,87.845457,0.0,17.84008,16.595535,55.077381,27.196999,70.43644,34.808521,69.563541,38.769779,64.787464,0.0,-40.721556,-9.422248,-53.484378,1.936678,-50.53345,11.102354,-37.205796,17.799803,-15.996012,20.442581,269.77466,-180.15398,169.591038
83,0.021515,-1.360609,13.514729,13.144378,0.0,-63.859005,-33.993187,-93.577023,-28.00312,-93.750973,-19.991684,-81.422424,-11.065636,-61.00462,0.0,24.115141,29.069377,54.515857,46.9891,67.783551,59.785823,80.991346,67.819119,87.778149,0.0,22.617016,42.544613,54.752026,60.57312,63.6343,72.560234,73.183136,79.503937,77.917328,0.0,-39.583064,-12.787955,-40.676725,-2.19603,-37.99262,6.565057,-28.102612,14.959531,-12.730712,22.328196,268.174012,-164.775152,182.495377
84,-0.659294,-0.676908,9.902687,3.617463,0.0,-63.548985,-33.510933,-93.515282,-27.843018,-95.507641,-20.26577,-84.259701,-11.916275,-63.863583,0.0,23.294478,28.310032,52.077148,46.068524,65.110808,59.013634,77.822192,67.47733,86.194621,0.0,28.314285,22.936649,70.890827,36.317768,86.351223,47.983418,96.140213,57.571507,92.035446,0.0,-28.869306,4.892053,-34.438946,16.42598,-30.245908,23.767054,-19.289532,28.027462,-4.135919,23.137379,267.271051,-153.403988,185.886787
85,0.306587,-1.076865,13.208084,25.797253,0.0,-63.650723,-34.627991,-93.845272,-28.958244,-95.349655,-20.963287,-83.126793,-11.868095,-62.561989,0.0,22.153516,28.793291,52.961167,46.33541,65.561524,59.25409,78.981432,67.583912,86.252605,0.0,41.972552,31.373148,76.738558,39.081917,87.863331,45.302525,90.262242,50.311918,86.443148,0.0,-23.387289,15.154107,-28.581579,18.440834,-28.820739,16.692001,-24.349824,12.380495,-17.581485,24.338293,266.485339,-139.301577,211.975193
86,-0.626678,-0.615219,13.208084,25.797254,0.0,-62.778511,-35.201569,-93.33847,-29.781075,-95.274696,-21.970139,-82.969151,-12.794952,-62.706299,0.0,22.992519,28.695602,52.456049,46.357887,65.689841,59.151275,78.955868,67.351668,86.0337,0.0,55.630817,39.809647,82.586288,41.846066,89.375439,42.621632,84.38427,43.05233,80.850849,0.0,-17.905273,25.416161,-22.724213,20.455688,-27.39557,9.616947,-29.410116,-3.266473,-31.02705,24.509611,265.981548,-125.295496,237.883875
87,0.910034,-0.918599,7.049904,-10.702273,0.0,-45.876789,-38.648872,-96.019707,-33.96595,-98.047371,-25.903702,-84.992924,-15.95295,-64.509144,0.0,0.137765,27.595209,53.355999,44.729467,67.964603,57.922442,79.54015,66.968692,86.909506,0.0,56.065063,37.010536,99.578762,40.015869,105.321922,40.621777,101.066895,39.765873,88.378315,0.0,2.024117,27.682586,8.163096,40.771698,16.498537,48.052997,31.805846,51.888068,43.114323,26.236925,265.492593,-117.428312,227.611247
88,-4.856873,3.89429,52.264595,29.424442,0.0,-70.288525,-29.623718,-92.891293,-24.936104,-93.447132,-18.701019,-82.915363,-11.817741,-62.220383,0.0,2.123411,21.889163,36.672088,39.874464,59.231366,53.986471,73.481879,63.208339,81.954221,0.0,14.083557,32.650509,15.086002,47.577381,4.495239,56.378975,7.848244,60.046921,21.149139,0.0,-8.100234,9.785403,32.477506,32.052478,56.637478,52.563618,77.479847,69.278837,92.099566,21.76569,269.822207,-64.77808,257.471013
89,-4.951744,-1.068591,-4.718285,7.608762,0.0,-63.304539,-29.061699,-73.917103,-23.778419,-82.976303,-16.320534,-76.46965,-6.222382,-56.307049,0.0,25.674648,24.576787,30.488093,37.78446,48.858284,49.815045,67.810412,59.191228,79.769985,0.0,38.354187,16.068592,68.934631,24.729195,54.122429,30.751133,38.256741,33.582973,33.392029,0.0,-0.832149,16.088823,9.466153,37.149604,27.571621,53.733665,51.494842,65.675206,70.626046,17.07859,269.295446,-69.23172,265.621605
90,1.267204,6.213635,-7.535419,-8.447518,0.0,-57.36866,-19.885826,-75.927372,-13.487549,-74.568729,-8.070488,-71.365814,-2.236748,-55.899181,0.0,26.971221,24.89579,33.653666,36.109665,32.896791,45.504928,50.637499,52.240169,69.906715,0.0,60.304127,41.576385,88.140163,39.286079,82.898426,36.059189,73.886318,30.898762,62.497616,0.0,17.112274,37.997869,25.01114,56.857618,32.983859,69.36961,54.597738,77.168193,71.98332,18.441839,275.979835,-76.671095,257.644841
91,5.909042,-3.925412,0.731678,-0.729211,0.0,-46.394978,-11.963539,-60.049725,-10.67585,-82.010078,-10.406227,-80.96386,-9.416199,-66.711617,0.0,14.943291,21.511065,21.704714,37.805887,45.354257,50.687517,69.898626,59.240505,81.091259,0.0,69.022636,29.285774,100.972481,25.51466,105.200157,22.637844,95.790367,19.851952,75.656204,0.0,20.022756,36.545685,37.372152,56.259257,49.560325,67.717848,62.191495,73.197518,69.479835,24.445438,272.60993,-75.84486,257.471137
92,-4.727211,3.051335,5.522575,3.974442,0.0,-36.608963,-11.802864,-43.578529,-8.684006,-54.251575,-6.274109,-56.259441,-3.533936,-54.573097,0.0,11.625256,20.919866,21.44635,36.409587,36.491035,48.027494,51.332315,55.404013,66.315805,0.0,68.947906,33.02536,102.157974,26.372108,104.560318,19.920158,92.492638,14.003506,69.518852,0.0,16.932766,32.043894,41.059887,51.498176,56.240484,63.71179,67.728531,69.555849,72.862028,19.925079,276.186267,-70.115433,261.970581
93,2.040367,46.874985,5.671978,2.729986,0.0,-70.03252,-50.139999,-23.891716,-49.995975,-0.25589,-44.367886,0.663528,-36.236343,-34.875984,0.0,30.435852,2.777966,13.078799,-14.703946,3.607583,-33.407776,-11.746534,-51.925119,-34.905161,0.0,66.779308,34.695568,102.569675,27.158833,102.030773,19.374504,89.193821,11.672916,67.280216,0.0,19.015051,31.195135,46.495775,50.274654,60.867381,62.099796,73.377335,68.376108,78.540843,22.18915,323.377892,-64.219751,265.017207
94,2.052727,2.074814,6.466885,3.280985,0.0,-63.245773,-45.091152,-6.869888,-42.658081,8.19912,-36.517868,10.162239,-28.605309,-20.779381,0.0,29.437903,-3.751832,17.71008,-16.81933,8.269183,-30.486672,-3.543671,-43.219793,-19.898206,0.0,66.678429,32.499962,97.499199,24.798717,97.695122,16.839066,84.101486,9.069328,62.880135,0.0,18.363276,32.106077,50.288918,50.766866,64.125518,62.2714,75.503278,68.251372,77.761121,24.460688,325.64404,-57.534056,268.489525
95,1.553993,-33.696891,3.451195,1.936555,0.0,-27.558403,-39.134331,7.033424,-43.733711,13.488922,-43.375854,5.9095,-40.85598,-9.420433,0.0,-0.971025,11.74252,30.087332,25.396833,42.816809,36.342773,48.892,44.379465,54.283614,0.0,67.372284,32.43536,96.027832,24.094105,95.23819,15.156441,81.528282,6.792355,61.754036,0.0,18.9328,31.284796,53.826414,49.889949,66.973756,62.207427,77.033762,69.188249,80.716619,26.55304,292.243936,-53.544502,270.722868
96,-42.879238,-10.055005,3.332005,1.510539,0.0,-7.647285,-3.91634,49.012699,-7.08601,54.794941,-11.498566,40.836353,-16.511993,-23.376102,0.0,27.873271,21.427022,41.81423,35.599421,53.876246,44.236204,57.253068,50.322201,71.193347,0.0,66.013241,32.158184,92.558842,23.584728,92.432957,13.863373,78.907871,4.390755,59.070568,0.0,18.057488,32.449965,56.254502,50.622061,68.570992,62.797328,77.657874,69.670335,78.510091,-15.867949,282.469201,-49.754248,272.513676
97,2.975636,1.297191,0.577126,1.768964,0.0,-11.047211,-7.575645,47.370987,-11.403809,53.349495,-16.302452,40.286522,-20.916653,-21.261635,0.0,31.529884,21.560465,43.114632,34.092341,54.267559,41.678255,56.419314,47.580977,70.334275,0.0,66.941929,31.835861,92.822056,23.190765,91.302166,13.691483,77.877102,4.783916,59.397984,0.0,16.371825,30.698229,55.49633,48.66303,66.954675,60.595803,76.388471,67.364636,79.18138,-12.542639,283.965692,-48.827448,274.48194
98,-12.119694,1.14936,1.679878,-0.756196,0.0,0.098648,4.239006,59.531536,1.57671,66.903019,-3.453655,56.480656,-9.279785,-3.28989,0.0,32.178942,21.105426,43.517924,31.998199,52.31075,37.810951,53.181554,42.334724,67.008583,0.0,66.117382,30.962391,90.746784,22.181225,89.017467,12.547874,76.695271,3.370113,58.04678,0.0,18.104109,30.706195,55.677197,48.86835,67.380259,61.064674,76.352347,68.132873,79.098573,-24.368505,285.223702,-46.853743,273.834394
99,-4.344406,6.690225,0.469494,0.066629,0.0,2.684326,6.810379,62.881107,4.50222,74.092541,0.602932,66.992626,-3.742447,26.832561,0.0,34.366821,18.469239,42.540168,23.628054,46.892275,24.231047,44.172478,24.463661,47.894114,0.0,66.016502,30.730133,91.256561,21.917038,89.118004,12.291412,76.829109,3.156452,56.899452,0.0,19.032712,30.374534,55.265939,48.4595,67.194699,60.742584,76.322027,67.948054,78.18232,-28.383207,291.920102,-46.054544,273.907198
100,11.054192,-9.653257,0.306702,0.207728,0.0,9.328251,3.211498,52.976475,-1.804676,61.854572,-8.326893,48.61742,-14.929848,-3.2658,0.0,21.816235,23.032224,42.445566,36.884941,55.955939,44.812459,57.580901,50.630027,67.752923,0.0,65.05909,29.957943,90.876503,21.200237,88.387756,11.618214,76.377068,2.464657,56.670799,0.0,20.204611,29.767774,54.578349,47.828288,66.836917,60.169601,75.415284,67.428239,77.827935,-17.010498,282.267524,-45.429325,274.115605
101,-4.593143,-4.028165,-0.123138,0.497276,0.0,21.327896,6.265984,59.280853,1.866817,59.832458,-5.219421,40.942726,-12.001991,-27.059841,0.0,10.583341,22.745888,43.110062,42.000284,59.140346,54.119173,61.68403,62.964116,76.532287,0.0,64.1502,29.987411,89.523926,21.401768,88.159218,11.682186,75.743752,2.2439,55.442047,0.0,19.315899,29.314588,53.384651,46.915431,66.663584,59.021106,74.760977,66.405837,76.862158,-21.316824,278.241042,-45.265646,274.614564
102,-1.380558,-0.801891,-0.182991,0.202109,0.0,24.669514,5.920715,59.472485,0.505486,62.144794,-7.043266,45.053043,-14.325771,-22.54549,0.0,10.846954,20.7369,45.032167,40.198839,60.404068,52.566952,63.491835,61.488096,77.426742,0.0,64.233513,29.886646,88.684387,21.200294,88.409958,11.406841,75.634689,2.068634,55.523758,0.0,19.283172,28.955262,53.616709,46.84343,66.852725,59.148435,74.267529,66.635178,76.42583,-22.361069,277.438982,-45.112324,274.816504
103,4.691277,1.133244,-0.414906,-0.247063,0.0,17.98605,-1.056004,53.682461,-6.318455,59.752064,-12.793465,44.455891,-19.575577,-17.4753,0.0,15.446989,17.895331,44.293509,35.8061,57.289068,47.785062,62.475856,56.862805,75.996417,0.0,63.971386,29.432831,89.925556,20.547066,88.706875,10.959778,75.371418,1.939888,53.524418,0.0,19.941555,29.110626,53.124929,47.089073,66.805609,59.076804,74.158478,65.933385,75.462338,-17.138186,278.563889,-44.995623,274.561104
104,-8.314419,-1.77094,-0.323238,0.619048,0.0,28.866234,9.168949,62.635231,2.204647,65.620537,-7.330914,48.955765,-16.542778,-13.013134,0.0,10.006222,20.116061,45.221864,38.445498,60.94037,50.662014,65.703179,60.302365,77.138862,0.0,63.469048,30.337543,89.73793,21.123219,87.563782,10.888424,73.759804,1.125126,51.760483,0.0,19.558825,28.558886,52.784623,46.274832,66.088008,58.29912,73.310336,65.43086,74.497611,-25.082102,276.770611,-44.948359,275.157813
105,0.107574,0.178335,-0.465546,0.052364,0.0,22.179337,6.807804,61.524925,-0.61409,64.808006,-9.587402,47.87693,-18.233871,-4.464569,0.0,15.641997,19.059944,46.314662,36.61997,60.957845,48.462711,65.93567,57.801905,74.482668,0.0,62.878876,29.270554,90.013046,20.270634,88.892212,10.590248,74.857178,1.541634,53.400879,0.0,19.346157,28.476635,52.554664,46.382278,66.617518,58.505428,73.414818,65.60302,74.488349,-24.575529,276.907095,-45.014906,275.168326
106,-1.506157,2.583761,0.186996,0.049647,0.0,14.741135,4.00629,60.082283,0.301781,68.797073,-4.962158,56.486092,-11.065121,15.264702,0.0,22.238793,21.295988,47.040723,33.608156,58.943362,40.74533,60.284334,46.36505,64.84701,0.0,62.437592,28.740578,89.718132,19.836788,88.607597,10.211105,74.237137,1.167412,52.450676,0.0,19.488368,28.660651,52.796788,46.648175,66.795544,58.805411,73.283722,65.892691,74.094381,-25.772753,279.467081,-44.518976,275.1942
107,2.960529,-2.711708,-0.936356,0.051685,0.0,28.843403,4.30069,61.977596,-3.402958,65.913677,-12.763996,48.270664,-21.559067,-13.97707,0.0,8.649565,17.643636,44.58954,35.77152,60.483664,48.175942,66.296107,57.683592,76.059897,0.0,62.733192,28.736401,90.247536,19.935722,88.60611,10.382996,73.848953,1.300049,51.81118,0.0,19.610325,27.768975,51.789021,45.59249,65.717876,57.829508,72.813307,65.205656,73.745059,-22.436028,276.701188,-45.079136,275.191699
108,-4.97057,-0.556433,-0.027637,-0.841041,0.0,36.102333,8.55257,67.082405,1.019211,70.857697,-8.373528,55.372353,-17.296886,2.855587,0.0,8.526929,18.003394,44.603805,35.678524,61.249431,47.86472,66.673711,57.472405,73.357143,0.0,62.751102,28.288822,89.489307,19.561329,88.666248,10.142326,74.152622,1.265831,52.86478,0.0,19.447304,28.755006,53.132586,46.425071,67.171172,58.508083,73.76766,65.611233,75.095911,-26.97999,276.088624,-44.680166,274.294527
109,10.77713,0.501105,-1.271038,0.428239,0.0,19.836617,-2.849064,55.891342,-10.707493,59.181061,-18.775864,41.188431,-25.39547,-35.192013,0.0,6.103966,18.678697,44.418677,36.107751,58.288437,48.362552,65.939869,57.534897,79.255789,0.0,63.898773,30.11713,91.278305,21.816101,90.725327,12.579174,76.713867,3.706398,55.797958,0.0,20.207946,28.203389,51.372391,46.064634,64.370173,58.482765,72.429713,66.077696,74.835139,-15.841684,276.557618,-45.590029,274.690656
110,1.121178,0.301651,0.132923,-0.542416,0.0,14.865761,-3.098087,54.55925,-10.30117,57.304916,-18.044701,39.591866,-24.881458,-32.418194,0.0,11.038071,19.490715,44.720389,36.017533,57.660188,47.466677,65.731276,56.172497,78.995697,0.0,63.190556,30.02306,90.825748,21.540356,90.055904,12.235909,75.830669,3.335037,54.984226,0.0,20.391777,28.702765,52.145815,46.5566,65.752394,58.855985,73.182266,66.302714,75.360944,-14.418583,276.824179,-45.155182,274.113151
111,-7.252979,0.390386,-0.766697,0.499623,0.0,27.010517,3.972473,62.312679,-4.297714,66.224842,-13.609543,47.957096,-21.813984,-13.928318,0.0,10.446132,15.909685,43.715772,32.885491,58.339134,44.965724,65.035843,54.78688,74.115747,0.0,63.845673,29.575882,91.1063,21.291733,90.517044,12.149734,75.588341,3.334236,54.567375,0.0,20.077652,27.953671,51.374429,45.811581,64.529057,58.189389,72.294418,65.64359,74.168729,-21.282663,277.205658,-45.53298,274.603866
112,-2.552948,-0.462819,-0.307732,-0.601387,0.0,31.976566,5.987549,64.896183,-2.279034,68.29073,-11.517048,50.310802,-19.465542,-10.019703,0.0,7.206891,16.477171,43.802469,33.792666,58.856973,46.083962,65.78753,56.002622,74.689223,0.0,63.985291,30.442829,91.209068,21.972828,89.95079,12.391548,75.343552,3.132362,54.491158,0.0,19.786623,28.147382,52.078877,46.005415,66.091836,58.370133,73.28119,65.838783,75.394289,-23.479528,276.699304,-45.484629,273.958945
113,-3.551731,-0.332588,-0.39814,-0.054279,0.0,45.178642,9.4697,68.609734,0.505085,70.410118,-9.580479,54.394684,-17.606449,0.581703,0.0,-1.360609,15.594449,41.195861,34.737509,59.568152,48.316548,66.563177,58.74082,73.263962,0.0,64.387321,30.719776,91.229897,22.22002,89.895973,12.713985,75.453072,3.642139,55.575829,0.0,19.592418,28.66275,52.60357,46.344116,66.400527,58.602376,73.157874,66.062196,75.176001,-26.438971,276.288664,-45.29048,273.826614
114,0.596066,-0.070334,0.093899,-0.21131,0.0,38.63863,9.789848,65.940342,1.507759,69.37151,-7.914104,56.623363,-16.107388,12.788944,0.0,0.82091,17.237442,41.326525,35.003098,58.82443,47.680395,65.428884,57.627646,70.286665,0.0,64.245129,30.486202,90.852985,21.706123,88.742008,11.972637,74.344425,2.596836,54.225712,0.0,19.789649,28.308118,52.475562,46.034068,65.444816,58.373652,72.931806,65.893309,75.489138,-25.361023,276.165148,-44.714699,273.562121
115,0.245361,0.621024,-0.295658,0.116276,0.0,35.948582,9.862232,65.627689,1.495686,69.323902,-7.971783,55.964069,-16.522751,19.773273,0.0,1.409762,16.149523,42.218448,33.205852,58.642329,45.721302,65.333974,55.631811,68.253533,0.0,63.368683,30.951004,91.412201,22.368965,89.485016,12.611561,75.122452,3.072567,54.653091,0.0,19.882645,27.820969,51.510959,45.466581,64.74648,57.972337,72.645963,65.86972,74.926591,-24.724159,276.738995,-44.618855,273.63122
116,-0.71806,-1.859367,-0.225792,-0.355744,0.0,38.637772,10.01667,66.751671,0.711021,69.683075,-9.525833,55.06588,-18.350773,15.415192,0.0,2.519046,15.260873,42.366834,33.423028,59.332204,46.992743,67.656901,58.04335,72.1322,0.0,63.52478,30.722466,91.179199,22.286053,89.539146,12.701969,75.594177,3.43111,55.709152,0.0,19.777545,28.612486,51.427843,46.197336,64.880787,58.609786,72.77354,66.529338,75.34316,-24.969778,274.78444,-44.372206,273.180287
117,-1.467361,0.128564,-0.279007,-0.158452,0.0,40.451317,10.767288,66.534004,1.589699,69.973297,-8.693962,55.961952,-17.554207,14.43615,0.0,4.99777,15.369122,41.94477,33.855775,59.296204,47.499837,67.256573,58.4974,71.815853,0.0,63.201141,30.487118,90.781975,21.854954,88.958015,12.193222,74.97036,2.789154,54.808159,0.0,20.484526,27.983681,51.713932,45.76323,64.414942,58.371368,72.551918,66.336306,75.320621,-25.890083,274.908126,-44.104156,273.016958
118,-1.14275,-0.876362,-0.271969,-0.565696,0.0,47.427464,12.44751,67.3736,2.451439,69.013767,-9.087067,54.072018,-18.530731,4.350014,0.0,0.728037,16.383187,41.011227,35.770099,60.116867,49.670426,69.213382,60.356026,75.729038,0.0,63.421154,30.445919,90.610142,21.890488,89.338131,12.409515,75.552921,3.230038,55.595684,0.0,20.587958,29.089261,52.396954,46.863746,64.737156,59.332328,72.950949,67.001852,75.953995,-26.449957,274.007033,-43.793249,272.426531
119,-2.531948,0.072001,-0.369358,0.316903,0.0,46.128502,14.368343,66.995659,4.452152,72.576828,-6.546078,60.00824,-16.086617,18.657589,0.0,7.49261,15.859667,39.646543,35.032367,58.676785,49.009202,66.830495,60.000652,71.095411,0.0,63.403931,31.198769,91.469078,22.620106,89.410515,13.004951,74.682884,3.635616,54.177589,0.0,20.647115,28.652253,51.647489,46.450204,63.985159,58.946388,72.167583,66.788566,74.82884,-28.535786,274.094626,-43.716488,272.759026
120,0.948601,0.592186,-0.226936,-0.083116,0.0,47.263527,12.572193,69.049988,3.251095,72.402534,-7.436428,58.559647,-16.195335,4.964218,0.0,2.31527,16.484766,38.457477,36.305537,58.236628,50.344802,66.540577,61.216518,74.026579,0.0,63.184662,31.077576,90.959816,22.577076,89.706573,12.98172,75.57003,3.604431,55.0597,0.0,20.257223,28.879556,51.689047,46.642124,64.388451,59.052289,72.604282,66.790975,75.277581,-27.058725,274.706032,-43.414965,272.69513
