takenoko1/special-research/HandMotion_SimilarSearch_自分用/NewProject/handData/test_key/d4_feature_d2/47.csv
frame,vel_0x_L,vel_0y_L,vel_0x_R,vel_0y_R,posFromWrist_0x_L,posFromWrist_1x_L,posFromWrist_2x_L,posFromWrist_3x_L,posFromWrist_4x_L,posFromWrist_5x_L,posFromWrist_6x_L,posFromWrist_7x_L,posFromWrist_8x_L,posFromWrist_9x_L,posFromWrist_0y_L,posFromWrist_1y_L,posFromWrist_2y_L,posFromWrist_3y_L,posFromWrist_4y_L,posFromWrist_5y_L,posFromWrist_6y_L,posFromWrist_7y_L,posFromWrist_8y_L,posFromWrist_9y_L,posFromWrist_0x_R,posFromWrist_1x_R,posFromWrist_2x_R,posFromWrist_3x_R,posFromWrist_4x_R,posFromWrist_5x_R,posFromWrist_6x_R,posFromWrist_7x_R,posFromWrist_8x_R,posFromWrist_9x_R,posFromWrist_0y_R,posFromWrist_1y_R,posFromWrist_2y_R,posFromWrist_3y_R,posFromWrist_4y_R,posFromWrist_5y_R,posFromWrist_6y_R,posFromWrist_7y_R,posFromWrist_8y_R,posFromWrist_9y_R,posFromBody_0x_L,posFromBody_0y_L,posFromBody_0x_R,posFromBody_0y_R
2,5.012455,-6.43606,-1.41758,-0.647947,0.0,42.751236,4.741974,65.063896,-3.154449,64.341202,-12.639484,48.738098,-20.085926,-18.135738,0.0,8.316237,19.261621,44.190447,39.028977,59.967554,52.492173,69.211344,62.752065,78.882323,0.0,61.5909,30.336514,89.601345,21.924934,86.418743,12.331238,71.609974,2.882538,51.526852,0.0,21.50773,28.044567,52.453146,45.221309,65.157676,57.1907,72.727536,64.880602,75.704894,-19.416161,270.888313,-39.949093,271.69218
3,-2.642441,0.299119,0.753365,0.599411,0.0,47.476273,9.49276,65.894737,0.31002,67.001266,-9.872932,53.756561,-18.068447,9.756832,0.0,7.288339,17.295302,41.629287,37.538816,59.84393,51.797604,69.06623,62.608496,72.936252,0.0,61.378498,30.228939,89.481754,21.779823,86.720524,12.213535,71.369305,2.769356,50.967579,0.0,20.10754,28.636507,51.970196,46.065684,64.721904,58.151289,71.844875,65.801116,74.172248,-22.310314,271.101491,-39.447441,272.20565
4,0.24868,0.882969,-0.556927,-0.751009,0.0,51.788864,10.054951,66.431007,0.812817,65.721245,-9.99939,50.041695,-18.300877,-15.071583,0.0,5.677271,18.673695,40.832583,39.105116,58.531857,52.946409,68.262981,63.250576,76.918721,0.0,61.853027,30.018139,89.741936,21.593285,87.316017,12.067852,71.952209,2.755508,51.407661,0.0,21.278698,28.585439,52.681067,45.938416,65.586533,57.955726,72.681902,65.544172,75.147905,-22.21384,271.85094,-40.156574,271.321121
5,-0.060425,-0.936445,-0.149632,-0.206308,0.0,53.525848,11.564827,68.782997,2.076073,66.769753,-9.258327,50.356636,-17.793045,-5.457687,0.0,8.408368,18.656775,40.636032,39.094124,58.552914,53.318702,69.001392,64.095878,77.060871,0.0,62.322407,29.558372,90.342579,20.976334,87.384968,11.498394,72.511539,2.356167,51.579838,0.0,20.871083,28.474103,52.751463,45.89692,65.349844,57.892431,73.075129,65.27247,75.529028,-22.460232,270.908366,-40.492172,271.108685
6,-1.503124,-0.337095,0.610943,0.371305,0.0,55.419674,13.261242,73.356686,2.663498,71.107235,-9.286766,53.788891,-18.555908,8.436756,0.0,10.289656,17.660556,41.64843,38.085493,58.558533,53.05441,69.2839,64.473235,74.279262,0.0,62.177353,29.169502,89.822388,20.563145,87.21611,11.069813,72.248039,1.971645,51.45504,0.0,19.769827,27.781387,52.57146,45.157582,65.037139,57.276409,72.723645,64.778035,75.553235,-24.263334,270.592328,-40.181208,271.501047
7,9.163799,2.622787,-0.162563,0.149065,0.0,33.991699,3.890877,62.043457,-6.177349,63.586807,-16.306057,46.395149,-24.738235,-1.844959,0.0,15.298912,17.234108,43.510884,35.124622,58.71328,48.266777,66.696002,58.769905,72.954962,0.0,62.632999,29.458122,90.127544,21.086826,87.86768,11.705246,72.826595,2.62888,51.932888,0.0,19.879372,28.189804,51.943273,45.516723,65.108461,57.507665,72.431937,64.938462,75.36292,-15.413218,273.125793,-40.657454,271.56079
8,-4.755821,-1.798666,0.435619,-0.273493,0.0,40.653763,9.820919,67.290916,0.005608,67.01889,-11.45731,49.296112,-20.970497,-0.532436,0.0,11.311749,18.697284,43.188485,38.342375,59.864801,52.34039,68.784587,63.122753,74.666622,0.0,62.432899,28.847179,89.951477,20.504894,88.072929,11.292915,72.931366,2.374306,51.883621,0.0,20.074256,27.896057,52.29877,45.408598,65.358303,57.537058,72.872587,65.05869,75.637277,-20.375633,271.219465,-40.428429,271.179636
9,-2.407837,-0.614231,-0.108376,0.268491,0.0,46.917915,11.423206,71.266365,1.30188,70.341225,-10.231361,51.979294,-19.521961,-1.018581,0.0,11.235734,18.128562,43.25956,38.243821,59.741301,52.833035,69.347997,63.858509,76.197477,0.0,62.291451,28.988972,90.15564,20.572758,88.074532,11.343842,72.728119,2.480049,52.055054,0.0,20.23314,28.043517,52.057141,45.52969,64.879985,57.688408,72.182156,65.373679,74.547382,-23.00663,270.5148,-40.759964,271.357693
10,2.853928,0.250027,0.388184,-0.168085,0.0,43.533325,7.986202,68.43235,-2.21941,67.633781,-12.917919,49.9403,-21.554489,-2.226849,0.0,11.171885,17.781896,43.653898,37.390368,59.286571,51.971925,68.638856,63.371607,75.212866,0.0,61.876717,28.714828,90.160217,20.265484,87.992821,11.073074,72.676277,2.26244,51.830406,0.0,20.065488,27.923722,51.716649,45.548586,64.764635,57.881378,72.231433,65.679776,74.636303,-20.319271,270.681742,-40.538349,271.106523
11,0.236721,4.973502,0.39093,-0.075706,0.0,13.038311,5.399609,59.295101,-1.815834,66.642551,-9.547462,54.333744,-16.63456,17.987423,0.0,28.997623,18.085275,46.340473,31.464737,56.043501,41.12528,61.233438,49.074226,66.622272,0.0,61.321335,28.65778,89.939003,20.293522,87.622375,11.131039,72.941093,2.324581,52.210464,0.0,20.583882,28.126325,52.109876,45.731676,64.323799,58.047055,72.521598,65.713121,75.218115,-20.246143,275.608221,-40.311012,270.983794
12,4.197178,-2.782227,0.199528,0.231935,0.0,29.514313,2.977352,60.939102,-6.865482,63.098373,-16.766224,46.085129,-24.853935,-11.903973,0.0,17.299069,16.777155,43.842237,35.26387,57.130678,49.113128,65.910846,59.750316,76.111458,0.0,61.59605,28.558445,89.769917,20.175076,87.063389,10.972481,72.599087,2.151775,52.469387,0.0,20.410981,28.165845,52.248938,45.742173,64.244696,57.951527,72.057359,65.464576,74.861445,-16.207123,272.808457,-40.269642,271.198192
13,2.257404,12.504829,-0.536041,0.73483,0.0,-3.535995,-4.565964,49.447117,-8.992424,60.050526,-13.820858,51.048031,-17.642155,11.162624,0.0,30.780357,16.26827,43.952338,22.347165,47.047207,24.926233,48.112216,27.053967,50.335354,0.0,61.733265,28.194008,89.41515,19.949398,87.265606,10.812607,72.213879,2.048378,51.641979,0.0,19.663986,27.828996,50.638178,45.095585,63.00481,57.16248,70.378056,64.917591,73.788223,-13.980904,285.308516,-40.836868,271.928252
14,-4.776936,-4.63301,0.296173,0.328759,0.0,10.810375,4.509945,57.97966,-2.225018,66.106224,-9.496822,55.359192,-16.096687,18.086128,0.0,26.922809,18.247,43.819821,28.532704,50.344185,34.666249,54.211489,39.936153,59.244766,0.0,61.82436,28.762207,89.871426,20.37077,87.296619,11.078968,72.283802,2.239208,51.640148,0.0,18.920573,27.677523,50.333687,45.076874,62.808814,57.231393,70.312662,64.906537,73.083342,-18.813372,280.684722,-40.596228,272.266227
15,-2.12883,31.985478,-0.179501,-0.159687,0.0,-29.587841,-3.383446,48.34877,-1.151104,69.031563,0.846634,70.73719,1.71175,51.681976,0.0,37.008936,11.367448,31.693708,-5.376547,22.39706,-22.567491,9.761135,-38.679161,-10.283975,0.0,61.846962,28.216324,89.098206,20.149155,87.040672,11.195698,72.788544,2.713337,52.932587,0.0,19.421987,27.778114,50.319237,45.072614,62.778371,57.092517,70.731515,64.607789,73.706095,-20.999393,312.668163,-40.83292,272.104503
16,-4.080791,-4.889459,0.09264,-0.248113,0.0,-21.869087,3.524551,53.715649,5.227261,73.476849,5.344105,73.278179,4.324951,50.478115,0.0,38.600738,13.673579,34.972469,0.680984,27.484738,-13.373719,16.120316,-25.995812,0.147707,0.0,61.80582,28.546772,89.830227,20.336666,87.608356,11.162453,73.054104,2.46397,52.919254,0.0,19.20092,28.002947,50.340418,45.377846,63.018951,57.44011,71.075959,64.967547,73.950997,-25.14081,307.775956,-40.800905,271.853642
17,-1.985035,-2.749252,0.204334,0.080152,0.0,-14.390945,7.600021,58.185768,8.16885,76.194992,6.129971,74.118118,2.864628,46.265144,0.0,40.125418,14.653558,36.981889,3.460184,29.701825,-9.473501,18.436697,-21.190642,4.370694,0.0,61.358986,28.019485,89.982491,19.929371,87.902298,10.967789,73.033333,2.533951,53.165016,0.0,19.076061,28.261373,50.338504,45.551735,63.299174,57.590719,70.886756,65.085428,73.794645,-27.156687,305.01474,-40.627413,271.921829
18,2.102795,-11.420306,0.506058,-0.103247,0.0,-1.704369,8.81012,61.180973,6.300488,75.205364,1.346855,68.766804,-4.17017,33.635845,0.0,36.199759,20.700714,41.957244,18.012163,39.886258,12.12741,33.61853,7.094567,27.948607,0.0,60.998611,28.113613,89.754066,19.823742,86.770248,10.71167,72.192764,2.088547,52.332687,0.0,19.953287,28.310711,50.563831,45.715744,63.506779,57.697238,71.284799,65.086169,74.007066,-25.10396,293.581713,-40.171423,271.805862
19,-5.041981,8.389843,-0.036564,-0.056934,0.0,-6.768265,11.051044,63.515854,11.064606,80.615501,8.381424,78.302078,4.694309,51.29528,0.0,38.402828,16.946721,37.805331,7.950921,32.361971,-3.326062,22.136843,-13.364642,9.201799,0.0,61.53162,27.896633,89.792461,19.674168,87.007542,10.668869,72.546902,2.24865,52.908726,0.0,19.345601,27.870678,50.536167,45.403534,63.496961,57.584235,71.165559,65.100248,73.965323,-30.220642,301.927574,-40.282688,271.704947
20,-1.408768,0.864506,0.100594,0.024453,0.0,-5.562458,10.014896,64.291306,11.093502,81.116295,9.696922,80.884781,7.323246,55.618286,0.0,39.750469,16.905102,37.45039,6.509049,31.828694,-6.015355,21.25443,-17.352916,6.378879,0.0,61.657276,28.005753,89.494228,19.747124,86.82272,10.723743,72.332096,2.369041,53.01424,0.0,19.855536,28.041603,51.183558,45.485292,64.191097,57.583247,71.352107,65.045784,74.355894,-31.719217,302.776025,-40.271902,271.713345
21,2.158527,-17.995367,-0.108547,-0.021119,0.0,9.318352,12.115803,68.15237,9.573154,77.628651,4.112549,70.560093,-1.740646,29.90427,0.0,33.669165,23.6325,45.04248,28.020917,47.920296,27.999551,45.888769,28.441314,46.791251,0.0,61.633644,28.087978,89.362793,19.94997,86.701355,10.985298,72.46067,2.557011,52.854195,0.0,19.735802,27.884819,50.880425,45.365372,64.072907,57.549655,71.517969,65.114389,74.578257,-29.595652,284.762673,-40.415411,271.674241
22,1.31916,-5.368519,-0.025177,0.301836,0.0,15.018997,12.895947,68.851032,7.741642,75.70055,0.389786,64.96336,-6.825199,26.342411,0.0,32.052292,22.125605,44.516119,33.305702,52.722687,39.603627,56.328108,45.143565,60.476686,0.0,61.473198,27.472343,89.444046,19.453583,87.043304,10.830231,72.641258,2.836304,53.409805,0.0,19.631444,27.784289,50.304541,45.467446,63.647261,57.853837,70.757512,65.551644,73.833856,-28.300753,279.381727,-40.464849,271.96365
23,1.925812,22.934041,-0.139503,-0.407306,0.0,-8.537521,7.008991,59.223461,7.170296,76.65041,5.311089,74.931965,2.469864,48.36565,0.0,39.293331,16.81402,38.027015,8.254672,32.305099,-2.797849,22.260777,-12.627156,8.750404,0.0,62.066689,27.052002,90.102882,19.062424,87.174568,10.49572,73.275833,2.551517,53.236885,0.0,19.423654,27.061686,50.163071,44.794058,63.766933,57.329515,71.712174,65.194912,74.991306,-26.405783,302.297783,-40.635195,271.538359
24,0.985451,-18.643623,0.326157,0.156537,0.0,9.876766,10.218143,64.225559,6.962185,73.56142,1.07769,65.685482,-5.226116,23.303547,0.0,31.240027,24.932038,45.291148,30.520697,49.199703,31.307768,47.490451,32.627189,49.627262,0.0,62.178955,27.698765,90.098877,19.664612,87.630157,10.888653,73.447609,2.924652,54.152641,0.0,18.407798,27.570694,50.997751,45.003206,63.632441,57.279312,71.178341,64.809713,74.111548,-25.492029,283.634231,-40.380735,271.674967
25,-3.498802,9.34506,0.667706,0.031369,0.0,2.525196,13.081512,66.130428,9.973869,80.278759,4.687443,73.678608,-1.198769,40.563869,0.0,34.229612,20.033501,41.808919,19.102675,41.005176,14.788791,35.772075,11.308291,31.819246,0.0,62.247791,29.239311,89.800701,20.779438,87.012806,11.586285,72.503185,3.064613,53.558292,0.0,19.328496,28.185111,51.89764,45.910814,63.982689,58.102383,71.385823,65.501873,74.170643,-29.017296,292.93091,-39.739494,271.657955
26,3.341618,2.18368,-0.537758,-0.17463,0.0,-6.709213,8.394241,61.346283,6.601696,76.772118,2.704411,70.290871,-1.896,32.137871,0.0,36.397545,19.184865,41.965889,16.409493,39.104807,10.721292,33.338677,6.115823,29.490762,0.0,62.599125,29.792061,90.158329,21.618061,87.601147,12.443676,72.885532,3.709774,53.535862,0.0,18.949225,28.601309,51.433956,46.087667,63.825473,58.090218,71.61115,65.423697,74.706451,-25.693159,295.095694,-40.294733,271.464429
27,6.111088,-0.633312,0.230541,0.268306,0.0,-9.842606,3.239765,55.276737,-0.787525,70.243664,-5.569096,62.501965,-10.27771,25.623264,0.0,36.758909,17.306788,41.61879,16.264256,39.960482,12.398433,36.994425,9.454729,34.290436,0.0,63.104095,29.761906,90.356941,21.518612,87.497749,12.186584,72.340851,3.21825,52.573586,0.0,18.372971,28.497506,51.306071,45.784596,63.736984,57.802091,71.008219,65.365219,74.286054,-19.604788,294.452116,-40.086908,271.722468
28,4.741688,-12.88941,-0.347557,-0.1143,0.0,-3.936539,1.167183,54.849014,-5.259533,63.255844,-12.290154,48.804131,-18.943405,-4.928055,0.0,33.361092,20.136809,42.649898,31.216933,49.425586,37.900427,55.347512,43.603757,66.521372,0.0,63.981972,29.345798,90.624733,21.057072,87.817268,11.853104,73.002319,3.076744,53.177032,0.0,18.066133,28.318986,50.389571,45.918347,63.27929,58.193588,70.887126,65.980686,74.010092,-14.916515,281.519325,-40.487881,271.564789
29,-2.953777,-8.45783,0.283241,0.106334,0.0,24.623394,10.699253,65.60503,0.040169,66.31525,-11.363468,48.497372,-21.506252,3.298645,0.0,11.539917,19.595073,43.225659,37.527454,55.216539,50.296637,66.140805,59.686404,76.71581,0.0,64.249649,28.750305,90.796394,20.198479,87.819328,10.748291,73.291168,1.873798,52.539825,0.0,15.526215,27.763911,49.222612,45.539941,61.954744,57.854578,70.745595,65.486312,73.990393,-17.961473,272.938689,-40.29582,271.548317
30,4.885311,0.339813,0.336113,-0.18346,0.0,20.957336,5.759583,58.692284,-4.329357,60.027924,-15.675144,38.53363,-26.090527,-24.846096,0.0,15.044068,15.790877,43.422272,34.672115,56.66755,48.618075,66.347977,59.617491,81.378768,0.0,64.435043,27.286777,89.794693,18.766193,88.028526,9.596272,73.099365,0.9375,50.674896,0.0,14.363084,26.65827,46.575495,45.197288,61.286605,58.084167,69.982545,65.904609,72.856347,-13.266077,273.185505,-40.149622,271.27186
31,-9.402351,-2.120571,-0.569057,-2.893995,0.0,43.250542,12.111797,68.15506,1.287632,67.947235,-10.333385,50.846786,-20.102177,-0.032501,0.0,4.649559,14.772242,36.703025,36.692712,53.030945,52.690392,65.269012,64.374187,77.041358,0.0,64.569454,26.530838,89.328289,17.910461,87.744427,8.560867,74.202061,-0.400543,52.459888,0.0,14.816332,26.092575,49.802942,44.335067,65.060543,57.546567,74.092282,65.836746,78.254198,-22.758322,271.03145,-40.808573,268.344381
32,35.225601,51.939383,-2.163391,-4.205759,0.0,-52.400608,-44.006653,6.85318,-44.152107,23.094063,-39.018574,25.548592,-31.680222,5.540314,0.0,31.439914,4.058114,17.182608,-14.716667,6.219316,-34.968023,-10.014991,-54.906984,-38.657734,0.0,66.572285,20.826817,85.449543,12.040272,84.324818,3.844357,71.571064,-3.229351,48.005733,0.0,13.875132,24.044314,51.73573,42.638598,67.481406,56.408384,77.528692,65.299887,80.851358,12.381706,322.953713,-43.057537,264.121502
33,-11.360435,-22.392984,1.371346,-15.586854,0.0,-33.103867,-10.788174,-16.9384,1.215935,-11.860085,15.02243,-1.63147,28.158875,7.875137,0.0,35.091092,-1.882153,13.457885,-6.318426,16.608453,-9.722541,16.361142,-12.440238,14.566058,0.0,61.100979,23.870316,64.776821,14.478722,51.627331,3.950729,33.592014,-6.474724,15.926571,0.0,24.90283,19.528012,59.573339,36.564827,77.528322,51.157376,88.989754,63.124173,85.105035,0.756941,300.50273,-41.950521,248.476649
34,41.375885,-60.546094,-15.124254,-10.335104,0.0,-59.976311,-33.834229,-64.124165,-20.823669,-57.515316,-4.602928,-41.789589,12.712784,-20.290718,0.0,19.608102,30.551757,91.511208,40.261145,107.670674,48.122714,110.779807,53.165561,105.437223,0.0,61.621456,25.303259,54.115791,20.219507,46.101637,14.08576,36.139584,7.574329,26.568432,0.0,4.942379,2.74567,25.477046,-0.994244,26.102825,-3.377779,24.116407,-4.434174,13.53711,42.075605,239.956806,-57.131996,238.141715
35,23.569221,-43.385654,-15.124254,-10.335105,0.0,-53.420792,-33.767395,-69.689598,-21.545792,-65.163345,-7.73037,-53.072205,5.653267,-35.786018,0.0,53.550698,25.012992,87.004293,37.548882,102.937258,48.855073,108.117006,58.061195,104.93513,0.0,62.141933,26.736202,43.454762,25.960293,40.575943,24.220791,38.687153,21.623383,37.210293,0.0,-15.018071,-14.036671,-8.619246,-38.553314,-25.322671,-57.912933,-40.756939,-71.992521,-58.030814,65.518312,197.532883,-72.382765,228.768341
36,16.759872,-47.985195,-36.262264,-109.189425,0.0,-58.562622,-38.696365,-55.273705,-33.464813,-51.539955,-25.735245,-44.498634,-15.857964,-39.647255,0.0,29.259506,20.230855,39.904289,39.224973,56.348856,54.881296,67.599535,66.755098,76.387791,0.0,65.570869,9.582825,50.834026,5.904579,47.370586,5.601025,43.991318,7.548752,37.189865,0.0,-12.691593,-11.788154,-4.684602,11.595616,15.618964,34.176692,30.337298,54.507706,41.543886,82.140656,150.358054,-108.782558,120.389282
37,27.734756,-50.633424,-33.595276,-46.266712,0.0,-63.365135,-40.028687,-52.882118,-39.726448,-41.072731,-35.351486,-33.291206,-28.185425,-24.869041,0.0,11.428982,-14.000115,7.894728,5.56575,24.175657,25.517123,37.669666,44.372488,49.25923,0.0,73.611946,15.268135,60.49799,17.329903,51.433811,22.269173,49.209023,28.253689,44.080067,0.0,-26.40849,-30.497355,-20.557083,-9.959508,0.033808,10.563303,15.340994,30.144544,30.232508,110.280991,101.001861,-141.972256,75.3998
38,3.75721,-43.993155,3.079777,-43.170578,0.0,-50.623398,2.808723,-29.170074,15.227394,-18.830452,22.40284,-10.937462,25.628471,-2.278976,0.0,-9.608518,-32.872739,-1.918771,-20.530098,14.334648,-4.169295,28.286413,14.128618,39.181933,0.0,48.897629,-4.540901,41.623592,-10.296936,33.445415,-10.718422,27.843246,-8.012638,20.889988,0.0,-31.927804,-34.110001,-21.873571,-17.770781,-2.013897,0.260309,14.175826,19.019034,25.59922,113.472691,57.70698,-139.457989,32.927496
39,9.962311,-33.479159,-2.270336,-28.907853,0.0,-35.395088,5.934448,-14.239426,19.692421,-4.98951,29.554024,4.887772,35.34977,12.847023,0.0,-39.273571,-47.614353,-27.60793,-41.224328,-13.574994,-30.796073,0.25293,-17.095478,11.366522,0.0,33.818894,-9.999647,22.743645,-17.713423,17.209111,-20.369024,11.252289,-19.479017,2.999182,0.0,-39.017183,-41.422346,-25.850714,-29.812389,-11.809859,-15.25828,3.475529,1.20685,15.195665,123.097401,25.060077,-142.065926,4.8519
40,10.062561,-36.673168,-2.270336,-28.907853,0.0,-17.479134,12.736702,-3.32737,24.872932,1.915054,33.299561,6.213799,37.851791,11.839371,0.0,-46.863098,-53.140429,-42.831012,-46.291968,-25.898524,-35.825119,-9.131991,-21.812808,0.908997,0.0,18.740158,-15.458393,3.863697,-25.12991,0.972805,-30.019627,-5.338669,-30.945396,-14.891624,0.0,-46.106563,-48.734691,-29.827857,-41.853997,-21.605821,-30.776868,-7.224767,-16.605334,4.79211,132.696218,-7.37601,-144.800005,-19.818872
41,12.973022,-19.393026,-10.599861,-11.433058,0.0,-18.092651,13.645477,-3.081436,23.352699,1.99894,31.022301,8.239517,35.644455,14.6315,0.0,-60.047181,-48.118021,-35.138207,-43.196173,-25.93931,-34.431289,-17.34461,-22.45387,-12.721974,0.0,25.469112,-15.010357,9.868526,-23.007774,5.156422,-28.185081,0.360317,-30.191059,-6.786747,0.0,-53.846236,-50.209044,-30.23013,-45.341506,-22.069721,-35.32349,-12.447772,-20.904398,-7.698486,145.228586,-26.779239,-155.840521,-31.262134
42,5.950127,-16.526942,-0.815048,-22.885907,0.0,-16.675186,21.637917,-2.581444,29.205093,2.071609,34.349213,8.275795,35.438232,15.805664,0.0,-61.837017,-38.931443,-43.406248,-33.453193,-37.784984,-25.260118,-26.835834,-15.183747,-19.718265,0.0,24.948807,-14.416237,6.963787,-24.77623,0.597668,-30.966797,-5.862179,-33.582802,-12.450085,0.0,-48.529494,-50.225809,-26.443719,-46.031289,-18.418048,-36.816151,-10.413188,-24.286128,-1.916795,149.007597,-43.869129,-158.826685,-54.710989
43,1.663399,-11.333671,-0.930977,-0.515276,0.0,-12.869797,31.116486,1.972389,38.858528,7.083664,41.813278,11.816254,39.800262,16.213303,0.0,-62.491448,-46.63317,-36.817911,-42.501666,-30.26715,-34.163292,-20.153575,-23.885306,-12.504489,0.0,23.140984,-22.420464,2.939529,-30.195637,-0.050926,-33.32737,-5.535393,-33.149815,-11.344643,0.0,-51.282914,-52.784623,-32.232851,-47.319526,-24.769017,-37.726075,-16.61614,-24.928147,-9.118498,148.660927,-55.656356,-161.767731,-55.679822
44,-5.531502,-0.069438,-0.488949,3.053712,0.0,-10.129967,30.676918,5.589638,41.150093,11.164513,46.281166,17.514153,46.857834,23.431664,0.0,-57.670501,-50.850106,-32.863662,-45.864995,-25.918377,-36.676256,-17.79792,-25.180768,-12.616258,0.0,23.662262,-21.958923,3.816776,-29.420071,1.204376,-31.77206,-3.81506,-30.697346,-8.414841,0.0,-52.797714,-51.525285,-33.529239,-46.739257,-26.753644,-37.625051,-18.621053,-25.366822,-10.806353,142.06604,-55.833071,-163.320065,-52.733385
45,-4.84005,14.129019,3.362274,5.885308,0.0,-5.672493,27.215424,4.583931,37.544861,9.397202,43.648338,14.624519,46.148186,21.89415,0.0,-57.243404,-49.874171,-33.359147,-44.731196,-27.72612,-37.026566,-19.741174,-26.613717,-14.182001,0.0,20.958824,-18.432884,4.669361,-27.438297,0.620155,-32.19698,-6.505966,-33.333092,-11.932812,0.0,-49.040109,-47.499745,-29.828351,-43.312665,-22.300266,-34.906582,-15.396755,-23.314763,-7.60515,137.157297,-41.603908,-160.026484,-46.747933
46,-9.732056,9.710376,3.511562,8.364834,0.0,2.360115,25.287781,2.617035,36.863022,10.108109,43.915443,14.598885,47.406693,22.272606,0.0,-43.014596,-43.425267,-29.959293,-35.573116,-19.00335,-25.081875,-7.494401,-12.756771,-1.454809,0.0,18.924923,-15.187626,4.055214,-25.994339,-1.745739,-32.672482,-7.129612,-35.682964,-10.896435,0.0,-43.675048,-44.37928,-21.337176,-38.640536,-12.690759,-28.087391,-3.841987,-14.761899,5.232298,127.662163,-31.909356,-156.278,-38.398923
47,-5.868301,40.980167,4.684811,0.59407,0.0,-7.409248,17.091179,0.866089,29.701538,6.653481,38.307724,12.957916,43.233719,21.41819,0.0,-55.271744,-57.455671,-45.74276,-52.97537,-31.743417,-44.810329,-19.466169,-33.227866,-13.345746,0.0,13.892155,-8.210506,5.532246,-21.396103,-4.820938,-32.175636,-14.03532,-40.3866,-24.363441,0.0,-24.788993,-29.768669,6.533039,-22.061662,21.001963,-10.839173,29.463314,1.572721,34.135412,122.154207,9.647529,-151.232843,-37.228135
48,-11.046982,13.522445,1.552534,32.200247,0.0,5.833855,27.638741,3.715324,39.345131,10.03212,45.481453,15.289421,47.299919,20.358124,0.0,-42.070185,-45.759186,-32.799997,-37.056546,-23.360428,-25.503877,-9.080954,-12.206976,1.676925,0.0,11.51001,-17.741546,4.08557,-28.277692,-2.793331,-34.068918,-9.119653,-35.999622,-17.378483,0.0,-38.527827,-41.913324,-16.503169,-32.795289,-4.336454,-19.849161,8.355756,-5.495046,17.264118,111.383743,21.553503,-149.403792,-6.644359
49,-1.09005,10.696777,1.552534,32.200246,0.0,0.338058,28.786011,4.721603,41.089554,10.546646,45.279465,15.488434,44.333954,18.542862,0.0,-31.414194,-40.469522,-26.375947,-29.697101,-12.829667,-16.808493,0.888465,-3.571397,11.55838,0.0,9.127865,-27.272587,2.638893,-35.159283,-0.765724,-35.9622,-4.203987,-31.612644,-10.393524,0.0,-52.26666,-54.057978,-39.539375,-43.528915,-29.674871,-28.859148,-12.7518,-12.562813,0.392825,110.508785,28.890363,-147.636166,22.195969
50,3.182945,25.260982,-3.589211,6.301907,0.0,-11.181908,31.942406,-1.388054,42.054863,8.626099,43.880653,11.258812,40.641861,14.184036,0.0,-49.560479,-58.925053,-45.799787,-49.254938,-36.56387,-35.59479,-21.350483,-20.49737,-10.263968,0.0,14.995937,-28.176098,8.967991,-34.139557,1.930962,-32.813416,-1.711121,-26.267223,-4.592514,0.0,-55.892181,-49.760365,-44.183346,-39.591246,-28.595103,-26.94402,-16.152395,-13.500184,-4.073242,113.805027,52.343555,-151.11208,26.690087
51,-0.357857,-0.123779,-3.409767,-2.203471,0.0,-8.643951,31.422501,4.078217,42.8405,9.063377,46.107216,11.282158,43.810043,16.513596,0.0,-50.852113,-56.62556,-43.765882,-48.196536,-30.975056,-34.51141,-15.885293,-18.784475,-4.125792,0.0,21.478386,-25.305004,15.048637,-29.744682,5.464382,-27.448254,2.125797,-21.375389,-1.831799,0.0,-54.006015,-49.837306,-50.018451,-39.905988,-28.343748,-26.817278,-14.146093,-12.405318,-3.411679,113.504162,51.073874,-154.464855,23.340714
52,2.603073,-6.881312,-1.477947,-6.089455,0.0,-9.657097,31.142578,3.204002,42.376556,8.259544,46.025276,11.163368,43.904114,15.267105,0.0,-47.089506,-54.393005,-39.792892,-45.853571,-28.372153,-31.933577,-15.054071,-16.016853,-3.518538,0.0,26.360435,-24.645882,9.254036,-28.206596,5.203743,-25.29705,3.053513,-19.0662,-0.12743,0.0,-53.11826,-48.870727,-45.994733,-38.12066,-29.120167,-25.068506,-14.688941,-11.02955,-3.160417,116.142941,43.372517,-155.907097,16.431213
53,1.111336,-2.70649,4.001369,-3.370492,0.0,-9.529037,29.879379,4.04583,40.772667,9.948692,44.835663,12.900696,43.363724,17.445145,0.0,-49.851571,-53.707915,-41.258136,-46.186622,-28.97175,-33.46721,-15.889029,-18.720996,-4.173124,0.0,21.297398,-25.835094,7.409363,-31.37289,2.370644,-30.045662,-0.529575,-24.657898,-5.301704,0.0,-55.306818,-50.358758,-44.641596,-40.562147,-29.768268,-28.065377,-15.698468,-14.621386,-4.612015,117.310324,40.230532,-151.84968,12.625227
54,0.033875,-1.705608,1.408024,-0.861542,0.0,-8.663521,30.808868,6.325951,41.652374,11.400146,45.446091,14.16584,43.592148,19.266357,0.0,-50.027405,-54.311525,-40.225423,-46.755004,-28.654136,-34.247828,-15.775779,-19.807155,-2.753729,0.0,20.793629,-26.028328,10.603294,-31.180859,2.83865,-29.522381,-0.09161,-23.598804,-4.573116,0.0,-54.055415,-50.094404,-48.568305,-39.802864,-30.295678,-26.926854,-15.925894,-13.2337,-4.942194,117.342939,38.323988,-150.442915,11.562749
55,-0.75325,-1.650372,1.148186,-1.316828,0.0,-9.009705,31.891251,6.706467,42.769661,11.979446,46.176338,14.697762,44.054947,19.485054,0.0,-48.794311,-53.514204,-38.831036,-45.794044,-27.246844,-32.986761,-14.506932,-18.253113,-2.570083,0.0,21.971226,-27.469196,7.081032,-32.866516,2.151375,-30.834332,-0.753536,-24.257355,-4.697914,0.0,-52.665043,-48.269556,-44.645517,-37.342697,-26.216076,-24.226169,-12.683349,-10.705329,-2.330584,116.571922,37.134521,-149.312496,10.706827
56,-0.234604,0.376029,0.376911,0.965591,0.0,-10.057526,33.018951,5.798721,43.216667,10.919838,45.612831,12.961235,42.517891,16.764336,0.0,-48.502077,-51.764351,-38.792628,-43.261135,-26.706436,-30.010885,-13.918481,-15.087447,-2.927834,0.0,22.927551,-26.731682,11.095848,-32.033443,3.31255,-29.625149,0.184536,-22.367764,-3.085041,0.0,-51.133664,-47.000431,-45.071193,-35.262388,-25.139612,-21.415259,-11.80708,-7.451762,-1.557562,116.387501,37.391619,-148.885403,11.553487
57,-0.105171,0.859041,2.052326,2.081452,0.0,-9.754257,32.254257,3.993874,42.500267,10.250702,45.224876,12.650871,42.929535,17.74086,0.0,-47.263148,-50.653245,-38.189882,-41.918279,-25.870922,-28.67473,-13.150213,-14.07261,-2.085373,0.0,22.155876,-27.610703,10.729294,-33.34837,1.568012,-31.340504,-1.63765,-24.254837,-5.136452,0.0,-51.461589,-45.790895,-44.876247,-34.204232,-25.843412,-20.672865,-12.34011,-7.285838,-1.479231,116.391706,38.190036,-146.7237,13.574315
58,-0.675316,2.076512,-3.194046,2.235643,0.0,-9.144745,31.847534,5.384102,42.13932,10.731468,44.952507,13.112984,42.834435,18.569069,0.0,-47.458341,-51.80168,-38.808467,-43.33258,-27.024172,-30.116664,-14.291948,-15.512444,-2.537633,0.0,27.103672,-25.609875,15.505772,-29.839153,4.897099,-26.442661,2.314224,-18.733749,0.156841,0.0,-53.309131,-43.91572,-47.486561,-31.796924,-25.426257,-18.142364,-11.710842,-4.76426,-1.178908,115.816555,40.073424,-149.817581,15.616834
59,-0.440941,1.19734,0.373363,0.616701,0.0,-9.694061,30.803604,4.975433,41.316605,10.164757,44.635048,13.132324,43.01548,18.792572,0.0,-49.493449,-52.236341,-39.682389,-44.040425,-27.411317,-30.980768,-14.885215,-16.270431,-3.590416,0.0,24.98703,-25.527077,8.942127,-30.401058,4.265041,-27.587528,1.660366,-20.176964,-1.535797,0.0,-52.993277,-45.777526,-43.8427,-33.602042,-25.847426,-19.672724,-12.445394,-5.782957,-1.300618,115.521441,41.00002,-149.298391,15.96279
60,-0.100365,-0.291524,0.317402,0.659278,0.0,-8.465652,30.777283,3.921661,41.263046,8.933144,44.508476,12.466621,42.909966,17.538185,0.0,-48.901973,-51.897763,-39.570467,-43.606412,-26.619306,-30.273633,-13.591358,-15.293786,-3.239241,0.0,24.623337,-26.045322,11.797886,-30.926399,3.46241,-28.124313,1.220627,-20.92907,-1.232471,0.0,-53.52217,-45.205964,-45.955768,-33.469094,-25.880709,-19.945784,-12.298274,-6.728665,-2.034738,115.436983,40.583822,-148.965082,16.497394
61,-0.361862,-1.60937,1.408997,0.315977,0.0,-8.015327,29.981117,4.174919,40.648041,9.358063,44.300766,13.216667,43.089981,18.033142,0.0,-47.375009,-50.792987,-37.221666,-43.424526,-24.954453,-30.662291,-12.710983,-16.01534,-2.467361,0.0,23.390121,-26.721382,14.021873,-32.251453,3.583202,-30.041599,0.059109,-23.23494,-3.168468,0.0,-53.917496,-46.064356,-46.276191,-34.852951,-25.824393,-21.457095,-11.954633,-7.802844,-2.058234,114.964886,38.893806,-147.666321,16.732725
62,0.184364,-0.233664,-0.425491,-1.296296,0.0,-7.779579,30.657005,4.312477,41.077881,10.043678,44.423103,13.581276,42.95517,18.120346,0.0,-47.422279,-50.760475,-36.600859,-43.410138,-24.026962,-30.642777,-11.889517,-16.084593,-2.020998,0.0,24.741726,-26.61684,14.647007,-31.799183,4.177952,-29.223289,0.95129,-22.060547,-1.938686,0.0,-53.270537,-44.819221,-46.302713,-33.429604,-25.240203,-20.048784,-11.680214,-6.584508,-1.151182,115.112829,38.608642,-148.128233,15.38493
63,0.193863,-0.858176,1.366653,0.020162,0.0,-9.240532,30.442314,4.825859,41.010246,10.305519,44.470711,13.894844,43.011475,18.989525,0.0,-46.613533,-50.689833,-37.241859,-43.15196,-25.105402,-30.295308,-12.828278,-15.591207,-1.456106,0.0,23.784943,-26.824951,17.612114,-32.802773,3.223171,-30.611401,-0.183792,-23.679771,-2.948627,0.0,-54.251812,-45.762335,-47.691109,-35.254175,-24.181091,-22.157561,-11.353091,-8.591489,-1.60054,115.171852,37.703026,-146.89642,15.357652
64,0.373993,0.098893,1.504669,0.232953,0.0,-9.364243,30.861969,5.608978,41.079712,10.899124,44.202003,14.19445,42.470284,19.287987,0.0,-46.349118,-50.121389,-37.179491,-42.399871,-24.990855,-29.614479,-12.956965,-15.195881,-1.558117,0.0,21.574688,-26.969604,14.129791,-33.420868,2.531548,-31.726913,-1.122379,-25.166073,-4.129715,0.0,-55.088592,-46.514239,-47.467943,-36.485138,-24.786214,-23.41307,-11.394217,-9.771293,-1.329888,115.290012,37.769886,-145.647583,15.558572
65,-0.03994,-0.497338,-0.471725,0.816618,0.0,-9.909439,30.046806,5.145378,40.501671,10.179405,43.911095,13.94268,42.472572,18.969727,0.0,-45.581684,-49.81097,-36.652173,-42.216472,-24.725452,-29.485451,-12.585629,-14.969813,-1.058526,0.0,21.435699,-26.53347,14.016438,-32.912521,3.742447,-31.182919,-0.053673,-24.604397,-3.583488,0.0,-54.652912,-47.021642,-46.084641,-36.746682,-24.715602,-23.596098,-11.400855,-9.920976,-0.831191,115.159464,37.15425,-146.209917,16.256892
66,-0.160561,0.344073,-0.831757,0.071816,0.0,-10.058098,30.777969,5.555191,41.026039,10.875664,43.974266,14.336357,42.053261,18.599625,0.0,-46.702022,-49.680368,-36.777372,-41.869342,-24.898878,-28.913056,-12.684584,-14.307509,-1.709498,0.0,23.527336,-25.900898,14.417496,-31.831398,4.345264,-29.658909,1.224289,-22.87056,-1.960602,0.0,-55.448968,-45.929308,-45.08237,-35.289805,-23.765819,-22.082565,-10.982218,-8.487378,-0.739152,114.992409,37.425103,-147.048168,16.255487
67,-0.465317,0.396098,0.005951,1.206171,0.0,-10.48027,31.29879,5.213356,41.36364,10.944786,43.892784,14.284058,41.628113,17.920303,0.0,-47.223689,-49.985507,-37.003934,-42.294494,-24.771301,-29.252251,-12.661706,-14.379633,-1.823551,0.0,23.945618,-25.596542,19.509716,-31.279678,3.834629,-28.942909,0.411243,-22.053509,-1.778927,0.0,-54.886977,-44.678306,-50.0216,-34.12794,-25.846777,-21.213613,-12.498808,-8.074021,-2.140578,114.573212,37.814409,-146.996098,17.454865
68,0.295372,2.58021,0.679264,0.197663,0.0,-10.655594,31.125412,6.096039,40.90313,11.157074,43.195724,13.751221,40.482101,17.64679,0.0,-47.407767,-51.539395,-37.866433,-43.92912,-26.681643,-31.267383,-14.921431,-17.121568,-3.425481,0.0,22.108498,-25.558434,18.264198,-31.051025,3.428535,-28.372879,0.105572,-21.238346,-1.948071,0.0,-54.577145,-45.334991,-48.583588,-34.556426,-25.915104,-21.525669,-11.951483,-8.337973,-1.516991,114.860287,40.341513,-146.32513,17.599423
69,-0.455589,0.70732,0.047436,-0.623587,0.0,-10.541611,31.387939,6.073837,40.937576,11.079254,43.03997,13.498077,40.395355,17.424316,0.0,-45.16916,-50.506743,-38.131343,-41.790301,-26.630452,-28.485558,-13.810788,-13.904032,-2.152928,0.0,22.949295,-25.885334,15.577297,-31.160717,3.885841,-28.357773,0.553608,-20.962543,-2.188568,0.0,-52.882127,-45.398687,-46.293419,-34.248971,-25.217633,-20.719239,-11.419133,-7.042511,-0.564769,114.360695,40.972448,-146.321697,16.899451
70,-1.160545,1.384568,-0.449524,1.297778,0.0,-11.210518,31.063156,6.78875,40.772438,11.351738,42.800674,13.286934,40.020905,15.954094,0.0,-46.70372,-50.472811,-38.525341,-42.255436,-27.038807,-29.414222,-14.494304,-15.15,-3.089003,0.0,24.90572,-25.349865,11.740608,-30.753307,3.942947,-28.111038,0.849037,-20.759583,-1.630383,0.0,-54.600424,-46.510071,-43.789903,-34.777678,-25.297538,-21.145749,-11.909709,-7.472541,-1.005976,113.222122,42.31149,-146.749249,18.151703
71,-1.485443,2.200877,-2.08746,0.720998,0.0,-10.130882,30.626907,7.581825,40.423164,11.941338,42.593307,14.133682,40.2285,17.448349,0.0,-46.708753,-51.601269,-37.328001,-42.65666,-26.511798,-29.364884,-13.358868,-14.761436,-1.78292,0.0,29.007568,-23.693676,12.061329,-28.367043,5.998764,-24.97015,3.343048,-17.342834,1.338329,0.0,-53.539521,-45.287968,-42.612292,-32.726175,-24.530073,-18.448738,-11.805722,-4.379988,-0.370039,112.136021,44.537438,-148.437366,18.897772
72,-1.232185,2.20909,1.219139,0.921995,0.0,-12.033119,29.645805,4.779396,39.934158,9.694176,42.264061,12.236595,39.925003,15.102997,0.0,-45.371918,-52.023394,-38.696853,-43.111359,-26.939667,-29.563967,-13.477552,-14.628642,-2.056103,0.0,27.901554,-24.705276,11.376171,-29.545555,5.027103,-26.032333,2.993774,-18.353119,0.85516,0.0,-53.64212,-45.691415,-41.969903,-33.561719,-24.224779,-19.331862,-10.800178,-5.268514,0.844684,110.996561,46.777326,-147.125502,19.850565
73,-2.010269,2.394403,0.410614,-0.530868,0.0,-12.090454,29.806824,4.524879,39.674034,9.379463,41.627426,11.077881,39.038773,13.907433,0.0,-46.424052,-51.95584,-38.321349,-42.767872,-25.212539,-29.165306,-12.316768,-14.177648,-2.260713,0.0,28.151321,-25.168991,11.741867,-30.110836,4.198666,-26.587944,1.971188,-18.741188,0.003033,0.0,-50.83649,-45.814174,-42.655672,-33.24846,-23.131828,-18.754897,-10.54203,-4.594354,0.450006,109.266043,49.132765,-146.435137,19.280733
74,-1.396179,2.978624,0.755253,2.001917,0.0,-14.862671,28.499336,3.9814,38.171425,7.528038,39.99527,9.618988,37.371025,13.087234,0.0,-46.568209,-52.559697,-37.770257,-43.395287,-25.097621,-29.659371,-11.906684,-14.325972,-2.227646,0.0,28.574295,-25.631104,19.248562,-30.278378,3.762817,-26.602993,0.890923,-18.58675,-0.160847,0.0,-51.194148,-43.270922,-48.357797,-31.332777,-22.912521,-17.091248,-9.543434,-3.057294,1.253719,108.56741,51.655192,-144.982338,20.826453
75,-1.722794,2.306995,-1.60881,0.654709,0.0,-17.457047,26.604195,1.713409,35.565834,5.77652,37.181625,7.913818,34.400711,11.281929,0.0,-44.1856,-52.293769,-38.439045,-42.888872,-25.940669,-29.139217,-11.414656,-13.676636,-0.64733,0.0,29.906158,-23.106651,20.678215,-27.270641,6.013756,-23.556061,3.632526,-15.720978,2.820911,0.0,-50.229236,-41.975182,-46.77322,-29.344784,-21.048492,-14.66881,-8.147658,-0.232953,2.762899,107.844143,53.790259,-145.591621,21.309234
76,-2.368469,2.675275,0.513954,1.924019,0.0,-20.461807,24.90715,-2.043343,33.6763,2.595978,35.091019,3.851624,32.098961,7.102089,0.0,-42.218664,-50.791443,-38.876608,-40.563105,-25.866198,-26.110359,-9.245673,-10.210153,1.728487,0.0,30.427151,-22.101688,10.41853,-26.840916,6.131744,-23.192196,3.894539,-15.385666,2.974148,0.0,-52.716327,-42.754905,-38.031708,-28.301511,-20.999957,-12.438818,-7.04143,2.65959,4.953062,106.272297,56.189757,-144.281044,22.957476
77,-1.040039,2.386036,6.180496,7.780675,0.0,-29.640198,20.901489,-8.083534,28.149261,-4.155121,28.657379,-1.192131,25.41069,2.372589,0.0,-38.011485,-47.569368,-36.899916,-36.083668,-23.063964,-21.348569,-6.269612,-5.605795,4.768243,0.0,26.504173,-22.211666,9.613609,-28.58242,6.472836,-27.120266,2.780571,-21.228161,1.314926,0.0,-60.587219,-46.789275,-35.52563,-34.468864,-22.59534,-19.076678,-9.448955,-2.918849,1.562224,106.471195,58.553578,-136.86161,30.715936
78,0.455933,3.519835,4.748383,7.209144,0.0,-38.955116,11.080055,-22.958565,17.419739,-15.415306,17.792931,-10.106277,15.417137,-7.732773,0.0,-29.61522,-44.073523,-30.290059,-31.678332,-14.521042,-16.326253,0.806028,-0.514844,10.498373,0.0,26.598415,-19.389896,28.856506,-27.430458,24.523773,-28.123226,19.819794,-24.475594,16.382103,0.0,-61.656243,-48.456351,-28.686401,-38.589098,-13.457175,-23.856809,-3.636574,-6.925556,1.090265,107.145939,62.074756,-131.894417,37.926424
79,2.414246,6.173065,-0.786495,0.06172,0.0,-53.896065,-4.148254,-52.082748,2.16053,-38.548393,4.035301,-30.615692,3.523521,-27.099724,0.0,-31.530995,-36.619692,-20.824369,-23.833652,0.929838,-6.869949,13.99113,10.581551,22.365474,0.0,34.195805,-13.771248,47.623615,-20.441494,48.870621,-20.814629,44.488449,-17.55724,33.773174,0.0,-57.92729,-43.184008,-21.563923,-30.690634,-6.901874,-14.353204,2.83845,3.247145,4.538254,108.462439,69.338689,-133.778658,39.079011
80,-6.022453,12.725525,0.639896,5.599589,0.0,-52.770424,-12.795982,-63.508644,-5.735207,-61.432686,-1.383705,-53.614998,1.597137,-44.219856,0.0,-31.876304,-29.713681,-6.987831,-17.251583,7.015125,-0.924898,21.180669,16.431198,26.979434,0.0,40.138779,-5.748539,62.707787,-12.157288,69.306221,-13.146744,62.903194,-9.358063,53.630619,0.0,-54.002989,-36.732078,-21.578928,-23.316184,-6.363658,-6.274058,4.381253,11.504565,9.441761,102.060556,82.874873,-133.51819,45.489259
81,4.339027,8.511924,0.67955,5.871754,0.0,-62.087517,-25.904388,-85.579033,-20.508614,-90.660896,-15.189972,-83.653564,-12.133713,-66.487541,0.0,-12.098079,-17.611217,1.469475,-3.115432,18.392298,14.261227,33.785472,31.942778,42.328518,0.0,49.473495,3.128071,78.028736,-3.576221,85.044022,-6.163502,78.907642,-3.95668,64.095955,0.0,-49.07333,-29.105501,-13.011151,-12.547375,-1.264401,6.165192,6.154941,25.03266,16.401187,107.220984,91.975309,-132.017241,51.949526
82,-9.338837,7.431353,6.140671,5.888458,0.0,-68.253822,-32.235947,-96.058044,-26.368332,-103.175812,-18.266373,-92.999153,-10.91938,-72.277107,0.0,-5.587764,-9.290072,18.201829,6.344484,35.116193,23.598445,46.618196,40.740544,57.642188,0.0,50.831509,5.955563,78.389454,-1.440182,85.266037,-5.755463,74.523296,-5.730972,55.77507,0.0,-36.468558,-16.889479,-7.871726,-0.750607,9.814487,15.747158,17.862079,32.55951,30.763438,97.014084,99.700826,-126.744633,58.132147
83,-11.815453,13.984616,8.866138,7.961419,0.0,-68.258972,-35.594215,-99.734573,-26.994896,-105.017223,-17.363892,-92.866859,-8.040848,-67.679443,0.0,0.508453,-3.580412,32.588873,12.854861,49.927956,28.919354,58.865711,44.569008,68.387068,0.0,48.344307,7.272491,69.975071,1.23373,71.389332,-4.395218,60.033245,-7.329998,41.822891,0.0,-25.67576,-6.144691,-0.924404,8.152197,19.661609,21.236121,28.292804,33.570179,40.134927,84.4174,113.773698,-118.659725,66.181822
84,-9.449272,16.455281,7.140456,22.095317,0.0,-67.434654,-39.618874,-102.206039,-32.882996,-105.548115,-24.832306,-94.514122,-15.353165,-72.073746,0.0,5.595328,0.921316,45.122199,16.339777,62.383971,31.304742,65.286488,45.183147,70.821918,0.0,51.669445,23.115892,73.574381,18.743591,74.272871,13.581676,65.575361,8.855123,51.633711,0.0,-24.549278,-2.498715,9.072679,13.569699,26.043776,28.826775,34.78907,43.312387,42.903661,74.926844,130.014721,-111.560554,88.06288
85,-4.512405,16.424436,7.140455,22.095316,0.0,-65.66906,-41.370621,-103.763866,-36.1623,-105.517845,-29.593964,-94.161301,-21.281662,-73.545914,0.0,9.171233,9.445343,50.17363,25.994392,67.151597,40.660856,70.485255,52.529223,74.650876,0.0,54.994583,38.959293,77.173691,36.253452,77.15641,31.558571,71.117477,25.040245,61.44453,0.0,-23.422796,1.147261,19.069762,18.987202,32.425944,36.417429,41.285337,53.054595,45.672395,70.387945,146.352351,-104.446592,110.071391
86,-6.125336,17.628446,2.961044,16.980128,0.0,-65.595474,-41.351509,-102.455921,-38.541183,-103.658638,-33.514366,-93.367596,-26.599045,-75.895157,0.0,10.298178,15.507813,52.478094,33.10347,70.473707,48.295059,75.570463,58.951266,81.505604,0.0,60.990543,24.902458,89.46516,16.523323,93.74239,8.95586,84.940853,2.083855,63.893509,0.0,-16.052853,-0.554519,22.459242,15.158059,34.076286,32.210126,43.105184,49.320857,51.957352,64.038877,163.952284,-101.70928,127.023006
87,-6.998749,15.533007,2.982159,19.757909,0.0,-62.248764,-39.073563,-95.741501,-33.78067,-99.92403,-26.162224,-87.841587,-17.654343,-69.358864,0.0,11.964142,19.171774,54.004626,37.333435,75.955909,52.145568,83.543429,62.397803,91.777847,0.0,62.599754,27.314301,87.002907,18.531818,85.906963,8.605556,71.123714,-1.962833,42.377758,0.0,-11.262102,2.482614,25.906644,15.701771,40.117761,28.748398,50.235319,41.530795,57.964679,57.070885,179.660153,-98.696365,146.955776
88,-20.875511,82.412223,10.29911,22.109303,0.0,-76.376953,-37.262192,-75.300922,-46.739502,-81.800079,-52.042065,-85.785084,-54.287968,-85.467167,0.0,33.139532,7.279633,-0.934284,-17.359893,-24.619519,-42.652059,-57.192182,-66.604488,-76.749896,0.0,58.817081,25.586586,80.682907,16.720791,78.992271,6.017933,64.464855,-6.319199,32.560558,0.0,-7.376272,2.067589,29.725043,10.688935,37.072601,18.045138,40.935336,23.768228,37.133919,36.297541,262.268125,-88.295088,169.260828
89,-1.516342,12.150907,16.498547,24.224378,0.0,-75.553122,-37.119599,-80.813113,-42.98584,-86.080771,-45.7269,-81.806889,-46.659365,-78.214331,0.0,35.62514,13.37801,0.383223,-6.769111,-23.965459,-30.211451,-52.708732,-54.371732,-66.675625,0.0,58.321152,46.061039,67.838116,47.742748,55.373325,45.121193,48.297443,37.858543,41.662502,0.0,8.575897,20.828043,64.408397,41.68406,91.714923,61.387752,109.904433,77.882954,117.515171,35.203257,274.543891,-71.374483,193.610065
90,-1.516343,12.150906,-0.755138,16.240111,0.0,-74.72929,-36.977005,-86.325302,-39.232178,-90.361462,-39.411736,-77.828693,-39.030762,-70.961494,0.0,38.110749,19.476389,1.70073,3.821671,-23.311398,-17.770842,-48.225281,-42.138975,-56.601354,0.0,66.110916,32.082253,86.507263,23.964043,77.043571,14.939232,63.302422,6.448288,44.183064,0.0,13.767316,21.277895,54.967623,43.225844,83.137667,60.281864,90.710614,71.555945,88.973637,33.794718,286.676674,-72.021818,209.832053
91,9.415169,6.506579,5.256786,15.021714,0.0,-79.271965,-37.057343,-97.05677,-37.922058,-88.618069,-36.895294,-80.384216,-35.353317,-71.390018,0.0,43.537313,11.678547,13.206499,-6.702698,-14.660227,-28.260447,-39.419302,-50.834545,-53.690378,0.0,69.011593,30.51693,92.323093,21.31794,90.57169,11.529636,75.834904,1.973133,50.620937,0.0,17.757442,25.760419,61.695948,44.384714,75.692297,58.656655,84.832531,68.042532,85.786575,43.260241,293.240125,-66.714678,224.910639
92,5.924606,3.947086,2.43782,12.926275,0.0,-71.912384,-36.386032,-99.406013,-37.625999,-78.971615,-37.250175,-64.155235,-36.016045,-66.689873,0.0,52.086905,16.426412,34.837853,-2.240737,3.79024,-22.674875,-16.949932,-43.859403,-37.498123,0.0,68.888111,31.427021,93.185635,22.756577,92.596264,13.161964,77.266102,3.284512,50.150242,0.0,19.312935,27.564149,58.372356,45.121829,73.520596,58.398106,82.426117,67.25225,86.04994,49.19486,296.979421,-64.266844,237.629124
93,1.548958,7.116611,5.8564,11.924993,0.0,-66.892776,-29.437523,-101.466007,-29.058266,-92.586021,-28.736687,-70.895634,-29.189644,-74.522209,0.0,51.012077,21.896758,39.889346,5.730685,0.252312,-14.884011,-22.196741,-37.423405,-43.570164,0.0,67.217731,30.738258,91.973591,21.516609,90.50703,11.568661,73.231716,1.701393,43.710136,0.0,20.853299,30.223801,57.917564,47.70806,73.443779,60.08241,82.251734,67.631459,82.329787,50.780954,304.013688,-58.373308,249.471772
94,-2.187881,2.315393,2.777939,8.850131,0.0,-66.138268,-28.938103,-99.101028,-28.567772,-91.004791,-28.694229,-61.060581,-30.09407,-62.594662,0.0,33.634955,25.50928,42.545416,11.233203,11.456739,-7.69441,-12.542188,-29.528244,-32.568896,0.0,67.600079,30.155754,88.124256,20.93605,88.047695,11.073818,72.454205,1.438465,45.844631,0.0,22.639121,30.18249,57.671859,48.173905,73.933213,60.799764,82.761978,68.8535,84.389348,48.57645,306.312996,-55.611992,258.305817
95,-4.242554,9.054278,2.452927,7.768572,0.0,-67.240448,-39.908752,-70.444107,-37.728767,-31.877747,-34.831009,-27.224808,-31.894913,-54.445839,0.0,40.631092,12.090113,24.929444,-0.501722,13.212674,-15.841945,4.228112,-34.008978,-20.564678,0.0,68.515491,28.706417,87.002621,19.080505,87.389202,9.25375,72.497463,-0.107632,46.976337,0.0,23.349004,32.603353,59.271565,50.207716,74.670389,61.565408,83.247583,68.049942,83.784009,44.320822,315.249268,-53.17214,265.956385
96,-0.068207,-5.548583,4.304638,5.061928,0.0,-54.501915,-48.411827,-28.692398,-48.952789,-15.142365,-47.44606,-15.265388,-45.440254,-59.430828,0.0,34.233132,5.92594,34.567819,0.182534,32.772364,-4.475979,29.864413,-9.734458,23.088356,0.0,66.45298,28.085175,86.527634,16.982403,83.066139,5.832996,67.700958,-4.463196,42.82196,0.0,27.562852,33.31163,62.620475,50.440207,75.797643,61.252457,84.347543,66.767077,83.533611,44.401188,309.585521,-48.718929,270.903148
97,-2.290192,3.416774,3.078346,2.364053,0.0,-49.454155,-45.353394,-24.371338,-45.807953,-10.952797,-44.344711,-8.667526,-41.294174,-27.502441,0.0,37.14207,8.593311,37.985395,2.276305,36.658441,-3.876814,29.213132,-10.939209,16.73924,0.0,66.069374,27.437153,86.593666,16.009026,83.311729,4.721546,68.330727,-5.425816,45.485916,0.0,26.75139,33.157501,63.866907,50.886724,76.388532,62.306845,85.443366,68.316025,85.717785,42.2083,312.837081,-45.54328,273.101988
98,-0.870438,6.778528,0.662956,0.09491,0.0,-44.757271,-42.923584,-21.204643,-43.682785,-9.358406,-42.441101,-7.369194,-38.88279,-25.568962,0.0,33.356708,7.50496,31.093802,-1.660963,28.761366,-11.22993,20.014173,-21.719719,1.825774,0.0,64.816132,26.477051,86.208,14.754753,82.270432,3.461895,68.033409,-6.822739,44.440498,0.0,26.080287,32.794779,63.42002,50.026602,76.326658,60.974703,84.881128,66.76047,86.008073,41.403294,319.607751,-44.814892,273.189041
99,-33.728971,-2.65885,1.158485,-0.510676,0.0,-31.960802,-24.010334,11.000433,-23.501072,26.189947,-21.879359,29.615335,-19.016705,11.885118,0.0,39.977032,10.319513,34.87441,-1.251557,29.624421,-13.985881,20.197449,-27.007438,2.190288,0.0,64.253883,25.961323,85.907478,14.554482,82.261162,3.480949,68.009377,-6.612797,44.422531,0.0,26.070468,32.056059,62.294001,49.39082,75.775413,60.44365,83.878796,66.190205,85.487641,7.726164,316.977415,-43.604565,272.706878
100,-33.728972,-2.658849,0.390816,-0.071075,0.0,-19.164333,-5.097084,43.205509,-3.319359,61.7383,-1.317616,66.599865,0.84938,49.339199,0.0,46.597355,13.134066,38.655017,-0.842152,30.487475,-16.741833,20.380723,-32.295157,2.5548,0.0,63.021469,26.16869,84.857712,14.536114,80.970039,3.266144,67.169266,-6.996288,43.184624,0.0,26.337847,31.51704,60.147557,49.326353,73.787173,60.669965,82.342878,66.648393,83.473219,-25.931597,314.337138,-43.142538,272.654375
101,21.003284,2.330337,0.178413,0.359387,0.0,-44.305687,-32.016392,20.252724,-30.504169,38.672104,-24.747276,46.642456,-16.982059,32.368698,0.0,45.251134,12.860635,39.826484,-3.254185,30.108328,-21.21775,18.083299,-38.552449,-3.080049,0.0,62.879677,25.772552,84.923515,13.891926,80.756607,2.711277,66.945419,-7.176819,43.644562,0.0,26.120857,30.59208,59.367772,48.60449,72.924149,60.253582,81.257799,66.633202,82.913513,-4.817905,316.608133,-42.853718,272.95442
102,-9.52898,-31.851233,0.025005,0.147336,0.0,21.059589,-11.136875,50.947094,-19.837303,54.232121,-24.210606,36.508541,-23.637142,-34.108315,0.0,34.259561,11.911037,58.381618,28.138736,64.672009,41.118241,72.779777,51.775683,76.087005,0.0,62.902164,25.159206,83.22504,13.37431,79.480877,2.265472,65.907154,-7.462006,43.833332,0.0,26.408058,29.999956,59.589395,48.120429,72.522401,60.014917,80.858645,66.620976,82.425685,-14.23914,284.682676,-42.720966,273.027532
103,-1.756439,30.534776,-0.634804,0.448925,0.0,-28.417282,-17.067947,32.451954,-16.502266,50.673923,-14.196739,56.785641,-11.117363,40.194225,0.0,46.324789,12.637716,38.687189,-2.038752,31.537356,-18.285779,19.691898,-34.097898,0.276457,0.0,62.531147,25.098038,83.291988,13.73291,79.129314,2.923794,65.683537,-6.596832,44.590588,0.0,25.83063,29.360962,58.038471,47.430121,70.393617,59.457496,79.079183,66.216202,81.086998,-15.929918,315.167928,-43.29011,273.426934
104,17.481365,6.111377,0.063515,0.439231,0.0,-55.051861,-35.000782,13.474388,-33.083782,29.28257,-27.147903,37.351341,-19.423313,23.460274,0.0,40.307273,8.226822,33.394561,-7.842488,24.174731,-25.545528,11.501014,-42.121129,-9.44769,0.0,61.961689,24.50695,83.402309,13.559418,80.064754,3.113365,66.543789,-6.094494,46.098461,0.0,24.950686,28.510474,57.354647,46.618041,69.669655,58.919588,78.083396,65.968891,80.752928,1.603661,321.260162,-43.174381,273.847022
105,-11.762695,-14.569948,-0.263386,-0.282879,0.0,-25.018959,-22.67086,41.805954,-24.765987,47.153664,-22.917595,39.125862,-17.573547,-11.306019,0.0,40.462081,12.671555,41.220685,14.59014,36.11337,13.810294,34.197378,11.831873,32.167333,0.0,61.765137,24.622879,83.703804,13.518963,79.514236,2.94714,66.239777,-6.474323,45.73597,0.0,25.167183,28.812557,57.099309,46.590748,69.471745,58.614479,78.027018,65.385535,81.057234,-10.079813,306.643175,-43.358545,273.517105
106,10.289726,9.966887,0.086975,0.597435,0.0,-50.97044,-33.851738,17.157898,-33.190384,32.252655,-28.316574,37.149582,-21.228447,19.180527,0.0,42.074075,9.211432,36.322272,-4.003156,27.712165,-18.788921,15.50559,-32.63324,-1.472624,0.0,61.775551,23.849258,83.74855,12.86911,80.154991,2.437992,67.292976,-6.768837,45.663643,0.0,24.363749,28.675039,55.744135,46.490527,68.672448,58.652147,77.378453,65.412644,80.066449,0.263071,316.540253,-43.218412,274.044731
107,-7.96978,-18.47066,-0.684528,-0.618492,0.0,-11.930466,-18.478889,43.58448,-23.113003,46.253586,-23.356075,31.711349,-19.668102,-49.08617,0.0,31.149131,13.205696,42.8722,23.886665,42.251793,31.829682,47.245178,38.299458,56.805007,0.0,61.78339,24.110298,83.853664,13.090496,79.63686,2.859077,67.437687,-6.114292,46.147099,0.0,24.200542,28.748522,55.194803,46.828981,67.884574,59.103172,77.237539,65.870338,80.24818,-7.569695,298.051316,-43.765926,273.407961
108,19.819107,24.703067,-0.22522,-0.395697,0.0,-64.755077,-44.395695,5.656013,-42.774353,19.884682,-36.535435,24.792366,-27.915859,8.350067,0.0,36.264164,3.416959,30.165817,-10.555121,20.649338,-25.475997,8.973076,-38.633404,-7.118587,0.0,61.037006,24.39045,83.877926,13.224106,79.644184,2.760487,67.357235,-6.423626,45.632343,0.0,24.729311,28.733825,55.250625,46.880234,68.379689,59.134541,77.819413,65.835572,80.810171,12.379074,322.743684,-43.861485,273.001566
109,-7.789764,2.711646,0.168686,0.761383,0.0,-52.204456,-38.187332,13.128548,-33.119717,29.511909,-25.271873,33.317184,-15.18631,-3.254128,0.0,33.769263,8.309197,26.334945,-6.340409,16.329896,-22.513027,3.781286,-38.000463,-11.114951,0.0,60.592632,24.183083,83.077068,13.38232,79.56934,3.052197,66.975803,-6.105022,45.79668,0.0,23.802005,28.742779,54.02031,46.770812,67.581874,58.803188,76.840669,65.260738,79.311982,4.809437,325.404757,-43.472672,273.712375
110,-5.707397,-21.931338,-0.664101,-0.6879,0.0,2.311821,-19.374561,33.92498,-24.947834,37.870331,-27.289524,25.309181,-25.809517,-54.019375,0.0,8.005756,6.932163,32.865051,20.410549,41.035001,30.790484,46.137438,39.067633,49.414717,0.0,61.232357,24.438801,84.023952,13.825665,80.208378,3.642483,67.979336,-5.399494,47.091579,0.0,24.045919,29.239993,55.638418,47.113033,68.500288,59.105951,77.670039,65.473591,80.257813,-0.710421,303.480628,-43.949232,273.031685
111,2.060623,11.47724,0.063915,0.360869,0.0,-48.957195,-36.256371,20.378265,-37.52964,34.04583,-34.084911,34.972916,-27.546959,7.213554,0.0,41.767793,7.225601,35.390396,-2.531335,27.394706,-13.849444,17.688344,-24.248275,8.774363,0.0,61.405678,24.476795,84.076996,13.947773,80.610237,3.941231,68.466797,-4.750557,48.002701,0.0,23.66529,28.880112,54.650288,47.034363,67.570265,59.224017,76.482949,65.6778,79.405164,1.500235,314.944453,-43.735285,273.379139
112,-7.160225,-20.632418,-0.289192,-0.551184,0.0,-3.284912,-18.776093,38.719139,-24.690857,45.195923,-26.192036,31.110878,-23.910542,-45.616264,0.0,29.86287,11.224311,42.377887,23.467565,47.58036,33.386101,53.062808,41.281632,60.059994,0.0,61.150932,23.944359,84.027672,13.463802,79.944191,3.48753,67.661362,-5.232811,47.348328,0.0,23.786135,28.862945,54.835971,46.750558,67.642575,58.904274,77.348257,65.512185,79.898982,-5.451822,294.316095,-43.816309,272.832015
113,4.956779,17.76689,0.237179,0.706795,0.0,-48.772144,-32.330132,20.509758,-33.091278,33.961258,-29.933968,35.243454,-24.292145,2.80014,0.0,43.572079,11.367263,37.458232,2.189546,28.649412,-8.926763,19.558146,-19.37024,12.235412,0.0,60.129948,23.554344,83.131771,13.048496,78.886013,3.171616,67.294064,-5.392456,47.504711,0.0,23.206175,27.920511,53.805295,46.151887,67.09139,58.602623,76.546058,65.402578,79.53064,-0.320864,312.099365,-43.404951,273.55519
114,-7.418976,-20.027079,-0.18013,-0.502772,0.0,-1.450424,-16.964149,40.03315,-22.708912,48.541489,-23.848114,34.113922,-20.72422,-39.570293,0.0,30.748741,9.928293,41.459412,24.219994,50.950574,36.061129,56.912638,45.664121,65.261664,0.0,59.866734,23.258801,82.978306,13.002377,78.975849,3.356094,67.577877,-5.070076,47.585735,0.0,23.204693,28.192336,53.487836,46.459837,67.366427,58.901433,77.06118,65.704106,80.044836,-7.603598,292.058747,-43.448839,273.038879
115,9.392509,22.000993,-0.146084,0.137024,0.0,-51.896553,-35.528412,17.283554,-36.047287,31.001015,-32.194462,32.731934,-25.919151,1.221313,0.0,41.302504,10.332635,35.566508,0.585394,26.778251,-11.255062,16.960492,-22.405025,7.848539,0.0,60.199928,23.986416,83.12851,13.680153,78.219337,3.860893,66.970253,-4.802914,47.531891,0.0,23.003881,27.921746,54.185246,46.056483,67.354447,58.463314,77.094031,65.278645,79.993027,1.889534,314.068585,-43.494301,273.184749
116,-7.537537,-14.467628,0.2108,-0.354633,0.0,-14.760876,-19.206047,38.132629,-23.534775,45.408096,-23.542099,32.940903,-19.718285,-45.851841,0.0,31.531119,10.232414,39.948503,20.028067,43.67162,28.009863,48.1434,34.353483,53.356184,0.0,60.013161,24.074535,83.200264,13.606567,78.744278,3.517342,66.826401,-5.447731,47.022057,0.0,23.123368,28.135155,54.486094,46.00418,67.849685,58.143941,77.213209,64.796745,80.694574,-5.486469,299.593918,-43.121967,272.823077
117,4.940071,10.531718,-0.220928,0.017105,0.0,-47.023945,-31.047821,21.095009,-32.948456,33.373947,-30.807438,33.711777,-26.197586,3.563232,0.0,42.997862,12.6442,38.554611,4.070217,30.664081,-6.585373,21.333903,-16.603266,14.054209,0.0,60.260983,23.79015,82.938938,13.567371,79.031696,3.873711,67.22002,-4.666901,47.709904,0.0,22.79677,27.603484,53.885139,45.606199,67.36056,58.00315,77.085077,64.974957,80.573543,-0.401802,310.163072,-43.198299,272.877618
118,-6.616173,-19.422481,0.364323,0.133628,0.0,6.175003,-15.096416,40.136604,-21.804886,46.918716,-24.690056,31.399269,-23.501587,-35.048161,0.0,28.772234,14.315783,44.665123,27.394891,51.606363,37.746854,58.928727,46.014246,67.324683,0.0,59.97139,23.213425,82.635498,13.1147,79.139557,3.629436,67.210464,-4.646473,48.106499,0.0,22.562736,27.59311,53.777261,45.544202,67.417988,57.928988,77.248777,64.935004,80.783988,-6.808376,290.754995,-42.624378,273.025649
119,10.552597,30.220096,-0.14883,-0.270899,0.0,-58.681698,-39.955502,14.053802,-39.389076,29.991074,-33.634758,34.08165,-25.215969,15.599327,0.0,37.146578,8.971347,31.834869,-8.829074,20.011518,-27.987633,5.699131,-46.015543,-15.665647,0.0,59.993534,23.113289,82.79932,13.010559,79.158726,3.425045,67.225056,-4.967136,47.388439,0.0,22.702292,27.63757,53.451527,45.55649,67.363833,57.890147,77.078717,64.783901,80.32154,3.879147,320.979182,-42.638283,272.758841
120,-11.729164,-7.185278,0.0947,0.026985,0.0,-33.119831,-26.077881,37.691803,-26.550407,46.513596,-23.140297,41.853447,-17.026634,-1.69939,0.0,37.271067,9.620899,37.720177,3.867799,29.983962,-2.994833,24.332565,-9.953117,13.230149,0.0,59.709892,23.361111,82.847214,13.18491,78.732147,3.526211,66.552773,-4.875355,47.066574,0.0,23.267123,27.768358,53.853893,45.779656,67.688826,58.150301,77.104096,65.032138,79.786287,-7.756376,313.761006,-42.449942,272.752928
