takenoko1/special-research/HandMotion_SimilarSearch_自分用/NewProject/handData/test_key/d4_feature_d2/48.csv
frame,vel_0x_L,vel_0y_L,vel_0x_R,vel_0y_R,posFromWrist_0x_L,posFromWrist_1x_L,posFromWrist_2x_L,posFromWrist_3x_L,posFromWrist_4x_L,posFromWrist_5x_L,posFromWrist_6x_L,posFromWrist_7x_L,posFromWrist_8x_L,posFromWrist_9x_L,posFromWrist_0y_L,posFromWrist_1y_L,posFromWrist_2y_L,posFromWrist_3y_L,posFromWrist_4y_L,posFromWrist_5y_L,posFromWrist_6y_L,posFromWrist_7y_L,posFromWrist_8y_L,posFromWrist_9y_L,posFromWrist_0x_R,posFromWrist_1x_R,posFromWrist_2x_R,posFromWrist_3x_R,posFromWrist_4x_R,posFromWrist_5x_R,posFromWrist_6x_R,posFromWrist_7x_R,posFromWrist_8x_R,posFromWrist_9x_R,posFromWrist_0y_R,posFromWrist_1y_R,posFromWrist_2y_R,posFromWrist_3y_R,posFromWrist_4y_R,posFromWrist_5y_R,posFromWrist_6y_R,posFromWrist_7y_R,posFromWrist_8y_R,posFromWrist_9y_R,posFromBody_0x_L,posFromBody_0y_L,posFromBody_0x_R,posFromBody_0y_R
2,-7.152328,0.807448,0.222588,0.113497,0.0,-61.177368,-41.140022,9.571953,-34.489002,24.101486,-25.073318,30.813904,-14.880524,12.961693,0.0,35.418246,7.013365,29.386527,-10.298672,18.842829,-29.077219,2.56857,-47.416968,-21.40189,0.0,58.204937,21.162128,83.558636,10.587444,77.617893,0.927887,64.548397,-7.289543,44.5574,0.0,25.005706,28.082544,55.383883,45.118741,67.710562,56.998162,76.311406,63.922853,79.494269,8.289843,328.573417,-39.100885,276.438656
3,-17.237549,-20.864847,-0.540104,-0.78528,0.0,-22.721558,-17.718716,39.522743,-20.565147,48.874626,-20.078201,38.238373,-17.36784,-2.073784,0.0,35.532052,8.538785,37.370794,14.612309,35.855068,18.238663,36.583599,20.381835,38.200349,0.0,59.224892,21.447315,83.55423,10.805397,78.608551,1.260567,65.63427,-6.67757,45.879593,0.0,25.682676,28.811754,55.847073,45.897352,67.865308,57.62357,77.259028,64.143673,80.74064,-9.627113,307.525589,-40.320396,275.470394
4,24.086494,17.764976,-0.025463,0.100097,0.0,-69.862976,-49.5191,-1.188698,-45.398884,16.236305,-37.202625,24.850616,-26.63475,-0.31723,0.0,35.276714,6.988294,34.329339,-8.690382,21.258506,-25.442158,7.599808,-41.024133,-12.363606,0.0,59.353352,21.333046,83.420963,10.828056,78.926983,1.53059,66.130085,-6.243553,46.070995,0.0,25.297785,28.163745,55.250378,45.440893,67.973989,57.549902,77.708447,64.548941,81.290651,14.095201,325.178874,-40.710039,275.4588
5,-4.06311,3.928685,-0.070038,0.184387,0.0,-64.408321,-44.262142,6.827431,-37.232265,22.686996,-27.257767,29.688606,-16.588783,11.555328,0.0,33.541959,6.288538,28.452737,-10.719501,17.462646,-29.249256,1.859367,-47.078205,-19.646079,0.0,59.195309,21.41573,82.784786,10.96344,78.638935,1.542721,65.665684,-6.47604,45.587826,0.0,25.050413,27.737112,55.362702,45.025004,67.816525,57.238989,77.357211,64.396788,80.728784,9.872904,329.02384,-40.939264,275.559469
6,-10.790291,-1.91698,0.689449,-0.096948,0.0,-51.912003,-36.340885,21.825829,-30.046234,36.794243,-20.802841,41.160164,-10.442047,25.416183,0.0,35.171985,11.22746,29.897759,-5.810961,18.790342,-25.195835,2.316011,-44.066638,-20.726958,0.0,58.560333,20.904579,82.622795,10.408573,78.057289,0.989685,64.924164,-7.02404,45.201187,0.0,25.219177,28.483921,56.770056,45.763724,68.090389,57.693657,76.785279,64.38981,79.976355,-1.016922,327.012243,-40.34935,275.367904
7,-10.098839,-21.787089,0.055504,0.196119,0.0,-20.438862,-15.18116,45.644875,-19.26836,51.407089,-20.09903,38.695107,-17.886429,-18.780899,0.0,33.920181,10.053461,38.046467,18.990536,38.479831,25.748008,41.905003,31.194332,42.861208,0.0,58.455162,20.734463,82.88166,10.160236,78.123093,0.833302,64.972801,-7.065697,44.755898,0.0,25.398253,28.060807,55.798969,45.387479,67.482826,57.48352,76.802198,64.397035,79.74547,-11.155586,305.181173,-40.333672,275.520041
8,25.041161,22.682964,-0.301495,0.111151,0.0,-69.14566,-51.760426,3.147583,-49.342518,20.115852,-42.127762,26.525803,-31.882267,5.934448,0.0,32.590694,4.215701,29.382513,-11.227398,16.719233,-27.812447,4.90502,-42.41994,-11.319221,0.0,58.483257,20.492992,82.77071,9.978619,78.587208,0.607624,65.500774,-7.362213,45.122509,0.0,24.659471,27.503016,55.647989,44.665184,67.304429,56.702625,76.683267,63.695241,79.960794,13.887262,327.804733,-40.633478,275.571788
9,-2.737541,3.20003,-0.100365,-0.038594,0.0,-65.264111,-45.041256,5.704994,-38.485622,21.402969,-28.765984,26.699295,-17.982788,7.89505,0.0,31.259726,3.795489,27.663197,-13.110724,16.365959,-31.216377,0.801582,-48.853097,-21.198855,0.0,58.192348,21.150799,82.477741,10.694504,78.141689,1.116772,65.210438,-7.10907,44.962292,0.0,24.91271,27.317456,55.867388,44.589972,67.487952,56.609073,76.851475,63.583288,80.144254,11.144772,330.963158,-40.738792,275.49159
10,-14.834862,-6.353747,-0.503483,-0.283743,0.0,-41.811962,-31.474743,21.212196,-26.889439,39.939537,-19.104652,43.542709,-9.767075,28.451157,0.0,34.374602,8.703968,29.381155,-2.188496,20.402892,-14.634168,8.050278,-27.096019,-2.452603,0.0,58.652802,21.201954,82.332573,11.10054,78.758926,1.805134,65.930328,-6.318512,46.016808,0.0,25.179224,27.829367,56.129828,45.134796,68.103047,57.080043,77.757477,63.978552,81.2444,-3.684912,324.574353,-41.237097,275.172788
11,19.519043,6.01906,0.33989,0.285904,0.0,-71.488609,-52.168465,-2.042542,-48.482723,16.949615,-40.805798,24.46701,-30.684586,8.933372,0.0,29.458219,1.818488,26.428621,-14.080514,14.129297,-31.094976,1.637621,-46.24686,-14.777923,0.0,59.038239,20.402699,82.022438,10.095577,78.0867,0.996952,65.472336,-6.636772,46.180573,0.0,25.614009,27.154311,56.977476,44.629678,68.237849,56.836376,77.041914,63.935327,80.179514,15.837336,330.545988,-40.894003,275.411268
12,-7.0158,2.004233,-0.31517,0.242309,0.0,-62.424717,-43.906918,6.698456,-38.159637,22.855225,-28.896847,28.270454,-18.138657,12.093773,0.0,29.805627,2.744127,25.417458,-14.20068,14.120281,-32.513568,-1.487259,-50.445702,-21.790547,0.0,59.367142,20.691032,82.933159,10.33596,78.434715,1.176453,65.500832,-6.505222,46.190643,0.0,25.296056,27.008519,56.585299,44.434794,67.819428,56.759003,76.470722,63.966202,79.87107,8.811035,332.518574,-41.219673,275.62193
13,-10.908623,-6.171954,-1.159916,-0.923477,0.0,-45.984249,-34.109688,19.723892,-29.082298,36.97403,-21.028519,39.502258,-11.644249,20.773773,0.0,33.521211,9.997021,28.640829,-4.151542,19.066242,-20.126929,5.201052,-35.76658,-10.838371,0.0,60.934696,21.698227,83.411579,11.145916,79.225674,1.686859,66.260548,-6.05587,46.978054,0.0,24.782355,27.166229,57.229109,44.519886,68.283482,56.832918,77.328312,63.908898,81.860669,-2.062941,326.356547,-42.344942,274.708379
14,18.141632,4.416513,-0.61409,0.252189,0.0,-74.888306,-51.354618,-4.668961,-46.0322,13.936615,-37.070332,22.82032,-25.882874,5.326424,0.0,28.228028,1.08971,28.5361,-14.338322,15.207089,-30.76844,2.688304,-45.334682,-15.399935,0.0,60.5369,22.30854,83.760738,11.8293,79.492779,2.230167,66.267529,-5.767937,47.274342,0.0,24.700412,26.881375,57.384226,44.412996,68.618046,56.957036,77.253347,64.281314,81.335234,16.116486,330.758363,-42.921238,274.945871
15,-9.465637,-2.797911,0.0737,-0.360067,0.0,-61.452255,-41.840172,7.734718,-36.657658,24.7229,-27.769547,30.542679,-16.47274,9.091988,0.0,31.791088,3.249554,27.3056,-10.015176,17.628261,-24.681393,5.884073,-38.823596,-8.922008,0.0,60.031528,22.516251,83.317051,11.830502,78.665714,1.962261,65.57951,-6.374073,46.714497,0.0,25.120376,27.181976,57.667907,44.894649,68.649786,57.510814,77.540116,64.867202,81.308126,6.676712,327.954122,-42.821674,274.579475
16,-12.793236,-9.826096,-0.538101,0.007101,0.0,-36.181183,-27.037354,25.114288,-24.417343,40.86319,-18.711491,39.860001,-10.662632,16.722107,0.0,32.239149,11.590738,31.88748,7.360958,25.829333,0.82128,18.144988,-6.459772,14.830349,0.0,60.34647,22.929726,83.673306,12.484989,78.990841,2.73222,65.708485,-5.66328,46.719189,0.0,25.186573,27.222484,57.936274,44.899342,69.105689,57.534711,77.607424,64.948713,81.026976,-6.043367,318.095715,-43.286619,274.554265
17,22.219391,12.734046,0.256691,0.119549,0.0,-75.852184,-53.278427,-5.690117,-47.715454,13.388786,-38.268185,22.988777,-26.480026,3.092766,0.0,27.791699,0.494189,28.906788,-15.203198,15.352511,-31.680246,2.863552,-46.227038,-16.332737,0.0,60.225163,22.276955,83.088055,11.585598,78.644085,1.726971,65.436687,-6.595917,46.227322,0.0,24.565549,26.582997,57.378112,44.261522,69.043012,56.922209,77.625393,64.384993,81.506345,16.210041,330.77732,-42.995911,274.621372
18,-7.705421,-0.231008,-0.071068,-0.369885,0.0,-63.895798,-43.69772,4.590225,-38.423538,21.306839,-29.577312,28.017769,-18.526611,12.233849,0.0,30.548361,2.709793,26.390521,-13.186615,15.629894,-30.243314,2.461371,-46.667195,-16.370466,0.0,60.346699,22.872448,83.595142,12.188358,79.032726,2.192688,65.554676,-6.351643,46.580944,0.0,24.443036,26.898603,57.389907,44.523282,69.338056,57.133334,77.867578,64.584447,81.597303,8.510857,330.523063,-43.060741,274.228238
19,-13.434563,-5.30189,-0.201473,-0.077497,0.0,-44.55574,-30.67543,20.401497,-25.815868,37.525978,-17.93787,39.044495,-7.983284,17.896156,0.0,32.029321,6.866522,27.466769,-2.973035,18.765147,-14.213031,8.627582,-25.591408,-0.950462,0.0,59.944839,22.511501,83.199806,11.521225,78.277931,1.354008,64.827347,-7.123604,45.531464,0.0,25.486248,27.286149,57.796718,44.933058,69.033811,57.353227,77.507573,64.431677,81.135657,-4.878445,325.216372,-43.216953,274.14594
20,20.35984,4.157655,-0.089893,0.384643,0.0,-77.079163,-52.09013,-5.531616,-46.029739,12.672272,-36.485252,21.74675,-24.890213,-2.271996,0.0,29.986926,1.669175,29.854101,-14.091259,15.524733,-30.620733,3.367929,-45.690118,-17.170875,0.0,59.803448,22.932472,82.933903,12.328033,78.999538,2.431068,65.691547,-6.075039,46.474285,0.0,25.31347,26.558049,56.50737,44.256829,68.474661,57.078746,77.22099,64.78316,81.138683,15.531092,329.371356,-43.257151,274.527913
21,-7.190895,0.840547,-0.936241,-0.507218,0.0,-66.414299,-43.326359,2.692909,-37.17762,18.835831,-27.941723,27.027855,-16.656647,8.379135,0.0,29.768762,2.586107,26.389718,-12.627033,15.62798,-29.04937,3.027931,-45.013642,-16.683973,0.0,59.415722,23.758678,83.595371,13.11264,79.126568,2.799282,65.600681,-6.179237,46.059208,0.0,25.777524,27.656157,57.241644,45.097623,68.953412,57.312225,77.946063,64.506148,82.368689,8.421478,330.208985,-44.11211,274.017777
22,-12.531052,-4.484871,0.549545,0.032789,0.0,-47.64513,-32.621899,19.230194,-27.577343,36.835098,-19.446831,39.509125,-9.409218,22.436028,0.0,33.283966,9.260771,28.976072,-4.14055,19.659911,-19.183259,6.545605,-33.850588,-9.285533,0.0,58.622875,23.403397,83.256054,13.012047,78.849964,3.06118,65.748653,-5.643997,46.712322,0.0,25.672919,27.916065,57.045525,45.540497,68.95051,57.841055,78.539052,65.005461,82.996938,-4.060249,325.700171,-43.513241,274.026623
23,15.794449,-1.008322,-0.898991,-0.289424,0.0,-69.72765,-49.616661,0.326157,-45.770473,17.319603,-37.741299,24.8592,-27.321224,4.457817,0.0,34.922451,5.823867,33.314718,-10.764394,20.145022,-27.83758,7.585915,-43.364659,-12.518044,0.0,60.13195,23.724518,84.061432,13.330936,79.6978,3.322048,66.286354,-5.437145,46.884499,0.0,24.587779,27.390692,56.346016,44.994499,68.521962,57.405468,78.396779,64.812244,83.100617,11.865091,324.67726,-44.28134,273.72261
24,-4.385605,2.055609,-0.280209,0.561496,0.0,-66.154633,-44.779186,4.445915,-37.901573,20.362587,-28.338432,29.066048,-17.647018,12.198029,0.0,35.9853,7.727941,30.84853,-9.282631,19.466385,-27.842396,4.290172,-45.526973,-17.516245,0.0,59.921436,22.867126,83.925877,12.822647,79.553547,3.321991,66.607075,-4.872837,47.658405,0.0,23.660967,27.281703,55.914628,44.931946,67.631459,57.340136,77.422975,64.692016,82.083341,7.635212,326.69605,-44.405823,274.247288
25,-12.696419,-2.316752,0.703697,0.089538,0.0,-50.386848,-34.660091,23.413696,-29.255161,38.134918,-20.9515,42.846794,-10.942669,28.412933,0.0,36.909827,14.281574,31.53575,-2.972727,19.633976,-22.198964,4.02872,-40.494562,-18.636213,0.0,60.413303,21.314907,82.491016,11.07605,79.363689,1.994419,66.138554,-5.73349,46.878262,0.0,24.438775,26.597323,55.680593,44.768061,67.634732,57.638884,77.057845,65.027815,80.499443,-4.985704,324.368137,-43.626623,274.325665
26,-7.713432,-9.679192,-0.943966,-0.714391,0.0,-37.429848,-22.876167,38.129311,-22.142773,50.438004,-18.397236,43.772507,-11.660385,-1.026306,0.0,40.102261,10.06717,34.265551,7.855579,27.206985,3.668283,24.959887,-0.909522,18.707658,0.0,61.086388,22.697468,83.591881,12.422161,80.251465,3.057461,67.124062,-4.869919,47.609711,0.0,23.871783,27.072307,55.822187,45.266881,67.774597,58.22539,77.61786,65.753197,81.49313,-12.536144,314.682616,-44.407597,273.604945
27,20.082436,12.0819,-0.062084,-0.087439,0.0,-60.228195,-44.11274,6.065483,-42.927876,25.097351,-36.509171,31.535568,-27.911568,19.459305,0.0,31.465478,4.9304,30.078749,-12.727439,18.617564,-31.363652,4.111898,-48.642529,-14.441075,0.0,61.443844,22.565975,84.677181,12.579689,81.960125,3.539772,68.239803,-4.085541,48.690434,0.0,22.732303,27.089288,54.894634,45.162522,67.979485,57.965112,77.378577,65.518669,81.491154,7.673922,326.759499,-44.342051,273.512489
28,-13.346558,-7.05801,-0.972004,-1.858132,0.0,-43.738976,-31.005821,26.908607,-27.121124,43.255577,-20.145493,45.873184,-11.875305,26.17836,0.0,37.776617,12.715521,30.310313,-0.767002,19.548266,-16.447963,5.095459,-31.890012,-9.496411,0.0,62.946167,22.987518,86.208687,13.019657,83.228188,4.044857,70.005798,-3.805218,47.690163,0.0,22.101893,27.241194,53.676607,45.541793,67.698953,58.489681,77.736235,66.027307,80.511052,-5.304222,319.718979,-44.945641,271.671848
29,6.910629,-7.27988,1.02562,-4.25979,0.0,-34.191113,-30.987511,19.79187,-32.96299,30.027122,-31.325798,33.59745,-27.891998,12.735672,0.0,43.291053,7.02306,34.436538,-5.824052,26.830739,-19.648425,12.73065,-33.23438,-4.715817,0.0,62.549744,22.846584,85.538177,12.840157,83.747635,3.694382,70.124817,-4.000969,47.429924,0.0,19.793168,25.243507,54.940947,43.34706,68.090697,56.533799,79.208797,64.717828,82.766485,1.981144,312.469296,-43.545284,267.442254
30,11.291542,-1.325534,-1.876545,-8.125057,0.0,-42.195854,-42.107105,6.077728,-44.516888,16.050339,-41.787415,17.737198,-36.190624,-1.51165,0.0,41.446753,6.355229,29.358616,-8.130183,21.80123,-24.387646,4.155926,-41.198084,-18.072308,0.0,61.375294,25.343742,86.095676,16.000042,85.159092,5.928841,69.293461,-3.663826,45.264759,0.0,18.307886,23.270952,55.269644,41.678379,70.779063,55.162199,80.741257,63.93792,84.230588,13.555641,311.111589,-45.138874,259.285024
31,3.507729,-29.347501,-1.995049,-10.357211,0.0,-12.230301,-35.467529,4.895096,-40.417728,7.188377,-39.868526,-3.912849,-35.769081,-37.708282,0.0,32.253599,13.209154,28.609336,18.863269,34.426287,22.319872,40.179449,25.436971,56.95858,0.0,64.248447,21.705666,83.346233,13.318348,82.325191,5.011139,62.747898,-3.148899,37.250004,0.0,13.104611,20.606668,54.612311,38.150948,73.20289,52.294324,83.513233,63.156592,80.655609,17.541075,281.694913,-46.656218,248.858637
32,-11.498909,-23.706045,1.801186,-9.31752,0.0,-37.195873,-17.552261,-33.889332,-7.072792,-26.986256,1.611328,-18.651695,9.286194,-11.954155,0.0,52.763319,20.447784,36.030069,19.775508,35.498274,18.625715,34.248631,15.966928,41.965086,0.0,60.12846,18.040981,75.085659,10.88768,67.09013,2.859249,39.962368,-6.108856,12.193966,0.0,12.042812,11.592652,41.524991,27.635347,70.270116,41.715676,84.111224,54.052173,78.85046,6.449804,257.865768,-44.447393,239.418018
33,11.251717,-10.338686,2.657146,-25.037569,0.0,-40.256481,-19.826431,-54.59753,-12.109451,-51.520386,-1.546211,-33.302879,10.44445,-6.513176,0.0,1.05198,13.169757,30.034104,23.120775,54.056928,29.882877,62.913172,33.979523,66.364712,0.0,52.855453,53.166389,61.067047,44.081039,45.522194,30.06237,22.948952,11.917706,10.155945,0.0,21.827597,20.647238,80.885568,27.588232,91.348866,34.784316,88.307535,42.167874,84.454371,18.234243,247.224042,-41.257524,214.077409
34,37.397003,-65.544975,-6.642494,2.557579,0.0,-53.040161,-42.775154,-79.149685,-33.766594,-76.251526,-21.325035,-64.780998,-7.199249,-44.766197,0.0,45.899884,33.223389,74.596535,46.24828,93.907557,56.800746,102.766518,63.448487,103.983433,0.0,52.879257,56.480484,64.747353,47.963905,46.992416,36.878815,24.830303,22.279472,18.061295,0.0,28.242724,11.205292,60.182446,9.013214,60.278406,6.179919,54.897351,2.764998,47.882875,55.813637,181.621346,-47.717628,216.577266
35,6.123505,-16.091231,-23.824997,-61.818584,0.0,-57.937088,-38.67485,-75.087261,-31.872368,-70.734787,-22.953186,-60.932236,-12.268639,-49.0131,0.0,43.075729,26.952388,63.056248,36.901737,76.296339,45.194015,79.496925,50.47806,82.296256,0.0,64.521103,23.27528,57.338219,10.636768,48.605061,0.760002,43.581905,-7.016487,31.247635,0.0,24.725359,-21.40436,24.068643,-12.086655,32.867089,1.904197,40.767066,17.124624,39.155689,61.768656,166.24043,-71.711111,155.468997
36,4.370671,-35.625017,-3.377609,6.822865,0.0,-61.350346,-35.046902,-77.926226,-28.817254,-73.795853,-21.326352,-64.760456,-12.5873,-54.560166,0.0,31.818845,19.737331,44.999501,28.776989,55.129224,36.142702,57.849608,40.729368,61.222724,0.0,55.400791,27.112999,58.669968,17.321606,51.009407,7.151012,42.828655,-1.938114,33.34116,0.0,-12.355146,-23.374198,-25.332057,-26.797888,-29.244254,-28.060931,-30.098324,-27.307638,-32.261256,65.895253,131.311356,-75.332794,162.987804
37,4.37067,-35.625017,-6.751728,-50.439682,0.0,-64.763603,-31.418953,-80.76519,-25.762138,-76.856918,-19.699516,-68.588676,-12.90596,-60.107231,0.0,20.561961,12.522273,26.942755,20.65224,33.962109,27.091388,36.202291,30.980676,40.149192,0.0,51.55941,6.751556,47.641697,-4.377308,37.557793,-10.926819,28.296261,-14.170246,22.99221,0.0,-22.76503,-55.869982,-30.86829,-50.285861,-24.320616,-38.688733,-16.15891,-23.312232,-10.701038,70.145273,97.388165,-82.205172,114.249948
38,-3.418465,4.158396,1.356468,-15.592627,0.0,-56.915131,-27.877235,-66.559639,-20.570183,-64.395676,-13.380318,-55.210304,-6.432838,-45.156212,0.0,6.50414,5.349685,-4.20264,4.960102,0.449018,2.70615,0.261266,-1.986048,1.826701,0.0,50.382786,11.517792,55.840244,2.931118,51.058903,-6.093807,40.843906,-15.066776,24.587002,0.0,-34.563651,-43.722997,-49.585303,-45.117537,-51.739929,-43.121239,-48.910741,-36.628832,-41.43005,66.977119,103.964784,-80.598392,101.075544
39,21.343117,-68.822038,-4.350357,-25.101882,0.0,-71.980591,-30.54451,-88.695488,-29.260597,-89.139748,-28.371964,-86.112213,-26.868324,-79.438019,0.0,5.606227,-1.025335,3.54151,14.452159,12.57047,28.012889,19.330472,39.293887,28.437145,0.0,56.117249,24.313946,61.739902,14.212875,57.989731,3.118458,52.116508,-7.484951,43.751392,0.0,-35.985639,-52.696597,-44.338463,-57.70116,-43.845479,-58.00704,-45.977226,-53.184611,-50.6915,89.009628,38.21151,-84.259357,79.042426
40,-4.243698,1.125031,1.759586,-16.677397,0.0,-62.517929,-33.763962,-96.611423,-30.514641,-100.420303,-26.154442,-90.50148,-20.363159,-73.990402,0.0,-7.739858,1.609308,-20.641712,7.20229,-20.15024,9.397919,-18.043069,7.979419,-8.820336,0.0,59.266148,16.928673,65.721302,8.976974,65.893078,1.428394,62.996979,-5.565376,52.272034,0.0,-36.871017,-50.141427,-50.653091,-55.696803,-50.678131,-56.605213,-54.729421,-53.008406,-59.55432,85.034466,39.954153,-82.231236,62.982641
41,11.243362,-25.385996,6.059933,-16.305783,0.0,-58.638153,-33.84716,-99.241333,-38.186989,-107.636032,-40.190277,-100.113487,-40.011063,-84.379692,0.0,-3.357061,-8.78591,-20.879667,6.396324,-12.801416,20.340092,-1.939797,32.454843,12.008078,0.0,60.917873,28.3461,80.171413,19.132175,78.563747,8.171883,69.221363,-4.308643,52.099571,0.0,-35.697697,-48.217562,-46.788534,-54.007559,-41.9155,-55.819316,-45.803461,-53.915736,-56.248543,96.998234,17.121243,-75.450897,49.229945
42,1.977997,-11.709854,1.615219,-10.247975,0.0,-57.475662,-32.071266,-95.001755,-38.325119,-104.564667,-42.441216,-99.695663,-44.228096,-83.215599,0.0,-7.81504,-11.471683,-23.529994,5.555036,-15.461747,20.589965,-3.778508,32.846619,10.280178,0.0,57.929134,24.684734,68.034725,16.524124,65.188351,6.720715,58.431816,-4.592514,46.081638,0.0,-37.184863,-42.882203,-48.548205,-48.780232,-50.765322,-52.235507,-52.763195,-53.034187,-56.596506,100.438242,7.877346,-72.373667,41.447926
43,0.023003,-6.226695,1.819267,-9.833074,0.0,-54.622307,-30.575523,-92.639465,-38.234253,-102.692986,-43.532753,-99.459457,-46.468849,-84.229202,0.0,-13.331636,-14.359595,-27.450559,2.286309,-19.476111,17.624957,-8.382032,30.184836,5.218496,0.0,58.294201,23.134403,66.103077,15.131149,63.124752,5.063725,57.644691,-6.691246,46.047421,0.0,-36.609473,-40.942931,-42.504167,-47.553159,-45.462537,-51.808133,-49.78556,-53.644775,-57.402411,100.817471,3.820344,-70.198174,33.784546
44,-1.446991,-5.339527,-2.486,-6.190355,0.0,-54.2173,-28.018227,-91.448936,-35.994415,-102.744713,-41.997757,-99.33815,-45.628624,-82.203026,0.0,-12.939675,-13.613959,-29.632201,3.208243,-23.787833,18.57792,-11.946358,30.917937,1.246895,0.0,58.857594,25.334759,70.726376,17.895699,67.554302,8.5215,61.045189,-3.049679,48.32016,0.0,-36.55717,-39.838247,-41.355208,-47.28896,-46.80462,-52.497144,-51.548966,-55.537394,-58.852465,100.127363,-0.79252,-71.92729,28.320854
45,-0.40947,-4.623624,0.839825,-4.166393,0.0,-54.484634,-28.418655,-90.990372,-34.528999,-100.845337,-39.088898,-96.854668,-41.804237,-79.984703,0.0,-13.176828,-15.964859,-26.344517,1.384074,-19.014835,17.752132,-7.334745,31.394064,6.556937,0.0,58.899307,25.681629,68.651505,18.398323,66.840935,8.992138,60.348473,-2.809582,47.487545,0.0,-35.202397,-39.320717,-39.276627,-47.158882,-45.495172,-52.675849,-51.036901,-55.974371,-57.507912,100.481329,-4.991301,-70.32403,24.579304
46,-0.08091,-3.165851,1.871567,-2.467948,0.0,-54.487724,-26.726418,-85.423164,-32.922707,-95.702477,-37.440605,-95.490303,-40.00145,-80.605888,0.0,-12.288023,-15.016126,-25.717842,2.378255,-17.885605,18.452474,-5.898646,31.588609,6.627764,0.0,56.218872,24.809361,64.910431,17.312222,61.768856,7.84132,55.991135,-3.81506,44.522953,0.0,-35.436771,-39.329023,-41.49251,-46.819317,-48.151366,-52.083755,-52.006969,-55.189832,-56.093549,101.109438,-8.188722,-67.743444,22.079786
47,-1.917915,-2.416386,-0.497589,-1.777918,0.0,-53.672905,-24.941826,-84.947777,-30.91095,-94.097557,-35.517311,-92.802773,-38.208275,-74.736099,0.0,-16.256969,-15.152872,-25.500018,2.478692,-16.889757,18.642851,-4.743265,31.846571,6.143301,0.0,57.651386,25.416012,65.607605,18.731918,64.931259,9.830074,58.914642,-1.471367,47.0331,0.0,-34.468308,-38.177192,-40.183648,-46.393362,-46.859732,-52.377533,-51.705627,-56.336969,-56.040537,99.660273,-10.440204,-67.772284,20.466773
48,-0.262985,-0.7934,0.749416,-3.006288,0.0,-51.120644,-24.305305,-84.076881,-30.930061,-92.994347,-36.320343,-93.745995,-39.705162,-78.611183,0.0,-16.116518,-15.071639,-28.992498,1.60653,-20.426481,17.084919,-7.501687,29.891645,3.16721,0.0,57.45203,24.858341,66.548939,18.251266,65.214558,9.420605,59.118633,-1.649151,46.39143,0.0,-34.755478,-38.030288,-41.460956,-45.676471,-46.434179,-51.304681,-50.464197,-54.945177,-54.578997,99.661446,-11.277539,-66.758709,17.416549
49,-7.788677,-4.367143,0.03336,-2.565359,0.0,-61.766682,-23.273793,-74.211274,-26.86924,-80.129185,-30.739231,-79.092064,-33.9604,-71.257553,0.0,-8.020885,-22.75441,-18.806876,-7.037293,-16.516753,8.40985,-7.310678,22.400672,0.097704,0.0,57.132053,23.439445,63.305397,16.873569,62.026291,8.116264,55.466824,-2.727299,44.132595,0.0,-33.732861,-37.233214,-38.970129,-44.723261,-45.438022,-50.085975,-49.490701,-53.365416,-52.723119,91.940117,-15.642475,-66.658001,14.853398
50,-7.788678,-4.367144,2.32069,-3.009252,0.0,-72.41272,-22.242279,-64.345665,-22.808418,-67.264023,-25.158119,-64.438133,-28.215637,-63.903923,0.0,0.074749,-30.437179,-8.621253,-15.681116,-12.607026,-0.265218,-7.119668,14.909699,-2.9718,0.0,54.997902,20.308342,60.178471,13.58345,58.549576,4.774017,51.141872,-5.777607,40.794926,0.0,-34.101048,-37.849977,-38.964232,-44.496513,-43.775361,-48.976567,-46.999721,-51.267075,-50.071001,84.069958,-19.958675,-64.418793,11.89509
51,8.277626,1.034628,2.848492,-1.726758,0.0,-62.000542,-15.633316,-75.15255,-19.445572,-84.385529,-24.948349,-89.625092,-31.297874,-78.615303,0.0,-11.794884,-29.214274,-30.092427,-13.403946,-24.833021,3.948013,-15.255223,20.067001,-7.304271,0.0,51.91103,13.69503,56.810188,6.627388,55.906506,-2.039337,49.37027,-11.653805,37.542744,0.0,-35.785321,-40.365411,-42.261642,-45.492023,-43.464756,-48.176961,-46.244729,-48.608658,-48.979995,92.520533,-18.608209,-61.397352,10.48417
52,-9.537048,3.859185,5.858688,-4.829407,0.0,-57.282715,-5.919228,-70.494232,-6.325378,-78.808365,-11.710625,-78.575935,-20.782471,-69.766159,0.0,-23.55701,-34.953296,-33.108657,-23.292842,-27.550718,-8.756486,-16.639945,6.206781,-7.731831,0.0,43.011475,-6.601009,46.734409,-15.632114,48.598366,-21.146679,45.481911,-22.18689,33.204346,0.0,-38.651374,-52.61944,-43.788637,-52.868541,-39.612673,-46.653857,-38.118313,-35.40957,-37.739135,83.152456,-14.76545,-55.369692,5.638337
53,-29.203835,23.941005,4.084082,-13.76199,0.0,-36.842422,17.809296,-43.127289,22.682419,-45.059738,21.925049,-46.546783,15.475845,-37.874107,0.0,-33.493979,-52.955363,-48.519738,-49.644522,-45.692341,-41.048864,-39.014528,-29.18874,-37.462863,0.0,51.677084,27.660885,73.589344,23.659744,82.156534,19.171085,79.536981,14.945039,65.553045,0.0,-17.499279,-34.450385,-19.415487,-31.163781,-5.850543,-23.609668,0.631676,-12.218785,-0.43355,53.867855,9.222409,-51.366377,-8.0768
54,-5.813484,8.821293,4.084081,-13.76199,0.0,-34.695511,13.744011,-39.58168,20.566864,-37.783699,22.926178,-37.672005,19.737625,-32.127113,0.0,-37.237536,-54.816705,-47.972043,-54.08379,-48.141856,-47.354014,-45.30004,-36.55047,-40.647981,0.0,60.342693,61.922779,100.444279,62.951603,115.714703,59.48885,113.592052,52.076969,97.901745,0.0,3.652815,-16.28133,4.957663,-9.459021,27.911588,-0.565479,39.381665,10.971998,36.872036,48.004475,17.082263,-47.332191,-22.800228
55,-0.861855,9.496688,-2.371101,7.389502,0.0,-37.337952,5.126266,-37.882576,13.144913,-37.285767,18.321877,-34.950371,18.606949,-31.393547,0.0,-39.937048,-54.612126,-52.700364,-55.025329,-49.912982,-48.751425,-43.228345,-37.695354,-38.828381,0.0,64.564304,58.278894,101.333971,56.534657,113.072033,50.96931,98.752785,42.595024,80.713534,0.0,-0.151806,-11.834451,4.28561,-2.207863,24.068473,8.203758,32.635054,20.360871,33.724887,44.872398,24.818648,-51.973514,-17.17103
56,-1.409798,11.189792,-2.371101,7.389502,0.0,-36.469231,-0.15358,-38.765488,8.782654,-38.002739,15.963364,-34.827118,18.472137,-30.031242,0.0,-40.847434,-53.538348,-53.92012,-55.475984,-52.391952,-51.229377,-44.963408,-42.263217,-39.253101,0.0,68.785915,54.635009,102.223663,50.117712,110.429363,42.44977,83.913517,33.113079,63.525323,0.0,-3.956426,-7.387572,3.613557,5.043295,20.225359,16.972996,25.888443,29.749743,30.577739,42.027197,34.886729,-55.780019,-10.903239
57,0.544624,8.499327,-2.371102,7.389502,0.0,-35.411224,1.409225,-39.040947,9.445496,-37.93087,15.739861,-35.235329,17.093811,-32.360001,0.0,-40.62362,-54.956045,-54.990131,-57.094215,-54.453458,-53.063982,-48.195919,-43.954623,-42.526984,0.0,73.007527,50.991125,103.113356,43.700767,107.786694,33.93023,69.074249,23.631134,46.337114,0.0,-7.761047,-2.940694,2.941504,12.294453,16.382245,25.742234,19.141833,39.138615,27.43059,41.448183,42.580892,-59.274759,-4.318901
58,1.18,3.715831,-2.371101,7.389502,0.0,-38.799477,-3.123207,-43.220215,5.81131,-40.825539,13.725586,-37.414627,17.21489,-34.550972,0.0,-41.207779,-54.314458,-53.1387,-57.379286,-53.001953,-54.216707,-49.307827,-46.011096,-45.479981,0.0,77.229137,47.34724,104.003048,37.283821,105.144024,25.41069,54.234982,14.149189,29.148903,0.0,-11.565667,1.506185,2.269451,19.545611,12.539131,34.511472,12.395222,48.527488,24.283442,42.168331,46.129518,-62.105713,2.903396
59,1.618652,-0.544237,-9.714603,14.984201,0.0,-39.196243,-4.157181,-43.553238,3.835602,-44.253159,11.063347,-41.845894,13.979416,-39.070015,0.0,-40.791242,-53.295607,-50.671894,-57.080228,-51.795381,-54.734732,-49.309587,-46.770843,-43.124697,0.0,62.168541,38.128223,90.700951,34.397449,85.83847,28.351936,61.409798,20.599022,51.334476,0.0,-17.210612,-4.61677,-30.791256,7.963024,-23.576184,18.955308,-10.679579,30.580533,-1.839915,43.654346,45.497657,-71.952953,17.799973
60,-0.028496,-1.522086,-20.052395,-2.601761,0.0,-37.336578,-4.979553,-43.222504,3.331718,-43.903427,11.014824,-41.259727,14.839897,-38.175888,0.0,-40.898162,-52.644634,-49.463253,-56.316129,-49.637173,-53.879704,-47.259628,-45.779008,-42.662804,0.0,75.699005,22.00676,87.851429,21.712589,85.250301,22.228317,70.239601,22.811165,56.130981,0.0,-18.722416,2.861699,-24.279058,24.971403,-18.616977,42.154166,-2.014947,56.282784,13.048047,43.574696,43.831384,-92.056503,15.054025
61,-0.439453,-1.796165,-18.468304,3.173539,0.0,-36.848145,-0.627937,-42.083359,7.049332,-43.414307,13.079109,-41.494217,14.485016,-37.004356,0.0,-41.018205,-53.11437,-50.543793,-55.849635,-49.64307,-52.503566,-48.162419,-43.565163,-41.850508,0.0,71.331654,27.426453,94.490433,31.020699,98.204041,33.93877,93.776493,35.800037,77.885513,0.0,-16.203246,0.565047,-22.648199,21.906051,-13.386069,37.774363,-2.54245,48.490036,8.720548,43.095446,41.782181,-110.564604,17.974526
62,-0.482483,-0.612348,-1.8437,-1.249859,0.0,-38.712845,-3.83812,-43.558502,4.632339,-43.682442,12.014236,-41.475677,15.077133,-36.248703,0.0,-41.806758,-53.090596,-53.228886,-56.355989,-53.730608,-53.289216,-52.082984,-44.450262,-44.723662,0.0,66.966648,25.907249,92.605648,30.704727,99.75832,34.707642,97.011337,37.608719,81.873035,0.0,-11.154502,-1.245043,-23.236742,20.712354,-15.374895,37.002205,-4.082937,47.158604,6.236267,42.563009,40.893176,-112.458258,16.44801
63,-0.35099,-1.221454,-0.221214,-1.446781,0.0,-39.167633,-4.614601,-44.18232,3.741646,-44.874916,11.265221,-42.505417,14.776497,-37.933502,0.0,-41.331681,-52.487387,-52.129451,-56.093735,-52.187465,-53.668703,-49.694385,-45.553001,-44.368042,0.0,67.9426,25.330181,94.192772,30.239468,99.952297,34.71096,96.43713,38.34692,83.13715,0.0,-13.916876,0.220048,-23.550835,21.900679,-14.763443,37.537767,-4.283966,46.888415,5.51073,42.102842,39.541259,-112.788649,14.870765
64,-0.060768,-1.084492,0.302868,-1.028237,0.0,-39.510155,-5.131645,-43.38295,2.994804,-44.044189,10.401993,-41.562424,14.043503,-36.43959,0.0,-40.554799,-50.774338,-51.365722,-54.569951,-51.564373,-52.562383,-49.0599,-45.328847,-44.10483,0.0,68.717709,25.349865,94.560699,29.998512,100.074921,34.312878,95.708141,37.787418,81.992798,0.0,-14.141215,-0.167251,-23.228035,21.579268,-14.308034,37.306666,-3.400533,46.835928,6.565551,41.963196,38.32439,-112.564659,13.710151
65,-0.417595,-0.792999,0.892353,-0.185344,0.0,-39.329224,-5.286942,-43.055992,2.972488,-42.726288,10.537262,-40.276794,14.409943,-35.762558,0.0,-40.308662,-50.780451,-51.276801,-54.46587,-51.548503,-52.317635,-48.434584,-44.792298,-44.409044,0.0,69.060688,24.384212,92.86726,28.916645,99.001465,33.172989,94.628162,36.576576,80.499172,0.0,-16.816428,0.746099,-23.60039,22.251113,-14.902752,37.724006,-4.146633,47.042915,5.672053,41.482944,37.484414,-111.734962,13.47783
66,-0.418739,0.895288,-1.469707,-0.36584,0.0,-38.543243,-3.902435,-40.391693,4.062653,-40.850487,11.320381,-39.18457,14.652901,-35.384674,0.0,-40.999804,-51.545415,-52.841279,-55.399042,-54.130874,-53.214251,-50.429647,-45.571001,-45.334559,0.0,67.182655,24.762554,93.509216,29.03738,98.873577,33.072853,96.37928,36.225414,82.829762,0.0,-12.918186,-0.625223,-22.652429,21.338411,-14.542284,37.606742,-2.253767,47.486931,7.882872,41.015024,38.327863,-113.253851,13.06015
67,-0.781288,-0.815692,-0.164623,0.026182,0.0,-38.550339,-4.97097,-40.368462,3.231468,-39.802208,11.081886,-37.760696,15.316315,-34.827003,0.0,-40.580673,-50.594428,-52.216025,-54.563806,-53.086798,-52.595852,-48.90963,-45.393376,-44.833238,0.0,66.957951,24.651031,95.035515,29.024677,101.929436,33.106556,98.542671,36.488743,84.470501,0.0,-13.419198,0.136067,-24.266492,21.617121,-17.489724,37.408585,-4.738665,47.055636,6.054103,40.214653,37.47827,-113.437557,13.052432
68,0.113411,0.540254,-0.491295,-0.150764,0.0,-37.71389,-4.592972,-40.964127,3.327484,-41.334229,10.810776,-39.288254,14.679337,-35.025444,0.0,-40.431947,-50.636758,-52.108548,-54.670696,-53.554681,-52.772273,-50.160385,-45.451082,-44.642707,0.0,65.760727,25.583897,94.414616,29.85157,99.864292,33.698158,97.336349,36.736393,84.472561,0.0,-13.441614,0.670949,-24.171303,22.078767,-16.152333,37.749694,-3.546264,47.085862,7.39066,40.309095,37.990953,-113.947821,12.874096
69,0.485802,0.480017,-0.445518,0.378777,0.0,-38.534546,-5.366249,-40.905762,2.366295,-41.413307,9.861488,-39.48452,13.909836,-35.240135,0.0,-40.523152,-50.812284,-52.578562,-54.869749,-54.198182,-53.01066,-50.481363,-45.864655,-45.774469,0.0,65.768108,25.837097,94.81739,30.078049,99.457283,34.023342,97.372799,37.238731,85.063419,0.0,-12.948228,-0.517592,-23.757946,21.076095,-16.369231,37.018878,-3.831582,46.698409,7.101822,40.799417,38.468947,-114.388819,13.250851
70,0.249023,-0.697749,0.227108,-0.05434,0.0,-38.56945,-5.542717,-42.588043,2.056732,-43.251457,9.185829,-41.358604,12.683945,-36.496239,0.0,-39.460582,-49.98279,-51.423829,-54.129454,-52.936837,-52.503226,-49.669129,-45.535711,-44.59059,0.0,65.590611,25.074005,95.103779,29.725285,101.131268,33.989925,97.349567,37.423496,83.804226,0.0,-11.879853,0.501166,-24.262725,21.831117,-16.472478,37.350138,-4.341147,46.483364,5.821088,41.061516,37.753986,-114.148636,13.179298
71,-0.047951,0.721584,-0.780487,0.176112,0.0,-38.905678,-6.294708,-41.5662,1.426964,-41.919594,8.808632,-40.159378,12.408028,-37.301331,0.0,-40.45146,-50.470989,-51.439699,-54.881728,-53.294835,-53.583951,-50.404669,-46.949641,-45.041275,0.0,65.597305,25.809059,95.405674,30.248737,100.320282,34.250393,98.331985,37.367134,85.736904,0.0,-12.896141,-0.546553,-24.607261,21.242018,-16.537038,37.321548,-3.461852,46.987988,7.339006,41.019545,38.425352,-114.923143,13.305191
72,-0.205193,0.53411,0.991573,0.165769,0.0,-39.394684,-4.961815,-42.215767,2.679977,-42.299995,9.683876,-40.750694,12.565384,-37.46418,0.0,-40.714825,-51.436025,-52.109969,-55.667564,-53.373505,-54.033834,-50.65834,-46.860196,-45.000458,0.0,65.470505,25.318451,95.860863,29.969845,101.924801,34.11684,97.023983,37.352886,82.543488,0.0,-12.321955,0.423762,-24.76491,21.633578,-17.136635,37.132406,-4.692136,46.422694,5.594587,40.818415,38.911096,-113.927507,13.422594
73,-0.638466,-0.171049,30.785007,-11.937806,0.0,-38.050232,-5.787506,-42.933998,2.363892,-42.95311,9.977646,-40.305176,13.765869,-36.878242,0.0,-40.835671,-52.174806,-52.556764,-55.945009,-52.715555,-53.701585,-49.688642,-45.97769,-44.393853,0.0,78.252869,17.181759,85.263634,12.275963,79.66713,11.939449,55.935917,15.268478,45.161819,0.0,-13.435716,3.464291,-19.470368,26.122802,-16.413445,43.799505,2.600433,58.902946,26.163958,40.175371,38.474382,-83.147078,1.219123
74,-0.375824,0.776944,-22.061863,9.078484,0.0,-37.967606,-6.719627,-42.829628,1.604691,-42.134285,9.604111,-38.972282,14.536285,-35.747681,0.0,-42.335434,-51.087598,-53.077999,-54.528393,-52.666834,-52.478896,-49.220173,-45.191699,-44.737865,0.0,76.039467,20.817604,95.833797,23.912201,96.575375,27.604237,87.803078,31.241055,70.771923,0.0,-15.417935,1.863905,-24.182357,24.37897,-15.635945,41.607736,-2.934133,54.250176,10.612827,39.803438,39.184372,-105.20505,10.230654
75,-0.226364,1.038086,-6.690731,3.668221,0.0,-37.691002,-3.802528,-41.330452,4.065742,-41.890755,11.291656,-39.937134,14.579773,-36.776962,0.0,-41.288425,-51.87541,-52.712498,-55.476508,-52.793052,-53.297676,-50.13834,-45.702005,-43.899819,0.0,68.310013,24.194984,94.502163,28.167229,99.131241,31.91906,96.564217,34.724007,79.616718,0.0,-9.503543,-1.146582,-25.181448,21.339152,-16.201301,38.287108,-3.801448,48.889499,6.48898,39.635782,40.237896,-111.837072,13.914313
76,-1.256561,2.204212,0.141506,1.86937,0.0,-36.910973,-3.517113,-40.715103,4.985733,-40.652275,12.932625,-37.79274,16.94355,-34.876213,0.0,-41.835009,-53.336887,-52.487233,-56.988004,-53.790383,-54.500975,-50.901698,-46.414666,-43.550281,0.0,67.959137,24.74762,96.914406,29.01186,101.87788,33.270493,95.967464,36.852837,81.414471,0.0,-10.743491,0.999554,-25.556921,22.290509,-19.028451,38.123809,-6.885047,47.874786,3.213522,38.408203,42.467024,-111.666584,15.808599
77,-1.502953,1.775695,-1.135025,2.299369,0.0,-37.098312,0.909576,-39.26239,9.59713,-39.334717,16.948013,-36.388893,19.631195,-33.164062,0.0,-42.555296,-55.173221,-52.458827,-57.672137,-52.596932,-53.689606,-48.674453,-44.289124,-42.474465,0.0,68.273849,24.584599,95.088329,28.081398,99.195843,31.802044,96.326637,34.781685,81.366749,0.0,-12.357029,-0.634022,-23.753377,21.568431,-15.192423,38.411257,-2.19038,48.932941,8.151981,36.968737,44.482434,-112.738123,18.347684
78,-1.109619,2.314807,-0.26247,3.748528,0.0,-34.237289,4.604301,-37.819519,13.299866,-37.16526,20.130272,-34.898987,21.784744,-29.869881,0.0,-42.208475,-55.105543,-52.525765,-56.248142,-51.935184,-51.185719,-48.405716,-41.111541,-41.517426,0.0,67.635956,23.517094,97.568951,27.10968,101.28233,31.106129,96.497498,34.504681,80.315781,0.0,-7.939003,-1.044014,-24.851453,20.832551,-15.709397,37.925528,-3.401151,48.766863,8.213175,35.859203,47.161198,-113.000507,22.460169
79,0.271454,4.810511,-0.433846,7.156224,0.0,-30.370674,9.508209,-36.286469,18.05809,-35.409164,23.458672,-33.342934,23.396988,-28.238983,0.0,-42.779111,-55.630082,-53.440721,-55.362147,-53.269271,-48.601804,-48.093012,-37.01085,-39.049756,0.0,67.593956,23.23843,93.193817,26.018715,96.79882,29.010372,94.365692,31.409111,78.465271,0.0,-13.718873,-1.837353,-23.945884,19.772451,-13.474619,36.936132,-1.728332,48.320161,10.538202,36.152802,51.948244,-113.412209,29.592928
80,0.801773,6.581359,-1.778584,9.203498,0.0,-25.436325,13.144684,-30.871696,21.325035,-29.243889,25.377846,-28.5252,23.9328,-23.387604,0.0,-39.293763,-54.411993,-49.572706,-51.889581,-46.763463,-43.257646,-40.302549,-30.307534,-34.671313,0.0,69.553299,22.177792,91.582546,25.389118,95.845013,28.917046,92.733192,31.875401,75.939789,0.0,-14.609067,-2.431175,-23.799319,18.936381,-13.145829,35.946181,-2.445131,47.175864,9.811338,36.931658,58.584376,-115.213709,38.851198
81,-0.070152,10.056394,-1.461067,11.166389,0.0,-25.531654,16.355553,-26.180992,24.333572,-25.364685,27.365456,-23.376045,24.682274,-20.803528,0.0,-32.952521,-52.395811,-46.971871,-47.726091,-44.076024,-37.532147,-36.629696,-23.462903,-31.489376,0.0,68.064537,20.255184,88.190804,23.595028,92.738285,27.063789,91.114712,29.838467,75.48317,0.0,-15.578764,-2.18652,-23.192559,18.460811,-13.152128,35.450757,-3.02188,47.225789,12.017217,36.622009,68.350605,-116.914272,49.727422
82,18.788795,-2.618773,3.180885,22.40555,0.0,-43.601532,0.8741,-44.17717,1.624374,-47.485199,-2.006493,-49.02729,-8.539696,-51.794243,0.0,-26.073494,-37.925281,-27.361391,-28.008134,-19.338624,-15.599821,-10.399696,-1.933714,-2.897484,0.0,58.661385,18.066216,84.302101,16.972847,86.902943,17.199612,85.317879,18.156223,71.09848,0.0,-19.401177,0.080214,-28.460703,10.98404,-23.643337,19.401115,-14.989079,25.372349,-4.110015,55.761023,64.017316,-113.383169,70.418456
83,-3.673553,4.553599,10.129452,16.822726,0.0,-42.643661,1.007423,-56.021919,5.168152,-55.454865,4.671364,-51.415672,0.380287,-49.63726,0.0,-19.710052,-22.250155,-13.186986,-11.306408,-6.061143,1.501153,2.728874,14.315999,11.506201,0.0,57.317333,31.12484,63.052197,35.249462,65.271721,39.409733,66.6362,42.511654,64.270363,0.0,-21.167547,-1.802371,-22.246049,8.706623,-21.437921,15.210979,-14.490166,20.392796,-7.847026,52.784328,67.014125,-102.556858,85.684393
84,6.810265,28.107336,-0.543537,6.054721,0.0,-46.481323,-16.171532,-54.607887,-20.262108,-55.127678,-25.442276,-55.063477,-29.924927,-56.939964,0.0,-20.393444,-34.885278,-16.668783,-24.16167,-5.811609,-11.309989,2.796182,2.228511,7.893617,0.0,70.281601,10.850029,79.475498,9.452248,82.771339,12.123413,77.807407,16.297817,62.458591,0.0,-13.332037,2.874049,-15.628937,20.027295,-6.48191,33.918946,2.848516,45.41502,13.179946,60.221443,93.425487,-102.473545,90.043139
85,-7.585068,28.142966,-4.824257,25.700954,0.0,-48.193531,-29.223595,-68.180638,-29.814511,-65.241318,-30.054703,-57.732201,-28.576317,-54.031239,0.0,-17.569783,-30.302965,-13.75478,-23.424998,-5.060343,-14.366027,-0.005248,-4.360258,4.262981,0.0,59.955311,20.798149,85.234451,18.263969,85.994968,16.237679,80.234985,14.733925,65.364761,0.0,-11.209367,3.721296,-13.905884,12.038366,-11.009635,18.522345,-3.513135,24.090318,3.151587,52.847061,120.615458,-107.087116,114.791098
86,-7.585068,28.142967,12.914429,23.112932,0.0,-49.905739,-42.275658,-81.753387,-39.366913,-75.354957,-34.667129,-60.400925,-27.227707,-51.122513,0.0,-14.746122,-25.720652,-10.840779,-22.688326,-4.309078,-17.422066,-2.80668,-10.949028,0.632345,0.0,60.892754,27.075291,85.528708,22.136393,83.009892,17.212572,72.410317,11.79843,57.095003,0.0,-8.358042,6.365927,-12.74581,14.116793,-11.046053,19.330966,-3.327498,23.685328,3.186553,45.23447,147.367436,-94.200211,136.513041
87,-7.585068,28.142966,12.914429,23.112932,0.0,-51.617947,-55.327721,-95.326138,-48.919315,-85.468597,-39.279556,-63.069649,-25.879097,-48.213787,0.0,-11.922461,-21.138339,-7.926777,-21.951654,-3.557812,-20.478104,-5.608111,-17.537796,-2.998291,0.0,61.830196,33.352432,85.822964,26.008816,80.024815,18.187466,64.585648,8.862934,48.825245,0.0,-5.506716,9.010558,-11.585736,16.195219,-11.08247,20.139588,-3.141861,23.280338,3.221519,37.403984,174.18567,-81.5312,158.301241
88,12.056808,0.259599,-12.033806,39.260541,0.0,-66.151657,-60.444088,-118.22216,-60.125713,-119.231071,-55.876236,-109.923248,-48.260078,-87.256851,0.0,-7.348423,-7.416718,3.652043,-1.052165,8.43523,6.215426,13.244414,14.063718,17.9669,0.0,67.688141,25.643749,98.997631,21.564846,99.814396,19.3297,91.290722,17.973289,74.905987,0.0,-21.201139,8.361006,-13.96924,-4.733416,-22.058173,-18.535312,-27.740014,-32.042289,-37.743643,49.235401,173.787287,-93.790398,196.903801
89,-5.300389,37.383329,-1.080837,21.514708,0.0,-65.771055,-54.407072,-102.271413,-56.755743,-101.611347,-55.11466,-95.536565,-50.078401,-84.882116,0.0,-2.062958,-1.951992,0.278062,-6.604917,-3.757235,-10.582076,-9.123346,-13.868278,-13.798192,0.0,58.905888,25.560436,97.002525,22.958336,99.121056,20.810909,94.139671,18.762589,75.392017,0.0,-12.76239,6.699611,-3.298892,-8.415655,-16.958083,-24.468477,-26.401265,-41.528943,-43.006754,44.032087,210.233755,-94.77416,217.481647
90,-5.300388,37.383329,6.150856,-26.339823,0.0,-65.390453,-48.370056,-86.320667,-53.385773,-83.991623,-54.353085,-81.149883,-51.896725,-82.507381,0.0,3.222507,3.512734,-3.095919,-12.157668,-15.949699,-27.379577,-31.491105,-41.800274,-45.563282,0.0,72.566986,24.489727,93.007164,19.404545,95.807877,14.475746,91.316872,9.778461,71.882114,0.0,-9.647699,20.473102,17.866432,35.478082,28.215616,45.624168,45.006726,51.639338,52.604558,39.063091,247.230804,-88.291912,190.755544
91,-0.949287,12.232139,23.94001,42.098899,0.0,-73.93198,-42.813263,-68.601151,-45.8741,-66.130657,-45.450096,-62.963505,-42.520523,-66.832581,0.0,9.984856,0.498635,-1.414702,-14.846343,-15.078833,-29.234683,-30.691993,-42.922526,-41.322696,0.0,57.536659,26.340008,80.778351,26.249256,72.247238,27.535572,70.806656,27.808285,65.402756,0.0,-7.852923,25.219486,11.143788,24.353313,5.639295,18.687959,6.660646,10.878076,4.388355,38.170452,259.361734,-64.295254,232.753234
92,1.4217,3.411155,-8.669128,-15.428526,0.0,-77.912407,-40.079498,-75.831757,-38.089828,-74.317245,-34.730301,-70.686035,-30.328331,-69.05508,0.0,25.767768,-6.463292,2.756847,-12.344834,-3.40677,-16.214423,-10.642004,-20.24691,-15.189737,0.0,69.290199,16.906815,90.933723,13.453102,93.663712,12.495403,86.111984,12.612019,68.031921,0.0,4.670678,24.702388,27.307267,44.254174,41.696966,58.004508,59.384074,66.043362,71.148392,39.620876,262.640881,-72.935658,217.192702
93,2.455444,31.423982,2.281609,10.596124,0.0,-79.235058,-34.574318,-78.319645,-34.780655,-79.342918,-35.103493,-74.352264,-35.405388,-71.390877,0.0,27.179259,-1.632557,2.395422,-21.22621,-15.704488,-39.324762,-33.250559,-56.22128,-50.747538,0.0,71.065178,16.612186,86.199417,12.910709,88.30822,10.590763,81.319656,9.646626,65.678329,0.0,10.426187,23.736488,28.999414,43.613451,44.997402,57.948624,62.989064,66.209162,72.234459,42.072229,294.060958,-70.65814,227.78492
94,0.416908,10.154794,1.693897,9.328511,0.0,-78.198624,-34.083481,-76.526985,-37.060547,-75.273628,-38.425255,-69.59959,-38.988075,-70.007687,0.0,32.832632,1.076865,4.214589,-18.787007,-16.21115,-38.555969,-33.909127,-57.805549,-54.138192,0.0,69.587345,21.514149,86.551609,15.854759,87.325802,11.178818,79.118671,7.583485,61.880322,0.0,12.602642,30.252762,34.188486,48.247511,51.003062,59.787613,66.188785,65.121305,70.261471,42.353354,304.225585,-69.100027,237.123265
95,-10.428429,-42.595681,1.046047,9.139246,0.0,-73.958817,-23.690186,-87.920494,-16.778183,-90.625191,-11.020088,-84.547405,-6.165504,-64.607334,0.0,17.422076,19.504856,23.256872,34.702003,39.237817,46.523316,52.477785,54.774159,74.325081,0.0,69.555817,24.899769,89.913254,18.611584,90.704155,13.377571,80.558395,9.117908,59.378128,0.0,11.713991,31.16179,32.814292,49.587063,49.289673,60.577957,64.052529,65.187069,70.280614,31.788797,261.676819,-68.190107,246.309426
96,1.137886,3.960301,2.809525,7.572083,0.0,-63.015003,-19.144249,-86.5345,-12.765999,-89.053574,-8.012924,-80.48624,-3.758354,-57.582264,0.0,6.870536,30.4072,37.773715,41.280397,46.694303,48.391081,56.290441,51.885475,72.840724,0.0,68.925018,23.874092,91.260338,17.364235,92.901764,11.927662,81.594429,7.484493,58.122482,0.0,13.04107,32.349559,35.525321,50.481888,52.421407,61.267586,66.531438,65.63723,71.480733,32.604017,265.808384,-65.703249,254.052773
97,7.672005,-0.665978,2.324581,6.392032,0.0,-70.286922,-13.608055,-84.899254,-11.855278,-89.686546,-12.168846,-84.442234,-12.805138,-68.895493,0.0,0.625779,22.385451,29.482981,39.454252,46.926114,51.401784,62.352046,58.937804,81.540555,0.0,68.972454,24.797802,98.549252,17.752934,98.580151,11.894588,85.869884,7.803497,63.643169,0.0,11.541831,31.198593,36.951755,48.926766,52.573807,59.903581,65.901522,64.963903,72.09163,39.925404,265.200235,-63.729286,260.502635
98,-6.739311,1.836704,3.158054,4.853335,0.0,-49.086514,-18.445358,-36.555634,-15.962563,-38.541069,-12.699738,-36.506081,-8.634338,-40.821877,0.0,10.716043,21.912504,27.525184,36.16382,35.918486,46.553759,45.495728,54.099659,55.293912,0.0,66.105881,27.019386,94.495583,19.107971,92.625847,11.69735,78.649178,5.212097,52.896423,0.0,14.689003,30.370767,41.179868,47.708924,57.299442,58.362476,67.275468,63.368705,71.966894,32.762346,267.056267,-60.994978,265.375298
99,-8.376732,43.856316,4.392185,3.027437,0.0,-65.901661,-41.927834,-39.81926,-38.521328,-16.961174,-31.750832,-12.583008,-23.006516,-29.425278,0.0,36.51907,3.184036,19.735617,-7.783578,12.53521,-20.057645,0.163268,-33.451927,-16.276853,0.0,66.18742,25.854034,93.404331,17.807064,92.714138,10.32732,79.796047,3.730488,57.39584,0.0,16.041522,31.758607,46.084147,49.28535,61.295064,59.891786,72.457131,64.823668,74.377074,23.871431,310.922433,-57.116976,268.412584
100,2.467918,-3.17323,2.308159,1.970023,0.0,-57.433777,-43.604336,-12.652588,-40.43129,2.438507,-33.879089,2.370872,-25.193253,-24.157906,0.0,29.259568,7.697065,25.63451,3.137044,23.130593,-2.619205,14.940389,-9.667212,8.713724,0.0,66.337452,27.114315,94.296284,18.223343,92.191372,10.070972,80.485897,3.362617,59.557972,0.0,17.957637,33.406911,50.243593,51.687997,64.287983,62.840307,74.296799,67.864876,76.730506,26.077194,307.761923,-55.070972,270.395328
101,4.801369,-20.699109,1.018753,0.951327,0.0,-32.628479,-38.084335,-6.454353,-38.94413,0.882339,-36.522217,-0.787239,-31.807938,-17.068634,0.0,20.251418,17.025515,37.249084,25.185647,43.746215,31.519078,44.332597,35.983447,47.245117,0.0,67.378292,27.230701,93.185863,18.490791,92.775822,10.442905,80.800953,3.894081,60.088406,0.0,19.076308,32.311768,50.777487,50.624593,65.560783,62.30666,74.796545,67.911004,77.582353,30.686445,287.07464,-54.244337,271.35848
102,-10.347519,32.931062,0.898418,-0.971643,0.0,-67.720356,-51.081505,-8.489227,-49.175777,8.399734,-42.703915,13.236008,-34.110203,-7.278099,0.0,27.24669,-1.600509,23.04476,-12.626292,16.850329,-24.755493,5.601009,-36.14443,-10.546291,0.0,66.912003,27.351608,92.092781,17.960701,91.554565,9.175014,78.768997,1.51165,56.403008,0.0,20.016458,32.332763,51.528619,50.487446,66.293452,61.920658,76.10905,67.563905,78.224187,20.135679,319.984444,-53.549166,270.36558
103,4.189911,-16.585111,1.000214,0.466463,0.0,-51.757793,-43.835678,-0.442314,-45.368958,10.649757,-42.860699,8.362999,-38.220005,-21.729584,0.0,24.025542,9.744956,31.014885,11.629393,31.120787,10.765876,27.184137,8.611898,25.526509,0.0,65.180054,27.169247,91.426506,17.466831,90.199356,8.298054,76.663055,0.092697,53.907967,0.0,20.116123,31.260343,50.380185,49.096209,65.771475,60.316073,75.553976,66.042498,77.420691,24.144945,303.40256,-52.729597,270.835269
104,1.241226,13.673208,0.482311,-1.15251,0.0,-73.696404,-50.928497,-14.949417,-45.903511,3.605461,-37.583599,10.490227,-27.507591,-4.842339,0.0,31.247437,-0.857281,26.724035,-11.163672,19.276503,-21.3197,8.782082,-31.365381,-2.412589,0.0,64.94276,26.718063,91.213589,16.804104,89.54607,7.424755,75.981731,-0.879421,53.307323,0.0,21.504087,32.293366,51.110693,50.222969,66.447395,61.379724,76.164008,66.999691,77.884683,25.306807,317.083441,-52.326651,269.690432
105,2.420197,9.199885,0.224247,-0.363401,0.0,-69.966602,-47.691879,-13.62133,-43.997784,3.198395,-37.365532,8.472977,-28.764839,-27.472801,0.0,22.101028,-3.303215,18.383468,-17.72138,8.601709,-32.20284,-4.921446,-46.881098,-27.31548,0.0,64.726639,26.805782,91.162262,17.056103,89.563408,7.730312,75.381889,-0.628338,53.064079,0.0,21.302904,32.435145,51.204924,50.142446,66.005695,61.281047,76.305787,66.991663,78.08883,27.644005,326.288853,-52.185402,269.332557
106,2.201958,-31.732055,0.049896,0.04199,0.0,-50.9828,-42.960835,-10.880814,-41.743183,-0.845833,-37.72419,-0.888863,-31.104012,-34.694366,0.0,24.282732,15.333121,34.593445,18.865368,35.760034,20.993596,34.670942,21.904353,38.648471,0.0,65.0877,26.306992,90.820312,16.642628,89.42997,7.364388,75.378227,-1.011829,52.882576,0.0,21.314328,31.622633,50.351842,49.171297,65.218377,60.544488,75.037495,66.691495,77.511278,29.793806,294.549897,-52.187662,269.367647
107,1.383247,-12.210156,-0.482655,-0.44837,0.0,-29.344482,-27.632332,-3.606834,-29.480896,-6.752014,-29.768944,-13.418083,-27.630615,-33.189468,0.0,0.522594,19.431249,29.750113,33.092602,38.786484,43.605609,46.468482,51.395794,53.240773,0.0,64.417362,25.441418,90.719547,15.887432,88.935757,7.118511,75.612431,-0.455647,53.650417,0.0,21.875701,31.248796,50.844054,49.265714,64.93945,60.90721,74.518668,66.941152,76.868951,31.050167,282.286281,-52.797203,268.865817
108,-8.896179,28.218333,1.13966,-0.178829,0.0,-71.034336,-45.715828,-11.320496,-41.535759,4.963989,-34.135036,7.348251,-24.492416,-25.028801,0.0,33.244755,6.030422,26.888661,-0.074471,21.200213,-7.3709,13.392182,-15.601612,7.674588,0.0,63.219566,23.500557,89.592934,13.743439,87.004395,5.139084,74.216194,-1.998825,53.106995,0.0,22.428305,30.836056,50.31757,48.591399,64.261863,60.321075,74.448149,66.46802,77.523505,22.093306,310.489547,-51.718225,268.671921
109,2.897644,-3.006319,-0.218182,0.24447,0.0,-55.03727,-42.001476,-7.377892,-40.457611,5.715065,-36.264153,5.885811,-29.608383,-19.139442,0.0,24.727088,6.186342,23.344558,5.836278,21.050221,4.284861,15.002263,0.673944,11.449885,0.0,64.245358,24.234524,90.297604,15.001945,87.819843,6.66275,75.693569,-0.379143,54.87196,0.0,22.384339,31.821222,49.800905,49.185068,64.112489,60.551836,74.0259,66.296045,77.724503,24.954901,307.490592,-51.972456,268.923754
110,-8.207817,-12.247206,-0.02203,0.136036,0.0,-31.837063,-11.647797,14.226608,-13.117104,6.571655,-15.059395,-6.741943,-15.8424,-30.377598,0.0,-20.293408,11.909802,13.550202,26.083127,24.391721,36.641089,35.629494,44.60504,43.844583,0.0,64.089432,23.887939,89.653702,14.545097,88.416595,6.298828,75.945625,-0.527458,54.73217,0.0,22.897238,32.089775,50.230008,49.294736,63.677087,60.577586,73.261059,66.220216,77.444711,16.723938,295.256446,-52.017632,269.072851
111,2.950974,14.191788,0.068493,-0.306406,0.0,-67.713776,-45.894184,-7.308769,-42.966499,8.652649,-36.746006,10.481415,-28.414078,-10.844536,0.0,31.043414,8.487965,27.029761,3.441103,21.959311,-3.853905,12.710334,-12.297101,5.011478,0.0,64.011097,24.162884,89.567585,14.705887,87.764797,6.156349,75.377941,-1.102867,54.08884,0.0,22.967386,32.173879,50.603351,49.588607,64.213883,60.956363,73.782789,66.642527,77.809409,19.656658,309.445486,-51.967392,268.763697
112,1.979942,-5.408163,-0.162621,0.591692,0.0,-48.240395,-42.800102,-2.00695,-42.621231,9.039001,-39.191494,7.321014,-33.24131,-13.740692,0.0,21.412264,7.84045,24.760371,11.615932,25.830815,12.973885,21.643643,11.848793,21.567566,0.0,64.168339,24.054165,89.534397,14.704227,87.919979,6.345234,75.393848,-0.61758,54.458942,0.0,22.13777,31.729832,50.343938,49.280904,63.905563,60.786797,73.317376,66.579726,77.278418,21.625929,304.056003,-52.140684,269.374069
113,-4.302292,4.378475,0.368729,0.075583,0.0,-64.444313,-45.455704,-4.97406,-42.593651,10.284576,-36.040764,11.665649,-27.295303,-6.539612,0.0,32.225688,9.428115,26.30512,5.126643,21.623945,-1.831641,12.218431,-10.269588,4.319565,0.0,63.520031,23.787861,89.590816,14.470196,87.517719,6.194229,75.182133,-0.553951,54.465466,0.0,21.903921,31.249599,50.047289,48.967644,64.098224,60.52726,73.507999,66.345569,77.327941,17.308502,308.452323,-51.78709,269.467498
114,-0.093842,-7.129517,0.519505,0.048536,0.0,-44.964695,-39.827099,3.58017,-38.575516,15.866432,-33.963203,14.620743,-27.523727,-3.753433,0.0,23.781504,12.62481,27.042543,16.926776,28.400002,18.252249,24.656693,17.166615,25.006447,0.0,63.115082,23.484535,88.858795,14.196968,87.116089,5.945492,74.890022,-0.684643,54.294205,0.0,22.266334,31.446336,49.669747,49.152834,63.945886,60.741596,73.64774,66.563548,77.503251,17.207623,301.317758,-51.274624,269.510985
115,0.768127,-2.598643,0.240726,-0.2914,0.0,-59.652729,-43.782578,-1.984177,-43.134613,9.956932,-39.333515,7.521744,-33.577366,-17.238808,0.0,26.873285,12.494702,31.084416,15.682752,31.793929,15.964149,28.034008,14.640405,26.671485,0.0,62.713566,23.744087,88.461399,14.393349,86.890125,6.009579,74.638882,-0.831871,54.121227,0.0,22.788125,31.640788,50.398401,49.063481,63.977008,60.550478,73.542888,66.515877,77.611993,17.969484,298.750315,-51.040163,269.250785
116,-11.245422,-5.337644,0.21286,-0.017043,0.0,-0.679779,-11.571236,23.823051,-15.333481,26.305161,-18.680878,14.195137,-20.536766,-7.940254,0.0,-9.856477,10.354803,16.451174,26.082633,28.81089,37.966562,38.009046,46.544991,43.728616,0.0,63.621426,23.784142,88.632946,14.424133,86.802006,5.938053,74.826336,-1.070251,54.267254,0.0,22.970474,31.153639,49.850305,48.796719,63.852828,60.534238,73.532699,66.656853,77.997069,6.720543,293.46309,-50.830822,269.284161
117,12.218285,13.598429,-0.211601,0.385446,0.0,-62.170315,-45.249939,-4.403114,-43.631458,10.998116,-38.543816,10.669327,-31.613503,-9.964256,0.0,33.391041,10.245011,29.087964,6.888999,25.283521,0.815291,16.802225,-6.65441,9.627939,0.0,63.587437,23.776302,89.462643,14.817982,88.008671,6.815414,75.891552,0.418739,56.225567,0.0,22.91354,31.1805,49.643132,48.855382,63.431258,60.585182,72.455957,66.808388,76.865369,18.92664,307.112,-51.054611,269.720088
118,4.489059,-20.671815,0.553379,-0.37007,0.0,-20.490303,-38.087883,5.290604,-42.832546,12.137947,-43.175583,2.903709,-40.377789,-21.616859,0.0,9.866234,15.608343,32.264035,30.060842,41.768226,40.39397,46.254702,47.47489,51.603276,0.0,63.127899,24.23172,89.389,14.92218,87.378502,6.520214,74.708633,-0.335426,54.490128,0.0,23.423969,31.110475,50.425819,48.94066,64.358255,60.626925,73.241114,66.749108,76.822206,23.434896,286.483626,-50.482035,269.393459
119,-5.74379,24.977609,-0.196896,-0.30375,0.0,-61.726341,-45.559158,-1.937599,-44.184494,13.750992,-39.084549,13.29689,-32.003231,-8.590965,0.0,31.88853,7.992973,26.578612,2.226226,21.278266,-6.296813,11.111184,-16.05239,0.943979,0.0,63.404675,24.276695,89.738674,14.763851,87.420673,6.20676,74.586124,-0.778999,54.020061,0.0,23.774156,31.130173,50.390127,48.92411,64.919628,60.538807,73.982366,66.582937,77.624837,17.731962,311.477476,-50.638075,269.105949
120,0.529518,-20.736653,0.392647,0.258981,0.0,-16.430054,-33.069477,8.321342,-37.206059,16.415062,-37.635612,6.818504,-35.321102,-21.265869,0.0,12.697243,16.620432,29.272474,28.992868,37.313921,36.67147,40.662646,40.803808,46.974341,0.0,63.137913,23.99374,89.39146,14.398155,87.556286,5.787277,74.73032,-1.235962,53.753185,0.0,23.221119,31.196185,50.068593,48.981785,64.231297,60.611426,73.350412,66.592324,77.256002,18.281736,290.765246,-50.225172,269.389352
