takenoko1/special-research/HandMotion_SimilarSearch_自分用/NewProject/handData/test_key/d4_feature_d2/49.csv
frame,vel_0x_L,vel_0y_L,vel_0x_R,vel_0y_R,posFromWrist_0x_L,posFromWrist_1x_L,posFromWrist_2x_L,posFromWrist_3x_L,posFromWrist_4x_L,posFromWrist_5x_L,posFromWrist_6x_L,posFromWrist_7x_L,posFromWrist_8x_L,posFromWrist_9x_L,posFromWrist_0y_L,posFromWrist_1y_L,posFromWrist_2y_L,posFromWrist_3y_L,posFromWrist_4y_L,posFromWrist_5y_L,posFromWrist_6y_L,posFromWrist_7y_L,posFromWrist_8y_L,posFromWrist_9y_L,posFromWrist_0x_R,posFromWrist_1x_R,posFromWrist_2x_R,posFromWrist_3x_R,posFromWrist_4x_R,posFromWrist_5x_R,posFromWrist_6x_R,posFromWrist_7x_R,posFromWrist_8x_R,posFromWrist_9x_R,posFromWrist_0y_R,posFromWrist_1y_R,posFromWrist_2y_R,posFromWrist_3y_R,posFromWrist_4y_R,posFromWrist_5y_R,posFromWrist_6y_R,posFromWrist_7y_R,posFromWrist_8y_R,posFromWrist_9y_R,posFromBody_0x_L,posFromBody_0y_L,posFromBody_0x_R,posFromBody_0y_R
2,2.083282,-22.672528,0.749474,-0.429536,0.0,-11.351051,-34.893436,8.630905,-40.653934,14.212074,-41.909523,-0.921135,-40.163841,-42.935429,0.0,11.6536,14.027532,30.072512,30.306423,40.597561,42.120203,48.0785,50.157698,54.061374,0.0,61.538372,22.912445,88.963337,13.516731,85.332699,5.022926,72.067051,-2.0438,51.233196,0.0,24.83688,30.999324,51.406045,47.833413,65.413385,59.044262,75.739597,64.967176,80.183157,19.068346,291.96186,-49.658518,273.607415
3,-2.765694,17.227253,0.291195,-0.299119,0.0,-56.302872,-43.114471,4.266243,-43.420372,15.338631,-40.708809,11.407013,-35.467701,-17.520676,0.0,28.180603,9.772373,28.46799,9.953178,27.916991,7.185834,23.96694,3.356382,19.800887,0.0,61.320534,22.592239,88.962708,12.926846,85.355873,4.451408,71.94912,-2.342262,51.30043,0.0,25.176878,30.742443,51.87189,47.872933,65.767462,59.360239,75.629558,65.486682,80.01711,16.129246,309.136719,-49.54073,273.255901
4,-7.736206,-14.350672,0.569115,0.395635,0.0,-2.97226,-17.648621,24.012566,-23.290157,27.167244,-26.527519,12.543983,-27.672901,-8.819389,0.0,-4.864265,10.643672,22.588918,27.199636,36.79034,39.653089,44.958561,48.948193,49.306407,0.0,60.991859,22.615414,88.232918,12.887363,84.491272,4.27002,71.444664,-2.591629,51.11824,0.0,24.705537,30.949615,51.849042,48.095976,65.478717,59.615762,75.055156,65.747207,79.952396,8.148851,294.750386,-49.215803,273.615875
5,7.268028,23.841093,0.684872,-0.081758,0.0,-62.769527,-44.750576,1.106186,-42.917633,15.542107,-37.662964,15.579987,-30.029011,-5.953102,0.0,29.981369,5.871291,24.895481,-0.219029,20.454453,-8.918674,11.939195,-18.176481,0.24731,0.0,60.240612,22.54549,87.7775,13.051872,83.993626,4.486771,70.897694,-2.461224,51.048031,0.0,24.859234,31.283994,52.217692,48.372988,65.18886,59.934394,74.875586,66.245904,79.407387,15.078564,318.540164,-48.869247,273.482803
6,5.467873,-30.247266,0.001087,0.018402,0.0,-19.385262,-40.548878,6.918983,-47.174149,13.309937,-47.936726,0.164566,-45.242729,-57.004395,0.0,13.49759,14.221552,35.393051,31.461156,45.533457,44.206873,52.060352,53.396755,61.734542,0.0,60.138702,22.319527,87.789116,12.669983,83.620377,4.009094,70.77507,-3.010654,50.787048,0.0,24.84639,30.784989,52.984262,47.877626,65.421597,59.50387,75.195576,65.830879,79.998276,20.20463,288.260201,-49.209967,273.468507
7,-6.695023,15.750431,0.180187,0.349507,0.0,-55.006657,-42.058754,7.488213,-43.933239,17.509117,-42.446594,11.573868,-38.290844,-14.718018,0.0,28.473856,11.527258,29.684041,15.989158,33.081486,17.452704,30.678099,17.671239,28.083532,0.0,59.968586,21.917953,88.074017,12.480984,84.484119,4.100418,71.395168,-2.57452,51.263065,0.0,24.262972,30.626167,52.483404,47.593574,65.118094,59.150164,74.772277,65.481125,80.032301,13.116417,303.968858,-49.42297,273.776241
8,-12.054062,-7.528178,-0.07925,0.205382,0.0,7.400894,-12.372894,30.031471,-18.107529,32.798882,-21.929684,17.149887,-23.855839,-6.059875,0.0,-4.010813,9.838631,20.100191,26.416826,33.535599,39.084182,42.711216,48.766832,47.316747,0.0,60.216866,21.553516,88.538132,12.323856,85.336876,4.263897,72.555656,-1.953106,52.666512,0.0,24.069817,31.133323,51.975878,48.154392,64.753952,59.716045,74.235604,65.936164,79.246403,0.641041,296.426199,-49.923534,273.967142
9,12.91523,10.121387,0.537586,-0.247557,0.0,-58.197498,-42.74929,7.539139,-42.948246,19.291191,-40.115833,13.059998,-35.140343,-30.208797,0.0,30.950788,10.87363,29.364482,13.2023,29.484154,12.69502,27.441451,11.001453,28.040924,0.0,60.185452,21.789722,87.483845,12.393894,85.046253,4.099159,72.579174,-2.339802,52.133045,0.0,24.939139,31.425279,52.553182,48.264122,65.019788,59.743462,75.038607,66.038793,80.306596,13.306017,306.520616,-49.636202,273.692615
10,0.903511,-12.586216,-0.181789,-0.084598,0.0,-6.364403,-29.61834,13.859825,-36.180954,17.51152,-38.425941,1.479836,-37.770653,-24.059372,0.0,5.349994,14.926865,26.166614,31.164568,38.60784,42.959885,45.534816,51.267662,49.81134,0.0,60.318832,22.347679,87.824364,13.028584,84.856224,4.561214,72.176857,-2.259521,51.755333,0.0,24.429266,31.528649,52.168354,48.12469,65.16521,59.38321,75.215583,65.46896,79.884717,13.893156,293.892888,-50.134363,273.566505
11,6.606903,-2.532323,0.146885,0.788244,0.0,-51.950226,-43.076591,-0.013504,-44.779472,7.617073,-43.443146,0.750389,-40.411034,-55.758934,0.0,28.991386,17.148398,38.332494,27.500978,45.403102,35.199834,49.299121,41.188204,58.904706,0.0,60.507603,22.387562,88.337231,12.935715,85.011463,4.555035,72.476292,-1.976738,52.430477,0.0,24.153612,30.507112,51.387458,47.478842,65.210349,59.046732,74.590978,65.371888,79.235535,20.071392,291.372468,-50.416145,274.366652
12,-3.755836,-2.574313,0.020199,-0.207296,0.0,-21.239548,-38.02248,9.372597,-43.507061,14.430542,-44.55677,0.845261,-42.040901,-26.557846,0.0,14.605763,18.801827,33.781736,35.147408,44.866059,46.400742,48.485682,53.735456,54.917976,0.0,60.6847,22.802067,87.896576,13.400574,85.320282,4.806747,72.618599,-2.241554,52.062607,0.0,24.176027,30.547435,51.676388,47.439075,64.950133,58.94824,74.57764,65.318042,79.655129,16.0431,288.802061,-50.668402,274.163261
13,-22.137222,16.12081,0.338173,-0.707227,0.0,6.321144,-8.134918,37.511444,-14.958,39.628487,-19.659748,20.61573,-22.424412,-7.15107,0.0,-17.987401,5.282439,15.536651,20.262163,27.189818,32.394698,35.973876,42.156265,40.30999,0.0,60.970802,19.999466,86.868553,10.922184,85.215683,3.439751,73.390846,-2.098732,53.925591,0.0,24.984896,31.105844,52.382195,48.770969,65.023431,60.727763,74.418324,66.938867,79.64599,-6.224098,304.914596,-50.460205,273.447759
14,25.641975,-1.528323,0.820599,0.706672,0.0,-57.024765,-44.346886,-5.125923,-43.681526,6.569138,-40.4175,3.25779,-35.054169,-22.139511,0.0,30.790546,11.801492,32.235259,15.675466,35.449677,17.671177,32.848749,18.377787,31.834437,0.0,60.809498,20.465355,85.826855,11.247883,85.143299,3.603172,73.643246,-1.947727,53.527164,0.0,23.890246,31.503084,51.609698,48.770599,63.032351,60.516083,73.147253,67.017166,79.360765,19.344921,303.402884,-49.712563,274.171042
15,4.776421,-7.810748,-0.064774,-0.221128,0.0,-21.090546,-38.360367,-0.578842,-41.179104,5.69355,-40.298195,-0.059509,-36.498413,-14.54052,0.0,10.601125,14.69277,29.315823,26.19471,38.305757,34.56961,40.235827,40.416015,43.951164,0.0,61.115055,20.79895,85.863934,11.59029,84.746532,3.990326,73.179302,-1.554852,53.388691,0.0,25.056341,31.726312,52.36756,49.192725,63.516659,60.947471,73.397157,67.386002,79.131609,23.97975,295.601816,-49.918928,273.959593
16,-6.699257,13.454612,0.194435,-0.178829,0.0,-60.69849,-42.392807,-2.12986,-41.201992,8.988533,-37.850761,4.597321,-32.441368,-32.684212,0.0,30.839267,10.112803,27.58113,11.491258,28.087237,10.663308,25.793024,8.66488,24.824654,0.0,61.128559,21.084595,86.372623,11.619244,85.206013,3.652039,73.156643,-2.284985,52.740612,0.0,24.560609,31.542975,52.234859,48.889715,64.139597,60.526272,74.067952,66.810179,79.896141,17.117329,309.05104,-49.887657,273.775376
17,0.340347,-15.568699,-0.043259,0.191118,0.0,-12.462959,-27.807541,10.671959,-32.380142,13.500824,-34.166279,3.5289,-33.432312,-13.396797,0.0,-1.749451,12.865019,25.509219,29.297483,37.918334,41.842203,44.517169,51.313543,51.213507,0.0,60.84795,21.495266,86.613293,12.058697,84.883289,3.88504,72.95351,-2.482567,52.354145,0.0,24.052526,31.406877,51.894182,48.674824,64.362393,60.236786,74.632721,66.4264,80.388415,17.279005,293.468015,-50.109587,273.952168
18,-1.208954,29.480882,0.023861,0.468994,0.0,-67.500401,-44.489708,-4.192085,-40.322342,11.40152,-33.488903,13.719749,-24.581909,-25.156059,0.0,30.184898,3.08857,22.553226,-4.475485,16.083142,-13.730142,8.258068,-23.528636,-2.739434,0.0,60.910606,20.589008,86.487579,11.435452,85.729408,3.839779,74.089394,-1.649151,53.976402,0.0,23.354623,31.026618,51.194364,48.447088,63.402977,60.271428,73.372395,66.609305,79.37188,16.016407,322.935543,-50.13937,274.407808
19,6.306267,-28.102057,0.202961,0.407923,0.0,-33.297386,-43.447781,1.531334,-46.877689,6.726723,-45.664101,-0.3162,-41.10672,-19.762459,0.0,15.170409,12.100549,32.475036,25.274197,41.615702,35.113137,42.824713,41.962616,47.40857,0.0,60.780888,20.712833,86.525402,11.429272,85.207043,3.750973,73.554211,-1.956482,53.513889,0.0,23.509061,30.580101,51.036469,47.837612,63.226864,59.604215,73.588892,66.110917,79.208241,22.266684,294.833471,-49.992399,274.815716
20,-4.86351,29.853298,0.250111,-0.579157,0.0,-66.728668,-45.093441,-2.850952,-42.370548,13.311424,-36.650906,14.782104,-28.675003,-29.869308,0.0,28.682943,1.683625,22.595031,-6.968843,15.241175,-17.21867,7.197505,-27.840852,-4.49543,0.0,60.932922,20.60503,86.540337,11.546345,85.140152,4.024315,73.398399,-1.49231,53.900528,0.0,23.949897,31.126283,51.246482,48.451041,63.546793,60.358805,73.668797,66.837905,79.1983,17.365408,324.68257,-49.780054,274.23236
21,4.681206,-27.407118,0.31992,0.227859,0.0,-41.789761,-42.352066,-1.438751,-42.93869,6.898384,-39.629803,3.952217,-33.559456,-19.870491,0.0,22.846479,13.847098,33.597102,22.805045,39.59529,29.275253,39.069424,33.079387,41.715553,0.0,60.705585,20.548439,86.257038,11.30373,84.487553,3.734436,72.814693,-1.777668,53.236141,0.0,23.953108,30.734662,51.198872,48.112833,63.495355,60.091672,73.7077,66.653889,79.114072,21.930199,297.26406,-49.57655,274.448826
22,-4.912262,18.291275,0.207939,-0.027849,0.0,-63.456974,-43.075619,-0.665131,-41.15324,12.86293,-36.852322,10.995598,-31.08902,-45.575523,0.0,32.007338,6.292429,25.507984,3.787832,21.849766,-0.381865,18.102936,-5.289417,18.085399,0.0,60.996609,21.156349,86.625652,11.683159,84.075222,3.746109,72.174282,-2.060108,52.847843,0.0,23.945204,30.886136,51.341207,48.299381,64.096063,60.260375,74.011018,66.785479,79.293395,16.961174,315.54002,-49.425373,274.405663
23,4.521332,-19.71067,0.10088,0.074594,0.0,-28.183365,-41.247654,4.06929,-43.686733,11.114502,-41.671715,5.720444,-36.739082,-9.509468,0.0,11.326384,16.771597,32.001287,28.558578,40.006425,36.085582,39.29364,40.584594,42.793715,0.0,61.383133,21.440964,87.432976,12.015324,84.54174,4.02935,72.637138,-1.920147,53.303947,0.0,24.308976,30.144328,51.610871,47.664773,64.473605,59.829789,74.217326,66.555088,79.652165,21.35479,295.820474,-49.452209,274.47138
24,-4.69162,14.725374,0.658722,0.085463,0.0,-56.234093,-41.79594,-0.073471,-40.460072,10.835953,-36.455898,7.790909,-30.052185,-17.781601,0.0,28.46941,12.117469,29.3764,11.12341,28.076369,6.975512,22.801216,1.682019,15.890913,0.0,61.408424,22.107754,87.240028,12.793007,84.689827,4.562473,72.394638,-1.849422,52.696152,0.0,23.381299,30.113947,50.517642,47.713308,64.379436,59.857762,74.352004,66.500007,79.356442,16.582232,310.541525,-48.874426,274.552521
25,-2.440224,-15.249882,0.701122,-1.094341,0.0,-9.100456,-28.191948,18.004761,-33.389969,22.511559,-34.982471,7.136993,-34.11335,-23.823624,0.0,-5.504493,13.508767,22.852098,31.024765,35.655676,43.586096,44.314813,52.453208,48.408062,0.0,61.251698,23.366833,89.254704,14.182377,86.244106,5.684223,72.995968,-1.201057,52.297153,0.0,23.710491,31.236631,51.139406,48.752136,65.906894,60.617107,76.499683,66.93652,80.338706,14.074001,295.285144,-48.24131,273.45168
26,-32.394676,-16.193737,4.604931,-1.836272,0.0,26.147919,4.212112,57.594452,-6.780567,58.026924,-17.769871,41.620445,-27.3032,5.278473,0.0,3.413131,19.466262,42.711895,37.07044,56.656435,50.615392,67.754466,60.545476,73.631994,0.0,60.836792,24.048328,85.206184,14.79641,81.923103,5.52721,68.621521,-2.898045,48.190498,0.0,23.842822,28.132067,54.870552,45.516537,68.997379,57.910277,79.759487,65.499959,84.936642,-18.381643,279.088135,-43.697348,271.612136
27,-0.401459,-9.128872,6.567993,-6.348004,0.0,33.21785,16.164551,60.834846,1.801643,54.519196,-13.609943,32.546082,-26.94088,-10.204754,0.0,26.178161,16.482852,46.892151,33.367144,61.606163,47.504468,70.268573,58.862469,80.288318,0.0,63.190956,28.249855,82.539711,18.388767,74.276962,6.920414,59.459496,-5.545521,36.81015,0.0,15.398762,24.466872,54.533703,38.044738,73.22969,48.994506,84.055587,57.923183,86.129845,-18.809166,269.942991,-37.155418,265.24786
28,21.203613,-6.610073,11.168118,-8.646293,0.0,-71.360378,-34.261379,-62.982159,-30.378914,-64.812241,-26.423378,-53.950253,-22.947292,-49.697971,0.0,-22.662648,31.907117,29.944566,53.063549,51.189548,68.153559,60.442106,78.293347,73.182636,0.0,39.138279,24.219646,59.523067,14.421787,21.653652,1.552048,-11.866035,-12.223892,-21.830063,0.0,44.093314,15.867139,64.465022,26.707979,73.750987,35.88619,75.865198,41.894814,72.72698,2.586279,263.364226,-25.795469,256.632875
29,4.518585,5.594958,21.682606,24.300084,0.0,-49.76429,-27.599773,-74.45303,-22.270775,-77.18605,-15.001373,-70.505848,-6.32412,-51.949711,0.0,-10.83658,19.551107,42.465882,36.300906,61.52774,49.702783,70.762144,59.387656,78.1541,0.0,29.788055,28.352623,17.604904,31.685944,27.380447,31.72142,27.961693,28.813362,40.30941,0.0,12.295989,2.142986,10.797492,-24.875351,-6.121504,-49.712231,-34.790738,-73.211535,-69.541153,7.368593,269.113328,-3.849134,281.087103
30,15.271339,1.704867,18.666859,-75.373016,0.0,-58.026524,-30.627251,-89.917431,-25.456924,-94.653282,-18.505783,-82.317867,-11.272888,-62.449322,0.0,21.516931,24.829532,46.30651,42.803718,60.630877,56.210844,71.925027,65.429008,78.484341,0.0,40.505734,30.081024,26.868897,31.097603,27.876434,29.165897,26.687393,24.973583,29.755955,0.0,-15.945531,0.14885,1.95579,-4.072717,5.430702,-7.847952,-1.751859,-11.803282,-12.018266,22.057085,271.627388,14.234877,206.52328
31,2.587967,-0.201492,18.666859,-75.373016,0.0,-60.928917,-31.342163,-93.107185,-26.086578,-96.468086,-18.751144,-83.675194,-10.466766,-64.645901,0.0,26.707238,28.360544,48.152971,45.904207,62.915642,57.886874,74.756531,65.133902,78.300696,0.0,51.223412,31.809425,36.132889,30.509262,28.372421,26.610374,25.413094,21.133804,19.202499,0.0,-44.187051,-1.845288,-6.885912,16.729916,16.982907,34.016326,31.287019,49.60497,45.50462,23.655396,272.751493,31.912079,132.47586
32,-0.71537,-0.887847,9.078712,-44.024925,0.0,-61.470165,-32.438736,-94.573517,-26.744385,-97.092476,-19.106255,-84.876194,-10.758476,-65.036488,0.0,26.537301,28.962363,48.120676,46.794894,62.02693,59.005791,74.293032,66.287956,79.143527,0.0,51.938324,35.255356,44.213905,41.442719,39.650345,43.641701,36.125336,44.516029,33.357811,0.0,-52.347337,-20.80674,-15.46573,-5.006723,10.269217,13.64187,26.043545,31.786117,40.091362,22.903748,273.572495,40.954514,90.159785
33,0.265732,-0.229588,31.175652,13.269392,0.0,-62.702065,-33.504639,-95.3619,-28.288422,-97.326221,-21.140442,-86.068726,-13.146744,-66.072521,0.0,26.065281,29.59759,48.283697,46.909318,60.74635,58.684319,72.68888,65.679467,77.430077,0.0,39.95327,15.188942,44.930077,4.500732,17.673683,-3.680649,7.278442,-10.416183,5.299988,0.0,-33.089144,-49.309711,-102.726812,-48.555337,-18.047299,-41.58776,-9.902018,-31.055023,-6.058209,22.797089,274.231604,71.757774,104.317873
34,0.91095,-1.126451,6.757393,-4.970661,0.0,-63.943291,-33.649979,-96.151657,-28.080711,-97.531643,-20.845757,-86.150265,-12.95208,-67.039433,0.0,27.754402,30.715334,49.361303,48.237199,60.962724,59.893268,73.532452,66.703721,78.35059,0.0,64.731789,23.532028,50.060921,13.055534,34.523048,2.827148,21.110916,-7.204971,13.388329,0.0,-10.739107,-51.795165,-113.411949,-56.400048,-20.997023,-56.91412,-21.775727,-52.526012,-26.336829,22.544003,275.140863,77.351131,101.382922
35,0.886002,0.687838,9.839973,-7.511691,0.0,-63.6973,-34.927254,-97.290573,-29.604721,-99.073277,-22.448273,-87.102299,-14.529991,-67.830276,0.0,26.820674,30.267397,47.764252,47.510335,60.256855,59.139172,72.824546,65.919676,77.500472,0.0,67.501373,29.110107,58.335571,19.931946,37.30545,9.851646,23.949394,-1.479607,15.102539,0.0,-4.434081,-49.525436,-107.684969,-56.096174,-23.836493,-59.298056,-26.686429,-57.53536,-32.2586,23.030834,276.964522,86.791935,95.007053
36,0.475616,0.210198,8.632507,-10.023234,0.0,-63.738613,-35.204201,-97.027988,-30.025749,-98.908539,-22.892418,-86.67635,-15.063171,-67.500229,0.0,26.591086,29.456243,46.702701,46.775999,59.447183,58.651838,71.685065,65.866386,76.535375,0.0,64.52282,31.684685,65.825844,22.825356,36.194916,13.274002,24.132271,2.60376,16.186638,0.0,3.352152,-47.993377,-101.576927,-55.41059,-21.220282,-59.296204,-24.66648,-58.145207,-29.135481,22.835712,277.844867,94.753704,85.653966
37,1.456718,0.514751,4.378853,-11.420831,0.0,-64.576263,-35.146866,-96.689644,-30.379601,-98.987217,-23.405457,-87.175999,-15.458794,-67.609005,0.0,25.247397,28.03407,46.878505,45.028215,60.173306,56.872068,72.534874,64.112118,78.027512,0.0,58.206482,27.796097,75.782661,19.867287,27.994537,12.550278,18.71006,5.639191,13.9888,0.0,2.678548,-51.229778,-92.813216,-58.60429,-16.622686,-59.594952,-18.348734,-54.645471,-22.025538,24.217415,280.310422,99.057541,76.183938
38,0.334396,-0.790714,-3.569069,-22.446892,0.0,-64.958553,-34.504623,-97.776546,-29.355011,-100.264492,-22.289543,-87.905045,-14.472084,-67.362785,0.0,25.556273,28.500285,48.001621,46.030301,61.46778,58.064036,73.327626,65.048872,78.725291,0.0,44.641914,31.892853,90.544395,25.905418,31.247864,20.566063,23.510628,15.481682,17.788582,0.0,-16.409184,-41.73803,-75.41479,-40.469645,-11.926629,-32.344742,-7.136001,-21.046486,-1.453481,24.344931,279.733349,95.281591,53.950687
39,-0.03685,0.645848,-21.058044,-39.628543,0.0,-65.223312,-35.269318,-97.409763,-30.081024,-99.414711,-23.054695,-87.303829,-15.358772,-67.078629,0.0,25.096417,28.075319,47.356082,45.67783,60.9019,57.726014,72.923408,64.99058,77.990647,0.0,43.178673,44.310608,115.011749,46.473999,52.61364,44.818382,48.205147,41.601677,46.39183,0.0,-62.220178,-10.778257,-8.425072,9.461089,11.170711,29.581195,29.403632,47.9102,44.333307,22.824183,281.24679,72.739649,15.189737
40,1.02047,-0.246631,-20.07225,-8.534216,0.0,-65.887928,-35.562973,-97.709026,-30.174637,-99.214439,-22.998734,-87.084789,-15.25692,-67.116051,0.0,24.447297,27.651711,47.275127,45.611757,61.487602,58.035075,73.92994,65.556954,78.671754,0.0,53.978691,60.103111,126.578522,65.366592,49.785919,62.774391,44.214592,57.253761,41.057281,0.0,-50.508719,0.555846,-2.794515,21.018173,7.127047,36.622317,21.170789,48.549316,31.630846,22.359266,281.430343,51.182013,7.085705
41,0.049438,-0.579836,-13.091469,-4.095411,0.0,-65.992069,-35.027962,-98.020763,-29.906273,-100.359478,-22.928352,-88.381119,-15.302925,-68.538094,0.0,25.618085,28.123669,47.564058,46.365544,61.117717,58.883402,73.392835,66.283633,78.618957,0.0,45.456734,58.836365,123.374977,65.018463,51.636658,63.625145,44.756126,59.262428,43.699951,0.0,-44.744997,-4.709797,-19.014465,15.214499,-0.298965,30.671306,16.575385,43.50721,27.006296,21.446915,280.88095,37.128754,3.020738
42,-0.333252,0.077806,-13.359604,-0.663416,0.0,-65.978794,-35.556221,-97.950153,-30.21183,-100.207558,-23.113403,-87.733269,-15.559044,-67.986832,0.0,25.34768,28.191224,47.161383,46.463603,61.450675,58.958861,73.516829,66.352917,78.476252,0.0,34.993057,55.735817,119.096146,63.568726,53.010979,63.880005,50.141144,61.039238,51.021996,0.0,-54.184011,-3.469478,-26.800358,16.51382,-2.772563,31.969639,13.513028,44.724002,25.420792,20.535135,281.162084,23.190622,2.560651
43,-0.001488,-0.547232,-10.557747,7.113277,0.0,-65.688457,-36.075897,-98.081989,-30.697975,-100.133972,-23.432579,-87.32872,-15.687675,-67.412624,0.0,25.957959,28.22988,47.39412,46.144848,62.285171,58.583913,74.167555,66.113634,78.685215,0.0,24.63089,44.436836,110.398293,54.56955,53.938065,58.007698,52.321587,58.106575,53.5746,0.0,-61.663066,-10.344306,-32.454535,9.332402,-8.284435,26.33723,9.309492,41.282466,21.655345,20.449533,280.590538,12.548761,9.649613
44,0.405693,-0.538155,10.690041,6.251519,0.0,-66.626759,-35.87986,-98.327065,-30.231171,-100.670815,-22.843323,-87.486477,-15.070038,-66.595516,0.0,26.550207,29.009109,48.27709,47.087591,63.304052,59.403958,75.080041,66.436774,79.647719,0.0,15.091209,16.739845,73.314629,19.004288,31.776466,20.002899,31.26194,21.528397,28.052559,0.0,-57.224385,-19.656515,-44.891345,-6.248802,6.915768,10.75757,21.591217,28.697794,33.948493,21.118355,280.120957,23.50193,15.969706
45,-0.004005,-0.358399,-12.126274,14.542253,0.0,-65.860977,-35.775032,-98.079014,-29.94072,-99.983196,-22.375374,-87.210045,-14.592361,-67.219963,0.0,27.09182,29.189296,49.686666,47.062644,63.911738,59.382407,75.283941,66.632276,79.551142,0.0,8.43029,22.803612,60.250854,31.601257,15.834846,34.584618,17.840195,36.028633,19.490204,0.0,-12.536507,-19.76217,-57.404819,-8.914938,4.277482,5.336254,15.732893,20.094202,24.239291,21.261234,279.492862,11.522541,30.242264
46,0.130463,-0.119487,-34.541359,53.382521,0.0,-64.905224,-36.175804,-97.571011,-30.412788,-99.624939,-22.907295,-87.526073,-15.084915,-67.671032,0.0,27.222175,29.355158,49.407678,47.102103,63.170548,59.414764,74.877623,66.926764,79.885829,0.0,54.429703,29.505501,81.457901,19.051208,19.452095,8.035583,7.596588,-4.663525,3.276329,0.0,-8.018538,-47.780894,-87.670672,-55.213359,-23.405907,-58.074719,-26.47095,-57.579666,-32.48047,21.832209,279.341836,-22.578306,83.593246
47,-0.773964,-0.239715,-17.7808,4.477677,0.0,-65.006905,-35.004387,-96.870174,-29.173851,-98.477955,-21.843567,-86.705418,-14.250755,-66.681576,0.0,27.492333,29.278155,50.627063,47.197075,63.759338,59.521654,74.872992,66.805362,79.915407,0.0,55.397072,26.746902,71.13224,13.696976,15.030956,-0.081253,1.086617,-13.741035,-0.68882,0.0,-6.380114,-49.825049,-96.390448,-55.298945,-27.618181,-54.174192,-25.8356,-51.018499,-33.52822,21.280575,278.382281,-40.136776,87.351083
48,0.387497,-0.051376,-43.44429,4.531214,0.0,-64.865341,-35.252953,-97.069874,-29.40033,-98.673706,-22.10598,-86.783295,-14.601402,-66.958637,0.0,27.532162,29.679595,50.737967,47.6234,63.707715,59.930442,75.094614,67.265403,80.357725,0.0,67.415085,31.310921,74.952621,19.686527,19.714394,7.088871,6.905193,-6.430206,0.258064,0.0,-9.274758,-48.084891,-87.990169,-54.677304,-25.053933,-56.515953,-27.39381,-55.58627,-34.208462,22.640047,278.078253,-82.609091,91.629646
49,0.350876,0.026059,-18.717613,-5.280679,0.0,-65.152473,-34.892464,-97.309399,-28.678207,-98.979435,-20.991554,-85.594826,-13.397026,-65.888271,0.0,27.570941,30.00045,52.506684,47.928817,65.286055,59.985894,76.324065,66.644997,80.670553,0.0,53.548565,30.933266,77.953262,19.487858,15.650768,7.215271,2.829895,-4.088116,0.871124,0.0,-16.921774,-41.764799,-77.841643,-47.14468,-17.134443,-46.434951,-13.83061,-43.754798,-22.335124,23.569508,276.517511,-100.748119,84.762166
50,0.758171,0.178026,-52.822323,-34.519623,0.0,-66.403942,-35.899544,-97.107754,-29.569931,-98.474236,-21.732559,-85.476837,-13.918762,-65.867615,0.0,27.239342,30.310931,52.527556,47.84743,64.608406,59.848993,76.301958,66.642774,80.993755,0.0,53.283978,25.241661,86.672516,24.61132,44.423389,23.850803,30.780773,22.629261,23.984013,0.0,4.932314,-24.91132,-31.853487,-9.782747,-5.460836,6.824347,13.066418,23.349035,21.339831,25.293274,274.138731,-152.604847,47.685737
51,-0.686646,-0.391004,-18.125381,-13.283965,0.0,-66.033897,-35.559769,-96.820908,-29.062157,-97.729454,-21.15612,-84.593124,-13.403435,-64.904079,0.0,27.746868,29.844468,53.094857,47.543248,65.848787,59.664051,76.788119,66.564721,81.07014,0.0,28.082829,10.839043,68.939724,9.136734,29.531822,7.620277,24.972897,8.259029,24.895248,0.0,-53.098871,-2.25883,-3.637933,17.252262,21.284225,35.169577,36.041986,50.584023,49.298102,27.597427,271.726729,-167.739429,32.380774
52,-0.531693,-0.580886,-46.910162,1.990185,0.0,-65.98835,-34.780083,-95.879974,-28.562508,-97.384529,-20.871162,-84.510841,-13.110924,-64.977722,0.0,27.977691,30.222442,52.472536,47.946972,66.008103,60.146445,76.838878,67.380506,81.384511,0.0,12.792635,17.804718,84.134359,20.042381,36.721773,22.015972,36.225271,24.486093,37.880831,0.0,-55.326239,-8.377555,-21.820079,10.916454,7.550949,29.482951,24.189983,45.982213,38.509271,29.101009,265.587719,-212.614317,28.812835
53,-0.036507,0.285596,-46.910162,1.990185,0.0,-66.586361,-34.35894,-96.25946,-27.95414,-97.61776,-20.282936,-84.268513,-12.84462,-64.795589,0.0,27.91131,29.738875,52.330016,48.108387,65.976795,60.532138,76.6054,67.577181,80.966584,0.0,-2.497559,24.770393,99.328995,30.948029,43.911724,36.411667,47.477646,40.713158,50.866413,0.0,-57.553607,-14.49628,-40.002226,4.580646,-6.182328,23.796324,12.337979,41.380402,27.720439,30.034361,262.915053,-258.554621,27.844758
54,0.076218,-0.379024,-13.438568,-3.155384,0.0,-65.948296,-35.360756,-96.341858,-29.072571,-97.349625,-21.226616,-84.647255,-13.536186,-65.187378,0.0,28.855288,30.046762,52.798764,47.819457,66.092824,59.987623,76.799481,67.170122,81.202903,0.0,-9.429817,15.053329,75.08812,22.335434,32.233887,28.005524,36.229134,34.806004,42.616539,0.0,-52.917077,-12.177953,-36.142825,6.111284,-2.529945,23.866411,16.538242,40.219803,30.85347,31.554937,261.729476,-270.54883,23.882821
55,0.233688,-0.192908,-19.138012,0.712353,0.0,-65.009022,-35.808907,-96.115322,-29.669724,-97.557507,-21.841393,-84.614239,-13.999214,-65.060005,0.0,29.188493,29.511016,51.865777,47.193555,65.760422,59.412665,76.959291,66.726754,81.728091,0.0,-4.266243,10.22295,69.056568,17.952232,35.480003,26.106548,40.897694,35.76313,46.667862,0.0,-50.246835,-7.116364,-39.95653,9.84882,-6.214839,25.443022,12.502575,38.980318,25.975403,33.589211,261.703063,-287.886257,24.761668
56,-0.469666,-0.085401,-11.750164,5.840848,0.0,-65.715694,-35.792885,-95.923347,-29.731636,-98.118382,-21.884079,-85.38208,-13.773079,-65.283737,0.0,29.131807,29.874417,51.141568,47.737082,65.31514,59.924452,76.768421,67.050018,81.72982,0.0,-7.510872,6.419277,68.083076,14.227295,34.400368,23.327007,38.758049,33.560028,44.490681,0.0,-55.43282,-15.973658,-47.592741,0.908071,-9.956667,17.296136,6.84423,31.562426,21.818613,35.376749,261.930366,-297.379217,30.91522
57,-1.04496,0.083734,-9.692516,4.938489,0.0,-65.973701,-35.446587,-95.864868,-29.172592,-97.827187,-21.306038,-84.809418,-13.38192,-64.96336,0.0,28.977307,29.829401,51.512379,47.658474,65.265122,59.896788,76.611513,67.156722,81.301025,0.0,1.541348,4.917469,72.172165,14.765511,39.229088,25.673962,43.444576,35.805187,50.864239,0.0,-55.599484,-18.085986,-50.998523,-1.310591,-16.015278,14.490846,-0.564121,27.373464,12.603506,36.07687,262.160695,-305.326653,36.000305
58,-0.218239,-0.213039,-2.566795,4.29718,0.0,-66.207275,-35.846558,-96.470261,-29.526901,-98.083477,-21.635399,-85.085907,-13.724785,-65.291348,0.0,29.463098,30.037315,51.86343,48.019343,65.403875,60.283099,76.836346,67.573167,81.768969,0.0,-2.975464,7.274895,75.560017,16.950474,39.699783,27.083817,45.181732,36.43959,51.135521,0.0,-64.385086,-22.322589,-55.364401,-4.984617,-21.686096,10.655867,-7.256198,23.826273,6.21027,37.188635,261.875933,-306.563444,40.225762
59,-0.687561,-0.03458,2.479706,-0.215725,0.0,-65.936909,-36.02726,-95.866013,-30.003777,-97.839432,-22.339325,-85.311756,-14.398727,-65.566177,0.0,29.637789,30.08832,51.950869,47.751964,65.172311,59.876472,76.670547,67.245458,81.590819,0.0,-8.341427,7.196617,75.978699,16.831627,37.965889,27.057896,43.688164,36.873837,49.970856,0.0,-69.819678,-24.036255,-55.080472,-5.370896,-19.789865,11.208039,-5.758782,24.865255,6.757965,37.711945,261.667463,-302.872868,39.836148
60,-0.694542,0.00883,3.444672,-1.226641,0.0,-65.492249,-35.98629,-95.988121,-29.831772,-97.387848,-21.972656,-84.640675,-13.850212,-64.435902,0.0,28.696528,29.69213,51.415863,47.267841,64.907093,59.495657,76.592803,66.998518,81.444224,0.0,-12.223549,8.947105,76.306973,18.132992,38.685436,27.645378,44.19857,37.088127,49.017677,0.0,-72.343294,-23.053281,-53.071145,-3.750597,-18.550966,13.616707,-3.894691,27.796516,7.925295,37.820978,261.56539,-298.62462,38.498603
61,-0.804749,0.385508,1.69178,0.638314,0.0,-63.451881,-36.192169,-95.475769,-29.862785,-95.877228,-21.810379,-82.481174,-13.44635,-62.346611,0.0,28.709557,28.850225,52.450923,46.271189,66.046882,58.533833,76.883215,65.995444,80.946083,0.0,-10.385971,10.338478,79.207764,19.536095,41.013966,28.735657,45.697689,37.246628,50.417233,0.0,-73.771396,-22.321786,-53.523374,-3.573404,-19.973819,13.837187,-5.076378,28.320931,7.211954,37.587461,261.810616,-296.361609,38.996636
62,0.19249,-0.305479,2.622414,-0.214583,0.0,-63.29916,-35.79586,-95.211983,-29.702454,-96.535892,-21.775475,-83.005657,-13.495331,-62.74292,0.0,28.914383,29.401841,52.036578,46.892645,65.733437,59.07841,77.053893,66.452274,81.132323,0.0,-9.52652,10.800362,79.009895,19.963417,41.892071,29.122181,46.744823,37.470989,51.150398,0.0,-72.81448,-22.805878,-53.008869,-4.58222,-19.970824,12.320072,-5.540463,26.481386,7.2478,38.196115,261.16886,-293.32303,38.445776
63,-0.233688,0.054834,0.03931,0.105284,0.0,-63.815289,-35.242767,-94.738197,-28.894272,-96.044254,-20.871277,-82.574387,-12.624092,-62.282124,0.0,28.596616,29.695464,51.817117,47.405112,65.42135,59.498004,77.275886,66.517235,81.1301,0.0,-5.340614,11.756344,81.974831,20.92123,44.211044,29.878521,48.447361,38.373013,52.891273,0.0,-73.819407,-24.431581,-53.21351,-6.41454,-19.897588,10.960853,-4.756233,26.019864,7.499588,38.087425,260.917566,-293.158722,38.244932
64,-0.241241,-0.101888,1.738586,-2.728936,0.0,-63.830338,-34.367981,-94.578495,-27.77607,-95.273209,-19.756622,-81.90691,-11.740723,-62.121677,0.0,28.830897,30.286354,52.671002,47.881455,66.068989,59.924761,77.523752,67.001791,81.214945,0.0,-4.248161,12.574139,81.805916,21.615372,42.800388,30.314541,47.544765,38.349953,52.290459,0.0,-73.137682,-22.527075,-50.898302,-3.740933,-17.478176,14.037598,-2.850399,29.117295,9.426077,38.0478,260.651391,-291.218519,35.351709
65,0.513382,0.521853,1.773262,-0.159193,0.0,-62.966824,-35.139427,-94.770927,-28.84861,-95.898857,-21.076698,-82.968349,-13.311081,-63.324337,0.0,28.523442,29.594564,51.994341,47.150577,65.16558,59.33523,76.094724,66.937817,79.931401,0.0,-6.582184,12.82917,83.990192,21.268559,44.298706,29.614735,48.724251,37.470646,52.947636,0.0,-72.393404,-22.882078,-50.496461,-3.914822,-18.846133,13.887019,-3.828556,28.991263,9.325485,38.741026,261.067682,-289.265413,35.086955
66,0.31311,-0.251139,1.278648,-0.574402,0.0,-63.370285,-35.001755,-95.432224,-28.623734,-96.517467,-20.566635,-83.066082,-12.426224,-63.074055,0.0,28.735739,29.70695,52.082582,47.476063,65.748134,59.745438,77.028514,67.138876,80.53958,0.0,-5.871964,13.809814,85.244236,22.412853,41.805096,30.897903,47.692852,38.950481,52.116909,0.0,-73.486016,-21.817131,-49.856387,-2.397552,-16.595608,15.625201,-1.403278,30.809905,12.208427,39.289112,260.742303,-287.751789,34.438313
67,0.243759,-0.221499,0.441055,1.090759,0.0,-64.345779,-34.738083,-95.554676,-28.343697,-96.806602,-20.450592,-83.604527,-12.470512,-63.53096,0.0,28.552155,29.955866,52.664456,47.692684,65.78117,59.844671,76.990105,67.191735,80.815049,0.0,-2.257233,15.782261,88.222504,24.097939,43.929062,32.195435,49.525967,39.741726,53.717308,0.0,-73.374464,-22.754564,-49.169136,-4.014857,-17.832778,14.014225,-2.002195,29.732576,12.007831,39.850016,260.523491,-286.993589,35.531758
68,0.23735,-0.125168,2.523193,1.177549,0.0,-64.818707,-35.045128,-95.985889,-28.465004,-96.81736,-20.429878,-83.404427,-12.3563,-63.540688,0.0,28.310711,30.489204,52.647105,48.336493,66.139137,60.437413,77.154855,67.608427,80.819371,0.0,-1.625175,15.987282,88.911724,24.334259,44.077435,32.499504,49.709816,40.203781,53.996029,0.0,-74.095894,-22.865807,-48.748492,-4.15077,-17.002791,13.79319,-1.668434,29.600245,12.261501,40.470514,260.415289,-284.087248,36.726274
69,-0.297318,0.355559,3.241024,1.44005,0.0,-63.174992,-35.41626,-95.589924,-29.093628,-96.726837,-21.365547,-83.525276,-13.65303,-63.773289,0.0,27.890191,30.221269,51.970135,47.794387,65.388746,59.868012,76.263735,67.224339,80.321848,0.0,3.800583,17.682781,91.860981,25.645409,45.978699,33.099976,50.433311,40.108452,54.708996,0.0,-74.253049,-23.241527,-46.765687,-4.374523,-16.202011,14.110031,-0.012412,30.440174,13.204955,40.392036,260.797771,-280.627384,38.193247
70,0.026207,-0.156723,5.993557,2.196956,0.0,-63.715839,-35.22789,-95.964375,-28.712769,-96.915894,-20.8461,-83.313904,-13.095589,-63.549843,0.0,27.470906,30.445238,51.575735,48.253871,65.602032,60.337748,76.706362,67.468932,80.548719,0.0,5.883465,17.963505,91.662312,25.158062,45.667248,32.162991,49.550343,38.836956,53.27774,0.0,-75.40951,-22.965225,-45.283213,-3.510542,-15.646968,15.259422,0.992792,31.766234,14.905253,40.590849,260.706565,-274.461222,40.455721
71,0.733109,-0.262439,7.653179,3.482353,0.0,-63.611412,-35.117912,-95.805874,-28.81588,-96.464653,-20.962486,-83.32655,-13.080025,-63.718872,0.0,27.296029,30.449807,51.204985,48.21997,64.864856,60.35016,76.816833,67.575699,81.038277,0.0,7.100716,18.643513,92.367325,24.92157,45.369129,31.300335,49.817448,37.326794,52.78141,0.0,-75.978664,-22.37202,-43.325633,-2.541215,-14.236187,16.346507,2.070213,33.137432,15.780163,41.764126,260.477826,-266.367874,43.971774
72,-1.045189,0.513763,10.371151,5.570474,0.0,-65.128784,-33.903923,-95.59433,-27.502785,-95.855026,-19.941902,-82.769508,-12.612877,-63.736267,0.0,25.980251,30.563922,50.74476,48.475432,64.495712,60.423951,76.38773,67.303318,80.811714,0.0,10.177002,21.179008,93.067245,26.415939,47.746811,30.700321,50.716667,33.888874,52.139797,0.0,-75.137037,-19.919757,-41.159891,-1.361411,-10.329424,16.850946,4.602474,33.257352,16.411067,40.898008,261.209291,-255.817652,49.759949
73,0.457878,0.288374,13.188915,6.779362,0.0,-66.821022,-32.534523,-95.987434,-26.607971,-96.233826,-19.758911,-85.39793,-13.431015,-66.662865,0.0,24.471627,29.578756,50.276506,47.50416,62.892301,59.835285,75.50649,67.233787,81.380065,0.0,15.47184,22.153301,94.004745,24.407902,46.352119,26.21933,46.491852,28.182507,46.488934,0.0,-74.777001,-17.406206,-33.784021,0.573414,-5.718366,17.998887,7.838196,33.483451,17.89953,41.381121,262.294801,-242.603502,57.336446
74,0.144424,1.090945,13.551636,9.253207,0.0,-67.43248,-32.355309,-96.195087,-26.727219,-96.862907,-20.029335,-85.231934,-13.611031,-65.883808,0.0,23.109721,28.873011,47.665514,46.592353,60.429756,58.742735,74.467539,65.86688,82.029803,0.0,21.576118,24.872932,94.732533,22.322617,54.123516,18.27879,50.227146,14.896431,40.420189,0.0,-67.742703,-12.177799,-26.209962,3.414643,-2.638842,19.817035,14.734914,34.735934,26.368136,41.944313,264.442975,-228.633099,67.646882
75,0.733566,0.662891,18.873711,3.851435,0.0,-67.788506,-33.337212,-97.36639,-27.945213,-99.103832,-21.219177,-88.133755,-14.234962,-67.394142,0.0,22.132089,28.421615,47.53485,46.16998,59.312382,58.294427,74.004349,65.275928,83.164529,0.0,19.475784,25.414925,85.238743,18.821182,65.88232,8.289299,46.94664,-3.450565,18.119316,0.0,-56.377941,-5.736521,-17.142254,8.736387,6.964458,23.196882,25.531017,33.463845,40.745268,42.693529,266.871433,-209.743738,73.263884
76,-1.568298,0.028035,10.884075,32.044975,0.0,-67.596645,-32.798882,-96.512718,-27.467079,-98.176746,-20.671921,-87.406597,-13.471527,-66.544247,0.0,22.259912,28.029871,47.094631,45.862031,59.313864,58.26633,74.364539,65.549174,83.065543,0.0,29.435921,39.738007,98.512173,43.167458,44.471741,42.648869,43.286934,40.919495,44.396324,0.0,-65.373587,-12.048277,-18.355989,10.028915,2.737458,30.942977,22.185842,49.874974,39.47534,40.795984,267.777111,-199.18891,106.186502
77,-0.939903,0.465536,13.570461,13.965628,0.0,-67.209492,-33.042183,-96.39307,-27.741508,-98.222752,-20.911331,-87.460613,-13.545914,-66.387691,0.0,21.911578,28.456072,46.818236,46.125396,59.233527,58.326352,74.316127,65.464452,83.276297,0.0,37.604599,29.047222,102.154255,26.642418,77.864456,23.903732,68.790436,21.373272,54.805241,0.0,-55.988018,0.36266,-2.60031,19.029686,6.773526,34.222017,20.738505,46.684299,33.72684,38.435125,268.585717,-187.039404,120.4952
78,-1.26297,-0.057798,17.365208,20.547141,0.0,-67.373085,-34.284782,-96.587906,-29.250755,-98.378792,-22.348824,-88.003063,-14.818726,-67.560654,0.0,21.531875,28.131326,46.266928,46.065128,58.608613,58.632881,73.448225,66.115796,82.480458,0.0,41.064205,31.668262,97.472477,23.66478,92.067833,13.286934,62.966366,2.690849,33.587551,0.0,-49.322678,0.292079,3.772147,12.17749,22.596637,23.154614,32.407048,29.497369,37.211107,36.500244,268.631706,-170.346107,141.146128
79,-1.955338,0.803311,20.236359,26.423742,0.0,-67.189693,-33.515167,-95.60606,-28.613091,-98.080215,-21.791153,-87.206783,-14.471741,-66.329556,0.0,21.104624,27.504807,45.338202,45.437682,57.8363,58.06595,72.293863,65.531019,81.479977,0.0,45.093784,35.536194,99.635811,32.352676,98.200035,27.740765,87.029057,22.420235,70.777817,0.0,-43.963823,10.043766,9.434722,30.099189,18.433362,47.280994,32.019935,60.262227,47.092099,34.011927,269.302315,-150.642729,167.437168
80,-0.915184,0.188956,12.820129,17.967394,0.0,-67.251377,-34.501305,-95.301247,-29.788055,-97.576332,-23.002968,-86.226082,-15.737343,-66.019077,0.0,21.40152,27.627628,45.272809,45.622192,58.522594,58.332527,72.91291,65.857123,81.311522,0.0,53.535805,30.902824,101.374168,26.744099,106.148987,23.82534,98.202953,21.252308,78.8451,0.0,-35.519578,15.177757,21.27629,31.986219,32.917169,44.701679,45.230818,53.661664,52.468769,33.011656,269.46529,-137.907686,185.378581
81,-1.051826,-0.145854,15.780487,22.025199,0.0,-65.637417,-33.95565,-94.227848,-29.403534,-96.870346,-22.941628,-85.802422,-15.67131,-65.618763,0.0,22.834191,28.48386,45.433668,45.905936,58.673821,57.832101,72.433357,64.934757,80.613249,0.0,62.715683,36.644039,109.465714,33.665886,107.434273,29.691181,93.982201,25.344601,79.112835,0.0,-21.141242,23.638675,25.655197,43.996551,34.8783,57.818702,46.830401,65.765671,55.894806,31.852713,269.304909,-122.234316,207.389253
82,-1.30394,1.782734,12.109108,17.242321,0.0,-61.222172,-33.433228,-94.708328,-28.987083,-96.13884,-22.521744,-85.14164,-15.718575,-65.42038,0.0,-5.262926,25.399859,43.937271,41.959961,57.1773,54.555933,69.719056,62.825672,79.454255,0.0,69.891586,36.076641,109.241524,31.913223,108.39489,28.03997,99.726391,24.547977,79.299088,0.0,-11.23839,25.864284,33.436119,45.32789,41.658433,57.763435,53.47703,64.54999,62.973502,30.305357,271.009992,-110.368624,224.553922
83,-2.470322,31.347041,23.985844,13.785841,0.0,-65.874767,-28.324127,-89.532967,-24.552612,-90.952377,-20.149155,-80.004959,-16.256561,-61.57671,0.0,39.351129,9.441329,28.069638,4.060769,20.051779,-2.084076,9.706177,-9.722355,4.107761,0.0,64.699345,36.866856,106.144695,37.329311,96.17815,38.129997,91.639767,38.203754,82.447643,0.0,1.921858,35.091277,33.016402,59.937914,45.854312,76.195933,73.209868,85.546674,90.314856,27.488308,302.325062,-86.729507,238.307792
84,3.767624,-29.231163,9.817085,7.525893,0.0,-78.325424,-19.315567,-88.844204,-16.768799,-94.278603,-14.77478,-91.014233,-13.52932,-71.737289,0.0,1.68134,18.926995,14.702032,38.497615,34.241283,52.430052,56.049367,59.835964,71.412808,0.0,73.087635,30.89201,102.300625,24.304504,100.272846,19.640236,89.660625,16.053085,71.74902,0.0,18.277257,34.66909,43.069492,56.01985,55.115083,69.512315,71.535382,76.532967,79.369904,30.789042,273.24051,-77.379313,245.980296
85,-8.347893,5.740627,3.555565,8.347606,0.0,-62.463512,-11.684303,-75.055618,-6.554718,-80.07082,-3.094482,-74.776669,-1.070938,-58.686504,0.0,19.814719,25.924552,14.898954,37.302683,23.188947,44.083557,37.776247,46.686646,57.409852,0.0,73.177357,33.177795,100.429173,25.681515,102.194538,18.479519,89.850941,12.229671,67.708054,0.0,23.009933,34.621295,52.359965,53.023165,66.237259,64.33584,78.931476,70.22473,81.835536,22.032537,279.050606,-74.232359,254.397371
86,-2.169742,22.13005,6.520615,5.279166,0.0,-62.815762,-29.475088,-42.239056,-26.182137,-34.937754,-21.619692,-32.020884,-16.874399,-36.413183,0.0,22.580521,12.281941,13.767996,10.121912,13.651843,5.0669,13.787941,-2.019794,13.385853,0.0,70.193195,33.682194,100.785084,25.484104,100.278568,16.982002,86.39082,9.007645,62.220097,0.0,22.08522,33.597349,51.77241,52.508784,66.971162,64.196037,77.985769,70.3147,81.74464,19.166966,301.341948,-68.407574,259.83783
87,-2.169743,22.130051,5.004673,3.01058,0.0,-63.168011,-47.265873,-9.422493,-45.809555,10.195312,-40.144901,10.734901,-32.67786,-14.139862,0.0,25.346321,-1.36067,12.637037,-17.05886,4.114739,-33.949759,-10.200365,-50.726234,-30.638146,0.0,69.785156,33.044472,98.893547,24.746075,98.77224,16.158714,85.828171,7.81105,62.77977,0.0,27.142023,36.176355,53.575522,54.64473,67.572858,65.328478,79.199843,70.301856,81.951442,16.589127,323.56197,-63.810997,262.93838
88,4.639778,-22.632576,3.474655,3.056151,0.0,-54.646282,-44.71241,-4.677658,-41.450672,10.400963,-34.78157,13.119164,-26.682587,-27.061501,0.0,33.525101,6.590992,28.332201,7.671748,28.620143,7.600735,25.592705,6.724929,25.141433,0.0,68.007202,32.342148,98.550568,23.41032,97.975273,14.233532,84.453278,5.404243,61.462097,0.0,25.848969,34.303712,54.243847,52.351876,67.532227,63.287441,79.234979,68.807187,81.40458,20.937109,301.119694,-60.628138,266.18483
89,-1.793175,24.431859,1.305141,1.483615,0.0,-61.568985,-50.107384,-1.239281,-50.709686,13.332481,-46.12009,10.562668,-39.204769,-15.15358,0.0,24.609206,1.52258,19.796626,-14.501467,10.251865,-32.281757,-6.059321,-50.587852,-29.583264,0.0,66.94376,31.994705,97.60088,23.238888,95.831623,14.383278,82.166576,6.281605,62.413616,0.0,23.667327,33.72542,53.680621,51.743819,67.439292,62.672407,78.592343,68.227104,81.130841,18.913021,325.820661,-59.553909,267.937554
90,4.547424,-42.574563,1.577339,0.630595,0.0,-33.873882,-38.247528,1.113281,-40.930538,9.756317,-39.534817,4.435043,-36.34964,-32.681522,0.0,19.402165,15.92185,36.647141,31.359267,49.084476,43.12303,54.24113,51.344294,58.953242,0.0,65.816746,30.375595,95.581112,21.802197,95.495739,13.403206,81.989193,5.851994,62.142048,0.0,23.341285,34.178977,56.265432,52.243504,69.437968,63.233163,79.237079,68.750933,81.02111,23.317137,283.433882,-58.119879,268.755932
91,-7.496223,-5.14313,1.409855,0.694136,0.0,-33.716698,-38.660145,5.028305,-43.261414,11.982422,-44.136887,8.599663,-43.949718,-7.086067,0.0,18.008581,19.477747,42.247532,37.413154,57.486052,50.540057,60.357878,59.348074,63.962003,0.0,64.662437,30.285702,94.00486,21.353302,92.715683,12.367802,78.077316,4.1716,58.930893,0.0,22.88143,32.890863,56.338915,50.668313,69.361212,61.703976,79.436903,67.535993,83.12754,15.776281,278.411026,-56.754656,269.570343
92,-0.955009,23.376915,1.619396,0.428733,0.0,-56.812305,-41.766415,0.479736,-42.308235,12.959633,-39.75317,12.791061,-35.813255,-3.250237,0.0,29.383625,8.254425,34.435673,11.926475,37.714188,12.516376,32.080945,10.38821,24.923331,0.0,63.164806,29.378757,92.412243,20.317497,90.874386,11.163139,76.350574,2.831612,56.996784,0.0,23.004992,32.864249,56.849158,50.21315,70.095486,61.048742,79.408992,66.835311,81.751062,14.775324,301.856608,-55.181208,270.067742
93,3.509102,-9.427374,1.990528,0.24799,0.0,-19.182701,-30.675316,8.430519,-35.035744,14.112854,-35.548325,3.012428,-33.488789,-29.403706,0.0,0.839188,10.218952,28.340846,26.226758,41.105829,38.697131,48.295862,48.056641,50.844672,0.0,62.510147,28.19521,91.007652,18.7714,88.961105,9.589119,74.789658,1.389141,55.612679,0.0,23.772118,32.478432,56.868116,50.282619,70.057324,61.625059,79.374782,67.520123,80.833142,18.2232,292.459198,-53.251905,270.345697
94,0.892181,17.911077,1.096687,0.792381,0.0,-63.681164,-48.429165,-3.395805,-48.147984,13.591805,-43.610916,13.845291,-37.179337,-8.589821,0.0,28.732405,6.782418,32.61558,4.239475,31.65252,-0.74224,22.146662,-6.474963,11.801677,0.0,62.164993,27.455521,90.231171,17.969685,87.964439,8.934689,74.097862,0.99575,54.411278,0.0,23.528265,32.462377,56.918566,50.309666,69.623157,61.941097,78.527752,68.012521,79.22053,19.122162,310.415415,-52.148438,271.183217
95,6.769981,-28.29231,1.280708,0.094725,0.0,-31.165352,-36.932831,-3.195992,-38.7216,5.968781,-37.15971,0.593147,-33.199654,-20.548096,0.0,14.199939,17.189215,42.430561,32.666091,53.917002,45.118927,58.545072,54.417118,62.079171,0.0,61.485214,27.289238,88.902397,17.542248,86.249657,8.071461,72.504272,-0.49387,51.863251,0.0,24.24173,32.135841,56.9085,49.909276,69.647363,61.34181,78.216221,67.249101,78.509289,25.937862,282.162086,-50.82201,271.316922
96,-5.830994,11.40172,0.027294,0.141594,0.0,-57.938004,-46.90012,1.028595,-48.642254,11.690369,-46.455116,8.721428,-42.890396,-14.924126,0.0,30.43579,11.515402,38.659772,20.955064,46.466197,27.946631,44.70137,32.81139,43.103455,0.0,61.719303,27.500439,89.042873,17.825947,86.563854,8.247643,72.598057,-0.43745,52.305164,0.0,23.957307,31.859631,56.952343,49.468564,69.904122,60.82113,77.778411,66.868657,78.2818,20.134821,293.582268,-50.766764,271.476979
97,7.957535,-9.77404,-1.209011,0.018649,0.0,-28.933182,-42.090912,0.529175,-46.961689,7.334862,-47.080364,-2.414818,-43.675175,-31.964836,0.0,9.212976,17.137592,38.745481,33.170407,49.408234,45.980407,55.377646,55.472186,59.521778,0.0,62.217751,26.340809,90.441284,16.688576,87.14035,7.876225,73.284416,0.549259,53.62896,0.0,23.896607,30.347425,55.169918,48.466478,68.3448,60.283037,77.314233,66.573613,78.56474,28.232031,283.883687,-51.8361,271.571087
98,-15.909348,32.904263,0.010128,0.327771,0.0,-56.280327,-46.677475,3.020554,-45.714912,18.452682,-40.396442,19.713707,-33.224945,3.917313,0.0,28.714003,2.276552,26.917931,-4.722733,23.478371,-13.705936,12.434125,-23.363083,-2.030045,0.0,61.158199,25.853004,89.362278,16.118374,86.057453,7.262878,72.869396,-0.057507,52.724133,0.0,23.728584,30.13099,54.416501,48.157541,67.820354,59.892527,76.823811,66.037249,78.194176,12.436409,316.812882,-51.712246,271.92379
99,4.531174,-27.022351,0.644531,0.004261,0.0,-15.86277,-33.142319,6.169395,-37.955303,13.082542,-38.886967,4.058876,-37.045727,-15.672112,0.0,7.480013,15.617544,32.992998,30.467592,45.417613,41.583345,49.389153,49.617876,54.74174,0.0,60.719318,25.125046,89.104557,15.547199,85.85638,6.960926,73.383007,-0.102367,53.654995,0.0,23.442556,30.431591,54.657821,48.382559,67.559026,60.159536,76.238232,66.284621,77.709929,17.166309,289.829866,-50.868988,271.967386
100,-2.881165,34.850636,-0.736828,0.106952,0.0,-59.536171,-48.56741,2.082138,-48.095856,17.280464,-42.630959,16.178055,-35.096569,-5.398293,0.0,23.957307,-0.236813,23.029816,-14.371482,15.854604,-29.833291,0.836718,-45.24465,-22.243733,0.0,61.320305,24.980335,89.113426,15.789413,87.029343,7.636814,74.473228,0.92886,54.545288,0.0,22.629179,29.907268,53.002169,47.880837,66.895209,59.857885,76.351729,66.35619,77.905987,14.474316,324.682848,-51.416645,272.076684
101,4.4981,-32.512827,0.107059,-0.51154,0.0,-36.653538,-39.181652,0.913467,-40.146389,9.234695,-37.408791,7.703133,-32.599125,-5.334663,0.0,19.701037,13.004205,37.082975,22.587127,45.213343,29.643038,45.23582,34.23801,47.585547,0.0,60.268764,26.309624,88.608799,16.74963,85.860615,7.784157,72.956486,0.027695,52.839146,0.0,23.740749,30.456476,54.04112,48.253686,67.994552,59.879251,76.905445,66.166431,78.131129,19.157524,292.130269,-51.124477,271.525392
102,-11.586914,26.45505,-0.174923,-0.025009,0.0,-50.676556,-42.515717,10.812035,-43.202019,25.551338,-39.259987,23.794899,-33.442039,0.300407,0.0,29.427406,3.592021,26.227314,-7.555348,20.731157,-20.622785,7.492671,-33.822491,-11.556034,0.0,59.775238,26.031189,88.486748,16.514969,86.273575,7.452908,72.804794,-0.335484,52.403526,0.0,23.463428,30.058495,53.57509,47.586288,67.702411,59.147756,76.331228,65.575912,77.59637,7.746878,318.572444,-51.123133,271.487508
103,3.054085,-30.238683,-0.270481,0.477763,0.0,-6.158867,-31.494198,14.583435,-36.802311,23.167648,-37.28405,14.853859,-34.603901,-4.415245,0.0,5.801142,16.329711,34.77777,30.17366,45.706667,41.38704,51.002382,49.817145,54.793055,0.0,59.847736,24.802208,88.184109,15.624218,86.392307,7.347622,73.493328,0.492783,53.955631,0.0,22.80523,29.8851,54.365804,47.59765,67.049338,59.307751,75.273752,65.634019,76.91372,10.957289,288.270668,-51.237288,271.902177
104,3.938942,30.066708,-0.464058,-0.364574,0.0,-61.02499,-47.943764,-0.553551,-46.756668,13.504944,-40.766087,15.261383,-32.582989,-4.717827,0.0,26.905087,0.796395,26.589727,-8.253066,22.833388,-19.2129,9.865061,-30.22942,-7.319647,0.0,59.475231,25.42511,88.588428,16.147156,86.911983,7.538338,73.675861,0.17292,53.276997,0.0,23.001905,29.817113,53.33556,47.531762,67.595027,59.212223,76.405205,65.621051,77.876162,15.253601,318.249922,-51.343975,271.450149
105,8.91758,-36.71698,-0.202961,-0.402983,0.0,-29.412003,-39.265366,-2.432213,-42.726345,3.913879,-41.986313,-1.777153,-38.648071,-20.697327,0.0,14.387722,16.031148,41.209261,31.906747,53.428865,45.110343,58.054712,55.361776,63.240326,0.0,60.417366,25.067539,88.326416,15.754795,86.619759,7.310486,73.359146,0.207424,53.343773,0.0,23.403715,30.029411,53.366312,47.990444,67.52846,59.798111,76.121585,66.14593,77.731233,24.416685,281.424971,-51.301432,270.939195
106,-4.716454,33.898197,-0.272541,0.228971,0.0,-62.716656,-50.988522,-5.186577,-51.063366,8.434753,-46.661568,10.146561,-39.817657,-8.641548,0.0,28.739568,2.253273,30.14686,-4.88631,26.192116,-13.796092,14.737724,-23.122936,-1.011101,0.0,60.144253,25.273132,88.610172,15.905342,86.752911,7.506809,73.651829,0.625076,54.140339,0.0,23.167458,29.738504,54.432371,47.892508,68.141086,60.079384,76.041619,66.841672,77.410996,19.858561,315.181467,-51.415644,271.026464
107,5.562973,-32.360736,-0.24519,-0.425831,0.0,-39.764442,-41.867638,-5.195503,-43.594265,3.895111,-41.500168,0.980301,-37.028904,-19.078331,0.0,22.772564,17.353842,43.048991,30.646174,52.659949,41.162145,54.937736,48.6119,57.978512,0.0,60.630226,24.600105,88.420143,15.224304,86.273804,6.864223,73.309135,0.026722,53.717766,0.0,23.804228,30.3804,54.371608,48.194344,68.002641,59.921859,76.201367,66.235653,77.900738,25.672789,282.728831,-51.409578,270.508733
108,0.593491,-1.071431,-0.667019,-0.082993,0.0,-27.271843,-33.018723,-2.383919,-36.226673,3.365593,-35.564861,-0.468521,-31.890106,-14.662628,0.0,13.354268,15.955627,34.710154,30.813023,47.195716,43.684403,52.663036,53.820115,57.342359,0.0,60.845776,25.312958,88.510838,15.898705,86.364269,7.386703,73.543453,0.1894,53.531513,0.0,23.499984,29.877319,54.610397,47.82872,67.828073,59.860355,76.338391,66.476233,78.456986,26.707249,281.65618,-51.635628,270.424521
109,-6.281662,4.157408,-0.166225,0.541304,0.0,-50.417919,-43.732853,-0.631256,-47.278919,9.154243,-46.782646,5.951614,-45.156612,-13.695374,0.0,28.975578,13.397184,40.310545,27.220323,50.990403,38.207388,51.803656,46.115763,52.799813,0.0,60.667076,25.045166,90.007896,15.937672,87.253532,7.552929,74.114456,0.664387,54.802551,0.0,22.782815,31.681666,54.450155,49.320548,67.266762,60.780375,74.949995,66.681368,76.271268,20.834112,285.813156,-51.393328,270.965393
110,2.654915,2.015966,-0.603218,-0.384582,0.0,-24.464378,-37.127151,3.21888,-41.808529,10.795097,-42.023392,0.713997,-39.07259,-23.155289,0.0,5.413659,11.799886,28.725736,28.909258,42.256177,42.736534,50.468673,53.37897,54.510176,0.0,60.163879,26.237698,89.645576,16.973877,87.49054,8.267555,74.758644,0.992374,54.430618,0.0,21.886693,30.418932,53.751819,48.30778,67.400142,60.32126,76.404649,66.838152,78.094326,23.963556,287.707442,-51.522017,270.459132
111,-1.939087,11.741656,0.048866,-0.140359,0.0,-18.982658,-32.639809,4.436188,-37.208462,8.005371,-37.312603,-1.27121,-35.073166,-51.938152,0.0,-5.267557,3.925288,18.321532,17.938186,29.668109,29.24833,37.23556,38.589191,41.755073,0.0,60.680923,25.848827,89.191017,16.656303,86.405182,8.000565,73.389931,0.740032,54.142799,0.0,22.582249,31.175004,54.364322,49.065889,67.601758,60.862626,75.930283,67.054649,76.977199,22.561741,299.398355,-50.935879,270.26803
112,-1.942062,-17.84377,-0.739746,-0.081572,0.0,-45.848808,-44.007683,2.337341,-49.599323,10.56324,-50.154591,5.555992,-48.906097,-14.253845,0.0,26.923427,17.058798,41.35388,33.155155,54.067549,45.359506,55.845652,53.724587,57.283758,0.0,60.25795,26.36364,89.412689,17.081223,86.53862,8.310986,73.529434,0.802975,53.388863,0.0,22.7809,30.832413,53.804925,48.639379,67.387731,60.478539,76.421692,66.87866,77.665469,21.058187,281.528295,-51.237116,270.160167
113,-0.379143,9.836223,0.477276,0.338207,0.0,-20.356064,-34.680405,6.273994,-40.525188,13.44429,-41.388073,3.056259,-38.951168,-21.341858,0.0,1.025366,9.70241,27.717043,26.185941,40.31882,39.446163,47.258949,49.715936,50.670659,0.0,60.251141,24.960308,89.431973,15.674744,86.712055,7.267971,73.808956,0.399113,54.221249,0.0,23.47374,30.930349,53.326421,48.773378,67.505056,60.497558,75.738424,66.609861,77.267797,21.077642,291.439251,-50.361242,270.573108
114,1.923294,-13.744901,-1.112537,-0.680798,0.0,-35.931072,-43.345928,2.415619,-50.527554,8.480301,-52.668571,0.851784,-52.814312,-19.175606,0.0,15.587471,18.885684,41.300034,37.074268,57.293144,51.029985,59.942113,61.042135,63.163261,0.0,60.60894,26.096306,89.366455,16.797066,87.124786,8.097496,74.126015,0.780602,54.37603,0.0,24.148487,30.93461,53.670618,48.708169,67.565881,60.441921,76.547169,66.672352,78.509783,23.425283,277.761427,-51.049433,269.959386
115,-5.36602,12.895586,-0.348415,-0.061256,0.0,-16.5382,-33.323479,7.833366,-39.661446,16.006737,-41.015568,4.736824,-39.098053,-20.992012,0.0,2.074814,9.853328,28.845223,26.279987,41.70135,39.466788,47.548373,49.473751,50.466265,0.0,60.106945,26.619415,89.950619,17.190857,86.79697,8.282948,73.468266,0.759201,54.167461,0.0,23.30794,31.410953,55.097299,49.136902,68.223522,60.688737,76.787934,66.745094,78.192756,18.413515,290.748666,-51.043596,269.989783
116,3.71624,-11.058017,-0.321522,0.189265,0.0,-39.987946,-43.068581,0.150032,-48.040295,8.394356,-48.773346,2.994118,-47.93438,-14.735413,0.0,21.216454,17.862912,43.895898,34.088265,57.243002,46.627921,58.384521,55.449709,60.699111,0.0,60.184708,26.494503,89.968872,17.179928,87.062759,8.363056,73.966141,0.885429,54.010391,0.0,23.143005,31.400455,54.335423,49.146597,68.11336,60.670089,76.580267,66.677786,77.936306,22.447157,279.678824,-51.047716,270.167222
117,-2.953835,9.666348,-0.042057,0.158143,0.0,-18.924294,-32.865257,8.487167,-38.207645,16.974106,-38.799477,7.107925,-36.251335,-13.390388,0.0,4.278316,10.662258,27.60336,26.86322,40.59046,40.022789,47.680148,50.371787,51.485332,0.0,60.604763,26.220245,90.007725,16.980972,87.218571,8.314075,73.939991,1.034946,54.20145,0.0,23.560561,31.117021,53.595838,48.983206,67.900506,60.685711,76.407119,66.904595,78.040171,19.830437,289.375383,-50.752659,270.355577
118,-0.329819,-3.818398,0.057793,-0.001914,0.0,-48.259907,-44.824505,1.838379,-47.862167,12.259026,-46.336842,7.837143,-43.381176,-10.003624,0.0,26.840002,15.167568,39.782394,28.954089,50.514492,39.381572,50.857886,46.406855,51.680587,0.0,59.813061,26.046066,89.804821,16.713467,86.851101,7.956276,73.386326,0.542049,53.432636,0.0,23.89179,31.06126,53.620229,48.881256,67.943731,60.493791,76.595088,66.652777,77.88882,19.630136,285.53162,-50.565348,270.328298
119,-1.560287,5.681902,-0.388985,0.244655,0.0,-18.217506,-30.137672,10.79567,-35.872936,18.513908,-37.145348,7.101059,-35.382671,-13.766785,0.0,-1.007458,10.631939,27.085645,26.906198,40.029396,39.648581,47.023,49.428241,49.997209,0.0,59.601688,25.761623,89.981976,16.731434,87.310123,8.344173,73.942509,1.24157,54.104519,0.0,23.03173,30.937389,53.093189,48.599612,67.298934,60.246295,76.062181,66.567253,77.634285,18.234386,291.183728,-50.789795,270.543159
120,-6.276054,0.859627,0.162449,0.054279,0.0,-46.918945,-42.629414,8.796272,-44.70377,23.113747,-42.28838,20.680733,-38.654537,4.211884,0.0,31.500861,14.869314,40.423796,20.982852,44.837159,23.630215,40.368344,23.967311,35.841668,0.0,59.526443,25.362511,89.992104,16.344795,87.433205,8.033409,74.342995,1.056862,54.40876,0.0,22.434172,30.987221,52.519343,48.757693,67.258919,60.365535,76.227611,66.428314,77.632618,12.09363,292.009362,-50.492048,270.563444
