takenoko1/special-research/HandMotion_SimilarSearch_自分用/NewProject/handData/test_key/d4_feature_d2/52.csv
frame,vel_0x_L,vel_0y_L,vel_0x_R,vel_0y_R,posFromWrist_0x_L,posFromWrist_1x_L,posFromWrist_2x_L,posFromWrist_3x_L,posFromWrist_4x_L,posFromWrist_5x_L,posFromWrist_6x_L,posFromWrist_7x_L,posFromWrist_8x_L,posFromWrist_9x_L,posFromWrist_0y_L,posFromWrist_1y_L,posFromWrist_2y_L,posFromWrist_3y_L,posFromWrist_4y_L,posFromWrist_5y_L,posFromWrist_6y_L,posFromWrist_7y_L,posFromWrist_8y_L,posFromWrist_9y_L,posFromWrist_0x_R,posFromWrist_1x_R,posFromWrist_2x_R,posFromWrist_3x_R,posFromWrist_4x_R,posFromWrist_5x_R,posFromWrist_6x_R,posFromWrist_7x_R,posFromWrist_8x_R,posFromWrist_9x_R,posFromWrist_0y_R,posFromWrist_1y_R,posFromWrist_2y_R,posFromWrist_3y_R,posFromWrist_4y_R,posFromWrist_5y_R,posFromWrist_6y_R,posFromWrist_7y_R,posFromWrist_8y_R,posFromWrist_9y_R,posFromBody_0x_L,posFromBody_0y_L,posFromBody_0x_R,posFromBody_0y_R
2,-2.968712,8.262452,-2.0965,1.389014,0.0,-1.512222,-20.864868,26.430244,-28.904743,31.715927,-32.186337,14.658165,-32.281895,-41.918507,0.0,-16.711267,5.110711,21.218862,20.865896,35.541376,33.199121,42.859726,42.998664,43.819142,0.0,68.73064,20.97187,83.782368,9.80072,79.782085,0.52763,66.557636,-6.364803,47.514324,0.0,21.488341,34.356694,59.79527,51.597903,70.75072,62.716065,79.963573,68.394633,83.863049,7.008848,321.423831,-42.322111,288.672833
3,-13.346329,9.636831,0.73288,-0.507897,0.0,4.759712,-7.832279,41.715431,-16.174507,40.572968,-20.863838,28.68885,-22.681274,-15.238609,0.0,-28.554687,-1.87042,22.099361,11.177319,32.728892,22.257318,35.012916,30.53033,41.302381,0.0,67.442951,20.58712,83.290157,9.387074,79.463253,-0.182762,65.351772,-7.856598,44.56953,0.0,21.607395,33.608958,59.973359,50.484235,71.198287,61.571274,81.58909,67.193834,85.732234,-7.627087,330.953093,-42.878838,288.057366
4,29.640656,-21.11685,0.251942,0.605092,0.0,-44.390888,-42.052746,6.965103,-49.483166,12.374725,-51.529083,1.052399,-50.995216,-66.218719,0.0,16.791851,13.015752,38.164039,29.570235,45.761748,41.279162,50.983981,50.408529,59.847326,0.0,67.272034,20.33392,83.543472,9.170151,79.735451,-0.096931,66.397018,-7.143688,46.828537,0.0,20.938021,33.189858,59.493681,50.757542,71.573359,62.287455,80.311783,68.047101,83.770794,21.011066,309.725169,-43.629398,288.551385
5,-23.099556,7.170581,-0.053959,-0.703646,0.0,-14.889565,-21.751671,29.796524,-30.343208,34.882965,-33.407822,23.292618,-33.824272,-2.988853,0.0,3.460987,5.556858,27.178518,21.548918,43.424742,34.714661,46.055433,44.62832,46.808912,0.0,67.409077,20.620594,83.724689,9.459286,80.273151,0.037479,66.689014,-7.402725,46.081295,0.0,21.505013,33.286807,59.335415,50.902655,70.758871,62.678088,80.918481,68.766556,85.641214,-2.665873,316.818609,-44.26074,287.770598
6,27.088852,-10.442118,-0.187454,0.979176,0.0,-33.719501,-42.419243,6.234512,-52.982483,7.940826,-57.39521,-5.924263,-58.499908,-49.424114,0.0,3.332176,12.916642,37.798106,31.46202,50.198762,44.908975,55.803909,54.925077,59.793418,0.0,67.45451,20.687313,83.868084,9.742241,79.9716,0.577812,66.620693,-6.519642,46.898174,0.0,20.616672,33.02165,58.936507,50.469908,71.027176,62.033105,80.188035,67.921378,84.049042,24.023952,306.295335,-44.847221,288.668618
7,-27.456322,12.418687,0.046349,0.118561,0.0,7.881088,-15.24622,35.772285,-25.541954,38.891029,-30.662441,22.403069,-32.676544,-28.433361,0.0,-24.839721,6.097236,23.753222,22.962693,40.754099,35.605905,45.262743,44.914718,45.165672,0.0,67.013569,20.170727,83.565845,9.196129,79.739285,0.109634,66.794071,-6.82457,46.964779,0.0,20.57147,32.878513,58.764162,50.390003,70.249492,62.060214,80.37094,68.110457,84.487902,-3.669662,318.540843,-45.038166,288.614
8,-3.062553,1.943471,0.111923,0.02118,0.0,9.055824,-13.229485,38.152084,-21.688042,36.875038,-26.213951,26.593552,-27.169533,-48.483639,0.0,-23.553398,3.676373,28.013815,20.193496,40.122021,32.450212,44.057499,41.459721,47.575852,0.0,66.869717,19.767323,83.457127,8.686523,79.905109,-0.356712,66.878529,-7.147694,47.027607,0.0,20.956052,33.098097,59.034752,50.686961,70.548117,62.357727,80.051505,68.221423,84.003902,-6.902218,320.384,-45.096245,288.534867
9,-3.304939,2.295325,-0.063229,0.086204,0.0,11.624336,-8.106308,45.010757,-17.257347,39.397316,-23.538208,25.874748,-25.847454,-14.427338,0.0,-23.013514,1.874681,30.497355,16.821183,39.60585,28.306759,42.796494,36.910568,50.553704,0.0,66.995544,20.159626,83.477898,9.225655,79.910545,0.148373,66.864853,-6.772041,46.850052,0.0,20.760118,33.173742,58.780032,50.606377,70.329767,62.188531,80.088802,68.062724,84.229476,-10.29542,322.600809,-45.247736,288.542555
10,5.616302,-1.75964,0.046291,0.190871,0.0,4.263496,-14.505787,33.167038,-23.525047,33.18718,-27.74786,20.915108,-27.679367,-30.925026,0.0,-15.868497,4.417069,28.426123,18.226252,39.258751,29.232769,43.030219,37.055187,51.002135,0.0,66.835842,20.642166,83.382626,9.841404,79.724407,0.720634,66.551914,-6.444969,46.819553,0.0,20.507744,33.181152,59.012522,50.382285,70.713731,61.715955,80.299989,67.494127,84.044534,-4.718628,320.702895,-45.240955,288.595151
11,-7.541599,9.750575,0.058594,-0.044769,0.0,13.308392,-4.031239,47.193432,-12.638569,39.836597,-18.260994,26.952724,-21.445656,-39.049759,0.0,-32.167642,-1.959649,23.877402,12.144762,35.404907,23.336963,37.44897,31.925642,39.412077,0.0,67.005444,21.417332,83.936634,10.502472,79.445286,1.172791,66.16785,-6.179066,46.670322,0.0,20.297175,33.331576,58.978621,50.705301,70.844519,61.999451,80.035944,67.663137,83.523731,-12.27273,330.414552,-45.194864,288.511464
12,32.986393,-25.290128,-0.369473,-0.023712,0.0,-35.160198,-38.889084,6.624641,-48.484726,10.071602,-52.691402,-0.730476,-53.896351,-47.21981,0.0,11.662862,12.710705,38.670949,30.355823,51.293968,43.151558,56.323601,52.885955,60.937036,0.0,67.381439,21.424828,84.196243,10.628071,79.638062,1.349201,66.617661,-6.025715,47.01931,0.0,20.296681,33.151882,59.096256,50.414024,70.588995,61.717746,79.9716,67.440527,83.461919,20.64168,305.090353,-45.63632,288.453681
13,-28.479881,16.113153,-0.633316,-0.267565,0.0,6.974945,-10.68346,40.417213,-19.698029,42.56218,-24.738865,24.322243,-27.06459,-43.097763,0.0,-28.66979,4.740085,23.874871,20.940676,39.301297,33.406664,43.341811,42.883006,45.649733,0.0,68.035583,21.674194,85.158234,11.087551,81.381454,2.065716,68.056068,-5.097656,48.899231,0.0,20.501322,32.961197,58.688456,50.418594,70.599864,62.208847,79.049234,68.49368,82.968656,-7.874022,321.082753,-46.305456,288.065363
14,-5.04324,-5.184812,-0.131035,0.068358,0.0,20.03294,-7.670059,48.483524,-17.751274,42.53809,-23.807087,27.860355,-25.267067,-33.009167,0.0,-13.038661,6.527389,32.05081,24.031778,43.091228,36.696664,47.224801,45.220074,52.484516,0.0,68.326378,21.824741,85.016785,11.465664,81.583557,2.551689,68.533516,-4.659119,49.04892,0.0,20.441362,33.396908,58.887663,50.813858,70.518847,62.518278,78.833108,68.785081,83.068445,-12.990017,315.848433,-46.509247,288.084212
15,-7.506523,10.964156,-0.286903,0.061256,0.0,18.761959,4.141388,58.471928,-4.882908,58.556843,-12.333641,34.009838,-18.241825,-14.716702,0.0,-23.999606,-3.960918,19.964587,13.191123,35.227066,28.208329,39.749666,39.839822,37.401669,0.0,68.450317,21.750011,85.534286,11.113758,81.479759,2.120991,68.312645,-4.933319,49.214287,0.0,20.507312,33.39839,58.724765,51.03054,70.827908,62.65203,79.217072,68.557901,82.91271,-20.531502,326.795314,-46.831112,288.128194
16,40.377903,-18.362288,-0.629768,-0.27374,0.0,-38.027172,-41.270428,6.491776,-48.815632,9.732056,-50.680103,-1.509705,-49.578724,-64.127655,0.0,19.496952,10.443662,37.833366,25.865889,47.145019,37.190606,51.127118,46.279711,59.386544,0.0,69.230232,21.830635,86.173325,11.133556,82.807159,2.040424,69.393196,-5.052738,49.306068,0.0,20.838356,33.182757,57.374716,50.930999,70.659267,62.801157,79.806973,68.939395,83.426103,19.809322,308.403772,-47.497959,287.8252
17,-21.289558,9.71087,0.412846,0.349137,0.0,2.618179,-19.596291,32.860336,-29.839325,34.672966,-34.122334,17.415161,-34.940014,-35.881577,0.0,-15.742341,6.219748,26.094983,23.060383,40.233604,35.448689,45.559886,44.33093,46.589266,0.0,68.64996,21.551743,85.585384,10.865364,81.273136,1.880894,68.075695,-5.056686,49.239635,0.0,20.513919,33.209248,58.595398,51.048572,71.227001,62.805665,80.262568,68.675103,83.385225,-1.498117,318.081744,-47.102995,288.14144
18,-12.035694,11.472856,-0.160732,-0.364636,0.0,11.1973,-6.688843,49.919643,-14.759102,43.237324,-20.709686,28.690166,-23.814068,-36.015186,0.0,-35.025081,-2.903134,25.043497,12.868107,37.724191,25.230292,38.270806,34.551208,40.789729,0.0,68.72303,20.531387,85.200233,9.90263,81.870918,1.221027,68.794327,-5.307369,49.43882,0.0,21.239486,33.263959,58.338084,51.197328,70.980493,63.066313,79.665256,69.118409,83.201888,-13.548603,329.534393,-47.278519,287.756596
19,31.512966,-23.005116,0.489578,0.100221,0.0,-27.705574,-40.052147,8.579865,-48.427162,12.310295,-51.187134,-1.307144,-50.365849,-47.723637,0.0,15.640885,12.52391,39.122159,29.160459,50.540736,41.391116,55.362764,50.84214,60.970875,0.0,68.555717,20.853882,84.721413,10.340366,82.13356,1.629238,68.562469,-5.093479,48.820496,0.0,21.35428,33.469341,58.289734,51.59074,71.095534,63.55266,79.426714,69.756909,83.112288,17.934752,306.469332,-46.818552,287.796872
20,-24.22348,13.862165,-0.454903,-0.034518,0.0,6.758423,-15.749531,37.086868,-25.250015,41.215782,-29.887733,24.975357,-31.593533,-12.159119,0.0,-21.883111,3.642101,23.086194,20.34287,38.407336,33.249386,42.741042,42.71733,42.161144,0.0,68.532486,21.818733,85.254936,11.072273,82.063751,1.982632,68.326492,-5.167522,48.502693,0.0,21.249799,33.332008,59.211729,51.313481,71.531986,63.135474,80.157469,69.229066,83.521199,-6.296968,320.298785,-47.281694,287.729642
21,-2.228107,1.177704,0.005093,-0.098801,0.0,13.146572,-13.292542,42.713184,-22.333488,37.398777,-27.377529,26.03651,-28.060627,-28.555412,0.0,-20.900044,2.932342,29.010899,19.396731,41.139545,31.398911,44.776397,40.040881,49.722543,0.0,68.660374,22.113018,85.597858,11.550293,81.79739,2.459621,68.359509,-4.782772,48.987751,0.0,20.97396,33.909868,59.760073,51.596359,71.968561,63.264409,80.178896,69.289767,83.658964,-8.533545,321.456281,-47.28507,287.610633
22,0.543079,4.331853,-0.487576,0.195996,0.0,10.24395,-11.853333,41.819687,-20.793114,36.096497,-25.992737,24.546776,-27.514172,-19.758625,0.0,-27.041061,-0.080399,23.921801,15.480396,36.301832,27.266018,40.157837,36.064464,44.892364,0.0,69.270973,22.193642,85.69416,11.684647,82.314034,2.649937,68.751068,-4.637604,49.170456,0.0,20.807295,33.380976,59.357028,50.977929,71.069105,62.720943,80.069413,68.962057,84.017981,-7.988119,325.759482,-47.7703,287.777977
23,28.094559,-18.264907,0.283699,0.260957,0.0,-36.364174,-43.05542,6.803284,-51.808033,11.380692,-54.788303,-2.271194,-54.240017,-44.670067,0.0,16.526325,12.27697,39.318834,28.665591,49.569217,40.722791,53.944975,50.093416,58.775092,0.0,69.380264,22.332458,85.882645,11.706791,82.074738,2.560101,67.775002,-4.678688,48.592758,0.0,20.305203,33.49861,59.341837,51.349605,71.314316,63.14523,78.994215,69.3375,82.401047,20.121946,307.478736,-47.471094,288.023095
24,-27.61528,12.920347,-0.004864,-0.419347,0.0,7.742386,-12.480698,38.258743,-22.596416,41.032333,-28.450813,22.369652,-32.103367,-8.766632,0.0,-28.188754,2.627233,21.51866,19.592603,36.992634,33.008559,42.742524,42.998232,42.743079,0.0,69.091358,22.740669,85.75407,11.981564,81.15572,2.583046,66.980839,-5.001125,47.598438,0.0,21.060472,34.066344,60.325459,51.796925,71.942564,63.317143,80.526983,69.169724,83.39813,-7.478256,320.369844,-47.46088,287.574509
25,22.544174,-3.832231,-0.209255,-0.140482,0.0,-50.691433,-44.113255,7.533302,-48.399982,15.434875,-47.604504,8.627014,-44.093285,-19.638062,0.0,24.354424,8.181374,34.105802,19.214999,41.017155,27.668384,43.068072,34.088389,45.028647,0.0,68.052635,22.639275,85.741768,11.8503,81.410179,2.314281,67.248802,-5.40699,47.552605,0.0,21.63191,33.957169,60.927773,51.322188,72.569887,62.543287,80.9396,68.240813,84.260043,15.198641,316.484941,-47.537413,287.381354
26,-30.571461,10.120954,0.322495,0.51364,0.0,18.429966,3.879089,49.491405,-4.171085,49.078274,-11.15015,28.534527,-17.693939,-2.740059,0.0,-36.473992,-2.201032,13.398357,13.898721,28.129968,27.311775,35.366437,37.907652,35.216507,0.0,68.166389,22.8792,85.546989,12.159805,81.499443,2.674427,67.300186,-5.049706,47.888947,0.0,20.940429,34.185275,60.247901,51.591111,71.999251,62.927251,80.211377,68.867641,83.997418,-15.342207,326.511679,-47.184305,287.800778
27,34.388294,-21.938378,0.401001,-0.214521,0.0,-21.576805,-43.288422,9.681587,-54.379463,11.807098,-58.981476,-0.783119,-59.785538,-27.352638,0.0,6.274768,11.442413,38.597836,30.073068,52.868294,44.592072,57.689828,55.691523,61.196079,0.0,68.312531,21.980896,85.110054,11.171036,81.303406,1.902523,67.225914,-5.519314,47.56485,0.0,21.309573,33.352139,60.817055,51.354792,72.287255,63.217478,80.161174,69.468287,84.001,19.066572,304.465315,-46.762819,287.478271
28,-29.021244,17.60708,0.537243,0.189821,0.0,19.641209,-7.740841,40.466022,-18.884525,40.70097,-26.354599,22.12492,-31.30434,-11.459198,0.0,-26.739596,1.994168,22.940957,18.279727,37.495529,31.288069,41.923651,40.764226,42.182756,0.0,67.645283,21.533546,84.801693,10.73101,81.308613,1.467304,67.421551,-6.052208,47.788296,0.0,20.393753,32.791383,60.159166,50.833618,72.044823,62.919347,80.221195,69.393693,84.269429,-9.877682,322.026423,-46.148586,287.622119
29,25.528965,-18.807076,0.363922,0.268182,0.0,-25.678539,-39.109612,14.039383,-50.276756,15.032158,-55.249329,1.999855,-56.811447,-41.173496,0.0,6.925926,12.318775,39.473951,31.802574,53.291285,46.09835,59.303675,56.68305,61.708175,0.0,68.344402,21.9627,84.470615,11.574726,80.817547,2.48703,66.826458,-5.026417,47.938557,0.0,19.39,32.731238,60.463533,50.839855,72.404149,62.969303,80.199521,69.632111,84.150312,15.711107,303.150927,-45.72484,287.821881
30,-28.418198,15.569193,0.919762,0.140173,0.0,26.595726,-4.230423,47.322922,-14.901009,47.45636,-22.680988,26.906319,-27.389374,-15.177097,0.0,-16.981796,3.721018,30.625611,20.976491,45.238908,34.256967,47.562082,43.78592,45.193768,0.0,67.062435,20.327625,84.14423,9.575729,82.109241,0.62851,66.949253,-6.210022,48.108501,0.0,18.699692,33.165467,62.517723,51.121437,74.974139,62.835367,80.468938,68.978236,82.831756,-12.698507,318.655576,-44.796495,287.89751
31,-16.775036,-12.363606,0.654774,-2.649031,0.0,41.048756,18.463898,72.707348,6.256771,62.477932,-5.230865,39.749393,-13.263187,-20.93708,0.0,-10.526346,15.071917,50.429894,32.026542,62.612386,42.96322,60.344293,49.053292,59.465647,0.0,67.849159,23.445683,85.129852,12.610817,82.29126,2.317085,65.403786,-6.651821,45.616379,0.0,17.70798,33.536402,67.852094,50.358634,83.54769,61.37886,87.819645,67.732545,89.214896,-29.452829,306.213362,-44.121008,285.169871
32,54.652805,-5.751557,3.115253,-6.627857,0.0,-25.780106,-35.705395,13.84037,-49.753475,7.918396,-57.642174,-14.582291,-62.270908,-80.981884,0.0,-8.947264,13.181675,56.698055,31.246449,60.786673,43.660814,65.246288,54.683695,69.547945,0.0,64.245815,25.510769,81.55489,13.632202,76.172619,0.69746,59.541035,-11.831532,36.451321,0.0,13.830919,30.76597,70.488651,46.717892,90.476642,57.839573,95.603223,65.013613,94.195869,25.236197,300.334259,-40.969534,278.414468
33,-3.233528,7.665758,4.265213,-14.597859,0.0,-28.452301,-42.433205,-55.098038,-45.556068,-57.613335,-44.275188,-76.808453,-38.538895,-73.222961,0.0,-18.896738,7.071595,23.380867,22.540629,35.306045,35.854883,50.53487,47.787038,58.147461,0.0,64.842281,27.387657,72.594852,15.029068,64.999523,0.805607,39.894619,-13.583679,10.396557,0.0,22.801031,27.908654,72.69524,44.75497,91.994899,58.304183,99.412976,67.571932,96.255801,22.323446,307.909321,-36.383543,263.725913
34,-14.414177,-23.87166,4.210339,10.618663,0.0,-14.582634,-32.882767,-75.506458,-30.109863,-78.326569,-24.123917,-66.862736,-15.855045,-49.731846,0.0,-37.131449,28.754326,46.177576,49.723778,66.404355,64.500961,75.953871,73.524795,84.302589,0.0,18.413143,30.946999,7.094021,27.235565,-18.342705,19.001083,-32.8125,7.42939,-30.345211,0.0,45.735998,17.043422,66.00236,21.777703,77.533817,26.843645,75.020761,29.171142,68.255139,8.322144,284.044485,-31.76033,274.351399
35,5.195618,5.091321,-0.681496,-69.998723,0.0,-57.681885,-30.723839,-85.465965,-23.601437,-88.485775,-14.490852,-74.998512,-5.234871,-53.21085,0.0,17.519518,23.229764,48.996544,39.680012,64.665896,52.416652,75.217992,60.704484,78.26803,0.0,55.38826,44.360504,42.448883,38.057442,24.175415,26.715775,11.155643,12.734241,5.027618,0.0,22.396504,37.997622,88.727747,48.077389,102.395398,55.409324,101.390348,59.851957,93.888723,13.952436,289.21511,-32.007151,204.431979
36,6.884766,-2.984336,-10.443306,-41.762421,0.0,-60.686417,-30.569515,-90.478077,-24.350281,-93.507729,-15.496216,-77.844715,-5.830193,-56.690083,0.0,23.390253,26.213853,52.310194,42.867815,67.205876,55.500838,78.314713,64.110513,82.921047,0.0,45.876503,28.444862,53.44883,21.913147,46.135941,12.814522,36.579323,3.654613,22.395287,0.0,-29.860091,6.021591,8.597757,20.597838,47.151688,34.420112,61.770604,46.241673,66.476418,21.231737,286.813513,-42.055922,163.252297
37,-0.570259,-1.802989,-13.684788,-46.353688,0.0,-60.220013,-30.516701,-89.596996,-24.784927,-92.092724,-16.614189,-77.458191,-7.264709,-56.104946,0.0,23.425822,28.491393,54.735071,45.420269,68.516405,57.977647,80.319872,66.068618,84.386322,0.0,43.75906,30.711708,63.664684,24.230919,41.723843,14.498806,29.353237,3.756866,13.342552,0.0,-43.584738,2.331263,5.32832,13.746074,39.936955,24.156946,47.342374,33.977794,46.803972,19.725637,285.941103,-56.67655,117.829188
38,0.968285,-1.76847,16.460209,-4.188901,0.0,-61.333466,-31.774635,-90.707417,-26.290054,-94.499187,-18.400612,-80.906696,-9.224739,-59.757957,0.0,24.005226,29.038378,55.13719,45.893524,68.499238,58.327154,80.658759,66.42004,85.555628,0.0,39.153442,16.579914,22.247715,-3.129158,11.962109,-20.957909,-7.757149,-36.433754,-19.127483,0.0,-34.233718,-52.537683,-108.537186,-54.82356,-9.511107,-48.797121,-11.777656,-39.32118,-12.950266,20.608749,285.696062,-40.301514,115.163716
39,-0.415649,0.340121,5.998363,-36.040196,0.0,-62.025032,-31.628494,-90.706787,-25.607071,-93.534451,-17.114868,-79.388981,-7.380524,-57.309837,0.0,23.858074,28.442981,55.151084,44.983137,69.093153,57.278632,80.659747,65.280436,84.901876,0.0,17.514896,9.66814,8.069572,-10.086994,9.0798,-26.982422,-9.314575,-43.076878,-21.146049,0.0,-45.287011,-59.389539,-122.037802,-59.692827,-20.201956,-53.533563,-15.081643,-44.375513,-16.696632,20.597076,288.142196,-33.899174,81.229533
40,-0.322495,-0.374146,4.749298,-32.265702,0.0,-61.792774,-31.935368,-90.588455,-25.913315,-93.711433,-17.56794,-79.399281,-8.030548,-57.760963,0.0,24.385114,28.016594,55.202213,44.686982,68.976507,57.136298,80.375201,65.341878,84.79159,0.0,13.660183,4.905853,3.501663,-13.460197,4.371128,-29.960403,-14.425392,-46.198711,-26.084518,0.0,-46.77427,-60.03233,-124.974127,-60.542883,-14.097835,-54.405602,-11.665178,-45.670821,-19.380429,20.010309,289.062648,-29.414148,50.258429
41,-0.302811,-0.13511,-2.600784,-19.0965,0.0,-61.427364,-31.379242,-90.194092,-25.398102,-93.321304,-17.037849,-78.562489,-7.304878,-55.803108,0.0,23.966138,28.039565,54.440089,44.571571,69.194054,56.879045,80.495058,65.017379,84.850747,0.0,14.379616,6.649075,11.922226,-11.514015,3.981972,-28.018799,-9.340096,-43.42598,-22.370338,0.0,-47.274448,-58.424473,-123.037727,-60.554924,-16.103056,-57.053182,-15.301351,-48.99642,-21.06359,19.051809,289.375908,-32.670622,31.610298
42,1.446877,0.26565,3.663139,-13.486413,0.0,-62.633286,-31.518974,-91.143951,-25.559578,-94.232826,-17.297974,-79.11272,-7.867928,-56.50034,0.0,24.164974,27.979112,54.717411,44.409538,69.108097,56.629203,80.949974,64.635453,84.570524,0.0,13.002777,6.248989,6.378651,-12.070599,4.611168,-28.803921,-9.356976,-44.204578,-22.356892,0.0,-49.236073,-57.530142,-126.762326,-60.0101,-15.469065,-56.767308,-14.237422,-48.852573,-17.881159,18.269777,289.612427,-31.236391,18.094754
43,1.226234,-0.220819,4.533119,-4.142619,0.0,-62.573833,-32.106686,-92.390499,-26.172638,-95.379639,-17.906342,-80.187149,-8.569908,-57.666664,0.0,24.521089,28.142442,55.513497,44.643634,69.807544,56.883121,81.516472,64.892705,85.08262,0.0,9.548836,3.479176,4.522305,-16.049709,-0.947628,-32.849293,-13.404636,-48.244801,-24.511585,0.0,-47.85058,-61.801603,-131.471382,-63.327857,-14.209079,-58.098091,-11.711182,-48.566915,-15.735456,17.791901,290.023175,-28.407383,14.583703
44,1.073227,-0.280162,-1.728115,5.393096,0.0,-63.603401,-32.920418,-93.385792,-26.939163,-95.523891,-18.545151,-80.616131,-9.087524,-58.120251,0.0,24.706278,28.322938,55.771367,45.134735,70.224853,57.458079,81.173448,65.422647,84.675932,0.0,9.952927,7.241306,3.138542,-12.525043,-0.327988,-30.980015,-13.562908,-48.106613,-27.381592,0.0,-46.737096,-60.351086,-132.891672,-61.207286,-20.979147,-56.603361,-16.592675,-49.2303,-21.552283,18.409452,290.24046,-30.591173,20.474244
45,0.793762,-0.272752,-2.335396,8.601338,0.0,-64.448261,-33.351402,-94.061565,-27.354469,-96.07132,-18.918343,-81.950111,-9.440689,-59.5257,0.0,24.14966,27.947001,55.360171,44.803505,69.572151,57.187057,80.875009,65.193924,84.580466,0.0,11.203079,6.12133,3.02702,-13.125458,0.466061,-30.957756,-12.897434,-47.008953,-26.375141,0.0,-44.549588,-61.646486,-129.175656,-62.735393,-18.366672,-56.654644,-12.449964,-47.820167,-19.462495,19.202585,291.491446,-32.927198,30.599321
46,0.772018,-0.091329,-1.075344,9.953765,0.0,-64.362259,-33.232155,-93.734207,-27.442131,-96.349525,-19.223328,-82.287598,-9.783783,-59.255676,0.0,24.085625,28.130153,54.08132,45.113801,69.156386,57.471849,80.104981,65.437591,85.051374,0.0,8.215714,5.684109,-0.741177,-14.115543,0.207996,-32.073841,-15.078621,-47.687416,-29.293671,0.0,-39.076649,-59.655838,-124.465458,-61.805185,-11.99968,-54.555532,-9.869198,-44.829965,-17.762846,19.604645,291.484885,-34.372501,40.637854
47,0.624161,-0.540193,0.201416,10.070412,0.0,-65.301361,-32.963791,-93.783302,-26.889153,-96.533775,-18.593102,-82.117882,-9.429817,-60.436249,0.0,24.510591,28.46978,54.207043,45.83943,69.332683,58.455472,79.853101,66.482655,84.632089,0.0,3.838634,3.55814,0.846062,-16.067677,-3.888245,-33.681622,-18.364735,-48.522663,-33.370571,0.0,-32.4512,-57.404418,-118.357169,-59.901975,-5.182218,-52.985929,-2.363898,-43.109383,-11.075153,20.152473,292.309207,-34.247417,52.072779
48,0.170288,-0.266391,-2.715797,8.63632,0.0,-65.450592,-32.85862,-94.399452,-26.884346,-96.977406,-18.743134,-82.890472,-9.804955,-61.710491,0.0,24.392154,28.497815,55.231977,46.007885,69.507807,58.804238,80.503086,67.003458,85.260585,0.0,4.184704,5.520802,3.017864,-14.673386,-2.350502,-33.004932,-16.949329,-48.451538,-30.343952,0.0,-39.267149,-58.973558,-119.460371,-62.23259,-10.484911,-56.569429,-6.105479,-47.594315,-12.234486,20.179338,293.709042,-37.106638,62.375326
49,-0.494041,-0.032481,-4.040737,-5.59434,0.0,-64.889774,-33.387794,-94.443913,-27.012291,-97.012138,-18.511276,-82.862434,-9.304161,-62.02446,0.0,23.488004,28.65849,54.647941,46.430382,68.895614,59.317755,80.284428,67.388533,84.825429,0.0,6.005516,9.864807,10.584183,-9.233723,-2.879562,-27.509823,-16.962318,-43.911724,-30.842857,0.0,-39.589949,-58.886304,-124.547957,-64.296968,-20.972416,-60.36359,-20.554026,-52.291638,-20.471929,18.71315,293.456792,-42.119522,56.561216
50,-0.36438,-0.109483,-7.97802,-21.912165,0.0,-65.263996,-33.303967,-94.553318,-27.067223,-97.136765,-18.717957,-82.80201,-9.754601,-62.253571,0.0,23.913465,28.703382,54.957249,46.53863,68.687453,59.505538,80.194025,67.675735,84.829937,0.0,11.208515,14.105873,14.282055,-3.281307,5.073967,-20.812855,-8.866253,-37.045612,-23.964615,0.0,-44.558017,-53.870565,-109.566844,-58.753479,-23.486121,-57.673372,-22.367697,-51.897609,-25.20411,18.060408,293.241622,-50.385904,34.543366
51,-0.590973,-0.148448,5.942173,-46.78452,0.0,-65.213642,-33.105526,-94.234085,-26.71463,-96.57217,-18.330688,-82.359123,-9.383583,-61.502953,0.0,24.198998,28.735739,54.986334,46.410498,68.879929,59.339305,80.163891,67.584406,84.952265,0.0,16.687489,9.942169,-5.548668,-9.648571,0.412731,-27.673244,-18.419724,-43.821774,-32.719402,0.0,-40.835578,-60.380973,-138.533684,-61.076931,-13.559186,-54.725376,-16.043622,-45.846717,-22.584256,15.664301,291.616243,-46.248865,-13.718086
52,-0.941048,-0.430709,11.189461,-46.906014,0.0,-64.650536,-32.185707,-93.097458,-25.871773,-95.068417,-17.735252,-81.45298,-9.071388,-61.084156,0.0,24.527202,28.929759,54.438237,46.482376,68.338563,59.230501,80.054593,67.418482,84.876682,0.0,37.869701,-0.301323,-6.388435,-22.940884,-20.250664,-42.490368,-22.522659,-57.533283,-39.501114,0.0,-42.521025,-61.843377,-134.396283,-60.854259,-119.046798,-51.914374,-26.519085,-38.867407,-27.860335,14.283514,290.370722,-35.499144,-61.438912
53,-0.395508,0.673203,-13.707447,-19.248838,0.0,-64.216976,-32.211113,-91.556911,-26.147575,-93.818893,-18.253784,-81.371613,-9.707909,-60.753937,0.0,23.066372,27.98257,53.519329,45.565444,66.838152,58.384459,78.332127,66.680441,83.607279,0.0,36.332817,6.223812,4.650021,-14.082069,-3.828049,-31.990185,-18.191471,-48.38356,-34.103222,0.0,-48.123362,-62.975062,-135.985599,-64.054752,-43.891112,-60.028625,-35.346399,-51.669379,-35.739656,11.400003,290.933438,-51.694593,-80.798237
54,0.701065,-0.04514,30.730019,-42.396474,0.0,-64.804974,-33.308544,-92.374821,-27.500496,-95.404015,-19.565163,-82.722702,-10.842133,-62.271252,0.0,22.571937,27.69648,52.457407,45.159064,65.38183,58.122514,77.045866,66.607823,83.38683,0.0,18.963203,-8.235741,-17.816563,-34.362946,-24.1325,-55.362225,-34.489174,-72.6194,-57.627754,0.0,-15.829996,-76.857882,-133.461922,-77.611283,-96.522208,-66.17168,-19.996512,-49.418793,-26.438902,11.267796,290.796105,-21.797848,-123.286905
55,-0.16983,-0.066937,-27.914715,-24.430593,0.0,-65.07637,-33.690376,-93.949413,-27.646065,-96.937637,-19.480133,-83.996086,-10.694046,-63.48175,0.0,22.694944,28.220741,53.075529,45.61577,65.472603,58.299428,76.841348,66.270048,83.213064,0.0,4.063969,2.084312,-5.143147,-17.128429,-6.132717,-35.527668,-18.670807,-53.69585,-32.372074,0.0,-57.121786,-65.482622,-146.426104,-64.257046,-34.568452,-58.607918,-25.703841,-49.97274,-29.363093,10.570707,291.557997,-50.23982,-146.888669
56,-0.840454,-0.032048,-8.467827,-20.854087,0.0,-64.380054,-33.895111,-94.267559,-27.991447,-96.638889,-20.118599,-83.733387,-11.68396,-63.758526,0.0,22.327961,27.994241,52.844521,45.451082,65.034978,58.262131,76.824182,66.533599,82.921726,0.0,0.781116,7.54818,3.278675,-10.725517,-4.993057,-28.339577,-15.512123,-44.58086,-31.666088,0.0,-62.571955,-59.955081,-140.783807,-58.043797,-32.816099,-52.756619,-26.413214,-43.823804,-28.011762,9.38015,291.775976,-59.057751,-167.492728
57,-0.889549,-0.065579,-0.031013,-11.513148,0.0,-63.722992,-33.365364,-93.664169,-27.427711,-95.50478,-19.517784,-82.559452,-11.074905,-62.046432,0.0,21.819446,27.613981,52.120744,45.238414,65.554546,58.245212,77.164426,66.669079,82.902089,0.0,-1.064816,5.290718,5.747108,-12.003765,-3.915882,-28.546886,-13.081856,-44.316158,-28.986568,0.0,-60.690235,-59.475558,-139.767256,-57.08577,-27.885066,-50.777873,-20.978128,-41.288163,-21.156911,8.467455,291.780407,-59.11191,-178.935867
58,0.331421,-0.494312,0.499306,-2.716601,0.0,-64.148483,-32.87756,-94.007492,-27.069283,-96.228046,-19.275513,-83.429031,-10.873947,-62.352104,0.0,22.130915,27.429718,52.162302,44.883843,65.558992,57.812588,77.529495,66.265787,83.211953,0.0,-2.119503,3.680534,3.01775,-13.890209,-5.108871,-30.078678,-15.091724,-44.494801,-29.571419,0.0,-59.473119,-60.60593,-140.166766,-56.492689,-29.89779,-49.123827,-19.572874,-39.732531,-21.709268,8.644695,291.467934,-58.766785,-181.470629
59,0.517159,0.254967,1.142406,1.047549,0.0,-64.850693,-33.342018,-94.282951,-27.586327,-96.829777,-19.86145,-83.60733,-11.655235,-63.299332,0.0,21.555587,27.456333,52.242948,45.237364,65.040968,58.290289,77.041728,66.735214,82.847378,0.0,-0.485973,2.925167,1.379299,-14.543037,-4.774647,-30.954037,-15.075359,-45.815449,-30.147114,0.0,-57.525402,-60.923991,-141.106963,-57.131327,-29.999091,-50.021029,-20.64043,-40.927216,-22.876583,9.074392,291.77718,-57.71184,-180.368801
60,-0.331993,0.136901,0.062656,2.13536,0.0,-64.61792,-33.013401,-93.859119,-27.205925,-96.233025,-19.361572,-82.932186,-10.919037,-62.155838,0.0,21.275981,27.216062,52.072887,44.731134,64.95921,57.742934,77.237848,66.234542,83.067272,0.0,0.359058,3.033543,2.117786,-14.502296,-6.43816,-31.123409,-16.250839,-46.285744,-32.047119,0.0,-57.604258,-61.354592,-140.345225,-57.663044,-29.971288,-50.77775,-19.459917,-41.929981,-22.678719,8.621264,291.953478,-57.770319,-178.194044
61,-0.770416,-0.764223,-0.667191,-1.076912,0.0,-64.073639,-31.963234,-92.846603,-25.898209,-95.472679,-17.764091,-82.100143,-9.010391,-60.603104,0.0,21.625735,27.576622,52.471857,44.808692,65.825075,57.634006,78.333176,65.971238,84.296661,0.0,0.384007,4.083595,2.748013,-13.40395,-4.93475,-30.008755,-14.041328,-44.893169,-28.669167,0.0,-58.484247,-60.457142,-139.872001,-57.273986,-28.15825,-50.728843,-19.096778,-42.247316,-22.367975,7.738352,291.184129,-58.550005,-179.276081
62,0.213432,-0.121772,-0.063744,-0.41487,0.0,-64.373817,-31.980457,-92.910175,-25.893173,-95.47205,-17.731819,-82.413197,-8.766174,-60.974522,0.0,21.806726,27.812262,52.785055,45.278181,65.607096,58.224463,77.917596,66.617024,84.482406,0.0,1.098003,3.211842,3.540401,-14.085388,-5.186062,-30.56551,-14.221687,-45.578156,-29.570618,0.0,-57.743505,-59.819029,-139.75452,-56.337309,-29.284762,-49.664297,-18.949905,-41.128337,-23.077379,7.963514,291.080234,-58.602018,-179.673074
63,0.008011,0.25787,-0.162277,-1.340941,0.0,-64.258118,-31.785908,-93.086529,-25.70343,-96.067657,-17.479362,-82.864609,-8.46199,-61.003075,0.0,21.853718,28.161522,53.065278,45.505608,65.911093,58.220944,77.941741,66.284374,84.220275,0.0,1.061954,3.244343,2.826977,-13.958988,-5.043125,-30.228481,-14.518261,-45.177155,-29.585381,0.0,-57.081386,-58.928017,-138.787,-55.642849,-27.749169,-49.19169,-19.520185,-40.900941,-23.771855,8.107481,291.338799,-58.62834,-181.013321
64,-0.013847,-0.170061,-0.295143,0.358152,0.0,-63.979797,-31.549244,-92.55106,-25.590706,-95.155907,-17.656059,-82.068272,-8.887367,-60.962563,0.0,22.203781,27.878211,52.681746,45.385503,65.617717,58.327154,78.345218,66.743303,84.345567,0.0,2.482567,4.351501,3.720303,-12.994537,-4.863453,-29.488163,-14.355469,-44.611645,-29.698277,0.0,-56.955956,-59.816574,-139.900938,-56.768373,-29.558625,-50.489344,-20.756783,-42.459074,-24.322191,8.205957,291.174743,-58.811159,-180.649163
65,0.271454,0.6209,0.177784,-1.183972,0.0,-63.887157,-31.793118,-92.992516,-26.071587,-96.215973,-18.098602,-82.992496,-9.037857,-61.110363,0.0,21.229915,27.647944,51.793961,44.665184,65.104015,57.207372,77.564878,65.379422,83.382693,0.0,0.700436,3.278217,4.266701,-13.947144,-6.05793,-30.333309,-15.367699,-45.239296,-30.190315,0.0,-57.335659,-58.869539,-138.036531,-55.792408,-29.659124,-49.645432,-20.381588,-41.573341,-24.377148,8.565903,291.915872,-58.544884,-181.712906
66,0.16468,-0.414469,-0.368729,-1.581984,0.0,-64.02895,-31.998196,-93.281364,-26.228828,-96.530571,-18.125381,-83.436813,-9.013138,-61.7593,0.0,21.720275,27.835171,52.185026,44.980482,65.270679,57.626658,77.794095,65.8281,83.823714,0.0,2.663555,4.90242,3.389626,-12.480412,-4.854069,-28.827438,-14.772434,-43.736172,-29.581661,0.0,-55.197165,-58.367786,-138.919362,-55.444954,-29.390541,-49.283652,-20.617197,-41.328655,-23.276602,8.842449,291.676697,-58.801746,-183.119596
67,-0.191574,0.430524,0.344181,-0.492954,0.0,-63.873653,-31.887245,-93.097343,-26.22242,-96.314621,-18.210411,-82.951527,-9.137306,-61.252441,0.0,21.602641,27.771075,51.983288,44.745028,65.286549,57.225774,77.457247,65.260367,83.137235,0.0,1.956825,3.543777,3.666801,-13.73148,-6.440964,-30.057907,-15.703812,-44.942379,-30.85968,0.0,-56.380411,-58.514351,-137.363197,-55.271744,-29.68401,-48.797846,-19.470553,-40.656101,-22.224807,8.734188,292.210854,-58.374252,-183.508917
68,0.323639,-0.117079,-0.072613,0.127129,0.0,-64.521847,-32.056389,-93.478432,-26.218529,-96.272106,-18.083954,-82.973785,-8.969421,-61.58329,0.0,21.608445,27.740693,52.178419,44.77862,65.327058,57.368912,77.974777,65.485756,83.42388,0.0,2.560616,3.704967,2.953606,-13.732224,-5.918999,-30.071983,-15.229168,-45.066376,-30.951862,0.0,-55.886454,-58.423053,-138.269655,-55.041755,-28.560739,-48.434661,-19.443059,-40.247081,-22.712712,9.115677,292.176474,-58.389015,-183.299089
69,-0.095787,-0.151103,-0.209084,-0.07126,0.0,-64.191856,-31.587982,-93.509331,-25.890312,-96.525707,-18.005676,-83.379936,-9.27784,-62.270966,0.0,21.886322,27.687094,52.119385,44.946272,64.941426,57.623385,77.590195,65.702006,83.695953,0.0,3.16824,3.865986,3.275471,-13.475933,-5.398636,-29.739132,-15.438137,-44.759102,-30.65649,0.0,-53.540154,-58.588034,-138.102975,-55.303947,-29.61204,-48.695896,-20.100222,-40.402538,-23.110323,9.089584,292.107051,-58.528404,-183.288669
70,0.012245,-0.198713,0.230999,0.080476,0.0,-64.259377,-31.468964,-93.429737,-25.579834,-96.007118,-17.651138,-82.863636,-9.066124,-61.856976,0.0,21.703664,27.746745,52.005579,44.985607,64.924815,57.676058,77.874371,65.782776,83.873423,0.0,3.702793,3.795376,3.526325,-13.599586,-5.701103,-29.976139,-15.762119,-45.089493,-31.214619,0.0,-52.93676,-58.007287,-138.222562,-54.981363,-28.564552,-48.657765,-19.736512,-40.658988,-23.49668,9.154816,292.095072,-58.244419,-183.021459
71,0.041656,0.300725,1.475143,1.260774,0.0,-64.074383,-31.49889,-93.748684,-25.689011,-96.096153,-17.888489,-83.112144,-9.362183,-61.993904,0.0,21.315686,27.674682,52.015274,44.939233,64.996816,57.564105,77.940567,65.576715,84.06417,0.0,1.397724,3.658276,1.895542,-14.221687,-6.927853,-30.921993,-16.550961,-46.226177,-32.656059,0.0,-54.201887,-59.14703,-139.048258,-55.814978,-28.540747,-49.189282,-18.424115,-41.067158,-22.140101,9.263706,292.552688,-56.702042,-181.603794
72,-0.093727,0.006669,0.381947,0.901633,0.0,-63.928413,-31.283741,-93.628635,-25.463333,-96.155491,-17.622185,-83.137093,-9.050446,-61.953735,0.0,21.365149,27.529754,51.929565,44.864144,64.910242,57.569045,77.755872,65.64322,83.854219,0.0,1.596565,3.395462,2.631569,-14.129047,-6.582584,-30.649281,-16.087532,-46.006508,-32.08889,0.0,-53.989512,-58.993318,-138.577573,-55.755867,-28.785093,-49.370597,-18.516756,-41.402493,-23.207179,9.18889,292.666602,-56.301184,-180.594915
73,0.464287,0.326783,0.539589,-0.608983,0.0,-63.685627,-32.098503,-94.24696,-26.159592,-96.785374,-18.0019,-84.010906,-9.111214,-62.936668,0.0,21.004094,27.680734,51.551343,44.969244,64.516769,57.540269,77.386481,65.506875,82.507689,0.0,0.945396,3.787365,3.62772,-13.803062,-6.579609,-30.254402,-16.584721,-45.610714,-32.213058,0.0,-52.603941,-58.18854,-137.191608,-54.746541,-29.164828,-48.335228,-17.660433,-40.289288,-23.076762,9.560909,293.07116,-55.853863,-181.126123
74,0.611687,-0.0762,0.417194,-0.215509,0.0,-64.013844,-32.443886,-94.656143,-26.773224,-97.50721,-18.844872,-85.476894,-9.947662,-63.949013,0.0,20.639458,27.832578,50.734571,45.361544,64.284525,58.04724,77.69795,66.177176,82.684296,0.0,0.92989,3.535366,3.638763,-13.825493,-6.292419,-30.374107,-16.180115,-45.910149,-32.169914,0.0,-53.274103,-57.351019,-135.637759,-53.752838,-26.991074,-47.333991,-16.746557,-39.463623,-21.98378,10.147705,293.024292,-55.461559,-181.312301
75,-0.076447,-0.087624,1.15654,1.168148,0.0,-63.794346,-32.307014,-94.775505,-26.593781,-97.577419,-18.593216,-85.149536,-9.674721,-63.474255,0.0,20.782533,27.514996,50.999542,44.829008,64.471691,57.452769,77.697209,65.644331,82.513309,0.0,-0.98402,3.037949,3.353462,-14.553852,-7.203026,-31.010628,-16.986923,-46.326256,-32.86932,0.0,-52.554417,-57.952067,-135.793231,-54.091231,-28.871235,-47.346804,-17.424561,-39.046206,-22.459628,10.051632,292.944649,-54.324646,-180.136171
76,0.142937,-0.103864,-0.891895,1.573956,0.0,-64.165592,-32.561817,-94.853554,-26.807098,-97.478256,-18.834686,-85.243149,-9.905548,-63.867474,0.0,20.624329,27.588046,51.056599,44.806531,64.160407,57.515939,77.727899,65.870523,83.0485,0.0,1.622486,4.324322,4.171429,-13.264103,-6.723347,-29.937,-16.561146,-45.529003,-32.222385,0.0,-53.489318,-58.264184,-137.171956,-54.832205,-28.881995,-48.493355,-18.427064,-40.659142,-23.496279,10.211048,292.847207,-55.200062,-178.555793
77,0.31723,0.08608,0.044003,0.34994,0.0,-64.347839,-32.687588,-95.060005,-27.061615,-97.671432,-19.218292,-85.450687,-10.357361,-64.237232,0.0,20.863488,27.828379,50.926306,45.253234,63.833068,57.937448,77.515045,66.044412,82.770129,0.0,1.803303,4.39539,4.806747,-13.109951,-6.105137,-29.717388,-16.089478,-45.346184,-31.886902,0.0,-51.694404,-57.772775,-136.667548,-54.120068,-29.546955,-47.644441,-18.081987,-39.615575,-23.004437,10.543127,292.966725,-55.141211,-178.172416
78,0.099907,0.208408,0.459652,0.937418,0.0,-64.655857,-32.799969,-95.232124,-27.123528,-97.672348,-19.205475,-85.091,-10.352325,-63.728714,0.0,20.442721,27.235143,50.840349,44.698777,63.788978,57.457462,77.364065,65.638527,82.322994,0.0,1.64629,4.339314,4.327927,-13.410645,-6.32246,-30.178757,-16.298847,-45.928345,-31.976109,0.0,-52.324026,-58.091515,-137.008148,-54.567465,-29.712909,-48.090418,-18.269184,-40.114349,-23.289369,10.669441,293.224749,-54.655151,-177.185382
79,-0.001373,-0.044522,-0.360546,0.578663,0.0,-64.499474,-32.888088,-95.079918,-27.055206,-97.371483,-19.014816,-83.781395,-10.182381,-62.52737,0.0,21.313216,27.207849,51.458286,44.4456,64.60359,57.092023,77.9276,65.08938,82.705291,0.0,2.26038,4.094582,4.796276,-13.457336,-5.977421,-30.032673,-16.205635,-45.676918,-32.062969,0.0,-51.980833,-57.841981,-136.607511,-54.167539,-30.831224,-47.737761,-18.979035,-39.847572,-23.700287,10.65608,293.194291,-55.027685,-176.592655
80,0.007896,-0.20921,0.51796,0.760904,0.0,-64.866314,-32.653141,-94.610882,-26.942139,-97.755318,-18.922234,-84.406528,-10.078812,-63.228321,0.0,21.516622,26.873903,51.174295,43.979446,64.419388,56.774255,77.472499,65.17651,82.78711,0.0,2.993031,4.411469,3.880005,-13.410587,-7.204342,-30.239582,-17.041111,-45.862656,-32.497044,0.0,-53.072982,-58.143092,-137.467856,-54.586037,-29.747674,-48.113142,-19.064899,-40.146768,-23.17019,10.649757,293.005736,-54.523945,-175.811095
81,0.126686,-0.34148,-0.380802,0.525234,0.0,-65.020638,-32.90411,-94.984703,-27.079124,-97.90226,-18.918686,-84.525776,-9.963226,-63.009338,0.0,22.504691,27.36593,52.251655,44.625479,65.391463,57.32865,78.078765,65.469207,83.204913,0.0,2.825489,3.368626,4.780426,-14.227581,-6.473637,-30.791645,-16.447563,-46.343765,-31.938114,0.0,-52.591205,-58.14019,-136.530084,-54.398454,-30.223585,-47.865569,-18.402997,-39.617891,-23.962803,10.834122,292.708624,-54.847069,-175.241494
82,-0.124626,0.36266,-0.619411,1.3245,0.0,-64.438534,-32.496815,-94.841137,-26.670914,-97.289944,-18.622856,-83.487625,-9.930611,-62.140961,0.0,22.267446,26.737187,51.468598,44.112024,65.252031,57.088997,78.106429,65.54022,83.189044,0.0,6.018047,4.58828,4.53083,-13.032646,-4.974804,-29.665833,-16.088104,-45.26104,-31.134052,0.0,-51.764629,-58.275207,-138.281372,-55.119313,-31.077361,-48.840469,-21.853687,-40.833324,-25.650828,10.806026,293.187544,-55.369949,-173.800734
83,0.4739,-0.087562,0.959873,0.565402,0.0,-64.595833,-33.015003,-94.895439,-27.225266,-97.386131,-19.213715,-84.050388,-10.45063,-62.740459,0.0,21.845876,27.325731,51.921846,44.631037,65.640317,57.495747,78.277107,65.834214,83.320016,0.0,3.44696,3.999367,5.200825,-13.690453,-5.3619,-30.247307,-16.656532,-45.949173,-31.642857,0.0,-52.375789,-58.780248,-137.633401,-55.332414,-31.886431,-48.781374,-21.302132,-40.581244,-25.093499,11.322269,293.266832,-54.367733,-173.068482
84,-0.051727,0.320608,0.973835,3.361785,0.0,-64.149055,-32.806377,-94.502163,-27.083588,-96.427059,-19.146767,-83.091774,-10.320625,-61.41449,0.0,21.510447,26.901382,52.190213,44.059413,65.810008,56.855086,78.206897,65.178116,83.145139,0.0,3.700733,4.136696,3.615017,-13.532009,-5.972099,-30.351276,-16.709175,-46.25433,-31.877861,0.0,-54.614334,-59.411353,-139.200905,-56.073388,-31.187447,-49.636232,-20.876548,-41.765092,-24.67761,11.317205,293.635436,-53.347235,-169.658701
85,-0.387268,-0.218905,0.242558,3.324874,0.0,-63.838348,-32.849979,-93.671093,-26.541023,-96.712761,-18.09288,-83.058243,-8.806458,-61.595535,0.0,22.377423,28.433409,53.003775,45.760081,65.653656,58.345309,77.967614,66.148709,83.971421,0.0,2.270622,3.4655,4.188194,-13.972435,-5.766792,-30.610943,-16.198597,-46.443615,-32.32172,0.0,-54.356495,-58.466541,-137.39611,-54.89837,-28.139647,-48.368835,-17.782884,-40.376479,-22.964654,11.272488,293.701262,-52.762127,-166.049096
86,1.720505,-0.119055,1.089134,7.407101,0.0,-64.609795,-32.477875,-94.263954,-26.734657,-97.523689,-18.963432,-84.623566,-10.406685,-63.30677,0.0,21.839392,27.97658,52.179407,45.626762,64.840341,58.596263,77.850288,66.942078,83.67082,0.0,1.616249,2.361946,2.586021,-14.993591,-2.935295,-31.748486,-15.510406,-48.179855,-31.463413,0.0,-58.403308,-58.655157,-134.887091,-53.911583,-30.127671,-46.746822,-18.032,-38.687112,-21.646375,12.768145,293.61089,-51.89784,-158.613312
87,0.483513,1.043335,0.423489,11.672634,0.0,-64.504852,-33.251839,-95.290775,-27.225952,-98.184185,-19.072952,-84.496708,-10.237198,-63.632927,0.0,21.275178,27.870369,52.918621,45.47078,65.774378,58.308074,77.889747,66.322351,83.666065,0.0,2.490692,0.574322,3.474312,-16.99934,-2.180557,-33.443413,-15.98814,-49.000568,-33.048706,0.0,-54.984512,-57.496596,-130.973697,-53.612927,-29.137966,-45.599021,-12.876119,-36.648484,-17.802567,12.903643,293.961293,-51.822367,-147.633611
88,0.14946,0.003273,1.355209,12.504659,0.0,-64.44294,-32.967911,-95.053654,-26.64505,-97.493591,-18.291092,-83.638744,-9.445724,-62.496414,0.0,22.833882,28.342266,53.151852,45.897661,66.671055,58.587185,78.642299,66.365885,83.40659,0.0,13.18182,-3.296013,5.327797,-20.678272,-3.04018,-35.600681,-16.8647,-48.553963,-31.649437,0.0,-40.995111,-55.452364,-119.436643,-54.269118,-17.478639,-45.2949,-8.223704,-34.532621,-14.699593,13.15999,293.392525,-50.36027,-135.700992
89,1.346512,-0.07972,0.228395,38.500132,0.0,-64.644299,-33.142548,-94.755764,-27.236481,-97.390423,-19.343719,-83.741798,-10.956001,-63.006477,0.0,21.347179,28.232103,52.328102,45.989546,66.110423,58.934655,79.029721,67.031369,83.825258,0.0,19.444571,-0.063514,3.644057,-17.766208,-0.635633,-33.237991,-14.175796,-47.439279,-29.588184,0.0,-44.567403,-58.958892,-127.553118,-57.396908,-22.875641,-48.978428,-9.081865,-38.092347,-15.576341,15.412474,292.455277,-49.225903,-98.058388
90,0.538216,0.408726,0.228396,38.500131,0.0,-65.165977,-33.612671,-95.208492,-27.366714,-97.287369,-19.072952,-83.879528,-10.184669,-63.190784,0.0,22.329258,28.132438,52.402573,45.8038,66.507046,58.587926,78.748139,66.415532,83.823159,0.0,25.707321,3.168983,1.960316,-14.854145,1.768913,-30.875301,-11.486893,-46.324596,-27.526932,0.0,-48.139695,-62.46542,-135.669592,-60.524697,-28.272642,-52.661955,-9.940026,-41.652073,-16.453089,19.515953,291.264189,-45.432243,-61.158071
91,0.821571,-0.335058,-5.953102,42.820422,0.0,-65.507069,-33.658562,-95.415859,-27.6297,-97.063351,-19.494667,-83.521843,-10.652962,-62.459965,0.0,22.396442,28.029191,52.508537,45.787066,66.552927,58.790282,79.406028,66.949179,84.400895,0.0,16.966553,7.284451,7.432079,-9.561253,5.564117,-25.13752,-9.113274,-40.442734,-21.735077,0.0,-49.892944,-60.362047,-130.885154,-60.775249,-17.648206,-55.473266,-14.642165,-47.925853,-23.907444,20.457315,290.746443,-51.265554,-18.520338
92,0.981445,-0.187289,0.980501,41.590122,0.0,-65.294666,-32.397423,-95.62191,-26.329193,-96.990395,-18.303795,-83.466511,-9.600334,-61.603546,0.0,21.706443,27.848818,52.230598,45.831773,65.54164,58.920946,79.757882,66.953131,85.379269,0.0,18.782587,6.755962,13.99601,-10.558033,5.966377,-25.782738,-8.510742,-40.37467,-20.342875,0.0,-46.075564,-58.810027,-120.374925,-58.991496,-16.640671,-53.157101,-13.022374,-44.577931,-17.71448,23.390837,290.160632,-48.332977,22.671262
93,1.299591,-1.188942,0.980501,41.590122,0.0,-65.18755,-33.020554,-95.813599,-27.223663,-97.345161,-19.344635,-84.61504,-10.590591,-62.892265,0.0,21.365704,28.120026,51.568572,46.404385,65.138719,59.771991,79.366199,68.046113,85.568781,0.0,20.598621,6.227474,20.55994,-11.554813,6.368637,-26.427956,-7.908211,-40.306606,-18.950672,0.0,-42.258184,-57.258008,-109.864697,-57.207743,-15.633136,-50.840936,-11.402584,-41.230009,-11.521515,27.427597,288.713357,-44.615307,64.003052
94,1.454659,-0.689937,-5.236416,35.078094,0.0,-66.061077,-32.586136,-96.04929,-26.686134,-97.253609,-18.785477,-84.39537,-10.332756,-63.310318,0.0,21.209352,27.32042,50.971137,45.600888,64.60958,59.010237,78.73511,67.461831,85.129735,0.0,32.699604,10.897579,34.320832,-3.317756,24.040432,-15.519705,7.779064,-26.443176,-3.023901,0.0,-23.316323,-47.542569,-85.052008,-46.627119,-28.68319,-38.993564,1.180945,-27.38674,2.679257,29.907103,286.980625,-48.826876,98.038351
95,1.147957,-0.978374,-5.236416,35.078093,0.0,-66.11578,-32.179298,-95.614128,-26.134872,-96.695137,-18.219109,-84.531384,-9.642448,-62.553349,0.0,22.202052,28.024622,51.510403,46.134536,64.59124,59.272491,79.168289,67.399587,86.57803,0.0,44.800587,15.567684,48.081722,4.9193,41.712227,-4.611454,23.466339,-12.579746,12.90287,0.0,-4.374461,-37.827129,-60.239318,-36.046494,-41.733244,-27.146191,13.764476,-13.543471,16.880031,31.805449,284.167646,-53.312902,131.281839
96,1.443901,-0.314371,-3.278904,10.834172,0.0,-66.689358,-32.35508,-95.592556,-26.753998,-97.407417,-19.307098,-86.004581,-11.003609,-64.532776,0.0,22.110538,28.041541,51.842867,46.342264,64.022333,59.791751,78.063265,68.460953,86.631444,0.0,61.554909,33.177395,49.655914,33.720703,39.275379,29.688892,30.577869,24.842033,20.974159,0.0,-6.354488,-9.508081,4.240648,9.516541,27.203465,29.496443,44.759107,48.425599,56.750111,34.768152,282.339757,-55.073004,140.602493
97,-0.333252,0.652393,14.602833,23.222416,0.0,-64.806862,-30.940247,-94.081821,-24.880142,-95.59988,-17.135239,-82.518997,-8.631821,-60.736198,0.0,23.239891,28.471509,51.603276,46.087111,64.931793,58.717417,79.851804,66.581023,87.854102,0.0,59.135799,8.288155,53.601894,-5.244999,45.011501,-16.270638,34.014759,-22.944031,16.132221,0.0,21.89614,0.473502,45.139119,10.177641,59.772052,21.157297,65.045846,33.197948,67.185251,35.53113,281.22899,-39.373941,162.061749
98,-0.620956,2.528865,-17.338486,42.551777,0.0,-62.307873,-28.867722,-92.734966,-24.2696,-94.767895,-17.683868,-84.567318,-9.79557,-63.449707,0.0,18.211555,27.144246,47.693548,43.823094,61.752326,55.934882,75.581269,63.300471,85.500855,0.0,67.685337,34.729729,70.154514,23.201523,59.976368,11.657581,43.687592,-0.203018,32.822571,0.0,31.630846,14.090024,45.76181,29.100437,57.127097,43.826799,62.501729,57.200271,63.951444,35.765476,282.968422,-55.857124,203.824093
99,1.54129,13.569097,-3.93322,18.180495,0.0,-55.871429,-30.921021,-92.894211,-28.590317,-97.059746,-23.005829,-83.52047,-15.079079,-59.427853,0.0,13.997275,16.162553,32.258909,26.135862,46.876652,34.97037,58.084475,42.441676,65.5007,0.0,74.242344,30.467892,82.813168,17.047062,78.299618,3.747997,64.912205,-8.969994,40.778847,0.0,19.482564,13.436581,59.054883,26.862355,70.669147,40.534267,76.353211,53.43646,74.152426,37.930956,295.727015,-59.166155,221.194082
100,8.90419,35.598742,-1.080494,14.104103,0.0,-66.386776,-32.849808,-99.499168,-33.2864,-100.55872,-29.848824,-78.029709,-24.045296,-50.673752,0.0,36.443611,10.872642,20.224557,-5.872711,-0.722603,-24.037953,-29.144712,-42.58753,-53.721562,0.0,70.555,27.191391,82.539253,14.938145,76.751404,3.714867,64.584503,-7.780495,39.249229,0.0,16.848415,16.501563,63.332458,32.144733,74.430056,46.84448,81.402419,59.460954,80.44467,47.771473,330.916228,-59.310322,234.888656
101,-3.843498,-3.511746,17.872181,20.466495,0.0,-65.212669,-28.045807,-95.99699,-26.264305,-92.224159,-23.124962,-77.563019,-19.860306,-58.936157,0.0,35.99907,15.195418,17.179953,-0.577305,-16.847859,-18.198526,-33.688184,-37.492936,-42.651442,0.0,56.482944,28.733883,67.587032,16.117001,60.469608,5.352058,45.769558,-5.69973,32.82835,0.0,24.744872,37.883507,54.271264,54.403471,63.293308,67.186671,78.49348,76.265711,88.123025,44.107761,327.495734,-41.258354,255.446403
102,-6.535721,-26.510193,-11.972237,4.088557,0.0,-62.119846,-24.584198,-83.223152,-20.213242,-79.696426,-15.2005,-66.763859,-10.294647,-54.290142,0.0,27.134181,31.84512,30.048121,31.025753,16.281361,27.381368,17.726814,20.661132,30.04102,0.0,74.76099,30.292969,86.09396,17.782116,79.184132,6.683178,65.208836,-2.686672,48.812313,0.0,30.583806,30.331741,56.998841,48.447212,70.248442,61.735901,81.126148,70.437522,87.240118,37.829618,300.256145,-52.973013,258.805563
103,-1.003532,-21.074922,-6.173916,2.467979,0.0,-63.630638,-19.701576,-79.164677,-17.109833,-84.142628,-13.027039,-76.769028,-8.535461,-61.252098,0.0,4.017358,39.741948,35.14253,50.771744,44.55601,57.966223,60.481626,59.940507,73.104275,0.0,76.413574,27.199116,93.118973,17.233715,89.935112,8.138065,76.779442,0.215435,54.331055,0.0,20.579436,32.663066,63.858509,51.654899,78.967477,64.326145,88.149392,71.582374,91.996258,36.866827,278.845949,-59.106188,260.938268
104,3.955765,2.82891,-0.969658,4.367915,0.0,-59.517059,-35.197906,-37.800751,-32.628822,-25.73307,-27.816238,-23.210793,-21.106911,-25.837555,0.0,-0.42015,25.297785,50.40575,36.975838,60.566471,46.083159,64.95674,52.807285,67.556247,0.0,75.190315,31.479778,94.276085,20.588493,93.552361,10.220375,78.35598,1.218452,54.691887,0.0,16.318967,32.171841,66.391758,49.714763,82.018503,61.701629,90.567477,69.062958,94.043346,40.691729,281.705704,-60.206709,265.337028
105,2.868004,-0.29881,1.682453,3.143343,0.0,-57.56773,-37.585487,-19.438133,-35.793571,-11.685562,-31.776352,-13.549347,-25.545273,-24.740639,0.0,-1.424088,21.399852,48.55898,34.726579,63.774714,45.723648,69.959574,54.257864,72.934461,0.0,75.533581,32.499619,95.721416,22.2048,95.305996,12.156258,79.531918,2.949429,56.814251,0.0,13.614669,30.917752,63.305658,48.230036,79.483401,60.005345,87.864167,67.629422,91.716961,43.644562,281.487447,-58.439426,268.560924
106,-0.524025,0.866358,4.026604,0.082375,0.0,-55.696392,-25.51403,-20.487328,-23.511772,-10.233994,-20.415688,-9.77314,-16.157799,-15.387955,0.0,-1.302007,17.575773,39.927137,32.19543,55.699798,44.171243,63.973983,53.037058,68.607363,0.0,72.900524,31.872139,95.904064,22.278557,96.230221,12.696762,81.2356,3.812885,58.902569,0.0,13.916135,31.51494,61.345144,49.390388,78.464211,61.24869,87.105316,68.479293,89.598242,43.281069,282.605685,-54.252291,268.895179
107,-5.238762,8.073959,3.144665,2.963588,0.0,-50.628176,-36.51269,-8.540211,-38.695479,-1.055203,-37.450962,-3.218651,-34.060221,-35.745192,0.0,9.314587,14.369074,39.505845,26.419544,50.058281,34.947584,54.340672,41.536106,61.192991,0.0,72.160034,31.309261,95.782814,21.486511,95.76313,11.827641,80.664711,2.871838,58.576813,0.0,12.922447,31.082502,59.881598,48.507357,75.18866,59.815216,83.882007,66.688839,86.605447,38.275624,290.867241,-50.87431,272.046365
108,-5.238762,8.073959,3.284225,0.213162,0.0,-45.559959,-47.511349,3.406906,-53.879185,8.123589,-54.486237,3.335838,-51.962643,-56.102428,0.0,19.93118,11.162375,39.084553,20.643657,44.416763,25.723925,44.70736,30.035153,53.778619,0.0,71.029129,28.837681,93.124809,18.334751,92.253685,8.547192,77.726555,-0.165138,55.221748,0.0,16.809821,32.500415,62.546251,50.120833,76.121647,61.269376,84.377677,67.212483,85.902851,33.210039,299.047504,-47.416906,272.36583
109,-3.896828,-2.875902,-0.016193,0.099727,0.0,-28.212318,-45.621758,9.243622,-50.487041,16.835518,-48.976994,7.595787,-44.049454,-62.873039,0.0,6.259454,19.995463,41.398958,31.381374,47.943637,39.018356,51.995329,44.905579,67.523088,0.0,71.77248,27.610073,93.556652,16.918716,90.843601,7.217445,76.578426,-1.213131,53.041821,0.0,18.542599,33.513245,60.829034,51.526705,77.006284,62.6164,85.270526,68.146705,85.669187,29.414091,296.258763,-47.33222,272.552718
110,-10.283775,3.8883,0.083542,0.084845,0.0,-14.628868,-32.500248,22.391739,-37.326851,24.341011,-36.765633,16.695328,-33.110561,-58.171406,0.0,-20.539175,13.208166,33.01072,27.67283,41.850415,38.709666,49.653939,48.054356,65.51589,0.0,70.662975,27.791691,93.302135,16.984806,89.911251,7.093964,75.511723,-1.454945,52.548695,0.0,20.213997,33.72437,62.279181,51.282544,77.665469,62.224964,85.717044,67.794604,85.578661,19.157066,300.224621,-47.221928,272.715122
111,7.592926,26.802087,0.536041,0.260463,0.0,-53.818359,-45.729904,-0.683098,-46.119347,12.327003,-41.596355,12.118263,-34.294853,-18.807678,0.0,27.747301,0.59972,25.673969,-7.236037,21.294259,-17.252756,9.239467,-27.357223,-5.871723,0.0,68.821621,27.558689,91.597195,16.441784,88.815937,6.127281,74.341793,-2.881451,51.136265,0.0,22.027113,32.694003,61.596468,50.361907,76.699137,61.594307,84.956711,67.585826,85.220323,26.690741,327.026245,-46.745138,272.975122
112,-0.992889,3.076282,-1.236935,0.537476,0.0,-29.842987,-41.90815,4.805717,-41.322899,14.842072,-35.506611,11.801376,-27.043533,-46.529045,0.0,36.719574,4.347167,21.877986,-8.705264,10.054079,-23.277929,-2.609634,-37.67652,-41.712836,0.0,68.394585,26.408787,91.771202,15.776424,89.951019,6.304207,75.660667,-1.756668,52.662392,0.0,21.451167,32.963914,60.408699,50.80052,75.761457,62.095967,84.728049,67.896677,85.618181,25.741282,330.070077,-47.938643,273.480147
113,-3.747025,-8.417384,0.14019,0.175742,0.0,-29.889851,-45.758057,8.28289,-46.015606,19.521904,-40.470028,16.196251,-32.205677,-38.728981,0.0,35.593925,6.834412,27.743225,4.315057,21.861375,0.560694,18.482578,-3.761465,12.889225,0.0,67.515106,26.022549,90.997581,15.28656,89.187241,5.696468,75.125656,-2.42094,52.258759,0.0,22.216872,32.423412,59.69295,50.364501,75.536438,61.903368,85.04557,67.81387,86.056115,22.018576,321.564499,-47.774134,273.567694
114,2.562447,15.796373,0.48975,0.074347,0.0,-65.645599,-47.268848,-2.315598,-44.856148,13.650284,-37.857456,15.065804,-28.88546,-9.204483,0.0,24.247596,-2.544117,21.976107,-17.948375,12.561331,-34.349963,-4.648139,-50.219572,-28.232412,0.0,67.86375,26.1133,91.116772,15.442085,89.547329,5.85371,76.008968,-2.051811,54.811649,0.0,22.1734,32.150229,59.926799,50.204258,74.656557,62.118506,84.79758,68.355236,87.011271,24.578905,337.18533,-47.286501,273.466501
115,1.016235,-3.023856,0.623131,0.034642,0.0,-52.795544,-45.409584,-1.645546,-43.277893,13.059082,-36.290588,14.596481,-27.438583,-25.915833,0.0,32.541109,0.940582,24.28619,-14.657634,13.749038,-30.890705,-2.090684,-46.88363,-32.548519,0.0,67.37566,25.939178,90.553608,15.252285,88.519306,5.618763,74.738216,-2.349987,53.700542,0.0,22.426762,31.618434,59.836705,49.547234,74.653593,61.558121,84.220214,68.170973,86.842507,25.559149,333.997388,-46.699362,273.337056
116,-2.689476,-20.801491,0.717258,0.292635,0.0,-12.08622,-39.615097,9.515991,-42.461357,17.573662,-39.556446,11.78112,-33.785648,-47.564793,0.0,23.213647,9.063725,26.348839,13.0231,29.485698,15.280139,31.828262,16.626792,35.760343,0.0,67.148552,26.293373,89.928703,15.709705,88.327332,5.953331,74.353867,-2.231369,53.518753,0.0,22.085838,31.1177,59.639721,49.194392,74.175706,61.430113,83.54627,68.322323,86.235624,22.803612,313.122492,-46.048164,273.556286
117,4.136009,19.380923,0.935383,0.171419,0.0,-63.31604,-46.811199,-2.163506,-45.683956,11.562424,-39.622593,13.397255,-31.257019,-22.464638,0.0,26.365079,-0.345679,22.720694,-11.749127,15.418893,-24.356091,3.096166,-36.594467,-11.446674,0.0,66.904964,25.84877,89.508648,15.118961,87.507534,5.285168,73.817425,-2.908401,52.923145,0.0,21.988087,31.110043,59.244704,49.170001,73.861335,61.263819,83.095059,67.973248,85.964972,26.847897,332.39478,-45.204506,273.61907
118,-2.39193,-2.793342,0.683613,0.389769,0.0,-44.518204,-45.954494,3.267174,-44.519234,17.415161,-37.434826,17.391701,-27.929821,-23.720512,0.0,35.638324,3.075603,26.961527,-7.172187,17.300304,-18.794047,6.469529,-30.644074,-12.768565,0.0,66.087112,26.630516,88.486977,15.988197,86.160278,5.861549,72.055435,-2.901363,50.838203,0.0,21.764859,30.922507,59.802989,48.722125,74.502922,60.594383,83.21115,67.299736,85.100836,24.352684,329.494286,-44.624176,273.901687
119,-4.426918,-21.783199,-0.322037,0.007719,0.0,-15.42263,-29.648552,17.536812,-34.971828,20.2248,-35.778065,10.877724,-33.738499,-58.074932,0.0,-23.466145,6.556041,24.860531,21.096534,34.452716,32.638242,43.174591,42.004977,55.10403,0.0,66.004257,27.083015,88.456993,16.325855,86.446724,5.998306,72.202148,-3.053741,50.394173,0.0,21.523538,31.064286,59.54901,48.69162,74.747947,60.262289,83.055539,66.608934,85.19587,19.803457,307.653427,-45.068521,273.851746
120,6.397362,22.567306,0.502853,-0.051129,0.0,-61.956425,-45.83456,-1.467361,-44.859238,11.334915,-38.944817,13.66745,-30.602703,-25.620804,0.0,26.370328,-1.232353,24.138792,-10.199686,17.371379,-20.505645,6.8982,-30.546138,-4.416575,0.0,65.994987,27.294788,88.257179,16.524124,86.265793,6.025715,71.986313,-3.339329,50.172157,0.0,22.057371,30.850568,59.730865,48.218365,74.877932,59.621073,82.84849,65.98544,85.007902,26.122427,330.147111,-44.64406,273.726995
