takenoko1/special-research/HandMotion_SimilarSearch_自分用/NewProject/handData/test_key/d4_feature_d2/54.csv
frame,vel_0x_L,vel_0y_L,vel_0x_R,vel_0y_R,posFromWrist_0x_L,posFromWrist_1x_L,posFromWrist_2x_L,posFromWrist_3x_L,posFromWrist_4x_L,posFromWrist_5x_L,posFromWrist_6x_L,posFromWrist_7x_L,posFromWrist_8x_L,posFromWrist_9x_L,posFromWrist_0y_L,posFromWrist_1y_L,posFromWrist_2y_L,posFromWrist_3y_L,posFromWrist_4y_L,posFromWrist_5y_L,posFromWrist_6y_L,posFromWrist_7y_L,posFromWrist_8y_L,posFromWrist_9y_L,posFromWrist_0x_R,posFromWrist_1x_R,posFromWrist_2x_R,posFromWrist_3x_R,posFromWrist_4x_R,posFromWrist_5x_R,posFromWrist_6x_R,posFromWrist_7x_R,posFromWrist_8x_R,posFromWrist_9x_R,posFromWrist_0y_R,posFromWrist_1y_R,posFromWrist_2y_R,posFromWrist_3y_R,posFromWrist_4y_R,posFromWrist_5y_R,posFromWrist_6y_R,posFromWrist_7y_R,posFromWrist_8y_R,posFromWrist_9y_R,posFromBody_0x_L,posFromBody_0y_L,posFromBody_0x_R,posFromBody_0y_R
2,5.886383,-0.041743,0.073929,0.60571,0.0,22.908554,1.149216,51.020966,-7.848358,50.139885,-18.681507,31.215935,-28.342552,-35.326424,0.0,-7.402639,17.147842,44.242009,38.737762,58.719146,53.930896,68.563829,65.534662,81.627993,0.0,67.873535,25.553112,88.780861,16.832485,86.112099,8.11306,72.906647,0.44838,52.95948,0.0,12.157051,27.424902,51.523988,45.202969,65.583878,57.431465,74.587088,64.860039,76.79732,-12.654762,273.919779,-44.074631,275.225554
3,1.173534,-0.286769,0.279636,-0.129614,0.0,15.260181,0.089149,47.780285,-7.886925,46.71587,-18.134308,29.426136,-27.517834,-39.061604,0.0,-6.774885,18.876854,44.18983,40.445841,58.988625,55.314352,67.823565,66.57775,80.907428,0.0,67.524433,25.939922,88.003063,16.989899,85.818729,7.995644,72.737789,0.046692,52.257099,0.0,11.911407,27.363398,51.967356,45.426073,65.800869,57.914168,74.958763,65.508974,76.865801,-11.416998,273.488901,-43.730764,274.95183
4,-4.798393,0.609477,-0.537415,-0.304368,0.0,31.758556,5.883121,55.655766,-3.366222,53.966846,-14.918861,35.960369,-25.614223,-29.808483,0.0,-13.938426,16.110868,42.696952,38.255183,57.935225,53.688587,68.056611,65.792347,80.756139,0.0,67.639446,26.689224,88.330135,17.899075,86.532383,8.891659,73.080883,0.788841,52.304935,0.0,12.175143,27.848139,52.610363,45.836281,66.234727,58.278186,75.188598,65.852307,77.132872,-16.125441,273.875998,-44.178228,274.425083
5,-0.539989,0.380877,0.380459,0.327154,0.0,35.499344,4.872494,55.026855,-3.909359,54.612694,-14.855633,36.858215,-24.843578,-31.917915,0.0,-15.170347,16.57801,42.519543,38.723436,58.107817,53.724834,67.874447,65.302604,80.824929,0.0,67.575188,26.531124,88.629112,17.565765,86.394653,8.407631,72.852173,0.072212,51.647873,0.0,12.187432,27.988498,52.47902,46.08742,66.003348,58.54748,74.791234,66.072447,76.711055,-16.54521,274.088173,-43.677549,274.583535
6,7.175903,0.508638,-0.260811,0.192353,0.0,22.058144,-6.287899,47.036247,-13.910351,48.898773,-22.751942,31.513023,-30.535583,-39.820232,0.0,-13.561749,17.041076,43.636978,38.72992,57.476604,53.418367,67.972445,64.486326,81.243103,0.0,67.648773,26.645565,88.657837,17.799625,86.337776,8.703918,73.289108,0.368729,52.629662,0.0,12.167178,27.68802,51.765247,45.908159,65.51799,58.440281,74.846933,65.894914,77.21006,-9.257669,274.480535,-43.826723,274.659611
7,-3.237591,0.198404,-0.198441,-0.082437,0.0,28.457279,-3.163376,50.982227,-11.012707,51.679745,-20.320187,33.857746,-28.596039,-36.137295,0.0,-13.216564,16.752269,42.942719,38.701021,57.322969,53.413736,67.499869,64.466442,80.501604,0.0,67.252693,27.155914,88.707161,18.250809,86.722183,8.953171,73.03791,0.410442,52.056541,0.0,12.193545,28.586056,52.15977,46.303793,65.911463,58.50092,74.812971,65.817665,77.063032,-12.442875,274.606475,-43.972778,274.50471
8,-0.442028,0.194143,-0.117645,0.244408,0.0,30.79834,-1.979313,52.158966,-9.805355,52.710457,-19.161587,35.810394,-27.303486,-36.251335,0.0,-14.073042,16.715404,42.312247,38.539544,57.48809,53.101711,67.161848,64.317253,80.303447,0.0,67.365303,26.846809,88.838654,17.895012,86.905174,8.670731,73.4832,0.223331,51.854439,0.0,12.507361,28.228089,51.744807,46.251923,65.716394,58.560447,74.912327,65.774625,76.964602,-12.794809,274.776474,-44.00033,274.724974
9,4.661179,0.179447,-0.120449,-0.325178,0.0,23.326378,-3.583546,46.562233,-12.803421,47.394333,-23.016243,28.518906,-31.747913,-42.193909,0.0,-11.607842,17.01582,43.616168,38.386835,57.777267,52.921523,67.869384,64.154479,79.637963,0.0,67.429905,27.46891,88.641186,18.47517,86.771564,8.960152,73.360462,0.116558,51.905537,0.0,12.866254,28.248776,52.001504,46.106192,66.485063,58.353522,75.470921,65.615185,78.154718,-8.111944,274.950456,-44.099092,274.394331
10,-1.403561,-0.601326,0.336056,-0.044831,0.0,23.067112,-1.208382,49.714794,-11.621304,50.648861,-22.901859,30.381374,-32.573261,-37.551155,0.0,-4.479066,14.996335,45.502767,36.444846,59.274529,51.869729,68.993921,63.697958,80.422008,0.0,66.72123,27.585869,88.393478,18.685913,86.447296,9.16214,72.801933,0.179558,50.944633,0.0,12.946962,28.465396,52.890463,46.076861,66.886811,58.242433,75.82858,65.55961,78.35905,-9.494047,274.357034,-43.741579,274.357405
11,0.979958,0.627014,-0.240726,0.012103,0.0,27.259884,-3.555107,48.836918,-13.616009,49.812069,-24.383411,28.832531,-33.506241,-42.007256,0.0,-10.343873,15.520719,45.060325,36.561369,58.115906,51.534671,69.088584,63.187962,81.356909,0.0,67.044239,27.944984,88.616009,18.962231,86.699352,9.340897,72.831287,0.261383,50.852337,0.0,12.675013,28.219012,52.62543,46.13009,66.997406,58.503946,75.92701,65.989701,78.310329,-8.496637,275.007976,-43.964853,274.393436
12,2.13129,0.684689,0.198555,-0.07867,0.0,22.160454,-5.790825,44.35318,-15.504112,46.407394,-25.973625,26.779976,-34.865971,-48.107071,0.0,-10.581365,16.634388,43.765604,37.359987,57.879402,51.66904,68.381295,62.981592,80.80202,0.0,67.282848,27.421646,88.328304,18.405533,86.609745,8.835011,72.667866,-0.144081,50.773373,0.0,12.972465,27.726305,52.901454,45.806764,67.262748,58.355868,75.951216,65.979142,78.278774,-6.339827,275.656865,-43.740778,274.278966
13,2.240353,-0.146719,1.483955,0.059342,0.0,16.296902,-5.571499,41.845608,-16.489849,43.635693,-28.31995,21.948452,-38.471718,-51.744461,0.0,-8.599362,17.645674,45.26614,37.747595,59.899011,51.671818,70.357246,62.729033,82.041042,0.0,66.03281,25.900898,87.93005,16.784821,86.160793,7.185688,72.082729,-1.504555,49.789066,0.0,12.829698,27.716302,53.118507,45.562974,67.516357,57.870325,75.923367,65.299887,77.887585,-4.031582,275.505237,-42.188931,274.333399
14,1.862926,-1.457124,-0.785809,0.422682,0.0,13.326645,-6.647186,38.891144,-16.713638,40.384026,-27.805252,19.973373,-37.476196,-52.665825,0.0,-6.738452,19.135094,45.918594,39.845874,60.8257,54.028461,70.875023,64.84559,82.976437,0.0,67.257729,26.094818,88.611145,16.956882,86.913071,7.521629,73.013191,-0.933723,51.066628,0.0,13.061509,27.106023,52.167921,45.436385,66.924417,58.015191,75.43029,65.513667,77.682883,-2.129631,274.017623,-42.935715,274.725591
15,-2.108574,0.176236,0.206223,-0.409529,0.0,14.21093,-1.780758,40.691299,-11.729794,41.003265,-23.688126,21.636887,-34.659462,-48.259563,0.0,-9.599225,19.039752,44.566878,39.972277,60.081669,54.446079,70.523293,65.455251,82.583148,0.0,67.092361,26.393509,88.444519,17.301521,86.912155,7.78038,72.751236,-0.840511,50.635986,0.0,13.124,27.832948,53.102514,45.995535,67.775153,58.517346,76.048473,66.046018,78.20066,-4.236517,274.168634,-42.727804,274.290838
16,1.168556,0.342036,0.5266,0.387237,0.0,14.80957,-4.22533,40.781822,-13.929806,42.219887,-25.348663,23.077469,-35.647717,-49.726067,0.0,-9.865555,18.351049,44.147716,39.256342,58.912857,53.904713,70.02435,65.225169,83.571587,0.0,66.865826,26.274719,88.045635,16.963921,86.076679,7.253609,71.990032,-1.514225,49.456387,0.0,13.180502,27.936195,52.463829,45.969477,67.109113,58.272999,75.838274,65.577641,77.566236,-3.073597,274.471828,-42.206841,274.639234
17,-0.873642,0.094602,-0.308475,0.092749,0.0,13.071098,-4.088116,43.635063,-15.064774,44.857407,-27.424164,25.53154,-38.473091,-44.58744,0.0,-5.031115,15.417658,47.325948,36.353888,61.159769,51.523556,70.894351,63.740937,83.39387,0.0,66.904564,26.692657,88.486862,17.371902,86.233635,7.616272,72.121239,-1.265087,49.377937,0.0,12.923064,27.737235,52.469325,45.661404,67.486531,57.900891,76.120289,65.215228,78.032143,-3.953648,274.490909,-42.521725,274.656462
18,2.47261,-0.604537,0.337143,-0.245458,0.0,5.952072,-7.129841,38.460274,-16.876144,40.559349,-28.001118,22.442894,-38.130741,-47.595463,0.0,0.134925,16.779501,47.541148,37.533629,61.40214,52.573375,71.138512,64.279091,83.987909,0.0,67.004013,25.853462,88.303299,16.694698,86.609001,7.296181,72.609558,-1.069164,50.024986,0.0,13.095286,28.222532,52.985867,46.364,67.607068,58.639858,76.133194,65.92227,77.792613,-1.492109,273.886002,-42.195654,274.410634
19,0.211716,0.097257,-0.543251,0.085957,0.0,8.339882,-5.952072,39.134216,-16.284943,41.691856,-28.050213,21.170654,-38.719482,-50.459576,0.0,-3.200771,17.641537,47.727696,38.378437,62.228731,53.259298,72.50369,64.825089,84.893602,0.0,67.724304,26.858997,89.008026,17.780628,86.976814,8.320999,73.152122,-0.344639,50.806274,0.0,13.149318,28.272364,52.897873,46.554685,67.444541,58.915636,75.766582,66.224476,77.725923,-1.330719,273.974938,-42.78923,274.488269
20,1.849136,0.185622,0.4105,0.225698,0.0,2.19429,-9.346561,36.963387,-19.474983,39.979591,-30.564823,20.902977,-40.229473,-50.095768,0.0,-2.807482,17.173654,48.145932,37.481018,61.40251,52.253137,72.096447,63.827758,85.083793,0.0,67.219391,26.631775,88.194122,17.540932,86.12011,8.04388,72.299881,-0.763493,49.736481,0.0,13.050209,28.477252,52.670137,46.298112,67.532782,58.482704,75.868656,65.850269,77.90185,0.476418,274.102545,-42.420731,274.655952
21,-4.605789,-0.713403,0.225563,-0.051376,0.0,0.820942,-3.873596,39.318008,-12.29599,41.864777,-22.597332,22.720642,-32.486744,-46.34285,0.0,5.931374,20.712014,47.714729,40.730325,62.656785,54.707222,71.426578,65.439629,85.11578,0.0,67.3423,25.849514,88.058281,16.815376,86.517105,7.514191,72.563324,-0.937958,50.71312,0.0,13.299865,28.160596,52.673657,46.200979,66.800175,58.469798,75.532795,65.797596,77.719069,-4.19858,273.335157,-42.264376,274.550591
22,4.813156,-0.522038,-0.166969,0.034457,0.0,-1.578369,-9.953213,34.809036,-18.228722,37.534561,-27.282143,19.67514,-35.414944,-51.528168,0.0,-4.565825,21.756214,46.484043,42.767533,61.006875,57.293514,71.090594,68.063959,85.837519,0.0,67.434769,26.027985,88.331223,17.272625,86.63681,8.243809,73.000374,-0.003891,51.677971,0.0,13.368655,28.547709,52.479514,46.737899,66.308889,59.217904,75.304442,66.691309,77.441315,0.503111,272.726422,-42.54281,274.49835
23,2.09713,-0.130664,-0.095387,0.097442,0.0,-5.358639,-13.360233,32.630997,-20.532932,35.359955,-28.948803,19.245186,-36.772728,-52.926407,0.0,-3.495197,20.297978,46.95347,41.408283,61.144393,56.497243,71.401631,68.04636,86.273724,0.0,66.89867,26.383324,88.422031,17.789955,86.964283,8.763714,73.408756,0.396252,52.268543,0.0,13.262198,28.379007,52.488282,46.4783,66.709588,58.895011,75.415346,66.365761,77.738643,2.440681,272.57061,-42.797756,274.570644
24,-16.109848,30.315747,0.065975,-0.080955,0.0,-42.458267,-16.902237,40.650787,-13.438053,49.965477,-7.717495,50.33535,-0.134468,31.769028,0.0,47.606542,20.637296,29.558564,22.368963,31.338458,21.829388,25.176569,21.16446,23.293676,0.0,67.130127,25.981236,88.245506,17.274685,87.060928,8.181896,73.011818,-0.228424,51.277542,0.0,13.368532,27.976889,52.465929,46.099585,67.227488,58.650603,75.501735,66.236703,77.711411,-13.812246,302.859187,-42.874861,274.462519
25,18.022614,-29.296248,-0.521221,-0.333884,0.0,-4.564247,-18.244972,31.561089,-26.387329,35.135307,-34.320774,18.312607,-40.818157,-55.863018,0.0,4.003217,19.002269,48.40269,39.038116,60.98304,53.24806,69.482799,64.268779,84.525137,0.0,68.457241,26.894817,88.467579,18.197536,87.365856,9.112816,73.516788,0.752048,52.829533,0.0,13.434111,28.475461,52.955857,46.69208,67.359387,59.275641,75.731385,66.81302,78.277045,3.999395,273.444255,-43.607054,274.009951
26,-22.910786,21.306424,0.554008,0.085957,0.0,-6.255798,-2.232285,56.552067,-7.175617,57.995396,-9.099026,48.151646,-8.908768,21.682949,0.0,34.370835,11.194979,32.461821,24.807302,42.523495,35.096526,44.537732,44.802023,45.896549,0.0,67.763386,26.117878,88.070354,17.375793,86.888752,8.347664,72.821102,0.128231,51.872234,0.0,13.093063,28.073034,53.124003,46.207278,67.765026,58.760889,75.820737,66.378111,78.095623,-19.034128,294.651755,-43.175783,273.996983
27,4.028778,-19.570373,0.089321,-0.299304,0.0,14.508419,6.062565,54.475079,-3.265285,53.843822,-14.014149,34.941845,-24.122314,-30.075703,0.0,3.948754,17.654937,43.219607,38.508668,58.132826,53.41034,66.301541,65.596475,82.330836,0.0,67.806931,26.524887,88.156929,17.833271,86.951637,8.637028,73.197327,0.128174,52.601738,0.0,13.150985,27.979173,53.133204,46.098165,67.480603,58.711859,75.936643,66.4398,78.310761,-15.205708,274.808167,-43.286819,273.424464
28,-6.503448,6.244634,0.916786,-0.770028,0.0,1.118717,10.031147,56.391621,4.119644,60.869007,-5.314865,46.229839,-15.669022,-11.198444,0.0,25.643588,19.276626,43.495261,33.798965,53.97091,42.974767,57.744169,51.541463,69.940987,0.0,66.276169,26.397285,87.111511,17.371616,86.385841,7.709026,72.875175,-1.197338,51.614227,0.0,13.345437,28.206044,54.130041,46.041786,68.706596,58.461276,77.127438,66.073744,79.186197,-21.912031,280.79365,-42.572908,272.395285
29,30.081654,-9.980225,-0.301609,-1.493495,0.0,-11.772709,-22.402096,26.252289,-31.333923,31.306,-38.60693,12.973595,-44.224777,-60.46257,0.0,12.946715,20.602346,50.923033,39.593191,62.221135,53.108318,71.466654,63.552474,86.426556,0.0,65.859089,26.100998,88.973866,17.009182,86.91988,7.619991,73.69772,-1.060238,52.062435,0.0,13.059039,27.172528,54.481153,45.219394,69.128969,57.762817,77.083904,65.137052,79.296792,7.961311,270.484079,-43.082829,270.572444
30,-17.708416,39.787952,3.039608,-7.849033,0.0,-32.7178,-23.314362,41.773739,-23.567848,55.187473,-18.194561,53.539524,-9.872189,19.695797,0.0,42.086055,6.69041,30.64253,-0.087624,26.799061,-7.970681,15.321574,-15.671699,0.555815,0.0,64.664841,26.052647,85.449142,16.821899,84.309082,6.43198,69.700356,-3.934765,45.432014,0.0,13.183651,26.46141,59.447986,44.342971,75.91114,57.439492,84.266773,66.103137,84.939112,-9.783869,310.012046,-40.079985,262.463426
31,41.986599,-11.459456,1.122894,-12.526133,0.0,-43.42392,-49.330444,-12.983208,-54.483318,-6.629448,-53.379192,-9.749565,-48.018894,-40.990276,0.0,42.083462,4.818693,31.385203,1.225499,29.710346,-3.417885,25.040101,-6.92889,20.824277,0.0,59.874001,23.346577,78.817863,13.62648,76.873856,2.586021,55.377846,-8.605728,26.521397,0.0,14.095087,21.672604,62.890325,39.233989,82.497439,53.508337,91.686147,64.437172,91.384558,32.052584,298.566206,-39.107237,249.950909
32,6.90731,-33.554433,2.985706,4.20934,0.0,-50.149784,-29.612961,-74.26609,-25.116463,-67.4576,-21.322861,-49.069576,-17.059021,-40.601349,0.0,19.58087,49.665301,54.825165,44.173404,45.828501,28.36394,7.998778,5.734205,-11.883435,0.0,40.618687,23.365459,62.820225,15.959415,48.466816,6.392155,21.709843,-5.436974,0.670109,0.0,42.819032,12.122285,54.461208,19.5805,70.011444,27.681475,72.768661,36.78682,61.703482,38.836098,264.787789,-36.245327,253.936266
33,-18.149872,-34.894108,-10.989361,-65.743317,0.0,-44.360962,-24.175072,-44.064388,-10.762367,-29.170361,3.789711,-16.090279,17.790298,0.187569,0.0,-7.547444,28.87616,61.627405,43.053807,70.953014,51.523926,75.535203,54.307203,81.090332,0.0,50.807648,58.528404,72.94693,53.960838,55.703888,42.793865,37.880173,27.597713,28.849068,0.0,9.984362,33.490336,104.28743,44.892797,121.957681,54.670171,123.352623,63.128064,114.408755,20.671549,229.979035,-47.249365,188.278303
34,41.505203,-73.079575,-17.855988,-52.102589,0.0,-53.816757,-44.640312,-70.435295,-33.152618,-60.561905,-18.569984,-48.70903,-3.180885,-35.635414,0.0,55.248835,33.080437,87.407338,44.304562,98.582742,54.082431,102.034714,60.615563,101.939062,0.0,45.036335,38.725719,75.81356,30.278778,77.291908,19.71468,62.938385,7.77998,43.568287,0.0,-37.367706,13.648508,65.764806,31.975784,90.545741,47.617101,92.555531,60.192573,77.696653,61.066132,157.933934,-66.215973,137.210187
35,21.309128,-64.446682,-19.892349,-54.320849,0.0,-65.90332,-46.166267,-89.955654,-37.335777,-78.695869,-25.624924,-64.872665,-12.244606,-47.163391,0.0,41.364563,20.851354,80.156975,36.313256,90.739822,50.756122,95.941986,62.824437,96.550906,0.0,25.690613,43.102398,42.720795,50.586262,41.85791,52.370167,43.866806,51.279774,51.045799,0.0,-60.260869,-7.570137,1.435018,12.160725,17.879894,31.742367,34.667484,50.166158,44.712794,81.237001,94.570277,-87.24658,83.972363
36,16.346054,-48.472344,14.421558,-24.030852,0.0,-62.352791,-46.708832,-75.566597,-40.629959,-66.36692,-31.550217,-55.086594,-19.820709,-48.217621,0.0,9.244222,-4.203598,29.327802,7.505732,41.549043,19.674793,43.012373,30.90463,49.718591,0.0,33.836575,14.681911,22.170868,3.065586,11.768818,-10.595341,1.203117,-25.675735,-23.930683,0.0,-28.463667,-44.940622,-44.884368,-52.628826,-54.910442,-55.862479,-63.12263,-55.876589,-97.167793,97.467699,46.773189,-72.940378,60.616767
37,11.922112,-59.766834,-22.464237,-83.328229,0.0,-50.146294,-36.393929,-53.973541,-34.640121,-46.687889,-30.447235,-37.397461,-24.378433,-31.968384,0.0,-8.715361,-29.013338,-7.257001,-15.808136,5.197069,-0.827579,13.986129,14.68292,21.428659,0.0,0.074329,2.969513,24.783268,-4.708614,15.208454,-11.597843,4.77253,-17.125854,-13.150635,0.0,-54.858325,-48.869338,-49.422868,-43.454413,-40.621027,-34.308529,-35.001214,-23.072208,-37.228119,111.011524,-7.157351,-93.782902,-16.875168
38,13.266411,-51.0757,-34.913406,-60.452017,0.0,-40.094795,-25.331459,-40.563812,-21.3554,-34.225998,-16.724205,-24.36451,-10.797692,-18.244553,0.0,-26.497529,-27.992877,-20.329739,-14.287811,-3.847411,0.208016,8.798044,14.271842,19.010379,0.0,8.012466,15.50354,28.836823,12.023506,22.717094,6.182556,16.39967,-0.321465,-1.761875,0.0,-59.425046,-49.310575,-82.588274,-43.426286,-77.243328,-35.360571,-68.503993,-25.587426,-56.516262,124.616223,-56.609695,-128.358021,-75.703828
39,13.266411,-51.075701,-17.362976,-43.492112,0.0,-30.043297,-14.26899,-27.154084,-8.070679,-21.764107,-3.001175,-11.331559,2.78305,-4.520722,0.0,-44.279697,-26.972415,-33.402475,-12.767484,-12.891891,1.243612,3.60996,13.860765,16.592099,0.0,-11.28336,17.369556,22.425041,14.065418,18.662395,6.914062,13.115959,-3.986664,-13.017712,0.0,-60.527569,-37.947156,-86.381849,-29.956205,-79.590168,-18.800561,-72.744533,-5.255917,-46.572732,133.208981,-107.792826,-150.39465,-119.303371
40,13.26641,-51.075701,-16.500778,-25.638354,0.0,-19.991798,-3.20652,-13.744354,5.214043,-9.302216,10.721855,1.701393,16.363792,9.20311,0.0,-62.061866,-25.951954,-46.475213,-11.247158,-21.936371,2.279208,-1.578124,13.449687,14.173819,0.0,-24.157276,9.853992,20.619049,10.716133,24.208202,9.781494,20.943546,6.072636,5.239506,0.0,-51.188467,-42.585477,-98.371417,-36.611495,-96.852187,-27.069559,-87.056225,-14.669289,-59.467499,144.921942,-156.092197,-168.448877,-142.165395
41,20.955391,6.017825,-18.210011,-21.160045,0.0,12.539978,-1.977539,-29.2836,-6.209106,-32.254372,-11.217499,-31.307602,-16.6539,-25.380821,0.0,-45.261817,-34.789688,-90.754905,-33.424139,-97.299198,-29.712801,-88.557779,-23.612709,-69.917506,0.0,-27.222519,-1.256561,26.31649,6.823769,34.647503,16.786137,39.934559,27.224121,43.827724,0.0,-45.663735,-43.165993,-100.539149,-39.718452,-106.061087,-33.639556,-100.839102,-25.329648,-82.482572,166.000643,-148.275352,-186.535578,-161.526419
42,-0.754967,-9.570249,0.329361,-11.809133,0.0,17.586823,1.902695,-12.384224,0.040627,-14.384766,-2.855988,-13.265762,-6.611938,-7.160683,0.0,-51.796477,-32.266705,-82.639666,-31.952272,-89.550216,-29.802987,-84.823191,-25.209884,-71.138497,0.0,-35.931072,-9.522114,20.827847,1.667118,31.252441,15.259953,39.679928,30.03067,40.59185,0.0,-40.291341,-43.15443,-99.99191,-41.720029,-109.034069,-39.484171,-103.442438,-35.601799,-86.940798,165.102396,-156.551528,-186.349497,-172.04148
43,6.186733,-15.731781,0.915813,-13.006242,0.0,22.355175,3.731289,-16.41655,-1.079292,-21.812611,-7.935047,-24.296265,-15.24622,-21.307583,0.0,-48.812651,-40.256298,-91.918345,-41.702547,-95.803573,-40.741749,-92.646876,-37.181313,-84.274717,0.0,-40.760078,-9.807186,16.692753,1.271496,28.611317,14.650955,37.798061,29.417496,39.123573,0.0,-37.999166,-43.581125,-99.760052,-43.555591,-109.166739,-42.588117,-106.271386,-39.598378,-90.739915,172.176018,-169.129361,-184.546795,-181.893773
44,6.186733,-15.731782,-1.394978,-10.854348,0.0,27.123528,5.559883,-20.448875,-2.199211,-29.240456,-13.014107,-35.326767,-23.880501,-35.454483,0.0,-45.828825,-48.24589,-101.197023,-51.452821,-102.056928,-51.68051,-100.47056,-49.152741,-97.410935,0.0,-40.09901,-4.542904,20.590725,7.086124,31.569443,20.034714,40.334759,33.494911,42.453232,0.0,-35.41312,-47.450792,-99.629759,-48.091097,-108.059022,-47.136204,-104.566751,-44.087849,-91.182982,179.619112,-182.103323,-184.685411,-189.990302
45,-3.595047,-4.383631,3.042927,-8.597247,0.0,32.349358,5.831337,-9.715004,-4.272423,-19.852638,-15.551605,-26.456451,-27.389145,-33.326111,0.0,-43.386982,-50.380355,-98.791698,-54.238443,-102.576481,-54.12172,-100.263959,-50.463656,-92.717402,0.0,-42.062588,-3.196564,17.330017,9.789391,29.508705,23.602524,38.506794,37.348595,43.050728,0.0,-32.947627,-49.515355,-98.576212,-51.147943,-105.916607,-50.174186,-101.507558,-47.031692,-91.412045,177.136602,-182.892355,-180.529947,-194.99295
46,-1.321335,-8.355742,4.157925,-7.763756,0.0,31.925468,3.36216,-11.245422,-8.031006,-22.490845,-20.417747,-31.210098,-33.295441,-38.588905,0.0,-41.748512,-48.072634,-91.521304,-52.26646,-95.137594,-52.010303,-92.562092,-48.649753,-87.410325,0.0,-41.245537,-2.822456,18.466759,10.628872,29.950218,24.97015,39.866753,39.418201,44.444675,0.0,-33.275537,-51.173817,-97.03097,-52.613798,-101.671011,-50.911277,-97.89343,-46.913664,-89.619508,176.291199,-186.675972,-175.896091,-198.184582
47,-5.859261,-5.818803,4.440136,-8.565369,0.0,33.037262,6.157608,-10.252304,-6.292992,-21.35582,-20.150528,-30.036392,-34.173317,-39.110527,0.0,-37.193323,-47.493245,-85.850293,-52.693278,-91.094895,-53.312087,-90.750505,-50.399822,-87.248423,0.0,-40.949135,0.506687,22.690659,14.526501,34.025574,28.663101,42.029057,42.427197,45.194492,0.0,-31.373578,-49.533548,-91.031068,-50.21914,-94.742878,-47.703559,-90.181753,-43.337867,-81.833221,170.472565,-189.236438,-171.415329,-203.491613
48,-5.889015,-1.981648,6.818275,-5.528283,0.0,33.425674,3.802643,-14.757385,-8.930626,-25.856209,-23.012924,-34.231453,-36.804543,-41.881599,0.0,-38.820431,-47.603007,-84.854066,-52.486692,-89.397222,-52.974814,-88.292167,-49.635274,-85.718819,0.0,-41.213551,1.283627,26.757889,15.505257,36.320343,29.504929,44.280396,42.881527,47.89381,0.0,-31.200337,-48.661131,-88.229282,-49.221354,-90.236633,-46.770364,-85.579495,-42.522978,-78.321552,164.619856,-189.400663,-164.560747,-207.202473
49,-7.165718,-1.494592,7.137737,-3.925952,0.0,33.62915,5.037231,-11.597328,-7.938538,-24.188805,-22.506409,-34.711304,-36.816559,-41.906776,0.0,-38.66005,-45.95089,-73.225252,-51.792409,-77.60977,-52.886719,-78.845273,-49.819329,-80.870948,0.0,-41.148205,2.019596,30.762634,16.687889,39.93948,31.138115,47.174664,45.013905,49.204617,0.0,-33.533283,-46.803563,-84.604973,-46.588146,-85.796609,-42.89646,-80.378474,-37.013621,-73.242295,156.451492,-189.45454,-158.425655,-209.687711
50,-6.095352,-0.674037,7.487068,-1.642962,0.0,34.00383,3.50132,-15.410156,-9.797173,-25.835037,-23.899498,-35.642509,-37.137909,-43.260956,0.0,-38.267518,-46.473175,-69.208225,-51.102866,-72.506693,-50.81419,-72.212036,-46.356914,-74.069943,0.0,-41.493073,3.682137,33.209896,18.313694,41.057453,32.545681,47.81353,46.133423,50.797634,0.0,-35.012337,-47.387065,-78.446488,-47.542283,-79.093355,-44.058062,-74.957968,-38.318138,-70.22087,149.900208,-187.408749,-151.39452,-208.610846
51,-9.280243,0.072155,7.202225,-1.252823,0.0,36.754532,6.401253,-7.049789,-7.793427,-19.072495,-23.138237,-30.820427,-37.745132,-40.070915,0.0,-38.728392,-46.542412,-44.999825,-53.387855,-55.107611,-55.284241,-59.871208,-53.546638,-65.120811,0.0,-41.552639,3.254871,36.828918,17.388554,42.733727,31.574478,48.404503,45.240269,51.939068,0.0,-33.760556,-46.702084,-70.804196,-46.213406,-72.078107,-41.903104,-66.507548,-35.707492,-63.566824,141.256199,-188.086321,-143.556061,-210.613396
52,-6.008034,-0.036062,6.290359,1.313632,0.0,34.343491,4.341545,-7.512016,-10.576973,-19.496269,-26.118965,-31.570587,-40.989647,-41.673317,0.0,-38.493215,-46.055757,-41.075216,-51.645876,-52.820284,-52.357812,-56.978031,-49.416987,-59.567072,0.0,-40.776501,3.965893,34.096184,18.057919,41.086121,32.470322,46.462955,46.034603,52.968006,0.0,-35.358409,-45.17992,-66.640018,-44.725476,-68.546662,-40.547065,-63.343341,-34.448355,-62.510552,135.402231,-188.65356,-137.111635,-209.830941
53,-3.635902,1.731574,7.451191,1.280719,0.0,32.952576,2.423058,-11.591606,-12.528076,-23.762741,-27.888451,-35.401955,-42.535286,-45.49324,0.0,-38.426633,-45.600286,-45.541469,-50.577354,-53.715734,-50.498275,-57.903161,-46.589744,-61.209216,0.0,-41.392536,3.155766,31.217136,16.803989,39.90818,31.066647,45.962677,45.134697,50.766907,0.0,-35.796915,-47.021935,-55.838119,-47.637533,-56.55342,-43.784847,-53.994583,-37.934806,-55.163959,131.455822,-187.250822,-129.970951,-208.879059
54,-2.053871,0.170184,4.575577,1.453327,0.0,32.388268,3.815117,-10.49778,-11.639099,-24.050331,-26.933556,-35.839806,-41.279297,-45.174294,0.0,-37.630717,-44.948912,-48.817012,-50.223046,-56.084256,-50.723286,-59.571541,-47.293761,-62.679887,0.0,-41.135674,5.754318,32.151318,19.733562,39.841805,33.353977,45.909519,46.449566,50.434914,0.0,-36.16568,-47.635063,-55.319701,-47.020044,-53.649869,-42.458904,-50.269451,-36.126569,-49.587835,129.233522,-187.327053,-125.563803,-207.672147
55,0.938187,-0.775539,4.167995,1.998135,0.0,31.584663,3.997536,-8.178177,-11.752281,-21.544876,-27.256622,-33.471451,-42.074089,-43.719521,0.0,-36.045074,-46.746992,-38.832982,-52.907097,-48.475069,-53.769912,-53.600608,-50.613771,-57.202718,0.0,-41.458225,4.08474,29.142494,18.429737,39.767933,32.824059,46.642456,46.88839,51.046371,0.0,-38.027525,-48.973835,-52.754728,-49.129045,-52.10157,-44.986155,-49.168974,-39.051825,-48.343271,130.24003,-188.501824,-121.327486,-206.073243
56,-0.999985,-0.446301,-0.139503,0.493849,0.0,31.771088,4.412842,-9.074478,-11.283188,-22.49279,-26.797829,-34.034843,-41.562767,-44.087677,0.0,-36.969509,-46.018507,-40.474138,-52.113697,-50.143303,-53.116346,-55.168459,-49.85418,-57.265117,0.0,-39.455452,4.025574,27.701511,19.199352,38.913288,33.868103,47.007236,47.608681,50.910187,0.0,-36.428004,-49.774475,-51.750458,-49.683054,-52.541998,-45.210634,-48.610164,-38.507472,-47.029067,129.254379,-189.13773,-121.452656,-205.768999
57,-0.592003,0.72038,0.881481,-0.269077,0.0,31.729889,5.22274,-8.319397,-10.40966,-22.828903,-26.005211,-34.005661,-41.026268,-44.644547,0.0,-36.901321,-46.49786,-38.573769,-53.221198,-47.138505,-54.336457,-52.644812,-51.223842,-56.542645,0.0,-40.147934,2.637691,26.35025,17.861538,37.82135,32.730045,46.087017,46.848049,51.053925,0.0,-36.70223,-50.313456,-50.739086,-50.668089,-52.189086,-46.621167,-48.087446,-40.250539,-45.688343,128.574915,-188.683478,-120.658636,-206.304205
58,0.414276,-1.333655,0.309277,0.069994,0.0,31.830711,4.059906,-10.237885,-10.772552,-23.464165,-25.662804,-33.929443,-40.022163,-42.967987,0.0,-35.630111,-44.909747,-40.075755,-51.667311,-47.973216,-52.91372,-51.769647,-50.055363,-55.473683,0.0,-39.574184,3.036289,27.572021,17.945538,38.829174,32.616062,46.810627,46.580143,51.43507,0.0,-35.960075,-49.573833,-52.749255,-49.952965,-53.745212,-45.977211,-49.458352,-39.665809,-47.785109,128.942213,-190.253745,-120.396338,-206.470823
59,0.703011,0.444063,0.976868,0.352981,0.0,31.650009,3.797722,-9.602852,-11.604652,-23.207359,-26.852417,-34.146996,-41.337318,-43.856392,0.0,-36.56492,-45.347017,-39.87891,-51.71059,-48.063202,-52.658034,-52.807887,-49.488061,-56.110994,0.0,-39.442005,2.087173,26.878624,16.900349,37.977791,31.726742,45.840969,46.014118,51.013184,0.0,-35.943757,-50.512053,-51.642688,-51.130746,-53.069508,-47.318276,-48.931953,-41.099183,-47.020446,129.529037,-189.994671,-119.535656,-206.302831
60,0.29274,-0.09366,-0.332279,0.346265,0.0,31.693268,3.794746,-8.659973,-11.71978,-22.5214,-26.999931,-33.780899,-41.510582,-43.927345,0.0,-36.422832,-45.717412,-39.130958,-51.866425,-47.603323,-52.699855,-52.603092,-49.417311,-55.862271,0.0,-39.314232,3.307343,27.360477,18.37429,38.645267,33.2868,47.104454,47.623501,52.297897,0.0,-36.898735,-51.094159,-51.985534,-51.853789,-52.630517,-48.195649,-48.720488,-42.107961,-46.028147,129.659128,-190.149093,-120.030584,-206.017328
61,0.05722,0.792922,0.362835,-0.854904,0.0,30.729561,4.472237,-9.701614,-10.867424,-22.918739,-26.120453,-33.809853,-40.810089,-43.204536,0.0,-36.429331,-47.256077,-39.265806,-53.310775,-46.436912,-53.864792,-51.353472,-50.337485,-54.943587,0.0,-40.863476,1.920319,25.253563,17.592258,37.451305,32.79459,45.524597,47.320976,51.285267,0.0,-36.65929,-50.231614,-49.652742,-51.198108,-51.891249,-47.634646,-48.069076,-41.717289,-45.44943,129.494677,-189.8551,-119.889421,-207.37116
62,0.755081,-0.707984,0.398254,-0.012875,0.0,30.093613,2.600555,-8.490257,-13.588142,-21.951256,-28.826408,-33.465958,-43.057365,-43.227539,0.0,-36.202352,-48.496134,-36.805175,-53.431528,-44.465545,-52.931365,-49.456414,-48.32835,-52.23252,0.0,-41.160679,2.693939,25.073776,18.493252,38.126335,33.699932,46.628895,48.321533,52.344189,0.0,-36.735428,-50.195914,-49.037191,-51.2318,-51.518045,-47.615882,-47.301804,-41.53528,-44.322323,130.109596,-191.298253,-119.631329,-208.119204
63,-1.033287,1.027975,0.283127,0.391343,0.0,30.798454,5.153503,-8.344688,-10.661774,-21.712074,-26.277809,-33.430252,-41.091843,-42.774925,0.0,-36.264118,-47.931828,-37.044906,-53.587718,-44.701525,-53.81066,-49.697303,-49.955852,-52.115364,0.0,-40.51466,2.007866,25.984039,17.730618,38.491001,33.048534,46.630898,47.638035,52.307453,0.0,-36.620974,-50.242073,-50.159474,-51.381723,-52.210575,-47.789061,-47.512843,-41.692767,-44.048931,128.842707,-191.286629,-119.581804,-208.744211
64,0.635948,-0.53411,0.509434,0.099449,0.0,30.048523,3.761101,-9.991722,-11.79348,-23.80291,-27.089424,-34.804688,-41.673431,-42.899895,0.0,-34.513864,-46.510966,-37.22216,-52.748097,-45.648467,-53.487682,-50.010192,-49.927107,-51.412235,0.0,-40.049973,2.558155,26.525574,18.159428,38.362026,33.160629,46.140404,47.316971,51.7729,0.0,-35.803205,-50.36379,-51.816423,-51.18294,-52.760208,-47.458078,-47.317226,-41.228597,-43.504771,129.404182,-193.631462,-119.146843,-210.455485
65,-0.475502,0.422188,0.286961,0.603332,0.0,30.891266,4.435959,-10.644836,-10.844994,-23.484879,-25.984612,-34.476128,-40.364342,-43.009529,0.0,-35.453814,-46.922934,-38.567887,-53.160505,-46.360604,-53.761244,-50.720229,-50.147926,-52.662264,0.0,-40.817585,2.265072,27.168617,17.684727,38.181095,32.720261,45.974922,47.037563,51.20739,0.0,-36.677483,-50.213799,-53.108341,-51.170644,-53.752097,-47.737522,-48.612649,-41.912197,-45.721078,128.772926,-193.907208,-119.015636,-210.550086
66,0.041084,0.161153,0.411129,-0.467204,0.0,30.201874,4.816704,-9.157677,-10.483017,-22.814713,-25.760536,-33.891907,-40.469055,-42.431717,0.0,-35.816829,-46.747455,-36.649008,-53.33255,-44.897443,-54.337846,-49.829395,-51.381298,-52.423275,0.0,-41.072102,2.521477,25.862961,17.935295,37.904148,32.812386,46.003704,47.013931,51.44537,0.0,-35.550314,-50.327327,-50.240784,-51.413771,-51.50615,-47.972266,-46.841917,-42.057056,-43.153133,128.792667,-194.114165,-118.625851,-211.3854
67,0.582848,0.010637,-0.018082,1.022402,0.0,29.356956,4.241867,-8.927994,-11.122055,-23.12439,-26.384354,-34.040222,-41.012306,-43.401146,0.0,-35.548153,-47.083207,-36.362286,-53.751055,-44.85993,-54.61377,-49.847349,-51.252904,-51.936388,0.0,-40.767174,1.647434,26.828098,16.911621,37.922916,31.966381,45.615292,46.315956,51.043968,0.0,-36.120278,-50.615084,-52.445443,-51.996795,-53.437062,-48.848003,-48.417348,-43.162071,-44.848035,129.403496,-194.604185,-118.615952,-210.863655
68,-1.081123,-0.000865,0.010529,0.111815,0.0,29.52919,5.963631,-8.615685,-9.147835,-21.978493,-24.656525,-33.039207,-39.597816,-42.344742,0.0,-35.888845,-46.925512,-36.794878,-53.871654,-44.338756,-54.952162,-48.519089,-51.887134,-51.077201,0.0,-41.269341,1.535568,25.557404,16.92461,37.291489,32.077217,45.627136,46.746655,51.395473,0.0,-37.012788,-50.400277,-50.71823,-51.882426,-52.639849,-48.743977,-48.402474,-43.084783,-45.322031,128.33024,-195.050826,-118.597555,-211.197617
69,0.209541,0.424503,0.104942,0.676538,0.0,28.877907,4.648819,-8.5326,-10.584984,-22.225456,-25.864334,-33.262711,-40.544815,-42.722626,0.0,-36.178609,-47.093535,-37.153972,-54.176855,-45.096048,-55.317131,-49.490694,-52.269794,-52.109999,0.0,-41.374512,1.308174,26.012192,16.532192,37.617245,31.530132,45.499992,46.036835,51.172028,0.0,-37.780044,-51.074954,-51.656612,-52.71449,-53.029517,-49.705585,-48.892664,-44.201308,-46.171925,128.542156,-194.813473,-118.490238,-210.708229
70,-0.914383,-0.355929,-0.487862,-0.056548,0.0,29.106903,5.966949,-6.63517,-9.104919,-20.48481,-24.442177,-31.29982,-39.371452,-41.902885,0.0,-35.483192,-47.554208,-35.114372,-54.769289,-42.425065,-55.87892,-47.480926,-52.956104,-50.726628,0.0,-40.945988,1.524868,26.366558,16.827221,37.797604,31.793118,45.435047,46.194992,50.830708,0.0,-37.322976,-51.08769,-51.349358,-52.621679,-53.087925,-49.666852,-48.737099,-44.348737,-46.393988,127.647285,-195.237559,-118.958588,-210.832934
71,0.328217,-0.517515,-0.748901,0.670455,0.0,28.396339,5.429993,-6.847343,-9.819603,-21.457787,-25.294418,-32.521019,-40.392723,-42.369232,0.0,-35.343883,-46.831621,-34.404952,-53.948402,-42.977746,-55.106222,-48.232367,-52.048843,-50.816027,0.0,-40.642948,1.880264,25.652905,17.227421,37.981739,32.244244,46.258049,46.671581,51.562328,0.0,-37.936126,-51.142316,-50.624917,-53.07028,-54.244364,-50.156703,-49.912426,-44.767675,-46.895177,128.0165,-195.818028,-119.666491,-210.225434
72,0.088234,-0.478674,-0.207481,0.258086,0.0,28.352737,4.927826,-7.470703,-10.373154,-21.917953,-25.769577,-32.868462,-40.579491,-42.313843,0.0,-35.140924,-45.872667,-35.4096,-52.812132,-43.684248,-54.012854,-48.331299,-51.073781,-50.848971,0.0,-40.102043,1.402531,26.392536,16.524353,38.28352,31.357327,45.549431,45.714226,51.261406,0.0,-37.115054,-51.315341,-49.174593,-53.3204,-52.667312,-50.339908,-47.844057,-44.810005,-45.215334,128.317108,-196.347476,-119.661598,-210.018122
73,1.625748,-1.35079,-1.889534,-0.225636,0.0,27.153397,3.678017,-8.867455,-12.012177,-23.433266,-27.612648,-34.350586,-42.625122,-44.916,0.0,-34.348435,-46.754417,-34.699471,-52.905291,-42.207086,-53.281312,-46.587892,-49.70198,-50.909263,0.0,-39.939194,2.776279,28.577843,17.848892,39.302959,32.358341,46.894341,46.071396,50.997448,0.0,-37.538477,-50.620039,-52.028443,-52.213262,-53.57147,-49.179417,-50.193668,-43.945916,-47.541982,130.175972,-198.347186,-121.318016,-210.892678
74,0.94986,0.686047,-2.335224,0.14587,0.0,27.224808,4.183731,-8.739166,-11.46698,-23.243065,-27.042618,-34.418564,-41.939735,-44.350548,0.0,-35.440507,-47.654352,-35.478807,-54.121689,-43.321959,-54.585543,-48.062955,-50.687085,-50.860078,0.0,-38.516178,2.89959,26.33234,17.962017,37.620506,32.42569,45.847836,46.212215,50.067959,0.0,-37.202269,-50.832129,-49.531248,-52.377278,-52.146023,-49.331648,-50.734193,-43.925283,-49.88825,131.223021,-198.066376,-123.556051,-211.152045
75,1.880836,0.440867,-3.378353,1.132364,0.0,27.833633,4.542961,-8.054008,-11.077538,-22.745476,-26.879883,-34.104424,-41.919708,-44.570961,0.0,-34.637566,-49.031101,-34.754074,-55.388985,-42.473539,-55.60708,-48.133983,-51.365328,-50.820496,0.0,-38.214226,0.969028,25.167274,16.033688,37.769508,30.947399,46.614189,45.398312,51.707611,0.0,-37.815705,-49.966982,-49.037561,-52.043749,-53.270382,-49.640253,-52.691217,-44.736414,-51.578714,133.311338,-197.785859,-126.726923,-210.180032
76,3.871765,0.393721,-4.319401,0.883602,0.0,27.491913,5.689201,-8.744888,-9.648972,-23.386459,-25.529938,-35.258789,-40.950851,-45.20668,0.0,-34.456313,-49.001237,-35.908096,-55.648954,-42.81119,-56.114892,-47.787347,-52.419369,-49.81334,0.0,-37.05225,0.999069,28.027267,15.499535,39.069958,29.998913,47.041283,44.243488,51.744633,0.0,-37.150291,-49.695605,-50.736176,-51.244151,-53.175179,-48.578694,-51.547237,-43.445969,-49.663147,137.705383,-197.587872,-130.524044,-209.492163
77,6.313248,1.376972,-4.881649,2.906252,0.0,26.005554,3.682938,-12.743111,-11.495934,-25.996742,-26.914101,-37.509613,-41.469154,-47.405319,0.0,-34.411204,-47.748028,-43.099842,-53.224679,-47.681877,-52.960858,-53.845364,-48.21679,-57.385823,0.0,-36.477699,0.705643,30.284214,15.255432,40.118465,30.088863,48.023815,44.601173,53.109398,0.0,-35.450402,-49.256497,-57.824676,-50.5459,-60.19424,-47.645136,-56.83978,-42.332069,-53.893158,144.056826,-195.988181,-135.367498,-206.363192
78,2.835617,2.802805,-5.408535,3.176302,0.0,28.502083,7.03537,-11.11702,-6.916809,-22.062149,-21.710014,-33.580627,-36.090546,-43.34301,0.0,-34.092819,-45.739364,-44.540896,-52.974582,-48.188401,-54.191752,-52.915433,-50.9113,-56.23749,0.0,-37.25893,0.812645,31.593018,15.368614,39.628258,30.347614,48.235874,44.759216,54.209404,0.0,-34.3248,-48.654894,-65.512965,-49.129052,-66.392476,-45.301322,-61.99286,-38.759344,-60.255064,146.680212,-191.426694,-140.988264,-201.428208
79,5.375862,5.483992,-6.479244,6.579337,0.0,27.855949,5.861549,-11.803894,-7.902603,-24.336205,-22.601166,-36.110573,-37.070389,-43.681984,0.0,-36.566834,-45.393469,-53.318393,-51.313975,-56.50192,-52.074941,-59.745384,-48.813809,-61.826373,0.0,-35.102863,2.585335,34.705238,17.397766,42.99099,32.447548,51.817532,46.737328,57.116547,0.0,-37.043748,-47.975037,-71.980387,-48.863834,-72.072279,-45.987076,-67.526183,-40.536305,-63.717734,152.19306,-185.476872,-147.330523,-194.383041
80,5.882263,5.868883,-6.162529,7.141049,0.0,23.679886,4.66095,-16.536942,-8.671417,-27.662773,-22.653008,-38.426285,-36.555977,-46.925125,0.0,-38.569307,-46.263038,-59.221362,-50.451105,-60.566734,-49.85262,-62.801589,-45.605381,-65.518932,0.0,-34.905224,4.406147,34.635086,19.872036,43.44698,34.763374,52.137222,48.472424,57.081585,0.0,-37.841671,-47.607422,-79.464336,-47.19019,-80.45624,-43.455154,-74.556984,-37.512356,-69.059847,156.919155,-179.842687,-154.64922,-187.47669
81,4.625816,9.052904,-6.840878,11.13133,0.0,21.95034,2.341919,-18.052254,-10.922012,-30.151291,-24.199791,-40.297737,-37.129784,-46.788025,0.0,-39.694431,-44.510423,-64.646707,-47.773391,-66.256988,-46.592369,-67.964433,-42.145366,-68.059791,0.0,-34.182301,5.411224,33.6343,21.749554,45.39711,37.32233,53.707466,51.689243,58.652515,0.0,-39.042779,-45.983278,-86.753154,-45.513311,-87.308275,-41.674118,-80.74243,-35.485955,-71.329908,160.874548,-172.010774,-162.160521,-177.566351
82,5.371971,8.522823,-7.160854,9.504623,0.0,17.635002,0.923882,-18.741646,-12.620773,-30.556068,-26.240501,-41.950264,-39.362869,-49.744377,0.0,-39.891986,-41.437213,-56.109713,-44.151159,-60.386315,-42.703467,-60.798082,-38.056486,-61.750412,0.0,-32.419453,8.428402,30.563221,24.58683,43.751163,39.372139,52.200565,52.513332,58.741493,0.0,-36.020281,-43.25161,-83.924707,-43.292411,-87.256914,-39.943887,-81.418412,-34.511904,-71.575505,165.553894,-166.567738,-170.014,-171.141514
83,0.18631,3.335819,-2.687359,6.633353,0.0,14.844475,-0.775795,-15.650139,-14.312668,-25.573425,-27.233849,-36.166306,-38.800392,-46.590042,0.0,-31.269297,-30.823212,-39.688194,-33.248197,-39.156569,-31.615748,-38.674561,-27.597124,-40.791303,0.0,-32.177296,6.428261,27.517147,22.9636,41.385326,37.526093,50.535336,50.322247,57.801647,0.0,-29.522857,-32.456989,-76.918459,-31.572445,-80.263695,-28.646263,-75.172327,-24.606798,-64.523638,165.761318,-167.704007,-172.680244,-168.980249
84,-0.657921,42.910114,-1.234932,4.015861,0.0,7.995071,-1.587639,-20.493164,-16.328888,-31.539574,-31.418953,-42.58049,-45.096931,-54.742355,0.0,-51.688398,-51.100704,-57.83874,-53.925276,-60.450844,-51.695932,-60.372359,-46.141992,-63.245389,0.0,-32.412872,5.083523,25.180836,20.621338,42.372894,34.326611,51.295795,46.205864,58.857422,0.0,-17.450589,-16.590854,-58.723052,-15.011479,-62.990329,-13.307646,-60.548116,-11.608553,-49.210154,165.716715,-124.648533,-173.301859,-164.819028
85,-2.702637,14.411311,7.386761,11.485175,0.0,1.071053,-9.596214,-28.245735,-24.51107,-39.1959,-37.70359,-48.690033,-48.767281,-57.800903,0.0,-48.590874,-48.219461,-54.628799,-48.800625,-52.404101,-44.749968,-47.987959,-37.856661,-46.423404,0.0,-35.901375,6.080303,12.85944,22.676067,28.606739,36.937981,39.973354,48.75721,46.881237,0.0,-8.206583,-12.866023,-17.126322,-16.977751,-26.275804,-19.510043,-31.224991,-21.00062,-28.236318,163.306017,-112.412796,-165.623159,-155.509428
86,-8.645382,31.099421,1.130648,52.05356,0.0,-9.714947,-14.02113,-31.847592,-29.185582,-43.31749,-42.662259,-51.772614,-53.643608,-60.079823,0.0,-52.46897,-52.221976,-56.001448,-49.330173,-50.222497,-42.029676,-43.130601,-31.549651,-37.266095,0.0,-29.673443,8.378105,24.818888,24.53742,38.121185,38.87475,48.462582,51.015043,53.68309,0.0,-38.42451,-28.094006,-53.369214,-27.770488,-60.841276,-25.642013,-59.617947,-22.64691,-52.475477,156.598435,-82.551178,-162.554712,-104.693671
87,-8.645382,31.099422,1.130648,52.053559,0.0,-20.500946,-18.446045,-35.449448,-33.860092,-47.439079,-47.620926,-54.855194,-58.519936,-62.358742,0.0,-56.347066,-56.224491,-57.374099,-49.859722,-48.040894,-39.309386,-38.273245,-25.242642,-28.108788,0.0,-23.445511,10.675907,36.778336,26.398773,47.635632,40.81152,56.951809,53.272877,60.484943,0.0,-68.642437,-43.32199,-89.612105,-38.563225,-95.406748,-31.773983,-88.010902,-24.293199,-76.714636,151.750059,-47.829152,-157.627058,-49.017508
88,-14.099865,31.185301,6.659145,9.301156,0.0,-29.349575,-25.52599,-56.156788,-39.667111,-63.328114,-50.908642,-68.244324,-59.410744,-73.805924,0.0,-54.976546,-43.970955,-58.977587,-33.723119,-45.790863,-20.809564,-33.920134,-5.887207,-21.307967,0.0,-18.596878,28.977242,33.577938,45.138416,45.1371,55.702229,52.15353,61.944809,52.93808,0.0,-55.147379,-47.43574,-57.101934,-44.121843,-51.980972,-35.827095,-42.606148,-24.872912,-33.493887,140.944662,-15.777709,-147.673445,-38.85021
89,-14.099865,31.185301,7.501202,37.672861,0.0,-38.198204,-32.605934,-76.864128,-45.474129,-79.217148,-54.196358,-81.633453,-60.301552,-85.253105,0.0,-53.606027,-31.71742,-60.581075,-17.586517,-43.540833,-2.309743,-29.567024,13.468228,-14.507148,0.0,-7.57988,32.169027,39.834852,48.192329,51.462621,58.657951,58.01774,64.697885,59.307432,0.0,-59.396594,-46.806781,-58.226377,-39.848266,-53.562801,-28.686169,-40.314543,-15.665276,-31.352752,129.112616,12.424291,-137.904424,-4.160651
90,-17.632141,32.540924,7.501201,37.672862,0.0,-49.935265,-36.652794,-77.20728,-48.012371,-83.613682,-55.356388,-83.561211,-59.312611,-84.700127,0.0,-44.654193,-21.194918,-43.93707,-3.725418,-28.632786,12.90775,-14.531879,28.212219,0.690586,0.0,3.437119,35.360813,46.091766,51.246243,57.788143,61.613674,63.88195,67.450962,65.676785,0.0,-63.64581,-46.177823,-59.350822,-35.57469,-55.144631,-21.545244,-38.02294,-6.457642,-29.211619,111.593743,36.057918,-130.289955,24.604915
91,-17.632141,32.540923,8.686609,34.599172,0.0,-61.672325,-40.699654,-77.55043,-50.550613,-88.010216,-56.516418,-85.488968,-58.323669,-84.147148,0.0,-35.702359,-10.672416,-27.293065,10.135682,-13.724739,28.125244,0.503266,42.956211,15.888319,0.0,18.834401,33.858633,53.397475,46.447678,64.388037,55.475493,69.643336,61.399241,71.526404,0.0,-55.315479,-32.348679,-49.423023,-18.005494,-41.799054,-2.875547,-24.826305,11.331556,-15.34737,94.152546,66.22531,-121.412402,56.830556
92,-3.349915,26.57676,8.68661,34.599173,0.0,-62.56279,-41.843262,-61.544724,-51.795731,-113.783855,-56.222649,-106.960888,-55.423279,-99.112072,0.0,-30.323373,-15.781491,-29.589624,6.184458,-20.796983,25.273332,0.402921,39.095421,22.547916,0.0,34.231682,32.356453,60.703182,41.649113,70.98793,49.337311,75.40472,55.347519,77.376022,0.0,-46.985147,-18.519535,-39.495224,-0.436298,-28.453478,15.79415,-11.629671,29.120753,-1.483121,90.033617,90.480687,-113.494806,89.108345
93,-25.854034,37.245811,12.81189,29.309679,0.0,-76.949158,-47.477303,-137.080078,-48.650894,-140.75552,-45.442085,-85.377445,-39.666595,-71.790276,0.0,3.860142,1.113422,-19.047656,24.534612,-3.226768,44.71619,15.77581,61.489331,35.421024,0.0,49.693394,26.83033,74.567184,35.566692,81.391296,41.762352,77.895412,45.369873,76.960831,0.0,-28.424919,-4.142372,-26.740491,14.160759,-19.181808,29.335552,-3.926678,42.255097,11.578851,62.428179,126.482705,-102.43432,117.174232
94,-14.34866,31.445347,26.288452,80.886463,0.0,-82.03002,-45.0107,-104.563293,-41.201992,-102.720737,-35.227318,-65.799637,-27.428341,-56.223307,0.0,6.063304,3.560683,-9.247155,26.706776,7.666623,47.8206,26.491298,65.890376,47.330147,0.0,58.606968,24.991436,65.490875,11.81076,61.784134,-0.401402,40.12516,-11.597271,25.755787,0.0,-40.713343,-14.584892,-27.633618,-33.470205,-43.682365,-49.810044,-45.365928,-61.568125,-54.161225,47.789812,156.825638,-76.435575,196.95828
95,-14.348659,31.445348,-11.978703,-29.028004,0.0,-87.110882,-42.544098,-72.046509,-33.75309,-64.685955,-25.01255,-46.221828,-15.190086,-40.656338,0.0,8.266466,6.007945,0.553345,28.878939,18.560013,50.925009,37.206784,70.29142,59.23927,0.0,62.336597,35.105209,101.3134,27.659969,102.63588,20.092735,94.648933,11.753998,66.26009,0.0,-11.355777,8.001989,15.708255,15.289958,19.88073,22.543408,25.564609,29.902328,23.896298,33.124981,187.047278,-88.73045,166.706568
96,7.524547,45.07956,11.858482,37.152289,0.0,-81.952429,-46.247148,-83.45418,-43.910665,-86.196613,-40.145531,-71.441889,-34.644384,-68.447599,0.0,21.072576,1.624963,-2.618248,11.095098,5.868513,20.495024,13.381222,27.802382,18.622288,0.0,51.114493,31.207266,80.6141,30.490265,78.293438,28.548575,75.508919,24.351368,59.749031,0.0,-3.482105,14.01299,23.352586,19.068744,29.107477,23.059302,35.835061,26.892675,37.471231,40.304575,231.511726,-77.216921,203.243746
97,7.524548,45.079561,11.858483,37.15229,0.0,-76.793976,-49.950199,-94.861851,-54.068241,-107.707272,-55.278511,-96.661949,-54.098682,-96.238861,0.0,33.878684,-2.75802,-5.789842,-6.688743,-6.822988,-9.934962,-10.444341,-14.686656,-21.994694,0.0,39.892387,27.309322,59.914799,33.32056,53.950996,37.004414,56.368904,36.948738,53.237972,0.0,4.391566,20.023991,30.996916,22.847529,38.334224,23.575196,46.105513,23.883022,51.046163,47.732992,276.318289,-65.454569,240.123038
98,-2.763863,-23.878452,-5.220824,3.071126,0.0,-69.836712,-43.978386,-81.608963,-39.182396,-77.851181,-32.51461,-67.371712,-24.595871,-61.075401,0.0,33.480332,19.516465,9.654183,40.943117,28.272982,58.190809,48.82426,71.003279,68.412479,0.0,50.674067,31.853342,76.006565,32.876416,69.256983,32.707158,67.70093,30.496302,62.915354,0.0,14.730067,30.416771,45.569797,41.60857,58.368064,47.703861,70.75708,50.959497,74.377291,44.789057,251.973668,-70.855465,242.727995
99,5.264168,6.056295,-5.220823,3.071126,0.0,-62.921562,-37.285309,-110.926895,-32.033272,-113.781509,-23.425026,-98.476582,-12.818756,-68.066597,0.0,27.540807,26.505315,23.569762,46.728081,45.452688,61.728861,77.507944,70.635,100.589507,0.0,61.455746,36.397362,92.098331,32.43227,84.562969,28.409901,79.032955,24.043865,72.592735,0.0,25.068568,40.809551,60.142678,60.369611,78.401905,71.832525,95.408647,78.035972,97.708418,50.232267,257.877841,-75.897245,245.646998
100,-1.100578,8.333527,-2.879219,10.472314,0.0,-55.352325,-32.40818,-100.928707,-28.489609,-102.6721,-22.026443,-89.298649,-13.329277,-60.432301,0.0,33.97168,38.00991,29.367261,52.854401,50.664114,63.444164,83.544047,69.163487,101.398129,0.0,76.766281,39.281216,104.141636,30.676117,97.562199,22.278557,85.210476,13.883858,68.614197,0.0,29.265311,40.017787,52.443019,59.8309,67.731927,70.281911,83.197627,75.039718,82.706896,49.216518,266.08992,-78.691635,255.997865
101,-1.561775,5.130409,6.033955,9.03532,0.0,-57.167587,-28.010559,-100.370865,-24.045639,-103.865261,-18.800011,-92.89896,-12.169876,-64.370613,0.0,23.860915,42.813166,32.244027,57.732251,53.945345,66.56787,82.290328,70.231214,104.491886,0.0,73.82206,35.782356,101.895561,25.525932,96.829491,15.529232,81.035271,5.958939,57.972851,0.0,29.335521,40.58657,66.372554,58.377296,82.284956,68.31232,90.570132,73.207089,84.618319,47.691879,271.14487,-72.620544,264.957726
102,-4.738541,1.819105,4.740829,6.787235,0.0,-51.008034,-19.801826,-88.842201,-14.16584,-93.132992,-10.08522,-85.49366,-6.48159,-62.383118,0.0,27.233105,49.851972,63.088667,61.154274,63.073044,66.152846,72.689127,66.528597,90.153502,0.0,75.482025,34.801826,100.267181,23.516235,98.646355,12.475376,78.944664,3.061924,53.308582,0.0,24.730422,37.772233,70.035156,55.994965,87.052149,66.862605,92.279013,72.700736,89.999496,42.949677,272.85653,-67.883377,271.637515
103,-4.981842,8.806288,5.26165,2.469152,0.0,-51.361542,-20.024986,-74.540691,-12.670097,-75.81728,-6.63311,-61.801243,-1.618767,-44.496803,0.0,27.818252,46.537642,71.247131,51.188436,64.77186,49.755024,53.949112,44.758798,51.872075,0.0,71.556129,34.994545,98.986931,23.967247,96.365089,12.45306,76.006966,2.489605,48.060493,0.0,22.794115,36.567359,69.356087,54.197349,87.652672,65.100187,92.846684,70.792957,92.048684,38.037329,281.533667,-62.552233,273.977516
104,2.418594,14.551423,6.763058,1.900492,0.0,-44.68071,-37.536736,-28.574753,-33.181801,-15.655403,-28.139763,-9.058456,-23.024826,-14.501724,0.0,37.949889,25.127972,57.898668,23.679554,59.070568,20.766664,48.079427,15.857938,42.995577,0.0,71.18906,32.830238,93.400211,21.944218,93.009167,10.834866,73.060513,0.63818,46.799641,0.0,23.671959,34.616293,68.72191,51.587035,86.367955,62.061696,94.309922,67.440898,90.33548,40.600748,296.048271,-55.64435,275.84119
105,3.544922,5.120653,4.126282,0.555568,0.0,-38.470688,-38.056412,-23.710213,-36.460648,-10.476723,-33.529472,-5.639648,-30.083656,-16.143951,0.0,42.10563,20.003984,55.952851,17.10437,58.974731,13.368408,50.988859,8.137469,41.463426,0.0,69.207516,33.406105,89.95863,22.334576,88.930149,11.309338,70.959492,1.129589,48.230953,0.0,22.611828,35.819747,67.867717,52.191016,84.190944,62.071699,92.152301,67.151844,90.510605,44.241858,301.151927,-51.421881,276.379762
106,-1.195221,-3.202685,1.50816,-0.612749,0.0,-36.882248,-35.635643,-25.71373,-33.417778,-12.158089,-30.101395,-5.678215,-26.435394,-12.957916,0.0,37.707025,21.573988,56.628401,20.102476,60.446923,17.555272,53.074232,13.55613,44.949545,0.0,68.537292,30.753479,87.283173,19.411983,86.093102,8.327465,68.439331,-1.970215,43.574181,0.0,23.075017,35.737125,67.400266,52.623331,82.393636,62.797946,90.791013,67.861974,89.615224,43.175669,297.917379,-49.784689,275.735149
107,1.275673,-2.561778,0.191288,-0.054217,0.0,-37.737007,-33.145638,-24.850159,-30.328903,-11.934128,-26.685448,-5.639534,-22.696838,-11.948662,0.0,30.687608,23.895557,54.738653,23.816516,60.411107,21.959558,52.922758,18.632816,46.406978,0.0,67.956448,29.539318,88.4519,18.031368,86.654949,6.920013,68.485394,-3.164577,44.525414,0.0,23.595512,35.053362,65.168544,51.998046,80.666107,62.208477,89.28807,67.387175,90.032595,44.546041,295.359137,-49.498701,275.684467
108,-2.670479,-8.962393,0.362606,0.638561,0.0,-41.48243,-25.499725,-25.347633,-21.040649,-13.129005,-16.06144,-6.139069,-10.729065,-7.837601,0.0,15.676021,31.899954,55.088716,36.63726,62.747002,38.972044,59.631076,39.571084,59.508934,0.0,67.202797,28.323212,87.546959,17.119446,85.873032,6.409092,69.546432,-3.276386,47.308331,0.0,23.075635,32.418164,63.240388,49.714269,79.012616,60.472549,86.947174,66.247694,87.615004,41.945515,286.41019,-49.066143,276.336474
109,-19.615288,21.827289,-0.041771,-0.839373,0.0,-43.305988,-48.826504,6.995888,-55.743599,14.398499,-56.441231,7.772942,-55.291157,-77.37505,0.0,49.682776,10.647068,42.481999,9.88056,41.971693,7.4852,37.188259,6.383202,47.916158,0.0,66.832237,28.112926,87.407455,16.980114,85.670013,6.145706,69.689713,-3.865013,46.709976,0.0,22.986776,32.071929,63.174994,49.426697,78.788956,60.465571,86.812743,66.44616,87.908072,22.348337,308.252561,-49.089804,275.512184
110,-13.888893,24.419077,0.451527,0.293191,0.0,-40.45332,-38.765602,10.474548,-36.436501,28.202477,-30.672569,31.089478,-23.044052,6.759911,0.0,40.122392,11.899798,31.078735,-3.640002,22.479743,-21.148405,6.743515,-39.197124,-18.836222,0.0,65.54884,27.366886,86.582508,16.053314,84.956989,5.18755,68.522358,-4.628162,45.41708,0.0,23.101076,31.624177,62.57725,49.268369,78.626244,60.535658,86.864058,66.408369,87.768392,8.564873,332.681147,-48.532848,275.814884
111,10.649643,-11.260311,0.793934,0.209457,0.0,-67.660561,-50.589752,2.409897,-49.795761,14.518433,-44.759274,17.330132,-38.539982,-44.600887,0.0,48.142227,13.28097,38.438273,-0.633559,31.184946,-16.655753,14.023951,-30.714717,3.791661,0.0,65.089073,27.131367,85.892143,16.128101,84.835968,5.285625,68.770981,-4.68504,45.680923,0.0,22.747061,30.928558,62.207983,48.567811,78.546401,60.015472,86.261374,66.28351,87.349786,19.354906,321.492034,-47.598524,276.09554
112,0.315514,4.900389,0.359745,0.105902,0.0,-44.107418,-48.011742,-0.810699,-46.550903,13.225822,-40.822392,16.351433,-32.979698,-22.721157,0.0,44.663826,11.096858,36.850732,-3.69885,28.515414,-20.788832,14.914639,-37.995028,-9.572919,0.0,64.8353,26.83857,86.315517,15.724411,84.737148,4.982471,68.913288,-4.741688,46.541004,0.0,22.609543,31.297888,61.697615,48.785789,77.580748,59.994971,85.98714,65.955059,86.908641,19.746351,326.434476,-47.162848,276.243494
113,-6.724319,-2.665024,0.048923,0.210198,0.0,-18.39735,-34.400253,11.585999,-35.73698,23.260574,-33.565292,19.791756,-28.699379,-10.458183,0.0,41.886169,11.363743,35.370142,3.298522,32.566982,-6.151206,24.468848,-16.001261,9.082312,0.0,64.979324,26.446323,86.361351,15.530319,84.911385,5.071335,69.609146,-4.309444,47.503624,0.0,22.331234,31.01575,61.614067,48.610665,77.33035,59.929022,85.388964,65.93604,86.895118,13.047838,323.797532,-47.088118,276.481773
114,3.855171,-17.471291,0.104256,0.112448,0.0,-57.189102,-45.346813,10.284233,-48.215904,20.073166,-46.818466,11.309052,-44.18169,-70.655823,0.0,54.960645,10.786685,41.546665,14.624041,41.556051,16.221401,40.973436,18.48585,56.320143,0.0,65.163345,26.384525,86.845779,15.590458,85.459213,5.342045,70.586357,-3.79406,49.097099,0.0,22.0725,30.924792,61.508783,48.569725,76.343146,59.951499,84.339762,65.990319,86.581364,16.934366,306.342435,-46.952505,276.610415
115,-6.30146,23.317388,-0.065346,-0.188401,0.0,-47.832241,-44.165955,6.864853,-40.763741,25.745773,-33.472538,31.248894,-24.071045,9.437943,0.0,44.141541,13.382611,35.08609,-2.626677,26.469067,-20.889362,9.891119,-38.953457,-14.605887,0.0,65.056229,26.462917,87.031631,15.854301,85.864792,5.652409,71.018257,-3.470535,49.657173,0.0,22.178154,31.606331,61.776532,49.175929,76.522222,60.314283,84.746759,66.065963,86.775137,10.675735,329.647319,-46.975021,276.40951
116,-12.905445,-34.171505,1.121464,0.581689,0.0,22.031765,-18.231926,37.653637,-24.112244,42.542439,-26.680355,27.261944,-25.254822,-22.175045,0.0,23.784406,20.276551,49.595831,33.08655,59.734693,42.329599,66.704277,48.969682,75.258253,0.0,64.675083,26.38813,86.167889,16.0429,85.063305,5.823669,70.305119,-3.488216,49.41164,0.0,22.039031,31.571071,61.390469,48.85637,75.731817,59.889008,83.903743,65.68169,86.392717,-2.186708,295.421659,-45.810556,276.937044
117,24.079342,23.187033,0.851784,-0.019451,0.0,-63.596077,-50.892162,4.112434,-52.914333,13.616753,-50.406532,11.002007,-46.281452,-65.659218,0.0,47.860583,6.318487,36.741001,-0.017475,31.423858,-7.49014,24.477369,-13.206993,31.330801,0.0,64.1609,26.295204,85.725002,15.90826,84.443035,5.638103,70.02142,-3.74176,49.193172,0.0,21.932264,30.997101,61.36052,48.459439,75.578614,59.762666,83.748441,65.84891,86.755933,21.951685,318.487614,-44.899721,276.796515
118,-1.799011,12.147418,0.376511,0.302577,0.0,-43.160648,-42.270184,-4.780769,-40.596485,12.199974,-35.461807,16.196136,-28.981361,0.064201,0.0,41.621939,9.04131,35.826231,-6.618718,25.98976,-23.72173,11.293286,-41.208211,-10.704002,0.0,64.057446,26.065121,84.883976,15.618267,83.704433,5.193844,69.043407,-4.438477,47.636662,0.0,21.671678,30.471605,60.141876,48.034657,75.786404,59.433537,83.713243,65.597092,86.153743,20.168552,330.530921,-44.507332,276.994981
119,-11.664505,-21.685324,0.079823,0.017661,0.0,-1.1586,-27.354469,19.848518,-30.312538,29.113312,-30.077648,23.408089,-27.37896,1.20472,0.0,32.26422,12.562504,39.623325,18.569707,46.129596,23.536972,48.775107,27.200933,50.574267,0.0,64.171371,26.217327,85.358963,15.929718,84.507866,5.660934,69.891014,-3.801727,48.777122,0.0,21.605358,30.660438,60.174294,48.017244,75.198355,59.298921,83.679589,65.419313,86.615636,8.514433,308.768347,-44.417124,276.935392
120,6.05278,-15.077289,0.642414,-0.014944,0.0,-41.376743,-39.381809,17.26799,-46.405849,25.28183,-48.557396,12.556801,-49.097271,-68.741627,0.0,57.904041,13.435963,49.418916,23.983304,51.974272,31.752618,55.804094,39.570899,72.642752,0.0,63.919659,25.965729,84.908352,15.474014,84.013309,5.065613,69.270573,-4.486084,48.285427,0.0,22.163581,30.929052,60.471623,48.417448,75.848772,59.699063,83.936903,65.726398,86.382713,14.549074,293.646257,-43.792849,276.875648
