takenoko1/special-research/HandMotion_SimilarSearch_自分用/NewProject/handData/test_key/d4_feature_d2/58.csv
frame,vel_0x_L,vel_0y_L,vel_0x_R,vel_0y_R,posFromWrist_0x_L,posFromWrist_1x_L,posFromWrist_2x_L,posFromWrist_3x_L,posFromWrist_4x_L,posFromWrist_5x_L,posFromWrist_6x_L,posFromWrist_7x_L,posFromWrist_8x_L,posFromWrist_9x_L,posFromWrist_0y_L,posFromWrist_1y_L,posFromWrist_2y_L,posFromWrist_3y_L,posFromWrist_4y_L,posFromWrist_5y_L,posFromWrist_6y_L,posFromWrist_7y_L,posFromWrist_8y_L,posFromWrist_9y_L,posFromWrist_0x_R,posFromWrist_1x_R,posFromWrist_2x_R,posFromWrist_3x_R,posFromWrist_4x_R,posFromWrist_5x_R,posFromWrist_6x_R,posFromWrist_7x_R,posFromWrist_8x_R,posFromWrist_9x_R,posFromWrist_0y_R,posFromWrist_1y_R,posFromWrist_2y_R,posFromWrist_3y_R,posFromWrist_4y_R,posFromWrist_5y_R,posFromWrist_6y_R,posFromWrist_7y_R,posFromWrist_8y_R,posFromWrist_9y_R,posFromBody_0x_L,posFromBody_0y_L,posFromBody_0x_R,posFromBody_0y_R
2,16.029339,0.881364,-0.098362,-0.849439,0.0,-3.286972,-22.947063,20.739899,-26.243649,28.568459,-28.132324,21.228447,-29.599571,6.621666,0.0,-0.771448,19.588651,34.452346,38.3701,50.813611,52.492296,56.578938,62.393604,62.772505,0.0,62.770672,24.997044,89.957256,17.003574,89.633961,9.668541,77.893467,3.65736,58.377972,0.0,19.230005,29.670888,46.340597,47.757954,60.44649,59.675969,69.666074,66.068618,72.653497,5.321789,281.339755,-50.554047,278.267178
3,2.817993,1.209999,0.406265,0.184942,0.0,-8.826427,-25.009861,17.500648,-28.779716,26.181679,-30.655918,18.370514,-32.026348,2.960129,0.0,-0.856293,20.236042,33.787602,39.345757,50.36024,53.483699,55.925187,63.190308,61.766035,0.0,61.536655,25.125217,90.088634,17.20293,89.332294,9.739094,77.580814,3.481636,57.81332,0.0,19.752784,29.640198,45.375129,47.765796,59.848746,59.700484,69.375909,66.15476,72.673381,8.115749,282.491632,-50.171814,278.393998
4,12.497292,-2.156386,0.462914,-0.08114,0.0,-21.576118,-38.051205,5.559883,-42.771091,13.318977,-44.251785,5.119972,-43.703384,-13.320122,0.0,3.759056,20.158792,37.952112,39.304755,53.875938,53.762996,58.832396,63.80386,64.402901,0.0,61.706028,24.533215,90.193233,16.58329,89.599857,9.404984,78.150387,3.647919,58.919964,0.0,19.533693,29.746161,46.032215,47.928694,59.447924,60.003616,69.120879,66.543294,72.825595,20.607691,280.318018,-49.714251,278.29563
5,-24.248829,22.368469,0.418968,0.190068,0.0,13.784237,-13.423405,34.317455,-19.368725,42.757359,-20.920429,33.822613,-20.011768,16.86327,0.0,-8.967333,2.17312,13.128632,18.231192,29.67027,31.747554,36.095956,42.746414,39.534837,0.0,61.877575,24.21484,90.287647,16.267548,89.188786,9.287796,78.079891,3.77964,58.695087,0.0,18.637633,29.552944,46.575927,47.899054,58.834805,60.119275,68.872149,66.645429,72.909329,-3.644056,302.671929,-49.298201,278.47114
6,7.674351,-19.92377,0.082226,-0.144125,0.0,-1.628036,-21.38546,22.493706,-24.70974,32.497787,-26.19175,23.982353,-27.393093,8.619003,0.0,0.175495,18.622627,32.240261,38.625562,48.344089,53.592133,54.625588,63.950641,60.303229,0.0,61.992989,23.950996,90.495415,15.838795,89.07383,8.748436,77.940674,3.232327,58.689651,0.0,18.529446,29.359789,46.417723,47.64174,58.692038,59.813116,68.912595,66.269369,73.095259,4.045658,282.735315,-49.200611,278.31417
7,-17.516785,21.816359,0.746384,0.477084,0.0,22.906151,-5.562515,39.408188,-9.033279,53.465767,-9.561653,45.274887,-8.079586,29.667091,0.0,-7.723309,0.442689,5.979601,16.726581,23.665845,30.758189,32.440641,41.809228,38.065733,0.0,61.633186,23.713303,89.963264,15.606136,88.745384,8.615456,77.712479,3.294182,58.475304,0.0,17.987216,29.00071,46.39222,47.371458,58.720319,59.683687,68.340169,66.343902,72.247426,-13.45067,304.539339,-48.433771,278.778919
8,-0.45393,-22.385327,0.075188,-0.638932,0.0,20.60091,-2.122421,44.170475,-4.64344,52.459888,-8.078327,41.780949,-12.731323,25.688267,0.0,-1.823057,17.866494,31.116774,37.295829,47.613396,52.232389,54.141464,62.621587,59.887649,0.0,61.594276,24.002094,89.341965,15.781803,88.855934,8.440418,77.750816,2.684383,58.2201,0.0,17.573673,28.879494,46.428776,47.185157,59.507514,59.390435,69.248579,65.988837,73.216537,-13.873758,282.158952,-48.327742,278.144928
9,-1.877861,-0.465598,-0.166454,-0.239098,0.0,23.14539,-0.285015,46.80891,-2.688217,55.357647,-5.969353,45.294628,-10.449657,29.046307,0.0,-2.320457,18.385012,31.746134,37.629096,47.903685,52.407019,54.246749,62.685375,59.65874,0.0,61.765423,23.955002,89.83778,15.829353,89.227009,8.556805,78.068333,2.888832,58.2934,0.0,17.761395,29.23493,46.852322,47.390354,59.89932,59.456508,69.744867,65.788518,73.637613,-15.724354,281.705565,-48.46693,277.918041
10,14.14444,2.041901,0.000114,0.060145,0.0,6.494808,-19.268589,29.155369,-22.644024,40.100613,-24.535446,30.34647,-25.523186,13.50729,0.0,9.668324,21.838527,37.686647,36.435831,49.697226,46.009861,50.648552,51.532263,54.835292,0.0,61.192303,23.831234,89.223003,15.880108,89.253445,8.845882,78.481922,3.4972,58.98737,0.0,17.876991,29.19084,46.833303,47.436666,59.432425,59.63367,69.517873,66.115857,73.54894,-1.563463,283.744702,-48.450365,277.975423
11,-1.525612,1.236367,0.161247,0.274604,0.0,6.374874,-17.932777,30.134411,-21.285839,40.097408,-23.194771,31.324482,-24.268742,14.399929,0.0,11.622663,22.545446,37.703443,35.567929,48.15433,43.327424,47.982972,47.26074,50.801817,0.0,61.706257,23.864079,89.75584,15.695744,88.374424,8.467655,77.347012,2.763748,57.680569,0.0,18.265093,28.793723,46.583708,46.88647,59.976878,58.938545,70.183419,65.244497,73.801499,-3.099318,284.971652,-48.29936,278.24061
12,11.988544,-4.997399,0.351162,0.20921,0.0,-5.751572,-29.942207,18.153992,-34.289989,26.944771,-36.050205,18.982544,-35.895939,1.04393,0.0,10.323866,22.70612,40.3802,39.423377,54.045937,51.015288,56.822729,58.098369,61.219297,0.0,61.816864,24.309826,89.516258,16.085873,88.426895,8.72612,77.683067,2.940502,58.355026,0.0,17.392868,28.899378,46.088593,46.894868,59.375059,58.936631,69.225979,65.386091,73.174176,8.874063,279.963261,-47.963362,278.438829
13,-1.952248,-1.111199,-0.524025,0.224216,0.0,-5.856628,-21.090202,21.827545,-24.955215,30.8218,-26.995583,23.795471,-28.577785,7.620735,0.0,2.25352,20.216097,35.332165,40.018095,51.350593,55.030176,57.354462,65.677306,62.060152,0.0,63.043785,24.619961,90.875702,16.388397,89.261627,9.090157,77.908974,3.656273,59.18026,0.0,16.262403,28.977184,44.868714,46.87906,58.787936,58.76126,68.935443,64.943773,72.913651,6.862879,278.844699,-48.546324,278.655681
14,-11.618385,20.869725,0.458164,-0.34148,0.0,14.563751,-16.150818,32.254486,-20.63261,46.757469,-20.419006,38.013611,-17.016277,19.140244,0.0,-2.581229,3.017372,11.625009,20.75277,28.673804,35.342663,36.796638,46.528194,41.37432,0.0,62.67271,24.252148,89.892941,16.003876,89.118862,8.708439,77.908115,3.2654,59.041157,0.0,17.776894,29.064005,45.019817,47.299395,59.20858,59.411553,69.269513,65.80692,72.978613,-4.859104,299.679828,-48.191757,278.279606
15,15.742264,-21.185208,-0.018883,-0.027602,0.0,-10.506935,-27.410488,16.486359,-31.238251,26.294289,-32.12574,20.177879,-32.127857,5.744133,0.0,3.016569,20.057028,35.668026,40.090776,51.250372,55.305027,57.298269,65.935176,62.848149,0.0,62.563419,24.864407,89.671726,16.645489,89.373608,9.23687,78.01775,3.568039,58.980732,0.0,16.733127,29.532814,45.081074,47.715593,59.055995,59.807188,68.887525,66.264491,72.938537,10.813408,278.502432,-48.280392,278.259815
16,-11.361008,19.795268,0.038395,-0.07478,0.0,11.641731,-19.008751,31.118202,-24.881687,45.119019,-25.456238,37.365646,-22.777004,17.804146,0.0,-5.64936,4.856361,15.49534,22.976093,32.196109,37.561355,39.609308,48.897187,43.511625,0.0,62.533951,24.569435,90.266647,16.351376,89.560776,9.046955,78.017464,3.525352,58.820457,0.0,16.185586,29.05962,44.786895,47.318167,58.804547,59.439835,68.939457,65.798028,72.912046,-0.621729,298.303937,-48.316126,278.191272
17,-4.190197,3.536199,-0.508347,-0.206926,0.0,8.43401,-17.754478,36.41573,-21.065769,48.674068,-20.693378,44.355526,-17.380428,27.588673,0.0,-11.475511,4.859696,16.946536,20.144281,32.432366,32.426191,38.343424,42.641623,43.213,0.0,62.604675,25.074749,91.43177,17.291279,91.453972,10.205269,80.199165,4.839478,60.685272,0.0,15.745305,28.971317,45.273488,47.119022,58.681849,59.273294,68.865912,65.705341,73.428032,-4.912462,301.859494,-48.925009,278.003705
18,26.481686,-6.70838,0.766125,-1.163254,0.0,-43.391533,-41.505947,5.938683,-45.37405,13.91201,-45.172634,6.234627,-42.244263,-18.761101,0.0,23.781319,17.049598,32.130345,25.46834,38.952654,29.754498,37.381044,31.559092,37.182023,0.0,61.950932,23.169193,92.596951,14.886189,92.420712,7.825184,79.275913,2.482166,58.59827,0.0,16.228441,28.442425,48.654446,46.467803,61.095796,58.77645,69.644091,65.508604,73.274583,21.468973,295.116087,-48.259134,276.805423
19,-10.201378,-2.88924,0.092354,-3.04658,0.0,1.705284,-22.691059,23.78849,-27.083645,29.92218,-27.78368,20.45311,-25.721855,1.5382,0.0,0.686109,14.561056,29.899055,28.425938,42.417778,38.775307,48.522424,47.181143,51.26476,0.0,61.959972,23.289585,89.605923,14.275074,90.87965,6.031437,76.281796,-0.784492,52.920628,0.0,18.028156,27.462508,54.361605,45.542905,68.000665,58.138013,75.622704,65.408445,76.455285,11.069527,292.174344,-48.364849,273.706339
20,25.64106,33.590063,-0.616894,-6.844786,0.0,-78.296413,-57.669868,-22.65976,-57.364025,-13.096046,-51.887913,-11.191635,-43.235893,-27.681313,0.0,30.130743,0.195811,20.540904,-15.693805,6.775502,-32.807376,-7.996308,-48.598315,-26.638201,0.0,60.164452,16.802559,86.361237,7.854137,86.301384,1.04353,71.4188,-3.640308,49.080505,0.0,22.415647,22.855495,56.563069,42.794888,70.59338,57.878476,79.41986,67.659124,82.360106,36.264839,325.683467,-49.42749,266.780614
21,10.633278,-39.002796,10.379963,-0.95213,0.0,-63.251753,-46.512451,-49.827747,-40.113516,-43.576012,-30.018454,-35.303106,-18.165035,-32.798596,0.0,37.540916,16.668258,55.579138,16.126645,57.419115,13.238949,53.166086,9.30165,42.250312,0.0,53.476696,17.848892,57.316418,6.093407,40.152225,-5.391369,27.737331,-15.643272,15.481625,0.0,41.204383,7.144584,61.797157,20.577831,85.217545,34.420853,87.143972,47.781481,75.625668,46.508045,286.807893,-39.437599,265.955705
22,10.633278,-39.002795,-16.362848,-34.642506,0.0,-48.207092,-35.355034,-76.995735,-22.863007,-74.055977,-8.148994,-59.414577,6.905823,-37.915878,0.0,44.951089,33.140705,90.617371,47.947095,108.062727,59.285274,114.32848,67.201615,111.138824,0.0,57.065478,24.7328,58.290796,13.888121,44.146643,2.175465,25.363226,-8.922329,12.522354,0.0,36.982167,4.236232,47.410731,18.20964,63.084776,32.844272,66.934173,47.1038,64.033818,56.787958,247.84397,-56.153813,231.352072
23,7.569923,-8.63067,-16.362848,-34.642506,0.0,-55.005341,-32.411156,-72.178574,-20.554848,-66.159496,-5.817261,-50.288086,9.603882,-30.269623,0.0,29.961609,30.048738,83.223933,41.310038,98.241447,49.614604,103.175799,54.824424,96.455564,0.0,60.654259,31.616707,59.265175,21.682835,48.14106,9.742298,22.98912,-2.201385,9.563084,0.0,32.759952,1.327881,33.024306,15.841451,40.952009,31.267692,46.724375,46.426121,52.44197,64.135809,239.522947,-72.738733,197.019213
24,5.036201,-20.182011,-16.323338,-40.982637,0.0,-44.111595,-28.177757,-55.363312,-16.855431,-46.946068,-4.005547,-35.237961,8.751297,-21.139641,0.0,25.098764,31.927433,66.805424,47.436913,79.785176,58.401811,86.967366,65.655755,89.124246,0.0,73.164482,23.730526,59.087963,15.265388,40.984039,7.778034,28.373966,1.948757,19.553318,0.0,26.072135,-5.740442,15.211658,11.613091,26.16649,30.607209,42.58222,49.160738,51.715044,69.116707,221.123764,-89.117374,157.819403
25,-5.254211,0.293932,-10.990276,-36.5413,0.0,-19.235802,-20.253067,-23.928337,-11.225967,-14.708519,1.232529,-4.73877,14.685173,11.374397,0.0,14.155973,19.87295,26.904716,30.322972,34.624506,36.209824,38.365716,39.247944,43.180334,0.0,75.127201,24.803867,69.159393,19.103107,42.920437,13.763065,31.001244,9.363613,23.680172,0.0,10.489604,-8.643143,8.435415,9.337403,20.424011,27.979853,36.267684,45.504249,46.323492,63.63965,225.926279,-100.330496,125.786685
26,60.400429,-79.36941,-2.118416,-16.680361,0.0,-58.747215,-39.72702,-64.731674,-33.196335,-62.342377,-23.535461,-52.510414,-12.009315,-39.897308,0.0,33.76352,13.0993,39.350327,30.505074,54.641581,45.678509,61.797528,57.325069,71.025756,0.0,77.991314,22.374001,81.343002,20.250149,43.592491,17.262039,29.781475,14.908791,26.232262,0.0,-7.565012,-4.704949,-8.583616,9.962472,10.900677,25.427616,25.2168,40.969453,36.756223,123.394003,149.423493,-103.094988,111.972948
27,4.531746,-9.487766,-10.250816,-43.584707,0.0,-53.778877,-37.562714,-61.321106,-31.582832,-53.656883,-23.545532,-41.63372,-14.43512,-33.428879,0.0,33.686764,10.285643,21.802465,19.839419,29.00071,29.610249,34.44228,37.788659,40.885751,0.0,78.87846,26.917648,90.258121,25.377731,89.907761,23.317566,42.396069,20.728054,35.296726,0.0,-4.4933,-9.039643,-10.969992,8.485371,1.260758,28.128949,24.653234,48.010698,39.806075,127.594585,145.086344,-113.676968,73.538859
28,6.703606,-9.100529,-4.594288,25.992601,0.0,-52.080345,-35.138855,-71.687164,-31.593475,-65.168953,-25.445824,-58.107948,-17.81559,-44.363823,0.0,12.381884,1.967121,-2.854289,8.021626,1.64534,14.720742,6.633847,20.42716,18.272997,0.0,51.944962,25.282459,52.878628,21.811466,102.777958,18.895741,83.883648,18.106556,76.894169,0.0,-8.517728,-9.952777,-23.152977,-18.397918,-43.566336,-26.44446,-44.465051,-32.835565,-44.397589,133.227882,139.896191,-119.341564,103.441836
29,5.034485,-11.352659,-6.564217,-48.297313,0.0,-52.492447,-31.414261,-75.86689,-26.992264,-77.822456,-20.725937,-69.646225,-12.63485,-53.517838,0.0,6.020202,-4.486661,-19.27817,-1.675011,-17.688529,1.282587,-16.126985,4.687597,1.149206,0.0,62.234173,28.718262,104.788628,32.209625,116.984882,34.117928,47.744923,34.586563,44.882126,0.0,2.017602,-5.641919,-13.99993,15.330435,-3.184438,34.689344,17.107396,50.482228,33.405614,137.044544,130.970324,-127.123604,57.571314
30,3.482208,-31.555819,5.559711,-0.509441,0.0,-50.912132,-28.590889,-78.780785,-27.961464,-86.533356,-24.840546,-73.612175,-18.885841,-53.077812,0.0,3.722809,-4.718843,-17.752348,3.328162,-8.044689,13.450197,2.231629,25.348421,21.637962,0.0,66.078186,28.270111,104.19136,30.505772,113.111343,31.41758,44.175053,31.618023,42.877636,0.0,4.721437,0.529047,-3.660163,22.065213,3.534316,41.767454,23.621262,58.121587,38.826035,138.573275,102.208402,-123.51737,59.85577
31,2.072525,-20.204056,6.287956,9.451734,0.0,-55.290642,-29.60186,-86.38401,-29.087219,-89.652672,-25.703545,-79.631653,-19.308128,-61.087074,0.0,3.13794,-2.031866,-8.683991,10.576796,5.36327,24.235369,20.284177,38.818625,36.862248,0.0,60.51693,29.405708,102.422905,30.354595,111.746979,29.955482,44.743824,28.079166,39.363499,0.0,9.228136,5.017375,9.368279,26.549003,16.010462,45.093115,30.815926,60.767098,43.381177,138.791714,83.389918,-119.0835,70.693076
32,2.061195,-4.690283,3.767967,18.967504,0.0,-56.038399,-30.732536,-91.144524,-30.179787,-93.216591,-26.715889,-83.638573,-20.346451,-64.399681,0.0,5.66347,-3.105243,-8.602049,11.386652,8.348532,26.432727,23.173231,41.864803,37.810889,0.0,56.846523,29.095116,96.676254,30.055332,107.152176,29.40279,50.706196,27.541752,44.925957,0.0,0.808159,9.448307,12.96206,26.480769,18.859132,39.479601,22.95374,51.054129,31.432874,138.583488,79.408483,-117.584953,90.369428
33,-1.020126,1.0153,1.974506,7.778329,0.0,-52.458,-32.669106,-91.590042,-32.174149,-93.816605,-28.323784,-83.765602,-21.310387,-65.465469,0.0,5.676962,-2.607041,-6.029279,11.513333,9.235392,25.970525,23.484978,40.598889,37.302127,0.0,61.393948,34.944534,106.25948,34.390182,108.413029,31.043129,50.313892,26.754742,43.045464,0.0,7.617809,26.334451,29.006175,42.991007,35.2953,53.207428,27.50422,60.408143,37.140928,136.437693,80.54432,-116.736116,98.268293
34,-0.600128,2.948737,2.812672,-5.874965,0.0,-48.801842,-31.702881,-91.893883,-31.403389,-97.128868,-28.077965,-88.091583,-21.990852,-70.090714,0.0,9.064899,-2.139343,-2.856543,12.156526,11.911593,27.079964,26.129625,42.447357,40.190534,0.0,59.212132,35.309887,105.212975,33.490276,108.050995,28.784351,42.038383,23.335018,33.748055,0.0,10.627555,25.408164,29.906033,43.257553,36.73001,55.395337,27.17753,63.063133,34.550035,134.693327,84.001895,-115.067682,92.902167
35,-1.958084,3.648029,1.134281,1.807064,0.0,-48.556595,-30.604706,-90.592003,-30.054131,-94.871178,-26.646767,-85.549507,-20.801926,-67.432709,0.0,7.997605,0.404527,-0.057057,15.046291,14.812689,29.805967,29.374362,44.523683,43.29556,0.0,50.372772,36.407375,102.450657,33.540688,85.319481,28.04781,43.84306,22.135448,38.078156,0.0,0.548961,17.837687,4.733601,22.642888,3.354807,23.98386,5.82751,23.419307,9.123531,132.082586,88.252809,-114.586058,95.312116
36,-0.041656,3.028796,1.935768,-41.083167,0.0,-49.002457,-31.760674,-91.171074,-30.75119,-94.716225,-26.622849,-84.095421,-20.069618,-66.718483,0.0,8.108539,0.136777,4.200541,15.313824,19.530019,30.375707,32.493468,45.088144,44.460667,0.0,66.003799,54.654293,104.057293,46.768055,74.284515,36.141987,43.360291,24.414024,31.075802,0.0,-9.588604,-26.596643,-7.690705,-32.406277,-3.212411,-32.590972,-5.649607,-29.325487,-4.733817,131.783209,90.888749,-112.90801,53.836093
37,-1.047821,2.407463,-4.42297,-40.312151,0.0,-49.466629,-29.292412,-89.136887,-27.486763,-93.477287,-22.9842,-82.413597,-16.161003,-64.303093,0.0,9.122543,1.069147,5.672671,15.739501,20.617999,30.449499,33.643446,44.923826,46.210983,0.0,71.068611,50.775261,101.058884,45.44117,89.628868,37.78204,55.211391,30.227795,43.251457,0.0,-1.953536,-16.509189,-8.957422,-11.952286,2.461186,-6.423123,11.62856,1.750717,18.293096,130.741339,92.308916,-117.325029,12.536646
38,1.612701,0.503482,16.844826,-28.910596,0.0,-48.058205,-29.865532,-90.592003,-28.448181,-92.249222,-24.357491,-81.597519,-17.823601,-64.425201,0.0,13.748729,0.412987,5.516597,15.414385,20.840671,30.294968,32.986267,44.603743,44.861458,0.0,63.820896,50.231342,95.412139,46.50608,87.825737,39.735965,59.921455,32.077465,47.773933,0.0,-9.759961,-14.851859,-20.393043,-11.04649,-11.368302,-6.289105,-1.826135,0.608519,5.912015,132.235279,91.982827,-100.598964,-17.203521
39,0.193863,0.101641,16.844825,-28.910596,0.0,-46.73893,-29.32457,-89.801788,-28.273087,-92.516212,-24.346733,-82.249374,-17.897873,-64.470406,0.0,13.345221,0.323943,4.312402,15.087447,19.504393,29.937958,32.180733,44.228331,44.594264,0.0,56.573181,49.687424,89.765396,47.570992,86.022606,41.689892,64.63152,33.927136,52.29641,0.0,-17.566387,-13.19453,-31.828663,-10.140694,-25.197791,-6.155086,-15.280829,-0.533678,-6.469066,131.752253,90.052911,-84.431029,-48.145674
40,-0.440941,-1.110828,16.844826,-28.910596,0.0,-46.022301,-29.706345,-90.207481,-28.260384,-93.053513,-23.784485,-82.813568,-17.038078,-63.909531,0.0,13.986592,0.025071,3.108639,15.015138,18.896244,30.046145,32.163536,44.676732,43.852673,0.0,49.325466,49.143505,84.118652,48.635902,84.219475,43.643818,69.341583,35.776806,56.818886,0.0,-25.372812,-11.5372,-43.264284,-9.234898,-39.027279,-6.021067,-28.735523,-1.675875,-18.850147,130.729952,86.4507,-68.167562,-79.547653
41,-0.688133,-0.154253,-24.156847,54.781137,0.0,-46.493683,-30.060654,-90.242958,-29.187927,-94.791412,-25.298882,-84.198532,-19.122849,-64.852982,0.0,12.572137,-1.107988,1.544964,14.184965,16.452718,29.571377,29.956916,44.347263,42.071019,0.0,54.345074,47.896328,94.594603,43.74404,83.471317,36.50013,58.065519,28.016138,45.165396,0.0,-20.177133,-20.412571,-30.624978,-19.491039,-20.004957,-15.151081,-11.576427,-8.605275,-5.541544,130.00843,85.850672,-92.357798,-25.212292
42,-1.388168,0.770738,-24.156847,54.781137,0.0,-44.866333,-30.04097,-89.813004,-29.48307,-93.970184,-25.613937,-83.878784,-19.349327,-65.391083,0.0,11.598426,-1.291849,-0.151597,13.576785,14.87552,28.684456,27.742453,43.435209,40.531488,0.0,59.364681,46.649151,105.070553,38.852177,82.72316,29.356441,46.789455,20.25547,33.511906,0.0,-14.981453,-29.287943,-17.985672,-29.74718,-0.982634,-24.281096,5.582669,-15.534675,7.767059,127.41457,86.434383,-117.720337,29.381819
43,0.311852,0.64736,-1.925669,16.718106,0.0,-46.335754,-29.811974,-90.740891,-28.96534,-94.811668,-25.184097,-84.656181,-19.288559,-66.581039,0.0,11.956578,-1.574574,0.184232,13.562922,15.035484,28.822314,27.656373,43.616292,40.045945,0.0,58.582764,44.761162,106.078692,39.214897,92.921906,31.809054,43.203507,23.749552,34.048319,0.0,-3.459475,-2.969223,3.910175,5.701492,13.276616,14.890818,15.127014,24.256117,22.544334,126.513176,90.06631,-120.859251,49.084492
44,-0.078278,1.60443,-1.925668,16.718106,0.0,-50.185089,-30.091782,-90.560989,-28.889923,-94.837303,-24.832535,-84.645538,-18.116341,-66.110802,0.0,12.130066,-1.452401,0.322615,13.26087,16.096696,28.092702,28.751115,42.940248,41.173137,0.0,57.800846,42.873173,107.08683,39.577618,103.120651,34.261665,39.617558,27.243633,34.584732,0.0,8.062504,23.349498,25.806022,41.150166,27.535867,54.062733,24.671358,64.04691,37.321609,125.643826,93.762783,-123.575993,67.89464
45,1.311493,-0.080739,-2.060509,0.626273,0.0,-48.303108,-32.295456,-93.238907,-31.170158,-97.514076,-27.19162,-87.686577,-20.63015,-68.277168,0.0,15.241329,-0.13792,4.359178,15.147623,19.305278,29.985691,31.499842,44.233302,42.84577,0.0,62.798939,40.006313,111.561241,38.888111,114.97673,34.79908,46.416721,29.960976,38.163643,0.0,12.714317,28.906078,29.193742,45.869626,33.918637,56.011113,23.760756,61.991733,31.019023,126.408348,94.360928,-126.183472,69.199796
46,-2.057304,-0.126465,3.05769,-13.221288,0.0,-46.827393,-31.438751,-92.653999,-29.697533,-95.952988,-25.15686,-86.076508,-18.278503,-67.058144,0.0,17.70798,0.716027,5.867246,15.879458,21.551388,30.791627,34.103024,45.005522,44.634556,0.0,60.601959,42.76926,114.732113,39.531727,104.833889,32.620811,34.697399,24.543228,26.05093,0.0,15.906752,25.058719,17.279927,38.575575,23.31007,47.836902,24.447575,53.659595,29.999678,124.091148,95.59376,-123.385677,57.337805
47,-2.625389,0.944997,0.135727,-15.79875,0.0,-45.004234,-31.844559,-92.427864,-30.012245,-94.991341,-25.019302,-84.396172,-17.557182,-64.300003,0.0,17.280451,1.150904,6.656571,16.256197,21.883852,30.98117,34.127322,45.102347,45.2524,0.0,55.126019,42.23877,100.438786,39.946861,80.414886,33.661537,37.41148,25.415039,30.109463,0.0,5.755324,13.955192,1.128736,26.174672,10.691435,35.603589,24.269085,44.548167,34.82785,121.665716,95.637247,-123.049994,40.637545
48,-0.925598,0.662798,3.970356,-33.004669,0.0,-47.485428,-31.407051,-92.923393,-29.849854,-96.585388,-25.307236,-85.497322,-18.654213,-65.692406,0.0,15.874611,0.648565,6.866924,16.143781,22.271583,31.207794,34.524192,45.479055,46.150344,0.0,53.105564,49.035645,103.846092,45.09613,91.144238,36.426601,42.967472,26.094418,27.233562,0.0,2.525067,-14.963267,6.521492,-7.901799,17.502629,2.742089,19.04358,16.460499,26.476446,121.413145,96.471048,-118.40661,7.803878
49,-1.536255,-1.391669,-9.163799,-27.2943,0.0,-48.378296,-31.650352,-92.78286,-29.281197,-96.036186,-23.970337,-85.184441,-16.439552,-65.290489,0.0,18.068695,2.875964,8.143058,17.946028,24.056849,32.760261,35.81635,46.870662,47.049121,0.0,56.618443,44.250069,110.113049,45.639095,102.954655,44.319134,39.66608,42.389317,34.147282,0.0,5.962311,-8.282706,-16.661373,9.368093,-10.426681,27.150761,18.880003,44.060617,33.769232,120.207539,92.899852,-127.239761,-21.669949
50,0.161362,-0.377974,-9.062405,-14.764585,0.0,-48.580742,-31.603661,-95.153275,-29.14238,-97.525291,-23.953857,-86.450615,-16.391373,-66.262665,0.0,20.709637,2.653168,8.50155,17.758523,24.539521,32.454967,37.328772,46.322874,48.778379,0.0,59.245548,43.360176,106.240196,47.719402,109.766178,48.041325,44.212017,46.429882,42.994938,0.0,-7.77095,0.106705,-21.833865,19.70996,-21.29747,36.523362,12.854491,49.752122,25.847302,121.051855,89.378967,-135.619211,-39.577445
51,1.949844,0.967691,-1.886501,-4.964795,0.0,-45.656662,-35.137024,-98.223267,-33.881264,-101.204567,-29.203262,-90.763664,-21.977692,-70.604782,0.0,22.08874,3.135964,8.481944,18.810163,23.824575,33.623038,35.988912,47.250674,48.40164,0.0,62.557755,46.537228,109.942303,52.025814,110.863209,52.231865,48.598824,49.919815,43.408184,0.0,-13.615256,0.632787,-17.971284,20.44726,-18.609907,36.730071,10.766215,48.957147,22.429695,123.203573,87.639226,-137.303839,-47.249671
52,-1.489105,2.100842,-0.82346,8.306388,0.0,-47.865257,-34.092064,-96.937294,-32.684669,-101.098137,-27.825966,-90.780602,-20.022812,-70.803795,0.0,19.170292,2.268803,7.305012,17.155716,22.898288,31.875285,35.723879,45.939373,47.730197,0.0,63.37183,44.048824,107.351532,48.952789,114.36636,50.514221,50.597763,50.22377,45.852413,0.0,-13.95797,-1.187275,-17.01125,18.079749,-18.620929,34.237639,9.302576,47.591351,21.123272,121.540947,89.632915,-138.300819,-39.050436
53,-1.182518,1.867024,2.969627,10.744417,0.0,-46.786423,-33.80722,-96.411209,-32.447662,-99.944458,-28.077621,-89.323311,-20.817261,-69.932213,0.0,20.103001,2.674873,8.182331,17.773065,23.408068,32.409055,35.713196,46.265724,48.680104,0.0,61.643944,41.491184,105.330563,45.631714,113.434525,47.232857,51.038246,47.187881,46.133137,0.0,-8.551382,-1.780264,-10.122313,19.017892,-14.869499,36.579709,12.441288,51.158549,24.373196,120.300722,91.516565,-135.388899,-28.289392
54,-0.790787,1.813239,0.570488,11.496229,0.0,-43.418083,-35.148239,-96.691589,-33.905067,-100.190506,-29.003677,-90.557556,-21.171684,-70.421104,0.0,21.434865,3.795335,8.983975,18.961329,24.736783,33.577528,36.345706,47.399894,49.43352,0.0,63.431568,42.324371,106.031742,46.032543,113.615856,47.498646,51.951942,47.334709,46.711235,0.0,-11.426451,-0.073298,-8.620419,19.683098,-12.601499,36.332769,12.235597,50.767206,23.765696,119.514627,93.198214,-134.813719,-16.924754
55,-2.238922,1.894503,0.195751,8.72311,0.0,-45.371246,-33.203087,-95.584831,-31.73172,-99.599533,-26.610031,-89.057693,-18.916397,-69.029846,0.0,18.216125,3.209509,9.158173,18.897973,25.190957,34.019475,37.452242,48.041666,49.422961,0.0,63.357925,39.055367,61.677876,43.695431,115.266323,45.573349,54.815254,45.628338,48.590183,0.0,-11.378779,4.795105,4.337472,23.913434,-14.473247,39.055808,13.229933,51.397585,23.454628,117.44339,95.153958,-134.450283,-8.140402
56,0.939102,1.357768,0.305901,5.988277,0.0,-44.12796,-35.208778,-98.686295,-33.526268,-101.476479,-28.272514,-90.711479,-20.540085,-69.846497,0.0,20.099605,2.728535,11.38761,18.142858,27.234186,32.996888,38.929343,46.865568,50.253195,0.0,62.563305,41.577816,100.874977,45.745068,114.513302,46.664772,53.781338,45.855789,46.974277,0.0,-13.668577,6.178098,-7.469052,24.218882,-11.932156,38.777993,11.821468,50.773566,23.111388,118.470755,96.655542,-134.05612,-2.008309
57,-1.706772,2.328546,0.526428,3.012309,0.0,-46.816063,-33.953018,-96.543274,-32.207222,-100.85289,-27.097435,-89.247093,-19.622498,-69.046326,0.0,17.55064,2.14558,10.500349,17.386631,26.067072,32.25116,37.783688,46.317656,48.927229,0.0,63.492737,42.336102,109.517269,46.260853,115.610733,46.459064,55.363483,44.750633,49.031124,0.0,-13.918944,7.104786,-12.541663,25.453921,-7.829458,39.943408,11.065272,51.764938,22.554029,116.826468,99.247578,-133.467207,1.267489
58,-2.457733,0.222857,-0.163364,2.150365,0.0,-47.057991,-32.48291,-95.378952,-30.061684,-98.427773,-24.722443,-87.439728,-16.827965,-67.380295,0.0,19.236921,2.687347,10.866004,17.503062,26.717026,32.514062,38.475045,47.127019,50.347612,0.0,64.905052,41.455364,109.785061,46.145554,117.651443,47.211971,56.29715,46.321278,49.716282,0.0,-13.25627,7.448149,-11.338734,25.882068,-7.571156,40.710348,10.751951,52.571337,21.802465,114.53516,100.574764,-133.464146,4.522183
59,2.413445,0.583078,-0.156555,2.662616,0.0,-44.885445,-33.932533,-98.241348,-31.794434,-101.747589,-26.440659,-90.433617,-18.449249,-69.937592,0.0,22.659684,3.243163,12.003076,18.321316,27.487331,33.227032,39.447583,47.251292,50.846339,0.0,63.179741,41.589031,107.70504,45.971546,115.492172,46.515713,53.398132,45.212574,46.969757,0.0,-13.07494,6.270723,-11.268647,24.562832,-10.164303,39.721632,13.296377,52.388741,23.9842,117.330751,101.716606,-133.238554,7.743563
60,-2.203903,1.578001,-1.028996,2.176548,0.0,-43.412476,-34.269791,-97.204399,-32.06749,-100.160751,-26.455078,-89.11171,-18.43586,-68.673706,0.0,20.611794,3.058467,12.077331,18.484399,27.842026,33.539891,39.681834,47.863454,50.936711,0.0,62.781143,42.043705,107.493267,47.198353,116.192665,48.162231,53.539867,47.18771,47.981415,0.0,-15.01523,6.173034,-12.74757,24.199647,-13.345839,39.062045,11.903287,51.36779,22.368562,115.487394,103.330222,-133.907003,9.955726
61,-2.238808,2.070275,0.516529,0.241351,0.0,-44.430428,-31.859665,-95.150642,-29.90078,-98.745346,-24.643478,-88.146744,-16.691437,-68.391495,0.0,18.434752,3.317973,12.64386,18.117293,27.655972,33.016957,39.371692,47.32286,51.559927,0.0,64.494495,43.478165,108.432999,48.728657,116.817627,49.468918,53.826427,48.094826,47.798138,0.0,-14.054795,6.993975,-13.412128,25.044979,-14.235168,39.795362,9.418111,51.647921,20.809333,113.490086,105.235284,-133.148975,10.031864
62,1.216736,2.136811,-0.158958,1.511094,0.0,-43.471184,-33.522491,-97.481346,-31.771317,-100.783081,-26.812019,-90.788956,-19.198837,-70.8078,0.0,19.454869,3.252055,13.169449,18.176882,27.645536,33.185783,39.879466,47.915417,52.490197,0.0,62.841396,42.546844,109.76263,47.935581,116.33503,48.541145,53.484192,46.950302,48.244171,0.0,-14.790953,5.827757,-15.983693,23.781226,-14.997199,38.502061,8.534432,50.296544,20.534081,114.806814,106.971597,-133.207941,11.14246
63,-2.092094,1.832783,-1.134396,1.72614,0.0,-43.112755,-33.201942,-96.295853,-31.518288,-99.943428,-26.474304,-90.270767,-18.637619,-69.938965,0.0,19.165043,4.217368,13.88421,19.395249,28.854455,34.385439,40.409006,48.885424,52.577913,0.0,63.099117,43.115387,107.72501,48.557453,115.098324,49.253826,53.256397,47.782745,48.097,0.0,-15.570428,5.978521,-16.148011,23.762485,-13.834161,38.218534,9.542229,49.894271,21.012862,113.207588,108.768781,-133.849468,12.833001
64,-1.038551,3.759952,-1.240196,3.488713,0.0,-47.706985,-33.667603,-95.919342,-32.163048,-101.164169,-27.088966,-92.083626,-19.165649,-71.055565,0.0,13.845801,3.510357,13.215113,18.528088,28.79749,33.646379,40.561129,48.377434,52.765542,0.0,63.479977,43.843803,107.701378,49.68441,114.52692,50.59988,54.868584,49.171085,49.178638,0.0,-16.761779,5.359843,-18.631303,23.340822,-14.653033,37.701899,7.596844,49.028746,19.455394,112.414227,112.604917,-134.844475,16.397899
65,-1.623116,3.40711,-0.767441,4.701337,0.0,-49.266472,-33.864784,-96.593285,-32.472725,-102.533455,-27.44339,-93.960915,-19.599609,-72.945557,0.0,12.422763,5.217231,15.255285,20.657705,29.663817,35.694301,41.547931,50.025398,54.646058,0.0,63.447475,42.49094,107.090092,48.744335,114.550152,50.170155,58.059883,49.181271,51.453438,0.0,-17.559008,5.096756,-20.839066,22.849628,-16.599993,36.805191,4.945652,47.804761,16.778204,111.144419,116.024347,-135.258608,21.111555
66,-4.011154,5.451172,0.872612,5.392416,0.0,-61.687431,-30.666389,-95.763016,-28.764381,-101.503716,-23.979034,-92.750816,-16.56395,-71.061401,0.0,1.525019,6.020758,15.970015,21.904662,30.690634,36.914211,43.303156,50.775079,56.674219,0.0,62.598667,40.991821,104.465904,47.392445,112.777119,49.350872,56.367245,48.861523,49.54073,0.0,-17.863097,3.827785,-20.833694,21.586308,-18.728128,35.627024,5.364598,46.911479,16.744952,107.691736,121.603774,-133.827524,26.632227
67,-2.752075,4.713131,-0.226822,6.813046,0.0,-66.941414,-33.858032,-100.069656,-32.063141,-104.57634,-26.777115,-96.46431,-18.220482,-72.953911,0.0,-4.513554,7.618951,18.956975,22.519171,33.422441,36.926345,46.430536,50.497727,57.323371,0.0,61.482754,39.402752,84.441319,46.565666,115.04734,49.448147,57.337818,49.953632,50.371056,0.0,-18.873303,3.708915,-12.667263,20.732917,-21.887619,34.699563,4.944263,46.093502,15.863403,105.841599,127.456663,-133.152409,34.585032
68,-4.200325,6.277269,1.297016,6.25192,0.0,-66.041679,-34.583702,-101.328392,-32.070351,-104.343224,-25.93998,-96.222839,-16.662025,-72.685661,0.0,-3.200277,7.526511,20.27229,22.48246,35.818265,36.910136,48.20021,50.496585,58.265404,0.0,60.684586,39.406414,94.880047,45.803375,112.24823,48.350945,55.486221,48.731003,49.485168,0.0,-18.74338,3.261657,-17.449123,20.636339,-18.778671,34.927268,7.432341,46.76371,18.852771,102.17557,133.850826,-131.321096,40.953846
69,-4.760284,7.864224,0.772018,9.6167,0.0,-67.174759,-34.204102,-101.279526,-31.207581,-103.828697,-24.703789,-96.42128,-14.985809,-71.530724,0.0,-4.498024,6.8982,21.854397,22.27924,36.030377,37.038391,49.360501,50.559261,60.22635,0.0,61.139202,38.018131,83.931885,44.751263,110.881233,47.793961,55.529423,48.421612,48.895683,0.0,-18.716118,3.527832,-11.515865,20.769226,-20.070798,35.182853,5.924582,47.582614,18.336939,97.828102,141.737697,-130.136261,50.593193
70,-4.00692,8.767879,1.578312,12.966012,0.0,-68.71273,-34.573174,-104.735413,-31.980858,-107.683182,-26.033707,-100.545959,-16.992645,-75.012589,0.0,-6.55987,4.516302,22.593735,21.2075,38.342251,37.051297,53.367979,51.290077,64.042279,0.0,60.723438,35.258789,61.5271,42.250156,116.393566,45.842171,55.722542,47.31451,49.526653,0.0,-19.991727,-1.06609,-6.588151,17.199373,-20.305789,33.026312,9.691789,47.059835,21.623389,94.381027,150.175072,-127.998104,63.228701
71,-5.304451,10.84683,7.508125,17.130645,0.0,-72.248154,-34.559097,-105.872726,-32.079163,-109.377193,-26.161537,-101.370735,-17.125626,-76.408997,0.0,-8.262329,4.743728,24.644589,21.618078,41.016167,37.389442,56.643097,51.540908,67.342962,0.0,50.454369,34.054012,100.507793,36.32515,108.613071,36.96476,52.826614,36.571484,52.977505,0.0,-14.805433,-5.892904,-18.773885,8.188722,-16.231096,21.701225,7.709261,35.560055,17.248094,89.519606,159.747791,-120.046949,79.085235
72,-5.645828,12.893671,3.634243,13.620937,0.0,-71.126633,-31.539116,-102.654018,-29.550133,-107.798653,-24.650574,-98.892231,-17.636261,-78.435287,0.0,-6.49991,5.605455,27.346726,23.519065,43.373242,40.219278,59.752354,54.78126,71.604666,0.0,66.291504,28.665047,101.061287,28.603477,109.075813,28.639355,84.99424,28.151321,68.049488,0.0,-2.524789,-10.326645,-4.412437,7.774315,0.222394,26.383666,13.428584,44.187422,22.908446,84.484491,170.482606,-115.801992,90.547315
73,-8.539467,15.323488,11.444321,21.218954,0.0,-69.624138,-32.441597,-94.066772,-30.653572,-100.682201,-26.11393,-92.370472,-19.065628,-74.586067,0.0,-2.505152,9.70593,31.475482,25.91319,47.566095,41.66183,61.722686,55.178007,74.015155,0.0,70.525532,27.876949,96.502762,21.627445,101.11702,16.228752,91.343765,11.485004,71.230316,0.0,-12.451199,-1.853315,5.234088,9.64455,13.317094,22.497188,23.687489,34.910626,26.807737,76.492195,184.443294,-103.810501,110.403469
74,-8.538208,18.559333,1.191673,17.216787,0.0,-65.629234,-27.851944,-86.296806,-23.902931,-88.153152,-17.195663,-77.857018,-9.161339,-57.298965,0.0,-3.479512,8.099369,31.416016,22.233853,48.481175,36.037293,60.187633,47.726585,67.673697,0.0,58.853416,36.328125,96.626358,29.827538,102.740479,21.50774,88.252544,11.922169,57.471828,0.0,-8.680996,0.539359,21.281168,14.116144,33.923392,27.738656,46.429703,40.269481,51.919499,68.060846,200.690491,-102.511969,125.30812
75,-24.184456,22.692412,12.712498,38.242771,0.0,-69.563427,-45.902252,-94.581871,-42.700996,-96.677341,-35.557594,-86.736317,-25.238914,-68.679199,0.0,3.83081,15.544678,37.314045,35.290299,56.758447,52.048928,66.26801,64.576173,72.683384,0.0,69.07671,32.373848,96.278629,28.139648,93.408566,23.429031,83.931255,18.949585,72.173424,0.0,1.046422,7.512432,30.18885,26.337415,39.644938,44.114494,47.113835,59.301823,51.922216,44.371176,219.576283,-89.304686,159.744271
76,-5.164604,12.135314,6.9631,18.103801,0.0,-80.178452,-38.118782,-99.087639,-29.402733,-96.890774,-19.950027,-88.001862,-9.942741,-64.442711,0.0,-32.000422,18.86506,46.923212,38.09457,69.329472,54.079158,77.018201,65.882873,84.63073,0.0,67.842865,30.104942,98.01693,22.115879,98.591881,14.952736,90.684471,7.321243,69.678497,0.0,-1.382592,10.911051,38.204115,27.972875,49.486286,45.054212,61.604064,61.096228,68.816759,39.818401,228.723233,-81.729755,174.859707
77,-16.224404,42.50778,25.559063,40.287266,0.0,-70.794811,-36.596689,-69.792967,-34.698286,-65.975876,-31.113338,-61.75415,-26.203251,-52.313232,0.0,1.909477,13.596854,27.560753,10.997378,29.809023,6.755989,18.594901,0.922458,9.268212,0.0,48.539944,29.081383,47.851925,35.594673,31.395321,37.709827,20.004616,35.794945,18.299961,0.0,-7.149401,5.430146,49.257007,30.58288,79.993027,56.086479,105.174475,78.943703,119.387814,24.180679,269.267133,-55.584011,213.183093
78,-16.224403,42.507779,-12.80611,14.452066,0.0,-61.411171,-35.074596,-40.498295,-39.993839,-35.060978,-42.276649,-35.506439,-42.46376,-40.183754,0.0,35.819376,8.328649,8.198293,-16.099814,-9.711426,-40.56718,-39.828398,-64.037956,-66.094306,0.0,71.427269,26.626568,93.055115,21.433754,85.657539,16.97176,72.472458,12.177544,50.259418,0.0,7.468465,22.180686,46.032586,47.877997,65.802289,67.297266,81.580137,78.559862,96.054186,8.062763,310.644185,-68.283634,226.504432
79,-1.962547,4.565023,3.584518,13.518956,0.0,-61.335697,-45.075588,-9.197273,-43.382435,-0.358543,-37.525978,1.069107,-27.84811,-16.843529,0.0,31.595772,0.329438,2.997365,-14.985034,-9.941261,-30.646174,-23.328873,-44.738667,-33.141137,0.0,70.562325,26.415253,92.01519,17.377453,90.565681,9.582481,79.529343,2.931519,57.905159,0.0,10.711967,24.185599,54.494059,43.469511,70.926153,58.027418,84.686615,67.117511,86.851769,6.273193,313.637135,-64.526138,238.451315
80,14.255447,17.350199,0.251884,13.445164,0.0,-71.85339,-58.278065,-79.536324,-61.268005,-34.42337,-55.527706,-25.465279,-44.944782,-33.695068,0.0,37.3188,10.445947,16.486804,-12.249985,-7.321376,-34.961231,-30.196384,-56.238632,-57.276039,0.0,72.938805,28.866234,93.874054,19.775162,91.550903,11.172695,80.147896,3.200912,59.403534,0.0,11.916842,28.156829,56.774873,46.087358,75.528164,58.987575,85.084287,66.764792,88.547621,20.542088,330.074153,-64.260807,250.983299
81,-1.157455,5.718829,1.993046,10.859304,0.0,-70.676079,-56.045494,-67.787247,-58.008099,-1.630554,-51.980553,6.940956,-42.527905,-19.195518,0.0,32.182709,5.670293,11.709607,-15.069879,-7.796113,-37.037835,-24.779823,-56.200717,-46.436186,0.0,73.724384,29.346771,95.03397,20.314693,92.51524,11.442432,79.271221,3.522835,59.718189,0.0,14.353389,28.68072,57.110548,46.35165,71.187172,59.228896,81.191171,67.519012,83.923935,19.251022,335.173965,-62.401371,261.223586
82,-9.366875,-1.056056,2.472439,5.9097,0.0,-58.967628,-46.272011,-3.302307,-45.365639,20.712204,-37.59058,21.957092,-26.293659,-12.643661,0.0,34.253756,1.63336,7.527499,-13.949418,3.827538,-30.043304,-7.770178,-43.628519,-23.408099,0.0,72.241516,30.148373,93.837318,21.773415,93.874855,13.029442,82.280502,4.519844,62.271881,0.0,15.025666,28.243897,55.337755,46.101437,69.712572,58.927801,81.391242,67.429103,84.338836,9.886637,333.812693,-59.926443,266.828069
83,1.561203,-6.742898,1.814232,5.153504,0.0,-60.72607,-41.286678,0.497818,-40.695591,15.1157,-36.079788,15.723038,-29.541664,-25.336761,0.0,37.420811,7.131679,20.451428,-8.400464,13.835303,-25.078386,-2.004048,-41.398279,-25.065542,0.0,70.370865,30.461712,93.726311,22.61673,94.174232,14.292126,81.125908,6.061134,59.613991,0.0,12.45018,29.142798,52.692121,46.671517,68.718267,58.789727,80.250835,66.610416,82.927222,11.454134,326.96272,-58.105917,271.874498
84,-4.906082,-7.593633,1.809769,2.7587,0.0,-41.285419,-41.451416,13.381004,-40.834923,31.911964,-35.304108,34.153175,-27.949677,-10.176544,0.0,33.89616,10.92161,32.060629,5.138499,24.098469,-1.93921,18.531854,-8.201443,17.567128,0.0,69.119568,30.082626,93.303566,22.029648,93.64666,13.470726,79.830551,5.07637,57.255135,0.0,12.644014,30.40263,52.060846,48.084428,67.326289,59.722405,78.593146,66.492411,81.362466,6.602612,319.3553,-56.241589,274.619412
85,12.627068,-27.408229,1.424961,1.708016,0.0,-47.552433,-40.485592,4.804459,-43.899307,5.391426,-44.445305,-2.805176,-43.039627,-69.400578,0.0,27.27102,18.487332,38.185714,31.807328,47.068696,40.516298,51.529113,46.849914,65.038807,0.0,69.613323,31.037121,94.16296,22.704563,93.120403,13.733368,79.612713,5.352745,58.835964,0.0,12.609249,31.971708,53.140676,49.273865,67.061318,60.48317,77.372278,66.63487,80.31697,19.308786,292.00524,-54.73752,276.385597
86,-8.174515,10.042161,1.988869,1.253348,0.0,-17.078705,-30.06918,22.324333,-37.23444,25.333328,-38.850517,13.99189,-37.227459,-57.726917,0.0,-8.305739,10.91772,30.389354,26.217434,41.398588,37.772851,49.651222,47.325207,61.698356,0.0,70.022793,30.635433,94.338169,22.291889,92.580242,13.379116,78.933392,5.010567,59.068623,0.0,12.63611,31.540937,52.266351,48.898175,65.855271,60.608647,76.633249,67.57891,81.885307,11.292772,302.142574,-52.590151,277.734118
87,-35.085239,-20.105872,0.610485,0.63924,0.0,8.364258,6.644039,53.015614,-0.398827,40.522671,-8.877296,19.98888,-15.97126,-26.405296,0.0,17.875324,22.535195,40.128629,42.291499,52.956721,55.423774,60.280073,64.80539,71.956644,0.0,69.827385,30.220871,93.156738,21.846313,92.978554,12.709007,79.191971,4.132061,58.885231,0.0,14.406556,30.551572,52.666741,48.224355,66.220401,60.375971,76.404835,67.771077,81.763782,-23.598204,282.10526,-51.785402,278.441917
88,7.594814,1.125093,0.206051,-0.48647,0.0,-11.864033,-3.962173,42.730637,-7.809963,36.52565,-13.232002,19.329071,-18.180656,-38.544674,0.0,23.778293,22.902487,40.093122,41.495845,53.722241,53.956707,60.611858,62.852286,73.133112,0.0,69.379635,30.337715,92.330074,21.319084,90.341091,11.680527,76.91637,2.727699,57.615566,0.0,15.853369,31.305792,53.004084,49.038102,65.724792,60.782104,76.091328,67.642883,81.317574,-15.821571,283.282547,-51.397533,278.007641
89,-12.861214,-0.288004,0.758171,-0.263921,0.0,-1.523266,11.478882,53.742371,6.694393,42.551308,-0.656376,23.40065,-8.049603,-16.812744,0.0,37.010603,22.480608,41.164986,40.18865,51.817179,52.600606,56.865152,61.737877,69.273526,0.0,69.246655,29.833603,91.448307,20.99247,90.12228,11.637955,76.886501,2.814274,57.502155,0.0,16.951106,31.378719,51.893255,49.182042,64.215797,61.041023,75.433748,67.998195,80.99184,-28.545828,283.078971,-50.502405,277.828148
90,-4.556751,-1.021969,0.786266,0.183522,0.0,5.238647,17.326584,62.162304,11.165943,52.060833,2.514782,33.208408,-6.074066,-14.21402,0.0,32.761496,21.197928,40.722729,39.995063,52.164093,53.400707,58.119426,63.147947,70.536322,0.0,69.212837,29.18066,91.022873,20.39978,89.689751,11.141853,76.731262,2.416534,57.22126,0.0,18.389149,31.252439,51.818784,49.065828,64.264518,61.074986,75.547307,68.113668,81.065817,-33.003073,282.100536,-49.616632,278.055205
91,-1.911335,2.539239,-0.537415,0.466895,0.0,2.94445,15.898132,64.909172,11.671085,59.026337,4.803829,41.301842,-2.432785,-5.483551,0.0,37.734257,19.256434,40.300912,36.760947,53.078678,49.476962,57.662782,58.863704,68.080817,0.0,68.974457,29.077377,91.50856,20.265942,90.132751,11.083832,77.325325,2.500877,57.57534,0.0,18.101516,30.898424,51.238392,48.992715,64.086677,61.177553,75.407627,68.22167,80.939723,-34.80792,284.64686,-50.04756,278.529185
92,6.914349,6.74543,-0.073071,-0.030752,0.0,-19.91684,4.24427,56.085148,4.651909,60.700321,1.084328,47.509975,-4.650421,-11.54417,0.0,44.790661,18.08861,40.083613,29.087717,47.777097,36.98263,51.205356,42.882574,61.312725,0.0,67.6684,28.644905,91.393375,19.943104,89.83057,10.820217,76.984806,2.31966,56.988316,0.0,18.033467,30.353786,51.245926,48.178104,64.738391,60.256793,75.773004,67.261945,81.063286,-27.772436,291.419815,-49.999495,278.525959
93,1.266918,-5.38797,-0.225563,0.181484,0.0,-9.447212,7.36021,58.81691,3.185577,57.309608,-3.546467,40.14164,-10.761681,-15.019398,0.0,39.720273,19.0986,40.288624,34.912448,52.120065,46.348624,57.436713,54.952186,67.449913,0.0,68.037815,28.236294,91.217709,19.998322,90.556583,11.406441,78.020382,3.479576,58.419399,0.0,17.464437,30.541507,50.490224,48.287834,64.203262,60.337686,75.201504,67.26775,80.785285,-26.413107,286.08194,-50.132647,278.757538
94,-7.190666,-1.014312,-0.248909,0.144064,0.0,8.023109,17.299118,63.809967,13.149033,51.774673,5.488644,32.836533,-2.399197,-15.646935,0.0,27.084101,19.927661,37.726846,38.325517,49.030259,50.834853,53.662034,59.871779,67.096516,0.0,68.050404,28.212318,91.295528,19.701405,90.358601,11.056366,77.977924,3.252239,58.647366,0.0,17.206876,30.390157,50.157513,48.470183,63.245204,60.604386,74.456239,67.399093,79.661922,-33.407478,285.040504,-50.185261,278.874478
95,-0.029011,0.809424,0.349102,-0.096639,0.0,9.932213,17.885914,64.208393,12.723541,53.097553,4.625301,33.225574,-3.554535,-15.580502,0.0,26.399042,18.567423,36.706853,37.038268,48.762263,49.568167,53.786708,58.466772,65.998346,0.0,67.527351,27.074604,90.360031,18.729286,89.926414,10.408001,78.357582,2.916813,58.786469,0.0,17.526866,30.049726,49.585519,48.379657,62.976652,60.738014,74.540466,67.671412,79.978454,-33.291435,285.804928,-49.691105,278.732838
96,0.425034,-0.655172,0.230026,0.52494,0.0,2.177124,12.722397,67.110271,8.734303,66.583157,1.786594,50.143948,-5.864925,-8.320827,0.0,31.881305,18.13659,40.766572,34.59221,52.42468,46.277056,58.520433,55.276128,68.724936,0.0,66.412582,27.075806,89.967842,18.88195,89.680939,10.523815,78.337212,3.002129,58.981361,0.0,17.236825,29.955804,49.17914,48.08165,63.086135,60.3304,74.551149,67.312457,79.08542,-32.660007,285.040936,-49.254684,279.148959
97,-9.358006,-3.496679,-0.260296,-0.583603,0.0,38.177719,22.878685,77.611885,15.984077,68.839989,6.668301,52.991295,-1.610241,3.630867,0.0,17.473946,21.571333,39.727992,42.007941,54.531357,55.133732,58.812451,63.501468,68.633854,0.0,66.353016,26.165886,91.22961,17.386551,90.026264,8.720112,78.497486,1.203976,58.505802,0.0,18.169441,29.840393,49.879389,48.117341,64.196716,60.3015,75.191871,66.90546,79.914543,-41.947346,281.488265,-49.444313,278.509363
98,2.921219,-0.274975,-0.429153,0.043658,0.0,43.170319,20.510273,77.065887,12.744541,70.759163,3.052425,56.705475,-5.336666,17.128143,0.0,13.887606,20.85509,39.085788,40.886121,55.997929,54.133746,61.988892,62.459121,68.419456,0.0,66.858845,26.167603,91.135311,17.170258,89.567127,8.43092,78.465214,0.830841,58.194294,0.0,17.895022,28.921299,49.541059,47.537999,63.966881,60.187756,75.333156,67.301465,79.953445,-38.872404,281.054654,-49.719744,278.394384
99,-0.266075,-0.65122,0.212173,0.038471,0.0,40.543327,19.455757,77.296371,12.394066,73.773079,3.778381,61.382217,-3.932705,26.288795,0.0,15.955195,21.329457,39.638392,41.038768,56.425489,54.28207,62.719708,62.546375,68.251804,0.0,65.986233,26.061001,90.976124,17.341805,89.815693,8.704205,78.487988,1.114998,58.188114,0.0,17.906755,28.830403,49.207545,47.239744,63.903896,59.836026,75.310802,67.061565,79.775048,-38.96739,280.306161,-49.336481,278.335582
100,0.902882,-0.042484,0.477848,0.052179,0.0,38.206959,19.144707,76.463299,11.053047,71.44495,1.815434,56.568089,-6.315079,15.246792,0.0,16.503724,20.93234,39.929484,41.179188,56.536269,54.625896,62.442202,63.125223,69.300635,0.0,65.842323,26.190777,90.149345,17.750015,89.527016,9.277897,78.103638,1.737671,58.384895,0.0,17.775165,28.965204,49.361427,47.659091,63.999732,60.429941,75.076954,67.769595,79.793697,-37.98068,280.158547,-48.774805,278.282631
101,3.004589,2.349727,0.072899,0.179941,0.0,21.038647,17.117386,74.529762,9.711456,71.899681,0.744953,56.587029,-7.680645,5.297985,0.0,22.420525,21.437026,39.714036,40.074103,54.867649,52.485998,60.960315,61.063809,72.194877,0.0,65.994644,26.547089,90.076904,18.001671,88.920479,9.378433,77.567596,1.749859,58.012505,0.0,17.99654,29.092039,49.101149,47.653225,63.813246,60.199118,74.978462,67.294796,79.799193,-34.928598,282.383245,-48.654413,278.337543
102,29.694099,1.411861,0.517731,0.282446,0.0,-18.477459,-20.395088,39.961624,-27.217712,41.877365,-30.405807,28.29586,-31.144524,-36.492805,0.0,31.190257,20.416847,41.524806,38.149713,52.634384,50.423472,60.245307,59.42662,73.555609,0.0,65.684052,26.497421,89.680824,17.803173,88.520393,9.014339,77.12677,1.21645,57.574997,0.0,17.777758,28.993733,49.422189,47.379115,63.635837,59.882894,74.61821,67.006484,80.014517,-5.089788,283.65467,-47.991972,278.479553
103,-21.58144,-0.718034,-0.338058,0.123069,0.0,8.871689,3.549671,65.057659,-4.433155,67.61095,-11.577015,51.90897,-17.097588,7.953472,0.0,27.56242,16.789752,41.666152,35.57009,54.096572,49.584655,62.509695,60.160709,70.630677,0.0,65.869331,27.062016,89.908447,18.362904,88.919106,9.397774,77.373848,1.340218,57.595711,0.0,17.572376,28.860167,49.502465,47.106796,63.553277,59.504364,74.650938,66.596399,79.919236,-26.531925,282.821148,-48.190727,278.487133
104,0.459023,-0.324745,0.11404,0.303009,0.0,17.780113,3.83131,66.711102,-5.164833,67.689114,-12.939892,51.392956,-19.267216,12.637482,0.0,20.493603,16.259995,39.165384,36.925203,53.311909,52.393928,63.214391,63.643803,71.006737,0.0,65.096798,27.624893,90.067921,19.246674,88.953266,10.174198,77.637234,1.694584,57.814007,0.0,17.271528,28.197893,48.873475,46.367582,62.95967,59.020179,74.32082,66.693285,80.317279,-25.900154,282.415293,-47.903938,278.709033
105,-6.719055,0.072927,0.133553,-0.013956,0.0,14.171677,13.684387,74.270496,5.20998,74.219456,-3.611355,58.758373,-11.700611,19.562988,0.0,26.164082,18.386,41.059269,36.65912,53.816781,50.167331,61.867491,59.862208,69.093462,0.0,64.925251,27.237282,90.303326,19.024715,89.561863,10.02079,77.892208,1.585236,57.684116,0.0,16.839399,28.46836,48.638268,46.567468,63.106636,59.032221,74.36244,66.501118,80.768119,-32.421427,282.476071,-47.572603,278.682928
106,-2.048836,-2.388568,0.082397,0.393844,0.0,40.475292,16.196766,77.521305,6.68993,74.354382,-3.636532,58.457623,-12.639027,25.381565,0.0,13.201374,17.183349,41.339554,38.286984,57.786097,54.089162,66.440047,65.21603,70.716819,0.0,64.818707,27.122784,89.487705,19.133492,89.564724,10.247498,78.10564,1.714211,57.130451,0.0,16.584061,28.521527,48.457401,46.575495,62.590835,58.962072,74.007004,66.466229,81.567169,-34.261866,280.027945,-47.281809,279.017214
107,-2.719402,-0.143878,0.220299,-0.131281,0.0,36.920357,16.428051,76.834717,8.037586,77.805977,-0.337143,66.802597,-8.47332,45.151291,0.0,15.717765,17.283076,40.935892,37.725797,58.017044,53.368905,65.506875,64.729499,70.831489,0.0,64.535007,27.643719,89.487133,19.411469,88.950176,10.134087,77.145824,1.234589,56.843777,0.0,17.439304,29.031833,49.327958,46.776678,63.033153,59.021044,74.472849,66.510689,81.315845,-36.86594,279.872535,-46.946182,278.874401
108,2.584591,3.416836,0.451927,0.102197,0.0,16.881638,11.18042,71.41428,4.88966,77.421856,-1.538029,68.870716,-8.242779,47.419453,0.0,32.593226,17.227068,42.881215,32.357092,56.555412,44.05719,60.91604,53.501668,64.859607,0.0,64.333134,27.186298,89.211102,19.234943,88.48772,10.239201,76.748829,1.584091,56.891499,0.0,17.522791,28.909505,49.414285,46.589821,63.209512,58.994676,74.408814,66.655494,80.196989,-34.222727,283.272821,-46.435633,278.960049
109,2.342663,-1.311146,0.663357,0.321781,0.0,26.547546,10.870342,72.102013,3.276844,74.389458,-4.668388,62.367554,-12.180977,33.297043,0.0,20.613523,16.950735,41.063283,35.397683,56.882565,49.334504,63.906057,60.064132,68.75791,0.0,62.673225,26.725731,89.676018,18.44101,88.397713,9.068298,75.907059,0.180531,55.010948,0.0,17.428189,27.795404,49.422745,45.15715,63.483561,57.384658,74.106916,64.972301,79.38176,-31.806564,281.963018,-45.698776,279.283173
110,0.716801,0.044337,-0.354137,-0.289486,0.0,23.827457,9.897308,71.774082,2.657032,73.394794,-5.100346,62.106113,-12.302914,32.782803,0.0,20.987792,17.243556,41.670351,35.22861,55.995335,48.700883,62.919656,59.005483,67.924589,0.0,62.966595,26.991692,90.128002,18.866158,88.979816,9.612293,76.582661,0.801544,55.620632,0.0,17.371132,27.839247,49.536922,45.111393,63.393714,57.397008,74.318906,65.082155,79.489144,-31.002846,282.009253,-45.965996,278.995586
111,2.0755,7.409432,0.365696,0.289301,0.0,0.919647,5.89159,65.061207,1.767883,72.617054,-3.433228,62.482166,-8.565502,28.954296,0.0,32.988923,16.797471,41.912722,27.708521,50.056057,35.016189,53.305179,40.872165,58.7641,0.0,62.53006,26.420574,90.083199,18.427277,88.671227,9.34021,76.618423,0.664272,55.65834,0.0,17.164515,27.447132,48.785048,44.67068,62.44918,57.122033,73.710294,64.934881,78.965748,-28.79777,289.426528,-45.470724,279.292729
112,1.032372,-2.977852,-0.200558,0.091638,0.0,1.414719,5.687027,65.287685,0.526772,71.029301,-5.132504,60.135098,-10.365486,27.710323,0.0,31.379892,16.088205,41.331959,29.677495,52.804877,39.75825,58.142274,47.900103,63.861782,0.0,62.822285,26.457767,90.289135,18.466587,89.135342,9.467697,77.166309,0.970058,56.211033,0.0,16.611231,27.246567,48.362737,44.658639,62.180812,57.221205,73.530415,65.118403,78.882385,-27.635508,286.463094,-45.541391,279.398785
113,0.247021,-4.431951,0.397854,0.473193,0.0,19.661694,9.017429,69.665222,-0.120907,70.807114,-9.545574,56.845093,-17.539101,21.025257,0.0,19.023696,18.578229,42.393943,36.05588,56.582705,48.918121,64.110574,58.505181,69.180777,0.0,62.738342,26.49765,90.323067,18.55917,89.107819,9.584599,77.156868,1.044559,56.453247,0.0,16.30779,26.979928,48.185699,44.509203,61.747139,57.250104,72.683693,65.419683,78.30366,-27.320795,282.030619,-45.075846,279.871454
114,-0.178642,-1.509118,-0.411587,-0.262995,0.0,29.52816,10.346432,72.180748,0.715714,70.369949,-9.436913,54.560852,-17.819023,12.261314,0.0,13.096274,18.669558,42.153795,38.339719,57.883601,52.744794,66.885761,63.319675,72.812875,0.0,63.040752,26.269855,90.624905,18.460808,89.672413,9.733086,77.714367,1.662884,57.113628,0.0,16.69657,27.21353,48.870943,44.714955,62.462765,57.388672,73.212215,65.367319,78.748263,-27.454004,280.524758,-45.441999,279.611716
115,3.522034,1.041976,0.884914,0.247002,0.0,30.796165,7.563343,68.747292,-2.261353,66.447601,-12.568989,48.485985,-20.803299,-3.799152,0.0,8.295612,18.221991,40.748603,38.404187,56.359601,53.086397,65.920479,63.760203,72.850666,0.0,62.215462,26.221619,89.682083,18.204346,88.837852,9.33054,77.098961,1.027279,56.552238,0.0,17.085042,27.306217,48.549471,44.989065,62.301102,57.686741,73.275447,65.75153,78.87658,-23.900614,281.567661,-44.525728,279.859644
116,0.2742,-0.587617,0.027981,-0.220819,0.0,33.213615,7.462234,68.658485,-1.575394,66.614227,-11.143856,49.135895,-18.663311,-5.151157,0.0,7.852059,19.478426,41.107435,39.815925,56.65835,54.227174,66.180819,64.325651,74.67749,0.0,62.753735,26.579704,89.952106,18.451195,88.945484,9.495506,77.142048,1.152763,56.491184,0.0,17.660865,27.106578,48.823087,44.687723,62.704209,57.342915,73.528377,65.345644,79.200276,-23.585558,280.964899,-44.456892,279.62368
117,-3.901691,-0.4325,0.03828,0.015685,0.0,37.088413,11.640186,73.111095,1.711178,71.244335,-8.706665,56.728191,-17.693882,21.19194,0.0,9.697099,18.61991,40.926012,38.463652,56.894051,53.381317,66.434119,64.049503,71.604728,0.0,62.651939,25.989647,89.76162,18.105183,89.162865,9.354916,77.374077,1.202431,56.396141,0.0,17.056514,26.773126,48.784246,44.209466,62.582252,56.879231,73.441926,65.005276,79.051087,-27.458696,280.504457,-44.390059,279.611423
118,3.705025,0.20742,0.305042,0.107137,0.0,28.951435,8.248272,68.521557,-0.79565,67.165318,-10.382595,50.683537,-18.189411,4.689789,0.0,13.515992,19.364065,42.826628,38.881579,57.566142,52.974814,66.365329,62.990607,72.941192,0.0,62.482738,25.536861,89.691868,17.423344,88.766499,8.611794,77.136669,0.520763,56.349277,0.0,17.024897,26.700446,48.331183,44.305612,62.221753,56.910291,73.412595,64.828732,78.753017,-23.707867,280.673746,-44.039211,279.680429
119,1.586437,0.519753,-0.035992,-0.122513,0.0,26.880913,8.012238,67.089043,-0.354595,65.700073,-9.721985,48.346138,-17.723522,-6.264095,0.0,13.138141,19.941925,41.821949,39.730524,56.532317,53.540262,65.659151,63.164373,74.851009,0.0,62.391357,25.962238,89.811401,17.791271,88.904915,8.793812,77.235603,0.495129,56.262474,0.0,17.378974,27.128932,48.37237,44.711374,62.550203,57.301727,73.876958,65.259379,79.163719,-22.098398,281.131456,-44.052172,279.495873
120,-9.427071,2.06444,-0.315685,0.283187,0.0,22.616959,12.69619,73.871384,5.919857,74.998398,-1.429939,63.903122,-8.630791,33.830109,0.0,19.865169,18.443181,39.461539,36.864008,53.559652,50.208642,60.729554,59.647872,65.920541,0.0,62.979412,26.039028,90.524426,18.155022,89.724026,9.620762,78.634014,1.797352,57.85738,0.0,17.548047,27.346479,48.364096,44.918732,61.942024,57.559659,72.704194,65.678047,78.804641,-31.469507,283.154384,-44.311895,279.737548
