takenoko1/special-research/HandMotion_SimilarSearch_自分用/NewProject/handData/test_key/d4_feature_d2/59.csv
frame,vel_0x_L,vel_0y_L,vel_0x_R,vel_0y_R,posFromWrist_0x_L,posFromWrist_1x_L,posFromWrist_2x_L,posFromWrist_3x_L,posFromWrist_4x_L,posFromWrist_5x_L,posFromWrist_6x_L,posFromWrist_7x_L,posFromWrist_8x_L,posFromWrist_9x_L,posFromWrist_0y_L,posFromWrist_1y_L,posFromWrist_2y_L,posFromWrist_3y_L,posFromWrist_4y_L,posFromWrist_5y_L,posFromWrist_6y_L,posFromWrist_7y_L,posFromWrist_8y_L,posFromWrist_9y_L,posFromWrist_0x_R,posFromWrist_1x_R,posFromWrist_2x_R,posFromWrist_3x_R,posFromWrist_4x_R,posFromWrist_5x_R,posFromWrist_6x_R,posFromWrist_7x_R,posFromWrist_8x_R,posFromWrist_9x_R,posFromWrist_0y_R,posFromWrist_1y_R,posFromWrist_2y_R,posFromWrist_3y_R,posFromWrist_4y_R,posFromWrist_5y_R,posFromWrist_6y_R,posFromWrist_7y_R,posFromWrist_8y_R,posFromWrist_9y_R,posFromBody_0x_L,posFromBody_0y_L,posFromBody_0x_R,posFromBody_0y_R
2,-6.07996,-0.277321,-0.398254,-0.872163,0.0,28.52829,20.939026,79.529514,14.357185,80.497684,6.580238,69.995899,-0.77219,38.05933,0.0,25.286238,20.585858,36.364694,38.604135,52.426903,51.403636,59.129663,60.229005,65.409618,0.0,63.139915,25.705776,90.205421,17.922192,89.597397,9.645996,78.019066,2.180328,57.384453,0.0,17.653146,27.325854,47.083269,45.05767,62.444425,57.800423,73.767351,65.686754,80.076885,-36.433382,284.763754,-42.619314,280.531998
3,1.639824,-0.886736,-0.248451,0.024947,0.0,25.979462,18.510246,77.652569,11.57032,79.608822,3.528442,69.722271,-4.033298,40.777531,0.0,25.873731,20.965129,37.636814,39.250414,53.649252,52.183606,60.650081,61.253198,65.269815,0.0,63.933334,26.051731,90.636177,18.246632,90.409813,9.759865,78.92189,1.882496,57.710037,0.0,17.888106,27.434782,47.385969,45.105033,62.211194,57.839697,73.492685,65.81643,80.130175,-35.084066,283.742834,-43.158274,280.422762
4,-1.817951,0.082622,-0.171089,0.223536,0.0,28.707733,21.740341,78.822098,14.977455,79.600983,6.607933,68.900986,-1.134338,37.157021,0.0,24.380483,22.223418,37.417786,40.271766,53.370325,52.835752,60.211715,61.36793,65.134088,0.0,63.296471,25.709038,90.844688,17.999496,90.465889,9.585743,79.114494,1.779842,57.95414,0.0,17.446653,27.347652,46.984592,44.774174,61.944061,57.442209,73.540727,65.486991,80.234904,-37.09651,283.692585,-43.523855,280.513427
5,-1.244202,-1.308862,0.360832,-0.100777,0.0,32.345695,22.249947,78.615532,16.435547,77.675858,9.187889,66.143761,2.250023,36.376762,0.0,20.280935,22.087937,35.746325,42.349174,52.421592,56.480447,59.468611,65.783825,65.344348,0.0,63.328514,25.896034,90.644302,18.074856,89.873199,9.53722,78.434372,1.504612,57.238998,0.0,17.275913,27.499249,47.522006,45.115839,62.067006,57.781034,73.653113,65.705588,80.261209,-38.408775,282.256286,-43.231087,280.285213
6,3.533936,-1.864924,0.313511,-0.062183,0.0,36.87149,18.755035,78.055,11.398201,77.795219,3.402672,66.967964,-3.88258,38.178749,0.0,14.716543,22.862102,37.459158,43.774064,54.623612,58.290042,63.243722,67.629854,68.199563,0.0,63.214245,25.410519,90.42738,17.701492,89.724026,9.447784,78.253155,1.751175,57.246723,0.0,17.416395,27.70494,48.275422,45.274229,62.278996,57.912253,73.515841,65.784258,80.108871,-35.012283,280.367032,-43.055019,280.1987
7,0.261497,1.214631,-0.253258,-0.003643,0.0,26.96291,18.635674,78.849449,11.468754,79.060478,3.188438,66.859245,-4.268131,27.799187,0.0,22.897362,22.704453,38.159285,42.282051,54.524441,55.789027,62.473015,64.907772,69.40981,0.0,63.330288,25.793037,90.339718,18.379498,89.994678,10.153141,78.716526,2.311535,57.830029,0.0,17.509329,27.743843,48.269186,45.232856,62.251393,57.896198,73.645085,65.968027,80.145489,-34.810524,281.567985,-43.368015,280.181379
8,0.376282,-1.084337,0.646076,0.066073,0.0,32.325096,17.987595,80.646172,9.641876,80.20546,0.424404,66.342773,-7.830276,24.87545,0.0,21.171314,21.613262,39.759053,41.540058,55.689918,55.671207,64.695536,65.39875,72.663748,0.0,63.13488,25.568161,90.066948,18.002644,89.457664,9.706764,78.033142,1.831169,57.230759,0.0,17.463819,27.893834,48.2175,45.505175,62.063363,58.168765,73.319722,66.079795,80.056754,-34.555178,280.430156,-42.842875,280.193961
9,1.598225,-0.543033,0.056076,0.031863,0.0,34.24387,16.332722,79.967251,7.416744,78.678303,-2.179813,63.653584,-10.646152,19.093895,0.0,18.219521,21.515079,40.096704,41.660842,55.832747,55.993915,66.324018,65.863607,75.309876,0.0,63.305397,26.069641,89.866333,18.630753,89.140434,10.334129,77.633972,2.355022,56.897163,0.0,17.411023,27.965341,47.516695,45.786325,62.20823,58.605834,73.646135,66.76152,80.627389,-32.996235,279.872998,-42.82608,280.211699
10,1.223145,-0.141285,0.30653,0.303565,0.0,35.431767,15.244789,77.931919,6.517181,76.205807,-3.064098,61.887074,-11.571178,19.315453,0.0,15.701401,22.617694,39.692547,43.030157,56.297357,57.391574,66.059109,67.170925,73.883627,0.0,63.216534,25.481129,89.865475,17.850609,88.936329,9.64571,77.3382,1.972389,57.039585,0.0,17.198786,27.963674,47.436975,45.857585,62.089175,58.5108,73.240064,66.436774,80.14623,-31.811543,279.721231,-42.558002,280.504782
11,0.14677,0.351113,-0.038681,-0.307394,0.0,30.744667,16.160259,77.284355,8.332672,75.245819,-1.060925,60.876274,-9.434738,13.415222,0.0,12.938132,23.456511,38.588079,44.240342,56.108894,58.254042,65.269506,67.595582,74.263207,0.0,63.419895,26.101971,90.052471,18.134708,88.649769,9.539852,77.160015,1.565266,56.483402,0.0,17.972457,27.994364,48.059296,45.964598,62.540138,58.691667,73.94581,66.598005,80.779481,-31.694841,280.054529,-42.626753,280.179573
12,-0.818653,1.168071,-0.374336,0.265342,0.0,29.27393,17.487259,77.617207,9.576874,74.865246,0.106544,60.433331,-8.472462,16.389484,0.0,12.653833,23.054455,37.157137,43.249865,55.51819,56.979637,64.297493,66.181622,72.463059,0.0,63.464184,25.736275,90.260868,18.026161,89.216137,9.874821,77.741032,2.373505,57.609386,0.0,17.607265,27.796824,47.503974,45.817756,62.350502,58.663818,73.515965,66.75059,80.057124,-32.555866,281.199103,-43.043461,280.421419
13,5.210609,3.09456,-0.76252,-0.256326,0.0,20.295582,15.798798,72.465878,7.457771,69.85445,-2.191257,50.567837,-11.162796,-5.105267,0.0,11.698739,21.496121,33.295946,41.765385,51.582836,55.573457,61.929488,65.058876,74.604192,0.0,63.032398,25.805683,90.984707,17.985134,89.982777,9.706936,78.710461,2.09753,58.094044,0.0,17.591828,27.559394,47.549917,45.419836,62.345315,58.229156,73.718815,66.231207,80.257443,-27.368002,284.295825,-43.828726,280.167254
14,1.961575,0.102382,0.533409,0.464672,0.0,13.09124,12.097034,68.857613,4.26281,68.757935,-4.812412,49.580841,-13.134556,-8.442993,0.0,18.186793,20.425554,36.604347,39.285983,52.977901,52.442525,62.307771,62.020076,74.508973,0.0,62.989597,24.885349,90.444088,17.217865,89.472828,9.316578,78.473682,2.18565,58.887234,0.0,17.049103,27.127759,46.977552,45.197844,61.045655,58.24867,72.365617,66.51353,78.718314,-25.42305,284.399396,-43.311939,280.633114
15,2.536411,-1.47991,-0.437565,-0.46424,0.0,23.658772,8.146763,66.977749,0.642014,64.737568,-8.000736,43.765354,-15.464287,-21.245098,0.0,10.852141,21.58745,37.430259,42.092539,54.14906,55.892336,63.366297,65.443025,76.977878,0.0,62.904282,25.260887,91.035233,17.427921,90.190659,9.366989,79.084625,2.125797,58.860855,0.0,17.276098,27.206861,47.539481,45.314428,61.663591,58.330242,73.121071,66.440665,79.649139,-22.904091,282.913218,-43.766956,280.162607
16,-0.544682,0.728037,0.628395,0.393844,0.0,21.613655,10.902729,66.356735,3.468704,63.580284,-5.420551,43.245392,-13.581734,-20.875797,0.0,9.481158,22.129001,36.299424,42.922403,53.232004,56.720841,61.846063,66.25566,75.584233,0.0,62.295456,24.950237,90.624962,17.116013,89.421387,9.016857,78.18924,1.655731,57.99099,0.0,17.120981,26.750711,47.221899,44.830923,61.48223,57.896322,72.927731,66.083871,79.056397,-23.48897,283.642181,-43.178759,280.557378
17,-3.377151,-0.890132,-0.179043,-0.466586,0.0,26.322098,12.89629,70.652275,6.003571,66.977921,-2.844429,47.474556,-10.778904,-12.354355,0.0,10.378515,21.514585,36.920818,42.170406,54.7502,55.812184,62.858647,65.275867,75.497165,0.0,62.087231,25.12207,90.650539,17.30175,89.207439,9.063606,77.807064,1.490479,57.379589,0.0,17.310061,26.892304,47.225171,44.82166,61.453825,57.755407,72.864683,65.832855,79.146985,-26.87974,282.760185,-43.37142,280.098927
18,-2.030869,-0.709636,-0.016537,0.403415,0.0,26.037712,14.064903,74.000359,7.562485,71.658669,-0.788784,53.905106,-8.543758,-2.050724,0.0,13.768983,21.901574,36.793427,42.355163,54.723956,55.906909,63.782742,65.087095,75.134752,0.0,61.988754,25.200119,90.71537,17.293854,89.766655,8.974628,77.950058,1.338558,57.508392,0.0,17.384964,26.660864,47.196087,44.557801,61.468336,57.526375,72.579088,65.821802,78.717264,-28.911095,282.056955,-43.388443,280.508749
19,5.226345,0.456644,0.223618,-0.090279,0.0,20.484066,8.570023,67.599049,1.402531,66.084881,-6.354103,47.853756,-13.217297,-16.478577,0.0,15.261676,20.4455,38.665885,41.124972,54.551549,55.339978,63.554327,64.968535,76.38458,0.0,61.858177,25.099182,90.484657,17.218552,89.123154,8.907509,77.471123,1.241226,57.669983,0.0,17.516307,26.569103,46.73759,44.463199,60.898936,57.494203,72.314487,65.857741,78.490949,-23.689957,282.508212,-43.170033,280.413082
20,-1.738071,-0.495177,-0.00349,-0.006113,0.0,27.011147,11.004868,71.882401,2.627563,69.076309,-6.044197,51.601982,-13.477135,1.120663,0.0,13.083554,20.201956,39.073252,40.845613,55.435938,55.189184,64.406668,64.841761,73.717333,0.0,61.708202,24.736633,90.75491,16.812172,89.23708,8.66993,77.713337,1.386395,57.96484,0.0,17.868964,27.007098,46.763834,44.786833,60.925982,57.675935,72.613359,65.90782,78.70794,-25.434237,282.016077,-43.179731,280.41001
21,0.847149,0.304183,-0.618153,0.048104,0.0,25.076809,11.882973,70.926304,3.285198,67.997761,-5.841007,50.559597,-13.890209,2.016449,0.0,13.977206,21.062201,38.557884,40.889888,55.24902,54.615584,64.11076,64.041352,73.25933,0.0,61.884727,25.272102,91.682968,17.339458,89.905243,9.146347,78.478088,1.815491,58.576584,0.0,17.743487,27.156534,47.037203,44.98499,60.591851,58.014944,72.357033,66.336183,78.702938,-24.597387,282.321772,-43.808184,280.459627
22,4.891777,0.544577,0.190544,-0.133196,0.0,12.52882,6.176605,64.202099,-1.756325,63.067417,-9.918365,46.79575,-17.204189,-4.622326,0.0,18.481404,21.562812,39.479138,40.23558,54.437681,53.255902,63.105957,62.208415,72.401061,0.0,61.643486,24.901142,91.325569,17.113266,89.694786,9.009418,78.129044,1.696815,58.078537,0.0,18.057179,26.794183,46.817063,44.610721,60.931849,57.624805,72.416128,65.975807,78.697813,-19.732418,282.874268,-43.644447,280.334351
23,0.959702,0.439354,0.25938,-0.016981,0.0,7.185459,4.175491,61.863842,-3.406105,61.649952,-11.424351,45.291309,-18.575134,-13.395195,0.0,20.992855,22.595279,41.304665,39.829324,54.970958,51.719428,63.209698,60.120201,73.56907,0.0,61.263828,25.371151,91.172276,17.474842,89.453602,9.074764,77.443943,1.372662,57.243176,0.0,18.083979,27.177406,46.676704,44.844569,61.02645,57.746454,72.48251,66.108756,78.732578,-18.799725,283.306367,-43.412075,280.310113
24,16.721706,-2.212147,-0.654774,-0.249657,0.0,-5.554161,-14.807053,42.313042,-23.542843,44.045677,-29.978371,26.937561,-34.311047,-44.898491,0.0,21.40541,24.895358,45.204142,42.165343,57.387004,53.932748,65.851751,61.90627,79.353293,0.0,62.412529,25.705318,91.629295,17.820339,90.107918,9.530182,78.351059,2.023258,57.925186,0.0,18.073234,27.386184,46.799032,45.142824,61.124263,57.922319,72.749025,65.957591,78.894858,-2.151775,281.110368,-44.140606,280.076604
25,-3.466301,7.763632,-0.949001,-0.216867,0.0,-19.54731,-13.60096,42.137032,-19.76984,48.75412,-25.010147,34.567337,-29.148273,-24.044437,0.0,36.546364,16.642971,41.249584,29.55208,50.27805,38.673357,57.453324,45.339808,66.912561,0.0,64.039364,25.504074,91.493855,17.707615,90.329418,9.548664,78.544865,2.157154,57.746143,0.0,17.518654,27.535064,47.204547,45.15221,61.798207,57.770166,72.790583,65.692558,78.206465,-5.720844,288.90628,-45.192375,279.892017
26,-8.287354,1.597545,-0.957756,-1.200428,0.0,-10.336075,-2.566452,50.405617,-7.041492,57.477837,-12.720337,43.650284,-18.898945,-13.869038,0.0,39.292034,16.200962,39.577445,27.625405,47.612408,35.390026,54.287936,41.341963,64.405,0.0,65.049648,25.395126,92.07819,17.489548,91.694355,9.283905,79.623241,2.004604,57.669582,0.0,17.150868,26.585343,48.16211,44.354703,62.970724,57.194096,73.19863,65.304395,78.450811,-14.131536,290.52093,-46.27347,278.708694
27,-8.153858,7.73745,-0.664787,-0.91193,0.0,-10.428028,2.172775,53.398647,-0.107403,63.264141,-4.483337,51.876583,-10.023136,6.559353,0.0,42.729186,16.113894,37.851582,20.573076,41.573094,22.135114,42.450753,22.952813,45.523515,0.0,65.342731,23.904305,92.235317,15.913696,91.418896,8.390236,79.456615,1.924095,58.304157,0.0,13.953247,26.933677,48.666858,44.950533,64.356279,57.671921,73.639466,65.39523,78.014359,-22.361155,298.291509,-47.014017,277.829893
28,43.509464,-8.68748,-2.749443,-4.47919,0.0,-44.53577,-37.965889,7.482262,-43.467522,9.045296,-45.108032,0.024147,-45.03027,-59.865131,0.0,17.899592,16.750602,38.184047,32.975832,49.092751,43.941408,55.361961,51.897763,69.13607,0.0,66.742573,25.532227,91.02499,16.688805,90.139217,8.005314,75.819912,0.232773,54.719753,0.0,13.633256,28.540732,54.183084,46.440941,70.988335,58.656716,78.694478,66.093195,81.576926,20.946751,289.695667,-49.965019,273.442341
29,-10.588303,2.187941,-6.114063,-5.084838,0.0,-29.99342,-35.460148,23.373413,-42.134571,24.567375,-42.649899,7.429848,-39.608459,-47.556839,0.0,1.461447,17.988821,38.576903,31.851604,46.150035,41.118364,52.999452,48.605417,65.252093,0.0,67.763214,24.134388,91.164207,15.361233,90.795937,7.968407,78.109245,2.452641,57.54364,0.0,10.588158,30.762635,59.415444,48.579728,75.171247,60.203008,82.475641,66.616036,82.630511,10.032606,292.229024,-56.404924,268.702919
30,21.488972,-21.573803,-11.628284,-7.720345,0.0,-47.708273,-35.782557,-45.084972,-37.098455,-47.176266,-35.004816,-49.905481,-31.095085,-65.59473,0.0,14.055351,31.19109,42.002908,46.071704,50.661736,55.318211,59.798512,61.185303,70.076807,0.0,63.783588,25.673447,91.236019,18.676872,91.42313,12.621403,77.295284,7.295094,56.446438,0.0,0.336107,33.497684,65.842056,51.078088,78.818535,62.721252,85.750636,69.356951,86.201908,31.372261,271.331573,-68.182526,261.658926
31,21.488972,-21.573803,-10.808601,-9.223844,0.0,-65.423126,-36.104965,-113.543358,-32.06234,-118.919907,-27.359734,-107.24081,-22.581711,-83.632622,0.0,26.649255,44.393359,45.428914,60.291806,55.173437,69.518058,66.597572,73.76519,74.901521,0.0,56.149921,24.66711,89.294643,18.221455,86.875248,13.516159,76.198597,9.815598,59.996166,0.0,-6.260751,35.550144,66.889961,51.96822,79.632899,62.08726,84.299748,67.613552,81.228221,52.53499,250.27303,-79.317369,252.950343
32,18.307571,-14.207967,-8.35865,-6.064817,0.0,-61.930161,-29.829941,-84.849472,-21.845512,-84.491329,-14.047279,-76.02951,-7.323875,-61.526527,0.0,27.681845,37.853435,59.663001,53.661787,68.944829,62.806344,74.475813,67.145237,77.796812,0.0,41.843319,18.56987,83.895321,14.202862,87.380505,10.978947,77.413044,7.932129,59.522324,0.0,-16.564733,30.257146,58.721987,46.637987,71.008713,56.598143,77.02308,62.514203,74.304209,70.549107,236.178236,-87.969475,246.998699
33,15.245361,-11.061969,-22.120085,-22.075279,0.0,-60.746269,-25.981293,-92.985649,-20.310173,-96.522102,-16.304626,-86.586914,-14.179459,-68.683891,0.0,18.478255,33.119031,62.52575,50.035803,74.727508,60.298598,78.444574,64.843614,78.477364,0.0,41.675091,23.128624,91.460495,20.975618,96.295309,19.517584,88.459139,17.947884,72.558804,0.0,-14.231463,32.330571,54.277841,48.328034,65.898188,57.718141,72.8268,62.481198,73.050614,85.281916,225.902289,-110.602112,225.709442
34,24.776802,-24.129035,-22.120085,-22.075278,0.0,-61.265831,-24.981537,-102.874603,-21.78463,-104.641685,-20.281563,-97.851105,-19.873009,-81.278572,0.0,12.954063,30.860571,60.361398,47.499652,70.256469,58.294365,75.112769,64.098224,73.767536,0.0,41.506863,27.687378,99.025669,27.748375,105.210114,28.056221,99.505234,27.963638,85.595284,0.0,-11.898193,34.403995,49.833694,50.018081,60.787661,58.838139,68.630519,62.448192,71.797019,109.160328,204.092661,-133.620586,205.953571
35,14.435692,-10.454098,-4.044914,-4.12042,0.0,-51.191368,-35.22377,-107.088661,-35.850906,-110.818405,-35.429878,-104.198799,-35.105324,-88.194237,0.0,-2.643782,28.232782,38.946849,42.61186,51.551899,50.580565,58.331971,53.559467,62.709149,0.0,34.917812,29.544353,98.498554,30.58279,102.956142,31.721363,98.105507,32.814045,85.148392,0.0,-16.467909,26.000134,31.948119,37.637555,37.113418,42.883068,43.94079,44.97301,45.585142,122.236519,196.129698,-139.025002,204.324286
36,9.578934,-12.00323,2.520275,10.794651,0.0,-48.495483,-40.42717,-115.939178,-42.416496,-120.076447,-42.914429,-113.169365,-42.655106,-97.054596,0.0,-9.187597,23.443791,21.968265,37.503495,30.156431,44.453936,35.74861,46.090199,42.150275,0.0,43.3144,29.981575,95.150814,29.719906,98.186359,29.42791,94.516926,28.610687,81.459846,0.0,-8.598807,15.278102,4.279983,11.376402,0.503575,4.528034,-3.036577,-3.00002,-7.270123,130.907421,185.596637,-137.412758,216.589107
37,3.302422,-13.029028,-10.874863,-31.648692,0.0,-50.025101,-41.997528,-120.408554,-45.855675,-125.685081,-47.395363,-118.147545,-46.998482,-100.695076,0.0,-10.794466,18.199205,9.900938,30.347672,16.699473,36.867836,22.3103,39.243313,30.225159,0.0,27.709866,36.319714,104.573994,38.360538,110.05394,37.89259,99.936504,37.054768,85.890255,0.0,-32.805586,14.70302,2.601113,26.25152,6.677381,32.387288,14.490352,35.591517,25.60629,133.371878,175.077053,-149.125586,187.449859
38,-2.981071,-9.814549,-5.530357,-23.827693,0.0,-51.396675,-39.84684,-122.051468,-45.038681,-130.677452,-47.38678,-119.543839,-47.908516,-102.656708,0.0,-12.172241,17.058737,9.091019,29.804022,16.488533,36.086447,22.018097,37.629404,24.576417,0.0,31.488934,38.614311,112.717667,42.194424,118.028526,43.880482,108.281937,45.1474,94.307613,0.0,-16.88071,20.376833,10.41433,33.91592,13.812209,40.811403,21.299323,43.411034,31.806958,129.960508,167.843054,-155.086241,166.202716
39,-5.560684,-7.749738,3.268661,-10.262239,0.0,-52.127838,-40.124588,-121.875916,-45.41954,-129.315262,-47.759628,-119.469795,-47.901421,-101.987915,0.0,-14.922172,19.880298,11.619946,32.090763,17.067443,37.777111,22.672467,38.65477,24.587285,0.0,33.766994,38.875408,114.296608,42.042274,120.13052,43.533497,110.126266,44.263115,94.828949,0.0,-14.168447,22.241078,13.793437,36.648623,16.73535,43.617095,22.185318,45.372597,30.055716,123.870993,163.291724,-152.346411,159.138886
40,-3.666573,-2.32305,5.093193,-7.037262,0.0,-55.728836,-41.086464,-120.760918,-46.724052,-129.311943,-49.357567,-120.600586,-49.477615,-102.612877,0.0,-11.392951,20.457417,10.669236,32.67344,15.546037,38.117603,21.738121,39.039537,23.588287,0.0,33.860493,37.376461,115.734901,40.406055,123.442783,41.979389,114.419003,43.117161,98.179836,0.0,-5.496034,26.324386,14.945699,39.694091,18.644672,45.74699,23.574023,47.051344,30.589919,119.510994,162.68393,-147.946644,153.81688
41,-4.908257,-0.220572,2.852726,1.661951,0.0,-55.867767,-42.003708,-121.707573,-46.855202,-128.079529,-48.969498,-119.738388,-48.661652,-101.592636,0.0,-11.087904,21.47704,12.05368,33.562213,18.01772,39.044971,22.656226,40.274545,24.331824,0.0,35.115395,39.728508,118.577843,43.49865,126.148567,45.503025,118.395309,46.807022,103.952236,0.0,-7.871449,25.464635,10.826206,37.056607,16.479765,41.652814,20.011024,41.899198,27.325978,114.095249,163.534589,-145.601406,156.550061
42,-4.285927,2.828107,5.166779,-1.173628,0.0,-53.315964,-41.380119,-123.264656,-46.971588,-131.767216,-49.75605,-122.481995,-50.095253,-103.840828,0.0,-12.971662,21.941959,12.132968,33.075373,15.239755,37.76155,19.757415,38.201892,21.604493,0.0,33.532162,38.186932,117.11832,41.179848,124.983559,42.381306,116.62199,42.854347,99.632607,0.0,-5.513262,26.288385,13.072006,39.48062,18.780215,45.408659,24.375728,46.451994,30.717248,109.396162,166.800846,-140.847788,155.814583
43,-3.862495,3.265485,2.173233,4.912492,0.0,-52.37709,-40.573425,-119.028969,-45.33577,-127.257156,-47.540131,-118.450699,-47.175407,-99.735146,0.0,-7.740846,21.016567,12.313032,32.590077,17.22818,37.856955,20.425616,39.111044,22.926199,0.0,33.526783,40.252018,119.388199,43.267937,125.845642,44.142895,117.397785,44.117546,101.487522,0.0,-7.387819,26.129996,12.178169,38.922211,16.802658,44.173898,21.369286,44.616587,26.68964,105.074558,170.054892,-139.133663,160.715636
44,-2.037964,6.437295,0.992031,5.714074,0.0,-51.319084,-39.966774,-118.824463,-44.471169,-126.639519,-46.296959,-116.921883,-45.854988,-96.531715,0.0,-5.759152,22.547113,14.42187,33.781674,16.103458,38.47557,18.569275,39.109932,20.908875,0.0,33.196392,40.70715,116.996784,44.172878,124.315853,45.159302,115.710526,45.067234,100.770378,0.0,-2.821129,29.553191,13.462825,41.955638,19.249394,46.780013,23.419338,47.075488,27.108554,102.701225,176.217135,-138.477001,166.154659
45,1.460495,9.49252,-1.50198,10.525666,0.0,-52.811852,-40.017242,-118.531151,-44.339561,-126.261806,-46.224289,-118.116188,-46.072311,-96.916122,0.0,-4.322529,24.427043,15.799893,35.749413,16.538242,40.213042,19.010235,40.312151,21.117653,0.0,34.217262,41.224995,120.73843,44.560833,130.442505,45.564365,121.928444,45.709648,105.577469,0.0,-4.937563,30.52891,15.47101,41.871843,21.378857,45.894141,25.070297,45.711977,29.92567,103.82206,185.244104,-140.318642,176.214773
46,3.693237,11.913383,-5.818634,16.473157,0.0,-50.549698,-38.871002,-116.406441,-42.125015,-124.537697,-43.592834,-115.941582,-43.183823,-94.766922,0.0,0.909337,21.810987,24.125268,34.702929,28.896908,41.85165,33.410369,44.803629,34.034234,0.0,34.465485,39.95882,118.49247,43.106346,125.479431,43.793335,117.902699,43.321438,100.229359,0.0,-2.694911,31.565884,21.336126,42.645143,26.134009,47.423699,31.338643,47.724238,35.783993,107.60745,195.95266,-146.045122,191.483103
47,7.90123,20.519847,-6.453552,19.004924,0.0,-47.19532,-39.397316,-114.723244,-41.576729,-121.938972,-41.916847,-112.440376,-40.685577,-93.667946,0.0,6.292737,28.727094,41.985402,41.348138,54.467445,48.77665,52.806297,52.499459,50.678687,0.0,32.228737,40.064278,110.644798,41.023521,115.130825,40.192966,106.698875,38.024483,91.555424,0.0,-1.222782,29.170339,40.682592,40.890258,51.97915,47.469703,58.398908,50.648305,61.147172,115.511999,215.351922,-152.495356,209.367443
48,4.103737,11.381465,0.426521,41.272339,0.0,-36.609192,-39.651375,-91.825562,-37.901344,-90.730476,-33.400383,-83.761368,-27.721024,-73.87104,0.0,0.643933,31.652397,76.686602,40.144993,87.496691,45.009134,85.974111,46.59859,80.443558,0.0,29.067994,33.382502,75.092469,34.478331,77.359,33.957768,73.501568,31.381703,65.466872,0.0,17.464098,25.984018,46.851798,31.095995,53.057961,34.316711,54.893986,36.162585,54.269628,118.980217,225.541049,-152.704354,249.447442
49,3.405876,37.181405,0.426522,41.272339,0.0,-24.286079,-11.472473,-38.598633,-12.693443,-38.522873,-15.137215,-38.405571,-19.188766,-35.170555,0.0,10.534929,18.826095,52.356878,30.081343,71.838824,38.824522,78.437041,44.949175,75.103136,0.0,25.907249,26.700726,39.540138,27.93314,39.587173,27.722569,40.30426,24.738922,39.378319,0.0,36.150976,22.797696,53.021003,21.301731,54.136771,21.163719,51.389063,21.676865,47.392083,122.246447,261.576026,-152.417479,289.573355
50,2.456303,25.090212,-12.376957,11.231258,0.0,-9.300614,-5.610009,-17.707615,-2.899247,-13.792878,-0.882454,-11.022664,0.056705,-5.697899,0.0,22.698926,22.818259,47.012256,26.087789,54.333446,27.14369,54.193242,26.008717,47.579834,0.0,22.557535,21.530657,30.699205,21.10362,28.701038,20.025186,27.441387,17.32481,25.88213,0.0,36.664369,22.783895,45.546486,19.520386,45.532716,17.176495,40.851572,15.586391,36.008394,124.912892,284.843134,-164.584293,298.981508
51,2.456302,25.090211,-12.376957,11.231258,0.0,5.684853,0.252457,3.183403,6.894951,10.937119,13.372307,16.360245,19.302177,23.774757,0.0,34.862924,26.810423,41.667634,22.094236,36.828069,15.462859,29.949444,7.068261,20.056534,0.0,19.207821,16.360588,21.858273,14.274101,17.814903,12.327805,14.578514,9.910698,12.385941,0.0,37.177762,22.770094,38.07197,17.739041,36.928661,13.18927,30.31408,9.495917,24.624706,127.79068,308.699186,-176.539764,308.978607
52,8.331184,-5.344745,-5.37569,-12.03108,0.0,0.472527,-1.317215,9.334145,5.855026,22.445297,13.875275,28.402748,22.521057,33.75309,0.0,40.975536,17.872792,51.623406,12.215096,49.739092,5.347709,44.105108,-1.846337,28.709557,0.0,10.787144,13.33992,8.240719,12.154312,7.061749,8.40271,4.430809,2.112236,0.778885,0.0,34.58338,24.784639,47.615125,24.559374,50.166961,23.526228,49.297886,21.87638,46.214379,136.618338,301.779265,-181.418982,295.372351
53,6.518784,-6.151576,2.689075,-8.783317,0.0,-1.532021,-0.097733,7.559967,7.383614,22.201424,15.420113,28.052101,23.742599,33.089561,0.0,41.109287,18.327275,54.732107,14.047725,54.840788,8.08881,49.143201,1.069394,33.916661,0.0,3.261909,5.771942,2.347927,0.411243,-0.151691,-6.226215,-5.013142,-14.10078,-9.716206,0.0,37.248837,28.504299,57.145313,27.950398,59.62379,25.651245,57.131049,21.491058,49.540688,143.479128,294.822062,-178.387899,285.783408
54,3.008537,-4.473941,-1.058292,-6.871833,0.0,-0.832558,-1.934395,6.296768,6.488914,21.342545,15.573235,28.509865,24.934273,34.192543,0.0,42.631682,17.260228,55.564503,13.726005,55.325035,8.143583,47.764623,1.220991,32.407666,0.0,1.321163,4.834442,1.869106,-1.847477,-2.9603,-9.814568,-8.643265,-18.917713,-12.591705,0.0,34.643154,27.691725,58.774783,28.334732,60.884424,26.773744,57.83204,23.441012,51.795937,146.655779,289.897637,-179.278078,278.46109
55,0.888634,-3.966599,1.653042,-2.637916,0.0,1.313324,-2.397652,5.822639,5.335922,18.220139,14.076462,24.164314,23.417931,29.847107,0.0,40.121898,15.278102,54.045072,12.612336,55.13577,8.57034,48.44326,3.314145,34.70262,0.0,0.335426,3.18615,0.431442,-3.869476,-4.893951,-12.232361,-10.114288,-21.56971,-15.279293,0.0,35.73626,25.698237,57.00798,26.336859,58.346853,24.575861,54.614905,20.693057,46.303608,147.769518,285.850746,-177.399931,275.742883
56,-0.641098,-3.659391,1.316986,-1.77483,0.0,0.445175,-2.941589,3.15033,4.906425,16.170959,13.570175,22.650375,22.860489,29.53125,0.0,35.374403,16.523299,55.467308,14.311275,55.324911,10.466386,49.195997,4.954791,34.297105,0.0,2.1068,3.284683,2.728271,-3.854141,-3.686028,-12.557545,-10.178089,-22.316093,-16.294956,0.0,36.761749,23.901423,57.975671,23.118243,57.748615,19.587416,52.594308,13.696674,40.315424,147.342253,282.257536,-175.869112,274.034234
57,6.443367,-1.674609,-6.325607,-0.588296,0.0,0.675316,-4.675827,-1.272583,-1.769943,6.303635,1.895485,7.081375,6.152802,8.879356,0.0,32.776748,15.68269,53.675866,14.529748,54.398964,12.038984,49.88717,7.869596,36.625898,0.0,3.511448,6.80809,10.906734,2.910233,5.107155,-2.913723,-0.539303,-10.809517,-5.971298,0.0,36.553959,19.467373,57.70471,17.567869,57.793137,14.523635,52.711201,9.653812,37.236054,154.057674,280.668976,-181.922665,273.531987
58,-9.158249,-0.588852,-15.686245,-15.304222,0.0,-2.646332,-1.798553,0.591087,5.952759,11.460114,14.299393,18.006134,22.974243,26.174355,0.0,32.166778,17.766582,56.175029,14.979291,54.480721,9.9102,48.117959,2.963402,33.058083,0.0,-15.985279,4.279289,13.204765,11.706791,18.517113,17.590485,22.552872,21.813869,26.925602,0.0,-2.834035,24.017884,60.38474,29.752584,70.427518,33.168987,69.944383,33.914994,62.480425,145.229244,280.138586,-197.279091,258.286227
59,-0.649223,1.486332,0.633545,12.202869,0.0,-1.02459,-1.345367,3.44902,5.984116,12.508507,13.841286,17.771645,21.865196,25.611763,0.0,35.815301,16.67786,56.581532,13.617757,55.285082,8.79048,49.270468,2.475142,34.949992,0.0,-3.665428,6.55117,14.386139,10.251846,17.170143,12.574768,18.483696,14.234505,17.504025,0.0,11.087286,15.553941,45.45065,16.703919,50.327636,17.083128,50.709253,16.396649,43.184224,144.854422,281.389897,-196.371145,270.254074
60,-0.069008,0.969667,1.323624,-15.707452,0.0,-2.30278,-0.75634,2.708817,6.836014,12.136688,14.509277,17.959328,21.853409,25.510368,0.0,34.527311,17.92491,57.16143,15.077042,56.236224,10.193573,49.437997,3.582574,34.902444,0.0,-13.515701,7.736835,11.866379,12.203407,17.010212,14.64323,20.893593,14.761276,22.218475,0.0,-9.272689,24.287178,64.355909,34.475008,78.103156,42.675895,83.261168,48.694831,80.593241,145.132341,282.209433,-194.700594,254.396491
61,0.823174,-0.103432,-1.721249,-9.541488,0.0,-3.974991,-2.544823,0.414047,5.731659,10.588303,14.023819,17.777252,22.230949,25.57663,0.0,35.248,17.292091,57.404171,14.447991,56.175832,9.532473,49.68327,2.961056,34.650194,0.0,-20.526581,3.118286,1.468449,9.609604,13.145771,14.593048,20.278244,18.409653,26.285763,0.0,-9.334748,25.36849,59.2368,38.632416,79.853904,48.876254,88.361382,56.257281,90.480162,146.318264,281.830548,-196.059093,244.57955
62,0.004463,-0.083795,-2.771358,-11.439017,0.0,-4.669991,-1.616821,0.63961,6.138954,10.384026,13.884888,15.825348,21.647415,23.498268,0.0,34.224116,18.026119,58.132332,15.691768,57.729719,11.102724,51.591975,4.712853,36.856721,0.0,-33.147869,0.215149,8.258457,9.968777,18.964176,17.144623,25.453434,23.595543,32.06274,0.0,4.201622,35.480243,79.261841,48.258997,94.467571,57.034471,101.435179,61.570718,101.521691,146.609316,281.547283,-198.543863,232.941064
63,-0.373306,1.331586,0.085659,-3.0769,0.0,-4.070663,-1.715698,-0.214233,6.396561,9.597702,14.442673,16.04393,22.274437,23.915062,0.0,34.741955,18.174443,57.347175,15.848799,56.739119,11.072158,50.420199,4.262816,35.784302,0.0,-34.208908,-0.299721,5.448532,9.458885,17.863426,16.411686,24.735203,22.790337,30.060253,0.0,5.75662,37.492504,79.997535,50.080819,95.403337,58.566622,102.669878,62.857782,103.815163,146.447668,282.843795,-198.246546,229.82909
64,0.670624,1.265019,2.298489,32.626015,0.0,-5.518799,-1.096802,0.187569,6.207275,9.156761,13.461685,14.557228,20.590782,22.111359,0.0,34.308405,18.686354,57.721506,16.294575,57.028852,11.629023,50.123242,4.871305,35.534089,0.0,2.493153,10.29047,19.573631,10.591393,18.400555,9.129639,17.42878,5.820637,14.824047,0.0,25.102222,23.815034,63.776814,28.161028,69.596481,31.401505,69.927278,32.992134,64.693992,147.239513,284.073678,-195.826836,262.419969
65,-0.31929,0.242185,0.092239,5.1703,0.0,-4.581528,-1.847992,-0.267105,5.997849,9.698524,13.756599,16.270523,21.280746,23.592796,0.0,34.24048,19.849423,58.777562,17.019216,56.462107,11.663974,48.681493,4.080344,32.884811,0.0,2.90451,5.883236,17.972488,7.261791,19.955292,7.090816,17.648335,5.541573,13.562679,0.0,24.320462,19.97138,56.78784,21.343598,61.388431,21.111972,58.293871,18.680549,45.92761,147.127991,284.321467,-195.526829,267.595873
66,0.061684,-0.075336,10.888195,5.336779,0.0,-5.038719,-2.175064,-1.909103,5.342674,8.718567,12.930336,15.51693,20.802383,23.516808,0.0,36.129425,19.9862,58.880376,17.029096,56.648346,11.805073,49.246695,4.463814,33.563078,0.0,3.370571,2.324009,12.219257,-1.982861,8.695793,-7.014198,3.082924,-13.027267,-4.477959,0.0,31.872166,20.629145,55.118541,19.372586,57.568057,16.377136,52.475006,11.210602,40.012353,147.728262,284.229412,-184.100046,272.915934
67,0.883484,0.368218,-4.255028,1.689862,0.0,-4.371414,-3.420982,-2.11338,3.514137,7.754974,10.781364,13.06778,18.659248,21.208191,0.0,35.710325,19.524863,58.231627,16.865705,56.938943,12.258136,50.103296,5.696352,34.733866,0.0,7.241879,5.531044,15.522995,1.943665,13.495846,-2.408295,8.084221,-7.582455,1.758213,0.0,31.449547,19.414021,53.667036,17.213668,54.734207,13.630909,48.759607,8.147473,34.837977,148.935528,284.640716,-188.031292,274.648882
68,-0.297089,0.113189,-5.817947,-0.485235,0.0,-3.648605,-4.591141,-4.449234,2.725182,8.709412,10.791893,14.897461,19.603386,21.629333,0.0,36.289914,19.162326,58.647269,16.762952,57.484508,12.389788,50.83084,6.135706,35.198846,0.0,8.223095,7.355919,20.454941,7.175102,20.316181,5.871964,16.753464,3.861809,11.908722,0.0,28.987805,20.134154,51.789824,18.310541,54.253727,15.201161,49.35729,10.249086,36.399274,149.068708,284.750647,-193.41897,274.16039
69,0.072899,-1.341836,-2.957668,1.749821,0.0,-4.867859,-4.802055,-4.680862,2.185135,7.835655,9.971809,13.769989,18.75412,20.989723,0.0,36.749152,19.265882,58.530746,17.19891,58.165801,13.336175,52.755044,7.677737,37.10113,0.0,10.061703,6.882133,21.831608,8.813095,22.723045,9.834137,20.758553,10.267239,18.235531,0.0,27.18494,17.385581,48.693596,14.960952,50.387286,11.43136,44.914533,6.255317,32.064642,149.387999,283.44441,-196.130247,275.94581
70,0.605278,0.196737,-0.961046,-11.625842,0.0,-5.760612,-5.220909,-5.470848,1.492767,6.637688,9.15184,11.978874,18.019524,19.05304,0.0,38.375164,19.311453,57.937077,17.002791,57.198419,12.809814,51.801124,6.748826,36.536978,0.0,-5.464525,2.078047,11.116962,6.845026,16.02808,10.797129,19.127483,14.178228,20.611753,0.0,9.450345,12.317447,35.029002,14.043371,42.660087,14.5404,46.01474,13.550819,41.25758,150.401831,283.722611,-196.682739,264.401432
71,0.598068,-1.547959,-0.961046,-11.625843,0.0,-8.619003,-4.588966,-6.456413,1.834602,3.92292,8.845024,8.896637,16.91906,17.571144,0.0,35.806717,19.101131,57.518162,17.40528,57.654569,13.727364,52.554232,8.113078,37.401731,0.0,-20.990753,-2.72604,0.402317,4.876957,9.333115,11.76012,17.496414,18.089218,22.987976,0.0,-8.28425,7.249313,21.364408,13.125791,34.932887,17.649441,47.114947,20.846322,50.450519,151.370831,282.403221,-197.272854,253.004158
72,1.547585,-2.266611,0.773621,-7.691261,0.0,-9.021492,-5.251007,-8.501015,0.784264,-0.484428,7.145348,4.524765,14.573479,14.344025,0.0,26.43776,18.959291,56.719112,18.209579,57.333467,15.250932,53.152038,10.379009,38.729179,0.0,-20.266571,-1.538143,5.949612,5.445099,14.836807,11.741295,21.889687,17.593346,25.029545,0.0,-3.822721,15.30132,44.728232,21.741703,53.703716,25.768694,59.485036,27.60052,57.199221,153.386192,280.281801,-196.031456,245.458088
73,31.562119,-42.09612,0.257893,-2.398139,0.0,-14.018211,-19.751472,-27.938004,-24.558907,-30.684929,-26.953926,-36.050835,-28.105431,-37.825127,0.0,15.050243,30.394603,82.14435,43.611537,96.456367,52.6166,100.430253,57.324698,98.38829,0.0,-7.241821,-0.390072,5.080605,5.374203,14.808426,11.300983,20.233955,16.553421,25.069828,0.0,11.873246,17.987463,42.164046,24.009795,53.826537,28.103415,59.695729,30.4164,55.430381,185.551558,238.423219,-195.170317,243.297488
74,-0.533638,-3.20392,16.270409,40.0105,0.0,-14.092026,-22.083893,-28.158646,-23.015213,-35.169182,-21.716309,-36.140327,-18.676414,-30.274086,0.0,20.800626,32.104842,79.741086,42.233639,97.656918,48.858346,99.947982,51.682316,91.880414,0.0,14.160118,-7.806015,-17.530231,-15.874844,-29.752178,-20.272121,-33.409653,-23.150082,-37.875938,0.0,36.336906,-17.885081,-21.20188,-28.988052,-38.234991,-37.065623,-43.959871,-41.260082,-50.614404,185.345421,235.374061,-178.572407,283.46275
75,2.728958,0.907608,-11.457081,-19.037961,0.0,-18.728371,-21.303406,-37.641678,-23.061562,-43.055878,-22.890587,-41.269569,-21.049919,-36.420822,0.0,14.95842,28.020423,78.917706,38.584868,91.29891,45.476276,92.837422,49.033656,88.092458,0.0,22.183914,-3.704796,2.302551,-2.867088,5.210724,0.123768,5.506611,3.493366,5.612812,0.0,41.288981,-4.594231,12.930166,-8.31531,14.243412,-10.735,12.447463,-12.025831,4.769231,188.756676,236.150202,-189.347191,264.293323
76,5.666771,1.647192,0.771389,-6.128296,0.0,-24.759293,-17.872124,-37.128525,-23.880157,-49.889259,-28.576241,-52.82856,-31.50444,-53.208961,0.0,5.955457,20.318417,67.723529,33.413271,82.316201,42.025663,85.399894,46.736787,81.989542,0.0,20.768795,-7.667713,-2.353477,-7.266197,5.233269,-3.465557,7.546577,1.691551,8.807945,0.0,37.915185,-2.042395,11.613709,-4.166794,17.19397,-5.34987,17.713908,-5.660599,10.39315,194.87709,237.484319,-188.122158,257.851952
77,-16.013374,1.319051,12.413292,14.587979,0.0,-13.468323,-14.567757,-47.293282,-6.27697,-41.985855,2.539902,-35.26062,10.753899,-19.732246,0.0,0.962442,28.26761,73.774699,33.008991,76.114855,32.059579,63.813679,26.139999,39.161617,0.0,27.055149,-12.389774,-7.977791,-22.62291,-14.566383,-29.164639,-23.579292,-32.081566,-30.538902,0.0,34.870952,-5.217107,-7.081784,-18.300414,-27.248419,-29.389985,-42.278778,-37.990088,-54.545189,179.474316,238.438919,-175.098267,272.07548
78,9.19075,-2.459581,-6.413155,-12.501741,0.0,-37.150612,-21.982498,-63.625946,-18.622284,-67.996674,-15.602646,-61.157227,-13.171692,-49.485855,0.0,-3.363792,23.0857,59.777733,35.547366,73.870227,42.42136,75.206136,44.802517,66.322536,0.0,39.340668,-4.793129,12.954826,-14.394722,7.997131,-20.98217,-4.906197,-25.327034,-14.302254,0.0,41.171964,2.031465,13.250465,-10.38327,-0.570512,-23.091381,-18.127204,-35.232068,-39.727745,189.500427,235.214143,-180.67606,258.808543
79,-23.598518,-1.965886,4.293022,-3.563555,0.0,-36.704979,-9.624252,-56.168861,-12.400818,-63.358269,-16.885414,-64.726868,-21.211853,-59.658737,0.0,-13.02767,23.588225,44.201315,40.041808,63.304485,51.296561,74.151377,57.914909,79.124323,0.0,-1.634846,-1.38731,26.403008,3.977394,37.495708,9.605083,40.57806,16.765022,38.704147,0.0,-39.04355,-0.061627,-3.800306,12.044109,12.998956,22.210079,27.549823,30.7233,35.821043,166.219797,233.041207,-176.065149,255.037939
80,-8.200378,-8.194588,0.210629,-15.89999,0.0,-46.181374,-11.802864,-72.490997,-10.827026,-79.537697,-11.528549,-73.964539,-13.077164,-58.305244,0.0,-4.347538,24.733634,46.083838,42.397277,64.442236,54.156223,74.649579,60.642671,83.316311,0.0,3.756351,-0.339489,40.405254,8.164215,55.625553,17.601528,61.53162,26.911697,59.478321,0.0,-39.219724,8.95313,9.839619,25.448456,20.313169,36.998994,28.830465,43.492668,38.448153,158.739939,224.745873,-175.134001,239.037203
81,-11.088753,-3.304635,14.71344,0.668572,0.0,-54.875565,-20.157166,-82.444382,-16.651268,-83.025627,-12.88662,-73.315201,-9.766045,-57.154198,0.0,0.434908,21.273202,46.683064,39.131298,62.833638,51.962786,78.250616,59.563459,82.995703,0.0,6.272907,8.455696,44.849567,14.784794,53.81773,19.941902,58.244934,23.126564,55.031433,0.0,-31.529205,6.499416,5.915442,21.910343,16.421164,34.229118,27.259781,43.599558,39.445175,148.481054,221.19331,-159.590693,239.457847
82,-12.899323,-5.605023,1.362934,-8.011498,0.0,-59.799728,-18.404846,-80.639191,-14.074059,-76.734352,-9.503517,-68.628845,-5.117226,-51.595345,0.0,5.650348,17.515196,45.672272,36.107874,62.505743,50.537031,76.496534,59.752971,82.451497,0.0,22.343273,2.980957,64.324379,4.804745,73.72467,8.98304,71.570892,13.332024,63.046875,0.0,-16.875153,7.948081,8.831482,23.432676,22.448745,35.058241,34.059428,43.575598,43.348913,136.063643,215.230567,-157.745848,231.088629
83,-8.035698,0.103988,4.138985,-17.227006,0.0,-66.211967,-17.433815,-76.205864,-13.172379,-73.706818,-8.263321,-64.615631,-3.392715,-45.923653,0.0,2.632605,11.637421,39.685323,29.994275,55.814962,45.116271,67.606883,56.429749,75.589359,0.0,43.18182,6.369381,82.162342,9.649887,92.863598,15.666733,90.334396,22.230721,78.050079,0.0,-24.175595,16.987044,26.732124,37.412969,38.213254,51.462917,46.812679,59.772732,56.568873,128.887596,214.557688,-152.747211,213.084756
84,-16.340332,-6.614395,7.204056,-0.839806,0.0,-72.667809,-38.032379,-105.506172,-32.96814,-108.74073,-26.087608,-97.988319,-17.798424,-75.976295,0.0,10.443847,26.621405,51.166577,43.582144,68.816203,56.423574,81.333444,66.176126,86.349121,0.0,45.80246,10.869484,83.496552,11.597729,94.165592,14.677792,89.833202,18.874626,77.952461,0.0,-18.482392,18.237367,28.284344,37.123236,40.991776,50.594274,52.113396,58.706425,61.384356,112.806902,207.598895,-145.283518,211.900553
85,-8.814926,3.544103,11.88303,-0.593174,0.0,-76.159058,-40.862503,-109.223042,-35.171242,-111.340199,-28.320236,-100.514145,-20.347824,-78.104439,0.0,6.444211,26.091402,50.198207,43.629939,64.675776,56.120318,77.294596,63.887285,83.267034,0.0,50.244255,14.707088,89.864902,13.123913,94.025402,13.042088,83.842621,14.389114,70.280914,0.0,-11.383565,20.782966,36.053719,38.29143,51.32015,51.276431,63.60064,59.280643,69.862008,104.001532,210.695354,-133.390932,210.859734
86,-9.365845,0.946819,6.928825,-0.112077,0.0,-77.490349,-40.641403,-107.090607,-35.021095,-108.878403,-28.236694,-98.235855,-20.091019,-77.346153,0.0,7.696263,25.249805,51.189054,43.02108,65.378743,55.916542,77.659541,64.155405,84.90058,0.0,66.557007,26.266479,110.714378,25.884705,120.056648,25.907249,114.386215,25.981293,95.152588,0.0,-4.525996,31.116835,45.938169,52.589615,57.780725,66.265417,66.245657,72.80213,69.042395,94.76263,210.690075,-126.335163,209.795558
87,-11.568832,4.260161,6.169281,5.646211,0.0,-77.702751,-41.419945,-93.374462,-34.902763,-93.272724,-27.11586,-85.007744,-17.639351,-67.670975,0.0,10.667878,24.415866,47.457723,40.575887,65.274879,52.971232,78.363249,61.790426,85.552355,0.0,71.769161,29.547157,104.304142,25.569305,110.030708,22.315006,98.830662,19.564648,79.247017,0.0,-0.518765,29.048258,47.830017,48.537306,60.734247,60.770309,72.216366,66.995924,77.163068,83.327866,214.290772,-120.031815,214.782305
88,-10.295906,6.372519,12.259827,6.288106,0.0,-76.116257,-40.86422,-81.338425,-34.422913,-79.461021,-26.610489,-74.983177,-17.764664,-67.104492,0.0,10.95866,27.272687,44.791896,42.551715,60.053881,54.365433,70.473152,63.102684,84.337169,0.0,73.976383,30.175323,99.591923,24.587574,104.879379,20.040951,95.447617,15.99638,76.751461,0.0,0.497091,27.02445,50.699682,45.203833,65.251166,58.417557,77.416492,66.83914,81.545371,73.086119,220.03021,-107.717829,220.437331
89,-10.51506,7.3554,12.207298,4.800415,0.0,-70.17683,-36.447029,-79.503136,-30.710106,-79.602528,-23.6063,-70.753384,-15.573692,-57.972908,0.0,11.479772,30.906946,41.267059,46.292246,54.207723,56.84922,65.916589,63.216305,74.816614,0.0,73.738632,26.816711,104.542007,20.903721,107.364693,16.092396,97.279472,11.973495,76.275101,0.0,2.21721,30.653831,56.876946,47.714235,73.279152,60.22283,83.47748,67.978373,87.527936,62.589626,226.92662,-95.491962,224.778755
90,-4.794502,5.71673,12.07346,6.531341,0.0,-71.55201,-36.66584,-87.148819,-32.022858,-84.039631,-26.771164,-70.983582,-20.101547,-59.361877,0.0,8.565214,29.437409,32.487756,45.401002,44.177233,56.56665,56.83477,63.293678,66.239976,0.0,81.927166,26.678925,97.672176,18.736324,97.424183,11.818085,85.540066,5.941429,64.911289,0.0,10.349431,30.841799,61.060104,48.632154,79.001439,61.499705,87.402274,69.087349,89.540814,57.788029,232.320626,-83.425598,230.987373
91,-8.484993,4.88841,18.232384,6.47521,0.0,-76.372261,-34.405403,-70.253849,-27.432632,-67.197819,-19.562187,-55.546989,-10.681801,-40.518723,0.0,8.585716,30.8129,42.490829,45.848693,53.313391,56.321501,65.633093,62.007232,72.015924,0.0,77.171345,31.349831,91.457119,20.608521,87.652302,10.679684,72.440357,2.076073,57.287407,0.0,10.841211,36.816398,62.249417,55.484783,74.789197,67.014573,83.621914,73.656447,87.870342,49.303493,236.799415,-65.192757,237.052962
92,-4.829407,7.390228,-2.696571,6.506209,0.0,-70.825882,-36.769409,-47.789326,-28.747215,-37.180481,-18.806992,-23.928795,-7.702904,-17.293968,0.0,5.052172,21.810184,49.24725,34.85959,58.15555,44.622453,62.742371,51.640635,67.820292,0.0,74.441013,32.47015,95.915165,22.776031,94.426403,13.358974,75.78558,4.861794,52.339897,0.0,10.779584,35.44344,65.827236,53.313577,81.970214,64.284093,88.992965,70.091658,89.660178,44.457922,244.108595,-67.905493,243.478123
93,-3.342819,4.085716,6.17918,7.108893,0.0,-65.847931,-33.154335,-44.985409,-23.541756,-28.329048,-12.868195,-16.15139,-1.535454,-8.472176,0.0,8.265293,28.020361,57.98586,37.914012,70.077332,44.396385,74.14267,47.979638,74.991059,0.0,71.883545,33.165493,95.95253,22.436771,94.780884,11.605396,76.479836,1.656647,48.497486,0.0,9.473563,31.768796,63.888026,49.329811,81.995161,60.931169,91.28409,67.89464,89.955962,41.087837,248.205781,-61.753578,250.598486
94,1.005821,6.250747,4.241295,4.326543,0.0,-61.317558,-36.785889,-43.094444,-29.300537,-26.958389,-19.928398,-15.504684,-9.832993,-10.465164,0.0,10.291632,27.000553,60.536769,34.28247,70.348848,39.194221,73.461501,41.73488,72.337211,0.0,71.843948,31.289062,93.441467,21.482906,93.555679,11.631203,77.542191,2.100735,52.581139,0.0,9.606759,32.190613,65.881885,49.312335,81.796819,60.772038,90.989109,67.89501,91.995332,42.034349,254.50017,-57.571592,254.968671
95,4.121246,4.750521,1.899033,3.406523,0.0,-61.068306,-41.463318,-28.745728,-36.107025,-15.648079,-28.486748,-10.699654,-19.938354,-12.131996,0.0,7.722198,26.634929,62.16346,35.34044,74.770919,41.783169,77.281814,45.110528,73.730239,0.0,70.68512,31.957455,93.29052,22.509613,93.830681,12.861443,78.875313,3.570786,55.898895,0.0,9.341911,32.706785,66.445543,49.485854,81.768969,60.947965,90.549816,68.327881,92.578132,46.160917,259.279266,-55.667238,258.403769
96,-31.221313,7.720345,3.710861,3.585661,0.0,-21.790981,-39.632435,19.041252,-53.125362,24.728165,-59.483414,9.035797,-62.033329,-67.238903,0.0,20.889609,20.152679,61.396397,37.310402,72.728894,49.296527,78.412649,60.021215,89.868771,0.0,71.439171,31.186867,91.677818,21.293907,92.080536,11.221905,76.160316,1.770687,54.451218,0.0,8.249485,32.283115,66.383484,48.855567,81.82825,60.169046,89.828324,67.397055,90.130593,14.890709,267.012239,-52.005272,262.002058
97,-18.724594,16.22066,2.622356,1.136331,0.0,-22.927437,-20.645943,45.928459,-27.673531,50.279274,-30.757427,38.088112,-30.32341,-36.909313,0.0,40.475913,14.908217,54.197843,27.846472,59.795394,37.453663,64.327442,46.598652,68.536721,0.0,68.140011,31.148586,90.180187,21.647072,89.810085,11.672001,74.174023,2.142105,52.517223,0.0,9.558285,33.501266,67.07478,49.898532,81.030064,60.993475,88.322973,67.762803,88.974131,-3.738613,283.223143,-49.287643,263.128633
98,4.072609,-12.612707,1.97794,2.178987,0.0,-2.843628,-17.024002,38.012581,-29.840755,45.335426,-40.512886,26.714172,-49.084396,-51.758194,0.0,16.329649,19.807988,56.152305,34.737262,70.981975,44.848521,75.920588,54.055446,84.134319,0.0,69.602966,30.097389,88.899078,20.656071,88.290825,11.107121,75.162392,2.339859,55.069084,0.0,12.471669,34.631051,67.393226,51.040235,80.136782,62.079418,87.255679,68.554937,88.394665,0.279121,270.61306,-47.364578,265.310244
99,-7.478085,0.847771,1.179943,1.154547,0.0,3.980999,-9.901428,41.559048,-20.741329,49.331532,-31.281567,33.311977,-40.558491,-43.827553,0.0,20.399125,18.747734,56.479397,34.54633,71.288195,45.320171,75.129194,55.136325,82.001583,0.0,66.777935,29.501781,87.977886,20.128956,87.295818,10.611534,72.915745,2.031898,53.191853,0.0,16.020836,35.061637,66.230219,51.498732,79.431222,62.163646,86.410995,68.214939,88.035154,-7.365475,271.496307,-46.351147,266.500267
100,2.245846,1.554628,1.050053,1.380554,0.0,5.335693,-9.524975,42.428398,-20.716267,46.735954,-31.808968,29.97448,-41.479912,-41.644936,0.0,15.743638,17.971161,53.989929,34.235478,67.574032,45.243724,72.182033,54.853694,78.731281,0.0,66.340485,29.545498,88.452301,19.716511,87.326889,9.53722,71.842804,0.143337,51.137924,0.0,15.938337,33.692692,64.042155,50.552778,78.779447,61.185272,85.965713,67.32703,87.046468,-5.218906,273.066744,-45.400372,267.896629
101,0.7691,-0.338948,0.230656,0.085833,0.0,6.185474,-11.071243,38.748951,-20.977077,44.770603,-31.081581,29.776783,-39.932671,-46.85051,0.0,13.154629,15.955998,51.92339,33.68769,65.867065,46.016284,71.953927,56.638466,79.402323,0.0,65.99596,29.364681,88.156414,19.732018,87.425594,9.61853,72.882557,0.163307,52.28056,0.0,15.498118,33.382705,63.912047,50.3172,78.064377,61.163227,85.546057,67.371305,86.697331,-4.596834,272.713593,-45.316744,267.968259
102,-16.802502,-0.622876,1.0532,0.085277,0.0,21.681747,4.220123,51.702461,-3.332405,60.810013,-12.944813,45.241013,-22.793427,-30.344067,0.0,13.518338,14.845231,45.456578,36.069404,59.955142,51.167873,70.090793,62.952446,83.064246,0.0,66.446285,28.724155,87.563839,18.96183,86.242847,8.968735,71.709652,-0.33411,51.104908,0.0,16.155266,33.105446,62.404719,50.008509,77.333437,60.841508,85.092747,67.033592,86.454838,-21.55858,272.093434,-44.422789,268.056254
103,16.453457,-0.325548,0.710506,0.24978,0.0,6.291332,-9.533329,38.918781,-19.406719,46.0742,-29.845963,31.07626,-39.221134,-47.108917,0.0,15.369307,15.727398,51.810633,34.275863,65.712936,47.21313,72.267248,58.091453,80.444176,0.0,66.704636,29.082012,87.130051,19.442024,85.824165,9.258385,71.323471,-0.276661,51.499557,0.0,16.54627,33.034186,62.460048,49.796644,76.702348,60.702878,84.142593,67.156537,86.587045,-5.251694,271.813596,-43.858852,268.351745
104,-8.261604,-0.662335,0.598469,0.627693,0.0,17.105999,0.52906,44.620914,-9.048958,52.065754,-19.839191,38.261547,-29.934883,-35.946636,0.0,11.521948,16.779316,50.847018,36.323692,65.928013,49.601821,72.365678,60.232278,81.344929,0.0,66.445827,28.541107,86.713886,18.978767,85.741711,8.948765,70.79504,-0.45805,50.884151,0.0,16.316003,33.053267,60.619762,49.542664,75.788257,60.157992,83.27148,66.414791,86.246368,-13.845348,271.157467,-43.592434,268.985644
105,-3.239136,-1.66794,-0.289478,-0.208716,0.0,20.549526,2.643185,51.151257,-7.2575,59.128819,-18.752861,42.193279,-29.388142,-30.690594,0.0,14.495971,16.740598,54.625649,35.984126,69.880533,49.096888,75.384409,59.739386,82.160467,0.0,66.640778,28.863888,87.431717,19.337254,86.269455,9.241848,71.618042,-0.287018,51.713448,0.0,16.46019,32.16863,60.771483,48.827471,75.479196,59.769582,83.062208,66.336121,86.299597,-17.458792,269.500488,-44.25622,268.787888
106,-1.976738,0.430277,0.807209,0.65968,0.0,21.320744,5.229034,50.847874,-4.296513,60.189686,-15.821686,43.171864,-26.893845,-28.441429,0.0,14.325169,16.807289,53.100229,36.348886,69.193745,49.543158,74.72405,60.113532,82.021158,0.0,65.797062,28.450871,86.210232,18.992443,85.014324,8.99025,70.290241,-0.517902,50.37878,0.0,16.60376,31.511976,60.394064,48.089677,74.944129,58.999184,82.448718,65.679529,85.627876,-19.751558,269.936893,-43.765039,269.453696
107,7.899857,0.713464,-0.220299,-0.571994,0.0,12.351093,-2.341347,44.592762,-11.641788,50.568752,-21.996632,34.525051,-30.946312,-39.535332,0.0,10.397534,19.297436,53.150617,37.765873,69.358186,50.08755,74.379297,60.187386,81.975339,0.0,65.441036,27.848511,86.895046,18.518028,86.052532,8.668957,71.639156,-0.649681,51.27737,0.0,16.675575,31.727423,60.266858,48.274681,75.052994,59.141457,82.838239,65.780738,86.217778,-12.127275,270.663202,-44.260912,268.894546
108,-1.870422,0.020007,0.581474,0.192044,0.0,18.78828,0.515671,50.153217,-10.525703,56.423092,-22.33881,36.269588,-32.672024,-34.586334,0.0,7.882996,17.341862,52.49631,36.294978,70.009468,49.177534,75.216201,59.901172,79.899414,0.0,65.434399,28.208828,87.145443,18.711834,85.771923,8.617001,70.940266,-0.808353,51.022053,0.0,16.637352,31.566749,61.101292,48.047008,75.310679,59.000172,82.658731,65.629141,85.577055,-14.227438,270.70371,-43.909178,269.107091
109,-1.273212,-0.581442,0.448151,0.173457,0.0,20.608177,2.332993,52.446899,-9.657841,56.633263,-22.431221,37.422981,-34.003429,-28.395653,0.0,15.447915,17.601955,55.116627,35.368783,70.926955,47.554672,75.460362,58.146967,79.709778,0.0,64.946651,28.059998,86.573124,18.866158,85.265865,9.158478,71.111584,-0.118561,51.493092,0.0,16.454632,30.59313,59.391979,47.51194,74.556768,58.869261,81.797251,65.871387,85.237799,-15.868893,270.229189,-43.829269,269.387469
110,1.598454,0.450655,1.13308,-0.52352,0.0,20.876026,2.252941,51.135349,-10.194626,54.205227,-23.343258,32.619724,-35.024242,-35.349712,0.0,8.531499,17.06627,53.941702,35.718167,69.800566,48.925901,75.557125,60.168428,81.056987,0.0,63.698101,27.368431,84.884892,18.212357,84.153271,8.48053,70.567875,-0.850468,50.796604,0.0,17.379036,30.165756,59.985462,47.25228,74.9784,58.884822,82.242348,66.166987,85.456333,-14.63582,270.794468,-43.061571,268.978573
111,11.218243,1.014498,-0.017166,0.332773,0.0,7.047615,-11.825008,37.77626,-24.254494,42.832832,-36.073494,22.477112,-46.090164,-51.200409,0.0,13.76003,15.870535,55.270633,33.726099,69.074875,46.76334,75.570154,57.921886,81.805402,0.0,63.985462,27.176342,85.132999,17.991829,84.615383,8.109455,70.556545,-1.47543,50.423985,0.0,16.368058,29.778395,59.148805,46.939329,74.618457,58.702967,81.928594,66.145127,85.233847,-3.707685,271.875594,-43.368845,269.377975
112,-8.822308,-0.409343,0.38126,0.114979,0.0,18.936024,-0.668736,47.329388,-12.500267,50.229549,-24.837513,29.355755,-35.718327,-39.483833,0.0,9.895627,17.594792,54.08379,36.030007,69.759934,48.88422,75.003965,59.829542,80.530627,0.0,63.923264,27.267551,85.340767,17.802544,83.963356,7.690601,70.088768,-2.141933,49.665871,0.0,16.505021,29.084568,59.452,46.214194,74.277286,58.087439,81.741429,65.65452,85.01877,-12.816467,271.63591,-43.274059,269.662613
113,12.059956,0.119981,0.629997,-0.104605,0.0,4.831123,-13.620014,35.885239,-26.401634,39.162369,-38.222351,18.614159,-47.975521,-48.631382,0.0,12.650189,18.340366,53.461778,36.679065,68.344738,49.720752,75.300614,60.159968,80.072871,0.0,64.064941,26.150551,84.498596,16.782646,83.610306,6.812038,69.685822,-2.795162,49.164848,0.0,16.37164,30.419364,59.990155,47.165088,74.529042,58.620284,81.709998,65.684778,84.894219,-1.0427,271.887141,-42.93025,269.689259
114,-11.678638,-0.165923,-0.725842,-0.226686,0.0,16.464787,-0.17086,46.943264,-12.360764,52.609234,-24.701729,30.607624,-35.376835,-40.152569,0.0,4.407003,18.180556,52.968639,37.176465,68.810769,50.49535,74.653469,61.605978,80.690313,0.0,64.320774,28.336143,86.521854,19.034958,84.844151,8.544674,70.776043,-1.826248,50.332203,0.0,15.510098,30.072018,59.564694,46.757906,74.59987,58.348952,81.703267,65.843415,85.429225,-12.955427,271.794979,-43.890181,269.536334
115,16.339931,-0.030196,0.675316,0.184634,0.0,-2.580299,-18.793144,28.321037,-30.505543,34.86454,-40.303059,15.589027,-47.549915,-62.535553,0.0,5.055444,21.806726,54.490354,39.597575,68.548577,51.982547,74.939682,62.339387,82.632611,0.0,64.755993,27.648582,85.276966,18.369713,84.294376,8.089771,70.070972,-1.91637,49.608021,0.0,16.48279,30.38145,60.517442,47.163915,74.771413,58.643934,81.794843,65.836931,85.188337,3.074284,271.847621,-43.525085,269.803806
116,-23.163815,16.885218,-0.206108,-0.600523,0.0,-15.027294,-5.892677,58.210659,-10.63179,60.390644,-11.831932,50.863094,-9.754143,12.978458,0.0,40.704698,18.807014,45.320418,29.985815,53.006368,38.190222,55.359491,45.258791,55.103845,0.0,64.418278,28.244934,86.226139,18.776665,84.421749,8.194942,70.132313,-2.246761,49.324894,0.0,16.160515,30.981725,60.732765,47.446485,75.330563,58.619913,82.507936,65.584248,85.710807,-20.343847,288.773779,-43.98551,269.244224
117,12.889652,-17.237566,-0.172691,-0.071692,0.0,9.854164,-6.601353,40.774956,-17.902565,46.84124,-29.473915,26.450844,-39.454708,-51.265354,0.0,0.362907,22.07392,54.437249,39.463453,70.149024,51.332376,75.882117,61.228374,82.321512,0.0,65.568981,29.145241,86.658382,19.707642,85.073147,9.033737,70.698223,-1.552505,50.415287,0.0,16.200406,30.526563,61.123892,47.050294,75.885514,58.482333,82.520101,65.861878,85.93317,-7.692633,271.539548,-44.396639,269.175866
118,8.809776,0.321967,0.724411,-0.198281,0.0,-0.033646,-16.031628,31.193504,-28.271828,36.273651,-39.11293,16.4534,-47.471123,-57.617226,0.0,3.236895,21.505939,54.664552,38.850889,68.71734,50.705363,74.627781,60.420308,80.894275,0.0,65.149441,28.128319,85.483532,18.657532,84.625454,8.120728,69.962482,-2.167797,49.768581,0.0,16.716825,30.484079,61.734666,47.244931,76.45442,58.700683,83.041954,65.968953,85.95398,0.858307,271.838312,-43.931065,268.954383
119,9.441605,1.253348,-0.113525,0.144866,0.0,-11.778717,-25.750637,20.38044,-38.518925,28.29174,-48.120575,9.403381,-54.850731,-69.40733,0.0,9.328017,19.171403,55.227345,36.000799,69.059932,47.744554,73.794521,57.737747,81.685297,0.0,65.394802,28.191433,86.165829,18.529701,84.214039,7.958508,69.940624,-2.444172,49.423885,0.0,16.150512,29.770985,60.987609,46.471384,75.941583,58.053353,82.65657,65.550532,85.453493,10.068483,273.095411,-44.276018,269.103
120,-18.738441,15.924258,0.363121,-0.394029,0.0,11.289368,-11.214409,50.032883,-21.471577,49.04892,-27.030602,31.452827,-28.340721,-31.815147,0.0,8.577379,13.829931,45.931994,30.738244,53.57793,43.267464,58.693334,54.520797,62.116221,0.0,65.601826,28.929749,85.665722,19.311562,84.232349,8.461189,69.837627,-2.126198,49.337711,0.0,16.592953,30.792707,61.731331,47.540407,76.117695,59.002704,82.861396,66.183906,86.026784,-8.880844,288.973249,-44.123783,268.66255
