takenoko1/special-research/HandMotion_SimilarSearch_自分用/NewProject/handData/test_key/d4_feature_d2/6.csv
frame,vel_0x_L,vel_0y_L,vel_0x_R,vel_0y_R,posFromWrist_0x_L,posFromWrist_1x_L,posFromWrist_2x_L,posFromWrist_3x_L,posFromWrist_4x_L,posFromWrist_5x_L,posFromWrist_6x_L,posFromWrist_7x_L,posFromWrist_8x_L,posFromWrist_9x_L,posFromWrist_0y_L,posFromWrist_1y_L,posFromWrist_2y_L,posFromWrist_3y_L,posFromWrist_4y_L,posFromWrist_5y_L,posFromWrist_6y_L,posFromWrist_7y_L,posFromWrist_8y_L,posFromWrist_9y_L,posFromWrist_0x_R,posFromWrist_1x_R,posFromWrist_2x_R,posFromWrist_3x_R,posFromWrist_4x_R,posFromWrist_5x_R,posFromWrist_6x_R,posFromWrist_7x_R,posFromWrist_8x_R,posFromWrist_9x_R,posFromWrist_0y_R,posFromWrist_1y_R,posFromWrist_2y_R,posFromWrist_3y_R,posFromWrist_4y_R,posFromWrist_5y_R,posFromWrist_6y_R,posFromWrist_7y_R,posFromWrist_8y_R,posFromWrist_9y_R,posFromBody_0x_L,posFromBody_0y_L,posFromBody_0x_R,posFromBody_0y_R
2,49.826946,-9.667645,-1.802788,-0.293129,0.0,-43.184967,-50.982342,-8.37719,-56.199017,0.033302,-56.465034,-4.248276,-53.9851,-21.751671,0.0,13.361184,22.53711,48.516187,36.468188,57.947142,46.891472,60.929934,54.830537,61.643337,0.0,65.103493,23.901558,89.333038,14.159775,87.975655,5.768166,74.487991,-0.868893,55.727577,0.0,20.89035,33.560855,62.49506,50.922045,75.241642,62.010813,83.261724,67.714267,86.583958,28.12995,290.809166,-55.886278,276.945395
3,1.498146,-2.959018,0.337772,-0.674747,0.0,-41.014709,-47.036934,-4.099503,-52.467785,2.367554,-53.195286,-7.393341,-50.784931,-45.712337,0.0,10.354371,19.828428,51.240554,37.529677,59.257301,51.30533,65.569181,62.537791,68.420259,0.0,63.563747,24.914532,89.938946,14.971333,87.428799,5.957108,73.405094,-1.666317,54.372654,0.0,21.754979,34.270367,62.755276,51.626802,76.145792,62.694391,84.168837,68.5621,87.305141,28.842716,287.27008,-56.333885,275.690581
4,-5.626488,6.63749,-0.679207,0.479245,0.0,-34.719772,-46.298275,3.982086,-54.675064,8.71067,-56.485977,-1.146469,-54.91745,-27.573509,0.0,-0.88124,13.813938,43.622776,31.786086,55.283785,45.741556,60.598211,56.789075,62.426826,0.0,64.306583,25.266838,89.980145,15.51281,88.098164,6.536465,73.988285,-1.184292,54.396687,0.0,20.858425,34.144335,61.88509,51.277727,75.689826,62.183344,83.580047,68.034319,86.764825,22.840004,293.515732,-57.389317,275.777988
5,-15.480194,12.768441,0.011444,-0.031801,0.0,-20.054512,-29.503269,19.080734,-35.382614,23.791008,-36.628532,9.960365,-35.309887,-42.189903,0.0,-20.172872,9.054092,28.857697,24.829964,41.138804,36.116581,48.827162,44.764788,48.620051,0.0,64.068661,25.194225,89.525242,15.325928,87.620258,6.277885,73.493443,-1.436291,54.20763,0.0,21.273079,34.532498,62.213417,51.787971,76.145112,62.711557,83.88318,68.446194,86.687513,7.214785,306.037172,-57.522898,275.499185
6,18.234444,-13.898227,-0.491638,-0.170369,0.0,-43.607883,-50.764618,-3.75824,-58.07476,3.82164,-59.304657,-1.081352,-57.985153,-18.415031,0.0,17.249237,16.808771,50.487446,30.210833,59.961997,41.088477,62.167289,49.814798,60.861515,0.0,64.521732,24.520168,89.336414,14.647408,87.942524,5.718727,73.75906,-1.808281,54.259701,0.0,21.671122,34.436846,61.8008,51.783216,75.849884,62.702233,83.917019,68.36808,87.178058,25.347834,292.011477,-58.115931,275.201348
7,-0.762978,-1.896973,0.063171,-0.1164,0.0,-35.549355,-41.14048,0.030212,-48.031368,3.33252,-50.080891,-7.94323,-48.711891,-39.078712,0.0,8.934544,17.454371,46.787484,34.097034,57.651728,47.242894,63.543891,57.631289,65.656002,0.0,64.810925,24.200363,89.243946,14.296246,87.766171,5.519543,73.757915,-1.784763,54.661617,0.0,21.231521,34.336872,62.321171,51.935431,75.953007,63.102314,84.233613,68.898948,87.329285,24.469385,290.000961,-58.16823,274.971404
8,-10.926704,9.709388,-0.929317,0.060083,0.0,-24.959335,-33.829136,15.413361,-41.031303,18.903694,-43.157215,4.169426,-42.445564,-30.895271,0.0,-10.06402,12.177737,33.884674,29.556032,47.534603,41.638612,54.613485,50.957922,52.973332,0.0,65.254097,25.532284,90.65815,15.418911,88.307877,6.25906,74.239998,-1.442814,54.988403,0.0,21.580534,34.551023,62.146788,52.006073,75.919476,62.980542,84.052685,68.617181,87.260866,13.476706,299.684521,-59.163523,275.00566
9,12.567215,-10.958413,-0.154896,0.371861,0.0,-42.740135,-51.623497,-3.498459,-59.703884,2.425003,-61.333637,-2.504311,-60.011044,-19.22802,0.0,14.078909,17.713106,50.070939,33.439886,61.295744,46.272301,64.870105,56.507617,65.82174,0.0,65.457401,25.080414,90.805378,15.170746,88.921795,6.356735,74.642544,-0.955353,55.419559,0.0,20.011209,33.98508,61.648092,51.459644,75.488211,62.479746,83.391894,68.190486,86.777422,25.974112,288.707336,-59.388227,275.358749
10,-2.942047,0.338269,-0.47121,-0.203529,0.0,-31.759186,-42.780933,-0.001488,-49.241467,4.651451,-50.591869,-5.571899,-48.650951,-44.054146,0.0,12.842048,18.017906,47.24876,35.473697,57.215276,49.108374,63.529503,59.635399,66.072385,0.0,65.714836,25.745144,90.994034,15.684929,89.171104,6.515694,74.823074,-1.193848,55.072517,0.0,21.575964,33.935927,61.574423,51.391595,75.762754,62.394778,83.741339,68.102739,87.137118,23.070431,289.006933,-59.821072,275.116549
11,-18.279076,7.772586,-0.037766,0.331167,0.0,-10.751495,-29.765797,18.82473,-35.283108,26.120796,-36.648617,13.686562,-35.734863,-20.795631,0.0,-5.640221,14.795893,36.915446,32.826272,50.867581,45.099475,56.592585,53.945469,56.845145,0.0,66.238403,25.096207,90.69706,15.087318,89.152107,6.098728,74.470825,-1.345539,55.044479,0.0,21.086222,33.991379,61.853659,51.373564,76.029701,62.372547,83.564857,68.093538,86.626257,4.786291,296.76206,-59.863901,275.430256
12,18.834343,-1.466264,-0.039082,-0.308937,0.0,-42.26263,-52.517395,-6.415329,-57.266293,4.057159,-56.358089,0.223389,-52.540169,-15.634804,0.0,18.938543,17.971716,48.969126,27.897786,56.451794,35.575586,55.662871,40.840055,53.819745,0.0,66.517925,24.80444,90.56963,14.904499,89.165897,6.202526,75.060482,-0.933552,55.885792,0.0,22.059902,33.891652,62.128695,51.485765,75.807029,62.668517,83.765792,68.445206,86.939393,23.651304,295.256384,-59.872313,275.081907
13,-4.886742,-3.611041,0.400314,-0.561867,0.0,-20.168953,-34.888458,3.599625,-39.610062,7.953072,-40.701485,-0.29068,-38.886738,-19.183273,0.0,5.88148,15.711096,39.855074,33.70461,53.956645,47.825138,59.982745,58.485174,63.245575,0.0,65.476513,25.365944,90.291882,15.224247,87.830944,6.08717,74.075832,-1.673698,54.928036,0.0,22.753854,35.190819,63.17345,52.562815,76.557976,63.453488,84.599052,69.065242,87.218752,18.773832,291.519311,-59.462729,274.394007
14,-21.379051,15.112302,0.194721,0.228724,0.0,6.164703,-16.462727,26.145287,-20.817604,31.425476,-22.167034,24.175987,-21.303406,4.457932,0.0,-14.74217,7.113153,21.058249,21.35743,35.204651,32.539997,44.253865,41.06952,46.860103,0.0,65.274696,25.081272,90.091667,14.929047,87.759933,5.875626,73.976555,-1.722908,55.246468,0.0,22.765277,34.893491,63.061991,52.435795,76.474057,63.503877,84.58979,69.251976,86.801751,-2.596006,306.473084,-59.258795,274.464202
15,25.296707,3.835997,0.396194,-0.030011,0.0,-47.794933,-56.855507,-3.783989,-60.31002,7.777176,-57.854004,5.830307,-52.202225,-9.460144,0.0,22.065275,12.717744,42.840583,13.861794,42.25908,12.299324,34.300007,9.06743,26.13722,0.0,64.90242,25.227127,89.586754,14.941235,87.036438,5.679703,73.230286,-2.188854,54.461632,0.0,22.847467,34.54176,62.949543,52.078198,76.343269,63.225753,84.65259,69.083706,86.867392,22.697983,310.177321,-58.865318,274.302431
16,-5.673752,-17.01545,-0.137959,0.021613,0.0,-15.178871,-37.194443,6.959038,-42.377129,11.613121,-43.241386,1.276817,-40.994911,-25.718994,0.0,7.006943,15.141572,39.016504,32.837758,51.798777,46.551351,58.100901,56.861941,60.071418,0.0,65.107555,25.10931,89.965496,14.746056,87.380619,5.468044,73.543911,-2.371616,54.456997,0.0,22.040945,34.618948,62.714336,52.032317,76.257683,63.07996,84.605845,68.854179,87.256975,17.020597,293.064738,-59.00691,274.226911
17,5.229378,21.252454,-0.072498,-0.075583,0.0,-51.55386,-58.309708,-4.111176,-61.017323,7.327423,-57.622147,6.251221,-51.028118,-6.935806,0.0,24.546098,12.928869,42.351705,10.390742,39.089246,5.033585,29.114825,-1.703509,17.811845,0.0,65.226288,25.409946,89.765739,15.095901,87.197456,5.768738,73.293686,-2.152576,54.30027,0.0,22.23515,34.737015,62.868403,52.174096,76.178025,63.251318,84.519827,69.103589,87.489466,22.234697,314.22591,-59.094687,274.060046
18,-5.490074,-25.609995,-0.07021,0.320299,0.0,-18.222542,-39.301472,6.017189,-44.204006,12.085762,-44.538803,2.598267,-41.952839,-18.20549,0.0,14.152083,17.189894,44.432571,35.310738,57.668154,49.612257,63.01963,60.497311,65.648962,0.0,65.119457,25.682831,89.721622,15.535583,87.284145,6.18742,73.384151,-1.832027,54.411793,0.0,21.854027,34.391892,62.428123,51.774509,75.799248,62.9057,84.066702,68.877212,87.482056,16.741819,288.539637,-59.1677,274.304068
19,-22.994499,17.809683,-0.072727,0.586444,0.0,6.929741,-14.79641,30.704269,-19.167538,35.328598,-21.044254,27.122726,-20.900517,-4.760056,0.0,-15.279892,7.884663,20.053076,22.944848,35.758243,34.535956,44.143764,43.229981,43.281234,0.0,64.895439,25.412292,89.278908,15.384007,87.090797,6.149998,73.287964,-1.849937,54.148865,0.0,21.68236,33.989341,61.292718,51.26723,74.895716,62.33772,83.313594,68.290707,86.66059,-6.250391,306.323864,-59.238138,274.865055
20,30.261154,3.037379,0.011616,0.101394,0.0,-54.103088,-57.930393,-8.906822,-60.751476,3.095055,-57.564468,2.974319,-51.140213,-10.453491,0.0,22.926261,14.149242,45.784658,13.882975,43.859897,11.453343,35.801345,7.408135,26.869086,0.0,64.628506,25.072289,89.061413,15.313797,87.157116,6.358223,73.593121,-1.405964,54.801464,0.0,21.585536,33.848056,61.002182,51.192759,74.980006,62.332224,83.373307,68.287372,86.281072,24.011192,309.264835,-59.226093,274.870041
21,-0.20771,-22.753236,0.077076,0.200689,0.0,-29.088936,-44.72168,-2.917557,-49.015961,4.658432,-48.515167,-3.705711,-44.463272,-24.376602,0.0,22.748605,17.991044,49.304308,34.820996,60.156819,49.085896,64.647247,60.766481,68.078409,0.0,64.560699,25.312214,89.315987,15.398083,87.030487,6.277599,73.334885,-1.604576,54.439888,0.0,21.768996,33.71202,60.962353,51.095934,75.159205,62.153025,83.202382,67.973866,86.309477,23.803568,286.443782,-59.148932,275.002913
22,-9.270401,11.40314,0.081825,-0.144619,0.0,-20.207977,-31.188927,7.218018,-34.612312,10.640717,-34.647617,4.18293,-32.442284,-16.113281,0.0,-3.801479,12.969871,29.28044,29.451982,43.153349,41.892776,51.127674,51.338181,55.467802,0.0,64.864883,24.819317,89.690781,14.874229,87.240143,5.912132,73.575668,-1.692696,54.700241,0.0,21.722066,33.941978,60.647364,51.311011,74.424561,62.266892,83.007374,67.902976,86.223768,14.5364,297.7419,-59.063873,274.753271
23,10.23674,-0.968061,-0.214977,0.146348,0.0,-46.505184,-56.481342,-9.087181,-60.605278,0.541878,-58.599186,-1.472855,-53.679657,-15.464172,0.0,18.716303,18.662704,49.595523,26.024094,53.8605,30.890088,50.623544,33.368317,47.158543,0.0,65.23962,25.048771,89.569645,15.240898,87.499981,6.499729,74.366283,-0.759373,56.033878,0.0,21.527058,33.613219,60.827799,51.365228,74.482359,62.658514,83.172927,68.546107,85.590147,24.775829,296.717615,-59.276161,274.843396
24,-0.739746,-9.987635,-0.397453,-0.294735,0.0,-30.241356,-45.561161,-5.719299,-48.018379,2.193489,-45.954952,-1.856575,-40.371666,-17.392273,0.0,23.457808,19.512266,49.630288,34.601102,59.845659,47.224554,63.149059,57.006931,65.726768,0.0,65.482121,25.672932,91.07626,15.41811,87.572651,6.192398,73.876705,-1.421986,54.64056,0.0,21.649633,33.846389,60.385234,51.361831,74.712256,62.303881,83.019168,67.736867,86.143368,24.041348,286.657299,-59.66835,274.475981
25,-3.445244,9.779227,0.181389,-0.117758,0.0,-32.345352,-32.246361,-1.718788,-33.532677,4.502907,-32.20356,2.530632,-28.699722,-10.677681,0.0,-4.066326,14.213895,30.112774,29.370904,44.974307,40.913353,52.293151,49.819738,57.50081,0.0,65.893307,25.357647,90.273457,14.870796,87.973309,5.659962,74.07629,-1.872597,54.738865,0.0,19.925808,32.976326,61.217382,50.961751,74.64044,62.4238,83.388497,68.229265,86.003874,20.570068,296.322505,-59.512997,274.244201
26,6.173744,5.144797,-0.746441,-0.020254,0.0,-52.715492,-60.604076,-10.646896,-66.718197,-2.190742,-65.817947,-3.75824,-61.16003,-16.64875,0.0,21.403002,12.265114,48.935843,16.762952,49.92527,19.968972,45.298744,21.626723,39.813022,0.0,66.886253,25.771236,91.204605,15.474415,88.416595,6.406116,74.5364,-0.968285,55.591621,0.0,19.837443,33.257846,61.132414,51.148978,74.608021,62.500741,82.959579,68.163192,85.465349,26.7665,301.387783,-60.23675,274.144427
27,-0.813675,-16.313347,0.336742,-0.141779,0.0,-35.072594,-50.608063,-7.058029,-54.911499,-0.117645,-53.64275,-5.588722,-48.751373,-22.712402,0.0,19.928587,15.908265,50.397907,32.659361,61.054732,46.753583,65.779256,57.928432,69.947841,0.0,66.370411,25.380478,90.069294,15.234146,88.053532,6.229992,74.066792,-1.121006,55.017185,0.0,19.920868,32.677021,61.063068,50.865852,74.776353,62.526676,83.130381,68.490346,85.875557,25.966043,285.039192,-59.886789,273.967404
28,-3.763733,8.228922,-0.02615,-0.511293,0.0,-31.87397,-42.339478,-1.059036,-45.93092,3.749771,-44.725628,-1.437149,-40.491772,-15.933151,0.0,0.415951,10.929761,34.866012,27.600705,48.189528,40.87161,55.595069,51.676944,60.312121,0.0,66.421509,24.745274,90.261841,14.550591,88.196411,5.742931,74.483643,-1.321335,55.484276,0.0,20.38943,33.037273,61.189224,51.253706,74.832978,62.839319,83.496499,68.706719,86.277861,22.211781,293.252305,-59.903469,273.440303
29,3.458633,-3.389357,0.03376,0.237245,0.0,-41.76487,-55.533543,-4.468918,-65.749226,0.420799,-68.723431,-6.09993,-67.991867,-23.29319,0.0,15.69609,9.695185,47.880034,23.407296,59.278543,35.225893,60.504968,45.189198,60.761047,0.0,67.087784,25.668755,90.937729,15.702095,88.768387,6.961784,75.099792,-0.156555,56.389275,0.0,19.336339,33.131381,60.553071,51.164971,74.793766,62.735393,83.654024,68.728085,86.007703,25.670757,289.833957,-59.869366,273.648556
30,-3.074913,1.792429,1.152191,-1.364746,0.0,-35.533562,-50.300331,4.386063,-60.692654,6.702232,-63.400612,-5.394859,-62.370644,-23.679428,0.0,-0.843449,8.169209,40.731066,26.788625,54.549635,42.251423,60.975444,55.088901,64.988974,0.0,66.508141,25.498695,89.375725,15.805264,87.928505,6.751614,73.998299,-1.173763,54.009247,0.0,20.933204,33.817737,61.005393,51.297673,77.519676,62.172291,86.073344,67.749218,88.907564,22.596588,291.604187,-58.716431,272.261611
31,-20.25032,9.687096,0.590458,-3.830193,0.0,2.921219,-35.648518,19.27002,-44.022503,24.745445,-45.538559,16.478691,-42.932968,-8.915634,0.0,10.08551,5.775948,39.626968,16.977905,50.214509,27.541054,56.839834,36.515612,56.878428,0.0,66.141872,25.556202,87.626324,15.57827,84.49419,6.128025,69.678783,-2.360687,49.146481,0.0,21.268262,32.393896,65.466305,50.252918,86.504547,61.36793,95.313922,67.705498,94.904332,2.356024,301.209448,-58.116217,268.349584
32,-9.47628,22.201373,6.13718,-11.173861,0.0,-37.169037,-22.791824,7.987518,-22.578449,18.197021,-20.308914,22.161827,-17.332993,11.886635,0.0,27.264906,2.943951,16.623396,-15.307186,8.123452,-33.825332,-9.467017,-51.608833,-32.204013,0.0,64.222984,25.940037,79.252281,15.539989,75.013275,3.63596,57.341766,-9.069443,29.751148,0.0,26.691739,28.358444,66.594238,44.510314,84.967085,56.712381,92.342369,65.374173,90.189255,-7.058687,323.424529,-51.917467,257.189432
33,-23.642635,-65.28587,-6.943073,29.817545,0.0,-46.663742,-10.149193,-22.4263,3.14352,-25.904274,14.01907,-17.084427,22.548237,-7.708626,0.0,-14.423352,33.638907,42.287485,55.902895,63.7326,71.146849,75.342604,79.917321,88.499085,0.0,43.641071,27.870483,35.8354,23.657684,37.811852,16.943493,36.414185,9.785557,37.252407,0.0,49.647393,4.43121,54.409955,-8.611465,41.908893,-20.323728,25.17589,-28.977431,3.082395,-30.445833,258.171603,-58.605051,287.03992
34,41.994038,7.15817,15.750732,-88.873725,0.0,-56.59956,-35.744991,-90.0313,-28.391476,-83.614712,-19.305611,-72.532024,-9.728966,-53.259029,0.0,25.990934,27.050571,52.669026,45.417675,66.594608,58.950031,78.794822,68.386297,82.632981,0.0,68.249989,23.104534,62.48251,9.334316,41.176014,-3.410282,23.774128,-14.046707,14.429054,0.0,30.4298,7.275989,27.538214,22.879207,32.934273,38.140327,45.616944,51.919129,54.206426,11.918364,265.347078,-42.484159,198.183501
35,15.004234,4.964486,-9.526062,-53.632518,0.0,-67.321301,-36.256943,-96.260605,-30.298462,-98.340912,-22.028275,-86.576042,-13.243332,-65.449848,0.0,24.528005,27.201983,47.377139,45.550253,63.180058,58.575885,75.408862,67.182719,82.627238,0.0,74.995708,30.98402,71.718922,22.915821,37.439289,14.576912,22.762928,6.609192,16.149101,0.0,13.724214,0.836965,17.336366,18.977445,28.934761,37.420132,43.674461,54.847827,53.798811,27.160864,270.911654,-51.771955,145.151074
36,1.121407,-1.014683,-14.071026,-49.449668,0.0,-66.491375,-35.167236,-96.595116,-29.354324,-97.520027,-21.642036,-85.667553,-13.824005,-64.379711,0.0,26.306911,28.29231,50.558397,46.273844,64.608592,59.298674,76.920327,67.717169,83.27006,0.0,76.029396,25.680027,89.050941,24.513931,43.300552,23.13921,34.659863,22.192383,30.749989,0.0,-5.906674,-15.561968,-8.52202,4.752867,15.860902,25.97599,34.367686,45.926807,45.469422,28.250685,270.974516,-65.874567,96.778951
37,-0.337257,-0.295661,11.894531,-38.604783,0.0,-67.597618,-35.081291,-96.022396,-29.318733,-97.419891,-21.87355,-85.557861,-14.029999,-64.462395,0.0,26.205949,29.116678,50.71796,47.083084,62.902242,59.732285,76.241999,67.471526,83.525707,0.0,69.56749,17.042427,24.558849,13.715858,19.997005,11.438313,16.546783,9.613838,18.194504,0.0,-36.369974,-16.758537,-14.977501,-1.763067,-2.314652,13.782229,15.300177,29.102506,24.080901,27.863874,270.925564,-54.029589,58.420876
38,-1.463356,-0.115473,-10.127821,-37.037079,0.0,-66.699886,-33.555908,-95.458488,-27.909966,-96.894836,-20.63839,-85.191135,-12.943153,-64.138584,0.0,26.06843,29.13088,50.465339,47.256973,62.386009,59.928404,75.582196,67.42688,83.31767,0.0,62.619352,27.514801,54.19384,27.538691,45.883026,27.273874,37.559824,26.577616,34.391098,0.0,-35.864222,-20.726572,-30.501106,-4.596114,-12.782443,12.024673,7.154681,28.692098,18.816601,26.934814,271.475281,-63.623114,22.048988
39,-1.124611,-0.398969,-10.127821,-37.037079,0.0,-67.038574,-33.987923,-95.100002,-27.953339,-96.304493,-20.225601,-83.861675,-12.346802,-63.165379,0.0,26.570338,29.036773,52.019659,47.233075,63.771503,60.043816,76.719453,67.91088,83.187438,0.0,55.671215,37.987175,83.828831,41.361523,71.769047,43.109436,58.572865,43.541393,50.587692,0.0,-35.358471,-24.694607,-46.024712,-7.429161,-23.250234,10.267118,-0.990816,28.281689,13.552301,25.780077,272.039834,-73.781061,-14.024568
40,-0.459137,0.030258,-8.10854,-12.17607,0.0,-66.888313,-34.328156,-94.811554,-28.371391,-96.226845,-20.685883,-84.126148,-12.873688,-63.687744,0.0,26.39367,29.075861,51.318853,46.883383,63.031486,59.567473,75.763248,67.552234,82.818603,0.0,59.575768,33.904381,99.390793,41.314373,116.806984,47.021542,105.898247,50.824642,86.279755,0.0,-30.226178,-27.513544,-62.580121,-12.256963,-53.234907,4.920736,-26.973722,21.737411,2.481903,24.722099,273.864081,-82.488441,-24.40665
41,-0.550232,-0.444232,-1.144695,-9.330178,0.0,-66.179581,-34.318886,-94.064026,-28.183022,-95.360298,-20.161057,-84.057999,-11.841316,-63.237591,0.0,26.034406,29.409436,51.277233,47.134645,62.480178,59.801939,75.807708,67.810289,83.576589,0.0,48.450794,29.777412,85.40823,40.716019,55.437183,48.468647,51.838474,53.931942,57.075748,0.0,-31.355624,-31.660764,-74.788981,-17.033666,-32.607058,-1.077853,-8.774301,14.083941,6.104152,21.601725,274.452716,-86.203279,-32.70396
42,0.650139,0.04162,-0.274944,-10.89833,0.0,-66.622982,-34.851379,-94.244328,-28.807068,-95.167065,-20.870476,-84.218044,-12.551651,-63.437748,0.0,25.962158,29.29137,51.33991,47.006143,62.236017,59.611131,75.557989,67.465598,83.315138,0.0,47.83247,31.698647,86.179848,43.143883,49.256802,51.294136,50.755463,57.006798,55.599518,0.0,-28.12475,-34.849802,-67.470723,-20.575947,-24.282176,-4.674753,-6.667038,10.369839,6.811256,21.287041,276.079176,-87.443047,-42.01745
43,0.289993,-0.095837,1.082325,-5.267526,0.0,-66.040306,-33.85128,-94.581642,-27.862244,-95.600052,-20.194359,-84.50489,-12.279739,-63.87291,0.0,26.178223,29.421787,51.089265,47.350031,62.525997,59.991822,75.489014,67.803928,83.093948,0.0,44.265118,30.957642,87.597828,42.852688,48.041439,51.489544,50.390797,57.828484,56.9664,0.0,-32.074862,-36.1444,-64.841113,-22.024766,-24.623841,-6.184613,-8.108786,9.102536,5.02037,21.152859,276.785138,-86.784897,-46.483178
44,0.44838,0.471711,0.827923,-2.490363,0.0,-65.515594,-34.063911,-94.745407,-28.200188,-96.389751,-20.582199,-84.971809,-12.722397,-64.477673,0.0,25.593076,29.278093,50.810338,47.214983,62.668702,59.93106,75.473577,67.837582,82.644405,0.0,42.878551,30.750904,86.559677,42.452946,47.392216,51.045113,48.529358,57.243347,53.901958,0.0,-33.0696,-36.213467,-64.541778,-22.698186,-21.25196,-6.958376,-5.007403,8.670283,8.102179,21.332674,277.794463,-86.225538,-48.435927
45,0.697632,-0.043102,0.642471,-0.706548,0.0,-64.924908,-33.775291,-94.48391,-28.100739,-96.079102,-20.507698,-84.889469,-12.515945,-63.843784,0.0,25.525089,29.090743,50.171036,46.719559,61.718796,59.371292,75.104062,67.421508,82.38493,0.0,42.819672,29.210415,84.737091,40.532341,45.359859,49.170799,47.736053,55.475292,53.597317,0.0,-32.280892,-36.448613,-63.304268,-23.28182,-18.503202,-7.710712,-3.298213,7.883366,8.340783,21.860304,278.214721,-85.753069,-48.679116
46,-0.392761,0.122945,0.336628,-0.026491,0.0,-65.841808,-33.178482,-94.436703,-27.472572,-96.807175,-20.01297,-85.537663,-12.223091,-64.185905,0.0,25.133776,28.729688,50.409146,46.386292,61.879409,59.047226,74.974263,67.036247,82.598957,0.0,43.20488,28.731995,83.971996,40.534687,45.065918,49.593658,48.047733,56.32679,53.994427,0.0,-31.9157,-36.640008,-63.305534,-23.899694,-19.072726,-8.496857,-4.134993,7.025128,8.167665,21.373615,278.600569,-85.510368,-48.442704
47,0.412903,0.205382,-1.016636,-0.070704,0.0,-65.449104,-33.619308,-93.940086,-28.02063,-97.111015,-20.407219,-85.336418,-12.240257,-64.064198,0.0,24.689482,28.458851,49.392055,46.068586,61.983396,58.750947,75.363105,66.789554,82.275755,0.0,42.946873,28.914356,83.698769,40.292473,44.897804,49.069748,48.215561,55.380707,53.798676,0.0,-31.842958,-35.771921,-62.650764,-23.110987,-17.247415,-7.725069,-2.449917,7.779687,9.552295,21.664267,279.128674,-86.649256,-48.190685
48,-0.284615,-0.154376,-3.363647,2.033318,0.0,-65.102463,-32.856903,-94.140701,-27.211647,-96.832352,-19.609909,-85.195885,-11.45359,-63.495426,0.0,24.751726,28.347144,49.539392,45.868083,62.045949,58.500797,75.415531,66.477221,82.70245,0.0,43.507519,28.979759,82.121201,40.924644,43.998756,50.183258,48.400497,57.150764,55.436783,0.0,-31.651501,-35.170503,-62.588272,-22.563107,-19.536719,-7.591781,-4.272727,7.657483,6.986164,20.827532,279.134386,-90.565023,-45.99728
49,0.689392,-0.287757,-5.346222,0.575143,0.0,-65.904007,-32.929001,-95.758724,-27.274017,-98.097267,-19.70295,-86.602993,-11.826668,-64.570427,0.0,24.953341,28.885052,49.19643,46.926546,61.633889,59.619344,75.116289,67.254535,81.806267,0.0,44.034691,28.074303,83.899384,39.916134,44.825592,49.3923,50.059662,56.716003,56.803665,0.0,-29.579621,-34.107408,-61.712713,-21.556914,-19.779614,-6.551009,-4.650424,8.908794,6.752191,20.585604,278.826359,-96.842566,-45.442406
50,0.513496,-0.057613,-7.609978,2.114735,0.0,-65.887184,-33.17894,-94.618034,-27.501297,-97.522259,-19.893608,-85.344143,-11.954041,-63.418465,0.0,24.957726,28.762539,49.117883,46.509916,62.224717,59.151831,75.706561,67.035259,82.055059,0.0,44.116344,27.983265,81.695652,40.306721,47.625217,50.04158,52.228146,57.090282,56.607113,0.0,-28.389598,-33.504415,-62.453873,-21.004279,-19.839697,-6.023351,-4.760308,9.471371,5.78095,19.860134,278.692808,-105.691509,-43.403608
51,0.18116,0.130417,-9.003868,3.017403,0.0,-66.342316,-32.630196,-95.525665,-26.931267,-98.690414,-19.452209,-86.920967,-11.742096,-64.571228,0.0,24.866644,28.889436,48.939672,46.864425,61.637717,59.55747,74.960925,67.164071,81.646518,0.0,45.049725,27.072945,84.144058,38.232365,42.127647,47.146397,43.45665,54.265251,48.97522,0.0,-29.504717,-34.223035,-66.790511,-21.471637,-19.458605,-6.177357,-3.229176,9.623524,8.369064,19.942446,278.487828,-114.794226,-40.721602
52,0.635605,0.130232,-8.423023,1.21568,0.0,-65.424557,-34.00589,-95.52412,-28.358803,-99.070759,-20.707283,-86.420631,-12.565498,-63.931217,0.0,24.924751,28.667629,49.286894,46.430505,62.224655,59.102863,75.607945,67.027973,81.591252,0.0,43.710537,24.591866,76.586208,35.941143,39.992523,45.414276,42.642803,53.072319,49.111118,0.0,-33.293754,-31.965533,-67.000494,-19.381015,-20.008801,-4.230088,-4.739529,11.395853,7.445402,20.470619,278.248607,-123.32468,-39.875375
53,0.428696,-0.172592,-5.780582,4.334786,0.0,-65.677757,-33.22998,-95.504036,-27.728462,-98.78849,-20.190239,-87.189674,-12.159348,-64.47773,0.0,24.394809,28.399323,48.611962,46.019742,61.67557,58.43849,75.057564,66.093812,82.238458,0.0,41.106548,22.046585,76.588554,33.73558,41.241875,44.010601,45.578728,52.701187,52.32439,0.0,-31.536244,-33.974768,-70.69851,-22.102541,-21.56945,-7.492671,-6.814127,7.778854,4.980541,20.618734,277.986152,-129.385843,-35.630451
54,-0.748558,-0.125106,-2.872066,2.768487,0.0,-66.522446,-32.994232,-96.795902,-27.112198,-98.992481,-19.549026,-87.430058,-11.750793,-65.365562,0.0,25.204172,28.715424,49.83357,46.79755,62.276093,59.422668,75.176248,66.948006,82.544925,0.0,39.197502,22.055168,77.172947,32.821426,43.000603,42.585354,46.449051,51.633682,53.443508,0.0,-31.06268,-35.230185,-71.618931,-24.1525,-22.426916,-10.042593,-8.142625,5.356478,2.237125,19.692135,277.807199,-132.435951,-32.91581
55,-0.466805,0.269108,-0.460052,0.968555,0.0,-66.19051,-33.594704,-96.010323,-27.858238,-98.628616,-20.202484,-86.780376,-12.054405,-63.935337,0.0,24.729311,28.292063,49.148326,45.864439,61.744422,58.478381,74.65489,66.53187,81.832572,0.0,40.255566,21.004486,76.885586,30.830669,43.75843,40.192051,46.230068,49.065628,52.560539,0.0,-32.775884,-35.28786,-71.399933,-24.036934,-22.40308,-9.658876,-7.385257,6.040364,3.168722,19.10903,277.992729,-133.012304,-32.030834
56,-1.123924,-0.439354,0.39156,0.209797,0.0,-66.599636,-32.61097,-95.087299,-26.775055,-97.45079,-19.166336,-85.376244,-11.302071,-63.247147,0.0,25.398315,28.553267,49.722173,46.615263,62.693835,59.344122,75.619431,67.104728,82.542702,0.0,40.030689,20.010223,76.162949,29.934654,44.116688,39.450645,46.252327,48.484039,52.510014,0.0,-34.117411,-34.993156,-71.621771,-23.850417,-22.084047,-9.522191,-7.303036,6.049317,3.070601,17.982159,277.530295,-132.623692,-31.844116
57,-0.535011,0.010806,-0.115471,-1.05479,0.0,-65.823441,-32.682381,-94.281063,-26.833649,-97.336636,-19.081993,-85.204468,-11.11599,-63.118916,0.0,25.655999,28.151457,49.604785,46.039996,62.590094,58.828629,75.519951,66.885823,82.367393,0.0,40.552769,19.751987,76.930618,29.495258,43.38953,38.848171,45.979214,47.63483,51.921501,0.0,-33.873837,-34.6363,-70.463086,-22.947935,-21.635831,-8.295458,-6.811472,7.481773,3.250295,17.452812,277.526374,-132.733498,-32.913633
58,-0.279121,-0.151721,-0.522938,0.612595,0.0,-65.786591,-32.522736,-94.070778,-26.626396,-96.721115,-18.866501,-84.660072,-10.939522,-62.825718,0.0,25.657667,28.204192,50.277432,46.141513,62.942936,58.946388,75.839201,66.93405,82.186464,0.0,41.355,19.899559,77.209682,30.068836,43.742123,39.659328,46.32288,48.577766,52.586575,0.0,-33.696582,-34.862646,-70.858196,-23.58063,-23.189781,-9.226067,-8.014926,6.226726,2.186489,17.154522,277.357934,-133.275604,-32.317757
59,-0.264931,0.166603,0.095272,-0.439694,0.0,-65.652008,-32.267532,-93.443871,-26.441917,-95.82756,-18.778381,-83.744373,-11.004524,-62.210655,0.0,25.259562,28.02913,49.963493,46.008256,62.620846,58.991774,75.758493,67.192291,82.012636,0.0,41.496334,19.946251,77.142448,29.600658,42.983494,38.72818,45.505943,47.198353,51.592712,0.0,-34.578502,-34.733279,-69.940369,-23.071683,-22.252131,-8.468822,-7.108306,7.151562,3.239581,17.033186,277.338962,-133.036737,-32.943027
60,-0.001717,0.225945,-0.090523,-0.017444,0.0,-65.116539,-32.557411,-93.120575,-26.955299,-95.785446,-19.30069,-83.879471,-11.309853,-62.248192,0.0,24.958529,28.105021,49.178028,45.993745,61.877803,58.838571,75.235343,66.92911,81.804661,0.0,41.09396,20.039291,77.135525,29.938431,42.652473,39.226799,45.294628,47.788811,51.802025,0.0,-33.529208,-34.757609,-69.890197,-23.167828,-22.293906,-8.644687,-7.255673,6.826601,3.059146,17.143736,277.342111,-133.014994,-33.183267
61,1.765366,-0.572179,0.097504,-0.022662,0.0,-66.147766,-33.785019,-94.574432,-27.944298,-97.291718,-19.883194,-85.092716,-11.27655,-62.938156,0.0,25.638895,28.8409,49.354387,46.67022,62.560145,59.438168,75.994812,67.527719,82.284276,0.0,42.116547,20.763416,76.472683,31.202259,43.35537,40.680542,46.091766,49.291363,52.443924,0.0,-34.457162,-34.46343,-69.892235,-22.918511,-23.182031,-8.459992,-7.945456,7.147116,2.582402,18.923035,276.605367,-132.903557,-33.370494
62,-0.161362,-0.020933,0.002804,-0.126743,0.0,-66.45813,-33.602715,-94.620838,-27.65316,-97.568321,-19.514694,-85.371151,-10.885506,-63.213615,0.0,25.433636,28.692391,49.337962,46.451809,62.776148,59.229637,76.032665,67.305232,82.516088,0.0,42.089024,20.32299,75.673199,30.385036,43.605537,39.526405,45.734196,47.927341,51.647816,0.0,-34.727228,-34.029726,-69.276336,-22.255065,-22.71986,-7.582642,-7.309304,8.132159,3.130592,18.783903,276.503231,-132.878523,-33.578438
63,-0.090065,-0.127268,-0.283813,0.299335,0.0,-66.338825,-33.481865,-94.474411,-27.599602,-97.144203,-19.534264,-85.141754,-11.023521,-63.058147,0.0,25.590667,28.705358,49.239285,46.589019,62.52186,59.437674,75.854391,67.575946,82.383448,0.0,40.691471,20.519829,75.848751,30.419483,43.875332,39.495163,45.79525,47.922421,51.657257,0.0,-34.622406,-34.521074,-69.345064,-23.040128,-21.999603,-8.441158,-6.485862,7.389981,4.020168,18.734407,276.278213,-133.121767,-33.376854
64,-0.077248,0.136901,-0.802116,0.272721,0.0,-66.159611,-33.2547,-94.269333,-27.26635,-96.98719,-19.170456,-85.092602,-10.751839,-63.060436,0.0,25.603944,28.531469,49.143757,46.385551,62.585525,59.148373,75.853527,67.176853,82.217463,0.0,40.966301,21.319256,76.557598,31.404648,43.859138,40.484962,46.366768,48.867073,52.594643,0.0,-32.933502,-34.325232,-69.671323,-22.775374,-21.951345,-8.097795,-6.825397,7.826,3.555342,18.710089,276.260815,-133.870955,-33.258432
65,0.032387,-0.359449,-0.118561,1.016196,0.0,-65.688744,-33.021469,-94.011154,-27.116661,-96.716995,-19.062767,-84.814968,-10.655251,-62.834873,0.0,25.808276,28.52974,49.346483,46.352453,63.076749,59.199626,76.131157,67.430277,82.619211,0.0,40.985699,20.508957,76.036549,30.418167,43.668137,39.630318,46.517258,48.352203,52.642593,0.0,-34.080948,-34.611507,-70.027808,-23.096815,-22.645235,-8.529399,-7.270401,7.213652,2.747554,18.833771,275.704459,-133.89822,-32.439143
66,0.302467,0.101826,-0.697746,1.231365,0.0,-65.97353,-33.442955,-94.516754,-27.494202,-97.297554,-19.477959,-85.20504,-11.084404,-63.182373,0.0,25.633214,28.87721,49.223168,46.875726,62.928857,59.530855,76.247865,67.270405,82.435812,0.0,40.151768,21.466484,76.517658,31.381874,43.820057,40.590649,47.199841,49.418678,53.59251,0.0,-33.367175,-34.578594,-71.323362,-22.914281,-22.729802,-8.383267,-7.948791,7.418972,1.198112,19.219179,275.68933,-134.513025,-31.324734
67,-0.064659,0.105902,1.087246,0.304924,0.0,-65.056458,-33.580399,-94.621925,-27.65831,-97.190895,-19.630966,-85.068169,-11.238213,-63.051682,0.0,25.592767,28.913148,48.895396,46.856151,62.691674,59.537154,76.118374,67.478071,82.132123,0.0,42.582779,20.923176,75.566139,31.051025,43.560963,40.42408,46.172905,49.329472,53.104591,0.0,-33.981622,-34.402513,-70.308124,-22.779326,-22.890662,-8.150931,-7.33811,7.618858,2.956116,19.239779,275.767954,-133.340521,-31.047088
68,-0.14431,0.129491,0.857162,1.393738,0.0,-64.805603,-33.413315,-94.375248,-27.600517,-96.892262,-19.629707,-84.860344,-11.238785,-62.906284,0.0,25.498289,28.818115,48.635242,46.786682,62.299929,59.4633,75.625359,67.323695,82.041227,0.0,44.326172,21.835213,76.423359,31.948357,43.490467,41.107292,45.922222,49.628506,52.675953,0.0,-34.359349,-33.827555,-70.031173,-21.958261,-22.905173,-7.153723,-6.896379,8.692173,4.362821,19.22905,275.759324,-132.349777,-29.791471
69,0.618095,-0.128256,0.802402,3.087243,0.0,-65.762386,-33.244972,-94.250336,-27.440643,-96.90485,-19.510918,-85.248585,-11.242905,-63.105526,0.0,25.962961,29.166202,48.588065,47.09179,62.055212,59.66189,75.458942,67.29035,82.054997,0.0,44.304657,22.724876,76.375408,32.944279,44.684258,42.031803,46.176796,50.495453,52.904491,0.0,-33.248984,-33.090255,-69.950342,-20.879482,-22.102541,-5.859651,-6.427415,10.103757,4.753145,20.145693,275.127015,-131.248827,-27.208281
70,0.020485,-0.028158,2.845688,4.313637,0.0,-66.619892,-33.420181,-94.773045,-27.408028,-96.828403,-19.382515,-84.818401,-11.068497,-63.022957,0.0,26.01798,29.406905,49.324068,47.412522,62.80128,60.007136,76.372169,67.658444,82.76593,0.0,45.57209,22.470932,75.766239,32.709732,43.296547,41.777287,45.493412,50.397091,52.281818,0.0,-34.169498,-31.933762,-70.626447,-19.433503,-20.880593,-4.30388,-5.07153,11.88328,6.697419,20.709686,274.5151,-127.859631,-23.478402
71,0.184593,-0.104729,2.381229,6.696307,0.0,-66.648846,-33.557968,-94.045429,-27.567329,-95.957336,-19.527168,-84.175472,-11.171036,-62.426949,0.0,25.770546,29.39122,49.908597,47.325207,63.109292,59.960021,77.023141,67.587925,83.712502,0.0,46.045589,24.142799,77.129631,34.041424,43.792706,42.36517,45.436535,49.99197,51.131916,0.0,-29.956452,-30.352643,-70.285832,-17.432203,-18.362566,-1.615422,-2.297054,15.8446,10.108573,22.599735,274.156484,-123.772945,-17.035982
72,0.176239,-0.304306,2.944736,7.391154,0.0,-67.439919,-33.524437,-93.91674,-27.727203,-95.832882,-19.826546,-83.904076,-11.334114,-62.414646,0.0,25.637413,29.311315,50.082239,47.395973,63.447931,60.152991,77.293732,67.812265,84.618504,0.0,50.578823,25.565643,80.4669,35.835571,45.920506,43.908463,47.24865,50.559654,51.44125,0.0,-30.297346,-27.130291,-60.825854,-12.540737,-15.464217,4.55857,2.306934,22.87155,15.531803,24.663792,273.025711,-118.940392,-10.471295
73,0.329132,0.957131,5.394688,11.046099,0.0,-67.953358,-33.101692,-94.001026,-26.969604,-96.183472,-19.131432,-84.605083,-10.909653,-62.798595,0.0,25.02349,28.581178,50.30979,46.418402,64.026038,58.899642,76.79343,66.520508,84.476416,0.0,50.482407,27.522469,84.57962,36.93512,47.024117,43.497448,49.181843,48.222713,50.235043,0.0,-32.278021,-23.844644,-51.189393,-8.075256,-11.855616,9.967999,6.343867,28.805641,20.645324,25.820017,273.185567,-112.718611,-0.222471
74,-0.077591,0.046313,7.311916,15.393606,0.0,-67.843609,-32.997437,-93.95771,-26.788101,-95.731716,-18.936539,-84.057713,-10.750465,-62.595463,0.0,25.072705,28.679979,50.361907,46.550795,63.998065,59.122932,76.974914,66.727372,84.517542,0.0,51.724205,28.400745,73.514557,35.469933,46.780586,40.569649,46.976395,43.863144,46.739273,0.0,-25.184165,-22.745456,-39.826052,-6.35668,-6.389439,12.577787,12.121482,32.508227,27.574924,26.293516,272.250635,-104.855604,14.18989
75,0.651512,0.114053,10.278568,19.338191,0.0,-67.725849,-33.533363,-94.265671,-27.555199,-96.087914,-19.723663,-84.293404,-11.427383,-63.144951,0.0,24.439084,28.713571,50.210557,46.47336,63.71247,58.978498,76.773608,66.600104,84.165256,0.0,53.093834,29.732208,48.514309,33.280849,45.846748,35.054455,43.147545,34.858704,39.697323,0.0,-24.354146,-16.177157,-16.915723,-0.836842,-2.114087,16.387479,13.822984,33.598677,26.393515,28.085203,271.954465,-93.436861,33.117857
76,-0.215721,0.056749,10.142641,26.671423,0.0,-67.272377,-32.924995,-93.701019,-26.866837,-95.65527,-19.026375,-83.867397,-10.757561,-62.703953,0.0,24.540231,28.308735,50.691284,45.925943,63.667701,58.448,77.172392,66.119809,84.628322,0.0,59.713755,33.809424,65.907955,34.113779,61.857004,32.201243,53.038645,28.503485,43.427439,0.0,-18.535143,-9.325578,-9.499143,8.657516,5.070048,27.426322,20.50549,45.018335,33.765032,28.117447,271.894814,-83.046255,59.672881
77,0.309563,0.201677,10.142641,26.671423,0.0,-66.991768,-32.648964,-94.173317,-26.814308,-96.298141,-19.167595,-84.581223,-10.944672,-62.895126,0.0,24.052897,27.831405,50.206666,45.441017,62.899834,58.066815,77.092302,65.834028,85.167959,0.0,66.333675,37.886639,83.301601,34.946709,77.86726,29.34803,62.929745,22.148266,47.157555,0.0,-12.716139,-2.473999,-2.082564,18.151873,12.254184,38.465165,27.187996,56.437993,41.13655,28.427696,272.06083,-72.902927,86.308643
78,0.8218,0.063665,5.158396,34.638755,0.0,-66.906509,-32.437248,-94.102821,-26.751709,-96.279716,-19.265327,-84.492073,-11.272087,-63.558083,0.0,24.090318,28.077665,49.819862,45.705864,62.607014,58.328822,77.129167,66.061455,85.281271,0.0,66.99317,33.988581,83.306494,29.373035,80.363359,23.189907,68.232336,15.932665,52.842808,0.0,-10.363912,1.650079,9.014155,22.090206,22.541648,41.816344,36.5704,58.880206,46.161011,29.216022,271.989755,-67.778005,120.812659
79,0.512009,0.979115,5.158396,34.638754,0.0,-65.973587,-31.879349,-94.559669,-26.310883,-96.708698,-19.067345,-85.419559,-11.068268,-63.461094,0.0,22.848826,27.60299,48.274126,45.101575,61.143899,57.712553,75.585468,65.646492,84.63882,0.0,67.652664,30.090523,83.311386,23.799362,82.859459,17.031784,73.534927,9.717064,58.528061,0.0,-8.011684,5.774158,20.110874,26.02854,32.829113,45.167524,45.952804,61.32242,51.185472,29.774151,272.788481,-62.57349,155.271025
80,-0.299721,0.727543,-1.162834,21.971044,0.0,-64.629822,-29.872742,-94.04583,-24.473305,-95.916023,-17.517586,-85.835037,-9.728165,-64.08062,0.0,20.936168,27.664987,47.316068,45.248417,60.378688,57.487225,75.068926,64.658609,83.755851,0.0,72.940521,32.495785,94.103394,23.874149,92.654228,15.235863,79.226418,6.274738,54.617958,0.0,-4.036316,14.924087,48.680629,29.066104,60.746042,42.235121,64.771057,54.268362,61.484515,29.679565,273.556116,-63.531189,177.28216
81,2.63752,7.273458,5.343761,87.506756,0.0,-50.456314,-32.538986,-93.764992,-30.39299,-98.198776,-25.32692,-88.268509,-18.406105,-66.778965,0.0,-16.279632,22.403049,37.973416,36.976455,53.004948,48.519892,64.705663,57.734659,74.497858,0.0,60.883312,54.669514,24.51416,55.801449,21.391582,49.170742,25.762768,37.417717,39.179535,0.0,32.884132,6.879737,80.705936,-8.232133,64.492069,-20.629886,49.286585,-30.933066,20.684289,32.583017,280.541816,-57.921495,264.501159
82,3.059807,41.895246,-7.311287,-29.499469,0.0,-67.262192,-25.232849,-94.757252,-24.310913,-98.767204,-22.769279,-84.830589,-21.343002,-70.995483,0.0,31.358403,13.245216,19.773964,-3.104934,-14.011477,-22.494625,-41.188575,-42.541217,-58.54112,0.0,75.995007,31.320534,90.957127,20.495968,80.980968,9.690113,61.863041,-0.201302,41.158276,0.0,4.123754,26.158216,65.200037,46.503988,80.757683,62.060152,86.478179,71.612941,87.978529,35.607233,322.117504,-65.268373,234.682132
83,-10.599174,-42.556223,-2.353706,16.429068,0.0,-61.003132,-16.112022,-83.26767,-11.885033,-86.317234,-8.326607,-79.109573,-5.830193,-57.455978,0.0,11.530346,41.317262,32.865113,47.703058,29.827302,49.110967,38.31329,46.142563,53.536434,0.0,74.613819,25.363884,88.702526,14.145985,83.967762,4.919987,68.7644,-2.669334,43.88752,0.0,2.675584,28.03833,65.222885,44.757193,82.041474,57.289933,91.061912,64.899806,93.849202,24.83923,279.401811,-67.790909,250.951729
84,2.549057,-5.371483,-2.663441,13.251144,0.0,-60.933552,-29.594307,-66.279488,-24.330482,-57.497463,-17.221527,-45.137501,-8.996201,-33.767281,0.0,3.11253,29.301991,43.424989,41.862889,57.093319,50.998307,63.543953,56.798585,65.992851,0.0,74.452057,26.041603,85.283089,14.88327,84.931641,5.109043,69.233437,-3.308601,47.470608,0.0,6.143425,29.377388,65.271667,45.709322,81.920073,57.242755,90.000484,63.787002,90.56723,27.037868,273.956644,-70.804768,264.12919
85,1.837807,-2.394187,-1.316299,7.228194,0.0,-61.574421,-29.635506,-42.807999,-24.036255,-33.969383,-15.756683,-24.2062,-5.638161,-17.859192,0.0,6.140276,23.270149,49.045326,38.470074,63.837761,50.189747,72.224826,58.487211,79.030709,0.0,72.775955,25.019817,84.057884,13.473244,85.493889,3.762817,70.099869,-3.86364,48.458691,0.0,2.892575,31.024951,67.766075,47.76629,84.777696,59.173691,91.211904,65.299764,91.142311,28.552551,271.491614,-72.444191,271.286541
86,-0.06443,0.141964,0.070667,3.680016,0.0,-47.008839,-33.733177,-44.781303,-25.775642,-31.706429,-14.819984,-19.146767,-2.882538,-10.514145,0.0,9.143631,27.848077,19.317752,42.732397,28.385429,52.166933,41.208026,57.819937,54.158137,0.0,71.609058,26.480141,88.072987,14.784222,87.518864,4.429779,71.973324,-4.103851,49.963589,0.0,0.597497,33.460387,68.795516,50.004866,86.14553,60.758824,92.863295,67.125044,92.129515,28.331251,271.57964,-72.530394,274.912618
87,0.035591,-0.308011,-0.982418,2.582217,0.0,-41.004868,-31.629181,-50.222969,-25.140381,-32.80529,-15.327301,-18.947639,-4.255257,-11.392593,0.0,10.645709,25.213249,21.132843,39.836055,29.796797,49.581752,41.721851,55.882641,52.441043,0.0,71.688652,25.352039,89.508133,15.697861,90.005722,7.006474,75.603676,-0.579014,54.511471,0.0,-0.901062,31.865683,66.924417,48.620978,82.11508,59.573895,88.937081,66.263935,89.667464,28.310423,271.181149,-73.569231,277.404355
88,-4.995804,4.884735,1.881351,-0.223845,0.0,-40.8811,-39.220848,-31.424904,-38.307123,-18.65736,-33.249893,-12.690697,-26.06761,-14.493256,0.0,6.695104,26.805113,37.290611,43.051338,49.3467,55.277024,58.324747,64.117337,64.928706,0.0,69.829617,25.284405,91.647091,16.119461,91.599255,7.986946,78.058376,1.082897,58.946629,0.0,0.839806,34.609809,69.317801,51.409132,81.596068,62.35464,88.283267,68.780388,89.710134,23.347836,275.993481,-71.654663,277.108108
89,-4.995804,4.884736,2.248249,0.068419,0.0,-40.757332,-46.812515,-12.626839,-51.473866,-4.50943,-51.172485,-6.433754,-47.879963,-17.593918,0.0,2.744497,28.396977,53.448378,46.26662,68.896602,60.972295,74.927641,72.352031,77.416368,0.0,68.730469,27.117863,91.600685,17.708702,90.945625,8.934631,75.373192,0.949917,55.656738,0.0,1.262672,34.71991,68.295709,51.004667,80.707109,61.649821,87.532568,67.957193,89.594537,18.478003,280.81764,-69.280443,277.11595
90,-2.759285,7.572885,0.683384,0.055884,0.0,-42.034664,-33.886185,-4.204102,-38.421307,2.500191,-39.466896,-7.891388,-38.52705,-22.578735,0.0,-6.136941,21.927263,46.947665,40.363342,62.389776,54.321467,69.004789,64.989221,71.240648,0.0,69.738407,26.469154,89.973164,17.243729,89.042072,8.979321,74.575481,1.983833,55.267239,0.0,5.002771,34.713982,69.190349,51.547391,80.111712,62.360321,86.844236,68.350111,88.861189,15.855331,288.351051,-68.460445,277.13236
91,6.260948,-5.012651,0.729218,-0.586814,0.0,-49.840794,-51.793041,-15.595093,-56.842518,-7.090416,-56.503029,-8.777275,-53.232365,-21.327782,0.0,1.181594,28.907344,50.835471,46.435445,63.327456,60.708559,69.314096,71.915394,71.852532,0.0,68.626842,24.887066,89.011631,15.845661,89.114285,8.059044,74.681683,1.541348,55.340366,0.0,7.343729,33.315521,67.564584,50.562596,79.449686,61.733801,86.398583,68.022772,89.101769,22.23341,283.275075,-67.614098,276.482221
92,-0.052414,1.80021,1.881866,-0.410393,0.0,-33.968697,-42.462215,-8.679886,-49.105453,-2.446175,-50.709972,-13.557587,-49.857216,-26.808586,0.0,7.73992,18.676165,51.595186,36.989176,66.267022,52.004777,73.007327,64.56092,73.824223,0.0,68.145618,23.916206,87.560406,14.55637,86.589031,6.420021,71.965885,-0.388012,53.066654,0.0,7.857616,34.062083,67.064282,50.689802,78.547265,61.483465,85.905815,67.566189,89.031559,22.343273,284.983801,-65.569954,275.980344
93,-27.619972,22.376559,1.45649,0.110904,0.0,-0.636406,-9.148064,19.933434,-14.665318,22.095222,-18.958797,12.914314,-22.425613,-2.437019,0.0,-22.672837,5.400259,17.380888,21.332112,35.692047,33.999839,43.769742,44.173342,49.882909,0.0,67.203083,22.510872,87.25668,13.035965,86.52998,5.146179,72.66489,-1.082726,53.980465,0.0,8.109496,34.211272,65.971855,51.016894,77.210924,61.789438,85.512773,67.662211,89.127395,-5.221453,307.33356,-64.058218,276.064448
94,29.06971,-25.808338,-0.155582,0.033963,0.0,-43.721123,-50.558167,-18.542175,-54.591179,-9.950638,-53.897095,-12.73407,-50.436287,-23.558464,0.0,2.500212,27.830231,47.633156,45.67079,60.751784,60.53115,66.856121,72.130965,71.724833,0.0,66.990967,23.873806,87.785454,14.284058,86.863403,6.102562,72.551079,-0.634003,53.797531,0.0,7.783145,34.06023,65.313658,50.918278,77.515848,61.810063,85.936319,67.914338,89.537727,23.896751,281.461373,-64.165306,276.034561
95,0.307045,3.209292,0.319176,0.472699,0.0,-35.73658,-39.238815,-12.489395,-44.355412,-7.901573,-45.326786,-14.796753,-43.765812,-27.686462,0.0,7.646368,19.17517,50.207222,36.189508,64.435814,50.383828,69.913261,62.214034,73.172818,0.0,67.388878,23.12376,87.148705,13.591976,85.902214,5.653152,72.034035,-0.730305,53.737793,0.0,7.15218,33.126811,65.417707,50.352953,77.064391,61.581216,85.125598,67.830543,88.783075,24.180479,284.624352,-63.869448,276.460948
96,-0.741806,-1.520419,0.849552,0.299366,0.0,-39.500141,-43.451557,-16.671353,-47.880564,-8.711186,-48.093024,-13.281098,-45.914583,-25.033036,0.0,7.738346,23.649574,48.790421,40.992857,61.86323,55.556846,67.957039,67.30835,72.342275,0.0,66.991482,21.888027,86.511669,12.490368,85.683804,4.74123,72.181721,-1.359043,53.70512,0.0,7.276669,33.169234,64.930929,50.300836,76.227487,61.400719,84.501857,67.501784,88.428381,23.467083,283.043526,-62.991486,276.699907
97,-0.741806,-1.520419,-0.701694,0.17216,0.0,-43.263702,-47.664299,-20.85331,-51.405716,-9.520798,-50.859261,-11.765442,-48.063354,-22.379608,0.0,7.830323,28.123978,47.373619,45.796205,59.290646,60.729863,66.000816,72.402667,71.511732,0.0,67.603111,23.131599,86.703873,14.344082,87.333298,6.821938,74.382362,0.577068,55.308838,0.0,6.767907,32.37006,63.897597,49.618556,75.504822,61.119014,84.306294,67.697965,88.591278,22.717066,281.504274,-63.701391,276.853233
98,-1.48613,4.518092,0.512238,0.483814,0.0,-44.612617,-33.883438,-9.403725,-39.225483,-6.415787,-41.51865,-12.399445,-41.198616,-27.571449,0.0,2.872629,20.475757,46.021532,38.101177,60.756292,52.875272,67.030813,64.846269,70.707927,0.0,67.497826,23.19849,86.70742,14.668636,87.423248,7.268314,74.477692,1.136799,55.773811,0.0,6.362886,32.50764,63.559946,49.887293,74.099074,61.377439,82.497686,68.01178,87.945987,21.216946,285.973429,-63.203144,277.28811
99,0.258923,-2.109302,-0.15192,-0.436328,0.0,-43.982449,-40.485049,-13.992405,-44.673701,-6.7622,-45.340033,-10.610848,-43.691597,-23.441163,0.0,5.388897,24.517044,46.658365,42.047585,60.30147,56.833165,66.547308,68.498806,71.112732,0.0,67.245998,23.296452,87.599545,14.420872,87.746601,6.819305,74.754238,0.532379,55.749035,0.0,6.931978,32.000916,64.062594,49.402306,75.037433,60.864541,83.275124,67.376122,88.163965,21.443768,283.809879,-63.387165,276.797534
100,0.258922,-2.109301,0.960045,0.770275,0.0,-43.35228,-47.086658,-18.581085,-50.121918,-7.108612,-49.161415,-8.82225,-46.184578,-19.310875,0.0,7.905164,28.558331,47.295196,45.993992,59.846647,60.791058,66.063802,72.151343,71.517536,0.0,67.873478,23.318653,87.350178,14.341908,86.468182,6.535778,73.636036,0.105915,55.892315,0.0,6.967175,32.626324,64.310152,49.955898,74.259749,61.230782,82.662127,67.546553,87.069254,21.602468,281.638118,-62.527342,277.505348
101,0.438995,6.065558,-0.215721,0.532721,0.0,-35.648804,-35.160828,-7.833366,-41.514874,-4.803314,-44.258022,-12.805939,-44.106445,-28.053246,0.0,3.594491,18.163698,43.944001,35.533163,58.983129,49.961209,65.586656,61.883299,69.577709,0.0,68.263493,24.115963,87.648182,15.246391,87.359219,7.503719,74.604549,1.121807,56.583309,0.0,5.982503,31.66308,63.947245,49.557608,74.12149,61.390778,82.044685,68.038518,87.112788,22.045527,287.622891,-62.739,277.957284
102,-0.831527,-2.649124,0.499477,0.325733,0.0,-37.463494,-41.094017,-9.643364,-46.68088,-4.213085,-48.169213,-10.485535,-46.657849,-23.935032,0.0,7.231745,22.062342,46.957885,39.3247,60.269606,53.656878,66.00869,65.16311,70.378674,0.0,68.658257,23.914318,88.673286,14.384251,86.460114,6.339397,73.321266,0.054131,55.736275,0.0,5.594958,31.735204,64.46107,49.673946,73.929075,61.316554,81.834425,67.583418,86.230066,21.203671,284.901735,-62.249851,278.210985
103,-0.831528,-2.649123,-0.235062,-0.016549,0.0,-39.278183,-47.027206,-11.453362,-51.846886,-3.622856,-52.080402,-8.165131,-49.209251,-19.816818,0.0,10.868999,25.960985,49.971768,43.116237,61.556083,57.352548,66.430723,68.442922,71.179638,0.0,69.350395,24.989605,88.510323,15.800743,86.445122,7.729912,72.923126,1.032829,55.568161,0.0,6.121874,32.032223,64.521462,49.716553,73.347448,61.417948,81.474852,67.985536,86.648857,20.383787,282.228344,-62.473269,278.170168
104,-1.259651,6.403826,0.149059,-0.316718,0.0,-31.040039,-36.141815,-3.39077,-43.013992,0.077019,-45.583134,-9.584541,-45.285416,-24.890671,0.0,3.603507,17.837718,42.912646,35.374032,59.174247,49.894086,66.545208,62.113566,70.763687,0.0,68.384228,25.197201,88.572636,15.68573,85.629559,7.348194,71.967373,0.551949,54.94566,0.0,6.380238,33.043263,65.614197,50.534129,74.097469,61.824142,81.867152,68.025983,86.735246,19.165792,288.553655,-62.282553,277.774935
105,-20.432053,18.970035,-0.161247,-0.020995,0.0,1.26709,-17.675629,19.765434,-25.221577,20.793343,-29.255791,11.165428,-30.855904,-4.633827,0.0,-15.469898,6.109833,21.437458,20.884236,38.107785,32.770079,45.818682,41.965703,50.629657,0.0,68.075466,25.723343,88.629284,16.359844,86.046925,8.004684,72.338276,1.044731,55.133686,0.0,6.582223,33.337751,64.796251,50.59131,74.472047,61.839765,82.433095,68.09045,86.978728,-1.160173,307.477871,-62.337713,277.708121
106,24.047241,-25.502858,0.360432,0.103061,0.0,-40.727863,-48.607063,-15.672569,-52.779064,-7.978592,-52.365704,-11.061745,-49.020424,-21.477585,0.0,10.759454,29.017692,54.336781,44.686735,64.567157,57.622582,67.967814,67.458003,71.173278,0.0,67.453995,25.282974,88.063087,15.944881,86.411476,7.622223,72.244034,0.620728,54.630775,0.0,6.748764,33.387645,64.447238,50.595632,74.128776,61.74399,82.05123,67.941694,86.834417,22.985287,281.919978,-61.879063,277.756147
107,-1.026077,5.229087,-0.013676,-0.010868,0.0,-38.79427,-33.033829,-11.514359,-38.799133,-9.088898,-41.729164,-16.467476,-41.998215,-30.253601,0.0,6.214994,18.719205,45.660416,35.532793,58.85617,49.886923,66.152908,61.778076,70.705518,0.0,67.850819,25.24847,88.740406,15.706959,86.036739,7.42178,72.024136,0.665588,54.687939,0.0,6.965323,34.116856,65.088763,51.476934,74.625929,62.501853,82.297738,68.421124,87.020965,22.058315,287.114808,-61.793633,277.711023
108,-4.001083,-0.53232,-0.583134,-0.048227,0.0,-32.73511,-38.642321,-5.286999,-44.734726,-1.223545,-46.721678,-8.146935,-45.987883,-22.202683,0.0,6.236699,19.912594,45.109818,37.242692,59.356935,51.686423,66.44227,63.187406,70.81704,0.0,68.866653,25.474434,89.106903,16.165638,86.526833,8.012753,72.225952,1.316414,55.367661,0.0,6.711405,33.743574,65.095741,51.1039,74.490325,62.358098,82.5398,68.594828,87.57746,18.106041,286.541162,-62.327957,277.62147
109,-4.001084,-0.532319,0.297604,1.078286,0.0,-26.675949,-44.250813,0.940361,-50.670319,6.641808,-51.714191,0.173607,-49.977551,-14.151764,0.0,6.258404,21.105982,44.559221,38.952592,59.8577,53.485922,66.731632,64.596735,70.928561,0.0,68.441448,23.92004,89.379673,14.610958,86.897907,6.911316,72.844677,1.014404,56.106434,0.0,6.723879,31.244226,65.30421,49.478506,74.16206,61.458394,81.521906,68.286014,87.233078,14.368429,285.960338,-61.766882,278.65125
110,-19.911804,17.034283,0.237637,-0.168332,0.0,-1.819839,-21.427288,25.78743,-28.398514,31.159859,-31.129932,20.347023,-31.975479,3.192787,0.0,-16.967408,9.482949,30.609185,25.904174,47.048812,38.531701,53.789364,48.922875,55.369124,0.0,68.319054,23.557777,89.1259,14.084759,86.522141,6.263809,72.574539,0.26207,56.026611,0.0,6.512075,31.377793,65.178733,49.829557,73.796003,61.933934,81.612864,68.665161,87.203314,-5.327997,302.978427,-61.313868,278.466725
111,26.901855,-17.399722,0.041599,0.011424,0.0,-37.737236,-51.535091,-8.666382,-57.010059,-1.031685,-56.745529,-5.724907,-53.275967,-18.677788,0.0,11.759378,26.842163,51.771545,42.399994,62.351305,54.599714,65.767894,63.28139,67.871854,0.0,69.43182,23.503075,88.980045,14.061069,86.656208,6.116352,72.548046,-0.076675,55.703602,0.0,6.330652,31.284117,64.206411,49.46208,73.753766,61.476549,82.200296,68.196599,87.730539,21.840677,285.536483,-61.005449,278.435927
112,-6.648788,4.853582,0.54348,0.447011,0.0,-23.705978,-36.554146,5.648689,-43.765411,9.670029,-46.350861,-1.414261,-46.322536,-17.557297,0.0,2.846015,17.547182,41.254092,35.41312,56.618459,49.816774,63.559761,61.252024,66.827284,0.0,68.772869,23.232422,88.242931,13.755798,86.240673,5.750713,72.203693,-0.513897,55.054379,0.0,5.974229,31.024827,63.7728,49.077622,73.331825,61.130561,81.547965,68.007581,87.367694,15.429239,290.34031,-60.224619,278.833183
113,6.614571,-5.073784,0.134525,-0.145052,0.0,-35.238075,-50.183258,-9.776001,-54.995155,-2.079735,-54.577103,-6.439362,-51.153603,-18.658676,0.0,10.642498,27.790032,53.018286,42.962355,63.004069,54.793796,66.101099,63.113985,68.46472,0.0,68.397217,23.331413,88.281898,13.857822,85.84362,5.932388,72.232704,-0.148773,55.083733,0.0,6.454832,32.053774,64.510964,50.031851,73.706712,61.847422,81.677085,68.440822,87.708618,22.327108,285.186729,-59.806795,278.608334
114,-3.705482,3.222013,0.047264,0.121834,0.0,-32.99675,-37.961826,0.314369,-43.884144,5.26783,-45.681896,-6.450691,-44.808254,-22.457199,0.0,1.620887,20.172933,43.890773,37.856028,58.029517,52.395842,65.438949,64.039129,69.177505,0.0,68.433838,23.712788,88.479652,14.179516,85.565758,6.048088,71.587143,-0.292568,54.726677,0.0,5.974846,32.04408,64.368074,49.938423,73.20147,61.774433,81.373952,68.449652,87.441177,18.977165,288.369268,-59.403992,278.690693
115,-27.021904,20.631307,-0.230598,-0.02612,0.0,6.464653,-10.976658,29.851456,-16.972332,33.708115,-20.470791,23.760338,-22.459717,5.405273,0.0,-15.559992,5.769526,22.374336,20.383564,37.584388,32.189687,44.173095,41.753344,47.356329,0.0,68.54805,23.689384,88.728333,14.066277,85.621147,5.972157,72.148018,-0.295086,54.875336,0.0,6.600255,31.826471,64.491451,49.854874,73.452918,61.744854,81.735809,68.337637,87.797909,-7.836828,308.994924,-59.42668,278.658923
116,26.854248,-25.706079,0.540676,0.383161,0.0,-30.667648,-44.682598,-6.001854,-50.860233,0.975494,-52.299843,-4.720573,-50.782013,-18.291321,0.0,6.888999,26.86921,47.29884,44.38033,60.500892,58.739956,67.351298,69.733443,72.537591,0.0,68.145046,23.044968,88.30965,13.402348,85.466824,5.280991,71.703243,-1.038437,54.312687,0.0,6.922715,31.74811,63.67122,49.708649,72.788422,61.466854,81.436567,67.944102,87.319158,19.347668,283.258217,-58.555756,279.011456
117,-8.482475,10.786562,-0.111237,-0.199886,0.0,-24.736977,-33.477402,15.087433,-41.720123,19.642525,-45.050125,4.39579,-46.310921,-13.131294,0.0,-7.938942,14.961199,40.057431,33.704486,56.675516,47.768081,63.229026,58.866544,64.214377,0.0,67.77071,23.180866,88.221874,13.422947,85.469112,5.134964,71.452274,-1.341534,54.086781,0.0,6.721903,32.206668,63.368396,50.023823,73.265011,61.634753,82.151143,67.928849,87.455441,11.150866,293.990948,-58.381319,278.757739
118,-18.027992,12.814878,0.00412,0.337775,0.0,11.866837,-20.009995,28.292542,-28.745384,34.205475,-31.61253,24.249573,-31.408253,5.393486,0.0,-16.935915,6.854728,25.095367,22.0972,40.44936,34.395041,48.275299,44.338834,52.153966,0.0,67.755833,23.784142,88.136501,13.970146,85.35284,5.540371,71.651974,-1.081581,54.159451,0.0,6.255811,31.440655,63.030436,49.391005,73.01554,61.223187,81.938598,67.764099,87.558873,-6.638174,306.728823,-58.138247,279.018511
119,28.135757,-24.554372,0.027409,0.002161,0.0,-30.876617,-49.472065,-4.731331,-56.771107,1.143723,-58.091183,-4.620667,-56.17384,-19.647446,0.0,6.410187,25.132356,48.476976,43.54318,62.692106,58.984611,70.098141,71.353651,74.19102,0.0,68.004684,23.343315,87.829857,13.666134,85.856438,5.378437,71.622047,-1.298676,54.177132,0.0,6.991937,31.77034,63.388836,49.498327,73.226232,61.202439,81.680728,67.762926,87.183369,21.69857,282.096537,-57.909851,278.942759
120,-13.794136,9.811893,-0.053558,0.253053,0.0,-8.979378,-27.628441,15.296173,-36.328926,18.592758,-40.970364,3.695641,-43.397369,-14.74617,0.0,-1.169491,14.957555,41.727779,34.580725,58.330242,49.486039,65.145017,60.81409,66.002237,0.0,68.484077,22.715836,87.295418,13.374996,85.521927,5.411167,72.377243,-1.110249,54.891815,0.0,6.033509,31.88958,62.36452,49.442505,71.306288,61.011198,80.445843,67.447567,87.232399,8.019762,291.859571,-57.848082,279.146952
