takenoko1/special-research/HandMotion_SimilarSearch_自分用/NewProject/handData/test_key/d4_feature_d2/60.csv
frame,vel_0x_L,vel_0y_L,vel_0x_R,vel_0y_R,posFromWrist_0x_L,posFromWrist_1x_L,posFromWrist_2x_L,posFromWrist_3x_L,posFromWrist_4x_L,posFromWrist_5x_L,posFromWrist_6x_L,posFromWrist_7x_L,posFromWrist_8x_L,posFromWrist_9x_L,posFromWrist_0y_L,posFromWrist_1y_L,posFromWrist_2y_L,posFromWrist_3y_L,posFromWrist_4y_L,posFromWrist_5y_L,posFromWrist_6y_L,posFromWrist_7y_L,posFromWrist_8y_L,posFromWrist_9y_L,posFromWrist_0x_R,posFromWrist_1x_R,posFromWrist_2x_R,posFromWrist_3x_R,posFromWrist_4x_R,posFromWrist_5x_R,posFromWrist_6x_R,posFromWrist_7x_R,posFromWrist_8x_R,posFromWrist_9x_R,posFromWrist_0y_R,posFromWrist_1y_R,posFromWrist_2y_R,posFromWrist_3y_R,posFromWrist_4y_R,posFromWrist_5y_R,posFromWrist_6y_R,posFromWrist_7y_R,posFromWrist_8y_R,posFromWrist_9y_R,posFromBody_0x_L,posFromBody_0y_L,posFromBody_0x_R,posFromBody_0y_R
2,-24.682961,11.437967,-0.168858,0.898901,0.0,-17.253742,-18.153992,34.979897,-26.903229,40.97065,-30.882053,26.254692,-31.764336,-15.087147,0.0,26.811967,15.700722,43.494829,32.632437,52.826242,44.832837,57.403924,53.658823,57.505256,0.0,65.485039,26.471958,86.674461,16.814861,85.427856,6.543789,70.856552,-3.055859,50.248947,0.0,17.805793,30.55645,58.980227,47.825509,73.683864,59.698631,81.209511,66.932507,86.52758,-11.081114,287.999337,-52.206831,270.980182
3,3.403473,-12.523045,-0.15192,-0.027355,0.0,1.835804,-12.462101,36.423798,-24.474621,36.458473,-35.569839,18.981628,-44.551849,-25.279026,0.0,9.530003,17.51217,50.446011,36.650352,65.418263,50.369996,73.282548,60.918943,75.641476,0.0,65.821781,26.538734,86.341038,17.194004,85.81255,7.141228,71.185398,-2.488346,50.604916,0.0,17.677908,31.036992,59.080201,48.24677,72.862954,60.081731,81.320538,67.33481,87.093399,-6.725492,276.32698,-51.406603,271.803516
4,-15.580616,-2.016213,0.060883,0.012165,0.0,19.160213,-0.449696,51.972027,-12.282944,54.396572,-23.016872,34.436474,-31.898804,-12.625637,0.0,9.666718,21.064856,52.724601,39.974623,68.4838,52.85755,74.903126,62.546066,75.363414,0.0,65.621967,26.318321,86.995411,16.754265,86.416454,6.797161,72.369633,-2.477703,51.799679,0.0,17.700076,31.065274,59.031171,48.540949,72.383339,60.497805,81.113303,67.694074,86.845903,-21.902676,274.69907,-50.942287,272.203983
5,1.030655,1.238034,0.315571,0.14641,0.0,16.38113,1.265545,50.622654,-11.1026,53.771496,-23.080158,31.963406,-33.426018,-15.329876,0.0,10.886783,18.928663,50.853255,38.19368,66.929728,51.646316,73.369802,61.877,74.4048,0.0,66.040878,25.812836,86.613808,16.298447,86.220932,6.675167,72.2826,-2.169399,51.733818,0.0,17.185634,30.448264,58.904088,48.110796,72.140289,60.376218,80.922803,67.823627,86.845841,-20.679302,276.170397,-50.433998,272.583686
6,4.41021,-0.499376,0.622902,0.667831,0.0,8.298512,-5.714779,45.058537,-18.225574,50.154591,-29.370289,29.820499,-38.524933,-23.788548,0.0,10.126203,19.330287,52.482725,38.604937,67.254967,52.267216,74.26895,62.397495,76.426818,0.0,65.81852,26.162281,86.542625,16.674557,85.876579,6.815987,71.268539,-2.378082,50.737839,0.0,16.554174,29.991372,58.235887,47.405174,71.754781,59.528879,80.161853,67.04199,85.979174,-16.145582,275.731197,-49.687586,273.311692
7,0.084,0.342036,0.049953,-0.20779,0.0,13.299351,-5.230465,46.128559,-17.596722,50.43005,-28.710194,29.486561,-38.12479,-20.511932,0.0,8.94782,18.265154,51.426793,37.708136,66.547616,51.784513,74.435861,62.416267,77.031539,0.0,65.117741,25.972881,87.021275,16.576538,85.734844,6.691475,71.082745,-2.684841,50.209179,0.0,16.693853,30.058495,58.221499,47.129952,72.321033,58.993565,80.53674,66.442579,86.375303,-15.905228,276.082155,-49.481277,273.112825
8,0.571461,-0.323449,0.409069,-0.044213,0.0,8.652992,-7.185802,44.568329,-18.632069,50.719757,-28.683987,30.180016,-36.955204,-29.040985,0.0,13.443373,19.089831,51.71066,38.783396,66.685505,52.823464,74.203247,63.345549,79.166992,0.0,65.166206,26.239872,86.619759,16.68766,85.372353,6.609478,70.548706,-2.941475,50.00679,0.0,17.278939,30.267891,58.35241,47.289515,72.393342,59.103295,80.362418,66.465056,85.97831,-15.230856,275.746295,-48.969297,273.0562
9,12.634735,0.30832,0.951977,0.044831,0.0,-0.154495,-19.044914,33.325424,-30.871181,38.074951,-40.095921,19.970856,-46.590385,-35.386906,0.0,15.377211,18.79028,52.70268,37.541101,67.032604,50.853934,72.865733,61.406586,79.525886,0.0,65.240078,25.681801,85.140667,15.94717,84.349995,5.948524,70.209217,-3.4342,49.550915,0.0,17.078311,30.773874,58.514073,47.893928,71.863524,59.745253,80.539519,67.052179,86.043271,-2.457647,276.047699,-47.878847,273.094115
10,-14.940033,11.752647,0.070381,-0.1658,0.0,-3.383331,-7.916565,49.65168,-16.757126,48.889961,-20.468044,36.182098,-21.150627,5.792542,0.0,30.312289,15.786925,42.896035,32.393772,52.85298,44.953003,59.17085,55.424515,60.441303,0.0,65.088673,26.073303,85.832233,16.375694,84.806614,6.149368,70.540524,-3.63327,49.557896,0.0,16.709847,30.791658,58.615961,47.828905,71.75719,59.56982,80.923297,66.803201,86.625083,-17.330303,287.81779,-47.741089,272.945759
11,32.456703,-4.903106,0.191288,-0.211001,0.0,-35.064754,-41.090126,16.125526,-51.530743,18.99353,-55.348778,8.752441,-55.969849,-49.998207,0.0,23.05995,12.074799,49.778489,29.977232,61.342118,43.21158,65.365652,54.165424,70.539533,0.0,65.336151,26.071873,85.821648,16.477146,84.745789,6.347065,70.579834,-3.324795,49.887886,0.0,17.787453,31.17204,58.962813,48.012551,72.036302,59.577909,80.99925,66.663522,86.296386,15.151405,282.934691,-47.524796,272.754765
12,-23.146133,11.499656,0.502968,0.158637,0.0,1.949902,-15.740261,36.001396,-24.369736,39.291,-28.288193,31.728859,-29.708233,11.031303,0.0,4.589414,9.258733,34.33891,26.195019,51.729864,39.899967,54.980591,49.82474,56.842613,0.0,64.557495,26.054821,85.405655,16.748772,84.819603,6.897984,70.292473,-2.352791,50.139771,0.0,17.665681,31.650235,58.702165,48.607763,71.683398,60.121807,80.572679,67.100159,85.862836,-7.960224,294.450942,-46.987324,272.929998
13,22.408676,-13.350007,0.477333,0.413975,0.0,-26.504345,-33.004074,18.55442,-47.389297,16.554451,-55.55666,0.750389,-59.945698,-39.909267,0.0,15.192207,14.415387,51.952783,33.999962,64.582656,48.221823,68.608289,59.34616,71.023904,0.0,64.46743,26.50383,84.893188,17.262211,84.372482,7.088985,69.92466,-2.950172,49.161644,0.0,16.42209,31.100101,58.164689,47.821619,70.848594,59.347889,80.250218,66.737375,86.314911,14.449539,281.01907,-46.508904,273.262107
14,-34.482536,14.906117,0.438881,0.187968,0.0,-18.659992,-8.499241,46.36528,-12.438641,53.535919,-14.191761,45.880051,-13.640327,22.457199,0.0,28.871343,11.958523,38.156568,24.557892,49.097382,34.7238,49.915575,42.159847,50.815093,0.0,64.241638,26.275063,85.177917,16.955109,83.903275,6.907711,69.720383,-2.696228,49.654083,0.0,16.473528,30.644753,58.030197,47.564984,71.035266,59.244889,79.998955,66.615974,85.785154,-20.034142,295.864857,-46.071167,273.389745
15,28.713684,-15.56061,1.03632,0.514134,0.0,-15.804691,-26.396084,22.42218,-40.788059,21.716881,-49.358368,4.066429,-54.237328,-44.888992,0.0,4.932932,17.942076,50.134851,37.714558,61.802159,51.1667,67.127576,61.055843,72.160914,0.0,63.95937,25.263062,84.159908,15.911751,83.317509,6.025486,68.716335,-3.429165,48.419781,0.0,15.969706,29.909059,57.717246,46.991384,70.746089,58.859319,79.619746,66.392746,85.420703,8.703718,280.260127,-45.010672,273.859758
16,-19.448948,9.554703,0.073929,-0.133875,0.0,14.091854,-10.460587,46.669865,-21.725178,44.004536,-27.951851,29.514942,-30.819569,-2.046833,0.0,7.408197,15.00146,46.682756,32.558522,54.176045,45.531111,58.678946,55.441434,58.165739,0.0,64.167538,25.322685,84.67329,16.006565,83.311214,6.058331,68.899441,-3.423214,49.044628,0.0,15.997432,29.717262,57.696189,46.604147,70.989262,58.395389,79.558243,65.89936,85.046681,-10.778704,289.754731,-44.970217,273.665785
17,-3.826561,9.228352,0.676289,0.448431,0.0,21.828976,-1.118546,53.689098,-9.517021,53.831348,-14.801102,37.444782,-17.933922,-1.804619,0.0,15.454893,8.616282,33.333428,23.148686,47.610679,35.359891,55.401482,45.892783,57.806228,0.0,63.686485,25.401134,83.79055,16.082039,82.845154,6.025543,68.840218,-3.759899,48.94352,0.0,15.561721,29.303967,56.807724,46.057656,69.810199,57.739105,78.665332,65.378063,84.341862,-14.687033,298.858718,-44.375696,273.989851
18,23.980694,-22.04076,-0.95993,-0.258055,0.0,-10.166359,-27.999401,23.936348,-42.381306,25.643578,-51.100216,8.140411,-56.064491,-55.404568,0.0,12.795488,16.037014,53.358407,36.192534,65.801733,50.638487,72.400073,62.06818,78.165277,0.0,64.662666,26.295719,85.680313,17.00861,83.664665,6.837044,69.375114,-2.93026,49.508629,0.0,15.978845,28.970638,57.64191,45.642508,70.812779,57.264986,79.21596,64.756669,84.202924,9.219875,276.744506,-45.409412,273.658344
19,-18.932247,13.758177,0.201874,-0.199454,0.0,15.48151,-11.150379,43.632832,-22.405815,42.430515,-28.430901,31.487217,-31.427708,7.21384,0.0,0.955402,13.534949,41.259402,31.386129,52.896267,44.827403,57.445976,55.099213,58.172531,0.0,64.892464,26.249027,85.26741,17.013874,83.785973,6.934204,69.748421,-2.671566,49.848289,0.0,16.217017,28.85745,57.435293,45.760575,70.316367,57.611899,79.09283,65.23894,84.10931,-9.852304,290.457512,-45.347471,273.413719
20,-2.121563,5.706417,0.760689,-0.447876,0.0,11.525345,-6.182957,50.484924,-14.123325,52.551956,-18.364105,35.592155,-20.113163,-4.471722,0.0,16.707685,12.884162,37.9284,27.921375,48.129938,39.513842,56.040537,48.291539,56.279078,0.0,64.797249,25.186615,84.990807,16.019039,83.543358,6.323204,69.816513,-2.843914,50.002785,0.0,16.828408,28.318924,57.788506,45.429346,70.901761,57.57701,79.242636,65.303407,84.158525,-12.093573,296.149357,-44.706488,272.951271
21,11.799316,-23.58804,-0.021,0.139618,0.0,-2.299805,-16.155682,31.299248,-29.466877,31.575737,-39.488697,11.751595,-46.501694,-35.975761,0.0,13.66481,23.833436,52.523851,42.818168,67.227365,55.955198,75.057317,65.803215,77.955881,0.0,64.83633,26.326275,85.568676,17.056618,83.606701,7.045555,69.374943,-2.428322,49.879131,0.0,16.328476,28.58618,57.892184,45.645905,71.135116,57.694027,79.270486,65.431231,84.015696,-0.441971,272.529222,-44.875202,273.058793
22,-12.419815,28.028759,0.540104,-0.169567,0.0,-39.85239,-9.915276,38.532372,-12.179489,44.813576,-12.336102,36.914177,-10.535431,11.244621,0.0,42.682935,13.523031,33.949142,22.477767,38.003982,28.019373,40.618865,33.243581,40.881613,0.0,65.316467,24.930267,85.114517,15.647221,83.480301,6.095753,69.699669,-2.648678,50.024185,0.0,16.451607,29.039922,57.24152,46.296939,70.912444,58.384521,79.044356,65.888739,83.892813,-13.027725,300.460107,-44.501038,272.791352
23,2.157784,-27.435461,-0.253544,-0.363895,0.0,15.653801,-3.990269,43.68988,-16.011715,47.427521,-27.625065,26.072731,-37.109985,-33.825302,0.0,10.741237,21.134758,51.219744,41.006473,65.738377,54.838874,75.136481,65.613271,80.282143,0.0,65.278759,24.68565,84.71426,15.453587,83.95586,6.133747,70.214138,-2.365723,50.64909,0.0,16.755604,28.55759,57.120798,46.08001,70.732133,58.419471,79.43962,66.236888,84.311913,-11.026125,272.971092,-44.910765,272.373904
24,-0.928745,0.101765,0.652599,0.843511,0.0,18.244457,-3.078003,45.907001,-14.977398,48.838062,-26.549263,26.814823,-36.345749,-29.720078,0.0,5.445275,19.208268,50.43187,39.527921,65.85595,53.918731,74.997604,65.180894,78.736715,0.0,65.769081,25.096321,84.653091,15.900021,83.085136,6.422482,69.256096,-2.408695,49.725494,0.0,15.198691,29.075305,55.622548,46.126076,69.753945,57.950477,78.463964,65.418942,83.483222,-12.102327,272.984384,-44.405622,273.128942
25,-13.465233,0.153018,-0.04652,0.556495,0.0,43.063946,14.600716,63.2868,1.648235,62.966709,-12.032433,39.453564,-24.14875,-11.363411,0.0,-2.813102,18.118991,47.346758,38.282106,63.255331,52.6547,73.243831,63.615398,76.148509,0.0,66.675167,24.303875,86.837482,14.641857,83.616886,5.154018,69.369564,-3.145752,50.461521,0.0,14.81238,28.589947,54.577916,46.170413,69.901652,58.092194,77.899874,65.14088,82.980451,-25.617971,273.043402,-44.502554,273.591437
26,0.995693,-1.433351,-0.534382,-1.136269,0.0,43.797455,10.684547,62.885742,-3.298759,64.192886,-17.515755,42.254677,-29.575367,-7.991924,0.0,5.227234,15.952293,50.494547,36.31517,69.2479,51.305886,78.863859,63.533146,80.528033,0.0,67.506065,24.489098,86.903229,14.907875,85.048943,5.25856,70.92968,-3.561401,50.550499,0.0,16.259192,29.899055,56.446422,47.016517,72.700057,58.376863,80.119431,65.146129,86.076555,-24.657269,271.504227,-45.071926,272.349343
27,4.686584,-0.738041,2.000542,-0.565263,0.0,37.229118,8.786774,58.924484,-4.558811,58.173981,-17.829723,36.42025,-28.754482,-25.050545,0.0,-6.180784,19.341773,51.788589,38.435556,70.38065,52.044359,80.967634,63.241252,85.617502,0.0,65.853767,23.023853,84.726334,13.954868,83.330154,4.639091,69.815483,-4.604359,47.012672,0.0,14.732907,28.418898,55.333433,44.88341,73.161332,56.329714,81.898645,63.724017,90.880984,-20.010853,270.679627,-43.111553,271.697521
28,-22.886581,5.703577,5.223255,-10.045804,0.0,-2.966022,26.515331,54.816399,25.617371,60.042114,18.05872,54.985542,7.447529,2.138329,0.0,33.712205,24.385608,49.45504,29.913567,60.878681,29.942404,60.072283,28.619649,60.03937,0.0,62.897243,23.903561,76.041126,12.899609,70.539951,0.244789,47.674313,-12.513084,13.912182,0.0,20.33052,22.367296,55.448165,38.337496,72.459354,50.880919,88.40226,59.128428,91.783836,-42.923384,276.373417,-37.914248,261.64193
29,37.18111,-16.79957,-1.376667,22.455352,0.0,-93.994274,-21.175289,-66.605759,-8.335476,-63.693752,2.667332,-51.525764,12.964153,-29.818153,0.0,-15.042771,31.267321,55.784396,49.468996,74.385349,62.865686,86.146456,70.696503,95.009925,0.0,20.931015,24.962711,11.091156,21.50116,-4.726009,14.128876,-16.072483,4.902248,-17.019768,0.0,55.349241,16.83662,59.325103,7.792223,52.928254,-1.122931,40.398663,-10.593407,29.791672,-5.640764,259.59018,-39.189405,284.113615
30,20.077114,0.443491,3.091164,-62.503458,0.0,-64.29554,-31.715813,-85.235252,-24.378662,-87.589302,-15.72567,-78.125267,-7.225227,-54.247227,0.0,-11.402769,26.375083,61.385899,44.457086,81.761497,58.690247,90.300406,68.968973,95.671828,0.0,59.017525,22.554131,49.526825,18.087902,51.445999,14.798813,41.933784,11.746788,38.698769,0.0,22.061323,-7.446482,13.886124,-9.265032,8.334391,-7.94629,7.334776,-4.015321,7.241965,14.64612,260.054249,-35.888472,221.630735
31,9.666481,4.770899,-9.065151,-31.142215,0.0,-64.512978,-33.75618,-93.49102,-26.040459,-96.703892,-17.020683,-82.162914,-7.916908,-57.866592,0.0,25.805127,29.406287,60.435622,46.457552,76.84882,58.727853,86.046173,67.303256,89.098681,0.0,68.132687,10.075092,42.822933,10.764599,38.940868,14.563637,37.593613,18.502636,43.234692,0.0,-17.267823,-2.725725,-16.274939,-18.331351,-24.817738,-33.653234,-35.952757,-46.631256,-48.60943,24.302673,265.868344,-44.963551,191.531716
32,-0.093155,1.920314,-12.968502,-98.73931,0.0,-62.725754,-32.762489,-92.001114,-26.305504,-95.057888,-17.84111,-80.908813,-8.194313,-57.132168,0.0,26.523963,28.042529,58.44553,44.768431,75.749971,56.815875,85.870864,64.475643,88.920655,0.0,57.219658,14.336815,32.581902,21.434498,37.8899,30.077991,46.813602,38.429661,65.791969,0.0,-31.103343,-7.267993,-15.184828,12.194533,3.982747,29.860245,18.657269,44.456622,29.115474,23.565273,268.302468,-58.576298,93.306216
33,0.883369,-0.533277,30.558643,-17.583337,0.0,-63.385963,-32.96751,-93.600082,-26.552353,-96.220837,-18.142319,-82.314377,-8.543587,-59.198971,0.0,26.629495,29.764316,58.270097,46.899561,75.250287,58.935272,85.689256,66.406517,89.071264,0.0,46.716442,14.718761,36.258831,-1.732521,15.448608,-17.156582,0.909348,-31.47068,-8.79879,0.0,-35.990456,-45.809636,-58.816156,-50.918896,-46.238616,-52.420604,-45.004874,-50.729538,-53.354363,24.637012,268.619217,-27.829285,76.572904
34,-0.420456,0.021366,-46.162491,-81.51218,0.0,-62.583046,-33.191986,-94.116898,-26.366615,-96.363602,-17.483368,-81.967106,-7.542458,-58.727303,0.0,26.795912,29.007503,58.463685,46.050246,75.066333,58.199887,85.55711,65.921899,88.32711,0.0,39.665966,56.229115,103.36092,61.279621,69.113216,59.860554,46.213131,53.539295,43.564911,0.0,-40.397521,-41.420818,-79.144824,-23.589923,-50.167949,-4.527602,-17.824287,15.651599,-0.051407,24.407358,269.372155,-73.800974,-4.207704
35,-0.622673,-0.038162,-6.372967,-21.715994,0.0,-61.722107,-32.844315,-93.827591,-26.089211,-96.112347,-17.301521,-81.678429,-7.430534,-58.366127,0.0,27.53809,29.069871,58.362846,46.026905,74.981302,58.0804,85.167465,65.750233,88.351131,0.0,40.736408,47.555065,84.811001,53.619557,61.970482,55.411511,48.191891,53.595925,57.232723,0.0,-40.900324,-40.362169,-67.734397,-24.351018,-42.231807,-7.191062,-17.902,10.787344,-9.861232,23.89246,271.812192,-80.066166,-23.445499
36,0.662956,0.411381,-6.372967,-21.715994,0.0,-62.245731,-33.395519,-94.073753,-26.627998,-95.900288,-17.834358,-81.558723,-8.192711,-58.800716,0.0,26.699087,28.911358,58.352596,45.927672,74.218376,58.067926,84.565769,65.755482,87.48928,0.0,41.806851,38.881016,66.261082,45.959492,54.827748,50.962468,50.170651,53.652554,70.900536,0.0,-41.403126,-39.30352,-56.323971,-25.112112,-34.295664,-9.854522,-17.979713,5.923089,-19.671057,23.843451,274.699486,-87.151099,-42.68558
37,-1.140404,-1.07526,-6.372966,-21.715994,0.0,-61.235504,-32.759514,-92.62167,-26.083374,-94.835644,-17.204704,-80.276985,-7.391396,-57.66861,0.0,28.503743,30.052567,59.469599,47.31014,75.291845,59.457063,85.459853,66.898606,88.50316,0.0,42.877293,30.206966,47.711163,38.299427,47.685013,46.513424,52.14941,53.709183,84.568348,0.0,-41.905929,-38.244871,-44.913545,-25.873206,-26.359522,-12.517982,-18.057426,1.058834,-29.480882,20.327482,274.701879,-95.89963,-63.323921
38,1.482582,0.18309,-7.960052,-2.476963,0.0,-62.450638,-33.092823,-92.813358,-26.286049,-95.074768,-17.342949,-80.588436,-7.673721,-58.285275,0.0,28.846087,30.36416,58.706487,47.795128,74.145387,59.970765,84.574167,67.475848,88.396085,0.0,40.252075,21.785717,48.611069,34.022427,56.400261,46.348,65.336094,57.297993,103.354225,0.0,-44.376563,-43.790336,-42.471717,-33.874362,-36.573966,-20.283744,-27.443612,-5.233224,-42.442478,20.170298,275.889942,-105.499449,-64.795911
39,0.669479,-0.012535,1.383934,-8.896505,0.0,-62.931519,-33.218594,-93.53714,-26.436195,-95.726223,-17.718086,-81.176834,-8.238258,-58.550091,0.0,28.413464,30.888297,58.942559,48.445174,73.892334,60.549675,84.827035,67.673203,88.217565,0.0,32.381172,21.701832,45.743008,33.993931,54.959793,46.32803,63.606091,56.88509,103.777084,0.0,-48.868288,-43.450091,-40.783924,-33.376808,-33.821473,-19.282739,-22.878312,-4.017235,-43.50227,20.391226,276.12907,-104.564066,-73.440753
40,0.515442,0.047424,-0.415306,-2.542234,0.0,-63.535938,-33.04287,-94.226704,-26.388931,-96.610622,-17.763405,-82.410679,-8.414726,-59.336472,0.0,28.433224,30.735403,59.152572,48.161122,73.661325,60.293782,84.652281,67.569339,88.333779,0.0,33.810825,21.883907,42.770233,35.365562,52.128296,48.262024,61.855659,59.106617,107.130318,0.0,-46.596521,-43.523636,-38.643686,-33.35782,-31.308941,-19.502447,-19.877211,-4.863308,-43.719786,21.043053,276.204251,-104.842987,-75.95523
41,-0.495987,0.039397,-0.195808,-2.610499,0.0,-63.201885,-32.781544,-94.143219,-25.921326,-96.193829,-17.156639,-81.785431,-7.751999,-58.875332,0.0,28.188878,30.235286,58.645046,47.444385,73.872203,59.565374,84.653949,66.95486,88.173599,0.0,32.509289,21.565304,39.157047,35.617733,49.478817,48.987007,60.332508,60.143795,105.642929,0.0,-45.125349,-42.591112,-36.230016,-32.650932,-29.874139,-18.921716,-17.668244,-4.598275,-44.025203,20.643196,276.246597,-104.942665,-78.56278
42,1.171646,0.303997,-3.426933,-1.468209,0.0,-64.569397,-32.78429,-95.141373,-25.976143,-97.023697,-17.357025,-82.916451,-8.283577,-60.179958,0.0,27.64887,30.085727,58.087686,47.384055,73.358995,59.497695,83.914549,66.944733,87.345526,0.0,32.919331,18.912106,35.905724,33.543434,46.990528,47.767925,58.069496,60.196896,108.237305,0.0,-41.188019,-43.56825,-33.037767,-33.576447,-26.898202,-19.697363,-15.852535,-5.329184,-41.308309,21.467943,276.499202,-108.716497,-80.08238
43,0.063057,-0.610032,-3.023987,-1.367772,0.0,-64.54422,-33.068619,-94.660435,-26.408386,-96.988564,-17.879677,-82.969437,-8.780594,-60.032272,0.0,28.113295,30.066708,58.532042,47.718557,73.531835,60.029552,84.633077,67.478195,88.27771,0.0,31.663399,17.659149,32.35136,32.230339,44.979,46.435947,56.509552,58.384209,108.278503,0.0,-40.475265,-39.851246,-31.28526,-30.382499,-28.473825,-17.82157,-18.069251,-4.97239,-38.062707,19.996262,275.797764,-113.275223,-81.541558
44,-0.003433,-0.000556,-6.473064,3.249862,0.0,-64.326439,-32.819023,-94.934578,-25.8918,-96.522732,-17.261581,-82.099972,-8.351555,-59.697762,0.0,27.936133,30.168905,57.982278,47.955308,73.176585,60.400548,84.126724,67.934963,87.75561,0.0,32.697315,14.460411,31.046791,29.499321,42.081928,44.242516,54.71735,56.821747,101.627827,0.0,-40.616333,-38.744215,-31.138664,-31.273126,-27.534694,-20.322616,-19.296911,-8.319757,-38.607654,17.732735,275.790786,-122.008381,-78.298118
45,0.217667,0.162712,-10.127277,2.942068,0.0,-64.292908,-33.365421,-95.347996,-26.316032,-97.069988,-17.409325,-82.490501,-8.123817,-59.958172,0.0,27.51796,29.818718,57.96962,47.480633,73.055369,59.983794,84.396573,67.582491,87.700343,0.0,28.6409,14.794521,27.376728,29.680939,39.206028,44.307003,48.860435,57.658596,98.991966,0.0,-42.71066,-38.894825,-34.080886,-30.598441,-28.383731,-19.400559,-17.60566,-8.071921,-45.424622,14.54258,276.34268,-135.54348,-74.966868
46,0.494385,0.362537,-10.877895,3.059177,0.0,-64.335308,-32.662067,-95.800552,-25.834236,-97.360554,-17.281952,-83.167133,-8.405685,-60.911522,0.0,26.994193,29.681447,57.602081,47.457291,72.514373,60.061229,83.580171,67.764902,87.183431,0.0,21.955318,13.611889,23.727322,28.326588,36.749325,42.015038,45.603333,54.635124,84.169407,0.0,-48.636106,-37.384934,-35.714462,-30.50069,-31.519664,-20.338332,-21.063313,-9.357843,-46.087482,14.117889,276.64166,-147.34045,-71.971248
47,0.449409,0.896307,-12.42382,0.696884,0.0,-63.645172,-32.141647,-95.413227,-25.685921,-98.008862,-17.448235,-83.875809,-8.876495,-61.692123,0.0,25.893121,29.015901,56.34651,46.918581,71.075095,59.605264,82.215795,67.460967,85.645413,0.0,21.002769,7.275066,22.602024,22.645912,36.422253,37.72562,45.496788,52.015572,77.544994,0.0,-48.780078,-35.695381,-37.895518,-28.359155,-32.930476,-17.941737,-24.566074,-7.008517,-45.324,13.055449,277.465998,-161.276121,-71.346333
48,-0.005608,0.197169,-4.750957,1.478274,0.0,-63.228607,-32.182732,-95.284081,-25.871429,-97.81311,-17.691536,-83.420677,-9.085922,-60.870495,0.0,26.032739,28.819782,56.513854,46.611928,71.167597,59.286138,82.288105,67.208099,85.508142,0.0,20.830536,3.636074,20.369339,19.561958,33.115368,35.751286,45.263901,50.348225,74.319134,0.0,-47.325608,-39.160938,-40.559122,-31.692905,-35.464867,-21.018821,-27.495359,-9.992236,-45.692711,11.049871,277.510087,-168.027048,-70.021139
49,-0.733452,-0.195749,1.52504,-2.3957,0.0,-62.826405,-33.413658,-94.51458,-26.548347,-96.220894,-17.928772,-82.224941,-8.83152,-60.777683,0.0,27.04526,29.393814,57.056331,47.06956,71.585215,59.534128,82.938707,67.057983,86.674978,0.0,20.119572,5.044613,31.979427,18.803329,43.532524,33.884068,53.479271,48.437862,81.979923,0.0,-58.01232,-39.984905,-40.905387,-30.975087,-35.693899,-18.869259,-25.982072,-6.416084,-46.246366,9.98497,277.528736,-166.833458,-72.202441
50,-0.648079,0.086698,12.379932,-1.282772,0.0,-63.152504,-33.327827,-94.843483,-26.491356,-96.565533,-17.873154,-82.692547,-8.892975,-61.477375,0.0,26.667595,29.284948,56.896891,47.040661,71.394962,59.532708,83.058441,67.043843,86.459963,0.0,25.22049,10.548649,61.342049,20.896454,75.084515,32.723694,81.635227,46.224232,85.810032,0.0,-64.053054,-35.387556,-56.931132,-26.17779,-54.713366,-13.817797,-46.063152,0.238758,-39.1744,8.992567,278.101116,-154.79785,-72.999531
51,-0.031242,0.345123,41.077995,-13.777165,0.0,-63.560715,-33.511791,-95.135307,-26.912956,-97.002983,-18.433113,-83.108826,-9.454079,-61.483727,0.0,25.858726,28.932168,56.647543,46.678495,71.335373,59.283977,82.442852,67.053105,86.200488,0.0,34.071121,27.933426,91.134567,24.197273,84.43388,22.224026,70.336647,21.40377,62.458076,0.0,-44.57506,-42.845122,-53.538286,-32.056831,-39.766092,-17.303886,-25.886884,-0.04693,-20.457417,9.111986,278.484493,-113.569193,-86.738442
52,-0.791245,-0.12276,35.208864,-12.529807,0.0,-63.006477,-33.525524,-95.132103,-27.090454,-97.318611,-18.681107,-83.457527,-9.664536,-61.572075,0.0,25.111299,28.688994,56.013366,46.246057,70.80648,58.779353,82.070805,66.589298,85.807878,0.0,8.530312,44.669723,79.401455,48.237476,75.814505,46.538286,52.688427,40.814323,40.980492,0.0,-55.261686,-44.860262,-75.476517,-32.704029,-57.203729,-16.299253,-34.338123,1.520295,-20.213565,10.474434,277.912206,-76.206636,-99.717776
53,-0.050125,-0.68191,35.208864,-12.529807,0.0,-63.040352,-33.542118,-95.011768,-27.079582,-96.55117,-18.645287,-83.058128,-9.417915,-61.272469,0.0,25.126119,29.254134,56.229616,46.951988,71.770219,59.457804,82.744749,67.371058,86.846767,0.0,-17.010498,61.406021,67.668343,72.277679,67.195129,70.852547,35.040207,60.224876,19.502907,0.0,-65.948313,-46.875402,-97.414748,-33.351228,-74.641366,-15.29462,-42.789361,3.087521,-19.969713,10.221405,277.78994,-41.200676,-111.687939
54,0.476074,0.283126,7.778746,10.174382,0.0,-63.461037,-33.741016,-95.104065,-27.420387,-97.269859,-19.020767,-83.789978,-9.860687,-62.216835,0.0,24.579381,28.45002,55.934696,46.30225,70.63747,59.058959,82.04382,67.115103,86.111135,0.0,-6.162137,59.985367,74.618911,69.214177,75.035574,67.574958,46.516391,57.742947,30.693806,0.0,-58.737138,-39.485401,-84.448915,-27.540406,-65.101713,-12.047616,-37.285058,3.618195,-17.429821,10.591078,277.788134,-33.528332,-101.798489
55,-0.431671,-0.191673,7.778745,10.174381,0.0,-62.373505,-33.298302,-94.53249,-27.041588,-96.182842,-18.699875,-83.036556,-9.30954,-61.196766,0.0,24.765682,28.540238,55.590932,46.30262,71.137648,58.913289,82.3987,66.938682,86.556664,0.0,4.686225,58.564715,81.569481,66.150676,82.87602,64.297371,57.992575,55.261018,41.884706,0.0,-51.525961,-32.0954,-71.483082,-21.729584,-55.562059,-8.800611,-31.780753,4.148869,-14.889929,10.149221,278.140142,-25.759772,-91.080427
56,0.25486,0.232799,7.778745,10.174382,0.0,-62.947197,-33.042011,-94.802914,-26.995811,-96.49744,-18.792915,-83.24152,-9.399948,-61.131649,0.0,23.884751,28.541164,55.4113,46.265076,71.201313,58.782131,82.26748,66.714404,85.920573,0.0,15.534587,57.144062,88.52005,63.087175,90.716466,61.019783,69.46876,52.779089,53.075605,0.0,-44.314786,-24.7054,-58.517249,-15.918762,-46.022406,-5.553607,-26.27645,4.679543,-12.350038,9.666023,279.534575,-18.719085,-79.744411
57,-0.052986,-0.312889,7.778746,10.174382,0.0,-62.351532,-33.246059,-94.715652,-27.192078,-96.738167,-18.870049,-83.734703,-9.547005,-62.162704,0.0,23.862706,28.318183,54.761809,46.267669,70.205093,59.042965,81.245696,67.263736,85.401252,0.0,26.382947,55.723408,95.470619,60.023673,98.556911,57.742195,80.944944,50.297159,64.266504,0.0,-37.103611,-17.3154,-45.551416,-10.107941,-36.482752,-2.306603,-20.772147,5.210217,-9.810147,8.54353,280.279099,-12.009847,-68.512615
58,0.270309,-0.122451,7.778745,10.174381,0.0,-62.348785,-32.809925,-95.232468,-26.707191,-96.953144,-18.494911,-83.839073,-9.37088,-61.861725,0.0,23.550249,27.981705,54.216738,45.929648,69.889857,58.79127,81.60601,67.028528,85.716426,0.0,37.231309,54.302755,102.421188,56.960171,106.397356,54.464607,92.421128,47.81523,75.457404,0.0,-29.892435,-9.925399,-32.585582,-4.297118,-26.943098,0.940402,-15.267842,5.740892,-7.270255,7.982168,280.468102,-5.062772,-58.026781
59,0.785637,0.241444,7.778745,10.174382,0.0,-62.03968,-33.181458,-95.802269,-27.525902,-98.526249,-19.568138,-84.965401,-10.342484,-62.128944,0.0,22.419413,27.776756,53.285048,45.282936,68.9946,57.972398,80.827523,66.177793,85.441205,0.0,48.079671,52.882102,109.371758,53.89667,114.237802,51.18702,103.897313,45.333301,86.648304,0.0,-22.68126,-2.535399,-19.619749,1.513703,-17.403445,4.187406,-9.763539,6.271566,-4.730364,8.320742,280.839176,2.268909,-47.722769
60,0.649223,0.183893,7.778746,10.174381,0.0,-62.227249,-34.451809,-96.601524,-28.615494,-99.197445,-20.391884,-85.173798,-10.895119,-62.503853,0.0,21.906144,28.009863,53.175441,45.337399,69.288964,57.927135,80.537666,66.071706,84.987586,0.0,58.928032,51.461449,116.322327,50.833168,122.078247,47.909431,115.373497,42.851372,97.839203,0.0,-15.470084,4.854601,-6.653916,7.324525,-7.863791,7.43441,-4.259235,6.80224,-2.190472,8.927336,282.778756,10.005026,-35.7927
61,1.027908,0.346482,-0.962677,0.42404,0.0,-64.239979,-33.849678,-97.272663,-28.552094,-100.625381,-20.868759,-87.198658,-11.985283,-63.732834,0.0,21.725894,27.41533,52.560345,45.059029,68.61607,57.760903,79.706012,65.992542,84.089056,0.0,52.768707,44.477577,100.277367,42.732239,102.986641,38.536148,98.700027,31.983948,80.864182,0.0,-19.107306,3.76094,-24.562894,7.190249,-25.05208,6.347634,-22.983874,3.632993,-19.331306,9.978962,283.75926,9.066067,-34.734638
62,-0.13504,-0.599782,-1.541862,11.895908,0.0,-63.730259,-33.320675,-96.592369,-28.136559,-100.616341,-20.362701,-87.370548,-11.317177,-63.934422,0.0,21.993706,26.971962,52.34885,44.651476,68.575253,57.611282,79.507175,66.277026,84.805793,0.0,51.444511,35.227432,83.224754,31.356125,82.809563,24.510155,77.462311,14.971619,61.606293,0.0,-25.839553,-7.564919,-43.5245,-6.508648,-46.682787,-8.419854,-46.056236,-11.96794,-39.676647,9.133072,282.340251,6.813354,-23.657957
63,1.494141,-0.142952,-7.485924,-0.459083,0.0,-64.20599,-33.939972,-97.379379,-28.572578,-100.972137,-20.745049,-87.384224,-11.746101,-64.393616,0.0,22.225764,27.122016,53.032118,44.607201,69.081544,57.473825,79.953816,66.120056,84.949116,0.0,44.914742,27.23774,62.926369,23.809662,64.876213,19.200897,62.974434,12.581978,51.43261,0.0,-25.316002,-6.826045,-30.858317,-5.721052,-35.852567,-6.407531,-34.163292,-7.441758,-26.461997,10.138493,279.495687,-1.161289,-26.818652
64,1.6539,-0.460782,-22.579995,2.266927,0.0,-64.885082,-34.044685,-98.181953,-28.631744,-101.622505,-20.874252,-88.042717,-11.994324,-65.055141,0.0,22.581508,27.733036,53.968563,45.257186,69.856944,57.945907,81.118367,66.276717,85.440093,0.0,46.06277,31.676174,67.475682,28.269353,69.65993,23.386703,65.501461,16.674943,52.949238,0.0,-21.708843,-10.468887,-31.04637,-9.268968,-34.53049,-8.85098,-30.894179,-7.938393,-23.003487,10.287638,274.267496,-25.246039,-29.319134
65,0.260468,0.443862,-22.579994,2.266927,0.0,-64.177265,-33.437347,-97.208633,-27.941208,-101.088524,-20.046616,-87.283745,-11.055565,-64.314651,0.0,22.433184,27.086386,53.542856,44.563358,69.612783,57.354215,80.793745,65.831435,85.061625,0.0,47.210798,36.114607,72.024994,32.729044,74.443646,27.572508,68.028488,20.767908,54.465866,0.0,-18.101685,-14.111729,-31.234423,-12.816884,-33.208414,-11.294428,-27.625065,-8.435029,-19.544978,10.442791,272.779944,-47.931347,-28.983621
66,1.016121,0.11782,-22.579994,2.266927,0.0,-64.940987,-32.456589,-97.021122,-27.093658,-100.782738,-19.519501,-87.358932,-10.876465,-64.472008,0.0,22.271089,27.371179,53.875258,44.747127,69.275441,57.542677,80.946022,65.975993,85.895317,0.0,48.358827,40.55304,76.574306,37.188735,79.227362,31.758313,70.555515,24.860873,55.982494,0.0,-14.494527,-17.754571,-31.422476,-16.3648,-31.886338,-13.737876,-24.355952,-8.931664,-16.086468,11.63063,271.2274,-70.339622,-28.387059
67,-0.518303,-0.191056,-22.579994,2.266928,0.0,-63.920803,-32.909889,-96.432037,-27.253876,-99.450531,-19.431152,-85.8181,-10.512772,-63.501148,0.0,22.39459,28.064204,55.168868,45.6669,71.127644,58.374023,82.363564,66.371134,86.101069,0.0,49.506855,44.991474,81.123619,41.648426,84.011078,35.944118,73.082542,28.953838,57.499123,0.0,-10.88737,-21.397413,-31.61053,-19.912717,-30.564262,-16.181325,-21.086839,-9.4283,-12.627959,11.830873,269.33952,-92.201071,-27.816955
68,-0.676003,0.127206,-26.422806,-6.172433,0.0,-63.870335,-32.865028,-96.100273,-27.135429,-98.757877,-19.359741,-85.437183,-10.498924,-63.370743,0.0,23.029754,28.458974,54.968488,46.364679,71.127212,59.129663,82.814898,67.12171,86.94915,0.0,53.424797,27.226696,48.458748,16.851797,40.333185,5.160828,28.027697,-6.160955,10.63797,0.0,-19.69094,-28.514379,-30.456847,-27.877192,-28.046018,-23.591343,-23.097031,-15.715896,-17.784319,12.073488,269.22962,-117.705259,-34.226494
69,-0.93132,-0.226315,-26.422806,-6.172432,0.0,-63.216591,-32.984962,-95.366478,-27.040901,-97.595901,-18.887444,-84.444695,-9.465065,-62.174206,0.0,22.611951,28.464532,55.734069,46.233583,71.901686,59.056365,83.725284,67.236133,87.581968,0.0,57.342739,9.461918,15.793877,-7.944832,-3.344707,-25.622463,-17.027149,-41.275749,-36.223183,0.0,-28.494511,-35.631346,-29.303164,-35.841668,-25.527775,-31.001362,-25.107224,-22.003493,-22.940679,13.383265,270.953799,-141.886969,-38.448431
70,-0.279922,0.178891,-24.111843,-3.068471,0.0,-63.160629,-33.450508,-96.238689,-27.040558,-97.77832,-18.537025,-84.044895,-8.946533,-61.498375,0.0,23.423228,28.645522,55.950813,46.333372,72.557537,59.033147,84.070592,67.05644,87.406597,0.0,56.187973,15.427666,18.135967,3.309174,0.086403,-8.476009,-12.456493,-17.579556,-22.487297,0.0,-23.792742,-25.320417,-17.02147,-28.424332,-18.843478,-29.338578,-20.505583,-28.757506,-25.654764,14.30191,271.699019,-164.800243,-40.950573
71,-0.416107,-0.360005,-24.235811,6.188982,0.0,-62.147655,-33.238678,-95.426216,-27.041817,-96.709557,-18.59539,-82.899513,-8.95443,-60.416107,0.0,23.849676,28.536965,56.503047,45.996091,73.213264,58.690247,84.544959,66.962764,87.389739,0.0,56.848011,9.034195,19.037104,-6.61583,-2.521992,-20.675497,-17.000113,-31.971045,-27.420302,0.0,-21.976725,-17.267345,-14.804862,-19.054309,-13.377378,-19.555383,-14.37457,-18.487286,-18.252295,14.620514,270.899474,-188.301344,-35.201131
72,-0.550232,0.375072,-24.235811,6.188981,0.0,-61.674442,-32.753563,-94.596519,-26.675491,-96.499386,-18.387909,-82.352142,-8.946991,-59.904957,0.0,23.464539,28.170044,56.488412,45.762242,72.956445,58.527534,83.950858,66.769547,87.006577,0.0,57.508049,2.640724,19.93824,-16.540833,-5.130386,-32.874985,-21.543732,-46.362534,-32.353306,0.0,-20.160707,-9.214273,-12.588254,-9.684286,-7.911278,-9.772188,-8.243556,-8.217066,-10.849825,14.681883,270.788262,-211.925554,-29.498434
73,0.478477,0.06984,2.463055,-1.990308,0.0,-62.637177,-32.917442,-94.85836,-27.00428,-97.318096,-18.588066,-83.313503,-8.61351,-60.285358,0.0,23.032533,28.114222,56.37016,45.655414,72.96509,58.362229,84.311604,66.545702,87.621673,0.0,33.821011,-8.560638,-23.089943,-24.203167,-56.352253,-35.5723,-63.522892,-42.505302,-65.038147,0.0,-10.726695,-5.895682,-5.438266,-9.08151,-4.225612,-10.513193,-6.262572,-11.205816,-9.387576,15.729733,270.54336,-208.893127,-31.803484
74,0.087433,-0.065517,-37.526779,-1.164829,0.0,-62.909718,-33.086929,-94.966221,-27.13932,-97.539139,-18.741875,-83.389034,-8.760338,-59.838982,0.0,23.186477,28.155965,56.62945,45.55544,72.852086,58.103247,84.142655,66.151549,87.399001,0.0,47.222099,-9.302216,-9.688625,-27.547531,-42.779217,-41.471329,-58.991661,-51.149082,-69.077225,0.0,-15.031934,-13.473909,-6.456438,-13.181212,-0.240981,-10.414176,-0.345339,-5.224116,-3.184098,16.220369,270.15109,-246.016703,-33.295066
75,-0.098419,-0.122019,-15.585079,-2.643288,0.0,-62.999783,-33.126183,-95.248203,-27.079239,-97.735062,-18.707314,-83.392582,-8.968277,-60.064545,0.0,23.288921,28.102859,57.124565,45.849743,73.496452,58.557916,84.448134,66.588001,87.597158,0.0,43.197441,-7.433395,-22.734947,-23.603439,-45.244732,-35.487499,-59.478607,-43.720837,-69.431992,0.0,-18.780431,-8.247323,-3.975028,-9.452321,-2.640077,-9.558223,-6.274737,-6.993419,-14.76017,16.430025,269.722542,-261.293707,-36.244883
76,-0.039253,-0.16475,-12.11998,-6.428094,0.0,-63.2444,-32.9179,-94.948483,-26.785126,-97.519512,-18.193016,-83.27282,-8.136406,-59.834461,0.0,23.614531,28.126078,57.064173,45.436385,73.391538,57.933619,84.605413,66.022923,87.556465,0.0,38.525162,-4.546337,-9.688454,-20.100288,-33.903809,-32.476387,-54.667683,-41.671829,-73.147087,0.0,-18.731432,-5.999423,-2.802944,-8.652005,-1.314172,-9.417648,-5.884351,-7.719419,-16.482204,16.783962,269.449003,-273.020496,-42.781766
77,0.301552,-0.18346,-8.703403,0.761815,0.0,-63.442268,-32.775078,-95.019608,-26.630058,-97.94157,-18.075714,-83.739738,-8.189964,-60.45433,0.0,23.887838,28.122805,57.344026,45.489429,73.853863,57.981043,84.939112,66.015451,87.791857,0.0,35.493965,-1.397552,-8.376961,-18.059978,-34.586735,-31.474342,-55.016041,-41.011848,-72.863159,0.0,-18.660697,-4.36702,0.208161,-6.707175,-2.124152,-9.72464,-6.596148,-12.475127,-18.87849,18.336382,269.224186,-280.473032,-42.061309
78,-0.138245,-0.130232,-4.389153,2.928019,0.0,-63.342762,-32.642326,-94.778309,-26.523628,-97.677727,-18.038292,-83.606358,-8.251076,-60.301266,0.0,24.111128,28.471262,57.268938,45.970341,73.895854,58.627385,84.963689,66.771276,88.19941,0.0,35.564232,-4.903507,-21.261921,-21.451435,-50.33123,-34.034557,-62.747097,-41.446495,-77.318859,0.0,-20.530561,-10.71558,-13.00121,-14.091228,-13.422749,-15.007264,-11.477271,-13.260191,-20.686326,18.845959,268.980735,-284.214363,-39.246509
79,-0.277176,0.033283,-7.079945,6.546871,0.0,-63.318157,-32.71225,-94.405575,-26.727104,-97.249546,-18.193932,-83.505363,-8.08445,-59.895287,0.0,23.279535,28.172761,56.314091,45.180553,73.711776,57.653272,85.08299,65.903745,88.280674,0.0,34.14362,-4.354935,-18.372917,-19.818649,-35.898342,-32.74292,-49.140472,-42.37896,-78.32119,0.0,-27.091974,-19.017058,-22.381066,-20.497277,-19.511926,-20.368744,-14.259127,-18.170244,-23.224886,19.398966,268.960944,-290.464125,-32.752712
80,0.340691,-0.370255,-1.417923,-0.323696,0.0,-62.883453,-33.180428,-94.682007,-27.324829,-97.848988,-18.958168,-83.699512,-8.829117,-59.605179,0.0,23.915749,28.515538,56.783888,45.471521,73.964026,57.75584,85.420086,65.833226,88.514461,0.0,35.733891,-4.620438,-17.892895,-19.617805,-32.287273,-32.496185,-44.410286,-42.59491,-76.402988,0.0,-24.528066,-13.449703,-20.376648,-14.738218,-19.973757,-14.641578,-14.018887,-12.172365,-20.901866,20.255499,268.411704,-291.366205,-33.255391
81,-0.325584,-0.514443,0.090065,2.730974,0.0,-63.272667,-32.233429,-94.395561,-26.134872,-97.252636,-17.829094,-82.71944,-8.124504,-59.125214,0.0,24.84145,28.745867,57.938127,46.058891,74.329033,58.550012,85.522221,66.624743,88.915097,0.0,37.086353,-6.244354,-17.632027,-20.871792,-30.330677,-33.21619,-41.000805,-42.732182,-75.972633,0.0,-25.249064,-14.352278,-21.293425,-15.750647,-20.394031,-15.437541,-13.791985,-12.544287,-19.434707,20.519829,267.768528,-290.686226,-30.653152
82,0.046806,0.261575,0.805092,-0.747242,0.0,-63.201485,-32.427406,-94.183617,-26.596413,-97.593899,-18.463211,-83.189106,-9.031792,-60.036621,0.0,24.639526,28.207341,57.516248,45.621019,74.124392,58.249719,85.074839,66.395031,88.413314,0.0,37.633495,-2.316284,-11.482086,-17.664013,-29.327774,-31.071968,-44.109592,-41.639557,-72.529221,0.0,-22.801679,-9.790466,-15.197178,-11.312058,-15.913915,-12.22195,-11.443061,-11.094295,-16.591626,21.156549,267.941491,-289.29122,-31.489005
83,-0.593719,-0.447505,2.831097,-0.270127,0.0,-62.459049,-32.110176,-94.135895,-26.116791,-96.614571,-17.856445,-81.78463,-8.283234,-58.562794,0.0,25.327981,28.562406,58.341789,46.058644,74.944067,58.652209,85.57298,66.708414,89.040574,0.0,38.951569,-3.575363,-11.56889,-19.660435,-33.945637,-33.57748,-50.39629,-43.782063,-73.337574,0.0,-21.335292,-8.828827,-19.346311,-12.159675,-17.651263,-12.700423,-14.417918,-10.371198,-17.989748,21.086626,267.470952,-285.936327,-31.782165
84,0.376625,0.200627,2.024174,2.327466,0.0,-62.391872,-32.416878,-94.364376,-26.380234,-96.703377,-18.147697,-81.928768,-8.603325,-58.502541,0.0,25.289387,28.430445,58.246817,45.883644,74.835695,58.391869,85.469918,66.376197,88.743925,0.0,39.106407,-5.333347,-17.456818,-20.660248,-32.855358,-33.407707,-45.848064,-42.494144,-73.890095,0.0,-22.974272,-14.226492,-18.907328,-14.91961,-15.641163,-14.446725,-7.94064,-11.742026,-20.251603,21.951141,267.660603,-283.424263,-29.465676
85,0.577126,0.21977,0.787296,1.128674,0.0,-61.904297,-32.455902,-94.071007,-26.569977,-96.488857,-18.302765,-81.889515,-8.418503,-58.792992,0.0,24.434082,28.75976,57.701252,46.379005,74.121366,58.943362,84.644562,67.02964,88.158037,0.0,38.678226,-3.877316,-19.110489,-20.02533,-33.05151,-33.693752,-46.516514,-44.090767,-75.82386,0.0,-25.108922,-13.408917,-18.553344,-14.132662,-17.382803,-13.522599,-10.345479,-10.866776,-16.835293,23.016214,267.861987,-282.149019,-28.355388
86,0.094757,-0.083672,2.928715,-0.115134,0.0,-61.890335,-32.797279,-94.016418,-26.991119,-96.746521,-18.797722,-82.206631,-9.094162,-59.251156,0.0,24.427598,29.027572,57.71953,46.773776,74.352127,59.359807,84.841855,67.28504,88.2816,0.0,36.59586,-6.718655,-16.921062,-22.666111,-33.921604,-35.914993,-47.323494,-45.765381,-76.330719,0.0,-24.199215,-12.729539,-19.291693,-13.799488,-17.550764,-13.187541,-8.591613,-10.402135,-18.820692,23.5534,267.711655,-278.777876,-28.537181
87,-0.001945,-0.145731,-1.533623,0.985135,0.0,-61.777096,-33.168411,-94.08886,-27.2715,-96.490574,-18.930473,-82.234097,-9.013023,-59.114571,0.0,24.62415,28.660157,58.129368,46.265632,74.062641,58.859319,84.535264,66.936026,88.357306,0.0,40.047112,-2.530403,-15.540504,-18.414745,-28.247509,-32.224846,-41.675377,-43.049126,-73.69051,0.0,-26.385704,-15.033724,-17.153431,-15.755587,-14.914546,-15.274983,-10.892557,-12.668715,-17.273381,23.783827,267.542737,-280.079126,-27.575233
88,0.711708,-0.060268,3.980484,-3.078011,0.0,-62.321777,-32.903252,-94.725552,-26.736145,-97.196445,-18.137398,-82.494335,-8.032608,-59.468994,0.0,24.672068,28.679176,57.928926,46.044936,74.036521,58.466957,84.641537,66.454805,88.156555,0.0,38.107224,-7.921085,-19.324493,-23.761139,-35.352573,-36.802197,-49.421711,-46.099777,-74.233246,0.0,-22.154905,-11.219216,-15.690286,-12.672327,-14.576555,-11.971738,-7.677737,-8.825307,-16.51416,24.682474,267.4804,-275.911703,-30.655313
89,0.139847,0.299366,-1.303596,3.290649,0.0,-61.931534,-33.239708,-94.33485,-27.348862,-97.47036,-18.867188,-82.979164,-8.773384,-59.356155,0.0,23.695856,28.203266,57.186501,45.182097,73.663178,57.50575,84.445232,65.517125,87.70269,0.0,40.898266,-2.613258,-18.257561,-19.046974,-33.420238,-32.744637,-48.542519,-43.239555,-71.023178,0.0,-25.357374,-12.962307,-17.852229,-13.329135,-16.686536,-12.761433,-11.152217,-10.567626,-17.371996,24.918709,267.796578,-277.118912,-27.347853
90,0.38578,-0.171049,4.498043,-0.547973,0.0,-62.507629,-33.291664,-94.963875,-27.25708,-97.618046,-18.806419,-83.181438,-8.838272,-59.506931,0.0,24.217091,28.470398,57.812897,45.647572,73.714246,57.960851,84.431091,65.846193,87.74184,0.0,38.723316,-6.991539,-19.794502,-23.641033,-36.906166,-37.039433,-53.080788,-46.485615,-72.93726,0.0,-23.660936,-11.527382,-16.092157,-13.400797,-15.416608,-13.281371,-9.663939,-10.984966,-16.456948,25.463533,267.643452,-272.461824,-27.877903
91,0.461082,-0.419471,0.670052,5.035098,0.0,-62.757225,-32.591972,-94.965248,-26.572723,-97.258816,-18.189926,-83.374958,-8.509254,-60.107574,0.0,24.562647,28.324049,57.508714,45.589897,74.144708,58.011857,85.046558,66.035891,88.687794,0.0,40.98959,-5.748425,-19.418335,-22.07262,-33.964806,-35.164547,-46.177483,-45.040913,-68.772297,0.0,-27.138627,-17.016098,-23.821487,-16.304641,-20.945585,-14.279875,-13.065708,-10.952146,-19.637496,26.284933,267.201782,-271.431456,-22.865004
92,0.112953,0.131467,3.38007,1.426157,0.0,-63.416862,-32.179298,-94.607964,-25.894203,-96.440849,-17.361717,-82.538624,-7.735291,-59.421616,0.0,24.340469,27.695122,57.055405,45.049272,73.531403,57.683036,84.480924,65.905165,88.465246,0.0,42.25502,-5.752258,-16.984863,-22.998905,-34.934578,-36.535435,-49.445171,-46.504726,-68.918953,0.0,-28.177577,-16.638803,-26.370884,-16.08521,-24.042863,-14.161685,-15.302864,-10.724101,-20.469243,26.706133,267.324264,-267.743139,-21.447832
93,0.823975,-0.050388,4.226761,2.869418,0.0,-63.779125,-32.002258,-94.888344,-25.472832,-96.899986,-16.818466,-82.655067,-7.462349,-59.845161,0.0,24.763829,27.414836,57.368047,44.949113,73.083897,57.798447,84.571573,66.04009,88.482845,0.0,44.302368,-3.683395,-11.197014,-21.521358,-27.490311,-36.103592,-44.983006,-46.942005,-64.499931,0.0,-31.249815,-18.630624,-24.040609,-19.67856,-22.202453,-18.477977,-16.721734,-15.048421,-21.887835,27.985582,266.847103,-263.060904,-19.005187
94,1.648178,0.5468,5.071507,3.362958,0.0,-64.252739,-31.783333,-94.672337,-25.168304,-96.384315,-16.420555,-82.239189,-6.977577,-59.14278,0.0,24.584383,26.51575,57.057998,43.697247,72.688695,56.613642,84.614737,65.300073,89.056753,0.0,47.517586,-1.424732,-10.026398,-20.274181,-24.289112,-35.657101,-40.287666,-46.346397,-55.739193,0.0,-33.922465,-24.132462,-20.794606,-26.163804,-15.852628,-24.833175,-13.932962,-20.239716,-18.843107,29.966698,267.127219,-257.65646,-15.908913
95,1.698189,-0.453495,10.67522,2.811311,0.0,-64.886513,-31.248894,-94.408207,-24.903946,-96.290474,-16.518517,-81.71339,-7.257843,-58.504257,0.0,23.172892,27.445403,57.168778,44.683277,73.461316,57.320623,85.593234,65.422647,90.704563,0.0,46.122665,-2.460651,-2.276859,-20.903378,-14.250984,-36.680088,-30.497417,-47.994919,-47.048893,0.0,-37.916019,-28.170723,-13.489408,-30.131453,-8.491793,-27.656589,-8.736634,-21.380463,-12.487971,32.14963,266.666453,-246.496496,-13.104873
96,1.62941,-0.095651,12.802219,4.195508,0.0,-65.016403,-31.745796,-94.479504,-25.34626,-96.156006,-16.641541,-82.207146,-6.87767,-58.430443,0.0,23.23878,27.75187,56.48199,44.983631,72.440396,57.64401,85.362596,65.676503,91.277853,0.0,41.790962,-5.167809,1.545296,-23.34549,-11.046295,-38.456383,-26.910896,-49.363861,-42.975254,0.0,-40.700036,-28.096407,-18.467047,-27.838321,-13.584411,-23.056925,-12.243656,-15.569656,-12.313557,34.153404,266.720669,-233.319912,-8.759497
97,1.373863,-0.358523,10.090599,13.566041,0.0,-65.720444,-31.803589,-94.776764,-24.960594,-95.267029,-16.226349,-81.859875,-6.769981,-58.443146,0.0,24.267541,28.34875,57.714652,45.977072,72.62219,58.752738,85.275034,66.695879,91.302183,0.0,39.160252,-3.348083,12.503357,-18.81609,-1.955452,-32.782574,-13.78046,-44.758301,-30.686989,0.0,-44.629616,-34.818958,-26.071271,-32.002275,-23.461421,-25.329154,-21.860418,-16.654179,-17.937105,36.380854,266.370776,-222.375727,4.815174
98,0.619812,-0.004261,2.941017,12.240661,0.0,-65.27607,-31.133308,-94.524479,-24.503517,-96.039791,-15.87616,-82.566605,-6.37722,-58.876076,0.0,23.656459,28.670655,57.379224,46.068648,72.636392,58.665608,85.365622,66.463512,90.644233,0.0,39.642849,7.129383,40.605183,-6.560783,22.321014,-19.241123,2.266445,-31.281166,-9.879913,0.0,-39.649446,-42.078583,-24.303141,-40.872752,-19.722279,-33.396444,-9.290998,-23.060321,-6.655305,37.518883,266.184938,-218.916492,16.874257
99,0.257263,-0.091329,6.518211,3.288395,0.0,-65.156593,-31.173363,-94.975662,-24.420891,-96.55632,-15.732651,-83.619404,-6.506424,-61.547356,0.0,23.877588,28.860475,58.314372,46.475027,72.693449,59.165293,85.271947,66.893604,89.929039,0.0,36.110516,2.845402,45.870552,-5.862179,41.810131,-13.290367,32.312336,-19.809895,17.818794,0.0,-34.336564,-32.515729,-22.348925,-27.331535,-15.197487,-16.819392,-4.820978,-3.815434,2.856173,37.781324,265.6537,-212.393103,19.722742
100,-0.694427,-0.625223,26.217041,18.223349,0.0,-64.727554,-31.541862,-94.718742,-24.594841,-95.695782,-15.841942,-82.416229,-6.648674,-61.200256,0.0,23.654175,28.761428,58.40391,46.556106,72.521413,59.482999,85.600212,67.512405,89.370136,0.0,50.210438,8.012466,53.855038,-4.73053,48.172359,-14.275818,40.253563,-20.086155,23.672962,0.0,-36.171477,-35.540017,0.955526,-26.332691,11.997827,-12.440639,17.882919,4.632207,21.845443,37.032194,265.045921,-186.230764,37.963536
101,0.554352,-0.149189,2.006321,4.445597,0.0,-65.016518,-32.181358,-95.428276,-25.344429,-97.203712,-16.55777,-84.150982,-7.251663,-62.511349,0.0,23.076746,28.443969,57.154205,46.116443,71.726685,58.958799,84.509144,66.968322,88.853532,0.0,64.582043,15.988598,70.503101,6.720486,69.989319,-2.48354,61.291981,-9.607487,46.926212,0.0,-19.530914,-20.260218,15.66327,-8.389905,31.15864,6.245282,36.77836,21.639444,42.094978,38.068342,266.02218,-183.742647,43.534581
102,0.003204,-0.274234,26.477394,22.459705,0.0,-65.885353,-32.609253,-95.701504,-25.958862,-98.11964,-17.284813,-85.18507,-8.057098,-63.724709,0.0,23.071436,28.646325,56.777713,46.107365,71.197855,58.718961,84.318335,66.457955,89.018344,0.0,58.216667,30.616264,79.010239,19.424171,76.15551,6.50053,64.003315,-6.236629,40.162697,0.0,-11.509628,-2.332128,34.089346,6.365387,47.366117,17.654412,54.339838,31.314807,55.003716,37.548981,266.728296,-157.787819,66.974636
103,-0.594521,-0.733657,7.507782,21.191784,0.0,-66.093178,-32.898216,-96.18639,-26.189232,-98.396015,-17.60376,-85.531769,-8.449631,-64.08989,0.0,23.462069,29.362074,57.418435,47.069807,71.534086,59.711413,84.530386,67.34784,89.661722,0.0,67.155762,27.522125,85.797615,19.478474,84.124775,9.140968,70.078182,-2.328014,42.833519,0.0,-10.867455,-4.678057,34.741646,4.697199,45.364261,16.014414,52.079001,28.953132,53.86544,35.959339,266.225292,-151.275158,88.397073
104,-0.97126,0.096763,16.739845,26.232254,0.0,-66.261292,-33.322792,-96.245041,-26.525345,-97.741871,-17.938499,-84.708424,-9.004898,-63.584404,0.0,23.534811,29.175588,56.614754,47.106364,70.94369,59.82948,84.293079,67.363401,89.360874,0.0,67.199822,30.866861,89.427681,22.525406,88.153353,12.005367,75.694284,0.472755,51.363974,0.0,-8.693007,-0.111228,40.367572,12.581137,54.084809,26.71116,60.995328,41.36319,63.300193,34.966536,266.394967,-134.556856,114.702239
105,-1.675529,-0.131837,16.739845,26.232255,0.0,-65.60606,-33.020554,-95.278358,-26.039085,-97.25893,-17.307472,-83.834724,-8.369408,-62.914352,0.0,23.868201,29.174538,56.446916,47.213068,71.035204,60.089017,84.118572,67.855799,89.094915,0.0,67.243881,34.211597,93.057747,25.572338,92.181931,14.869766,81.310387,3.273525,59.894428,0.0,-6.518559,4.455601,45.993498,20.465075,62.805356,37.407906,69.911655,53.773247,72.734946,33.320732,266.332969,-117.787285,141.004333
106,-0.160561,-0.166664,6.810665,19.768777,0.0,-66.537609,-33.531075,-97.090187,-26.787186,-98.415585,-18.16864,-85.178261,-9.291115,-64.42606,0.0,25.066592,29.569617,57.162727,47.692251,71.632269,60.425001,85.207479,67.848697,89.514879,0.0,68.066769,31.870022,89.920464,23.279972,92.680035,14.200859,81.686554,4.340343,62.917843,0.0,-6.117984,11.588206,47.177068,26.006371,62.744594,39.799931,72.83245,53.081086,77.715796,33.068962,266.211337,-111.067829,160.818142
107,-1.880493,2.064934,18.103008,27.653502,0.0,-65.341759,-32.334595,-96.062794,-26.1026,-97.596588,-17.909088,-84.371395,-9.399605,-63.833427,0.0,22.125728,28.312193,55.579323,45.870491,70.220407,58.553284,83.381952,66.090293,88.157976,0.0,66.675739,36.342258,89.025421,28.75351,88.65303,19.503307,78.284225,9.76387,64.238319,0.0,0.882475,15.359921,53.204278,33.684726,65.200099,50.087056,71.130547,63.240326,73.317376,31.196966,267.927396,-92.956324,188.122769
108,0.358429,0.41873,7.463951,17.124192,0.0,-50.934162,-31.626434,-93.71109,-28.04718,-98.33353,-21.959381,-86.711025,-13.856049,-64.527798,0.0,-4.905638,29.031339,51.604511,43.838717,68.037777,55.577841,80.47079,64.499355,87.799268,0.0,68.218575,32.335625,91.14418,22.008648,89.947472,12.00016,79.646759,2.082825,57.304058,0.0,1.662753,16.543985,55.991816,32.645652,73.942599,47.286119,81.98806,59.568585,83.086106,31.554766,268.104604,-85.493002,205.00544
109,5.192986,47.420673,3.112221,14.809848,0.0,-66.627502,-36.20842,-98.097382,-35.671921,-97.04195,-32.857704,-82.960625,-28.223534,-65.709629,0.0,38.688671,7.702623,19.085879,-9.304676,-7.92795,-26.787576,-36.405696,-43.682365,-54.630713,0.0,72.544785,34.613171,94.359512,24.960136,92.517242,15.148087,81.863594,4.59383,60.616264,0.0,7.738747,23.824544,63.435828,38.41876,79.366323,51.304465,88.877615,61.51576,90.122256,36.741228,315.116011,-82.387304,219.406022
110,-12.250443,-28.031476,19.114494,16.491806,0.0,-57.357903,-26.902084,-85.286751,-20.120659,-77.789326,-12.306862,-58.804893,-3.786736,-41.003036,0.0,32.150414,28.647498,41.637438,28.324358,20.902453,24.877388,11.680523,18.680673,20.467359,0.0,64.256859,39.226227,84.799232,30.244045,74.175911,19.559612,62.996407,8.477268,55.109653,0.0,12.598196,35.178222,71.298878,54.61861,83.511072,68.540796,95.443598,77.069886,98.543098,24.386587,287.090988,-63.377008,235.904281
111,2.328186,-13.851729,-4.67474,7.736709,0.0,-64.21114,-17.248077,-77.208595,-12.282829,-80.494194,-6.937981,-73.22731,-2.342033,-55.51466,0.0,-4.472027,44.391939,26.361066,52.699222,25.408998,54.579522,35.499509,50.597855,51.667743,0.0,76.347485,34.289017,98.483334,25.370178,96.514149,16.298218,83.125134,7.784042,63.725224,0.0,14.249463,30.674085,67.509317,49.620532,79.963696,62.388788,87.823535,70.004837,89.586077,26.658125,273.28074,-68.108397,243.682471
112,-0.88234,19.6814,3.458977,5.368519,0.0,-64.069862,-35.523376,-41.989231,-33.149099,-38.58799,-27.831831,-35.604629,-21.824369,-65.884809,0.0,15.578054,20.481253,29.12029,21.896326,24.773493,19.873289,25.95907,15.618995,31.243331,0.0,74.759274,34.777451,92.912807,24.333515,92.094898,13.705387,75.230427,3.932247,52.322502,0.0,15.116563,31.650668,69.43099,49.486533,87.080184,62.020755,92.884476,69.996624,92.009102,25.763655,292.913944,-64.661551,249.002794
113,-0.882339,19.6814,3.499546,6.974215,0.0,-63.928585,-53.798676,-6.769867,-54.015369,3.318214,-48.725681,2.018051,-41.306705,-76.254959,0.0,35.628135,-3.429433,31.879515,-8.906571,24.137989,-14.832943,16.418632,-19.359866,10.818919,0.0,70.793495,33.729057,93.813057,24.164314,93.515282,14.105473,78.28434,4.34864,54.793968,0.0,11.745855,28.853559,62.424665,45.208959,82.016403,57.095728,89.898349,65.355833,90.086132,24.842634,312.619905,-61.200686,256.00157
114,1.907387,-16.64575,4.009781,3.828217,0.0,-49.750843,-49.055786,-2.668304,-49.647503,6.38958,-44.510136,6.368866,-36.011696,-50.166607,0.0,15.022146,9.336107,40.124368,16.459264,43.368302,20.909925,45.611942,24.487188,49.173459,0.0,69.774742,33.122635,93.430138,23.862419,94.031296,13.987141,79.118958,4.288559,56.697464,0.0,12.372868,28.018076,61.580784,44.71477,77.783042,56.810009,87.352256,65.173176,88.801538,26.698036,295.968505,-57.242889,259.824136
115,-4.47464,-13.77732,4.58622,3.834268,0.0,-41.849613,-40.326519,6.784172,-47.09753,12.114143,-49.565334,2.095871,-50.328541,-72.220802,0.0,18.398288,20.926041,47.215847,35.173961,55.31392,44.279244,59.315223,51.147928,73.57401,0.0,69.575958,32.36515,92.522964,22.506695,90.519333,11.821289,74.487076,1.200256,50.758324,0.0,12.70947,29.648719,60.462298,45.783546,75.729347,57.143831,85.650477,64.632921,86.655959,22.189035,282.503766,-52.691031,263.970985
116,-9.441719,7.008116,2.312164,3.342241,0.0,-29.415264,-34.975491,22.119484,-40.756588,30.697746,-41.822891,22.988663,-39.763355,-64.390926,0.0,33.365044,21.893856,49.81733,30.503777,53.493085,36.09892,56.284945,41.685295,62.850743,0.0,68.245583,31.746769,90.628052,21.954231,89.639969,11.382866,73.619499,1.022873,51.064568,0.0,14.342274,29.178366,59.91871,45.62386,74.101297,57.009401,83.21362,64.27446,85.021055,12.733612,289.883187,-50.39257,267.684532
117,-11.931267,8.449926,0.86935,1.820464,0.0,1.309433,-15.434189,37.924805,-22.483006,39.867096,-25.583839,29.550018,-26.143913,-42.184582,0.0,15.543381,15.021961,39.463639,25.749737,48.517175,34.258511,53.260718,42.303725,57.938559,0.0,66.629505,31.370544,88.796368,22.026215,88.712368,11.835995,73.992748,2.012215,53.800335,0.0,16.306184,29.437471,59.809844,45.828068,72.451697,57.166247,80.731624,64.309102,84.824318,0.71291,298.547449,-49.612656,269.719331
118,5.083237,19.213208,0.287247,0.643625,0.0,-53.563843,-36.179123,9.655952,-36.224957,25.459557,-30.843544,30.111351,-23.753872,-9.294777,0.0,42.029368,7.813835,35.368475,-7.813341,27.404956,-24.584692,9.632879,-41.401552,-12.627527,0.0,66.641064,31.393719,88.444233,22.111015,88.187542,11.765156,72.90453,1.597137,52.382526,0.0,16.724605,29.749372,58.04372,46.032339,72.049269,56.935671,80.651966,63.729019,84.138333,5.654869,317.825418,-49.466686,270.427716
119,4.296112,-9.632385,1.975937,1.034813,0.0,-33.515053,-35.792713,22.15107,-39.227886,29.250641,-38.001766,21.887398,-33.908043,-55.537148,0.0,42.292363,10.7258,39.875946,9.301218,36.699258,6.909068,35.942383,4.739653,32.569143,0.0,66.295109,29.700451,87.709293,19.806747,86.48283,9.009304,70.760021,-1.578598,48.938999,0.0,17.043855,28.626318,56.495081,44.989868,70.506497,56.013119,79.630923,62.862228,83.249991,9.813395,308.204565,-47.628336,271.474062
120,-1.460381,-18.560568,0.842514,0.686665,0.0,-31.630325,-27.407799,21.101532,-36.643925,25.654106,-41.557331,12.966614,-44.074688,-51.85009,0.0,36.468373,9.529879,41.735683,22.322589,49.44479,31.280536,53.999192,38.920482,68.033825,0.0,65.834599,29.024963,86.889439,19.164391,85.930882,8.531055,70.658741,-1.543236,49.247761,0.0,17.097639,28.393642,57.217376,44.944852,70.494703,56.191022,79.051951,63.03093,82.66435,8.214941,289.561205,-46.923895,272.077935
121,-13.990173,8.105483,0.658092,0.582986,0.0,5.773201,-14.985924,43.300438,-21.232281,44.065247,-24.996243,31.887817,-25.809803,-53.567848,0.0,16.01886,14.223219,44.088868,25.682058,49.961209,34.822231,54.521909,42.462177,59.116819,0.0,65.356064,28.83522,87.372208,18.586292,85.364227,7.617702,69.553528,-2.603073,48.800697,0.0,16.842734,28.594763,56.81995,45.684313,70.683474,57.393612,78.877383,64.388019,81.951627,-5.880203,297.598068,-46.370773,272.5923
122,7.602997,-18.882103,0.535927,-0.244964,0.0,-10.072174,-16.516056,30.619011,-28.151093,32.594376,-37.616615,13.644333,-44.947872,-47.796135,0.0,27.478378,19.325471,45.125349,37.189309,59.970827,50.20574,69.15052,60.13076,81.424155,0.0,64.946938,27.597542,87.253189,17.013874,84.907722,6.015987,69.819832,-4.151974,48.014603,0.0,18.283185,28.380736,56.475383,45.907294,71.653696,57.854578,80.085406,64.885542,82.984403,1.681824,278.565109,-45.875816,272.19648
123,-17.360744,26.86606,0.209255,0.196366,0.0,-29.067936,-12.335815,48.511448,-15.549145,56.677952,-15.61615,45.629826,-12.156258,-10.777187,0.0,48.402134,10.227412,37.04611,15.418275,36.516724,18.506166,39.71274,21.280983,43.192128,0.0,64.017963,28.19418,87.783451,17.957211,85.939922,6.964073,71.182308,-3.334122,50.43932,0.0,19.29052,28.503867,56.586843,45.787189,71.340621,57.766214,80.48913,65.25765,85.588541,-15.701752,305.27775,-45.689392,272.239427
124,12.312298,-25.577515,0.607681,-0.299489,0.0,-5.935307,-15.313625,34.461937,-26.433506,37.090874,-34.751015,19.582558,-40.816669,-42.049942,0.0,30.931831,17.869149,47.463837,35.458507,60.316691,48.270297,69.07574,57.996419,82.456869,0.0,63.289204,27.8298,87.064533,17.597179,85.040302,6.432323,70.782223,-4.252625,49.402599,0.0,19.559628,28.986199,57.024529,46.227038,71.928115,58.338146,80.934721,65.715838,85.381739,-3.447218,279.592929,-45.139475,271.832631
125,-13.394337,37.714126,0.085373,0.342036,0.0,-36.007233,-19.458103,39.667797,-15.908661,53.23019,-9.614296,53.685322,-2.274456,29.674015,0.0,47.234804,13.851173,36.992572,4.058608,27.232179,-8.099122,13.949542,-19.987929,-0.558779,0.0,63.158512,27.294102,85.933628,17.081165,84.286137,6.120071,70.565014,-4.250965,49.537754,0.0,19.634408,28.943777,57.555583,46.158309,71.831475,58.21588,80.792881,65.462785,84.86779,-16.874228,317.121402,-45.086775,271.989014
126,0.530949,-4.380389,0.16634,0.391806,0.0,-11.696262,-4.593029,55.218544,-8.9748,56.70948,-11.051445,42.255363,-11.463947,-1.736183,0.0,37.778285,6.910612,31.020443,11.986187,34.609871,15.66188,39.2753,18.492643,37.843431,0.0,63.566322,27.349148,87.138405,17.271652,84.625053,6.407661,70.47821,-3.891392,49.670448,0.0,19.444834,28.667999,56.844218,45.870923,71.266089,57.961654,80.432752,65.366701,85.033714,-16.376066,312.641132,-44.953222,272.280939
127,4.908829,-34.438822,0.726814,0.360561,0.0,14.172134,-4.053497,44.91806,-15.287476,45.867348,-25.434036,23.224411,-33.231525,-36.332245,0.0,14.18901,18.851104,45.584339,39.48346,60.390853,54.263854,71.694884,64.462305,83.316311,0.0,63.951416,27.4617,86.808701,17.079277,83.672333,5.823612,69.47525,-4.704552,48.343849,0.0,19.692206,28.419763,57.506924,45.505731,71.493639,57.658212,80.470049,65.146808,85.149619,-11.523914,277.994334,-44.283085,272.433524
128,-4.662437,-0.283373,0.241356,0.768793,0.0,20.537682,3.715038,50.869675,-8.192368,50.921745,-19.890118,27.638855,-29.455376,-26.771164,0.0,13.717298,19.465274,45.038527,39.596649,60.91215,54.010739,72.031794,63.801267,82.243089,0.0,63.738098,27.017441,86.797829,16.953793,83.890457,6.022339,70.155602,-4.225273,49.132576,0.0,19.179431,27.956141,56.073758,45.042294,70.291976,57.231517,79.394172,64.786741,84.08498,-16.220942,277.605399,-44.076319,273.096755
129,2.435703,1.068653,0.409012,-0.238233,0.0,10.854321,0.426064,46.730747,-10.235081,47.504025,-20.873051,27.677593,-30.006981,-21.897297,0.0,22.667465,17.470303,44.642646,37.472991,60.401227,52.144394,70.56411,62.672593,81.017961,0.0,63.439178,26.492271,86.143227,16.501293,83.425713,5.492649,69.492989,-4.986248,48.098488,0.0,19.627554,28.166215,56.533614,45.13739,70.987409,57.245596,79.787028,64.739132,84.253127,-13.84778,278.624127,-43.729849,272.808596
130,10.953999,1.027342,0.114613,0.589284,0.0,-7.455711,-14.044304,35.138397,-24.477654,37.64534,-32.740517,21.319199,-38.7743,-32.382488,0.0,28.808852,19.519305,45.498383,37.618968,58.951081,50.58921,67.804546,60.111865,80.214217,0.0,63.795834,26.359978,86.681385,16.217365,83.341656,5.357094,69.135647,-4.71777,48.304768,0.0,19.507943,27.630469,56.362442,44.658083,70.656303,56.833597,79.022743,64.338125,83.717689,-2.92325,279.60284,-43.644705,273.349252
131,-13.355656,43.009409,0.090408,0.002038,0.0,-34.843082,-17.99017,40.013981,-14.850941,50.971127,-8.824997,52.209949,-1.38216,26.821232,0.0,44.953806,9.336848,29.421416,-0.877967,19.977432,-13.351798,7.267035,-25.600486,-10.749882,0.0,63.793888,26.197472,86.437626,16.169243,83.361225,5.173531,68.786144,-5.205059,47.267818,0.0,19.414453,27.503448,56.638528,44.388481,71.166979,56.483164,79.491182,63.939711,84.213174,-16.305084,322.556503,-43.580475,273.295545
132,1.34737,-2.488789,0.094986,-0.093737,0.0,-19.710732,-6.411667,52.245255,-10.972652,54.679871,-12.61631,41.340523,-12.064819,-14.910507,0.0,33.70992,1.724936,24.576726,5.378584,27.271205,8.673895,31.990727,11.563691,29.163176,0.0,63.196735,26.36261,86.272602,16.288719,83.131199,5.268459,68.586788,-5.097885,47.494755,0.0,19.76217,28.182456,56.70318,45.069032,71.179453,57.01607,79.439682,64.284834,83.737696,-15.0105,320.044836,-43.538275,273.178929
133,16.819267,-35.199773,-1.318302,0.327092,0.0,-20.660706,-19.048519,26.611633,-27.851372,27.624435,-33.9184,13.949432,-37.861748,-36.734505,0.0,28.979777,17.12308,44.072442,33.268961,56.813652,44.63221,63.329061,53.21984,75.467896,0.0,63.869705,26.85751,87.935829,16.737499,84.663506,6.193027,70.519753,-3.408794,49.819679,0.0,19.279096,27.423296,55.907156,44.669631,70.467038,56.836005,78.821252,64.099706,82.995394,1.736555,284.747946,-44.928789,273.408903
134,-13.007183,23.70129,0.357342,-0.285843,0.0,-24.184399,-13.824806,46.324024,-17.041111,53.562183,-17.379169,39.205227,-14.708862,-29.015293,0.0,42.0432,10.949336,37.929264,15.279275,37.838553,18.056561,40.502095,20.324469,40.8487,0.0,63.784847,26.884975,87.860012,16.683941,84.660244,5.954704,70.344944,-3.780098,49.538441,0.0,19.195301,27.89581,56.072029,45.212046,70.84952,57.382497,79.179836,64.582409,83.459819,-11.273489,308.329749,-44.574308,273.003573
135,15.378742,-22.815233,-0.909576,0.108928,0.0,-22.883377,-24.024467,25.161552,-33.87085,28.004379,-39.293461,13.952293,-42.324314,-48.394032,0.0,31.355624,16.228749,44.575214,32.689186,55.075439,44.489999,62.203475,53.490121,77.04778,0.0,64.953976,27.439613,88.321209,17.214546,85.436726,6.437187,70.978603,-3.391228,49.35339,0.0,18.979051,27.652205,55.584139,45.174317,70.624255,57.335999,78.991251,64.323984,83.382816,4.097099,285.48503,-45.492039,273.083015
136,-17.921963,11.347379,0.742836,0.203282,0.0,-5.170612,-10.785255,52.301617,-16.360474,56.943913,-18.635216,45.036678,-16.618023,-16.800613,0.0,33.966802,15.901287,47.526946,26.669571,50.772053,34.749056,53.51229,41.589458,60.123968,0.0,64.043598,27.643661,86.919422,17.631054,84.381924,6.749611,70.038586,-3.326454,49.000683,0.0,19.101934,27.887474,56.322674,45.207847,70.801108,57.36885,78.821684,64.569874,83.147794,-13.825006,296.785972,-44.749346,273.239861
137,18.325138,-11.981185,0.065174,-0.053538,0.0,-25.21328,-25.317364,25.297394,-34.529858,28.380089,-39.271259,14.491997,-41.498051,-44.506588,0.0,29.795438,17.622271,44.139318,35.135799,56.266543,47.37893,63.2394,56.239002,76.810596,0.0,64.224014,27.693443,86.842804,17.702007,84.671059,6.805401,70.296593,-3.417721,48.191528,0.0,19.363818,27.907913,56.363244,45.244712,70.95499,57.473702,79.277587,64.718816,83.905163,4.511175,284.768215,-44.673128,273.149752
138,-17.613544,16.368676,0.229225,0.266453,0.0,-14.942207,-11.926289,50.427074,-16.102982,57.367458,-17.584305,45.924168,-14.867191,-24.620018,0.0,33.670153,11.672742,44.092511,21.722869,46.557896,29.891337,49.209397,37.105637,54.079035,0.0,63.98632,27.494488,87.005882,17.292824,84.341469,6.28973,70.029144,-3.964005,48.067017,0.0,19.424827,27.58922,56.204669,45.059399,70.777458,57.317597,79.084061,64.46496,83.40622,-13.076591,301.079154,-44.418125,273.358468
139,14.029255,-16.178237,-0.341148,-0.145607,0.0,-23.061905,-22.70977,28.096504,-31.584206,31.155052,-36.103878,17.552376,-38.044624,-39.403782,0.0,31.812392,18.406501,44.78813,34.636918,55.911911,45.616573,62.994065,53.803443,76.909953,0.0,64.232597,27.6194,87.095833,17.609253,84.536476,6.70023,70.257454,-3.57296,48.651009,0.0,19.644226,27.562296,56.110809,44.905949,71.110848,57.03935,79.147047,64.062718,83.478468,1.025047,284.850096,-44.68689,273.16204
140,-12.105618,33.658482,0.51115,0.52741,0.0,-33.668461,-22.928638,37.629604,-21.445713,49.867001,-17.221527,48.170986,-9.690456,1.761646,0.0,39.547187,13.446276,39.282833,5.550992,31.828509,-3.485132,25.012004,-11.292174,16.617468,0.0,64.127598,27.12347,85.906963,17.263927,83.495808,6.452065,69.606113,-3.744678,48.801098,0.0,19.589145,27.236748,56.220416,44.485367,70.729539,56.754124,78.68466,64.132434,83.004101,-10.951538,318.294691,-44.046707,273.475562
141,8.049946,-33.869607,-0.240784,0.204703,0.0,-23.513317,-19.952087,30.941734,-27.831745,35.111847,-31.839123,21.452179,-33.420753,-34.586678,0.0,36.358334,20.163053,45.250517,35.244912,55.547027,45.406436,62.360259,52.769185,76.464053,0.0,63.743076,27.068939,86.206341,17.04277,83.757534,6.202812,69.5751,-3.930187,48.498974,0.0,18.925452,26.885759,55.817247,44.206749,70.492974,56.505394,78.567581,63.918654,82.931791,-2.789841,284.365911,-44.175739,273.621093
142,-9.963112,22.360627,-0.154095,0.139988,0.0,-11.363125,-9.209232,51.221809,-14.462585,55.668755,-17.176552,39.692345,-17.418251,-17.158756,0.0,43.379109,12.728242,36.840543,18.914028,41.837077,23.387845,46.728883,26.651293,49.497339,0.0,63.308258,26.820889,85.882301,16.908474,83.538666,6.079903,69.430733,-4.088116,48.643227,0.0,18.918968,27.084101,56.525648,44.26356,70.496802,56.524351,78.689476,63.908651,82.87424,-12.661657,306.516741,-44.238539,273.551284
143,1.4114,-15.465761,-0.347099,-0.38452,0.0,-26.00029,-15.712566,36.461334,-21.095009,44.601173,-24.011135,34.167023,-24.581909,-13.777313,0.0,43.648773,17.953315,45.506904,26.390459,49.374271,31.330801,53.603371,34.60419,65.599253,0.0,62.721634,26.897678,85.81089,16.818123,83.515205,5.858116,69.508667,-4.422169,48.653183,0.0,19.04994,27.177468,56.565353,44.505251,70.622526,56.893804,79.271783,64.447114,83.316188,-11.134357,290.88799,-44.469738,273.003774
144,-5.434742,2.47119,-0.462856,0.299181,0.0,-18.389397,-10.663147,42.003422,-15.456963,51.617489,-18.761272,42.882442,-19.928226,2.537441,0.0,45.080147,18.04063,44.959857,23.174374,46.558637,25.294698,50.115461,26.494385,57.243435,0.0,62.487202,27.161407,86.053791,17.284985,83.618832,6.547394,69.782238,-3.528042,49.256344,0.0,19.141207,27.178826,56.224059,44.428927,70.233684,56.711825,78.685401,64.144043,82.94939,-16.403847,293.175766,-44.767342,273.11954
145,-5.191956,21.465802,0.519161,1.533324,0.0,-23.202152,-12.649784,35.639706,-13.083286,55.242519,-11.618099,58.739719,-9.561138,39.81245,0.0,44.635606,13.605345,39.493526,-0.674067,31.078488,-15.638168,20.602778,-29.75036,5.238102,0.0,62.93644,26.356316,84.841919,16.756325,82.551041,6.063824,68.751297,-4.201927,47.459564,0.0,17.84062,26.471414,54.658439,43.50934,68.196846,55.987678,77.012026,63.833686,82.512259,-21.498785,314.389363,-44.151163,274.400661
146,2.333221,2.259386,-0.420055,0.009757,0.0,-29.209042,-16.791,29.837208,-16.636448,48.897686,-13.604507,55.739651,-9.85548,40.382366,0.0,43.531817,14.328874,39.723917,-2.482737,30.469074,-19.838987,16.64118,-36.660664,-3.261225,0.0,62.744236,25.4813,84.774113,15.96159,82.757893,5.713234,69.130268,-3.889503,48.470364,0.0,18.412553,27.069837,54.728896,44.328089,68.504919,56.759435,76.752428,64.350475,81.469233,-18.956366,316.466477,-44.36202,274.228146
147,0.355339,0.921501,-0.451469,0.362537,0.0,-29.759216,-18.626633,28.038769,-18.638191,47.845402,-15.573292,55.057926,-11.758118,41.169491,0.0,43.355891,14.804167,38.438582,-2.286371,28.84442,-20.246355,15.908018,-37.529863,-2.76259,0.0,62.53767,25.114803,85.328465,15.41605,83.160038,5.143147,69.315205,-4.486141,48.313923,0.0,18.126031,25.762519,54.005367,43.297907,67.921933,55.980515,76.434166,63.856101,81.368765,-18.311749,317.206046,-44.524212,274.40875
148,-10.441017,-16.779872,-0.096588,-0.386187,0.0,-1.698189,0.156097,60.158215,-4.494839,66.78709,-7.664623,50.87534,-9.729939,14.402733,0.0,42.609699,7.75474,41.23921,13.876182,47.484029,19.053522,51.836383,23.378027,55.009799,0.0,61.896343,24.535446,84.948063,14.806194,83.068829,4.570484,69.014568,-4.853153,48.151302,0.0,18.207047,25.921711,54.536852,43.406032,68.607425,56.032386,77.02487,63.78021,81.585138,-28.550234,300.206961,-44.418268,273.803349
149,1.780758,18.703829,-1.008339,0.256758,0.0,-24.88884,-9.241276,34.649506,-7.952843,57.949448,-5.060863,65.5513,-2.774963,53.022308,0.0,41.5119,13.839502,38.337002,-4.858955,27.776138,-24.779514,12.918186,-44.430101,-10.543698,0.0,62.896442,25.096149,85.5966,15.382633,83.736477,5.136395,69.782009,-4.328671,48.593502,0.0,17.863962,25.04467,54.848939,42.680279,68.856526,55.49701,76.860306,63.474854,81.223034,-26.52709,318.759069,-45.184221,273.908387
150,-0.31271,-6.547149,0.206566,0.16864,0.0,-19.243698,-6.341743,43.08363,-7.434711,62.331104,-7.401123,63.718586,-6.960983,44.937229,0.0,44.37329,11.472547,40.544209,-0.920019,31.875377,-14.011909,23.447311,-26.307466,10.677881,0.0,62.070408,24.601307,86.383266,14.691753,82.81374,4.408321,69.436512,-4.86866,48.876743,0.0,17.908731,26.101776,54.523144,43.41585,68.015053,55.811257,76.402117,63.258234,81.250945,-26.702042,312.146789,-44.839897,274.011896
