takenoko1/special-research/HandMotion_SimilarSearch_自分用/NewProject/handData/test_key/d4_feature_d2/63.csv
frame,vel_0x_L,vel_0y_L,vel_0x_R,vel_0y_R,posFromWrist_0x_L,posFromWrist_1x_L,posFromWrist_2x_L,posFromWrist_3x_L,posFromWrist_4x_L,posFromWrist_5x_L,posFromWrist_6x_L,posFromWrist_7x_L,posFromWrist_8x_L,posFromWrist_9x_L,posFromWrist_0y_L,posFromWrist_1y_L,posFromWrist_2y_L,posFromWrist_3y_L,posFromWrist_4y_L,posFromWrist_5y_L,posFromWrist_6y_L,posFromWrist_7y_L,posFromWrist_8y_L,posFromWrist_9y_L,posFromWrist_0x_R,posFromWrist_1x_R,posFromWrist_2x_R,posFromWrist_3x_R,posFromWrist_4x_R,posFromWrist_5x_R,posFromWrist_6x_R,posFromWrist_7x_R,posFromWrist_8x_R,posFromWrist_9x_R,posFromWrist_0y_R,posFromWrist_1y_R,posFromWrist_2y_R,posFromWrist_3y_R,posFromWrist_4y_R,posFromWrist_5y_R,posFromWrist_6y_R,posFromWrist_7y_R,posFromWrist_8y_R,posFromWrist_9y_R,posFromBody_0x_L,posFromBody_0y_L,posFromBody_0x_R,posFromBody_0y_R
2,-23.257027,11.547389,0.31168,0.129799,0.0,6.031494,-24.354858,28.365211,-31.995049,34.297142,-34.289761,26.255951,-33.890476,4.869118,0.0,-7.758322,13.433926,33.417347,31.108005,48.70008,45.085767,55.212155,55.004982,59.459348,0.0,67.182312,23.035698,86.095276,14.276733,85.506706,6.253796,74.229927,-0.540447,55.876236,0.0,9.640042,32.175299,55.416178,49.540503,68.067603,60.950435,80.18396,67.401007,84.013473,-0.096645,304.35063,-51.272678,287.404093
3,18.249207,-11.313169,0.581017,-0.056316,0.0,-27.455177,-38.018417,11.117821,-48.471394,7.733459,-53.489285,-0.239983,-56.44289,-34.557266,0.0,-5.987937,19.305217,41.333441,40.392797,58.047981,55.517202,65.196888,66.655803,70.081284,0.0,66.991653,22.267628,85.799904,13.353081,84.821777,5.402699,73.684158,-1.122437,55.255394,0.0,9.831962,32.114043,55.000845,49.696732,67.586258,61.228683,79.923682,67.622753,83.641736,19.038219,293.018132,-49.806004,287.328449
4,-28.727875,11.309156,0.076618,0.287386,0.0,20.80307,-14.160404,39.593697,-22.994099,42.83844,-27.354298,33.457146,-28.786583,9.856796,0.0,-9.655294,8.916636,31.195999,27.623121,47.470814,43.100429,55.761919,54.02136,60.152744,0.0,66.510601,22.186146,86.311626,13.210659,85.000706,5.250206,73.645535,-1.214848,55.282803,0.0,10.120893,31.518275,54.279538,49.36896,67.340121,61.085422,79.188358,67.523829,83.021515,-9.04747,304.34325,-49.0872,287.631798
5,-12.685947,16.347434,-0.065346,-0.73872,0.0,40.011005,5.415287,57.406368,-4.002972,58.343296,-11.625366,45.124912,-18.198109,18.925438,0.0,-14.750444,-3.269376,16.567944,10.96218,33.552642,25.085364,41.462252,36.847644,45.08447,0.0,66.310215,22.109814,86.122227,13.241615,85.245495,5.384331,74.11417,-1.020641,55.695477,0.0,10.797924,32.019441,55.167015,50.169987,67.90452,62.056879,79.812593,68.452369,83.702992,-21.252279,320.682039,-48.671408,286.884433
6,50.916767,-20.547017,-0.558414,-0.059651,0.0,-45.957298,-48.816204,-0.038795,-59.823074,-0.27523,-63.567924,-7.182426,-64.099789,-45.12228,0.0,7.604131,13.732365,41.67276,29.949012,55.625265,42.355966,59.106877,52.139948,61.15557,0.0,66.482162,21.918812,86.962166,13.056507,85.73822,5.320244,74.521294,-0.823402,55.747719,0.0,10.23544,32.090516,54.67116,49.946882,68.03117,61.62969,80.338892,67.909707,83.957713,29.881268,300.043554,-49.013042,286.733314
7,-20.614815,-0.731001,-0.0214,0.604351,0.0,-5.283279,-32.331619,21.983871,-40.664978,23.616371,-43.073845,16.05629,-42.822247,-0.573578,0.0,-0.193155,16.203987,36.268178,33.953464,52.693417,47.946416,58.042176,58.206,63.276635,0.0,66.588821,21.937981,86.460686,12.986183,85.41481,5.146065,74.34494,-1.181202,55.764198,0.0,10.15856,31.364887,54.440892,49.11813,67.391003,60.812114,79.530455,67.304059,83.317484,9.553871,299.261902,-48.747025,287.287015
8,-27.210102,22.030694,0.378284,0.082499,0.0,35.150356,2.608624,53.51984,-5.668716,54.648113,-12.321396,40.797672,-17.353878,4.045029,0.0,-23.903893,-4.065462,16.422399,11.248023,32.970891,25.312358,41.830408,36.618859,43.690701,0.0,66.505108,21.920357,86.313114,13.024921,85.613194,5.048046,74.272785,-1.554108,55.781651,0.0,10.364374,31.938795,55.10156,49.680429,67.903161,61.290186,79.886755,67.646959,83.626483,-17.480536,321.207705,-48.193045,287.284622
9,41.367245,-26.200762,-0.637093,-0.304121,0.0,-40.126019,-46.830082,5.94635,-57.156944,8.994942,-60.249939,3.657074,-60.470181,-16.930962,0.0,11.871455,15.779021,44.32778,33.497931,59.777054,47.743134,62.768491,59.278852,67.040014,0.0,66.924191,22.793198,86.926289,13.835964,85.64867,5.688114,73.981304,-1.099033,55.139179,0.0,10.411799,31.832029,54.74279,49.428673,68.062601,60.99471,80.000252,67.35809,83.487792,24.023924,294.969244,-48.692923,286.942802
10,-18.246346,10.871407,0.667076,0.546121,0.0,-3.616219,-26.331654,25.536118,-34.045486,29.959259,-35.925636,23.354874,-35.190411,2.883453,0.0,-11.969391,11.611609,31.056752,29.157371,46.334113,43.272713,53.486354,53.288136,57.853837,0.0,66.584072,22.765331,86.27512,13.700409,85.282001,5.371227,73.737888,-1.629982,55.138264,0.0,10.787859,31.927248,55.009799,49.522904,67.849562,61.057572,79.652906,67.443491,83.565906,5.949869,305.776169,-47.853556,287.42444
11,-11.233578,14.629043,-0.478878,-0.243852,0.0,16.140919,-12.24226,40.2701,-21.084709,39.742985,-25.220261,30.969944,-26.550121,6.666813,0.0,-30.226518,2.711399,23.846095,17.74713,36.014569,30.199533,43.024167,39.062384,46.129657,0.0,67.206116,22.804642,87.140236,13.726788,85.922127,5.531044,74.101982,-1.287804,55.041275,0.0,11.342007,31.661103,54.848692,49.364144,68.137566,60.943211,79.634999,67.207543,83.558805,-5.183744,320.379678,-48.23247,287.155054
12,-4.697571,-5.969104,0.586967,0.285904,0.0,20.160999,-11.535187,42.80714,-18.783302,44.83572,-21.639233,39.902058,-21.55838,18.596249,0.0,-21.534036,7.613888,28.021287,23.644356,42.93253,35.514761,49.849255,43.439686,53.725699,0.0,66.698799,22.292118,86.554985,13.154812,85.20401,4.991112,73.607597,-1.700306,54.977989,0.0,11.036157,32.127566,54.734454,49.865619,67.944472,61.319209,79.253196,67.392732,83.211768,-9.794569,314.401883,-47.558756,287.432267
13,29.61462,-15.342075,-0.172634,-0.083672,0.0,-40.702515,-42.313385,7.898254,-48.938656,12.470512,-49.952774,8.767776,-48.818493,-14.342537,0.0,14.235878,16.085612,39.873044,32.719753,54.240265,45.28522,56.315511,54.784286,59.69295,0.0,67.715092,23.022766,86.582394,14.371147,85.072231,6.443882,74.394207,-0.343094,55.721455,0.0,11.16361,32.313867,54.10145,49.596511,67.111583,60.810571,79.204042,66.758247,83.218992,19.915667,299.02566,-47.635775,287.314447
14,-18.547211,15.120762,-0.912666,0.300725,0.0,11.839485,-19.146767,31.951675,-26.612206,38.823967,-28.479939,27.350349,-28.082371,1.667976,0.0,-25.986735,4.0294,21.001377,21.132658,36.781386,35.234785,46.851026,45.845173,50.677019,0.0,67.531757,24.326878,87.97514,15.461998,85.820332,7.192039,74.111538,0.150146,55.409145,0.0,10.929638,32.655779,54.532345,49.793741,67.52037,60.835394,78.91221,66.900088,82.82873,1.471996,314.157475,-48.444901,287.626225
15,-11.470299,-1.35536,0.877705,-0.035877,0.0,16.457748,-9.690228,41.900482,-16.495056,45.929031,-18.863983,41.028328,-19.008236,18.796577,0.0,-20.987174,6.628413,21.996547,23.893087,40.02143,37.554069,48.159579,47.432776,52.36472,0.0,67.434311,22.68322,86.917076,13.671627,85.062561,5.62809,73.741951,-0.99329,54.60434,0.0,11.147925,32.530611,54.343327,49.904151,67.497276,60.943766,79.191878,66.708661,82.726348,-9.966888,312.819776,-47.535782,287.608009
16,2.403545,4.380574,-0.697174,-0.474305,0.0,17.013073,-10.054951,40.922184,-18.358955,45.320034,-22.777748,37.42178,-24.738579,3.110161,0.0,-27.085398,4.914592,20.763453,22.008958,37.369003,35.374156,43.225227,44.866676,46.944824,0.0,67.965431,23.362656,87.579575,14.481697,85.731583,6.40377,74.619255,-0.381546,55.787888,0.0,11.286432,31.478014,53.65129,49.256451,67.23391,60.93296,79.355146,67.24836,83.364476,-7.530556,317.218921,-48.200169,287.152275
17,-2.313309,-7.588446,0.505714,0.939347,0.0,19.351902,-12.305317,44.532452,-19.338112,44.165897,-21.847687,40.557919,-21.303005,13.09164,0.0,-16.082154,11.588515,30.946219,28.637742,45.74946,40.871486,52.610116,49.267072,58.02785,0.0,66.678314,23.097439,86.660614,14.164696,85.079956,5.973587,73.124084,-0.96056,54.214325,0.0,11.007505,31.657769,55.333124,48.856494,68.457556,60.09513,79.529097,66.373233,82.814651,-9.825611,309.623791,-47.676201,288.084938
18,-2.56691,7.803894,0.143166,0.02223,0.0,30.62994,-5.925121,41.784153,-13.280582,53.718624,-17.368126,43.326244,-19.095097,20.446415,0.0,3.356135,-1.670102,15.983415,14.800833,34.523914,31.307644,44.174701,45.599098,48.670625,0.0,66.826744,23.112488,86.601105,14.288864,85.223007,6.189308,73.480568,-0.577068,55.255508,0.0,10.767666,31.9157,54.879567,49.283004,68.03648,60.638411,79.193236,66.941893,82.702759,-12.370062,317.429027,-47.510576,288.108511
19,30.309277,-9.899579,-0.639839,0.456644,0.0,-46.06739,-44.439468,7.653236,-47.440796,15.568771,-45.038223,13.677635,-40.664749,-3.32016,0.0,25.224117,13.526057,35.682476,25.046832,44.8534,33.948462,45.20513,40.113006,47.501196,0.0,66.815529,23.756733,87.247925,14.930077,86.142311,6.728554,74.072456,-0.186367,55.212822,0.0,11.059746,32.339,55.040736,49.670858,68.027218,60.78902,79.022496,66.865816,82.694546,17.957067,307.516141,-48.132563,288.551848
20,-10.449486,10.410378,0.021286,-0.3676,0.0,2.027321,-23.211823,27.09549,-29.220314,32.351875,-30.181732,20.357437,-28.8204,-13.8204,0.0,-18.835049,5.6903,21.061337,20.867193,32.856962,33.357511,42.49157,42.722331,45.751498,0.0,67.349739,23.581696,87.473946,14.966297,86.271057,7.030506,74.786453,0.294743,55.961838,0.0,11.44865,31.602379,54.753349,49.031988,68.012521,60.522567,79.634813,66.76541,83.632103,7.534189,317.913366,-48.084669,288.171095
21,9.239616,-14.833252,0.038624,0.340862,0.0,-41.774597,-43.112755,10.654678,-47.328472,17.201729,-46.172676,14.507561,-42.709408,-4.109917,0.0,25.88534,15.578147,39.774367,28.922164,50.371293,39.164026,51.01288,46.418526,54.004873,0.0,67.007504,23.822994,87.631016,14.957428,85.884991,6.752815,73.527203,-0.217495,54.681644,0.0,11.269512,32.593658,55.630514,49.597746,69.081606,60.511328,80.148885,66.44863,83.105619,16.807165,303.083032,-48.012686,288.514875
22,-10.736046,15.910982,-0.332966,-0.304368,0.0,0.563965,-22.357235,29.777069,-29.548759,34.596405,-31.139603,22.16423,-30.552464,-14.698792,0.0,-27.293003,3.048247,19.973418,19.345107,32.699622,32.595449,42.650763,42.434266,45.88457,0.0,67.400894,23.241234,87.321625,14.572906,86.223679,6.737595,74.592819,0.145226,55.7341,0.0,11.40845,32.805339,55.530231,50.018945,68.468054,61.093449,80.033968,67.023341,83.484704,6.097126,318.996036,-48.319645,288.21253
23,-12.564869,5.850358,-0.289593,0.256017,0.0,8.904819,-11.686478,42.297993,-19.025745,43.914928,-22.241993,37.009449,-23.353786,1.733265,0.0,-33.848674,0.815044,15.192886,16.307543,30.409484,28.839851,36.868022,37.481759,42.763087,0.0,68.088741,23.588276,87.582722,14.963779,86.267223,7.092648,74.534969,0.429268,55.988331,0.0,10.974654,32.675601,55.17072,49.833756,68.231859,60.884177,79.628885,66.88113,83.255796,-6.456156,324.838969,-48.597651,288.461122
24,1.313095,-10.271687,0.946655,0.008954,0.0,12.681713,-15.538387,39.950237,-22.100201,42.512798,-24.178677,38.043995,-23.182869,15.400715,0.0,-15.849478,8.450173,29.028622,23.738279,43.595791,35.402437,49.974794,43.512057,55.534554,0.0,67.204571,22.667942,86.383839,14.144611,85.065365,6.54007,73.539562,0.384178,55.693417,0.0,10.913706,32.19932,55.201349,49.687593,68.200675,61.051274,79.534222,67.311407,82.779391,-5.132618,314.545731,-47.640553,288.448524
25,36.424427,-15.573886,-0.578842,-1.924822,0.0,-43.841858,-44.723682,-0.574493,-55.089855,-0.272141,-58.949032,-9.711571,-59.79681,-37.941456,0.0,8.473824,17.014215,39.162791,34.927083,52.506746,48.618384,57.618013,58.9412,61.724909,0.0,67.299557,22.761097,86.958447,14.074917,84.919338,6.640434,74.44273,0.670624,56.398144,0.0,9.492459,32.435824,54.798489,50.035556,67.122574,61.476858,79.364223,67.574093,82.560177,31.365938,298.945168,-48.145266,286.497026
26,-16.264,5.998682,-0.40226,-5.113552,0.0,-27.115345,-31.086159,18.553619,-39.131184,21.642494,-41.60305,7.404099,-41.06163,-38.815899,0.0,-2.046903,16.816243,32.744144,32.020491,43.259807,42.658296,48.87965,50.542342,56.958642,0.0,65.738125,24.323788,88.525829,15.073299,86.018085,7.020721,73.651257,0.375195,53.845997,0.0,8.188537,33.259575,56.820197,50.304603,69.785067,61.050533,80.949294,66.695014,83.409122,15.144138,304.936348,-48.505325,281.375972
27,12.115974,2.259942,-0.571632,-9.385445,0.0,-56.549606,-53.222752,-5.359383,-54.966888,5.925522,-50.093594,11.321182,-42.083015,-1.964035,0.0,45.508263,8.177422,41.309976,4.154629,39.11728,-1.207468,30.997472,-6.122615,21.786101,0.0,67.513676,28.627224,91.514339,20.806389,90.121822,12.474174,76.123753,4.414787,54.493389,0.0,1.492631,33.578763,58.856047,50.057663,73.272915,60.953338,83.251411,67.167467,85.631828,27.267151,307.124751,-49.06992,271.918989
28,15.580273,-22.514139,-1.013317,-18.869753,0.0,-49.907627,-47.585192,-43.659954,-48.327026,-36.980925,-44.644804,-30.206366,-38.981152,-35.097427,0.0,46.542552,15.522572,31.10677,8.222654,24.955256,-1.194654,13.489686,-11.701178,3.914143,0.0,61.430054,31.329403,89.333725,25.237713,87.855263,17.021713,74.24057,7.141514,53.038216,0.0,7.756037,34.050721,62.700195,50.747168,82.327749,62.38533,91.729311,70.617771,94.187903,42.872686,284.508107,-50.057974,252.946731
29,15.580273,-22.514138,-9.592467,-42.37091,0.0,-43.265648,-41.947632,-81.960526,-41.687164,-79.887371,-39.196014,-71.733913,-35.879288,-68.23082,0.0,47.57684,22.867721,20.903564,12.290679,10.793231,-1.181841,-4.018099,-17.279741,-13.957816,0.0,53.354359,48.45975,91.501208,45.387555,92.52225,37.322045,78.751173,25.0912,61.24446,0.0,-0.662953,32.613233,57.559134,53.479531,85.209795,69.325891,99.654667,81.708516,104.465487,58.548174,261.800752,-59.555226,210.382604
30,-3.446846,-24.249757,-9.592466,-42.37091,0.0,-45.819969,-33.794746,-76.881123,-28.324127,-71.755829,-20.122604,-60.477905,-10.016556,-38.757248,0.0,39.729659,12.957027,27.292262,11.402399,28.402843,7.125689,23.979723,0.1545,14.165668,0.0,45.278664,65.590096,93.66869,65.537395,97.189236,57.622375,83.261776,43.040886,69.450703,0.0,-9.081942,31.175745,52.418072,56.211894,88.091841,76.266452,107.580024,92.79926,114.743072,54.782124,238.76933,-69.466896,169.23003
31,-10.45372,-29.984456,-28.141422,-61.332393,0.0,-35.501404,-15.765839,-55.839958,-8.061905,-46.333523,2.563934,-38.138924,15.273056,-10.838699,0.0,22.496354,7.69688,30.50069,15.382769,39.369654,23.595759,44.25757,30.859213,56.456981,0.0,49.556694,42.898808,70.046196,43.553753,72.327976,40.134773,66.689987,33.581028,59.51683,0.0,-40.927617,10.426464,26.770316,35.501516,48.668248,58.013555,67.457231,77.337173,81.392137,42.607527,210.351389,-99.329195,109.464153
32,64.433899,-96.658321,-16.070137,-65.785585,0.0,-66.194572,-58.019829,-110.248661,-53.402596,-113.880444,-42.428055,-96.796188,-28.021202,-65.09079,0.0,-11.871733,23.638891,51.544397,44.865657,79.054452,62.641687,95.960912,75.71289,112.008053,0.0,33.996277,40.815639,61.458664,45.269451,64.931717,44.496632,61.966724,39.314346,49.809952,0.0,-61.741026,-3.914729,9.796394,23.727534,33.132153,50.423781,59.338657,75.018538,80.460663,105.942621,116.899659,-116.498137,46.885158
33,9.825554,-21.513319,-24.645081,-74.589187,0.0,-59.247322,-56.838341,-110.612984,-57.721138,-111.188622,-51.199379,-101.361351,-40.575027,-75.896301,0.0,-19.772235,15.974554,37.017952,36.16629,62.053668,53.75114,76.579156,68.49331,96.311315,0.0,48.919144,44.864674,91.479893,49.191628,87.658424,47.556667,83.548222,41.453876,67.758923,0.0,-55.53582,-10.582106,-1.644413,13.203813,24.968285,38.405206,50.381883,62.328025,72.520672,115.429144,99.410398,-141.482248,-23.679971
34,7.933502,-22.44575,-4.81144,-57.356994,0.0,-53.93795,-57.857552,-115.335846,-60.870552,-113.775673,-56.006012,-102.892227,-46.165009,-78.663712,0.0,-16.697558,6.630944,21.081344,24.915272,42.438773,43.062206,59.84254,59.943935,82.297398,0.0,26.103573,37.276783,85.177631,40.41275,64.62038,39.637527,60.160046,35.993557,56.317234,0.0,-75.039132,-13.313914,-29.188185,5.599836,2.618866,25.687863,24.424573,45.437096,48.057258,123.197908,81.920103,-146.458426,-76.081509
35,5.213699,-19.324112,-16.066418,-63.161085,0.0,-50.331688,-56.572037,-120.125198,-59.188728,-123.601341,-54.079628,-106.239395,-43.453217,-82.519455,0.0,-15.902398,1.719101,4.971958,15.66046,26.578334,30.632095,47.915634,46.254671,72.607462,0.0,25.035152,54.246254,91.953106,59.907589,87.130222,59.468021,83.324661,55.40514,77.897415,0.0,-68.851771,-16.452749,-39.187908,0.392918,-17.723418,16.782604,0.476389,31.168165,13.726391,125.59124,66.456102,-165.345211,-135.382483
36,12.755928,-53.266863,5.970383,-57.986663,0.0,-54.423752,-62.376137,-124.390411,-63.66188,-135.89962,-58.767014,-125.041809,-49.509659,-96.485252,0.0,-41.636296,7.972287,12.430945,27.271174,41.957028,45.39739,63.939927,61.41662,89.667897,0.0,6.904621,56.321239,83.972683,65.376778,93.154392,68.639431,96.750298,66.424942,102.904129,0.0,-62.372856,-19.14465,-39.255493,-2.638765,-18.22619,16.142345,5.854587,35.860008,43.346968,135.987997,15.130858,-161.733999,-191.427528
37,-4.030609,-24.461283,-6.264496,-21.676278,0.0,-49.075699,-64.6035,-115.535316,-69.152412,-125.274239,-65.391312,-114.836426,-55.469284,-92.406235,0.0,-34.459787,1.722836,3.523324,20.082315,28.359865,38.797629,51.726838,56.344997,80.972296,0.0,40.617371,44.643745,96.160412,52.747993,100.477638,55.452633,90.535698,53.685265,86.684132,0.0,-39.160405,-21.375353,-40.37976,-4.998912,-19.570311,12.051859,9.635936,29.960652,30.862624,131.989231,-6.280897,-167.966652,-210.054277
38,3.187237,-46.342464,-11.731396,-6.763029,0.0,-42.967301,-57.315159,-101.771336,-61.417122,-109.276429,-59.431286,-107.606678,-51.660862,-97.53542,0.0,-47.014032,3.904463,-7.629958,21.775402,13.069953,39.124891,34.861025,54.335839,71.547531,0.0,38.377819,34.272594,102.28323,39.088097,113.032093,42.066765,111.157207,44.012661,94.438419,0.0,-46.177159,-29.549317,-62.182804,-16.299469,-38.397263,0.336648,-8.512819,18.997159,15.969552,134.003992,-47.661438,-180.870523,-211.855382
39,3.187236,-46.342465,-11.715946,-15.695179,0.0,-36.858902,-50.026817,-88.007355,-53.681831,-93.278618,-53.47126,-100.37693,-47.85244,-102.664604,0.0,-59.568276,6.08609,-18.78324,23.468491,-2.219958,39.452153,17.995212,52.326682,62.122767,0.0,33.035431,32.330418,107.572346,36.046886,122.169285,39.211121,122.4547,40.837097,103.674431,0.0,-69.321607,-27.590887,-57.912601,-11.073315,-32.527508,7.700894,-0.788522,27.519164,26.099136,136.972561,-92.91268,-192.805138,-226.459339
40,10.89283,-40.649308,-0.56963,1.697858,0.0,-38.673477,-53.87352,-90.571861,-60.967255,-103.134384,-62.42157,-108.240623,-58.03894,-107.786751,0.0,-60.273898,-0.330025,-36.106022,15.520843,-19.9908,30.109316,1.305002,42.654591,41.222383,0.0,26.801491,36.62487,111.375675,41.707191,128.85601,43.779259,124.490318,42.866364,101.695404,0.0,-75.339787,-22.378041,-46.582288,-3.841678,-19.038764,16.093547,8.870663,35.272036,35.221864,148.189802,-131.97562,-193.050356,-223.175113
41,4.763203,-37.768528,5.349541,17.354459,0.0,-30.909977,-58.967571,-93.860264,-68.188419,-107.161903,-70.314617,-107.036018,-66.1306,-106.144867,0.0,-64.134893,-10.49131,-38.530378,7.348453,-15.837468,25.013463,10.795948,40.803669,45.73342,0.0,18.542976,44.655933,104.417725,51.741257,123.134022,52.722874,105.735683,49.012356,80.185833,0.0,-73.38067,-12.70331,-36.487971,6.675173,-5.608589,24.650687,14.746709,39.70516,34.62236,152.461567,-170.559763,-188.192253,-206.636268
42,4.763203,-37.768528,-1.171103,43.962743,0.0,-23.146477,-64.061623,-97.148666,-75.409584,-111.189423,-78.207664,-105.831413,-74.22226,-104.502983,0.0,-67.995887,-20.652595,-40.954733,-0.823936,-11.684135,19.917611,20.286894,38.952747,50.244458,0.0,21.413041,52.68056,109.072953,59.37295,117.417069,59.207926,101.586428,53.299914,82.057658,0.0,-75.914197,-16.732703,-40.330457,1.247412,-12.916365,19.370602,6.019669,34.815986,30.756375,157.504578,-209.375501,-189.083548,-163.720735
43,9.971123,-12.894721,-1.171102,43.962742,0.0,-26.22242,-47.353249,-105.771446,-57.968445,-125.712776,-62.953033,-123.905983,-63.012428,-112.49691,0.0,-71.486453,-30.303274,-65.401459,-17.223981,-40.320364,0.834264,-10.960328,21.4945,35.270091,0.0,24.283104,60.705185,113.72818,67.004642,111.700115,65.692978,97.437172,57.587471,83.929482,0.0,-78.447723,-20.762094,-44.172941,-4.180349,-20.22414,14.090518,-2.70737,29.926812,26.89039,168.20466,-222.510277,-189.52569,-119.998047
44,7.646599,-12.316012,0.615778,50.330075,0.0,-23.032837,-41.089325,-108.345451,-49.098129,-129.574585,-53.446426,-129.049301,-53.513603,-113.94619,0.0,-76.167798,-32.923884,-76.92969,-20.198344,-49.118207,-4.044837,-21.549651,15.162891,20.883248,0.0,28.270283,59.854574,115.219145,67.414656,119.197941,67.254896,110.887899,59.947128,94.706783,0.0,-78.501771,-14.754458,-34.468015,4.163614,-6.789327,24.285634,17.13144,42.885476,48.584977,176.733942,-235.141107,-188.027229,-69.982792
45,6.358223,-10.34216,0.615778,50.330075,0.0,-16.47892,-37.551956,-107.297287,-46.212845,-132.033234,-51.329956,-131.396828,-52.922516,-118.864632,0.0,-79.245245,-32.068463,-73.289264,-17.698193,-48.290536,0.515562,-18.620898,20.697256,23.39896,0.0,32.257462,59.003963,116.71011,67.824669,126.695766,68.816814,124.338627,62.306786,105.484085,0.0,-78.555817,-8.746822,-24.763088,12.507577,6.645487,34.480751,36.97025,55.844139,70.279564,183.831968,-246.885665,-186.671648,-21.055115
46,2.894211,3.174342,5.857773,21.845937,0.0,-19.165421,-40.049629,-107.911263,-48.696556,-128.996429,-53.184814,-129.169235,-54.013824,-117.718849,0.0,-74.571527,-26.222768,-69.011489,-11.056597,-45.370228,6.667177,-15.454222,25.287072,28.727805,0.0,25.116177,47.594376,114.392281,49.817791,126.968021,47.168312,122.783546,40.621605,99.997559,0.0,-69.419844,3.804412,-11.449237,25.271727,32.855789,44.539522,58.156137,61.48822,84.121104,187.038059,-243.879485,-180.501995,0.62266
47,-1.490479,12.375601,-6.221867,15.23605,0.0,-15.534439,-41.98597,-102.274246,-52.642136,-124.55143,-56.270714,-123.546867,-53.784714,-108.015633,0.0,-70.230951,-19.789664,-59.127586,-1.564663,-31.794284,17.650244,-3.568911,35.667486,39.923787,0.0,40.16098,46.693954,125.120945,47.609825,133.954926,45.281353,126.863708,40.059528,98.743973,0.0,-68.797863,3.983149,-4.654808,26.156888,39.031571,45.302047,65.46578,59.871964,85.415671,186.473665,-231.936307,-185.797777,15.426287
48,-6.967163,24.140536,2.387753,-15.657187,0.0,-13.692055,-38.643265,-93.949127,-48.232498,-114.088211,-49.95575,-104.704056,-46.189384,-89.260483,0.0,-69.16764,-16.866523,-48.136924,4.134684,-18.380165,22.741442,3.146245,36.699289,35.912928,0.0,39.110756,41.12669,116.380978,43.886375,127.024097,43.182564,119.272327,38.762569,94.856129,0.0,-64.976809,3.257766,-6.601984,24.805696,33.75225,44.298233,63.53364,60.810015,89.290663,181.264172,-207.95166,-181.652355,-0.386789
49,0.597382,52.238842,-10.422134,-22.918912,0.0,-21.286755,-50.325279,-100.759964,-57.004967,-113.333187,-56.371594,-109.409237,-49.625073,-99.432793,0.0,-72.577575,-17.052909,-56.987545,1.987946,-32.057557,20.809873,-9.35264,37.198155,36.695182,0.0,51.134491,57.888451,126.621037,62.393818,133.633232,61.5168,123.089161,54.619503,102.67765,0.0,-44.458568,-1.147014,-17.666206,17.558884,24.029061,34.695303,53.152346,50.596126,74.843784,181.841755,-155.027728,-192.094288,-22.620612
50,0.597382,52.238841,6.726379,-63.914023,0.0,-28.881454,-62.007294,-107.570801,-65.777435,-112.578163,-62.787437,-114.114418,-53.06076,-109.605103,0.0,-75.98751,-17.239295,-65.838166,-0.158791,-45.734949,18.878305,-21.851526,37.697021,37.477437,0.0,31.458435,54.856682,111.713104,58.113613,117.704372,55.42614,120.554237,48.816719,105.895042,0.0,-64.261709,-0.256048,-5.73615,18.839186,17.40457,36.999921,43.93619,53.411822,77.592542,181.04064,-99.780793,-186.766405,-83.52654
51,-6.371727,48.440697,-5.825672,-49.031355,0.0,-29.223175,-60.186768,-109.492149,-66.115494,-121.384964,-64.503708,-125.285339,-55.217285,-106.469307,0.0,-69.386792,-9.791701,-39.336371,9.689103,-16.646738,29.492244,16.13177,47.234372,64.957389,0.0,29.582863,57.922611,120.332966,60.522079,119.303169,56.88755,105.525398,47.711449,94.257889,0.0,-72.039929,-7.768078,-25.275324,10.860662,6.451621,28.490668,29.131359,43.563356,63.916786,173.487225,-50.32004,-193.773766,-131.537841
52,-11.450844,43.495786,0.048294,-46.454356,0.0,-26.457825,-65.682793,-115.504875,-70.75779,-127.008018,-67.238731,-122.921791,-56.231918,-103.338661,0.0,-59.184806,-4.971587,-15.442975,16.117259,13.593705,36.942832,42.804953,55.418154,77.88811,0.0,27.200432,49.128971,109.492722,51.521015,97.992153,48.570499,105.861969,41.088638,90.312424,0.0,-69.901937,-9.973741,-19.73185,9.023773,17.713059,25.609517,33.793515,40.423363,66.903793,160.079012,-5.623687,-195.68284,-176.79163
53,-7.0158,35.268501,-7.458515,-31.342502,0.0,-37.692719,-59.312782,-117.351379,-64.051666,-128.890114,-61.62941,-124.729385,-53.528938,-105.878563,0.0,-56.72998,2.066354,-6.962513,24.260656,25.274536,43.802655,53.932285,60.562272,84.07473,0.0,27.845879,53.027458,112.987232,59.827423,130.610275,59.965267,120.696945,55.302029,113.410263,0.0,-80.543293,-18.756394,-41.133663,1.563551,-4.200603,21.068407,17.75048,38.675549,50.10941,152.420568,29.957965,-203.783998,-207.820981
54,-2.110291,18.109543,0.645161,-29.763004,0.0,-45.933037,-50.988235,-124.304695,-53.088799,-137.426376,-50.562515,-129.666481,-43.867607,-105.514984,0.0,-47.462602,5.940945,2.216716,27.308101,38.16725,45.370251,62.391134,59.578063,90.584674,0.0,24.453506,40.446053,113.252277,45.94883,131.013107,47.250938,131.070271,45.138645,110.640621,0.0,-74.632405,-15.3449,-41.289243,4.999869,-6.471343,25.499539,22.247485,44.704736,53.510082,148.709364,45.271867,-204.739752,-240.379626
55,-0.575294,0.338917,-3.714123,-3.517558,0.0,-50.43354,-49.953804,-126.929512,-53.130455,-136.619453,-51.250648,-129.173012,-44.644432,-103.786125,0.0,-47.594562,6.678739,1.819877,27.110376,36.671131,44.969027,61.803116,59.468086,88.517517,0.0,24.906178,39.155273,115.621891,43.227367,133.328362,44.798584,132.413063,43.172321,113.325806,0.0,-81.724401,-27.006458,-55.447771,-7.833858,-23.829692,12.957359,6.494638,33.040816,37.786891,147.117834,44.099937,-209.47011,-245.408032
56,2.741547,-15.193843,0.074272,-1.845658,0.0,-46.71833,-52.819977,-123.760071,-58.622704,-133.610687,-58.471527,-128.427887,-52.607346,-106.649895,0.0,-44.425377,1.043983,-11.77534,19.305464,22.316475,36.091109,48.092271,51.28205,79.446011,0.0,24.640503,40.561066,115.131912,44.96521,133.915844,45.776539,133.460083,43.721695,109.701347,0.0,-77.382899,-22.885058,-51.035071,-3.687812,-19.156491,16.748032,11.858896,36.225161,41.254439,149.528561,29.029193,-209.726658,-247.130591
57,-21.637115,17.999195,2.536125,9.819466,0.0,-64.783859,-32.348557,-95.482979,-28.619728,-103.771133,-22.127495,-88.78521,-13.887634,-54.835281,0.0,13.551807,-9.340244,-5.977316,-26.33689,-36.523887,-40.111339,-57.235098,-50.763902,-54.036427,0.0,20.06258,42.855206,113.331814,48.141975,130.739651,48.988552,131.836796,45.674458,106.097488,0.0,-75.840667,-18.400203,-49.198699,1.28112,-12.696271,21.601359,15.470439,40.951499,45.667471,126.904449,47.526683,-208.177528,-236.81283
58,25.684319,-112.135815,5.672493,21.590676,0.0,-32.908401,-57.940292,-102.595825,-60.917473,-111.548424,-56.432533,-120.167885,-45.428581,-103.529892,0.0,-61.525239,-1.3582,-47.253021,17.887396,-20.488632,36.902201,19.155595,52.834641,71.943213,0.0,17.756824,44.688663,108.878746,48.570213,127.414513,47.199211,113.67485,41.472816,85.176315,0.0,-74.837007,-12.188682,-39.694276,5.558294,-6.906073,22.568294,20.663633,37.758247,47.879263,152.514296,-65.468111,-202.579508,-216.081133
59,9.635925,-37.58374,-0.889149,40.494615,0.0,-27.570763,-54.069214,-86.169548,-56.568375,-81.763115,-55.143471,-76.937485,-49.438934,-94.054871,0.0,-69.439589,-11.807636,-39.305604,4.844906,-18.65676,21.854953,2.756477,37.666053,42.64187,0.0,22.09671,51.236343,114.762583,57.061415,127.205429,56.745214,118.585167,51.214113,100.071516,0.0,-78.464735,-14.367823,-40.448797,5.897512,-7.736524,24.943022,16.927656,41.659229,49.873747,161.244822,-101.266986,-204.374056,-173.801652
60,5.973244,-18.183845,-0.889149,40.494616,0.0,-41.694832,-37.85614,-105.225677,-44.871712,-119.53125,-48.876228,-120.660439,-49.200325,-109.185791,0.0,-44.961849,-22.056367,-61.659963,-10.26684,-49.319498,4.719816,-17.729114,21.722452,24.476489,0.0,26.436596,57.784023,120.64642,65.552616,126.996346,66.291218,123.495483,60.95541,114.966717,0.0,-82.092464,-16.546965,-41.203317,6.23673,-8.566974,27.317749,13.191679,45.56021,51.868231,169.701662,-119.463304,-202.779608,-133.31951
61,8.623352,-34.076363,7.735748,24.706757,0.0,-34.685783,-39.611721,-108.027077,-47.567596,-126.421394,-52.060547,-126.310272,-52.801952,-115.221119,0.0,-60.757766,-22.837687,-61.376637,-9.111096,-42.326009,7.314336,-11.98577,25.285528,32.897038,0.0,21.674652,55.181637,122.874813,54.72496,134.072571,47.502365,121.750603,35.8675,74.691238,0.0,-69.462591,-3.236586,-30.027157,15.741415,12.866131,31.758484,39.444064,45.303313,66.319634,180.908289,-155.78377,-192.460585,-110.856856
62,8.623352,-34.076363,4.1395,45.982043,0.0,-27.676735,-41.367302,-110.828476,-50.263481,-133.311539,-55.244865,-131.960106,-56.40358,-121.256447,0.0,-76.553684,-23.619008,-61.09331,-7.955352,-35.332521,9.908857,-6.242426,28.848604,41.317587,0.0,24.579105,50.471706,115.165958,56.388645,130.061646,55.999374,124.461594,50.713692,104.325027,0.0,-75.468729,-5.724881,-30.695728,15.631407,7.739087,36.582426,41.940756,55.731877,71.55116,190.693216,-192.080754,-187.15951,-67.095435
63,-2.637062,-8.320343,-2.277431,20.405671,0.0,-22.389793,-34.895096,-107.573776,-43.664932,-130.558548,-48.431969,-128.732529,-49.532661,-115.33596,0.0,-77.75476,-29.357026,-65.045592,-12.741163,-37.312316,6.827851,-6.799616,27.625699,33.141678,0.0,29.857922,47.468204,119.685287,50.705566,133.441715,48.469791,128.881531,42.196541,101.223049,0.0,-73.701834,-0.054958,-21.887958,20.323049,19.278664,39.1296,48.862206,55.079947,78.159936,190.510397,-204.893301,-186.982698,-51.181968
64,-0.658836,-5.479068,-3.703365,13.702231,0.0,-24.76902,-38.657341,-108.561516,-46.903152,-132.196083,-50.397377,-130.034523,-49.789009,-116.61747,0.0,-75.71624,-24.860515,-61.765047,-8.679113,-37.108462,9.751316,-7.06275,28.639918,36.429285,0.0,30.466747,45.767097,120.575752,48.70388,135.667248,48.101006,132.680798,44.092541,110.305424,0.0,-74.245917,-2.647703,-23.531168,19.020053,15.621218,38.426015,44.600686,54.821553,74.391339,191.705589,-212.121387,-188.832035,-39.228755
65,-2.649078,-0.227133,-3.658447,3.274254,0.0,-26.847496,-37.748566,-110.174904,-45.7798,-132.461014,-48.708801,-128.712959,-47.675858,-113.81012,0.0,-74.569628,-24.140042,-58.789511,-7.588647,-31.370027,11.377745,-1.139496,30.461308,38.994536,0.0,34.212055,44.480438,124.505024,48.463783,138.832626,48.832455,133.931808,45.601902,112.479515,0.0,-74.714201,-6.143641,-26.20175,15.526585,11.52099,35.609579,38.859534,53.169359,68.765506,190.101242,-213.11049,-191.445751,-36.716471
66,-2.730103,2.176115,-0.808067,-4.547362,0.0,-28.117905,-38.153343,-111.651993,-45.502281,-131.000175,-48.103867,-126.687241,-46.858635,-113.272591,0.0,-73.40209,-21.715706,-55.103412,-4.532079,-29.002609,14.817181,0.991264,33.790304,42.750968,0.0,33.445873,44.337559,122.850437,49.2132,140.214043,50.597706,134.460812,47.781773,114.55513,0.0,-73.921449,-8.258932,-29.262748,13.969178,7.080858,34.510576,35.51399,52.506283,66.054261,187.416201,-210.771215,-192.208757,-41.100673
67,-1.314468,3.788094,0.811386,-4.956582,0.0,-28.541336,-38.11718,-111.984329,-45.609169,-131.351967,-48.468018,-126.740685,-47.421913,-113.769951,0.0,-73.953173,-20.207498,-52.511315,-3.594569,-26.045876,15.193442,4.506051,33.711711,45.180121,0.0,31.62323,43.26107,121.597595,47.86171,139.794502,49.174232,133.309994,46.476517,114.157562,0.0,-74.926591,-8.946678,-30.769335,12.874714,5.600176,33.259822,33.396506,51.345992,64.908143,186.270933,-206.809895,-191.22817,-45.88403
68,0.404091,3.477336,-0.724182,-4.616214,0.0,-28.875618,-38.852463,-112.068214,-46.314812,-132.439957,-48.991356,-127.3526,-47.879791,-114.659958,0.0,-74.189361,-20.972848,-53.307803,-4.14478,-26.06366,14.821303,4.147158,33.585879,44.706079,0.0,33.269691,44.128647,123.178482,48.487244,140.639706,49.598923,134.690952,46.853371,115.022507,0.0,-74.777696,-9.114268,-30.44953,12.719257,6.313208,33.117147,33.513523,50.920563,63.864067,186.636229,-203.113021,-191.991148,-50.280705
69,1.085014,3.207533,0.981274,-3.641113,0.0,-29.874115,-37.641335,-112.423096,-45.610657,-133.401718,-48.791428,-128.737221,-48.200455,-115.718536,0.0,-75.150799,-22.345822,-54.109431,-5.225937,-26.913099,14.138174,3.513444,33.323085,44.284169,0.0,32.24968,45.906715,123.28949,48.895798,140.097942,48.551445,133.434219,44.608154,114.028072,0.0,-73.955844,-8.335071,-29.199917,12.917075,8.513344,32.744607,36.59774,50.075138,66.249177,187.695694,-199.820397,-191.035423,-53.836726
70,-0.250282,2.224111,-1.212902,-0.06067,0.0,-28.690224,-36.466255,-111.647301,-44.395981,-132.254906,-47.725754,-127.857285,-47.274399,-114.319382,0.0,-75.34492,-22.373425,-54.975064,-5.357003,-28.209178,13.797265,1.852929,32.723782,42.944957,0.0,34.572086,45.082741,125.170097,49.166908,140.731087,50.175247,135.307617,47.79911,117.082672,0.0,-75.06766,-8.649936,-30.275301,12.987686,6.836573,32.977993,36.541856,50.384014,65.822203,187.450132,-197.406774,-192.243605,-53.707884
71,-0.234261,0.530899,0.27071,-0.379456,0.0,-27.859726,-37.10289,-110.994415,-44.924812,-132.046623,-47.975578,-127.756004,-47.063255,-114.345703,0.0,-74.409802,-21.630814,-54.379898,-4.504523,-27.677368,14.600746,2.404453,33.584691,43.394469,0.0,36.093807,47.014732,125.535851,50.927467,140.837574,51.563187,135.005035,48.577538,116.722069,0.0,-72.37951,-7.627751,-28.991108,13.841602,7.583445,33.842035,38.381185,51.144007,68.235255,187.348423,-196.063687,-191.840343,-53.275153
72,-0.325356,1.032127,1.224403,0.62019,0.0,-27.483215,-38.368835,-110.939598,-46.285973,-131.277008,-49.124222,-127.712975,-47.951546,-114.291115,0.0,-75.121476,-22.144454,-54.419218,-5.093637,-27.892985,13.944864,2.027513,33.090162,44.378771,0.0,35.041351,45.020428,124.699402,48.462925,139.693565,48.838463,134.803734,45.811844,115.507851,0.0,-72.52555,-7.455158,-27.837178,14.442804,9.11538,34.458088,38.745697,51.630199,68.168935,187.2153,-194.553874,-190.423708,-52.177276
73,0.793533,0.430061,-0.909634,2.404962,0.0,-28.547173,-37.798576,-112.742615,-45.251198,-133.058853,-48.247948,-129.307365,-47.52285,-115.397072,0.0,-74.658564,-21.855864,-53.722102,-4.466237,-26.849465,15.052666,2.871564,34.313654,44.63082,0.0,36.897411,47.541847,126.138554,51.431007,141.707096,52.008476,136.020527,49.006348,117.469826,0.0,-72.921216,-8.128392,-28.606002,14.179809,8.448506,34.624166,38.756041,52.179685,68.457711,188.369579,-193.444944,-190.972595,-49.093445
74,0.117188,0.541489,-0.248909,1.222936,0.0,-28.353539,-38.041306,-111.983986,-45.371933,-132.834778,-48.130417,-128.88073,-47.071953,-114.868927,0.0,-74.613,-22.013142,-54.050043,-4.775869,-26.777927,14.752544,2.682669,34.105926,44.988942,0.0,36.515694,47.137756,126.62899,50.722618,141.529713,50.873737,136.803703,47.414646,115.996342,0.0,-72.501128,-7.18182,-27.684994,14.280308,8.233893,34.253448,39.300772,51.669503,69.63455,188.632765,-191.50274,-191.075506,-46.469794
75,0.254745,1.431683,1.123466,1.036481,0.0,-28.079453,-38.438644,-111.761398,-45.73082,-132.456894,-48.338127,-128.566132,-47.133636,-115.52948,0.0,-74.581445,-21.260837,-53.443314,-4.038801,-26.864779,15.260657,2.852174,34.429266,44.30095,0.0,36.627846,47.05061,125.989208,50.525608,141.911602,50.66597,134.821301,47.457905,116.362553,0.0,-72.256257,-7.138595,-26.907402,15.034435,9.722571,35.24729,40.672001,52.581803,68.797307,188.987417,-189.019802,-189.852133,-44.382059
76,0.728188,3.304944,0.412273,1.194222,0.0,-27.909393,-38.920784,-111.959496,-46.35807,-132.524872,-49.140701,-128.963127,-48.182144,-115.797157,0.0,-75.550633,-22.645667,-56.100651,-5.722534,-28.74352,13.437677,2.544379,32.504136,42.592208,0.0,35.196762,45.162964,124.476585,48.930244,140.876427,49.427662,134.507389,46.669865,115.461159,0.0,-72.703731,-6.19829,-26.561013,15.83506,9.548034,35.866121,39.706009,53.190076,68.758991,189.706392,-185.246157,-189.449072,-42.719136
77,0.768814,3.269545,-0.300522,1.975612,0.0,-28.435936,-38.952827,-111.910286,-46.574936,-131.784897,-49.703979,-129.320984,-49.122963,-117.733955,0.0,-74.701928,-21.812175,-55.757056,-4.906487,-29.34554,14.13365,0.470106,33.105971,41.678919,0.0,36.361599,46.166668,126.165504,49.536896,141.693707,49.644527,135.714169,46.433258,115.195484,0.0,-73.192949,-7.676255,-27.080427,14.180334,9.186578,34.183855,38.912022,51.464924,67.60679,190.587215,-181.823918,-189.637585,-40.590831
78,0.078392,5.630727,1.334782,2.019485,0.0,-28.069153,-38.826828,-110.888329,-46.509933,-130.97683,-49.746208,-129.231491,-49.13887,-117.958603,0.0,-74.283831,-20.93853,-55.166954,-3.938966,-29.846382,15.064769,1.727066,33.816517,40.296327,0.0,36.936207,45.40947,125.578938,48.802071,141.17712,49.055386,134.798412,46.022072,115.370693,0.0,-72.220935,-7.622594,-28.099371,14.712561,8.795852,34.951629,38.612934,52.244121,66.916174,190.838099,-176.875935,-188.130312,-39.254089
79,-2.296028,8.132992,1.054287,2.858581,0.0,-27.793007,-37.898712,-110.163918,-45.428352,-130.046883,-48.424301,-126.376419,-47.344551,-112.174873,0.0,-73.758304,-21.435853,-53.575398,-3.53836,-27.380349,16.045891,1.601605,34.967437,36.811242,0.0,37.755661,44.332638,124.449806,48.2757,139.99649,49.116497,134.855804,46.66626,116.249542,0.0,-71.335959,-7.260613,-27.429904,15.260009,7.358272,35.534491,37.411394,52.726145,65.801517,189.523001,-168.719925,-186.095095,-36.37249
80,-6.781311,10.415998,2.762489,4.903415,0.0,-28.650742,-34.761772,-106.889305,-41.065063,-121.016235,-43.324814,-118.847809,-41.861458,-106.280594,0.0,-68.008616,-18.369667,-49.583605,-0.256326,-18.4084,19.117202,7.206474,37.700757,41.812624,0.0,37.954102,42.835064,122.295284,46.995049,139.16708,48.374348,133.505917,46.478863,115.85741,0.0,-71.175964,-7.040936,-28.201382,15.327687,5.627006,35.424143,33.165776,52.728584,62.441893,183.212442,-158.622081,-182.861853,-31.787229
81,-6.965904,14.470314,3.547726,6.920492,0.0,-33.763046,-38.915863,-107.651596,-43.082085,-120.870667,-43.036652,-116.832504,-39.136391,-102.374954,0.0,-62.09007,-15.268947,-36.733066,1.598054,-15.004146,19.465196,3.769353,37.312409,38.277722,0.0,37.704849,41.162853,119.738846,44.524269,135.571976,45.528088,131.058769,43.713856,114.179821,0.0,-71.027423,-5.781012,-28.269555,16.301584,4.272264,35.920523,30.214754,52.755785,57.89308,176.280355,-144.178521,-179.28031,-24.89349
82,-11.609001,19.861526,5.685654,10.276627,0.0,-35.732231,-35.645027,-104.457893,-37.562141,-114.939537,-34.834099,-109.356766,-28.885574,-86.859856,0.0,-56.947712,-15.271016,-30.873832,1.022185,-12.245647,17.350785,7.663442,32.678102,30.814382,0.0,38.381767,38.710327,116.734142,41.542339,130.2495,42.39069,126.49292,40.777187,112.256527,0.0,-71.430962,-6.494044,-26.250316,15.442759,5.013701,34.806361,28.396699,51.161637,53.447513,163.835793,-124.362644,-174.430218,-14.662512
83,-10.241375,34.862322,4.197865,11.807111,0.0,-45.831185,-44.94936,-109.654427,-47.044659,-116.334687,-44.438839,-109.856987,-38.078213,-94.032898,0.0,-51.276075,-12.660401,-32.661421,2.920795,-16.866608,18.35088,0.503374,32.660472,26.923921,0.0,43.135815,36.648216,114.501915,38.192654,127.919598,38.079128,125.514336,36.063137,107.734852,0.0,-67.842646,-6.346306,-23.089467,14.399177,7.125504,33.537174,27.252834,50.521779,50.189963,153.607264,-89.797264,-170.219507,-3.152343
84,-10.241375,34.862322,4.804688,15.15491,0.0,-55.930138,-54.253693,-114.85096,-56.527176,-117.729836,-54.043579,-110.357208,-47.270851,-101.20594,0.0,-45.604439,-10.049787,-34.449011,4.819404,-21.487569,19.350974,-6.656694,32.642842,23.033459,0.0,49.563618,34.755135,114.861031,34.859219,124.520702,33.949184,120.658092,31.317158,104.579773,0.0,-65.833349,-8.645644,-18.878305,11.227306,8.810827,30.475557,28.575929,48.006191,48.184587,143.579063,-55.791528,-165.201645,11.14598
85,-6.385002,23.622744,6.231079,15.927716,0.0,-52.652435,-47.691994,-109.067574,-53.967705,-114.316063,-55.801735,-115.016212,-53.077126,-109.180641,0.0,-42.844875,-17.077107,-10.24921,-1.375737,5.285465,17.283817,21.205462,35.365634,35.810114,0.0,49.256859,35.839119,110.770226,33.902493,122.539043,30.723667,115.697536,26.573353,97.736206,0.0,-64.742003,-7.60092,-13.038538,10.675288,11.62328,29.017445,30.42202,46.246396,47.160457,137.704439,-35.009859,-158.460188,24.232622
86,-8.676453,24.283597,5.455742,15.146419,0.0,-54.587631,-48.280334,-115.25219,-51.005173,-118.947487,-48.808365,-116.670113,-42.66861,-99.996758,0.0,-32.158719,-10.908426,2.558505,5.797468,19.391883,23.317851,36.077184,38.791084,52.421407,0.0,50.680733,38.193684,109.683495,34.375992,119.770947,29.314613,109.363403,22.920513,87.452374,0.0,-58.40215,-3.656088,-5.892317,13.573204,17.853804,30.601683,33.69192,46.041786,48.93646,127.34067,-14.692615,-154.691763,35.412688
87,-14.401417,38.061858,8.030663,16.904484,0.0,-60.42057,-51.432495,-107.796707,-54.090271,-114.281015,-52.59819,-107.319546,-47.185135,-92.031841,0.0,-24.698374,-8.607297,6.083883,11.088584,24.868219,30.282155,38.363524,46.821525,50.358357,0.0,52.530384,37.066898,105.971947,32.757626,116.951065,27.803993,104.957542,22.657928,82.106724,0.0,-52.993154,-1.758436,0.212946,13.963713,20.547635,28.678404,34.071376,41.414797,44.965477,112.290974,18.451872,-147.30938,47.399801
88,-14.401417,38.061858,5.458832,19.198203,0.0,-66.25351,-54.584656,-100.341225,-57.175369,-109.614544,-56.388016,-97.968979,-51.70166,-84.066925,0.0,-17.238029,-6.306168,9.609259,16.379698,30.344554,37.246459,40.649864,54.851965,48.295306,0.0,55.566044,36.065655,107.274742,32.643757,115.956745,28.274689,98.186874,23.5116,71.62714,0.0,-48.32331,-1.405409,4.535197,14.188547,20.642329,28.041819,30.425972,38.954414,34.142636,96.776848,54.148983,-142.963257,64.233257
89,-4.299545,23.582143,10.144386,18.03535,0.0,-63.822899,-50.194016,-136.310978,-51.967278,-159.91293,-49.728355,-143.73991,-45.121994,-105.829754,0.0,-7.23014,-4.08621,16.822726,16.79358,32.62123,37.05318,47.032942,55.234879,61.986793,0.0,53.297367,33.130703,103.017769,29.372406,108.031197,24.332085,88.954868,18.264484,60.737972,0.0,-41.344062,1.567812,11.656255,14.092772,26.226295,25.012437,32.994017,32.982161,34.509712,91.960287,76.734366,-133.335886,81.271848
90,-5.70385,30.738645,7.872677,20.784787,0.0,-62.866058,-51.982384,-78.450737,-56.994667,-139.664555,-57.353668,-117.384853,-54.590149,-97.933445,0.0,-2.853363,-9.088086,0.187814,12.935353,20.795841,34.246809,37.729039,53.335838,56.343577,0.0,52.877369,30.351105,86.037483,24.091873,79.178467,16.14109,58.919277,7.581539,28.203106,0.0,-39.463608,1.72753,16.702684,11.900323,29.165183,20.416014,31.669471,26.043761,33.020014,85.854836,106.358091,-125.864811,100.941716
91,-6.838989,25.089223,4.404831,26.374852,0.0,-62.970428,-55.495377,-97.514133,-60.347557,-156.779022,-59.495201,-143.312359,-54.433136,-107.407837,0.0,1.750007,-1.413467,-6.214808,21.450364,15.422104,42.478726,37.770751,58.589902,61.523109,0.0,58.643274,33.13282,102.052602,28.266077,100.002737,21.605529,85.717048,13.960619,58.780517,0.0,-35.442236,4.68877,18.368926,20.120306,34.122243,33.84168,43.444857,44.566337,50.64758,79.021454,131.017794,-121.454372,126.887047
92,-7.190895,27.535188,4.404831,26.374851,0.0,-67.916565,-51.020622,-127.415142,-53.364487,-151.387939,-51.816216,-138.821812,-47.354851,-104.949017,0.0,-8.831112,-3.671432,-4.817829,16.877129,18.843447,36.924338,39.913182,54.950642,62.196806,0.0,64.40918,35.914536,118.067722,32.440281,120.827007,27.069969,112.51482,20.339699,89.357929,0.0,-31.420864,7.650012,20.035168,28.34029,39.079304,47.267347,55.220244,63.088914,68.275146,71.431618,157.364395,-117.448483,152.073311
93,-2.757339,25.589309,4.24942,18.894638,0.0,-63.003044,-58.374367,-134.084988,-59.88533,-139.807835,-56.365128,-127.398834,-49.085426,-100.818958,0.0,-15.970818,-1.711598,4.923669,17.411702,27.316839,36.000861,45.457195,54.417551,70.267585,0.0,65.042038,33.505211,107.839451,27.828026,111.359196,23.140812,105.138302,18.049908,83.104076,0.0,-31.00445,17.591766,24.743328,34.59431,45.466026,48.436591,62.425406,59.789898,71.528281,67.492933,182.166139,-114.380407,170.180384
94,-10.194511,21.025089,3.874512,20.111368,0.0,-63.311691,-56.405869,-128.693104,-55.569878,-130.052433,-49.934578,-117.489853,-40.542755,-91.791115,0.0,-4.990113,4.153765,8.708784,22.753792,33.265009,39.813578,52.555652,56.224615,79.452156,0.0,66.377048,33.599224,100.808144,27.578487,107.124195,23.269615,97.466812,19.156895,78.193302,0.0,-24.738697,23.230567,33.324166,38.260741,54.033463,49.574466,68.962613,57.321364,72.730808,56.908979,202.740157,-110.895338,189.840681
95,-9.950409,17.657283,8.793926,22.234841,0.0,-63.833084,-48.408165,-114.342556,-45.20256,-118.82864,-39.173927,-107.389297,-30.325584,-83.611279,0.0,-3.846001,11.375723,12.723919,30.646915,39.039043,47.784815,59.179063,63.245945,82.553817,0.0,67.460861,37.019005,111.482964,35.75964,110.927467,33.561058,102.776985,29.891281,87.765198,0.0,-14.974969,27.244344,36.62491,49.012228,60.893255,63.967684,78.234746,73.864299,87.984889,46.862898,219.993006,-102.197084,211.671088
96,-8.161926,16.716207,6.032639,14.477384,0.0,-67.517509,-38.148651,-101.026268,-34.778366,-107.798939,-29.870224,-102.439671,-23.592567,-80.849133,0.0,4.101771,18.875557,4.72403,38.88442,29.747582,56.1465,55.91117,69.916595,90.627622,0.0,70.364571,33.97316,104.119034,27.426739,104.100952,21.412697,90.978355,15.79937,68.906651,0.0,-10.13244,30.64216,48.155009,48.585101,62.923546,60.971122,83.030839,67.805966,92.666929,38.588219,235.764987,-96.277199,225.204247
97,-5.496712,16.000829,7.814255,15.359242,0.0,-68.111458,-31.962204,-96.838417,-27.071571,-99.32888,-20.822754,-90.792675,-13.29071,-68.189907,0.0,7.85317,26.006371,14.500726,44.507659,36.647943,58.893961,59.35289,68.476637,91.841449,0.0,73.741951,32.310219,97.876968,24.7439,96.729927,18.027534,85.283318,11.589203,61.654644,0.0,-4.914901,31.622015,56.828781,48.868041,76.583046,60.741472,91.277236,67.657209,95.528505,32.987223,251.064547,-88.567228,239.86222
98,-0.760803,11.725971,18.315639,13.758548,0.0,-68.796902,-24.488068,-90.599785,-20.758667,-91.623745,-16.864357,-84.796371,-12.833977,-65.787163,0.0,1.63583,30.435728,19.765998,47.412954,39.016257,59.588962,61.383738,65.67638,88.37614,0.0,66.102161,33.933735,92.786579,26.035366,86.256695,18.72797,74.142208,12.326202,57.640228,0.0,-0.098615,39.485251,51.88708,60.204182,63.161347,73.442544,77.338501,80.488513,84.949733,32.153378,262.578575,-70.324631,253.408824
99,-2.064514,6.560981,-1.937542,3.993461,0.0,-70.157204,-28.77594,-87.369061,-21.437645,-83.165989,-13.617325,-73.244934,-6.362,-51.63414,0.0,-4.822954,38.852186,47.404742,50.930505,53.573855,57.781528,63.107563,58.763977,76.523148,0.0,75.184937,31.553993,99.038429,21.771812,92.991257,13.414478,77.433014,5.83786,54.042206,0.0,7.433391,38.764994,66.29234,57.625361,84.181496,69.255619,94.058536,74.988898,98.276522,29.79249,269.09045,-72.558546,257.353178
100,0.445518,7.040041,3.846817,8.007917,0.0,-62.270851,-37.254868,-60.375423,-30.591545,-49.618835,-22.137222,-34.94648,-13.124084,-20.417633,0.0,1.474847,30.696006,64.164544,37.898019,68.950078,41.844302,69.927216,43.064243,68.430201,0.0,73.889465,29.776268,95.219536,19.89481,94.898415,11.293545,78.460579,4.366837,51.982098,0.0,9.007965,34.83421,64.230062,52.901825,85.275899,64.546038,94.677708,71.012233,94.185742,30.060682,276.17367,-68.889055,265.404274
101,5.396919,36.310971,7.573643,5.323071,0.0,-56.7239,-45.525742,-24.885864,-44.178658,-13.602333,-40.546761,-8.903847,-36.127625,-13.014565,0.0,30.053679,5.587857,41.167826,-0.575884,44.026068,-5.728339,36.541177,-11.555972,23.225812,0.0,73.001003,28.89473,90.915813,18.26088,91.666203,8.429947,75.920277,-0.770473,50.195904,0.0,6.081675,32.447124,65.292416,49.267875,83.360895,60.97248,94.979358,68.424644,97.06115,35.267372,312.679926,-61.505642,270.922631
102,1.128502,6.921048,4.401112,3.238068,0.0,-58.405895,-49.80772,-22.754173,-47.616234,-8.943214,-42.766914,-5.435257,-35.740128,-11.516762,0.0,37.142502,4.909714,43.337057,-2.517132,43.409675,-9.581564,32.860358,-16.628768,17.310493,0.0,70.82531,29.006824,89.803391,18.291321,89.930763,8.325634,74.38694,-0.871353,51.241608,0.0,4.711803,34.484394,66.480988,50.905928,83.297971,61.955176,94.699876,68.830591,96.464209,36.289358,319.701844,-57.211046,274.261568
103,-2.304382,11.808037,3.694839,2.91888,0.0,-60.219784,-51.003056,-18.702049,-49.562988,-1.53019,-44.422073,4.21051,-36.495895,-2.95887,0.0,38.941292,4.240401,39.414856,-6.627857,33.084636,-17.133393,22.389217,-27.242553,6.535231,0.0,68.874321,30.172749,89.633904,19.519501,88.267708,9.060459,72.491455,-1.01429,50.385132,0.0,3.458147,33.521458,66.108818,49.743662,83.835323,60.797418,94.663011,68.013448,96.368804,33.821154,331.580724,-53.680029,277.251291
104,-3.046417,5.507087,4.500217,4.366248,0.0,-57.194023,-53.35762,-16.525269,-51.590309,0.834846,-45.555553,8.948364,-36.580811,3.176651,0.0,36.882163,5.683323,37.243155,-6.371037,30.008292,-18.655355,17.90552,-30.451289,3.139576,0.0,68.340969,29.716759,87.742596,19.22945,86.785412,8.826714,71.887264,-1.494598,49.916439,0.0,3.537249,32.712034,63.086073,48.946958,79.573927,60.373872,91.339295,67.966888,93.994378,30.601616,337.271225,-49.352932,281.800954
105,-1.905098,1.499856,0.694771,5.012219,0.0,-55.846825,-53.084793,-15.93956,-51.072121,2.525253,-44.750862,10.389748,-35.775261,3.017921,0.0,36.221001,7.701635,38.64631,-3.504459,32.499921,-14.909946,20.927709,-26.068183,5.318933,0.0,69.082203,28.818054,86.960278,18.357983,85.487766,7.89505,70.187817,-1.985664,48.271122,0.0,4.73144,31.714024,63.565874,48.426773,79.253319,60.156943,90.028457,67.324869,92.162675,28.419571,338.859029,-48.935108,286.901121
106,-1.331978,-1.713142,-0.052414,4.143514,0.0,-47.671623,-51.153431,-5.997276,-50.297527,9.382095,-44.822731,12.50164,-36.797905,0.753021,0.0,39.298641,9.393596,40.111709,1.727653,35.157844,-6.452671,25.064183,-14.840044,14.471333,0.0,69.593868,26.938019,86.51968,16.683369,84.611263,6.936951,69.631176,-1.480007,48.62257,0.0,9.987388,33.531153,65.28198,50.061615,79.293272,61.126486,88.684768,67.393473,90.01938,26.934729,337.220312,-49.140387,291.11906
107,-0.313568,7.654334,-0.53421,1.449529,0.0,-36.835213,-43.907604,-7.834167,-42.852116,7.162628,-37.334061,9.337463,-29.273758,-6.980896,0.0,37.169734,8.50686,31.658016,-3.061647,26.414727,-15.696399,13.159383,-28.747349,-7.315077,0.0,67.882977,27.543011,87.155972,17.376995,85.329151,7.400837,70.287838,-1.579342,49.769726,0.0,10.098168,33.423954,62.622637,49.77571,77.608535,60.539795,86.077296,66.912314,89.089913,26.500683,344.920866,-49.795074,292.614809
108,-5.150299,-34.999207,0.652027,-0.124612,0.0,-47.797394,-47.310619,9.428558,-56.961765,13.972321,-59.737473,3.878403,-59.114342,-83.022423,0.0,41.640835,12.598072,49.288438,27.514934,52.863354,38.763945,57.135927,49.322277,70.188544,0.0,67.958107,26.250572,87.65831,16.478863,85.709496,7.052364,70.961609,-1.590614,50.113564,0.0,10.828552,31.530872,59.960453,48.420968,76.392731,59.725739,85.437685,66.507664,88.98185,21.23992,309.98097,-49.253511,292.549508
109,-26.787872,1.46225,0.527916,-0.15981,0.0,-25.95417,-24.112415,34.181786,-30.214233,45.176811,-31.829052,33.903465,-31.352634,-11.695461,0.0,41.877956,15.948155,47.893126,28.506645,55.678309,37.844481,59.130898,45.709199,62.001674,0.0,67.92778,24.916763,86.539536,15.528202,86.268539,6.468315,71.960793,-1.524239,51.764832,0.0,14.185984,30.7727,58.901063,47.89751,75.426646,59.454099,83.781539,66.522484,87.629886,-5.654011,311.471625,-48.831654,292.418103
110,26.546288,26.637831,0.729389,-0.057675,0.0,-69.416199,-50.080719,-0.860252,-48.863068,11.570549,-43.191891,11.467209,-36.063194,-63.991241,0.0,42.017142,2.631123,33.534734,-2.445934,27.38779,-8.310432,21.305559,-13.022668,12.737443,0.0,66.924419,24.291973,87.11237,14.58744,85.350208,5.315609,71.004353,-2.831783,50.731258,0.0,14.813615,30.040093,58.112942,47.52781,74.735103,59.287559,82.968903,66.338221,86.842754,20.829477,338.084463,-48.165064,292.335435
111,-0.959816,1.258103,1.048737,-0.471711,0.0,-48.047962,-45.731735,-0.57518,-43.871269,13.088264,-37.621078,14.304428,-28.927917,-15.329018,0.0,37.846457,6.293293,34.888674,0.93521,30.153097,-5.214328,23.357217,-11.842865,8.110114,0.0,65.993671,24.149323,86.488552,13.967972,83.725605,4.267902,69.36121,-4.295197,49.164448,0.0,14.466825,29.693427,58.764347,47.077464,74.928444,58.897481,83.485693,65.980747,86.912408,19.741945,339.327792,-47.244043,291.84895
112,0.411987,-17.503895,-0.072441,-0.034148,0.0,-0.545425,-30.447521,11.693573,-37.088814,14.888649,-38.835812,3.901062,-37.17144,-18.417091,0.0,12.013913,10.79601,30.444312,22.876552,41.877833,32.61064,48.078377,40.597006,51.610747,0.0,66.508541,23.934174,86.560307,13.8517,83.503475,4.32621,69.850674,-3.948727,49.90591,0.0,14.431874,28.699183,58.910943,46.292802,75.018106,58.394277,83.293834,65.799325,86.619402,20.006189,321.7891,-47.464228,291.780006
113,2.499847,11.96019,0.342636,-0.832087,0.0,-69.198475,-49.093437,1.27327,-50.082664,11.039543,-46.59193,9.320068,-41.255322,-62.172146,0.0,39.650742,-0.794234,33.623223,-0.551493,30.866561,-0.664928,28.190854,-0.085154,27.110345,0.0,65.104465,22.940311,85.813007,12.716618,83.085423,3.325481,70.458584,-4.556866,50.146351,0.0,15.559684,29.328296,59.599275,47.129952,75.324388,59.209877,84.448814,66.224785,86.690539,22.501488,333.772895,-47.126141,290.971523
114,-6.694679,8.12055,0.592861,-0.530127,0.0,-51.59832,-45.576954,3.302994,-42.327633,17.561646,-34.285812,19.875069,-23.99334,-39.944229,0.0,40.027852,6.870289,33.053514,-2.344601,24.457177,-12.270177,16.077708,-22.351673,-2.650389,0.0,64.542732,23.065052,84.5858,12.74374,82.252693,3.308144,70.252991,-4.665756,50.068703,0.0,16.516197,29.255122,59.973853,47.281117,75.786157,59.572907,85.41107,66.728421,87.784262,15.801487,341.902568,-46.538601,290.450519
115,-2.48497,-22.672652,0.288105,0.255523,0.0,-4.284096,-29.854603,14.723167,-35.183372,21.321945,-36.473007,12.5774,-34.837189,-5.97393,0.0,0.543589,13.689758,34.165515,25.872249,45.467755,36.336412,51.340219,44.835924,55.431431,0.0,64.15266,22.732315,84.450359,12.549648,82.395344,3.206463,70.607357,-4.677086,50.806904,0.0,16.504218,28.953163,59.641882,46.69912,75.180509,58.925516,84.79369,66.188229,87.657242,13.326588,319.195151,-46.240425,290.671277
116,8.768234,27.82912,0.183392,0.204456,0.0,-78.29092,-55.578804,-8.07003,-49.702892,9.960823,-39.324589,15.376167,-26.603737,-21.016159,0.0,33.690469,-0.084042,31.095099,-15.028754,19.579821,-30.329394,5.557352,-44.684018,-21.88379,0.0,63.688545,22.981052,83.925705,12.936401,82.085037,3.547783,70.137863,-4.561558,50.773773,0.0,17.408614,28.493369,59.300835,46.337447,74.775056,58.635721,84.092205,66.074979,87.473658,22.091274,346.96252,-46.060581,290.813982
117,-0.486031,-8.358968,0.449524,-0.256943,0.0,-65.618649,-51.580753,-3.567123,-49.411526,9.153099,-42.347546,12.646294,-32.977581,-40.051689,0.0,37.428777,2.786117,33.534796,-1.963848,28.227534,-7.185216,21.457342,-12.651671,16.867743,0.0,64.251022,22.507324,83.461876,12.671127,82.06604,3.375206,69.785957,-4.745064,50.265198,0.0,18.135108,27.947001,59.59594,45.524133,75.029035,57.767325,84.14037,65.344039,87.535285,21.596918,338.544781,-45.619383,290.498268
118,-1.958199,-14.14103,-0.335255,0.200257,0.0,-35.241108,-44.668293,7.691116,-47.293911,15.146255,-43.840427,9.591637,-37.312603,-41.492958,0.0,29.374362,9.673264,37.804096,17.21126,41.521101,22.803254,43.71713,27.016608,46.96761,0.0,64.275341,23.44717,84.8279,13.509922,82.502232,3.900146,69.912472,-4.553661,49.957409,0.0,17.51112,28.016718,59.735064,45.378093,75.247447,57.503157,84.281841,65.070608,87.26315,19.63603,324.366331,-45.957327,290.661103
119,-2.887802,18.798863,0.132408,-0.235331,0.0,-71.010303,-53.378563,-1.12484,-49.68029,15.582275,-40.733643,20.859146,-29.105244,-14.961662,0.0,36.771197,1.198946,32.762854,-10.174183,23.790643,-22.421266,12.404732,-33.732336,-4.739529,0.0,63.958111,23.46405,84.744244,13.547344,82.964687,3.926296,70.052891,-4.59938,49.916553,0.0,17.78523,28.074701,59.815031,45.509436,75.525015,57.6994,84.689764,65.251784,87.456923,16.743679,343.116766,-45.829468,290.377345
120,-0.030556,2.965193,-0.333767,0.330735,0.0,-60.811729,-49.766636,0.212402,-44.68483,16.969986,-35.097713,19.370956,-23.815041,-23.689384,0.0,39.284192,5.508631,30.974007,-9.565695,21.145935,-25.999517,7.376334,-42.936976,-24.315583,0.0,64.051666,22.608833,84.165573,12.698307,82.3423,3.323193,70.118523,-4.751472,50.641823,0.0,17.741017,27.756193,59.692333,45.509251,74.51169,57.975856,83.91918,65.795002,87.188926,16.704054,345.997716,-46.172304,290.623837
