takenoko1/special-research/HandMotion_SimilarSearch_自分用/NewProject/handData/test_key/d4_feature_d2/66.csv
frame,vel_0x_L,vel_0y_L,vel_0x_R,vel_0y_R,posFromWrist_0x_L,posFromWrist_1x_L,posFromWrist_2x_L,posFromWrist_3x_L,posFromWrist_4x_L,posFromWrist_5x_L,posFromWrist_6x_L,posFromWrist_7x_L,posFromWrist_8x_L,posFromWrist_9x_L,posFromWrist_0y_L,posFromWrist_1y_L,posFromWrist_2y_L,posFromWrist_3y_L,posFromWrist_4y_L,posFromWrist_5y_L,posFromWrist_6y_L,posFromWrist_7y_L,posFromWrist_8y_L,posFromWrist_9y_L,posFromWrist_0x_R,posFromWrist_1x_R,posFromWrist_2x_R,posFromWrist_3x_R,posFromWrist_4x_R,posFromWrist_5x_R,posFromWrist_6x_R,posFromWrist_7x_R,posFromWrist_8x_R,posFromWrist_9x_R,posFromWrist_0y_R,posFromWrist_1y_R,posFromWrist_2y_R,posFromWrist_3y_R,posFromWrist_4y_R,posFromWrist_5y_R,posFromWrist_6y_R,posFromWrist_7y_R,posFromWrist_8y_R,posFromWrist_9y_R,posFromBody_0x_L,posFromBody_0y_L,posFromBody_0x_R,posFromBody_0y_R
2,-25.634708,20.399619,-0.267849,0.334193,0.0,-21.962872,-23.308411,33.87228,-23.95895,46.912594,-21.389122,41.0182,-15.82386,-4.194832,0.0,34.914609,13.298445,28.809222,17.343344,32.071929,19.230869,32.568155,20.564987,40.649493,0.0,67.422581,22.065353,84.145832,13.456593,83.436413,5.480061,71.885777,-1.226349,52.131214,0.0,16.567389,31.469245,51.371156,48.402134,65.56492,59.730803,78.731837,65.790556,85.545439,-12.739534,318.747028,-48.734865,284.256027
3,32.793903,-7.955553,0.141277,0.193588,0.0,-55.357189,-46.905613,5.84816,-51.647816,10.169907,-52.235584,3.496628,-50.325966,-51.681061,0.0,44.00464,5.563712,33.481753,14.621139,38.483289,22.295789,40.954355,28.657872,50.729137,0.0,67.276611,22.315407,84.745674,13.530922,83.259773,5.503521,71.369934,-1.241398,51.57383,0.0,16.009227,31.159196,51.437599,48.119132,65.341137,59.36098,78.248208,65.405913,85.009754,19.38117,310.212272,-49.266787,283.870411
4,-11.307907,22.51136,0.074329,0.201677,0.0,-48.074226,-41.677895,7.560539,-40.84156,21.548309,-35.615959,21.193428,-27.847366,-3.964119,0.0,37.92241,6.751481,26.722059,-1.73,20.626737,-11.771605,12.03213,-22.126655,4.826906,0.0,66.813641,21.866627,84.731083,13.087521,83.664494,5.082378,71.713543,-1.604805,52.003498,0.0,16.181881,30.76035,51.767655,47.80297,65.678973,59.146768,77.822439,65.242274,84.63036,7.630548,332.317422,-49.635172,283.665878
5,6.087685,-30.086406,0.498104,0.168949,0.0,-53.7644,-44.784851,11.145172,-48.746223,13.681984,-48.478317,5.011482,-45.515327,-59.036865,0.0,49.450162,13.588734,38.148849,24.628411,44.582377,34.011077,49.141966,41.549876,63.948665,0.0,66.492348,21.447315,84.18766,12.727203,83.211479,4.801254,71.231575,-1.829796,51.561127,0.0,16.03899,30.679581,51.555666,47.877626,65.355092,59.411368,77.733642,65.588941,84.612144,13.510065,301.980433,-49.345236,283.584244
6,-11.015625,27.532718,-0.072842,-0.363278,0.0,-47.229424,-40.250301,12.346115,-39.345188,25.489769,-34.323978,25.062675,-26.245251,4.794388,0.0,39.51909,10.24464,27.421258,3.868169,21.68199,-4.219776,14.692152,-12.455614,9.090216,0.0,66.622982,21.394958,84.159336,12.599258,82.670803,4.615231,70.925274,-2.082081,51.439648,0.0,16.471552,31.003338,51.741349,48.027556,65.370283,59.395251,78.20103,65.496871,85.161784,2.333279,329.248226,-49.579239,282.956041
7,14.057236,-35.200637,-0.172634,-0.165985,0.0,-45.437336,-43.994694,10.88768,-51.461563,9.60434,-53.666267,-2.097015,-52.494106,-62.48148,0.0,40.873277,18.372415,40.304123,33.937224,51.241603,45.954101,57.331614,55.416425,72.359565,0.0,66.070404,22.098484,84.475365,13.403034,83.124847,5.320587,71.470871,-1.44413,52.256927,0.0,16.776537,31.704514,52.300623,48.804068,66.056577,60.152744,78.587156,66.101408,85.102936,16.322708,293.848876,-49.819679,282.591344
8,-25.822334,24.148734,0.281067,0.010683,0.0,-46.532478,-29.517803,28.713913,-28.010445,40.801048,-23.113747,32.55455,-15.316658,-21.126022,0.0,39.412077,13.493577,29.123656,17.015017,28.739691,18.761504,30.120739,19.688872,41.033766,0.0,66.068687,21.227875,83.985558,12.224464,82.742615,4.165249,71.016197,-2.45882,51.376877,0.0,16.488966,31.140918,51.609204,48.353228,65.662177,59.703571,78.498667,65.580234,85.361114,-9.545517,317.788862,-49.584503,282.393279
9,23.24604,-25.223808,-0.784321,0.064159,0.0,-42.725258,-40.862904,13.759117,-48.964977,13.16288,-52.020664,0.726357,-51.788635,-61.782703,0.0,40.200012,19.210924,41.4583,34.882746,52.674275,46.554747,58.202233,55.629279,74.711144,0.0,66.695194,21.312218,84.569378,12.503242,83.632107,4.756966,72.294102,-1.380329,52.735806,0.0,16.529227,31.062618,52.045779,48.504146,65.596166,60.062279,77.953164,65.998161,85.115101,13.682442,292.50372,-50.386906,282.396104
10,-27.047768,24.749133,-0.569229,-0.18451,0.0,-46.111565,-26.014366,31.904182,-24.167519,45.644302,-18.855972,38.713531,-11.155987,-27.258797,0.0,38.003365,12.858288,30.547435,17.597756,29.217331,20.474955,32.052416,22.682408,39.600477,0.0,67.403698,21.730328,85.049229,12.813206,84.007587,4.918442,72.495747,-1.404819,52.966747,0.0,16.402762,30.639134,52.482663,48.173534,65.991554,59.862146,78.2458,65.951107,85.119794,-13.38275,317.12787,-50.973558,282.086611
11,25.763168,-22.068486,-0.028439,0.025935,0.0,-43.964996,-41.641331,15.183334,-48.887215,16.557541,-51.09026,4.302979,-50.343876,-63.543835,0.0,41.080264,17.12308,40.045451,32.350917,50.222722,43.683662,55.994903,52.349097,71.938057,0.0,67.033653,21.958294,85.403023,12.96381,84.131241,4.889374,72.340508,-1.625462,52.99015,0.0,16.245422,30.573617,52.58344,48.088874,66.301479,59.656888,78.246726,65.630376,85.038036,12.373438,294.963224,-51.008978,282.016385
12,-24.778748,11.625874,-0.141621,0.302207,0.0,-37.439804,-23.541985,35.5933,-26.579304,44.965897,-25.305805,34.083366,-20.843697,-23.780251,0.0,35.53304,16.006386,36.196733,27.51302,40.14067,35.787575,44.78813,41.830594,52.303031,0.0,67.39706,22.184887,85.755329,13.003635,84.070988,4.72681,72.023106,-2.03928,52.405872,0.0,16.206396,30.393738,52.408748,47.65798,66.018415,59.114472,77.970207,65.125134,84.755404,-12.436409,306.537551,-51.181698,282.267046
13,26.027641,-15.079945,1.077633,0.544145,0.0,-45.909233,-45.299778,16.331635,-53.511314,18.628006,-55.212193,6.659775,-53.81155,-68.826427,0.0,31.922246,20.159781,40.332035,36.777743,51.978965,49.043289,59.295895,58.414161,75.617146,0.0,67.856827,22.133331,85.259628,12.932453,83.703575,4.576893,70.919952,-2.284641,51.678429,0.0,15.435997,29.755856,51.5096,47.096298,66.001681,58.747983,77.263536,65.150143,83.902323,13.580503,291.436349,-50.114794,282.789933
14,-25.880756,12.314638,0.011673,-0.275963,0.0,-30.910206,-24.334202,37.797146,-28.179932,44.400959,-27.510738,34.206104,-23.598175,-11.362495,0.0,34.367007,14.088048,34.190894,27.836283,41.480036,38.974575,47.168731,47.634947,54.12368,0.0,68.613625,21.875839,85.084877,12.586727,83.929939,4.438133,71.366272,-2.174263,52.023468,0.0,15.444457,29.373992,52.10932,47.094631,65.870461,58.921317,77.052967,65.389487,83.97031,-12.318048,303.727522,-50.120916,282.490505
15,22.18832,-12.5906,-0.361805,-0.155426,0.0,-43.426666,-42.796326,19.237862,-49.553146,21.190338,-50.311489,9.43531,-48.218708,-66.305523,0.0,33.612108,21.204968,40.256761,37.953779,52.308959,49.890566,59.215064,58.656408,76.784847,0.0,68.512058,22.188835,85.604267,12.939034,84.532986,4.771671,71.884174,-1.899376,52.250347,0.0,15.580246,29.5937,52.419245,47.231532,66.089799,58.950957,77.118484,65.305074,84.127959,9.850273,291.125003,-50.50272,282.323161
16,-30.394707,20.451366,-0.468636,-0.359202,0.0,-40.443821,-21.075211,40.338135,-18.501263,54.59198,-13.345356,48.980026,-5.932331,-5.270977,0.0,40.05459,16.891084,36.080395,22.636034,36.350183,26.11215,37.734689,28.232721,42.070062,0.0,68.557148,22.468128,86.277866,13.252544,84.744587,5.046959,72.198315,-1.671066,52.774258,0.0,16.014352,29.874726,52.716944,47.459391,66.556261,59.074396,77.745436,65.347991,84.365574,-20.588379,311.554047,-51.015301,281.941637
17,35.725136,-20.771233,0.081196,0.030381,0.0,-39.196701,-42.914429,13.1464,-51.687241,14.709549,-54.189949,2.024803,-53.509254,-73.692055,0.0,24.729311,21.006255,40.60034,38.733255,53.981407,51.259758,60.576845,60.253767,78.280133,0.0,68.61248,22.794285,85.858727,13.588543,84.453621,5.258789,71.930008,-1.68457,52.30442,0.0,15.765065,30.011318,52.249123,47.471679,66.213732,58.991651,77.842755,65.29186,84.563422,15.138531,290.761077,-50.932331,281.950282
18,-33.108673,21.590599,0.150146,0.204332,0.0,-43.845406,-24.747162,36.564903,-22.287998,51.458244,-16.765823,47.411499,-8.767662,-0.019054,0.0,42.205048,15.546469,35.279492,20.531703,35.056944,23.562475,36.268734,25.425917,39.783691,0.0,68.403854,22.824154,85.920982,13.579159,84.486008,5.306683,71.999817,-1.460266,52.664223,0.0,15.748331,29.774381,51.888315,47.42796,65.665326,59.035864,77.234143,65.302049,83.83804,-17.974405,312.321465,-50.786448,282.124402
19,33.207779,-21.995559,0.075703,-0.019328,0.0,-39.407158,-43.532524,11.606483,-52.576733,14.56192,-55.202236,2.726898,-54.51685,-70.770836,0.0,25.035717,19.356346,41.760877,37.511214,55.332445,50.527398,62.267633,59.866901,79.051519,0.0,68.722057,23.181324,86.159534,13.924084,84.488125,5.504837,71.760693,-1.532078,52.383099,0.0,15.701277,30.106969,51.521394,47.690955,65.531328,59.307874,77.302994,65.696696,84.104061,15.199213,290.273018,-50.744905,282.052185
20,-33.985291,16.05202,0.487633,-0.258796,0.0,-28.886948,-20.157108,41.277809,-20.742359,50.855827,-17.961445,42.65007,-12.747002,1.961861,0.0,36.270154,14.638059,34.56856,24.636624,40.477395,32.568217,43.552751,38.671381,50.167764,0.0,68.376789,23.006287,85.51157,13.66293,83.64996,5.101089,70.953083,-2.179699,51.455441,0.0,15.714245,30.377498,52.176875,47.719483,65.799139,59.238837,77.558641,65.676627,84.438316,-18.804073,306.263024,-50.275269,281.731376
21,33.372002,-17.451901,0.243988,0.20674,0.0,-36.95961,-41.895676,12.901497,-51.244869,13.667679,-54.106407,0.622673,-53.533516,-73.546829,0.0,20.749373,22.574283,42.400426,40.300851,56.531452,52.45432,63.192716,61.256347,80.632391,0.0,68.22813,22.430134,85.237484,12.8512,83.067455,4.289875,70.195942,-2.779369,50.978451,0.0,16.040781,29.990199,52.134823,47.53238,66.173347,59.151522,77.717587,65.515026,84.235219,14.548101,288.788677,-50.051107,281.915671
22,-31.49231,10.745251,-0.67503,-0.353892,0.0,-18.913021,-18.602085,42.53334,-22.076855,49.719429,-21.633568,39.75071,-17.781544,-12.238998,0.0,34.730902,15.665277,36.998624,31.341669,46.927967,43.469697,51.898566,52.331313,58.28115,0.0,68.640747,23.421535,84.720497,13.942623,82.673607,5.208778,69.709511,-2.169342,51.307297,0.0,16.091416,30.110983,52.010952,47.746283,66.369837,59.457743,78.203809,65.963272,84.72879,-16.980829,299.487491,-50.762758,281.515343
23,35.489616,-9.363894,1.643944,-0.038841,0.0,-36.46162,-46.99625,8.662834,-55.33493,10.397987,-57.222462,0.252686,-56.05093,-70.57085,0.0,17.447455,18.513329,42.665706,37.103785,56.596352,50.323931,63.732044,60.039246,79.238684,0.0,68.02906,24.409218,84.467239,14.599056,82.088814,5.181713,68.483162,-3.089104,49.505539,0.0,16.173668,30.354588,52.616415,47.965929,66.387868,59.59242,77.951868,66.081586,84.625852,18.496971,290.097044,-49.13063,281.449949
24,-29.572334,4.669381,1.163177,-0.690246,0.0,11.379318,-16.990585,39.838028,-25.209389,43.030586,-28.195152,29.632645,-26.963253,-29.1465,0.0,15.783405,13.189456,36.370437,33.230737,54.66412,48.101965,60.171392,58.434415,67.130355,0.0,67.904892,24.867268,83.996658,15.477161,82.720184,6.061134,68.777847,-2.729187,48.627434,0.0,17.366315,30.838464,53.812829,48.195888,67.116091,59.790269,78.356209,66.512419,85.343515,-11.108007,294.754924,-48.000097,280.748202
25,-2.620296,-16.199233,3.829193,-3.726637,0.0,30.335598,-7.763786,47.816334,-17.412758,46.824818,-27.038612,23.620663,-34.115353,-52.364044,0.0,-0.50024,24.758334,55.357515,43.947645,75.126971,56.310942,83.971977,65.740477,88.444004,0.0,65.760612,23.982067,81.333504,14.691124,80.744247,4.849777,65.605659,-4.925251,43.34095,0.0,18.465349,31.946946,61.930476,47.393812,76.974297,57.762817,83.720035,64.358255,91.356771,-13.871613,278.544638,-44.314213,277.010511
26,8.237286,-7.947587,11.447582,-10.075321,0.0,36.772041,-8.596058,37.739182,-19.461765,17.181587,-29.43409,-24.132385,-34.608879,-63.122177,0.0,29.466803,24.393327,64.621744,43.179284,80.352168,56.805562,84.799433,69.080495,91.518618,0.0,65.513363,24.766788,73.673115,12.465706,66.30312,-1.624775,42.460728,-16.079807,11.701698,0.0,24.361526,27.043778,70.176256,42.174914,88.579546,53.377056,94.854499,60.530409,89.364579,-5.820923,270.701966,-33.053226,267.040104
27,22.21756,3.286233,-3.05563,14.475593,0.0,-42.177086,-38.881016,-93.460808,-32.17083,-92.933578,-22.888641,-79.544964,-10.774498,-55.757675,0.0,-21.019655,31.925828,58.580949,47.428268,76.488506,58.013277,86.543573,65.168791,92.235108,0.0,17.561302,29.875145,25.695934,25.839157,5.408421,16.412945,-23.813038,3.167324,-33.398323,0.0,63.09089,21.826301,68.738891,15.589015,73.918331,10.306144,63.815099,5.473742,48.175572,16.482239,274.425793,-36.023254,281.953292
28,-1.840782,2.769506,23.583927,-74.904423,0.0,-59.292698,-31.064644,-89.503498,-25.341396,-93.510246,-16.486816,-78.583431,-4.981499,-55.762596,0.0,21.915592,27.271761,53.327718,42.360783,74.527869,54.23304,86.547587,62.607261,89.191554,0.0,58.715,26.483974,67.285023,19.724979,64.407177,11.654148,56.692028,1.94006,38.676624,0.0,-0.149374,9.560878,45.699257,21.660069,51.419445,31.37946,55.363629,39.993457,50.144113,14.720163,277.806474,-12.36062,207.660044
29,5.001984,-3.274501,-9.974384,-69.133785,0.0,-64.046001,-33.202629,-95.782413,-26.40461,-96.949883,-17.351761,-81.99646,-7.111816,-58.07579,0.0,27.917855,29.579559,58.860184,46.844357,76.928787,59.40155,88.58004,67.418297,91.92506,0.0,61.930389,42.35218,102.308693,35.132675,98.258514,26.613922,87.30835,17.227249,73.098221,0.0,-31.741101,5.371854,42.208691,25.504526,53.807024,45.179442,62.805294,62.640791,67.029702,19.270077,276.063816,-22.787075,140.058101
30,-1.079063,-0.544083,-8.55114,-48.121602,0.0,-65.404701,-32.365723,-95.543804,-25.230217,-97.220535,-16.085014,-82.040234,-6.076355,-58.841343,0.0,29.278649,30.523229,60.498916,48.093073,77.479477,60.709609,88.830438,68.52542,92.153042,0.0,50.950584,41.926575,104.272842,44.513626,110.708199,44.983521,102.976799,43.869781,91.031227,0.0,-51.717576,-7.811396,-2.943889,12.83189,6.879768,31.655114,21.917197,47.742022,30.259616,17.716627,276.337771,-31.812601,92.754537
31,-0.422859,0.094169,-7.764416,-48.444464,0.0,-65.540199,-32.392788,-95.557423,-25.255966,-96.844025,-16.279793,-81.981983,-6.434898,-58.914757,0.0,28.911296,30.737626,60.219002,48.13846,76.645414,60.603645,88.507792,68.344306,91.826382,0.0,43.288822,63.304539,102.574139,66.117496,105.973263,62.588482,102.148876,54.598103,95.861835,0.0,-39.636571,-10.907161,-32.972898,2.295541,-24.861642,16.053409,-10.429922,30.209475,4.394252,17.379913,276.717583,-39.490871,44.595715
32,-0.262184,-0.207049,-0.793247,-42.423799,0.0,-65.717068,-32.227936,-96.033726,-25.049286,-97.399635,-16.120033,-82.651749,-6.456871,-59.364166,0.0,28.989719,30.555833,60.347381,48.05485,76.3232,60.517195,88.832105,68.160537,92.357065,0.0,29.509048,38.598633,88.938446,47.341576,99.48246,52.157707,99.665794,54.454651,96.474953,0.0,-65.347435,-26.419883,-69.109023,-10.774243,-49.887201,6.374248,-33.325555,24.256735,-12.768997,16.725998,277.708028,-40.67585,3.369411
33,-0.023689,0.08818,-4.9296,-9.335643,0.0,-65.134392,-33.185463,-96.345291,-26.106834,-97.57473,-17.239952,-82.710171,-7.616386,-59.105873,0.0,28.242909,30.61499,59.805953,47.869413,75.989872,60.110753,87.939935,67.711859,91.429698,0.0,24.352627,32.0331,91.796436,41.492672,99.880314,49.464283,101.564999,56.008129,92.195721,0.0,-63.613607,-29.37606,-75.452674,-18.910662,-67.895844,-7.265646,-54.091045,6.921017,-32.936435,15.961361,280.621336,-46.346397,-3.141105
34,-0.369987,-0.362722,-4.707756,-46.71394,0.0,-63.878632,-33.759785,-96.297741,-26.585369,-97.318382,-17.55558,-82.753429,-7.579536,-58.855591,0.0,28.634284,31.279301,60.016522,48.798572,76.006668,61.035836,87.671691,68.43582,91.652184,0.0,21.172256,51.045742,87.420101,60.979786,98.873234,65.827503,97.823009,66.473637,93.235188,0.0,-66.873072,-40.784233,-115.612981,-28.940627,-109.049097,-13.659222,-81.303032,3.308834,-51.78087,15.216265,285.127464,-51.429262,-44.986194
35,-0.306129,-0.026676,-4.584503,1.382592,0.0,-62.979412,-33.807678,-95.077744,-26.712284,-96.439819,-17.703896,-81.75705,-7.678986,-58.42844,0.0,28.380675,31.557919,58.131467,48.826792,75.384965,60.903011,86.858932,68.438167,90.605021,0.0,7.53273,42.794838,98.781109,60.145168,103.254261,70.500813,99.487553,75.056019,92.673969,0.0,-79.548764,-42.251361,-98.881815,-29.108928,-94.481048,-15.431706,-70.873202,-2.944723,-45.25697,15.137701,286.560814,-55.7862,-42.143576
36,0.239983,-0.512158,0.387783,-6.384838,0.0,-63.185349,-33.891964,-94.953117,-26.729622,-96.036415,-17.63752,-81.467857,-7.605743,-58.112011,0.0,28.125028,31.15864,58.25009,48.388364,74.898989,60.477118,86.629221,67.969481,90.119107,0.0,3.836861,44.82605,97.072105,60.884628,104.472427,70.442162,102.049713,74.63974,97.768593,0.0,-78.007844,-40.037917,-87.31448,-26.80431,-84.26912,-14.153627,-65.314368,-2.823785,-41.792308,15.334654,286.911727,-55.441446,-47.665344
37,-0.087204,0.241135,1.919689,-2.590769,0.0,-63.707371,-32.805233,-94.129486,-25.830116,-95.694294,-17.06543,-80.920773,-7.439003,-57.840099,0.0,28.013136,31.053973,57.911142,48.72935,74.651123,60.973592,86.688192,68.237108,90.576986,0.0,4.058819,44.026165,96.380367,58.572063,105.535641,67.988377,104.526386,72.534428,94.574718,0.0,-75.235745,-39.592697,-83.257355,-26.782049,-80.272448,-13.538438,-60.720446,-1.312351,-35.269057,15.15873,287.732266,-53.610477,-49.676709
38,0.677605,-0.316162,1.356812,1.507791,0.0,-63.822384,-33.470936,-94.650593,-26.678581,-95.567093,-17.946854,-80.714664,-8.569794,-58.104916,0.0,28.070255,30.913368,57.224477,48.652841,73.912279,61.02892,86.542647,68.462929,89.924161,0.0,7.865238,42.105961,95.573902,55.593052,105.810642,64.506855,105.116215,69.021664,96.686954,0.0,-72.797005,-37.599239,-80.872554,-25.703825,-79.116295,-13.098621,-59.851494,-1.249458,-35.340594,15.635719,288.327509,-52.454281,-47.257513
39,0.762749,-0.182164,-0.974407,3.468552,0.0,-63.358326,-33.266888,-94.352074,-26.463776,-95.646515,-17.670479,-80.841408,-8.21022,-58.439713,0.0,28.386417,31.342163,56.751901,48.966224,74.370158,61.188545,85.914274,68.59563,89.775342,0.0,14.801273,43.287849,98.334389,56.149864,107.420082,64.191742,106.79306,67.965889,98.997688,0.0,-70.829976,-34.377473,-76.073667,-22.597224,-74.039145,-10.525018,-56.709263,0.473595,-35.496946,15.859995,288.406164,-53.967161,-43.528143
40,-0.106201,-0.458497,-2.375164,5.39819,0.0,-63.632984,-32.204247,-94.559155,-25.396385,-95.7831,-16.811829,-80.758438,-7.627258,-58.256207,0.0,28.324852,30.863597,57.016317,48.71632,74.237457,61.182308,86.301573,68.80515,90.017898,0.0,16.741276,44.1996,99.425297,57.435894,108.498859,65.365276,108.398952,68.89246,99.664249,0.0,-69.196802,-32.320691,-72.613668,-20.831563,-70.520082,-9.522068,-53.63471,0.679718,-35.322193,14.826965,288.697054,-57.269154,-37.380566
41,0.367241,0.288992,-5.307484,2.88112,0.0,-63.252869,-32.410355,-94.505539,-25.798988,-95.712433,-17.369843,-80.612411,-8.319283,-58.252716,0.0,27.844558,30.346005,56.206089,48.267951,73.221663,60.837309,85.484553,68.705176,88.744728,0.0,19.645958,46.171017,104.033546,58.481827,114.02401,65.077171,110.495911,67.114792,97.813568,0.0,-64.796714,-27.956233,-62.973008,-15.667037,-58.427684,-4.457083,-43.825379,5.054148,-28.021164,14.543381,289.201463,-63.227463,-34.284029
42,0.686646,-0.622012,-5.346107,2.613833,0.0,-63.596706,-32.349529,-94.658089,-25.892944,-96.80706,-17.370071,-81.743946,-7.912102,-59.112053,0.0,28.181468,30.860324,56.793521,48.618816,73.425562,61.072084,85.710498,68.719625,89.432319,0.0,21.514034,47.377968,105.485229,57.80262,116.222305,62.784805,111.35582,63.46447,95.941429,0.0,-64.62758,-25.420576,-55.851056,-12.525207,-47.195531,-0.970253,-34.269225,8.699799,-20.063789,14.699221,288.507373,-69.104376,-31.742274
43,0.605278,0.001976,-9.177818,3.053589,0.0,-63.674984,-33.098774,-95.137939,-26.498337,-96.947479,-17.938957,-82.41354,-8.623352,-59.692554,0.0,27.543833,30.557068,57.051514,48.290798,73.218575,60.790872,85.332586,68.516713,88.697983,0.0,24.875221,48.039494,108.760414,57.318993,120.805321,61.261024,118.423805,60.884857,100.825081,0.0,-62.52717,-20.422189,-49.466001,-8.006651,-41.14433,2.830886,-28.672785,12.239086,-15.135489,15.289793,288.049941,-78.2969,-29.148093
44,-0.03479,0.145237,-9.618702,3.171933,0.0,-63.481121,-32.552605,-95.080662,-25.961037,-96.923618,-17.367783,-82.306538,-7.873192,-59.495831,0.0,27.195128,30.648952,57.241459,48.341125,73.324353,60.711894,85.718032,68.223522,88.881567,0.0,27.865219,49.721603,113.242893,58.39262,123.404675,61.645088,117.022076,60.352192,97.90575,0.0,-56.46822,-16.513851,-41.67736,-3.502977,-34.066869,7.645751,-23.483404,17.116813,-12.713453,15.231285,287.278045,-87.93932,-26.893292
45,-0.072441,0.133072,-10.414867,3.452188,0.0,-63.750973,-33.061981,-95.55233,-26.275291,-96.922073,-17.482338,-82.118454,-7.977905,-59.541321,0.0,26.838458,30.305682,57.463513,48.098322,73.129963,60.726034,85.282629,68.604337,88.473706,0.0,27.969646,48.743019,113.725204,57.362022,124.155807,59.796124,113.432808,57.23196,81.647186,0.0,-56.993716,-15.711065,-38.280439,-0.836255,-28.075566,12.397074,-17.326733,23.211301,-6.19122,15.072212,285.672843,-98.440819,-25.179379
46,-0.046005,0.123316,-12.043819,4.047832,0.0,-63.494167,-32.765007,-94.884281,-26.133728,-96.748466,-17.33654,-82.264938,-7.697754,-60.128403,0.0,26.770965,30.239486,56.785617,47.863485,73.001955,60.414936,85.144617,68.365054,88.062633,0.0,30.089436,49.642982,117.741795,57.935085,128.326321,60.620098,119.795551,58.794594,93.755436,0.0,-58.831594,-15.431181,-34.954037,-1.137597,-27.544852,11.682283,-17.214965,22.959976,-7.793427,14.559259,284.019924,-110.951586,-22.907782
47,0.432358,-0.246508,-10.579147,2.118595,0.0,-63.604088,-33.157196,-95.538712,-26.312943,-96.902046,-17.263184,-82.496395,-7.28405,-60.052586,0.0,26.688405,30.404174,57.228985,47.953394,73.600625,60.431917,85.226251,68.394695,88.226395,0.0,29.52095,49.298573,118.723698,57.876778,128.680058,60.73082,119.110279,59.127102,90.467663,0.0,-58.451242,-14.238101,-31.841229,0.094169,-26.141697,12.926769,-15.949545,23.971294,-6.992709,13.736286,282.045624,-122.786064,-22.516979
48,-0.038567,0.453125,-11.386929,0.16756,0.0,-63.28474,-32.538586,-95.215359,-25.786057,-96.52256,-16.860237,-82.141514,-7.02816,-59.535942,0.0,26.340194,30.116479,57.358784,47.543803,73.414509,59.949893,85.006296,67.942373,87.980134,0.0,30.25177,47.247105,119.608727,57.495518,134.954681,61.97422,129.422035,62.101021,107.756481,0.0,-58.399341,-14.099842,-33.791771,0.825171,-24.864791,13.653788,-15.458783,24.738234,-8.348563,11.95713,279.803127,-135.913582,-25.045041
49,-0.56591,-0.158019,-7.770367,-0.156352,0.0,-63.073826,-32.624931,-95.237103,-25.556488,-96.082935,-16.259422,-81.469917,-6.080704,-58.402691,0.0,26.110791,30.381944,57.54632,47.904858,74.038806,60.198315,86.183383,67.87383,88.513288,0.0,28.51553,45.766926,115.046539,56.029358,129.621677,60.026207,118.037796,59.720135,94.902649,0.0,-62.155896,-14.97537,-34.947862,1.148558,-20.346977,14.494026,-14.881973,25.314396,-8.016099,10.503645,276.804759,-144.571524,-28.041742
50,-0.15461,0.578416,-3.586979,-0.943299,0.0,-63.401184,-32.838821,-95.062408,-25.986099,-95.859146,-16.99482,-81.939411,-7.183228,-58.974323,0.0,25.95166,30.231643,56.948515,47.75394,73.374742,60.091178,85.662889,67.828196,88.095731,0.0,27.43578,46.03672,115.199661,55.575714,130.279541,59.439411,120.835133,59.249496,96.505394,0.0,-63.908311,-15.272575,-34.319397,1.094588,-21.334212,14.503288,-13.422996,25.190401,-7.357345,9.929152,276.714819,-148.578386,-29.653397
51,-0.605278,0.231873,-1.466789,-0.082499,0.0,-63.006363,-32.538815,-94.750099,-25.973625,-96.00174,-17.222443,-81.463108,-7.527466,-58.560562,0.0,26.209592,30.561637,57.305062,48.08696,73.27378,60.344232,85.864627,67.973804,87.965994,0.0,28.22485,46.233387,116.178818,55.857525,132.604294,59.857979,124.988537,59.749889,102.456722,0.0,-65.022659,-17.215799,-35.249729,-0.860862,-22.881306,12.976479,-14.384017,24.130919,-8.601308,9.357033,276.1781,-150.012016,-30.504487
52,-0.068779,0.206432,-1.99007,-3.198177,0.0,-62.913609,-32.43187,-94.372501,-26.02993,-95.95459,-17.383919,-81.571026,-7.735977,-58.791676,0.0,26.161056,30.513349,57.646047,47.899548,73.444643,60.134774,85.444971,67.982264,87.84805,0.0,27.483559,48.438492,115.345802,58.003349,131.926575,61.867733,123.656673,61.602802,104.651985,0.0,-65.36383,-17.023786,-35.045705,-0.847463,-23.750073,13.14234,-13.671202,24.774883,-5.585634,9.334259,275.41962,-151.956081,-34.667577
53,-0.90992,1.101874,-1.397839,-2.927494,0.0,-63.132935,-32.242756,-93.682022,-25.495491,-94.432926,-16.931992,-80.052624,-7.380753,-57.511139,0.0,26.576019,30.791843,57.624249,48.506245,74.510085,60.677005,86.251987,67.998751,88.543607,0.0,25.509567,47.684441,114.728565,57.385597,130.982151,61.640396,122.223701,61.762562,101.434307,0.0,-66.951587,-18.089598,-36.141806,-1.574389,-25.458213,12.868045,-15.281436,25.050845,-7.093517,8.907623,276.796793,-152.870636,-37.319772
54,-0.302925,0.757307,-1.942577,-3.241711,0.0,-62.680664,-31.669979,-93.008537,-25.039558,-94.455872,-16.47274,-80.400696,-6.941528,-58.317833,0.0,26.455606,30.764488,57.973942,47.861077,73.546346,59.837199,85.389334,67.339257,88.501061,0.0,24.889011,47.974834,115.177059,57.938347,130.699425,62.423458,122.07819,62.920647,103.327217,0.0,-67.06209,-18.674066,-37.764205,-2.204737,-27.117107,12.243192,-17.037433,24.540046,-7.353085,9.168777,277.484229,-154.249134,-40.631354
55,-0.534668,0.201368,-1.210785,-3.089095,0.0,-61.905899,-31.854343,-92.50042,-25.204582,-94.013901,-16.552277,-80.022869,-6.920242,-57.789001,0.0,26.782018,30.61536,57.757877,47.813529,73.723632,59.794406,85.151657,67.351668,88.195149,0.0,24.121628,47.664928,114.041119,57.760391,130.529938,62.549744,123.199482,63.389053,105.923538,0.0,-68.080632,-19.336648,-39.226826,-3.178201,-29.730014,11.246078,-18.482516,23.708577,-6.296381,8.83873,277.814393,-155.255299,-43.591654
56,-0.222702,0.049215,-1.353664,-3.14007,0.0,-62.363377,-31.404476,-92.004948,-24.686279,-93.31089,-15.961761,-79.29554,-6.241379,-56.83485,0.0,27.018337,30.628019,57.312348,47.869105,73.274274,59.991019,85.269291,67.527225,89.422686,0.0,24.579678,47.21981,114.17799,56.953926,130.679913,61.619568,123.747025,62.555923,107.048378,0.0,-68.285118,-20.22079,-40.290754,-3.971478,-30.854767,11.060826,-19.209596,24.376315,-5.540834,9.499111,278.705575,-155.72588,-45.889757
57,0.432129,-0.115412,-1.385307,-3.019626,0.0,-62.491093,-31.644859,-93.056831,-24.880371,-94.033699,-16.135025,-80.206203,-6.528969,-57.746944,0.0,26.477959,30.847665,58.092379,48.285302,73.971189,60.496138,85.853389,67.983437,89.259912,0.0,25.83601,46.502953,115.115547,56.626797,131.603222,61.766624,124.768581,63.167839,108.374405,0.0,-68.79916,-20.301436,-40.827149,-4.068611,-30.949739,10.89234,-19.656021,24.062931,-6.121287,10.765772,279.506849,-156.276655,-47.992698
58,-0.288849,0.052179,-1.661453,-2.822704,0.0,-61.855946,-31.461239,-92.850094,-24.606514,-93.867702,-15.768814,-79.810925,-5.990868,-57.057323,0.0,25.951413,30.847604,57.979623,48.285796,73.625881,60.576845,86.06229,68.137257,89.583978,0.0,26.266308,48.433285,116.471729,58.591919,132.578545,63.8657,127.778721,65.251064,110.606346,0.0,-68.441841,-20.11143,-40.788031,-4.114059,-32.678627,10.697518,-19.854239,23.5718,-6.74509,10.673103,279.829819,-157.741928,-50.544611
59,-0.165253,-0.021304,-0.192661,-1.359898,0.0,-62.379913,-31.665287,-93.233757,-24.721184,-94.282665,-15.789642,-79.984016,-5.893021,-57.562466,0.0,26.634929,31.615655,58.657766,49.132703,73.870845,61.282035,86.930624,68.48837,90.203396,0.0,26.177616,47.894154,115.319252,57.720165,131.491127,62.751389,125.888329,64.000683,108.638649,0.0,-70.061122,-21.539748,-42.126378,-5.757578,-32.506251,9.093119,-20.223044,22.402432,-6.902183,10.976086,280.118996,-157.466354,-51.594028
60,-0.302124,0.404465,-0.597038,-1.541414,0.0,-62.524681,-31.23888,-93.71727,-24.195328,-94.47773,-15.148315,-79.361916,-5.25959,-56.74942,0.0,26.974494,31.390204,57.802646,49.150055,74.551643,61.438696,87.919928,68.748277,90.279102,0.0,25.445995,48.030567,116.0499,57.941551,131.147976,63.140202,127.83205,64.412498,108.42001,0.0,-69.010562,-21.096349,-41.323592,-5.145847,-32.864372,9.803279,-20.381372,23.150723,-8.281132,10.682487,281.173539,-158.054867,-52.485365
61,0.704498,-0.630348,1.07317,-1.287681,0.0,-62.781372,-31.946926,-94.074783,-24.998016,-94.964619,-15.951576,-79.864254,-6.08139,-57.719536,0.0,25.858973,31.269174,57.194714,48.96536,74.535526,61.468954,88.070167,69.191337,90.650963,0.0,24.36327,47.099361,113.621464,56.949863,129.606972,62.082481,125.659676,63.29607,107.409668,0.0,-68.105023,-21.21244,-41.501587,-5.227481,-32.962617,9.982572,-20.004509,23.726206,-5.615428,11.48263,281.579764,-156.886053,-52.736473
62,-0.14431,0.103494,0.02655,-0.151103,0.0,-62.490978,-31.789684,-94.329643,-24.883118,-94.993057,-15.917244,-79.393158,-6.097298,-56.766701,0.0,26.084424,30.579483,57.399293,48.392131,74.892567,61.039973,88.397629,68.830838,90.449472,0.0,24.282646,47.339115,114.020462,56.963825,129.711514,61.977882,125.195446,63.194389,106.790199,0.0,-68.774336,-22.216718,-41.644601,-6.532761,-33.088495,8.745124,-20.438769,22.769106,-6.322501,11.307907,282.237483,-156.889915,-52.333351
63,-0.174179,0.375998,0.195351,0.285935,0.0,-62.561188,-31.697044,-94.358139,-24.80999,-95.601768,-15.826836,-80.196991,-5.775375,-57.046852,0.0,25.881759,30.105919,57.675317,47.610803,74.578751,60.083583,88.178539,67.705251,90.71716,0.0,24.831333,47.010784,115.425167,56.864376,129.453793,62.113438,126.678715,63.448277,107.992916,0.0,-68.369933,-21.986142,-42.404749,-6.219841,-34.792498,8.920588,-21.281569,22.555727,-6.35702,11.026812,282.81065,-156.801481,-51.850246
64,0.096817,-0.168826,-0.030212,0.638746,0.0,-62.746124,-32.028065,-94.410496,-25.202522,-95.929585,-16.29364,-80.81955,-6.403999,-58.129005,0.0,25.577762,30.583312,58.103556,48.374223,74.97698,60.96612,88.412202,68.554319,90.999977,0.0,25.274563,46.678619,114.970493,56.485291,129.42318,61.806908,126.114063,63.404331,108.01815,0.0,-68.943254,-22.318451,-43.065849,-6.78952,-34.544415,8.243124,-21.934642,21.971846,-7.524195,11.055393,282.720525,-156.899929,-51.132799
65,-0.281982,0.357535,0.175037,0.632726,0.0,-62.905254,-31.649208,-94.443569,-24.837456,-95.589008,-16.019096,-80.808849,-6.229591,-58.225422,0.0,25.452594,30.198668,57.73398,47.776479,74.706081,60.305452,88.137042,68.008013,90.625584,0.0,24.460144,46.863327,114.365444,56.409245,128.376732,61.548443,125.466499,62.882252,107.929115,0.0,-67.642297,-22.664809,-43.346381,-7.167772,-34.579366,8.203295,-21.57297,22.430281,-6.266061,10.732698,282.975678,-156.765604,-50.602456
66,0.42057,-0.023342,0.13464,3.744113,0.0,-62.789783,-32.030125,-94.413757,-25.430832,-96.132259,-16.621399,-81.376076,-6.5942,-58.76049,0.0,25.042015,30.48519,58.054032,48.105917,74.804573,60.543685,88.025521,68.174554,90.846897,0.0,25.024452,47.112293,113.811092,57.114887,129.126778,62.702808,126.150112,64.425659,109.037304,0.0,-68.925439,-23.056369,-46.794833,-7.857061,-37.729316,6.738298,-25.393344,19.962056,-11.483292,11.119137,283.083541,-156.665096,-46.727139
67,-0.435905,0.816711,1.598396,4.49509,0.0,-62.582989,-32.056561,-94.352703,-25.470772,-96.167793,-16.666374,-81.104164,-6.638947,-58.158875,0.0,24.109028,29.216281,57.477036,46.712334,74.650011,59.265637,87.468718,67.147274,90.197468,0.0,25.683975,46.477089,112.059917,55.775528,125.385246,60.844402,123.391056,62.094784,106.708946,0.0,-68.184033,-22.20727,-48.891012,-7.344069,-41.851373,7.12044,-27.853233,20.001483,-11.918293,10.694904,283.718412,-155.055027,-42.413888
68,-0.773735,-0.575329,1.706543,9.515615,0.0,-62.485828,-31.995335,-93.840752,-25.28429,-94.656086,-16.155281,-79.400997,-5.62603,-56.494389,0.0,24.825395,29.981801,58.227551,47.443891,75.646231,59.872767,88.213119,67.52951,90.765572,0.0,26.626682,47.080879,108.53096,56.164742,120.196152,61.008167,119.19199,62.086887,105.051041,0.0,-68.140159,-22.121159,-51.857872,-8.044226,-43.613791,5.90019,-28.439245,18.618398,-12.837571,10.568905,283.144149,-152.700748,-32.897208
69,-0.671768,0.006854,5.342731,11.573262,0.0,-61.988926,-31.921005,-93.242626,-25.266953,-95.001526,-16.330948,-79.736652,-6.060104,-57.418213,0.0,24.437417,30.082084,58.326105,47.660018,75.193909,60.211962,88.20577,68.021105,91.233023,0.0,26.895561,46.98761,106.960087,54.395142,119.050198,58.702068,119.90078,59.871597,103.977299,0.0,-66.531499,-20.097505,-46.479134,-6.058302,-38.904365,7.124639,-23.613882,19.493185,-10.406025,10.770121,283.150957,-146.485033,-21.323992
70,-0.949631,0.203776,6.893177,15.411513,0.0,-62.59346,-31.720104,-92.983189,-24.781609,-93.912106,-15.639267,-78.959255,-5.272865,-56.637669,0.0,24.972916,29.828228,57.801967,47.567948,75.240283,60.253458,88.604431,68.084152,92.137419,0.0,30.598869,43.95298,100.887737,49.939213,113.085136,54.092789,115.746517,55.924129,100.801392,0.0,-64.090969,-18.090802,-43.272219,-5.212877,-34.695951,7.203155,-21.419736,19.484478,-9.143075,11.151266,282.540893,-138.26108,-6.726318
71,-0.171661,0.158081,10.221004,16.43515,0.0,-62.332764,-32.164192,-92.982273,-25.357933,-94.0242,-16.264458,-79.151058,-5.859718,-56.007671,0.0,24.435564,29.992916,57.483088,47.486684,75.07436,60.033442,89.04607,67.744277,91.885601,0.0,34.302635,42.193966,102.316647,42.549076,114.433594,40.844994,110.145378,36.811066,88.488407,0.0,-57.822005,-9.851043,-38.331476,2.65076,-28.457739,14.903277,-13.983412,25.805343,3.764058,12.364798,282.174497,-126.654882,9.184355
72,-0.882225,-0.276889,5.701875,35.464574,0.0,-62.088547,-32.226734,-92.936668,-25.223522,-93.233013,-15.943222,-78.573589,-5.203857,-55.194855,0.0,24.878809,30.406891,57.743243,47.752088,75.161119,60.130266,89.302211,67.683021,92.39393,0.0,44.636908,44.89337,108.097945,47.635317,115.730038,47.145252,110.782357,43.87682,95.069762,0.0,-56.292957,-8.637139,-36.062751,7.082988,-26.300072,21.679967,-11.519046,33.921616,5.62046,14.553967,280.783044,-117.881613,43.534365
73,0.250282,-0.576934,5.701876,35.464573,0.0,-62.748184,-32.415333,-93.504982,-25.588989,-92.941589,-16.449394,-78.403187,-5.753174,-55.295963,0.0,26.57182,30.90003,58.900136,48.628696,76.108371,61.173293,90.581185,68.808484,94.033033,0.0,54.97118,47.592773,113.879242,52.721558,117.026482,53.445511,111.419334,50.942574,101.651115,0.0,-54.763909,-7.423233,-33.794024,11.515217,-24.142404,28.456658,-9.054679,42.03789,7.476863,16.212759,279.8602,-110.771227,78.653028
74,-0.550003,0.407861,8.805428,21.09567,0.0,-61.980228,-32.311993,-92.760086,-25.513,-92.727699,-16.503067,-78.538227,-6.009636,-54.914818,0.0,25.772831,29.713125,58.297699,47.325083,75.531931,60.134404,90.210683,68.228895,93.402129,0.0,58.337631,43.346558,107.484283,46.018696,116.030731,46.580658,113.060989,45.745754,99.124603,0.0,-43.693418,3.743001,-17.482591,17.968197,-6.623781,29.486871,4.223759,38.358924,11.358093,15.883369,279.830699,-101.745186,99.311335
75,-0.581245,-0.562546,9.308453,40.036868,0.0,-61.672153,-31.963692,-92.473927,-25.107994,-92.094955,-16.02356,-77.955036,-5.509071,-54.390278,0.0,25.510701,29.786423,58.138136,47.380844,75.412752,60.186706,90.099532,68.265574,93.728666,0.0,63.638306,45.833244,105.195637,49.04623,110.490017,48.372974,103.883801,44.764481,92.053585,0.0,-25.785737,11.139033,-13.107513,29.875899,-2.661381,43.516133,12.935476,52.428014,26.619553,15.462742,279.079042,-92.276115,139.159092
76,1.049538,0.578231,6.984329,25.691197,0.0,-62.363949,-32.750244,-93.089561,-25.514431,-91.995564,-16.213417,-78.06736,-5.686913,-54.66568,0.0,24.433033,29.15873,57.171989,46.655956,75.120055,59.264834,89.656535,67.179199,93.257263,0.0,65.558052,43.426666,108.147984,42.730236,111.69405,41.050243,107.485371,38.738079,97.301502,0.0,-22.69834,16.963826,-0.279297,29.982727,11.578943,38.724177,25.10216,43.902196,30.727808,16.724825,279.34585,-85.079241,164.538866
77,-0.208168,-0.170678,8.530112,35.999533,0.0,-62.080536,-31.326256,-92.511578,-24.008503,-91.489277,-14.797897,-77.731991,-4.516182,-54.392338,0.0,23.066619,29.068759,57.361625,46.389441,75.797766,58.981215,89.779727,66.93158,94.045322,0.0,64.285984,38.726606,102.992391,37.769279,105.045004,35.578594,95.583658,32.117843,83.103647,0.0,-2.182414,24.163152,21.344987,35.254977,31.668205,40.965347,39.518905,43.409335,38.878553,16.583347,279.121048,-76.482439,200.484275
78,-4.099388,10.983978,8.530111,35.999533,0.0,-49.051666,-27.353783,-88.079624,-22.481174,-88.732395,-14.234734,-75.274944,-3.61805,-50.734119,0.0,17.615602,20.801429,46.958718,34.254065,63.602307,45.613177,75.163466,54.128929,79.245909,0.0,63.013916,34.026546,97.8368,32.808323,98.395958,30.106945,83.681946,25.497608,68.905792,0.0,18.333512,31.362478,42.969271,40.527228,51.757466,43.206516,53.93565,42.916475,47.029299,12.50659,289.944042,-67.929697,236.322825
79,-2.728729,-1.353507,-1.866417,2.683796,0.0,-52.864723,-27.679081,-85.111485,-21.967506,-84.792938,-13.401031,-68.268757,-2.16156,-46.215076,0.0,21.671925,25.07042,43.195525,38.905477,62.944788,49.261082,73.010476,55.474779,79.664268,0.0,62.119675,31.843014,102.135773,26.172695,104.401131,21.04969,91.784134,16.265488,69.693375,0.0,16.839276,31.922802,53.822153,49.896926,67.163391,62.304498,85.605275,70.215467,86.632802,9.768934,288.535392,-69.80504,238.951478
80,8.270531,-0.485852,-2.711678,16.495017,0.0,-61.110477,-19.958038,-70.824566,-19.857101,-86.23867,-17.528343,-84.024925,-12.719421,-60.967884,0.0,-4.132152,20.412216,12.339338,37.177144,38.528737,49.354881,62.168215,56.312177,81.227233,0.0,66.524506,28.671227,98.839989,21.598549,98.719597,15.787697,85.714188,11.121025,64.074955,0.0,18.796084,35.111593,57.376816,52.620614,67.994058,64.091,83.849649,70.40325,89.038228,18.18223,287.708291,-72.373953,255.105247
81,-0.788269,-7.385288,0.683498,11.312058,0.0,-51.974316,-22.955589,-51.728153,-21.664925,-73.319378,-19.042969,-77.360001,-13.764038,-66.333961,0.0,10.532212,30.631415,33.229996,47.165706,46.717953,59.426744,68.814721,67.642081,88.875577,0.0,64.469891,28.805637,94.773731,20.609894,93.274441,13.002319,80.79546,5.927811,54.852505,0.0,22.642826,36.78472,59.46892,53.104058,71.227001,62.946703,82.407963,67.621147,85.796763,17.601242,280.187616,-71.483173,266.281917
82,0.052185,9.542291,0.127544,7.395415,0.0,-41.114445,-37.962685,-6.050606,-39.105148,1.605148,-36.80975,-9.103889,-32.491951,-36.740627,0.0,28.401361,25.098578,46.72629,36.721303,54.581621,45.503508,59.322077,52.284259,65.603761,0.0,65.247631,26.212349,95.526581,17.425289,95.546036,9.807758,81.014557,3.341274,52.358379,0.0,23.993925,38.759499,63.642753,55.14071,77.811941,64.544433,87.161448,68.72685,90.66214,17.801342,289.532584,-71.207714,273.480008
83,0.195065,10.085911,-0.286331,3.825068,0.0,-51.360598,-40.676279,-11.844978,-40.629044,-3.825245,-37.046671,-11.150837,-31.992073,-52.685251,0.0,38.382729,20.695219,42.07176,25.47081,44.874179,28.010635,45.021639,29.086328,52.625183,0.0,66.015644,27.619457,96.438446,18.368683,95.764961,10.376129,81.776047,3.615818,56.724358,0.0,23.941499,37.150283,60.186212,54.308067,74.624138,64.56407,84.733113,69.339785,86.680041,18.042898,299.56999,-71.447554,277.256571
84,0.195064,10.085911,1.903095,3.62512,0.0,-61.60675,-43.389874,-17.639351,-42.152939,-9.255638,-37.283592,-13.197784,-31.492195,-68.629875,0.0,48.364096,16.291858,37.41723,14.220317,35.166736,10.517762,30.7212,5.888396,39.646605,0.0,66.380825,27.895947,97.07365,18.950844,96.545048,11.404152,82.771397,5.393715,61.085644,0.0,22.108377,37.061548,57.660435,54.533024,71.092447,64.849974,79.307721,69.351764,81.251069,18.492622,309.633686,-69.289799,280.859476
85,3.900948,-21.713915,1.455975,0.849068,0.0,-40.865593,-40.13031,-13.305244,-38.505249,-3.503494,-34.537125,-11.221848,-29.214878,-34.994602,0.0,22.744653,18.427558,45.10423,34.464572,57.328835,47.724917,63.30609,57.814688,69.58691,0.0,66.774445,28.811073,97.592812,19.679775,96.710014,11.55035,83.115234,4.845142,61.028194,0.0,21.493898,36.733097,57.874153,54.367965,72.211549,64.858495,82.529858,69.437659,83.955181,22.501888,287.921099,-67.725506,281.709872
86,-1.057949,21.674271,3.515511,1.114286,0.0,-58.209829,-48.60775,-10.956802,-46.898632,0.678692,-41.453304,-2.144737,-34.022541,-47.778196,0.0,29.552729,12.071928,38.402304,14.681747,39.368204,15.07976,37.101902,14.054734,33.322869,0.0,64.860649,27.068939,94.921989,17.578869,93.774376,9.161625,80.234756,2.027493,58.013763,0.0,22.467146,35.567373,55.109402,53.0964,71.431827,63.72519,82.767659,68.627494,85.320421,21.435986,309.564324,-64.217949,282.793113
87,-1.057949,21.674271,2.189255,1.373823,0.0,-75.554066,-57.08519,-8.60836,-55.292015,4.860878,-48.369484,6.932373,-38.830204,-60.56179,0.0,36.360804,5.716297,31.700377,-5.101078,21.407571,-17.565399,10.897713,-29.705221,-2.941172,0.0,64.462852,26.464806,95.420494,16.750889,93.358154,8.118267,78.670349,1.003075,56.693172,0.0,22.059223,34.901209,56.414682,52.457098,72.31918,63.183269,82.706402,68.247296,85.041371,20.380497,331.18018,-62.026234,284.10852
88,2.178268,4.080652,1.902122,0.891305,0.0,-61.815948,-51.98885,-12.462845,-49.66444,3.939285,-42.969303,7.295952,-33.073483,-20.845184,0.0,35.273009,1.023019,30.853408,-10.748091,22.369519,-23.029075,10.329732,-36.04458,-5.622931,0.0,63.810425,26.432877,94.053955,16.420097,92.528687,7.449131,77.980156,0.01339,55.648499,0.0,22.578112,34.671683,56.928755,52.257645,72.476026,63.003204,82.717394,67.927614,84.79369,22.469816,335.181916,-60.21306,284.920909
89,1.374321,-22.799364,1.033974,-0.329809,0.0,-43.716602,-44.692898,-6.140442,-45.472183,2.644958,-42.212791,0.748558,-36.269703,-25.952911,0.0,36.657762,10.53283,40.077314,13.390206,41.843685,15.240002,39.690201,15.629215,40.220822,0.0,63.905983,24.903202,90.556526,15.110607,90.315514,6.464596,77.192459,-0.784149,55.335732,0.0,24.199307,35.372427,57.798386,53.074541,73.043142,63.884691,83.994763,68.718946,86.043333,23.759108,312.048853,-59.264116,284.257401
90,-2.874641,5.593785,0.42635,0.081078,0.0,-55.454292,-49.281006,-3.7183,-49.515009,5.794372,-45.382433,4.025917,-38.792982,-44.965725,0.0,39.610327,8.002328,38.28365,7.666437,35.994902,6.555022,32.156867,5.12868,32.85054,0.0,63.182774,23.747463,89.748516,13.906803,89.21751,5.606117,76.64217,-0.996609,55.559063,0.0,24.003991,34.356941,58.058664,52.357063,71.985111,63.529935,83.406652,68.763283,85.823007,20.753975,317.288931,-58.968258,283.984772
91,-2.874642,5.593784,-0.316772,-0.400945,0.0,-67.191982,-53.869114,-1.296158,-53.557835,8.943787,-48.552074,7.303276,-41.316261,-63.978539,0.0,42.562892,5.471828,36.489986,1.942668,30.146119,-2.129957,24.623533,-5.371854,25.480258,0.0,63.330173,24.634323,89.387455,14.817295,88.220615,6.350155,75.720692,-0.469322,54.971294,0.0,24.365539,34.430609,58.389399,52.329769,71.873589,63.372225,83.03615,68.595136,86.074949,17.748384,322.610767,-59.415979,283.311878
92,4.149628,11.424629,0.644474,-0.140791,0.0,-55.379105,-46.815147,-10.757446,-46.782303,3.761673,-42.919636,5.594902,-36.588593,-23.126221,0.0,34.212939,2.701704,31.462946,-7.033495,23.855543,-17.479133,13.233669,-28.757846,-3.185889,0.0,63.294525,24.52446,89.590416,14.858837,88.196983,6.139698,74.677162,-1.172848,53.303261,0.0,24.95822,34.014844,58.020378,51.1801,72.836216,61.848039,83.108891,67.099356,86.722032,21.746721,333.801717,-58.922796,282.937408
93,-1.352978,-0.916252,0.006638,-0.344012,0.0,-64.673481,-52.040805,-10.288181,-49.844999,3.899002,-43.593464,7.731858,-35.028276,-28.047266,0.0,35.518775,1.97166,32.073658,-9.167837,23.466453,-21.185301,11.881304,-33.299373,-4.356893,0.0,63.597794,24.927635,89.763107,15.085087,88.590775,6.212082,74.318504,-1.269722,52.903633,0.0,25.100184,34.49094,57.543233,51.536462,72.346906,62.069476,82.334603,67.264477,86.523628,20.2672,332.62619,-59.042702,282.334122
94,-1.352977,-0.916253,-0.199642,-0.670301,0.0,-73.967857,-57.266464,-9.818916,-52.907696,4.036331,-44.267292,9.868813,-33.46796,-32.968311,0.0,36.824611,1.241616,32.68437,-11.302178,23.077364,-24.891468,10.528939,-37.840899,-5.527897,0.0,63.386364,25.928879,89.779758,15.797825,87.642803,6.505394,72.969532,-1.476688,51.745605,0.0,25.151128,34.552196,58.547295,51.775621,73.019986,62.341425,82.615197,67.413913,86.419887,18.802414,331.455988,-59.354153,281.409873
95,2.685471,5.682026,0.63612,-0.798062,0.0,-65.86338,-47.083683,-16.451225,-44.461212,-2.283669,-38.034325,1.230125,-29.07795,-21.975517,0.0,31.55304,-3.503904,24.732399,-17.483209,16.29723,-31.97177,2.583452,-47.186948,-14.816703,0.0,63.294411,25.068455,88.81485,14.70314,86.4188,5.413971,72.241745,-2.514496,51.177177,0.0,25.531696,34.488531,58.711921,51.808287,72.641147,62.466408,82.873252,67.563472,86.314664,21.393099,336.965808,-58.812819,280.439604
96,4.489517,-17.97715,0.267105,-0.091823,0.0,-49.238319,-45.21389,-14.788628,-45.434189,-5.800209,-42.14859,-5.840149,-35.388222,-29.614334,0.0,37.970699,4.702603,34.300995,0.04446,32.986144,-4.893905,26.246272,-10.461631,21.935722,0.0,63.758469,25.051689,89.198799,14.614048,86.510239,5.321217,72.660828,-2.456932,51.126137,0.0,25.777215,34.277283,58.187351,51.688615,71.853644,62.454675,82.312558,67.348828,85.013645,25.817013,318.77531,-58.611317,280.134434
97,-4.410495,-3.869003,1.278992,-0.728717,0.0,-55.121556,-48.688116,-8.713246,-47.83453,0.84423,-43.207541,-0.867577,-35.935336,-46.325055,0.0,40.523862,9.843942,36.333757,8.198725,35.173498,5.465961,30.516775,2.1089,31.506141,0.0,63.393173,24.297409,88.081856,13.469181,85.564384,4.10923,71.868324,-3.53405,50.245113,0.0,26.553727,33.544738,58.475726,51.079509,72.201299,61.94048,82.941671,66.837226,86.062661,21.286497,314.649194,-57.452345,279.148604
98,-4.410496,-3.869003,-0.010529,0.31079,0.0,-61.004791,-52.162342,-2.637863,-50.234871,7.48867,-44.266491,4.104996,-36.482449,-63.035774,0.0,43.077026,14.985281,38.366519,16.352991,37.360852,15.825828,34.78728,14.679431,41.076559,0.0,63.520088,24.467583,88.770447,14.197197,86.592865,5.162029,73.094673,-2.286701,51.563301,0.0,26.110297,33.291623,57.508714,50.656518,71.66796,61.482292,82.40117,66.454435,85.856229,16.795006,310.595186,-57.543869,279.274389
99,4.48597,26.986721,0.851555,0.162157,0.0,-63.223515,-49.090862,-9.008446,-46.94315,5.450821,-41.379662,5.111275,-33.536568,-15.886459,0.0,28.748892,2.366338,25.389114,-12.649634,15.1722,-29.852372,1.247544,-47.741096,-21.663774,0.0,63.481407,24.469814,88.712196,14.297905,86.940308,5.320129,73.580933,-2.115898,52.031021,0.0,25.718553,32.429834,57.305741,49.962258,71.368224,61.021942,82.303913,66.281163,85.859564,21.205759,337.439835,-56.76753,279.294474
100,-0.811157,-7.489213,0.994663,0.007472,0.0,-36.716938,-41.313629,-5.629578,-42.606125,5.848045,-39.888439,4.067459,-34.585934,-7.514191,0.0,36.782312,7.732325,27.912792,-7.018737,19.481267,-23.48998,5.001783,-40.576072,-12.28685,0.0,62.605991,24.362411,87.757931,14.16584,85.911312,5.153847,72.488651,-2.445602,50.862064,0.0,26.281161,33.339109,57.663461,50.486581,71.770096,61.038368,82.313608,65.857679,84.869581,20.294209,329.900248,-55.87326,279.251572
101,-7.754059,-22.679197,0.753536,-0.17358,0.0,-1.756096,-30.259209,11.35128,-35.11694,17.429123,-35.194817,8.769379,-32.21283,-21.678143,0.0,7.589311,11.013927,25.894788,22.076575,36.388715,30.365086,42.816068,35.904654,49.471343,0.0,63.21167,24.386444,87.646866,14.270496,85.650215,5.272636,72.563782,-2.353992,51.233025,0.0,26.211877,33.166579,57.168531,50.482567,70.92041,61.276416,81.724385,66.334824,85.201366,12.504644,307.176359,-55.15523,279.0333
102,3.801613,25.501068,-0.129547,0.359264,0.0,-74.254532,-52.060604,-7.262077,-47.44051,9.250145,-39.415054,13.118477,-29.848824,-47.618752,0.0,31.777874,3.350454,26.241085,-8.598004,16.215967,-21.982344,4.9932,-35.026995,-3.715831,0.0,63.388252,24.733028,88.606339,14.641171,86.984596,5.623398,73.687935,-2.011871,52.010193,0.0,26.347295,32.949155,56.60685,50.33239,70.999636,61.152853,81.763597,66.25813,85.422618,16.254101,332.671977,-55.336933,279.387115
103,5.761642,3.902997,1.13348,0.422867,0.0,-68.876724,-50.51199,-12.240486,-47.371559,2.462311,-41.175156,5.43457,-33.12315,-10.517349,0.0,29.354973,1.709128,27.171478,-14.091135,16.74171,-30.871439,1.569757,-48.440728,-17.573179,0.0,62.791958,24.696808,88.355083,14.558716,86.278667,5.486412,72.555141,-2.214832,50.874882,0.0,26.332228,32.615641,56.038561,50.002828,70.414427,60.905111,81.241991,66.244422,85.451085,21.968994,336.562593,-54.250202,279.797601
104,0.042915,-1.719131,-5.7e-05,-0.258981,0.0,-60.230713,-44.162064,-11.75457,-42.888451,2.398338,-38.315792,3.585434,-32.027378,-10.747833,0.0,31.777194,2.409254,27.767555,-13.547052,18.058229,-31.171114,2.880101,-49.24089,-15.929816,0.0,62.681007,25.135746,88.975868,14.964352,86.198616,5.864124,72.65728,-1.803703,51.33831,0.0,26.436586,32.891419,56.893742,50.299663,71.155988,61.127227,81.460958,66.435786,85.947434,21.943846,334.823377,-54.318323,279.518535
105,-2.733078,-22.202299,0.611916,0.271208,0.0,-22.248344,-39.19939,0.66021,-40.542812,10.454178,-38.143673,8.952599,-32.909603,-5.868187,0.0,35.577685,11.316998,38.347253,9.621085,38.023495,6.251426,32.393155,1.593161,28.123052,0.0,62.702065,25.176716,88.737946,14.943123,86.077881,5.754433,72.202606,-1.910763,50.741272,0.0,26.549651,33.055675,56.773391,50.62095,71.072316,61.51045,81.263172,66.731818,85.369142,19.137268,312.61092,-53.779907,279.779585
106,-1.096344,25.346753,-0.174866,0.082375,0.0,-77.421112,-55.268326,-9.23687,-50.278244,7.717438,-41.517334,12.972794,-30.278435,-12.547874,0.0,27.310231,0.846783,26.477218,-15.088713,15.100013,-32.808488,0.549887,-50.433476,-22.091889,0.0,62.905655,25.455551,88.517075,15.305786,85.926476,6.145535,72.617455,-1.576195,51.653938,0.0,26.181063,33.268775,56.879169,50.647873,70.361198,61.364595,81.011415,66.540453,85.868641,17.989254,337.945879,-54.006443,279.850166
107,2.912979,-0.728346,0.139618,0.541798,0.0,-67.459202,-50.045528,-9.072876,-46.797695,5.142288,-39.807014,8.418732,-30.511436,-4.934807,0.0,30.238621,-0.34537,26.262821,-16.499957,15.885911,-33.645762,0.081078,-50.97021,-17.610415,0.0,62.82177,24.847927,88.919449,14.825363,86.486435,5.85783,72.95208,-1.59565,51.697998,0.0,25.631793,32.86783,56.359663,50.274962,70.718671,61.074924,81.025988,66.300368,85.461212,20.808792,337.206974,-53.960266,280.381404
108,0.714912,-1.685354,0.636177,0.236195,0.0,-60.648136,-45.330505,-11.354141,-43.137589,3.934135,-37.505951,5.715637,-30.156212,-7.786903,0.0,31.758113,2.234809,28.740927,-13.817766,18.344257,-31.413299,2.83385,-49.634425,-16.490077,0.0,63.024101,24.749622,88.282814,14.703655,85.293617,5.815372,72.071342,-1.507759,51.387978,0.0,25.828098,32.770635,55.701403,50.16906,70.307414,60.982854,80.839502,66.279805,85.266945,21.4042,335.494697,-53.443594,280.590676
109,1.178627,-9.973803,-0.582161,-0.637697,0.0,-37.753773,-44.319134,-7.142601,-44.77478,5.903778,-41.248169,6.709671,-34.738712,-5.068474,0.0,36.746435,9.06811,32.89747,-2.481934,25.883117,-15.252908,13.015875,-28.550426,-1.820587,0.0,62.574463,25.523129,87.849998,15.686359,85.610733,6.664696,72.321053,-1.101379,51.874123,0.0,26.659876,33.002014,57.326057,50.452989,71.659254,61.530951,81.772551,67.315297,86.222533,22.416286,325.524815,-54.192295,279.956901
110,-7.140656,-15.508739,0.030613,-0.079349,0.0,-12.306633,-31.392345,8.631706,-35.210495,14.929504,-34.602699,9.243965,-31.263027,-8.177948,0.0,11.81588,11.269944,25.839336,20.516698,35.503338,27.218347,39.287526,31.741379,43.902814,0.0,61.823215,25.587673,88.660069,15.606365,86.032391,6.409836,72.355213,-1.559086,51.650906,0.0,27.119484,33.315397,57.365639,50.74371,71.584597,61.691687,81.949713,67.267009,86.379626,14.930019,310.025137,-54.507294,279.886614
111,-2.212601,25.411159,-0.408268,-0.241691,0.0,-74.068451,-53.946762,-2.33757,-49.6875,13.818512,-41.332054,19.191284,-30.725555,-3.632927,0.0,30.533726,3.365089,27.800406,-10.121201,17.635979,-26.003839,3.533235,-41.620395,-16.779192,0.0,62.120247,25.176144,88.215637,15.072842,85.620575,5.9832,72.009315,-1.74614,51.404343,0.0,27.660665,33.520841,57.973942,50.89222,72.301396,61.717623,82.389623,67.181546,86.638175,12.428141,335.468468,-55.20484,279.677095
112,1.527786,-0.261019,-0.421143,0.288436,0.0,-70.019474,-49.801884,-5.761642,-45.067577,10.02697,-37.278957,14.924469,-28.292198,0.187683,0.0,32.465835,4.796093,30.172054,-11.188557,18.170367,-28.596801,4.133943,-46.0994,-14.577049,0.0,61.959457,25.007114,88.209801,14.888077,85.3759,5.8251,71.832047,-1.810455,51.18576,0.0,27.693022,33.54585,57.701376,50.926429,72.072673,61.707619,82.281189,67.039026,86.469472,13.61083,335.310171,-55.971079,280.068253
113,-2.317543,0.867593,-0.260582,0.035877,0.0,-57.309151,-47.253056,-4.919014,-43.517303,10.332184,-36.240578,14.033546,-27.315445,2.341919,0.0,31.460662,4.125236,27.583724,-10.021413,18.544204,-25.457534,4.449488,-41.43255,-11.878927,0.0,62.557869,25.072632,88.283844,14.820614,85.388832,5.639019,71.663933,-2.048779,51.075096,0.0,27.051559,33.604759,58.42472,50.804966,72.241683,61.526196,82.154848,66.823888,86.234203,10.94224,336.29543,-56.582708,280.221795
114,-6.027603,-5.343942,-0.159531,0.215447,0.0,-27.038326,-41.181049,7.447815,-40.588875,23.431206,-35.46936,22.084122,-28.049068,9.555244,0.0,34.242456,8.596954,30.33631,-1.725121,23.215932,-13.408731,11.116927,-25.402946,-1.429893,0.0,62.521362,24.938049,88.270226,14.56913,85.554543,5.335064,72.003365,-2.336998,50.896568,0.0,27.411749,33.608588,57.703599,50.968728,71.657092,61.786165,81.928779,67.066937,86.384874,4.705153,331.058146,-56.951723,280.543901
115,10.254707,8.917068,-0.296917,0.01377,0.0,-78.983116,-55.262432,-6.434555,-51.015244,9.136963,-42.728806,13.470383,-32.374077,-20.315323,0.0,27.898404,-0.079226,27.662456,-16.38152,14.149983,-34.775424,-1.77693,-53.128696,-27.398164,0.0,62.375965,24.649086,87.328205,14.490166,84.723759,5.441551,71.542568,-2.05267,50.981197,0.0,27.754958,33.453533,57.868658,50.766063,71.919346,61.619069,82.377767,66.966469,86.862761,14.637794,340.087893,-57.570705,280.67035
116,4.205132,-2.220298,0.06031,0.668263,0.0,-69.855137,-52.745419,-12.662659,-49.96027,2.599411,-43.420372,5.77137,-35.056686,-9.320869,0.0,32.544258,0.461214,29.678607,-15.359859,18.220818,-32.274903,3.052817,-49.36402,-15.125516,0.0,61.73521,24.779434,87.598858,14.675903,85.087681,5.617905,71.655865,-1.948185,50.704136,0.0,27.464113,33.362327,57.227688,50.372652,71.03508,61.065415,81.678937,66.37737,86.520849,18.578768,337.942313,-57.774553,281.413331
117,1.163635,-0.322522,-0.179787,-0.134925,0.0,-66.050606,-48.926239,-16.825218,-46.857204,-0.936241,-41.400948,2.610626,-34.229908,-9.317665,0.0,32.090145,1.81503,29.071168,-14.267494,18.786637,-31.847096,3.831181,-49.582123,-13.928114,0.0,61.666889,24.504147,87.433491,14.225807,84.955044,5.126438,71.393223,-2.415905,50.301762,0.0,27.792564,32.936188,56.910044,50.272245,71.547609,61.145752,81.955085,66.471169,86.406734,19.509087,337.65715,-58.187656,281.315765
118,-1.748772,-2.496569,-0.041485,0.0783,0.0,-52.260303,-44.603004,-13.1884,-44.385624,1.648064,-40.346203,4.11747,-33.843784,-8.389778,0.0,34.282594,4.000624,28.189248,-10.219137,20.441609,-25.738498,5.958483,-41.696966,-10.184619,0.0,61.32637,24.411221,88.004723,14.200287,84.961853,5.134621,71.413765,-2.422657,50.485497,0.0,28.652562,33.376777,57.586458,50.578219,71.681545,61.365954,82.079944,66.693718,86.399324,17.574348,335.265526,-58.415108,281.49901
119,-5.699387,-0.606574,-0.614548,-0.062244,0.0,-32.124195,-39.806042,0.414391,-41.180134,13.177414,-38.322544,11.083717,-33.03978,-3.492165,0.0,36.434596,8.032741,27.594407,-4.882543,19.168625,-19.695294,5.365185,-34.900962,-12.517797,0.0,61.899834,24.383354,89.035263,14.242344,85.679169,5.37632,72.440414,-1.742592,51.420135,0.0,28.177516,33.340468,57.875265,50.536722,71.879517,61.326866,82.564994,66.60418,86.971133,11.695948,334.753553,-59.20867,281.531367
120,5.298386,3.189471,-0.113583,0.382914,0.0,-78.862724,-57.266464,-9.578705,-53.215141,5.079575,-44.56089,10.765343,-33.540516,-37.074165,0.0,29.944195,1.127933,27.97164,-13.28344,16.228255,-29.59055,1.985523,-45.876234,-19.14164,0.0,61.669064,23.921528,88.739147,13.844662,86.391735,5.049191,73.073215,-2.207851,51.498127,0.0,28.431742,33.822615,57.30852,50.595632,71.369397,61.171934,82.106188,66.551877,86.776619,16.804075,338.008294,-59.51251,281.979551
