takenoko1/special-research/HandMotion_SimilarSearch_自分用/NewProject/handData/test_key/d4_feature_d2/7.csv
frame,vel_0x_L,vel_0y_L,vel_0x_R,vel_0y_R,posFromWrist_0x_L,posFromWrist_1x_L,posFromWrist_2x_L,posFromWrist_3x_L,posFromWrist_4x_L,posFromWrist_5x_L,posFromWrist_6x_L,posFromWrist_7x_L,posFromWrist_8x_L,posFromWrist_9x_L,posFromWrist_0y_L,posFromWrist_1y_L,posFromWrist_2y_L,posFromWrist_3y_L,posFromWrist_4y_L,posFromWrist_5y_L,posFromWrist_6y_L,posFromWrist_7y_L,posFromWrist_8y_L,posFromWrist_9y_L,posFromWrist_0x_R,posFromWrist_1x_R,posFromWrist_2x_R,posFromWrist_3x_R,posFromWrist_4x_R,posFromWrist_5x_R,posFromWrist_6x_R,posFromWrist_7x_R,posFromWrist_8x_R,posFromWrist_9x_R,posFromWrist_0y_R,posFromWrist_1y_R,posFromWrist_2y_R,posFromWrist_3y_R,posFromWrist_4y_R,posFromWrist_5y_R,posFromWrist_6y_R,posFromWrist_7y_R,posFromWrist_8y_R,posFromWrist_9y_R,posFromBody_0x_L,posFromBody_0y_L,posFromBody_0x_R,posFromBody_0y_R
2,5.961113,0.597867,53.104362,2.491506,0.0,-74.601402,-37.780094,-92.000427,-29.728775,-90.737743,-19.773216,-76.607094,-8.641434,-54.986115,0.0,5.321465,34.009472,61.845569,49.426265,77.471264,60.075123,87.12977,66.490682,89.598551,0.0,-34.297028,-3.827019,-62.112522,-1.403046,-67.782726,1.024246,-63.597565,2.567253,-36.591167,0.0,19.149667,14.472938,55.68436,28.616376,64.791311,38.146564,65.166754,44.072381,68.434771,26.322641,287.234666,1.651812,298.821945
3,-0.544739,0.155179,-39.107666,2.663728,0.0,-74.618626,-37.061234,-90.684929,-29.165497,-91.117516,-19.658203,-76.593304,-9.484406,-55.729351,0.0,5.105895,32.265455,62.224099,48.313708,77.182396,59.572413,85.706731,66.196565,89.01643,0.0,33.085442,34.114609,-26.305962,43.627968,-28.380604,48.398552,-22.827816,50.098457,52.725334,0.0,21.919667,11.898563,58.838139,20.97291,56.343237,27.452442,60.044742,31.599291,57.471355,26.635323,287.184,-36.598434,301.279828
4,-0.82798,0.062553,30.05619,5.887531,0.0,-73.72982,-36.682606,-90.620956,-29.183693,-91.319447,-19.953461,-78.079205,-9.83139,-57.246437,0.0,5.338941,32.247238,61.558059,48.477346,76.633064,59.955883,84.770225,66.828951,87.697503,0.0,-29.38385,0.402374,-52.815857,6.562729,-60.975838,11.300926,-52.588577,14.373207,-21.450119,0.0,-9.826405,6.587719,37.604272,21.998708,53.339265,34.966233,60.575549,45.257803,66.567438,26.529493,287.149141,-5.820093,307.069948
5,-0.899391,0.514319,-33.736382,-11.906838,0.0,-71.533184,-36.034241,-89.497089,-28.525658,-90.515614,-18.847504,-76.679592,-7.947693,-54.685936,0.0,4.636468,31.302889,60.938703,47.160519,75.989316,58.542416,84.645983,65.554423,87.893746,0.0,29.883728,38.226357,-24.243221,49.439163,-25.186901,54.262619,-19.12302,55.415726,56.657066,0.0,22.712481,14.571862,62.438682,27.661591,61.11253,37.401916,65.381892,44.350751,67.166294,26.061888,287.533461,-39.124689,295.03311
6,-1.169243,-0.298007,33.231926,1.036975,0.0,-70.106163,-34.31757,-88.495445,-26.622391,-88.987942,-16.733208,-75.170631,-5.752373,-53.042221,0.0,5.670911,31.239348,61.131982,47.375163,76.682094,58.884514,85.328942,65.759619,88.405904,0.0,-16.000557,10.866623,-45.311394,16.732864,-58.378658,18.706169,-54.734402,18.160744,-21.897583,0.0,14.054023,13.53285,54.962868,27.68555,62.899834,39.003474,68.600262,46.975761,73.404258,25.221491,286.992465,-5.563917,295.827097
7,-0.035133,0.151227,-22.927895,-0.53797,0.0,-70.625324,-34.314594,-88.386841,-26.664963,-88.511696,-16.622772,-74.153423,-5.398407,-51.997948,0.0,5.504617,30.674332,61.286728,46.919013,77.019992,58.490484,85.765826,65.548927,88.552437,0.0,16.703796,27.027283,-33.94392,37.355347,-34.072495,42.711525,-27.993679,45.119591,35.597076,0.0,20.620686,12.268078,61.971417,25.389917,61.318653,35.414108,66.225835,42.58611,66.717245,25.40102,286.937677,-28.277149,295.083112
8,-0.495529,0.380877,27.506218,9.993316,0.0,-70.639343,-34.442425,-88.392448,-26.832733,-88.475704,-17.003059,-74.773235,-6.126709,-53.007488,0.0,4.975169,29.896894,60.47119,46.039563,76.193525,57.756025,84.471847,65.083082,87.125571,0.0,-33.818607,-6.705322,-61.869621,0.478134,-65.557308,6.50425,-56.414909,11.206055,-19.473267,0.0,-10.14022,5.587301,33.433032,20.455812,55.195297,33.639525,64.22191,45.061993,68.353322,25.023479,287.275189,-0.652943,305.033064
9,-0.319176,-0.343209,-25.459557,-7.909734,0.0,-69.200592,-34.312763,-87.622604,-26.559105,-88.111324,-16.100349,-74.082355,-3.988037,-50.766964,0.0,5.059582,30.41251,60.250247,45.75403,76.094971,56.896953,85.432498,63.923594,88.315192,0.0,20.671635,26.958961,-35.944862,35.988693,-36.982327,40.340996,-32.193089,42.109451,27.206268,0.0,22.691177,10.409514,60.163365,22.961397,59.0957,32.743712,64.876156,39.863719,64.53622,24.776516,286.899886,-26.040287,297.091236
10,-0.370216,-0.050574,-9.589176,5.748469,0.0,-69.577732,-33.983803,-87.701397,-26.272545,-88.026295,-15.827065,-73.604565,-3.821526,-50.440521,0.0,5.224826,29.775122,60.062773,45.381366,76.055945,56.70423,85.213407,63.829857,88.220405,0.0,37.064953,36.08717,-25.942211,45.325756,-27.52676,49.0872,-23.225098,49.685612,35.299129,0.0,25.455187,8.462091,59.214755,16.643712,54.583412,22.453376,58.484371,26.145618,56.005771,24.483032,286.826619,-35.552731,302.817012
11,-0.302582,0.025132,5.699844,-7.972225,0.0,-69.310169,-34.142303,-88.162079,-26.51001,-88.936157,-16.228523,-74.762993,-4.513779,-51.845341,0.0,5.097435,29.829401,60.526334,45.745631,75.662101,57.360452,84.824256,64.775071,87.667739,0.0,18.049393,28.971691,-32.358398,38.951626,-34.278431,43.892841,-29.568501,46.088505,22.420807,0.0,18.01488,11.461062,61.70484,24.974645,61.048927,35.716006,67.122698,43.456667,68.324114,24.268055,286.743626,-29.765282,294.736662
12,0.197067,0.151968,0.841198,1.161649,0.0,-69.220219,-34.183559,-88.171692,-26.686935,-88.433361,-16.459122,-74.497032,-4.586906,-51.163445,0.0,4.874454,30.087579,59.607549,45.762119,75.411641,57.105422,84.813079,64.294529,88.405039,0.0,20.433998,26.67263,-33.611698,35.910416,-35.301762,40.730209,-30.273857,43.478394,39.803925,0.0,21.406027,12.702677,62.863587,24.42482,60.424445,33.163059,64.92111,39.1836,63.302138,24.527378,286.860659,-28.861828,295.863375
13,-0.589485,0.27059,25.305176,9.722726,0.0,-69.305763,-34.302006,-88.577671,-26.516418,-88.758602,-16.488762,-74.944439,-5.102577,-53.137035,0.0,4.010504,30.249119,59.679797,45.883397,75.110978,57.26091,83.993219,64.584262,87.684721,0.0,-34.017048,-3.18861,-60.819798,4.649849,-65.918427,10.689926,-54.801865,14.715729,-2.652969,0.0,-15.084391,1.369007,24.564252,18.303254,52.605608,33.773276,64.009736,47.169102,65.863545,23.956032,287.101115,-3.538513,305.555967
14,-0.380058,0.266762,-33.959084,-18.572054,0.0,-68.203354,-33.628235,-87.876434,-25.900726,-88.516502,-16.010513,-75.117531,-4.931602,-53.498783,0.0,4.031623,29.997486,59.182706,45.82177,74.698424,57.386572,83.266355,64.843675,87.110195,0.0,14.808369,37.473907,-26.723728,46.667061,-26.425781,50.079803,-19.100933,50.842781,72.564697,0.0,7.960678,18.495422,65.19028,35.586207,68.775386,47.842922,73.611678,57.222995,71.679508,23.645239,287.353721,-37.428331,286.969756
15,-0.196838,-0.108742,36.446228,6.363936,0.0,-68.075352,-33.538513,-87.602749,-25.783539,-88.000889,-15.7798,-74.558144,-4.527969,-52.49794,0.0,4.698342,30.31019,59.222474,46.081924,75.058676,57.522547,83.688913,64.765129,87.475325,0.0,-33.004189,0.939331,-56.891556,9.891701,-66.918926,16.460495,-55.366974,21.090546,0.315399,0.0,3.861747,7.827173,48.408433,27.55291,63.78762,43.952646,73.680406,56.13483,73.715172,23.491945,287.229077,-0.938559,293.317791
16,0.239983,0.13264,-20.703449,-6.344052,0.0,-68.743458,-34.032955,-87.685604,-26.463089,-88.111095,-16.44516,-74.164867,-5.034828,-52.179108,0.0,4.299928,30.539469,59.422607,46.210859,75.238616,57.471355,84.102641,64.603713,87.673667,0.0,-8.717995,19.039364,-46.922493,26.743298,-44.120579,31.793575,-35.398808,35.759983,45.120449,0.0,-2.116557,16.24499,59.396301,35.521369,67.962812,50.160354,74.779564,61.560776,76.420581,23.761024,287.34807,-21.612911,286.960093
17,0.101395,-0.005619,-5.608006,5.549695,0.0,-68.993626,-33.95771,-87.990761,-26.37886,-87.933369,-16.406136,-73.926258,-5.04261,-51.783314,0.0,4.227248,30.350883,59.45342,45.969477,75.426029,57.241767,84.149695,64.312622,87.85793,0.0,16.179199,30.93544,-36.333733,41.115303,-34.41164,43.63266,-28.320866,41.773567,19.904995,0.0,19.724687,11.339784,46.030733,31.431145,59.069086,46.978972,69.78766,59.240134,73.85164,23.883791,287.313922,-27.199545,292.481259
18,-0.214462,0.073236,4.008808,-6.928087,0.0,-69.204884,-34.795876,-87.692986,-27.045364,-87.585354,-16.794548,-73.391075,-5.030479,-51.277256,0.0,3.761094,30.294937,59.258351,45.910567,75.382309,57.096098,84.256399,64.100015,87.780928,0.0,-8.775158,22.60397,-44.549332,30.911579,-42.957802,35.659618,-33.792973,38.815784,32.412815,0.0,-1.718205,16.26827,61.71966,36.110529,68.722651,51.220052,76.163082,63.22001,80.696612,23.676739,287.374021,-23.183327,285.540034
19,-0.300407,0.232676,-3.771515,7.770857,0.0,-68.97583,-35.379581,-87.202892,-27.350807,-86.816826,-16.718216,-72.725716,-4.72332,-50.305023,0.0,3.791969,30.254367,59.498066,45.919582,75.912498,57.171001,84.352051,64.137806,86.589268,0.0,19.653111,32.168598,-36.771755,41.541882,-37.198334,43.045292,-32.026405,40.093288,34.476757,0.0,23.731918,11.609077,48.017306,30.281105,58.545689,44.494012,69.253581,55.717397,69.637113,23.420191,287.578446,-26.910982,293.28264
20,-0.70507,0.030381,4.037075,-7.685642,0.0,-68.373413,-34.30315,-86.549549,-26.111984,-86.103802,-15.206223,-71.582737,-2.780228,-48.755836,0.0,3.282158,30.974748,58.876424,46.491515,75.715947,57.395896,84.611958,63.968302,86.680721,0.0,-2.513924,24.203796,-43.725128,31.04599,-43.479366,34.715309,-35.804672,37.414856,28.624535,0.0,-2.983718,17.01088,62.771146,36.751128,69.739125,51.461188,76.906557,63.352094,81.728338,22.733774,287.576331,-22.855253,285.564502
21,0.511551,-0.423608,-4.505711,18.084164,0.0,-69.166145,-34.449692,-86.917763,-26.369133,-87.094402,-15.713539,-73.265362,-3.703995,-51.100159,0.0,4.20403,30.515633,60.013558,46.366223,75.834508,57.866249,84.475984,65.074066,87.666195,0.0,45.288448,36.355076,-34.796848,43.012104,-36.446629,42.186985,-35.762901,37.154789,28.61887,0.0,41.923713,10.50251,48.674453,19.278664,51.969208,26.07405,58.778179,31.44368,54.817878,23.240976,287.098136,-27.365313,303.594079
22,0.264473,0.383717,5.297241,-17.144137,0.0,-69.008389,-34.526997,-87.365971,-26.483574,-87.322083,-15.913811,-73.896847,-3.937569,-51.401653,0.0,3.898304,30.339953,59.30843,46.158186,75.437514,57.685074,84.281717,65.003053,87.372387,0.0,-3.247776,22.195759,-45.832844,29.553394,-44.509048,33.967953,-35.802612,37.24268,34.666386,0.0,-3.169525,17.125242,62.505249,36.503324,68.719625,50.755072,76.436142,62.10523,79.527923,23.506908,287.403661,-22.066612,286.37175
23,1.035461,0.051253,-5.110188,15.538565,0.0,-69.312973,-34.894295,-88.368816,-26.893845,-88.405266,-16.466904,-74.687176,-4.75502,-52.381668,0.0,3.992967,30.610297,59.715612,46.443967,75.432204,57.854393,84.499881,65.020282,87.414686,0.0,41.976929,34.236717,-36.699486,41.893158,-36.704693,42.28569,-33.856831,38.306923,21.775303,0.0,42.063887,10.770075,49.36013,21.613879,53.765775,29.68966,60.555418,35.796467,60.091487,24.528208,287.375735,-27.190962,301.831136
24,-0.041885,0.181484,10.427227,-16.178731,0.0,-70.291157,-34.746323,-88.118362,-26.786156,-88.314114,-16.302795,-74.579773,-4.483337,-52.147236,0.0,3.634876,30.22942,59.424521,46.133733,75.071087,57.605477,84.328647,64.789953,87.450501,0.0,-12.772236,16.418896,-50.509872,23.364887,-49.970798,28.170719,-42.342281,32.502193,11.502399,0.0,-5.151775,15.835831,59.190178,36.42558,68.020055,52.427273,76.859071,65.448459,82.2463,24.463406,287.454312,-16.786652,285.549497
25,0.623703,0.169073,-11.680412,2.419381,0.0,-69.757805,-34.818821,-88.342552,-27.1241,-89.015808,-16.602745,-74.850655,-4.175606,-51.602669,0.0,3.517118,30.052073,58.385632,45.762675,74.399984,57.110177,83.987044,64.259331,88.544966,0.0,5.117855,26.972294,-35.47245,35.563831,-34.082165,40.498409,-26.288166,43.79282,58.519993,0.0,-0.469241,16.22702,62.687907,34.396214,68.067294,47.952344,73.740428,58.095405,73.314412,24.985285,287.485944,-28.568888,287.831437
26,-0.521851,-0.762494,12.387257,0.843264,0.0,-68.657284,-34.71571,-88.608799,-27.057037,-88.807869,-16.650467,-73.591347,-4.273567,-50.719013,0.0,4.409906,29.60006,59.842633,45.299979,75.248805,56.733685,84.835989,64.242535,89.369889,0.0,-15.965252,19.51561,-42.608242,30.370789,-50.57888,36.025429,-40.651875,38.070374,6.429634,0.0,10.867949,11.817856,58.967197,31.617384,70.747138,46.954211,77.067169,58.20563,82.667808,24.386072,286.515474,-16.258993,288.466725
27,0.685616,-1.130897,16.039467,8.752503,0.0,-68.404083,-33.118286,-88.969574,-24.80381,-88.767586,-14.193192,-73.751335,-2.23732,-50.161915,0.0,5.819668,29.694723,62.342969,45.274723,77.923401,56.442594,87.847742,63.504371,89.980539,0.0,-36.384888,-5.002613,-62.551746,3.948784,-67.821636,12.420731,-55.315876,19.152603,-2.014389,0.0,-5.007217,6.687755,40.431329,24.29817,61.824821,39.112279,69.657367,50.991761,74.51027,24.984255,285.280944,-0.306959,297.115596
28,0.532494,-1.941248,-46.709347,-2.602842,0.0,-68.672161,-32.249165,-89.148502,-23.80188,-88.817768,-13.257637,-74.647121,-1.799927,-51.638317,0.0,6.186095,29.245551,64.491204,45.27003,79.573372,57.103385,89.213846,64.9271,91.457177,0.0,41.345844,46.709461,-9.264164,59.14381,-9.000378,63.988667,-0.777912,63.834858,63.923435,0.0,22.586263,8.358783,64.386784,21.677235,65.010216,31.563847,68.093106,38.761475,64.707207,25.428371,283.195154,-47.104683,294.368212
29,0.308647,-2.722205,24.517708,3.765293,0.0,-66.370239,-29.489937,-87.009315,-21.208649,-86.539936,-10.640831,-73.097591,0.804863,-51.000938,0.0,8.360265,26.653577,63.619844,43.4529,80.716063,56.580482,91.11897,65.737636,94.713091,0.0,23.937664,32.507343,-24.299583,37.564831,-31.650295,36.791782,-25.439758,33.598995,23.356647,0.0,38.017938,15.503182,70.095239,21.592328,67.913165,23.528821,63.142081,22.426515,55.548571,25.570107,280.350622,-22.753887,298.011178
30,4.434814,-8.752936,-18.521976,24.457115,0.0,-64.597778,-29.042931,-85.634823,-20.89325,-84.786701,-10.375671,-71.768475,1.306114,-47.674599,0.0,10.419147,27.499187,65.060728,44.326113,84.991662,57.099433,94.937677,65.874166,98.722668,0.0,79.439392,56.178131,3.77243,56.472473,-5.223885,49.769554,-11.811733,40.31456,18.941116,0.0,40.096519,-1.072296,48.174954,-12.769429,35.148829,-24.9794,18.545192,-38.859596,-6.056542,29.981747,271.63364,-41.299038,322.504247
31,7.049675,-12.733799,4.103794,-4.413178,0.0,-63.000698,-29.687004,-85.743942,-21.293793,-83.299484,-10.969276,-69.041348,0.151634,-44.595966,0.0,11.417404,29.662428,66.485866,46.686831,83.827296,59.309171,92.732755,67.64523,96.241228,0.0,77.051296,47.950115,21.310329,40.423679,7.11977,29.586868,-1.566982,17.386093,27.554455,0.0,30.4834,-5.605023,31.468689,-12.848161,20.882569,-20.377636,11.051595,-28.54913,-9.270775,36.991682,258.995816,-37.234983,318.187044
32,7.208405,-12.838713,5.723248,5.09126,0.0,-62.183361,-21.548195,-84.104576,-14.007912,-83.444996,-6.42231,-69.284592,0.425835,-46.00811,0.0,6.049997,18.637756,56.419622,38.221344,74.941164,53.66506,83.414741,64.575123,88.504766,0.0,68.874779,38.052406,24.602165,36.078644,15.669136,30.869522,8.500957,21.874008,28.740692,0.0,9.029269,-3.791969,1.578094,-18.978248,-12.20676,-33.637487,-22.637886,-45.657884,-45.957682,44.346313,246.189151,-31.365509,323.310353
33,15.541477,-29.543497,6.33007,-36.561863,0.0,-52.413225,-43.311424,-96.525707,-37.413769,-88.729248,-28.50008,-70.518093,-17.956181,-50.523319,0.0,-3.993986,20.769473,43.199075,39.430818,69.170866,53.48055,80.303107,63.333538,85.658041,0.0,51.71093,34.929543,33.361931,35.078316,26.969261,35.781212,26.731339,35.009651,38.401909,0.0,24.715664,-2.089449,-1.324485,-23.167767,-23.151773,-41.365304,-40.060889,-58.900136,-56.337433,60.282726,216.641286,-24.640503,286.74412
34,15.541477,-29.543497,-18.894739,-26.230772,0.0,-42.643089,-65.074654,-108.946838,-60.819626,-94.0135,-50.57785,-71.751595,-36.338196,-55.038528,0.0,-14.037968,22.90119,29.978528,40.640293,63.400568,53.29604,77.191473,62.091954,82.811316,0.0,71.506033,53.100156,69.989004,52.54981,65.004701,50.415659,58.170862,45.014763,63.315382,0.0,17.40528,-7.745786,-19.65917,-23.824853,-35.495897,-37.688005,-45.49795,-50.494763,-56.100033,75.949974,187.617805,-43.409471,261.033364
35,15.471954,-39.77659,-18.894739,-26.230772,0.0,-42.463074,-64.03347,-86.764641,-63.107758,-77.986679,-54.894562,-62.531204,-41.491013,-50.645828,0.0,-14.964348,18.629173,32.2473,37.769392,44.769419,52.595419,54.469606,64.648297,61.298275,0.0,91.301136,71.270771,106.616077,70.021305,103.040142,65.050106,89.610386,55.019875,88.228855,0.0,10.094896,-13.402124,-37.993855,-24.481939,-47.84002,-34.010707,-50.935013,-42.08939,-55.862634,91.515942,148.491586,-62.210197,235.452962
36,14.04253,-36.352051,-10.10416,-64.865659,0.0,-37.511444,-65.107956,-81.656742,-67.496739,-78.621998,-62.357025,-67.501774,-51.693478,-57.394066,0.0,-17.091927,6.143101,21.840982,24.838192,35.708472,40.773704,46.417383,54.348436,53.800124,0.0,75.260239,56.024151,106.009369,51.398392,97.12738,45.028553,79.794502,38.344231,66.810093,0.0,-5.941316,34.678599,30.505321,50.954526,40.748171,59.410257,50.138556,62.6905,56.106671,105.761519,116.65522,-72.111311,175.102988
37,14.04253,-36.352051,0.813789,-28.853621,0.0,-32.559814,-66.182442,-76.548843,-71.885719,-79.257317,-69.819489,-72.472343,-61.895943,-64.142303,0.0,-19.219507,-6.342971,11.434663,11.906992,26.647526,28.951989,38.36516,44.048576,46.301972,0.0,70.051918,52.229176,99.55101,43.915215,94.744835,34.857388,73.429184,25.513115,57.170391,0.0,-3.541695,32.757853,37.769207,52.524839,44.493024,64.48083,49.979178,70.265238,59.454593,120.220184,82.582037,-70.881386,148.528235
38,10.428829,-29.229619,1.526642,-22.80066,0.0,-28.526173,-62.10371,-79.746037,-68.158436,-84.790478,-66.65411,-80.570984,-59.253159,-72.528133,0.0,-26.636766,-10.78383,-3.554709,6.116054,11.074103,22.226999,22.793173,37.999644,34.046599,0.0,69.778748,49.400768,103.329048,41.680069,96.134834,33.509502,73.185654,25.328865,59.038754,0.0,-8.635548,29.709914,38.33268,50.848871,44.679078,63.983369,48.428934,70.565036,57.794372,130.829058,56.117524,-69.1747,128.492681
39,10.428829,-29.229619,3.46756,-16.783021,0.0,-24.492531,-58.024979,-82.94323,-64.431152,-90.323639,-63.488731,-88.669624,-56.610374,-80.913963,0.0,-34.054025,-15.224688,-18.544081,0.325116,-4.49932,15.502009,7.221186,31.950713,21.791226,0.0,71.175385,50.650864,111.697311,43.973122,110.187378,34.884624,96.112175,25.429344,77.99057,0.0,-16.822387,29.088581,40.831225,48.88564,47.600552,61.20565,56.290255,66.921021,59.184744,142.079287,28.802986,-64.88574,113.624741
40,16.402359,-8.513869,0.590401,-10.9724,0.0,-40.271645,-33.083611,-102.289124,-39.477425,-115.061302,-43.711166,-112.296295,-46.29055,-99.595413,0.0,-43.635311,-14.44938,-34.640653,4.344635,-20.535841,22.243888,-8.310401,38.519969,12.001687,0.0,74.56501,49.140244,112.344475,44.00465,114.07402,35.97908,101.199417,26.858082,80.036659,0.0,-15.113135,28.984563,42.311845,50.022311,54.886576,63.740782,64.253805,71.15219,65.66616,159.60886,21.871579,-63.168125,104.234803
41,3.605576,-1.634225,6.486225,3.182091,0.0,-40.499153,-24.408417,-100.386314,-30.726471,-115.756187,-36.599579,-113.271675,-41.081085,-103.276978,0.0,-46.682879,-14.414553,-35.639003,2.941357,-25.498073,20.141502,-10.363386,35.990857,9.039334,0.0,72.793407,49.386864,111.064854,43.173809,111.590939,34.749355,96.601009,26.409988,77.917156,0.0,-12.919421,29.030042,44.424049,48.547742,54.813062,61.819325,64.263098,70.153655,66.985365,164.521837,21.312043,-55.374498,108.491584
42,-1.695442,2.039647,5.439034,9.808219,0.0,-40.269241,-21.580238,-100.911713,-28.53035,-113.640633,-34.77356,-111.206017,-39.33918,-99.789047,0.0,-45.764774,-9.615218,-28.534402,9.756658,-18.0565,27.254656,-4.272696,42.36773,13.923761,0.0,71.690083,46.02396,106.866245,39.408245,106.880322,30.914726,92.132092,22.105007,72.767086,0.0,-10.597945,28.795483,48.836456,48.373945,59.169029,62.098468,68.184959,70.562659,70.304419,163.462286,23.09521,-49.299574,118.043323
43,0.480537,8.886625,3.766136,12.858998,0.0,-40.757904,-26.545029,-102.014008,-33.344078,-114.760323,-38.902473,-111.763344,-42.596283,-102.162437,0.0,-42.452513,-6.837777,-26.661945,11.99264,-13.433123,28.326056,-1.07032,42.507224,18.949411,0.0,72.585011,45.85413,105.127888,39.026585,105.021114,30.591888,90.709133,21.705952,71.283703,0.0,-6.020017,29.596231,51.150213,48.819258,61.776718,62.121532,71.098683,70.399977,71.835922,165.65732,31.564233,-43.818941,130.484718
44,-2.597694,7.430798,4.142647,8.050401,0.0,-39.501915,-24.653664,-103.3992,-31.144066,-114.706421,-36.130943,-112.400436,-39.46804,-99.993553,0.0,-38.507372,-2.846848,-22.817765,16.233195,-10.167113,32.203025,3.449162,44.910735,22.468505,0.0,73.381062,43.560505,102.282772,35.055485,102.076893,25.444164,86.415081,16.014175,66.567822,0.0,-5.200249,34.338601,55.073957,53.212738,65.439937,65.715468,74.307729,72.90124,74.817046,164.333696,39.35627,-38.402224,138.89636
45,-0.736771,2.455351,-0.614033,-1.68523,0.0,-42.877007,-21.852608,-102.034035,-29.204407,-114.426613,-35.291061,-114.714317,-40.056038,-102.019043,0.0,-36.835695,-4.206901,-23.187558,15.318178,-13.075403,31.812948,1.927199,44.994499,20.361951,0.0,73.307419,45.281754,104.384422,37.613869,103.99395,27.735901,87.968559,17.904911,68.076096,0.0,-2.30539,35.660801,54.967376,53.94374,65.402825,65.986676,73.403023,73.455635,74.264874,163.942795,41.758052,-38.670387,137.157561
46,1.602402,-4.271461,-1.202488,-7.46544,0.0,-43.523827,-24.006958,-100.998573,-31.96209,-115.029373,-38.555374,-115.810661,-43.516273,-105.103798,0.0,-38.826127,-4.911319,-25.983709,14.819883,-15.689205,30.758189,-0.985876,43.515793,16.465593,0.0,72.246494,44.223347,103.008556,37.566032,102.347431,28.350449,88.886433,18.464813,68.505993,0.0,-5.202163,31.910884,52.495569,51.650515,64.554066,64.839353,72.058161,72.427861,72.456081,165.756712,37.011067,-39.66136,129.216596
47,-1.799583,-10.27391,-1.898232,-11.547821,0.0,-43.145485,-22.31163,-96.918411,-29.833374,-110.700302,-36.392784,-111.888771,-41.720123,-101.95816,0.0,-41.031543,-6.388512,-28.150129,12.155075,-17.973013,28.095388,-3.697306,41.143064,14.397047,0.0,72.752323,44.216423,102.854977,38.144588,103.547344,29.151764,90.236607,19.16502,69.033108,0.0,-5.909514,34.228686,50.447987,54.049148,61.47729,66.550025,70.229855,73.023382,70.548055,163.86466,26.79602,-41.65206,117.727639
48,-2.499161,-8.47898,-2.147884,-11.365225,0.0,-39.508667,-17.744179,-89.92424,-25.070343,-102.030716,-32.381973,-106.541061,-39.148407,-98.365631,0.0,-46.066826,-9.460348,-33.088495,8.258068,-22.492001,24.267202,-8.349181,37.864581,10.311516,0.0,73.202362,44.903526,103.569946,38.908253,103.86898,30.001202,90.809326,20.074825,70.73513,0.0,-8.230558,33.120266,48.998643,53.188347,59.528694,66.001928,68.677944,72.792497,70.201326,161.976099,17.776446,-43.189344,105.82182
49,-0.013275,-5.556148,-1.803074,-6.551472,0.0,-37.094421,-16.653442,-86.358376,-25.25322,-100.715446,-33.417206,-104.706573,-40.54081,-98.048401,0.0,-49.25642,-10.54765,-35.612574,6.478236,-25.368026,22.140579,-11.492431,35.472493,5.354255,0.0,71.190319,45.676517,104.648151,40.012207,104.064846,31.287746,91.229839,21.206303,70.582294,0.0,-10.442056,30.182305,44.38811,49.938793,55.699057,63.021915,64.714741,70.949371,67.628989,162.206268,10.132702,-44.748974,97.182752
50,4.352303,-1.678716,-0.591488,-0.157649,0.0,-39.735603,-20.445786,-90.879707,-29.748688,-104.427795,-37.948837,-107.743607,-45.201645,-102.76371,0.0,-50.176007,-11.132148,-36.227979,7.178238,-26.950782,23.442309,-12.618789,37.194959,5.169034,0.0,71.755142,47.120247,105.493126,41.070442,105.088692,32.121391,89.816208,22.780952,71.439056,0.0,-10.19064,29.956113,42.907274,49.172718,53.085718,62.469496,62.741691,71.220949,66.344951,166.885157,7.832021,-45.013876,96.403138
51,1.893425,10.032373,1.806736,5.450122,0.0,-39.047699,-24.086151,-99.255524,-31.218109,-111.333961,-37.279701,-110.267601,-42.588158,-102.091141,0.0,-45.928197,-9.979793,-34.246686,7.814885,-24.040207,24.352572,-9.848326,38.575884,9.360282,0.0,71.665134,45.526314,101.834507,38.943043,100.221004,30.334167,86.313915,21.155376,66.671734,0.0,-8.615078,30.591432,44.136694,49.729552,53.983229,63.115497,63.405724,71.725543,68.408619,169.027548,17.037263,-42.958174,101.026129
52,-3.733749,15.661788,2.155151,11.826655,0.0,-32.246017,-24.704018,-95.221939,-31.297989,-106.715355,-36.117325,-105.409355,-39.625282,-97.820778,0.0,-45.131925,-8.058738,-30.747506,7.985471,-18.6573,21.809628,-5.838841,33.11443,12.77508,0.0,71.331654,43.04987,99.56686,36.156864,98.216915,27.748547,85.647869,18.657818,64.499416,0.0,-6.638972,30.80586,47.085615,49.053972,55.581669,62.146294,64.981379,70.633703,70.243934,165.257463,32.719336,-40.839357,112.873069
53,-0.41256,11.603119,0.838509,12.953569,0.0,-36.885223,-27.281113,-91.762848,-33.999481,-104.947586,-37.551041,-102.745514,-39.548492,-91.58329,0.0,-31.992147,-3.363607,-19.268259,8.374714,-6.972363,17.823145,3.711416,24.534581,16.209174,0.0,70.711269,41.440315,96.665668,34.021797,94.859676,25.229359,81.00832,15.811787,60.517445,0.0,-1.135436,33.549802,51.0637,51.450258,61.062018,63.651954,70.245416,70.891449,73.275015,164.84622,44.309996,-39.999533,125.81418
54,-1.511078,24.887886,-0.781345,10.764394,0.0,-37.249146,-31.997223,-93.111877,-42.860069,-106.664658,-49.615974,-108.858948,-52.325478,-101.210861,0.0,-40.526548,-6.593153,-28.610602,12.123181,-16.062054,26.505531,-2.56539,36.976702,9.022908,0.0,72.056007,39.270802,97.062607,31.257591,95.19104,22.232494,82.061577,13.273087,61.850166,0.0,2.427841,35.579661,53.621897,54.006355,60.540351,65.788333,68.7886,72.414523,72.087246,163.319693,70.090963,-40.796328,137.471654
55,5.952988,6.676979,-2.809353,3.591404,0.0,-38.330498,-25.756874,-98.710556,-33.881264,-113.941612,-40.308037,-113.479614,-44.52198,-103.467751,0.0,-39.86162,-2.933515,-31.068608,15.396261,-20.063975,30.106815,-6.301012,41.027869,11.385325,0.0,73.582249,40.909595,98.594456,32.300949,94.6451,22.219677,80.775433,12.370319,59.447308,0.0,3.821918,38.882258,52.473215,56.686816,61.864959,67.335243,69.776731,72.926372,70.846248,169.389639,77.566144,-43.488722,141.861259
56,4.557838,-1.681525,-2.410412,-0.918352,0.0,-40.901871,-25.734444,-98.933601,-34.364548,-113.581009,-41.166115,-114.822121,-45.884285,-104.772835,0.0,-36.319061,-0.772405,-28.120582,18.808342,-21.48516,34.117936,-6.826385,45.517989,12.725371,0.0,73.982391,42.362366,98.888168,34.036331,95.295868,23.530312,81.068802,12.65213,60.573807,0.0,3.445611,38.057396,51.18714,56.19553,61.246652,66.919848,69.826872,72.62855,71.166794,173.938179,76.829801,-45.908432,141.88809
57,1.228981,-1.061829,-1.655045,-1.120029,0.0,-40.340652,-25.252304,-98.989906,-33.520775,-115.036011,-40.434036,-116.613693,-46.010857,-105.78289,0.0,-37.157384,0.664187,-31.109672,19.572719,-23.385344,34.165144,-8.533228,44.423895,10.533694,0.0,74.930878,43.065434,99.776917,34.763489,96.596489,24.067612,80.670319,12.727776,57.910309,0.0,1.173567,36.771876,50.25125,55.146946,62.434298,66.241952,70.151309,72.502888,70.879222,175.120497,76.627445,-47.61014,141.627534
58,-0.057678,-1.894317,0.976639,-2.96791,0.0,-41.235352,-26.459084,-100.446968,-34.67411,-115.637283,-41.377831,-116.548576,-46.626778,-105.468063,0.0,-38.721028,-1.208147,-31.822303,17.698039,-22.705287,32.609096,-7.047482,43.148039,10.910588,0.0,74.583321,43.32613,99.31675,34.715767,96.278572,23.540554,81.469231,12.119522,61.172562,0.0,3.305932,37.779705,52.636977,56.387327,62.861302,67.918599,72.114972,74.203,73.294158,174.792681,75.089365,-46.903639,139.015862
59,-0.537987,-0.799668,-0.267677,-1.258844,0.0,-40.416641,-25.850258,-99.683647,-34.569397,-114.161911,-41.592407,-115.424881,-46.718903,-105.02346,0.0,-38.979639,-2.291867,-31.797448,16.578133,-24.656353,31.527074,-9.439878,42.513152,9.851661,0.0,73.723755,42.928505,99.645195,34.898357,96.535835,24.429874,81.876755,13.351536,60.878563,0.0,1.675042,37.09514,52.811978,55.611001,64.03104,67.131837,72.591685,73.657867,73.172571,173.863449,74.614165,-47.562561,138.081486
60,-0.569572,-0.033901,-0.802574,-0.182349,0.0,-39.963112,-25.323944,-99.347305,-33.802299,-113.763885,-40.69313,-115.346832,-45.925026,-105.476189,0.0,-38.843788,-2.872259,-31.898102,15.907153,-25.69305,30.956964,-10.519306,42.286157,9.883586,0.0,76.010971,43.437424,99.676208,34.816303,97.031136,23.894691,81.481934,12.576828,59.389229,0.0,1.511774,37.087421,52.652971,54.98516,64.898695,66.508281,72.863819,73.631932,73.171212,173.108997,74.585251,-48.550014,137.904123
61,0.16571,0.830265,0.218239,0.237986,0.0,-41.312027,-26.807213,-100.400047,-35.393372,-114.833107,-42.216568,-115.688553,-47.157555,-107.027206,0.0,-38.924897,-2.72415,-32.02256,15.777786,-24.026097,30.993489,-7.616697,43.065602,10.975117,0.0,74.99485,43.605995,99.728966,34.999466,98.093376,23.924217,81.805229,12.561607,60.893097,0.0,2.276676,37.027091,52.999082,54.520118,64.812121,65.955677,72.424959,73.031533,73.603465,173.009033,75.365868,-48.59745,138.092462
62,-0.849609,0.800903,-0.503998,0.810104,0.0,-41.752052,-27.120667,-100.765457,-35.488243,-114.09977,-42.397728,-115.505104,-47.36721,-107.211914,0.0,-38.899672,-2.204613,-31.255372,16.699812,-23.865052,31.772872,-7.415916,43.376947,11.077777,0.0,75.018768,43.55444,100.034752,35.244255,98.640747,24.408016,82.797089,13.150406,61.942863,0.0,2.000652,36.350121,51.915794,53.941949,62.804924,65.373679,70.943566,72.441014,72.178945,171.895895,76.161847,-49.364977,138.897641
63,-0.31002,4.281897,-1.038723,0.963924,0.0,-41.62056,-26.616669,-98.76606,-35.292091,-113.042793,-42.473373,-115.064392,-47.741661,-106.454659,0.0,-41.112652,-3.036299,-32.491153,15.319938,-27.149526,30.250693,-11.576473,42.265903,7.980407,0.0,75.353909,42.986526,100.111713,34.948368,99.644108,24.4063,84.543285,13.46632,63.214817,0.0,-0.213162,36.209145,50.60156,54.394209,61.280059,66.254055,69.7072,73.515965,71.823077,170.93256,80.537172,-51.057014,139.954993
64,-2.39193,2.585829,-1.214104,1.469104,0.0,-41.343842,-26.718979,-101.257439,-35.791626,-113.986473,-43.222504,-115.307922,-48.458061,-106.052284,0.0,-41.839609,-2.50614,-33.41991,16.11553,-25.849803,30.905495,-9.696945,42.14021,9.320484,0.0,75.885487,43.15876,101.992664,35.356407,101.355,25.203323,86.186771,14.810371,64.613171,0.0,-1.585257,35.957759,49.06169,54.407979,60.013002,66.247756,68.863442,73.292552,70.444499,168.222055,83.162167,-52.589693,141.463262
65,-2.507744,3.169618,0.05024,2.06197,0.0,-43.143539,-27.81395,-103.953209,-36.374016,-115.99205,-43.199959,-116.577301,-47.953148,-106.655502,0.0,-42.125143,-3.23955,-32.352276,15.549402,-24.258526,30.60653,-8.08881,42.1014,10.39244,0.0,74.444561,42.410488,101.753139,34.450321,98.280315,24.394569,84.365559,14.162178,63.832684,0.0,-4.878653,34.453828,49.123749,52.646981,59.84887,64.414325,69.053139,71.598368,70.573558,165.330591,86.308489,-52.923174,143.501937
66,-4.297028,2.441025,-1.887302,1.378948,0.0,-44.116859,-27.140579,-104.285774,-35.168037,-116.865692,-41.623306,-116.739464,-46.181831,-106.557426,0.0,-41.413346,-2.446644,-29.386774,16.676779,-20.025659,31.888993,-4.932839,43.595359,12.363575,0.0,75.426636,43.122482,103.276291,34.8139,102.22641,24.555302,87.353668,14.351177,66.455612,0.0,-4.428431,33.01492,48.856679,51.255127,60.198562,63.32091,70.326186,70.788202,73.364615,160.883274,88.866145,-54.960766,144.997516
67,-3.530045,5.34104,-1.523094,3.428939,0.0,-46.660995,-30.250053,-105.842171,-37.065353,-116.688194,-42.044563,-115.959549,-45.521622,-104.269409,0.0,-42.263711,-2.193467,-25.590791,16.150265,-16.862494,31.213475,-1.390959,43.385037,15.69325,0.0,75.722122,42.894402,104.416351,35.092163,103.61824,25.512886,88.905373,16.166782,68.956261,0.0,-3.76202,31.011119,46.074205,49.836349,57.349398,62.567493,68.055376,70.724352,72.938352,157.040491,94.201535,-56.796598,148.420805
68,-5.05909,6.780133,-1.416206,4.806776,0.0,-52.197647,-31.522179,-108.84201,-37.257271,-119.330635,-41.4291,-116.323814,-44.564095,-103.996124,0.0,-40.812545,-1.203454,-21.359931,17.548942,-9.723992,32.697955,5.552134,44.947878,22.054036,0.0,75.684471,41.846352,104.526215,34.395275,102.778702,25.254822,89.162292,15.956726,69.072533,0.0,-2.955807,27.198031,45.624168,46.746112,55.932226,60.69553,67.556556,70.054237,74.213436,151.261911,100.668841,-58.932295,152.914753
69,-9.732056,7.371455,-0.334053,7.47217,0.0,-56.337776,-30.082283,-107.729759,-34.040451,-116.827698,-36.690559,-112.882805,-38.418846,-99.862518,0.0,-36.105898,0.522872,-14.361108,19.655156,-0.98319,34.967344,14.951998,47.106734,30.475187,0.0,76.339989,41.836739,103.682098,35.34708,103.853416,26.880627,91.578255,18.295612,73.313828,0.0,-2.884485,23.90414,43.960551,43.761035,57.451101,58.812266,69.530099,69.375538,76.098058,141.056528,106.573492,-59.739676,158.920119
70,-10.910683,8.745989,-0.289421,9.945768,0.0,-60.289536,-29.012833,-106.706314,-30.874443,-116.501198,-31.418152,-108.215103,-31.116714,-90.739746,0.0,-29.276611,2.818845,-2.061074,21.683812,10.198358,37.136729,21.777487,49.503237,36.574738,0.0,76.214104,41.201191,104.088593,35.374603,105.704384,27.480583,92.653542,19.108028,73.931923,0.0,-1.972926,21.722436,41.161096,41.449779,55.985023,56.498539,67.338639,66.989255,74.455003,129.87834,112.575185,-60.296602,166.121591
71,-11.972122,12.450087,-0.239296,10.063526,0.0,-61.526299,-26.752167,-102.257423,-26.803322,-107.90657,-25.195427,-97.25647,-22.666283,-75.620842,0.0,-22.70504,2.024611,8.286597,18.982632,21.327913,33.474034,32.874314,44.87211,43.069307,0.0,68.612366,40.182781,102.011948,34.878674,105.54966,27.250443,92.261696,18.415546,73.168831,0.0,0.206185,21.615855,41.099592,41.001162,56.333789,55.944268,68.438599,66.418064,76.006359,117.44133,121.291132,-61.000786,172.450978
72,-12.179718,15.964705,-0.399456,10.835962,0.0,-60.729103,-27.090454,-96.018562,-25.088997,-98.519669,-20.79895,-85.901413,-15.07885,-62.815933,0.0,-18.238725,3.920472,16.319214,17.027676,28.95341,28.187396,34.922019,36.871171,42.772534,0.0,66.929226,39.370708,102.96896,33.591957,105.222645,25.760994,93.50069,17.084999,74.51643,0.0,2.081483,20.932402,42.598645,40.52272,56.86861,55.960261,69.197512,67.004446,76.38563,104.54155,134.287679,-62.120304,180.318783
73,-12.520409,18.814239,0.688591,11.320641,0.0,-58.342209,-23.410263,-81.63002,-20.163803,-83.258743,-15.711708,-72.062988,-10.7127,-50.875511,0.0,-11.489158,-1.035616,14.391983,10.237786,28.939392,20.542263,32.729324,28.575435,37.321332,0.0,66.683865,37.595387,99.044666,31.605434,98.980007,24.125118,87.56052,15.092411,68.672619,0.0,3.428506,24.111189,44.71829,40.021368,60.271366,53.135242,69.320148,62.766453,72.988616,91.924438,151.044487,-61.528416,189.581993
74,-10.718765,23.337086,0.968342,20.859907,0.0,-69.753685,-38.558006,-108.971272,-32.294083,-109.541187,-23.627014,-99.820175,-13.989143,-76.348915,0.0,-1.642931,14.286452,37.239327,34.574488,57.986971,51.056476,78.46032,63.011541,87.444079,0.0,67.75383,33.855343,104.134827,29.446392,103.48629,22.256527,91.317101,12.353382,67.052307,0.0,8.796161,18.373341,30.793819,28.037713,23.764831,35.51118,30.275115,42.420001,50.295711,81.299572,173.302871,-60.466175,209.363197
75,-2.531776,16.732139,-1.621628,17.545515,0.0,-74.291267,-36.359024,-102.291241,-30.306129,-103.816681,-22.86026,-91.484871,-14.4104,-68.444481,0.0,1.231241,20.240118,47.903376,39.198359,67.71507,54.178021,82.54474,64.180785,86.780694,0.0,64.618034,27.356758,102.452431,26.617699,104.251671,24.284992,96.376648,19.443054,75.340691,0.0,21.226457,25.600918,27.689317,27.507277,21.845258,25.760234,23.073412,21.585968,26.89286,78.801441,189.132481,-62.054157,226.006184
76,-14.961548,23.619286,3.654556,-1.562038,0.0,-72.23505,-34.505768,-102.80159,-27.753754,-101.401234,-19.789238,-88.864059,-11.791992,-65.338211,0.0,5.276758,24.004485,48.390957,43.529533,71.502284,58.266392,88.137475,67.970531,92.408936,0.0,68.76709,18.613529,86.377487,15.774937,94.021225,14.742794,87.866478,13.713512,76.778526,0.0,2.97742,20.558873,15.204495,40.987639,32.214449,57.511431,59.628483,70.359654,86.318246,63.859177,212.007211,-58.380318,223.69959
77,-6.274109,14.917418,1.022301,12.199411,0.0,-75.52969,-33.157082,-98.438988,-24.903259,-99.148579,-15.516472,-83.812523,-5.742073,-57.722168,0.0,8.899037,25.870397,62.051754,44.12845,79.071094,57.154823,90.798423,65.147179,89.330122,0.0,75.738945,18.193016,88.121567,13.54826,90.934296,9.788418,80.87883,6.918297,68.048286,0.0,-5.807132,26.69847,19.798047,45.068168,47.267285,58.660668,72.733093,67.006731,84.652961,57.697964,226.720744,-57.245121,235.695117
78,-5.890045,13.05274,-1.813145,10.728578,0.0,-74.159546,-35.282822,-98.791637,-27.557373,-98.889427,-18.456116,-85.710239,-8.863564,-62.374992,0.0,9.869321,25.992169,64.217526,44.428125,83.046709,57.735956,96.03529,65.555534,91.372023,0.0,73.62711,17.295856,83.359852,12.036552,86.695004,8.076553,76.419697,5.36974,63.164234,0.0,-2.009173,30.974439,30.444188,48.335444,58.764224,59.947856,83.688357,66.066951,89.974364,51.869402,239.772018,-58.996782,246.422228
79,-4.732475,10.976506,-2.910404,14.006661,0.0,-72.682285,-37.588577,-104.863129,-30.222473,-101.055393,-21.006775,-87.664661,-10.281258,-62.577267,0.0,8.301787,28.340969,62.968377,45.544263,81.03803,57.506121,93.77961,64.570059,90.893828,0.0,69.819603,30.783062,65.929298,24.145832,60.963879,16.560345,57.103729,8.581696,48.773003,0.0,-3.690637,21.714347,42.260747,36.801764,60.248271,48.146549,76.944224,56.482855,80.686855,47.463627,250.76089,-61.580486,260.441255
80,-6.731415,8.07436,-3.686314,10.271008,0.0,-72.001591,-39.147606,-101.603222,-31.407967,-98.584843,-21.29631,-83.256855,-9.163971,-56.225796,0.0,8.367428,28.226978,60.439945,45.066192,79.308956,57.00409,92.465808,64.245499,88.591278,0.0,64.626789,39.607544,32.601643,40.363312,24.969177,37.299728,29.088936,32.174892,63.520374,0.0,-5.678506,17.01477,36.908221,35.3355,59.442737,50.098418,74.264627,61.172058,78.778397,40.949936,258.753678,-65.049076,270.63069
81,-6.008377,4.931079,-3.025188,8.001742,0.0,-73.565311,-41.295261,-100.936031,-34.909859,-101.609688,-25.216827,-85.899353,-13.240013,-59.784908,0.0,5.612618,27.396126,55.352143,43.837791,75.112954,55.569566,88.393492,62.965475,88.37719,0.0,59.094601,51.646385,10.223351,53.780193,5.948296,50.736065,12.845421,44.045334,68.935547,0.0,-6.953467,12.638457,55.193691,29.697934,62.270412,43.663655,70.147418,54.425022,78.780743,34.915981,263.685266,-68.099842,278.632941
82,-4.730873,3.904602,2.944908,0.540316,0.0,-75.172176,-44.581203,-103.454418,-38.481388,-104.839211,-29.39209,-90.518074,-18.218994,-64.732475,0.0,3.416156,27.089906,50.68338,43.44617,68.700359,54.974663,79.518784,62.367113,82.840401,0.0,51.087227,49.947281,-1.530361,52.523346,-3.156452,49.122162,4.312763,42.338161,73.991203,0.0,-0.362166,13.729957,46.981442,30.425478,61.123954,45.451885,69.587527,57.179461,82.123972,30.200615,267.560954,-65.139427,279.144343
83,-5.744019,2.250309,10.359306,-0.837768,0.0,-73.15876,-41.706333,-100.916462,-35.967579,-101.17012,-27.459984,-87.578487,-17.334366,-63.671036,0.0,2.061908,26.0864,47.913256,43.51428,67.33302,55.929756,78.880347,63.77527,83.285436,0.0,34.391785,38.3214,-19.765491,42.546844,-17.473583,41.38298,4.692307,36.886997,70.306549,0.0,0.72001,18.586689,44.390951,35.622392,62.47178,50.564325,71.768243,62.277575,81.351228,24.44355,269.730832,-54.793167,278.226145
84,-4.768867,0.983437,17.689419,3.225348,0.0,-71.019287,-39.644966,-98.439503,-33.08733,-98.519726,-24.153786,-85.93483,-13.986855,-63.338814,0.0,4.463567,28.845223,50.073039,46.248403,69.820944,58.57076,80.100844,66.162479,82.641317,0.0,6.451721,18.713665,-46.833515,24.753628,-38.823853,27.625237,-13.631573,27.008514,54.387074,0.0,0.397858,18.514317,48.876563,34.984325,66.035644,49.144992,74.904485,59.966998,78.670272,19.706612,270.503592,-37.071819,281.240816
85,-1.738701,3.08573,7.708569,13.727734,0.0,-69.726334,-40.78474,-96.944733,-34.014244,-94.790325,-24.653149,-81.733532,-14.02668,-59.636135,0.0,6.18171,29.010899,52.78981,46.034068,71.153024,57.9774,80.060891,65.282042,83.010523,0.0,-12.425022,9.249744,-41.245766,18.000584,-49.223328,24.372826,-35.954933,28.945541,47.315712,0.0,-13.890879,2.577894,31.802512,20.097042,50.056181,34.872742,60.700037,47.277659,58.315854,18.094339,273.557335,-29.236822,294.936563
86,-0.962334,1.808114,9.907894,-11.461617,0.0,-70.346317,-39.775658,-95.098801,-32.782001,-93.919258,-23.129768,-81.350384,-12.430229,-59.717903,0.0,6.202829,29.026954,53.764231,46.100511,69.919559,58.290598,79.360271,65.658596,83.307666,0.0,-10.611935,9.054279,-56.372395,14.76717,-53.647842,19.261436,-48.957596,23.728123,55.480328,0.0,-9.006298,17.223054,50.07625,36.414156,60.554924,49.566253,67.463931,58.876733,64.807366,17.311449,275.225307,-19.149485,283.334803
87,0.072784,1.563088,-19.086685,3.34539,0.0,-71.442261,-39.286766,-94.961185,-33.090076,-93.791027,-23.999405,-81.339054,-13.700523,-59.506359,0.0,4.586265,29.655388,50.856281,46.077725,66.629806,57.567995,77.239762,64.282488,81.854555,0.0,14.746227,22.565002,-41.774883,30.373936,-41.63229,35.863266,-30.510807,40.305347,63.965321,0.0,3.974874,14.242239,51.850277,30.085727,56.982601,40.528771,62.15358,47.398381,61.174836,17.673025,276.534909,-37.947378,286.426708
88,0.643387,-0.133875,25.262203,6.638849,0.0,-72.652416,-39.614124,-96.43095,-33.869705,-95.201283,-24.985828,-82.94569,-14.885101,-61.24855,0.0,3.265115,28.593961,48.256527,45.083605,64.707392,56.70775,75.831358,63.592797,81.004931,0.0,-33.405991,-2.069492,-70.068741,5.058804,-68.069401,11.149406,-51.91143,15.717888,32.14119,0.0,-10.178382,3.654389,31.738971,21.345944,48.131976,36.396743,59.433907,48.979748,60.80736,18.717098,276.326517,-12.284489,292.991039
89,0.829239,-0.030937,-5.973587,-12.878666,0.0,-73.309479,-40.274563,-96.25248,-33.838291,-94.462738,-24.374428,-82.136364,-13.610001,-59.160004,0.0,3.381144,28.530605,50.491768,45.041306,66.378976,56.768574,76.841286,63.689313,81.2063,0.0,-9.586258,8.528366,-59.520264,13.52314,-57.212677,17.470551,-48.526611,21.612854,51.106796,0.0,-3.248319,15.831262,51.399252,37.094954,62.37477,52.017683,68.400684,62.804739,68.255509,19.891977,276.285391,-17.912436,280.102184
90,0.076904,-0.057057,-1.491451,2.32657,0.0,-73.042946,-38.788605,-95.732002,-32.814159,-94.65992,-23.902874,-82.979393,-14.004822,-60.97332,0.0,2.800381,28.346218,49.625966,45.272994,65.777465,57.289686,76.479491,64.282241,81.120652,0.0,-9.129467,11.646481,-57.294559,17.386265,-56.787701,20.986919,-49.498386,24.595356,51.299343,0.0,-3.104811,12.060349,47.937956,33.14157,58.454484,48.912069,66.928246,60.457111,68.684922,20.363932,276.293033,-19.008837,282.493454
91,-0.442657,0.491225,3.906155,-0.846042,0.0,-72.464104,-38.487453,-94.970169,-32.216949,-94.33136,-23.151455,-82.381382,-13.165627,-59.764709,0.0,2.777225,27.974789,49.786702,44.814682,65.816368,56.920418,76.948238,64.107919,81.62719,0.0,-11.336231,9.099827,-60.441284,12.644405,-57.79295,15.022717,-53.070374,17.476387,49.81144,0.0,-4.110663,15.394748,50.240506,36.290161,59.965702,51.210358,66.473454,61.79833,68.602114,20.321589,276.816368,-14.702368,281.679522
92,0.081482,0.115412,5.232639,-0.072618,0.0,-71.839027,-38.252621,-94.727325,-32.056789,-94.226704,-22.861061,-82.002525,-12.483559,-58.544369,0.0,3.549228,28.462617,49.68611,45.084161,66.049105,56.956542,77.206849,63.939094,81.233161,0.0,-12.358418,5.622482,-63.583832,8.552341,-62.437305,10.633507,-57.724571,13.425579,40.558262,0.0,-4.164942,15.367578,49.410457,36.248233,59.379814,50.926121,65.53775,61.834022,68.013077,20.685968,276.943728,-9.186831,281.618852
93,-0.592804,0.074965,4.374619,0.220696,0.0,-71.364727,-37.400036,-93.976707,-31.444931,-93.978653,-22.665997,-82.317352,-12.854233,-60.469894,0.0,3.925535,28.119903,48.73114,44.572188,65.220353,56.386339,75.952821,63.643618,80.282637,0.0,-18.118343,2.019196,-67.508869,3.904324,-68.036213,5.948696,-63.192387,9.325275,31.269436,0.0,-5.084035,15.5511,46.007453,36.748535,58.15308,51.323608,64.870413,62.073799,69.012507,20.428991,276.98172,-4.476385,281.802575
94,0.855331,-0.417062,-0.113926,-0.265465,0.0,-71.849098,-38.18716,-94.86248,-32.062283,-95.030308,-22.906494,-82.742386,-12.47509,-60.318203,0.0,3.167734,27.96565,49.17951,44.503707,65.868794,56.505641,77.026414,64.005043,80.898165,0.0,-19.471779,0.879364,-68.086395,2.381916,-66.929741,4.525337,-63.173904,8.07621,33.943977,0.0,-4.330865,16.38751,47.065176,37.483612,59.735187,51.857378,65.763201,62.259853,68.957364,21.533146,276.57568,-4.341488,281.548132
95,0.485115,0.067617,-3.668575,0.355374,0.0,-72.288208,-37.683449,-94.756393,-31.545925,-94.955978,-22.54612,-83.128166,-12.624664,-60.786381,0.0,3.434867,27.917114,49.104298,44.710756,65.888245,56.874291,77.01215,64.400863,80.864202,0.0,-17.838135,2.090778,-65.246143,5.59473,-63.05048,9.327793,-56.760807,13.996067,40.79092,0.0,-3.260669,15.07803,47.575914,35.827651,59.601127,50.233466,65.146623,60.666754,67.758974,22.167664,276.648669,-7.860661,281.908878
96,0.381317,-0.177347,-1.138573,0.133381,0.0,-72.435951,-37.164574,-94.73814,-31.037178,-95.054913,-22.070789,-82.881203,-12.229156,-60.587425,0.0,4.255838,28.177701,49.543714,45.071008,66.365947,57.16353,77.701593,64.441124,81.483065,0.0,-16.505241,2.95578,-65.117226,6.709099,-63.8764,10.822735,-56.485748,15.797482,38.649845,0.0,-0.122328,15.32602,47.960804,35.48086,58.651282,49.37001,64.190541,59.367711,68.251063,22.639704,276.478346,-8.90851,282.049283
97,0.167313,0.070334,14.341908,-0.440404,0.0,-72.41518,-37.964802,-95.236244,-31.752434,-95.244484,-22.412624,-82.836742,-11.977959,-60.965424,0.0,4.793808,27.766258,49.42398,44.538164,66.615542,56.758756,77.756736,64.519671,81.709812,0.0,-2.186508,0.2948,-72.989559,-5.225601,-76.05938,-8.650589,-74.434662,-8.987904,18.083611,0.0,2.842001,15.413273,43.326436,36.218531,55.226234,51.209308,61.49353,61.972034,67.010559,22.908926,276.504652,5.535307,281.564851
98,0.456161,0.006052,-14.268894,-2.804827,0.0,-72.688179,-38.242092,-95.579681,-32.356968,-95.522518,-23.360481,-83.145504,-13.326645,-61.035347,0.0,4.577805,27.925759,49.721061,44.605657,66.663831,56.664895,77.636385,64.089826,81.845663,0.0,-18.437748,8.282089,-61.827335,9.294491,-63.811913,10.097122,-58.330135,12.239056,39.888897,0.0,-1.551417,17.437884,50.205184,38.927089,62.001304,53.989435,68.822378,65.083205,71.817643,23.443623,276.514238,-8.655052,278.763559
99,-0.074158,-0.451334,-0.722122,0.579898,0.0,-72.289181,-38.253937,-94.884109,-32.105198,-95.378036,-22.842464,-82.630463,-12.37278,-60.251656,0.0,4.979306,27.912421,50.31405,44.571571,67.762988,56.609381,78.656131,64.11922,82.185291,0.0,-22.190552,7.337322,-63.161087,10.148163,-63.746452,12.319107,-56.167374,15.211315,43.027096,0.0,1.04562,16.261971,50.848562,37.757475,61.889968,52.973023,68.054018,64.508618,70.676434,23.396101,276.059647,-9.350538,279.3402
100,-0.018311,0.42404,-1.152592,1.21778,0.0,-71.89682,-38.694534,-95.425358,-32.804375,-95.767879,-23.506451,-82.780094,-12.491913,-60.496101,0.0,4.193594,27.520368,49.517223,43.724479,66.267763,55.565861,77.368079,63.291826,82.09637,0.0,-15.971889,6.998405,-61.944237,9.73526,-61.840267,12.278309,-55.280399,15.951347,44.803848,0.0,2.695961,15.896532,50.391856,36.761811,60.722144,51.052647,66.569599,61.340451,68.95193,23.417931,276.458076,-10.46299,280.532369
101,-0.861053,-0.213039,0.457478,0.31116,0.0,-70.795612,-38.038445,-95.052509,-31.836834,-94.941273,-22.365303,-81.789951,-11.407585,-58.961506,0.0,4.449179,27.572979,49.16222,44.007913,66.9845,55.887828,77.703507,63.408905,81.687582,0.0,-18.525696,6.13472,-64.37891,8.499413,-63.378639,11.115646,-56.305046,15.049038,40.689411,0.0,5.368457,16.067889,50.522026,36.333201,59.516776,50.352583,64.371532,60.551404,68.130094,22.573357,276.166923,-9.989033,280.765415
102,-0.043488,0.071569,0.522881,-0.130355,0.0,-71.06432,-38.084221,-94.977264,-31.930962,-95.046215,-22.500801,-81.91,-11.520996,-59.430428,0.0,4.116159,27.747115,49.796582,44.099859,66.889775,55.972673,77.549008,63.624228,81.627808,0.0,-18.044357,5.606174,-63.054485,7.578907,-63.042698,9.806671,-57.080441,13.208141,39.818974,0.0,3.963944,15.391475,49.718715,36.287259,60.369055,51.061107,66.064296,61.846187,69.192386,22.536793,276.111981,-9.459229,280.508548
103,-0.347099,0.034148,-2.291164,-0.711056,0.0,-70.672932,-37.397404,-94.508057,-31.120892,-94.507885,-21.590538,-80.921974,-10.722313,-57.536259,0.0,4.347785,27.447502,49.608428,44.403672,66.987279,56.686384,78.007937,64.372211,81.526661,0.0,-20.741787,5.103264,-62.807407,8.968563,-62.160358,12.801647,-53.88422,17.5914,42.089767,0.0,2.522381,14.34814,49.664745,35.803877,60.542636,51.154721,67.315606,62.601827,69.59784,22.171497,276.025746,-11.768589,279.67711
104,0.413933,-0.002223,-4.692707,2.394743,0.0,-71.216183,-38.668842,-95.178566,-32.495899,-94.913979,-22.839489,-81.398048,-11.56929,-58.522797,0.0,4.162534,27.715005,50.051796,44.087077,67.413172,56.007685,78.22431,63.713087,82.30521,0.0,-9.934387,8.514576,-60.130978,12.780304,-59.343796,16.620655,-50.690575,20.976963,42.306232,0.0,6.114341,14.537467,50.461572,34.019413,58.907547,47.474396,64.876897,57.260416,67.807819,22.597475,275.970217,-16.449251,282.018547
105,0.305328,-0.560632,-3.532219,1.393213,0.0,-70.845909,-38.113174,-95.129585,-31.823959,-95.20546,-22.000866,-81.299572,-10.422478,-57.87529,0.0,4.708284,27.629481,49.865557,43.801111,67.460781,55.523562,78.593269,63.117566,82.755123,0.0,-3.276958,11.831932,-56.188145,16.460724,-55.70509,20.10561,-45.698032,23.673763,49.438648,0.0,7.352869,13.701984,49.578109,32.109905,57.084798,45.09435,62.606149,54.522218,64.472679,22.909241,275.253341,-19.975033,283.255516
106,-0.356255,-0.023959,13.664989,9.164564,0.0,-70.156059,-37.899227,-94.910259,-31.55056,-94.922676,-22.004986,-81.870117,-10.837555,-59.106216,0.0,4.625229,27.725132,49.673884,43.935048,67.330488,55.765871,77.909569,63.546484,82.434083,0.0,-37.425442,-0.085144,-65.663509,5.254211,-70.756187,8.144703,-60.921764,9.829903,10.030975,0.0,-2.279022,12.148591,28.477437,28.831947,41.331959,41.524065,50.764149,52.104071,68.452369,22.49711,275.101003,-6.365919,292.2917
107,-0.227394,0.076138,-18.334293,-8.071458,0.0,-69.979019,-37.457485,-94.024258,-31.087875,-94.378052,-21.485767,-81.060848,-10.437355,-58.330307,0.0,4.637271,27.492395,49.534945,44.014026,67.214953,56.076228,78.143047,63.927793,82.583519,0.0,6.225586,17.592316,-50.19722,21.075954,-50.891819,23.404026,-41.908436,25.579777,52.073765,0.0,7.909549,14.594648,50.679428,31.838389,56.68447,43.824082,61.778817,52.546328,63.932054,22.184143,275.020527,-24.785786,284.063628
108,0.056419,-0.583109,16.297989,11.729429,0.0,-70.030289,-37.84584,-94.329472,-31.260681,-93.947983,-21.071777,-80.371456,-8.856583,-56.480942,0.0,5.081194,28.245441,50.013264,44.303018,68.103912,55.913022,79.034291,63.586499,83.4408,0.0,-34.565506,-4.792671,-71.776085,1.899605,-65.516052,7.379379,-48.604889,11.350594,31.894283,0.0,-18.509007,2.038072,21.722251,21.07628,39.50143,37.417353,52.323471,50.959527,59.698261,22.139311,274.322979,-8.589048,295.678618
109,1.258392,0.282508,-9.6064,-6.947848,0.0,-70.749035,-37.247372,-95.198765,-30.60339,-94.960213,-20.877113,-81.752529,-9.939423,-58.713627,0.0,5.233409,27.676411,49.97362,44.457147,68.013571,56.737637,79.113022,64.664599,83.096912,0.0,-0.498104,11.929321,-56.259155,15.195408,-59.490108,19.134178,-51.137009,23.555088,38.978519,0.0,14.856346,12.755412,45.385194,26.037308,49.037361,34.734545,54.467692,40.013279,59.1338,23.302059,274.533023,-18.291092,288.658306
110,-0.573692,-0.267626,-1.493855,-1.149854,0.0,-69.77829,-35.639706,-94.669533,-29.232445,-94.524021,-19.877529,-81.583672,-9.725189,-59.233303,0.0,5.717471,27.313504,49.858703,44.602446,67.759283,57.229541,78.591972,65.220168,82.776119,0.0,-6.779938,7.836571,-56.308823,14.906902,-58.941193,22.275124,-48.73518,29.685745,42.887535,0.0,5.638677,12.138772,45.16808,27.076753,51.288595,36.903713,58.178336,43.130625,60.418888,22.534218,274.19091,-19.979095,287.433965
111,-0.03994,0.166541,1.249981,0.555568,0.0,-69.840317,-35.872536,-94.474697,-29.404049,-94.437904,-19.969826,-81.09621,-9.631348,-58.594666,0.0,5.32869,27.353703,50.050253,44.23287,67.909089,56.556276,78.735048,64.425378,82.933644,0.0,-6.299458,6.560097,-56.27409,12.815151,-59.45097,19.7509,-49.812298,26.795597,39.637585,0.0,5.922235,12.767083,44.797022,27.232611,51.020043,36.501224,57.433379,42.106247,59.58995,22.386503,274.31086,-18.836889,287.942943
112,-0.13813,-0.300416,0.719891,1.802124,0.0,-69.579563,-36.3204,-93.842297,-29.530907,-92.975178,-19.416962,-78.952732,-8.095093,-55.10273,0.0,5.394639,27.488813,50.374751,44.238798,68.710918,56.376953,79.790795,64.107734,83.250053,0.0,-3.471966,6.32309,-56.760292,12.813148,-59.110336,20.031395,-48.929958,27.153168,39.654007,0.0,12.653709,11.218444,44.385764,24.324352,49.087626,32.611134,54.479548,37.523441,56.371581,22.160311,273.887932,-18.205061,289.622554
113,0.685959,-0.148016,-0.836964,-1.797554,0.0,-69.388676,-35.992184,-95.032825,-29.369545,-93.995247,-19.711075,-80.617619,-8.97995,-58.066063,0.0,5.475903,27.504189,49.696732,44.40398,68.317754,56.748258,79.060843,64.765561,83.294451,0.0,-3.59911,8.369293,-53.97789,13.470898,-56.686821,19.506569,-47.557926,25.601635,44.44479,0.0,9.716366,12.471237,45.963919,26.865505,52.461915,36.2386,57.590781,42.265934,58.963554,22.740183,273.683013,-19.148111,287.768097
114,-0.293884,-0.43602,7.311459,24.442542,0.0,-69.251347,-35.287514,-94.014931,-28.518276,-93.395748,-18.777809,-80.285683,-8.052979,-57.482815,0.0,5.918962,27.627196,50.894134,44.281591,69.016336,56.576345,80.123506,64.693992,83.84366,0.0,18.463898,10.533657,-55.912628,9.900799,-64.117584,11.462345,-59.260139,13.889866,3.049564,0.0,23.919331,2.459457,35.009334,-0.150795,27.049521,-6.085256,20.525899,-14.645901,15.110264,22.34067,273.175363,-11.942282,312.139008
115,0.695343,0.152524,-1.916656,-0.473502,0.0,-69.934273,-36.070805,-94.401512,-29.399357,-93.757324,-19.62204,-80.394287,-8.652077,-57.197399,0.0,5.740627,27.967811,50.719195,44.353715,68.650465,56.407272,79.687672,64.311078,83.636487,0.0,17.594604,10.481415,-55.145187,10.111828,-62.489204,12.508793,-56.781406,15.877075,16.853142,0.0,22.711246,1.77977,33.370046,0.580824,27.586317,-3.654636,22.696487,-10.693689,17.930652,22.9842,273.307679,-13.910751,311.645298
116,0.376854,-0.090217,-3.854542,-8.701559,0.0,-69.564629,-36.282063,-93.954048,-29.800816,-93.503609,-20.356178,-80.63942,-9.782867,-58.178959,0.0,5.713766,28.012642,51.098898,44.343712,68.907038,56.333048,79.590971,64.21944,83.76536,0.0,18.658504,11.758175,-52.963257,12.544498,-58.395424,16.111565,-51.217403,20.607204,32.231655,0.0,21.605296,6.915737,38.88442,10.923463,37.165226,11.331448,36.013458,8.709896,33.568018,23.289299,273.162997,-17.837048,302.889275
117,0.142479,-0.492521,-0.430641,-11.083026,0.0,-69.3536,-36.978149,-93.246803,-30.076847,-92.653084,-19.835243,-78.727512,-7.969093,-54.01823,0.0,6.562649,28.344736,51.177568,44.488208,69.537818,56.290749,80.782012,64.064138,84.703596,0.0,4.961243,12.224064,-52.807674,13.733311,-57.060127,16.996994,-50.324078,20.86916,31.911907,0.0,15.81286,11.95593,43.476366,23.740378,47.820507,31.186366,52.268389,35.45863,55.035734,23.362284,272.623191,-18.337183,291.758964
118,0.272827,0.287819,0.06609,0.081881,0.0,-68.985043,-36.086254,-94.691677,-29.496975,-93.41526,-19.978867,-80.440922,-9.297638,-58.011703,0.0,5.655473,27.352962,50.722097,43.698605,68.662691,55.849172,79.620672,63.953111,84.152535,0.0,2.342491,9.187603,-52.82444,12.317219,-56.316204,17.300777,-48.534622,23.048286,39.601593,0.0,11.695713,10.911113,42.026713,23.295219,47.647482,31.108437,52.187311,35.657775,54.267744,23.573999,272.82002,-18.332205,291.749856
119,0.451584,-0.432809,1.027851,2.388876,0.0,-69.270458,-36.723003,-94.419193,-29.795952,-92.684097,-19.480934,-78.808079,-7.518654,-54.54792,0.0,5.922976,28.106873,50.675105,44.355383,69.726527,56.177005,81.37284,64.016282,84.92565,0.0,1.799412,8.779163,-54.64262,12.432117,-58.080311,18.136883,-49.403858,24.536419,37.578564,0.0,13.775899,9.262191,40.035386,19.933774,44.396632,26.148829,47.487858,29.187876,50.115461,23.958035,272.290356,-17.371902,294.041877
120,0.234718,0.405083,1.525898,-9.072247,0.0,-69.329395,-35.71352,-95.43211,-29.235191,-94.169083,-19.829407,-81.489201,-9.386444,-59.587555,0.0,4.408732,26.9246,50.040743,44.110234,68.49368,57.060777,79.172364,65.806488,84.702299,0.0,-11.268768,6.125164,-55.070515,12.8302,-57.49197,19.53186,-46.62941,26.142998,45.951347,0.0,-2.806927,12.233559,44.780226,30.321922,55.32312,42.685775,62.317157,51.198316,62.685992,24.10306,272.591837,-15.935698,284.866028
