takenoko1/special-research/HandMotion_SimilarSearch_自分用/NewProject/handData/test_key/d4_feature_d2/70.csv
frame,vel_0x_L,vel_0y_L,vel_0x_R,vel_0y_R,posFromWrist_0x_L,posFromWrist_1x_L,posFromWrist_2x_L,posFromWrist_3x_L,posFromWrist_4x_L,posFromWrist_5x_L,posFromWrist_6x_L,posFromWrist_7x_L,posFromWrist_8x_L,posFromWrist_9x_L,posFromWrist_0y_L,posFromWrist_1y_L,posFromWrist_2y_L,posFromWrist_3y_L,posFromWrist_4y_L,posFromWrist_5y_L,posFromWrist_6y_L,posFromWrist_7y_L,posFromWrist_8y_L,posFromWrist_9y_L,posFromWrist_0x_R,posFromWrist_1x_R,posFromWrist_2x_R,posFromWrist_3x_R,posFromWrist_4x_R,posFromWrist_5x_R,posFromWrist_6x_R,posFromWrist_7x_R,posFromWrist_8x_R,posFromWrist_9x_R,posFromWrist_0y_R,posFromWrist_1y_R,posFromWrist_2y_R,posFromWrist_3y_R,posFromWrist_4y_R,posFromWrist_5y_R,posFromWrist_6y_R,posFromWrist_7y_R,posFromWrist_8y_R,posFromWrist_9y_R,posFromBody_0x_L,posFromBody_0y_L,posFromBody_0x_R,posFromBody_0y_R
2,-31.910477,13.111218,-1.752377,-1.138863,0.0,39.726105,10.464134,48.782501,-0.055389,45.719948,-10.297737,29.842987,-18.676014,-0.947227,0.0,-14.420203,3.555836,23.660967,19.964526,39.437889,34.479207,46.447795,45.76533,52.533854,0.0,71.562309,24.271145,84.861603,12.892628,79.003944,3.358784,66.227417,-4.22842,47.38266,0.0,17.194834,40.180746,55.23525,57.387066,68.779708,66.427759,79.985432,69.829033,82.567217,-7.618103,307.985259,-36.011696,279.555307
3,40.247612,-10.334487,-0.864658,0.786762,0.0,-28.539162,-39.265079,7.703247,-53.449116,1.639709,-60.464058,-12.138062,-63.691235,-44.833603,0.0,0.72248,7.94839,33.853737,29.052334,46.679792,45.659428,55.373756,58.754529,59.612304,0.0,73.270168,22.814827,84.580364,12.384624,80.757351,3.488159,67.332287,-3.203087,48.238735,0.0,17.854329,38.958335,55.823052,56.03535,68.325719,65.61253,80.077934,69.728503,83.160453,31.906214,298.160243,-37.599649,280.851541
4,-39.009418,8.71533,0.07473,0.713094,0.0,40.508137,3.296413,42.946987,-7.637386,42.190762,-16.064587,28.350506,-22.449417,5.173187,0.0,-9.522037,5.606876,25.115313,23.286574,41.125898,38.496257,48.360576,50.375677,53.164079,0.0,71.460857,23.424568,83.375759,13.000889,79.371014,3.876228,65.977192,-2.946053,47.645016,0.0,17.181867,37.650399,55.595625,54.675112,67.798186,64.498182,79.77863,68.909014,82.933026,-7.635012,307.487906,-38.056726,282.176967
5,30.182705,-10.5332,0.592403,0.34185,0.0,-4.70993,-30.248337,16.519089,-43.970375,10.967331,-51.487885,-3.549156,-55.649929,-31.886673,0.0,-9.155981,10.570127,32.344125,31.919591,45.963116,47.867067,55.615323,60.213629,59.864246,0.0,70.412979,22.827301,82.743874,12.265263,78.408394,3.154449,65.475998,-3.712521,47.494698,0.0,17.065159,36.913408,56.699846,54.01432,68.191536,63.962991,79.885026,68.543143,82.370665,22.289057,297.429937,-37.72296,282.994049
6,-33.408279,9.866975,0.460854,-0.026923,0.0,47.396507,5.068874,48.678131,-4.903965,50.234184,-12.868595,34.13578,-18.7183,10.039101,0.0,-8.98734,1.197587,21.437644,20.120384,40.232122,37.057842,48.439184,51.04888,54.653499,0.0,70.17025,21.995144,81.668358,11.707993,78.269463,2.907887,65.219765,-3.834915,46.633186,0.0,16.27957,36.646338,56.947527,53.883842,68.137195,64.044749,80.018469,68.755749,82.441617,-11.228313,307.503636,-37.371197,283.173851
7,34.246559,-11.008122,0.337486,0.275839,0.0,-2.197723,-32.152863,15.853958,-45.807152,9.93988,-52.657127,-3.85952,-55.850887,-32.910805,0.0,-6.589572,10.479971,33.083833,32.451879,46.690722,48.87823,56.917639,61.551576,61.338413,0.0,69.901543,21.039276,80.988808,10.697365,77.899933,2.142162,65.243683,-4.122047,46.623344,0.0,16.621358,35.81456,57.239297,53.360569,67.764717,63.979787,79.068994,69.026216,81.74217,22.877197,296.59027,-37.174759,283.544446
8,-33.310204,13.09189,0.317287,0.384705,0.0,44.915657,8.634338,49.769211,-1.976509,46.418953,-11.184998,26.494331,-18.44141,0.987682,0.0,-12.896759,1.4633,21.408806,19.785758,39.472901,35.71897,45.825722,48.44962,50.718145,0.0,69.23933,21.339798,79.974461,10.960922,77.62991,2.263355,64.777508,-4.418392,45.815907,0.0,16.000582,35.14111,56.341323,52.561333,67.500672,63.231743,78.70794,68.623048,81.508877,-10.530081,309.754022,-36.954546,284.001013
9,35.110931,-12.607829,0.296631,0.631336,0.0,-5.069618,-32.077332,13.343811,-45.981731,7.560997,-53.420448,-6.740341,-57.481785,-37.991352,0.0,-7.454695,10.328003,33.792048,31.699821,46.762043,47.666255,56.601477,59.993366,60.766543,0.0,69.52177,20.76004,80.127583,10.335846,78.601856,1.726055,65.724506,-4.750385,46.754665,0.0,15.960629,33.98156,55.036043,51.601732,66.454744,62.706061,77.59211,68.348938,80.220763,24.485722,297.206277,-36.753044,284.692432
10,-28.475704,8.002915,0.544224,-0.018278,0.0,38.735218,-4.813728,41.989231,-15.418911,41.95158,-22.101116,28.716373,-26.071701,6.532001,0.0,-8.043053,4.02483,24.685653,22.998138,41.885366,39.392255,50.277741,52.796417,55.877207,0.0,69.567261,20.177307,80.15728,9.335575,77.883568,0.65712,65.348167,-5.676327,46.208153,0.0,14.859187,33.254017,55.513188,50.777364,65.911525,61.933378,77.269958,67.590395,80.707912,-4.111862,305.280158,-36.3307,284.745121
11,-4.89418,-11.186334,-0.055447,0.04514,0.0,39.656467,1.460037,55.185413,-9.927235,44.402905,-18.340302,31.166553,-23.567905,12.369404,0.0,3.860265,15.926913,47.883616,31.528464,59.742227,43.217446,65.819826,51.61859,69.054559,0.0,68.837643,19.821682,78.878117,9.146061,77.448635,0.379257,64.478016,-6.3517,45.178356,0.0,14.82331,33.065308,55.743764,50.430203,66.316052,61.4085,76.741868,66.99154,79.404299,-9.076395,294.099089,-36.456499,284.795524
12,36.779308,1.310961,-0.041313,0.629669,0.0,-12.200203,-34.804859,9.238243,-48.505154,4.957237,-55.64249,-9.690742,-59.266262,-56.496563,0.0,-3.796786,10.627616,37.746792,31.557733,50.379876,47.485696,60.214803,59.860479,64.920184,0.0,69.835796,19.837818,79.227276,9.079456,77.891636,0.228767,64.711819,-6.573944,45.3158,0.0,13.843701,32.57291,55.24692,49.885194,65.643467,61.014285,75.962578,66.837287,78.487985,27.640057,295.407873,-36.560669,285.423017
13,-33.913937,8.295859,-0.569344,-0.260154,0.0,36.993313,-4.327583,38.8904,-14.903812,39.818516,-21.902504,29.135227,-26.80687,7.690372,0.0,-5.43311,8.053303,28.783287,26.343467,45.046617,41.305345,50.898271,52.710646,53.601951,0.0,70.304432,19.66341,81.466198,9.189606,79.484768,1.163807,67.32748,-4.258633,48.482151,0.0,14.314425,33.477492,55.60569,51.286434,65.013119,62.820732,75.317286,68.756922,79.038798,-6.365719,303.696075,-37.221851,285.155205
14,8.0686,-8.583678,-0.665646,-1.248964,0.0,6.620293,-19.436703,37.97184,-29.904842,34.698944,-32.493153,24.283562,-30.640411,6.440048,0.0,4.815482,18.530805,34.907693,39.203855,46.665157,53.421516,55.684299,63.792992,59.643179,0.0,69.750137,20.204315,81.199379,9.764729,79.433212,1.705513,67.891273,-3.864899,49.2556,0.0,14.46664,35.527544,55.613347,53.325433,65.837301,64.35066,76.08472,69.743324,80.557303,1.678448,295.112876,-37.91193,283.90672
15,-6.918011,15.002324,-0.494671,0.29881,0.0,23.933086,-2.605648,46.479778,-13.312511,45.030041,-19.072437,28.055935,-21.847916,4.159298,0.0,3.860512,2.059376,18.174814,19.406302,36.858759,34.470932,43.541512,46.637369,46.06309,0.0,71.060314,20.714607,81.848545,10.32114,79.725323,2.213631,68.249874,-3.437862,49.546909,0.0,14.063224,35.235897,54.560873,53.04169,65.501688,64.159296,74.930976,69.742089,79.941713,-5.263996,310.114243,-38.431034,284.204573
16,38.753872,-12.463765,0.052986,-0.637511,0.0,-25.49572,-37.521744,2.393188,-49.072781,0.071411,-55.431061,-14.616623,-59.279594,-37.907639,0.0,-7.136063,10.9657,30.381882,32.196727,45.773728,48.998273,55.288664,61.466237,61.815744,0.0,70.386028,21.010036,81.461849,10.618744,79.755993,2.448635,67.766705,-3.133106,49.261837,0.0,14.482015,35.660986,55.412411,53.489751,65.957715,64.659103,76.651589,70.212627,81.01123,33.47537,297.650633,-38.392553,283.567216
17,-34.717827,14.144055,-0.540104,-0.084228,0.0,26.218185,-2.841339,38.125305,-12.963581,35.875511,-19.546452,21.928368,-23.882504,-8.322945,0.0,-21.912381,1.999725,12.540644,19.861897,29.501753,35.034899,40.134063,45.807073,47.599255,0.0,71.21521,21.785717,81.917496,11.305504,80.15522,2.962074,67.925949,-2.800484,49.212685,0.0,14.073536,35.688095,55.757535,53.489504,66.315743,64.632118,77.161709,70.165079,81.002708,-1.267405,311.800076,-38.957605,283.488376
18,34.394531,-14.554016,0.175724,0.293747,0.0,-26.301155,-36.725636,1.052971,-46.868134,-0.846977,-52.275696,-14.543495,-55.011635,-40.399532,0.0,-5.388217,13.880999,31.872228,33.921477,46.593712,49.6695,55.2723,61.250728,61.180147,0.0,69.821262,21.668472,81.598949,11.258411,79.710102,2.788982,67.213383,-3.34425,48.387394,0.0,14.298061,36.114543,56.613272,53.712114,67.203406,64.638417,77.552342,70.126176,80.330308,33.116913,297.25983,-38.792095,283.795893
19,-27.649155,13.515189,-0.160046,0.010559,0.0,14.237709,-11.302814,31.091881,-20.728455,29.986267,-25.599003,15.653114,-28.049812,-14.786282,0.0,-23.893581,2.6691,14.842885,20.5979,30.941711,35.708349,41.695545,46.319355,47.672985,0.0,70.521011,21.7519,82.002296,11.41674,80.391083,3.151188,68.278885,-2.592545,49.753075,0.0,14.058963,35.619614,55.489723,53.413551,65.932212,64.544742,76.357348,70.244119,80.570764,5.455084,310.796601,-38.964815,283.828034
20,10.307579,-2.935615,0.3475,-0.021736,0.0,-6.402397,-27.172508,30.658035,-37.545948,22.960854,-41.292,10.216599,-40.408401,-16.792145,0.0,-16.306123,7.679652,30.793942,23.352153,41.29318,35.342169,49.100284,44.370759,53.723229,0.0,70.004368,22.050762,81.888485,11.639328,79.483395,2.982159,66.817532,-3.361416,48.014889,0.0,14.679864,35.675992,56.816431,53.231078,67.490113,64.073895,78.098648,69.423148,80.762808,15.751505,307.861171,-38.628473,283.806484
21,-30.0737,17.037309,-0.294628,0.026059,0.0,23.817673,12.093887,60.027695,3.060093,54.693832,-5.34193,34.001884,-13.304443,4.555836,0.0,-37.955508,-8.312285,2.727948,6.901905,23.695239,21.710766,31.091888,34.027873,34.26623,0.0,70.99205,22.163429,82.046928,11.594868,79.686356,2.886314,67.040977,-3.467846,47.975121,0.0,14.68962,35.779609,57.07288,53.215641,67.972383,63.935759,78.111245,69.127857,80.592192,-14.3361,324.90359,-38.937006,283.837652
22,53.370094,-24.639526,0.110493,-0.047733,0.0,-38.601265,-37.944946,-4.83078,-49.597263,-7.294922,-56.321239,-25.03006,-60.210571,-62.580013,0.0,-9.266761,14.178636,29.028004,33.580677,43.119757,48.252266,54.497703,58.65332,57.99185,0.0,70.906391,21.940784,82.066898,11.31237,79.338284,2.567425,66.579037,-3.858833,47.580357,0.0,14.748221,35.759725,57.184525,53.092757,67.933419,63.731242,78.128289,68.882585,80.605715,39.034624,300.271675,-38.825884,283.79753
23,-32.256203,4.554155,-0.53175,0.090279,0.0,14.242287,-12.933025,31.091194,-21.988735,28.647995,-27.956314,13.0616,-32.677975,-10.079155,0.0,-16.348483,9.033777,24.800447,27.447317,39.340755,41.832261,47.74017,52.0945,52.07826,0.0,71.268654,22.142944,82.253265,11.559048,79.677086,2.896156,67.048874,-3.471794,48.043785,0.0,14.584892,35.598372,57.123083,53.054657,67.913782,63.894016,77.8895,69.276799,80.401321,6.763086,304.828037,-39.372969,283.890016
24,-18.37286,15.535601,0.213833,0.07373,0.0,36.233997,9.128895,49.717655,-0.671825,47.664814,-9.26033,30.726871,-16.446419,-1.208324,0.0,-30.169831,-3.90275,10.113174,11.892697,27.859501,26.268625,34.407515,37.626564,39.005759,0.0,70.852604,22.05431,82.130299,11.51453,79.584904,2.815704,66.756535,-3.685284,47.52039,0.0,14.687212,35.075531,56.862496,52.500077,67.465289,63.273795,77.946125,68.565064,80.532726,-11.625166,320.354067,-39.174528,283.954175
25,50.698299,-18.797566,1.948299,-0.126835,0.0,-36.002426,-42.915916,-3.873138,-54.865494,-4.857903,-60.582561,-22.63607,-62.654572,-64.555779,0.0,-6.457117,10.960266,31.22354,30.129385,42.685096,44.948063,53.812952,56.091728,59.406305,0.0,70.563812,19.758911,80.559769,8.853493,78.483582,0.299778,65.527496,-5.842609,46.452484,0.0,16.226712,33.153981,56.380967,50.964468,66.152352,62.263867,77.320284,68.031479,80.526366,39.062147,301.528775,-37.237215,283.799614
26,-33.887901,3.233128,-0.459194,0.353953,0.0,18.124466,-16.169357,33.279419,-26.425037,31.989441,-32.114468,16.070938,-35.735493,-2.971344,0.0,-11.606607,7.324772,24.889986,25.441417,39.87008,40.726064,48.821111,52.033182,53.656477,0.0,70.598545,20.350685,80.760212,9.318638,78.277874,0.43642,65.508099,-6.032181,46.45277,0.0,15.704365,33.160403,56.429935,50.822627,66.02916,61.943197,77.082298,67.544206,80.297642,5.166607,304.750124,-37.704048,284.141788
27,-4.316139,11.656996,0.283127,0.041558,0.0,21.4048,-10.271473,33.675156,-19.938126,33.653526,-25.791378,21.845512,-28.860455,-6.664124,0.0,-22.414412,1.942915,20.611794,17.262389,34.410788,30.442089,39.548669,40.656657,43.735532,0.0,70.560436,19.767265,80.62048,8.623867,77.84277,-0.161648,65.394344,-6.396332,46.502552,0.0,15.304963,32.98213,56.321872,50.720183,65.655446,61.97611,76.479553,67.654616,79.823584,0.847006,316.40536,-37.424383,284.181586
28,-5.49551,-15.0311,-0.132122,-0.0381,0.0,33.345051,-5.180168,47.474041,-15.982819,39.224911,-22.725849,24.697323,-25.518837,-4.387093,0.0,-7.768017,12.386886,38.277413,28.659786,49.803683,40.869881,55.354428,49.096641,58.844746,0.0,70.151138,19.89109,80.50415,9.079456,78.097,0.694427,66.268501,-5.168152,47.270622,0.0,14.425637,32.815898,55.824101,50.646082,65.521757,62.071205,76.767989,67.916191,80.048294,-4.651279,301.37534,-37.55928,284.144567
29,42.745457,-2.451615,0.731335,-0.482394,0.0,-34.310074,-42.918892,-2.5177,-55.905704,-3.796692,-62.522449,-19.842682,-65.325565,-43.236237,0.0,-3.81741,11.458468,33.013623,31.618434,46.207401,47.613952,55.561477,59.401056,61.967897,0.0,69.899082,18.698044,80.139484,7.679043,78.057575,-0.722637,66.219692,-6.541386,46.920261,0.0,14.764462,32.230813,55.76161,50.393214,65.252031,62.118136,76.186115,68.116138,79.858473,38.092089,298.921441,-36.830034,283.659888
30,-24.873962,6.329973,0.136185,-0.002841,0.0,3.650894,-24.407616,20.620193,-33.266659,22.077827,-37.416229,7.898369,-38.751469,-10.009804,0.0,-5.01506,8.230342,25.120809,25.192933,39.952023,39.128457,45.777371,48.901757,50.885674,0.0,69.784527,19.85178,80.106983,8.979549,78.363132,0.640354,66.609478,-5.187263,47.79665,0.0,14.171473,32.218895,54.712224,50.32356,64.241547,62.067624,74.383867,68.189683,78.671939,13.184681,305.253575,-36.727295,283.659209
31,-27.88187,15.319907,0.20216,-4.980726,0.0,22.937679,12.41106,53.314304,4.808178,49.998264,-3.390369,26.204166,-10.505104,-27.244549,0.0,-40.649555,-0.230947,15.480458,14.596068,28.760748,26.563792,30.693042,36.304426,34.59573,0.0,67.703934,17.39851,80.674782,5.924034,77.143364,-2.478161,64.467659,-8.180695,44.375725,0.0,13.482029,32.860049,60.854908,50.360672,69.365226,61.866318,77.158004,67.984178,79.247329,-14.72826,320.619146,-36.556206,278.724147
32,43.312969,2.651995,-0.038681,-7.164406,0.0,-64.798222,-50.810623,-9.883919,-46.907845,5.910759,-38.088398,11.438599,-26.342354,-1.908073,0.0,39.83692,4.585524,36.355308,-4.170746,30.370211,-13.435655,19.260756,-22.453932,3.344835,0.0,64.219666,19.752331,80.087013,8.128166,75.817108,-2.186451,58.118362,-10.648041,34.160728,0.0,11.611362,30.915406,64.692263,47.454574,79.418934,59.317755,90.540368,66.784244,92.100986,28.587828,323.629,-36.591768,271.9176
33,5.476227,6.753951,-6.788349,-9.479985,0.0,-50.503063,-54.980736,-22.274551,-51.977863,-8.551025,-42.404709,-2.938042,-28.103485,-7.495079,0.0,38.360406,1.247667,32.952058,-12.633949,25.93153,-26.273133,8.141854,-38.581657,-10.226547,0.0,63.457088,22.482662,78.040524,13.007584,75.040226,3.115711,60.049038,-6.384945,36.60759,0.0,12.644632,28.239945,69.970874,45.384947,90.834177,58.080215,101.326807,66.780909,102.587688,33.993273,330.853567,-43.450899,262.90823
34,-24.195328,-25.293339,-2.020397,-11.178492,0.0,-16.942635,-16.844044,-21.342945,-2.560158,-4.577522,14.265175,8.244896,30.629311,25.997658,0.0,39.447522,6.816381,35.327781,8.383236,38.110317,9.184633,42.149596,9.19087,40.215141,0.0,58.218498,15.822544,66.871834,4.287987,59.482155,-7.005959,47.568283,-17.811012,29.316502,0.0,12.361877,16.969445,66.606958,33.465327,86.841395,47.453092,94.794478,58.852156,92.115066,9.799061,306.176311,-45.470181,252.345822
35,59.014778,-80.851296,4.216805,3.222939,0.0,-32.389297,-29.676361,-60.718575,-15.888519,-54.388618,-0.20153,-36.02623,15.778198,-11.019974,0.0,56.967966,31.883467,99.358389,42.447727,115.569539,51.702941,119.663283,58.429475,112.280651,0.0,43.891869,2.207794,45.683441,-10.877495,33.101234,-22.140541,22.338524,-31.410427,2.203445,0.0,11.280751,4.127459,44.36236,12.827845,54.23304,21.675136,56.301741,30.501616,51.641931,68.454752,227.149786,-41.612463,257.393532
36,16.912422,-29.843357,-44.19136,-76.786699,0.0,-30.09613,-29.921608,-54.428101,-15.77282,-46.398926,0.729904,-32.392273,17.598381,-11.24382,0.0,59.527768,27.6845,97.97061,36.850176,117.358325,44.723909,121.020495,51.525655,112.077492,0.0,67.961197,21.787205,69.29615,5.09531,63.155022,-10.179062,49.911804,-22.812653,31.608925,0.0,36.023461,26.556938,84.88119,40.316103,98.19816,51.705225,98.974857,60.222028,94.876915,84.769936,200.758864,-86.401062,184.059268
37,12.839241,-32.904572,-14.646091,-41.816453,0.0,-36.956863,-26.596985,-43.370705,-11.628113,-32.99572,4.858704,-21.843796,21.146965,-8.971596,0.0,62.422689,23.467627,92.557322,29.881024,106.164643,37.056731,109.822305,44.359335,102.898972,0.0,65.290146,17.942791,61.611042,-0.442028,52.276154,-17.2118,38.504505,-31.713467,17.038822,0.0,40.640416,24.24105,88.234237,34.021142,98.986281,42.795691,101.978212,50.17221,96.489033,97.089958,171.918782,-101.566372,146.307304
38,10.912743,-37.960819,-11.369019,-38.649398,0.0,-47.663841,-25.620346,-35.683479,-8.707352,-19.48185,8.614998,-7.108383,25.019989,6.834869,0.0,65.373741,17.388484,82.609701,23.886603,89.924099,31.057061,92.863851,38.234311,87.943825,0.0,60.972118,16.649094,53.052006,-2.331905,42.773781,-20.56097,28.163109,-36.913662,7.037258,0.0,46.669047,22.112329,88.405101,30.006995,96.059558,37.79576,95.964648,44.824377,88.70811,107.261581,137.847081,-113.67651,111.547025
39,13.133812,-28.794649,-6.48571,-33.749626,0.0,-50.308685,-27.8825,-31.751518,-11.378288,-9.482117,5.645256,2.043915,21.964645,12.50267,0.0,59.246186,3.479049,62.813075,5.809602,59.323991,11.346515,60.746968,18.65199,58.773301,0.0,57.828312,17.161617,39.980106,-2.900105,31.806049,-22.278728,18.255444,-39.064922,-1.238766,0.0,52.392662,27.715283,83.758321,35.724836,90.365985,42.378752,90.171286,46.660896,81.832634,119.925041,112.393993,-120.632572,81.138961
40,0.041542,-9.373404,-0.862656,-13.164972,0.0,-49.945908,-24.315147,-24.561768,-6.547394,-3.999596,10.910454,7.197647,26.195526,16.268005,0.0,52.231154,-1.186349,43.566768,0.2935,42.105877,5.645037,43.391829,12.93915,44.939109,0.0,49.727554,12.518749,31.438522,-6.648846,21.476269,-25.266323,7.930527,-41.460171,-7.667255,0.0,54.857769,26.655152,76.151997,32.481396,83.926992,37.126663,86.455856,40.945093,80.066603,119.438353,105.369174,-122.023458,70.322573
41,15.49427,-33.42556,0.627422,-19.391636,0.0,-51.281433,-35.28614,-44.175682,-17.531319,-13.864632,0.892067,1.036148,18.437119,13.732338,0.0,42.920056,-21.72046,41.229855,-22.858119,15.187205,-17.572222,15.217401,-10.227844,16.020033,0.0,44.035492,2.135639,10.948849,-16.597538,-2.985592,-33.682308,-20.194302,-48.517342,-33.821697,0.0,48.103015,23.032348,40.487677,30.131484,50.347581,35.175258,51.880442,40.125232,54.345117,134.583464,76.917131,-121.745195,55.904454
42,-3.432198,-7.167031,4.991798,-8.424423,0.0,-41.401634,-29.776955,-38.767433,-13.482399,-6.897812,5.16758,6.364632,22.986374,18.498917,0.0,32.028426,-25.75585,22.574376,-27.419282,-0.803064,-24.032211,0.026429,-18.029144,4.258895,0.0,35.412712,-1.878204,7.127037,-20.347309,-10.2812,-36.849461,-25.910397,-49.809551,-39.770393,0.0,44.76698,13.912893,32.889782,18.510767,38.139247,22.53677,39.119287,26.350661,38.793554,131.112471,70.628006,-116.792192,48.357936
43,-4.233742,-12.759117,1.267605,-8.580467,0.0,-27.764511,-23.504562,-25.963554,-5.15728,-3.144608,13.910637,13.308678,32.010384,23.529167,0.0,33.332934,-23.302166,11.738877,-24.112888,3.006226,-19.746331,1.101411,-13.207178,2.979303,0.0,31.721649,-0.017281,4.162903,-20.847187,-11.902542,-39.188061,-29.90593,-53.971195,-43.395767,0.0,55.922809,15.231171,31.479712,14.463428,34.385686,15.281251,32.193083,18.113001,30.094557,126.597862,58.649908,-115.805454,40.558489
44,-4.630165,-13.43936,-0.65443,-8.335997,0.0,-21.820221,-16.531792,-14.185638,1.985092,4.09893,20.508041,19.493752,37.895737,29.093971,0.0,39.2933,-15.709397,13.525409,-15.671143,11.15725,-10.770538,10.445237,-3.246343,9.846597,0.0,28.475933,2.691193,6.13781,-18.855343,-10.674076,-38.30698,-28.529263,-53.787689,-42.648983,0.0,64.842749,18.064867,35.673306,18.58249,38.218318,20.57357,35.011156,23.869437,33.297026,121.348543,45.192502,-117.079039,32.204445
45,10.016899,-0.028158,-18.456116,40.80884,0.0,-35.95871,-28.049927,-22.481117,-7.235527,-7.086639,11.902885,10.33905,28.413506,23.119125,0.0,34.885525,-27.383035,7.955522,-29.06209,4.978256,-24.354146,6.963069,-16.400817,9.501937,0.0,42.263203,30.877876,26.490898,14.543495,9.441147,-3.060665,-4.730988,-20.369167,-21.28521,0.0,5.499615,-29.853051,-2.288007,-39.460366,-1.272151,-41.426993,-8.126786,-38.522809,-9.354663,127.496166,46.885482,-139.40443,74.734424
46,-3.280907,-2.365844,2.265015,21.017339,0.0,-27.243919,-23.513031,-16.896858,-2.245903,-0.742264,17.580643,14.35112,35.001984,24.865723,0.0,38.964109,-24.176305,13.737769,-25.753843,8.521402,-20.054774,7.721889,-11.621335,8.601678,0.0,39.67701,31.087646,26.258869,16.997452,9.967861,-0.547028,-4.167366,-18.381786,-14.910336,0.0,-21.193822,-43.123863,-20.204333,-53.045611,-20.282818,-56.85592,-22.907242,-55.9895,-26.368074,123.764248,47.222022,-137.590427,98.454147
47,0.083313,0.977756,-13.993778,16.901366,0.0,-30.585251,-21.141815,-18.290634,0.03788,-2.070465,19.93103,12.953224,37.238388,23.64315,0.0,37.742315,-18.632137,21.576242,-20.037206,20.867687,-13.998108,20.039182,-5.02602,20.287851,0.0,34.940872,40.867023,32.715511,26.305389,18.175678,9.274807,2.953606,-8.635654,-10.428543,0.0,-23.277003,-37.16853,-11.538157,-51.430282,-18.678295,-58.181423,-22.281278,-58.060609,-23.235383,122.347527,48.510614,-153.08424,115.666349
48,3.557625,0.415735,2.493839,-6.079791,0.0,-31.722794,-22.553329,-19.431381,-2.590027,-2.815933,17.414474,12.213478,35.639076,23.454094,0.0,39.095544,-15.851176,26.740398,-16.923534,22.716248,-11.227491,22.080126,-2.608801,22.652706,0.0,24.766045,27.378445,13.192749,10.658627,0.44117,-7.903805,-13.168545,-25.508938,-28.802948,0.0,-4.694143,-45.992726,-11.988472,-56.284049,-16.843351,-58.116338,-20.001452,-54.330822,-26.760035,124.555063,48.737362,-151.940489,109.39757
49,0.964622,0.673512,4.808693,-40.355253,0.0,-30.053787,-21.593857,-17.490349,-1.561546,-0.168114,18.345337,13.992462,36.218605,24.509811,0.0,41.226057,-16.63729,27.45871,-18.412985,22.057432,-12.924022,21.005391,-4.089328,20.83215,0.0,9.353142,15.17664,9.794312,-6.883106,-8.133659,-26.006756,-23.204498,-41.526661,-40.089684,0.0,29.413697,-21.46574,11.107417,-28.158188,6.341829,-26.136665,2.394094,-19.083039,0.700898,123.671064,49.280704,-148.980417,68.912148
50,0.144424,0.456058,-8.581009,-8.475676,0.0,-27.175827,-18.770828,-15.118217,1.434059,0.65506,21.05381,16.05011,38.724747,26.348534,0.0,40.573911,-19.102799,19.801628,-20.804362,20.406967,-14.984818,21.215373,-5.368426,20.334318,0.0,28.789558,26.589203,18.78376,4.247761,-2.488117,-18.630009,-17.121506,-38.014412,-30.164337,0.0,32.715245,-24.202024,12.756925,-28.351806,4.075404,-24.428803,3.488003,-17.277457,0.887353,121.634445,49.523892,-159.74247,60.223602
51,0.532036,-1.210987,2.827377,-11.522009,0.0,-23.522415,-18.674583,-13.860626,2.312279,2.137299,22.270203,17.594833,39.919739,27.778015,0.0,40.515495,-19.910648,16.773079,-20.792074,16.883335,-14.399671,17.068524,-4.640605,16.67434,0.0,26.680756,26.711712,15.063972,3.694439,-1.179771,-19.385777,-16.641769,-39.469357,-29.80751,0.0,38.653072,-21.050777,15.030915,-25.101481,9.221714,-20.815693,9.008768,-12.740129,5.952122,120.336227,48.941262,-158.745346,49.32995
52,3.051109,-2.28387,11.441174,-54.745353,0.0,-20.157166,-19.53186,-13.335457,1.319847,2.549973,21.467628,18.014946,39.816513,28.56823,0.0,37.481821,-21.933746,12.939212,-21.707246,13.121993,-15.035453,13.62174,-5.709906,12.805955,0.0,20.517712,16.929932,6.348782,-3.431053,-7.590981,-24.584541,-23.292103,-44.19548,-34.771156,0.0,79.469044,17.885173,60.002289,16.039546,48.508654,17.850006,43.529594,21.786935,41.038645,123.721561,46.399167,-146.969948,-5.673628
53,3.473396,-1.71589,2.596722,-3.711848,0.0,-22.435226,-19.965935,-16.458435,0.713654,-0.362434,20.723534,14.842758,38.220291,24.804611,0.0,36.011111,-22.852932,15.337938,-23.584427,14.675696,-17.107334,15.010939,-7.466119,14.380127,0.0,28.02063,12.36042,10.534687,-10.291901,-5.703621,-31.522121,-23.301086,-49.191284,-35.75695,0.0,77.094587,17.087111,46.215861,17.188289,42.318051,19.096068,41.113517,22.641005,40.12514,127.158537,44.841991,-144.409647,-9.226762
54,-1.627007,-3.286573,-1.645603,6.98604,0.0,-21.182671,-16.993332,-13.999901,4.364662,1.751862,24.082832,16.425819,40.865822,26.465721,0.0,38.519073,-20.738011,15.952663,-21.840194,15.520565,-15.027704,16.414495,-4.523002,17.796932,0.0,30.508347,17.732334,15.213947,-1.488647,-0.966797,-21.279888,-17.268677,-39.670143,-29.495087,0.0,73.115236,15.051169,66.918397,13.960008,48.620854,16.912295,45.645843,22.050887,43.944156,124.944763,41.358311,-146.642017,-2.437829
55,1.106644,1.353353,-6.570511,62.720943,0.0,-25.995712,-18.568039,-14.698334,2.95887,3.198051,22.451935,16.389656,39.209862,25.40062,0.0,37.572872,-21.759209,17.39929,-22.450783,13.022081,-15.73737,13.112823,-5.877713,14.993803,0.0,24.176502,25.699196,18.995876,6.208706,3.021355,-12.540264,-12.541351,-29.862156,-26.156731,0.0,-5.216891,-39.734568,-10.004061,-48.226393,-6.7906,-48.261004,-8.805269,-42.836786,-14.891081,125.338926,42.411727,-153.925009,59.983177
56,1.086159,1.207591,-0.413647,24.190014,0.0,-32.136955,-20.199852,-17.498817,0.518875,1.731377,19.629822,14.018784,36.441536,23.28907,0.0,38.606697,-19.884497,21.616565,-20.50901,16.713953,-13.848641,16.553556,-4.122519,18.24172,0.0,30.021515,27.11031,23.46508,11.147976,2.093353,-7.231007,-11.499481,-25.213909,-21.248245,0.0,-24.916754,-48.25063,-21.393029,-57.2334,-19.22525,-58.891152,-20.521947,-56.701328,-25.518481,126.477299,43.363177,-154.286442,83.91705
57,-1.77166,1.673035,3.260365,11.171144,0.0,-32.321777,-20.041809,-15.943565,0.876389,0.115585,20.680733,13.581161,37.975388,22.9422,0.0,38.339781,-19.848713,20.836442,-20.602871,18.072894,-14.066806,19.872888,-4.290295,22.296561,0.0,29.344196,27.194881,27.917404,10.880756,0.099277,-7.373371,-11.885204,-25.338707,-22.569408,0.0,-27.681351,-51.805138,-32.661831,-60.999187,-21.353107,-61.962648,-23.082767,-59.359189,-29.264786,124.935808,44.145215,-150.795908,94.197197
58,-0.860939,1.739108,14.074974,3.730034,0.0,-32.008209,-21.783829,-17.33654,-0.755424,-0.890465,18.744164,11.386986,35.503807,20.824242,0.0,42.094175,-16.357067,25.796574,-15.983847,21.609279,-9.191055,21.512176,0.41629,24.54971,0.0,34.998322,25.95789,27.005253,9.73074,4.149742,-8.815441,-9.942455,-26.728134,-20.580711,0.0,-34.41298,-59.424459,-32.490381,-67.433704,-25.725808,-67.641648,-27.321717,-63.355768,-31.883806,123.858547,45.575787,-136.937256,97.618695
59,-1.5271,3.062357,5.985489,-5.68851,0.0,-32.330589,-21.279945,-18.343048,-0.370102,-4.151802,20.243111,10.532913,38.775902,22.339668,0.0,39.982033,-18.488938,28.305493,-19.766091,26.542704,-13.462084,28.155502,-3.663683,27.328015,0.0,29.871883,21.861076,20.082321,5.142345,1.910076,-13.331852,-11.349277,-30.86935,-23.014297,0.0,-35.914904,-60.316259,-30.616873,-67.851847,-25.374788,-67.923786,-25.946226,-63.260333,-29.077497,122.551346,48.522378,-130.731869,91.814418
60,-0.97126,2.223848,-1.772861,-17.203912,0.0,-27.669868,-21.209335,-15.318947,0.474701,-0.026665,20.974617,13.605423,38.859787,23.682518,0.0,40.648475,-17.780784,22.157005,-19.394539,20.337529,-13.694265,21.571426,-4.868526,22.767655,0.0,32.861996,20.70837,27.006569,6.101017,6.185303,-10.377731,-6.91452,-27.429199,-21.314907,0.0,-40.865929,-52.1954,-45.126028,-60.069597,-24.478049,-62.517815,-24.744625,-59.634658,-27.870122,122.081509,50.036004,-132.003307,73.900284
61,1.597824,0.502834,-1.215191,-9.759961,0.0,-29.634018,-22.103004,-18.712349,-1.961746,-3.013802,17.727814,11.958275,35.102692,22.931557,0.0,38.102289,-21.566486,20.190069,-23.327546,17.65824,-17.793875,16.620062,-8.854268,16.589248,0.0,27.693729,20.363102,30.389671,5.597878,6.828632,-10.99308,-6.571369,-28.781891,-19.67308,0.0,-45.225199,-52.589152,-53.416422,-59.566022,-25.842918,-61.776903,-25.870922,-59.37191,-29.759592,123.719187,50.375585,-133.178644,63.97707
62,-1.70517,-1.317692,-0.510464,-6.321668,0.0,-28.202019,-20.471077,-16.713982,-0.387039,-0.185165,19.166908,14.910965,36.564674,24.804955,0.0,36.44957,-23.019349,15.698715,-23.92989,14.940481,-17.419482,14.639911,-7.685178,14.830226,0.0,25.757618,19.090633,21.869144,2.949543,3.535767,-14.598942,-10.064106,-32.390213,-22.043839,0.0,-41.460431,-59.865203,-38.959385,-66.332817,-27.190219,-67.286306,-26.759973,-63.4479,-30.388057,122.150517,47.254657,-133.552608,55.852167
63,-2.758713,-4.064319,-1.012459,-1.766093,0.0,-26.252289,-19.447403,-12.618713,1.348572,3.656731,20.81337,17.362633,38.066139,26.879311,0.0,38.682434,-20.341296,14.729974,-20.718622,13.48348,-14.015892,13.746568,-4.437107,14.475562,0.0,24.517021,18.380241,22.6684,1.978912,2.203617,-16.03672,-10.899353,-33.699532,-22.850761,0.0,-41.812254,-64.092296,-39.872056,-71.573544,-27.35182,-71.290851,-26.429423,-65.765022,-29.586382,119.49935,42.22822,-134.457521,53.123957
64,0.309677,-0.454545,-0.584278,-0.524384,0.0,-29.002876,-19.654427,-15.578842,1.180458,0.367584,20.356064,14.622231,37.081718,24.094162,0.0,38.893837,-21.221795,16.324462,-21.736701,13.753855,-15.074788,14.529038,-5.363857,16.231065,0.0,22.959423,16.085072,19.073696,-0.52248,0.551319,-18.208008,-12.704544,-35.617275,-24.451103,0.0,-40.323698,-62.509448,-33.928239,-69.129926,-24.19977,-67.669776,-22.336977,-61.449317,-25.57523,120.10231,41.709887,-134.748516,52.535784
65,0.766411,0.014666,-0.350704,2.797973,0.0,-33.322105,-21.690445,-18.303566,-1.139374,-2.177696,18.431168,12.968903,35.623398,22.83886,0.0,37.299317,-20.482735,18.757552,-20.874603,18.596723,-14.141493,19.720766,-4.253399,20.130326,0.0,22.256069,15.365982,21.174145,-1.507874,-0.61964,-19.593658,-14.119377,-37.545662,-26.273003,0.0,-37.43347,-61.740192,-36.791451,-69.149007,-23.625522,-67.60642,-21.520976,-61.356877,-24.978906,121.230154,41.67384,-134.737787,55.283044
66,-2.832756,2.609727,-1.396179,3.968606,0.0,-31.041641,-20.949097,-15.967484,-0.190201,-0.983963,19.71302,13.138962,37.094307,23.265381,0.0,35.024093,-20.854843,18.197661,-21.644168,18.828627,-15.184982,20.729706,-5.622715,21.382994,0.0,22.033482,14.998512,21.164932,-1.693268,-0.141392,-19.479504,-12.914886,-37.254868,-25.481415,0.0,-37.814748,-62.054811,-38.055853,-69.243824,-24.087446,-67.612749,-21.884408,-61.283394,-24.988076,118.99272,44.81002,-135.538645,59.778104
67,-0.306816,-0.269633,-1.662197,3.513506,0.0,-30.535011,-21.393585,-16.019211,-0.177498,0.419197,19.753189,13.594551,37.114105,23.875237,0.0,39.013818,-17.716348,21.95082,-18.431664,19.604119,-12.345235,20.399897,-3.513722,20.856047,0.0,21.866798,16.33564,23.240604,-0.512009,0.497074,-18.395233,-12.303772,-36.195202,-24.859257,0.0,-37.280484,-62.23469,-39.708263,-69.662369,-24.06852,-68.0287,-22.194086,-61.614746,-25.583072,118.722582,44.740968,-137.164164,63.49219
68,-0.17189,1.933652,0.228138,1.64466,0.0,-32.471466,-20.804672,-20.455284,-0.41748,-3.928757,19.748154,10.004196,37.77832,22.015228,0.0,37.443381,-19.954553,29.602252,-21.747816,27.27031,-15.912556,27.089165,-6.246116,25.197564,0.0,21.105938,13.929348,22.032509,-2.749672,-1.164494,-20.584545,-14.786625,-38.243122,-26.491299,0.0,-36.856011,-62.076886,-38.190963,-68.695481,-23.060753,-66.813575,-20.767559,-60.370105,-24.539799,118.581047,46.787608,-136.90567,65.249839
69,-0.376625,1.540858,-0.320034,1.314605,0.0,-27.781792,-20.351372,-18.744164,0.212746,-3.310432,20.254555,11.102829,37.744446,22.708855,0.0,37.859147,-20.811402,24.996659,-22.326541,22.611457,-16.046462,24.193904,-6.286038,24.156082,0.0,21.195545,15.193748,22.476368,-1.779041,-0.689564,-19.797821,-14.063931,-37.609692,-26.066208,0.0,-36.499495,-61.672915,-40.155552,-68.316549,-23.715215,-66.479259,-21.175637,-59.826547,-24.628503,118.621674,48.661223,-136.808453,66.897201
70,0.786095,-0.140112,-0.4212,0.761043,0.0,-30.353737,-20.784302,-19.954147,-0.44323,-3.17173,19.508858,11.208916,37.164116,22.267342,0.0,37.881346,-21.288609,25.890342,-22.250742,22.93787,-15.759909,23.87169,-5.896547,23.336654,0.0,21.591625,15.259209,21.715565,-1.713352,-0.801144,-19.752789,-14.449596,-37.414913,-25.979004,0.0,-36.622595,-62.465111,-39.054326,-70.011506,-22.727455,-68.262919,-21.69857,-61.823586,-24.67037,119.962378,48.623108,-136.675043,67.76024
71,-0.91095,-0.804176,-0.687275,-0.0808,0.0,-27.695847,-20.91156,-15.723495,-0.324554,1.489792,19.311905,14.895401,36.480675,24.389191,0.0,39.163562,-19.598778,21.547004,-20.656254,17.025854,-14.438142,16.822232,-5.09938,17.409572,0.0,19.932346,14.427738,20.99802,-2.807407,-0.741577,-20.949612,-13.966885,-38.513947,-25.739822,0.0,-36.676812,-63.027843,-38.470352,-70.244613,-23.07582,-68.031849,-21.552221,-61.181042,-24.221229,119.638281,47.97811,-136.775465,67.838617
72,-1.883812,-0.67663,-1.141434,0.768206,0.0,-24.395485,-18.920288,-13.350677,2.305183,2.572861,22.413597,17.221527,39.819145,27.331123,0.0,40.184328,-20.096795,18.953023,-21.305806,17.291659,-14.791632,17.238739,-4.913295,17.507909,0.0,19.726009,15.054073,18.844643,-2.67992,-0.959759,-21.240978,-13.782749,-39.27618,-26.40192,0.0,-36.454695,-63.961385,-34.470871,-70.657909,-22.92095,-68.145501,-21.655098,-61.055812,-24.103841,118.303328,47.271484,-137.36804,68.576827
73,0.785751,2.340279,-2.174377,0.887847,0.0,-24.992065,-19.889603,-15.663643,1.378899,0.299034,21.857758,15.846405,39.825783,26.281128,0.0,37.278199,-22.498299,17.988173,-24.392895,16.527405,-18.408848,16.773511,-8.994997,17.553141,0.0,21.459103,17.272968,21.084595,-0.30756,-0.151005,-18.852024,-12.9986,-36.24979,-26.200275,0.0,-36.594066,-63.922359,-37.22463,-71.597472,-24.744656,-69.189885,-23.622188,-62.232374,-24.92049,119.541435,49.543884,-139.090061,69.396796
74,0.40535,-0.832025,-0.750046,1.267798,0.0,-27.001305,-20.002327,-14.949074,1.881294,1.275673,22.311516,15.496101,40.051117,26.185799,0.0,37.271715,-21.912535,16.37272,-23.40319,16.112319,-16.96818,16.4588,-7.242768,17.466629,0.0,23.09721,17.771759,20.319901,0.63715,-0.216293,-17.618809,-12.836666,-35.103035,-25.574284,0.0,-37.183165,-63.142853,-34.690579,-70.930599,-23.474049,-69.062186,-23.022869,-62.726254,-24.797298,120.265045,48.156846,-139.521847,70.109581
75,2.297401,-0.126249,1.525383,1.863257,0.0,-31.848106,-22.355461,-16.681023,-1.322937,-0.479965,18.158226,12.87323,35.233955,22.461319,0.0,38.1549,-21.101814,17.556476,-21.91025,16.003144,-15.340562,16.006046,-5.819575,17.172543,0.0,23.38068,16.595821,18.571014,-1.123753,-0.918732,-19.328899,-13.19458,-36.398792,-26.015682,0.0,-34.901178,-63.50292,-30.67745,-70.672235,-23.06171,-68.254984,-21.884439,-61.177739,-23.795058,122.806435,47.332169,-137.752476,71.27441
76,-3.85334,0.433797,1.045475,1.161896,0.0,-27.441444,-17.606049,-14.68792,3.499603,1.510963,23.174515,15.654144,40.120354,25.720253,0.0,37.824381,-21.548486,18.022043,-22.351488,17.151331,-15.326267,18.274973,-4.910269,19.075845,0.0,24.900055,15.580673,20.476971,-1.683025,-0.322323,-19.546738,-13.432503,-36.366062,-25.723629,0.0,-35.183594,-62.979924,-33.325246,-69.705748,-23.206731,-67.108464,-21.574421,-60.150582,-23.559943,119.192877,46.813404,-136.467218,71.483743
77,5.348167,5.305256,4.651566,3.840536,0.0,-37.207947,-24.532127,-22.666512,-4.950371,-6.836929,13.727074,7.204628,30.108032,17.119904,0.0,31.294491,-24.711589,15.827495,-25.12297,13.882697,-18.136374,15.767968,-8.356591,16.929771,0.0,24.617844,12.613621,18.459435,-5.667057,-1.362305,-23.510284,-14.905014,-39.667397,-27.192535,0.0,-35.88267,-64.369432,-31.27538,-70.039355,-20.775092,-65.946167,-19.848497,-57.283789,-21.409393,125.763531,50.973082,-130.593166,74.178701
78,-4.626732,-2.138077,0.688591,4.568635,0.0,-38.096809,-21.377106,-23.393211,-1.504326,-7.575645,17.852554,7.863922,34.86351,19.491005,0.0,34.215317,-21.091841,20.551556,-20.210694,20.634085,-12.113146,22.483819,-0.672585,24.241297,0.0,27.205181,10.8395,20.114422,-7.371826,0.314827,-24.501228,-13.53653,-39.81926,-25.545158,0.0,-34.335946,-63.453396,-32.851651,-68.796628,-20.360562,-64.200329,-19.514643,-54.993528,-19.206941,122.444544,48.145083,-128.59683,78.057414
79,1.208496,2.120664,1.856117,2.150057,0.0,-41.643333,-23.461533,-22.93602,-3.782158,-8.315277,15.227852,5.571098,31.893082,16.451111,0.0,32.634475,-20.414377,17.706282,-19.561604,19.787487,-11.587341,22.213784,-0.507619,23.304019,0.0,25.80225,8.662491,16.767654,-10.21986,-0.556011,-27.653046,-14.443245,-42.627754,-27.506962,0.0,-32.172675,-65.224181,-27.440339,-68.847202,-19.162357,-62.459739,-17.352082,-51.626308,-17.528966,124.242096,49.13116,-126.151657,79.072885
80,3.112793,17.633201,3.859348,8.486853,0.0,-57.149162,-31.947899,-31.15448,-13.811874,-14.730721,2.670822,1.086388,17.616692,12.323685,0.0,22.413609,-30.272831,7.954071,-28.256834,6.09563,-19.316424,10.296387,-7.855887,16.401712,0.0,30.067406,4.981327,14.319019,-14.788628,-4.139328,-31.448936,-16.291466,-45.321522,-27.294502,0.0,-30.480559,-61.400472,-24.799614,-62.008683,-14.184533,-54.024818,-11.894086,-41.769275,-10.654787,128.272362,66.599054,-121.374836,87.394432
81,-1.643829,-1.821884,-0.924911,5.84233,0.0,-62.250595,-32.247849,-31.085701,-13.819771,-16.658936,3.809052,-2.135353,20.31601,6.864052,0.0,27.426445,-21.030554,14.337211,-18.817975,17.589234,-9.616145,21.591989,1.761307,26.457952,0.0,34.420395,4.128742,13.941307,-14.864674,-1.105614,-30.607052,-14.253788,-43.150635,-26.223221,0.0,-31.320704,-62.018656,-22.315395,-62.152778,-14.889228,-54.08132,-13.646841,-41.951686,-11.11035,127.681761,64.633215,-121.246519,93.092806
82,0.672112,5.43135,6.297798,6.343867,0.0,-73.080368,-34.231682,-45.0103,-20.873909,-32.653542,-6.537437,-19.200211,6.773186,-14.606895,0.0,26.478855,-6.217464,30.840039,1.112866,36.004041,11.841969,40.884423,23.87731,45.958423,0.0,36.126423,-2.271252,18.169441,-20.749683,-1.750889,-35.168037,-12.223663,-46.13039,-23.185043,0.0,-25.803151,-53.977208,-9.868889,-48.549255,-0.442627,-36.170273,2.688119,-20.277816,3.351596,127.996588,70.489052,-115.306005,99.861161
83,-7.941513,14.767086,-3.349056,6.029279,0.0,-69.457855,-34.287186,-69.807472,-22.755661,-48.342361,-9.609718,-34.138184,2.859764,-24.059029,0.0,21.676926,-6.158585,44.080562,4.960781,55.359306,17.585375,59.556482,31.147494,60.444391,0.0,45.250568,3.792801,34.172974,-12.111969,16.917572,-26.422291,1.356354,-38.503189,-15.498676,0.0,-19.967181,-45.278181,4.4933,-37.421491,15.431521,-23.289322,17.060743,-5.83563,13.784205,119.512024,83.871478,-119.198112,104.50578
84,-5.989037,10.981354,-2.833328,3.098049,0.0,-70.863991,-32.196693,-68.224525,-20.915337,-54.148636,-8.409462,-40.20504,3.620796,-27.505074,0.0,22.766018,-5.373891,47.62695,6.97264,60.960532,20.5351,68.186009,34.294172,68.610543,0.0,53.532543,7.649117,39.209232,-8.06654,25.168934,-21.314964,11.637669,-32.021484,-4.684925,0.0,-14.614377,-37.339579,15.306569,-28.563548,24.974923,-14.17879,27.338729,2.547606,22.021741,113.08116,92.072628,-122.473269,104.823625
85,-5.238991,23.555003,-0.54388,17.037649,0.0,-64.274139,-36.980782,-87.40139,-27.014236,-80.06218,-14.126587,-64.323692,-1.113968,-38.772583,0.0,13.038754,5.80318,41.756339,16.20019,59.750162,25.484241,64.71261,34.151467,65.30387,0.0,60.533581,11.975269,54.659729,-2.230053,48.222027,-14.005165,36.64587,-21.913891,17.980328,0.0,-7.688729,-24.891591,22.808225,-14.552102,35.97156,0.561682,42.322219,18.695771,41.907751,108.947382,112.778776,-121.911936,119.012418
86,-12.68114,27.093935,-0.144138,5.132941,0.0,-65.074482,-37.851906,-87.191105,-29.39415,-84.506608,-18.164177,-71.292572,-6.405659,-48.720189,0.0,16.315802,9.072247,47.999753,22.385991,67.193047,34.751696,73.784533,45.568423,75.575943,0.0,64.110489,14.479866,59.92178,1.614933,50.810852,-10.004025,40.397701,-18.216133,23.4902,0.0,-6.981934,-9.654461,26.50868,-0.41311,44.760188,10.988146,51.172412,24.117889,56.817449,97.193757,136.435374,-121.128559,120.708023
87,-12.681141,27.093935,8.467598,12.239457,0.0,-65.874825,-38.72303,-86.98082,-31.774063,-88.951035,-22.201767,-78.261452,-11.69735,-58.667793,0.0,19.59285,12.341314,54.243167,28.571792,74.635932,44.019152,82.856456,56.98538,85.848016,0.0,60.691566,11.490612,58.180046,-0.67915,50.00021,-12.075291,30.496159,-21.050777,8.904762,0.0,0.215632,-0.98319,28.150593,7.575911,47.507432,15.470145,51.34448,23.708021,50.290277,84.980307,162.074747,-112.19327,131.492917
88,-7.012024,16.443394,4.57592,30.351748,0.0,-70.261345,-36.953659,-90.821171,-30.728989,-92.810097,-22.536049,-80.699501,-13.397141,-60.461311,0.0,15.538688,17.203603,53.978752,35.631902,73.251673,51.154474,82.472059,63.285033,87.556897,0.0,65.582829,25.035095,60.630856,12.475491,57.017956,1.29427,45.225792,-7.716179,28.106575,0.0,-3.057942,7.93888,33.214188,24.281126,45.931068,40.336542,53.53699,55.169485,54.998931,78.711405,176.371604,-106.874228,159.698128
89,-2.931862,13.279241,-2.960472,10.19771,0.0,-70.265007,-37.463837,-93.57399,-31.92215,-94.986534,-24.871445,-84.321213,-16.916885,-67.350998,0.0,10.739138,15.722149,48.958814,34.294944,67.440836,50.478862,77.885239,63.549757,86.025672,0.0,69.221706,17.65686,79.351616,6.53944,76.929588,-2.075901,67.492104,-8.659859,48.374062,0.0,-3.133895,3.358481,36.244837,20.802973,51.299278,38.557884,59.940013,54.567295,64.841452,76.257935,187.772119,-109.356308,168.017113
90,-8.052063,21.319762,22.744446,33.436366,0.0,-73.244247,-37.768936,-90.156384,-34.078445,-93.06942,-27.913742,-83.945732,-20.615273,-68.856468,0.0,10.846522,18.992389,48.064792,37.312254,65.599933,52.922697,77.841334,63.766872,87.22258,0.0,58.763123,39.723473,95.385475,32.229939,90.086288,22.073307,80.632782,9.890957,63.001614,0.0,9.532967,34.118399,37.778593,48.603873,47.776417,57.628016,56.897138,63.244154,60.24469,69.304419,207.21436,-85.513315,199.575958
91,-6.235085,10.051485,-8.403625,3.727008,0.0,-70.166016,-38.051834,-83.489399,-33.400154,-88.842087,-26.874161,-83.804913,-19.021797,-70.262833,0.0,11.186149,23.372963,49.405887,41.136581,68.834605,55.183503,80.633564,64.741293,87.256543,0.0,70.125675,22.61919,100.994339,14.644661,96.515465,8.799706,83.911858,4.548569,66.386433,0.0,7.882193,20.285134,42.705226,41.68548,59.100331,57.70329,68.377096,68.931367,73.11045,63.566751,216.75801,-93.419523,202.79513
92,-6.783714,17.322473,1.798782,15.858247,0.0,-69.753857,-36.970139,-89.947529,-33.346024,-87.888451,-27.6408,-78.019981,-20.685425,-64.183102,0.0,7.674341,22.422254,43.58307,38.599812,56.024976,51.191277,66.508652,59.178569,72.696414,0.0,73.277893,24.965572,92.375565,14.368114,89.993362,5.954247,77.874813,-1.015549,57.086735,0.0,8.285485,17.472279,52.14143,35.556875,68.905309,50.755257,84.073989,62.235708,86.220309,57.231359,233.694125,-91.172419,218.26702
93,-7.846985,15.097296,14.77066,16.005645,0.0,-68.499298,-32.957268,-97.648087,-29.409256,-93.453484,-24.540939,-79.970341,-17.752876,-61.184235,0.0,0.150115,27.157399,26.171677,40.313509,36.076752,49.054033,47.290689,53.770221,54.835477,0.0,80.797577,26.880169,101.021576,15.71394,97.412224,7.167091,82.547264,0.870152,67.666054,0.0,20.842308,37.190421,53.307649,57.570403,69.194795,69.881336,79.223803,76.066998,82.091924,49.842653,248.729486,-75.94348,234.210729
94,-5.697269,9.761813,0.552635,17.95807,0.0,-72.657709,-37.921429,-98.090143,-34.675484,-95.745964,-30.02472,-87.262545,-23.585415,-70.276223,0.0,1.706905,32.847268,32.677269,47.078731,38.245149,55.905273,48.836302,60.033226,57.893296,0.0,81.337624,30.78146,91.219254,17.950172,87.124672,7.057171,69.881172,-1.790943,50.371742,0.0,17.456841,36.698517,69.028563,52.428385,83.446604,62.4866,93.005074,67.93558,93.608314,44.746199,258.335334,-74.79003,252.012833
95,-5.69727,9.761814,0.066719,6.264147,0.0,-76.81612,-42.88559,-98.5322,-39.941711,-98.038445,-35.508499,-94.554749,-29.417953,-79.36821,0.0,3.263695,38.537135,39.182859,53.843951,40.413545,62.756511,50.381914,66.29623,60.951115,0.0,76.529961,30.517044,91.291122,19.926567,90.135498,10.174026,74.864502,1.415977,52.942028,0.0,15.077104,36.593541,66.665436,52.976728,84.547923,63.802563,93.279802,70.376451,93.321298,39.243507,267.847769,-74.528732,258.027601
96,0.966339,10.998242,4.369812,12.677545,0.0,-66.584473,-55.846024,-32.888832,-56.000919,-23.158722,-52.49033,-24.780235,-46.66048,-34.17572,0.0,5.569578,26.917128,56.215846,41.781934,66.613133,53.753795,70.684647,62.12252,69.735296,0.0,78.429337,31.425018,96.275482,21.845455,95.891304,12.969818,81.003113,4.863396,59.285431,0.0,13.130484,36.213097,64.180723,53.126164,78.503546,64.219502,88.742937,70.699714,89.002783,40.473804,278.758604,-69.894962,270.617738
97,-1.173363,10.757539,7.28714,5.994606,0.0,-50.896912,-52.175446,-25.906105,-52.987461,-13.632202,-50.556507,-11.798515,-46.202202,-22.885895,0.0,15.060987,18.107691,50.650714,28.853065,59.727777,38.316686,58.792814,45.437682,58.344568,0.0,76.095428,31.441555,95.798264,21.824398,95.611954,12.815552,80.721474,4.726925,61.145554,0.0,10.708386,38.111922,62.578362,54.889571,74.794878,65.507369,84.138765,71.464555,85.765518,39.526205,289.257316,-62.382059,276.353518
98,2.059479,1.044323,4.867916,5.787372,0.0,-46.285515,-48.510132,-18.340874,-50.711403,-8.340225,-49.282837,-9.704247,-45.059967,-22.23896,0.0,11.270809,16.325574,50.45478,29.593329,62.887114,41.297996,63.442312,50.934148,66.031321,0.0,73.661785,33.156567,97.357693,23.59417,94.905338,14.077892,80.189838,5.759926,61.58987,0.0,11.414934,36.988435,58.397735,53.639125,71.830179,63.746556,81.166347,69.303969,84.533906,41.616583,290.09232,-57.483244,281.931571
99,-2.310104,19.107368,3.946724,3.937083,0.0,-40.655365,-43.307533,-15.681038,-44.40033,-5.382156,-42.114716,-3.621941,-36.845169,-12.772522,0.0,34.53577,10.67856,40.048044,11.409685,42.581849,11.379675,38.190283,10.051485,34.520148,0.0,72.726574,32.723694,96.408062,23.130169,93.704739,13.610516,78.594418,5.662766,60.671024,0.0,11.616673,38.253083,58.46881,54.829673,70.264374,64.515842,79.401706,69.41759,82.809093,39.283991,309.004048,-53.559008,285.673013
100,-10.333614,-9.340799,-2.429752,0.201059,0.0,-28.631859,-41.881142,-2.08025,-47.158842,6.868629,-48.59416,2.721061,-47.108059,-11.662789,0.0,19.824197,13.280352,40.94923,23.779991,50.261624,31.970318,51.22561,37.955508,52.185952,0.0,73.326416,33.09906,97.177849,23.563271,94.127426,14.411888,79.869347,6.784115,62.07058,0.0,13.188838,37.015543,58.050204,54.521785,68.80694,64.806193,79.773319,69.823846,82.851392,28.884888,299.478275,-56.054249,285.689099
101,-10.333615,-9.3408,1.16684,-0.119487,0.0,-16.608353,-40.45475,11.520538,-49.917355,19.119415,-55.073605,9.064064,-57.370949,-10.553055,0.0,5.112625,15.882144,41.850415,36.150297,57.9414,52.560963,64.260937,65.859531,69.851757,0.0,72.803879,32.657261,95.702591,22.925491,92.808037,13.23967,77.493324,4.885941,59.863358,0.0,14.465713,37.328186,59.367587,54.459541,69.671261,64.574073,79.815927,69.633717,81.760201,18.427105,289.993273,-55.011578,285.42541
102,-25.81358,20.030599,1.697788,-0.78565,0.0,17.897243,-16.074314,25.373898,-20.536594,43.907719,-20.580826,37.107067,-17.780685,23.349438,0.0,-8.243062,6.012267,18.052609,25.695705,36.529815,40.977141,44.51334,52.315011,46.996633,0.0,71.207829,31.031857,94.127598,21.109772,91.309834,11.358261,76.802616,2.875214,58.58614,0.0,17.048918,36.498199,59.620455,54.004502,70.709532,64.533503,79.646237,69.834158,80.7357,-7.45182,309.894473,-53.379135,284.510361
103,-16.217365,-1.096687,0.604305,0.162157,0.0,34.494553,3.834801,54.158478,0.817165,64.574089,-1.425018,55.228386,-2.223473,38.074493,0.0,-9.165552,9.168269,27.466213,26.258066,46.133362,38.986987,49.68716,47.942155,52.617403,0.0,70.03933,29.967041,92.787209,20.173702,89.739532,10.782337,75.631599,2.750702,57.791405,0.0,16.420793,37.098474,59.665471,54.390133,70.925535,64.658054,80.752928,69.671446,81.773415,-23.760395,308.6046,-52.866039,284.479331
104,42.554741,-15.373815,-0.225163,1.78681,0.0,-14.157944,-39.142284,8.539009,-46.352978,16.505699,-49.831982,7.825012,-50.834484,-9.017143,0.0,6.940499,15.852134,38.711086,33.592965,54.073292,47.839464,57.999815,58.771449,64.282673,0.0,71.234837,29.195194,94.123821,20.081005,91.184406,11.472301,77.111607,4.350243,59.26466,0.0,15.239199,35.616464,57.581271,52.907753,68.860231,63.609779,78.697689,69.099452,80.989803,18.46015,293.059968,-53.425398,286.095324
105,6.222038,5.411991,0.365467,0.591631,0.0,-29.686661,-48.746223,-4.109917,-53.158092,6.247559,-52.252007,2.607079,-47.919731,-10.448456,0.0,12.273327,16.012561,40.294923,29.054804,51.668484,38.934067,52.040221,46.409387,55.777356,0.0,70.524673,29.669151,93.02536,20.304508,90.325813,11.233406,75.176125,3.457947,57.111855,0.0,15.793718,36.098612,58.126095,53.11542,69.742768,63.409152,79.236461,68.672448,82.06673,24.331541,298.260541,-53.410578,286.475537
106,-6.629333,12.102895,0.393791,-0.09948,0.0,-11.365471,-32.181473,9.896965,-38.380337,12.853661,-39.245682,6.828918,-36.567993,-8.173828,0.0,-6.651816,4.072872,16.546579,21.598133,35.344145,35.752624,44.438684,47.274695,47.446547,0.0,69.547005,27.782822,91.923065,18.226948,89.187927,9.518108,75.870895,2.427578,57.349892,0.0,16.205469,35.784055,58.047116,52.938813,69.733814,63.348389,78.502681,68.397103,80.668947,17.475386,310.238809,-53.243608,286.251429
107,5.086784,-2.961673,-0.15461,0.302392,0.0,-41.059685,-51.248131,-3.744965,-54.536476,7.538109,-52.506351,4.85424,-46.897659,-9.959679,0.0,21.902501,9.566065,39.16452,17.160439,45.087063,22.668823,41.633301,26.533596,39.899226,0.0,69.233093,27.951221,92.850723,18.350945,90.546799,9.620762,76.405106,2.589626,58.082771,0.0,15.176522,35.098996,56.811614,52.673287,68.793479,63.566739,77.374686,68.978915,80.272386,22.327309,307.017939,-53.63308,286.294624
108,-4.327126,-4.608371,0.15049,0.039891,0.0,-14.966354,-27.628269,7.943916,-33.775921,13.15361,-36.059246,6.485138,-35.83992,-8.398819,0.0,-2.040357,10.41149,26.199156,28.523071,45.472942,42.630879,53.135612,53.532791,56.60932,0.0,68.076668,28.309078,91.617393,18.89431,90.033875,10.150681,75.439453,3.063869,57.232132,0.0,15.560857,34.585047,56.243387,52.582081,68.274405,63.728648,77.593592,69.342008,80.183157,17.690191,302.051878,-53.792582,285.976825
109,-13.419914,5.585572,-0.50766,-0.611082,0.0,-5.040092,-32.073669,17.12162,-37.996445,26.739693,-40.890427,23.614883,-41.272888,8.029518,0.0,5.716174,15.333368,36.092251,20.818657,42.617479,22.807206,38.886087,23.374383,34.888242,0.0,68.506279,28.18491,91.37352,18.927555,88.462257,10.147419,74.477921,2.705383,56.21418,0.0,14.726732,35.879089,57.733795,53.525813,69.001825,64.105202,79.057941,69.100193,82.003744,3.988295,307.309061,-54.582224,285.037355
110,7.432823,-0.221993,0.444489,0.619665,0.0,-23.153114,-46.35046,7.314377,-50.654926,17.484627,-49.27042,16.593475,-44.14856,2.457848,0.0,16.857677,16.51947,39.794868,20.972725,44.495618,21.574235,38.868859,20.764626,33.176767,0.0,68.944473,27.244377,90.387497,18.21516,88.273888,9.699612,73.757515,2.436447,55.557861,0.0,14.840909,36.198894,57.586088,53.250406,69.072652,63.448857,78.547759,68.30034,82.253401,11.079226,306.816879,-54.479628,285.386831
111,4.559898,-13.289553,-1.020355,0.015561,0.0,-22.292747,-46.706429,8.763084,-54.234982,14.748688,-56.667309,9.238701,-55.579605,-8.222237,0.0,6.885665,15.180845,44.371747,31.018343,57.331985,43.216952,59.492261,53.249727,62.433372,0.0,69.41494,26.894989,90.963707,18.094769,88.965225,10.12682,75.872269,3.770313,58.536301,0.0,14.341348,35.24942,57.28067,53.108071,67.930455,64.110574,76.459113,69.408019,80.34624,15.278063,293.303172,-55.861044,285.178238
112,-21.421394,16.343358,0.714054,-0.883216,0.0,7.020149,-15.55687,29.505501,-22.875481,38.857384,-25.65136,27.577286,-26.089211,9.334946,0.0,-11.262843,7.846254,20.033254,24.240927,36.234648,37.319047,44.3828,47.744925,47.061224,0.0,68.498325,27.219315,90.713024,18.040867,88.213406,9.53476,74.285831,2.569199,56.531467,0.0,15.511642,36.145171,58.25855,53.724711,69.160585,64.375113,78.261731,69.431237,81.763288,-6.566648,309.371062,-55.570307,284.019553
113,23.589134,-11.482119,0.082626,0.168579,0.0,-30.297947,-51.834869,2.018623,-56.645222,9.964371,-55.102158,8.387489,-49.667072,-5.781326,0.0,7.761348,20.93765,43.379232,32.115093,52.885091,39.037067,51.488729,43.898183,52.119694,0.0,68.911228,26.503372,90.535984,17.158813,88.412991,8.612251,74.693012,1.712437,56.567173,0.0,15.986688,35.59584,57.524646,53.181246,68.540796,64.067534,77.662814,69.360656,81.784901,16.867676,297.676136,-55.64249,283.975325
114,-13.851585,7.714726,0.254803,0.432747,0.0,-8.154373,-20.338497,20.004272,-26.669884,27.523842,-29.609814,17.13192,-30.65815,0.062027,0.0,-9.447072,14.293059,26.604424,30.609679,42.967295,42.589444,48.864768,51.778338,50.424954,0.0,68.640175,26.447067,90.337944,17.136154,87.935257,8.66209,74.292297,1.982689,56.588173,0.0,15.309471,36.156039,57.084304,53.675064,68.77236,64.357761,77.517392,69.417652,80.863338,2.883682,305.225448,-55.520096,284.242658
115,11.035538,-2.968095,0.091209,0.358646,0.0,-31.935368,-49.391956,5.500946,-53.995514,14.922409,-52.720528,13.738403,-47.847118,-0.911179,0.0,13.558476,17.72033,41.365304,25.987537,48.712121,30.447831,45.753968,33.277174,43.71182,0.0,68.664551,26.252575,89.907646,16.858406,87.951965,8.255424,74.552078,1.393661,56.54171,0.0,14.044946,35.335129,56.182995,52.562383,68.30176,63.374818,77.527889,68.84504,81.672577,13.749247,302.063888,-55.59886,284.40784
116,-15.867348,6.358563,0.577469,0.05045,0.0,3.078232,-15.890121,27.08725,-21.69302,33.399811,-24.182854,22.666512,-25.067883,5.673981,0.0,-11.184296,9.730692,20.940614,25.580726,38.425985,38.07833,46.061053,47.992297,47.700094,0.0,69.470558,25.972595,90.430298,16.576424,87.951393,8.145275,75.414734,1.513596,57.732925,0.0,15.220056,35.057129,56.776602,52.604373,68.393583,63.645656,77.01567,69.055733,80.451586,-2.223988,308.248161,-55.127277,284.284
117,10.104561,-15.31472,1.068707,-0.105346,0.0,-8.819504,-38.530025,17.40818,-45.115986,25.304604,-47.496872,19.252853,-46.887016,2.158127,0.0,3.31044,20.735294,41.99275,36.137576,53.716189,46.762784,55.802427,54.712841,59.241678,0.0,68.748608,26.101398,89.757214,16.527843,87.697849,7.838287,75.02203,0.885029,57.031231,0.0,14.485288,33.679848,56.178055,51.345097,67.772436,62.877295,76.940519,69.012569,81.47232,7.840233,292.760787,-54.098911,284.005999
118,5.702248,11.054127,0.246677,-0.325054,0.0,-32.217522,-48.520947,7.113762,-52.525635,17.649307,-50.63118,15.656204,-45.345154,0.721436,0.0,15.014304,20.008307,40.990973,26.356681,46.293852,28.319603,41.643428,28.622242,37.285084,0.0,69.415398,25.358562,90.795708,15.855389,88.657608,7.323589,75.388641,0.568886,57.315102,0.0,16.109447,33.865593,56.315202,51.772657,67.809054,63.285465,76.696049,69.031527,81.863077,13.508005,303.663471,-53.886709,283.529502
119,-12.362251,2.85713,0.687046,0.548652,0.0,0.837021,-19.950829,24.800606,-25.013695,31.298561,-26.222019,21.400681,-25.646381,3.734436,0.0,-10.308182,11.38517,24.895481,27.45658,41.328748,39.765104,48.501923,49.648072,48.968324,0.0,68.957462,25.701313,89.874172,16.092339,87.757015,7.370453,74.430027,0.421143,56.433735,0.0,15.364367,33.283781,55.702638,51.106123,67.445344,62.639618,76.244777,68.639473,80.547731,1.05566,306.372956,-53.289757,283.930509
120,14.163094,-10.150162,0.157528,0.166788,0.0,-25.37075,-49.724236,10.262489,-56.197987,17.877617,-56.369648,14.000816,-52.633781,-2.619209,0.0,10.327942,20.809889,44.087262,32.118983,52.939122,38.714544,50.765631,43.264562,50.543021,0.0,69.345703,25.827141,90.759087,16.399956,88.921852,7.750511,75.230255,0.767612,56.818657,0.0,15.447792,33.704054,55.493984,51.524976,66.971039,63.025558,75.674636,68.947855,81.072425,15.170689,296.079934,-53.180294,283.954438
