takenoko1/special-research/HandMotion_SimilarSearch_自分用/NewProject/handData/test_key/d4_feature_d2/71.csv
frame,vel_0x_L,vel_0y_L,vel_0x_R,vel_0y_R,posFromWrist_0x_L,posFromWrist_1x_L,posFromWrist_2x_L,posFromWrist_3x_L,posFromWrist_4x_L,posFromWrist_5x_L,posFromWrist_6x_L,posFromWrist_7x_L,posFromWrist_8x_L,posFromWrist_9x_L,posFromWrist_0y_L,posFromWrist_1y_L,posFromWrist_2y_L,posFromWrist_3y_L,posFromWrist_4y_L,posFromWrist_5y_L,posFromWrist_6y_L,posFromWrist_7y_L,posFromWrist_8y_L,posFromWrist_9y_L,posFromWrist_0x_R,posFromWrist_1x_R,posFromWrist_2x_R,posFromWrist_3x_R,posFromWrist_4x_R,posFromWrist_5x_R,posFromWrist_6x_R,posFromWrist_7x_R,posFromWrist_8x_R,posFromWrist_9x_R,posFromWrist_0y_R,posFromWrist_1y_R,posFromWrist_2y_R,posFromWrist_3y_R,posFromWrist_4y_R,posFromWrist_5y_R,posFromWrist_6y_R,posFromWrist_7y_R,posFromWrist_8y_R,posFromWrist_9y_R,posFromBody_0x_L,posFromBody_0y_L,posFromBody_0x_R,posFromBody_0y_R
2,32.832756,-15.852689,-0.751877,-0.907361,0.0,-36.26936,-49.538097,0.441399,-56.194954,5.310173,-57.112484,1.811485,-54.237671,-14.14238,0.0,5.234706,18.847461,43.502609,32.37358,53.688216,41.590199,53.998883,48.705082,55.878133,0.0,70.25156,24.869041,90.596752,15.21389,87.777843,6.718597,74.833775,0.028095,56.047039,0.0,13.278809,33.35183,55.438717,51.225919,67.326721,62.694761,77.216111,68.376108,82.310706,25.233278,294.169052,-50.515909,282.69317
3,-12.115288,11.35621,0.467491,0.435279,0.0,-17.000885,-27.540264,17.061882,-33.712921,23.436012,-35.000839,12.410202,-34.154434,-5.610237,0.0,-15.824655,10.69196,23.479791,28.106626,38.901772,41.121699,45.871108,50.922045,48.656608,0.0,69.73074,24.269943,90.790958,14.839611,87.4716,6.728268,74.530163,0.54039,56.822491,0.0,13.576816,33.910239,55.54746,51.773768,66.906757,63.08842,76.183953,68.733828,81.259652,13.097048,305.50141,-50.069361,283.104598
4,10.820274,-15.394933,0.260983,-0.722356,0.0,-28.345413,-45.602989,6.718369,-55.622749,11.407127,-60.24971,3.122063,-61.080208,-19.009323,0.0,-2.069689,16.41011,41.659174,34.641796,54.854558,48.743614,59.766618,59.805336,64.814838,0.0,69.095421,24.105034,90.837135,14.692726,88.725471,6.726379,76.624374,0.857334,59.004822,0.0,13.370878,32.89463,57.236519,51.383444,67.826653,63.510299,75.479999,69.720044,80.02452,23.836784,290.012848,-49.888916,282.288612
5,-27.056923,12.549536,-0.400486,0.097442,0.0,12.925529,-18.275871,29.253616,-24.490757,39.042664,-25.683746,30.34893,-24.776402,14.942894,0.0,-9.511169,8.508281,22.834006,26.965293,38.29742,41.720678,47.156505,52.497422,50.819107,0.0,68.49329,25.57703,90.681667,16.438236,88.773251,8.25388,75.779514,1.825333,57.588902,0.0,12.346069,33.228391,55.247476,51.288348,66.264305,63.061188,75.779118,69.38585,81.335481,-3.234444,302.524114,-50.303707,282.347784
6,30.829239,-12.263879,0.387211,0.076941,0.0,-33.261681,-44.812832,2.793159,-55.953884,5.946808,-61.702938,-3.189812,-63.979397,-25.985184,0.0,-0.55069,14.726362,41.440825,33.597102,55.847937,48.537615,61.309885,60.537325,65.971547,0.0,68.969536,24.360123,89.693069,15.204048,87.606354,7.091904,74.309578,0.75388,56.41983,0.0,12.488589,33.794395,55.483671,51.726406,67.272196,63.063905,76.397733,68.751797,81.308929,27.595367,290.242158,-49.915924,282.406648
7,-31.250153,11.424135,-0.042858,-0.319991,0.0,6.443024,-18.501034,30.373192,-24.033451,39.658699,-24.970894,30.792274,-24.172497,16.027679,0.0,-11.91221,11.633037,25.565473,29.429135,41.373085,43.174777,48.550582,53.000934,50.790393,0.0,68.22607,24.533443,90.800686,15.267162,88.112583,7.227287,75.172977,1.027794,57.102985,0.0,12.509522,33.896777,55.719002,51.881214,67.441886,63.438668,77.117434,69.350653,81.648926,-3.664083,301.617263,-49.968081,282.037628
8,23.968849,-14.508753,0.553093,-0.005496,0.0,-25.20504,-39.29369,11.14048,-50.221996,14.994049,-56.39677,5.770912,-59.863415,-15.649109,0.0,1.48448,15.760125,42.82601,35.695567,58.028591,51.574438,64.813973,64.43779,69.668667,0.0,68.070202,24.273319,89.730206,14.898319,87.24432,6.786633,74.472141,0.483971,56.663418,0.0,12.703789,32.750504,55.507754,51.009484,67.168949,62.954545,76.844312,69.255063,81.481768,20.291977,287.039164,-49.427776,281.962786
9,-27.781677,15.558202,-0.015564,0.148016,0.0,20.760841,-15.483685,31.655731,-20.681076,43.155327,-21.349754,36.638718,-19.664097,23.245239,0.0,-3.97086,6.541221,21.01453,25.123155,40.462081,40.194084,47.416474,51.254262,49.87766,0.0,67.960911,24.057598,89.751949,14.821873,87.394581,6.848717,74.508648,0.775909,56.748562,0.0,12.281786,33.200912,55.290393,51.494533,67.532782,63.270645,76.93632,69.268586,81.722718,-7.506895,302.559343,-49.460535,282.072779
10,-7.583485,5.877651,0.30653,-0.114362,0.0,24.326878,-4.552002,42.786083,-8.689041,52.152729,-9.874649,45.237637,-9.302788,28.363781,0.0,-17.457768,7.578196,19.400497,24.593954,38.636986,37.437669,44.565766,46.720238,48.263011,0.0,67.851906,24.393425,89.480782,15.192032,87.30423,7.100945,73.83419,0.825748,56.323013,0.0,11.82718,33.422163,55.299902,51.619331,67.357041,63.397789,76.126217,69.457604,81.156652,-15.102568,308.374147,-49.166193,281.895571
11,20.295124,-22.464738,0.697231,0.250768,0.0,-3.508987,-23.412437,27.02877,-33.535137,31.747284,-41.38298,21.60759,-47.74395,0.022316,0.0,1.629408,15.877698,41.931432,34.342615,57.45104,49.727051,64.428836,62.702048,69.673237,0.0,68.006001,23.903217,89.388714,14.568901,87.208271,6.386147,73.219814,0.101223,55.37962,0.0,11.222643,33.261798,54.565628,51.365228,66.650492,63.13041,75.380025,69.254507,80.35717,5.170555,285.894713,-48.490963,282.131643
12,-15.884285,18.452443,-0.842113,-0.604722,0.0,12.274818,-14.625492,34.804573,-20.402584,47.229309,-21.124535,40.376472,-19.950428,24.600677,0.0,1.998676,0.083425,13.56706,20.991497,35.777695,39.121665,43.009285,53.145245,47.386278,0.0,68.486252,24.991264,90.887604,15.60133,87.735672,7.278786,74.469223,0.801601,56.203537,0.0,11.866885,33.355844,54.808739,51.393571,65.895285,62.90533,75.440478,68.705546,81.34567,-10.73164,304.324586,-49.350986,281.504351
13,-17.932663,-6.977611,0.749531,0.699323,0.0,39.191208,7.562256,70.044594,2.216606,69.6278,-1.253242,62.710304,-1.431198,44.764938,0.0,-3.287283,14.303248,39.803204,33.167258,57.01607,46.635455,59.808794,55.72561,61.233129,0.0,68.657055,24.383125,89.845104,15.4636,88.03751,7.731342,74.966755,1.720448,57.686291,0.0,12.884162,31.624794,54.295346,50.216423,66.056947,62.463691,74.575787,69.058017,79.529591,-28.689022,297.304321,-48.626175,282.16102
14,17.944279,-10.205491,-0.255833,-0.461276,0.0,14.644604,-10.564384,46.32288,-19.296513,50.652065,-27.298336,40.636768,-35.34605,18.828793,0.0,-5.546484,11.243021,37.393332,30.258999,53.337351,46.295334,62.252505,60.29903,66.500439,0.0,68.220291,24.663849,89.928474,15.578442,87.754669,7.77998,74.697189,1.762104,57.394753,0.0,12.433692,31.589658,55.088098,50.404885,65.677306,62.793623,74.52367,69.376094,79.507546,-10.777159,287.071923,-48.914423,281.672837
15,0.540047,-1.222041,-0.012875,-0.123933,0.0,14.903584,-8.361282,44.329891,-16.784191,48.865757,-25.391636,39.409046,-34.270821,18.069134,0.0,-4.890694,12.635616,35.951893,31.524882,52.636175,47.493847,61.426716,61.403807,67.48826,0.0,68.450489,25.862389,90.367069,17.08374,87.704372,9.038601,74.607868,2.516499,57.236423,0.0,12.413685,32.393772,53.636284,50.750132,64.889741,62.740765,74.443086,69.113222,80.226444,-10.270643,285.834305,-48.960829,281.533327
16,-0.554695,1.175666,0.562305,-0.322399,0.0,12.913227,-8.850918,46.248608,-17.858334,50.204258,-26.497993,39.597645,-35.117226,18.190441,0.0,-6.104646,12.070291,36.646523,31.317462,52.965613,47.345832,61.7246,61.22152,66.967951,0.0,68.579636,25.387173,89.489937,16.356297,86.780434,8.064423,73.43914,1.253757,56.235237,0.0,13.300668,32.322821,54.438113,50.572846,66.138458,62.478449,75.397685,68.730432,80.287762,-10.863619,286.968197,-48.436804,281.169154
17,1.993618,-1.238405,0.040226,-0.364389,0.0,15.456047,-9.609776,44.535141,-18.349171,46.68869,-26.522942,36.783714,-34.387493,16.242142,0.0,-5.021605,12.646361,37.918581,31.96226,53.635173,48.144635,63.204449,62.159941,68.445639,0.0,69.470272,25.061359,90.256062,16.096687,87.57906,8.090572,74.396839,1.754036,57.409,0.0,12.834206,31.607936,54.274969,50.286757,65.56208,62.650856,74.788394,69.244442,80.138758,-8.924417,285.713784,-48.450994,280.788756
18,-1.599083,0.069222,-0.243874,0.175248,0.0,15.917816,-6.955318,45.782661,-15.219841,48.060036,-23.43544,38.157463,-31.681995,17.460136,0.0,-6.606677,12.168166,36.56106,31.889333,52.823525,48.50007,62.662836,62.884026,68.326399,0.0,69.3857,25.435238,90.643444,16.571045,87.679996,8.590965,74.53371,2.310619,57.469769,0.0,12.830748,32.134482,53.96387,50.634782,65.300443,62.707049,74.479765,69.011025,79.668776,-10.578661,285.759387,-48.750029,280.940385
19,1.280594,1.567596,0.056362,-0.193526,0.0,16.92009,-7.180824,43.803062,-15.346184,47.633057,-23.51572,36.734962,-31.679935,14.508247,0.0,-7.07987,13.452451,35.973629,32.262985,52.904912,48.038301,61.402387,61.562011,66.683529,0.0,69.577332,25.060272,90.399399,16.271381,87.624092,8.411808,75.081139,2.13232,57.750206,0.0,12.593194,31.775959,53.993572,50.196292,65.651,62.286282,75.155932,68.588282,80.474248,-9.330654,287.313135,-48.726254,280.733011
20,0.162849,-0.831716,0.679035,0.207296,0.0,17.965393,-8.578148,43.214378,-16.386681,46.913223,-23.734245,36.734848,-31.194592,15.832672,0.0,-2.034306,16.78333,38.999708,34.380715,54.950827,48.593807,61.11395,60.389803,65.823963,0.0,69.049358,24.522858,90.304928,15.727959,87.99139,7.97739,75.450954,1.895428,58.190403,0.0,11.875407,31.8169,54.291518,50.287498,65.535156,62.478573,75.08566,68.882523,80.493144,-9.212379,286.468513,-48.091793,280.927401
21,5.112762,2.459395,-0.274143,-0.17957,0.0,10.515289,-11.501312,34.068947,-17.862511,39.561653,-24.140396,31.849937,-30.073013,13.543854,0.0,0.084042,16.871324,38.045787,32.328625,51.742708,44.624182,55.774516,54.709321,61.441166,0.0,68.792725,24.748192,90.9375,16.007309,87.874374,8.366833,75.567741,2.554722,58.707161,0.0,11.896402,32.327329,53.69575,50.82874,65.051589,62.908911,74.551705,69.197265,79.914481,-4.143362,288.917025,-48.409681,280.736948
22,5.245857,-0.564214,0.487347,0.102382,0.0,6.142159,-13.236923,30.303955,-20.241222,34.619408,-27.299709,25.294762,-34.190826,4.842224,0.0,-5.943168,14.07471,31.281771,32.979598,49.191428,48.695263,57.985304,61.425667,64.78705,0.0,68.124561,25.253162,90.638981,16.524982,87.420673,8.707867,75.118046,2.685184,58.550663,0.0,12.043862,32.117563,53.654315,50.527645,64.865473,62.682473,74.082649,69.143665,79.664886,1.076174,288.340863,-47.948656,280.827381
23,-8.77224,10.939271,0.200901,0.418544,0.0,23.258286,-12.745571,40.250587,-19.263554,48.705368,-20.901031,35.084152,-19.875469,16.323509,0.0,-2.314591,4.833575,23.684432,25.90683,43.254188,43.24369,49.192848,57.249116,52.070417,0.0,67.496223,25.826397,90.511665,17.107029,86.856308,9.136219,74.186554,2.733021,57.841415,0.0,11.083026,31.512902,52.868356,49.735264,64.302804,61.857425,73.674108,68.48133,79.47136,-7.718725,299.269204,-47.770414,281.234996
24,-14.620342,2.090437,0.123596,0.208346,0.0,34.093952,5.104465,56.671314,0.575752,61.234646,-2.564964,54.169407,-4.081306,37.039661,0.0,-9.671905,11.840518,26.06065,29.397395,43.995007,42.457299,49.674378,51.60377,53.52748,0.0,68.601952,25.617199,90.099335,17.150459,87.000847,9.286823,74.366341,2.840366,57.976341,0.0,11.04931,31.680987,53.130919,49.783614,64.172942,61.73658,73.243028,68.16134,79.167239,-22.350912,301.344527,-47.658663,281.428228
25,17.426205,-15.450694,-0.133667,-0.568783,0.0,11.329308,-5.277958,36.259003,-10.924759,38.654137,-18.115997,30.216179,-25.676537,10.275307,0.0,-9.090216,13.440595,28.794341,33.414568,48.995062,50.276938,59.105457,63.901241,65.353734,0.0,69.084892,24.131584,89.522438,15.58548,87.861443,7.950325,74.87011,1.891422,58.134613,0.0,12.106354,32.55704,54.50678,50.509737,64.621991,62.214405,73.701895,68.31726,80.002414,-4.962416,285.850638,-47.830038,280.816251
26,-4.085655,-1.943409,-0.461426,-0.437872,0.0,17.452011,-2.65852,43.317261,-9.689255,45.154724,-17.769413,37.507324,-26.037025,16.977654,0.0,-12.024164,10.493927,34.83032,30.688843,54.317083,48.17199,63.588598,63.172833,67.901124,0.0,68.724174,23.154602,90.957985,15.004578,90.130692,8.295593,77.470665,3.473339,60.564537,0.0,10.987498,33.234874,55.504234,51.707263,65.341939,63.704936,73.540171,69.824896,79.886384,-9.153957,283.850728,-48.39735,280.321877
27,2.455444,1.95156,1.623116,-1.211728,0.0,16.011772,-7.727623,46.54438,-17.13541,46.651154,-26.498337,37.10907,-35.176449,11.598244,0.0,-9.091204,10.03438,38.894423,29.579929,57.018293,45.623304,66.006991,59.320966,69.326508,0.0,67.901917,23.954315,90.041771,14.165382,88.155899,5.788765,74.057808,-0.681152,54.955444,0.0,11.422159,33.61217,56.757582,51.223634,69.591232,62.258124,79.616906,67.745018,85.13906,-6.764374,285.778776,-46.840096,279.086637
28,4.399452,-4.411943,1.754494,-4.506113,0.0,1.492538,-10.716076,39.342957,-22.268028,37.109184,-32.050095,27.141609,-40.498638,8.086739,0.0,2.338365,17.530695,42.507996,35.793935,57.514272,49.671723,65.131247,60.511884,68.906729,0.0,70.197258,22.222595,87.063103,13.086948,86.680756,5.206032,72.6614,-1.170444,52.920914,0.0,14.78521,32.015736,57.672538,49.530252,72.827077,60.877755,83.61401,66.85538,87.861759,-2.381773,281.333133,-45.102453,274.546824
29,-2.866516,31.266518,1.821728,-11.986187,0.0,-27.933254,-18.840523,8.942757,-20.522804,15.805664,-21.44022,15.210915,-20.881519,-1.594162,0.0,39.285674,8.781958,18.874199,-3.902997,12.754301,-17.34038,2.377453,-29.769441,-10.356409,0.0,64.838734,22.042923,85.531368,13.006954,82.383099,4.496899,65.383816,-3.052883,35.000668,0.0,14.820531,26.700384,54.549882,45.01074,69.443896,58.832458,79.546201,67.652084,83.75653,-5.290661,312.572604,-43.323097,262.53359
30,9.612236,-49.797879,5.298672,-12.812469,0.0,-32.875443,-32.513638,-44.802818,-23.698654,-58.603821,-12.621689,-55.113602,-0.71537,-39.067039,0.0,-0.125292,33.154908,34.667546,52.960735,61.941838,66.340011,81.155479,74.642663,97.485314,0.0,54.214096,19.964218,64.675941,14.145184,47.088089,7.381325,17.850437,0.570259,-4.340744,0.0,12.172426,21.154703,48.525759,43.185459,78.352196,59.382531,95.211231,69.125264,94.427433,4.331017,262.841817,-38.014984,249.788212
31,26.727905,14.659116,2.660122,-47.506136,0.0,-63.523464,-34.947281,-93.977623,-30.308762,-99.812737,-23.200378,-88.062172,-14.081039,-63.747196,0.0,19.010358,24.556472,37.396605,43.146927,51.804644,57.097271,72.283056,67.220634,86.369869,0.0,71.936817,15.527115,39.705791,5.785904,27.195568,-1.36076,16.882553,-6.214199,8.307209,0.0,16.144769,1.782734,9.981028,21.604987,24.191588,40.63949,40.042055,57.091467,53.320863,31.656561,277.573876,-34.757223,202.355019
32,-1.487617,-2.62853,-2.699432,-14.760386,0.0,-61.406593,-34.922905,-94.525509,-30.260811,-97.368336,-22.691574,-87.994423,-12.819099,-63.234787,0.0,20.688858,27.494741,41.641637,46.222345,55.766488,60.123659,75.873966,69.280442,90.026667,0.0,71.881771,12.771206,27.281628,5.430164,22.032452,0.493984,14.541664,-1.931992,9.515705,0.0,3.486552,6.888197,11.454454,24.353621,29.854595,41.802065,44.693281,57.169211,63.011479,30.38003,275.190402,-37.245569,187.83969
33,1.688805,0.602931,-14.01598,-47.869969,0.0,-63.571587,-34.730072,-96.691818,-30.789528,-100.522671,-24.263077,-90.703182,-15.605736,-65.913506,0.0,19.35474,27.88204,40.039276,46.094151,53.844507,59.537092,72.862584,68.453975,89.651039,0.0,69.547005,12.514,47.553177,11.726303,32.584991,12.499352,27.090511,14.663773,23.739395,0.0,-16.907325,-12.373054,0.783736,5.830536,17.890268,25.348915,35.55459,42.810573,48.020393,31.797895,276.467555,-51.532488,140.643942
34,-0.60173,-1.057538,1.756554,-37.256771,0.0,-64.014759,-35.741386,-96.141815,-30.924683,-99.722672,-23.791466,-89.938316,-14.926987,-66.214542,0.0,21.452155,28.973973,40.835794,47.353674,55.728635,60.724182,74.890344,69.452788,91.177015,0.0,51.164017,14.034634,50.057716,14.875946,30.889835,16.45134,26.339951,18.795319,28.478222,0.0,-37.149048,-20.308692,-23.075789,-3.874962,6.126197,14.39399,24.372486,32.785301,35.611926,30.251083,276.1356,-50.721016,104.112754
35,0.413818,-0.230082,-11.702184,-29.69003,0.0,-64.685154,-35.996132,-96.109257,-31.55571,-100.16367,-24.559021,-90.369244,-15.452271,-65.073624,0.0,21.900031,28.369683,40.556806,46.175538,53.921016,59.375244,73.275509,68.202527,89.509445,0.0,51.409006,17.558326,53.230762,23.736677,42.479496,29.60432,35.524835,35.162716,37.387647,0.0,-43.958297,-17.737451,-44.470918,-0.587972,-20.845951,16.316373,8.116026,32.050872,20.398338,30.708733,276.415314,-62.379369,74.93252
36,-0.657806,-1.590814,-11.702185,-29.69003,0.0,-65.243969,-35.941772,-96.559296,-30.796852,-99.567032,-23.469086,-89.568901,-14.317245,-65.147724,0.0,23.40106,29.479214,42.513738,47.690337,55.695105,61.032255,74.387449,69.739866,90.699561,0.0,51.653996,21.08202,56.403809,32.597408,54.069157,42.757301,44.709721,51.530113,46.297073,0.0,-50.767545,-15.16621,-65.866046,2.699018,-47.818099,18.238756,-8.140433,31.316444,5.18475,30.64888,275.79764,-73.483601,46.215629
37,-0.222473,-0.904026,-3.099289,-5.299019,0.0,-65.448589,-36.208878,-96.912117,-30.769501,-98.589306,-23.167419,-89.530678,-13.558731,-64.918671,0.0,24.60439,30.008662,43.651243,47.97408,55.973723,61.016076,74.630375,69.486071,91.820331,0.0,44.796352,22.391167,57.245235,34.800453,66.215286,44.509506,66.005001,51.988506,61.122608,0.0,-50.702584,-21.79876,-81.5136,-8.240901,-75.740585,3.054422,-53.661726,12.236122,-25.970433,31.209812,275.520952,-75.799484,41.543948
38,0.390358,-0.039459,-3.673782,-28.739321,0.0,-64.962273,-36.301117,-97.591324,-30.842743,-98.593197,-23.414383,-90.274715,-14.106216,-66.261063,0.0,24.693434,29.851693,42.512874,47.63328,55.279586,60.683303,73.42865,69.316813,91.276001,0.0,46.987782,20.426846,59.479752,36.503048,45.417824,50.027905,48.358955,60.428181,55.758591,0.0,-55.630174,-23.969349,-71.672468,-7.762922,-42.054778,6.506826,-23.802221,19.037837,-12.190982,32.115383,276.075363,-78.958054,13.398496
39,0.013504,-0.197231,1.637306,-6.581328,0.0,-63.961029,-36.160355,-96.78812,-30.914612,-98.479271,-23.600578,-89.608669,-14.516144,-65.855713,0.0,23.897101,29.65298,41.955391,47.49922,54.907725,60.566904,73.03283,69.109579,91.319597,0.0,39.080715,18.828793,53.434982,34.764462,51.339855,48.338127,49.679031,58.775711,54.986973,0.0,-59.030152,-28.415841,-86.477654,-16.364878,-64.156393,-4.227464,-30.342423,6.60399,-14.466115,32.483454,276.845854,-76.966181,7.78489
40,0.270538,-0.339936,0.027752,-6.729745,0.0,-63.893795,-35.497169,-97.18174,-30.226135,-99.300671,-22.890358,-90.410728,-13.828697,-65.839291,0.0,24.852133,29.612534,41.137383,47.678543,55.044008,60.863738,73.433405,69.499224,91.309161,0.0,39.137077,16.174393,50.9622,32.422771,40.018215,46.209984,45.959873,57.347603,52.803383,0.0,-60.092506,-29.678545,-87.595707,-18.546582,-51.145242,-6.996075,-30.098725,3.380372,-15.729281,32.837162,277.518949,-76.855259,2.068176
41,0.314255,-0.061812,1.27161,-2.945279,0.0,-64.411469,-36.599464,-97.378235,-31.352806,-99.446812,-23.961182,-90.69849,-14.670753,-66.062622,0.0,24.190415,29.131066,41.064024,46.990643,54.39847,60.313912,72.663748,69.369363,90.518694,0.0,36.884422,16.211529,49.291248,33.355923,35.033455,46.974564,44.256248,57.75404,51.764946,0.0,-52.570163,-30.568862,-85.153849,-19.796657,-42.777721,-8.182393,-26.492409,3.197652,-12.843376,33.022099,277.846843,-75.712967,-0.487396
42,0.28965,-0.42898,1.736755,-1.302748,0.0,-64.058876,-36.407433,-96.81633,-31.470795,-99.228859,-24.074821,-89.23851,-14.610329,-65.043869,0.0,23.143375,29.180713,41.101383,47.041032,54.618795,60.277294,73.272298,69.136935,91.095505,0.0,37.594414,15.275688,50.099258,32.048206,33.841038,45.824833,42.440758,57.276306,50.035572,0.0,-55.671547,-28.951557,-83.371547,-18.095248,-37.16217,-6.347201,-21.882617,5.075266,-9.805224,33.309917,277.544899,-73.978043,-1.663108
43,0.10128,-0.210692,0.024548,0.321071,0.0,-63.869591,-35.664139,-96.309242,-30.629997,-99.223938,-23.384285,-90.004692,-14.178886,-65.331516,0.0,22.372854,28.769702,41.084834,46.720423,54.5082,60.034183,72.685607,68.975951,90.687643,0.0,37.537079,15.007782,47.636948,31.56847,33.004189,45.348816,41.85854,56.726074,49.684696,0.0,-59.249026,-26.605319,-80.909373,-15.977672,-33.966185,-4.5695,-19.222718,6.4657,-6.87384,33.049765,277.151873,-74.314928,-1.524371
44,0.895271,0.282755,-0.437107,2.867689,0.0,-63.830223,-35.291862,-96.924362,-30.567169,-99.838486,-23.599548,-90.332565,-14.621429,-66.050663,0.0,23.347584,28.713571,40.558103,46.527886,54.549326,59.716477,73.138114,68.539561,90.535058,0.0,36.427002,14.934254,46.881008,31.302052,33.231297,45.044289,42.388,56.515217,50.423355,0.0,-59.81077,-26.097854,-81.521165,-15.737494,-34.680328,-4.563788,-19.983607,6.35279,-7.687834,33.550873,277.078344,-75.146198,0.987034
45,0.125999,0.189636,-1.132736,1.945632,0.0,-63.876114,-35.378723,-96.556263,-30.407867,-99.561253,-23.278656,-90.962448,-14.156227,-66.310329,0.0,22.185441,28.440264,40.666104,46.205425,54.574644,59.373392,72.811331,68.209135,89.86451,0.0,34.143848,14.588871,47.985535,31.621914,32.842541,45.718632,42.14241,57.151051,50.472679,0.0,-55.189029,-26.677413,-82.53946,-16.764743,-36.270803,-5.929151,-21.88765,4.5494,-9.535406,33.346653,277.234557,-76.609154,2.899244
46,0.552406,0.126033,-1.069393,-0.13582,0.0,-63.473911,-35.530472,-96.183987,-30.508919,-99.139366,-23.245354,-89.341965,-14.013634,-65.952816,0.0,23.433293,28.514241,40.903658,46.605938,54.533641,60.062279,73.024185,69.235365,90.199259,0.0,36.774788,14.191933,46.805077,30.729046,32.063942,44.725857,41.186199,56.242447,49.622955,0.0,-58.419873,-26.094211,-81.114446,-16.274722,-35.723231,-5.624907,-22.229469,4.540384,-9.876855,33.806076,277.626996,-77.77153,3.02983
47,0.65609,0.382853,-1.216793,0.25472,0.0,-63.528442,-35.953789,-97.081261,-31.158485,-99.683189,-24.063263,-90.696316,-14.897575,-65.96981,0.0,21.499394,28.161275,41.047228,46.261988,54.049703,59.779339,72.597489,68.940445,89.912058,0.0,36.994972,14.03223,46.958427,30.728245,32.320919,44.887562,40.736217,56.313,49.26281,0.0,-55.637306,-26.175907,-82.023257,-16.231343,-35.154077,-5.40699,-20.783799,4.970198,-8.435292,34.466944,278.429335,-78.983545,3.704037
48,-0.022545,0.377789,-1.243858,0.642328,0.0,-62.071266,-36.420021,-96.668758,-31.674843,-99.136505,-24.468956,-89.1049,-15.178299,-65.407276,0.0,22.411324,28.335226,40.884948,46.356714,54.259717,59.807312,72.510051,68.929824,90.166964,0.0,35.51548,14.250469,46.976795,31.105843,32.083855,45.134525,40.647926,56.375542,49.216747,0.0,-53.404628,-26.484597,-82.833423,-16.878117,-35.175072,-6.349177,-20.763885,3.695114,-8.659723,34.498844,279.040371,-80.172958,4.579611
49,-0.683784,-0.61102,-0.763721,1.544687,0.0,-63.224258,-36.329956,-95.939484,-30.888176,-99.007931,-23.182526,-88.79488,-13.643188,-64.672222,0.0,25.359103,29.857683,41.417854,47.999336,55.385859,61.093635,74.510579,69.436671,91.441739,0.0,36.15406,12.836838,46.22818,29.333096,33.001041,43.427582,41.561394,54.857826,49.373417,0.0,-52.922542,-27.455067,-84.293913,-17.387527,-37.756116,-6.774082,-22.635879,3.394451,-10.449806,33.923235,278.358492,-80.828505,6.053439
50,0.36953,-0.176421,-1.004677,-0.191179,0.0,-64.542274,-37.512474,-96.787205,-32.07859,-99.32579,-24.064178,-89.937859,-13.902054,-65.119686,0.0,25.213496,29.043318,42.826566,47.017752,55.565861,60.337192,73.534243,69.123349,90.154428,0.0,35.657616,12.705631,45.099564,29.3256,33.426762,43.387127,40.982952,54.581051,48.643913,0.0,-55.437667,-27.560382,-84.150868,-17.393702,-40.784789,-6.686705,-23.026451,3.636451,-10.291046,34.23111,277.91199,-81.894836,5.592179
51,-0.31414,0.128688,-0.480824,0.581226,0.0,-64.294281,-37.947922,-96.621323,-32.268105,-98.740883,-23.928337,-87.963581,-13.582878,-64.080048,0.0,25.177989,29.287603,43.388001,47.332617,55.826139,60.613772,74.792964,69.14243,91.105508,0.0,34.348698,12.775784,45.266647,29.731236,32.706299,43.930492,40.502357,55.360508,49.020081,0.0,-51.220392,-27.864225,-84.788256,-18.343269,-42.522754,-8.086803,-25.099258,1.92794,-12.734448,33.978968,277.771955,-82.313662,5.904682
52,0.464287,0.065826,-0.406952,-0.603302,0.0,-64.937267,-37.435341,-96.453552,-32.080078,-99.204311,-24.014969,-88.79837,-13.842888,-64.673882,0.0,24.499538,28.643052,42.727642,46.612978,55.871835,60.009359,74.363366,68.926119,90.447557,0.0,35.319271,12.680397,45.001831,29.808884,32.653141,44.378185,41.214237,56.300011,50.111732,0.0,-52.197685,-26.990302,-84.043113,-17.53792,-40.554923,-7.244836,-24.22552,2.913168,-12.054576,34.455385,277.572224,-82.708483,5.035823
53,-0.113411,0.033839,-0.02409,-0.476868,0.0,-64.813614,-37.677956,-96.92482,-32.0224,-99.051247,-23.748322,-88.189831,-13.442116,-64.193287,0.0,25.053068,28.671457,43.436907,46.853681,56.249006,60.364053,75.014215,69.255125,91.074756,0.0,35.999451,12.619686,45.168285,29.869137,32.625732,44.709377,41.339607,57.120209,51.136894,0.0,-52.878699,-25.992138,-83.577083,-16.493195,-39.206047,-6.156331,-23.21797,4.093033,-10.972431,34.440193,277.510952,-82.634354,4.463845
54,0.430527,-0.002594,0.153294,-0.150424,0.0,-65.142632,-37.396317,-96.705036,-31.918831,-99.553814,-23.717079,-88.754997,-13.443489,-64.911575,0.0,24.678305,29.034426,43.423013,47.072771,56.155825,60.521517,74.877809,69.397336,90.550001,0.0,35.978508,12.26263,44.512138,29.434547,32.49979,44.072914,41.700268,55.935059,50.854797,0.0,-54.035717,-26.764265,-83.836157,-16.940021,-37.361438,-6.121133,-21.858256,4.45134,-9.359541,34.810696,277.383036,-82.541084,4.188098
55,-0.351105,-0.062368,0.39196,-0.650016,0.0,-65.193901,-37.077141,-96.897125,-31.355667,-99.638329,-23.192139,-88.88134,-13.168945,-65.210667,0.0,25.117351,29.445252,42.832803,47.474396,56.420919,60.839655,74.889171,69.621984,91.073274,0.0,35.447445,11.50692,44.158115,28.70739,32.176437,43.477192,41.551552,55.490513,50.81955,0.0,-53.774729,-27.445773,-84.104277,-17.560243,-35.631439,-6.564378,-20.475479,4.021341,-8.071458,34.5502,277.351728,-82.058516,3.569143
56,0.212746,0.203406,-0.086689,-0.893745,0.0,-65.963802,-37.589378,-97.529182,-31.929016,-99.772797,-23.848114,-89.790688,-14.034691,-65.877342,0.0,25.921156,29.427282,44.197302,47.47699,56.856198,60.811744,74.868978,69.550477,91.148733,0.0,35.934277,12.002163,43.849182,29.142609,31.768341,43.584938,41.063118,55.13031,49.225616,0.0,-53.274458,-27.679715,-83.342339,-17.777141,-34.94814,-6.73027,-19.366349,3.782491,-7.370313,34.903965,277.53962,-82.004185,2.659884
57,-0.855331,-0.030319,0.32238,-1.1878,0.0,-65.82962,-37.422066,-96.878815,-31.688232,-99.541626,-23.464737,-89.21917,-13.447609,-65.36293,0.0,25.228934,28.930253,43.150138,46.925435,56.17966,60.391718,74.401898,69.399683,90.42014,0.0,35.842094,12.382908,43.31749,29.689922,31.454887,44.701824,41.643333,57.295704,51.581726,0.0,-55.392559,-24.984155,-82.255346,-15.443809,-33.992892,-4.950531,-20.059776,5.328875,-7.782003,34.213171,277.517714,-81.517267,1.480497
58,-0.588112,-0.038224,0.234146,1.175944,0.0,-65.435028,-37.384415,-96.958065,-31.542664,-99.309483,-23.142128,-88.492699,-12.960777,-64.699745,0.0,25.509836,28.705791,43.84304,46.677877,56.447904,60.175221,75.014709,69.209985,90.727534,0.0,34.186649,12.517033,44.128189,29.613762,31.636791,44.179058,40.839443,56.076794,50.073223,0.0,-53.451743,-27.188923,-83.86873,-17.861554,-37.502939,-7.528147,-22.3618,2.584872,-10.16137,33.839178,277.5003,-81.069002,2.677251
59,-0.197182,0.09596,0.081825,-0.716583,0.0,-64.701576,-37.840004,-97.061749,-31.989555,-99.151039,-23.530769,-88.232231,-13.161507,-64.639034,0.0,25.239369,28.683128,43.66915,46.61199,56.384733,60.114397,75.528349,69.039492,90.789408,0.0,34.417648,12.81395,44.012833,30.188141,31.447334,45.11301,41.4925,57.563667,51.490345,0.0,-54.382785,-25.930573,-83.414556,-16.748194,-35.866646,-6.486603,-22.219929,3.570995,-9.938204,33.910446,277.609629,-80.718727,1.974037
60,-0.33886,-0.132022,0.338573,0.428795,0.0,-64.305038,-37.843323,-96.721916,-32.076187,-99.341354,-23.673134,-88.536072,-13.274231,-64.809036,0.0,25.738251,28.50609,43.297845,46.315835,56.137176,59.877645,75.134135,69.072344,90.44731,0.0,33.862495,12.51194,44.16893,29.772434,31.324654,44.566669,40.931568,56.792908,50.51199,0.0,-52.421283,-27.140171,-84.08075,-18.071382,-36.365003,-7.837424,-22.004265,2.238144,-9.874354,34.11149,277.480787,-79.84025,2.406012
61,-0.831985,0.005558,-0.109634,-0.314495,0.0,-62.827206,-37.777634,-95.760841,-31.698074,-96.600494,-23.110657,-86.323586,-12.507591,-63.36216,0.0,24.17683,28.724563,44.463569,46.644717,56.815813,59.959959,76.110717,68.813918,91.430933,0.0,32.994976,12.703457,44.816151,29.644375,31.313553,44.080524,40.171738,55.94696,49.455643,0.0,-53.086273,-27.154898,-83.857739,-18.12214,-37.244082,-7.794816,-22.781641,2.343953,-10.248592,33.558712,277.501658,-79.670677,2.106831
62,0.058479,0.080461,-0.189056,-0.299459,0.0,-62.477474,-37.876167,-96.161785,-32.000771,-97.998562,-23.653793,-86.846695,-13.339462,-64.025917,0.0,23.950206,29.151443,43.219237,46.961065,56.301864,60.140826,74.908869,68.916794,90.786629,0.0,31.904411,12.932739,45.026779,30.040741,31.422386,44.63213,40.85289,56.778202,50.464668,0.0,-52.531755,-27.617532,-83.61401,-18.720255,-36.704538,-8.341987,-22.16917,1.900307,-10.225127,33.919287,277.596847,-79.557638,1.8221
63,0.466461,0.420953,0.421772,-0.37112,0.0,-62.599926,-36.961098,-96.360569,-31.475143,-98.477898,-23.450203,-87.239742,-13.452072,-63.800182,0.0,23.241188,28.328434,42.985697,46.261556,55.552523,59.666212,74.861383,68.696345,90.886973,0.0,33.131218,12.207699,44.645519,29.348373,31.016808,44.104958,40.405483,56.43219,50.245342,0.0,-53.203383,-27.410051,-83.899853,-18.506413,-37.424331,-8.165658,-22.802328,2.117638,-10.622306,34.57881,278.040076,-78.942804,1.473257
64,-0.782318,0.083363,0.0844,0.073205,0.0,-62.505455,-36.443138,-95.657845,-30.816994,-97.993298,-22.893791,-87.618713,-13.045578,-64.760799,0.0,22.825978,29.008306,42.202578,46.932721,55.491143,60.266056,73.946674,69.273959,90.892778,0.0,33.907413,12.051201,44.894314,29.111309,31.763763,43.857021,41.357231,56.283417,51.129055,0.0,-52.889382,-27.38958,-84.359862,-18.654552,-37.376752,-8.509886,-23.214759,1.574296,-11.187291,34.02257,278.111166,-78.632326,1.534189
65,0.26207,-0.241506,0.345726,-0.999214,0.0,-62.871952,-36.35891,-95.509815,-30.889549,-98.379478,-23.109398,-88.419685,-13.277435,-64.92651,0.0,23.101508,29.32243,42.127737,47.198619,55.575,60.453715,73.974524,69.4137,91.120575,0.0,34.411697,11.764927,44.720135,28.752651,31.122036,43.527031,40.943813,56.01162,50.939255,0.0,-53.407653,-27.672614,-83.773696,-18.705126,-36.281424,-8.150313,-22.177475,2.311225,-10.139232,34.683895,277.860305,-77.887344,0.52562
66,-0.330734,0.033839,-0.282726,-0.903532,0.0,-62.707958,-36.148224,-96.162071,-30.552177,-98.376389,-22.662621,-88.35062,-12.751236,-64.717426,0.0,22.794485,29.097288,41.948413,47.100559,55.812492,60.432349,74.401589,69.384245,91.058701,0.0,33.499718,12.503643,45.168858,29.746742,31.3591,44.542408,41.647339,56.85648,51.678772,0.0,-52.267895,-28.017644,-83.838256,-18.994365,-36.945333,-8.399198,-22.070832,2.049126,-10.327787,34.55163,277.899532,-77.971601,-0.372525
67,0.066833,-0.06527,0.605221,-1.715149,0.0,-62.762146,-36.501389,-96.441422,-31.047935,-98.589592,-23.153687,-88.74012,-12.997398,-64.737396,0.0,21.810554,28.884249,41.547097,46.758832,55.537703,60.029243,74.156008,69.027204,90.865299,0.0,32.636089,12.471714,44.983063,29.992046,30.982418,44.772663,40.617657,56.890526,50.745163,0.0,-52.661122,-28.242662,-83.430796,-19.216543,-37.26517,-8.567221,-21.134449,1.980336,-9.422434,34.650164,277.928184,-77.334681,-1.993751
68,-0.037766,0.053538,0.686817,-1.190424,0.0,-61.795349,-36.535034,-96.011982,-31.085358,-98.321686,-23.146477,-88.373737,-13.025894,-64.804058,0.0,22.333827,29.138414,41.609527,47.187442,55.865845,60.367759,74.646677,69.090313,90.98633,0.0,32.430897,12.014809,44.829826,29.117603,31.405678,43.605938,40.365372,55.617085,49.888058,0.0,-52.113457,-28.058677,-84.248897,-18.957222,-39.278264,-8.348038,-23.207503,2.241416,-10.661764,34.789982,278.273075,-76.47028,-2.892822
69,-0.356255,0.100159,0.650024,-1.813146,0.0,-62.360744,-36.616516,-96.002083,-31.197624,-98.051491,-23.246613,-88.317089,-13.026695,-64.281578,0.0,21.828091,29.10229,42.540168,46.991878,55.907403,60.177999,74.535526,68.915868,90.955516,0.0,31.558228,12.071171,44.463444,29.582462,31.648407,44.349003,40.682487,56.27758,50.11219,0.0,-53.17365,-28.333497,-83.579306,-19.467775,-43.069708,-9.259258,-26.320897,0.920328,-13.71029,34.75625,278.762664,-75.497732,-4.316539
70,-0.135498,-0.063171,0.885601,-1.789465,0.0,-62.34684,-35.68943,-96.297512,-30.218353,-98.289585,-22.399178,-88.125973,-12.655907,-64.088058,0.0,22.247685,29.19331,42.870038,47.426416,56.867436,60.792725,75.315001,69.582711,91.56629,0.0,33.423615,11.688137,44.960461,28.804321,31.393204,43.523884,40.598545,55.794067,50.985432,0.0,-54.243692,-29.342746,-83.848229,-20.374024,-38.977385,-9.511015,-23.235476,1.532676,-11.580981,34.757338,279.368528,-74.475546,-5.436969
71,0.308876,0.538587,0.603905,-1.211265,0.0,-63.282909,-36.232796,-96.791725,-30.774078,-98.844337,-23.016472,-88.939018,-13.18634,-64.539356,0.0,22.000252,29.108403,42.959082,47.168855,56.625498,60.47823,75.226451,69.352135,91.511641,0.0,32.208366,12.019215,44.289322,29.2729,31.518116,43.837051,40.197659,55.605354,49.956951,0.0,-52.514866,-30.021537,-83.161966,-21.340881,-42.654097,-10.861959,-25.186017,-0.07163,-13.207085,35.186634,280.404885,-73.751221,-6.150465
72,0.602188,0.254844,0.823059,-0.862622,0.0,-64.164906,-36.333733,-97.372742,-31.007423,-99.277096,-23.396645,-88.751106,-13.861427,-64.515781,0.0,22.13073,29.098091,42.468475,47.357626,56.713369,60.625258,76.186423,69.232462,92.118585,0.0,31.515484,11.759949,44.655304,29.15823,31.161633,43.911095,40.134888,55.852146,50.17313,0.0,-49.496197,-31.061136,-84.918889,-22.512718,-40.207947,-11.927216,-23.462995,-1.245907,-12.276599,35.876684,281.506173,-72.8403,-6.166643
73,0.134125,0.069284,1.500835,-2.506357,0.0,-65.490646,-36.346893,-97.279758,-30.792847,-99.462547,-23.082733,-89.020729,-13.669624,-65.15934,0.0,21.646607,29.050358,42.152066,47.32885,56.346633,60.514971,75.380457,68.896602,91.702943,0.0,33.146038,12.459755,45.602646,29.847221,30.093441,44.809055,40.219803,57.173767,51.151772,0.0,-52.620891,-27.943235,-83.469082,-18.848943,-35.96662,-8.042929,-22.217459,2.71038,-10.971628,36.122589,282.350162,-71.227684,-7.898295
74,0.412674,0.421076,1.821041,2.576567,0.0,-65.864296,-35.711403,-97.934589,-30.476074,-99.796257,-23.119926,-89.285831,-14.042587,-65.320415,0.0,21.824633,29.277723,42.191278,47.540901,56.535034,60.666939,75.640179,68.981385,91.772042,0.0,33.515854,13.320465,46.647549,30.365238,30.634003,44.94833,40.149307,57.186527,50.404129,0.0,-52.967342,-27.599563,-84.303206,-18.08543,-37.385892,-7.255241,-22.671386,3.803084,-10.927106,36.672592,282.953324,-69.269314,-5.139641
75,-0.167198,0.446455,0.199184,7.084656,0.0,-66.459217,-35.429764,-97.522087,-30.184364,-99.243851,-22.94323,-88.873043,-14.0205,-65.64703,0.0,21.270423,29.530714,42.609575,47.942402,56.600736,61.196943,76.002284,69.534854,91.504107,0.0,32.950459,13.830643,49.319859,31.216164,35.342503,46.128788,42.076092,58.330307,51.548653,0.0,-50.72926,-27.513297,-85.905815,-17.538506,-48.64046,-6.654595,-26.012979,4.271091,-14.299666,36.506796,283.244725,-69.068727,1.789959
76,-0.225906,1.010545,2.328644,6.589325,0.0,-66.128254,-35.266685,-98.029861,-29.820671,-98.936806,-22.489243,-88.37059,-13.689308,-65.749283,0.0,20.426975,28.761428,44.078309,47.360219,57.220278,60.932157,76.77262,69.563877,90.893889,0.0,36.907711,14.61628,51.146278,30.765667,53.324432,45.063229,45.415192,56.977844,52.048588,0.0,-55.128421,-26.973568,-78.23169,-15.769975,-68.967491,-3.400101,-28.916051,8.465302,-15.230029,36.450377,284.070513,-66.570597,8.194527
77,0.617523,0.485914,1.630898,10.270884,0.0,-65.4146,-35.376205,-97.294807,-30.056648,-99.322815,-22.723274,-88.294373,-13.846207,-65.264225,0.0,20.144899,28.37135,42.828295,46.884618,57.27431,60.372143,76.382975,69.113346,90.254155,0.0,38.749638,16.151905,53.87701,31.659851,46.090279,45.470982,45.016193,57.036896,50.313492,0.0,-50.199565,-24.24105,-72.648526,-11.067372,-46.937692,2.416757,-17.470118,14.863448,-4.429789,36.866083,283.741877,-65.141516,17.650861
78,0.576668,0.199083,3.704166,15.451188,0.0,-66.452751,-35.713577,-97.580681,-30.165253,-99.519997,-22.795944,-88.847809,-14.039268,-66.206989,0.0,19.875667,28.181036,43.859527,46.973785,57.89237,60.719612,76.068665,69.759317,89.849875,0.0,43.370476,18.827076,59.359875,32.421169,68.877811,43.833218,51.538067,52.726765,50.289745,0.0,-47.327523,-23.70623,-77.527364,-9.58175,-70.227694,5.030034,-29.723623,18.620497,-7.093918,37.138996,283.079635,-61.741104,32.240724
79,-0.036163,0.116029,5.655842,10.220156,0.0,-65.856571,-35.331345,-97.799606,-29.752007,-99.676437,-22.231522,-88.709965,-13.37471,-65.4146,0.0,20.465445,27.825971,45.407548,46.875849,59.094403,60.659591,76.773237,69.550971,89.528588,0.0,38.197002,19.779167,46.987495,31.005249,48.405819,39.620018,46.09663,45.920048,46.933708,0.0,-40.99508,-16.591996,-61.306797,-2.39746,-38.815197,12.041855,-11.44689,26.24374,5.113829,36.174831,282.172722,-57.013264,41.437938
80,1.173019,0.087315,3.062697,26.98439,0.0,-66.623383,-35.275841,-98.773556,-29.745941,-100.117722,-22.325592,-89.135056,-13.729019,-66.362114,0.0,20.199733,28.524059,45.697775,47.391589,59.708882,60.982422,77.416183,69.635754,89.069721,0.0,52.651004,20.043096,59.614649,27.861585,47.339687,34.71591,45.691223,40.466337,44.752779,0.0,-35.115854,-19.115242,-44.512769,-1.708279,-19.483644,16.366221,5.448115,33.920443,20.824277,36.465969,281.445549,-54.832449,67.60784
81,0.937614,0.071816,3.062696,26.98439,0.0,-66.866055,-34.960442,-98.818531,-29.523239,-100.549393,-22.216873,-89.448109,-13.719864,-67.20789,0.0,19.61224,28.594208,45.966636,47.244623,59.477997,60.743386,77.389321,69.504411,88.271349,0.0,67.105007,20.307026,72.241802,24.717922,46.273556,29.811802,45.285816,35.012627,42.57185,0.0,-29.236628,-21.638487,-27.718741,-1.019098,-0.152091,20.690587,22.343121,41.597146,36.534724,36.080046,280.753867,-53.09329,93.828732
82,0.07782,0.56267,7.810135,18.893187,0.0,-66.484222,-33.990326,-98.269272,-28.721581,-100.158176,-21.68438,-89.531193,-13.536186,-67.254925,0.0,18.566929,27.879138,46.761611,46.577533,59.253164,60.34207,76.136467,69.297115,87.976676,0.0,69.597416,17.525997,47.806835,14.161263,39.719524,13.782177,35.830593,14.623318,25.42305,0.0,-16.36037,-7.55436,-6.195017,13.565639,9.271824,35.067194,26.040087,54.848074,39.90219,34.809408,280.84373,-46.631613,112.249112
83,0.517273,-0.279174,-4.042053,40.897977,0.0,-66.182213,-33.610268,-98.378963,-28.168945,-99.775314,-20.942574,-88.616009,-12.562294,-66.255684,0.0,19.784091,28.318492,46.805886,46.811752,60.376404,60.295325,77.372957,68.999231,88.316859,0.0,70.416698,28.883629,76.020641,29.696159,46.856518,29.07423,40.364971,27.512512,36.09993,0.0,-16.303653,-0.149498,-10.455827,20.044554,7.884107,40.072436,27.158943,58.259167,42.413764,34.829235,280.135205,-51.171112,152.717738
84,0.861168,1.287434,-3.436489,27.046804,0.0,-66.180668,-33.621483,-98.337536,-28.26931,-100.279255,-21.379967,-90.111523,-13.313026,-68.554287,0.0,17.417939,28.003874,45.50993,46.568209,59.515541,59.896294,76.456273,68.410379,87.693427,0.0,61.121521,24.601135,81.049461,24.728851,85.828857,23.527336,63.329544,21.783142,52.078857,0.0,-11.603458,-8.812278,-6.229752,7.085489,10.557838,23.756063,24.049933,40.298813,30.118208,35.186377,280.49484,-55.111628,178.836742
85,1.928329,1.129539,2.701864,27.784258,0.0,-65.717525,-35.278473,-99.908409,-30.730133,-101.777802,-24.222794,-91.781788,-16.028709,-70.392551,0.0,17.483888,28.494542,43.569917,46.397963,58.019946,59.063775,75.551629,66.952637,85.865615,0.0,60.512266,28.694487,71.426325,31.268864,59.910593,31.050568,43.680782,28.897934,41.593523,0.0,-4.162379,5.649669,23.312108,27.043408,46.374621,46.540483,65.450836,62.925275,71.136104,36.859646,281.073626,-52.664823,206.070249
86,-5.083008,3.509585,2.701864,27.784258,0.0,-50.75655,-33.40004,-93.892593,-30.639267,-98.137436,-24.350739,-88.209229,-15.623474,-65.701389,0.0,-0.810845,25.990007,38.819643,41.278792,53.128943,53.048606,67.541057,61.741582,80.713717,0.0,59.903011,32.787838,61.803188,37.808876,33.992329,38.573799,24.032021,36.012726,31.108189,0.0,3.2787,20.111615,52.853968,47.001326,82.191404,69.324903,106.85174,85.551738,112.154001,31.268177,284.220443,-50.47142,233.491738
87,1.11145,15.373074,-10.297623,16.160453,0.0,-68.581467,-21.306381,-87.205925,-18.160858,-92.62928,-15.295601,-84.449387,-12.667923,-64.984646,0.0,29.595367,9.485357,8.132035,20.297916,24.662127,28.740062,33.909127,33.43933,47.878676,0.0,70.06731,28.325729,95.77486,21.877213,91.439724,14.83881,72.729206,8.234653,49.289761,0.0,8.68149,24.06358,42.385668,45.046061,57.654013,60.19282,65.963581,69.466929,72.797314,31.936913,299.466975,-61.211758,249.52565
88,10.340652,28.619649,-1.661739,13.822891,0.0,-73.054905,-19.120445,-99.958992,-17.408638,-99.123402,-17.508545,-88.287334,-19.253654,-73.600216,0.0,36.744521,15.895112,16.238135,-2.088522,-8.438009,-22.098311,-26.586887,-41.247978,-42.394066,0.0,68.900185,23.935947,89.046593,15.760517,87.453346,8.779678,73.614922,2.614174,52.502632,0.0,13.912615,31.303507,53.076208,47.936968,66.085167,58.85228,77.390124,64.586855,80.238856,41.576986,328.033503,-63.574076,263.29542
89,-9.385414,-45.532099,-1.240654,11.172193,0.0,-63.607864,-21.040878,-78.421097,-18.767624,-85.346375,-15.296059,-80.476341,-10.765114,-62.309704,0.0,3.250418,35.583057,32.903151,48.575344,48.51841,56.280128,62.790721,58.654061,75.429857,0.0,70.56427,24.945889,89.556656,14.62492,85.546303,6.137581,71.295776,-0.594978,45.950775,0.0,14.464417,34.441107,60.968775,51.286064,74.300751,61.410352,81.423105,65.880094,84.240344,31.715899,282.441383,-65.290403,274.407592
90,-0.430527,-0.848265,3.289547,7.435182,0.0,-58.196468,-32.968483,-43.860626,-29.199829,-31.207695,-23.934631,-28.253517,-17.205391,-29.434319,0.0,12.136117,30.684088,59.593902,43.408378,69.676139,52.908617,73.651137,60.457297,76.141716,0.0,69.822178,22.204971,87.196941,11.14151,82.215786,1.799755,68.955402,-5.127754,49.119587,0.0,14.687335,35.930095,61.646301,52.567693,75.705882,62.454675,84.402563,66.837473,84.218546,31.032658,281.5119,-62.253571,281.761557
91,-1.152534,-1.777794,-1.277103,3.660873,0.0,-47.527199,-27.214508,-40.681686,-21.655312,-29.690094,-14.520264,-22.950668,-6.51947,-18.045273,0.0,14.720434,32.157577,56.605429,44.917373,69.665518,53.915026,76.485728,59.851031,80.923359,0.0,69.988289,25.08688,91.675987,15.228081,87.616539,6.663551,73.496819,0.028667,53.648872,0.0,10.571609,33.732583,59.510478,50.886909,74.402763,61.808457,83.176755,67.67981,84.255782,29.669352,279.597004,-63.741446,285.285329
92,-1.347656,0.511479,2.92448,0.027479,0.0,-51.166477,-19.098358,-39.953957,-13.453674,-27.52636,-7.621536,-17.526398,-1.511421,-11.406212,0.0,15.939263,24.67423,48.800548,40.112141,63.888211,51.212581,71.666478,58.813562,75.782329,0.0,69.245625,25.13998,90.169544,15.602818,87.978001,6.892262,74.305172,-0.222988,55.54636,0.0,10.196599,34.57597,59.977372,51.851759,73.974709,62.806529,82.891839,68.428719,84.297834,28.30533,280.049156,-60.83333,285.253481
93,-0.865345,4.949327,1.922722,-0.327709,0.0,-47.33408,-35.362044,-23.854294,-36.044598,-13.208943,-33.556595,-11.879883,-29.381533,-16.517201,0.0,16.73254,24.525195,50.137104,41.269684,63.566708,53.989682,69.176825,63.336996,72.606968,0.0,68.029003,26.233177,90.54697,16.577682,88.036709,7.800121,75.293026,0.363064,57.269382,0.0,15.873314,35.105974,62.293198,52.441723,74.643836,63.277314,83.958021,68.625394,85.720008,27.499266,284.88866,-58.851328,284.815948
94,-0.865345,4.949326,1.331062,-0.151289,0.0,-43.501682,-51.625729,-7.754631,-58.635521,1.108475,-59.491653,-6.233368,-57.251644,-21.628189,0.0,17.525817,24.37616,51.473661,42.427226,63.245204,56.766783,66.687172,67.86043,69.431607,0.0,66.44331,24.669456,89.376469,14.429798,85.840702,5.585117,72.52161,-1.447105,53.79118,0.0,19.005974,34.719972,62.064536,51.817055,74.379297,62.45591,83.428203,67.75459,85.056438,26.723356,289.770601,-57.43083,284.597275
95,0.812416,0.321967,0.684872,-0.545627,0.0,-38.247185,-39.570923,-8.237114,-46.081238,-4.28627,-48.920746,-16.079292,-49.33897,-39.866982,0.0,14.430454,20.442103,52.953201,39.831177,64.36196,55.341028,70.024967,67.33938,73.059382,0.0,65.940285,24.297237,88.120308,13.899479,84.79454,4.908543,71.662331,-2.350101,53.058701,0.0,22.082194,34.247643,63.023705,51.371094,75.138889,62.265966,83.700893,67.87877,85.375008,27.63711,290.2994,-56.644621,284.258481
96,-7.017975,8.107953,0.676403,-0.578416,0.0,-26.358147,-32.452698,-1.679306,-38.974113,-0.261383,-42.209702,-8.325233,-43.185883,-32.489891,0.0,3.741581,15.326452,40.102817,33.327253,54.89908,47.333111,61.567569,57.887491,63.330296,0.0,65.247746,24.524517,87.91872,14.040184,85.150166,4.82048,71.796856,-2.794762,52.489185,0.0,23.32733,35.170318,63.126643,52.295189,75.413246,63.029078,84.151856,68.353075,85.715562,20.727396,298.633035,-55.859957,283.905747
97,7.471619,-10.326892,-0.532951,-1.217965,0.0,-41.521454,-52.909527,-8.501472,-60.435734,0.589142,-61.744766,-6.819763,-59.882755,-22.886696,0.0,13.980479,22.508272,49.293748,42.389929,62.683275,58.673698,68.592358,71.765156,71.484315,0.0,65.309086,24.657211,88.739147,13.930893,85.164127,4.338169,71.996098,-3.693867,52.133732,0.0,24.911536,35.753736,63.604715,52.751216,76.236565,63.310968,85.416443,68.268785,86.980704,28.295975,288.468254,-56.295948,282.849892
98,-4.303894,5.827201,-0.198841,0.60608,0.0,-29.79229,-35.787392,-10.127792,-41.894016,-3.235359,-44.749832,-11.067581,-45.128689,-32.901649,0.0,7.52509,14.87413,38.041588,35.448565,55.962793,51.918882,64.248895,64.940994,67.164318,0.0,64.998779,23.965816,88.016968,13.428669,85.150681,3.992214,71.921539,-3.761101,52.238388,0.0,25.022008,35.627826,62.65203,52.527864,75.099925,63.121086,84.199033,68.264772,86.46552,24.066582,294.322054,-56.420288,283.482572
99,-12.205696,13.221072,-0.87347,0.11041,0.0,-11.751251,-29.023075,7.733803,-36.269474,10.898094,-38.97274,2.499046,-38.855381,-20.075226,0.0,-5.674122,8.099925,27.815782,24.066359,43.920907,36.810964,51.324781,46.576854,53.788623,0.0,64.687214,23.295078,87.515087,12.7775,84.355831,3.65427,71.522655,-3.709946,52.022953,0.0,25.313532,34.594804,62.104921,51.478231,75.335441,62.264114,83.98797,67.760394,85.936505,11.915646,307.580794,-57.238998,283.630649
100,17.320404,-18.783734,-0.386753,0.043905,0.0,-42.335529,-56.249886,-11.672058,-62.494984,-3.206863,-62.796192,-10.213165,-59.728146,-25.317764,0.0,14.938845,23.170731,50.974039,41.154056,61.732257,56.170768,66.909968,68.073407,69.453838,0.0,64.794846,23.569508,87.350235,13.274975,84.398003,4.234772,72.146416,-3.057919,53.431778,0.0,25.033926,35.036813,61.935046,52.21269,74.624817,63.079404,83.612343,68.469474,86.242046,29.320965,288.881518,-57.540836,283.759013
101,-2.157326,2.90653,-0.808582,-0.519197,0.0,-39.485207,-44.346886,-16.243286,-49.124222,-5.187492,-49.992657,-11.179161,-47.597923,-31.365395,0.0,11.844223,13.852655,42.360474,34.143408,58.830297,50.810771,65.294145,64.275757,67.382358,0.0,64.591427,24.103031,87.02631,13.830986,84.472218,4.632912,72.183437,-2.95269,53.01321,0.0,24.956059,34.950486,62.230768,51.921537,75.016253,62.660057,83.610614,67.972445,86.360915,27.277279,291.793405,-58.235779,283.245172
102,-0.979042,6.456314,-0.466175,-0.00247,0.0,-38.380966,-38.117867,-13.092842,-42.405739,-9.258156,-42.237167,-13.863831,-39.667568,-31.175194,0.0,2.648166,8.865877,29.489094,26.105048,45.925572,41.169802,55.227839,53.834688,61.866503,0.0,64.469948,23.031979,86.71978,12.720222,84.078827,3.809166,71.444893,-3.346882,52.278442,0.0,24.964457,35.071702,62.11616,52.006876,75.018661,62.748669,83.061158,68.027033,85.564273,26.497793,298.28166,-58.502398,283.274643
103,0.230827,6.37783,-0.206451,0.202912,0.0,-37.057915,-39.347191,-12.847481,-42.7985,-10.371552,-41.515503,-12.844734,-37.188263,-30.099106,0.0,5.871414,8.737869,28.916174,19.638916,40.337469,29.653474,46.796129,38.01553,51.265748,0.0,64.449921,23.38028,86.522369,12.942524,83.47641,3.859978,70.658112,-3.409538,51.604843,0.0,25.036952,34.682304,60.989956,51.823354,74.229985,62.750954,82.698128,68.331153,85.657146,26.950464,304.707933,-58.487005,283.525998
104,-2.651825,-18.363276,-0.862026,-0.277815,0.0,-38.490372,-54.784184,-8.776703,-60.296516,0.463715,-60.203648,-8.04348,-56.926346,-24.112473,0.0,15.958159,22.564156,52.792218,41.791012,63.393714,58.042917,70.313465,71.282823,73.8714,0.0,64.766064,23.495922,87.28632,13.117161,83.652706,4.06992,70.516376,-3.267746,51.167622,0.0,24.679046,34.913683,61.728244,51.881214,74.488225,62.663515,82.285758,68.064577,85.032726,24.689798,286.31108,-58.957872,283.214606
105,-0.588226,3.07443,-0.393505,-0.703708,0.0,-39.025841,-43.691196,-14.710236,-47.530804,-6.235313,-47.802944,-10.234222,-45.067806,-27.225838,0.0,22.180192,19.134044,52.325508,36.210009,63.493811,50.51054,67.010065,62.325617,69.964699,0.0,64.26075,22.961769,86.775398,12.431488,82.959709,3.248463,69.688683,-4.265442,49.989853,0.0,25.457781,34.996675,62.464,51.735607,74.73992,62.402311,82.746911,67.79269,85.715932,24.439516,289.362353,-59.013433,282.487742
106,-0.639897,-0.6276,0.010815,0.454668,0.0,-39.025469,-49.856987,-13.404865,-54.22657,-4.545021,-53.960666,-9.306221,-50.42221,-24.807186,0.0,19.350387,22.669595,52.567477,39.118577,63.092464,52.695239,66.609305,63.595144,69.232246,0.0,64.33176,22.996674,86.323757,12.411575,81.834812,3.074512,68.555546,-4.4874,49.277058,0.0,25.136123,35.355631,62.101401,52.030588,74.970866,62.525812,82.605317,67.734089,85.074654,24.171324,288.723376,-58.630915,282.931033
107,-0.639896,-0.627601,-0.771675,-0.338145,0.0,-39.025097,-56.022778,-12.099495,-60.922337,-2.854729,-60.118389,-8.37822,-55.776615,-22.388535,0.0,16.520582,26.205146,52.809446,42.027145,62.691118,54.879938,66.208545,64.864671,68.499794,0.0,64.791813,24.204025,87.054005,13.473072,82.649403,3.784847,69.343014,-4.100876,49.879246,0.0,25.026145,35.937814,62.168154,52.590418,75.023169,62.992398,83.203308,68.086375,85.704632,23.871775,288.085046,-59.062243,282.582158
108,0.595207,1.018079,-0.973778,0.229156,0.0,-38.104305,-39.653606,-16.279106,-42.557259,-8.650932,-42.643948,-15.017509,-40.286694,-37.366447,0.0,22.508272,19.256928,49.882353,36.053843,61.038615,49.96584,65.312238,61.545895,68.760257,0.0,64.293537,24.029903,87.556858,13.463345,83.268871,4.085197,70.01215,-3.447876,50.711117,0.0,25.089748,35.979927,61.920164,52.812534,74.910042,63.198644,82.694423,68.207344,85.273799,24.715261,289.103295,-59.787741,282.811484
109,0.038967,-0.799266,-0.145798,0.226068,0.0,-40.809889,-48.05892,-14.04808,-51.743545,-5.823097,-51.048174,-11.030731,-47.453384,-28.457107,0.0,19.506832,23.940233,52.341409,40.326446,62.954916,53.540386,66.612948,63.97883,68.941031,0.0,64.15884,23.095322,86.603909,12.414207,83.129482,3.238106,69.813709,-3.966351,50.750256,0.0,23.786197,34.54528,61.548488,51.873187,74.917761,62.765651,82.986873,68.130897,85.569892,25.051575,288.237817,-59.636192,282.97134
110,0.038967,-0.799266,-0.03067,0.443677,0.0,-43.515472,-56.464233,-11.817055,-60.929832,-2.995262,-59.4524,-7.043953,-54.620075,-19.547768,0.0,16.505391,28.623539,54.800465,44.59905,64.871216,57.114932,67.913659,66.411765,69.121806,0.0,64.020367,22.724476,85.978718,12.088852,82.625141,2.923508,69.215755,-4.289875,50.029736,0.0,23.627251,34.879658,61.006381,51.996255,74.72615,62.581758,82.754197,67.672523,85.105282,25.441875,287.428485,-59.315529,283.404952
111,0.349961,0.758264,-0.174351,-0.032048,0.0,-44.609785,-56.131268,-12.852803,-60.28739,-4.308472,-58.71749,-7.84607,-53.945389,-19.707127,0.0,16.276204,27.902356,55.138733,43.17703,64.389593,55.265723,67.305016,64.119003,68.424088,0.0,64.365807,23.009949,86.565971,12.710667,83.500214,3.892479,70.228958,-2.865658,51.298485,0.0,23.41378,34.918252,60.76858,52.264684,74.620742,63.131151,82.318486,68.47003,84.900456,26.252346,288.222194,-59.029369,283.408348
112,0.34996,0.758264,0.039539,-0.246384,0.0,-45.704098,-55.798302,-13.88855,-59.644947,-5.621681,-57.982578,-8.648186,-53.270702,-19.866486,0.0,16.047018,27.181173,55.477002,41.755011,63.907971,53.416515,66.696373,61.826241,67.72637,0.0,63.950787,23.336506,86.54726,13.010273,83.355503,4.11232,70.044422,-2.798767,51.108341,0.0,23.745009,34.931405,61.292965,52.312417,74.801485,63.234089,82.467552,68.639473,85.573968,27.052946,288.989968,-58.53919,283.171473
113,0.021286,0.003736,-0.180817,-0.036124,0.0,-45.52906,-55.688324,-13.948402,-59.461041,-5.762272,-57.843475,-8.826828,-53.202238,-20.421066,0.0,15.786863,27.781881,56.434905,41.983951,64.343559,53.299991,66.722555,61.322018,67.516171,0.0,64.260578,23.300915,86.889782,12.892399,83.409176,4.007092,70.150051,-2.813015,51.185932,0.0,23.695856,34.966171,61.419183,52.315814,74.90115,63.210809,82.356277,68.550861,85.3726,27.570591,289.012615,-58.223648,283.15426
114,0.021286,0.003736,-0.325928,-0.097627,0.0,-45.354023,-55.578346,-14.008255,-59.277134,-5.902863,-57.704372,-9.00547,-53.133774,-20.975647,0.0,15.526709,28.382589,57.392809,42.21289,64.779146,53.183469,66.748737,60.817796,67.305973,0.0,64.742031,23.141956,87.232533,12.747574,83.779621,3.969383,70.762882,-2.703037,52.000179,0.0,23.704378,34.635312,61.161128,52.079062,74.467415,63.064646,82.260194,68.42662,85.419221,28.148661,289.043937,-57.992792,283.08422
115,1.016579,-1.159611,-0.00246,0.139988,0.0,-42.117462,-41.578388,-18.461494,-43.417454,-8.446426,-42.473431,-13.154182,-39.18457,-26.379776,0.0,23.747047,21.247946,53.288753,36.803493,63.930387,50.138926,67.991032,61.309761,71.419415,0.0,64.773216,23.017445,86.915131,12.754612,83.323975,4.0872,70.248756,-2.577553,51.598778,0.0,23.617248,34.712006,60.880596,52.066404,74.40301,62.975108,82.252846,68.358879,85.129241,29.695187,287.960032,-57.465305,283.299914
116,-0.112038,-0.279668,-0.192604,0.315051,0.0,-43.250284,-48.765965,-14.670639,-52.89485,-5.915508,-52.611608,-12.017155,-49.50222,-26.74942,0.0,18.326658,21.728612,52.819512,39.032528,63.789442,53.723908,69.03588,65.734919,72.668595,0.0,64.101105,22.812881,87.333984,12.646236,83.925591,4.043083,70.866966,-2.583504,51.913033,0.0,23.464292,34.658592,60.030848,51.997428,73.696338,62.841357,81.924025,68.124228,85.276825,29.942436,287.748707,-57.298622,283.683307
117,-0.112038,-0.279667,0.044289,-0.013215,0.0,-44.383106,-55.953541,-10.879784,-62.372246,-3.38459,-62.749786,-10.880127,-59.81987,-27.119064,0.0,12.906268,22.209277,52.35027,41.261564,63.648496,57.30889,70.080728,70.160077,73.917775,0.0,64.089088,22.665539,87.321167,12.319221,83.777847,3.608208,70.678253,-3.053341,51.625671,0.0,23.603724,34.012127,60.245863,51.534053,73.751234,62.616091,82.359118,68.11089,85.745572,30.048008,287.549547,-57.036724,283.750599
118,-1.515083,2.899429,0.217037,0.047857,0.0,-41.270828,-47.229366,-12.307777,-51.758709,-5.693207,-51.975975,-13.038368,-49.165707,-30.159302,0.0,21.605666,18.558284,52.07227,35.515996,63.169683,49.87519,67.220263,61.485009,70.855881,0.0,63.854427,22.626228,87.025967,12.301826,83.334217,3.546982,69.964428,-3.284683,50.942059,0.0,23.773168,34.078941,59.935691,51.580984,73.644468,62.611707,82.27594,68.092118,85.295906,28.901453,290.508595,-56.451159,283.858076
119,2.450294,0.695618,0.110493,0.19155,0.0,-45.831356,-45.838108,-15.349846,-49.912205,-9.922142,-49.3927,-13.220444,-46.271725,-28.844604,0.0,14.575876,17.009398,47.771971,34.18262,61.169588,48.416707,67.158822,60.182754,72.605764,0.0,63.745422,22.764645,87.034264,12.512283,83.328438,3.673496,69.86515,-3.308315,50.621223,0.0,23.137447,34.18052,59.602918,51.618528,73.397651,62.505126,81.95774,67.799421,85.111766,31.641083,291.278144,-56.051331,284.123556
