takenoko1/special-research/HandMotion_SimilarSearch_自分用/NewProject/handData/test_key/d4_feature_d2/72.csv
frame,vel_0x_L,vel_0y_L,vel_0x_R,vel_0y_R,posFromWrist_0x_L,posFromWrist_1x_L,posFromWrist_2x_L,posFromWrist_3x_L,posFromWrist_4x_L,posFromWrist_5x_L,posFromWrist_6x_L,posFromWrist_7x_L,posFromWrist_8x_L,posFromWrist_9x_L,posFromWrist_0y_L,posFromWrist_1y_L,posFromWrist_2y_L,posFromWrist_3y_L,posFromWrist_4y_L,posFromWrist_5y_L,posFromWrist_6y_L,posFromWrist_7y_L,posFromWrist_8y_L,posFromWrist_9y_L,posFromWrist_0x_R,posFromWrist_1x_R,posFromWrist_2x_R,posFromWrist_3x_R,posFromWrist_4x_R,posFromWrist_5x_R,posFromWrist_6x_R,posFromWrist_7x_R,posFromWrist_8x_R,posFromWrist_9x_R,posFromWrist_0y_R,posFromWrist_1y_R,posFromWrist_2y_R,posFromWrist_3y_R,posFromWrist_4y_R,posFromWrist_5y_R,posFromWrist_6y_R,posFromWrist_7y_R,posFromWrist_8y_R,posFromWrist_9y_R,posFromBody_0x_L,posFromBody_0y_L,posFromBody_0x_R,posFromBody_0y_R
2,-19.990082,21.931894,-0.187454,-1.115953,0.0,-4.777679,-24.056625,17.541962,-29.850655,25.482216,-31.321907,14.571648,-30.192032,-3.191528,0.0,-7.452595,11.140762,23.631142,29.268707,39.925038,42.454334,46.663613,52.544167,47.609321,0.0,64.767609,19.631367,84.784813,9.5438,81.665497,1.493053,69.315491,-4.472637,50.710602,0.0,22.958741,33.765496,60.311751,50.973113,72.137511,62.139316,80.369828,67.50765,82.462179,1.77352,309.289397,-52.740526,284.216568
3,22.577248,-21.534468,-0.23283,0.474428,0.0,-35.110302,-51.99131,-1.390915,-58.173923,4.922447,-58.527088,-0.771332,-55.939751,-16.788254,0.0,8.498215,25.541638,47.823348,44.292089,61.824265,59.058156,67.972075,70.42758,72.481337,0.0,64.974575,20.516109,85.01318,10.537663,82.250462,2.417107,69.561138,-3.563461,50.533047,0.0,21.976663,33.822059,58.641896,51.28242,71.094299,62.55255,79.146306,67.969234,81.312449,24.410534,288.14408,-52.913589,285.080148
4,-14.46888,14.85894,0.287075,-0.376431,0.0,-15.6213,-29.802475,11.877937,-37.696266,19.275055,-40.732269,7.877197,-41.374397,-9.034882,0.0,-3.197375,10.398214,32.046611,29.857806,49.286585,44.292336,54.848321,55.89215,55.755805,0.0,64.378853,20.232925,84.711456,10.199947,82.102547,1.967983,69.222679,-4.26527,50.036545,0.0,22.104301,33.891467,59.20049,51.121993,71.598676,62.337844,79.533913,67.781204,82.08013,9.982452,303.247011,-52.585716,284.947708
5,-15.933495,12.475127,0.262241,0.282199,0.0,11.247253,-19.804287,27.336617,-27.410431,34.256287,-28.755341,24.461746,-27.413635,6.184731,0.0,-16.280126,0.973495,15.654409,17.546441,33.701214,31.148452,41.046857,42.105877,42.9978,0.0,64.097843,20.501461,84.743557,10.400105,81.656055,1.968727,68.44202,-4.48391,49.350758,0.0,21.94023,33.749194,58.34605,51.109951,71.421947,62.335374,79.379722,67.718404,81.789038,-5.901318,315.89138,-52.27375,285.39915
6,-20.368824,-2.151014,0.332623,0.152462,0.0,31.986523,1.601715,51.708584,-4.756165,56.122227,-8.851891,46.085415,-11.181622,26.002293,0.0,-10.408711,4.972328,20.607594,20.050235,40.311595,32.417052,45.441264,41.889565,48.953689,0.0,64.012413,20.171757,84.30233,10.065479,81.174316,1.706371,68.073235,-4.726982,49.050636,0.0,22.01606,33.379741,58.283065,50.679428,70.976912,62.012481,78.987484,67.573229,81.518942,-26.236095,313.83838,-51.907082,285.649625
7,52.707767,-25.819762,0.265331,0.266515,0.0,-32.744923,-51.233654,-3.616447,-60.292511,1.208153,-62.370358,-7.50309,-61.18927,-23.438873,0.0,12.101228,22.739404,47.458588,43.14174,61.134266,59.732285,68.242974,72.449288,72.81059,0.0,63.624859,19.664555,84.403324,9.725246,81.297512,1.571045,68.434124,-4.542675,49.4977,0.0,21.756399,33.614763,57.520447,50.860048,70.676434,62.059596,78.820078,67.381617,81.302507,26.51619,288.091129,-51.597233,285.988651
8,-22.243652,16.157304,0.07679,-0.144187,0.0,-3.344193,-25.594025,15.748215,-33.422298,23.156319,-36.488571,12.808571,-36.740456,-3.846703,0.0,0.433982,7.538367,30.20015,27.93706,48.786469,43.692739,55.411856,56.019603,56.360219,0.0,63.371601,19.988422,83.969479,10.009575,81.65411,1.859894,68.905048,-4.206848,49.673138,0.0,22.182168,33.585617,57.3297,51.146878,70.485008,62.52927,78.73122,68.078718,81.554325,4.323034,304.285328,-51.469946,285.881359
9,-15.870667,8.259426,0.522995,0.093367,0.0,18.373489,-16.351776,32.83287,-24.247684,43.08094,-25.96344,35.301819,-24.765472,18.705254,0.0,-6.731659,1.667446,18.89859,19.163376,39.829139,34.065788,46.1467,45.806456,48.477037,0.0,62.840137,19.208622,83.393955,9.183426,81.235943,1.110077,68.735447,-4.838505,49.675655,0.0,22.138943,33.023812,57.194467,50.500351,70.384602,61.944555,78.451243,67.527595,81.121825,-11.514673,312.617481,-50.913992,286.047452
10,-11.143112,1.166898,-0.293655,0.142335,0.0,27.813377,-4.760113,47.750359,-11.024208,53.90625,-13.656979,45.503082,-14.156685,26.466522,0.0,-8.910708,4.864883,21.00891,20.933266,41.149425,34.171319,45.996276,44.378724,50.72432,0.0,63.141918,19.620152,83.759022,9.598732,81.422825,1.449108,68.809376,-4.582214,49.736309,0.0,21.264495,32.906177,56.877502,50.402539,70.181257,61.850633,78.305883,67.462325,81.310966,-22.638187,313.792252,-51.188049,286.19766
11,46.77784,-26.03101,0.112667,0.824862,0.0,-28.632202,-53.919468,-0.336685,-62.01931,6.466141,-62.583561,-0.340462,-59.776783,-16.44413,0.0,13.216873,22.570887,46.251244,43.044051,61.400102,59.774399,69.285877,72.852086,73.158739,0.0,63.263397,19.078789,83.757706,9.202366,81.637115,1.317444,68.928909,-4.340687,50.085526,0.0,20.812606,32.560622,55.92389,50.048338,69.3756,61.486429,77.195796,67.131096,80.120851,24.181337,287.76697,-51.033697,287.02825
12,-25.676765,17.824503,-0.113182,-0.648441,0.0,7.040863,-23.051491,21.846771,-30.263271,30.059738,-32.501507,19.367523,-31.781616,3.036232,0.0,-0.513146,6.913391,29.161509,26.718107,47.151874,42.406293,54.270955,54.451946,55.237905,0.0,63.366966,18.572102,84.388161,8.508282,81.791153,0.691395,69.449043,-4.692879,50.436401,0.0,21.19799,32.534131,56.397269,49.977819,70.033859,61.401275,77.843125,67.028467,80.888594,-1.482725,305.593156,-51.134176,286.381491
13,-11.45731,8.555581,-0.293884,0.342344,0.0,19.900303,-19.033241,35.480404,-27.714272,47.201443,-29.157486,38.481846,-26.858883,19.139271,0.0,-3.771592,-1.419457,20.507374,15.581667,40.720012,30.606345,48.204471,43.175703,49.033162,0.0,63.125038,19.395618,84.689713,9.746933,82.95639,2.111664,70.742912,-3.312149,51.609306,0.0,20.41481,33.01245,56.996989,50.493188,70.096351,61.866626,78.459147,67.434105,81.899757,-12.930222,314.123636,-51.418247,286.698734
14,-21.498013,-5.054395,0.336971,-0.55174,0.0,40.817986,5.111732,62.67849,-1.055088,68.745689,-5.076027,58.541451,-6.876926,37.58812,0.0,-2.513859,6.511704,29.923509,23.596067,52.437647,37.255506,55.068585,48.270544,57.742687,0.0,62.931461,19.116726,84.719296,9.281158,82.324963,1.362076,70.105648,-4.385834,50.548038,0.0,21.156185,32.778107,56.969819,50.066184,70.33304,61.3189,78.875098,66.751948,82.556287,-34.417591,309.070831,-51.070633,286.148584
15,60.574036,-19.476142,-0.76498,0.391065,0.0,-30.575638,-54.043522,-0.994949,-62.913837,6.327667,-64.179268,-1.854401,-62.032127,-21.008034,0.0,10.683624,20.396223,45.497333,40.978314,60.086238,57.839203,67.452507,71.335805,70.388368,0.0,63.50956,19.28215,84.832993,9.711056,83.053093,2.147427,71.130066,-3.216133,52.375603,0.0,20.763329,32.552903,56.722508,49.993998,69.730479,61.429804,78.317121,67.038223,81.498626,26.166,289.587248,-51.826057,286.532209
16,-22.728195,14.954468,0.051556,-0.650973,0.0,-1.243172,-28.514957,19.115753,-36.99789,26.880569,-39.597359,16.552048,-39.065666,-0.64579,0.0,-0.641649,5.546854,30.758745,25.684899,49.356363,41.744452,56.664216,54.298866,57.633883,0.0,63.549557,19.523277,85.633793,9.722786,83.147564,1.82333,70.671787,-3.904781,51.308956,0.0,21.414302,33.024614,57.00125,50.378147,70.968513,61.65544,79.387009,67.102505,82.614271,3.449078,304.536436,-51.763229,285.875956
17,-15.81356,8.857541,0.047894,-0.155735,0.0,19.69265,-19.378338,35.383301,-28.227539,45.533066,-29.776268,36.959953,-27.821159,18.063354,0.0,-3.803455,-0.958922,19.644782,16.405541,40.513519,31.746998,48.622398,44.298325,49.87519,0.0,63.518715,19.582043,85.627441,9.733372,83.021851,1.810741,70.682373,-3.918343,51.565475,0.0,21.567381,32.928345,56.801734,50.409949,71.110231,61.761651,79.519031,67.275221,82.747219,-12.356758,313.374325,-51.707611,285.700569
18,-18.291264,-3.306611,0.053158,-0.026182,0.0,38.41959,2.58997,57.967701,-4.669819,63.239307,-9.215698,53.45335,-11.352539,32.888775,0.0,-3.42758,6.12138,29.748631,22.565885,51.955129,35.761084,54.972934,46.474595,56.857001,0.0,63.698215,19.762344,85.676022,9.929123,82.796001,1.894569,70.137577,-4.090633,50.876484,0.0,21.491119,32.831768,57.032989,50.12954,71.409844,61.456418,79.825375,67.048721,83.211397,-30.627193,310.047522,-51.633625,285.654195
19,56.010761,-21.546324,0.366268,0.08114,0.0,-30.559502,-51.851234,-0.168686,-60.416107,6.044884,-61.747799,-1.240997,-59.683571,-19.237289,0.0,10.418715,23.89426,45.736492,44.158028,60.779943,60.376342,68.145717,73.014799,72.00839,0.0,63.17894,19.072437,85.011864,9.249744,82.46315,1.461582,70.070801,-4.104137,51.409721,0.0,21.833402,32.761805,57.075227,50.486766,70.945913,62.03539,79.25227,67.662396,82.175472,25.383224,288.43355,-51.2677,285.667687
20,-25.065994,16.749367,-0.154552,-0.256079,0.0,3.50544,-25.556374,22.479172,-33.962517,30.215492,-36.769238,18.443527,-36.559582,1.349602,0.0,0.3429,7.408073,31.036869,27.135045,49.608984,42.376467,57.270481,54.380686,56.975685,0.0,62.73428,20.118084,85.427456,10.114117,82.988033,1.862411,70.258656,-4.237518,50.704479,0.0,21.007984,33.276247,56.949688,50.731854,71.393295,61.988275,80.206684,67.458126,83.48137,0.281096,305.144076,-51.458387,285.372767
21,-16.390171,8.120982,0.11404,0.127762,0.0,25.135059,-15.464573,37.81477,-23.996487,49.047947,-26.203651,39.747334,-25.040131,19.703121,0.0,-5.417302,0.556618,22.806774,17.946831,42.309406,32.79058,49.374209,44.743052,49.298874,0.0,62.797165,19.685383,85.387344,9.673862,82.736206,1.602116,70.15686,-4.290733,51.234283,0.0,21.468519,33.114399,56.967843,50.573279,71.074909,61.884225,79.699281,67.398166,82.714553,-16.149044,313.261137,-51.384315,285.496608
22,-20.801468,-7.767584,-0.225277,-0.240518,0.0,44.814548,6.514721,65.318127,0.93132,70.548649,-3.149986,61.323681,-5.043869,42.384052,0.0,0.970099,8.689641,33.893072,26.855439,55.751606,40.969793,58.495054,51.612538,60.55832,0.0,62.994633,20.103951,85.976315,9.944801,82.902546,1.705971,70.332127,-4.239292,51.055126,0.0,21.365025,33.666263,57.015761,51.089883,71.480363,62.24176,80.079725,67.546244,83.133283,-36.977062,305.457768,-51.636143,285.220306
23,63.893795,-17.77498,0.253601,0.348643,0.0,-31.351776,-52.937279,-3.829765,-61.530647,3.483582,-62.807922,-3.885269,-60.515728,-21.017075,0.0,13.508952,24.071237,46.360851,44.173034,61.243194,60.463163,68.59421,73.208757,72.562971,0.0,63.065014,20.530357,85.765743,10.316563,82.841778,1.854858,70.194225,-4.401283,50.880833,0.0,21.204783,33.269887,56.820753,50.595879,70.995807,61.86533,79.572075,67.509317,82.873128,26.931181,287.637402,-51.368093,285.523562
24,-20.331573,16.374913,-0.320435,-0.16191,0.0,-6.653023,-29.280624,16.486015,-38.079414,22.771339,-41.376286,10.898438,-41.855335,-6.663208,0.0,0.90804,6.168372,33.222648,26.384284,50.97336,42.17479,58.167406,54.844925,58.503699,0.0,63.452396,20.305424,85.773525,10.300198,83.256168,2.150517,70.752354,-3.807106,51.50774,0.0,21.422638,33.639278,57.096036,50.868631,70.872862,62.120976,79.544781,67.768051,83.13637,6.598492,303.938986,-51.689644,285.288324
25,-18.33189,9.24768,0.066776,0.35772,0.0,21.193714,-19.864883,35.469418,-28.169346,47.120304,-29.405079,37.768879,-27.27602,18.451595,0.0,-4.606766,0.095775,21.424429,17.381568,40.738352,32.379323,48.181253,44.547365,49.803251,0.0,63.29361,22.140598,86.115875,12.029457,82.486496,3.090477,69.70768,-3.931732,51.059647,0.0,21.319947,33.55715,56.46433,50.871904,70.494517,62.075651,79.474139,67.730075,83.091972,-11.827326,313.108675,-51.716795,285.568053
26,-14.098263,-3.217752,-0.849781,-0.191426,0.0,37.920685,2.416706,54.471245,-4.623928,59.692039,-9.398403,48.115311,-12.648239,28.869095,0.0,-4.315242,6.926111,27.848633,24.097357,49.389029,38.026953,52.851375,48.959679,56.543494,0.0,64.288502,19.486256,84.915905,10.307808,82.308941,3.215504,70.600262,-1.546326,53.691616,0.0,20.477486,35.270168,64.042279,52.279937,73.754136,62.995856,81.784222,67.809424,84.7496,-26.023922,309.631417,-52.664909,285.117121
27,38.228073,-23.273854,-0.887833,-2.467917,0.0,-8.466911,-38.831348,7.811508,-48.508987,12.909164,-52.481174,7.116051,-53.099213,-9.291916,0.0,27.521356,26.444676,60.993352,42.377146,77.461755,55.930436,81.444656,66.824135,82.447545,0.0,63.729343,20.782871,83.047657,10.544071,79.797878,2.427692,65.301418,-3.24194,46.985664,0.0,24.571292,35.677227,75.260723,52.969812,89.518152,63.556859,94.077864,68.769211,92.593508,12.162437,286.070964,-53.594456,282.362605
28,7.157593,8.187951,2.085915,-9.753354,0.0,-34.831581,-44.449568,-34.410467,-49.616547,-30.259066,-50.20174,-34.316311,-47.495127,-40.140524,0.0,12.084247,30.808299,38.083825,41.754795,47.581471,48.31099,50.87249,51.83876,52.262276,0.0,60.246105,17.670937,68.809147,4.323177,55.397701,-7.185059,38.928623,-16.091766,17.87035,0.0,30.725399,37.036045,84.808757,53.417441,110.410045,64.090012,114.956172,69.824649,111.917805,19.259978,293.857182,-51.568594,272.207518
29,7.157593,8.18795,4.55555,-6.730239,0.0,-61.196251,-50.067787,-76.632442,-50.724106,-73.427296,-47.922306,-75.748672,-41.891041,-70.989132,0.0,-3.352862,35.171923,15.174299,41.132443,17.701188,40.691545,20.300324,36.853387,22.077007,0.0,44.465275,4.485683,45.186253,-9.405441,32.557869,-21.872234,14.839439,-32.06028,-10.441647,0.0,34.967715,24.592287,65.001324,37.830217,96.99625,46.797982,105.714112,51.850956,97.835562,26.342611,301.919979,-47.088003,265.352126
30,7.203255,-22.969177,-16.153164,-54.887409,0.0,-65.347366,-40.904732,-99.151497,-35.283737,-102.467937,-26.853333,-90.752449,-17.329445,-67.408676,0.0,23.702649,26.710696,46.369249,45.420886,61.721204,58.806214,74.173113,67.859998,80.536493,0.0,52.050247,9.547462,40.490799,-9.548721,21.992683,-27.203236,5.725079,-41.286907,-20.165005,0.0,45.97559,15.67985,68.363449,34.692863,96.028066,49.720382,101.402575,59.929392,101.743869,33.669748,278.642158,-63.117285,210.156072
31,-0.092125,0.186177,-21.219521,-52.506684,0.0,-63.686085,-38.613739,-97.780495,-33.269463,-99.692001,-25.43438,-87.802391,-16.556053,-66.16951,0.0,26.621282,27.462693,44.819684,45.49017,59.33912,58.383656,72.723337,66.764484,80.737737,0.0,38.836956,25.02634,43.209515,15.975266,30.97578,6.476097,17.868576,-1.940632,8.537636,0.0,17.93905,0.314495,17.982214,5.112625,21.935908,9.328079,22.456278,13.203844,22.54137,33.741188,279.07245,-84.173241,157.893503
32,-0.077477,0.147645,-10.300369,-27.873148,0.0,-64.746323,-38.07724,-97.222309,-32.633057,-100.352726,-25.098724,-88.107033,-16.72039,-65.835114,0.0,24.952106,28.615141,44.475302,46.975267,57.874092,59.804904,71.28943,67.923724,80.025508,0.0,41.190434,6.855297,15.772076,-11.676121,-3.464184,-28.854446,-28.475533,-43.760777,-54.134045,0.0,-20.974917,-38.787286,-36.718308,-39.219014,-53.565488,-35.851054,-68.769273,-28.883045,-67.454514,34.478388,279.412695,-93.658934,130.212955
33,-0.651512,0.082869,-7.520084,-50.354837,0.0,-63.751888,-37.867126,-97.156219,-32.18502,-100.28492,-24.628487,-87.737789,-16.52607,-66.029549,0.0,25.688851,28.204562,44.855005,46.393517,57.944734,59.339614,71.081393,67.839003,79.84637,0.0,20.055885,-13.943768,8.503761,-32.211571,-41.715775,-46.691952,-67.289085,-57.281055,-90.206795,0.0,-42.992922,-44.837098,-47.064065,-42.519636,-105.406471,-31.629549,-88.662847,-14.963298,-53.738049,34.528313,279.507729,-100.477581,79.870283
34,0.119934,-0.332896,-13.130093,-37.70545,0.0,-63.307285,-37.969208,-97.690544,-32.496414,-101.001492,-24.837112,-89.135284,-16.458206,-66.795273,0.0,25.554976,28.196597,44.446588,46.361777,57.321364,59.336033,70.808518,67.82622,80.018283,0.0,12.560692,-13.827496,10.506649,-30.057392,-35.801296,-44.724197,-57.555656,-56.480827,-89.564896,0.0,-57.573707,-51.457545,-55.471537,-51.355039,-119.56442,-42.898721,-108.793636,-27.770766,-70.876042,33.400068,279.174539,-114.855852,42.16454
35,0.440598,-1.554258,-7.065868,-24.145245,0.0,-64.725609,-37.747421,-98.910484,-32.105942,-102.171879,-24.221306,-89.653873,-15.904999,-67.606144,0.0,26.562372,28.306018,46.522266,46.30898,58.74187,59.413591,72.043526,68.105888,80.280908,0.0,15.519104,-10.50436,14.237537,-28.839054,-34.711933,-43.671112,-55.036926,-56.16869,-86.264591,0.0,-65.959691,-49.593423,-69.084817,-50.105674,-107.591695,-44.941641,-101.105709,-35.170781,-82.138762,30.881166,277.773299,-124.88122,18.172313
36,-0.189857,0.38557,-2.273197,-30.678191,0.0,-64.713707,-37.930183,-98.345318,-32.517014,-101.471844,-24.88678,-89.367428,-16.70105,-67.46006,0.0,25.74634,27.626085,46.191099,45.969847,58.592681,59.402847,71.840491,68.379998,80.337718,0.0,11.8507,-14.116516,5.968094,-31.004448,-35.357265,-46.038837,-58.329792,-58.313255,-91.001129,0.0,-66.595102,-57.325964,-63.940112,-59.804502,-129.830457,-54.136771,-122.450017,-41.500908,-88.395622,28.302269,278.252312,-129.543457,-12.412435
37,0.063744,-0.366118,-2.119904,-16.699504,0.0,-64.452896,-36.35376,-97.486267,-31.08799,-101.121082,-23.696251,-89.531078,-15.824547,-66.998177,0.0,25.533054,26.705509,46.008194,44.908543,58.402675,58.544886,71.537852,67.893034,80.850494,0.0,18.913136,-12.190132,8.326664,-29.376125,-35.103722,-44.061642,-58.417854,-57.200031,-88.732224,0.0,-66.381137,-54.682985,-68.133861,-57.035027,-128.953725,-51.545446,-119.832047,-39.865232,-88.143372,27.431631,278.108279,-132.597742,-28.889853
38,-0.311623,0.401254,-0.304699,-12.832322,0.0,-64.704781,-35.707397,-96.84906,-30.382004,-100.588646,-22.994728,-88.670826,-14.968643,-66.53223,0.0,24.471503,26.074358,45.405695,44.431089,58.884143,57.922257,72.193765,66.886256,80.896992,0.0,20.857887,-11.547947,8.568478,-28.847237,-33.992672,-43.479023,-56.868153,-56.269798,-87.313671,0.0,-65.554917,-52.875241,-67.570419,-55.268903,-125.823257,-49.778952,-116.472701,-38.100869,-87.157804,26.565428,278.74894,-133.457022,-41.482769
39,-0.061798,0.163206,2.773132,-6.26779,0.0,-64.389153,-35.695152,-97.355976,-30.237808,-100.960579,-22.805443,-89.188156,-14.757957,-66.464252,0.0,24.215362,26.17637,46.168931,44.337907,58.828629,57.736882,71.75404,66.712737,80.192358,0.0,17.956753,-14.92281,7.295952,-30.518074,-34.638863,-44.146557,-56.375542,-56.293373,-88.801861,0.0,-65.506504,-51.497744,-69.940832,-53.671976,-124.330379,-47.960032,-115.887647,-35.713845,-85.006049,25.996542,279.24603,-131.190977,-47.416675
40,0.538559,-0.391436,-0.138359,-0.181299,0.0,-63.950043,-35.304222,-97.217617,-30.200043,-101.022205,-22.927208,-89.162693,-15.056419,-67.010078,0.0,24.829779,25.990563,45.864748,44.493333,58.927924,58.145485,72.143624,67.430524,79.976046,0.0,18.392029,-14.240799,9.416485,-30.111008,-31.517372,-44.048767,-54.067211,-56.480656,-88.538589,0.0,-63.379697,-51.177506,-70.700825,-54.192933,-123.162586,-49.281182,-115.147352,-37.739598,-85.736125,25.771008,279.012691,-132.09343,-47.439878
41,-0.782547,0.226871,0.622101,0.195749,0.0,-63.564892,-34.858017,-96.916409,-29.446106,-100.316048,-22.186775,-89.008827,-14.363708,-66.778221,0.0,23.696288,25.654394,45.610583,43.966355,58.720628,57.582815,71.776888,66.838152,79.874034,0.0,17.659149,-15.468178,10.777645,-31.406994,-34.357281,-45.636978,-57.449112,-58.079967,-90.018883,0.0,-60.264481,-50.703788,-68.209073,-53.363533,-124.535498,-47.931133,-114.762894,-35.881899,-84.691153,24.841976,279.627416,-131.617813,-46.856274
42,0.303154,-0.259969,-0.688076,2.488387,0.0,-63.444157,-35.028648,-97.16486,-29.690552,-100.9132,-22.256012,-89.475403,-14.01226,-66.863251,0.0,22.920641,25.120129,45.322147,43.117225,58.938113,56.683111,72.348265,66.150005,80.188344,0.0,17.236862,-16.095543,7.547035,-33.171272,-38.392696,-48.063469,-63.50481,-60.241413,-94.7085,0.0,-59.239949,-51.021124,-66.933556,-53.892981,-127.040975,-48.217717,-116.14283,-35.695104,-84.033944,24.461889,280.003337,-132.98913,-43.731997
43,0.305443,-0.057057,-1.005478,2.729183,0.0,-62.855415,-35.040207,-97.189407,-29.585724,-101.365871,-21.924477,-88.72324,-13.393478,-66.46265,0.0,23.23421,25.222697,44.785166,43.316061,58.915204,56.952405,72.493008,66.3502,79.557687,0.0,17.766895,-15.963936,9.070415,-32.712708,-39.636669,-47.520447,-64.081764,-59.711094,-95.403271,0.0,-58.750762,-50.845474,-66.818207,-53.449211,-126.656579,-47.477267,-116.548623,-34.602553,-83.000365,24.56563,280.319716,-134.19631,-40.629378
44,0.18425,0.024515,0.616264,1.566176,0.0,-62.117958,-34.562645,-96.579666,-29.030914,-100.24538,-21.208076,-88.050156,-12.449341,-65.883121,0.0,22.907056,25.090057,45.090151,43.164588,59.035926,56.860397,72.927484,66.369652,80.056013,0.0,15.991917,-15.211945,6.999207,-31.994705,-38.729668,-46.918144,-62.710876,-59.575825,-95.002384,0.0,-59.68591,-50.836397,-68.754699,-53.552427,-127.796445,-47.885098,-117.495396,-35.390767,-83.802009,24.568491,280.546633,-133.761435,-38.8608
45,0.927086,0.541304,1.243858,-0.606204,0.0,-63.336468,-34.107285,-96.541386,-28.736115,-100.45435,-21.218147,-88.549118,-12.75238,-66.204472,0.0,22.333766,25.274567,45.26651,43.130687,58.1926,56.602959,72.069523,65.875278,79.475312,0.0,16.430569,-15.46526,6.91103,-31.952705,-37.901459,-46.703167,-62.054787,-59.37561,-94.348125,0.0,-59.615052,-50.765878,-68.346529,-53.627701,-127.127673,-47.901462,-116.519353,-35.326176,-83.405973,25.392923,281.574546,-132.62023,-38.980395
46,0.3368,0.78565,0.564651,0.426417,0.0,-61.669521,-34.554405,-96.789608,-29.173508,-100.212593,-21.680946,-88.489609,-13.143311,-66.074638,0.0,22.378967,25.070667,45.592676,42.859355,58.814056,56.29254,72.971512,65.441666,79.393493,0.0,16.871567,-15.407753,7.326965,-31.784134,-37.011509,-46.564236,-60.643215,-59.272957,-93.553276,0.0,-59.589333,-51.014177,-68.598224,-53.795755,-127.875995,-48.137966,-117.414302,-35.754538,-84.561385,25.682917,282.708052,-132.102385,-38.206122
47,0.603218,0.414284,0.461941,0.632479,0.0,-61.927643,-34.94545,-97.291718,-29.75029,-101.008759,-22.261047,-88.772907,-13.784752,-65.855255,0.0,22.989864,25.338849,45.00333,43.174962,58.574774,56.552015,72.451882,65.480199,79.482166,0.0,17.635002,-15.460453,8.496952,-31.908875,-36.544018,-46.608181,-60.356998,-59.051571,-92.432842,0.0,-60.141937,-50.908861,-69.337562,-53.781768,-127.474432,-48.248221,-117.39448,-35.931608,-85.608641,26.296978,283.331685,-131.629601,-37.364294
48,0.323753,0.1122,0.06546,0.014295,0.0,-60.889721,-35.154991,-97.672806,-29.688721,-101.336174,-21.788177,-88.750935,-12.732697,-65.672722,0.0,23.830719,25.132788,45.188828,43.028058,58.957132,56.469208,72.853877,65.497365,79.716633,0.0,19.584618,-15.382977,9.637756,-31.711407,-36.651649,-46.387596,-59.855576,-58.9571,-92.387581,0.0,-59.662476,-51.247809,-68.689615,-54.121673,-128.798809,-48.497292,-118.455723,-35.985979,-85.922703,26.582451,283.563141,-131.602421,-37.230744
49,0.527344,0.32666,0.344753,0.197972,0.0,-62.005405,-35.925865,-98.10854,-31.110878,-101.82621,-23.771553,-90.147343,-15.053902,-67.238102,0.0,22.628562,25.206271,44.626158,43.146495,57.510752,56.57863,71.783434,65.626671,79.586463,0.0,19.775848,-16.231556,9.249172,-32.496815,-37.245369,-46.992702,-60.110493,-59.306316,-92.164478,0.0,-59.51974,-52.073474,-68.028669,-54.739147,-129.015074,-48.768283,-118.807237,-35.783314,-85.978032,27.115488,284.078649,-131.251974,-36.843924
50,-0.270195,-0.014203,-0.056362,0.255431,0.0,-62.62104,-35.719414,-98.157234,-30.718918,-101.933327,-23.248787,-89.577427,-14.654961,-67.004013,0.0,22.778121,25.420422,44.418368,43.538178,58.037174,57.113141,71.730452,66.286968,79.332236,0.0,18.550529,-15.813274,9.497795,-32.058392,-36.912289,-46.759415,-60.178528,-59.181461,-91.483498,0.0,-59.570468,-51.475452,-66.108386,-53.997185,-128.61172,-48.076957,-118.156604,-35.120516,-86.018725,26.852703,284.188935,-131.300926,-36.464004
51,0.179901,-0.079782,-0.01379,0.781945,0.0,-62.353935,-36.212769,-98.312759,-31.183891,-101.992493,-23.639603,-89.505444,-14.835777,-66.973,0.0,23.166655,25.614194,44.66327,43.635558,58.443739,57.136792,71.781643,66.308148,79.54861,0.0,18.547268,-15.186539,9.364471,-31.516399,-36.687241,-46.215363,-60.130863,-58.779373,-90.924797,0.0,-59.673838,-52.034757,-68.316889,-54.831278,-129.512566,-49.009943,-118.661969,-36.093085,-86.862823,27.036495,284.166751,-131.310825,-35.624461
52,-0.387383,0.167344,0.666275,-0.025349,0.0,-61.548672,-35.8675,-98.044224,-30.889664,-101.58205,-23.380737,-89.464931,-14.516945,-67.052593,0.0,22.528341,25.424312,44.804926,43.414245,58.503514,56.934744,71.744284,66.166678,79.467655,0.0,16.941261,-15.449524,8.562183,-31.973305,-36.926365,-46.80336,-59.886246,-59.464817,-91.416664,0.0,-60.528124,-52.068719,-67.886149,-54.886051,-129.421978,-49.086329,-118.775559,-36.228874,-87.042331,26.61581,284.32846,-130.677853,-35.655444
53,-0.145454,-0.073545,0.580788,-0.487705,0.0,-61.819668,-36.414185,-98.337822,-31.241455,-101.60408,-23.472404,-88.894272,-14.400787,-66.453266,0.0,23.010488,25.941657,45.135167,44.084113,59.253534,57.499267,72.463429,66.498895,79.578003,0.0,16.985779,-16.48962,9.729137,-32.63752,-37.018147,-47.147255,-60.010242,-59.466305,-91.24197,0.0,-59.902438,-51.150861,-67.45226,-53.710045,-128.520515,-47.871667,-118.275658,-35.147223,-86.696652,26.400261,284.253665,-130.16716,-36.1444
54,-0.42263,0.184695,-0.404606,1.058433,0.0,-61.156654,-36.514206,-97.714748,-31.277275,-100.795555,-23.494492,-88.609829,-14.374466,-65.870762,0.0,22.715692,25.453149,44.956338,43.394793,58.753356,56.831374,72.105277,66.103013,79.417081,0.0,18.126869,-15.359287,9.883575,-31.618538,-35.474911,-46.140289,-59.116402,-58.387012,-91.074715,0.0,-60.748265,-52.728183,-69.486812,-55.723819,-130.813092,-50.050592,-120.734205,-37.338375,-88.217318,25.933657,284.420082,-130.61574,-35.104245
55,-0.224533,0.036988,0.264015,-1.413683,0.0,-61.090965,-35.991211,-96.945534,-31.04084,-100.685005,-23.50296,-88.108349,-14.60392,-66.003056,0.0,22.623745,25.715218,45.13529,43.758133,58.689197,57.226083,72.218095,66.405899,79.761649,0.0,18.429222,-15.674744,10.154972,-32.066746,-36.573429,-46.646862,-59.634762,-58.837109,-90.529232,0.0,-59.699773,-51.956272,-67.623926,-54.901952,-129.217893,-49.280472,-119.178295,-36.723804,-87.58839,25.546103,284.449136,-130.514746,-36.525863
56,0.278549,0.25682,-0.162621,0.023218,0.0,-61.357899,-35.355377,-96.553001,-30.368958,-100.213795,-22.927895,-88.017769,-14.307747,-66.048088,0.0,22.665797,25.351138,44.478451,43.380961,58.138569,56.884418,71.775838,66.265726,79.611101,0.0,18.387108,-15.590515,9.975758,-31.727772,-36.26936,-46.196709,-59.404106,-58.311939,-90.199642,0.0,-60.348431,-51.369797,-68.072728,-54.589772,-128.902256,-49.24583,-119.299141,-36.999427,-88.121265,25.629559,284.693436,-130.872459,-36.515164
57,0.607224,-0.144064,0.228825,-0.094972,0.0,-61.677361,-35.021667,-96.878986,-30.121078,-101.170177,-22.780952,-89.38242,-14.212532,-67.124004,0.0,22.595587,25.678044,44.901503,43.698235,58.06558,57.192985,72.053592,66.452768,80.349389,0.0,18.56575,-15.259838,9.410591,-31.642056,-35.855427,-46.247578,-58.958988,-58.595009,-90.579529,0.0,-60.19106,-52.226152,-69.425155,-55.498522,-130.035191,-50.132751,-120.316448,-37.77461,-88.771867,25.948534,284.49815,-130.931883,-36.661359
58,0.242729,0.672338,0.122223,-0.060793,0.0,-61.644402,-35.189667,-96.648273,-30.364838,-101.05402,-23.15403,-89.866047,-14.514656,-67.113476,0.0,22.592561,25.699719,44.27239,43.498163,57.263071,56.672429,71.081084,65.67885,80.025199,0.0,19.318256,-15.32032,10.911484,-31.527214,-35.62191,-46.184006,-58.366871,-58.612289,-89.904842,0.0,-59.994879,-51.132429,-67.164997,-54.415266,-129.043726,-49.226132,-119.563139,-37.270418,-88.584949,25.859213,285.087727,-131.14171,-36.804913
59,-0.548401,0.306097,0.440598,-0.200534,0.0,-61.902981,-34.959526,-96.071148,-29.993477,-100.035267,-22.697182,-88.360691,-14.142952,-66.393929,0.0,22.10955,25.881759,44.194523,43.593568,57.29407,56.783085,71.166732,65.903436,79.726821,0.0,20.167465,-15.173264,10.972824,-31.362247,-34.969082,-45.936241,-57.651272,-58.395138,-90.15358,0.0,-59.925811,-51.423273,-67.929467,-54.693606,-129.117981,-49.443184,-120.103996,-37.346155,-88.163502,25.083389,285.319971,-130.928535,-37.079301
60,0.810127,-0.110533,0.369873,-0.04233,0.0,-61.008854,-35.232697,-96.492004,-30.318489,-100.79916,-22.972641,-88.799858,-14.105415,-66.234856,0.0,23.330973,26.671979,43.937641,44.224348,57.1505,57.06442,71.910454,65.735166,80.222924,0.0,18.966236,-14.971561,11.456394,-31.114941,-35.067501,-45.79565,-57.547874,-58.434277,-89.663715,0.0,-59.486333,-51.173709,-67.710253,-54.366267,-129.173279,-49.12094,-119.651087,-37.142224,-88.691407,25.699825,285.08728,-130.752354,-37.243788
61,1.074829,-0.184757,0.084572,0.704294,0.0,-62.499733,-35.549583,-98.316021,-30.662155,-102.249527,-23.292847,-91.279163,-14.372406,-68.3741,0.0,21.982714,26.418555,44.500002,44.428063,57.265974,57.672909,71.340066,66.623693,80.189085,0.0,20.512104,-14.7369,12.672443,-30.731964,-34.066544,-45.232887,-57.287865,-57.473145,-88.373337,0.0,-59.043614,-51.449888,-66.879833,-54.316496,-129.618345,-48.722279,-120.327764,-36.251567,-88.470958,26.308165,284.538936,-131.134272,-36.903081
62,-0.166969,0.199948,0.466576,0.748971,0.0,-61.908073,-35.734177,-97.64431,-30.708389,-101.223106,-23.249245,-90.107059,-14.28669,-67.425671,0.0,21.906329,26.209777,44.072319,44.135983,56.877996,57.283819,70.580721,66.260847,79.199473,0.0,20.179882,-14.79887,12.397442,-30.732079,-34.663467,-45.147285,-57.575798,-57.423706,-88.947716,0.0,-59.397166,-51.688645,-67.359048,-54.480567,-130.309888,-48.774952,-120.518217,-36.211183,-88.48692,25.625639,284.406837,-131.183252,-36.486157
63,0.373993,-0.011115,-0.050697,0.201152,0.0,-62.084656,-36.004829,-97.507839,-31.0009,-101.355801,-23.554115,-89.939861,-14.514542,-67.150383,0.0,22.543655,26.270107,44.052003,44.024524,56.853728,57.148648,70.86539,66.142657,79.657537,0.0,20.094166,-14.69759,12.230301,-30.708389,-34.358711,-45.243988,-57.519608,-57.562752,-88.607941,0.0,-59.004834,-51.817549,-67.918321,-54.734824,-130.193704,-49.199425,-120.792914,-36.846162,-89.043693,25.857153,284.307974,-131.376429,-36.372753
64,0.1577,-0.601573,0.22419,-0.067925,0.0,-62.52737,-35.478172,-97.267342,-30.397453,-101.108665,-22.956734,-89.764194,-13.914299,-67.313519,0.0,22.979428,27.318259,44.911692,44.937813,57.357982,57.789555,71.469248,66.469378,80.650608,0.0,19.291821,-15.190544,11.575184,-31.083298,-34.613686,-45.57209,-58.306618,-57.895603,-88.503227,0.0,-59.520666,-51.732982,-67.710315,-54.904082,-130.573099,-49.378223,-120.637828,-36.979265,-89.400332,25.956917,283.589091,-131.210175,-36.557988
65,0.684242,0.021242,0.548058,0.394709,0.0,-63.285942,-35.248489,-97.398205,-30.356598,-101.506577,-23.137894,-90.537815,-14.169159,-67.9109,0.0,22.731809,27.535311,45.110158,45.100772,57.257143,57.870448,71.469803,66.534463,80.917493,0.0,17.460423,-15.444374,10.743484,-31.43343,-34.751873,-46.036434,-58.630199,-58.37431,-88.963337,0.0,-59.840811,-51.457761,-67.872132,-54.598634,-130.044006,-49.1767,-120.482016,-36.962037,-89.5657,26.605253,283.484826,-130.698023,-36.288787
66,0.866547,0.145731,0.521622,0.578817,0.0,-63.296471,-35.764961,-98.04491,-31.033745,-102.013264,-24.031677,-91.045361,-15.288734,-68.147163,0.0,21.913554,27.196857,44.926327,44.816164,57.295305,57.747997,71.396506,66.595596,80.791028,0.0,17.47324,-15.08234,10.233479,-31.169872,-34.635887,-45.798798,-57.953224,-58.271313,-89.471684,0.0,-60.071573,-52.137046,-67.904427,-55.14883,-130.430424,-49.506509,-120.917804,-36.953546,-89.23373,27.386398,283.517492,-130.261803,-35.823035
67,0.663528,0.008892,0.013561,0.878801,0.0,-63.622284,-35.560455,-98.125477,-30.775909,-102.240658,-23.66375,-91.068249,-14.854774,-68.099842,0.0,21.831982,27.201983,44.836851,44.827094,57.273137,57.673526,71.630601,66.467526,80.735638,0.0,19.299603,-14.609928,11.784611,-30.816765,-34.329758,-45.585938,-57.82196,-58.206425,-88.913784,0.0,-60.064039,-52.081131,-67.437563,-55.04302,-130.46908,-49.596511,-121.446326,-37.373017,-89.970783,27.971306,283.422381,-130.326862,-35.048237
68,-0.171661,0.53093,0.887432,0.175032,0.0,-63.649349,-35.590553,-98.733273,-30.675774,-102.56361,-23.374786,-91.553707,-14.368858,-68.379593,0.0,22.005562,26.840002,44.49568,44.533347,57.240841,57.550087,71.4845,66.387806,80.600775,0.0,20.890274,-15.119648,12.601547,-30.794678,-34.126682,-45.197468,-57.921696,-57.535629,-88.692856,0.0,-59.861961,-52.135502,-65.699196,-55.020759,-129.877033,-49.395482,-120.452314,-36.77907,-88.888792,27.736788,283.900113,-129.502287,-34.926404
69,-0.290909,-0.326104,0.561447,1.206634,0.0,-63.169098,-35.257759,-98.138523,-30.185051,-101.881828,-22.844696,-90.82243,-13.919678,-67.671261,0.0,22.543655,27.228227,44.16902,44.914224,56.98822,57.768375,71.299187,66.454991,80.318329,0.0,18.105125,-14.983349,12.453117,-30.939045,-33.600483,-45.695801,-57.63176,-58.235493,-89.102669,0.0,-60.047027,-51.678735,-67.103123,-54.950333,-129.833792,-49.706581,-121.367409,-37.599023,-90.091011,27.398987,283.521984,-128.987732,-33.771794
70,0.53524,0.131528,0.811329,2.583298,0.0,-63.103809,-35.406418,-98.508224,-30.415421,-102.234764,-23.151054,-91.039009,-14.400558,-68.142929,0.0,22.714951,27.029946,44.446218,44.790353,56.767524,57.734968,70.812779,66.511369,80.189332,0.0,18.019409,-14.847679,11.957302,-30.835476,-33.020439,-45.522537,-57.126732,-58.125973,-88.852215,0.0,-61.515266,-52.42928,-69.07222,-55.711932,-131.414649,-50.54015,-123.130939,-38.539914,-91.602599,27.850771,283.57776,-128.259859,-31.264249
71,-0.499649,0.476775,0.387325,1.396825,0.0,-62.602959,-34.693451,-97.637844,-29.815063,-101.50074,-22.78141,-90.561218,-14.404793,-68.274307,0.0,21.95221,26.707362,43.76826,44.636594,56.452288,57.607639,70.461604,66.37101,80.102511,0.0,19.646473,-14.304714,12.235336,-30.197296,-32.927685,-44.691525,-56.282616,-57.20192,-86.083832,0.0,-61.116297,-52.005116,-68.782024,-55.521308,-130.380159,-50.380864,-122.732973,-38.39653,-90.835937,27.222433,283.997586,-128.001223,-29.924373
72,0.265274,0.113497,1.585464,3.617771,0.0,-62.555523,-35.172844,-97.968006,-30.26516,-101.78072,-23.225555,-90.476189,-14.924698,-67.947922,0.0,22.536122,26.755404,43.551948,44.799059,56.66508,57.886812,70.493776,66.681553,80.219528,0.0,20.811539,-14.67207,12.954311,-30.514412,-31.334667,-44.922237,-55.452118,-56.784725,-84.152584,0.0,-61.543764,-51.993723,-67.162372,-55.362177,-128.599262,-50.389695,-121.689391,-38.602776,-90.739205,27.421818,284.031271,-126.481647,-26.386414
73,0.224075,0.157834,4.314365,7.473745,0.0,-63.112965,-34.745522,-98.443508,-29.651299,-101.999474,-22.326393,-91.430626,-13.612289,-68.360596,0.0,21.91059,26.583614,44.253124,44.359829,56.637107,57.465242,70.812655,66.264058,80.830116,0.0,20.412197,-18.318157,14.303856,-33.168697,-32.936268,-46.688347,-56.774826,-57.621803,-84.170837,0.0,-61.663251,-52.205064,-69.662647,-55.345628,-128.87913,-49.75666,-121.717225,-37.563486,-90.817473,27.322798,283.646674,-122.490377,-19.4551
74,-0.221214,0.162774,3.399868,8.306141,0.0,-63.169441,-34.080391,-98.176517,-29.032402,-101.47316,-21.770782,-90.788956,-13.214722,-68.006859,0.0,21.310438,26.764234,43.543674,44.624306,56.341817,57.681863,70.750164,66.354893,80.597132,0.0,28.044949,-19.295769,15.775566,-34.145679,-32.264786,-47.13707,-53.413067,-56.79697,-76.5065,0.0,-62.719338,-50.404854,-70.453546,-52.456141,-124.978727,-46.093132,-118.106154,-33.649312,-88.570067,26.489811,283.278996,-119.702282,-11.679411
75,0.589371,0.816464,5.658588,11.969021,0.0,-63.157368,-33.916283,-98.026199,-29.060669,-101.692829,-21.935234,-91.250896,-13.566284,-68.645039,0.0,20.603395,26.218484,42.466808,44.084978,56.137361,57.207619,70.949556,65.962469,79.929116,0.0,28.542309,-21.432667,16.834145,-34.161129,-29.94318,-44.764423,-47.428093,-52.021008,-67.948437,0.0,-62.692013,-48.730307,-68.156523,-48.309786,-116.464766,-39.478026,-109.21465,-24.819312,-77.113204,27.353039,284.136154,-113.769836,0.330303
76,-0.184021,-0.172901,0.435505,21.178508,0.0,-63.200855,-33.705482,-97.384357,-28.785439,-100.755558,-21.507339,-90.490379,-12.806854,-67.734776,0.0,20.413698,26.280975,43.373366,44.139256,56.231963,57.269493,71.321417,65.953577,80.658265,0.0,27.89669,-23.46405,20.352974,-38.187904,-11.06369,-48.089275,-26.260815,-52.491589,-38.290787,0.0,-65.989423,-43.149582,-70.047105,-45.260458,-104.547986,-42.270905,-99.162393,-35.465762,-79.031327,30.660038,285.421041,-109.843311,22.966599
77,0.798683,0.017414,-2.485428,19.471171,0.0,-64.007034,-34.091721,-97.747021,-29.157715,-101.050758,-21.91864,-90.673256,-13.209,-67.988548,0.0,20.296311,26.496608,42.817797,44.478204,56.163482,57.613628,71.340683,66.289438,81.023333,0.0,31.076775,-26.509781,24.11562,-35.544434,13.415508,-38.299713,7.059002,-37.468872,-0.728989,0.0,-60.501479,-52.776163,-63.786447,-54.307913,-57.848095,-51.299618,-54.393931,-46.243834,-53.342569,33.079605,284.595484,-110.707855,41.5948
78,0.456276,0.106149,9.255867,32.550942,0.0,-64.366493,-34.058418,-98.42205,-29.117203,-101.499252,-21.939926,-91.065044,-13.431587,-68.727608,0.0,20.474769,26.536437,42.961244,44.622885,56.097224,57.821048,71.229285,66.390585,80.789484,0.0,25.195084,-16.11331,24.009247,-26.035652,13.504887,-31.598253,5.699272,-34.598636,-3.33847,0.0,-58.104915,-53.705321,-55.273519,-53.604653,-51.184654,-49.378254,-47.405513,-42.359671,-44.121626,35.034456,284.191636,-99.953413,73.635745
79,-0.15976,-0.459053,9.255867,32.550943,0.0,-64.554062,-34.096413,-97.590866,-29.0625,-100.763626,-21.852264,-89.795609,-13.383179,-67.547264,0.0,21.418563,27.148445,43.462225,45.336103,56.849591,58.47727,72.416067,66.917439,81.509618,0.0,19.313393,-5.716839,23.902874,-16.526871,13.594265,-24.896793,4.339542,-31.728401,-5.947952,0.0,-55.70835,-54.63448,-46.760592,-52.901393,-44.521213,-47.45689,-40.417096,-38.475508,-34.900684,35.667257,283.935542,-89.904985,106.389646
80,0.085831,-0.151042,-0.767526,14.777027,0.0,-65.140343,-33.905296,-97.990952,-28.875961,-101.051388,-21.719284,-90.160847,-13.342094,-67.759666,0.0,22.056938,27.00858,43.699593,45.180306,56.912576,58.418607,72.166224,67.029887,81.397726,0.0,36.534462,3.443412,36.218776,-4.321003,32.707843,-10.178032,25.845651,-14.38262,12.874603,0.0,-29.27147,-34.55059,-25.029402,-25.654146,-15.995379,-14.381902,-6.480443,-1.150595,2.812191,35.659275,283.812859,-90.766325,121.195032
81,0.153236,-0.132578,-0.767527,14.777028,0.0,-65.603828,-34.793587,-97.874165,-29.66114,-101.371593,-22.372971,-90.780773,-13.861427,-68.13343,0.0,21.967709,27.223781,43.948262,45.245453,57.159886,58.413728,72.026977,67.074347,81.534441,0.0,53.755531,12.603664,48.534679,7.884865,51.821423,4.54073,47.351761,2.963161,31.697159,0.0,-2.834591,-14.466701,-3.298213,1.593099,12.530455,18.693085,27.456209,36.174318,40.525066,35.550957,283.790305,-91.795406,136.082084
82,-0.031471,0.00846,5.384617,35.365387,0.0,-63.918285,-33.949127,-97.401237,-28.986282,-101.120453,-21.769753,-90.018253,-13.400116,-67.718296,0.0,21.566023,27.075333,43.473216,45.080394,57.067014,58.205012,72.088913,66.87372,81.065879,0.0,52.534332,27.096519,63.96349,20.895252,60.175381,13.502483,52.703991,6.144619,39.66814,0.0,-26.905025,-5.219083,12.067327,10.339365,26.969863,27.297387,38.109884,43.900467,46.272609,35.594244,283.966556,-86.336031,171.615263
83,0.00309,-0.113559,13.708191,7.582765,0.0,-64.357796,-33.892708,-97.401352,-28.992348,-101.133842,-22.004585,-90.465488,-13.72879,-68.534889,0.0,22.175561,27.302512,43.979693,45.376858,57.694768,58.441084,72.801142,66.936829,82.078709,0.0,54.233837,16.284313,69.980278,0.919476,64.299316,-12.535915,49.24696,-23.248558,20.616016,0.0,0.336107,12.046888,45.15678,26.171368,60.966244,37.655401,68.421865,46.366038,69.139219,35.966263,283.873313,-72.258911,179.218344
84,1.050797,1.134973,1.662197,41.369874,0.0,-54.93679,-35.200424,-97.840347,-31.338615,-101.931667,-24.708023,-91.578369,-16.369514,-69.118309,0.0,6.181401,27.151471,42.708067,44.249604,57.425784,56.760979,71.386008,65.070114,81.128124,0.0,55.435467,46.135712,62.424946,43.218098,58.545742,35.862923,52.510471,25.584469,43.964596,0.0,14.344744,13.207302,40.971707,34.56362,55.341769,54.155729,70.074182,70.485811,76.069036,37.086267,283.964101,-70.527506,219.544034
85,1.356239,2.207577,2.364178,13.67784,0.0,-66.91515,-36.152229,-97.248573,-32.558327,-100.405083,-26.353798,-89.728088,-17.529144,-66.276283,0.0,-16.88176,27.763232,40.199456,41.223711,55.055803,51.417901,68.396424,58.672957,78.410797,0.0,56.433392,16.373692,81.258316,8.669128,81.765976,3.254642,71.910439,-0.738831,53.010521,0.0,8.189525,15.952107,40.328577,35.514082,55.452611,52.444131,66.634437,64.980514,74.853047,38.402653,285.990333,-68.203182,233.040528
86,0.352249,45.572792,28.491039,30.609,0.0,-70.341568,-36.441879,-97.355576,-35.899315,-101.810074,-32.852783,-91.030312,-28.401489,-76.351089,0.0,30.220775,5.960582,7.885775,-10.632309,-21.843529,-27.377416,-38.89325,-44.025265,-49.341111,0.0,44.899349,18.723278,53.982525,10.101814,40.356388,4.267216,24.710541,0.590115,22.534561,0.0,19.695541,27.87747,48.241213,44.693281,59.828369,57.746948,74.650629,67.632941,86.14905,38.715105,331.469666,-39.75194,263.556069
87,-4.589653,-47.228012,-19.194374,0.165306,0.0,-65.789165,-19.492378,-92.371502,-18.775864,-99.083576,-16.627121,-93.288345,-13.098335,-71.012478,0.0,-6.234507,22.544581,11.642608,39.833832,28.271747,52.815498,52.507487,61.210899,80.182601,0.0,58.641644,15.887547,81.473866,6.03796,80.639362,-1.481266,67.264423,-6.585903,44.271755,0.0,19.908765,24.824221,52.015398,43.340453,70.883298,56.668415,83.220413,65.304025,87.214059,34.293566,284.166519,-58.7782,263.64624
88,0.134811,-2.374242,3.900776,5.990963,0.0,-55.646152,-13.80867,-84.563713,-13.551636,-93.86198,-13.50666,-89.812431,-12.875519,-70.313072,0.0,4.109058,27.782622,23.770945,44.506856,40.794483,56.15638,59.471945,63.532529,85.214704,0.0,64.334564,29.61668,92.661896,16.239624,82.154846,4.873695,68.304291,-4.934177,50.914879,0.0,30.055099,42.213384,48.499391,60.667866,55.792485,71.803256,66.358289,76.568782,76.423113,34.493666,281.899013,-54.812136,269.743939
89,0.843086,2.031897,-9.922886,2.024055,0.0,-55.199146,-11.171608,-79.927826,-12.074432,-88.218899,-13.577042,-85.218315,-14.702454,-69.373856,0.0,5.315414,28.109096,30.645247,45.606817,44.440475,57.255538,59.914634,64.111315,79.326432,0.0,73.081684,33.187866,104.721279,22.568951,99.035625,12.543182,85.219975,3.978195,63.786449,0.0,23.440518,37.742778,54.831217,56.141622,65.591658,66.651789,75.654938,71.547547,85.795467,35.385046,284.050845,-64.686728,271.887928
90,-2.594375,26.31321,-0.104713,1.89018,0.0,-61.460095,-31.892882,-48.530617,-30.860768,-44.680281,-28.136845,-42.954655,-23.803196,-46.100636,0.0,17.278104,13.362017,27.195498,15.143424,30.691467,13.573944,30.633082,9.009323,29.066011,0.0,74.71899,31.7486,99.33157,21.658344,95.639019,11.486835,80.832882,2.055645,58.213291,0.0,23.939647,35.083435,60.125635,52.953634,74.021145,63.455032,85.239157,69.152619,87.851447,32.810154,310.529453,-64.771957,273.943507
91,-2.594376,26.313209,2.919617,2.43062,0.0,-67.721043,-52.614155,-17.133408,-49.647102,-1.141663,-42.696648,-0.690994,-32.903938,-22.827415,0.0,29.240796,-1.385062,23.74575,-15.319968,16.942461,-30.107648,1.351531,-46.092669,-21.194409,0.0,73.291569,32.043228,96.590824,21.526909,94.706898,11.114674,79.196949,1.658993,55.740337,0.0,21.845567,32.890184,64.495835,50.199195,79.458825,61.158843,86.886535,67.706424,87.451366,30.301723,337.190348,-61.766396,276.721812
92,4.489975,6.631068,3.648949,1.352272,0.0,-69.363728,-52.741241,-19.667473,-50.01297,-5.819893,-43.315086,-1.06739,-34.315109,-32.804604,0.0,26.452333,-5.465776,21.98963,-21.442028,12.238685,-38.08716,-4.584227,-56.10309,-30.464813,0.0,70.806026,31.778069,94.031696,21.336021,92.509975,10.784512,76.128674,1.20306,52.734432,0.0,22.222059,32.140287,62.641532,49.460166,79.467778,60.415121,86.298671,66.830495,87.011271,34.86474,344.164146,-58.044405,278.416815
93,1.150017,-2.521022,2.012329,0.662397,0.0,-62.187996,-45.088806,-22.11422,-43.759918,-10.663605,-38.66581,-8.861275,-30.970802,-24.01165,0.0,27.39168,-2.528679,24.563079,-18.502955,16.436848,-35.508833,-1.793973,-53.38002,-26.745091,0.0,70.484791,31.700706,93.477116,21.627045,92.895184,11.455421,77.396679,2.340889,55.807858,0.0,22.069288,32.240631,63.873823,49.718159,78.506757,60.749747,85.989116,67.294549,88.042935,36.075869,341.801699,-55.970964,279.237787
94,3.609695,-8.203419,2.283039,3.426222,0.0,-49.990082,-46.679993,-18.65696,-46.760559,-7.07119,-42.864761,-8.96759,-35.784645,-31.296501,0.0,34.124142,3.268449,30.240968,-7.694657,23.610085,-18.877533,10.560617,-30.065102,-11.371277,0.0,70.018501,31.028938,92.905197,21.096611,92.59037,11.284161,77.672653,2.799568,57.611504,0.0,20.774938,32.749022,62.597381,50.151215,76.549763,61.223187,84.551258,67.699138,86.291322,39.785013,333.803677,-53.588476,282.869406
95,-3.104782,-29.742703,4.035244,2.554862,0.0,-37.54509,-34.174576,-12.821732,-33.433342,-4.984932,-30.196609,-7.267685,-25.011749,-36.748466,0.0,28.82571,23.800894,45.722352,30.410225,52.589491,35.865133,55.748148,40.096148,60.19671,0.0,67.854481,28.829956,89.505329,18.194389,89.192905,7.850475,75.205936,-1.337814,54.448071,0.0,21.823584,32.031297,61.673533,49.710625,77.138985,60.65391,85.216804,66.737808,86.105083,36.775446,304.224875,-49.458017,285.588168
96,-1.751976,18.406717,0.213604,1.69085,0.0,-54.458627,-41.036796,-14.262142,-38.142185,-2.748413,-33.011284,-3.094425,-25.641575,-35.524463,0.0,30.125834,13.644248,34.027966,11.68148,35.275232,8.628447,31.435128,4.627761,24.223791,0.0,67.819519,28.261986,89.346657,18.266201,89.248924,8.441963,74.638481,-0.139961,55.05764,0.0,20.966179,32.133,60.991376,49.331293,76.430893,60.123227,83.936965,66.177608,86.624898,35.14409,322.706371,-49.123793,287.353798
97,-1.751976,18.406717,0.332851,0.93558,0.0,-71.372166,-47.899017,-15.702553,-42.851028,-0.511894,-35.825958,1.078835,-26.2714,-34.300461,0.0,31.425958,3.487602,22.33358,-7.047266,17.960972,-18.60824,7.122107,-30.840626,-11.749127,0.0,66.707668,27.862301,89.177227,17.903881,89.087849,8.258743,74.076176,-0.208397,54.2589,0.0,21.118579,31.804426,58.88896,48.893976,75.632584,59.484789,83.106545,65.451546,85.564397,33.513908,341.229349,-48.669147,288.405639
98,6.41098,5.052419,0.496216,0.233293,0.0,-67.884808,-49.492378,-20.887527,-47.49012,-4.404945,-42.715416,-2.762375,-35.116196,-24.489555,0.0,26.789428,-1.174493,24.417965,-14.504184,17.365883,-28.383886,4.382982,-43.023673,-16.074558,0.0,65.689373,27.497864,88.132267,17.966309,88.10812,8.566589,73.753223,0.192089,54.296322,0.0,21.333532,30.876256,58.952933,47.901709,75.476108,58.709575,82.928704,64.952356,85.38989,40.040874,346.321968,-48.056946,288.679131
99,2.736855,1.334673,0.815105,-0.505427,0.0,-66.304321,-49.298515,-22.092247,-48.12458,-7.774773,-43.658981,-6.638489,-37.136078,-26.068497,0.0,25.953451,-0.456336,25.712254,-15.880662,16.869657,-31.818938,0.671536,-48.577382,-20.196769,0.0,65.14492,27.051029,88.257637,17.142162,87.385025,7.510872,73.347015,-0.917759,54.156876,0.0,23.264776,30.834389,59.488556,48.052627,74.899977,59.124908,82.410556,65.455004,85.461212,42.938547,347.718129,-47.081022,288.235192
100,2.158241,-10.905246,-0.006466,0.401686,0.0,-52.575874,-46.587639,-21.220894,-47.803459,-8.259659,-45.673828,-9.016228,-40.807457,-27.684402,0.0,31.285105,5.046244,32.903275,-4.499938,27.154064,-14.774959,15.117983,-26.036258,-3.340018,0.0,64.463367,25.924587,87.341022,16.23991,87.199688,7.086868,73.440228,-0.869007,54.210262,0.0,22.957012,29.881148,58.987452,47.154344,74.259749,58.492275,81.947243,65.093826,85.357718,45.214806,336.858146,-46.969471,288.682142
101,-5.121631,0.339504,0.443916,0.127515,0.0,-61.650181,-50.261479,-17.293568,-49.96871,-3.647747,-46.033974,-3.076401,-39.378662,-24.805012,0.0,31.613587,5.386921,31.747554,-3.915779,25.581004,-14.138652,14.373458,-24.80159,-2.718037,0.0,63.640995,25.066109,86.618099,15.326328,86.677494,6.373558,73.580074,-1.161633,54.108524,0.0,23.262121,29.761167,58.498635,47.183552,73.985392,58.546368,82.204865,64.896657,84.821601,40.276766,337.201247,-46.341963,288.813253
102,-5.121632,0.339504,0.387669,-0.043719,0.0,-70.724487,-53.935318,-13.366241,-52.133961,0.964165,-46.394119,2.863426,-37.949867,-21.925621,0.0,31.942068,5.727598,30.591833,-3.33162,24.007943,-13.502345,13.628933,-23.566921,-2.096056,0.0,63.587837,24.257984,86.230545,14.146271,85.905533,5.07185,72.860641,-2.429123,53.337364,0.0,23.263109,30.02762,58.718961,47.322243,73.978043,58.610898,82.421424,64.930929,84.742869,35.35203,337.534359,-45.757399,288.763143
103,5.424271,3.853534,-0.462456,-0.475725,0.0,-63.316784,-50.81892,-20.770798,-49.759712,-5.065956,-45.560417,-4.081535,-38.182755,-22.2258,0.0,30.838279,1.263105,28.748398,-9.005804,22.388909,-19.868566,11.521083,-31.404716,-3.173539,0.0,63.474083,24.411507,87.252502,14.384136,86.372452,5.286198,73.071671,-2.229137,53.420792,0.0,23.392353,30.504148,58.327093,47.547941,74.11445,58.654493,82.919441,64.907093,85.656837,41.023436,341.33661,-45.972719,288.236134
104,2.920418,8.318769,-0.728931,0.285472,0.0,-70.149422,-49.065857,-22.578964,-47.6231,-10.017586,-43.631859,-9.291458,-38.215714,-29.010315,0.0,25.759123,0.289054,23.963297,-16.272716,12.703418,-34.401525,-3.479759,-53.456776,-26.100911,0.0,63.40765,24.819374,86.937046,14.639854,85.53091,5.293522,72.334385,-2.613201,52.684307,0.0,22.876799,30.322355,58.436453,47.170584,74.527375,57.907066,82.756111,63.815408,84.625543,44.098091,349.572108,-46.547413,288.438336
105,1.760445,-5.702836,-0.418911,-0.347099,0.0,-54.348564,-46.285286,-24.792137,-46.928215,-12.336273,-44.485016,-13.139305,-39.796486,-30.408897,0.0,30.445485,3.815496,26.585467,-11.635445,18.819735,-28.555799,2.637978,-46.217281,-20.236969,0.0,63.59539,24.863205,86.128349,14.760704,85.396614,5.320244,71.940193,-2.728043,52.245369,0.0,23.342088,30.886692,59.304849,47.646433,75.12092,58.341172,83.111176,64.232779,85.366363,46.062098,343.81487,-46.762762,288.036834
106,1.357841,-8.18687,-0.699921,0.226748,0.0,-45.155067,-40.255165,-25.315475,-42.419357,-13.551636,-42.662773,-13.892326,-40.874405,-33.09597,0.0,33.557026,10.63058,29.422898,-0.368959,24.894987,-13.087691,11.522936,-27.272131,-7.356018,0.0,63.581429,24.330654,86.641045,14.240627,85.571365,4.975948,72.700424,-2.751675,53.015671,0.0,23.27688,30.906513,59.447307,47.742578,75.079238,58.46634,83.394919,64.199557,85.124548,47.659807,335.551662,-47.222815,288.187243
107,-11.339665,-0.507403,-0.156956,0.100283,0.0,-51.920872,-45.692339,-11.888237,-47.542677,-0.762348,-45.844173,0.101624,-41.818485,-19.225216,0.0,33.357079,8.683806,30.891447,-0.956483,26.039902,-12.294167,13.597163,-24.152809,-2.405425,0.0,63.867931,24.993038,87.699223,14.645119,85.62521,5.002499,72.425137,-3.102036,52.678471,0.0,23.044698,30.396085,59.014683,47.209672,75.077571,58.115783,82.958467,64.189615,85.155238,36.648989,334.977321,-47.050924,288.220588
108,-11.339664,-0.507403,-0.125027,-0.036494,0.0,-58.686676,-51.129513,1.539001,-52.665997,12.026939,-49.025574,14.095573,-42.762566,-5.354462,0.0,33.157131,6.737032,32.359995,-1.544007,27.184816,-11.500644,15.67139,-21.033487,2.545167,0.0,63.785706,24.761696,87.050056,14.560833,85.532341,5.095596,72.360306,-2.79253,52.678299,0.0,22.966831,30.279438,59.299476,47.234557,74.892937,58.248423,82.782973,64.321143,85.279233,25.605783,334.408075,-46.879492,288.122251
109,10.23056,-2.733505,-0.216351,0.913721,0.0,-35.905151,-48.365479,-7.885208,-51.147423,3.001099,-49.357853,-1.659508,-44.597626,-18.893738,0.0,29.559428,8.333033,33.114955,3.587637,30.640678,-2.42957,23.733647,-8.886193,12.191199,0.0,63.078747,24.844322,87.335529,14.818497,85.783138,5.538998,72.809315,-2.252483,53.012066,0.0,22.186923,29.370225,58.049092,46.706283,73.825458,58.247435,82.338308,64.792176,84.895269,35.904837,331.498395,-47.027349,288.859798
110,-4.3507,10.716043,0.485401,-0.204888,0.0,-68.387833,-53.185787,-9.571724,-52.618103,3.396606,-47.569256,5.768738,-39.893703,-18.217621,0.0,30.055593,1.04562,27.946075,-11.159658,20.968402,-24.147993,7.073139,-36.592121,-11.760736,0.0,61.749001,24.422207,86.371422,13.974781,84.259529,4.321346,71.220131,-3.79097,51.318054,0.0,23.121022,30.372496,59.187523,47.479089,74.547938,58.459918,82.826322,64.359676,84.843028,31.678791,342.079313,-46.417294,288.519784
111,4.348755,-4.585771,-0.751534,0.454421,0.0,-59.569759,-48.793316,-15.195122,-48.534508,-0.896988,-44.669437,-0.283241,-38.317795,-28.221474,0.0,31.723471,2.511328,32.074461,-4.941021,26.992464,-12.502235,17.454495,-20.762094,5.412115,0.0,62.43187,24.560566,87.280197,13.919392,84.867783,4.207077,71.881828,-3.828735,51.926422,0.0,22.974241,30.244179,58.68154,47.174906,74.236345,58.04619,82.898446,63.893398,84.740523,36.184301,337.449144,-47.012072,288.929807
112,2.677803,-26.074111,-0.360489,0.066135,0.0,-35.181656,-43.12809,-14.259338,-43.534241,-6.044998,-41.024437,-7.973557,-35.704651,-26.918221,0.0,27.244035,16.698546,42.912152,23.987565,49.801213,30.404421,50.954773,35.218915,51.25031,0.0,62.429466,24.719124,87.23156,14.158516,84.978447,4.365292,71.746445,-3.825874,52.003441,0.0,23.063779,30.378918,58.584654,47.30415,74.155823,58.200504,82.87529,64.264704,85.032726,38.953943,311.339387,-47.280722,288.960296
113,-4.005261,9.802971,-0.05579,0.46566,0.0,-53.231707,-46.62672,-11.117821,-47.079163,-1.492081,-44.191189,-3.024845,-38.42514,-32.181702,0.0,31.305544,10.854271,36.867836,13.212982,38.76802,14.771903,36.631487,15.685562,33.833699,0.0,62.270565,23.69688,86.66399,13.230515,84.415684,3.753204,71.614552,-3.99725,51.916294,0.0,22.72446,29.4773,58.16438,46.741666,73.898077,58.010992,82.738636,64.270879,85.185126,35.119314,321.113906,-47.16588,289.397505
114,-4.00526,9.80297,-0.248566,-0.096948,0.0,-71.281757,-50.125351,-7.976303,-50.624084,3.060837,-47.357941,1.923866,-41.14563,-37.445183,0.0,35.367054,5.009996,30.823521,2.4384,27.734827,-0.860615,22.308201,-3.847792,16.417088,0.0,62.147541,24.079285,86.997013,13.475246,84.324245,3.792286,71.42458,-4.193745,51.412067,0.0,22.637825,29.487057,58.079412,46.471508,73.771735,57.561202,82.630141,63.727845,85.012224,31.226177,330.910825,-47.302322,289.294505
115,6.594086,0.07373,-0.18465,0.147213,0.0,-52.441349,-46.052456,-14.849167,-46.530762,-1.959114,-43.866692,-4.837646,-37.81826,-35.233727,0.0,38.426046,5.255948,35.290484,0.939594,32.671402,-2.873494,26.685502,-7.350769,16.047574,0.0,61.754608,23.563614,87.51091,12.760906,84.334602,3.092079,71.462402,-4.693165,51.328011,0.0,22.931633,29.429135,58.1319,46.313735,73.883565,57.3431,82.195726,63.497393,85.01982,37.953615,331.005257,-47.353621,289.46242
116,0.745125,-21.240104,0.089035,-0.103185,0.0,-34.518127,-38.997345,-14.076691,-38.148308,-4.487572,-35.355606,-5.962601,-30.128975,-22.487183,0.0,27.435399,22.015133,44.345811,28.587971,51.759998,33.774511,52.159832,37.206414,51.732457,0.0,61.926727,23.951054,87.374268,13.211632,84.096451,3.44696,71.003151,-4.572945,50.889015,0.0,22.868339,29.700219,58.434662,46.582782,74.137298,57.638329,82.825766,63.837576,85.464546,38.780365,309.79047,-47.182961,289.384553
117,-4.64344,9.125106,-0.040226,0.261389,0.0,-51.787748,-44.680481,-11.700096,-44.189959,-0.20565,-41.183624,-1.929703,-35.473652,-24.44624,0.0,31.932712,14.793484,38.882567,17.802736,42.281834,19.504331,39.945384,20.173334,35.682074,0.0,61.561489,23.477039,86.941853,12.618999,83.841305,2.801342,70.812092,-5.156651,50.566006,0.0,22.87507,28.910987,57.882798,45.899637,73.53554,57.038856,82.067841,63.262371,84.967702,34.234514,318.921334,-47.125597,289.6517
118,-4.64344,9.125105,-0.495186,-0.12276,0.0,-69.057369,-50.363617,-9.323502,-50.231609,4.076271,-47.011642,2.103195,-40.818329,-26.405296,0.0,36.430026,7.571836,33.419323,7.017502,32.803671,5.23415,27.730937,3.140255,19.631691,0.0,61.587124,23.486137,86.765041,12.686234,83.967991,2.835102,70.651989,-5.15871,50.587292,0.0,22.502406,29.10334,57.879464,46.068771,73.151329,57.119316,81.567539,63.233657,84.56651,29.672871,328.108977,-47.538986,289.591478
119,8.221207,-10.185051,-0.41399,-0.386558,0.0,-40.517921,-45.088692,-14.464073,-46.129932,-5.415573,-44.515228,-9.717293,-40.086937,-43.408813,0.0,35.218668,12.503285,40.236321,16.106977,43.500942,19.71351,43.310504,22.048726,41.01203,0.0,60.863457,23.972454,86.33709,13.429241,83.906136,3.565807,70.44445,-4.657288,50.393829,0.0,22.908168,29.348118,58.227921,46.20771,73.700907,57.254241,82.05864,63.549078,85.209826,38.006802,318.043614,-47.840252,289.324608
120,0.596581,1.584701,0.016022,-0.016487,0.0,-35.949669,-39.370422,-17.882309,-39.813423,-7.287369,-38.193626,-7.257042,-33.826447,-23.324089,0.0,33.104705,16.057762,39.116972,16.609502,42.684046,16.199171,38.107785,14.211796,32.886973,0.0,60.854073,24.178219,85.991135,13.517876,83.659058,3.539371,69.811592,-4.80463,49.759598,0.0,23.328194,29.161076,58.492337,46.058089,73.620323,57.098815,81.999545,63.389638,85.034949,38.776588,319.723132,-47.651024,289.402939
