takenoko1/special-research/HandMotion_SimilarSearch_自分用/NewProject/handData/test_key/d4_feature_d2/76.csv
frame,vel_0x_L,vel_0y_L,vel_0x_R,vel_0y_R,posFromWrist_0x_L,posFromWrist_1x_L,posFromWrist_2x_L,posFromWrist_3x_L,posFromWrist_4x_L,posFromWrist_5x_L,posFromWrist_6x_L,posFromWrist_7x_L,posFromWrist_8x_L,posFromWrist_9x_L,posFromWrist_0y_L,posFromWrist_1y_L,posFromWrist_2y_L,posFromWrist_3y_L,posFromWrist_4y_L,posFromWrist_5y_L,posFromWrist_6y_L,posFromWrist_7y_L,posFromWrist_8y_L,posFromWrist_9y_L,posFromWrist_0x_R,posFromWrist_1x_R,posFromWrist_2x_R,posFromWrist_3x_R,posFromWrist_4x_R,posFromWrist_5x_R,posFromWrist_6x_R,posFromWrist_7x_R,posFromWrist_8x_R,posFromWrist_9x_R,posFromWrist_0y_R,posFromWrist_1y_R,posFromWrist_2y_R,posFromWrist_3y_R,posFromWrist_4y_R,posFromWrist_5y_R,posFromWrist_6y_R,posFromWrist_7y_R,posFromWrist_8y_R,posFromWrist_9y_R,posFromBody_0x_L,posFromBody_0y_L,posFromBody_0x_R,posFromBody_0y_R
2,-20.722618,19.442796,-0.335083,1.134355,0.0,-42.066193,-33.584461,22.138138,-33.041668,31.772804,-29.371262,26.591034,-23.106709,-24.679699,0.0,46.939514,13.553845,35.999502,13.752805,35.278628,12.776407,32.949773,11.50299,37.450328,0.0,67.102604,23.395042,84.466724,12.972336,80.338612,3.327255,65.063267,-5.145893,45.517902,0.0,16.947462,31.503516,58.152154,48.272644,70.85656,58.918538,79.306425,64.538258,81.828929,7.686281,329.159954,-37.850161,295.849558
3,17.879105,-19.19314,-0.061741,0.356485,0.0,-50.699501,-44.187126,10.671387,-48.78336,13.292427,-48.373833,3.007393,-45.471554,-66.781082,0.0,44.031687,16.296304,44.698159,30.483894,50.489792,41.431995,54.802626,51.040606,66.950044,0.0,66.569023,23.43504,83.847771,12.59388,79.295311,2.566681,63.337669,-6.150455,43.338776,0.0,16.730039,31.089789,59.58853,47.879293,71.463875,58.412123,79.11895,63.853384,80.813505,25.393639,310.107759,-38.083649,296.346989
4,-16.514397,6.859483,-0.188942,0.026923,0.0,-28.862057,-29.153309,22.790337,-32.325325,29.621658,-32.35754,16.727028,-29.493141,-38.947735,0.0,42.522013,18.279233,41.113116,28.182085,45.977875,35.013101,48.973634,40.182907,58.311223,0.0,66.807175,22.895164,84.362755,12.190704,80.202255,2.31514,64.512062,-6.263123,44.264374,0.0,16.673229,31.024271,58.700559,47.902635,71.250466,58.543713,79.058558,63.954531,80.876429,8.701286,317.193403,-38.450546,296.600073
5,-14.193134,8.274123,-0.361176,-0.317768,0.0,19.973431,-6.624012,45.431957,-14.462357,51.875439,-19.360085,35.971584,-21.22364,5.368137,0.0,15.466934,12.458207,32.911179,21.688721,41.384632,29.195101,46.000908,35.429422,48.814318,0.0,66.698456,24.022923,84.511185,13.303928,80.136566,3.193531,64.739799,-5.840149,44.097748,0.0,16.603266,31.263122,58.64239,48.273632,71.146108,59.052166,79.484636,64.635576,81.338075,-5.669174,325.67229,-38.989048,296.48707
6,30.340176,-11.001453,0.115013,-0.119919,0.0,-51.068516,-46.49128,11.177216,-52.021809,15.235405,-52.110672,4.272537,-50.013714,-76.363621,0.0,48.820555,10.884683,43.302353,22.985356,46.596676,32.974288,51.513737,43.086041,62.614424,0.0,66.477242,24.62471,84.479713,13.916645,79.726753,3.597565,64.155579,-5.744991,44.033318,0.0,16.518791,31.057493,58.79232,47.825694,70.875085,58.559521,79.473212,64.25507,81.632563,24.571781,314.838767,-38.973255,296.535081
7,-18.629837,-1.623851,-0.311966,-0.07163,0.0,-14.06004,-25.706406,29.202347,-32.233315,34.279289,-34.963875,19.488144,-34.280548,-27.549534,0.0,36.841778,16.057701,42.209062,29.864413,52.200526,40.236568,55.951307,48.155935,61.948384,0.0,66.014786,24.76038,84.628716,13.781319,79.766579,3.25098,63.888931,-6.225529,43.293114,0.0,17.442207,31.096272,60.005037,47.956543,71.620536,58.587185,79.757264,64.09137,81.194443,5.86338,313.37292,-39.363785,296.621454
8,21.691132,3.59196,0.345783,0.170678,0.0,-53.804684,-47.803516,6.375275,-53.223896,11.618271,-53.234882,2.0644,-51.35376,-82.216187,0.0,45.441078,11.445254,43.699779,22.68389,46.119098,31.583236,50.028331,40.328083,59.106259,0.0,66.054668,24.559307,84.26302,13.662987,79.518757,3.119316,64.264355,-6.58493,43.276463,0.0,16.410419,31.753112,58.862283,48.393613,70.890523,58.860431,79.763007,64.317562,81.483497,27.487564,317.062353,-39.084949,296.889605
9,-20.962601,7.997111,-0.52597,-0.097627,0.0,-41.55344,-32.693081,22.55127,-33.308029,32.75219,-30.620956,26.588058,-25.51609,-30.276546,0.0,47.631983,13.870254,38.994521,18.271823,40.215759,21.059052,40.530068,22.636219,48.141918,0.0,66.693363,24.610863,84.834652,13.767872,80.353031,3.403759,65.396748,-5.979481,44.585667,0.0,15.985453,31.51352,58.175434,48.292033,70.674335,58.95213,79.988643,64.518312,81.982317,6.47624,325.153479,-39.659643,296.885993
10,18.601799,6.481632,-0.169201,0.602931,0.0,-60.718288,-48.055,5.588951,-50.096397,15.403748,-48.490105,10.000534,-45.472126,-72.226124,0.0,43.969628,5.982195,34.435858,7.939436,32.682455,8.592817,32.056615,9.824614,39.044724,0.0,66.213455,24.520397,84.870529,14.047909,80.85125,3.987408,65.578308,-5.204659,44.744797,0.0,16.185215,30.761091,58.055206,47.365345,70.420787,57.948007,79.268695,63.533085,80.794918,25.03458,331.706695,-39.872303,297.560508
11,-9.977303,7.103582,-0.420971,0.131528,0.0,-35.507298,-35.749912,7.583885,-35.075798,18.858032,-31.966782,16.882095,-26.503315,-5.449905,0.0,36.669618,10.266438,29.337497,6.686273,29.348674,2.041716,23.560252,-3.595726,17.736818,0.0,66.614857,25.066853,85.323429,14.659939,81.260319,4.554863,65.775204,-4.737339,45.007267,0.0,16.401403,31.474123,58.655914,48.142412,70.712311,58.555384,79.484266,63.983183,81.224701,15.060511,338.935044,-40.290041,297.816803
12,9.635468,-11.035725,0.459938,-0.041682,0.0,-61.979027,-46.324539,5.122604,-48.659534,12.836266,-47.39645,6.752357,-44.457035,-69.843636,0.0,44.957696,7.938201,36.427186,12.82661,37.081369,16.763384,38.179106,20.736715,45.290593,0.0,66.303577,24.643364,84.9967,14.070969,80.606403,3.882179,65.184917,-5.495338,44.555798,0.0,15.909376,31.62745,58.455225,48.347176,70.398001,58.828506,79.504211,64.271867,80.967758,24.691057,328.015672,-39.835024,297.891475
13,-14.687462,13.808565,-0.151234,-0.354571,0.0,-42.81229,-36.902962,10.289268,-33.434772,24.871788,-27.330952,28.924942,-19.135151,9.651375,0.0,38.158852,10.524184,32.529561,0.988439,27.399461,-9.816401,16.059862,-20.990015,2.786858,0.0,67.28817,24.913445,85.374641,14.783134,80.865326,4.911289,65.44796,-4.105625,46.846161,0.0,16.656309,32.260391,59.41674,48.717617,70.497358,59.06606,79.314699,64.657066,81.421623,9.987717,341.856734,-40.002136,297.5694
14,-11.32885,-8.687171,-0.178242,0.060577,0.0,-3.234215,-14.70314,33.391457,-18.190327,41.267738,-18.880005,31.942062,-17.609825,-0.964966,0.0,27.8369,8.328216,32.7313,12.93418,36.276762,16.30143,38.724795,18.468375,39.138955,0.0,67.779751,25.313244,85.693417,15.049324,81.112804,5.102005,64.848919,-3.961315,45.62479,0.0,16.736708,32.548272,59.643858,48.991357,71.181985,59.148003,79.884408,64.586485,81.869375,-1.358328,333.235249,-40.197573,297.695664
15,24.935875,1.753588,-0.479679,-0.419718,0.0,-62.450695,-47.41024,4.774704,-48.638363,15.426064,-46.144924,10.99617,-41.333084,-49.062538,0.0,41.890862,3.555342,34.446479,3.017249,34.23412,1.90957,32.092554,1.175234,28.655649,0.0,68.004799,25.690327,86.076508,15.227852,80.996017,5.087128,64.915123,-3.987865,46.008911,0.0,17.244544,33.431364,60.225733,49.884021,71.482833,59.840472,80.425651,64.919875,82.391537,23.603296,335.090077,-40.651503,297.377186
16,-8.846054,1.737039,-0.180759,0.111274,0.0,-28.833618,-32.870808,10.103874,-32.073383,21.235313,-28.736515,21.566849,-23.841648,2.943993,0.0,36.910568,10.511649,33.308234,7.974448,31.459674,4.550697,26.161797,-0.312272,22.440902,0.0,68.082447,25.683689,85.951595,15.222073,81.143246,5.152245,65.185146,-3.86364,46.158199,0.0,17.446097,33.554309,59.817007,50.195057,71.215886,60.23092,80.160927,65.239434,81.838562,14.760189,336.905725,-40.829315,297.567069
17,7.21859,-7.599747,0.567169,0.399772,0.0,-59.864674,-44.613876,7.97493,-47.134781,16.746712,-46.164551,9.358177,-42.786827,-44.410973,0.0,43.896392,5.731488,35.13512,10.421308,38.221035,14.170423,39.214846,17.716008,42.133541,0.0,67.785587,25.440617,84.899311,14.542637,79.985447,4.14196,63.824902,-5.243568,43.537273,0.0,17.146916,33.485149,59.425015,50.418409,71.077812,60.418579,80.057865,65.113463,81.260084,21.999121,329.401012,-40.241804,298.061875
18,-15.191689,-5.907044,0.394936,-0.200689,0.0,-3.741302,-25.577202,23.165703,-28.140564,29.784622,-28.25592,24.613495,-26.029758,4.558525,0.0,25.625742,18.729517,38.682125,24.020231,45.697157,26.527606,43.366635,26.634682,42.270627,0.0,67.487354,25.228443,84.732571,14.145756,79.313679,3.618279,63.153591,-5.869904,42.792034,0.0,17.399537,33.715972,59.418531,50.592545,70.876011,60.570176,80.103684,65.258515,81.373087,6.81839,323.551287,-39.835911,297.918506
19,17.963219,16.38541,-0.542107,-0.349878,0.0,-66.050091,-50.282879,2.396851,-50.428734,15.369072,-46.665287,13.898621,-40.426598,-43.210201,0.0,40.420585,5.609099,33.847871,-0.637944,29.38276,-7.669154,23.333937,-14.075759,15.136755,0.0,67.696438,25.629673,85.341625,14.706287,79.772587,4.278431,64.00732,-5.119171,43.944683,0.0,17.414481,34.059613,59.942916,50.735188,71.346488,60.599631,80.650299,65.293712,81.99442,24.77457,339.967958,-40.385056,297.599889
20,-6.518784,-4.960719,-0.103226,0.402551,0.0,-29.771004,-36.349068,6.615028,-34.845314,16.780357,-31.198826,19.480019,-25.7337,7.511101,0.0,35.146852,13.487772,34.375158,10.188756,32.627374,5.228963,25.560595,-1.335723,19.300338,0.0,68.721485,25.283203,85.313473,14.611416,80.153675,4.453926,64.104595,-4.762287,43.890324,0.0,16.87435,34.004717,59.319669,50.715613,71.049715,60.559679,80.218231,65.298035,81.497823,18.259764,335.031445,-40.484304,298.026646
21,5.346107,5.085949,-0.254574,-0.200195,0.0,-67.86953,-50.715408,2.790413,-49.784374,16.422844,-44.798241,16.658134,-37.392139,-42.816982,0.0,40.286586,5.669985,34.410541,-0.30128,29.327679,-7.000953,23.77712,-12.990558,15.502009,0.0,68.708611,25.193539,85.862732,14.619713,80.970612,4.661064,65.106354,-4.19363,45.044861,0.0,17.276222,33.94945,59.581367,50.662261,71.179947,60.591727,80.343523,65.341137,81.809169,23.61557,340.138837,-40.729179,297.847894
22,-4.51149,-17.151733,-0.292797,0.219152,0.0,-20.248833,-36.143074,10.48336,-37.216358,15.908432,-35.561371,13.830643,-31.741161,-3.967896,0.0,29.427653,16.595732,37.662935,23.147945,44.906135,27.047854,44.185013,28.171094,45.537594,0.0,68.969936,25.186787,86.091328,14.775639,81.023083,4.958553,65.068645,-3.79446,45.178585,0.0,17.191623,34.062577,59.626754,50.5818,71.294309,60.367512,80.220084,65.110869,81.649791,19.107628,323.009999,-41.018429,298.08994
23,4.925079,14.770019,0.542736,0.228971,0.0,-65.40184,-49.291534,2.548027,-49.518127,15.448952,-45.722923,13.923683,-39.292717,-34.290791,0.0,40.617136,5.526291,34.85502,1.831888,32.449286,-2.516638,27.264968,-6.347942,20.093769,0.0,69.16832,24.725933,85.502815,14.166985,80.549698,4.244385,64.48288,-4.51498,44.956741,0.0,16.382261,33.716342,59.490841,50.30275,71.031931,60.216964,79.915222,65.078883,81.177771,24.031305,337.790207,-40.477095,298.3291
24,-2.947311,10.584329,-0.029354,-0.166479,0.0,-45.988712,-41.543369,0.373878,-38.27528,14.902267,-32.387238,20.955162,-25.354271,9.327621,0.0,36.403473,8.170568,28.570001,-4.820978,19.54839,-19.130957,6.181031,-34.192562,-9.610958,0.0,68.681431,24.436111,85.567188,13.783092,80.426502,3.892937,64.784832,-4.707241,45.486317,0.0,17.212433,33.655395,59.924576,50.382161,71.112515,60.483479,79.772764,65.489708,80.892793,21.077642,348.386577,-40.5128,298.174662
25,-19.512749,-20.656254,1.710663,0.361116,0.0,33.277359,-9.818172,36.077614,-17.714252,37.83371,-22.386303,22.474022,-23.671761,-11.514244,0.0,4.841726,2.088214,20.61309,16.754801,36.468188,29.330705,46.309227,38.97791,52.249185,0.0,68.17194,24.74493,83.400249,13.99538,78.265629,3.646374,62.443829,-5.790482,42.581348,0.0,16.715034,33.024614,59.364808,49.459116,69.821747,59.847264,78.972478,65.521016,81.110463,1.552677,327.725661,-38.814354,298.531116
26,20.751457,12.156557,0.154095,0.015067,0.0,-66.843967,-47.708015,5.890961,-47.925396,17.166939,-44.762764,14.384766,-39.62225,-53.785114,0.0,39.727128,9.606944,33.373936,3.418256,27.811521,-4.236264,22.727548,-11.089633,18.056376,0.0,67.323875,24.544888,83.031693,13.58511,78.036003,3.020096,62.665672,-6.603756,42.707405,0.0,15.945438,32.771067,59.238652,49.591077,69.965687,60.049435,79.250602,65.470689,80.694142,22.24843,339.876861,-38.715963,298.540827
27,-7.879028,-2.549983,0.623417,0.59972,0.0,-33.829193,-39.431477,10.568504,-37.619247,21.614914,-32.474556,23.257027,-25.090313,7.102432,0.0,39.50038,14.43138,34.102653,9.259845,30.31865,2.521702,23.867152,-5.4144,15.991381,0.0,66.91618,24.299755,82.998905,13.482456,78.261509,3.003216,62.548542,-6.583271,42.565784,0.0,14.439408,31.879329,58.157279,48.549779,69.625936,59.13238,78.848545,64.829226,80.625969,14.28998,337.279932,-38.171968,299.093601
28,9.530525,1.256868,0.048466,-0.706425,0.0,-64.942074,-47.243328,6.664352,-48.606148,17.513809,-46.415119,12.627754,-42.515545,-66.063652,0.0,40.857222,6.179178,32.276076,2.744127,27.995537,-1.694555,24.35288,-5.425021,21.024904,0.0,67.464066,24.33609,83.77533,13.518906,78.876801,3.11142,63.684425,-6.395988,43.135529,0.0,15.570058,31.92768,58.353584,48.723175,70.355702,59.173876,79.737442,64.587349,81.596068,23.629131,338.357075,-38.314877,298.207452
29,-15.147743,-18.394892,1.034603,-0.743969,0.0,-0.429039,-22.788448,24.203224,-26.594925,28.699951,-27.819614,19.772415,-26.425667,1.138115,0.0,20.412772,17.596397,36.692774,29.375227,47.452783,37.69838,50.001161,42.565547,51.740485,0.0,66.736622,24.372139,83.585873,13.302555,78.11903,2.678547,63.024158,-7.040062,41.089039,0.0,15.515223,32.332083,59.222227,49.43244,71.992582,59.889008,80.873403,65.10241,81.815035,8.242464,319.828092,-37.519197,297.329392
30,14.519119,-17.602449,1.701279,-2.160832,0.0,-10.261803,-35.856171,23.059158,-47.547913,15.088234,-52.356148,-1.443787,-54.074135,-62.515297,0.0,28.819535,14.393651,48.781529,35.694702,60.125512,51.884363,67.101888,65.539232,74.670451,0.0,67.726078,25.024109,83.190136,13.718319,78.053913,2.966938,63.183346,-6.717968,41.337719,0.0,16.020836,33.577342,62.260285,50.638672,74.482297,60.861762,83.163355,65.525894,83.541885,22.385073,302.000162,-36.194429,294.943078
31,-29.999599,-5.851654,4.416561,-3.988459,0.0,47.536526,-4.465885,58.626652,-17.972145,50.31126,-26.508636,28.426495,-30.038853,-20.842266,0.0,23.153749,24.30243,67.189697,43.954746,78.602038,57.787518,81.230012,67.806892,85.784105,0.0,66.67923,25.840988,78.737755,14.176426,75.341949,2.679691,58.673058,-7.798462,38.111458,0.0,17.932073,33.072656,69.57845,50.122439,83.717195,61.179097,89.718347,66.969557,90.231493,-7.947292,296.023201,-32.110634,290.829312
32,-0.702324,-7.776229,6.704578,-8.996294,0.0,54.994297,6.399364,57.616367,-11.359234,44.742451,-26.613293,4.880619,-39.050331,-38.251019,0.0,10.929144,29.688981,74.265183,45.992633,88.186381,56.051652,93.954178,59.978113,81.535429,0.0,65.718098,27.654591,73.824635,15.589828,67.901745,2.006836,51.52319,-11.740723,28.55135,0.0,18.600521,30.32359,74.317856,47.096977,92.580108,59.280396,97.258319,67.459052,96.769812,-8.822107,288.298502,-25.578547,281.884548
33,29.222431,3.562752,10.434151,-13.574778,0.0,-41.861858,-43.730221,-83.106995,-38.701172,-80.406189,-28.777542,-66.749096,-16.336555,-44.253387,0.0,14.02179,36.699567,62.503644,50.810524,81.080699,61.242638,87.477239,69.065551,88.087271,0.0,65.157337,26.108723,67.85574,13.324642,51.14851,-2.399826,5.914078,-19.098816,-25.427685,0.0,18.504808,31.192233,74.305259,46.906354,95.546598,57.959492,109.524791,63.199941,105.669219,20.228176,292.137818,-15.316544,268.586335
34,1.096458,-0.696977,7.843838,-4.280292,0.0,-50.957222,-33.291721,-82.658157,-24.986343,-83.352814,-14.282684,-69.910984,-1.970787,-46.849022,0.0,13.648817,26.916634,59.723269,41.837139,78.319406,54.064091,89.083614,64.149724,94.344008,0.0,27.431488,27.98996,17.390556,19.217491,-17.683926,5.203972,-38.827286,-12.33427,-47.152176,0.0,60.725046,24.454151,96.16404,29.40567,112.430025,34.391151,108.335293,37.997437,95.083531,20.881577,292.358097,-7.915764,265.223299
35,2.861938,6.290947,10.355759,-50.485284,0.0,-59.104214,-29.432945,-85.437298,-22.234039,-83.86488,-12.57946,-69.233894,-0.961761,-46.685143,0.0,19.966131,22.494749,55.683187,36.622132,73.911723,48.082144,84.073989,56.821124,85.798245,0.0,61.546211,41.486893,70.674019,32.062683,52.35466,19.000282,32.748756,2.921219,18.842812,0.0,5.537221,37.157631,73.086491,49.610837,82.167815,59.100702,90.091752,66.717245,94.025191,22.689943,299.845705,1.386423,215.934676
36,0.557442,-10.075074,4.10614,-34.924242,0.0,-61.21479,-29.237938,-86.255264,-21.154747,-83.976517,-11.084061,-69.48246,0.074387,-47.511406,0.0,27.776262,29.962164,65.035349,46.595626,82.486941,58.958491,93.372304,67.176421,97.559476,0.0,70.215569,39.40567,80.549126,28.8834,43.992691,14.747658,30.29583,-0.484772,23.495293,0.0,-10.558147,16.653963,65.010957,32.672081,55.763463,47.54263,64.287304,61.516934,69.978099,22.272635,291.592176,4.517813,182.831978
37,1.809196,0.373034,7.871246,-31.998631,0.0,-61.901207,-30.640068,-87.292385,-22.464638,-85.495205,-12.328949,-70.538578,-0.971718,-47.319088,0.0,26.969863,30.403186,65.240607,46.841022,82.40469,58.735016,92.860825,66.335998,96.178675,0.0,66.038132,41.322556,89.367599,34.356079,41.990433,22.965317,30.015907,10.325317,18.139229,0.0,-19.603409,15.764324,57.035892,33.184239,39.538048,49.31604,55.314908,63.75236,64.454957,22.953873,293.40645,11.261101,152.274586
38,-0.270996,-0.968555,2.545166,-21.104562,0.0,-60.716,-30.854187,-86.661415,-22.763786,-85.20401,-12.53231,-70.199032,-0.849953,-46.911335,0.0,27.368091,30.629316,65.327181,47.079934,82.535045,59.049696,92.555655,66.81691,96.537074,0.0,67.317123,37.044067,97.563629,29.127617,39.886093,19.766922,27.216568,9.429131,17.855415,0.0,-11.879297,6.159727,41.086254,22.623498,38.577644,38.345709,45.714386,54.168388,57.648703,21.74758,294.09949,12.87097,132.83162
39,1.538315,0.395511,5.122375,-16.879876,0.0,-61.623859,-30.775909,-87.361736,-22.948837,-85.973854,-13.1036,-71.702213,-1.977081,-48.567696,0.0,26.915831,30.613137,64.074759,46.840713,81.447497,58.6766,90.804845,66.422263,96.271609,0.0,59.215965,38.305435,99.817314,34.801254,43.421173,27.91832,32.399483,19.443741,25.506592,0.0,-3.240044,3.28222,28.533846,18.267841,29.018155,32.897686,37.894468,48.615821,51.408052,22.703104,296.18193,17.410555,117.638672
40,-0.146942,-0.705992,6.757507,-14.099008,0.0,-60.134239,-30.836563,-86.505661,-22.820435,-85.129967,-12.773209,-70.753326,-1.348114,-47.808552,0.0,26.248495,30.862609,64.216538,47.177871,81.623609,59.049264,91.262478,66.771585,95.891474,0.0,49.217377,38.955116,102.607155,38.384399,46.57402,33.786163,36.633339,28.323441,29.423561,0.0,16.536328,2.477766,23.545803,15.823574,24.672871,27.933972,30.49754,41.003138,40.698894,20.432711,297.61051,22.044611,105.674236
41,1.335411,-0.084104,10.17128,-22.918295,0.0,-60.31168,-30.674629,-87.368145,-23.027229,-85.958977,-13.344612,-71.186485,-2.46666,-48.256645,0.0,26.642215,31.105659,64.384191,47.675085,81.596994,59.743524,91.378568,67.682404,95.417292,0.0,57.588158,42.995911,102.080612,39.465981,40.255852,32.961502,32.040596,25.532684,27.625237,0.0,-8.590378,5.159432,33.828883,21.13661,31.540196,36.184445,39.925223,51.871272,52.799752,18.268318,300.188713,28.716087,85.418249
42,1.453629,0.386743,12.574196,-15.469651,0.0,-60.367241,-29.878349,-87.841301,-22.242508,-86.37743,-12.66758,-71.117477,-1.958199,-48.011398,0.0,26.288077,29.954137,63.392108,46.476448,81.009686,58.653197,91.01807,66.856677,95.337326,0.0,66.510201,45.849838,98.06591,40.08728,37.96051,30.616837,28.425865,20.051537,21.784859,0.0,-23.512581,9.459576,46.726043,27.246814,35.186743,43.567602,47.481497,58.803188,59.794591,16.175766,302.487589,37.744102,71.86073
43,1.961632,-0.475293,7.005272,-0.860862,0.0,-61.504383,-29.937057,-87.757301,-22.265053,-87.109966,-12.624893,-72.25359,-1.859322,-48.815346,0.0,25.560348,30.41356,63.900685,46.677877,80.63128,58.533092,90.763905,66.46907,95.330965,0.0,68.700371,44.550476,96.567307,39.031563,36.664581,29.237938,26.157875,18.584976,19.978981,0.0,-28.066396,11.053231,54.762488,28.465767,34.760202,43.94394,46.212218,57.994598,57.084613,15.94388,302.731951,42.555857,71.719522
44,1.383705,0.473687,3.605461,-3.691162,0.0,-61.506672,-29.954224,-88.581047,-22.280045,-87.914371,-12.513885,-72.528591,-1.573563,-48.70657,0.0,24.352942,29.937958,63.033771,46.241487,80.070401,58.151166,90.407728,65.95086,94.640349,0.0,70.111771,45.483513,94.117355,40.398674,36.717911,30.421829,23.716507,19.280434,14.573479,0.0,-27.112476,12.864371,58.920174,30.235348,38.898221,45.935298,48.481422,60.23975,59.349741,15.244732,303.63485,44.078465,68.457572
45,0.78392,0.159193,2.138214,-6.444458,0.0,-61.197224,-29.890709,-88.670597,-22.342186,-88.328705,-12.638397,-72.443447,-1.719589,-48.391457,0.0,23.804599,29.668973,62.772875,46.012084,79.376264,58.165739,90.327206,66.19496,94.545253,0.0,69.301872,46.222572,93.457146,41.29612,37.23999,31.079178,24.079056,19.233856,15.052528,0.0,-25.220134,13.133294,58.622846,30.842293,38.779228,46.910985,49.807049,61.596993,61.485348,14.438896,304.807243,44.626923,63.026314
46,0.620842,-0.54575,0.696831,-7.443024,0.0,-60.739288,-30.534782,-88.517075,-22.915421,-88.463058,-13.117447,-73.248997,-1.912537,-49.075985,0.0,24.211472,29.855151,63.026793,46.310462,79.216454,58.479307,90.34357,66.553853,94.732789,0.0,69.508438,44.871025,94.1605,40.279541,38.05172,31.141663,26.03199,20.718842,17.319946,0.0,-29.037915,11.09658,55.423372,29.689814,36.270803,46.326765,48.24711,61.197159,59.63722,13.59664,304.262249,43.860655,55.584047
47,0.247536,0.119611,-2.382774,-10.502448,0.0,-61.166096,-29.651756,-88.138618,-21.959152,-87.740593,-12.129135,-72.095604,-0.861969,-47.949142,0.0,24.162813,29.437224,62.111528,45.905133,78.639458,58.136901,89.88322,66.285856,94.33314,0.0,68.544159,46.061325,96.926193,41.846466,40.619774,32.967339,28.05748,22.43042,21.52462,0.0,-30.559075,9.138351,51.582558,27.243757,36.3328,44.157195,48.070411,59.682545,60.094204,12.578344,303.744796,40.212049,44.444535
48,0.554695,-0.398722,-0.016594,-12.696811,0.0,-61.304226,-30.244789,-88.296947,-22.325363,-88.251686,-12.344055,-73.167915,-1.337242,-49.297028,0.0,24.709736,29.216713,62.516241,46.101005,78.783275,58.626459,90.13331,66.899161,94.806643,0.0,64.795761,44.146385,97.330513,40.719223,39.158936,32.667046,26.949921,23.239861,20.143318,0.0,-32.412421,8.19854,47.729827,26.436339,31.420586,43.236774,44.436337,58.453774,57.972553,12.671356,303.212724,39.733772,31.614374
49,0.860825,0.403354,-1.917686,-15.045519,0.0,-61.472511,-31.176109,-89.241085,-23.352928,-89.187756,-13.229942,-73.609829,-1.793175,-49.707756,0.0,23.677022,29.352688,62.077504,45.836405,78.65292,58.208532,90.314485,66.627027,94.199265,0.0,61.074142,41.411476,98.26149,37.45903,38.392067,29.716187,26.912041,20.702591,19.518471,0.0,-32.108856,6.161857,46.042064,23.987997,32.5655,40.979426,45.755481,56.857742,58.568722,13.032932,303.326298,37.316837,16.279076
50,-0.106316,-0.005002,-4.176521,-14.671466,0.0,-61.221428,-30.727959,-89.407883,-22.934647,-88.532295,-13.025322,-72.929134,-1.807594,-49.049835,0.0,24.251795,29.375968,62.40651,45.804727,78.794205,58.125169,90.384449,66.47191,94.28022,0.0,58.322411,39.258499,98.551598,35.457458,36.376648,28.287506,26.281242,19.732018,20.461922,0.0,-31.712603,4.937656,38.815846,22.33253,29.107847,39.140468,43.251625,55.105728,57.419763,13.097706,302.909143,33.311405,1.195457
51,-0.218124,-0.35735,-5.892334,-15.648048,0.0,-61.135254,-30.703354,-88.812904,-22.771683,-88.226681,-12.800446,-73.33683,-1.608925,-49.420681,0.0,24.586729,29.446425,62.560269,45.827883,78.688859,58.104729,90.015552,66.388485,94.707842,0.0,54.680557,37.822495,98.128052,34.72538,36.222496,28.310623,26.887779,20.581856,21.528282,0.0,-31.562828,4.120451,33.559311,21.94199,27.219273,38.87914,41.519804,54.619814,56.523888,12.986927,300.224621,27.526417,-16.779764
52,-0.866432,-0.170184,-7.037086,-13.174327,0.0,-61.132221,-31.026421,-87.587013,-22.943115,-87.23711,-12.830544,-72.892513,-1.455917,-48.764648,0.0,24.544863,29.768639,62.468816,45.939095,78.48076,58.062986,89.63733,66.243681,94.730504,0.0,50.148582,34.828949,97.138596,31.590157,34.466057,25.618744,25.129051,18.561058,18.324852,0.0,-32.114259,1.74519,26.368599,19.253531,22.996347,36.242243,37.975577,52.156744,53.273871,12.163725,297.926271,20.53256,-32.082257
53,-0.505829,0.027602,-6.363945,-15.914224,0.0,-60.12434,-31.053429,-86.181164,-23.055267,-85.774555,-13.138046,-72.306232,-1.748314,-48.407993,0.0,24.108287,29.776049,61.985928,46.143366,77.896416,58.342221,89.674813,66.509948,95.160287,0.0,43.869095,29.239769,94.139214,25.525703,31.294441,20.37941,24.006157,14.547729,20.368881,0.0,-17.332723,1.83584,22.981311,19.259336,24.080345,36.072121,39.142506,51.704948,55.114589,11.817484,297.20356,14.328203,-48.746794
54,-0.296173,-0.199392,-28.79837,-20.737888,0.0,-60.270309,-30.938873,-86.05608,-22.91748,-85.391636,-12.92141,-71.601219,-1.525154,-47.390785,0.0,24.30206,29.623957,61.901268,45.815842,77.782486,57.880761,89.680741,65.951601,95.079518,0.0,51.247559,44.984665,110.970726,43.502541,45.101967,38.185959,40.13649,31.114197,33.852425,0.0,-41.50486,2.450534,30.713019,21.471267,26.381536,39.312751,41.500167,56.466553,54.822541,11.975412,295.261432,-14.016066,-71.227418
55,-0.439568,-0.034024,-10.278282,-3.726545,0.0,-60.552921,-30.333939,-86.222992,-22.085381,-85.017128,-12.056351,-71.637325,-0.870094,-48.377838,0.0,25.034111,29.826437,62.374832,46.349612,77.773038,58.660792,89.883838,66.885267,95.226237,0.0,48.030624,41.543427,106.850739,40.675049,47.111664,36.630135,39.618187,31.256905,35.802269,0.0,-46.711161,-4.625229,15.370573,13.301286,17.54851,30.308893,31.911254,46.807183,46.008102,12.933369,294.654703,-22.896824,-75.526666
56,-0.331421,-0.056687,-16.106186,-12.069272,0.0,-60.0741,-30.514641,-87.004623,-22.299614,-85.118752,-12.265434,-71.821289,-0.994034,-48.08979,0.0,24.905485,30.02799,62.425529,46.682447,78.191274,59.00573,90.492141,67.172777,95.695663,0.0,47.831268,42.474289,110.289345,41.13533,55.201378,36.227989,44.81781,29.814034,38.801537,0.0,-43.368024,-4.399748,15.899002,14.368889,17.67939,32.397724,32.042721,49.272352,44.986318,12.887621,293.614302,-38.717337,-88.579654
57,-0.425491,0.528769,-9.936333,-8.829012,0.0,-60.185108,-30.652428,-87.397041,-22.377319,-85.955715,-12.124443,-71.707935,-0.657349,-47.528057,0.0,24.52714,29.44661,62.866365,46.134103,78.597468,58.611947,90.303185,67.021674,94.928167,0.0,62.239838,32.286415,100.780678,31.036263,50.9198,28.315544,43.37368,25.000877,40.918121,0.0,-29.967444,-8.657809,10.861743,11.479741,17.444522,32.133618,35.919381,51.744406,51.276955,12.95517,292.956443,-48.160629,-98.595293
58,0.036507,-0.294488,-8.891602,-2.826625,0.0,-60.49387,-31.09726,-88.203278,-22.601509,-86.932297,-11.957817,-71.300983,-0.016594,-47.157555,0.0,25.058564,29.804516,63.678507,46.215182,79.494022,58.508145,91.116191,66.681182,95.407165,0.0,67.376289,27.731152,94.491005,25.800648,50.012856,22.712173,40.369377,19.510632,35.949211,0.0,-14.061804,-8.87128,1.926582,8.199961,12.70808,26.574074,30.026076,44.023412,44.429483,11.571836,290.284796,-58.472071,-103.799077
59,0.50663,0.028343,-11.935215,-3.248226,0.0,-60.906258,-31.512909,-88.387127,-23.318596,-87.297134,-13.006096,-71.31094,-1.321449,-47.361546,0.0,24.659163,29.71825,63.362777,45.983309,80.027731,58.258858,91.833545,66.533784,95.816879,0.0,59.787884,22.736778,81.815357,21.35788,61.212788,19.545765,43.737202,17.847462,39.757633,0.0,-7.867651,-10.673775,-7.055046,5.373212,8.91219,23.000299,24.493826,40.748695,39.602021,10.110226,289.915452,-72.375526,-107.444991
60,-1.156769,-0.294302,-16.832657,-14.100861,0.0,-60.49736,-31.036835,-88.602161,-22.72419,-87.157917,-12.165413,-70.677338,-0.089493,-45.816078,0.0,26.267699,30.334211,64.829411,46.284527,81.331715,58.197355,92.824331,66.025084,96.352626,0.0,56.361523,24.843349,94.803028,19.333305,75.145741,14.650955,50.797634,11.016884,38.143272,0.0,-48.592758,-22.50997,-23.687149,-0.967969,6.825582,23.303648,26.10298,48.425229,42.617633,7.619877,289.596202,-90.541763,-121.570799
61,-0.416679,0.656592,-25.088367,13.741597,0.0,-60.133038,-30.521393,-86.516132,-22.804871,-87.147331,-12.7351,-71.81242,-0.895615,-46.96907,0.0,25.589988,29.958027,63.278426,46.046665,80.492218,58.08676,91.244323,66.148276,96.216281,0.0,20.746994,39.674435,105.470238,40.947247,82.648544,38.452549,48.111477,34.461021,40.734901,0.0,-65.767755,-19.462587,-25.49057,-0.892911,2.095315,19.050897,22.520684,37.509578,33.638722,7.486696,289.146644,-115.346632,-108.935353
62,-0.595551,0.627384,-17.862167,-6.860687,0.0,-60.06506,-30.087547,-86.737804,-22.264938,-86.633778,-12.192307,-70.575371,-0.632629,-46.129932,0.0,25.606784,29.7955,63.712717,46.121012,80.577063,58.319374,91.378383,66.323956,95.925683,0.0,26.589546,30.303268,111.058273,29.864616,37.323189,28.652344,34.511604,27.834892,35.918026,0.0,-58.544331,-14.03343,-14.055629,4.238363,7.408753,24.067069,28.427759,43.310905,41.340511,7.004213,289.371693,-133.095732,-116.198375
63,0.225449,-0.102506,-16.615276,1.627803,0.0,-60.333481,-30.359917,-86.833019,-22.614098,-86.518593,-12.546043,-70.775185,-0.898018,-46.141491,0.0,25.753318,29.741839,63.874256,45.974478,81.236989,58.143632,92.170085,66.179646,96.739492,0.0,22.297955,26.921253,104.608669,27.889996,34.221897,28.007469,33.086243,28.934155,32.570057,0.0,-60.665272,-14.478063,-19.465027,3.059054,3.834731,21.483123,24.544152,39.210122,37.358011,8.69854,289.511975,-148.24213,-114.327785
64,-0.379028,0.240086,-12.055492,-0.750916,0.0,-60.349388,-29.958916,-86.538448,-22.124176,-86.192436,-12.111511,-70.300598,-0.701981,-46.147041,0.0,26.024094,30.042563,64.051665,46.388144,81.418227,58.602623,91.897828,66.664942,96.657055,0.0,13.195782,18.355179,88.132038,18.631496,30.011902,18.614731,29.201775,20.236759,27.647667,0.0,-55.692511,-11.040511,-20.31746,5.91359,7.719265,23.592671,26.448751,39.897806,39.506895,10.424824,289.934456,-158.19231,-114.896305
65,-0.381432,-0.296958,-15.966797,3.066742,0.0,-60.443745,-30.184135,-86.314545,-22.2686,-85.426369,-12.108421,-70.173054,-0.512466,-46.111965,0.0,27.243541,30.195581,64.712579,46.633047,82.071052,59.00011,92.872805,67.305232,97.901697,0.0,7.768364,18.635159,77.532635,21.52462,25.270157,22.677155,26.100883,24.585915,24.936447,0.0,-52.667482,-8.923645,-23.861934,8.254579,5.960119,25.039205,23.554355,39.611006,37.055372,12.7563,290.050562,-171.446199,-111.4165
66,0.182533,0.531609,-17.371216,2.447107,0.0,-61.221199,-30.577126,-87.214851,-22.705307,-86.266365,-12.526703,-70.494633,-1.012001,-46.191444,0.0,26.935159,30.083442,64.624585,46.542768,82.022763,58.800533,92.408133,66.914969,97.260172,0.0,4.018536,20.632439,73.046722,25.601234,18.054714,27.000675,17.829552,28.507805,21.53532,0.0,-47.816215,-5.402914,-19.980087,10.241892,13.826905,25.806176,29.734275,39.254737,39.164736,15.628624,291.113842,-186.127625,-108.437722
67,-0.543709,-0.249595,-47.073898,42.659963,0.0,-61.075974,-31.270065,-87.255077,-23.345833,-86.304703,-12.893143,-70.056667,-0.875015,-45.785065,0.0,27.258608,30.955852,65.303592,47.28544,82.557028,59.33276,93.287521,67.169999,97.671862,0.0,21.378479,18.973789,99.435368,24.46701,50.886497,30.571918,52.745819,38.066254,57.013664,0.0,-85.76172,-33.260532,-58.878369,-16.698577,-13.153826,3.007245,0.904983,21.781161,12.97722,16.855488,291.551761,-231.43095,-65.090245
68,-0.639496,0.44979,-10.86319,10.266593,0.0,-60.698719,-31.069107,-86.969261,-23.092003,-86.052361,-12.70237,-70.049458,-0.732079,-46.003075,0.0,26.819933,30.608691,65.034669,47.079811,82.094332,59.301144,92.475194,67.312086,97.22485,0.0,10.907421,13.068466,89.153023,17.88311,41.737976,24.587059,44.408798,32.876816,48.931103,0.0,-82.740458,-32.311737,-61.319765,-15.24877,-17.005199,3.744205,-0.575329,21.490533,12.051704,17.369728,292.45327,-241.140404,-54.371932
69,-0.092697,0.039706,-13.409615,10.223367,0.0,-61.047993,-30.753593,-87.171879,-22.873764,-86.448612,-12.548447,-70.336304,-0.599442,-45.991802,0.0,26.767136,30.715581,64.944267,47.008674,82.177016,59.097676,92.50891,67.07478,97.341682,0.0,1.894741,9.26754,80.933418,15.252113,38.609734,22.281189,41.656952,30.892811,46.12381,0.0,-77.309879,-28.286474,-60.631649,-10.410131,-14.781258,8.439398,1.445515,25.493009,13.759597,19.130087,292.358838,-252.696962,-44.282702
70,0.20668,0.073051,-10.500469,10.110179,0.0,-61.373177,-30.805092,-87.58255,-22.909698,-86.636295,-12.585182,-71.344242,-0.691338,-47.04958,0.0,26.061823,30.814135,64.570615,47.319341,81.845355,59.544193,92.68144,67.526422,97.927014,0.0,-9.139023,4.673595,71.56208,11.931896,31.304855,21.100159,36.883163,31.787682,43.085461,0.0,-68.586862,-20.107046,-56.15672,-2.514724,-7.810254,15.320401,7.448736,30.667663,19.701562,21.355877,291.956071,-261.178322,-34.648341
71,-1.044388,0.255708,-13.628998,14.386117,0.0,-60.49799,-30.50045,-87.0718,-22.296638,-86.100197,-11.835594,-70.832863,0.172119,-45.68985,0.0,26.288447,30.624314,65.356204,46.865166,82.183747,59.030862,93.187547,67.032666,98.194394,0.0,-12.453747,14.628468,62.131462,25.050144,24.294777,32.756023,32.393131,39.420204,38.426914,0.0,-52.708423,-17.70656,-49.269635,-5.599095,-3.974534,8.19181,10.515447,20.197726,21.557007,23.050718,290.744991,-272.06809,-21.729013
72,-0.47493,0.313322,-8.335247,11.475419,0.0,-60.465317,-29.781189,-86.411648,-21.909485,-85.991936,-11.892242,-70.378876,-0.333023,-45.693569,0.0,26.656727,30.782766,64.796066,47.145575,81.588967,59.371971,92.475317,67.448925,97.955728,0.0,-20.27235,20.976791,46.277561,32.80323,11.084003,37.094879,13.069038,38.172054,21.966362,0.0,-32.21837,-13.770682,-35.057994,-3.216394,17.011065,10.10456,34.189536,21.950944,43.00098,25.094833,288.1658,-277.884293,-13.146107
73,-0.32444,0.787441,-18.728027,76.873428,0.0,-60.675602,-28.771019,-86.733856,-20.606804,-85.219231,-10.422478,-69.482574,1.108246,-45.440826,0.0,26.82864,29.687993,64.369185,46.483549,81.146772,59.078348,91.579566,67.398352,96.78457,0.0,-27.902756,-5.568066,53.31562,3.747654,30.457821,15.987167,37.109642,29.632874,43.523254,0.0,-80.869389,-34.690918,-89.736625,-21.945849,-31.357291,-6.302124,-18.998657,7.378804,-9.386186,25.256968,287.83366,-296.125746,62.607739
74,-1.564865,-0.735633,-2.438393,18.409496,0.0,-60.251026,-28.07785,-85.182438,-19.403343,-84.319668,-8.753815,-68.157921,3.154106,-44.497948,0.0,28.025857,30.634132,66.692359,47.314154,82.262232,59.631261,92.888613,67.611761,98.108746,0.0,-38.538094,-9.807987,40.764599,1.739731,22.69043,16.356354,31.66048,31.95076,40.950966,0.0,-76.128347,-29.742487,-85.200532,-16.939342,-30.844917,-2.640695,-15.617111,9.327925,-7.257094,23.966217,286.139785,-298.290024,80.058992
75,-0.789986,0.418853,-3.238392,12.615115,0.0,-58.757057,-28.318634,-84.912357,-20.122604,-84.109612,-9.960938,-68.496437,1.662712,-44.706059,0.0,26.315494,30.63827,65.698548,47.151503,81.905499,59.529744,92.468216,67.746686,97.84643,0.0,-40.442276,-10.737476,37.259274,1.511993,21.934948,16.347713,32.400799,31.81572,40.607529,0.0,-70.728984,-29.25963,-84.335533,-16.192872,-29.345154,-2.052707,-15.315245,10.027094,-5.934739,24.374685,285.801439,-300.329962,91.916909
76,-0.847893,0.250583,-0.570946,4.338244,0.0,-58.99332,-28.308334,-84.707508,-20.110016,-83.569965,-9.976616,-67.949352,1.564636,-44.222832,0.0,26.036505,30.884345,65.865151,47.475075,82.048266,59.958971,92.838225,68.245876,98.525252,0.0,-38.285923,-10.158119,40.61039,3.578796,23.496494,18.922634,33.322849,34.306126,42.478237,0.0,-70.015643,-29.05678,-86.74457,-16.655692,-31.369487,-3.49109,-17.540976,8.285454,-7.700431,25.259485,285.38237,-299.168215,95.5855
77,0.573463,0.070025,0.951576,-2.477488,0.0,-59.972134,-29.417725,-86.132984,-21.034584,-84.847412,-10.633965,-69.356976,1.048164,-45.247364,0.0,26.712364,31.386932,66.450112,47.977662,82.552273,60.21647,93.39651,68.128303,98.750024,0.0,-37.745876,-9.740353,41.771965,3.495827,24.728909,18.333778,33.534851,32.647133,41.965256,0.0,-72.246871,-30.859058,-85.814362,-18.045879,-30.18496,-3.690019,-15.451744,9.577304,-6.467584,27.36022,285.374697,-296.689367,93.030315
78,-0.631256,0.270343,-0.45702,-4.671357,0.0,-60.260925,-29.295387,-86.294575,-20.73555,-84.951897,-10.265579,-69.580593,1.327629,-45.207081,0.0,27.291397,31.467022,66.464438,47.960372,82.270938,60.171577,93.235589,68.045249,98.859384,0.0,-34.201355,-7.837601,43.020344,5.554562,26.522484,20.295353,34.371986,34.211082,41.883545,0.0,-73.737587,-29.971365,-86.301048,-16.798119,-31.33926,-2.65746,-16.993868,9.980287,-8.687727,27.690983,285.693592,-296.184368,88.407509
79,-0.233574,-0.298687,-0.552235,-4.201251,0.0,-60.379143,-29.430771,-86.650772,-20.741844,-84.791164,-10.071945,-69.094906,1.770058,-44.186954,0.0,27.383591,32.350794,67.231626,48.760225,83.466365,60.714425,93.787514,68.222287,98.99085,0.0,-32.590542,-6.98061,44.507561,6.285267,27.379818,20.697784,34.838848,34.132347,42.194653,0.0,-75.505965,-30.469815,-87.078054,-17.17174,-31.692349,-2.932712,-16.812105,9.741066,-7.913717,28.58983,285.503323,-295.604181,84.314676
80,0.199471,0.438243,0.250626,-4.122087,0.0,-60.698318,-29.384766,-87.011547,-20.69149,-84.923,-10.127678,-69.657555,1.583519,-44.768543,0.0,27.38427,31.843699,66.846488,48.236643,82.888381,60.215482,93.539771,67.847833,98.895014,0.0,-32.381516,-7.584686,44.881554,5.42387,26.438656,19.81699,34.252739,33.359413,41.752682,0.0,-75.984901,-30.824571,-86.828736,-17.642,-30.904352,-3.57152,-16.757642,9.063787,-7.808803,29.818325,285.796638,-294.324532,80.047661
81,-0.217438,-0.211989,-0.106773,-2.786765,0.0,-60.225105,-29.230957,-86.777573,-20.45311,-84.389763,-9.859886,-69.134502,1.815605,-44.237309,0.0,27.55007,31.846169,66.908362,48.298455,83.096109,60.389124,93.851487,68.101442,99.291822,0.0,-32.631512,-7.277813,45.669308,5.372257,27.323742,19.750271,35.275383,33.914223,43.277779,0.0,-76.450406,-31.437999,-87.5129,-18.168175,-30.663279,-3.647535,-15.961185,9.43889,-6.628783,30.024548,285.580666,-294.007645,77.256913
82,-0.092354,0.083734,0.227509,-1.868228,0.0,-60.148373,-29.068108,-86.290169,-20.306168,-84.310284,-9.693604,-68.693218,2.006149,-43.977985,0.0,27.481589,31.68216,66.966593,48.08906,83.265552,60.231908,94.020189,67.992514,99.305284,0.0,-30.724812,-7.356434,47.249508,5.134163,27.366028,19.577408,35.915451,34.025974,43.860226,0.0,-77.387963,-31.533095,-86.923431,-17.887427,-29.947066,-2.958555,-15.029186,10.585225,-5.950764,30.496674,285.530941,-293.215656,75.255227
83,0.0,0.16438,0.608425,-1.029534,0.0,-60.220871,-28.723984,-86.104145,-20.000038,-84.342613,-9.541969,-68.65963,1.874657,-44.040127,0.0,27.418727,31.265592,66.674513,47.741158,82.882514,59.950573,93.592568,67.756072,98.90477,0.0,-30.887146,-6.773014,49.067116,5.780296,28.702469,20.012169,36.125507,34.021168,43.392735,0.0,-77.930502,-31.876026,-87.525219,-18.57684,-31.410613,-3.898643,-16.441449,9.417524,-7.088175,30.958128,285.495975,-292.145777,74.026348
84,-0.012817,-0.106458,-0.003777,-0.665206,0.0,-60.437222,-29.709663,-86.36673,-21.051865,-84.464779,-10.506935,-69.192581,1.137428,-44.69553,0.0,27.453801,31.639738,66.945351,48.13352,83.190896,60.34454,93.875508,68.230562,99.223032,0.0,-29.092255,-6.493893,49.711418,6.44165,29.921951,20.971699,37.415257,35.245457,44.8946,0.0,-79.737134,-32.466854,-87.182196,-19.005542,-32.165419,-4.132368,-16.751467,9.300631,-7.73217,31.293812,285.122663,-291.801052,73.094287
85,1.081467,0.832457,1.276188,-0.942744,0.0,-61.866703,-30.292854,-87.7561,-21.681976,-85.741711,-10.919952,-70.512371,0.816078,-45.883427,0.0,26.794492,31.572492,66.177114,48.701932,82.788839,60.991499,93.611031,68.63126,98.179759,0.0,-29.693756,-6.906853,49.985619,5.439777,30.136185,19.676113,37.457485,33.784332,45.146084,0.0,-79.228959,-32.625336,-86.866528,-18.666038,-31.549335,-3.181536,-15.811502,10.843496,-6.58247,32.430239,285.897414,-290.469904,72.093838
86,-0.335312,0.559767,1.683655,-1.294999,0.0,-61.345596,-29.405937,-87.002678,-21.036873,-85.23325,-10.550537,-69.553528,0.82077,-45.343208,0.0,26.006865,30.956161,65.111919,47.825447,82.503861,60.103714,93.17989,67.847277,97.489327,0.0,-30.999928,-7.097111,49.969311,5.363102,28.171234,19.593315,35.975018,33.486443,43.735771,0.0,-78.43136,-32.595943,-87.085155,-18.366734,-30.577816,-2.836073,-15.331176,11.157435,-6.031039,32.177553,286.372368,-288.703623,70.714025
87,0.17704,-0.321534,0.749531,-0.880129,0.0,-61.558857,-28.7257,-87.098579,-20.294838,-85.021992,-9.984741,-69.76553,1.052742,-45.522366,0.0,26.593124,30.84112,65.528858,47.774873,82.698436,60.138047,93.52915,67.942682,98.066385,0.0,-30.060883,-6.603584,50.136108,5.450077,28.931122,19.341259,36.527653,33.33395,44.285088,0.0,-78.258891,-32.040498,-85.94021,-17.714001,-29.969513,-2.069658,-13.917431,12.061121,-4.030264,32.462139,286.01457,-287.846546,69.797633
88,-0.449753,-0.354756,1.271896,-1.336649,0.0,-60.982418,-29.039497,-86.964626,-20.522118,-84.883461,-10.075951,-69.613838,1.226006,-45.29932,0.0,26.819254,31.115786,66.402318,47.95148,82.985391,60.315518,93.68612,68.087857,98.212919,0.0,-30.231628,-6.282234,50.75243,6.047058,28.336773,20.027676,36.216774,33.869991,44.010201,0.0,-77.88351,-31.344293,-85.403846,-17.069512,-29.324437,-1.65559,-13.761048,12.200585,-4.427258,32.032127,285.641752,-286.554909,68.442922
89,0.657005,-0.23317,0.435619,0.457354,0.0,-61.701794,-29.620399,-87.157402,-21.184387,-84.942226,-10.727463,-69.881115,0.740662,-45.746384,0.0,27.091202,31.78374,65.896952,48.712554,82.916909,60.931108,93.719218,68.585936,98.459612,0.0,-28.053875,-5.101604,52.29578,7.244282,29.272957,21.038132,37.157135,34.563675,44.44891,0.0,-79.217998,-32.8322,-86.364713,-18.551182,-30.079675,-2.618835,-13.918234,11.907363,-3.675693,32.709131,285.418972,-286.099291,68.910666
90,0.478706,0.201059,2.888088,-1.877182,0.0,-62.175179,-29.602776,-87.71101,-21.171455,-85.627327,-10.722427,-70.39238,0.598068,-46.116486,0.0,27.143135,31.551373,65.745725,48.59319,82.683431,60.905913,93.408675,68.580996,98.340433,0.0,-27.178974,-4.305382,52.709427,8.228817,28.286076,22.024097,36.517067,35.32877,44.287148,0.0,-78.179634,-31.678054,-84.891966,-16.905163,-28.549469,-0.904119,-12.86999,13.502808,-2.385758,33.192129,285.735242,-283.206911,67.148695
91,0.039368,-0.222178,3.681793,0.370194,0.0,-62.138672,-29.32766,-86.951637,-20.944977,-85.294075,-10.658455,-70.465221,0.588226,-46.39555,0.0,27.197537,31.57348,65.790309,48.406642,82.883194,60.612661,93.367117,68.313925,98.52624,0.0,-24.677639,-3.243484,54.424152,8.330555,29.227467,21.622124,37.507496,34.697399,44.895916,0.0,-79.200677,-33.395302,-83.990626,-18.902172,-28.58689,-2.728658,-12.702863,12.050716,-2.341298,33.246403,285.520443,-279.510212,67.526268
92,0.086746,0.211866,5.054569,0.78247,0.0,-62.532005,-29.19239,-87.052059,-20.872765,-85.278339,-10.633049,-70.541611,0.586166,-46.111736,0.0,26.370575,31.292454,65.644702,48.040092,82.478235,60.249136,93.280049,67.979917,98.768734,0.0,-19.337482,-1.152477,57.054462,10.353584,31.757069,23.512058,38.93137,36.365376,45.579758,0.0,-80.742214,-33.288227,-83.014969,-19.111629,-29.002254,-2.748171,-12.781841,12.221302,-1.565126,33.375206,285.590484,-274.413586,68.166913
93,0.512581,0.033963,8.572769,0.400174,0.0,-63.147354,-29.637566,-87.069168,-21.195259,-85.268326,-10.825195,-70.422077,0.657806,-46.074886,0.0,26.157042,31.383597,65.48977,48.26406,82.412779,60.511328,93.957142,68.316766,99.176163,0.0,-12.56979,0.231171,60.097561,10.204411,33.990498,22.103748,40.156803,34.689903,46.692181,0.0,-80.651163,-31.530409,-79.172364,-16.381489,-25.268732,0.677032,-8.974033,16.274383,1.505846,33.881836,285.470642,-265.846767,68.413281
94,0.453415,-0.279606,9.447498,2.594042,0.0,-63.444328,-30.007553,-87.800159,-21.561241,-85.2495,-11.220245,-70.472546,0.153923,-46.256046,0.0,25.769064,32.060196,65.976425,49.022911,82.872202,61.262769,94.623676,68.882646,99.956627,0.0,-1.496086,6.48777,69.302788,15.013962,37.861519,25.575714,43.695087,37.216759,50.730114,0.0,-80.60905,-30.657752,-72.261474,-14.368024,-22.105783,3.446723,-5.902938,19.761398,5.581867,34.340172,285.055911,-256.394348,70.872198
95,0.493927,-0.570821,12.830315,4.840893,0.0,-64.206104,-30.45639,-88.406067,-21.84803,-85.996113,-11.354485,-70.791721,0.024719,-46.290436,0.0,25.822726,32.677824,66.334763,49.648813,83.112103,61.854523,94.889141,69.401226,100.333922,0.0,6.819248,8.977604,75.614605,16.245174,39.399376,24.96706,43.346443,34.769669,48.67424,0.0,-80.379091,-28.964525,-64.730332,-11.412742,-19.519614,7.185371,-3.023393,24.216443,10.246956,34.84746,284.505915,-243.550673,75.733916
96,-0.049324,0.352471,12.120838,5.309023,0.0,-63.638821,-30.566597,-87.94899,-21.782684,-85.694103,-11.319351,-69.909611,-0.086288,-45.746899,0.0,25.046585,32.143498,65.833102,49.025443,82.56555,61.310193,94.259534,68.995835,99.983674,0.0,19.676514,16.00462,86.104603,22.324619,43.920135,29.279938,47.334309,37.164001,50.207634,0.0,-78.486781,-26.882949,-52.747634,-8.482407,-14.869993,11.564154,2.060364,30.398802,16.925387,35.141544,286.788766,-231.086426,82.973318
97,-0.20771,-0.051191,15.823517,6.402344,0.0,-63.268948,-30.300636,-87.856007,-21.500359,-86.32885,-10.849457,-70.151081,0.677605,-46.028366,0.0,25.277222,31.903906,65.760731,49.105471,82.684543,61.638088,94.037294,69.553565,99.844241,0.0,32.378597,19.050636,96.621895,21.813698,46.914539,25.80471,49.105396,31.178398,48.248005,0.0,-71.847716,-23.399454,-35.681055,-4.371837,-4.632115,16.606384,12.303523,36.821647,26.784365,34.698257,288.412817,-215.498486,91.050905
98,-0.463142,-0.059466,13.704643,9.864567,0.0,-63.370285,-29.760361,-87.246208,-21.003799,-85.352383,-10.432091,-69.672604,0.884628,-45.694599,0.0,24.763891,31.570269,65.690706,48.669575,83.0104,61.196326,94.019819,69.17065,99.976634,0.0,43.662586,27.205467,104.467049,29.152336,60.338116,30.552063,54.860802,32.218666,49.980869,0.0,-63.942922,-12.459875,-17.393022,6.900547,0.040755,26.324571,17.079546,44.195634,28.223396,33.64666,289.383904,-202.382298,101.946024
99,-0.272942,-0.312334,18.386936,12.273882,0.0,-62.438965,-30.123138,-86.769047,-21.343346,-85.453491,-10.653305,-69.837742,0.879021,-46.154766,0.0,24.722765,31.755829,65.21813,48.709219,82.623904,61.109504,93.822279,68.941433,99.424338,0.0,51.107311,30.913696,104.009171,27.767715,96.003571,25.190334,77.04586,22.937164,61.37352,0.0,-52.296023,-5.500788,0.518086,12.033673,5.785273,27.893464,15.544369,40.83351,26.745832,32.692251,289.552282,-184.676828,114.700618
100,0.482368,-0.454051,20.205917,14.741305,0.0,-63.68763,-30.156784,-88.133068,-21.690445,-86.33234,-11.319923,-70.246181,-0.194778,-46.54335,0.0,24.049871,31.809798,65.091295,48.815306,82.741168,61.32878,94.116767,69.29483,100.396907,0.0,55.066223,29.973049,102.067966,21.274281,94.009209,10.112171,55.461273,-1.314297,26.003551,0.0,-46.551073,-3.354962,14.287563,11.421665,24.081549,25.310444,34.612032,36.064834,42.816809,32.52943,289.032328,-165.1161,129.376021
101,-1.144295,-0.14499,18.641853,19.290149,0.0,-62.635517,-29.46167,-86.875477,-21.449432,-85.563641,-11.609344,-70.149536,-0.788269,-46.755066,0.0,22.653262,31.252625,63.762426,48.017491,81.006043,60.537078,92.159464,68.654664,98.65641,0.0,59.713326,31.333294,105.676403,30.276718,92.843685,28.291111,82.517281,24.996758,65.726223,0.0,-31.580087,10.539622,18.883523,32.471392,21.158099,50.417235,32.396366,63.911738,44.885633,31.364279,288.813855,-146.495104,148.592687
102,-0.317116,-0.689382,9.237499,19.736667,0.0,-61.890335,-30.219383,-87.25359,-22.063065,-86.027527,-12.041016,-70.763569,-0.932007,-47.932262,0.0,22.919406,30.978761,63.6811,47.565972,81.148069,59.857515,92.323844,67.898098,97.920407,0.0,66.943531,35.313492,107.12923,32.85759,107.17844,30.977097,97.995415,28.895588,80.296783,0.0,-24.986069,15.151513,23.296084,35.280419,32.942301,49.506479,40.800288,58.423485,49.495734,30.605936,288.448941,-137.698832,168.653821
103,0.186424,0.706733,12.037468,16.429068,0.0,-62.235317,-30.775108,-88.198986,-22.799835,-87.523212,-12.793465,-71.734142,-1.421356,-48.476887,0.0,21.463146,29.867501,62.949852,46.411301,80.386933,58.658507,92.166318,66.726013,96.509287,0.0,71.070385,36.502476,107.697887,32.603245,107.795677,28.472328,97.428417,23.690529,78.413544,0.0,-12.891757,23.597364,36.589898,38.715409,45.485045,49.463006,54.611076,56.843663,59.418655,30.696545,289.232647,-125.757179,185.159861
104,-1.524696,-0.057551,12.612591,18.239837,0.0,-61.750889,-30.124397,-88.244762,-22.096024,-87.168846,-12.119522,-71.721096,-0.869751,-48.564377,0.0,22.519634,30.039661,63.015554,46.664725,79.765971,58.965098,92.091415,67.034703,97.756892,0.0,72.598915,33.489819,100.125961,29.143753,103.348904,25.23159,93.594475,20.166206,74.264717,0.0,-6.48509,25.108953,45.364137,38.81248,53.86754,49.11177,63.079096,56.249191,65.020899,29.111166,289.069672,-113.205271,203.294274
105,-1.638107,4.395086,18.405533,18.468498,0.0,-56.832218,-29.078522,-86.381836,-22.610321,-86.180649,-13.447037,-72.5564,-2.845345,-49.605904,0.0,8.6282,27.281888,58.009819,42.479467,75.088933,54.311402,86.151705,62.439855,92.519099,0.0,71.841145,36.492062,102.426109,28.901138,97.410622,21.409836,82.800865,14.736786,67.583542,0.0,6.129099,36.334004,55.574198,57.398737,66.589236,70.118457,76.352038,75.609613,76.753601,27.350979,293.179548,-94.921818,221.477563
106,-1.814461,1.728826,9.531498,12.615547,0.0,-59.786282,-25.600891,-85.095234,-19.139786,-84.375114,-10.396042,-70.101871,-0.585365,-46.855717,0.0,4.656352,24.836818,56.02195,38.906712,73.56166,50.065629,83.715281,57.92837,88.184775,0.0,71.65535,33.222828,99.225368,23.70718,96.43301,14.819241,81.478214,7.33017,59.631329,0.0,13.041131,37.108787,64.507938,55.346215,76.146347,66.350262,83.953081,71.527169,84.236886,25.281086,294.529412,-85.645752,233.714148
107,-0.600929,-2.752957,8.915348,13.242376,0.0,-52.684193,-26.498566,-85.570908,-21.354904,-85.662403,-13.13118,-71.061344,-2.685356,-48.226204,0.0,15.458845,30.264371,47.944255,42.960564,70.442462,52.449874,82.994715,59.106259,90.907845,0.0,74.270325,31.497974,95.460892,20.724792,89.951477,10.872002,73.675575,2.410297,48.989811,0.0,14.862027,38.051283,67.123995,56.06357,78.374487,66.715701,86.091066,71.341918,85.219706,24.331713,291.561162,-77.078848,246.741231
108,2.914925,-5.425947,6.891289,10.059883,0.0,-55.161667,-17.52491,-83.339424,-13.509407,-92.664528,-8.425713,-84.896965,-2.287331,-57.622604,0.0,8.772511,35.498336,23.970645,51.069381,41.997505,60.622541,69.452356,65.127542,95.583277,0.0,71.704445,29.266262,97.256813,18.377094,93.199196,9.034824,76.371002,1.445732,51.236458,0.0,14.169558,37.600258,72.193889,55.174796,86.587601,66.309507,93.76658,71.867291,93.330993,26.330252,285.95884,-71.103945,256.62474
109,5.161743,5.20908,7.917995,6.187144,0.0,-59.904099,-16.666718,-82.241478,-16.415291,-88.441944,-16.064644,-84.293175,-15.669365,-70.492058,0.0,-16.135815,34.793517,18.7557,50.629286,28.616376,60.007877,51.595557,63.621635,82.370048,0.0,71.014194,29.338131,92.503796,17.90102,88.853931,7.49445,71.333828,-1.683598,44.750519,0.0,18.042668,34.099689,71.507162,51.787786,87.362445,63.508076,94.91273,69.80495,91.01986,30.411673,291.72724,-64.266272,263.371204
110,-3.188553,30.477163,7.493591,6.239694,0.0,-49.469147,-41.440544,-20.589409,-38.548851,-2.828751,-32.288475,-0.538673,-24.852333,-12.963867,0.0,26.214902,12.044727,38.684472,4.972205,36.135291,-2.004665,25.147361,-8.901445,15.557769,0.0,67.431393,28.705101,88.449268,17.151203,86.757946,6.504307,70.12373,-3.199539,45.701466,0.0,18.317272,33.553568,71.792017,49.86426,88.17224,61.137477,96.566344,67.683886,93.076149,26.145573,322.516427,-57.850227,269.922922
111,1.901436,16.413198,4.671879,5.008638,0.0,-48.86982,-44.965897,-12.640343,-43.14537,1.694984,-37.535992,4.987564,-29.695129,-26.60511,0.0,41.325722,6.276497,32.424709,-7.51873,23.496588,-22.147279,11.539608,-36.872097,-17.92244,0.0,67.975273,29.468479,87.37278,18.554192,86.862144,8.218975,72.332726,-1.813889,49.960556,0.0,14.298246,34.035839,70.297842,50.038767,87.341203,61.185519,97.114317,68.117867,96.018186,27.40036,339.12329,-53.824997,275.125225
112,-7.648315,0.286028,5.026302,3.720154,0.0,-42.358761,-39.058399,-1.868477,-35.691948,12.031403,-28.929062,18.445473,-20.598679,6.158867,0.0,40.838264,6.816937,34.814574,-4.893226,29.050049,-16.908374,18.528582,-28.449094,-0.567425,0.0,70.550365,27.822132,85.952625,16.929989,84.919796,6.671047,69.875393,-3.066444,47.829723,0.0,11.683981,33.807733,70.402633,49.788307,85.766012,60.923142,94.966947,67.816217,94.672891,19.17635,339.804474,-49.37439,279.240535
113,-21.27491,-54.346105,3.087845,3.120866,0.0,8.126907,-23.749409,32.016792,-36.199036,35.283279,-44.10902,17.23011,-47.843399,-55.470657,0.0,34.134578,30.014776,66.077572,44.563111,77.84788,53.747126,81.497453,61.578437,95.053212,0.0,69.237499,27.068253,84.533901,15.778084,81.066341,4.789753,65.463696,-5.336037,45.039425,0.0,11.89702,32.223711,69.868615,47.813035,83.666683,58.83604,91.371344,65.715653,92.552876,-2.483339,285.731599,-46.671324,282.634631
114,-2.08477,15.429514,0.070267,0.182472,0.0,5.14595,-8.289471,43.143768,-24.409504,34.611397,-36.207275,10.398788,-45.193119,-32.395248,0.0,27.096143,21.924854,49.96831,34.749489,64.642307,41.739265,64.695289,46.431926,70.129881,0.0,66.73708,27.228069,84.147663,16.221142,81.366177,5.188122,65.902004,-5.00021,45.293827,0.0,15.899249,32.720802,70.266658,48.40059,83.357807,59.262303,90.824667,65.722939,92.409183,-5.087328,301.313806,-47.120275,282.969796
115,28.276749,4.835922,-0.072899,-0.209087,0.0,-42.388458,-46.78133,8.661804,-53.406029,7.652321,-54.909954,-7.024269,-54.721985,-75.331764,0.0,31.057308,14.188886,48.214722,28.186531,56.591968,38.87948,58.588359,49.325118,70.29988,0.0,65.73801,28.465233,83.240261,17.992802,81.861591,7.084293,66.913319,-3.307514,46.617222,0.0,15.831262,33.320646,69.739186,49.074226,81.575814,59.989846,88.795549,66.57349,91.34158,22.606802,306.277026,-47.775793,282.888008
116,-14.060555,13.709765,-0.243473,-0.64523,0.0,-36.653824,-38.63863,15.275459,-42.039585,26.627655,-41.174297,18.5495,-37.979908,-58.342438,0.0,45.181974,9.119116,43.488098,13.571382,45.726736,17.339145,46.742901,21.396209,50.702893,0.0,65.875168,28.043461,82.883377,17.532921,81.313934,6.661377,66.215172,-3.478603,46.112709,0.0,15.905918,32.901916,69.594196,49.079104,82.341396,60.063514,89.651533,66.464871,91.505589,8.209991,320.096815,-48.355522,282.352802
117,-6.646843,3.219481,-0.350246,-0.059342,0.0,-1.056976,-23.087425,23.575172,-29.532166,30.69706,-31.923866,20.619392,-31.57814,-32.077332,0.0,8.76084,6.774761,38.303719,15.391908,45.011296,22.188282,49.297021,28.910493,52.962526,0.0,65.351086,27.611103,82.988262,17.170086,81.053982,6.357708,65.788021,-3.951588,45.743694,0.0,16.613887,33.070804,69.157003,49.004262,81.997075,59.9988,89.915825,66.670191,93.085659,1.461611,323.355646,-48.807306,282.33281
118,23.123703,-23.627931,0.140705,0.026923,0.0,-41.682587,-47.296486,6.354446,-57.521152,6.501389,-60.720978,-13.426552,-61.430168,-88.800602,0.0,18.444848,17.083807,55.506025,34.084375,62.462826,46.570308,65.442778,58.591076,77.107184,0.0,64.40609,27.797928,82.127724,17.24905,80.093307,6.190224,65.418091,-4.311504,45.061684,0.0,16.784256,32.145659,69.483663,48.071584,82.379063,59.233156,89.811219,66.006497,92.015462,24.504318,299.722297,-48.747597,282.354315
119,-17.334938,0.021921,0.653801,-0.130479,0.0,-13.799629,-33.763275,19.815788,-46.04805,25.730324,-51.480217,9.377174,-52.72871,-64.135838,0.0,35.183594,16.25277,58.448617,29.97155,65.717629,40.577801,70.096536,50.296637,77.377959,0.0,64.590225,27.188873,82.165947,16.575222,80.009079,5.525665,65.148354,-4.894981,44.883499,0.0,16.871262,31.519016,68.8782,47.65693,82.211164,59.0442,89.806279,65.992665,92.312296,7.123747,299.736361,-48.139429,282.215978
120,-13.683701,5.358392,0.06958,-0.098554,0.0,20.88501,-17.036076,43.432388,-27.789516,43.493042,-33.608837,26.954041,-34.939957,-41.116161,0.0,6.090567,16.730471,56.552942,31.08349,62.990175,41.297194,68.223337,50.115214,74.71207,0.0,64.987335,27.184296,82.731972,16.596336,79.824142,5.514736,64.894409,-4.991341,44.548073,0.0,16.899606,31.579099,68.766062,47.496317,82.191713,58.547789,90.083539,65.315819,92.498968,-6.581097,305.084332,-48.090992,282.107004
121,-3.022385,6.312374,1.648178,0.379703,0.0,5.643311,-13.312569,45.672112,-22.796574,47.732277,-27.269554,29.923096,-27.93932,-33.267803,0.0,18.684563,14.76193,51.090932,26.588492,55.083961,35.347047,60.695653,43.593136,66.863408,0.0,64.812698,26.505032,81.090889,15.900021,77.969627,4.97921,63.409424,-5.309944,43.72879,0.0,16.51558,30.166929,68.60125,46.307684,81.984355,57.772821,89.098249,65.12254,91.658607,-9.607544,311.392662,-46.446877,282.482663
122,27.996597,-12.071094,0.399227,0.5736,0.0,-38.691387,-42.882442,10.797043,-56.257381,14.008598,-61.706142,-5.393028,-63.381157,-82.672462,0.0,41.592422,10.984781,55.040674,27.987016,60.345467,41.831705,67.074965,54.629848,77.973912,0.0,64.469318,26.621876,82.048817,16.345711,79.718113,5.457344,64.461765,-5.082607,44.182606,0.0,15.743515,30.263259,67.242123,46.108415,80.523587,57.489881,87.986248,64.958161,91.548444,18.381958,299.312491,-46.054745,283.047185
123,-18.048477,-0.778487,0.509262,0.082807,0.0,2.798195,-22.950497,32.883682,-37.404785,29.766312,-44.278965,11.590919,-46.008396,-59.777298,0.0,21.096473,16.365341,61.047198,34.645254,69.197265,47.736773,73.609949,58.509195,75.043114,0.0,65.047703,26.382294,81.905079,16.096058,79.543934,5.294437,65.050907,-4.870777,44.715328,0.0,15.36165,30.106969,68.330412,46.210303,81.646395,57.794001,88.755843,65.362255,92.087154,0.333109,298.50867,-45.545855,283.104659
124,-11.084232,10.290459,0.913467,0.459423,0.0,12.917805,-12.499809,49.67474,-22.576733,46.453571,-27.702198,28.887234,-28.270741,-40.900726,0.0,19.806939,14.258911,54.41366,28.349738,59.910929,39.189528,64.848554,48.919232,67.839126,0.0,64.006863,25.990791,81.299458,15.773163,79.26424,4.951515,65.002041,-5.241909,44.590702,0.0,15.105324,29.452229,66.840622,45.631455,80.463257,57.373296,87.549981,65.14971,91.207952,-10.711269,308.784417,-44.592533,283.54937
125,34.208508,-8.184091,0.338345,-0.413357,0.0,-38.994198,-45.590229,5.802727,-57.969131,9.048615,-62.824688,-9.210663,-64.324894,-91.258678,0.0,30.552992,12.149702,53.898291,28.572471,60.186953,41.65689,65.757149,54.388651,77.703075,0.0,64.337311,25.805397,80.403099,15.367813,78.583946,4.351845,64.689674,-5.974274,44.454231,0.0,15.464032,29.496011,67.55952,45.812137,81.185304,57.568489,88.236399,65.211399,91.63792,23.567619,300.544782,-44.183807,283.080469
126,-20.582085,1.743029,-0.160446,-0.165676,0.0,5.141716,-26.230431,32.278061,-39.275551,29.182549,-44.56358,10.039101,-44.792862,-65.122719,0.0,5.440829,12.688413,52.823525,31.458562,61.661306,45.333386,67.505983,57.034286,70.714658,0.0,63.533707,26.254063,80.646172,16.201744,78.454514,5.142345,64.849434,-5.662708,44.333611,0.0,16.459325,29.833909,67.084351,45.871479,80.919839,57.489078,88.430727,65.125813,91.402034,3.027363,302.267402,-44.302425,282.894384
127,-8.885422,8.751701,0.29171,-0.293253,0.0,5.964432,-17.511349,41.763153,-27.605782,39.47319,-33.330173,25.386543,-33.917255,-50.955563,0.0,7.302851,11.348552,53.649684,24.930803,58.961825,35.183038,61.76764,44.019584,63.511101,0.0,63.55957,26.614208,80.22068,16.477089,77.608223,5.152874,63.667603,-6.039562,43.506432,0.0,16.043869,30.501678,67.484308,46.316638,80.769848,57.711379,88.455798,65.152983,91.709427,-5.759296,310.965488,-43.911953,282.547516
128,32.006149,-8.914228,0.30653,0.119055,0.0,-40.552483,-47.348843,3.864326,-58.778744,3.014832,-62.956009,-15.716057,-63.826504,-93.104439,0.0,31.836289,10.999169,50.739387,26.854513,57.699708,40.182784,62.796279,53.528653,74.986242,0.0,64.15369,26.609173,80.810108,16.476517,78.002415,5.21307,63.95422,-5.876827,43.856564,0.0,15.392957,30.015764,67.358029,46.025361,80.585214,57.613937,88.422144,65.2185,91.238642,26.345844,301.977546,-43.506432,282.592856
129,-16.498833,-0.480912,-0.163136,0.351792,0.0,-5.276413,-30.416451,24.836655,-44.133625,19.875183,-49.88245,-0.584335,-50.45311,-73.027725,0.0,12.612398,14.053159,53.508337,32.005362,61.679029,45.678447,66.624928,57.2535,71.200263,0.0,64.255829,26.480427,80.982857,16.550102,78.305511,5.470619,64.407806,-5.488873,43.982391,0.0,15.303913,29.518858,66.581826,45.579523,79.811049,57.410902,87.562146,65.286488,90.743836,9.985371,301.36722,-43.531208,282.815235
130,-14.830055,8.667658,0.103397,0.075891,0.0,17.978325,-16.007881,40.713844,-28.032589,37.418861,-34.78735,23.071289,-36.602783,-51.804943,0.0,-11.832429,8.84692,52.124696,26.160809,58.65295,39.330072,63.321713,49.705624,66.775537,0.0,64.409351,26.713257,81.386089,16.860867,78.584118,5.768394,64.176464,-5.280533,44.042645,0.0,15.078154,29.71084,66.59856,45.73816,79.805862,57.438442,87.061103,65.215845,90.346287,-4.70767,309.976416,-43.290796,282.832664
131,-2.262611,7.033557,0.001659,0.029023,0.0,16.342049,-12.895889,40.988159,-25.277882,34.829865,-32.540073,20.595245,-34.827805,-52.143517,0.0,-14.158443,5.735872,47.485758,20.044801,53.537422,31.694202,57.849762,41.724753,60.620935,0.0,64.663467,26.809845,81.099472,17.049465,78.947983,5.948296,64.672394,-5.104809,44.255219,0.0,14.975772,29.100684,65.900904,45.437065,79.26746,57.497723,86.938096,65.620434,90.305099,-6.825399,316.860167,-43.144255,282.71188
132,28.185081,-11.530346,0.755482,0.628249,0.0,-49.060936,-43.224392,5.510902,-51.479931,12.29496,-54.099827,0.365067,-54.563198,-85.657196,0.0,41.434712,10.521529,50.594027,24.286808,56.308533,35.30691,60.341268,46.161767,67.364265,0.0,63.891506,26.205025,80.86813,16.431313,78.29916,5.399723,63.759098,-5.534363,43.228741,0.0,14.535491,29.155087,65.468466,45.369263,78.685401,57.332849,86.103416,65.2968,90.107066,21.459045,305.141467,-42.28941,283.151775
133,-11.127434,-6.086368,-1.024017,-0.126712,0.0,0.4105,-30.090866,27.629013,-43.297234,27.248726,-48.831196,9.18869,-49.055901,-64.94751,0.0,13.665428,14.990901,55.687263,33.431797,62.160867,47.370532,69.780065,58.96306,75.854515,0.0,64.269505,26.612377,81.845112,16.948814,79.558811,6.215115,64.82111,-4.42091,44.127903,0.0,14.727288,29.387762,65.562821,45.637568,78.870343,57.308149,86.46657,64.918208,90.544691,10.485964,299.03361,-43.159075,283.003574
134,-13.396454,6.277053,-0.101852,0.020933,0.0,24.684105,-17.22805,42.802277,-27.638855,41.651344,-33.055973,28.196297,-33.889389,-45.673027,0.0,-3.846989,13.19526,50.592298,31.394712,58.410209,44.530569,65.365775,54.989174,73.250191,0.0,64.485912,26.685562,82.248402,16.962833,79.676228,6.109886,64.596348,-4.644413,43.947887,0.0,14.767117,29.516697,65.848478,45.630405,79.038181,57.217746,86.400312,64.819099,90.598969,-2.769814,305.263115,-43.120251,282.976959
135,0.141335,1.839854,0.363178,-0.183893,0.0,23.575058,-13.456421,44.439125,-23.962269,41.542053,-29.991474,25.219803,-32.018452,-47.11195,0.0,-7.880835,13.378597,51.707572,30.282773,58.497339,42.673857,64.25013,53.043233,71.089606,0.0,64.224586,26.363583,81.910286,16.732292,79.477272,5.936279,64.445686,-4.775963,44.119034,0.0,15.179301,30.073253,66.434613,46.085814,79.475312,57.504392,87.023065,64.92852,90.740872,-2.529001,307.064745,-42.657595,282.754843
136,2.198296,1.09712,-0.455704,0.309123,0.0,16.473312,-15.138702,40.629845,-25.594654,38.894119,-31.606293,23.178635,-33.847904,-46.304455,0.0,1.666829,12.965117,51.160463,28.179368,58.372973,39.800364,63.776999,50.20469,71.385576,0.0,64.619179,26.753941,82.490158,17.125568,79.848747,6.254139,64.945793,-4.538898,44.618111,0.0,14.625523,29.48119,66.036323,45.549821,79.272215,57.187674,86.708138,64.878132,90.43496,-0.271311,308.081759,-43.053904,282.98386
137,-3.865013,5.797499,0.175552,0.304862,0.0,22.00058,-12.777157,41.197586,-23.014755,41.082344,-29.537315,27.797356,-31.9491,-38.302231,0.0,-6.683988,10.379874,47.981305,22.631341,52.645499,32.391796,57.798262,41.067852,66.671302,0.0,64.947739,26.444149,82.139168,16.804047,79.174232,6.106052,64.62719,-4.471035,44.046021,0.0,14.819975,29.465259,65.96179,45.478067,78.844223,57.097395,86.11132,64.753705,90.457438,-4.051266,313.739131,-42.793293,283.148595
138,-0.831184,8.16359,0.068951,-0.134863,0.0,12.088051,-15.150089,38.593025,-22.877312,41.951637,-27.335072,30.146027,-28.413219,-34.335194,0.0,3.440301,7.420362,42.095071,15.503429,45.058288,22.506173,47.853667,29.199362,55.206844,0.0,64.588108,26.887264,82.010136,17.081795,79.188366,6.036015,64.552402,-5.09697,44.027996,0.0,14.33542,29.251973,65.827236,45.152889,78.701271,56.708306,86.271995,64.464343,90.936312,-4.836016,321.73811,-42.677908,282.849121
139,27.567215,-27.890562,-0.42017,0.342962,0.0,-23.06488,-40.731125,10.829887,-54.949436,12.333069,-61.718159,-8.151283,-64.520187,-88.838882,0.0,27.853326,17.96233,58.339443,34.76437,64.309534,47.731092,71.01532,60.020598,83.226526,0.0,64.653053,27.487106,82.426186,17.726326,79.373016,6.503792,64.667587,-5.034199,44.115257,0.0,14.351537,28.807432,65.295874,44.606275,78.206959,56.197383,85.927427,64.136448,90.574949,22.752342,293.734807,-43.076935,283.079342
140,-23.76812,2.16324,0.37508,0.443862,0.0,16.308517,-21.120014,36.867714,-33.32468,37.455597,-38.954144,17.623787,-40.145645,-59.495373,0.0,11.026709,17.773498,57.208607,36.435645,63.144922,50.007892,71.492404,61.319209,79.88904,0.0,64.326267,27.102528,81.950626,17.417049,78.633442,6.331329,63.848934,-5.103436,43.206081,0.0,14.112871,28.59007,65.019788,44.420282,77.622614,56.005524,85.270526,63.961262,90.313559,-0.983047,295.710357,-42.669125,283.335513
141,-7.61158,2.685958,0.099964,0.14147,0.0,21.566048,-11.768303,48.234329,-21.706638,45.450096,-26.870842,26.897964,-28.191547,-39.817314,0.0,15.289032,20.255247,56.920727,36.809112,63.910812,49.100346,70.140317,60.067219,79.60011,0.0,64.153519,26.705303,81.804199,16.97794,78.60775,5.953388,63.849564,-5.263023,43.271713,0.0,13.574531,28.895735,65.272038,44.585897,77.529186,56.049676,85.125536,63.803304,90.08817,-8.494349,298.292189,-42.468882,283.372857
142,-6.735363,6.727522,-0.006123,0.476775,0.0,39.800892,-4.289589,55.557232,-15.450668,53.326435,-21.09026,33.158054,-22.774086,-22.743874,0.0,5.802501,14.123245,49.349571,29.929066,57.754049,41.255388,63.944651,50.438231,72.328072,0.0,63.979969,26.869926,81.446972,17.073154,78.699131,5.976677,64.032154,-5.217934,43.915272,0.0,13.513522,28.201845,64.529675,44.129438,76.983189,55.793288,84.45468,63.806083,89.12474,-15.161448,304.935313,-42.40674,283.765234
143,6.475582,3.653031,-0.284958,0.215756,0.0,17.992744,-4.228592,49.798622,-17.519302,43.252029,-26.727333,16.742363,-33.090992,-32.53767,0.0,15.275632,9.122759,46.164855,20.458591,55.889001,27.586564,57.443321,33.747588,60.228511,0.0,63.962917,26.945515,81.268101,16.878777,77.604046,5.609894,62.99017,-5.476913,42.732296,0.0,14.108734,28.649104,65.023678,44.649129,78.115444,56.235977,85.506042,63.936685,89.516793,-8.568792,308.527582,-42.574625,283.920228
144,36.686325,-9.891675,-0.371647,-0.743351,0.0,-30.42263,-44.236507,3.714638,-57.129593,3.054657,-62.63134,-20.88604,-64.734707,-94.264927,0.0,21.709901,14.263666,52.375588,31.531119,59.215805,44.904776,65.292292,57.671118,76.504253,0.0,63.72551,27.336731,81.710815,17.785721,79.484138,6.696911,64.558411,-4.61031,43.97541,0.0,14.123245,28.475153,64.851703,44.575708,77.630148,56.379299,85.526297,64.424761,90.207842,28.220415,298.570482,-42.84339,283.111452
145,-22.460518,-0.407861,0.447521,0.738041,0.0,5.588837,-24.356289,31.013031,-39.031219,26.283531,-46.111794,-0.232201,-47.698116,-67.143917,0.0,7.373617,15.294836,58.108064,33.697076,66.509454,47.075982,71.568604,58.055638,73.814837,0.0,64.273396,24.663677,81.94376,14.347401,78.601971,3.234787,63.813572,-7.494049,42.711926,0.0,14.747542,28.165351,65.068138,44.571694,77.907778,56.56066,85.970467,64.323675,90.56828,5.938139,298.096748,-42.217627,283.78362
146,-8.681145,6.176153,-0.756454,-0.568968,0.0,18.730659,-17.777996,46.553993,-28.357143,41.503944,-33.758469,26.365356,-34.189854,-51.04969,0.0,5.107809,14.432245,56.850085,31.522844,63.280402,44.102947,67.88723,54.419527,72.31986,0.0,64.007206,25.673275,83.122959,16.007824,80.808277,5.248489,66.137524,-5.509472,45.243702,0.0,14.896422,28.050433,63.973674,44.508338,77.644536,56.389982,85.404031,64.307311,90.176103,-2.696371,304.213837,-42.927446,283.155588
147,-5.213127,5.75131,0.32753,0.553716,0.0,13.926659,-9.263935,47.33139,-18.623199,46.166611,-24.889297,32.498932,-27.145214,-30.648022,0.0,4.54199,13.948183,52.895773,26.545452,58.628435,36.265338,61.431965,44.395706,67.07725,0.0,64.647274,25.319881,81.964359,15.14637,78.744793,4.090347,64.171429,-6.642094,43.038425,0.0,15.215857,28.435509,64.89289,44.750524,77.791996,56.534231,85.479428,64.14287,90.117872,-7.805042,309.950852,-42.495461,283.695009
148,30.684814,-7.000521,-0.227108,0.272875,0.0,-42.294846,-43.223076,5.160484,-56.130009,10.01358,-61.982117,-6.53904,-64.533119,-87.042332,0.0,42.468661,8.55589,50.225253,24.411852,56.492364,37.781804,63.290714,49.948117,72.225814,0.0,64.299202,25.426998,82.253494,15.610085,79.554977,4.769783,64.717827,-5.998077,43.547287,0.0,14.29275,27.257126,64.03141,43.675758,77.436375,55.783655,84.979064,63.97565,89.994433,22.957878,302.865362,-42.644463,283.882915
149,-24.906921,-3.290247,-0.177269,0.337775,0.0,16.729088,-19.202213,38.216629,-33.195362,33.185577,-39.600964,10.378075,-40.737591,-57.574425,0.0,-2.247591,14.353636,56.670267,33.953032,64.775626,47.64705,69.46767,58.093367,72.447621,0.0,64.661636,25.078869,81.807976,15.187626,78.891563,4.660778,64.310074,-5.590668,43.52211,0.0,14.763288,28.315837,64.857754,44.620045,77.884251,56.445558,85.639115,64.060742,90.073782,-1.913624,299.516622,-42.786312,284.162197
150,-5.788078,-2.160215,-0.002232,0.115226,0.0,21.331329,-14.298592,48.973618,-25.679226,47.632141,-31.449623,30.632057,-32.386665,-43.299923,0.0,17.451099,19.641201,60.794886,38.042638,66.565956,51.227092,72.668132,61.463458,78.540102,0.0,64.460621,24.391308,82.011395,14.459267,79.496899,3.726997,64.362888,-6.695652,43.412533,0.0,13.715137,27.615093,64.076735,44.073616,77.708941,56.168916,85.583477,64.064323,89.073117,-7.664766,297.31224,-42.751608,284.233256
