takenoko1/special-research/HandMotion_SimilarSearch_自分用/NewProject/handData/test_key/d4_feature_d2/77.csv
frame,vel_0x_L,vel_0y_L,vel_0x_R,vel_0y_R,posFromWrist_0x_L,posFromWrist_1x_L,posFromWrist_2x_L,posFromWrist_3x_L,posFromWrist_4x_L,posFromWrist_5x_L,posFromWrist_6x_L,posFromWrist_7x_L,posFromWrist_8x_L,posFromWrist_9x_L,posFromWrist_0y_L,posFromWrist_1y_L,posFromWrist_2y_L,posFromWrist_3y_L,posFromWrist_4y_L,posFromWrist_5y_L,posFromWrist_6y_L,posFromWrist_7y_L,posFromWrist_8y_L,posFromWrist_9y_L,posFromWrist_0x_R,posFromWrist_1x_R,posFromWrist_2x_R,posFromWrist_3x_R,posFromWrist_4x_R,posFromWrist_5x_R,posFromWrist_6x_R,posFromWrist_7x_R,posFromWrist_8x_R,posFromWrist_9x_R,posFromWrist_0y_R,posFromWrist_1y_R,posFromWrist_2y_R,posFromWrist_3y_R,posFromWrist_4y_R,posFromWrist_5y_R,posFromWrist_6y_R,posFromWrist_7y_R,posFromWrist_8y_R,posFromWrist_9y_R,posFromBody_0x_L,posFromBody_0y_L,posFromBody_0x_R,posFromBody_0y_R
2,34.020538,-11.59753,-1.109219,-0.658445,0.0,-49.450436,-45.271282,3.910103,-56.87685,6.983643,-61.316357,-8.897324,-61.981773,-89.588242,0.0,39.347301,10.526531,46.813358,24.286005,52.297968,36.451145,59.984906,48.136237,68.03012,0.0,64.313221,23.318195,83.101788,12.340221,78.134937,1.600513,63.674755,-7.82341,42.801647,0.0,16.239864,28.158867,63.696106,44.648388,77.152508,56.558499,85.416875,63.936253,88.534653,27.677565,306.783688,-40.94676,285.528641
3,-12.790146,-3.18274,0.871353,0.107569,0.0,-6.618919,-32.169056,22.891273,-45.700893,17.788353,-50.806389,0.255661,-50.79649,-70.919323,0.0,15.223576,13.251391,48.043179,31.436208,56.073079,45.804912,63.32795,57.673897,70.283763,0.0,63.428822,23.569736,82.921772,12.867737,77.917957,2.088833,63.612728,-7.689514,42.079754,0.0,15.630511,28.249393,63.91075,44.50204,77.140158,56.309398,85.15178,63.731242,88.418562,14.915771,303.613638,-40.047054,285.6489
4,-14.688377,5.999485,-0.396252,0.134245,0.0,18.171501,-17.099361,37.378464,-28.030472,36.678772,-33.831997,25.272217,-34.933319,-37.6367,0.0,-8.477035,7.955985,42.68701,25.704473,55.109834,39.203052,61.521688,50.234392,68.627432,0.0,63.100433,22.578506,83.024826,11.924057,78.665428,1.549644,64.182014,-7.647228,42.827339,0.0,15.785814,28.257112,63.691289,44.856179,77.035491,56.865337,85.354816,64.312004,88.485932,0.250368,309.622494,-40.420332,285.792516
5,28.157959,-0.89606,0.177441,-0.522408,0.0,-49.641151,-47.082253,2.771988,-57.907619,5.711288,-61.543922,-11.014252,-62.061024,-87.990189,0.0,38.701638,8.453755,45.083544,22.207177,50.443171,34.107037,57.37132,45.1808,66.033915,0.0,63.19479,22.485752,82.424526,11.957645,77.884655,1.653843,63.741817,-7.420406,42.778645,0.0,16.398378,28.684857,65.250796,45.063413,78.369053,56.905166,86.365361,64.176277,88.589055,28.427925,308.804517,-40.223293,285.348191
6,-10.636368,-5.302755,-0.664272,0.219584,0.0,-19.334908,-36.756763,19.505424,-49.525852,16.51165,-54.064922,0.001602,-53.83667,-68.356533,0.0,26.426768,12.806047,47.915479,29.156816,56.545779,42.67713,65.038313,54.548955,74.520582,0.0,64.251938,23.061848,83.491745,12.477379,78.635674,2.053986,64.381371,-7.202511,43.335342,0.0,16.406035,28.507078,64.161086,45.044517,77.546044,57.05207,86.126078,64.515595,88.742443,17.826262,303.59323,-40.852861,285.659243
7,-11.620331,7.935731,0.549774,0.373713,0.0,3.521461,-22.709541,27.580147,-34.044285,28.230286,-40.166473,17.038193,-42.2089,-37.737579,0.0,1.550615,8.347235,45.229151,22.623128,54.476152,33.854972,59.810646,43.505944,66.021811,0.0,64.144135,22.26099,82.481232,11.718864,77.799225,1.578026,63.753777,-7.289944,42.724342,0.0,15.646319,26.945657,64.313919,43.615366,77.54308,56.021209,85.512588,63.984912,88.511065,6.300201,311.607399,-40.208817,286.111395
8,23.393555,0.494127,-0.242901,0.092502,0.0,-53.546677,-50.109444,-1.287231,-59.737644,6.089058,-62.336025,-9.411621,-62.474098,-92.691879,0.0,41.855108,4.820546,44.193411,17.124068,48.55052,28.201166,54.647941,38.609445,60.95624,0.0,63.597507,22.581596,83.029575,12.276993,78.774891,2.078533,64.421139,-7.05534,43.158817,0.0,15.536836,27.460285,63.246995,44.074295,77.516465,56.352191,85.407118,64.211783,88.397259,29.757786,312.151389,-40.387688,286.25376
9,-4.158554,-6.836697,0.246906,-0.367847,0.0,-32.324295,-44.164581,10.439529,-55.564213,10.305862,-59.169788,-6.911659,-58.510952,-81.233597,0.0,29.606667,11.815015,47.828782,26.801223,55.737157,39.479261,63.356972,50.536722,71.325925,0.0,63.49514,23.69339,82.628174,13.395939,78.198051,2.887802,63.953934,-6.746407,42.776184,0.0,15.512691,27.725873,63.962867,44.044716,77.716413,56.101052,85.561247,63.883456,88.59276,25.645323,305.335857,-40.09469,285.907078
10,-12.921753,4.861795,-0.873184,-0.093552,0.0,-10.152397,-27.65625,20.405388,-41.25103,18.857574,-48.051968,3.155022,-50.504093,-50.159512,0.0,5.004068,5.582484,44.170378,21.677914,54.899636,34.646118,61.280553,45.710372,66.885082,0.0,64.082451,24.254608,83.744087,14.150677,79.253197,3.803787,64.89418,-5.715466,44.029427,0.0,15.597043,28.483304,63.906675,44.931823,77.259892,56.957283,85.412305,64.621497,88.929053,12.744455,310.208798,-40.946989,285.824672
11,13.27858,7.548988,0.194664,-0.258364,0.0,-57.303543,-49.392471,2.007408,-56.12875,8.703461,-57.077179,-2.015076,-55.882759,-82.027702,0.0,44.980359,4.741382,40.54495,12.92467,43.216149,20.344167,47.106364,27.410761,54.163509,0.0,64.202614,24.178848,83.47332,13.914013,78.606606,3.303337,64.226418,-6.442795,43.274574,0.0,15.559498,28.515661,64.371717,44.801282,77.856648,56.716148,86.293051,64.333246,89.352043,26.050901,317.789387,-40.724459,285.597909
12,-11.459541,-7.917144,0.405865,0.245087,0.0,-33.109818,-37.158508,15.802689,-44.701767,21.739082,-46.288891,8.931084,-44.022846,-54.811649,0.0,37.083407,12.55145,45.668135,24.190847,51.169355,33.720047,56.897385,42.070988,66.483766,0.0,63.913021,24.408989,83.458958,14.157887,78.556881,3.491592,63.993015,-6.350842,43.310223,0.0,15.449274,28.3724,64.25822,44.599482,77.46935,56.427156,85.936628,64.002079,88.962954,14.653416,309.880178,-40.256538,285.850932
13,-13.047867,5.445151,-0.591259,0.997331,0.0,18.84407,-13.916016,38.600807,-23.92416,37.828903,-30.103168,22.886581,-32.227535,-45.244789,0.0,-9.290411,7.034792,41.925627,23.01197,51.798036,35.446527,58.175063,45.846964,65.39628,0.0,65.105667,23.70472,83.133316,14.043617,78.78376,3.978081,64.171143,-5.348511,43.731079,0.0,14.022592,27.81714,62.748669,44.355877,75.458756,56.467232,83.329526,64.454524,87.525219,1.649351,315.254502,-40.803995,286.777435
14,25.650444,-11.419751,0.69128,0.288004,0.0,-40.619488,-44.862099,6.220322,-57.838326,10.743942,-62.725868,-6.767006,-64.04726,-89.263859,0.0,36.001602,8.466352,47.52781,25.449197,53.876432,39.681803,62.287702,52.607522,72.062669,0.0,64.49152,22.868443,82.420406,13.099937,78.43832,3.13797,63.993473,-5.971813,43.450298,0.0,14.046675,27.00117,62.664997,43.470067,75.515937,55.659413,82.979463,63.807689,87.066599,27.396469,303.785814,-40.016041,287.016502
15,-23.992882,-4.085037,-0.334854,-0.275407,0.0,14.959831,-21.027374,32.831154,-35.506496,28.340721,-42.296276,8.07209,-43.66888,-58.065033,0.0,10.80237,13.098744,53.058733,32.6664,63.172956,47.553807,70.390838,59.461448,75.045152,0.0,64.663296,23.060989,82.462063,13.375111,78.634815,3.409939,64.37685,-5.778809,43.627567,0.0,14.180303,27.217976,63.006971,43.664828,75.9958,55.889557,83.417767,64.095693,87.081172,3.425932,299.647934,-40.32855,286.688252
16,-9.996643,3.80858,0.052185,0.063479,0.0,32.052498,-11.646652,51.52462,-23.474293,45.579414,-29.838123,28.292198,-30.963707,-37.339211,0.0,1.811634,12.501186,54.182899,32.000299,62.713904,46.428653,68.556851,57.741884,74.771783,0.0,64.521389,23.308868,82.927265,13.628311,78.758411,3.517456,64.369068,-5.927639,43.508205,0.0,13.974921,27.259411,62.647275,43.562013,75.681428,55.679791,83.191637,63.883209,87.273463,-6.547823,303.438622,-40.253477,286.733839
17,-0.841198,-1.80799,-0.472927,-0.114856,0.0,27.346973,-10.627956,48.390942,-21.477184,44.345684,-27.152653,26.399403,-28.06097,-25.865936,0.0,8.540267,19.244948,50.793542,36.34197,57.956528,48.834078,66.243187,59.208086,76.727357,0.0,64.570312,24.451218,83.677025,14.989586,79.333649,4.772701,64.641037,-5.085983,43.866692,0.0,13.824188,27.876112,62.614671,43.997416,75.545269,55.932165,83.127787,64.084269,87.553563,-7.372398,301.55224,-40.709782,286.540591
18,-3.045044,2.677621,0.126514,0.282323,0.0,29.10593,-7.397518,51.016331,-16.441898,48.678532,-20.39629,32.093983,-20.305367,-11.791248,0.0,10.041852,15.825087,47.982046,31.604602,58.128133,42.418087,65.946229,51.470142,75.989995,0.0,64.777393,24.18251,83.436985,14.749546,79.12405,4.637947,64.593029,-4.999409,43.728733,0.0,13.859756,27.38464,62.41108,43.638213,75.642896,55.667935,83.042942,63.831092,86.985335,-10.400848,304.234539,-40.566673,286.827592
19,-0.653687,0.368341,0.447865,0.197416,0.0,36.107655,-4.042683,53.679142,-14.557743,51.929455,-20.248661,29.778385,-21.831665,-21.64856,0.0,9.504253,15.591979,49.807512,30.1116,58.438923,40.448125,67.656221,48.871746,79.020644,0.0,64.99855,23.835697,82.773857,14.221687,78.993073,4.17326,64.357681,-5.175362,43.696404,0.0,13.852223,27.341909,62.621896,43.600546,75.69736,55.588832,83.013858,63.692401,86.928031,-11.029043,304.595686,-40.093317,287.017814
20,32.502193,-7.094505,-0.180016,-0.474922,0.0,-30.177784,-37.838516,12.252274,-52.163029,15.824089,-59.429398,-2.927284,-62.733536,-76.538544,0.0,32.233777,14.235075,52.203675,31.288316,60.55338,44.517416,69.754192,56.405852,81.927483,0.0,65.28717,24.617271,83.065453,14.926128,79.410439,4.612198,64.579353,-5.127068,43.995209,0.0,14.435209,28.05173,63.196792,44.268253,75.915833,56.130136,83.187191,64.059816,87.345711,21.464796,297.518734,-40.281687,286.560444
21,-16.76445,5.770823,0.163536,-0.099418,0.0,11.877022,-21.150799,34.007378,-34.123764,28.608398,-39.828758,11.55304,-40.629559,-54.84621,0.0,-2.804642,14.191418,51.038939,33.420496,56.766227,47.288404,63.759585,58.473503,68.07211,0.0,66.09478,24.663105,83.022537,14.929962,79.619865,4.622326,64.871063,-4.989166,44.319077,0.0,14.128433,28.720425,63.481461,44.957449,75.797581,56.727448,83.138655,64.440754,87.612658,4.683037,303.284848,-40.13546,286.456317
22,-6.923561,5.141278,-0.353565,-1.183941,0.0,26.456566,-11.734085,43.948174,-23.488541,38.539009,-30.26041,17.384834,-32.565308,-45.853443,0.0,-0.145731,13.594662,50.32004,30.847418,54.752114,43.16854,60.600002,53.599419,66.095356,0.0,66.151257,25.346546,81.962872,15.653343,79.918842,5.477085,65.429134,-4.133892,44.906902,0.0,14.56896,30.475496,64.59618,46.898759,76.95818,58.487273,84.982214,65.612839,89.033041,-2.238293,308.290645,-40.486794,285.136896
23,-1.466217,-3.225039,-0.432472,-3.568124,0.0,30.740547,-11.395912,43.681526,-21.319771,42.255135,-26.46349,23.171196,-27.586155,-42.622433,0.0,4.424479,14.999854,56.704168,32.381113,59.752354,44.902738,65.553929,55.477002,72.888766,0.0,65.182629,26.504002,80.305996,16.435947,78.845158,5.600109,63.487415,-4.904308,42.754955,0.0,16.586161,32.580999,71.358097,48.780602,85.370192,60.075062,91.66756,67.176853,93.739225,-3.709116,304.783376,-40.923872,281.286542
24,4.840393,0.912548,0.176811,-8.398488,0.0,16.659737,-11.920052,32.677574,-22.612667,12.07901,-28.347702,-25.043564,-30.830269,-45.532951,0.0,-8.21262,9.126279,45.116518,27.279233,61.367745,41.855294,67.501784,54.244711,68.096811,0.0,61.959171,28.486118,78.131847,16.986923,72.84399,3.890076,54.430447,-8.864822,31.733265,0.0,16.162306,34.189536,73.703377,50.078534,92.899481,60.533497,97.875206,66.584913,94.446329,1.122665,305.495081,-40.755672,272.68721
25,17.016563,3.008418,10.650787,-4.010072,0.0,-32.917213,-37.062721,-85.212936,-32.10022,-81.080132,-23.370552,-67.645168,-11.521339,-46.313782,0.0,-25.770793,19.274341,37.131264,32.022961,56.696203,40.922801,65.104818,48.002115,71.20335,0.0,36.057415,27.553997,21.240578,18.373947,-5.927124,4.808979,-23.030205,-11.747646,-34.104137,0.0,31.158146,21.946961,82.803968,31.110784,100.326265,39.697734,102.022734,45.879445,90.842204,17.947798,308.557361,-30.296316,268.731
26,-4.579353,-25.612342,-30.966625,-13.925768,0.0,-64.057388,-31.126785,-84.411163,-21.699142,-79.381886,-11.511269,-70.507107,-2.453728,-52.560883,0.0,-7.963457,29.195718,62.760834,47.868425,80.295419,62.307215,90.159801,72.01401,99.74896,0.0,61.90464,51.733074,59.265518,54.704819,54.819374,52.357807,50.25444,45.218182,53.566532,0.0,40.444173,14.045069,81.421191,-0.545256,71.733601,-13.021124,40.934904,-23.216549,10.948039,13.256521,283.754042,-61.374865,255.614256
27,6.926651,1.86054,-22.72871,-46.345784,0.0,-65.978222,-33.139973,-90.574608,-24.807243,-89.93454,-14.824562,-75.123196,-4.238205,-52.234097,0.0,25.451853,30.084307,61.731887,47.282784,82.170532,59.606438,91.145214,67.778734,93.518591,0.0,89.381275,48.067017,92.070179,52.314262,97.043896,52.575645,89.910564,49.41925,80.285854,0.0,14.169435,2.089881,17.079917,-23.228714,-4.70816,-43.529903,-21.351625,-58.243483,-36.44429,20.082579,285.947108,-84.204168,209.600998
28,-0.572548,-0.708771,-3.211441,-126.858966,0.0,-65.189381,-33.471165,-90.667133,-25.311813,-88.246937,-15.418167,-75.11198,-4.627991,-53.10997,0.0,24.444703,28.767232,63.042231,45.761378,81.89142,58.330242,90.134236,66.952081,95.168376,0.0,84.424381,40.148048,67.757092,33.388596,62.032356,24.253349,51.385746,15.415134,36.716824,0.0,13.116127,6.039406,22.035573,31.472796,39.083843,55.469376,56.659924,76.676752,65.341044,18.872509,286.04208,-88.053131,83.545776
29,-1.879578,-0.250768,-31.939716,-53.800602,0.0,-64.015903,-32.923336,-89.916229,-24.865494,-88.018742,-15.03685,-74.986267,-4.145279,-52.49588,0.0,23.891914,29.417464,62.72576,46.163867,81.637564,58.275099,90.415077,66.113573,95.021843,0.0,67.646999,39.960938,92.489834,42.822075,53.257198,41.255894,46.380787,37.367077,41.476307,0.0,-21.169245,-5.872217,-20.706642,16.640347,11.567303,38.280192,30.856743,57.622057,46.557001,15.824575,285.073463,-121.161203,29.027325
30,-0.434303,0.07021,-36.411381,-43.926804,0.0,-62.824917,-33.653126,-89.578629,-25.685062,-87.529736,-15.684013,-73.907146,-4.371414,-52.10598,0.0,23.53617,28.753956,61.643522,45.426691,80.57095,57.801103,89.761387,66.225279,94.518886,0.0,78.417778,32.935295,105.299892,37.315521,61.759472,40.592365,53.184643,43.613148,48.562431,0.0,-25.796852,-31.187879,-45.235172,-17.174395,-5.982473,0.772806,9.616145,19.364343,20.084198,12.948418,285.270817,-160.014439,-14.772335
31,-0.598984,-0.794543,26.203079,-25.093577,0.0,-61.687431,-33.207092,-89.311867,-25.948906,-87.919121,-16.442413,-74.373608,-5.399208,-52.24474,0.0,22.681544,29.045356,61.53163,45.832329,80.212303,58.220697,89.687039,66.592509,94.475784,0.0,27.620831,13.955097,53.833752,1.175823,23.169022,-10.053978,9.141026,-19.948654,-0.043316,0.0,-51.380665,-51.04959,-81.776318,-55.708566,-49.761292,-54.488224,-42.439731,-50.431129,-40.694324,10.362597,286.297294,-135.798197,-38.044892
32,0.237236,-0.034827,-18.60054,-48.550273,0.0,-62.106056,-34.237633,-89.977398,-27.053833,-88.593063,-17.476158,-75.317345,-6.401367,-53.297424,0.0,22.313697,29.37677,61.611968,46.406299,79.679953,58.817144,88.606716,67.14783,93.9091,0.0,31.490993,13.556499,49.168968,0.170174,22.344074,-11.599846,7.488384,-21.596661,-2.200584,0.0,-57.473115,-51.61226,-71.640852,-54.107733,-45.206828,-51.385729,-33.796433,-45.473158,-31.247808,3.372431,286.697036,-161.626139,-86.160597
33,0.945969,-0.457571,-23.137722,-34.427491,0.0,-63.353405,-34.134979,-91.397839,-26.912899,-89.143238,-17.427177,-76.678905,-6.627274,-55.101585,0.0,22.365382,29.172315,60.976124,46.377029,79.739542,58.962381,88.836551,67.373034,94.101638,0.0,40.22192,17.679005,43.93919,10.245724,34.754677,2.66573,20.700417,-5.343819,9.631748,0.0,-56.945165,-27.177036,-66.32655,-23.577604,-58.834249,-20.022293,-45.1067,-15.621125,-38.583124,-2.642527,286.196502,-191.724787,-120.631051
34,0.803375,-0.442874,-24.972038,-41.79288,0.0,-63.782959,-34.302177,-91.318645,-27.290096,-89.796638,-18.027992,-77.78183,-7.380638,-56.335888,0.0,22.029151,28.597357,60.342441,45.956324,79.113455,58.796149,88.508224,67.515739,93.651972,0.0,51.185017,8.025055,59.584293,11.470757,28.432446,16.649265,26.181965,23.0159,24.452133,0.0,-50.82556,-46.98419,-63.237995,-37.317642,-27.135215,-23.682765,-9.577458,-9.068465,0.390787,-5.589666,285.539879,-220.44734,-162.637679
35,1.211128,-0.216929,-16.30188,-18.470459,0.0,-64.608021,-34.833698,-91.478119,-28.113956,-89.982433,-19.119186,-78.164635,-8.635368,-56.561909,0.0,21.292468,28.160102,59.176902,45.414217,78.316072,58.176483,88.091347,66.852602,93.239602,0.0,53.60218,7.179165,66.638489,17.185707,33.79755,28.068352,35.444984,38.206444,39.622192,0.0,-50.842263,-39.080585,-73.12598,-26.862217,-31.041052,-13.967171,-15.010738,-1.706581,-6.486047,-6.568279,285.095014,-238.938961,-181.336075
36,-0.25177,-0.228724,-6.963272,-7.873502,0.0,-63.977509,-34.701347,-90.906715,-28.031673,-89.345741,-19.079247,-77.654457,-8.445053,-56.639214,0.0,20.869416,28.196226,58.733596,45.30319,77.935195,58.083302,87.752584,66.944116,92.607155,0.0,49.773731,5.064869,66.094837,13.646965,33.846359,24.183083,36.78875,35.196705,43.390274,0.0,-52.070217,-42.763117,-78.978638,-31.838466,-33.73547,-18.583123,-18.966963,-4.629506,-10.080708,-9.076939,284.521322,-248.159122,-189.554545
37,0.97126,0.653258,-3.216877,-2.072637,0.0,-63.709373,-35.131588,-92.134666,-28.506947,-91.139431,-19.449577,-78.190784,-8.768806,-56.815166,0.0,19.634717,27.604225,56.9868,44.993573,76.501659,57.959307,87.124397,66.895395,92.747143,0.0,46.565037,4.723034,65.024643,12.767715,34.468174,22.983227,39.464264,33.917313,45.261097,0.0,-51.302072,-43.380019,-80.399507,-33.019242,-34.358547,-19.867485,-18.344288,-6.006355,-8.075719,-10.478067,284.889478,-253.748388,-191.912284
38,-0.207939,-0.308937,4.444485,2.658417,0.0,-63.515339,-34.897842,-91.79472,-28.267536,-90.976982,-19.163017,-78.225346,-8.575859,-57.250271,0.0,18.864689,27.419591,56.691262,44.825797,75.873843,57.984069,86.253099,66.983265,92.150325,0.0,51.487656,4.667416,64.598408,12.607613,33.964691,23.256226,38.100071,34.653454,42.929077,0.0,-53.14472,-43.148502,-75.828533,-32.851497,-33.701152,-19.480032,-17.216972,-5.736428,-6.76167,-12.48373,284.303713,-251.101627,-189.530694
39,0.50869,0.084969,11.776829,7.959489,0.0,-64.186592,-34.987621,-92.719746,-28.549404,-91.728001,-19.800339,-79.788837,-9.571953,-58.338318,0.0,18.302699,27.127635,55.814654,44.699888,75.07825,57.983266,85.120905,67.076076,92.04078,0.0,55.009747,9.644909,64.902935,19.320087,38.864021,30.709705,42.01767,42.37833,45.827293,0.0,-52.455817,-40.961673,-62.027594,-30.717928,-29.340446,-17.172342,-14.771764,-3.072438,-3.26337,-13.79302,283.780672,-241.142778,-182.179215
40,0.373878,0.153697,16.88261,13.679677,0.0,-64.310303,-35.340271,-94.052696,-29.138145,-93.068275,-20.47554,-80.760956,-10.246239,-59.054146,0.0,18.138134,26.164823,55.286564,43.590419,74.616296,56.865707,84.964368,66.184215,91.04209,0.0,58.156071,19.756222,76.815147,27.968616,45.554695,36.033669,46.52235,43.199387,48.016376,0.0,-39.296279,-38.854656,-47.134105,-27.907481,-20.751689,-12.677884,-7.076474,4.14248,4.810172,-15.785236,283.232066,-226.626263,-169.201841
41,-0.453758,-0.599905,23.019733,17.046371,0.0,-64.668617,-35.508785,-93.892021,-29.242287,-92.705956,-20.442238,-80.044785,-9.998817,-58.197212,0.0,18.427928,26.106963,56.769624,43.460063,75.413493,56.742948,85.719884,66.149203,91.023442,0.0,56.850758,22.228203,79.445171,28.615551,51.530056,34.9506,49.776192,40.836639,49.146309,0.0,-33.399902,-37.596198,-35.618934,-26.999673,-13.837835,-11.977419,-1.329054,4.840152,8.383869,-19.436703,280.838543,-206.804237,-153.949088
42,-0.390244,0.184263,7.436886,9.327461,0.0,-64.425659,-34.405804,-94.688072,-28.176498,-93.209381,-19.570312,-80.098686,-9.383011,-57.804451,0.0,18.018647,25.397574,56.507926,42.468105,75.205765,55.714556,85.394953,65.207138,90.533329,0.0,55.728951,25.954571,80.025959,33.55505,48.389683,40.840988,47.74807,47.439423,49.49461,0.0,-24.180906,-36.727354,-41.849242,-25.213897,-15.864514,-10.345602,-0.886288,4.77712,10.767188,-21.648932,280.025984,-201.189337,-145.618448
43,-0.715141,-0.77682,1.29118,-6.241485,0.0,-64.57283,-35.145664,-93.835087,-28.662014,-92.292709,-19.702721,-80.171528,-9.016228,-57.919178,0.0,18.047422,26.515627,57.361193,43.56047,75.614491,56.623584,85.255027,65.947155,90.832633,0.0,52.1731,15.062141,71.592522,22.037773,40.244923,29.724197,39.855995,37.541027,43.004894,0.0,-33.751154,-38.762169,-49.984566,-28.983575,-19.585533,-15.834596,-4.3455,-1.500597,6.182528,-23.246613,278.536348,-200.780697,-152.572748
44,-0.122566,0.339195,-13.114929,-6.634773,0.0,-64.210854,-35.005703,-93.800125,-28.541851,-92.188969,-19.692764,-79.681435,-9.291,-57.85183,0.0,17.588123,25.356757,56.691077,42.609205,75.397315,55.976995,85.217668,65.591102,90.410816,0.0,36.712418,14.502296,59.606838,21.323948,47.04483,28.509407,40.682716,36.83115,44.554996,0.0,-31.223432,-36.474533,-65.579262,-29.464163,-38.689242,-18.996557,-14.576494,-6.428727,-7.650567,-23.2798,278.637279,-213.806248,-159.445785
45,0.318604,0.142211,-9.189777,-12.86204,0.0,-64.097385,-34.638233,-92.87075,-28.575039,-92.255001,-19.955292,-79.669819,-9.685593,-58.166771,0.0,17.492286,24.921355,56.130013,42.07636,75.171802,55.510162,84.995428,65.415793,90.857086,0.0,39.433994,12.562008,51.187763,18.027191,39.812679,22.808876,35.4352,29.144096,37.96051,0.0,-39.907995,-31.482213,-69.297501,-26.371116,-44.069864,-18.639038,-20.670549,-8.80902,-13.476333,-23.029861,279.656593,-223.06469,-171.430722
46,0.038109,0.02118,-14.153709,-15.424358,0.0,-63.479919,-35.028076,-92.318516,-28.610573,-90.604992,-19.681091,-78.694267,-8.969765,-57.518349,0.0,17.816105,24.961307,55.899807,41.962801,75.090909,55.32417,84.938494,65.283832,91.044993,0.0,40.191078,10.247211,52.015457,16.315041,39.045753,21.859074,35.70631,29.552593,39.134903,0.0,-47.635163,-30.574528,-69.564047,-23.904356,-40.71552,-14.881278,-17.810255,-4.817227,-11.32325,-23.294849,280.872135,-237.521496,-185.660718
47,0.896759,0.353336,-14.060211,-13.296083,0.0,-63.731689,-35.237103,-92.456703,-28.886318,-90.892181,-20.087471,-79.00589,-9.663849,-58.457565,0.0,17.323028,24.561782,55.605875,41.571736,74.199233,55.011775,84.343344,65.084131,90.276509,0.0,41.768818,7.29269,57.171707,16.874943,40.424652,26.456852,39.954243,36.869717,44.121838,0.0,-47.762168,-33.779914,-72.086366,-24.893938,-35.757363,-13.33548,-16.354489,-0.91934,-9.286506,-22.545404,281.773459,-251.729021,-198.408813
48,0.015793,-0.199083,-8.895092,-6.318194,0.0,-63.580399,-35.089874,-92.540359,-28.722782,-91.537685,-19.783173,-79.29348,-9.175415,-58.221016,0.0,17.600473,24.590496,55.284156,41.648986,74.281114,55.088284,84.644439,65.154218,90.752666,0.0,41.714802,7.975731,65.538597,16.919403,35.823441,27.058525,39.900627,38.035641,46.958313,0.0,-45.612714,-39.508099,-72.782602,-29.538371,-28.961576,-16.412086,-14.376221,-2.214756,-5.961894,-22.873449,281.783494,-260.967951,-204.517889
49,-0.382233,-0.599041,2.051754,0.470847,0.0,-63.949871,-34.295483,-92.762318,-27.30835,-90.353737,-17.92305,-77.727528,-7.103119,-57.184181,0.0,18.292139,24.978721,55.55382,42.567523,74.757272,56.21035,85.114607,66.195762,90.799411,0.0,46.582146,8.90173,69.990692,18.593502,39.589691,29.316216,43.739262,39.665966,47.809124,0.0,-43.009641,-39.496521,-68.678391,-28.862822,-29.703461,-15.426117,-14.923793,-1.557531,-5.027225,-23.613367,281.257457,-259.273882,-203.974038
50,-0.101051,0.106766,9.190292,6.602894,0.0,-63.499432,-34.514866,-93.176765,-27.658081,-91.42067,-18.083839,-78.244858,-6.733475,-56.910496,0.0,17.886686,25.074187,55.899869,42.44643,74.836127,55.948529,85.483565,65.859593,90.526907,0.0,51.898727,10.099525,69.706078,19.243584,39.828186,30.079708,42.591305,41.723614,47.544422,0.0,-45.218607,-38.19987,-63.263035,-27.424176,-27.877177,-13.492249,-11.702876,0.708679,-1.402954,-23.825369,281.40748,-250.19454,-197.327888
51,-0.536041,0.210816,14.054031,11.574142,0.0,-63.055401,-34.58416,-93.021355,-27.934971,-91.787281,-18.501778,-78.260593,-7.318039,-56.83588,0.0,17.812153,24.987304,55.626624,42.322189,74.473652,55.759017,85.05829,65.679467,90.442062,0.0,54.313717,16.085186,69.020576,23.935146,43.736687,32.746468,43.840027,41.219616,46.011944,0.0,-39.934686,-37.143614,-49.53916,-25.143903,-20.989552,-9.465505,-7.268286,7.036676,5.040918,-24.625053,281.405535,-236.404152,-185.966506
52,-0.165939,-0.003335,16.401443,16.850236,0.0,-63.299389,-35.033283,-93.681107,-28.396854,-92.148342,-18.994331,-78.363247,-7.891731,-56.932182,0.0,17.910707,25.172679,56.51867,42.508551,74.994887,55.921605,85.389149,65.796546,90.436195,0.0,49.328499,19.992199,76.963463,25.050373,53.486824,30.486145,49.089546,35.46896,48.463039,0.0,-33.140257,-34.232236,-35.493874,-24.212676,-12.953986,-9.443892,-1.527937,7.205285,7.127557,-25.213366,280.580657,-220.425081,-169.937813
53,0.232315,-0.491842,16.96146,17.474379,0.0,-63.195763,-35.44138,-94.678345,-28.75145,-91.854343,-19.361115,-78.506355,-8.257599,-57.065334,0.0,18.263919,25.505884,56.962779,42.85139,75.397871,56.253082,85.83721,66.146053,91.087847,0.0,51.204643,21.497955,76.272469,28.467636,49.703808,35.037003,49.835243,40.964699,49.453125,0.0,-30.241956,-35.326685,-33.369506,-24.953218,-13.182601,-10.363711,-0.344861,5.978412,9.761752,-26.640759,278.739291,-205.123329,-153.812959
54,-0.21595,0.13301,8.020477,10.203978,0.0,-62.698174,-35.20792,-94.051666,-28.53075,-92.750759,-19.12365,-79.266472,-8.061562,-57.621574,0.0,17.209778,24.584568,56.393625,42.106865,74.865458,55.746975,85.114298,65.864842,90.526968,0.0,53.282375,22.849445,73.520622,33.104382,48.467789,42.222805,49.132233,50.514164,51.448402,0.0,-27.494587,-35.403333,-39.621473,-24.157641,-16.727044,-9.348935,-1.935628,6.269118,10.259399,-28.13653,278.300678,-198.382673,-144.180605
55,-0.961418,0.342221,4.033012,3.459351,0.0,-62.444458,-34.606819,-92.972488,-27.808685,-91.233788,-18.282394,-77.978954,-7.158508,-56.441288,0.0,17.680748,24.380915,56.912144,41.62799,75.161119,55.186281,85.217174,65.270618,90.467626,0.0,53.805256,19.414387,70.598717,30.81419,44.935856,40.741711,46.405163,49.199581,50.009651,0.0,-28.226052,-36.48486,-43.644774,-26.661543,-18.662333,-13.032718,-4.465373,1.231365,5.554758,-29.759159,278.439045,-195.010872,-140.925108
56,0.389328,-0.309308,0.129547,-2.720445,0.0,-62.28899,-34.589252,-93.267231,-27.960033,-91.70208,-18.522263,-77.97123,-7.347221,-56.20491,0.0,18.059958,25.006385,57.044845,42.13422,75.092762,55.456995,85.223905,65.201766,90.579086,0.0,48.624401,18.82267,69.88163,30.017567,44.059753,39.902573,46.035404,48.295441,50.137367,0.0,-28.911929,-35.953992,-48.071569,-26.9761,-20.319899,-14.411728,-7.353069,-0.982696,1.377652,-29.939375,278.09403,-195.450869,-143.68126
57,0.498047,0.334564,-0.90477,-5.53012,0.0,-61.900406,-34.637432,-93.130245,-28.010044,-91.593075,-18.49102,-77.513409,-7.120743,-55.54842,0.0,17.605722,24.964457,56.912946,42.185844,75.289869,55.538629,85.479428,65.261664,90.237853,0.0,49.106426,19.215717,69.590378,29.902954,44.447021,39.434624,46.207924,47.520447,49.887486,0.0,-29.134524,-34.983646,-46.173114,-25.112349,-19.726694,-11.982667,-7.336289,1.784016,1.568862,-30.170317,278.418992,-197.084627,-149.220982
58,0.178986,0.602622,-0.497074,-2.955946,0.0,-61.417122,-33.513336,-91.877003,-27.060814,-90.65094,-17.946739,-76.671467,-6.94725,-55.284462,0.0,17.16785,24.551779,55.732526,41.761618,74.539972,55.299593,85.088486,65.264072,90.574763,0.0,51.580353,20.295467,70.531826,31.928844,44.241486,41.948318,46.564579,50.271034,50.462093,0.0,-29.333499,-36.064911,-46.533644,-26.208141,-20.122437,-13.068286,-6.803213,0.552342,2.767792,-30.738859,278.914462,-198.329229,-152.28408
59,0.9795,0.343641,-0.047722,0.000726,0.0,-61.84473,-33.534393,-91.677647,-26.950264,-90.90517,-17.631798,-76.240711,-6.448746,-55.096664,0.0,17.262513,24.259823,55.477558,41.382965,74.62173,54.750138,84.976533,64.601552,90.038214,0.0,45.810242,19.491577,72.180405,30.611858,48.183861,40.346661,48.227577,48.577595,50.935879,0.0,-30.19697,-37.782514,-47.098336,-27.831744,-19.835097,-14.08882,-6.250932,0.5849,2.524943,-30.27606,278.973742,-198.893652,-152.567715
60,0.144768,-0.200874,1.516285,-0.536287,0.0,-61.07111,-33.481407,-91.551991,-26.607285,-90.374393,-17.002945,-76.138172,-5.566177,-53.986816,0.0,17.392683,24.414322,56.215661,41.548271,74.535711,54.928535,85.23502,64.827682,90.39754,0.0,50.117569,19.315224,70.49572,30.965137,45.480709,40.994625,46.170444,49.341373,49.495068,0.0,-31.295896,-38.243821,-46.198154,-28.523519,-20.004463,-15.08666,-6.387725,-1.017045,2.956255,-30.194921,278.60327,-197.440996,-153.2736
61,0.084915,-0.3944,0.605907,-0.92692,0.0,-60.607281,-33.539944,-90.702724,-26.623535,-90.155525,-17.063026,-76.236534,-5.602455,-54.047585,0.0,17.199157,24.889924,56.219428,41.86363,75.441219,55.231977,85.763727,65.277657,91.337628,0.0,52.405758,18.308887,70.268898,28.933468,45.181046,38.577061,46.03529,46.771374,49.255486,0.0,-31.43028,-37.467773,-43.666047,-27.182192,-18.146408,-13.359856,-3.875286,1.056627,6.440707,-30.355339,277.806335,-197.080421,-154.603055
62,0.426865,0.428918,-1.156082,0.803944,0.0,-60.142879,-33.554077,-90.288048,-26.782265,-89.907532,-17.318802,-76.242313,-5.884209,-54.330997,0.0,17.092699,24.854664,55.650706,41.760075,74.61432,55.09699,85.095896,65.038313,90.913279,0.0,47.266903,19.338398,71.495132,30.599213,47.304096,40.526047,47.22353,48.901749,50.035172,0.0,-29.052689,-37.995646,-45.238475,-28.47611,-18.556308,-15.103966,-4.058654,-0.803589,6.055786,-29.983721,277.974574,-198.29175,-154.059791
63,0.810928,0.00142,-0.542221,1.610929,0.0,-60.847549,-34.258518,-90.766354,-27.454491,-90.043831,-17.748756,-76.465359,-6.080017,-54.452248,0.0,16.714972,25.384112,56.322983,42.446739,75.338899,55.712642,85.563841,65.52824,90.973856,0.0,46.514912,19.60453,71.264076,31.286144,48.175907,41.513214,48.231297,50.040092,51.305809,0.0,-29.868381,-39.23104,-47.109297,-29.869894,-19.273122,-16.512369,-4.912878,-1.993535,4.990576,-29.173222,277.864612,-198.8344,-152.560244
64,0.993919,0.136962,0.657177,1.957365,0.0,-61.480064,-34.69162,-91.349545,-27.922783,-90.430527,-18.338356,-77.028065,-7.048988,-55.820847,0.0,17.48537,25.663101,56.843045,43.050164,75.064295,56.688237,85.603855,66.708723,91.390054,0.0,52.238503,18.738499,70.005112,31.211128,43.696861,42.149563,46.038322,51.298313,50.650806,0.0,-31.994772,-37.961544,-48.431867,-28.378915,-20.169846,-15.326684,-5.930911,-1.838341,4.314316,-27.95145,277.65639,-197.949371,-150.948064
65,1.036835,0.303874,-0.74707,2.679906,0.0,-61.110249,-33.835201,-90.788155,-27.332954,-89.429626,-18.179283,-75.911694,-7.384758,-55.402908,0.0,17.59368,25.751466,56.124023,43.583997,75.38305,57.416459,85.826774,67.334749,91.795013,0.0,52.084637,19.293938,70.055866,31.189041,46.594276,41.611004,47.386036,50.304909,51.024284,0.0,-31.388475,-38.147243,-47.631906,-28.397841,-19.852402,-14.992383,-5.563866,-0.906666,5.052048,-26.323729,277.424208,-198.105555,-148.804213
66,0.311508,0.376616,-1.274014,4.557829,0.0,-61.072025,-33.821182,-90.702553,-27.024193,-89.795151,-17.587051,-75.937443,-6.574516,-54.994583,0.0,17.563855,25.64544,56.679839,43.129081,74.023183,56.977414,85.796146,67.132331,92.164157,0.0,49.500275,19.216919,71.858082,31.337013,47.734852,41.773796,47.607708,50.423412,51.202011,0.0,-30.886722,-38.576409,-50.694232,-28.648718,-21.204922,-15.050428,-6.539369,-0.543187,3.887219,-25.092974,277.212543,-198.460321,-144.834665
67,1.324997,-0.140667,1.449966,3.935292,0.0,-61.7589,-33.323593,-90.788212,-26.094131,-89.916744,-16.510963,-75.805378,-5.633583,-54.775257,0.0,19.024808,26.042989,57.62709,43.675449,74.36491,57.573429,86.232042,67.702966,93.471846,0.0,56.137505,17.67786,68.797359,27.660313,44.688435,37.264309,45.321751,45.850239,48.719044,0.0,-33.604929,-36.848539,-47.628016,-25.927701,-19.567841,-11.699634,-4.210297,3.369689,7.192163,-21.306324,277.076846,-194.548702,-140.894402
68,0.876732,0.381247,-1.45174,8.69452,0.0,-61.420898,-33.553619,-90.424461,-26.329994,-89.225006,-16.675301,-74.772148,-5.519142,-53.696308,0.0,18.917733,26.518961,57.534279,44.191929,74.728187,57.940226,87.020533,67.773547,93.608191,0.0,50.572414,18.829765,71.20863,29.566841,44.835033,39.500027,45.869808,48.338928,49.969368,0.0,-32.093356,-37.161197,-51.097215,-26.433036,-21.534561,-12.250849,-5.927237,3.005053,5.60984,-17.241068,277.824876,-192.811918,-131.8331
69,2.198067,0.211619,0.087891,10.490376,0.0,-62.994347,-33.549042,-91.278706,-26.370049,-90.398026,-16.776924,-76.201515,-5.81955,-54.746532,0.0,19.239885,26.964738,58.759531,44.646042,75.36891,58.341789,87.263336,68.087425,94.431447,0.0,46.303482,19.332504,69.518509,29.737701,44.791603,38.785286,45.727158,46.697674,48.850594,0.0,-33.103284,-35.098903,-50.15035,-23.310873,-18.67033,-8.046326,-2.922585,8.250627,7.751467,-11.828928,279.807388,-189.509954,-119.571831
70,0.749245,0.535006,4.332447,12.304233,0.0,-62.865715,-33.68454,-91.480579,-26.070442,-90.595894,-15.92926,-75.096588,-4.590569,-53.520012,0.0,19.883818,27.567916,59.866777,44.909963,76.752119,58.183091,88.252701,67.454298,93.68896,0.0,50.21822,15.209427,65.582428,25.246696,42.454948,35.028191,42.782192,44.003735,45.547199,0.0,-33.338461,-31.9626,-50.492586,-19.342946,-17.172543,-3.727162,-0.556032,12.646793,9.49817,-5.713778,283.101386,-179.811602,-104.508605
71,1.169014,0.274728,1.61974,11.985508,0.0,-63.726768,-32.274971,-91.167698,-24.524574,-89.812317,-14.657364,-74.769745,-3.95153,-54.036484,0.0,21.520266,28.504175,60.501078,45.919274,78.073948,59.050807,89.875378,67.916808,94.62312,0.0,46.579742,21.001511,67.594872,29.297676,42.65728,36.187305,42.472229,41.837826,43.309822,0.0,-30.211852,-26.144167,-44.945747,-13.448221,-9.900166,3.388492,6.163648,21.347457,18.368802,-0.652571,285.557154,-174.299669,-90.342057
72,0.082283,0.530745,7.633324,15.517909,0.0,-63.082409,-31.330261,-90.497761,-23.543472,-89.414635,-13.567772,-74.12384,-2.550201,-52.124691,0.0,21.159026,28.755253,60.624517,46.060373,78.269141,58.920144,90.314485,67.412246,95.180356,0.0,47.05965,16.790714,65.211868,22.44112,38.769035,27.625523,38.261833,32.239265,37.638588,0.0,-29.285164,-18.736773,-39.604584,-5.082028,-5.985375,11.188897,9.616114,27.65378,22.096798,2.987852,288.041728,-163.108206,-72.870318
73,0.642242,0.556803,-2.396336,35.033541,0.0,-63.888702,-30.633316,-89.726772,-22.646713,-88.479595,-12.932968,-73.743954,-2.512321,-52.52821,0.0,22.184083,29.580053,61.367621,47.244746,78.555107,60.314159,90.28361,68.829356,95.876468,0.0,48.972359,23.816557,71.209975,31.665802,43.739519,37.769966,41.96374,42.692128,42.692728,0.0,-30.049742,-22.385852,-48.429351,-8.755004,-13.519682,7.010324,3.835719,23.232774,15.88764,6.995344,289.109053,-162.139292,-37.326256
74,1.144409,0.622629,-2.396335,35.03354,0.0,-64.481163,-30.89756,-90.423775,-22.960739,-88.980217,-13.327103,-74.197197,-3.114166,-52.184143,0.0,22.013651,30.241276,62.460418,47.736712,79.062016,60.502807,90.142449,68.645586,95.217283,0.0,50.885067,30.8424,77.20808,40.890484,48.710003,47.91441,45.665646,53.144989,47.746868,0.0,-30.81432,-26.034931,-57.254117,-12.427981,-21.053988,2.83175,-1.944675,18.811769,9.678482,12.095232,289.408774,-160.580149,-2.615624
75,0.663643,0.902606,10.142498,17.933462,0.0,-66.02829,-31.489677,-90.176525,-23.293419,-89.069481,-13.390503,-74.605408,-3.026161,-53.147163,0.0,22.737304,30.296358,62.079109,48.079365,79.351564,61.081408,90.790334,69.441302,96.108094,0.0,50.106812,22.792797,71.43631,29.633102,44.189816,34.64756,41.957817,38.207188,39.205227,0.0,-35.067472,-20.949507,-51.273034,-5.979879,-10.217069,11.143757,6.895669,29.620839,20.477888,16.550961,288.341032,-146.645565,13.34749
76,0.168343,0.353645,7.289486,18.806922,0.0,-65.044327,-31.068878,-89.202461,-22.980995,-87.915287,-13.105316,-72.797298,-2.490807,-50.659847,0.0,23.093851,31.124986,62.53705,48.38787,78.981679,60.820883,90.53197,68.606622,96.786731,0.0,42.218113,21.71814,71.790504,27.754841,48.639908,31.712437,43.055191,34.740601,37.194042,0.0,-23.298801,-11.40419,-36.343761,0.176761,-6.233117,12.970211,6.646536,26.208048,16.677829,18.886814,288.007673,-137.188568,31.467408
77,-0.405121,0.755022,4.735422,35.058194,0.0,-64.375362,-30.398026,-89.08968,-21.884422,-88.188572,-11.665649,-73.552723,-0.744438,-51.039963,0.0,22.744467,30.440977,62.555637,48.145623,79.063993,60.964823,90.557473,69.085805,97.54552,0.0,60.102024,21.603756,67.685451,25.049658,44.654102,27.862987,40.077925,30.556755,35.74625,0.0,-30.81733,-16.57452,-27.100326,-1.027279,-0.341294,15.776968,15.862585,32.736765,28.174228,21.506681,289.198468,-129.428158,66.961375
78,0.530891,1.165107,4.735422,35.058195,0.0,-64.660034,-31.024704,-89.406681,-22.595787,-88.604965,-12.408142,-73.95647,-1.504326,-51.855469,0.0,21.508286,30.477719,61.983026,47.918875,78.370474,60.683859,90.261874,68.882893,97.254429,0.0,77.985935,21.489372,63.580399,22.344475,40.668297,24.013538,37.100658,26.37291,34.298458,0.0,-38.33586,-21.744852,-17.856892,-2.23132,5.550528,18.583725,25.078633,39.265481,39.670626,24.837627,290.813257,-121.892681,102.469251
79,-0.671883,0.045572,8.98859,21.962954,0.0,-64.579868,-30.361176,-89.440269,-21.550941,-88.35783,-11.015968,-73.261242,0.048523,-50.481892,0.0,22.381993,31.087751,64.526649,48.069176,80.064349,60.393323,91.692075,68.049633,97.640739,0.0,76.984291,18.845615,46.462612,17.592831,38.18716,18.16103,35.21553,19.402599,27.296791,0.0,-31.388568,-16.171136,-2.683364,3.961845,14.789594,25.326808,30.702614,46.578645,43.903555,25.845051,291.434388,-111.224785,125.007766
80,-1.125984,0.049153,11.413193,30.948442,0.0,-63.949528,-30.971146,-89.099808,-22.052994,-87.646523,-11.326675,-73.351822,-0.038109,-50.187836,0.0,22.842589,32.156898,63.602739,49.360562,79.764736,61.541696,91.403269,68.867517,97.945292,0.0,72.977428,21.318855,36.33997,16.489162,31.466217,12.253647,26.386814,8.814526,17.360287,0.0,-29.153975,-22.196433,7.724112,-6.799276,19.169366,11.854844,29.15978,31.969794,34.946719,26.4816,292.983336,-98.049059,157.456002
81,-0.621758,0.664064,6.520214,22.314005,0.0,-63.627434,-30.711594,-88.800774,-21.938095,-87.585526,-11.436768,-73.292084,-0.382805,-50.259991,0.0,22.344387,31.417066,62.848952,48.824569,79.203734,61.229733,90.85653,68.837816,97.385463,0.0,79.087944,26.547432,36.474323,19.007263,33.07457,11.409931,25.159607,4.407921,14.449139,0.0,-16.76746,-16.561831,17.321917,-2.5414,24.847934,14.625153,35.388173,32.820714,38.249564,27.490311,293.441447,-89.898376,179.564054
82,-0.307732,-0.388842,1.027393,23.725311,0.0,-63.833084,-30.936584,-89.382133,-22.196045,-88.575497,-11.765099,-73.653717,-0.875244,-51.322689,0.0,23.263665,32.240508,63.539074,49.74255,80.443744,62.046258,91.633351,69.414935,97.627463,0.0,81.379566,22.823982,42.406311,17.619724,39.615154,13.589916,33.618793,10.874233,23.464966,0.0,-8.110361,-11.741964,8.948561,3.221704,20.466063,20.861389,32.818121,39.317414,36.322148,29.130335,292.673874,-86.923227,202.910634
83,-1.08387,0.534759,-9.75563,20.8893,0.0,-63.176994,-31.016693,-89.175854,-22.376289,-88.280869,-11.975784,-73.612118,-1.111908,-51.054325,0.0,23.89883,31.752618,63.310721,49.081203,79.748249,61.417083,90.70518,68.896231,96.947035,0.0,70.936089,33.70657,73.662872,35.388165,89.150562,34.831753,58.357487,32.74189,51.447716,0.0,-2.85009,-2.47014,-1.129909,16.402515,8.93652,33.976559,28.186284,49.940337,34.427892,28.941135,292.830581,-95.784187,223.421883
84,-1.698418,0.20742,9.002838,18.550194,0.0,-62.8339,-31.143951,-88.12952,-23.160439,-86.396141,-13.354454,-72.293072,-2.635689,-49.665813,0.0,21.87496,32.686778,62.743544,49.787319,79.301917,61.810495,90.308743,69.125017,96.747767,0.0,77.339001,31.613045,96.853466,28.938103,74.043159,25.752697,63.390484,22.348309,57.840672,0.0,-0.242432,19.653489,16.293834,35.364276,18.802815,45.712163,24.35955,52.623701,32.388091,28.063803,292.735778,-85.960264,241.669855
85,-6.025085,6.252847,6.466084,13.827214,0.0,-59.592133,-26.689911,-82.109699,-20.225601,-82.76453,-11.390419,-69.20866,-1.043472,-45.963306,0.0,6.294219,28.345786,57.47858,43.546885,73.027643,54.956693,81.880305,62.94485,89.276152,0.0,73.334084,29.05489,100.070343,25.021648,96.637344,20.501118,87.967415,15.859222,69.788933,0.0,0.920452,24.519545,25.380284,40.992826,34.897319,51.89307,44.654193,58.042238,53.389221,22.470617,299.03483,-79.062281,255.543274
86,-1.974106,-0.015746,5.958538,12.211761,0.0,-58.560219,-25.820732,-78.847733,-19.164505,-79.0662,-10.333443,-66.060104,0.336113,-43.043232,0.0,14.525982,27.802258,48.956962,41.951254,69.807235,52.741089,80.607568,60.294029,88.153591,0.0,75.144367,30.69231,94.153919,23.90007,87.256107,17.453957,76.718273,11.793079,60.343208,0.0,4.600344,30.853779,38.347438,48.48488,49.698893,59.624222,62.290419,64.835895,68.438105,20.782413,298.77449,-72.817841,267.510442
87,12.018929,0.202974,6.702518,9.568165,0.0,-62.69331,-16.819839,-75.363178,-17.284813,-90.692253,-15.854645,-83.259029,-12.065506,-61.012173,0.0,-13.709888,18.656775,12.352058,37.635271,43.678228,52.155942,74.828779,61.612029,94.308193,0.0,74.363365,26.863003,93.360672,18.649063,89.259796,11.382351,76.91803,5.710258,55.6283,0.0,8.239357,31.831596,43.581527,50.607735,58.960714,62.503644,70.475375,67.778364,74.72757,32.936296,298.852635,-65.980368,276.953778
88,1.059608,0.320299,3.508472,8.583431,0.0,-61.413517,-13.850212,-72.056408,-15.526772,-89.111481,-16.928787,-87.193165,-16.316643,-66.91721,0.0,-8.598621,23.952059,20.234622,42.851081,46.918581,56.461921,67.99838,65.250858,92.741277,0.0,73.035793,24.917164,96.053867,17.340088,95.740986,11.464348,83.986645,7.425385,63.477802,0.0,6.937288,32.568402,48.881194,49.773302,62.824684,60.481009,74.049427,65.447594,77.832566,34.048777,299.189468,-62.419024,285.553742
89,-2.252197,3.650684,5.703735,4.582189,0.0,-59.994049,-29.622345,-19.387436,-28.015594,-51.691303,-24.756775,-60.922508,-19.308929,-58.127804,0.0,-3.458579,24.948772,36.161659,41.424029,51.390545,53.596332,65.423882,61.796107,81.632316,0.0,70.872402,25.642548,94.007549,16.72554,94.469318,9.526119,81.408634,4.082737,59.898891,0.0,7.027073,33.424695,55.384871,50.624902,68.603596,61.537126,77.975024,67.107075,81.717408,31.877661,302.899557,-56.634207,290.195336
90,-1.202316,12.179466,1.112766,4.050704,0.0,-47.387981,-38.798332,-2.389183,-37.747765,6.038704,-32.808723,3.88401,-26.233978,-45.289307,0.0,15.803721,21.821361,39.56213,28.43977,45.389085,32.72636,49.597252,35.85692,62.002292,0.0,72.241745,27.537174,95.244141,18.608093,95.435715,10.607471,81.735191,3.969784,59.846764,0.0,4.239969,33.180164,56.146315,49.919033,71.084604,60.824959,80.098497,66.879525,83.380717,30.903025,314.97874,-55.29376,294.145756
91,5.901146,18.793923,2.962189,0.293006,0.0,-58.228397,-54.202995,-1.483955,-55.728493,3.21888,-52.2155,-1.794662,-46.852226,-72.219543,0.0,44.715264,7.31483,34.354965,7.83551,29.952593,7.172002,28.24328,6.698808,36.44991,0.0,70.434265,29.366798,93.622971,20.140171,93.593788,11.063576,78.630524,2.73159,56.438026,0.0,4.156297,32.404578,59.441564,49.158391,74.838721,60.37838,84.056143,67.006916,87.591663,37.081118,333.638449,-52.054625,294.304548
92,-9.502602,15.922714,1.948586,1.26187,0.0,-49.524593,-47.120247,-8.45192,-44.31324,8.2164,-37.316437,10.909195,-27.408943,-14.817924,0.0,36.088608,4.345562,34.522432,-3.990682,28.624836,-13.283069,18.904024,-23.091875,5.954592,0.0,70.352783,27.796555,92.172661,19.186363,93.018265,10.455151,78.981972,1.886158,55.27359,0.0,4.58046,32.846156,61.967465,48.867362,75.994874,59.943471,85.345738,66.922194,92.192501,27.743082,349.343601,-49.941473,295.348855
93,-0.663643,4.984432,2.085972,1.041729,0.0,-46.063442,-45.198212,-7.822952,-43.904972,9.652748,-37.957363,14.545898,-29.711037,2.388725,0.0,40.455597,7.432033,31.338087,-6.823729,22.617694,-22.288688,9.852031,-37.715608,-13.836785,0.0,69.518223,26.108265,91.096973,16.680679,90.932293,7.510529,75.774479,-0.905628,52.46172,0.0,6.962235,31.15827,62.270659,48.228554,77.511896,59.936864,85.850672,66.997962,90.68542,27.102728,354.233168,-47.832212,296.295721
94,-5.315208,-10.609091,0.591488,-0.058725,0.0,-28.538017,-38.138638,4.260063,-38.311844,16.063614,-34.315166,16.460838,-28.038883,-4.334564,0.0,36.925944,9.882104,34.660012,5.462874,32.650469,0.468439,26.507291,-4.645236,17.246458,0.0,68.254623,25.937862,89.25602,16.182804,88.98262,6.872978,73.548431,-1.387024,52.114334,0.0,8.45005,31.529575,63.201361,48.649198,78.016459,60.027575,85.823193,66.604241,88.892929,21.816616,343.563268,-47.211628,296.176187
95,8.497696,-27.14227,-0.262928,-0.075644,0.0,-38.031178,-48.304539,6.481819,-54.734344,5.929642,-54.99052,-6.591682,-52.845955,-74.847107,0.0,29.035352,18.985411,46.820397,31.363405,54.656031,39.439309,56.366826,46.89209,72.040995,0.0,67.068729,26.379261,89.340878,16.449509,87.973766,6.917267,72.759418,-1.630039,51.45052,0.0,9.509934,31.741379,63.472013,48.56497,78.515587,59.68412,85.951386,66.04997,88.42696,30.391703,316.385522,-47.397165,296.065067
96,-23.031349,15.292366,0.175266,-0.281829,0.0,-28.288307,-34.768295,22.339783,-36.871777,31.564178,-34.419479,22.582626,-29.110794,-42.392578,0.0,34.837359,12.784126,38.879603,18.558716,41.857579,22.000807,43.008483,25.473465,46.724005,0.0,67.513847,25.93523,88.455505,16.020641,87.2192,6.431179,71.341553,-2.29311,50.25444,0.0,10.14763,30.940785,63.495355,47.897572,78.402399,59.263105,86.093474,65.952898,89.536307,7.4053,331.565487,-47.176952,295.670837
97,17.337227,13.175438,-0.48872,0.102259,0.0,-56.689911,-52.895908,-0.926743,-51.974602,11.123886,-45.770416,10.949364,-37.850647,-51.484509,0.0,42.396536,7.319338,31.585212,-0.968617,26.22188,-10.276195,16.604315,-18.521295,16.121118,0.0,68.180866,24.900742,89.182835,15.346928,87.823048,6.565819,73.002949,-1.167412,52.023296,0.0,11.323852,30.763561,62.372733,47.67175,77.337142,58.938113,85.083793,65.413385,88.112466,24.91024,344.610987,-47.497959,295.643158
98,-2.438049,-0.661717,0.483227,-0.433179,0.0,-36.789722,-41.466579,1.305084,-39.659386,13.581848,-34.262524,14.949875,-26.584511,-9.461174,0.0,40.799979,8.094182,35.807273,0.960281,32.164308,-7.126862,23.566551,-15.819221,9.585022,0.0,67.366333,23.940353,88.794136,14.068851,87.064476,5.171413,72.689209,-2.420883,51.640091,0.0,12.983271,30.581027,62.613312,47.673294,78.070861,59.008508,85.990845,65.37405,87.731898,22.655182,343.886809,-46.831741,295.147518
99,-4.653511,5.821211,0.003033,-0.116461,0.0,-11.335487,-26.400433,8.891144,-26.879654,19.679604,-24.601822,20.211754,-20.516853,5.647888,0.0,31.01964,5.708146,25.472601,-1.892094,22.487586,-9.330796,13.582806,-16.33953,1.666767,0.0,67.734547,24.748249,89.020443,14.57983,86.568089,5.230522,72.186527,-2.831211,51.021137,0.0,13.458379,31.20026,62.378352,48.153465,78.251666,59.451938,86.055806,65.780553,87.871824,18.137913,349.733169,-46.692467,295.056204
100,15.156097,-32.23742,0.686188,0.515245,0.0,-38.54393,-47.131519,0.655975,-52.366047,1.88839,-51.960583,-9.487381,-48.681278,-71.592064,0.0,27.72717,17.025515,41.601994,28.601803,49.48394,36.802134,51.514046,43.782339,66.811476,0.0,67.442951,25.322342,88.117962,15.387611,86.027126,5.863552,71.193867,-2.596779,50.327625,0.0,12.676433,30.520635,60.873927,47.342003,77.270637,58.67697,84.906014,65.258638,87.618833,33.370314,317.382946,-45.929976,295.458647
101,-21.071091,9.897788,-0.278206,-0.480542,0.0,-18.49165,-34.149628,20.762329,-37.400723,28.40332,-36.1619,16.125183,-31.632385,-34.843655,0.0,30.763438,15.089763,39.971597,21.800489,43.830381,26.210148,46.104093,30.066399,52.319519,0.0,67.571812,24.977589,88.156071,15.263615,86.320324,5.9622,71.650028,-2.261009,51.099873,0.0,14.563032,30.959742,62.068982,48.075351,77.698876,59.549751,85.318877,66.182918,87.530159,12.328119,327.176175,-46.179285,294.873547
102,15.373535,2.962723,0.38269,-0.027602,0.0,-44.41658,-49.448547,2.382431,-51.208076,9.036255,-47.916126,3.168411,-42.341537,-57.864647,0.0,41.018576,10.082854,34.585294,14.808119,37.555366,17.783872,36.344563,20.034489,47.987665,0.0,68.34074,25.889111,88.333912,15.922909,85.795841,6.193943,71.048298,-2.416191,50.076656,0.0,13.069166,30.643457,61.521997,47.540284,78.015965,58.952439,85.510983,65.519287,87.896833,27.742767,330.074431,-45.755482,294.781477
103,-10.663376,21.281909,0.195065,0.066505,0.0,-36.270447,-39.399433,4.856873,-37.860661,19.03553,-32.142563,20.881233,-24.026642,-5.73761,0.0,39.262826,8.356745,27.997452,-5.671405,21.488402,-20.758883,7.932026,-35.948682,-17.853526,0.0,68.264923,24.667339,87.643089,15.070782,86.45462,6.026058,71.802406,-1.804333,51.203842,0.0,14.397356,31.055455,61.761033,48.181623,77.247789,59.555123,84.596953,66.015081,86.680906,17.127199,351.253556,-45.512609,294.745199
104,-8.092346,-7.063321,-0.27626,-0.19791,0.0,-9.111099,-22.072392,21.886139,-25.242577,29.991531,-24.922314,25.145645,-22.318611,-24.891529,0.0,22.35649,-0.473132,26.709647,1.035184,27.089412,2.972047,28.8924,5.365061,25.995565,0.0,68.492661,24.929981,88.16597,15.13773,86.141853,5.825043,71.645508,-2.351646,50.851822,0.0,13.42207,30.819075,61.565284,47.823286,77.541413,59.34758,85.091759,66.013352,87.059806,9.153185,344.168561,-45.670538,294.525614
105,20.551414,-31.693028,0.853271,0.015252,0.0,-24.996758,-45.760574,10.497208,-52.700729,9.576759,-53.675194,-5.507469,-51.104622,-52.21756,0.0,19.157633,18.322706,44.866491,33.898444,56.106733,45.744458,61.916768,55.377275,70.792957,0.0,68.627815,24.278641,87.3563,14.468479,85.69622,5.094795,70.909081,-3.156052,50.129814,0.0,13.472396,30.892558,61.599432,47.920604,77.063711,59.411121,84.709771,66.185388,87.256914,29.772148,312.447112,-44.749718,294.512446
106,-21.223869,10.879249,-0.220356,-0.004693,0.0,6.473351,-23.133259,27.790947,-31.616249,32.381516,-34.778252,17.271652,-34.31694,-45.167255,0.0,4.679323,7.229244,40.304309,21.679273,48.706749,33.006089,56.1754,43.359596,63.613051,0.0,68.59457,25.283203,86.998959,15.447979,85.1861,5.817604,70.20647,-2.916584,49.697285,0.0,13.290603,31.072684,61.432459,47.991926,76.8989,59.338503,84.596891,65.978586,87.146195,8.610106,323.341706,-44.908247,294.523098
107,19.020767,2.646067,0.580673,-0.353027,0.0,-35.112534,-50.183258,7.861176,-53.232422,12.446136,-50.81892,3.099747,-45.32547,-45.205479,0.0,34.978274,11.42994,38.845517,17.587258,43.874594,21.957767,44.391939,25.213311,48.392686,0.0,68.886967,25.380478,87.448711,15.24971,85.427799,5.226974,70.05003,-3.779182,49.534092,0.0,13.763364,30.908983,62.150431,47.875465,76.873458,59.33807,84.336922,66.219413,87.154223,27.731123,325.945829,-44.227324,294.128127
108,-18.232841,12.743124,-0.523109,-0.190191,0.0,-18.569241,-29.974709,16.146698,-30.092754,27.173195,-26.896133,25.048256,-21.842422,-0.833588,0.0,27.29362,6.353809,32.772796,6.826014,34.694963,6.30342,32.316028,5.469851,26.62758,0.0,68.857899,25.521011,87.493114,15.152035,85.451946,5.007133,70.093861,-4.040909,49.257259,0.0,14.397109,31.066941,62.248738,47.953888,77.044198,59.324794,84.786835,66.007238,87.482982,9.585857,338.647009,-44.662857,293.895991
109,21.351471,-5.949467,-0.4846,-0.39934,0.0,-44.698162,-50.313492,1.018982,-50.845127,8.33313,-46.369457,3.34362,-38.860588,-41.273861,0.0,35.956462,9.48264,37.366718,8.762136,37.831822,6.774885,33.389189,3.98426,29.202881,0.0,68.874893,24.61401,88.325157,14.346142,85.480614,4.576664,70.626411,-4.008865,50.137138,0.0,14.257059,30.783074,62.192483,47.734303,77.594518,59.223832,84.657221,65.948452,87.21517,31.130047,332.639157,-44.954739,293.438267
110,-0.376968,15.141819,-0.112209,0.200504,0.0,-38.158493,-40.968647,-4.735336,-38.962727,8.582382,-33.503609,11.632462,-25.904846,-4.975891,0.0,36.527777,5.848011,28.509671,-3.821115,23.829546,-13.968437,12.625921,-24.232405,-4.996102,0.0,68.668613,24.909439,87.761364,14.855347,85.702343,5.182114,70.540066,-3.401012,50.326366,0.0,14.546977,30.408188,61.055905,47.458588,76.571684,58.988995,83.670697,65.81186,86.784091,30.868149,347.695683,-44.951878,293.553477
111,-2.883224,-3.194843,-0.225563,-0.19754,0.0,-6.28109,-30.369415,1.744995,-30.687332,11.596756,-27.297134,14.003448,-22.279358,0.533295,0.0,33.656692,11.278651,27.702223,1.008075,23.802129,-9.837767,11.974578,-20.785991,-6.796991,0.0,67.998676,24.868011,88.045635,14.6945,85.790691,4.865341,70.629215,-3.94598,50.107899,0.0,14.401184,30.386945,61.370647,47.425798,76.655788,59.082547,83.837361,66.055404,86.596184,28.204908,344.425335,-44.957457,293.280432
112,-1.128502,-6.854543,-0.450954,-0.194576,0.0,-55.58218,-49.291534,-1.799812,-49.580956,7.822609,-44.280739,7.227859,-36.761627,-53.91695,0.0,41.803547,5.77459,37.977615,1.098725,34.424867,-4.861054,26.131663,-10.38679,23.340421,0.0,67.393456,25.230789,88.230515,15.125771,86.093216,5.260506,70.885849,-3.708801,50.448875,0.0,14.326343,30.4947,60.995884,47.652978,76.48227,59.32325,83.968642,66.237012,87.055978,27.251301,337.530731,-45.233517,293.045796
113,0.993004,11.489652,-0.451183,-0.05644,0.0,-42.301254,-43.134842,-8.284721,-41.869068,8.228874,-36.494808,11.565857,-29.063187,-1.475945,0.0,39.630488,6.627733,30.007613,-5.561551,23.034941,-18.741621,10.704002,-32.102866,-10.507388,0.0,67.221508,25.489197,87.991848,15.563107,86.239643,5.730171,70.9865,-3.404675,50.515423,0.0,15.033941,29.58135,60.56641,46.800946,76.198279,58.723407,83.501933,66.058059,87.257222,28.562536,349.020692,-45.366468,292.989665
114,-6.763229,-1.3582,-0.340118,-0.400328,0.0,-27.592163,-32.356453,4.005089,-31.068478,16.349602,-27.019501,18.965492,-21.60038,5.812569,0.0,35.078371,8.472774,26.973444,-0.388287,22.598366,-9.975656,12.545399,-19.798664,0.542354,0.0,66.939526,25.74297,88.481426,15.643616,86.677265,5.628548,71.062603,-3.498802,50.157681,0.0,15.393575,29.9098,61.409982,47.305879,76.984239,59.264711,84.408429,66.395154,87.265559,21.971855,347.636634,-45.534039,292.563479
115,5.960541,-8.66031,-0.467377,-0.060824,0.0,-61.565266,-54.628201,0.424347,-57.637367,9.481773,-54.018974,7.871475,-47.929173,-57.800503,0.0,41.598289,-0.179632,33.075991,-2.724613,30.324392,-6.147439,24.883996,-9.015004,23.329244,0.0,67.327824,25.806427,88.450756,15.743008,86.406612,5.737152,71.152782,-3.539371,50.043697,0.0,15.169791,30.136918,61.137292,47.285934,76.776695,58.987019,84.457891,65.994209,87.355344,28.139591,338.986837,-45.79422,292.513168
116,-4.810524,13.725449,0.316658,0.394029,0.0,-49.505253,-43.068867,-8.429718,-40.757332,9.310913,-34.130344,15.629654,-25.434036,2.785606,0.0,36.652389,4.455601,24.942967,-9.686664,20.474708,-24.708625,7.332182,-39.74627,-13.059224,0.0,66.623898,25.821419,87.936459,15.525856,85.599918,5.301189,70.070972,-4.15163,48.991184,0.0,14.214636,29.381093,60.261116,46.625945,76.238602,58.496906,84.162292,65.667364,87.208378,23.638573,352.759942,-45.168056,292.954853
117,-3.953705,-3.645003,-0.004292,-0.49036,0.0,-37.964916,-39.85033,1.546898,-37.970238,16.068764,-32.110119,20.400238,-24.608002,7.941055,0.0,37.892214,7.172743,29.820262,-3.757945,23.15412,-15.41457,12.399915,-26.61344,-2.103713,0.0,66.67923,25.783882,87.743225,15.576553,85.432777,5.320702,70.059357,-4.227047,49.023628,0.0,14.512644,28.87369,60.25846,46.202832,76.190869,58.26491,83.876881,65.66403,86.839357,19.966507,349.185952,-44.890709,292.535506
118,4.930229,-16.786602,0.353394,0.255708,0.0,-61.818638,-50.093937,3.844528,-54.18354,10.400047,-52.00098,7.737465,-47.952919,-62.778339,0.0,40.470788,3.839641,37.304535,5.638739,36.138255,5.959409,34.031825,6.870227,39.634193,0.0,66.171913,24.380608,86.467209,14.097977,84.431534,3.926525,69.041405,-5.410938,47.812157,0.0,14.624103,28.633604,60.380726,46.16572,76.20995,58.405763,83.815501,65.863051,86.536101,25.249329,332.415806,-44.184723,292.807671
119,-8.274879,-5.043774,-0.880795,-0.195193,0.0,-31.676674,-40.074005,12.803535,-43.103142,21.114693,-41.476536,10.22953,-37.037373,-40.974998,0.0,35.574906,9.549886,39.762696,15.352696,42.09822,18.986584,45.004688,21.745469,49.644367,0.0,66.04414,25.851688,87.348232,15.511665,84.541798,5.13485,69.126377,-4.585361,48.254642,0.0,15.155774,28.879186,60.929749,46.261371,76.234033,58.346791,83.590606,65.64217,86.16671,17.370358,327.395806,-44.669609,292.636252
120,10.168533,-9.501042,-0.795422,-0.323016,0.0,-54.574413,-50.233612,3.558655,-56.132126,8.559036,-55.63139,2.813301,-53.151283,-71.442318,0.0,33.355535,10.885363,43.744054,22.411324,49.167469,30.716013,51.419877,38.517869,62.718226,0.0,66.270332,25.463448,87.505188,15.509777,85.220604,5.414314,70.360909,-4.020081,49.312248,0.0,14.564205,29.254566,61.294756,46.453291,76.765704,58.434477,84.473205,65.784875,87.16435,27.879925,317.921008,-45.123997,292.33948
