takenoko1/special-research/HandMotion_SimilarSearch_自分用/NewProject/handData/test_key/d4_feature_d2/78.csv
frame,vel_0x_L,vel_0y_L,vel_0x_R,vel_0y_R,posFromWrist_0x_L,posFromWrist_1x_L,posFromWrist_2x_L,posFromWrist_3x_L,posFromWrist_4x_L,posFromWrist_5x_L,posFromWrist_6x_L,posFromWrist_7x_L,posFromWrist_8x_L,posFromWrist_9x_L,posFromWrist_0y_L,posFromWrist_1y_L,posFromWrist_2y_L,posFromWrist_3y_L,posFromWrist_4y_L,posFromWrist_5y_L,posFromWrist_6y_L,posFromWrist_7y_L,posFromWrist_8y_L,posFromWrist_9y_L,posFromWrist_0x_R,posFromWrist_1x_R,posFromWrist_2x_R,posFromWrist_3x_R,posFromWrist_4x_R,posFromWrist_5x_R,posFromWrist_6x_R,posFromWrist_7x_R,posFromWrist_8x_R,posFromWrist_9x_R,posFromWrist_0y_R,posFromWrist_1y_R,posFromWrist_2y_R,posFromWrist_3y_R,posFromWrist_4y_R,posFromWrist_5y_R,posFromWrist_6y_R,posFromWrist_7y_R,posFromWrist_8y_R,posFromWrist_9y_R,posFromBody_0x_L,posFromBody_0y_L,posFromBody_0x_R,posFromBody_0y_R
2,16.79203,-3.349898,0.425606,-0.16827,0.0,-59.786396,-47.444973,-0.268135,-53.268356,5.004616,-53.529053,-1.751633,-51.109314,-48.916569,0.0,35.473883,3.845939,36.541362,16.149029,43.244925,26.439797,46.910244,35.678091,50.068531,0.0,64.915237,24.292202,86.021004,13.642902,82.821007,3.036404,67.66468,-6.523361,46.947784,0.0,16.850638,29.399124,60.706521,45.824487,73.794892,57.211571,82.240742,64.264395,87.26383,30.044117,324.366269,-42.360706,294.198723
3,-11.319351,21.728982,0.008354,-0.401872,0.0,-57.936573,-47.095528,1.488533,-44.79023,16.608696,-37.863865,20.118027,-28.762779,-14.249954,0.0,35.082323,2.545537,33.196095,-3.564543,27.17932,-10.875668,19.783103,-18.738657,10.148433,0.0,64.634628,23.968563,86.52626,13.299923,83.299141,3.004589,67.841148,-5.945549,47.289505,0.0,16.629509,29.088458,60.535287,46.312994,74.922948,58.427684,82.982488,65.780923,87.328359,18.062696,346.037067,-43.014421,293.738667
4,2.159042,-11.983964,0.699177,-0.150795,0.0,-30.562134,-36.203785,6.249847,-38.714619,14.551277,-36.347065,10.666466,-31.818695,-20.364075,0.0,16.017192,7.339716,32.162579,12.774863,37.606371,16.266479,39.375335,18.347591,40.570453,0.0,63.860035,23.745689,85.826283,12.886276,82.938709,2.384033,67.511501,-6.765518,47.10062,0.0,17.324016,29.235918,60.749561,46.547028,74.55541,58.703091,83.323906,66.073497,87.501384,19.661179,333.918332,-42.875805,293.453102
5,12.884102,-14.587794,0.109406,0.26386,0.0,-55.665321,-48.452854,-0.850983,-55.628014,2.855301,-56.737518,-5.48687,-55.708809,-77.524624,0.0,36.188458,7.87009,41.038398,22.216007,46.436557,33.93673,50.488557,44.427198,61.906085,0.0,64.244328,24.183712,85.330982,13.816795,83.466282,3.452339,68.429546,-5.979538,47.706814,0.0,16.870768,29.245366,59.919142,46.433161,73.760435,58.55384,82.491696,66.050896,87.433767,31.8752,319.384493,-43.43648,293.770916
6,-17.101707,11.059005,0.170689,-0.023218,0.0,-48.709202,-43.360062,15.126801,-47.922478,25.418243,-47.197781,17.819481,-43.451157,-28.325615,0.0,40.259972,7.078141,35.114866,13.445411,38.821187,18.228042,38.885716,21.967894,43.488777,0.0,64.778824,24.756489,86.257324,14.267292,84.057083,3.706284,68.383484,-5.887928,47.716026,0.0,17.045275,29.541953,59.838496,46.731786,73.693559,58.782317,82.349917,66.122156,87.170093,14.163866,330.465203,-43.875418,293.769403
7,15.290909,-10.747289,0.37508,0.094725,0.0,-54.766502,-49.204559,2.186852,-55.962696,5.680847,-56.660843,-2.77565,-55.530624,-75.783577,0.0,38.478287,9.555135,42.066357,22.609975,47.129582,33.004237,50.491706,42.595372,60.367203,0.0,64.009953,24.694462,85.562382,14.390316,83.795872,3.880463,68.301945,-5.787621,47.564106,0.0,16.799138,29.300076,59.412233,46.59365,73.814219,58.829803,82.427167,66.346248,87.425369,29.058638,319.757836,-43.896475,293.90405
8,-20.561142,15.631932,0.486832,0.32419,0.0,-50.353203,-41.704845,16.376381,-43.505402,30.70816,-39.772682,27.348289,-33.012543,-14.489937,0.0,43.748191,8.71323,36.773914,8.119932,36.784473,6.547273,34.407885,4.930832,33.398884,0.0,63.908672,24.124088,85.028172,13.761177,83.178005,3.313293,67.499714,-6.291103,46.957684,0.0,16.585975,29.234806,59.53456,46.470705,73.822432,58.575391,82.044438,65.89442,86.533261,8.160124,335.42302,-43.747015,294.261492
9,23.756218,-23.087738,0.057335,-0.134863,0.0,-43.644161,-49.384575,2.605934,-59.424477,2.309189,-62.302265,-9.790535,-62.814617,-82.817688,0.0,29.807788,14.541666,45.775827,30.547188,53.877358,42.737028,58.344815,53.72539,69.362879,0.0,63.832912,23.814812,84.330425,13.550262,82.975216,3.115368,67.781696,-6.550484,47.404003,0.0,16.68175,29.441053,59.044632,46.655153,73.749999,58.668202,82.33837,65.821678,86.674607,31.59153,312.392139,-44.014492,294.183486
10,-24.733658,19.06686,0.047607,0.039397,0.0,-46.065674,-38.763084,18.969498,-41.775742,30.35099,-39.133644,25.287895,-33.565292,-26.669827,0.0,38.405483,8.601709,37.08279,12.721079,39.237694,15.180413,39.736267,17.025083,43.395658,0.0,63.807163,24.137478,84.795399,13.946228,83.028545,3.535995,67.74519,-6.122189,47.246304,0.0,16.442159,29.495023,59.261932,46.486575,73.689916,58.336849,82.465082,65.443951,86.788846,6.628733,331.510545,-44.196024,294.274429
11,22.886696,-15.847687,-0.088978,0.080955,0.0,-50.452995,-50.311146,4.740372,-59.312038,6.374931,-60.881252,-5.124779,-60.069065,-81.143074,0.0,32.104224,10.954955,43.713611,26.180507,50.821886,37.477313,54.799847,47.441113,63.795153,0.0,63.609238,23.762455,85.367661,13.228455,83.102989,2.625217,67.587433,-7.058887,47.09301,0.0,16.292352,29.187073,58.984982,46.417661,73.420808,58.320609,82.438159,65.346077,86.820462,29.315844,315.653394,-44.484587,294.34592
12,-24.098396,7.49897,-0.060883,0.086451,0.0,-37.238388,-32.988052,21.554604,-38.110943,29.915428,-37.594757,20.46524,-33.951759,-39.553871,0.0,29.248268,12.037934,41.135222,21.801477,47.929867,28.354369,49.503947,33.576046,56.714789,0.0,63.806419,24.105721,85.326118,13.663902,82.896996,3.083954,67.433167,-6.555347,46.747856,0.0,16.224488,29.19683,59.277123,46.29379,73.972609,58.13863,82.800078,65.238878,86.816695,5.074453,323.109586,-44.688463,294.389593
13,18.643684,1.884746,-0.641499,-0.459114,0.0,-62.547569,-49.645615,4.620323,-53.240662,12.632217,-51.132832,7.374001,-47.38472,-72.409744,0.0,40.658633,7.208496,38.142241,15.79699,41.928097,21.878356,41.652876,27.834245,50.240876,0.0,65.125294,25.418644,86.678867,15.12228,84.302158,4.597664,68.686466,-5.107269,47.957439,0.0,16.733312,29.329099,59.480035,46.444893,73.721779,58.234529,82.191713,65.387882,87.075491,23.609676,324.940455,-45.438423,293.876602
14,-11.648254,11.379736,-0.058594,-0.103617,0.0,-44.431572,-42.520294,11.050873,-43.685646,23.199692,-39.903202,17.804146,-33.425045,-18.701591,0.0,39.000325,5.757361,34.995317,6.270384,35.606214,5.618793,33.061356,4.505063,32.390067,0.0,65.612583,25.480556,86.832104,15.198784,83.721714,4.553146,67.953701,-5.234814,47.477589,0.0,16.504712,29.40851,60.21258,46.344425,74.812106,58.0289,83.156501,65.065359,87.507559,11.817627,336.310528,-45.640812,293.763321
15,11.07193,-16.819948,0.046806,-0.054155,0.0,-58.13839,-47.67643,6.514435,-52.847271,12.666779,-52.119141,5.551071,-49.696484,-68.145733,0.0,39.261962,7.502552,40.803561,20.052026,47.789632,29.974329,50.314174,39.190578,57.941461,0.0,66.10445,25.877953,86.806126,15.727444,83.8167,5.079517,68.082676,-4.845371,47.509861,0.0,16.131801,29.374239,59.898208,46.290147,74.741525,57.939856,82.867386,64.999533,87.559676,22.72336,319.511035,-45.760202,293.72962
16,-19.310989,4.951457,-0.257263,-0.238542,0.0,-34.578438,-32.087517,22.190323,-35.636387,31.646576,-34.264355,23.24913,-30.053215,-27.76022,0.0,30.248872,11.741594,40.510864,19.932045,46.807492,25.079683,47.463837,28.934699,53.029525,0.0,66.544476,26.089211,87.218914,16.036148,84.801807,5.367222,68.895435,-4.688644,48.26643,0.0,16.303776,29.484463,60.300883,46.45255,74.973151,58.187351,82.590065,65.411223,87.417526,3.261738,324.417321,-46.168098,293.445908
17,17.473412,5.35339,0.307274,-0.31431,0.0,-61.660709,-48.099689,5.975189,-50.503292,14.643517,-47.794304,11.292686,-43.775826,-63.470478,0.0,42.093712,6.257169,36.580944,11.114518,38.091236,13.547485,35.69075,16.162121,43.345331,0.0,65.407276,25.927219,86.319981,15.8741,84.315777,5.231781,68.497639,-4.825802,48.096714,0.0,16.919057,29.235794,60.860218,46.439953,75.406639,58.38378,82.976993,65.678479,87.432223,20.652151,329.752155,-45.943823,293.113043
18,-10.806198,8.449494,0.093384,0.104667,0.0,-41.549549,-37.911873,10.195427,-36.467285,23.630676,-31.006565,22.248116,-23.315105,-12.285576,0.0,38.872687,8.134876,34.923563,5.943971,32.402541,2.188743,28.466137,-1.814783,27.96281,0.0,65.394917,25.75613,86.256924,15.813446,84.709911,5.339355,68.868885,-4.479446,48.693981,0.0,16.759865,29.281057,60.561778,46.503062,75.063369,58.40533,82.406048,65.66582,87.08852,9.82976,338.188806,-45.866632,293.204865
19,12.670097,-11.221779,0.197182,0.000988,0.0,-61.301937,-48.011627,5.020523,-50.887299,12.443504,-48.692036,7.638359,-45.377197,-72.851257,0.0,42.702201,8.339702,37.849606,15.114895,39.837414,19.572411,39.647531,24.149166,48.775354,0.0,65.424557,26.012764,86.209316,16.09766,84.56686,5.589066,68.690815,-4.361744,48.47414,0.0,16.988526,29.45964,60.758392,46.7337,75.192921,58.672895,82.494969,66.018353,87.197633,22.451477,326.942033,-45.717831,293.18086
20,-9.28791,19.500286,-0.03931,0.127453,0.0,-48.244057,-43.423576,6.001625,-41.235008,21.635056,-34.108086,23.849373,-24.540024,-4.692535,0.0,38.512867,5.344992,31.720137,-3.104625,25.640809,-12.915346,17.102085,-22.6553,6.406543,0.0,65.384331,25.594997,86.26236,15.851555,84.944687,5.697269,69.328537,-3.759785,49.133835,0.0,17.039347,29.26914,60.034492,46.596243,74.845081,58.510553,82.119156,65.74906,86.933836,13.143539,346.456676,-45.777168,293.32267
21,-6.531944,1.792738,-0.133324,-0.199577,0.0,-28.657951,-29.816666,13.959846,-27.476749,29.318733,-21.698055,30.518875,-14.119606,7.055511,0.0,29.918507,2.677807,26.519702,-1.824045,23.229208,-6.692016,18.41212,-11.06555,11.005282,0.0,66.196747,25.467052,86.81076,15.571289,85.035896,5.44384,69.442062,-3.872967,49.287872,0.0,17.256647,29.085864,60.367573,46.42291,75.186252,58.297267,82.42729,65.453399,86.811446,6.588135,348.243965,-45.933952,293.117643
22,14.957314,-21.961534,0.002632,-0.123995,0.0,-57.649784,-46.309376,7.004013,-50.317154,13.849983,-49.032669,8.3741,-46.511192,-71.325531,0.0,44.486294,7.723803,37.965697,15.116192,40.036991,20.182937,40.506727,25.093021,51.02807,0.0,66.004257,25.667667,87.27562,15.561619,84.977417,5.261021,69.299698,-4.153919,49.079475,0.0,17.422261,29.445684,60.579809,46.691216,75.373726,58.437626,82.600624,65.401652,86.752907,21.523361,326.277383,-45.953407,292.9886
23,-11.334686,4.203104,0.222874,-0.056008,0.0,-32.077274,-35.965233,17.933922,-39.88512,27.829742,-38.985214,18.962975,-35.285797,-39.898853,0.0,41.473182,9.16265,36.485107,13.773306,38.325208,16.62105,39.041574,18.603053,47.056037,0.0,66.404629,25.530453,86.84824,15.401344,84.730167,5.164089,69.18211,-4.191341,48.798923,0.0,17.149263,29.125199,60.387272,46.55802,75.588309,58.433489,82.518866,65.468034,87.110442,10.189991,330.484994,-45.729218,292.9371
24,10.519295,-4.80165,0.032215,0.127144,0.0,-55.940666,-47.291164,7.975845,-51.91967,15.245476,-51.135349,8.842049,-48.825989,-69.503345,0.0,43.563928,7.091973,39.039104,14.181229,41.709625,18.794417,41.320535,23.5048,50.684923,0.0,66.686668,25.521469,86.889496,15.586452,84.8703,5.431309,69.494705,-3.909245,49.255943,0.0,16.891949,29.163423,60.073703,46.611928,75.032493,58.524694,82.065557,65.59277,87.000711,20.689802,325.685351,-45.716486,293.066251
25,-10.078812,-7.091726,0.770645,1.1317,0.0,-15.009041,-33.117657,21.825142,-41.768818,27.027168,-43.968601,15.081253,-42.689667,-50.863724,0.0,27.833257,12.62481,43.257646,25.532252,51.18609,34.654763,55.268533,42.340775,66.416088,0.0,65.666656,23.416328,86.408043,13.404293,83.853493,3.622456,68.203239,-5.228291,48.333893,0.0,15.951675,28.346465,59.201787,45.489985,74.324587,57.555398,81.632377,65.033311,86.029809,10.591221,318.553981,-44.965611,294.158307
26,16.835403,1.414887,0.285873,-0.11183,0.0,-53.949909,-49.919529,2.445946,-56.920338,8.323288,-57.234764,-0.092125,-55.903015,-81.838474,0.0,34.852735,10.892217,43.506809,22.586325,48.352425,30.904105,50.49572,38.764933,58.102383,0.0,65.128555,23.535004,86.76487,13.530521,83.881416,3.634243,68.332901,-5.462608,48.241653,0.0,16.136494,28.452429,59.08971,45.522898,74.17478,57.497291,81.613914,64.999966,85.756687,27.387571,319.967401,-44.71879,294.045011
27,-25.523758,-0.004693,-0.201473,-0.448246,0.0,-15.858078,-28.723927,29.09523,-36.152687,35.402527,-38.094578,23.462448,-36.460762,-24.273891,0.0,27.237674,11.278342,40.154687,23.490104,49.523707,32.373086,52.847176,39.468517,62.360691,0.0,65.118656,23.657684,87.098751,13.706818,84.415913,3.87537,69.142284,-5.03809,49.258976,0.0,15.508492,28.465767,59.344739,45.836466,74.029358,58.017723,81.679863,65.448212,85.731987,1.791115,319.941682,-44.992962,293.575738
28,28.529778,-8.494325,-0.457249,-0.997022,0.0,-44.526329,-49.936295,8.010292,-60.499878,4.467773,-63.160229,-11.87851,-62.854729,-86.74427,0.0,6.455759,15.384683,44.932749,31.969547,52.495816,43.505635,57.507603,53.458937,68.590876,0.0,65.335808,24.136105,86.949234,14.274902,84.970322,4.534836,70.032921,-4.349728,50.010681,0.0,15.82132,28.461074,58.798681,46.094645,73.843798,58.505984,81.746739,66.161614,86.422295,30.263186,311.403422,-45.507917,292.534781
29,-28.431244,-4.12783,0.016537,-0.71544,0.0,13.065491,-26.225395,36.619949,-38.063278,36.68644,-42.17308,22.478828,-41.71217,-33.488445,0.0,8.035952,14.87166,46.36153,33.964394,60.300512,47.667737,66.929296,57.612949,75.457089,0.0,64.409809,23.684578,85.949306,13.876247,84.669285,4.318199,70.134945,-4.277458,49.524822,0.0,15.823667,28.334732,59.341281,45.890313,75.202739,58.107693,83.267714,65.480878,86.067848,1.690378,307.225574,-45.632944,291.769323
30,-4.93618,7.790864,-0.084171,-3.46179,0.0,20.161743,-16.246834,41.195183,-26.358891,40.733185,-31.486874,25.231705,-32.124767,-39.882603,0.0,-2.056165,11.484095,48.063248,26.711314,55.96693,37.815891,63.202967,47.555289,73.857383,0.0,65.19001,23.959522,84.162712,14.651642,83.409691,5.259705,69.334717,-3.59024,47.686157,0.0,14.691535,28.593899,63.273362,45.313996,79.27098,57.401824,86.404943,65.234988,89.345004,-3.380413,314.956911,-45.851727,288.248005
31,-1.402817,3.227447,1.915169,-8.374159,0.0,15.392532,-10.318737,40.18856,-20.041409,31.052055,-25.894718,9.468727,-27.2612,-39.530983,0.0,-13.743233,5.081627,37.640952,20.04406,50.380926,32.665536,59.123858,43.708547,68.33455,0.0,63.223343,24.092617,77.416534,14.032059,75.016022,3.343277,59.535255,-6.996632,38.726807,0.0,15.928951,28.926239,68.12713,46.065005,88.048307,58.216189,95.430075,65.987355,93.302958,-5.095253,318.075569,-44.248581,279.765058
32,21.859016,-23.467935,2.618237,-10.574388,0.0,-33.958912,-43.773823,-75.134983,-37.705193,-76.19585,-27.273903,-65.159912,-13.997269,-42.291412,0.0,-15.521892,34.310999,56.138535,49.900014,77.338501,59.972556,85.786822,66.207495,89.623128,0.0,58.366985,27.53437,72.841473,18.21928,65.691662,5.995502,34.274082,-7.618446,6.835842,0.0,11.850398,26.366808,63.180428,42.665397,85.515861,55.343189,101.624629,63.992322,101.220967,16.412144,294.841406,-41.981964,269.424442
33,1.028481,1.62243,3.809452,15.177696,0.0,-43.794022,-29.503613,-81.355705,-21.877213,-81.905651,-12.328949,-67.543831,-2.059479,-44.724655,0.0,-28.3858,26.446837,56.274077,42.168492,75.796655,54.396741,84.196995,63.535863,90.112191,0.0,22.955818,22.816372,24.123344,20.333519,3.193531,13.448067,-6.102505,3.908443,-11.542168,0.0,51.812239,15.584631,76.587677,16.363921,85.934776,17.514084,77.882892,16.7096,67.087809,17.172232,296.705265,-38.440905,284.843566
34,1.995735,-2.341699,0.844059,-73.308175,0.0,-57.899837,-27.760506,-83.329182,-19.767609,-81.73851,-9.399719,-67.016945,1.987381,-45.995865,0.0,21.376696,28.286443,61.704655,44.854573,78.193497,56.990134,88.666923,65.081167,91.437293,0.0,43.606396,38.038158,36.619205,25.185642,22.387161,9.002151,9.437943,-9.674091,2.239437,0.0,22.25244,27.505795,77.57167,39.05763,93.530076,50.39519,95.199499,59.789342,84.125242,19.158239,294.632334,-37.606573,211.80416
35,3.605804,-1.687268,-17.591801,-40.216376,0.0,-61.786766,-30.409813,-87.258339,-22.500114,-85.826626,-12.146301,-70.912514,-0.570259,-48.834,0.0,22.261085,29.775555,63.674555,46.77285,79.416279,59.161094,89.991839,67.419717,93.648822,0.0,48.872452,30.204163,42.452145,18.983688,37.549667,8.478298,29.282856,-1.265888,19.347382,0.0,-6.008315,24.583024,27.458988,40.06552,41.149116,52.381084,49.213288,61.483527,52.320692,22.762985,293.279213,-55.199432,171.921931
36,-0.15976,-1.578958,-10.482044,-19.429273,0.0,-61.2644,-30.264244,-86.964684,-21.970482,-85.219116,-11.226196,-69.933586,0.723152,-48.700676,0.0,25.224982,30.5328,65.468281,47.425428,80.788002,59.674178,90.869313,67.913782,94.209269,0.0,39.459057,28.223362,32.955666,18.572674,26.887608,7.080746,17.43227,-4.850292,1.589413,0.0,-45.642292,-5.983183,0.438366,7.397761,14.054456,19.861464,22.995483,32.467008,30.803699,21.866226,292.988461,-66.418476,153.780864
37,-0.592117,0.516419,-16.397209,-38.130602,0.0,-61.408596,-30.357857,-86.587658,-22.442207,-85.06485,-12.310295,-70.325832,-1.179771,-48.877487,0.0,24.639341,31.404839,64.80045,48.630178,80.48913,61.043864,89.89378,68.972061,94.71025,0.0,36.973,19.761086,27.336559,14.066448,26.073589,7.846184,20.066013,2.038765,9.841232,0.0,-52.11744,-13.025508,-5.006044,4.346766,9.924742,21.015425,22.769693,36.57622,35.803167,20.132475,294.135506,-83.957319,116.280889
38,-0.208282,0.213471,-2.659149,-24.920953,0.0,-61.303368,-30.271454,-86.376858,-22.5317,-85.37899,-12.550507,-70.859127,-1.597366,-49.348469,0.0,24.167691,31.263122,63.10818,48.413558,79.368978,60.856266,88.789435,68.868999,94.119854,0.0,22.833595,12.699738,11.940422,7.176247,9.433136,1.549873,5.001354,-2.994747,0.152264,0.0,-59.419704,-14.826459,-5.990871,2.376434,5.921772,18.853605,17.516338,34.623333,30.510693,19.584532,295.416148,-86.956129,92.427106
39,-0.300179,0.1905,-5.658989,-10.114223,0.0,-60.75222,-30.080795,-86.015797,-22.477112,-85.468025,-12.686005,-70.941238,-1.90361,-49.52631,0.0,23.876106,30.978267,62.823511,48.121664,79.111911,60.720477,88.597947,68.908643,94.069713,0.0,16.115971,4.574032,12.604065,-0.853271,13.727245,-3.14558,9.071274,-2.311878,7.709656,0.0,-65.596012,-24.782077,-17.185418,-7.574645,-3.909233,9.239066,9.365531,25.290468,20.778581,18.924294,296.564906,-92.975178,83.271141
40,0.799713,0.110533,4.630051,-3.743217,0.0,-61.610012,-30.522652,-86.935158,-22.89505,-86.162567,-13.026581,-71.438713,-2.229881,-49.559898,0.0,23.880922,30.738058,63.190679,48.013045,79.492973,60.613093,88.409609,68.7773,93.340688,0.0,13.972893,-9.551067,13.32859,-15.209599,10.828171,-15.423203,6.882019,-11.055222,5.553017,0.0,-67.374887,-35.150928,-23.632593,-18.282691,-7.970805,-0.768268,5.240665,15.40469,18.144185,19.329071,297.286151,-88.740063,80.138635
41,0.820427,-0.341542,0.750504,-6.016034,0.0,-62.064629,-30.946655,-87.386112,-23.694992,-86.26997,-14.054718,-71.71011,-3.361702,-49.781685,0.0,23.897842,30.867796,63.32585,48.0178,80.010812,60.402771,89.154751,68.272861,93.907618,0.0,16.263084,-10.661774,13.828697,-15.646019,12.239857,-15.392704,8.02351,-11.131153,6.526852,0.0,-68.750408,-31.401381,-20.276983,-14.966694,-3.053373,2.941975,9.961237,20.464241,24.167104,19.829464,297.652454,-88.309593,74.830446
42,0.009727,-0.181237,-1.167126,-5.145137,0.0,-62.033215,-30.584679,-87.073174,-23.486481,-86.327076,-14.026337,-72.133255,-3.487129,-50.190697,0.0,23.668501,30.803576,62.369275,47.911527,79.111726,60.303291,88.403063,68.188448,93.736446,0.0,12.208328,-13.147087,10.69725,-18.112621,7.498913,-17.968941,3.889446,-14.425735,1.746597,0.0,-67.547016,-29.868489,-20.559738,-12.278359,-2.093895,6.192764,11.269265,23.437523,24.697293,19.489975,298.123795,-89.825935,70.337887
43,0.42881,0.22014,-6.344604,-5.206455,0.0,-62.611713,-31.205521,-87.411919,-24.079628,-86.747589,-14.61937,-72.72892,-4.053154,-50.755577,0.0,23.056863,30.593315,61.456357,47.751779,78.336202,60.239935,87.485452,68.285396,93.432078,0.0,7.996159,-15.604935,6.386662,-19.695797,6.311588,-18.978481,3.855515,-14.380932,2.505455,0.0,-68.036758,-34.841034,-23.499737,-19.575745,-7.88173,-2.421265,5.060817,14.375434,16.088236,19.136496,298.387192,-96.952829,65.174688
44,1.130447,-0.216003,-7.743416,-8.843462,0.0,-63.345108,-31.404877,-88.083801,-24.526062,-87.839241,-15.253372,-73.778229,-4.789696,-52.084522,0.0,22.205325,30.417882,60.948089,47.667181,77.767481,60.240244,87.133104,68.428657,93.353717,0.0,6.456985,-21.33831,3.022156,-27.614994,1.830025,-28.781662,-1.593189,-25.185528,-3.777866,0.0,-63.764988,-40.127147,-25.317792,-28.141392,-11.49805,-13.252596,0.164657,2.278714,6.098903,20.153818,298.051069,-104.80937,56.211107
45,0.628624,-0.185745,-9.210262,-10.331616,0.0,-63.126068,-31.842613,-88.544769,-24.801636,-87.978344,-15.350647,-73.560963,-4.726181,-51.978951,0.0,22.018406,30.426404,61.097957,47.763635,77.379318,60.459828,87.356023,68.752476,93.376009,0.0,2.948284,-26.086349,1.021786,-32.812271,-2.905426,-34.445057,-6.022339,-31.806793,-9.440289,0.0,-55.765006,-37.02249,-23.079618,-25.112256,-9.057118,-9.838662,3.744946,6.684451,11.256791,19.338684,296.705743,-115.46339,44.719911
46,0.437622,-0.094725,-11.061058,-8.765409,0.0,-63.046932,-31.956253,-88.922596,-24.866982,-88.277664,-15.386925,-74.083843,-4.746094,-52.226601,0.0,21.338596,29.871885,61.177862,47.077341,77.599026,59.903704,87.639643,68.420815,93.595161,0.0,3.272266,-29.840698,3.234787,-36.605358,-2.954464,-38.284492,-4.802914,-35.745964,-11.509094,0.0,-53.365694,-33.584876,-26.335069,-23.300159,-11.802171,-8.608779,-0.056008,7.244497,10.079057,17.667475,295.743379,-128.63328,35.086862
47,0.343781,-0.39545,-9.469357,-5.699131,0.0,-63.692322,-31.821899,-88.621731,-24.684677,-87.317505,-15.134583,-73.289623,-4.273796,-51.302948,0.0,21.736886,29.995757,61.317295,47.129149,78.126621,59.839175,89.333024,68.219817,94.517404,0.0,0.429211,-25.091,-9.183197,-34.670906,-4.700661,-39.819546,-7.382755,-40.778904,-13.847122,0.0,-53.675897,-29.078207,-50.275734,-20.942066,-24.764323,-8.488057,-16.589927,6.72357,-4.550017,13.173809,294.192594,-142.940083,28.232396
48,-0.36953,-0.19754,-10.796242,-1.693783,0.0,-63.799782,-31.346397,-88.54454,-23.984756,-87.525558,-14.445877,-72.869511,-3.839607,-50.877457,0.0,22.177105,30.05442,62.105477,47.12069,78.748695,59.798296,89.646593,68.122869,94.450775,0.0,-0.526886,-21.823883,-16.130047,-32.989025,-6.114006,-39.663563,-11.777802,-41.704674,-15.65855,0.0,-56.106085,-30.317785,-58.70022,-23.275459,-20.600215,-10.896786,-13.399592,4.240401,-0.441052,10.113287,293.589323,-156.427317,26.132882
49,0.704956,-1.103171,-8.970909,-0.879774,0.0,-64.463882,-32.046318,-89.577885,-24.551353,-88.563423,-14.845161,-74.409542,-3.869133,-52.20274,0.0,22.503579,30.646729,62.87007,47.647174,79.086778,60.34911,90.333937,68.800148,95.998364,0.0,-10.17251,-31.652126,-14.467936,-43.104801,-11.16663,-48.631582,-17.087488,-49.093523,-21.946707,0.0,-63.917465,-29.568521,-34.644142,-18.236487,-8.993932,-3.10319,0.516697,13.215669,13.404255,9.258299,292.189689,-166.95817,24.956645
50,-0.47287,0.295537,-8.970909,-0.879773,0.0,-63.721161,-31.385536,-89.0938,-24.08947,-87.988987,-14.823418,-73.792648,-4.36203,-52.149353,0.0,21.650497,29.918692,62.090039,46.920495,78.448403,59.764148,89.682964,68.439772,95.22284,0.0,-19.818134,-41.48037,-12.805824,-53.220577,-16.219254,-57.599602,-22.397175,-56.482372,-28.234863,0.0,-71.728846,-28.819257,-10.588065,-13.197514,2.612351,4.690407,14.432986,22.190937,27.249561,7.202139,292.236974,-177.512369,23.828619
51,0.012932,-0.343826,-8.616142,15.248091,0.0,-63.554821,-30.870209,-88.812675,-23.598976,-88.109951,-14.40033,-73.599186,-4.072037,-52.145405,0.0,21.665873,29.727204,61.909234,46.912714,78.674039,59.977558,90.184686,68.980829,95.715732,0.0,-18.978424,-40.810032,-13.744354,-48.312721,-15.801315,-49.210453,-17.374935,-45.924225,-25.649986,0.0,-69.517688,-19.608627,-7.137854,-3.215745,5.043125,12.604895,16.869719,27.319062,29.297298,6.630535,291.656752,-186.713047,38.840314
52,0.412674,0.051747,-7.619534,13.868618,0.0,-63.461609,-30.889778,-89.157028,-23.644867,-88.484688,-14.329147,-73.38335,-3.716011,-51.729698,0.0,21.971661,29.818965,62.505373,46.878258,78.796798,59.855045,90.626387,68.775509,95.741914,0.0,-18.362274,-32.49876,-8.192825,-39.827385,-13.438168,-41.84721,-15.586739,-40.22501,-24.074478,0.0,-66.811229,-15.222341,-4.305208,0.132949,6.527914,14.51462,16.757796,27.027692,29.225389,6.68601,291.58174,-194.689779,52.582174
53,0.029755,0.583109,-0.003662,24.677132,0.0,-63.23267,-31.151962,-89.170818,-23.678055,-88.041916,-14.226151,-73.022804,-3.56472,-51.55529,0.0,21.509336,29.645694,62.176305,46.72172,78.491257,59.7187,90.243905,68.706164,95.19073,0.0,-22.531757,-27.132168,-22.658558,-39.394569,-20.277901,-46.118488,-26.135845,-47.549171,-29.613132,0.0,-56.043809,-26.511119,-38.709666,-11.825235,-8.729934,5.205776,4.401909,21.672388,21.03642,6.540585,292.264484,-194.868622,77.35894
54,1.304741,-0.071816,-0.077991,-1.629686,0.0,-64.197578,-31.835861,-89.155941,-24.435883,-88.285103,-14.780159,-73.373222,-3.706856,-51.682491,0.0,22.422686,30.090791,62.116283,47.038623,78.542881,59.740498,90.618359,68.216853,95.786375,0.0,-29.958973,-44.150276,-11.002464,-52.32233,-14.77993,-52.109699,-16.237621,-48.001785,-20.811081,0.0,-63.884012,-17.153925,-8.535667,-0.045016,2.088275,18.0498,16.814359,35.566292,32.187279,7.865267,292.574394,-194.926672,76.11098
55,0.060768,0.297822,2.986679,-0.353768,0.0,-63.251152,-31.121635,-89.096832,-23.713074,-88.370304,-14.330292,-73.946743,-3.784676,-52.246914,0.0,22.149379,29.650448,62.097882,46.7697,78.226657,59.72012,89.336359,68.55716,95.185296,0.0,-34.519329,-50.016861,-14.561634,-57.635193,-17.420826,-57.774124,-21.743774,-54.274349,-25.272789,0.0,-61.05643,-14.336254,-6.67136,2.824309,7.33669,19.891413,20.175558,36.136835,34.70157,7.965775,292.998387,-191.900253,75.883383
56,0.35614,0.587926,0.276489,-0.422929,0.0,-63.546467,-31.218109,-89.221115,-23.661346,-87.801418,-13.937988,-73.002377,-2.963219,-51.040649,0.0,22.627944,29.856201,62.527788,46.915061,79.117221,59.666336,90.784035,68.127624,95.911234,0.0,-34.08617,-50.79237,-15.925541,-57.98727,-17.687359,-57.357903,-21.381512,-53.496838,-25.554943,0.0,-60.666229,-14.822198,-5.393775,2.67935,8.539742,19.872054,22.215421,36.325699,36.931563,8.536949,293.684774,-191.40873,75.558916
57,0.165939,0.134184,-0.842628,-0.624081,0.0,-63.864555,-31.339989,-88.67775,-23.974228,-87.496033,-14.622459,-72.960262,-4.136925,-50.84507,0.0,21.707925,30.369902,62.436459,47.280006,78.675274,59.947609,90.03772,68.320224,95.475523,0.0,-31.937084,-50.367107,-13.353653,-57.403793,-14.508705,-56.778603,-18.14867,-52.562885,-23.506165,0.0,-60.910421,-16.281978,-6.062131,1.226703,7.667734,18.746283,21.445578,35.836419,36.244991,8.92333,293.901518,-192.030916,75.017395
58,0.277634,0.392547,-0.923367,-1.905803,0.0,-63.549328,-31.495743,-89.097977,-24.225197,-87.809143,-14.744797,-73.177986,-3.857689,-50.553532,0.0,21.757078,29.803404,62.40861,46.789399,78.839592,59.635275,90.13263,68.360485,95.554378,0.0,-30.812702,-49.984818,-14.596424,-56.840115,-16.526127,-55.740681,-19.549484,-51.109085,-23.216858,0.0,-60.933145,-15.613623,-6.141356,2.618804,8.113016,20.617135,22.79183,37.757783,37.651604,9.546289,294.297832,-192.608957,73.115359
59,-0.114899,-0.062368,0.22316,-0.31715,0.0,-63.038177,-31.720963,-88.907776,-24.373398,-87.956429,-14.971161,-73.387985,-4.28009,-51.180325,0.0,21.631046,29.737146,62.658267,46.70338,79.016136,59.595446,89.742244,68.357644,95.506028,0.0,-31.71484,-49.787521,-15.310535,-56.905117,-16.765823,-56.327019,-19.851723,-52.388821,-23.76543,0.0,-61.829206,-16.44608,-6.900331,1.331401,7.135816,18.989116,21.429122,36.245361,35.952232,9.742212,294.29581,-192.074976,72.858555
60,0.437393,-0.049153,0.818481,-1.111075,0.0,-63.132076,-31.281509,-88.721008,-23.803825,-87.627296,-14.100266,-72.938175,-3.01609,-50.642395,0.0,22.149564,29.723005,62.271832,46.682076,79.325691,59.343134,91.069878,67.774535,96.164719,0.0,-32.8545,-51.576233,-16.067047,-58.50214,-17.754879,-57.450142,-21.355305,-52.618332,-25.52084,0.0,-61.335696,-15.4167,-6.540357,2.857963,7.979697,20.586507,22.408669,37.758339,37.264243,10.372753,294.276312,-191.063347,71.777135
61,-1.049423,-0.327709,-0.282669,-0.453588,0.0,-63.069592,-31.74099,-89.552135,-23.666267,-87.702713,-13.826065,-73.57481,-3.347054,-52.041492,0.0,22.672837,30.812653,64.02647,48.287649,79.3373,61.267647,90.339494,69.848361,96.164349,0.0,-32.030354,-50.402985,-13.788929,-57.63588,-16.324768,-57.021561,-19.037132,-52.830734,-23.112202,0.0,-59.705732,-14.179068,-6.093809,3.45827,7.371949,20.779014,21.747445,37.406948,36.91841,9.530611,294.04359,-191.138735,71.418535
62,1.132164,0.6209,0.584679,-0.081788,0.0,-64.017735,-31.649551,-89.770489,-24.137535,-88.576984,-14.515114,-73.762093,-4.097557,-51.715851,0.0,22.702909,30.278574,62.302152,47.641925,79.138649,60.531953,90.772673,68.976198,95.650462,0.0,-32.677059,-50.359039,-12.900581,-57.60601,-15.951118,-57.121639,-19.505024,-53.152256,-24.110813,0.0,-59.686682,-14.101231,-5.515145,3.546203,7.875709,20.843512,22.384154,37.53295,37.602141,10.898924,294.794213,-190.317907,71.466469
63,0.619926,0.060515,-1.257648,4.739931,0.0,-64.049549,-31.217766,-90.155582,-23.898239,-88.885231,-14.588242,-74.256878,-4.456902,-51.987305,0.0,21.766711,30.445608,62.430161,47.729981,78.862933,60.585552,90.422055,69.002689,95.81972,0.0,-28.112869,-43.187656,-11.678467,-53.625755,-16.407852,-55.10788,-19.265213,-50.650063,-21.534519,0.0,-62.478912,-21.22831,-11.131315,-3.560127,0.801428,15.93349,15.425994,34.847548,31.568663,11.80624,294.940685,-191.288166,76.292356
64,0.268364,-0.290165,2.101307,-2.444328,0.0,-64.329185,-31.149902,-90.041542,-23.589935,-89.028568,-14.131622,-74.527359,-3.910561,-52.226143,0.0,22.936203,30.788014,63.303064,48.200951,79.701133,61.122596,90.926247,69.574313,96.467296,0.0,-33.125153,-50.946236,-14.302654,-58.433189,-16.086044,-58.205681,-20.208607,-54.066925,-23.554401,0.0,-61.804968,-16.827142,-9.015251,1.227228,6.56481,19.356747,19.537151,36.154959,33.561164,12.319365,294.790369,-188.942099,73.987877
65,-0.523453,0.312025,1.258049,-1.003074,0.0,-63.717499,-30.697174,-89.088936,-23.492317,-88.541451,-14.401703,-73.799343,-4.341431,-51.420822,0.0,22.095038,30.861744,63.115652,48.371074,79.139328,61.355024,90.304173,69.855215,95.853683,0.0,-33.85849,-51.890488,-17.512207,-58.865891,-19.263096,-57.788029,-22.744961,-53.034325,-26.359978,0.0,-61.669673,-15.636223,-5.83069,2.613185,8.429734,20.223322,22.93225,37.110639,38.06459,11.943998,295.130722,-187.535963,73.013131
66,-0.0103,0.347037,-0.408096,5.892255,0.0,-63.697128,-30.506058,-89.270382,-23.147507,-88.005524,-13.99704,-73.454018,-3.991814,-51.093178,0.0,22.32018,30.374657,63.109662,47.649335,79.241216,60.553257,90.424586,69.120571,95.863871,0.0,-29.203434,-44.970818,-14.88224,-54.485893,-17.877102,-55.506134,-21.202412,-50.782185,-24.753914,0.0,-65.081908,-21.967308,-13.186553,-4.92228,0.14922,13.846295,15.443284,32.41804,29.783922,12.092829,295.50848,-187.784929,78.936107
67,-0.586853,0.068049,-0.861511,-5.1121,0.0,-62.73777,-29.92733,-88.343582,-22.589607,-87.025452,-13.240814,-72.418442,-2.777367,-49.695625,0.0,22.060767,30.252762,63.054087,47.21702,79.459195,59.866901,90.809106,68.197649,96.054495,0.0,-31.679707,-50.070705,-13.783321,-57.358704,-15.56179,-56.70908,-19.659405,-52.480145,-23.122444,0.0,-63.074032,-16.511937,-7.849867,1.935351,7.319153,20.041436,19.458419,36.935608,33.722641,11.700811,295.613795,-188.451605,73.861273
68,0.205536,0.350372,1.78133,-0.192383,0.0,-62.898216,-30.106201,-87.910652,-22.916679,-86.939163,-13.566284,-72.157345,-2.78904,-49.481049,0.0,22.254478,30.308893,63.173203,47.154529,79.018544,59.788972,90.640713,68.282124,95.618599,0.0,-32.587566,-50.808792,-14.441643,-58.052731,-16.986694,-57.567501,-21.084766,-53.389435,-24.723644,0.0,-62.199646,-16.404398,-6.20638,1.642036,7.696016,19.329052,22.017573,36.491993,36.713985,12.08602,295.991986,-186.490602,73.696708
69,0.905342,-0.324437,-0.585938,0.630441,0.0,-63.75824,-29.946785,-88.399658,-22.501945,-87.524071,-13.047752,-73.240128,-2.454758,-51.129513,0.0,22.666724,30.28796,63.884383,47.279759,79.777766,60.056845,91.135395,68.691097,96.193989,0.0,-30.743351,-50.059376,-13.377457,-57.093143,-15.435791,-56.384983,-19.085999,-52.075939,-22.42178,0.0,-61.497544,-16.601506,-6.741262,1.261283,6.365912,18.875804,20.400761,35.893878,34.924057,13.195152,295.690088,-186.872749,74.349688
70,0.029182,-0.167035,-0.512009,0.269571,0.0,-63.000813,-29.849625,-88.062973,-22.340469,-87.095146,-12.88044,-73.029041,-2.303123,-50.970325,0.0,23.254649,30.054296,64.008686,47.140203,80.096892,60.040173,91.282608,68.788724,96.799699,0.0,-30.092182,-48.964691,-12.473431,-56.004581,-14.934196,-55.296021,-18.466015,-50.950584,-21.983929,0.0,-62.208075,-17.057038,-6.694825,1.094495,6.504541,18.890779,20.630658,35.988109,35.2191,13.341923,295.538166,-187.26717,74.634373
71,-0.438995,-0.036741,0.332394,-0.01939,0.0,-62.829437,-30.14946,-87.879982,-22.343788,-86.3134,-12.738419,-72.610416,-2.286987,-51.643009,0.0,23.652322,30.299816,64.892705,47.587461,80.858521,60.72764,91.459708,69.667494,96.989458,0.0,-30.835762,-49.040909,-11.158905,-56.32782,-14.26815,-56.030159,-17.838535,-51.967506,-21.171227,0.0,-61.583531,-16.143904,-6.045952,1.757448,7.136001,19.452738,20.702134,36.24601,34.714569,13.057566,295.490819,-186.780138,74.604378
72,0.815277,0.497338,0.086632,0.706579,0.0,-63.610554,-30.471497,-89.126072,-22.611923,-87.228012,-12.664261,-72.636738,-1.68972,-50.793915,0.0,22.931942,30.038858,64.036536,47.09247,80.574284,60.007568,92.021699,68.76001,97.079243,0.0,-30.551147,-48.802242,-12.709465,-56.050129,-15.310307,-55.637169,-19.181271,-51.48634,-22.774773,0.0,-62.538347,-16.362346,-5.722936,1.589209,7.094042,19.154268,20.816898,36.058628,35.652835,14.085302,295.871032,-186.481047,75.193832
73,-0.852814,0.455965,-0.478878,1.57763,0.0,-62.77256,-29.971619,-88.488865,-21.4888,-86.841488,-11.353798,-71.162395,-0.656776,-49.417248,0.0,22.076699,29.693612,64.223392,46.809282,80.963435,59.71907,92.224055,68.320903,96.287911,0.0,-29.391003,-48.686085,-13.410301,-55.815639,-15.81007,-55.497437,-18.965607,-51.511688,-22.26511,0.0,-63.57702,-18.608734,-8.181652,-0.583017,5.196946,17.190419,19.111104,34.345178,33.789733,13.280096,296.151302,-186.912317,76.595767
74,0.48111,-0.066937,0.992031,3.788573,0.0,-63.334923,-29.840927,-88.522167,-21.645355,-86.810188,-11.661987,-71.657753,-0.82798,-49.683266,0.0,23.190676,30.316241,64.489043,47.613581,81.294232,60.407958,92.974446,68.772175,97.275733,0.0,-26.495247,-45.267735,-12.678394,-56.108952,-16.233673,-57.691841,-19.012012,-53.179951,-23.629646,0.0,-61.492728,-22.898504,-13.903568,-6.630914,-0.423793,12.386855,13.125081,31.351271,28.178319,13.854017,295.90413,-185.827475,80.204106
75,-0.704727,-0.16475,-1.254387,-2.967478,0.0,-62.749043,-29.359474,-87.186527,-21.257973,-85.655594,-11.433792,-70.263863,-0.800171,-48.214645,0.0,22.915825,30.344214,64.369,47.435493,81.347831,60.18294,93.029219,68.489296,97.201138,0.0,-29.873257,-49.208736,-10.115032,-56.446438,-12.797012,-56.58308,-17.490463,-52.981682,-22.764187,0.0,-62.839566,-17.725919,-10.100978,-0.175865,5.574086,17.90342,17.48006,35.042525,30.967276,13.255663,295.729315,-186.975489,77.226563
76,0.543823,0.21131,0.973663,-0.168764,0.0,-63.243427,-29.863358,-87.473145,-21.429176,-86.248341,-11.120453,-70.779877,-0.004349,-48.776207,0.0,23.37426,30.755904,64.023445,48.065718,80.927929,60.763517,92.597089,68.924143,97.244364,0.0,-30.009842,-49.748383,-15.235348,-56.733742,-16.663456,-56.103516,-19.30624,-51.873894,-21.760769,0.0,-62.628781,-17.891101,-7.441974,0.112077,6.133082,17.872947,19.456412,35.145834,33.770281,13.969059,295.961836,-185.832253,77.07901
77,-0.31311,0.208099,0.403805,0.774227,0.0,-63.237762,-29.487991,-86.754055,-21.215172,-86.11948,-11.178246,-71.149063,-0.33371,-48.581371,0.0,23.114352,30.542495,63.611075,47.919987,80.467826,60.716957,92.123649,68.966442,97.464566,0.0,-29.653931,-48.684254,-15.704556,-55.749207,-17.304554,-55.245438,-19.512806,-51.281376,-21.907482,0.0,-64.752655,-19.305649,-7.625744,-1.267026,5.297197,16.384823,18.917023,33.572155,33.53705,13.822374,296.172019,-185.262022,77.855321
78,0.57106,0.480912,-0.472412,0.364142,0.0,-63.408337,-29.519806,-87.554684,-21.349182,-86.661758,-11.391563,-71.51144,-0.638466,-49.366436,0.0,22.410768,30.470741,63.142452,47.898066,80.259172,60.648414,91.982981,68.844361,97.371075,0.0,-26.689453,-47.512264,-11.75108,-54.807873,-13.726215,-54.74493,-16.861897,-50.936794,-20.341129,0.0,-63.171073,-18.830572,-8.653054,-1.61783,4.594231,15.900361,17.704244,32.899076,31.517132,14.733353,296.572578,-185.394516,78.13911
79,0.466461,0.364821,0.838108,0.064745,0.0,-64.023056,-29.930649,-88.345642,-21.616287,-87.201633,-11.426468,-71.926689,-0.524025,-49.657288,0.0,22.33673,30.031263,62.970044,47.674282,79.864154,60.60451,92.095676,68.9029,97.328776,0.0,-27.139835,-46.004333,-12.855206,-53.621407,-15.57066,-53.72858,-18.111591,-50.172615,-20.18898,0.0,-63.214422,-18.989209,-7.150852,-1.533294,5.425638,16.039577,18.417338,32.977159,31.97424,15.546541,296.813235,-184.209681,78.079691
80,0.226822,0.135789,3.337555,1.906976,0.0,-63.973618,-29.54258,-88.274574,-21.238632,-87.186184,-11.024208,-71.700554,-0.131149,-49.531403,0.0,21.540828,29.954507,63.008021,47.2537,79.659575,60.022327,91.947537,68.252483,97.15112,0.0,-28.392334,-45.257435,-14.295616,-53.383026,-17.291908,-54.274063,-20.258102,-51.73605,-22.047615,0.0,-64.796344,-20.348552,-6.873469,-3.048525,5.355366,14.134855,17.618257,30.576458,30.917598,16.207352,296.828225,-180.438137,79.865868
81,1.019096,0.216744,0.980358,4.801774,0.0,-64.185677,-29.908905,-88.989887,-21.533432,-88.035564,-11.219902,-72.639198,-0.309448,-50.487213,0.0,21.616226,29.738937,62.590094,47.290133,79.169894,60.279641,91.453472,68.677511,97.311733,0.0,-24.67638,-42.060814,-11.920452,-50.719128,-15.309277,-52.11422,-17.873268,-49.813213,-19.372787,0.0,-67.07904,-23.136212,-9.566189,-5.989913,2.275781,11.439758,13.790534,28.364928,27.812324,17.503681,296.608502,-179.180546,84.231174
82,0.383263,-0.122204,2.367382,5.080515,0.0,-64.764919,-29.496117,-88.815422,-21.315422,-88.502254,-11.382637,-73.289738,-0.908089,-50.906239,0.0,21.574853,29.953458,61.963451,47.383314,78.887448,60.19566,90.97682,68.414578,96.820138,0.0,-23.701057,-40.086365,-11.72739,-49.999237,-16.053314,-51.769123,-17.78595,-48.736038,-19.362831,0.0,-68.950726,-24.647739,-11.881088,-7.575633,0.80856,9.944132,12.265515,26.817062,26.562712,18.433142,296.110655,-176.266966,88.936046
83,0.313568,-0.280656,4.020081,5.677734,0.0,-64.734993,-29.329376,-89.084015,-21.250648,-88.258667,-11.403694,-72.938519,-1.030655,-50.63324,0.0,21.657351,29.932524,62.059535,47.454327,78.952471,60.331511,90.999174,68.642622,96.827672,0.0,-22.998276,-39.044952,-10.951252,-48.47929,-16.045017,-50.341358,-16.94973,-47.339745,-19.073868,0.0,-69.451738,-26.69884,-14.359472,-10.493587,-2.432874,6.594296,8.981443,23.300314,23.373951,19.605389,295.240807,-171.388206,94.024589
84,-0.029526,-0.270405,3.597736,5.031948,0.0,-64.244556,-28.718147,-88.69297,-20.529442,-87.653332,-10.69416,-72.740421,-0.35511,-50.068417,0.0,21.543237,29.619079,62.03045,46.944083,78.444883,59.830715,90.22859,68.256621,96.194113,0.0,-21.518383,-38.774872,-4.228535,-46.579514,-9.667053,-47.44915,-11.686306,-43.00581,-14.851398,0.0,-67.53939,-23.418041,-15.097852,-6.262078,-1.074488,11.797663,11.080679,29.490885,22.662092,20.542574,294.621281,-166.823759,98.707416
85,0.53009,-1.326769,-3.03669,5.431906,0.0,-65.297298,-29.710236,-89.620857,-21.343803,-89.241428,-11.268997,-74.574966,-0.852699,-51.825829,0.0,22.291034,30.897127,62.618561,48.287711,78.520465,61.130067,90.826643,69.424074,97.283822,0.0,-12.007313,-21.843338,-5.345993,-28.403549,-6.927624,-30.384865,-10.903702,-27.836838,-11.940708,0.0,-68.995156,-21.95539,-15.837684,-2.477643,3.004621,16.868144,18.507803,34.609099,35.431121,22.002039,293.110634,-168.931074,103.955445
86,0.172577,-0.686912,6.2467,5.336069,0.0,-66.017017,-30.430069,-90.269737,-21.93512,-88.815594,-11.851387,-74.813004,-1.625404,-52.073021,0.0,22.458007,30.540704,62.3744,48.28592,78.377822,61.340266,90.739513,69.654403,97.728487,0.0,-12.207985,-26.512585,0.722866,-32.739315,-5.306911,-33.987236,-7.924805,-31.775322,-13.058167,0.0,-64.458785,-19.472437,-6.29916,-0.853823,7.587211,18.211123,20.999154,35.724528,33.410801,23.547306,292.025556,-161.311684,108.893347
87,-0.15049,-0.531177,6.484909,7.205439,0.0,-65.924892,-30.472984,-89.757099,-21.97197,-89.037838,-11.920967,-74.426422,-1.762276,-51.527252,0.0,22.404778,30.7614,62.853521,48.238681,79.100116,60.93648,91.096184,68.838186,97.301977,0.0,-8.963528,-23.121185,1.824589,-30.398712,-3.022213,-33.107815,-5.779438,-31.747284,-11.004753,0.0,-58.286183,-16.606075,-3.302443,-0.652084,11.295416,15.989127,20.34321,31.809088,31.946113,24.745245,291.353032,-153.478346,115.95744
88,-0.295486,-0.612564,1.534996,20.560757,0.0,-65.574074,-30.355453,-89.439468,-21.843452,-88.600903,-11.748962,-74.275246,-1.4851,-51.122074,0.0,22.252317,30.816481,62.811902,48.04355,79.013604,60.515404,90.726916,68.289472,97.310683,0.0,2.793674,-17.559929,4.104309,-24.570351,0.106773,-26.206341,-4.129715,-24.05674,-2.92717,0.0,-65.779595,-18.311158,-9.846844,1.240689,6.582717,19.592788,20.621859,36.229028,35.992277,25.914488,290.674364,-150.478621,136.452093
89,-0.186539,-0.416877,10.212193,5.515609,0.0,-65.935364,-30.181389,-88.873444,-21.861191,-88.252029,-12.252045,-74.490623,-2.546654,-51.75087,0.0,21.503408,31.313449,61.997043,48.978574,78.115815,61.607336,89.736193,69.266981,96.70874,0.0,-2.515526,-15.139847,9.818344,-19.678802,5.18898,-20.756435,2.976036,-18.881893,2.393532,0.0,-53.543072,-12.813828,-3.503286,2.086979,10.062785,18.115039,22.820297,32.904448,35.127092,26.982794,289.396733,-139.011583,141.106947
90,-0.293541,-0.534326,0.391388,21.344153,0.0,-66.525307,-31.129532,-89.319592,-22.438889,-88.795738,-12.318535,-74.827709,-2.225761,-52.35815,0.0,22.27572,31.362664,62.76738,49.050822,78.76864,61.707557,89.437629,69.464026,96.861017,0.0,17.35342,1.808167,15.828209,-7.610836,13.747501,-12.680626,10.680943,-14.246178,5.566521,0.0,-57.403492,-15.33343,-5.193827,3.41418,9.598608,22.372113,21.171129,39.938623,35.904345,27.896519,287.780478,-137.41293,161.369172
91,-1.456604,0.259722,12.772179,14.694066,0.0,-64.568768,-30.663872,-87.699795,-22.460403,-87.837753,-12.759705,-73.424492,-2.73365,-50.61842,0.0,21.835069,31.232494,61.574979,48.867732,77.840717,61.417639,88.947825,69.021461,96.326814,0.0,18.985863,11.071644,14.771175,5.659332,19.120045,2.358055,17.687073,0.291367,9.125404,0.0,-48.987713,-1.773163,-2.109456,17.366315,11.403449,34.252213,26.445911,47.604257,39.233433,27.61076,287.061224,-123.469906,175.084262
92,-1.347084,-0.32598,6.864223,7.83656,0.0,-63.780899,-30.180588,-86.979446,-22.052994,-86.504459,-12.338219,-72.452831,-2.026291,-49.980354,0.0,22.342164,31.167285,61.20849,48.432886,76.97158,60.84299,88.754299,68.478243,95.634036,0.0,28.62402,0.778084,42.54055,-6.578922,37.901745,-9.812508,28.170033,-9.688454,16.909847,0.0,-31.711245,2.227152,10.013632,20.577399,17.088562,35.69322,28.753091,48.376817,39.703539,27.351007,286.328525,-115.518351,182.514103
93,-1.045647,-0.719392,12.398701,19.223706,0.0,-62.515182,-30.163078,-86.936188,-22.156563,-86.240788,-12.470741,-72.611618,-2.099075,-50.691319,0.0,21.633269,31.47085,60.983595,48.894964,76.644426,61.30371,88.548053,68.967615,95.798169,0.0,41.732597,6.645985,39.702873,1.111622,42.335186,-0.035305,36.760368,1.197739,27.642288,0.0,-12.418008,6.653422,12.117098,26.987585,21.026756,43.720774,34.365031,56.435925,45.990163,27.83658,284.934463,-101.58843,201.063139
94,-0.055389,-0.558718,-1.049709,9.050573,0.0,-62.667618,-30.461311,-87.759991,-22.407303,-87.003593,-12.643547,-73.417225,-2.238922,-51.33379,0.0,22.213537,30.995866,61.127597,48.339087,76.171912,61.000638,87.858054,69.083582,95.535174,0.0,53.759022,12.386055,82.618847,8.963356,82.568035,8.657055,73.460541,10.170135,57.689896,0.0,-2.714919,13.33247,25.032691,32.880983,37.331212,48.186193,46.534308,58.201986,49.48641,28.627739,283.878562,-101.791592,209.616528
95,-0.366783,0.14851,8.109627,12.496122,0.0,-62.891521,-30.854759,-87.543697,-23.407173,-87.139549,-13.972664,-73.310509,-3.531303,-51.359825,0.0,21.621228,31.088245,60.583947,48.370333,76.254225,60.652613,87.956114,68.236614,94.296893,0.0,56.424236,14.858952,83.172398,12.043018,82.080975,10.78022,72.354527,10.654678,56.975956,0.0,8.076522,20.089756,32.308248,37.116444,43.812844,49.56755,53.744842,57.35934,55.566602,28.375797,283.967683,-93.567123,222.053262
96,0.388641,1.89722,17.142563,24.342692,0.0,-51.166363,-30.815277,-86.212578,-24.871559,-87.458439,-16.450882,-74.616337,-6.58287,-52.977734,0.0,0.161786,27.594962,57.571762,43.801975,74.311866,56.079192,85.438673,64.749382,91.821504,0.0,52.18317,29.542522,56.193981,38.858528,39.120941,45.356598,41.291714,49.019279,53.788261,0.0,14.985405,21.331433,55.852136,46.52875,89.121529,69.741162,111.28931,89.094668,123.154898,28.763781,286.125073,-76.425219,246.656124
97,0.716171,0.855861,5.055485,9.137826,0.0,-60.455818,-29.821014,-90.634232,-23.775558,-89.846306,-15.358887,-76.663513,-6.073723,-54.903431,0.0,6.491203,25.675389,49.866854,42.073643,72.919888,54.883334,84.808695,63.450648,90.105275,0.0,52.657413,24.153042,67.917023,27.930851,48.78891,30.144653,44.365654,31.041126,45.066204,0.0,17.799309,26.207184,52.961538,48.689521,84.096898,67.534264,104.042343,82.428402,111.086027,29.467564,287.209147,-71.382122,256.022164
98,1.218796,-3.09845,2.473183,5.999608,0.0,-64.604988,-24.049072,-86.569405,-20.072594,-93.11491,-13.819313,-81.653309,-5.787277,-55.460358,0.0,-1.649477,25.372318,28.085075,42.96112,55.497504,56.118033,82.92926,64.079267,97.035524,0.0,64.376907,22.377949,88.731537,14.33012,86.790047,7.686081,71.946487,2.028179,50.943203,0.0,22.569096,30.456415,51.85602,49.188464,66.789925,61.95036,79.869835,69.360101,86.125152,30.658951,284.284401,-68.936348,262.195476
99,-4.430122,0.338516,2.310505,8.964925,0.0,-46.063671,-17.315598,-75.221901,-12.684288,-84.625626,-7.539482,-76.325684,-1.403046,-51.593685,0.0,14.461329,41.395562,38.505519,51.453593,48.404172,57.734659,68.537462,60.455815,90.789222,0.0,64.270992,21.193428,90.289364,12.952824,90.709362,6.765461,78.471737,2.493439,57.370663,0.0,21.369533,30.087826,51.321755,48.752815,66.218548,60.942593,78.018805,67.435155,81.77218,26.185484,284.78072,-66.669188,271.318204
100,0.452042,-1.043767,2.56176,4.09078,0.0,-42.518291,-15.096588,-67.983627,-11.512642,-76.456146,-7.587433,-69.469357,-2.379341,-53.339939,0.0,14.904141,34.506377,37.841146,47.602528,53.691613,57.073498,72.966016,63.111576,91.913636,0.0,64.069233,25.827656,93.618679,16.582775,91.9491,8.591194,78.900776,2.208939,56.714573,0.0,24.392895,30.288639,51.65669,48.516372,67.42262,60.584255,79.526503,66.848279,83.516074,26.576328,283.945978,-64.168625,275.618008
101,-2.502937,7.41783,4.901848,3.766528,0.0,-43.146801,-3.204918,-57.583694,0.550919,-67.615242,2.179871,-63.252468,2.39994,-49.754677,0.0,21.277216,41.096134,40.158825,49.644367,42.69053,52.319025,50.669424,50.89716,65.092715,0.0,63.579655,25.082645,91.064014,15.489807,88.551464,7.073078,75.174007,0.056419,53.804455,0.0,21.905341,29.754374,52.499521,47.737453,68.912101,59.669979,77.835406,66.100482,80.077626,24.020863,291.736688,-59.319305,279.757416
102,4.119129,24.81888,3.083725,2.652736,0.0,-54.772511,-27.120323,-36.387635,-24.029703,-34.714279,-20.088988,-30.867377,-15.805779,-49.524479,0.0,28.772265,22.214464,31.27751,18.738194,27.294084,11.806772,23.456574,2.557147,20.946018,0.0,62.94714,25.802765,92.018681,16.441898,90.39053,7.984772,77.172489,0.80864,56.239758,0.0,19.122497,28.092609,52.436906,45.685919,69.021461,57.81617,77.449157,64.976007,81.516842,28.122568,316.745789,-56.253004,282.600375
103,4.119129,24.81888,1.992874,1.200552,0.0,-66.39822,-51.035728,-15.191574,-48.610325,-1.813316,-42.357845,1.517715,-34.011497,-49.294281,0.0,36.267314,3.332793,22.396195,-12.16798,11.897637,-28.705482,-3.756278,-45.782867,-23.20068,0.0,62.953777,26.926918,91.414776,18.031712,90.864201,9.253521,78.122005,0.940762,55.916805,0.0,17.927503,28.607669,52.682117,45.899699,69.43204,57.814502,78.873122,65.143474,84.24973,32.252283,341.904034,-54.249544,284.140291
104,2.846832,-7.02553,3.006706,2.160462,0.0,-64.784374,-51.471748,-17.655487,-52.056026,-5.956764,-48.308945,-5.125351,-42.066536,-60.031013,0.0,35.127401,0.61806,35.498336,-4.371188,29.498666,-9.00426,26.123388,-13.664316,24.511085,0.0,61.701336,26.412048,87.954998,18.034973,89.463558,9.242191,76.452084,0.374279,54.028988,0.0,16.365526,29.292605,54.759216,46.284219,71.158396,58.290042,83.120686,66.141422,91.084389,35.1406,334.943682,-51.201353,286.36593
105,-3.085899,5.31986,3.840179,1.546169,0.0,-52.164745,-47.981129,-13.08918,-47.455788,0.177383,-42.76268,2.974777,-35.394974,-14.11171,0.0,34.479516,5.338755,34.971975,-2.83175,28.19073,-11.560171,18.779597,-21.112034,6.447793,0.0,60.831013,26.455479,86.700954,17.230968,86.425037,7.538509,73.547459,-2.249794,51.738224,0.0,17.2275,29.346266,57.982402,45.906306,72.603294,57.735771,83.968519,65.730535,91.867632,32.381258,340.29644,-47.034616,287.944996
106,-4.452782,6.035856,2.077103,0.43744,0.0,-44.874916,-44.046135,-6.901131,-42.982864,7.143745,-37.965202,9.964256,-30.974007,-4.762344,0.0,33.162503,5.222973,27.091017,-5.530182,18.918968,-17.120672,7.191947,-29.439818,-8.21441,0.0,60.207996,25.025253,85.740108,15.343666,85.105762,5.408535,71.286678,-4.151402,50.276241,0.0,18.539635,28.217592,57.378792,45.652018,73.564563,57.939794,82.978166,65.745417,86.614586,28.18634,346.355807,-44.69965,288.405948
107,-8.415756,-3.245416,-0.3578,-0.300725,0.0,-25.602036,-34.327068,3.643341,-34.284267,14.990501,-30.672169,17.531891,-25.332985,1.998138,0.0,34.052944,5.287379,25.583196,0.290165,20.981061,-5.032782,15.40469,-10.777361,10.822068,0.0,61.183891,26.264477,86.254921,16.881752,86.121483,6.702232,72.59491,-3.346539,51.216774,0.0,18.912669,27.981643,57.619495,45.234462,73.607603,57.363601,82.584507,65.335332,86.582043,20.006475,343.195143,-44.821558,288.189976
108,11.088409,-5.504493,-0.189571,-0.657086,0.0,-70.853291,-48.708344,-9.697495,-46.65659,3.321533,-41.233749,3.560371,-34.163361,-61.288376,0.0,37.605445,5.189258,32.974288,-4.291715,23.522276,-14.662265,16.332119,-24.904744,5.786014,0.0,61.469364,25.053806,87.106419,15.427608,85.942097,5.594559,72.413464,-3.614216,51.639347,0.0,19.208454,27.484182,56.567638,44.947878,73.229875,57.228862,82.234938,65.028803,85.669434,31.295099,337.789558,-44.810915,287.631798
109,3.863983,-3.948815,0.105743,-0.78565,0.0,-60.078964,-48.117199,-9.634895,-47.26038,1.389771,-42.888222,0.229454,-36.268158,-62.78532,0.0,39.068065,2.469522,34.547318,-2.721094,27.921066,-7.62457,23.904758,-12.622155,16.717566,0.0,61.291523,25.585442,86.592579,16.024303,85.71928,5.930786,72.943211,-3.618565,52.531757,0.0,19.62496,28.621501,57.704525,45.949593,73.632056,58.115289,82.762163,65.590238,85.843879,35.407848,333.884153,-44.456406,286.889558
110,3.024445,6.889185,-0.395565,0.298007,0.0,-45.516014,-44.639969,-15.70919,-44.248009,-3.709717,-40.797844,-2.531548,-34.499016,-19.536781,0.0,33.124279,6.861768,28.314108,-4.94275,20.994337,-17.708042,7.380965,-31.149872,-14.04581,0.0,61.136398,26.036053,86.673088,16.542664,85.971336,6.517639,72.91008,-3.067875,52.288628,0.0,19.096685,28.305771,57.687482,45.683634,72.729697,57.901385,81.077859,65.558498,84.579045,38.60261,340.794441,-44.681654,287.208669
111,-3.102093,-9.12492,-0.160561,-0.531301,0.0,-56.8824,-47.071008,-10.842647,-47.231712,-0.336685,-43.892412,-2.10474,-38.184271,-46.793832,0.0,36.749738,7.284634,33.224346,2.385078,28.253005,-3.366046,21.354928,-9.444417,13.742091,0.0,61.198311,26.160622,86.692314,16.640053,85.93895,6.603413,72.675018,-2.882481,52.013168,0.0,19.526221,28.488738,57.636106,46.080689,72.997879,58.404466,81.492266,66.174891,85.160302,35.573501,331.669738,-44.76923,286.677584
112,-3.102092,-9.12492,0.011501,0.384829,0.0,-68.248787,-49.502048,-5.976105,-50.215416,3.036346,-46.98698,-1.677933,-41.869526,-74.050884,0.0,40.375198,7.707501,38.134584,9.712908,35.511674,10.97595,35.328893,12.261038,41.529993,0.0,61.402302,26.040058,86.343441,16.633015,85.789318,6.551685,72.621174,-3.217049,51.375561,0.0,18.637201,27.80479,57.475554,45.127139,72.768538,57.405468,81.058407,65.376334,84.830802,32.585621,322.571061,-44.643517,287.088657
113,-2.004776,8.48568,0.017281,-0.600893,0.0,-58.435307,-45.865688,-6.455154,-45.080395,3.928299,-40.985928,3.554192,-34.20948,-43.699837,0.0,37.163065,2.4384,34.837668,0.468006,30.98506,-1.61749,28.526776,-4.402249,23.451077,0.0,61.342449,27.042446,86.34985,17.519245,85.872746,6.962357,72.038555,-3.361301,50.864925,0.0,18.841533,27.853882,57.634932,45.091571,73.275385,57.24856,81.214574,65.187131,85.474982,30.706816,331.061805,-44.500265,286.492827
114,4.272423,12.57436,0.31477,0.162774,0.0,-37.541885,-46.131077,-10.43541,-46.103039,1.768227,-41.902199,1.927643,-34.837646,-24.329338,0.0,31.014453,5.750692,26.598928,-7.958578,17.364463,-22.932992,2.429446,-38.252775,-30.575655,0.0,61.036148,27.095776,85.983124,17.232056,84.769478,6.648502,70.871544,-3.414917,50.42244,0.0,19.232475,27.554145,57.930593,44.974492,73.038634,57.226206,80.715816,65.041338,84.848648,35.12475,343.687788,-44.039984,286.707225
115,-3.109245,-22.701242,-0.276833,-0.461523,0.0,-11.75766,-40.121613,2.770157,-44.145126,7.594872,-42.521095,1.90464,-37.802353,-15.747414,0.0,18.118991,9.777869,27.763294,17.174704,37.047654,22.643259,41.455213,26.494879,40.188712,0.0,60.953979,26.950836,85.699081,17.102852,84.279099,6.577034,70.186157,-3.464699,49.852066,0.0,19.39352,28.008937,58.286214,45.534322,72.974599,57.756025,80.767131,65.477482,85.124734,32.236376,321.031515,-44.095945,286.290672
116,-3.774376,5.148008,-0.559158,0.240641,0.0,-71.103458,-50.115337,-3.177338,-49.72086,7.890701,-45.042515,6.553574,-38.37513,-66.768036,0.0,38.564614,4.888595,35.565335,4.440904,31.422994,3.124571,29.496937,1.974963,28.562406,0.0,61.557999,26.447697,86.085205,16.584892,84.746475,6.163101,70.437584,-3.707542,50.203743,0.0,19.227596,27.222854,57.441715,44.564099,72.758658,56.718186,80.293752,64.547706,84.379591,28.566856,326.254257,-44.550247,286.606047
117,-0.02552,20.857807,-0.242443,-0.163762,0.0,-62.118301,-48.968525,-12.405052,-46.025963,4.593315,-39.018688,10.854263,-30.306473,-10.31147,0.0,31.842094,1.084769,26.347048,-14.521289,15.48793,-30.914356,1.95014,-47.558253,-23.499366,0.0,61.087818,26.728764,86.314831,16.967468,84.703045,6.618061,70.153713,-3.272324,50.169125,0.0,19.482502,27.604657,57.438751,44.899466,72.770823,56.978278,80.409657,64.746604,84.381876,28.59252,347.178477,-44.741507,286.508697
118,-4.232368,-3.306858,-0.430641,-0.018463,0.0,-51.227875,-45.163364,-5.21656,-44.011974,10.943756,-38.12479,12.455635,-30.669708,-5.894051,0.0,35.820302,3.369843,29.608088,-11.025907,18.941321,-26.684576,4.75262,-42.586913,-20.966982,0.0,61.472225,25.950909,86.276722,16.12896,84.956188,5.999565,70.376415,-3.46138,50.426044,0.0,19.523196,27.219088,56.941784,44.697603,72.707652,56.92789,79.964931,64.714308,84.089426,24.407301,343.945287,-45.124998,286.563902
119,-3.264084,-11.369054,-0.32753,-0.227674,0.0,-8.767891,-41.592178,3.46035,-43.783951,17.09095,-40.186558,15.299721,-34.101791,-0.306129,0.0,36.715189,10.62916,33.225612,2.340032,26.59195,-6.852381,17.077262,-16.175891,2.241293,0.0,61.665859,25.506363,85.435696,15.590572,84.232121,5.501518,70.239201,-3.810425,50.363102,0.0,19.629715,26.942631,56.788766,44.573856,73.001275,56.929249,80.389712,64.770933,84.377986,21.273594,332.599961,-45.322151,286.359956
120,6.900215,3.010827,0.066433,-0.004878,0.0,-76.471481,-54.287395,-7.30545,-52.175846,5.798721,-45.56757,8.334045,-37.193413,-68.342514,0.0,36.643621,2.321445,33.04351,-5.516535,23.330849,-14.475902,17.373664,-22.788804,7.725162,0.0,61.177597,24.899654,84.687881,15.004578,83.86425,4.897957,69.894562,-4.517155,49.460907,0.0,19.696035,26.642215,56.411533,44.240959,73.044315,56.620311,80.661784,64.518127,84.303885,28.289137,335.635025,-45.14039,286.379314
