takenoko1/special-research/HandMotion_SimilarSearch_自分用/NewProject/handData/test_key/d4_feature_d2/81.csv
frame,vel_0x_L,vel_0y_L,vel_0x_R,vel_0y_R,posFromWrist_0x_L,posFromWrist_1x_L,posFromWrist_2x_L,posFromWrist_3x_L,posFromWrist_4x_L,posFromWrist_5x_L,posFromWrist_6x_L,posFromWrist_7x_L,posFromWrist_8x_L,posFromWrist_9x_L,posFromWrist_0y_L,posFromWrist_1y_L,posFromWrist_2y_L,posFromWrist_3y_L,posFromWrist_4y_L,posFromWrist_5y_L,posFromWrist_6y_L,posFromWrist_7y_L,posFromWrist_8y_L,posFromWrist_9y_L,posFromWrist_0x_R,posFromWrist_1x_R,posFromWrist_2x_R,posFromWrist_3x_R,posFromWrist_4x_R,posFromWrist_5x_R,posFromWrist_6x_R,posFromWrist_7x_R,posFromWrist_8x_R,posFromWrist_9x_R,posFromWrist_0y_R,posFromWrist_1y_R,posFromWrist_2y_R,posFromWrist_3y_R,posFromWrist_4y_R,posFromWrist_5y_R,posFromWrist_6y_R,posFromWrist_7y_R,posFromWrist_8y_R,posFromWrist_9y_R,posFromBody_0x_L,posFromBody_0y_L,posFromBody_0x_R,posFromBody_0y_R
2,-0.317688,4.575767,-0.033302,-0.103061,0.0,-62.689419,-42.45369,-2.278175,-40.806484,7.842064,-36.259804,9.41082,-30.427551,-4.286613,0.0,32.121391,8.993268,34.838718,17.124377,40.570638,22.927557,39.152169,26.14673,38.655202,0.0,60.420055,24.960766,85.263691,15.910034,86.110554,6.760998,73.065777,-1.773834,52.114849,0.0,18.805285,28.760254,54.535803,45.777186,68.586553,57.561943,77.869184,65.0188,84.046263,19.412756,302.569053,-48.311377,274.862199
3,6.193657,2.102478,0.224419,-0.36124,0.0,-25.769577,-37.382698,5.505981,-42.957001,9.793282,-43.721352,0.904999,-41.007786,-20.084381,0.0,-15.475641,5.675172,24.398452,20.071971,36.971701,31.959975,44.84,41.446877,50.031604,0.0,60.771961,23.719025,85.214825,14.41452,85.139866,5.296383,72.391949,-2.950172,51.301174,0.0,20.465198,28.559257,55.19647,45.633616,69.413082,57.619495,78.601791,65.121305,84.229414,25.817099,304.665773,-47.876272,274.495201
4,-5.296783,7.431168,-0.150948,0.363895,0.0,-62.813473,-43.848896,-1.925354,-43.425407,7.880859,-39.563427,7.805901,-33.620224,-12.392578,0.0,30.171313,0.63041,30.396085,4.767688,33.332749,6.969769,29.293716,7.658595,24.105261,0.0,60.746212,23.721714,85.059986,14.369316,85.202808,5.32362,72.467365,-2.791901,51.310902,0.0,19.797985,28.008628,55.042835,45.276514,69.122114,57.306482,78.14422,64.841267,84.046757,20.698357,312.092649,-47.849178,274.854804
5,5.544434,-11.652241,0.33411,0.086204,0.0,-25.39753,-40.084476,6.713791,-46.082153,12.059669,-46.512451,2.761459,-43.748302,-18.398323,0.0,-11.814151,6.523005,26.196871,21.730773,39.658708,34.498103,48.341681,44.792576,53.987088,0.0,60.852013,23.730812,85.176544,14.127846,84.771652,4.695568,71.867409,-3.79652,50.711975,0.0,20.098648,28.056114,55.012825,45.220629,69.077901,57.111845,78.086669,64.42791,84.031504,26.391821,300.452913,-47.366037,274.953512
6,-1.987267,17.176803,-0.002975,-0.231811,0.0,-69.018574,-47.696514,-8.670158,-46.334438,2.893524,-40.872974,4.803658,-33.010941,-22.148094,0.0,31.607628,-0.561496,29.286368,-1.927724,27.398226,-4.765403,20.34287,-8.399168,12.016321,0.0,60.909805,23.806286,84.750938,14.353981,84.724617,5.154362,71.725159,-3.068447,50.944633,0.0,20.457294,28.661021,55.474594,45.864192,69.39678,57.793446,78.396718,65.149216,84.007298,24.509125,317.627462,-47.264442,274.719447
7,7.732658,-7.63266,0.097675,0.32561,0.0,-49.810638,-49.31488,-7.764702,-50.765362,0.798683,-47.409897,1.32225,-40.79567,-33.028793,0.0,13.627698,5.283489,31.110722,10.764332,34.395535,14.737106,33.550851,17.367303,29.695032,0.0,60.287189,23.97274,84.974957,14.70829,85.037098,5.597706,72.112484,-2.6647,51.158123,0.0,20.235795,28.718573,55.269521,45.800836,69.052522,57.700635,78.062833,65.117168,83.852552,32.323723,310.00161,-47.084827,275.051865
8,-10.452805,8.133394,-0.135269,-0.127947,0.0,-69.444866,-48.581257,-5.137138,-46.77475,7.769852,-40.992794,9.678497,-32.904968,-16.748886,0.0,30.682915,-1.276258,29.060547,-2.546772,27.515366,-5.284847,20.172378,-8.593126,10.74735,0.0,60.838337,23.2794,85.522442,13.986168,85.191021,5.125866,72.376385,-2.746353,51.344662,0.0,19.81793,28.593467,55.324294,45.816891,69.06938,57.909351,77.95724,65.43827,83.866137,21.909342,318.146613,-47.181673,274.935527
9,11.157532,-17.183164,-0.036049,-0.157587,0.0,-42.203064,-49.430351,-4.377022,-53.49123,3.43792,-52.053051,-0.331879,-47.194004,-33.703537,0.0,7.946846,10.178444,34.76153,20.817237,42.276617,29.033809,44.398237,35.073802,45.306401,0.0,60.64333,23.216,85.333614,13.987312,84.93021,5.138397,72.328205,-2.78801,51.095982,0.0,20.354912,28.745126,55.628723,45.929771,69.638224,57.918243,78.349108,65.363429,84.290733,33.097115,300.963944,-47.187481,274.778434
10,-9.276581,21.195767,0.182991,0.318941,0.0,-71.481514,-50.836086,-9.935303,-48.291206,6.282234,-41.500111,10.581779,-32.09301,-9.270401,0.0,30.185701,-1.04951,28.591182,-7.224798,25.020402,-14.305039,14.753841,-21.282588,1.306268,0.0,60.035191,22.974358,85.011578,13.84798,85.019588,5.147781,72.376614,-2.661781,51.048031,0.0,20.48996,28.123299,54.866044,45.422553,69.251173,57.596215,77.992623,65.26753,83.889417,23.870459,322.166472,-46.954565,275.104137
11,4.878387,6.851949,-0.583992,-0.254782,0.0,-67.992783,-51.999321,-14.629555,-48.391857,3.501091,-41.425095,9.733543,-31.799355,-14.901581,0.0,24.14509,-4.124866,26.373416,-14.653435,18.222176,-24.994467,7.477357,-35.44276,-10.854981,0.0,60.814533,23.0369,85.615025,13.857422,85.503559,5.207291,72.934284,-2.435646,51.73708,0.0,20.282664,27.900071,55.101189,45.51135,69.605188,57.87298,78.198869,65.479087,84.025515,28.804951,329.019024,-47.482452,274.849957
12,3.97728,-17.014276,-0.127773,0.225574,0.0,-54.615154,-52.309742,-8.51738,-53.055439,2.70401,-48.940029,3.653069,-41.578102,-18.138885,0.0,21.242821,2.760552,33.369676,4.4083,33.647305,4.874825,30.587079,4.35396,24.37931,0.0,61.163292,23.021736,86.047783,13.763695,85.547676,5.066242,73.049698,-2.621212,52.082291,0.0,19.719809,27.698024,54.917297,45.316343,69.064872,57.747071,77.821698,65.421042,83.651184,32.858076,312.033261,-47.53438,275.104044
13,-1.935425,-6.371655,0.786781,-0.900445,0.0,-21.74572,-41.049271,-0.622444,-45.496788,3.63945,-44.780216,-2.729645,-40.492172,-16.067276,0.0,-0.834001,6.161765,23.097248,16.677366,33.3903,24.983229,38.944688,31.057555,41.57964,0.0,60.17807,23.083935,85.750809,13.992004,84.949722,5.367966,72.133369,-2.320518,51.160469,0.0,19.874185,28.846458,55.610445,46.193816,70.207316,58.266083,79.091348,65.518793,84.351433,31.0431,305.644393,-46.62715,274.186387
14,-8.215714,5.394145,0.144138,0.07762,0.0,-64.244499,-48.001842,-0.47493,-48.203373,10.7444,-44.994507,8.707466,-39.623451,-36.545219,0.0,27.472944,4.357603,30.891385,7.184907,32.99306,7.695028,29.742889,7.287228,27.216926,0.0,60.107517,23.182297,85.897007,14.085617,84.72559,5.507984,72.11031,-2.11092,51.173,0.0,19.833985,28.815892,55.709987,46.011405,70.000576,58.129985,78.996129,65.597463,84.243123,22.931385,311.03593,-46.379013,274.261398
15,0.575752,-11.897637,-0.282955,-0.115906,0.0,-23.924217,-41.20903,5.065041,-46.149273,12.227783,-45.84446,6.257744,-42.215137,-9.317093,0.0,10.926735,11.333053,36.238723,22.208474,45.497457,29.976614,46.546967,35.355939,48.738056,0.0,59.716415,23.259544,86.307106,14.063244,85.39856,5.44035,72.497864,-2.166252,51.281204,0.0,19.792921,28.5763,55.454896,45.957065,70.072083,58.209335,79.110491,65.812478,84.513219,23.608389,299.140917,-46.560717,274.148117
16,-3.820038,21.009219,-0.05064,-0.216806,0.0,-66.698055,-51.246414,-0.751419,-50.679646,12.078209,-45.448952,13.579445,-37.476254,-17.845688,0.0,28.841456,0.718096,28.846026,-4.13382,26.877917,-10.781622,18.646648,-17.472094,7.452163,0.0,59.727001,23.049316,86.394596,13.936958,85.489941,5.295696,72.523785,-2.404976,50.934505,0.0,20.117111,28.721599,55.059631,45.901489,70.054052,58.004323,79.197559,65.526264,84.664446,19.898844,320.137354,-46.500864,273.918529
17,0.789528,-12.074799,-0.466003,0.051994,0.0,-34.46537,-43.158417,4.226303,-45.361233,14.23748,-43.157558,11.373253,-38.349953,-4.83181,0.0,23.1259,8.390769,34.596101,11.977048,37.213207,13.623499,34.389607,13.735515,33.549802,0.0,60.867863,23.30349,86.957531,14.169903,85.773983,5.464725,72.845592,-2.215977,51.390209,0.0,19.20796,28.885731,54.898772,46.078404,69.959882,58.17247,78.87658,65.630561,84.424114,20.810051,308.054311,-46.845188,273.962279
18,-5.890503,13.088,-0.250797,-0.330982,0.0,-55.71825,-48.87331,3.895683,-49.592571,16.960373,-44.819756,18.420181,-37.116051,-4.273567,0.0,31.974487,1.263969,29.110194,-6.660461,26.167972,-16.008609,15.72042,-25.110435,1.245629,0.0,60.870781,23.562126,88.000259,14.26157,86.627541,5.501575,73.51696,-2.12019,51.929169,0.0,18.899949,28.682202,55.147255,45.908961,69.739186,58.041126,78.824339,65.464638,84.23843,15.022116,321.16343,-46.993418,273.652416
19,-6.470947,-18.391496,-0.223274,-0.561188,0.0,-5.383759,-31.88015,17.592545,-36.234226,28.124771,-35.246029,21.742058,-31.710434,4.299431,0.0,18.336538,12.207624,33.950006,19.424457,41.24767,24.375481,42.452297,27.759218,42.645452,0.0,60.697174,24.116421,87.809944,14.778728,85.560837,5.864811,72.707405,-1.922035,51.555748,0.0,18.969788,28.9707,55.503802,46.062535,70.101044,58.150054,79.25968,65.528487,84.760098,8.614254,302.782648,-47.153606,273.101942
20,16.250839,17.89107,-0.633888,-0.647021,0.0,-67.163372,-50.911503,-3.404732,-51.651592,9.816513,-47.845173,9.433136,-40.985584,-18.133507,0.0,27.591319,-0.300416,26.749908,-4.183158,24.270629,-9.87599,15.76241,-15.685531,6.19017,0.0,60.569,25.133629,88.461113,15.827522,86.088753,6.525478,73.009071,-1.831112,51.652222,0.0,19.069515,28.046481,55.401235,45.410697,69.837369,57.841611,78.904985,65.527685,84.410837,24.912672,320.675848,-47.739916,272.457051
21,1.082611,10.205367,0.025749,-0.31116,0.0,-61.664715,-51.679916,-9.30027,-49.283123,7.321587,-41.754799,12.883415,-32.305527,-12.854805,0.0,29.866328,0.266515,26.052746,-14.89105,13.205387,-30.781098,-0.527534,-46.198571,-25.078077,0.0,59.856606,25.945816,87.825394,16.856689,86.323013,7.324963,73.112297,-1.675701,51.672592,0.0,17.303145,26.795974,53.452639,44.037553,68.412973,56.517991,77.770198,64.487252,83.5417,26.104546,330.851591,-47.604904,272.116266
22,-6.666183,-8.504761,2.262039,-3.259125,0.0,-51.363945,-45.939274,-0.605621,-43.641586,17.023888,-35.341759,20.484238,-24.812164,8.193054,0.0,39.75473,7.0125,30.666922,-6.887147,21.678779,-22.024334,9.927675,-36.014446,-12.010702,0.0,60.61924,24.758492,85.013237,15.314655,83.78437,5.401096,69.647484,-4.059677,47.938843,0.0,13.37588,20.586538,52.287285,38.360344,72.425514,51.817611,81.121146,61.10512,83.235356,19.54751,322.339003,-45.233717,268.849314
23,-9.031105,0.199269,0.642986,-7.479951,0.0,-33.040295,-32.179642,-19.058533,-30.87925,16.437035,-25.061188,21.755562,-17.107086,9.883575,0.0,35.846793,5.130595,25.530955,-7.72263,23.592548,-20.859166,10.022277,-32.488806,-7.809945,0.0,63.528156,22.989922,80.369396,13.287907,76.257191,2.888088,62.259579,-7.472763,39.505634,0.0,9.118622,17.150498,56.101237,34.172801,78.001453,48.78511,86.876408,60.397152,87.2508,10.739679,322.50363,-44.367456,261.334721
24,38.437843,-38.290072,-5.711403,-10.501584,0.0,-52.615585,-34.467201,-78.862152,-33.916969,-69.971409,-31.091652,-59.457893,-26.628113,-51.251335,0.0,39.626907,30.826361,37.674976,25.175828,17.650182,14.585571,6.528686,1.285644,5.47473,0.0,60.620899,21.579838,81.027546,14.197655,76.403561,7.240562,57.417812,0.830898,39.266567,0.0,-1.454901,7.278768,47.59765,24.181708,65.652976,40.384893,77.820463,55.730056,79.827166,49.275627,284.11979,-49.980755,250.73937
25,-11.022263,-40.538898,-4.917412,-35.164019,0.0,-49.138241,-27.987785,-58.750935,-17.257118,-49.278259,-4.185448,-33.508759,9.631805,-14.470482,0.0,34.08067,30.691437,70.344773,42.300205,84.382,50.132257,89.73786,54.832019,85.99066,0.0,49.401798,70.131168,77.375164,65.740986,63.820896,56.118793,53.457127,41.820545,49.896526,0.0,-20.23209,27.873951,89.664686,40.862779,106.103139,50.80441,108.745254,57.83204,102.373847,38.384514,243.466483,-54.767017,215.460942
26,36.212997,-55.679914,-17.977867,-42.967542,0.0,-59.410744,-39.435883,-76.862755,-26.346245,-66.95137,-11.701126,-53.901901,2.921104,-33.468933,0.0,40.224218,16.065481,84.957452,28.774148,94.813559,41.160231,94.846101,51.978656,92.777956,0.0,48.082123,56.912212,64.489346,46.212273,51.267128,30.135841,30.848351,10.834866,18.30368,0.0,-34.342121,17.302898,63.231743,30.710579,67.331723,41.472688,57.966161,50.192279,56.425736,74.559402,188.230168,-72.782993,172.937
27,16.45031,-40.331479,-19.549026,-35.381751,0.0,-50.789795,-33.747597,-68.194199,-23.763313,-52.81723,-12.315788,-40.717506,0.558701,-26.521111,0.0,14.317451,3.214109,47.939747,16.071409,59.8577,29.19578,60.262906,40.648691,62.018224,0.0,44.616795,34.377537,68.929939,22.6898,60.016651,7.22105,49.968109,-9.269199,27.538948,0.0,-46.328555,-3.732936,16.62105,5.350117,29.359542,15.578641,37.891905,27.255459,39.636663,90.21987,148.267834,-93.121862,137.924393
28,17.875671,-39.080045,-10.630588,-36.722847,0.0,-40.522728,-38.531799,-66.856842,-29.785538,-56.515503,-19.368439,-46.718674,-6.35788,-38.368378,0.0,-28.475091,-1.974099,24.553075,9.191981,37.260816,19.55086,41.791938,28.457677,45.072058,0.0,36.4466,29.956341,52.986231,19.907856,44.591646,7.000894,37.062864,-6.094008,22.402324,0.0,-44.262402,-7.112721,9.653458,2.366678,19.659263,12.373054,28.630224,23.574347,33.510313,107.767725,109.906162,-104.080267,101.919919
29,14.239655,-32.752141,-10.630589,-36.722846,0.0,-38.732986,-21.341858,-64.814873,-13.580132,-61.169243,-5.700188,-51.826286,2.399712,-41.515503,0.0,-34.518511,-16.964135,15.64246,-7.223162,25.636239,4.89088,30.294937,18.277721,31.739434,0.0,28.276405,25.535145,37.042522,17.125912,29.166641,6.780739,24.157619,-2.918816,17.265701,0.0,-42.196249,-10.492507,2.685865,-0.616763,9.958983,9.167466,19.368542,19.893235,27.383961,122.354736,79.867473,-114.363499,67.910525
30,7.571068,-12.900325,-4.924135,-3.259187,0.0,-37.7001,-15.106659,-65.196304,-7.384243,-64.245872,-0.434189,-53.707237,5.916596,-40.41378,0.0,-43.218202,-27.639731,-4.025926,-18.61585,5.400429,-5.785519,12.513305,9.052317,14.40015,0.0,23.702002,13.827467,38.917465,2.972717,32.544107,-8.89658,23.424711,-19.319315,11.032476,0.0,-56.842921,-27.505486,-12.108576,-20.988147,-8.279418,-11.813703,1.380137,0.018417,3.66359,130.134315,67.22051,-119.079123,64.9047
31,7.571068,-12.900325,-4.924135,-3.259187,0.0,-36.667213,-8.87146,-65.577736,-1.188354,-67.322502,4.83181,-55.588188,9.433479,-39.312057,0.0,-51.917894,-38.315328,-23.694312,-30.008539,-14.835382,-16.461919,-5.268329,-0.173086,-2.939134,0.0,19.127598,2.119789,40.792408,-11.180477,35.921574,-24.573898,22.691803,-35.719814,4.799252,0.0,-71.489594,-44.518466,-26.903018,-41.359531,-26.517819,-32.794872,-16.608267,-19.856401,-20.056781,137.469034,54.070698,-124.239607,61.396026
32,4.165306,-6.526123,-2.381229,-6.435782,0.0,-33.00808,-3.949242,-66.550369,4.208221,-67.539368,10.004539,-60.022316,11.929436,-43.092155,0.0,-64.30444,-42.032425,-25.746309,-33.802453,-18.611173,-19.537707,-9.734242,-2.71992,-4.529671,0.0,21.645241,-10.732784,45.108032,-22.079601,40.559292,-30.53278,28.798771,-34.963245,9.899769,0.0,-67.819582,-43.586189,-35.32352,-38.976706,-30.950974,-29.169135,-23.952769,-16.510671,-28.273785,141.668358,47.308982,-126.586819,54.724651
33,1.871109,-8.024559,-2.321548,-3.099099,0.0,-31.209068,-3.087845,-64.297256,4.244041,-67.496223,10.030632,-59.351349,12.172852,-39.789276,0.0,-60.506234,-39.134046,-29.627662,-30.086283,-21.652751,-16.402237,-12.313156,-0.843078,-4.634585,0.0,22.813454,-7.229691,43.643074,-18.232327,42.16301,-27.466335,28.527775,-33.398266,10.16407,0.0,-64.647062,-42.230366,-43.898244,-38.622752,-36.867312,-31.204397,-31.714425,-21.247267,-32.072917,143.454552,39.440467,-128.993282,51.781595
34,1.190872,-6.470548,-4.566479,-4.117579,0.0,-35.536079,-3.464699,-61.876602,3.46859,-67.577248,9.054337,-60.037994,11.60305,-41.200676,0.0,-57.563456,-38.472946,-35.121164,-31.003616,-25.579275,-17.969123,-17.105543,-2.235859,-8.967704,0.0,24.082775,-1.721306,44.694443,-11.379547,45.655518,-19.759369,34.566193,-26.111412,17.910748,0.0,-48.18715,-45.069526,-57.84439,-43.193116,-58.088458,-37.435138,-48.967737,-27.81785,-39.654169,144.694347,32.976928,-133.510838,47.671025
35,-9.450989,-18.564706,6.721973,-28.841765,0.0,-45.864487,-4.897842,-49.290733,6.888428,-40.497894,15.641327,-34.192429,20.473137,-28.79528,0.0,-31.67049,-44.869949,-19.395959,-39.298703,-16.919026,-26.313209,-11.612041,-9.164502,-11.385016,0.0,34.618435,-1.406307,26.861916,-15.533752,14.214478,-27.44751,4.126625,-36.157665,1.286201,0.0,-50.031048,-52.885585,-39.470709,-48.271316,-28.444339,-38.562762,-18.201243,-24.674909,-19.827008,134.528847,13.981374,-127.503376,18.398412
36,-5.662994,-26.28079,-4.421024,-13.982825,0.0,-44.293098,-3.31295,-24.947662,10.498123,-18.594017,19.177094,-15.419769,24.285507,-25.816383,0.0,-28.366626,-46.059972,-19.784678,-39.535146,-13.599417,-27.877995,-8.598127,-11.929315,-12.173507,0.0,29.038467,4.991798,35.47245,-8.032894,23.331413,-21.388607,6.28933,-34.182529,-7.100945,0.0,-66.321486,-51.872847,-46.743672,-52.969071,-37.976812,-48.251401,-27.18037,-39.207436,-25.225198,127.913017,-11.095885,-132.877235,5.619118
37,6.488991,-32.596005,1.241112,-34.195865,0.0,-39.650726,-11.611939,-38.929558,-0.134354,-34.07898,8.607025,-28.3247,15.786476,-32.887345,0.0,-35.3648,-44.560337,-37.750455,-39.570235,-30.194896,-30.139743,-21.753743,-16.944261,-21.277334,0.0,31.322365,3.991241,28.337517,-8.709641,9.306278,-21.224785,-3.829136,-33.263168,-11.037197,0.0,-61.167303,-45.511196,-49.580579,-44.763213,-33.864235,-40.929624,-28.994134,-34.761684,-31.881089,133.412438,-38.790745,-132.625694,-23.675602
38,6.488991,-32.596004,-1.100979,-36.08833,0.0,-35.008355,-19.910927,-52.911454,-10.766831,-49.563942,-1.963044,-41.22963,7.287445,-39.958306,0.0,-42.362975,-43.060703,-55.716234,-39.605325,-46.790377,-32.401491,-34.909361,-21.959208,-30.381162,0.0,34.953747,3.345852,28.913326,-9.335003,14.02668,-21.7313,3.270836,-33.581028,-3.007336,0.0,-59.206357,-47.09673,-47.704077,-44.214283,-36.011482,-38.456057,-29.876794,-30.38994,-37.540854,138.082705,-66.666239,-135.545397,-55.043422
39,6.48899,-32.596005,-0.078049,-35.65864,0.0,-30.365982,-28.209915,-66.893349,-21.399307,-65.048904,-12.533112,-54.13456,-1.211586,-47.029266,0.0,-49.361149,-41.561068,-73.682012,-39.640415,-63.385856,-34.663239,-48.064977,-26.974155,-39.484989,0.0,27.326546,2.829552,27.870083,-9.160538,16.933308,-20.972042,6.047745,-32.940388,-0.983105,0.0,-62.50951,-45.758753,-56.204453,-43.509479,-44.377628,-39.118176,-38.621826,-32.833219,-44.269781,143.338566,-97.069178,-136.856575,-88.508996
40,-5.665398,-31.615439,0.346756,-38.147768,0.0,-39.426613,-7.123718,-51.619263,1.981773,-40.376701,9.98085,-28.63884,16.250153,-20.542603,0.0,-53.829517,-50.633424,-31.789529,-47.57948,-25.314396,-39.449436,-20.727035,-26.940053,-37.48426,0.0,31.246662,6.979294,48.132477,-6.133862,36.800079,-18.681793,18.359756,-31.173134,2.480965,0.0,-61.56019,-47.135942,-61.056214,-46.592538,-52.274935,-42.510898,-44.672224,-35.831124,-44.790368,135.377913,-125.207142,-138.805075,-123.17929
41,3.542976,-30.172069,3.862324,-35.970171,0.0,-32.27726,-5.914307,-57.203636,1.075172,-56.649742,6.889229,-48.496857,11.98391,-37.131958,0.0,-52.653943,-49.648597,-57.390185,-49.283204,-52.93815,-44.115899,-48.516172,-34.925524,-51.411124,0.0,28.016281,7.036572,29.998684,-7.807331,15.143852,-22.342587,2.353134,-36.982327,-11.409187,0.0,-64.572992,-46.301848,-57.317859,-46.223502,-48.069269,-43.13802,-42.794672,-38.284808,-45.017826,137.994719,-155.778135,-135.868921,-159.548383
42,0.876961,-15.612727,-4.700546,-20.474877,0.0,-29.522552,-8.58387,-56.928749,-1.5065,-57.22126,6.417961,-41.650314,15.385666,-25.231705,0.0,-54.806547,-39.176916,-67.643948,-39.587988,-68.296048,-37.537828,-66.203281,-33.353574,-63.260379,0.0,34.560699,1.077232,40.21637,-13.211346,30.465603,-24.579849,20.269489,-33.456001,2.932205,0.0,-63.602739,-36.311666,-72.388758,-38.60784,-72.272358,-40.014684,-70.267476,-40.09286,-64.067766,138.919144,-171.523687,-140.522003,-180.156086
43,-3.729744,-20.701424,8.030434,-28.114561,0.0,-30.845833,-5.929642,-59.561691,1.642799,-67.520599,7.599792,-61.699677,11.414566,-50.735207,0.0,-52.880336,-52.985605,-73.068429,-56.479551,-73.965902,-54.358749,-71.740687,-49.035338,-66.672514,0.0,27.836437,2.148972,35.500031,-12.710152,21.560669,-26.172867,10.214195,-38.241177,0.69849,0.0,-65.127002,-42.304235,-59.358525,-43.862584,-51.247292,-42.352863,-47.867414,-38.332247,-51.119523,134.427338,-190.422802,-133.253632,-206.468338
44,1.605949,-4.207009,-3.215675,0.072649,0.0,-27.183037,-3.269806,-57.79335,2.40818,-62.498703,6.85627,-54.20723,10.446396,-42.201118,0.0,-52.552997,-51.259357,-72.284569,-53.633583,-70.067367,-51.951486,-69.299462,-47.217977,-65.756748,0.0,26.790791,7.396088,43.159332,-4.079132,36.220036,-16.110191,26.193123,-30.357113,7.496166,0.0,-62.461985,-47.169943,-76.04026,-48.645794,-72.396044,-47.97662,-73.594373,-44.67613,-72.060137,135.709648,-192.433627,-136.792946,-204.199504
45,-0.303268,-0.027957,1.572876,3.079123,0.0,-29.984207,-5.322533,-57.141495,0.638809,-61.063843,6.41716,-51.289101,11.914673,-36.857986,0.0,-56.160441,-49.032436,-70.536183,-51.441459,-69.885604,-50.145009,-68.125285,-45.995983,-62.531346,0.0,27.488251,1.959457,36.046829,-11.394367,26.842575,-23.014355,21.468258,-34.190598,10.341625,0.0,-61.025184,-43.324629,-70.752364,-45.862154,-63.257647,-46.709926,-66.888888,-45.548632,-75.436032,134.885559,-191.24186,-135.740891,-199.900657
46,0.441971,6.286655,0.78289,10.059358,0.0,-26.527634,-0.564537,-52.747879,5.261879,-58.876419,9.45591,-52.920341,11.132698,-42.485161,0.0,-51.780407,-48.355435,-71.041209,-51.342658,-71.472721,-50.202128,-69.927664,-46.202847,-65.58282,0.0,30.19289,-0.802231,39.038887,-15.113354,33.872738,-26.318665,22.872391,-35.321331,4.395847,0.0,-64.831565,-41.533049,-78.689816,-45.280188,-79.448914,-46.053272,-77.329701,-44.678646,-76.298493,134.821129,-185.092398,-135.464401,-189.978492
47,-2.17083,17.142547,2.352619,12.076096,0.0,-25.629387,-6.640778,-50.437317,0.241699,-51.442566,8.405228,-38.540382,17.636147,-19.087372,0.0,-53.839752,-45.23951,-71.611953,-48.433843,-75.090106,-47.7938,-76.397533,-44.812073,-74.895963,0.0,28.045464,-0.997868,37.02055,-13.924313,35.350227,-24.730797,24.340782,-34.194832,3.786678,0.0,-61.88881,-40.606392,-73.539747,-44.233781,-74.636488,-44.268176,-74.178987,-41.985016,-71.175007,131.562738,-167.858831,-134.199343,-177.811377
48,-3.699646,9.695494,6.018848,13.981621,0.0,-17.684555,-3.057747,-41.681671,3.779297,-32.861137,11.236267,-13.023262,19.240608,2.351875,0.0,-45.351911,-38.467959,-61.452667,-41.491229,-52.773585,-40.611363,-44.519762,-37.319772,-72.460326,0.0,28.290024,-6.774445,25.993423,-21.189137,10.289326,-31.822929,-3.944893,-38.757305,-17.593517,0.0,-58.813454,-42.801526,-59.358386,-46.528874,-53.936947,-45.035857,-55.342618,-40.451414,-52.481907,127.987576,-158.102451,-128.056011,-163.76887
49,2.630196,1.985183,6.756249,22.26009,0.0,-23.039818,-3.288345,-39.577217,1.293068,-45.461197,6.290817,-34.127884,11.349449,-13.432045,0.0,-32.884317,-27.617594,-30.787428,-26.310816,-34.029896,-23.047029,-39.036881,-18.995723,-42.470081,0.0,24.083118,-1.441012,32.188253,-13.562908,18.913736,-23.526593,4.181928,-31.67676,-9.870816,0.0,-52.81776,-42.919732,-52.1684,-43.24975,-45.883343,-39.135628,-42.324945,-31.974232,-36.38579,130.496607,-156.019919,-121.420927,-141.41143
50,-13.076591,34.503815,6.756248,22.260089,0.0,-31.861038,5.981255,-43.5783,11.548004,-44.078178,15.448723,-38.371696,18.022614,-26.231689,0.0,-45.881313,-43.233578,-37.831591,-38.089105,-28.798308,-28.73929,-21.673299,-16.666575,-17.636365,0.0,19.876213,3.892422,38.383083,-5.93668,27.538147,-15.230255,12.30875,-24.596214,-2.148113,0.0,-46.822065,-43.037938,-44.978413,-39.970625,-37.829738,-33.235399,-29.30727,-23.497051,-20.289672,120.222902,-123.676288,-111.861792,-121.311525
51,3.211212,-0.470044,0.561257,22.302551,0.0,-35.42244,-6.882133,-36.456871,-5.22583,-45.228767,-3.920517,-42.554398,-2.698746,-38.360939,0.0,-25.045874,-21.816436,-18.742377,-17.135708,2.809736,-10.825511,7.985224,-5.228824,8.153833,0.0,9.609279,9.734993,35.22232,6.509895,31.76979,3.534107,26.333141,0.01337,26.750354,0.0,-55.341615,-42.285447,-41.026274,-36.932438,-34.386427,-28.387117,-26.565707,-17.395101,-24.922302,125.036573,-124.971117,-109.698076,-99.833759
52,-1.84021,36.895671,0.561256,22.302551,0.0,-22.782497,-11.734829,-39.467983,-16.887531,-41.953697,-22.270031,-45.549087,-27.590446,-50.506668,0.0,-47.573243,-33.357812,-52.115179,-26.454741,-14.464015,-17.225517,-6.188812,-7.74439,-6.616217,0.0,-0.657654,15.577564,32.061558,18.95647,36.001434,22.29847,40.357532,24.622955,55.648823,0.0,-63.861165,-41.532957,-37.074135,-33.894251,-30.943116,-23.538836,-23.824143,-11.293153,-29.554931,126.333675,-88.974285,-105.999508,-78.430047
53,-1.84021,36.89567,0.561256,22.30255,0.0,-10.142555,-16.587524,-42.479095,-28.549232,-38.678627,-40.619545,-48.543777,-52.482147,-62.652397,0.0,-70.100611,-44.899188,-85.48798,-35.773774,-31.737767,-23.625522,-20.362847,-10.259954,-21.386267,0.0,-10.924587,21.420135,28.900795,31.403046,40.233078,41.062832,54.381924,49.23254,84.547291,0.0,-72.380715,-40.780466,-33.121995,-30.856063,-27.499805,-18.690553,-21.082579,-5.191203,-34.18756,128.595142,-52.454026,-101.336575,-56.502908
54,-8.967705,14.888055,11.620789,17.636998,0.0,3.831139,-16.50959,-30.633774,-31.961632,-41.687164,-46.355553,-52.840004,-58.578072,-98.218575,0.0,-67.084474,-38.487673,-40.891308,-27.264937,-26.527545,-14.611259,-16.413352,-3.763873,-41.778167,0.0,-24.898338,19.60659,23.621178,34.97961,34.820194,48.571129,47.345638,60.551434,95.362129,0.0,-68.437241,-36.564889,-39.145593,-26.881251,-32.162023,-15.515223,-20.796365,-4.700009,-49.222859,121.728687,-38.039072,-87.614536,-39.339011
55,-9.181366,18.715716,7.921829,19.952268,0.0,11.335602,-15.773849,-22.729568,-31.572876,-36.54705,-46.400642,-48.4655,-58.260384,-98.121872,0.0,-67.691697,-34.240017,-39.903363,-26.19224,-28.7961,-16.391647,-21.429801,-7.615864,-49.631585,0.0,-26.398315,21.227303,20.151272,37.375774,31.548557,50.442467,43.719349,60.792503,92.66407,0.0,-66.625113,-36.554824,-47.097811,-28.12722,-41.80401,-18.754897,-32.628424,-10.185854,-51.878559,113.860731,-17.667966,-78.379297,-17.731353
56,-0.448723,13.832957,4.188251,11.335894,0.0,11.983337,-14.378586,-26.546173,-30.631027,-41.504517,-45.845146,-53.888283,-58.628197,-99.162941,0.0,-69.541616,-35.200761,-40.882262,-25.709383,-30.838279,-14.905778,-22.223757,-5.00027,-54.806578,0.0,-25.012093,21.886711,22.310085,39.072018,33.877831,52.72625,47.596951,63.18718,93.944607,0.0,-63.743036,-34.402606,-48.861156,-26.830986,-43.737601,-18.35673,-37.626193,-10.536071,-53.666017,111.512175,-3.86712,-76.090879,-6.42757
57,0.506516,8.997344,2.966995,6.164328,0.0,12.54879,-9.581909,-23.922386,-25.083847,-39.305191,-39.631577,-51.736565,-52.795486,-90.615005,0.0,-72.181816,-33.134684,-41.788418,-21.649664,-32.093356,-10.270483,-21.70104,-0.544608,-48.614494,0.0,-28.015652,15.651627,19.831009,33.943977,34.877815,49.68029,48.922634,62.525997,95.831051,0.0,-62.484007,-28.756395,-45.807042,-20.16012,-40.335338,-10.911607,-34.117072,-2.515835,-47.960372,112.097597,5.187112,-73.044977,-0.206354
58,-5.462379,0.139031,1.202602,2.402616,0.0,15.50251,4.591484,-20.595131,-1.75518,-30.068893,-10.89798,-36.923561,-23.098984,-40.934372,0.0,-66.407659,-31.154287,-33.354825,-20.24302,-20.162405,-9.66397,-9.927521,0.371398,-0.615744,0.0,-29.276733,2.043457,22.018433,17.036304,34.772243,32.765694,48.353748,47.875729,77.049294,0.0,-64.974586,-29.397117,-39.783629,-16.11871,-28.909752,-3.33409,-15.661757,7.67042,-33.335775,106.526413,5.204386,-71.95118,2.074505
59,-10.945244,2.43133,1.587868,4.908108,0.0,4.652367,17.027893,-16.083183,20.367279,-17.601471,19.86763,-21.559982,16.128731,-28.404694,0.0,-66.854269,-44.575863,-17.20666,-33.562059,-1.32819,-19.11589,10.945477,-2.821654,-14.070727,0.0,-9.007931,-8.24564,20.831623,-5.657043,26.330967,0.783634,31.597023,9.392395,49.167595,0.0,-68.974037,-36.839339,-32.570409,-24.780873,-20.698522,-10.772699,-7.139274,2.195999,-4.932808,95.591154,7.712117,-70.353327,7.059014
60,-4.307213,9.924187,19.30933,14.796109,0.0,-6.74469,18.187408,-0.555725,28.26622,5.019379,36.759453,10.562439,42.139206,65.214615,0.0,-62.545943,-39.349308,-19.988207,-33.602907,-10.510507,-25.997448,-8.176496,-17.056853,-60.569466,0.0,1.282024,-21.014557,3.803444,-34.286785,-3.358498,-43.543167,-5.200024,-48.965836,-6.250191,0.0,-62.330125,-43.92171,-31.342934,-39.993858,-14.626542,-30.506587,-7.489152,-17.275511,-11.171483,91.184349,17.007283,-51.143589,21.226102
61,16.66523,8.887119,-23.575802,9.369699,0.0,-17.746468,4.88205,-1.355896,16.950989,6.878929,28.508949,19.224701,37.895622,45.005836,0.0,-60.773644,-44.141356,-19.347083,-41.97546,-11.973436,-37.041417,-3.046426,-30.277493,-34.277468,0.0,25.466595,-11.361923,9.72353,-24.474392,-1.433315,-34.907284,-8.251934,-43.672714,-39.814453,0.0,-61.615889,-44.334912,-24.859141,-42.812147,-11.035787,-36.703426,-2.59679,-28.46589,-63.357189,107.802343,23.947582,-74.766626,28.64898
62,30.426064,7.119853,-35.451135,-0.138212,0.0,-20.560684,10.735359,-11.243477,25.177116,2.079163,37.855225,11.138191,48.865013,63.933334,0.0,-69.454702,-54.560441,-24.947321,-50.352367,-15.525628,-43.461021,-13.560143,-34.99612,-82.787295,0.0,5.535192,-18.09454,5.558881,-27.5029,5.981168,-32.566967,4.366521,-34.752331,-12.413264,0.0,-63.616587,-41.279055,-34.020417,-35.04481,-16.962067,-25.205608,-5.296179,-13.440888,-34.505405,138.167152,26.577609,-110.279016,24.020942
63,29.833946,-7.671315,-35.451136,-0.138213,0.0,-8.148651,11.324501,-10.80265,19.379311,-6.927567,27.03186,-5.634727,32.813759,48.05294,0.0,-68.844392,-44.439857,-20.970563,-34.472106,-7.722908,-23.490752,-3.252363,-11.202327,-65.310354,0.0,-14.39621,-24.827156,1.394234,-30.531406,13.395653,-30.22665,16.984978,-25.831947,14.987926,0.0,-65.617285,-38.223196,-43.181693,-27.277473,-22.888346,-13.707789,-7.995567,1.584114,-5.653621,165.519133,16.343497,-148.212118,21.319932
64,33.893737,-2.172688,-37.200966,2.078828,0.0,-3.642368,17.058278,-5.760097,24.069615,-3.928298,29.258709,-1.597995,33.085385,46.055546,0.0,-70.387844,-43.285974,-26.093054,-33.939771,-12.871936,-23.514588,-8.320791,-11.738522,-54.381504,0.0,-27.339764,-18.6339,13.613148,-18.30946,15.76561,-15.263271,23.068714,-7.598076,34.223614,0.0,-70.480068,-38.347376,-31.061692,-27.679468,-19.244362,-14.12093,-7.633895,0.123563,-10.326429,194.099407,7.513682,-190.726547,16.741633
65,33.893738,-2.172689,-18.135052,-2.171021,0.0,0.863914,22.792053,-0.717545,28.759918,-0.929031,31.485558,2.438736,33.35701,44.058151,0.0,-71.931295,-42.13209,-31.215543,-33.407436,-18.020962,-23.538423,-13.389218,-12.274716,-43.452653,0.0,-17.187252,-39.094391,2.634315,-45.560932,0.436592,-46.084957,3.366795,-41.456108,-4.424057,0.0,-72.670694,-33.12113,-26.447362,-22.943983,-17.336521,-9.700527,-8.82858,4.911597,-8.801749,226.18063,3.699158,-210.674114,12.928776
66,14.653358,2.530378,-29.092541,3.021046,0.0,-1.206779,19.923592,-1.124611,30.498276,2.603302,38.981552,7.620735,44.528046,80.085411,0.0,-74.005152,-44.308792,-28.047531,-34.815932,-14.286822,-22.974611,-6.200698,-10.324175,-51.902827,0.0,-15.188541,-27.967072,2.339287,-33.73621,0.320263,-35.831108,1.068077,-32.565823,0.718861,0.0,-62.465513,-36.010309,-32.831336,-26.886191,-18.296338,-13.881029,-6.458506,1.776004,-7.448705,240.106544,6.305551,-240.494099,16.025837
67,16.067276,-0.580052,-21.505566,-5.008129,0.0,1.58226,27.980919,0.131721,38.412666,4.879761,46.444931,10.556488,51.30867,89.068451,0.0,-75.046881,-44.051941,-29.342129,-35.349641,-11.840209,-23.753438,-3.712219,-11.061753,-54.643958,0.0,-21.843538,-38.102732,-0.856276,-44.167357,-2.211313,-44.927187,0.060797,-39.57407,-2.453556,0.0,-66.374838,-32.642672,-30.116818,-22.892637,-17.752301,-9.935934,-6.466086,4.86107,-6.453551,257.459707,5.611461,-260.713777,10.903671
68,14.609985,0.179447,-21.505566,-5.008128,0.0,7.440491,29.89769,1.339417,40.275078,4.86763,48.421669,9.338264,53.311386,88.659897,0.0,-76.058507,-42.903661,-29.03137,-34.392448,-11.84234,-23.51255,-4.236325,-11.861945,-52.634971,0.0,-28.498535,-48.238392,-4.051838,-54.598503,-4.742889,-54.023266,-0.946484,-46.582317,-5.625973,0.0,-70.284165,-29.275037,-27.402301,-18.899084,-17.208265,-5.99084,-6.473666,7.946136,-5.458397,272.948742,5.539722,-281.340294,5.644358
69,7.644653,-0.45436,-9.096508,1.771125,0.0,9.922829,32.756538,2.274857,43.387184,6.118813,51.201897,8.601265,56.120224,91.773148,0.0,-75.730705,-40.515557,-28.164579,-32.099809,-12.316861,-21.475095,-6.517571,-9.963491,-51.46832,0.0,-26.472759,-42.051086,-4.100361,-47.805748,-4.629822,-48.682365,-3.110447,-46.314125,-61.817093,0.0,-72.820964,-29.063202,-29.790776,-18.342991,-14.745782,-5.227605,-6.436369,8.855719,-36.0213,281.590748,5.048883,-289.439449,7.379004
70,2.84111,4.016092,-3.838062,-3.119847,0.0,6.643181,29.794464,5.450249,40.913086,6.999893,49.888344,11.268196,56.842575,88.546829,0.0,-77.572597,-44.506702,-28.807802,-35.718785,-13.318977,-24.684449,-10.362429,-12.693013,-55.682199,0.0,-28.09639,-45.604305,-1.802845,-51.33419,-1.894913,-51.673679,-0.933609,-48.604603,-62.768097,0.0,-71.673147,-27.194264,-28.939608,-15.954053,-14.475995,-2.380324,-4.790504,11.912334,-33.566351,284.557114,9.029531,-293.152256,4.223713
71,-2.169685,-0.750545,0.876389,-2.388599,0.0,8.947906,31.423645,5.457344,42.851486,8.425598,51.637688,13.223648,58.564224,89.59156,0.0,-75.837379,-43.801945,-27.278121,-34.894355,-11.814953,-23.226306,-8.253961,-10.190084,-52.117132,0.0,-29.167557,-46.348686,-1.619968,-52.323189,-2.959213,-52.996216,-3.656158,-50.279102,-63.442268,0.0,-73.319444,-29.976799,-25.55053,-17.917994,-10.964774,-3.429402,-5.408595,11.782781,-31.629549,282.50782,8.342913,-292.155476,1.899041
72,-2.794991,-0.540069,1.000156,-0.457509,0.0,9.108238,31.425705,4.334793,42.507019,7.895393,50.77343,11.63269,57.3452,89.016037,0.0,-74.348021,-43.734482,-27.242244,-34.497485,-11.712479,-22.170281,-7.382354,-8.298854,-49.044246,0.0,-27.083988,-44.955082,-0.501366,-50.822468,-0.872669,-51.579037,-0.619926,-48.819752,-64.703979,0.0,-74.173916,-31.483417,-25.347247,-18.976272,-10.556603,-4.049345,-5.765265,11.859321,-31.261239,279.659443,7.7676,-291.208706,1.406288
73,-3.349571,1.215402,0.560417,-0.495485,0.0,10.008774,32.962761,3.510818,43.844833,6.956406,51.814842,12.418785,57.65831,86.82003,0.0,-75.522946,-44.369616,-26.451345,-35.099644,-11.520126,-22.386531,-7.080549,-8.207402,-47.84638,0.0,-24.889183,-42.795696,1.466274,-48.184261,2.237949,-48.477688,3.074341,-44.958,-62.148342,0.0,-74.238013,-29.865587,-24.861148,-16.662021,-9.413727,-1.167206,-4.130917,15.130487,-28.959369,276.277685,8.806149,-290.680475,0.73395
74,-1.768112,0.586166,-0.031471,0.470013,0.0,9.783211,31.93737,2.698746,42.528419,6.041908,50.327454,12.543068,56.296577,84.949951,0.0,-76.200626,-43.715216,-25.550499,-34.032196,-10.102151,-21.167269,-5.927854,-6.885572,-46.64092,0.0,-24.011021,-41.146717,3.189583,-46.48344,4.979267,-46.703053,5.84856,-42.910995,-59.362621,0.0,-73.84988,-29.574711,-24.948772,-16.729144,-9.422557,-1.360084,-3.374907,14.870148,-28.804684,274.574833,9.299998,-290.646687,1.111646
75,-2.484169,2.344509,2.614689,0.986802,0.0,7.984543,34.983788,1.366081,45.578728,4.373245,52.980881,10.329666,57.886162,92.178612,0.0,-79.191198,-47.66502,-27.787099,-36.500699,-12.507484,-23.114167,-4.581973,-9.682001,-51.374799,0.0,-24.969006,-42.494144,1.783104,-48.014259,3.114624,-48.406048,4.893494,-45.219269,-61.041985,0.0,-75.335101,-30.776405,-26.155715,-17.742097,-9.322738,-2.237248,-3.774895,14.118398,-30.798944,272.139788,11.528354,-287.982874,1.982296
76,0.078506,2.366523,0.38475,-0.646836,0.0,7.377205,36.36898,2.103539,46.765709,5.680161,53.753128,10.071945,57.58873,86.547089,0.0,-78.740482,-47.051653,-27.079902,-37.39713,-10.725367,-24.623872,-6.497934,-11.144128,-51.181181,0.0,-24.72456,-42.579517,2.802715,-47.678547,4.784603,-47.711277,6.126709,-44.25087,-59.181404,0.0,-74.087928,-29.705221,-25.19494,-16.721332,-7.833843,-1.086591,-1.938222,15.41139,-29.553624,272.230453,13.800522,-287.585964,1.241106
77,0.597267,-0.634609,0.507202,-0.389892,0.0,8.244667,33.701134,1.276703,44.15554,5.10807,51.619835,8.66272,56.115189,83.945503,0.0,-79.832847,-45.886515,-27.587491,-36.020281,-10.524925,-23.74291,-6.124962,-10.318648,-49.142707,0.0,-24.358063,-42.409515,3.468933,-47.329788,5.625229,-47.277775,7.10083,-43.703213,-60.49078,0.0,-72.874347,-28.945475,-24.186,-15.824716,-6.993605,-0.223444,-1.356842,16.229861,-28.063555,272.876987,13.072238,-287.029495,0.757539
78,0.188828,-0.407707,0.267506,-0.175124,0.0,7.90947,34.455643,3.660965,44.252014,5.605202,50.964775,8.573112,54.59198,83.437729,0.0,-78.947963,-45.146344,-26.383913,-35.562371,-10.624097,-23.253198,-7.429377,-9.575606,-49.004726,0.0,-24.465351,-42.169876,2.883854,-47.064457,4.75462,-46.907444,6.312218,-43.399601,-58.864918,0.0,-72.458057,-29.486254,-24.253215,-16.253202,-6.970664,-0.50728,-0.852835,16.216245,-27.877254,273.090191,12.565483,-286.737614,0.483367
79,-0.449638,-1.246648,0.857048,0.122142,0.0,8.555374,33.359299,4.611855,43.136787,6.033325,50.18795,9.117737,54.482231,82.444382,0.0,-78.669068,-44.273625,-26.340997,-34.147607,-10.461106,-21.433074,-7.506874,-7.527066,-48.913026,0.0,-24.680214,-41.904774,2.13644,-46.946983,4.132633,-47.026119,4.878044,-43.485775,-57.167645,0.0,-72.727196,-28.379378,-24.452546,-15.498057,-7.867249,-0.074193,-1.521345,16.271511,-27.725225,272.669134,11.262905,-285.851984,0.549579
80,-0.54348,-0.992885,-0.095272,-0.06419,0.0,8.011208,30.715027,2.756767,40.800247,4.984703,48.330574,8.873062,53.403511,81.552887,0.0,-78.076418,-43.764678,-27.437283,-33.504014,-11.065736,-20.765953,-8.008318,-6.893106,-47.205813,0.0,-23.51944,-40.970306,3.260593,-46.536655,5.170612,-46.969357,5.604858,-43.701782,-55.530338,0.0,-72.696383,-29.262409,-24.925399,-16.316682,-8.102333,-0.599133,-0.884112,16.049982,-27.201612,272.221642,10.236705,-285.851269,0.452075
81,-1.338043,-1.35255,0.986938,0.528491,0.0,8.240776,31.725426,2.191772,41.92852,4.837074,49.092979,8.056183,53.621979,81.539268,0.0,-77.211048,-43.785118,-26.745122,-33.659872,-10.693597,-20.776574,-6.75392,-6.459217,-45.86833,0.0,-24.228344,-41.416969,3.171272,-47.229767,4.418793,-47.610226,4.953175,-44.042187,-52.478485,0.0,-73.090937,-29.823782,-25.415389,-17.002914,-9.284854,-1.320347,-1.422143,15.105386,-26.825861,271.033373,8.873272,-284.714556,0.969682
82,-1.067047,-0.30903,1.439438,0.145546,0.0,8.750381,31.205521,3.685684,41.184654,6.033325,48.245087,9.585228,52.747078,80.991554,0.0,-77.098662,-43.025341,-27.42203,-32.928129,-11.625627,-20.092195,-8.857664,-5.713611,-46.536963,0.0,-25.247498,-42.0397,3.170071,-48.235817,4.346123,-48.734035,5.619564,-44.780216,-51.329327,0.0,-73.246023,-30.782488,-25.499678,-17.990334,-9.805224,-1.988116,-1.136485,14.90056,-25.247088,270.267763,8.590301,-282.97368,1.141287
83,-0.998611,0.061627,0.859051,0.812512,0.0,9.211922,32.087402,3.644714,42.024879,5.708885,48.999939,10.138893,53.504105,80.165977,0.0,-76.057828,-43.283519,-27.744985,-33.496264,-11.998599,-20.818719,-8.849915,-6.563822,-46.950197,0.0,-24.776573,-39.807243,3.34362,-47.045174,3.306141,-48.573875,5.373917,-45.589428,-51.87973,0.0,-72.270181,-31.54421,-27.192875,-19.297559,-12.330631,-3.808735,-2.470603,12.36799,-27.701235,269.613018,8.699089,-281.770763,2.00096
84,-1.568527,-0.972816,0.880795,0.025194,0.0,9.376717,31.720619,3.178482,42.168388,5.44281,49.730415,10.351753,55.074921,80.037918,0.0,-75.386663,-43.147699,-26.032708,-33.059627,-10.0446,-20.218011,-7.175058,-5.82927,-45.370065,0.0,-24.994068,-40.760365,3.897171,-47.412643,3.993587,-48.365078,6.6992,-44.873257,-47.557526,0.0,-73.508987,-30.798697,-28.66309,-18.259751,-12.108175,-2.768641,-1.379072,13.303169,-24.657989,268.302612,7.898897,-280.631847,2.198778
85,-3.766594,2.942098,0.976009,-0.882197,0.0,10.20195,36.162071,1.586952,46.396065,6.300545,52.577248,10.247154,56.239357,88.33992,0.0,-78.812082,-47.050696,-27.131464,-35.536899,-13.504012,-21.92257,-4.885415,-8.067938,-51.466035,0.0,-25.41441,-40.448227,4.989853,-46.463928,5.034142,-47.184563,6.956005,-44.071312,-49.892349,0.0,-73.501392,-28.643206,-25.057916,-16.150388,-7.577949,-0.872935,2.183896,15.193287,-25.196638,264.736948,10.921533,-279.454908,1.397119
86,0.24868,3.056954,-0.237579,1.474847,0.0,6.395988,35.806046,-1.30394,45.468178,2.319374,51.626587,6.12957,54.647255,81.189194,0.0,-78.913939,-47.300044,-26.120455,-37.336028,-10.646944,-24.609639,-4.292549,-11.190348,-50.36626,0.0,-22.355232,-38.12027,8.959408,-44.099808,10.395641,-45.011215,11.579132,-41.983681,-45.769844,0.0,-72.749858,-31.07713,-25.959163,-18.598113,-8.584542,-2.936356,1.414517,13.391627,-25.216738,265.150766,14.039867,-279.527349,2.933345
87,-4.010124,1.923217,1.821442,1.626228,0.0,6.530342,36.207962,-1.328888,45.550232,2.147827,50.97187,5.502319,53.325462,77.350273,0.0,-78.260836,-46.388052,-27.513205,-36.687093,-13.009762,-23.718704,-6.597846,-9.249872,-48.406271,0.0,-23.68578,-39.249001,10.065136,-45.573635,11.22654,-45.816822,12.672272,-40.403366,-21.225128,0.0,-74.690211,-31.920208,-26.793164,-19.564784,-9.009138,-3.740624,1.214322,12.734726,-17.902494,261.436129,16.006093,-277.410421,4.602582
88,-8.188133,0.068481,5.177708,1.331154,0.0,9.870529,36.479187,-2.037621,45.256348,2.926712,49.785461,5.815773,51.638145,71.09333,0.0,-75.349767,-43.533392,-27.157152,-33.01245,-11.743755,-18.975253,-4.724308,-3.34715,-42.128385,0.0,-23.567505,-39.236698,11.435509,-45.333996,11.749992,-45.388985,12.91048,-39.391479,-26.197186,0.0,-77.842199,-31.281431,-24.334726,-17.911788,-6.419851,-1.593686,3.299139,15.421579,-19.638051,253.456163,16.023043,-272.024546,5.882205
89,-7.891388,1.31093,5.746593,6.863157,0.0,5.352631,37.920227,-4.223671,45.346642,0.610771,47.485657,2.705612,45.931664,61.524811,0.0,-73.116656,-39.58856,-25.897166,-27.914212,-9.162835,-13.093002,0.466648,3.249245,-28.008289,0.0,-22.401466,-35.781727,14.173794,-41.554241,13.85004,-41.410675,14.497318,-35.43623,-24.559364,0.0,-79.047907,-34.058501,-26.933801,-20.915945,-10.785049,-4.671172,-0.504532,12.716293,-17.255195,245.677586,17.315896,-266.165142,12.727285
90,-10.534973,13.707233,8.374043,2.816745,0.0,0.395851,26.880455,-6.596718,36.114807,-11.560135,41.951523,-8.418274,44.825592,1.19648,0.0,-76.462787,-46.845005,-38.787317,-36.790494,-20.796026,-24.034464,-7.327674,-9.343578,-6.809249,0.0,-21.153374,-38.136463,15.685787,-43.245792,14.972935,-41.888981,16.722393,-34.335365,-14.094143,0.0,-79.674673,-33.490027,-23.124541,-20.188741,-9.714019,-3.847668,0.268367,14.093327,-10.505536,235.182924,30.549009,-257.750788,15.06991
91,-12.514572,13.436766,8.495121,7.860611,0.0,-3.4869,25.910225,-18.735466,35.526924,-24.5121,40.215225,-23.354073,41.743469,-18.5923,0.0,-74.63056,-49.264232,-38.783087,-40.738908,-20.131097,-27.960864,-6.276775,-14.047323,-4.938983,0.0,-16.984921,-30.550117,21.453037,-37.516365,22.067871,-38.737965,22.50721,-34.191456,0.638638,0.0,-81.195864,-38.60821,-25.635776,-25.80417,-9.280994,-9.220479,0.332927,9.432468,-9.581626,222.672615,43.481012,-249.251404,22.425758
92,-5.908241,9.207666,10.229359,5.920938,0.0,-15.028839,14.901695,-43.161621,20.09903,-52.748108,20.828819,-54.161911,18.217392,-44.920006,0.0,-65.33913,-39.93288,-31.313418,-30.053092,-19.049539,-16.55405,-5.135782,-1.575716,-2.401474,0.0,-11.239014,-26.866436,31.501808,-33.341846,35.852852,-34.867973,31.270409,-33.641796,11.59235,0.0,-76.551306,-38.739985,-24.233332,-27.701358,-8.012425,-11.537941,3.671525,5.970277,-2.165772,215.815487,51.098528,-239.970932,26.756546
93,-17.116813,10.713033,5.79586,5.376485,0.0,-35.275727,-1.474915,-65.3718,5.25095,-70.221749,9.315147,-65.204716,10.851001,-47.963333,0.0,-61.363823,-29.063372,-9.464794,-16.232778,5.590358,-0.789247,18.539234,15.889138,21.700546,0.0,1.418953,-18.148899,40.025711,-22.397346,50.77343,-21.410236,49.848232,-17.803402,38.880558,0.0,-67.093027,-30.538172,-27.280591,-17.928306,-13.392676,-2.422283,-0.386187,12.12738,-4.468908,198.766308,60.303306,-234.107437,30.624777
94,-17.116814,10.713033,7.088184,-1.903642,0.0,-55.522614,-17.851524,-87.581978,-9.59713,-87.695389,-2.198524,-76.24752,3.484612,-51.00666,0.0,-57.388517,-18.193864,12.383829,-2.412465,30.230254,14.975556,42.214249,33.353991,45.802565,0.0,12.953396,-1.607151,47.731647,-3.18718,51.541729,-3.13694,47.733822,-2.95578,42.420044,0.0,-51.666662,-15.395119,-17.716533,-2.059561,-4.494535,13.406292,8.773746,27.096143,19.227195,182.768126,71.664749,-225.900621,29.369546
95,-7.311401,14.344744,24.788475,29.314094,0.0,-65.356636,-20.556793,-70.201149,-16.161003,-86.166229,-10.899811,-85.908737,-7.880859,-71.639214,0.0,-36.50354,-16.142978,-38.761228,1.988456,-11.763268,20.861358,3.417206,37.508373,35.753303,0.0,14.505444,18.965034,56.177044,18.310719,63.028107,17.564735,63.768482,18.166523,61.431141,0.0,-65.42734,-28.676583,-14.620645,-15.828854,-2.097507,0.393072,6.923086,17.985271,13.795011,177.370348,86.341865,-199.198523,59.016011
96,-44.706688,21.138123,14.249496,7.074065,0.0,-63.654671,-41.272545,-93.525352,-34.693222,-90.340919,-25.840988,-79.766693,-15.150948,-58.99395,0.0,-8.283416,8.713261,44.799523,27.233568,59.273881,43.69561,70.0279,57.278602,75.991755,0.0,26.81448,9.20826,78.015404,5.075283,70.761967,-0.397682,63.099747,-4.823685,41.067753,0.0,-53.271833,-8.755437,-1.551973,9.609723,13.405829,27.648932,27.546241,43.933566,45.342247,133.903055,108.699343,-183.709631,67.309431
97,-8.140755,18.867375,21.245927,25.025929,0.0,-68.503876,-40.47821,-100.497665,-34.373817,-103.357658,-26.168633,-90.53833,-15.986824,-67.138596,0.0,-6.72956,9.199082,48.117033,27.124795,64.551966,42.267725,72.998558,54.471829,80.66938,0.0,29.954682,23.425656,80.685053,17.417593,78.068304,10.057955,70.049715,2.698031,50.235587,0.0,-48.799096,-7.33811,6.136015,10.312165,18.70982,28.401516,31.879793,44.997711,46.005987,125.983629,129.367761,-162.242375,94.136403
98,-29.418068,28.874307,21.245928,25.02593,0.0,-66.440964,-39.011879,-94.589996,-32.347641,-98.829803,-23.297081,-85.815811,-13.529892,-67.088928,0.0,6.776552,15.591547,54.451266,33.381655,69.982545,49.011117,80.340188,61.063192,85.417863,0.0,33.094883,37.643051,83.354702,29.759903,85.374641,20.513592,76.999683,10.219746,59.403419,0.0,-44.32636,-5.920784,13.824003,11.014606,24.013809,29.154099,36.213344,46.061855,46.669726,96.431465,158.823495,-141.130543,119.743759
99,-10.112,16.981425,15.041885,11.639088,0.0,-69.491158,-35.931244,-95.466042,-29.695473,-97.356205,-22.288742,-85.613594,-13.941536,-64.107285,0.0,10.161092,15.974029,57.987342,34.695951,74.395538,49.91045,83.979881,61.450243,90.936435,0.0,40.934258,29.946213,86.511669,20.657158,87.131996,10.129166,71.391792,-0.289078,38.307953,0.0,-26.768464,8.455422,29.47236,19.407413,45.022225,28.158188,49.9115,33.922404,53.844383,86.277351,176.057124,-126.130772,131.635051
100,-6.922874,16.179905,13.992977,35.860749,0.0,-73.383751,-30.753479,-95.634613,-25.668297,-97.618275,-19.983902,-87.35733,-13.732681,-67.476997,0.0,12.954248,18.601262,58.40533,36.789722,71.606457,52.322606,84.297957,63.823991,96.369854,0.0,53.891029,28.935528,96.427288,23.251305,95.020294,17.249222,84.462032,12.366543,69.496937,0.0,-23.812564,5.82788,37.622674,25.415976,48.409482,43.748438,54.847025,58.32876,62.530258,79.358826,192.463005,-112.133446,167.721776
101,-24.195213,23.622373,19.919357,22.201126,0.0,-65.225945,-38.861847,-87.342911,-31.788139,-92.372017,-22.956047,-86.223907,-12.427597,-65.200195,0.0,25.228934,26.035147,54.784533,43.098083,77.080322,56.946353,87.917767,64.882022,97.57621,0.0,55.685921,35.634384,86.446838,30.875301,84.152527,23.885536,78.790684,16.105785,67.168293,0.0,7.366515,16.142237,62.958621,36.073232,91.463599,53.420281,97.17508,68.031787,95.193879,55.524015,215.958712,-91.853685,189.796236
102,4.339256,58.25855,0.828609,12.34823,0.0,-78.072281,-42.346687,-106.472054,-43.373566,-108.190784,-41.784096,-94.703465,-40.050087,-78.126869,0.0,49.726804,12.820744,37.074577,-2.979766,-6.140399,-19.158745,-33.177508,-35.403055,-38.640753,0.0,65.905151,30.046406,101.103916,22.145977,98.414097,14.304085,85.005054,6.613483,61.108589,0.0,-2.230795,22.26794,56.156874,42.036346,70.327544,57.429921,78.48854,67.112015,79.970118,60.292912,273.796695,-90.595436,201.723899
103,-15.378914,-3.358543,14.391918,16.887503,0.0,-63.761444,-34.288673,-99.33569,-32.353821,-102.120152,-29.102669,-97.50309,-25.323944,-76.666031,0.0,45.645658,22.109303,38.547448,15.448595,6.682259,6.322501,-4.135178,-5.50542,0.031678,0.0,62.077332,36.015472,89.072456,28.703842,82.798462,19.783516,70.462532,10.091572,57.88393,0.0,4.972143,33.254017,64.147254,52.562198,82.694052,66.20237,92.966233,75.057873,93.776213,45.295315,269.929221,-75.822201,218.102471
104,-9.231949,-22.271398,1.369572,14.102374,0.0,-66.143475,-23.000107,-89.805393,-18.412514,-99.703445,-13.755226,-94.776878,-8.766632,-68.009491,0.0,24.544616,35.897985,3.597826,52.084743,30.157481,63.029078,61.985311,67.754343,95.818485,0.0,68.159351,30.581188,95.348454,22.298241,95.792828,13.491898,80.551815,4.96542,53.503761,0.0,7.340951,26.903666,64.808848,44.849756,80.810912,58.557175,90.145413,67.784477,91.737771,36.419334,247.403751,-74.096661,231.950772
105,-19.078102,60.621491,5.447674,12.636851,0.0,-62.901592,-55.770092,-6.864052,-59.790287,2.736282,-57.142868,1.385536,-51.329441,-37.055168,0.0,40.694571,2.223756,29.200844,-11.554058,21.65235,-26.540883,6.626375,-41.513196,-12.207315,0.0,71.484032,32.444229,94.441795,21.679058,90.208282,11.219559,73.74733,1.121235,46.560116,0.0,10.894255,28.85183,65.679838,46.003316,86.056239,58.732669,93.28857,66.850626,94.290533,17.44626,307.973495,-68.543959,244.535877
106,4.313393,3.213059,6.879787,9.488074,0.0,-52.686539,-49.690189,-12.993622,-48.961887,1.905785,-43.53178,3.642998,-35.335579,-25.861244,0.0,42.389497,2.356766,37.031166,-8.480863,29.978775,-19.85708,18.254842,-29.968031,-5.467443,0.0,71.568317,31.64835,91.61665,20.574303,89.011745,10.444851,72.829456,0.508289,48.915424,0.0,9.379888,30.090914,66.304196,46.380858,85.805038,58.663015,93.704274,66.873164,94.410143,21.802912,311.027933,-61.620913,253.86533
107,0.334167,2.909865,6.161842,7.817726,0.0,-40.994682,-46.773834,-3.087502,-45.630341,9.550667,-39.839802,14.044876,-31.59359,-7.436371,0.0,42.04073,7.113894,40.012785,-2.734493,33.859542,-11.855215,26.301415,-19.449033,7.080426,0.0,71.058254,31.37598,90.662556,20.679302,89.426479,9.956532,71.645451,-0.985851,47.036533,0.0,10.113729,29.726093,65.638465,45.881544,85.917918,57.93084,94.933046,65.927148,93.384037,22.318525,313.7142,-55.277624,261.459457
108,-47.669392,-28.183567,5.446758,4.118629,0.0,5.037689,0.662041,56.091785,-4.319801,65.170841,-11.54171,50.407963,-18.838577,-19.456787,0.0,50.576675,25.355645,53.722364,30.620486,62.399162,33.195478,63.127446,36.573349,71.952877,0.0,71.310997,32.339973,89.409256,22.192898,90.380974,11.567917,74.57325,0.314999,52.623367,0.0,11.771172,31.437382,65.697128,47.159469,84.300366,58.59546,94.033342,66.405837,93.999626,-25.329123,285.421334,-49.809122,265.468788
109,18.491764,-9.207233,4.754562,4.843085,0.0,14.474487,-15.71703,41.081429,-25.1231,41.118507,-32.936668,17.620697,-36.828175,-55.333271,0.0,16.465377,28.83065,56.865522,45.721796,73.457858,57.134136,79.929239,67.424163,95.612362,0.0,70.739708,31.595306,86.981735,21.938896,88.090553,11.53965,72.58152,0.601788,51.277771,0.0,12.202252,32.709131,65.634019,47.867561,81.696166,58.768238,90.431811,66.142904,91.359858,-6.848974,276.018398,-45.066175,270.11617
110,-14.790859,3.446723,2.072239,5.164928,0.0,37.92738,6.919842,59.696217,-2.272396,61.11208,-13.015766,40.067997,-21.815529,-38.097725,0.0,5.990654,25.107841,54.243353,44.635915,71.230891,57.615234,79.591279,68.34233,95.643546,0.0,70.550251,30.16016,86.747074,19.85218,85.74892,8.988476,69.648571,-1.596622,46.596508,0.0,13.992273,31.937807,66.352608,47.480942,81.874068,58.342283,89.844194,65.181574,89.7562,-21.640234,279.362137,-42.994337,275.178114
111,29.862156,4.221443,1.626377,3.708668,0.0,-2.251396,-25.031662,27.202721,-36.116352,25.203781,-43.795109,-0.933266,-47.217293,-71.994324,0.0,15.440567,32.030433,57.32476,47.75042,67.347408,58.068235,74.175953,67.44238,93.379838,0.0,68.356819,29.484844,85.840302,19.394073,84.258385,8.700886,69.815598,-1.546841,46.931877,0.0,14.521721,31.501787,64.736971,47.363245,80.200447,58.358894,87.657674,65.255427,88.156864,8.291388,283.503706,-41.298494,278.806908
112,-11.499367,23.769092,0.59269,0.576625,0.0,-27.83226,-24.672661,20.157166,-24.86515,28.844833,-22.39397,28.071785,-18.315525,-26.065636,0.0,48.256835,21.063127,42.00263,29.354973,52.253816,36.270092,49.403788,44.00532,66.14877,0.0,66.723976,28.566914,84.660416,18.962116,84.826126,8.721714,70.11692,-1.163063,48.28949,0.0,14.849986,31.873154,63.624352,48.103571,78.811495,58.95213,86.133118,65.401714,86.864613,-3.167896,307.285843,-40.665722,279.396578
113,-1.67141,-3.295372,-0.25589,-0.199516,0.0,25.699997,-5.741158,51.547279,-12.924557,53.041763,-16.572876,37.738953,-17.565937,-28.325386,0.0,15.847996,15.796558,49.466156,29.004292,54.435396,40.692286,60.07148,50.508379,72.511533,0.0,66.858101,28.758717,87.620201,19.237347,85.983696,9.324703,72.892113,0.011959,51.562271,0.0,14.213957,30.673591,61.073442,47.899795,76.528521,59.301699,84.656419,65.97556,85.103615,-4.754162,303.944049,-40.836468,279.150641
114,15.870094,-15.067718,1.307316,-0.062183,0.0,-17.561188,-28.157215,23.281288,-35.161228,9.990692,-38.889542,-22.488556,-39.115505,-70.105705,0.0,29.796241,29.493355,51.598583,43.504524,59.864493,53.298016,65.931965,62.555143,83.306616,0.0,65.894794,28.02269,85.180836,18.487473,84.598217,8.33559,71.452045,-1.380501,49.574833,0.0,14.728647,30.404297,61.046766,47.509594,76.840607,58.889515,84.856428,65.638712,85.86827,11.1553,288.862669,-39.489784,279.074796
115,-15.696831,7.488966,0.084858,1.119658,0.0,25.019875,-8.717766,49.868431,-17.222786,44.838982,-21.901016,26.342354,-22.84584,-35.713406,0.0,11.16219,15.314164,47.506136,33.348927,57.34168,47.473593,64.266371,59.58254,77.6701,0.0,64.813499,27.367744,84.326591,17.647648,83.400307,7.350483,70.321655,-2.354965,48.240623,0.0,15.177572,29.944874,60.968528,47.062212,76.073667,58.449544,84.05003,65.142794,84.889712,-4.527855,296.370886,-39.391251,280.213706
116,-4.158268,-1.089586,0.326042,0.469118,0.0,25.503788,-5.241508,52.0154,-13.497276,56.820202,-17.848892,41.347332,-18.447418,-20.783329,0.0,21.448573,18.034887,51.153856,33.767781,58.747551,46.826078,66.055527,57.568798,78.286184,0.0,64.552345,26.21973,84.725189,16.335011,83.165588,6.290703,70.225182,-3.061523,48.765678,0.0,14.71994,29.455564,60.216841,46.892337,75.147349,58.460721,83.367996,65.219241,84.426337,-8.677025,295.274137,-39.05611,280.67566
117,5.070248,-9.809176,-0.25898,0.761506,0.0,-20.151215,-21.088028,38.676453,-29.345169,42.136459,-32.708359,28.71769,-33.145523,-52.422123,0.0,45.825166,26.201688,53.707483,40.025691,61.943012,50.035927,67.927861,58.161046,85.873334,0.0,63.551559,26.205425,84.52961,16.351433,82.228546,5.996647,69.769249,-3.905869,47.796021,0.0,14.61058,28.483983,59.512701,45.713521,74.706883,57.343409,82.647245,64.159543,83.503538,-3.604116,285.450187,-39.312429,281.422393
118,-11.788731,9.412801,0.50005,-0.663879,0.0,27.989445,-2.271423,57.453976,-9.308109,59.06004,-13.174725,44.84499,-13.691196,-21.002712,0.0,24.244138,17.194217,52.147482,32.383213,62.106403,45.606755,67.192352,57.032804,80.677099,0.0,63.311291,25.37241,84.659672,15.531693,82.402096,5.353661,69.469814,-4.29388,47.535267,0.0,15.122305,29.019236,59.948164,46.153061,75.558607,57.675502,83.596164,64.427292,84.442453,-15.433044,294.816103,-38.852577,280.71163
119,10.9659,-4.901501,0.58073,0.51012,0.0,-23.626957,-18.901005,37.157135,-27.149048,41.894989,-31.665745,26.102371,-33.460865,-48.425102,0.0,48.236705,25.019723,48.161925,36.544944,58.085093,44.931267,64.464404,51.75123,81.78805,0.0,62.233772,25.111713,83.521385,15.324955,81.473351,5.079002,68.688583,-4.669132,46.653214,0.0,14.61589,28.114716,58.696484,45.153075,74.439504,56.739551,82.774204,63.694871,84.18409,-4.478073,289.863365,-38.282776,281.170513
120,-10.16367,9.852525,-0.167656,-0.254288,0.0,26.224537,-0.244732,57.890682,-8.563728,56.826611,-13.094215,42.877522,-14.228096,-23.694763,0.0,24.455324,14.959593,49.255031,28.584636,59.511157,40.838326,64.433097,51.740238,76.417061,0.0,62.973289,25.518494,84.060402,15.462227,81.593399,4.850407,68.87146,-5.250778,46.633072,0.0,14.405507,28.321024,59.802001,45.393839,75.317039,57.222748,83.140199,64.409138,84.655986,-14.72743,299.644445,-38.536119,280.844779
121,0.236149,-15.27063,-0.493927,-0.322584,0.0,11.456795,-5.822811,53.117752,-13.999443,49.762573,-20.196934,25.99102,-23.240891,-47.958298,0.0,1.453296,26.751637,56.556461,45.913037,64.926915,58.375752,71.691611,67.589346,89.252378,0.0,61.960144,25.670414,83.710327,15.969028,82.540398,5.489388,69.126205,-4.476299,46.534538,0.0,15.351399,29.381402,59.364006,46.43421,75.315125,57.92306,83.673476,64.636811,85.468683,-14.574537,284.272838,-39.113302,280.421218
122,6.321945,-0.598732,0.27626,0.623864,0.0,1.646576,-12.288723,44.357758,-22.396832,43.674431,-29.337273,23.005371,-32.81599,-52.605457,0.0,12.191446,28.217283,54.152518,45.46652,65.672613,56.661931,73.027704,65.010957,88.886013,0.0,62.003632,25.463562,83.90831,15.927372,82.211952,5.625744,69.069786,-4.202843,47.333679,0.0,14.576864,28.831082,58.629423,45.740259,74.882131,57.318214,83.093639,64.338187,84.590531,-8.412151,283.612927,-38.996601,280.983903
123,5.147209,0.341171,-0.47842,0.104482,0.0,-0.802345,-15.925598,40.711555,-25.947647,36.537781,-31.653728,13.608742,-33.231869,-56.814308,0.0,3.597147,29.00034,55.887951,46.973415,65.312546,58.703523,72.353452,67.173827,89.253243,0.0,61.956882,25.536518,84.99979,16.090908,83.501415,6.051521,70.466824,-3.440208,48.682308,0.0,15.003374,28.387282,58.716367,45.489367,74.471491,57.285363,83.301615,64.476631,84.501796,-3.373518,283.892023,-39.583597,281.02631
124,-7.018318,9.770274,-0.121937,0.807263,0.0,25.560493,-3.534794,56.009216,-13.701839,44.543495,-20.273724,27.580605,-23.677082,-32.902508,0.0,20.588637,21.080603,50.85801,37.782298,64.051541,50.482382,66.875449,61.24764,80.979182,0.0,62.04689,25.688324,84.638214,16.341476,83.435326,6.274624,70.137062,-3.27467,48.73558,0.0,13.634738,27.683512,58.056194,44.888597,73.858309,56.873241,82.802795,64.353254,83.496869,-10.614338,293.444781,-39.928036,281.616058
125,11.876564,-5.508384,0.037251,-0.183893,0.0,-2.73262,-19.220009,35.238419,-30.171204,26.355858,-35.654068,-3.640938,-36.639004,-64.700832,0.0,-3.816484,25.791542,55.045491,42.955501,60.357508,54.540249,67.500981,63.106636,84.073618,0.0,61.547642,26.258926,84.388447,17.049465,83.183613,6.662464,69.324017,-3.567867,47.594891,0.0,13.473322,26.960847,57.992405,43.864467,73.926482,55.850222,82.8961,63.533085,83.965617,0.889435,287.551692,-40.263577,281.04746
126,-10.635624,3.50273,0.303555,0.234281,0.0,22.009335,-7.172184,52.099972,-16.164608,40.104618,-22.321758,20.354176,-24.923744,-34.446945,0.0,5.345918,22.954295,53.235524,40.348028,65.614876,53.509326,70.437213,65.39381,85.228474,0.0,61.40522,25.969105,83.293762,16.605034,81.935349,6.041679,68.211136,-4.1395,46.120605,0.0,13.851852,27.268056,58.994368,44.091894,74.209546,56.090493,83.551642,63.70154,84.382494,-9.999275,290.836567,-40.213108,281.063885
127,12.149792,-3.121792,0.174866,0.104914,0.0,-5.820923,-20.854626,33.569984,-31.691895,24.787331,-37.176361,-3.117599,-38.154087,-66.542473,0.0,-5.650039,25.61438,54.940947,42.793838,60.38826,54.510917,67.175988,63.435148,84.041076,0.0,61.161346,26.404552,83.970222,17.134953,82.624512,6.569881,68.733444,-3.725109,48.058434,0.0,13.581694,26.758183,58.086019,43.748006,73.988356,55.792979,82.976005,63.708826,83.435675,1.949959,287.426432,-40.2388,280.880456
128,-9.718895,6.492871,-0.275974,0.324745,0.0,18.942261,-9.713974,50.648689,-17.935696,39.736061,-23.077526,16.871567,-24.207458,-40.458069,0.0,-2.91394,19.780571,52.895959,37.07223,60.964144,50.242852,66.437948,62.055768,81.219823,0.0,61.299992,25.87326,83.658886,16.588154,82.87714,6.116352,68.957005,-3.899803,46.615391,0.0,13.457761,26.411639,58.113992,43.666186,73.842254,55.945009,82.648974,63.649175,83.711699,-8.046427,293.683292,-40.792265,280.969191
129,-9.606056,-2.334474,0.247192,-0.146595,0.0,41.974297,1.66254,63.190041,-8.426514,51.518898,-15.57827,30.285873,-19.064827,-27.723541,0.0,15.450385,20.073639,55.422477,37.17523,66.641168,50.628113,69.287544,61.964068,84.509638,0.0,60.580273,26.355228,84.273891,16.885071,82.371426,6.142273,68.177891,-4.157467,46.871166,0.0,13.470914,26.730333,57.98586,43.786538,73.86751,55.848246,82.72715,63.427553,83.353917,-17.996435,291.17022,-40.889025,280.643998
130,18.258591,-5.54741,-0.195122,0.30091,0.0,-4.812126,-20.344276,35.973816,-31.810684,26.599731,-37.684937,-4.459076,-38.769436,-67.227116,0.0,-5.133435,26.469129,55.659598,43.477601,61.331682,55.217527,69.028192,64.300828,85.701544,0.0,60.707531,26.844807,84.033108,17.622643,83.042507,6.819077,68.987904,-3.7603,47.514439,0.0,13.082998,26.251891,57.512296,43.235662,73.376286,55.406051,82.234691,63.292073,83.609502,0.068264,285.512385,-41.278038,280.834483
131,-10.373955,4.779852,0.466747,0.10479,0.0,19.858246,-7.652607,53.432007,-16.724224,45.676918,-23.044167,26.843033,-26.193867,-36.755676,0.0,5.199755,21.514832,55.601368,38.523983,63.419279,51.147557,68.129044,62.582499,82.429822,0.0,60.582619,26.379433,83.29319,17.236004,82.317352,6.539612,68.14785,-3.915825,46.615334,0.0,12.946591,25.887008,57.83383,42.733446,73.313856,54.917544,82.298109,62.836046,83.381334,-10.522699,290.206389,-41.028299,280.853424
132,7.721672,-6.638849,0.211258,0.03773,0.0,-0.484543,-18.958168,37.847099,-29.884987,30.576096,-35.52681,3.370056,-36.307182,-62.896156,0.0,-3.946901,27.392236,57.320499,44.927438,63.807071,56.97797,70.88515,66.1844,88.388181,0.0,60.742378,26.289997,83.323288,17.002773,81.963615,6.12442,67.781754,-4.533691,46.116486,0.0,12.579979,25.513912,58.210014,42.428214,73.762411,54.83097,82.426364,63.042478,83.364785,-2.871838,283.43135,-40.887852,280.754963
133,-11.27758,4.34093,-1.265488,-0.890997,0.0,27.325401,-4.181213,56.903687,-13.06366,49.394989,-19.657173,31.193848,-23.504276,-34.061565,0.0,12.966475,25.527991,58.62615,41.744637,67.66289,53.831477,71.11128,64.936795,87.463716,0.0,61.496887,26.49519,83.925705,17.613373,82.691574,7.114162,68.693275,-3.374805,47.455101,0.0,13.359578,25.791048,58.881117,42.546343,74.019725,54.868946,83.090984,63.294666,84.221449,-14.248981,287.697639,-42.252903,279.789326
134,25.743942,4.098745,0.986767,0.006731,0.0,-8.201294,-28.992119,24.751625,-42.182293,17.880592,-48.661995,-11.367874,-50.18898,-79.556179,0.0,-14.834981,19.146456,50.776314,36.67641,55.761178,48.967397,65.340272,58.966209,78.608336,0.0,60.750332,26.11845,83.24358,16.984119,81.174831,6.454754,67.169895,-4.148655,46.253643,0.0,13.515807,26.938,59.768471,43.665878,74.773512,55.993174,83.723987,64.419512,84.935654,11.431274,291.705828,-41.329823,279.7055
135,-23.180237,-0.773547,0.019455,0.003705,0.0,29.387512,-9.914932,59.10862,-19.138584,46.718674,-24.432964,21.222153,-23.893032,-40.838928,0.0,-2.697196,17.565337,56.199359,38.139216,64.31009,52.027007,72.230754,62.403855,83.348483,0.0,60.660725,26.491928,84.423809,17.444973,81.799564,6.769924,67.81992,-4.086342,46.412716,0.0,13.250712,27.869196,59.644538,44.151112,75.043238,55.766859,83.933753,63.325727,84.811412,-11.763411,290.890275,-41.324816,279.667199
136,-0.245476,-2.44155,-0.204906,0.566313,0.0,28.033905,-5.453053,54.284592,-14.047337,48.299675,-20.136967,28.206825,-23.161125,-38.294392,0.0,13.005193,22.127828,58.209582,38.891953,65.250055,51.760801,70.431347,63.141587,84.621591,0.0,60.858994,26.540394,84.433136,17.474442,82.351112,6.887627,68.399162,-3.867188,46.287117,0.0,12.75004,26.681427,58.726988,43.303032,74.208187,55.378634,83.367132,63.393837,84.382123,-12.029915,288.422142,-41.550751,280.206929
137,20.182343,1.626259,0.356026,-0.257623,0.0,0.281868,-26.401348,27.309036,-38.809834,19.875183,-44.78548,-16.075516,-45.970001,-75.458794,0.0,-8.64901,20.060733,51.705164,37.938959,57.427636,50.635153,66.805548,60.663111,80.559958,0.0,60.788383,26.355572,83.626328,17.347584,81.890717,6.786633,68.294563,-3.975964,46.824074,0.0,13.232619,26.319631,58.821096,42.775375,74.253512,54.774097,83.270245,62.887978,84.29629,8.120728,290.002998,-41.226425,279.903904
138,-13.726387,2.654094,0.055618,-0.050141,0.0,20.316353,-12.953281,51.231422,-22.606144,40.458984,-28.680897,19.335938,-29.56913,-48.561058,0.0,-5.248229,17.812956,53.671791,36.653871,61.014532,49.825234,67.956452,60.312801,81.532403,0.0,60.985565,26.71011,83.010979,17.700176,81.431694,7.03783,67.750511,-3.910789,46.323967,0.0,13.252935,26.356496,59.028763,42.821626,74.250857,54.984913,83.34484,63.465715,84.717613,-5.620995,292.651304,-41.186142,279.847973
139,-5.171127,0.500055,-0.105686,0.240271,0.0,24.513245,-5.492821,52.273521,-13.477249,48.804817,-18.928699,30.320549,-21.919384,-35.925064,0.0,8.183412,20.218135,52.657973,36.965464,60.357076,49.512839,65.692126,60.540227,79.811296,0.0,61.622257,27.007656,83.307552,18.094025,81.400166,7.33984,67.608662,-3.755608,46.32288,0.0,12.895709,26.178037,58.724148,42.389682,74.167308,54.348637,83.087402,62.700133,84.123019,-10.81418,293.112348,-41.313887,280.049233
140,13.93158,-7.961728,0.057278,-0.232614,0.0,4.97509,-22.461376,33.091507,-35.387421,33.075829,-41.990433,6.25351,-44.008083,-67.830505,0.0,-6.770686,22.265161,55.027027,40.879452,62.962264,53.756204,70.761526,63.559329,87.176391,0.0,61.947327,26.509495,83.093719,17.45327,81.427803,6.909771,67.76001,-3.8241,47.087173,0.0,13.168152,26.428929,59.137629,43.058562,73.933089,55.36826,83.237888,63.895807,84.581392,3.102436,285.135599,-41.271572,279.801599
141,-6.572227,3.735776,-0.073013,-0.30869,0.0,5.076256,-17.009068,43.4935,-26.167831,41.968803,-31.602745,25.618858,-33.984318,-52.067184,0.0,9.871297,23.74538,57.89484,40.211683,64.795201,52.396027,69.82434,63.626698,85.511662,0.0,61.408768,26.766357,83.636856,17.83247,81.778679,7.200108,68.059845,-3.743649,46.570473,0.0,13.09189,26.204714,59.314111,42.745488,74.630128,54.950642,83.73572,63.387168,84.81734,-3.480349,288.860678,-41.355143,279.48221
142,-16.740932,2.975073,-0.245018,0.167405,0.0,43.599415,0.722694,61.956196,-6.508942,61.364422,-11.312943,45.365009,-13.520737,-22.152386,0.0,8.031567,18.877657,51.324966,36.461457,60.012076,49.735264,66.667659,61.161251,82.640823,0.0,62.013474,26.702557,82.979965,17.751045,81.907082,7.299557,68.304062,-3.311462,47.673111,0.0,13.331358,26.242011,58.864445,43.180519,73.845342,55.721966,83.410975,64.359243,84.724221,-20.230865,291.801556,-41.609745,279.615421
143,20.140858,-9.489742,0.545368,0.32666,0.0,10.559921,-21.664639,36.813126,-33.758469,36.928711,-39.655609,10.715103,-40.970192,-64.794445,0.0,-5.511657,24.910734,55.556105,43.256781,64.116194,56.011823,73.483978,65.566649,90.992505,0.0,61.138973,26.401577,82.960682,17.442856,81.316967,6.726265,67.605686,-4.24696,46.348515,0.0,12.29568,25.583566,58.839683,42.034308,74.108707,54.299546,83.211582,62.902736,83.921403,-0.099878,282.28395,-41.074247,279.914216
144,1.021042,7.19627,0.037537,0.194761,0.0,2.764664,-16.864071,41.096878,-28.569202,35.04467,-36.055813,18.592873,-40.820904,-50.095196,0.0,19.46478,22.910082,53.607447,38.957964,62.735208,50.117808,68.074519,60.020536,82.488115,0.0,61.576481,26.159592,82.47694,17.153378,81.157894,6.676311,67.491817,-3.830624,46.886959,0.0,12.650004,25.827233,58.603858,42.632299,73.441988,55.15096,82.668858,63.85394,84.4561,0.913582,289.454578,-41.044292,280.083335
145,-18.239708,7.228318,0.354538,0.21168,0.0,41.320496,3.441811,63.249779,-7.347279,54.543686,-15.711994,31.670265,-20.840664,-31.360989,0.0,8.502044,15.572404,47.766537,31.530687,59.905618,43.505327,64.326022,53.307031,77.033886,0.0,60.525684,25.015697,83.74506,15.940704,81.401997,5.484924,67.491131,-4.845257,46.459522,0.0,12.583561,25.805868,59.094465,42.316631,73.775378,54.527219,82.512383,62.781212,83.734855,-17.309217,296.655031,-40.672846,280.267151
146,16.342392,-15.822308,0.053787,-0.318694,0.0,7.798576,-20.139599,36.889458,-32.250824,32.80735,-38.89761,2.792816,-40.491371,-63.992615,0.0,-2.604632,29.090743,56.412027,46.686214,65.207941,58.667523,75.660248,67.645353,91.696027,0.0,60.439854,25.054436,84.147091,15.911522,81.892948,5.550327,68.067684,-4.538212,47.100849,0.0,13.30956,26.517232,59.320286,43.398498,74.031087,55.745308,82.975264,63.895868,83.982104,-0.970259,280.82329,-40.622492,279.939024
147,5.847702,13.567615,-0.517044,-0.148263,0.0,-10.467224,-20.042667,23.967133,-28.79837,13.89267,-34.271164,1.495399,-37.702503,-53.132114,0.0,12.037934,22.451647,44.242812,38.048257,60.488913,49.376864,64.707022,59.199996,79.789436,0.0,60.75285,25.767918,84.79105,16.683884,82.4473,6.09272,68.306293,-4.386921,46.953793,0.0,13.353588,26.86464,58.844808,43.288212,73.934262,55.219071,82.649221,63.070945,83.521014,4.905138,294.405046,-41.111841,279.804902
148,-19.428577,3.487663,-0.534668,-0.1926,0.0,35.274982,-2.01622,54.876881,-9.292259,53.317165,-14.241829,34.69202,-16.521549,-28.808899,0.0,6.445632,15.417781,47.727881,32.181289,56.626548,45.207724,62.422256,56.352808,74.838968,0.0,61.470051,25.882874,85.092831,16.9384,83.260632,6.578064,69.57716,-3.635273,48.752575,0.0,13.360566,26.880572,59.106074,43.596717,74.109325,55.789521,82.814898,63.818804,84.078311,-14.478378,297.882552,-41.601448,279.602145
149,12.450199,-16.213559,0.059166,0.155055,0.0,8.798561,-18.027534,37.41806,-29.595394,34.357109,-36.497784,6.954231,-39.034195,-62.785606,0.0,-5.430702,28.316145,53.842222,46.457428,64.348993,58.68364,74.232332,67.695433,91.021404,0.0,61.269207,25.783939,84.844494,16.690578,83.022022,6.19297,68.897038,-4.104996,47.353077,0.0,13.376312,26.544773,58.638376,43.375527,74.000953,55.572222,82.677256,63.466209,83.894851,-1.961803,281.698139,-41.475906,279.786346
150,0.594978,11.035293,-0.120621,0.276704,0.0,2.161217,-14.152164,40.408974,-25.550537,29.746857,-33.524265,13.608971,-39.253864,-44.405766,0.0,20.186765,21.563861,47.053258,37.184801,61.732381,48.62388,64.673553,58.604475,80.11412,0.0,61.308575,26.196384,84.989376,17.350788,83.034496,6.85009,68.9855,-3.697071,47.760487,0.0,12.967401,26.648823,58.436514,43.223251,73.642553,55.264457,82.121811,63.304979,84.269182,-1.237249,292.718565,-41.466951,280.048184
