takenoko1/special-research/HandMotion_SimilarSearch_自分用/NewProject/handData/test_key/d4_feature_d2/82.csv
frame,vel_0x_L,vel_0y_L,vel_0x_R,vel_0y_R,posFromWrist_0x_L,posFromWrist_1x_L,posFromWrist_2x_L,posFromWrist_3x_L,posFromWrist_4x_L,posFromWrist_5x_L,posFromWrist_6x_L,posFromWrist_7x_L,posFromWrist_8x_L,posFromWrist_9x_L,posFromWrist_0y_L,posFromWrist_1y_L,posFromWrist_2y_L,posFromWrist_3y_L,posFromWrist_4y_L,posFromWrist_5y_L,posFromWrist_6y_L,posFromWrist_7y_L,posFromWrist_8y_L,posFromWrist_9y_L,posFromWrist_0x_R,posFromWrist_1x_R,posFromWrist_2x_R,posFromWrist_3x_R,posFromWrist_4x_R,posFromWrist_5x_R,posFromWrist_6x_R,posFromWrist_7x_R,posFromWrist_8x_R,posFromWrist_9x_R,posFromWrist_0y_R,posFromWrist_1y_R,posFromWrist_2y_R,posFromWrist_3y_R,posFromWrist_4y_R,posFromWrist_5y_R,posFromWrist_6y_R,posFromWrist_7y_R,posFromWrist_8y_R,posFromWrist_9y_R,posFromBody_0x_L,posFromBody_0y_L,posFromBody_0x_R,posFromBody_0y_R
2,12.829742,1.92581,-0.446434,0.201553,0.0,-18.190498,-26.406612,21.987076,-39.64016,23.957176,-47.807522,-0.348473,-51.532745,-69.515533,0.0,41.665288,19.173379,51.234996,35.332659,63.269163,48.093382,70.69465,58.982697,82.464464,0.0,61.092911,25.899982,83.976402,16.155682,81.706009,5.231552,66.977692,-5.271378,45.189056,0.0,14.281265,26.271775,57.608071,42.928454,72.671899,54.988063,80.213044,62.842406,82.980945,9.801435,286.008766,-38.579721,278.727775
3,-11.453819,12.709038,-0.324383,-0.032481,0.0,11.230087,-11.233864,46.590042,-20.471878,36.544418,-26.108208,18.423843,-28.153095,-48.100033,0.0,6.971004,14.136831,47.310263,31.12017,56.060297,44.060957,60.047768,55.096188,69.664901,0.0,61.152706,26.22551,84.618015,16.692181,82.205715,5.75861,67.600307,-4.904594,46.295071,0.0,13.859201,26.092637,57.748121,42.838237,72.569578,55.02184,79.885829,63.118369,82.737772,-1.744738,298.860833,-38.996458,278.838323
4,-5.574532,6.510531,0.243702,0.097257,0.0,24.542885,-6.287212,51.512604,-14.09277,45.672226,-19.068489,29.304543,-19.960442,-40.023651,0.0,2.198747,11.366213,38.501567,25.657358,49.065704,37.661391,55.687818,47.560044,65.06221,0.0,60.956497,26.028385,84.201736,16.670437,81.924248,5.824242,67.337036,-4.936409,46.075172,0.0,13.425034,25.973088,57.552619,42.636745,72.190739,54.834489,79.668159,62.951149,82.744811,-7.428617,305.446962,-38.862104,279.011178
5,-1.358299,3.760662,0.308819,-0.133381,0.0,16.063728,-5.904179,52.137451,-13.571262,50.021896,-16.840954,35.837402,-16.475029,-32.592773,0.0,22.145489,9.363832,39.087146,21.698354,46.223703,33.209372,52.127475,43.416715,60.983472,0.0,61.166325,25.460186,83.561611,15.973606,81.113033,5.224113,66.551342,-5.187721,44.767284,0.0,13.681051,26.231946,58.440899,42.873064,72.755879,55.006094,80.12857,62.977701,82.751171,-8.929853,309.254029,-38.696222,278.924203
6,26.551666,-12.400903,-0.085144,0.454668,0.0,-15.505257,-30.812302,19.119987,-45.732708,15.512352,-52.651348,-13.754425,-55.025768,-81.633797,0.0,-4.370941,12.871441,45.747113,29.415797,54.507336,41.838621,60.814893,52.014966,68.73883,0.0,60.962391,24.94978,84.004154,15.470924,81.821194,4.950199,67.423611,-5.177593,45.440311,0.0,13.086518,26.270972,57.348163,43.104381,71.861054,55.307683,79.716509,63.222604,82.386412,17.499733,296.966392,-38.903446,279.492137
7,-27.030029,-4.679755,0.169144,0.184819,0.0,30.960617,-9.201679,45.980988,-18.477859,44.612503,-23.591995,34.669876,-23.647327,-43.302841,0.0,-9.115905,14.549262,52.065663,36.031118,65.006943,50.427239,70.085483,61.372129,80.668453,0.0,61.291409,25.043736,83.950024,15.599384,81.720943,5.119801,67.372227,-5.137253,45.487919,0.0,12.96314,26.030763,56.955307,42.716712,71.274549,54.80312,79.271844,62.655426,82.148426,-9.744587,292.344975,-38.948593,279.735294
8,16.848106,5.824299,0.283527,0.04409,0.0,-4.057388,-16.840439,34.150429,-26.965942,26.225166,-32.259464,8.643837,-34.229622,-52.025928,0.0,2.524851,18.124116,43.375712,34.871384,52.372562,47.19868,60.299277,57.256094,71.248799,0.0,61.021614,24.06189,83.625298,14.736786,81.525192,4.622269,67.783585,-5.083809,46.031227,0.0,13.023347,25.300749,56.988158,42.283595,71.591081,54.699997,79.675939,62.884088,82.310273,6.983643,298.235023,-38.784943,279.845133
9,-9.648514,5.391305,0.305557,-0.062985,0.0,23.622437,-9.903603,44.523239,-18.187466,37.241592,-22.219791,14.666748,-21.845055,-42.400074,0.0,-0.428548,10.495594,41.006843,27.304735,46.974526,41.445024,54.93928,53.0202,66.619802,0.0,60.381775,23.322716,83.306351,13.812332,81.25351,3.670921,67.466698,-5.998077,45.65918,0.0,13.070648,25.066406,57.002114,42.071482,71.803379,54.54525,79.819818,62.865007,82.50417,-2.710762,303.695751,-38.525276,279.85157
10,-0.953064,-1.301822,0.12228,0.213224,0.0,26.590233,-8.455696,51.810379,-17.345467,45.761833,-22.316952,21.256142,-22.338867,-45.170002,0.0,-7.260181,11.565173,45.575077,27.554207,50.861962,40.690249,57.534711,51.313975,71.605778,0.0,59.897633,25.374756,83.472576,16.074886,81.545849,5.426788,67.494335,-5.285511,46.112194,0.0,12.882618,25.914425,56.625251,42.156389,71.192667,54.028091,79.265175,62.236326,82.467243,-3.781958,302.420497,-38.521128,280.091363
11,-0.410728,-3.2159,0.479107,-0.103061,0.0,28.242188,-9.054737,51.728325,-17.935295,48.411598,-22.340126,29.560432,-22.630978,-41.531982,0.0,1.94205,14.66103,48.204471,30.990185,52.914978,43.979817,59.834852,54.626267,71.536,0.0,60.522079,24.514275,83.17646,15.129719,80.956879,4.740543,66.988792,-5.2355,45.475388,0.0,13.04743,25.345024,57.231208,42.208691,71.950901,54.644854,79.97018,62.984432,82.42797,-4.276686,299.25003,-38.12602,280.033734
12,2.052841,1.54623,0.096016,-0.054155,0.0,23.977203,-9.684563,45.624962,-19.881306,44.967041,-24.490242,27.558174,-24.186287,-29.904327,0.0,8.862481,10.688626,39.283327,27.092932,47.668354,40.115291,56.563501,50.287436,68.105456,0.0,60.172348,24.643192,82.980995,15.268078,80.795174,4.842682,66.972771,-5.221081,45.50251,0.0,13.241882,25.582331,56.941722,42.44995,71.817705,54.778358,79.845938,62.898784,82.25087,-2.280064,300.832755,-38.086224,280.016073
13,-1.731262,-0.574464,-0.044003,0.851168,0.0,19.890404,-10.231762,44.645462,-17.990227,45.912781,-20.53957,32.916069,-18.351231,-20.039234,0.0,11.205106,13.131287,40.653013,29.048444,49.362353,41.488682,58.025936,50.628051,68.784772,0.0,61.350117,24.953842,83.348179,15.516014,80.259647,5.174446,66.528683,-4.551373,46.197453,0.0,12.063746,25.607217,57.946648,42.283533,71.295976,54.679187,78.660145,62.987952,80.873835,-4.062223,300.27907,-38.181124,280.88802
14,-1.509018,7.498414,-0.167141,-0.17957,0.0,6.796532,-11.837883,48.11348,-17.154007,53.121071,-18.1703,40.326233,-15.749073,-22.814941,0.0,28.196844,13.553968,42.644094,24.389807,45.173267,32.940881,51.501634,39.523969,65.548371,0.0,61.33873,25.975571,83.822021,16.351833,80.700302,5.576248,66.566277,-4.64407,45.800056,0.0,12.409363,25.827048,57.821727,42.654838,71.467272,55.155344,78.916903,63.544694,81.458118,-5.588093,307.788862,-38.365116,280.719827
15,8.534546,-21.063189,0.296459,-0.170184,0.0,2.157211,-22.823753,32.441483,-35.21759,34.237175,-40.942097,7.132301,-41.760235,-64.389839,0.0,-3.960795,19.916237,52.015954,38.399679,62.150616,51.644401,70.298707,61.350393,82.875043,0.0,60.776539,25.981693,84.059544,16.314583,80.344334,5.362358,66.103878,-5.145664,45.505886,0.0,12.452526,26.165132,57.799559,42.831383,71.433494,54.991521,79.127842,63.067116,81.352278,2.897673,286.734457,-38.117437,280.558427
16,-6.396675,6.739193,0.118904,-0.086142,0.0,16.095543,-13.692341,45.836792,-23.168335,44.627953,-28.387928,28.871269,-29.184837,-46.982689,0.0,14.645283,16.862617,53.85945,34.323164,59.003013,47.72677,65.229368,59.010052,77.440883,0.0,60.941563,25.564327,83.798046,15.923138,80.462551,5.108757,66.275196,-5.146122,46.102467,0.0,12.651795,25.620431,58.127577,42.319719,71.79671,54.597553,79.299509,62.899958,81.285896,-3.537283,293.48884,-38.036814,280.487476
17,-4.074326,5.842145,-0.300064,-0.055143,0.0,27.372551,-7.522259,54.989204,-15.280724,52.385674,-19.979954,38.11409,-20.368423,-36.996346,0.0,6.933089,20.053693,51.100565,33.74555,55.077107,44.562617,60.261363,52.993833,73.214623,0.0,61.805363,25.378532,84.38364,15.877819,81.121273,5.198708,67.01025,-4.916439,46.920719,0.0,12.518167,25.338911,58.258858,42.017697,71.857287,54.43552,79.475065,62.907306,81.363887,-7.674952,299.376078,-38.400221,280.477426
18,-0.468864,2.6289,-0.666389,-0.069407,0.0,17.865486,-9.69841,49.43985,-18.246861,53.403854,-21.271648,41.556816,-19.239521,-17.695656,0.0,22.564774,9.92959,40.947995,25.103642,46.083283,37.555489,54.197843,47.056284,68.84961,0.0,62.533779,26.10323,84.821377,16.628437,81.720715,5.894051,67.35117,-4.349785,47.196865,0.0,12.202561,25.987723,58.409406,42.668855,71.923545,55.043453,79.53805,63.369323,81.68011,-8.212109,302.047895,-39.134903,280.450935
19,11.682129,-15.021714,0.955925,-0.390263,0.0,1.986122,-22.406673,33.222427,-35.126381,33.904381,-41.718178,3.134995,-43.420944,-64.993687,0.0,-5.022161,19.944272,52.192313,38.025471,63.787435,50.920933,71.867291,60.641004,83.57875,0.0,61.588497,25.979061,84.379978,16.312237,80.946407,5.340385,66.524334,-5.246143,46.209126,0.0,13.027546,26.298512,58.617196,42.912955,72.492637,55.002944,80.051135,63.025064,82.160776,3.3498,287.049183,-38.299198,280.083675
20,-5.459518,7.469577,-0.089836,0.149745,0.0,17.430496,-14.07526,43.76976,-23.616199,41.441345,-29.222717,26.507149,-30.631657,-47.921391,0.0,8.37632,17.034963,53.324507,34.268823,58.066629,47.041093,64.04302,57.799127,76.211062,0.0,61.677303,25.620861,84.696064,15.918217,81.348667,4.905567,66.85358,-5.793171,45.296688,0.0,13.079972,25.739239,58.012413,42.469525,72.430763,54.711174,80.121036,62.888843,82.42482,-2.183046,294.551086,-38.462362,280.265746
21,-4.705353,6.045057,-0.047321,0.062368,0.0,32.07756,-10.534573,52.243996,-18.248119,49.650879,-22.311916,37.121201,-21.725922,-40.164814,0.0,-1.436623,16.162862,51.062959,31.624979,54.286207,43.816549,59.90284,53.276279,71.685621,0.0,61.915741,25.331154,84.628601,15.67749,81.296539,4.755592,66.861763,-5.786018,45.418854,0.0,12.555032,25.560348,58.003644,42.228698,72.43101,54.493627,80.053358,62.645731,82.327564,-6.973,300.614683,-38.594284,280.346654
22,-0.556412,-1.93779,-0.103683,-0.102814,0.0,29.795036,-9.372425,49.55143,-16.784477,48.950272,-20.177479,31.471596,-19.790611,-32.668705,0.0,3.817966,14.179932,47.111365,31.720816,50.74019,45.342525,59.448233,56.36874,75.229909,0.0,62.038651,25.803223,84.906349,16.151619,81.558495,5.202141,66.817017,-5.331745,45.555496,0.0,12.700454,25.875646,58.230886,42.483048,72.397109,54.657389,79.977405,62.684016,82.309224,-7.641706,298.685214,-38.810263,280.252161
23,-1.603088,-0.810104,0.224075,-0.06774,0.0,32.619438,-7.981911,51.106224,-15.274944,50.618477,-18.789539,33.029709,-18.531418,-32.983017,0.0,2.724119,14.560932,47.629637,31.671231,50.861406,45.037539,60.804149,55.907094,75.388546,0.0,62.031555,25.711327,84.733315,16.076775,81.480446,5.053711,66.925621,-5.634041,45.775795,0.0,12.985185,25.960244,58.305233,42.513924,72.514003,54.647077,80.042243,62.706864,82.45866,-9.391937,297.886504,-38.73333,280.195813
24,-1.292381,-1.066059,0.322552,-0.30196,0.0,32.676888,-5.526352,53.850975,-14.639339,52.354889,-19.031296,34.850349,-18.917255,-26.126289,0.0,5.688077,13.42948,44.791217,30.436469,52.931774,43.499645,60.866887,53.86155,76.494064,0.0,61.795864,26.131496,84.779606,16.604347,81.661205,5.442295,66.974201,-5.686455,45.402546,0.0,12.899044,26.139629,57.553977,42.712019,72.269224,54.792314,79.950111,62.826475,82.71196,-10.756903,296.820831,-38.483362,279.89424
25,8.252678,-11.786301,-0.333595,0.355374,0.0,5.30983,-15.782375,36.312332,-27.726974,35.606575,-35.696983,4.706154,-38.864021,-59.970131,0.0,-6.089085,21.605234,51.648971,40.073733,64.846639,52.815683,74.083328,62.278996,85.074839,0.0,62.330418,24.825954,83.979893,15.341148,82.423954,4.76635,68.326778,-5.204144,46.548214,0.0,12.921644,24.952477,57.208299,41.814415,71.548597,54.258111,79.711878,62.428555,82.020232,-2.522564,285.018505,-38.835297,280.233589
26,-3.706627,8.579664,1.077061,-0.559706,0.0,23.637314,-6.817932,53.071404,-17.412987,47.091522,-24.328537,27.780304,-28.03236,-35.878258,0.0,11.646004,17.058984,48.170323,34.28988,58.03384,47.24524,65.472542,58.242124,78.05283,0.0,61.238823,25.112228,83.9114,15.617352,81.954689,4.919872,67.435799,-5.366879,45.749016,0.0,12.698416,25.596534,56.338421,42.269207,71.102327,54.381674,79.627403,62.388417,82.120267,-6.255226,293.571972,-37.784271,279.647686
27,-4.127884,-11.966736,0.385208,-2.21227,0.0,19.358368,-6.686897,47.453499,-17.921047,49.763718,-26.543541,26.665306,-31.331635,-42.889881,0.0,-3.623576,22.59744,49.558225,41.051427,68.707522,53.942813,78.80038,63.410757,91.06358,0.0,61.218338,24.624023,84.362984,15.861397,82.963829,5.668201,69.141998,-4.640636,47.103195,0.0,12.080974,24.11014,56.464206,40.601143,72.364135,53.125361,81.636391,61.980926,84.928614,-10.392666,281.518322,-37.408619,277.348502
28,-5.042839,0.351545,2.264557,-6.921233,0.0,21.30558,0.443916,51.757164,-9.474907,56.306877,-18.548298,37.033882,-25.782452,-11.174812,0.0,28.264028,21.047504,55.535665,32.20568,69.291434,39.65488,74.370899,46.116875,82.240248,0.0,60.017052,23.467255,79.255714,14.33075,79.705811,3.882179,67.084351,-7.045841,44.841042,0.0,14.147513,21.548486,59.808609,37.712767,77.434955,50.681095,86.045988,60.774879,88.510756,-15.445089,281.872692,-35.153646,270.430094
29,27.526131,29.512807,2.815075,-8.847908,0.0,-45.859909,-41.048412,-5.712318,-42.060814,18.225517,-36.480846,26.844406,-27.501869,9.948692,0.0,54.324678,16.862556,39.239793,-0.919402,29.072526,-19.799529,12.551327,-37.915247,-8.861246,0.0,59.100552,22.38184,74.39249,12.435722,72.565441,1.684341,55.021763,-9.110184,33.685627,0.0,15.684234,19.100699,59.600139,35.478452,79.669641,49.580085,88.200213,60.714055,89.600095,12.070055,311.485396,-32.349558,261.682083
30,-1.494026,-16.932457,7.619762,-4.198966,0.0,-49.454441,-24.940739,-65.915451,-16.303024,-60.192432,-5.437317,-43.567429,7.056313,-23.268242,0.0,2.809088,12.892869,33.768707,20.874603,42.164293,26.390088,46.406793,29.381093,50.88024,0.0,39.429474,17.308159,42.993851,6.927452,21.078758,-4.435902,-3.054314,-15.361862,-20.009136,0.0,46.7337,15.024616,70.325753,22.293998,87.449513,30.193667,89.430343,37.035859,82.626436,10.498152,294.623998,-24.807673,257.554176
31,4.538269,-43.797035,-4.503765,31.263184,0.0,-46.561489,-18.739243,-58.749962,-11.248741,-59.454975,-2.974319,-50.737724,5.187492,-31.875458,0.0,-18.854068,24.2442,59.818118,38.42265,79.52076,48.523041,87.463469,54.626576,89.975908,0.0,16.534367,41.07748,8.687153,39.828815,-9.746761,32.378254,-21.415043,21.618519,-18.515682,0.0,49.347718,11.264325,51.196773,-0.492583,47.495638,-11.308415,37.168067,-19.80558,25.181571,15.033417,250.964681,-29.314442,288.955079
32,-0.819283,-3.557132,-30.829353,-120.973133,0.0,-47.805519,-10.386314,-56.072102,-2.655487,-51.671505,4.83696,-42.612991,13.119392,-25.139465,0.0,33.662434,10.498805,49.074905,21.064486,58.990539,29.588451,65.12396,36.106824,63.2867,0.0,57.702656,28.227596,59.245319,24.865437,56.077366,20.443897,46.674671,15.550117,51.599979,0.0,10.889562,-12.068748,14.071252,1.663803,26.482035,19.91389,43.158474,40.366615,70.500075,14.185295,248.284219,-60.172634,168.858617
33,30.401115,-57.626966,-12.724171,-32.670723,0.0,-53.094978,-30.584221,-75.234604,-22.491989,-67.864151,-13.828926,-61.246777,-5.472221,-45.808983,0.0,24.362822,35.859267,77.446008,47.422217,85.533274,55.286935,89.65709,59.094095,89.382919,0.0,55.938377,24.368935,62.86972,19.283638,54.799061,14.266434,45.384464,9.929066,39.760208,0.0,3.846495,-14.164371,-2.687501,-0.722418,13.284119,14.951072,27.939097,31.660671,42.919192,44.198055,192.098755,-73.28516,137.629395
34,9.601936,-27.601878,-2.184792,-23.462038,0.0,-34.019051,-29.508476,-48.36216,-34.035645,-58.512039,-36.348038,-59.651527,-36.600952,-57.469025,0.0,-10.978482,29.764934,48.497045,43.937826,65.628647,53.715201,74.729052,59.926799,82.068768,0.0,44.424419,15.691509,71.153297,5.897541,66.370125,-0.629025,35.124378,-4.565563,28.610516,0.0,14.925846,-34.644606,-25.699039,-25.185986,-14.538301,-9.850086,17.826449,9.825015,29.336972,53.528681,165.591294,-75.741262,115.261775
35,10.982208,-25.911554,1.61602,-11.552483,0.0,-24.810733,-28.912868,-43.272285,-35.439205,-56.490039,-39.850959,-63.263397,-42.407054,-65.265026,0.0,-16.367827,12.317262,22.376836,25.974014,37.781928,36.579153,48.307069,44.283042,57.660775,0.0,39.976273,18.564205,72.35527,6.408634,65.570755,-3.754292,22.141342,-10.518208,14.819584,0.0,2.734185,-42.243735,-39.831825,-37.892492,-38.709234,-26.030979,9.008613,-7.804079,14.629846,64.762086,142.639608,-73.874044,106.669159
36,10.982209,-25.911553,6.794243,-28.917409,0.0,-15.602417,-28.317261,-38.182411,-36.842766,-54.46804,-43.353882,-66.875267,-48.213158,-73.061028,0.0,-21.757171,-5.130409,-3.743372,8.010202,9.935209,19.443105,21.885087,28.639285,33.252782,0.0,32.023315,17.358971,75.684586,4.810867,65.247803,-4.135437,21.063251,-11.267738,10.524387,0.0,8.145806,-38.650324,-35.781832,-32.069335,-23.335048,-19.192954,9.772898,0.390571,19.939795,75.876818,118.797496,-66.947279,79.821191
37,-2.310982,-18.036318,-1.538372,-2.442877,0.0,-7.413216,-33.046074,-58.266354,-42.904587,-72.427769,-49.801674,-82.653065,-54.41246,-85.118504,0.0,-28.858839,-5.297012,-9.858896,7.394499,4.815184,17.893448,16.461497,26.324612,27.977681,0.0,44.370632,23.059902,82.401066,10.421734,77.647877,-1.30743,28.53487,-10.348034,18.514881,0.0,0.454082,-44.086089,-32.29491,-42.69158,-29.911467,-32.456511,15.264393,-14.787001,14.974321,74.447689,102.272828,-67.603798,78.889964
38,-2.310982,-18.036318,2.770844,-3.167364,0.0,0.775986,-37.774887,-78.350296,-48.966408,-90.387497,-56.249466,-98.430862,-60.611763,-97.175979,0.0,-35.960507,-5.463614,-15.97442,6.778796,-0.304841,16.343791,11.037907,24.00994,22.70258,0.0,45.016365,25.955086,85.860844,14.023533,87.34251,2.722149,25.273132,-7.165203,17.867889,0.0,2.491135,-43.034202,-26.814499,-41.173507,-23.246684,-30.865542,12.04979,-14.201669,13.027577,73.106766,87.304765,-63.862896,78.790855
39,-2.310982,-18.036317,26.868324,-6.875939,0.0,8.965187,-42.5037,-98.434238,-55.028229,-108.347225,-62.697258,-114.20866,-66.811066,-109.233456,0.0,-43.062175,-5.630217,-22.089944,6.163092,-5.424866,14.794133,5.614317,21.695266,17.427479,0.0,42.859325,27.253361,75.322781,8.786373,48.740902,-8.482704,6.4464,-24.055824,-5.768051,0.0,2.130235,-24.587069,-9.362505,-23.843378,12.169123,-16.61296,13.253522,-5.944373,18.363307,71.60368,72.058146,-36.186676,74.704614
40,-0.8741,-4.787726,-11.40192,7.676286,0.0,11.152496,-32.595634,-86.033134,-44.33773,-99.617786,-52.622795,-102.627754,-57.407112,-96.491947,0.0,-45.463278,-2.196709,-16.85178,7.236654,-19.765844,14.942859,-10.50992,22.057803,12.945387,0.0,61.237793,31.289577,84.188919,17.57349,57.581978,3.881149,15.266991,-8.447742,5.557652,0.0,-4.206376,-37.641322,-7.769807,-39.637219,-3.209539,-33.108935,9.998194,-20.46526,12.882247,71.576586,69.540134,-46.74159,84.650614
41,6.285667,-20.311254,-2.518444,-12.331249,0.0,10.988503,-8.404541,-24.139023,-20.556679,-53.53878,-31.023674,-66.256256,-37.975273,-68.638573,0.0,-33.732706,4.208198,20.205908,16.133438,31.03514,22.955191,35.190109,25.817415,30.714192,0.0,43.924541,32.089634,69.051991,17.5914,49.571514,-0.096188,17.378311,-17.37751,6.919155,0.0,3.9599,-32.057788,-45.153291,-36.933446,-31.421913,-35.751976,-0.576656,-28.632308,3.78598,78.392515,51.405227,-48.729773,74.495712
42,3.238106,3.366849,-6.564531,-44.367548,0.0,15.603676,-8.689499,-29.025993,-20.500259,-49.835587,-30.768013,-61.761017,-39.085808,-67.821693,0.0,-33.241667,4.31623,9.612934,16.232516,18.106703,23.315659,26.359522,25.84122,30.537647,0.0,29.342823,20.336552,38.230505,5.005703,30.813732,-11.416712,7.936649,-27.144299,-3.364191,0.0,-22.364455,-46.001139,-86.176343,-48.249688,-54.577113,-44.252506,-10.894563,-35.363287,-8.230419,82.408733,56.963196,-54.516192,32.319285
43,4.104233,0.002851,-6.564531,-44.367547,0.0,4.992675,-7.690049,-22.007599,-18.847962,-43.849144,-29.305649,-57.751465,-37.725716,-65.318909,0.0,-28.725674,1.134417,7.002631,12.139503,15.739563,18.429905,22.711246,20.593104,24.804276,0.0,14.761105,8.583469,7.409019,-7.579994,12.05595,-22.737236,-1.505013,-36.911087,-13.647537,0.0,-48.68881,-59.94449,-127.199396,-59.565929,-77.732314,-52.753037,-21.212471,-42.094268,-20.246818,87.832871,57.148411,-59.760818,-11.865897
44,4.104232,0.002851,-12.812061,-42.90045,0.0,-5.618324,-6.690597,-14.989204,-17.195663,-37.862701,-27.843284,-53.741912,-36.365623,-62.816124,0.0,-24.209681,-2.047397,4.392327,8.04649,13.372422,13.54415,19.06297,15.344988,19.070905,0.0,5.447102,3.257675,7.481804,-13.519993,7.110214,-28.613834,-3.854313,-42.536373,-20.502491,0.0,-57.697177,-62.299528,-108.286202,-59.101165,-79.340248,-50.711661,-23.678473,-38.564367,-21.601189,93.120279,56.974331,-71.389704,-54.943278
45,4.104233,0.002851,-15.995293,-17.010973,0.0,-16.229324,-5.691147,-7.97081,-15.543365,-31.876259,-26.38092,-49.732361,-35.005531,-60.313339,0.0,-19.693688,-5.22921,1.782024,3.953478,11.005282,8.658396,15.414694,10.096872,13.337533,0.0,4.414787,6.853123,31.038494,-9.054451,7.486897,-24.579563,-1.328373,-40.066338,-14.17923,0.0,-63.909314,-56.317287,-110.157486,-57.594177,-114.02686,-51.098126,-29.161509,-39.831208,-25.398315,95.373745,56.942309,-89.235764,-71.989124
46,6.786346,-0.198497,-7.718925,-12.197435,0.0,5.432281,-10.295219,-19.011841,-21.71814,-42.885475,-32.637863,-61.054802,-41.002808,-70.971909,0.0,-29.777685,-6.650087,4.00297,4.068241,15.800788,10.648118,20.284979,14.434313,16.683665,0.0,3.534336,2.656116,28.485088,-13.04884,5.887642,-28.076591,0.016365,-41.93121,-12.028198,0.0,-61.209741,-54.354256,-108.785407,-55.194108,-112.787606,-48.571191,-25.735657,-37.314724,-21.447678,102.748175,56.715901,-96.366606,-84.214471
47,-11.338806,1.414177,-5.354233,-1.504271,0.0,17.244759,3.179741,-3.172874,-9.651947,-28.337059,-21.966362,-51.511917,-31.934509,-60.869408,0.0,-28.258625,4.030882,-6.426026,11.248517,12.802342,15.790013,20.531364,17.707703,22.512348,0.0,2.574177,2.63134,24.650002,-12.744999,4.60928,-27.451344,-0.465145,-41.688995,-12.88662,0.0,-58.378068,-54.415219,-111.268469,-54.674525,-114.767988,-48.350017,-29.060207,-38.148262,-26.732741,91.713152,57.801288,-101.417055,-86.047532
48,10.166473,1.761832,-3.991528,0.465104,0.0,14.991646,-12.877007,-27.843132,-25.077896,-55.642776,-35.370827,-70.048027,-42.690353,-72.923355,0.0,-33.522292,-3.792618,9.532226,7.565228,24.140984,14.340267,28.175324,18.18176,19.746392,0.0,0.375423,2.638435,23.386116,-12.745399,3.175392,-28.259468,-2.021198,-43.105202,-14.745197,0.0,-60.812794,-53.051693,-106.768299,-53.027749,-112.389393,-46.513652,-27.159035,-36.450836,-23.887529,102.504387,59.220667,-104.783821,-85.92488
49,-7.673492,-0.077034,-2.244759,4.036069,0.0,19.3507,-6.788635,-19.101219,-18.799095,-44.572449,-29.354668,-60.91404,-37.480659,-65.962257,0.0,-29.731434,1.661302,2.523122,12.297348,15.847286,18.759003,24.211318,21.089217,27.141869,0.0,-3.983974,0.203362,22.550983,-15.352192,2.808895,-30.644703,-4.251137,-45.073414,-16.53471,0.0,-63.317884,-53.016557,-111.086398,-53.006924,-113.138101,-46.808958,-23.902566,-37.378852,-24.513864,95.306253,59.018358,-106.553221,-82.014088
50,-0.581818,4.433741,-2.083168,3.612708,0.0,19.256744,-3.715324,-16.833916,-16.655502,-41.302643,-28.215065,-59.080238,-37.238731,-65.653839,0.0,-28.323432,3.530209,1.063373,12.595633,15.206255,17.824565,21.993582,19.340661,23.003202,0.0,-3.449135,0.476303,23.423824,-15.284328,2.349873,-30.755768,-3.035202,-45.061684,-14.737358,0.0,-61.069367,-53.090735,-111.055615,-53.404628,-114.356159,-47.461197,-22.929472,-38.033005,-22.788002,95.934248,63.403085,-107.426577,-78.450394
51,-3.203201,0.547819,-0.655861,2.974826,0.0,7.291031,-1.463127,-8.506737,-11.599846,-29.324799,-21.031952,-48.877029,-29.236336,-56.666794,0.0,-21.016722,-0.11288,-4.143206,10.11515,12.750472,17.478639,21.483154,21.694834,26.621529,0.0,-3.598366,0.162277,22.493248,-15.709133,1.884842,-31.277618,-3.813,-45.763779,-15.23283,0.0,-59.686389,-53.498226,-111.139997,-53.387322,-112.241563,-47.348394,-21.585598,-37.877085,-23.129883,93.39509,63.885695,-107.418394,-75.540776
52,-24.180107,9.113095,-0.604248,1.485993,0.0,-31.894455,5.839119,6.256371,16.380615,18.240967,24.11808,31.081352,29.682655,41.096191,0.0,10.001838,-1.666489,5.260765,-4.947567,-5.781938,-8.8501,-17.624154,-11.99264,-29.703152,0.0,-3.744049,-0.164337,22.05019,-15.948544,1.143093,-31.456146,-4.594631,-45.773048,-14.856033,0.0,-58.288283,-53.318115,-110.155742,-53.010922,-112.050754,-46.643853,-21.911948,-36.840759,-21.420353,69.74227,72.707791,-107.495356,-74.345782
53,31.419754,-11.131716,-0.687962,1.863103,0.0,15.110321,-9.492073,-26.927834,-20.867729,-53.662491,-30.677376,-68.197517,-37.7948,-69.601479,0.0,-27.572238,1.957642,15.007789,14.139825,29.309308,21.693815,34.77669,26.049627,28.253438,0.0,-3.525867,-0.127144,22.694607,-15.964108,2.010155,-31.74139,-4.648247,-46.44619,-15.12886,0.0,-58.317305,-52.91189,-109.303478,-52.47567,-111.723446,-46.189061,-20.84555,-36.553836,-22.246636,101.470814,61.945991,-107.874527,-72.112764
54,-1.791229,1.077421,-1.096458,1.062138,0.0,12.867737,-7.89917,-22.512245,-18.72139,-48.421097,-28.702812,-64.81041,-36.638031,-69.356575,0.0,-27.202847,0.402644,12.777426,12.940169,27.261479,21.102308,33.036131,26.181495,27.99776,0.0,-1.07008,0.619297,24.949379,-14.683285,5.735836,-30.389271,-3.605804,-44.901924,-14.488964,0.0,-59.007598,-53.136986,-106.505567,-52.620305,-111.609439,-46.187517,-22.019888,-36.139799,-20.703586,100.10685,63.567757,-108.54372,-70.506281
55,-5.794258,4.823356,-0.083427,0.019544,0.0,16.972618,-8.767662,-19.831009,-19.67205,-45.694427,-28.705673,-59.975166,-35.456429,-66.035614,0.0,-27.706329,-0.196428,1.641264,11.14493,14.424464,18.280252,21.43576,21.573587,25.90615,0.0,-0.936584,0.523911,24.937191,-14.894772,5.47554,-30.637779,-3.499203,-45.268307,-14.768658,0.0,-58.462604,-52.665753,-106.389723,-52.095797,-110.825626,-45.703518,-20.732732,-35.679357,-20.219493,94.733734,68.789697,-108.206005,-70.088153
56,1.01223,7.172341,-0.375538,0.788923,0.0,16.031227,-8.06591,-19.939041,-19.883537,-49.388351,-29.162178,-62.738914,-35.638161,-69.785614,0.0,-34.211334,-6.151453,-9.778486,3.071496,8.143428,9.631335,15.615629,14.04757,18.324805,0.0,-0.146656,1.055603,24.072247,-14.663258,5.122375,-30.592632,-2.847805,-45.181789,-14.11726,0.0,-59.217657,-52.925228,-107.940523,-52.490027,-110.996721,-46.435322,-20.333948,-36.828038,-20.465599,96.180782,76.229834,-108.146725,-69.031434
57,-4.149628,-3.559263,-0.423374,-0.698552,0.0,7.921257,-3.272209,-7.553444,-13.325729,-36.070175,-22.330399,-52.999649,-29.193649,-61.058807,0.0,-20.146041,-1.395837,-8.218115,9.236781,11.89455,16.994609,18.668848,21.542434,21.472008,0.0,-0.214577,0.674801,23.594112,-15.023746,5.187721,-30.864773,-2.987137,-45.340633,-14.008713,0.0,-58.172593,-52.772612,-108.637083,-52.401369,-109.643121,-46.376999,-19.728392,-36.646708,-19.566019,92.390556,72.933659,-108.210697,-69.466898
58,-9.801979,2.852344,0.012245,-0.120352,0.0,-17.982559,4.341316,-2.841454,0.268364,-15.827751,-4.73671,-27.209015,-9.441833,-31.148071,0.0,-7.331935,-1.28058,-10.524524,4.000778,8.627057,8.121105,9.663631,10.386265,7.748843,0.0,0.109406,0.925713,23.311386,-14.803734,5.34811,-30.707016,-3.44862,-45.172691,-14.208183,0.0,-57.931828,-52.820237,-108.562844,-52.485226,-110.097295,-46.439583,-20.164381,-36.716394,-19.851893,82.955732,75.835666,-107.831297,-69.537587
59,8.383598,-5.230785,0.06546,0.520741,0.0,-16.331863,-2.464142,-6.499214,-6.950798,-30.850182,-13.740234,-46.305885,-19.21566,-51.665039,0.0,-19.512235,-4.932098,0.701855,3.54117,12.864278,9.182533,18.113958,11.805228,14.670879,0.0,1.012917,0.748672,23.33416,-14.645462,6.36137,-30.355625,-3.397865,-44.794922,-14.405251,0.0,-58.072063,-52.889058,-108.299324,-52.397478,-110.439963,-46.103907,-21.265576,-36.187779,-20.605402,91.729088,70.635463,-107.37608,-68.986264
60,1.460381,-4.399964,-0.084686,1.703848,0.0,-13.246193,-0.138016,-7.841377,-6.001282,-32.273827,-13.990288,-48.923836,-20.865211,-55.863762,0.0,-21.382192,-2.341236,7.222236,8.300429,20.767868,15.135396,25.556612,18.125197,20.527381,0.0,3.138142,1.379471,25.071774,-13.68742,8.663177,-29.332294,-2.379169,-44.034119,-14.039841,0.0,-58.519924,-52.342891,-107.664113,-52.038091,-110.883301,-46.191346,-22.15472,-36.948575,-22.988196,93.456402,66.260322,-107.193832,-67.257592
61,4.261665,-5.516566,1.136913,2.131593,0.0,2.924309,-1.889534,-12.495689,-11.490097,-38.601723,-22.134705,-56.680069,-30.995293,-66.172485,0.0,-26.250502,4.452699,10.738767,17.377955,25.538674,24.952847,31.722514,28.003904,28.134136,0.0,0.310478,1.38731,25.078354,-13.847294,10.073318,-29.584064,-2.919102,-44.118633,-13.995724,0.0,-58.237508,-53.295021,-108.728165,-53.111869,-111.141109,-47.001141,-23.653434,-37.183937,-22.284581,97.855368,60.773011,-105.919619,-65.096744
62,-5.704308,0.927738,0.192375,2.614512,0.0,-6.238632,-0.635033,-10.069199,-6.700745,-30.817337,-13.925056,-46.484528,-20.121231,-51.359825,0.0,-20.401873,4.671635,15.311447,16.33848,24.442573,23.727194,30.321984,26.967733,28.029562,0.0,2.156296,1.375294,26.397572,-13.26107,14.611301,-28.780174,-1.524525,-43.604965,-13.369904,0.0,-58.394555,-52.12871,-107.768919,-51.643506,-111.37718,-45.909517,-22.930336,-36.619137,-23.549816,92.224102,61.685667,-105.654202,-62.497314
63,11.87851,17.108538,1.245975,4.260408,0.0,3.689346,-4.11129,-34.700661,-12.891197,-63.012657,-21.38958,-74.528732,-29.166298,-74.783936,0.0,-37.122866,-13.020198,-1.202497,0.129213,14.149119,9.014943,18.442409,14.359163,11.61445,0.0,2.404175,2.713451,29.761906,-12.49958,15.330963,-28.443604,-0.893841,-43.483715,-12.919235,0.0,-58.12063,-53.356154,-109.170344,-53.472491,-113.254285,-47.838909,-21.667911,-38.415518,-22.607937,104.054174,78.726218,-104.456663,-58.304893
64,-4.621353,2.077531,0.346069,6.597291,0.0,-0.011215,-7.994614,-23.41198,-18.286285,-49.163475,-27.200317,-57.477608,-33.897171,-67.39872,0.0,-33.759352,-8.597572,-18.771199,0.358122,-1.686157,8.251924,6.303729,15.070713,11.382793,0.0,5.18383,4.40134,32.723236,-10.928192,17.865486,-26.931381,1.087875,-41.956272,-10.982952,0.0,-56.382541,-54.259902,-110.812164,-55.552431,-118.690621,-50.349001,-22.639523,-40.798713,-22.556623,99.414053,81.181121,-104.129362,-51.330231
65,0.604362,4.675988,4.535065,7.115284,0.0,0.117989,-8.937607,-27.935829,-19.456444,-58.987312,-28.656464,-67.802467,-35.499802,-73.487892,0.0,-44.440012,-11.481378,-18.318352,-2.397954,-5.943261,5.433975,3.720308,12.221148,7.469484,0.0,0.98362,2.512379,31.979942,-12.892284,18.026676,-28.546772,-0.99226,-43.034763,-10.649757,0.0,-52.212104,-53.445136,-105.348874,-54.174624,-110.655735,-48.404635,-20.738629,-38.478349,-20.409252,99.673061,86.182565,-99.939651,-43.889491
66,-0.427208,1.511774,3.945408,10.566947,0.0,-16.823959,-1.981087,-17.788239,-12.896347,-56.268997,-24.078484,-71.66954,-33.199997,-76.300163,0.0,-42.637116,-11.489529,-38.38455,-3.363174,-13.345684,5.160945,-0.707567,12.456633,5.130687,0.0,3.026218,2.980442,31.019783,-13.235664,22.138653,-29.44931,-0.017281,-44.120178,-10.067883,0.0,-50.535549,-53.655612,-102.431306,-54.903032,-103.371656,-49.695126,-18.013614,-39.651236,-16.891578,99.046669,87.843543,-96.193428,-33.17334
67,-2.948112,3.53129,2.123051,12.26323,0.0,-36.595688,-5.960426,-28.803864,-11.566887,-56.562424,-18.477058,-67.10598,-25.457039,-60.853958,0.0,-22.65635,-16.2838,-43.354748,-6.67522,-20.189853,4.133171,-7.83233,13.620906,3.662633,0.0,6.824112,2.307415,34.49152,-12.930565,24.359951,-28.353252,1.314297,-42.573452,-8.097095,0.0,-47.889668,-52.567971,-96.783675,-53.272204,-93.250131,-47.706732,-15.520503,-36.983835,-16.120593,95.534678,91.740904,-94.634256,-20.544038
68,-13.451042,-6.705662,1.838264,16.860549,0.0,-32.434845,-18.593445,-72.576714,-27.861557,-91.297359,-35.780754,-99.06086,-41.631546,-91.940403,0.0,-31.521609,6.522727,-3.502483,22.165033,6.410526,33.651875,18.234711,41.565623,34.047109,0.0,8.183556,2.677631,40.192394,-11.719437,34.78054,-25.584927,3.239994,-38.600063,-8.350697,0.0,-42.95371,-54.86166,-91.304653,-55.072074,-81.877187,-48.151644,-12.207809,-35.352728,-13.215823,81.860962,85.845963,-93.018665,-2.872768
69,1.800957,13.348803,6.08757,12.221734,0.0,-50.966377,-24.601707,-92.500935,-31.900177,-103.607826,-37.191124,-100.583725,-40.05764,-93.86467,0.0,-30.855816,9.332278,-3.326742,23.485133,12.164584,33.2827,23.519343,39.621781,38.498665,0.0,8.471146,-2.331562,38.799992,-15.755596,26.181164,-27.379017,5.746307,-37.06192,-6.679287,0.0,-37.514734,-52.023147,-79.840164,-50.769058,-49.03523,-41.696626,-2.739681,-27.526975,-4.683645,83.536978,98.386237,-87.056036,8.540437
70,-5.22892,13.552456,0.600615,21.722004,0.0,-60.578499,-27.426109,-100.252075,-31.255646,-109.246902,-33.109703,-102.859783,-33.517113,-84.158878,0.0,-23.593289,8.607112,3.250542,23.259651,15.338771,33.397494,24.416422,39.6115,28.26128,0.0,26.561622,3.274526,49.170341,-10.70961,35.096283,-21.572771,17.103567,-29.690266,8.407573,0.0,-31.928838,-50.524681,-55.992633,-46.000136,-32.031559,-33.831939,1.630674,-16.510022,5.374494,78.06859,108.208504,-86.694889,26.532253
71,-9.62986,18.664356,0.600614,21.722004,0.0,-66.90053,-33.760471,-106.236706,-35.439835,-111.899471,-34.950085,-104.891224,-33.120346,-88.335428,0.0,-13.29085,12.258336,14.248537,30.147755,26.680577,43.229039,37.019557,51.597826,43.618592,0.0,44.6521,8.880615,59.540691,-5.663624,44.011402,-15.766525,28.460827,-22.318611,23.494434,0.0,-26.342942,-49.026215,-32.145103,-41.231213,-15.027889,-25.967252,6.001029,-5.49307,15.432632,67.055941,124.287525,-87.477064,45.668922
72,-9.62986,18.664355,-0.777197,15.883982,0.0,-73.222561,-40.094833,-112.221336,-39.624023,-114.55204,-36.790466,-106.922665,-32.723579,-92.511978,0.0,-2.988411,15.909561,25.246532,37.035859,38.022384,53.060585,49.622693,63.584152,58.975904,0.0,52.856884,15.042086,68.890543,4.019881,60.137244,-4.42975,47.871094,-10.244207,39.158135,0.0,-10.942266,-31.240661,-8.557619,-20.747784,9.756858,-4.860066,27.304951,14.402882,37.536686,56.694231,141.52844,-88.986111,60.129464
73,1.48922,16.424436,-0.777197,15.883981,0.0,-72.440643,-41.699638,-111.352501,-39.599876,-114.460716,-35.722504,-105.993576,-30.463486,-89.26878,0.0,5.869562,18.038469,40.366368,37.927782,57.479692,54.272067,68.748339,66.470119,77.66479,0.0,61.061668,21.203556,78.240395,13.703384,76.263084,6.907024,67.281361,1.830196,54.821835,0.0,4.458411,-13.455106,15.029865,-0.264354,34.541606,16.24712,48.608875,34.298834,59.64074,57.22578,154.668418,-90.720978,72.728987
74,-2.931633,21.541199,11.085033,32.203828,0.0,-73.086433,-38.952484,-105.730648,-34.667473,-106.811543,-29.033203,-96.428661,-22.250633,-77.523651,0.0,11.130018,19.066983,52.87941,37.597294,68.189189,52.620243,78.733381,63.733712,87.359728,0.0,62.649708,26.700325,75.177269,18.283825,72.211647,10.019245,62.339001,3.122692,49.228077,0.0,18.473593,-7.681072,29.100468,7.936564,47.857279,26.124716,60.058605,44.492067,66.752473,53.724947,175.044232,-80.205145,103.76743
75,-2.300606,19.613289,-1.159573,21.704992,0.0,-64.525452,-38.552055,-99.058685,-32.931976,-99.833508,-25.841217,-88.104057,-18.443184,-70.34214,0.0,6.774144,23.424278,64.261678,41.418348,80.203473,55.726659,88.312599,65.896458,100.012141,0.0,61.905499,28.802261,83.315105,17.999439,79.354877,7.002926,65.439034,-3.572044,43.082314,0.0,7.347435,0.605308,47.826682,12.934735,67.782563,25.960861,70.555712,39.686866,71.432691,51.0361,193.152988,-81.752958,123.967889
76,-0.798569,22.73891,8.284436,36.469762,0.0,-57.125931,-40.72094,-99.246025,-33.31398,-96.109314,-23.133545,-82.595901,-12.942352,-59.814606,0.0,3.413316,31.019702,67.805843,44.512599,81.910501,55.345598,87.922398,61.676188,98.668513,0.0,64.866943,29.74843,75.732593,18.721389,67.764816,6.539754,56.616354,-5.856486,38.492088,0.0,19.388796,10.214367,60.574561,24.127121,84.00313,37.784954,90.219977,50.802157,84.049196,49.298229,213.296127,-74.407825,157.84188
77,-2.071381,22.943427,8.284435,36.469763,0.0,-57.556229,-37.47757,-93.953762,-29.393234,-93.563576,-20.453682,-76.039696,-12.152939,-48.759499,0.0,4.296964,37.103106,75.084981,45.934217,74.763694,50.604092,68.408527,50.478739,75.093379,0.0,67.828388,30.694599,68.150082,19.44334,56.174755,6.076584,47.793674,-8.140926,33.901863,0.0,31.430157,19.823426,73.322439,35.319507,100.223697,49.609046,109.884241,61.917447,96.6657,46.775808,234.150013,-66.57443,192.222101
78,5.588837,46.000167,-1.751804,20.657736,0.0,-63.715267,-34.24633,-92.136555,-33.677216,-89.306202,-31.260452,-69.597874,-29.439354,-54.865608,0.0,28.716597,24.026715,20.695404,13.279611,-8.974867,-1.130403,-29.447845,-18.536053,-33.658297,0.0,73.224449,34.668274,85.461273,23.169937,79.480133,10.328465,64.278946,-3.664055,39.15247,0.0,17.958934,24.576973,70.225965,38.282291,90.015984,50.75958,93.941087,61.328348,89.461033,51.502247,279.024671,-69.188633,211.754328
79,-10.356331,18.461304,13.702869,27.692837,0.0,-71.070156,-32.030639,-91.233415,-26.93367,-84.724559,-21.453609,-70.377988,-17.13335,-55.655679,0.0,38.387514,30.71941,8.075472,20.592435,-19.856184,4.116869,-35.60748,-15.887578,-35.08751,0.0,66.981983,41.67532,60.591259,30.189972,44.175453,14.252472,31.378956,-4.518585,17.14222,0.0,16.129455,28.342328,84.036568,43.267896,109.664347,56.736711,118.775806,68.319977,112.961387,40.24641,296.284945,-56.385269,238.246134
80,-10.35633,18.461305,-2.655888,15.026716,0.0,-78.425045,-29.814949,-90.330276,-20.190125,-80.142918,-11.646767,-71.158104,-4.827347,-56.445751,0.0,48.058431,37.412105,-4.54446,27.905258,-30.737503,9.364141,-41.767114,-13.239103,-36.516724,0.0,76.576424,34.787006,72.47509,24.991608,64.149399,14.556942,55.133629,4.065285,39.602852,0.0,15.915304,29.342808,72.882035,48.158405,92.451173,63.410016,101.552011,74.265491,100.528806,28.655405,313.349532,-60.275831,251.876133
81,5.314751,-9.384395,3.16721,9.401624,0.0,-67.94466,-44.647522,-31.52401,-43.25798,-22.151299,-38.574257,-24.818344,-30.922279,-46.187553,0.0,45.998067,19.508622,38.189048,18.59626,43.17984,14.039512,37.406485,8.238555,33.873065,0.0,77.207279,35.193272,88.269138,23.798561,85.058498,11.687222,65.477314,-0.881367,36.71751,0.0,11.706273,34.692863,74.311372,50.173753,95.937725,62.296718,104.289098,70.92572,107.257131,33.162603,303.202983,-57.916174,260.515602
82,1.320305,14.213833,11.887493,16.318349,0.0,-57.03186,-53.45129,-23.00251,-50.763416,-4.539299,-42.307091,3.539772,-30.479736,2.981758,0.0,38.164842,9.359757,56.652607,-0.171666,52.746461,-9.831901,40.139188,-19.126326,22.056568,0.0,68.980408,34.564018,87.096291,25.341282,83.612366,15.040913,68.490257,4.982185,54.704132,0.0,2.861514,35.12524,66.894901,55.08322,81.816579,69.037331,87.643224,77.613846,94.834554,33.768768,317.006762,-46.742821,276.423898
83,1.257591,-12.30377,-2.773247,6.778775,0.0,-49.749184,-52.273407,-7.322845,-54.652061,-0.254173,-51.696396,-0.198784,-46.223946,-26.584282,0.0,22.983133,22.512286,56.261974,27.052547,59.53808,28.541226,56.784197,27.667828,55.54005,0.0,71.340752,32.536526,91.801643,22.774029,88.69709,13.057022,72.679138,3.388367,50.624657,0.0,1.541043,35.482713,62.566073,51.44575,79.897561,62.528467,88.613694,69.863613,92.988031,34.264097,304.480027,-50.27833,282.979707
84,-2.708244,26.300921,-0.063,2.503423,0.0,-34.234428,-42.385139,-11.309166,-42.106934,4.342232,-37.975502,6.611481,-31.331635,-4.660606,0.0,38.372077,10.460211,37.140773,0.211742,33.682133,-10.353321,22.067992,-20.99619,7.318906,0.0,70.810947,28.388844,89.109821,17.971115,87.298679,8.255253,70.474148,-0.586224,47.71677,0.0,5.051986,36.810964,65.687989,53.435225,79.947641,63.890249,88.219911,69.517255,91.373628,31.074972,330.605006,-50.82221,285.307188
85,1.389885,-24.862568,-2.407265,-0.184572,0.0,-21.735191,-40.129623,1.801529,-45.218811,6.224899,-44.724884,-0.56694,-41.224823,-16.489792,0.0,11.107108,13.694018,41.395315,26.346369,53.498519,36.728651,58.901618,44.469621,62.071452,0.0,74.370975,29.168873,90.80801,19.298344,90.110836,9.910812,74.663029,1.500893,53.544331,0.0,5.294604,35.889833,65.231097,52.102404,77.678437,62.710199,86.529,69.022635,91.734127,31.954851,305.516431,-53.739481,284.89661
86,-0.797539,-5.435765,2.004261,-0.522779,0.0,-49.857845,-48.09557,-2.575607,-60.536671,-1.92318,-65.684738,-13.213463,-67.944374,-86.532269,0.0,9.483875,16.886206,49.878154,33.77235,59.00715,45.542164,62.986285,55.019679,72.178142,0.0,71.941452,27.118549,88.411102,17.211971,86.701698,8.07375,72.285233,0.173893,52.324791,0.0,6.556535,36.078666,64.208017,52.481799,77.007766,62.821905,85.755823,68.665841,90.059518,30.631199,299.906252,-52.261333,284.199417
87,-25.006142,3.354282,0.950661,-0.790529,0.0,-35.600567,-32.764091,23.681145,-38.972225,28.907089,-39.877396,16.50135,-37.962055,-50.110188,0.0,30.745468,16.756839,45.056003,31.623683,54.206055,42.224993,58.316842,50.76242,67.025503,0.0,70.600204,26.68396,88.700867,16.536713,85.903702,7.378922,70.83847,-0.690136,50.588264,0.0,7.44889,35.452949,62.509633,51.812856,75.548665,61.937207,85.438426,67.595027,89.637269,5.102005,303.234738,-51.833725,283.383092
88,-12.372093,15.592288,0.346813,0.436575,0.0,11.630974,-12.969074,46.576996,-21.687698,40.451202,-26.147747,27.683258,-26.847038,-34.359684,0.0,-20.45223,5.350982,34.675265,20.41376,44.896131,31.942994,49.866298,40.683641,55.570925,0.0,71.637783,25.913715,88.533039,16.379128,86.755543,7.610779,72.271099,-0.24107,51.719799,0.0,7.570168,34.853662,61.442586,51.072963,74.654643,61.581031,84.34989,67.847339,89.33994,-7.770309,318.771882,-51.987133,283.764524
89,35.572014,-20.852805,0.219326,0.901927,0.0,-46.047649,-49.728298,0.086975,-62.835388,1.69384,-68.052464,-9.102058,-69.913273,-82.803097,0.0,16.645256,11.925363,51.402154,28.927351,61.291359,41.930073,66.642033,53.243799,76.742671,0.0,70.628586,25.058384,88.079109,15.72607,85.944557,7.375145,72.63485,0.251255,52.882462,0.0,8.976781,33.703992,61.016014,50.183634,73.677998,60.934072,83.529227,67.175186,88.406953,27.528362,297.816587,-52.041149,284.56396
90,-19.992599,0.149312,0.063915,0.836965,0.0,-18.534622,-34.338512,26.320724,-45.471954,28.740005,-48.669949,12.769547,-47.853985,-61.548729,0.0,16.644268,17.255165,48.250907,36.995104,57.994073,50.604524,64.307126,60.27328,72.614409,0.0,70.19846,25.004654,87.759075,15.70776,85.954571,7.409191,72.671642,0.3368,52.94363,0.0,7.701882,33.386966,59.45058,49.853084,71.421144,60.649587,82.172385,66.915278,87.893437,7.263021,297.945244,-52.249975,285.38027
91,-22.427216,13.599664,0.153637,0.14783,0.0,10.676994,-7.937336,46.70311,-17.068405,42.218056,-22.091217,29.025078,-23.899097,-1.830368,0.0,-13.224777,8.129936,36.456826,25.783391,50.100271,39.386821,51.928577,49.375876,55.871155,0.0,70.30941,24.555187,87.485619,15.578041,85.758591,7.530212,72.530479,0.585423,53.3321,0.0,7.850392,32.854739,59.167022,49.664374,70.707927,60.738693,81.16153,67.187351,86.898947,-15.383263,311.468059,-52.315407,285.451252
92,36.574173,-15.539923,-0.145283,0.000309,0.0,-43.935814,-49.03656,6.134949,-59.964294,10.767632,-63.218937,2.243729,-62.989197,-79.452496,0.0,29.777778,13.579657,48.83377,31.266704,56.972412,45.006541,63.666774,56.78148,78.917829,0.0,69.743214,25.049858,87.528133,16.036491,85.048885,7.786446,71.762753,0.395107,52.735233,0.0,7.843043,33.058392,59.319237,49.643441,70.937947,60.503856,81.015059,66.833644,86.549377,20.970068,295.873765,-52.681532,285.39719
93,-33.028221,6.815022,0.750217,0.384396,0.0,-26.405811,-23.048573,37.741699,-27.654018,43.888893,-27.364426,34.0345,-24.378548,-24.729481,0.0,42.388262,17.738856,41.53203,31.498947,50.320287,42.082103,55.68399,50.158563,66.093318,0.0,69.719696,23.287468,86.694374,14.290752,84.119682,6.464195,70.571823,-0.059052,52.183571,0.0,7.411531,32.830224,58.278989,49.865742,69.685155,61.044296,79.479264,67.405268,84.786588,-12.166214,302.660289,-52.039375,285.753088
94,20.395432,-8.756826,-0.787067,-0.067925,0.0,-30.002689,-37.833424,16.857948,-48.475857,18.88195,-53.341541,8.439331,-54.350109,-58.089466,0.0,31.766017,15.496513,48.070473,32.760878,58.581751,45.873393,64.964397,56.970498,79.70984,0.0,70.33556,23.601894,86.969204,14.427967,84.092617,6.452179,70.674992,-0.188999,52.886066,0.0,7.404986,32.486398,58.788492,49.578974,68.999169,60.772903,79.500444,67.180002,85.212111,8.110771,293.894046,-52.944889,285.675746
95,-23.626213,10.686835,0.091438,0.141717,0.0,12.475319,-13.883228,41.663361,-23.115921,42.728577,-27.652988,30.260468,-28.470612,-3.944893,0.0,9.726122,10.957919,38.987666,29.765119,51.595742,44.09035,56.32218,55.324417,59.870421,0.0,69.333401,23.117065,86.262875,13.858109,83.756618,5.854053,70.200291,-0.835648,52.255039,0.0,7.919676,31.995605,58.639982,49.19149,69.785314,60.537387,79.5793,67.16086,84.553481,-15.599728,304.581082,-52.937737,285.817664
96,19.71611,-17.096713,0.940762,-0.153573,0.0,-15.766525,-33.646202,21.949654,-45.369015,24.643593,-50.511303,10.700798,-51.339455,-64.302292,0.0,16.860456,24.847872,50.410258,44.034281,60.403883,57.526313,69.887634,68.210617,89.984429,0.0,69.157104,23.067284,85.796585,13.536243,82.489128,5.205402,68.690071,-1.720676,50.918198,0.0,8.320127,32.232851,58.994059,49.239532,69.45532,60.389001,79.329396,66.674822,84.913547,4.044056,287.448739,-52.069302,285.62846
97,-18.46756,13.928176,-1.49025,-0.937804,0.0,-2.001343,-17.002945,42.178574,-26.156559,43.563652,-29.473858,30.367699,-28.702755,-9.222679,0.0,26.644871,18.344751,46.868377,33.610996,55.306324,45.499,61.154891,55.444769,61.026327,0.0,70.034637,23.885479,86.891785,14.417267,85.043221,6.044712,72.148476,-1.186295,53.668785,0.0,9.810164,32.258168,59.286324,49.742983,69.721279,61.422703,80.125914,68.057414,85.455901,-14.477062,301.354561,-53.61311,284.668303
98,-2.951832,-13.631465,-0.012817,-0.084783,0.0,5.010509,-8.640404,42.807941,-21.137695,46.094341,-30.742435,28.301754,-37.638874,-27.172222,0.0,26.430288,20.502372,45.285653,40.58904,60.419691,55.850592,71.435655,67.677278,85.232673,0.0,69.385643,23.67651,86.620102,14.207439,84.80381,5.798836,71.742897,-1.491623,53.093834,0.0,9.807386,32.682764,59.365302,50.140655,70.159151,61.689403,80.237003,68.140468,85.387173,-17.476044,287.663106,-53.673077,284.523529
99,8.732471,-0.797013,-0.84177,-0.374393,0.0,-2.089577,-20.062294,34.016762,-32.463112,38.302345,-40.441532,21.577492,-44.80957,-41.557388,0.0,15.576665,21.213984,47.340583,42.152128,60.8123,57.602513,72.412609,69.489035,87.608212,0.0,69.873333,24.46352,86.870556,14.730034,83.925648,5.978222,70.463734,-1.685028,51.789608,0.0,10.000479,32.705426,59.72469,49.983747,70.415168,61.350084,81.272496,67.660667,86.701036,-8.747034,286.844774,-54.518309,284.127817
100,-12.305431,23.523696,0.209084,0.813068,0.0,-23.309555,-16.852055,43.824177,-20.11528,46.390629,-18.454857,40.136433,-13.521366,17.15807,0.0,38.645754,15.735549,36.665789,25.414617,41.2967,32.995777,44.730084,39.748555,45.133561,0.0,69.570408,23.280201,86.151752,13.609257,84.441433,5.13834,71.420116,-2.16814,52.257442,0.0,9.458125,31.86593,58.694508,49.410024,69.861699,61.046272,79.745841,67.623741,84.92812,-21.033096,310.303292,-54.289856,284.875707
101,17.03722,-23.257922,-0.142422,-0.419224,0.0,-15.036278,-30.14883,28.415794,-42.176571,31.61911,-47.85656,17.971344,-49.144135,-31.834316,0.0,28.713756,21.188234,46.942725,41.594892,61.479883,57.00656,70.952026,68.941803,82.583334,0.0,69.866982,24.06229,86.637611,13.951664,83.419304,4.970455,70.06382,-2.884026,50.686111,0.0,10.453789,32.000113,59.169986,49.53476,70.621538,61.071096,80.807021,67.426016,85.936566,-3.897142,286.979281,-54.333544,284.390395
102,-14.94421,18.094476,-0.113697,0.329253,0.0,7.875538,-12.270641,46.283741,-22.103634,48.958569,-26.044464,35.930843,-26.186142,10.288181,0.0,17.55027,13.372916,41.54259,28.232659,50.167393,40.302147,53.893722,50.267182,55.069203,0.0,69.762554,24.304562,86.217213,14.66486,83.245182,5.88398,70.168018,-1.938629,51.146221,0.0,9.657826,32.052045,58.751503,49.331663,69.847744,60.817672,80.355255,67.308381,85.969541,-18.539085,305.048826,-54.144974,284.694717
103,18.449192,-17.514949,-0.029526,0.026553,0.0,-9.794083,-30.2952,25.264664,-41.861515,30.649681,-47.49361,15.222359,-49.438877,-54.445896,0.0,14.148625,19.532088,48.168903,41.453731,61.751894,57.204594,71.935093,69.136935,85.947496,0.0,70.092602,24.128723,86.211834,14.416809,83.627071,5.593987,70.905132,-2.223644,51.781712,0.0,9.614601,31.920332,59.046794,49.468626,70.481303,61.165697,80.128878,67.71155,85.220076,0.349102,287.48528,-53.735504,284.672672
104,-20.589237,15.421116,-0.130463,0.025626,0.0,14.078808,-9.828587,49.420109,-19.926682,49.349041,-24.75729,36.346149,-26.057854,3.663597,0.0,15.215919,12.462592,44.074974,29.993534,54.123742,43.779869,56.9106,54.496035,59.785452,0.0,69.74184,23.488312,86.281757,13.552666,83.768864,4.694881,70.93626,-3.004131,51.566334,0.0,9.730383,32.45472,58.780958,50.048771,70.642904,61.519218,80.548596,67.769842,85.335056,-19.829721,302.849724,-53.455553,284.641627
105,23.961582,-8.883291,0.00967,0.292882,0.0,-32.762547,-33.073769,18.420525,-43.167114,21.743202,-47.912407,10.089111,-49.395275,-37.6161,0.0,33.313545,18.654799,48.06967,36.186235,59.986203,48.597018,64.510347,58.228971,72.88821,0.0,69.61338,23.40992,86.376457,13.401775,83.001022,4.638176,69.700241,-2.758656,51.28418,0.0,10.089956,31.78411,59.1606,49.247189,70.055472,60.749314,80.058792,67.048906,84.756269,4.547968,293.939757,-53.029776,284.907833
106,-21.2887,16.657606,0.067463,0.384767,0.0,-10.694733,-12.909908,44.814548,-19.871635,48.172474,-22.28056,36.137409,-21.673965,8.49432,0.0,18.462756,9.461336,37.400928,24.57475,46.687202,36.656835,47.289454,46.071921,47.693178,0.0,69.4491,23.473148,86.090527,13.758259,83.525448,5.133305,70.16367,-2.298603,51.270962,0.0,10.759145,31.788001,58.200813,49.265096,70.103884,60.713746,80.182231,66.987403,85.340613,-16.271038,310.559819,-52.492619,285.255056
107,23.104763,-10.569139,-0.116673,0.16123,0.0,-43.595982,-36.43404,15.899849,-44.850197,20.706024,-47.890663,10.478668,-48.216991,-37.466583,0.0,41.889874,13.439051,43.696444,28.645831,54.94422,40.060518,59.317878,48.939795,65.675392,0.0,69.571953,23.225555,85.894203,13.453617,83.832092,4.830437,70.29007,-2.644043,51.073151,0.0,10.73852,31.661968,58.084228,49.281522,70.405226,60.828046,80.325677,67.141099,85.422432,7.186718,299.982591,-52.256298,285.408197
108,-19.589653,29.05678,0.054417,0.529386,0.0,-40.945015,-27.403679,23.623123,-24.889812,42.587128,-19.030666,44.750862,-10.568962,28.829155,0.0,36.787993,12.545275,35.0956,6.894804,31.832646,-0.061874,23.79688,-5.927978,13.589845,0.0,69.548893,23.199635,86.410732,13.460026,84.218616,4.918613,70.402737,-2.357712,50.951786,0.0,10.835468,31.746875,57.81512,49.187476,70.10549,60.591172,79.933377,66.799867,84.985425,-12.013779,329.070184,-51.812725,285.968396
109,21.386032,-31.401443,1.008854,-0.305665,0.0,-36.585045,-35.778923,14.858093,-47.140961,17.931747,-52.535362,5.214958,-54.352856,-50.561371,0.0,35.302464,12.310439,46.506952,29.429444,57.633697,42.516949,63.431073,53.133204,72.511533,0.0,69.768448,22.035484,85.589447,12.707005,83.748894,4.778767,70.417099,-1.666603,52.677155,0.0,10.988115,30.804934,58.860863,48.83062,69.646622,61.051397,79.360147,67.942805,84.937012,9.686422,297.675503,-50.489702,285.669493
110,-23.994026,16.325697,0.101452,-0.565202,0.0,-27.63279,-19.426975,34.112892,-22.869701,45.98774,-22.160854,42.330666,-19.067287,22.496452,0.0,30.761647,11.219865,36.402115,20.786177,42.800878,28.509054,42.52368,35.266772,42.896529,0.0,68.743343,22.609406,85.735531,12.771492,83.378735,4.356194,70.035152,-2.385464,51.620121,0.0,12.390282,32.176781,59.611501,50.044139,70.78493,61.796478,80.438001,68.184558,85.453431,-13.916359,314.000058,-49.997005,285.10315
111,25.279312,-12.975676,0.007095,0.0783,0.0,-44.211845,-37.070274,13.25901,-46.539059,17.546654,-50.560455,6.985245,-51.705837,-50.643311,0.0,39.41677,9.888958,43.584429,26.220707,54.075083,39.067695,59.28515,49.676477,66.817033,0.0,69.394627,22.937222,85.603695,13.415108,82.822781,5.181999,69.761181,-1.610928,51.999149,0.0,12.096473,32.703142,60.019795,50.295031,70.262089,61.967403,80.033721,68.440452,85.48727,11.698208,301.000006,-49.654655,285.157073
112,-21.187706,26.314629,0.414562,0.26633,0.0,-46.141663,-28.893356,24.271889,-26.626511,41.655235,-20.733376,43.805237,-11.832447,21.708183,0.0,36.252061,11.538929,33.431797,8.857232,31.775836,4.934167,26.900085,1.770508,17.954859,0.0,69.455109,22.59201,85.215912,12.832088,82.489128,4.449863,69.2379,-2.349644,51.374245,0.0,12.052878,32.602736,59.819168,50.296205,70.808765,61.946902,80.329011,68.299105,85.342342,-9.194813,327.330011,-48.945408,285.438779
113,32.71328,-28.458295,-0.314999,0.018896,0.0,-45.413246,-43.609543,2.479477,-55.632763,4.273338,-61.104698,-7.095222,-63.310261,-62.739887,0.0,20.645509,11.17985,46.319478,29.711211,58.746934,43.896145,64.531898,55.578644,71.552425,0.0,68.346577,23.135891,85.549221,13.252831,82.335033,4.555721,68.148937,-2.553749,49.979954,0.0,11.28143,32.117192,60.360719,49.701857,71.120111,61.51187,80.521796,68.234205,85.819117,23.731441,298.89671,-49.047432,285.482668
114,-35.781441,14.536788,1.330605,0.875436,0.0,-29.435978,-20.143833,32.420654,-23.679142,43.97644,-22.567577,38.610764,-19.132919,15.267105,0.0,36.783547,11.807852,37.5072,19.921177,43.589678,26.272886,44.919349,31.408174,46.76544,0.0,68.684406,21.316853,84.397144,11.764812,82.727451,3.568497,68.911114,-3.125267,50.566921,0.0,11.488602,31.920023,59.4499,49.567426,70.447031,61.366016,79.747878,68.010484,84.960786,-11.878424,313.473682,-47.545252,286.398287
115,28.221016,-19.385245,-0.757256,-0.122513,0.0,-27.299881,-35.57127,11.705704,-48.109016,11.458282,-54.736118,-2.779083,-57.811317,-59.653416,0.0,5.125222,15.346583,45.888398,36.482143,59.969468,51.808843,68.053091,63.766192,80.515683,0.0,69.246883,22.774773,85.28841,13.039169,82.499943,4.548168,68.654308,-2.535553,50.466557,0.0,11.602347,31.710442,59.210371,49.40527,70.068439,61.256223,79.49853,67.911683,85.015621,16.440268,294.096294,-48.204832,286.283632
116,-29.704227,7.345953,0.122223,0.087686,0.0,-3.271523,-12.996025,43.056164,-22.527122,45.322323,-26.727562,32.595463,-27.556515,-25.110798,0.0,27.029082,15.493858,47.324281,33.540663,55.531775,46.907033,60.967232,56.964014,65.446051,0.0,69.660702,22.691917,85.10107,13.187943,83.296108,4.875755,69.59753,-2.00798,51.128826,0.0,12.459442,32.252919,59.240505,50.017154,70.71898,61.769431,80.067066,68.221238,84.949733,-13.214235,301.435902,-48.032885,286.364973
117,30.252514,-6.951429,-0.453587,-0.001914,0.0,-33.89431,-38.461246,10.672531,-49.720745,11.350136,-54.746933,-0.103111,-56.557903,-58.803577,0.0,17.135863,15.187823,45.623489,35.360324,60.218261,50.163503,67.557915,61.676867,79.259124,0.0,69.727135,23.284721,85.624008,13.621101,82.935219,5.198593,69.191437,-1.838036,51.248589,0.0,11.805197,31.309064,59.17647,49.291031,70.065537,61.342304,79.283392,68.101442,84.409973,17.103224,294.490216,-48.421526,286.368801
118,-34.27248,23.642812,0.035992,0.472452,0.0,-27.211704,-15.49633,34.723263,-17.545967,47.228222,-15.645103,46.62775,-11.665707,31.526356,0.0,33.618839,12.808023,37.514549,15.997741,41.140347,17.897863,38.430986,19.97879,35.910643,0.0,70.117779,22.711487,85.467052,13.30822,83.7644,5.083523,70.24538,-1.812916,51.914005,0.0,11.863736,31.677529,59.094218,49.65363,70.565901,61.634877,79.436903,68.362584,84.586208,-17.14139,318.123673,-48.357668,286.831899
119,35.39423,-22.702045,-0.410843,-0.123439,0.0,-37.243137,-39.334316,8.889542,-50.606518,11.044235,-55.393066,0.175896,-57.173309,-60.427151,0.0,18.162834,14.314054,45.789165,34.380839,59.956871,49.207483,66.886317,60.955746,77.563272,0.0,70.576572,23.205185,85.84734,13.755913,83.991795,5.55542,70.497837,-1.300049,52.27644,0.0,12.123767,31.054035,59.051178,49.177102,70.355702,61.302104,79.344339,68.068529,84.45221,18.264112,295.359862,-48.757238,286.646694
120,-36.500702,19.481082,0.478764,-0.131528,0.0,-26.530895,-14.964752,35.502319,-16.366367,49.61792,-14.089451,49.302979,-10.021877,36.23909,0.0,39.869153,14.887654,39.36033,18.219521,44.037059,20.436422,40.753975,22.382301,37.871466,0.0,70.004425,22.445984,85.41687,12.856121,83.732529,4.615116,70.430603,-2.194118,51.443939,0.0,12.348353,31.605528,59.235812,49.731003,71.212304,61.685883,80.181922,68.183508,85.041185,-18.229694,314.812029,-48.27158,286.486251
