takenoko1/special-research/HandMotion_SimilarSearch_自分用/NewProject/handData/test_key/d4_feature_d2/84.csv
frame,vel_0x_L,vel_0y_L,vel_0x_R,vel_0y_R,posFromWrist_0x_L,posFromWrist_1x_L,posFromWrist_2x_L,posFromWrist_3x_L,posFromWrist_4x_L,posFromWrist_5x_L,posFromWrist_6x_L,posFromWrist_7x_L,posFromWrist_8x_L,posFromWrist_9x_L,posFromWrist_0y_L,posFromWrist_1y_L,posFromWrist_2y_L,posFromWrist_3y_L,posFromWrist_4y_L,posFromWrist_5y_L,posFromWrist_6y_L,posFromWrist_7y_L,posFromWrist_8y_L,posFromWrist_9y_L,posFromWrist_0x_R,posFromWrist_1x_R,posFromWrist_2x_R,posFromWrist_3x_R,posFromWrist_4x_R,posFromWrist_5x_R,posFromWrist_6x_R,posFromWrist_7x_R,posFromWrist_8x_R,posFromWrist_9x_R,posFromWrist_0y_R,posFromWrist_1y_R,posFromWrist_2y_R,posFromWrist_3y_R,posFromWrist_4y_R,posFromWrist_5y_R,posFromWrist_6y_R,posFromWrist_7y_R,posFromWrist_8y_R,posFromWrist_9y_R,posFromBody_0x_L,posFromBody_0y_L,posFromBody_0x_R,posFromBody_0y_R
2,6.315479,-26.724776,0.875759,-0.388719,0.0,23.236198,-2.540359,57.343826,-14.877262,61.523094,-25.381794,40.277824,-33.021412,-26.852417,0.0,24.504107,15.383818,44.681734,34.906829,58.10652,51.795566,71.220085,66.51563,92.554173,0.0,63.52478,22.639103,82.665024,12.340336,78.600769,2.394562,63.712578,-6.238747,43.611832,0.0,10.879558,28.707396,54.554636,45.998438,67.255214,57.994999,78.787968,64.737712,83.993157,-17.90597,286.307669,-38.112803,284.297384
3,-5.491219,-1.560618,-0.316315,-1.02234,0.0,36.838989,2.242527,61.774635,-9.112358,66.123161,-19.479046,44.593391,-26.576786,-30.141392,0.0,8.866248,16.625619,44.635606,38.081603,57.874647,55.264581,72.158753,68.819043,93.789737,0.0,64.199867,23.112316,82.3843,12.738876,78.821983,2.887287,65.051193,-5.770741,45.426636,0.0,12.444869,28.429149,55.690412,46.209624,68.021537,58.69037,79.793265,65.856259,84.982769,-23.239775,284.795077,-38.271704,283.32307
4,-2.113838,0.279482,-0.666161,-0.426201,0.0,38.084908,4.536438,64.425087,-6.719456,68.30761,-17.195091,46.842155,-24.651833,-25.526276,0.0,3.256223,17.118696,43.715648,39.166866,56.785741,56.398257,71.086333,69.612907,92.483716,0.0,64.449692,23.905449,83.279114,13.523769,79.369354,3.400898,65.405273,-5.493279,44.838524,0.0,12.751275,29.526886,56.292972,47.303347,68.944335,59.373145,80.076452,65.986367,85.440464,-25.209074,285.143503,-38.793325,282.965813
5,9.484348,-0.134616,0.196209,0.180743,0.0,20.776463,-4.555321,55.032063,-16.76239,59.055119,-27.349949,38.146305,-34.646988,-36.324291,0.0,11.15904,19.171774,46.326826,39.176623,58.889207,55.070808,72.268483,67.652702,96.232089,0.0,65.198307,23.667698,82.954617,13.258553,79.353733,3.203316,65.091076,-5.587921,44.562778,0.0,12.952705,29.013431,56.416844,46.855101,68.498621,59.091501,79.713051,65.909611,85.238293,-15.598783,285.026116,-38.471174,283.163785
6,2.841969,-0.848018,-0.372849,-0.032234,0.0,18.650093,-7.928295,51.447487,-19.377022,55.289497,-28.792477,36.329384,-34.538898,-40.092373,0.0,5.02142,21.01453,45.953422,41.603537,59.835346,57.534526,72.851222,69.812916,96.87065,0.0,65.726681,23.741112,83.57523,13.352394,79.994373,3.299618,65.947666,-5.525837,45.098591,0.0,12.943627,28.547154,56.126617,46.42785,68.061736,58.80183,79.379969,65.712689,85.419407,-12.605896,284.224642,-38.693104,283.178096
7,12.955742,0.275407,-0.459309,0.087253,0.0,-0.238609,-22.696095,37.028275,-35.03746,40.500069,-42.657623,22.795029,-45.509605,-55.651817,0.0,5.697711,23.233407,48.19101,42.779389,61.229794,57.526252,73.356031,69.153916,96.675581,0.0,66.286812,24.157047,83.654366,14.041443,79.659119,4.119873,66.117439,-4.718914,45.646248,0.0,12.567073,28.894191,56.018121,46.629774,68.458791,58.762989,79.593749,65.54411,85.56347,0.451498,284.54488,-39.05076,283.31018
8,-14.325199,20.155458,-0.067291,-0.209087,0.0,-16.65905,-15.606022,51.694736,-20.034428,55.414524,-20.921631,45.916271,-18.575134,-16.733894,0.0,46.967981,21.110799,40.846724,28.949025,44.073492,35.069232,49.624607,40.548532,67.314865,0.0,66.067543,24.4491,83.806,13.853931,79.424171,3.468018,65.363731,-5.779839,43.950691,0.0,13.007601,28.417107,56.584928,46.194619,69.710966,58.478628,80.657215,65.4873,86.112802,-13.796482,304.726242,-39.040833,283.126997
9,-3.269176,-20.268832,-0.233116,0.450963,0.0,25.654907,-3.469219,54.902,-14.532509,58.793907,-24.279213,38.934517,-30.627766,-34.600754,0.0,10.29367,21.469939,44.606954,41.607613,59.100764,57.376692,72.797993,69.699913,95.065192,0.0,66.510773,24.116364,84.321442,13.664589,80.000954,3.631096,66.257629,-5.162659,45.729103,0.0,13.179082,27.904147,55.963349,46.041107,68.852327,58.554211,79.827289,65.670081,86.089522,-16.983118,284.474515,-39.191408,283.595066
10,-3.970013,2.173553,-0.10025,0.314001,0.0,23.397732,2.137527,58.962536,-9.880886,63.101635,-21.254482,42.844791,-30.248737,-22.158051,0.0,21.625365,20.152432,42.468661,38.63007,55.987246,53.334263,69.338241,65.219118,91.420188,0.0,66.378479,24.395885,84.167862,13.973808,79.781685,3.848705,65.834427,-5.150242,45.276604,0.0,12.732811,28.060684,55.481263,46.124408,68.431992,58.579652,79.513041,65.737142,85.724701,-20.885153,286.624741,-39.22368,283.88574
11,1.223373,-1.72543,-0.087147,-0.115103,0.0,29.134541,-0.286732,58.293743,-11.502686,62.158642,-21.58144,41.036396,-28.564739,-32.439938,0.0,4.192112,21.528972,44.638261,42.192266,58.570328,57.974004,72.113243,69.861267,93.222127,0.0,66.947765,24.635811,84.403667,14.247208,80.260677,4.003601,66.227474,-5.154705,45.949917,0.0,12.456108,28.384133,55.65472,46.280761,68.532954,58.657396,79.809567,65.782899,86.195795,-19.612827,284.886004,-39.261875,283.75733
12,-4.823742,0.17216,0.01585,-0.02964,0.0,33.45829,4.757366,63.488274,-6.409435,66.934433,-16.987152,45.290451,-24.849186,-23.180065,0.0,8.320065,20.034427,43.321496,41.131517,57.550087,57.579727,70.805739,70.108577,91.806128,0.0,66.712532,24.495907,84.169579,14.25436,80.379181,4.093666,66.41819,-4.99197,46.243744,0.0,12.825128,27.804543,55.54394,45.7431,68.442304,58.210817,79.419366,65.491375,85.673263,-24.391193,285.048006,-39.200649,283.717532
13,13.194237,-1.980027,0.52248,0.334317,0.0,13.140335,-11.293659,46.66008,-22.303448,50.918884,-30.449352,31.705971,-33.932877,-47.065945,0.0,0.446641,26.120486,49.421078,45.915383,62.775098,60.649093,74.526078,72.00592,96.331384,0.0,65.745564,25.314846,83.95586,15.507488,80.971928,5.365334,66.303921,-3.984547,45.038395,0.0,12.523539,28.148617,55.320897,45.975528,68.649847,58.45751,79.465,65.880774,86.117001,-11.103773,283.083371,-38.584986,284.06724
14,4.674053,1.736236,0.057106,-0.477269,0.0,7.063122,-14.979973,43.079281,-26.947174,48.639164,-35.269146,29.378643,-39.071445,-49.323349,0.0,0.552543,22.63412,48.316178,42.677562,61.067391,57.863347,73.829595,69.688427,94.819487,0.0,65.836315,25.136318,83.884449,15.253086,81.277256,5.035744,66.688099,-4.417591,45.150433,0.0,13.050764,29.06524,55.86887,46.967857,69.925487,59.272615,80.350624,66.421151,86.673619,-6.365833,284.786941,-38.463993,283.557305
15,-14.32291,3.805801,0.423889,0.172839,0.0,31.952248,2.018509,67.918282,-9.746418,60.570145,-17.798252,43.25695,-22.845898,-0.392132,0.0,21.80407,30.787335,51.434512,48.892556,62.934908,60.645388,69.770494,68.727221,86.23939,0.0,65.597935,24.53001,83.312359,14.432774,79.89378,4.430408,65.686169,-4.657631,45.389385,0.0,13.548473,28.954274,56.222021,47.022939,69.557764,59.491273,80.13104,66.649319,85.972937,-20.661592,288.628789,-38.012953,283.766191
16,8.775902,-5.205251,0.259209,-0.205629,0.0,18.130989,-9.978848,49.056015,-21.386204,53.324547,-29.60392,33.742104,-33.390656,-46.628437,0.0,-2.678424,25.417087,48.532983,45.911555,61.227139,60.755613,74.087342,71.829746,95.403584,0.0,65.307255,24.013824,82.917309,13.856335,79.157124,3.863297,65.269032,-5.093536,45.511837,0.0,14.064521,29.282107,56.83298,47.255923,70.054299,59.606499,80.539704,66.621593,85.906556,-11.864891,283.437262,-37.732944,283.574287
17,-2.283669,-0.282199,-0.124741,0.176606,0.0,22.511215,-7.957878,51.054497,-19.045258,54.256897,-27.168159,35.164032,-30.814819,-45.716286,0.0,-3.156743,25.045041,48.732499,45.858017,61.712127,60.721712,74.072521,71.683522,94.821092,0.0,65.931301,24.196301,83.267384,13.967915,79.267902,3.902779,65.121632,-5.159855,45.375538,0.0,13.915332,28.91426,56.824273,46.950629,69.695837,59.435389,80.452018,66.580776,85.896305,-14.078865,283.138807,-37.787991,283.734637
18,6.691647,0.138938,-0.199471,-0.018155,0.0,10.964184,-14.52776,43.2934,-26.091385,47.914753,-33.975677,28.944111,-37.091331,-52.154617,0.0,-3.379044,25.925231,50.190426,46.047159,62.900513,60.525222,74.949192,71.537297,95.795452,0.0,66.015301,24.255867,83.574657,14.11932,79.847889,4.053497,65.588093,-5.051994,45.71188,0.0,13.439854,29.33935,56.809823,47.05616,69.755241,59.28231,80.501727,66.34137,85.875063,-7.297239,283.249742,-37.897482,283.688479
19,-3.06776,0.40286,-0.632401,0.005928,0.0,14.307632,-11.237354,46.477432,-22.252522,50.112991,-30.2845,31.375923,-33.767624,-48.243771,0.0,-3.884965,26.261709,48.877551,46.183998,61.923992,60.521147,74.097963,71.445165,95.510782,0.0,66.671963,24.536304,84.234982,14.352322,80.620251,4.29285,66.476269,-4.737797,46.822987,0.0,13.213168,28.822128,56.570479,46.94433,69.28353,59.515665,80.234904,66.735337,85.778362,-10.329237,283.651922,-38.49412,283.693727
20,-9.215584,0.149868,0.191803,-0.328512,0.0,26.261559,0.037537,54.514046,-10.190392,56.684303,-19.572659,37.309685,-25.151024,-41.187057,0.0,-4.613806,25.142051,47.050665,45.81436,61.505633,60.543438,73.048514,71.708963,94.447317,0.0,66.413097,24.554901,84.404583,14.541607,81.009464,4.560528,67.009563,-4.45158,47.434902,0.0,13.695439,28.960511,56.931657,46.850593,69.430619,59.280951,80.137647,66.376753,86.029501,-19.53083,283.801852,-38.288326,283.365277
21,3.820667,-2.042642,0.163307,0.136962,0.0,22.499828,-5.944519,50.036259,-16.256676,53.163357,-24.543171,35.307827,-28.321667,-45.480194,0.0,-3.960424,26.781401,50.39834,47.483165,64.549249,61.950545,75.44795,72.732538,96.327123,0.0,66.609592,24.238129,84.092617,14.272499,80.739269,4.567108,66.973515,-4.121075,47.520046,0.0,13.678087,28.636136,56.65168,46.736602,69.375785,59.345851,79.884841,66.657532,86.010049,-15.69417,281.741874,-38.109026,283.484903
22,0.671711,0.638376,-0.430641,-0.395141,0.0,24.137192,-6.214943,49.082909,-17.089062,50.647545,-25.379448,30.729446,-29.147816,-46.044617,0.0,-3.437398,27.384949,50.33696,47.84848,64.742652,61.74683,75.737683,71.857472,94.332523,0.0,67.088299,24.623623,84.488239,14.426308,80.848675,4.556751,67.17001,-4.17675,47.575779,0.0,13.773676,28.446315,57.164641,46.768959,69.934812,59.598472,80.605221,67.043534,86.670408,-15.004549,282.369984,-38.521757,283.079496
23,1.897488,-0.109298,0.347157,0.386866,0.0,24.280529,-7.639217,48.087215,-19.054298,50.523891,-27.494659,30.305271,-31.467419,-46.29673,0.0,-3.069242,26.638881,50.302997,46.858436,64.789273,60.93438,76.930207,71.316786,94.613919,0.0,67.225456,24.529381,84.624596,14.19651,80.974045,4.174061,66.88282,-4.684124,47.17289,0.0,13.290418,28.04185,56.641553,46.358875,69.476253,59.166651,79.982592,66.570711,85.900257,-13.099422,282.218649,-38.166962,283.424326
24,-2.652054,-0.153759,0.029869,-0.374701,0.0,26.769047,-5.50621,51.319141,-16.01366,53.575573,-24.041805,32.395077,-27.633419,-42.465134,0.0,-4.687289,25.563127,49.586198,45.690118,64.708257,60.113409,77.421432,70.95993,93.708041,0.0,67.122345,24.418659,84.48864,13.92683,80.553818,3.811169,66.583672,-5.08461,46.794548,0.0,13.514386,28.313058,57.126294,46.712149,70.29704,59.501215,80.745147,66.846797,86.561728,-15.750103,282.038415,-38.135719,283.023149
25,8.489799,1.193574,0.230255,0.42015,0.0,15.289822,-15.071239,42.140293,-26.303959,44.611301,-33.167152,23.70512,-35.162716,-51.635056,0.0,-3.990373,29.491318,50.655283,47.947034,64.014738,60.621614,76.478132,69.852251,93.71508,0.0,65.969696,24.86166,83.905449,14.66589,79.561615,4.490604,66.111832,-4.747639,47.009811,0.0,13.324689,28.147999,56.624078,45.90186,69.146568,58.423794,79.846308,65.948452,86.210676,-7.28734,283.134145,-37.932501,283.345455
26,-8.054409,-0.158699,0.922737,0.597003,0.0,21.985245,-6.858444,48.871994,-17.543507,50.780411,-25.006771,31.600685,-28.026123,-41.749306,0.0,-3.314392,27.378033,48.941895,47.167188,63.405138,60.671571,74.777526,70.168907,92.908497,0.0,65.876083,24.007416,82.557793,13.931236,79.126282,3.951931,65.833282,-5.106926,46.27327,0.0,12.405349,27.108369,55.59686,45.114913,68.19981,58.00704,78.843667,65.804944,84.935592,-15.34893,282.941777,-37.016945,283.908789
27,0.351791,0.619727,-0.199299,-0.547479,0.0,20.338554,-7.572155,48.58223,-18.040695,51.15509,-25.491085,32.732162,-28.879738,-41.410446,0.0,-1.080817,25.90436,47.406347,44.890079,61.534656,58.653505,73.447607,69.042889,92.668164,0.0,65.822239,24.161854,82.655354,13.695202,78.972645,3.375492,65.833797,-5.916939,45.464687,0.0,12.921829,26.854204,56.016639,45.264657,68.675782,58.400267,79.058311,66.246892,85.090833,-15.035963,283.53242,-37.255068,283.332225
28,-10.969734,0.802385,0.745811,-0.213842,0.0,29.669266,7.840004,62.380028,-3.335724,67.077942,-13.861027,45.194206,-21.780968,-24.790134,0.0,-2.549304,20.74678,43.7217,40.9136,58.597374,56.201149,72.020494,67.869199,91.458041,0.0,65.766048,22.50618,82.72253,11.680412,78.661823,1.53614,65.637989,-7.2155,45.123196,0.0,12.361444,26.347851,56.237829,44.583859,68.635892,57.778502,79.043306,65.605552,84.68186,-26.113873,284.308514,-36.617432,283.092093
29,18.620453,2.613648,0.518188,0.248854,0.0,-8.261547,-17.732906,43.796425,-26.888466,52.676468,-31.328087,37.48455,-32.511635,-38.285751,0.0,36.204514,22.782197,46.137314,38.59728,56.267099,51.330339,67.446085,62.851113,90.793113,0.0,64.815159,21.665897,82.987919,11.511784,79.464397,1.679134,66.028347,-7.071762,44.801159,0.0,10.645215,24.648541,53.065772,42.410492,67.433179,55.533504,78.072528,63.616077,83.145756,-7.580996,286.903097,-36.186819,283.321882
30,-6.258087,33.517197,1.197681,-0.394153,0.0,-16.981716,-10.775356,54.271774,-15.245304,59.966812,-16.039238,52.352028,-12.954826,-6.64959,0.0,44.2283,6.762782,35.927069,6.268223,31.877662,4.298446,30.841305,2.252223,35.61103,0.0,63.065987,20.70322,80.025444,11.17733,79.071579,1.363564,65.649147,-7.721329,44.587326,0.0,6.987306,21.399111,51.182323,38.576594,68.161463,51.915609,77.409143,61.146863,81.802623,-13.980103,320.441737,-35.130157,282.949172
31,22.542,-38.605308,4.801483,-4.375943,0.0,1.15139,-22.84996,30.538101,-37.4473,30.123482,-45.806808,9.878998,-49.243298,-64.459763,0.0,5.640159,24.011956,58.041991,42.220486,66.317658,55.514732,76.889205,66.885391,92.732817,0.0,59.451942,16.720276,74.005508,6.01799,72.282829,-4.290848,58.475876,-13.563023,38.896866,0.0,7.441913,16.805066,54.873763,34.068135,74.555904,48.780726,82.413952,60.050361,83.473404,8.287783,282.023394,-30.602789,278.760194
32,-18.968582,16.544973,-1.883011,-8.391634,0.0,-32.103081,-16.109161,27.070427,-12.981377,27.431488,-8.548164,23.097038,-1.575108,-0.360889,0.0,43.130563,9.026428,43.577204,17.804805,54.426628,26.115916,56.429996,32.927975,64.129717,0.0,65.671463,19.999294,74.957542,8.304691,70.342712,-3.127499,55.23674,-13.511639,37.465439,0.0,7.422647,11.913816,56.639145,27.488011,79.108638,41.943165,86.808976,53.894525,86.17412,-10.846281,298.935088,-32.651281,270.73528
33,8.649902,-22.462268,0.487404,-11.949631,0.0,-49.033642,-27.829056,-49.180069,-10.044937,-35.170441,7.160683,-17.285843,23.150597,3.031998,0.0,40.478568,39.506308,69.157683,45.644978,75.76121,49.833447,71.619301,51.966862,71.048666,0.0,60.345612,21.728725,69.223595,11.978073,62.496872,0.477047,43.559418,-11.557274,22.189007,0.0,9.904334,14.838809,56.12779,27.93212,76.260339,39.774058,86.387097,49.213782,85.314431,-2.512436,278.064977,-32.479935,260.377806
34,11.212349,-3.348725,0.365467,-26.778776,0.0,-25.7654,-25.257454,-49.266415,-16.735668,-40.021877,-7.460403,-31.301079,3.810196,-17.448063,0.0,11.968094,22.01359,55.559069,34.942706,65.658781,44.859081,69.432101,51.000653,70.432458,0.0,61.670379,38.988733,50.6884,29.301681,36.77227,15.447378,21.872034,-0.399199,10.859613,0.0,3.879655,20.702968,80.386686,28.474411,94.357192,35.737526,98.761633,41.164306,90.849058,8.585272,277.493091,-32.229109,236.375869
35,3.09494,14.75242,0.365467,-26.778777,0.0,-31.413231,-21.668816,-47.222157,-16.659565,-41.565971,-11.008415,-33.444901,-4.329758,-21.098499,0.0,8.439861,6.629524,19.013508,14.918035,26.496052,21.84637,31.101892,27.622009,35.642029,0.0,62.995148,56.248741,32.153206,46.62529,11.047668,30.417709,0.18465,10.758877,-0.46978,0.0,-2.145024,26.567127,104.645583,29.016704,112.454046,31.700994,111.136168,33.114832,96.383686,11.609974,294.971359,-31.93388,212.322941
36,-1.113167,-70.4156,-2.417049,-39.794436,0.0,-22.723732,-11.947517,-17.384205,-9.412766,-30.859165,-8.639832,-29.914112,-8.616943,-29.558773,0.0,-40.875562,13.161977,6.925247,31.092073,37.320035,46.005354,50.103605,57.817652,70.78388,0.0,61.746655,35.460949,57.192249,24.283276,44.740734,9.689999,32.113895,-7.249775,16.297417,0.0,-6.976191,3.412637,45.591873,6.000782,54.160854,10.537152,55.842565,17.801779,48.080847,10.295391,229.81921,-34.552345,177.791956
37,7.259331,7.381088,2.645531,-26.525136,0.0,-32.717285,-33.624859,-41.469955,-33.730488,-38.658199,-31.152306,-35.960255,-26.15324,-34.191914,0.0,-0.128256,21.175204,10.85492,21.417575,8.749848,18.949966,7.044981,15.021529,7.70781,0.0,47.190914,31.372318,55.992451,19.933949,43.285847,7.307339,29.995937,-5.971355,16.028767,0.0,-2.104145,-17.247199,-3.109257,-16.97735,9.374454,-13.834254,16.990255,-7.258699,18.442008,16.661768,242.715922,-32.799768,156.782444
38,-13.362122,-86.909382,-3.856287,-27.40281,0.0,-0.986824,26.313972,21.719856,18.401871,2.078705,4.218864,-13.885632,-13.168545,-31.197453,0.0,-43.789811,7.005028,-4.202116,26.962206,15.379681,45.03544,31.615038,60.211159,54.477078,0.0,49.462481,28.877735,53.490114,16.719618,43.229055,3.632526,27.085934,-9.90406,15.493956,0.0,-15.661525,-27.407349,-11.423363,-29.853515,-2.898811,-27.843137,3.417144,-21.067126,6.245977,2.657862,159.647709,-37.29784,133.220802
39,21.028805,-22.370137,-3.856287,-27.402811,0.0,-0.942364,-7.219391,-10.219117,-18.25759,-26.286135,-28.944454,-37.485581,-39.572554,-48.931132,0.0,-34.986394,-0.365361,-8.817588,15.063828,5.89434,29.685863,20.461617,42.624828,37.373573,0.0,51.734047,26.383152,50.987778,13.505287,43.172264,-0.042286,24.17593,-13.836765,14.959145,0.0,-29.218906,-37.5675,-19.737469,-42.72968,-15.172076,-41.852021,-10.155967,-34.875552,-5.950054,23.58965,142.272887,-41.251144,110.813306
40,21.028804,-22.370136,3.423901,-17.96304,0.0,-0.897903,-40.752754,-42.158089,-54.917049,-54.650974,-62.107773,-61.085529,-65.976562,-66.66481,0.0,-26.182977,-7.735752,-13.433061,3.16545,-3.591003,14.336284,9.308195,25.038495,20.270067,0.0,51.319485,24.303474,49.348354,9.248486,33.040752,-7.768536,14.118404,-26.115818,4.064941,0.0,-37.177546,-37.520415,-42.791739,-42.28483,-21.257085,-43.820748,-18.000369,-40.823228,-20.266053,44.733982,123.935516,-37.711716,96.883031
41,-19.767837,-29.352626,-3.703365,-16.974972,0.0,3.971901,-15.695171,-20.440464,-20.82078,-30.35903,-24.462032,-31.025877,-27.585468,-27.430916,0.0,-12.558784,7.640255,-2.419613,21.709484,7.607666,31.648491,14.602351,37.857325,21.334906,0.0,50.753288,15.606365,56.733513,3.796463,51.531029,-8.792324,38.342171,-21.571426,18.338528,0.0,-35.037029,-41.057015,-49.067865,-45.060603,-45.965123,-44.999872,-39.486023,-40.342038,-34.138499,24.999161,98.453499,-41.382065,83.778667
42,-19.767838,-29.352626,3.250122,-15.67528,0.0,8.841705,9.362411,1.277161,13.27549,-6.067085,13.183708,-0.966225,10.805626,11.802979,0.0,1.065411,23.016262,8.593836,40.253519,18.806335,48.960698,19.896508,50.676155,22.399746,0.0,49.265099,7.487125,53.261032,-3.691635,47.979698,-14.975796,36.661606,-25.941639,21.414585,0.0,-38.824923,-42.977824,-47.201737,-45.138378,-47.424718,-43.135719,-39.244208,-37.073373,-32.607212,4.689989,70.558089,-38.673277,69.560604
43,27.525558,2.693491,0.835819,-3.01975,0.0,-6.00071,-21.763115,-34.112663,-30.707703,-46.541119,-37.529869,-51.629333,-43.601933,-54.695549,0.0,-12.190581,9.744771,-12.674087,26.309998,-0.852001,36.692373,3.479203,41.528696,12.624131,0.0,45.839024,2.233086,50.281963,-8.625813,44.695873,-18.563461,37.359982,-27.11935,24.679241,0.0,-40.861112,-45.746342,-44.65444,-46.996232,-36.450033,-43.51496,-34.069678,-35.798875,-32.878513,32.136869,74.332522,-37.916136,67.621796
44,-13.545799,18.494403,5.834885,2.033966,0.0,-9.855652,-54.480286,-20.85434,-55.485191,-18.260078,-50.73698,-14.510078,-44.099064,-17.310677,0.0,-15.266493,-14.753625,-47.626858,-11.595184,-50.498005,-9.464331,-43.33187,-8.304782,-39.523691,0.0,44.30563,2.705784,35.530415,-8.773842,25.702114,-20.298729,17.124138,-30.881081,10.024338,0.0,-33.976157,-37.870324,-32.567353,-37.069946,-21.110582,-32.756432,-18.537659,-25.296921,-21.333378,18.062639,92.298557,-32.609682,69.127394
45,-23.699713,25.23074,-18.768482,21.321584,0.0,-16.57033,-32.707529,-8.559036,-22.93828,3.73332,-10.992451,12.830286,0.829639,19.05982,0.0,-9.133967,-28.024854,-35.752763,-29.748725,-40.148111,-28.760533,-36.002575,-25.654194,-35.657483,0.0,16.540947,47.281952,49.177437,57.434807,53.122902,62.359657,44.139462,63.590355,55.121498,0.0,-33.72295,-17.614861,-24.545017,-2.655021,-10.590998,12.626909,5.71497,27.601261,15.075838,-6.218033,116.988055,-51.959124,89.907735
46,-23.699713,25.230739,36.24012,21.584702,0.0,-23.285007,-10.934772,3.736267,9.608631,25.726719,28.752079,40.17065,45.758343,55.430317,0.0,-3.001441,-41.296082,-23.878668,-47.902265,-29.798217,-48.056733,-28.673279,-43.003604,-31.791273,0.0,28.097191,14.482956,37.467957,-0.631943,22.981453,-16.336098,7.881832,-30.730534,-10.994625,0.0,-37.059664,-16.630683,-3.832601,-19.987034,-10.511495,-22.439853,-9.243203,-23.045377,-10.844484,-30.728617,141.757657,-16.529875,111.031301
47,22.502918,8.233923,-7.709913,2.277772,0.0,22.985458,-7.793541,5.242767,-16.939659,-5.078259,-24.3853,-12.389202,-30.196896,-18.49823,0.0,-20.77361,-41.973515,-16.325327,-40.950372,-12.216084,-33.323425,-9.778178,-22.867598,-3.484977,0.0,36.0884,30.202474,39.315405,25.673418,32.938642,17.957239,25.047397,8.766918,14.339847,0.0,-28.915233,-2.002721,7.446713,6.19176,9.460518,13.308634,17.961697,20.048228,22.409749,-9.20085,149.629121,-25.214939,112.946614
48,-10.311069,14.124604,-7.709913,2.277772,0.0,11.580334,-30.433731,24.524174,-23.949108,31.531734,-13.24522,36.857586,-1.249752,34.548512,0.0,-15.945099,-31.259664,-12.816236,-42.644155,-15.190262,-48.36953,-20.142954,-49.525621,-29.777716,0.0,44.079609,45.921993,41.162853,51.978779,42.895832,52.250576,42.212963,48.26437,39.67432,0.0,-20.770801,12.625242,18.726029,32.370554,29.432531,49.057121,45.166598,63.141834,55.663983,-20.59659,163.510521,-34.009523,114.981181
49,-8.164444,-20.609571,1.80273,-9.20552,0.0,48.381443,-4.878559,46.377926,-3.640137,46.045933,-1.869678,45.086575,0.878391,37.712002,0.0,9.96312,-16.583166,7.606601,-22.092754,7.708119,-23.053621,7.549482,-20.033038,-1.810707,0.0,43.464775,46.722908,42.173596,50.080662,41.274662,48.182659,38.582554,42.595883,35.709286,0.0,-16.031905,9.597357,19.24061,28.707859,30.261129,45.579801,42.759459,59.95525,52.79228,-29.855204,143.068156,-33.300963,105.942866
50,16.461639,-6.204898,1.802731,-9.20552,0.0,10.874119,-18.929787,18.362103,-15.938644,23.092861,-11.692257,25.969105,-7.188892,19.2449,0.0,-5.924859,-30.268261,-13.076699,-31.99437,-14.944464,-29.956638,-8.027307,-24.032087,-5.71781,0.0,42.849941,47.523823,43.184338,48.182545,39.653492,44.114742,34.952145,36.927395,31.744251,0.0,-11.293008,6.569472,19.755192,25.045164,31.089727,42.102481,40.35232,56.768667,49.920577,-14.081411,137.153068,-32.186079,97.027156
51,26.442776,-19.842075,-8.497839,-9.087623,0.0,0.419769,-31.59296,-6.632423,-43.648224,-12.480354,-51.723061,-20.805359,-56.676693,-38.646927,0.0,-16.97488,-33.692661,-18.616175,-29.992021,-14.359163,-21.980769,-1.338996,-10.245597,2.218353,0.0,49.677915,48.931074,45.166597,55.272188,47.203817,55.782079,48.420267,52.260046,47.766523,0.0,-18.739011,4.443621,3.692057,22.964592,14.073382,38.805194,25.619165,51.975044,37.968785,12.160234,118.746166,-40.885048,89.374706
52,6.104507,-24.801775,-8.497839,-9.087623,0.0,-6.35994,-49.831982,5.569954,-61.827736,-3.19519,-65.542603,-8.227844,-63.018379,-23.8274,0.0,-19.542801,-28.695941,-13.4041,-17.428838,-8.903946,-4.093466,1.753743,9.571005,2.127302,0.0,56.50589,50.338326,47.148857,62.361832,54.754143,67.449417,61.88839,67.592697,63.788795,0.0,-26.185015,2.317771,-12.371078,20.88402,-2.942963,35.507907,10.886011,47.181421,26.016992,18.556223,95.130292,-49.091406,81.472984
53,5.827618,17.300829,11.652031,-6.01696,0.0,0.855217,-46.805935,-6.895695,-59.932852,-12.920551,-64.340801,-18.489532,-63.179169,-30.824432,0.0,-26.695815,-22.42863,-39.734615,-18.932784,-42.438881,-14.220317,-36.682755,-8.915277,-32.70274,0.0,38.59108,32.909889,47.517586,34.788094,61.334839,33.448334,57.466621,29.478722,54.668999,0.0,-29.122019,9.549578,-8.726506,30.196013,12.687394,45.392172,29.357659,55.605567,39.665562,24.737863,113.422493,-37.085352,76.447396
54,5.827618,17.300829,29.922981,-4.077565,0.0,8.070374,-43.779888,-19.361343,-58.037968,-22.645912,-63.139,-28.751221,-63.339958,-37.821465,0.0,-33.848828,-16.161318,-66.065129,-20.436731,-75.973817,-24.347169,-75.119253,-27.40156,-67.532782,0.0,24.727364,-34.045544,-25.478439,-30.544853,30.525398,-17.967396,48.741302,-3.008308,50.236244,0.0,-21.364531,8.966623,-9.808528,30.439896,25.552228,45.644361,45.583166,55.796808,56.770303,30.59638,130.827433,-7.131472,72.473942
55,-16.15408,4.104735,-12.654762,31.221873,0.0,13.849755,-44.650755,-11.578445,-47.24061,-7.82484,-42.107019,-3.387165,-33.311519,-4.88903,0.0,-25.515069,-23.673394,-61.991238,-29.630642,-69.913276,-32.799966,-65.76882,-33.210838,-59.606901,0.0,56.687279,16.115799,39.618301,0.451355,30.005493,-16.662769,16.24958,-34.63623,14.238625,0.0,4.738634,-46.865877,-39.362985,-52.787371,-41.093973,-52.938906,-39.187645,-48.365918,-43.267063,14.245748,134.83011,-19.982786,103.593757
56,-16.154079,4.104735,-2.416477,3.981265,0.0,19.629135,-45.521622,-3.795547,-36.443253,6.996231,-21.075039,21.976891,-3.283081,28.043404,0.0,-17.181311,-31.185471,-57.917348,-38.824553,-63.852736,-41.252764,-56.418387,-39.020116,-51.681019,0.0,43.256207,13.126888,38.293705,-2.10165,28.502827,-17.808037,15.69231,-32.283783,16.529331,0.0,-18.616483,-47.232581,-30.218058,-49.380075,-27.951602,-46.177823,-20.607224,-38.15666,-27.90637,-2.024403,138.813506,-22.515335,107.453683
57,-10.123386,-44.522047,-22.776775,-2.166853,0.0,35.291004,-23.436012,40.513401,-35.792141,38.727665,-38.724575,35.383358,-34.441795,24.245167,0.0,27.073727,-14.607647,29.152246,3.387411,51.783463,22.898257,58.67555,41.336467,64.481509,0.0,46.896744,31.535912,36.695709,46.047935,46.88839,53.301659,39.770737,54.873161,40.046196,0.0,3.41452,-6.325867,12.262613,7.622594,26.910552,21.44104,29.845888,33.358869,33.578145,-12.995853,92.851053,-46.140175,103.846424
58,2.623043,39.298209,17.139187,7.364601,0.0,26.099854,-6.779823,29.103241,-21.479473,23.630447,-34.108315,8.960609,-44.00671,-13.665047,0.0,-30.44496,-26.108043,-4.698774,-24.51513,3.194966,-17.436464,6.953745,-7.400694,9.736311,0.0,37.763729,12.671127,47.205219,5.603771,42.497234,-2.456017,33.148785,-9.891529,19.791584,0.0,-8.915771,-2.067651,10.328837,3.768936,20.72032,10.924049,27.954936,19.538911,34.499461,-11.218672,131.25876,-29.846849,110.320523
59,-8.144245,39.182365,-4.888,3.344001,0.0,31.229496,-27.746658,20.973415,-19.587135,25.924015,-7.759151,32.166653,5.571442,32.900791,0.0,1.672757,-29.576564,-13.066264,-42.549121,-16.923874,-48.192368,-17.254424,-47.516633,-19.929297,0.0,41.780949,15.257778,54.843693,6.452751,51.51289,-3.887329,41.462574,-13.378143,19.286327,0.0,-3.674242,-3.431594,22.186244,3.684246,32.189965,11.645171,38.932832,20.286925,41.545245,-20.206547,169.360941,-35.57848,112.584339
60,11.003666,0.340677,9.270573,15.763028,0.0,14.211617,-25.688381,15.474358,-25.526447,17.042656,-21.410122,16.592445,-14.715557,16.522751,0.0,-26.146699,-38.531979,-19.655959,-45.631887,-21.145194,-46.868871,-21.328592,-43.222293,-25.758783,0.0,29.751663,16.490364,24.778862,21.920242,28.133583,25.018044,31.808739,26.256294,32.341919,0.0,-18.392792,1.868351,15.338648,21.040805,26.362918,37.532827,36.588231,51.573574,46.454588,-9.626856,168.943338,-26.731882,127.589087
61,-40.546989,-17.291721,-2.821255,-9.664017,0.0,43.756943,0.516129,56.593552,16.030655,63.713264,29.611988,67.014771,40.649872,67.444725,0.0,12.550648,-22.36109,2.708373,-35.170225,-0.533524,-41.46781,-4.952043,-42.974335,-13.257289,0.0,32.826462,26.372681,30.390473,31.528073,32.401543,33.227921,34.981099,32.198124,34.337998,0.0,-16.498984,7.616945,14.508491,25.317762,24.757423,39.981895,34.570598,52.025355,45.019895,-50.405245,151.55453,-29.784537,117.827983
62,8.413925,-6.225059,-2.821254,-9.664016,0.0,28.818398,-9.135876,49.425087,4.322433,54.338951,16.389713,56.921997,26.594124,54.528694,0.0,4.964486,-24.906782,-3.458486,-34.767828,-7.122354,-39.029502,-10.867177,-39.200366,-18.035288,0.0,35.90126,36.254997,36.002083,41.135902,36.669502,41.437798,38.153458,38.139954,36.334076,0.0,-14.605177,13.365537,13.678334,29.594719,23.151928,42.430962,32.552965,52.477136,43.585201,-42.086563,145.392642,-32.701035,108.227137
63,3.967094,-2.898256,-2.849102,-3.012484,0.0,18.151016,-16.232243,45.220184,-1.588383,49.294853,11.924629,52.56031,23.446026,49.745636,0.0,-6.373384,-28.151766,-11.286215,-38.908039,-15.160498,-44.419356,-17.900858,-46.036352,-25.756436,0.0,37.846737,36.087055,36.016636,42.238788,37.703876,43.72221,40.033741,41.5806,38.955555,0.0,-15.117036,14.386138,10.685189,30.55044,19.285436,42.866292,29.057645,52.218886,40.686688,-38.00683,142.464391,-35.437498,105.184658
64,29.113197,-8.374498,-2.849102,-3.012483,0.0,16.008224,-24.713001,19.779282,-34.406662,15.345039,-40.327377,7.455597,-43.36195,0.293541,0.0,-36.543956,-37.862636,-20.606205,-40.308384,-16.539169,-36.833441,-12.889966,-29.994336,-16.689407,0.0,39.792213,35.919113,36.031189,43.341674,38.73825,46.006622,41.914024,45.021247,41.577034,0.0,-15.628896,15.406738,7.692043,31.506161,15.418944,43.301622,25.562324,51.960635,37.788174,-8.872204,134.113173,-38.265171,102.195455
65,-35.501347,-2.420771,-2.849102,-3.012484,0.0,25.632076,-12.527504,47.511921,3.538227,54.490871,18.384304,58.283672,31.330204,56.64854,0.0,9.473748,-23.575566,-6.443223,-34.642753,-9.374083,-41.297348,-14.061989,-44.686643,-21.920563,0.0,41.73769,35.751171,36.045742,44.444561,39.772625,48.291035,43.794308,48.461895,44.198513,0.0,-16.140755,16.427339,4.698898,32.461883,11.552452,43.736952,22.067004,51.702385,34.889662,-44.390059,131.728403,-41.130781,99.218972
66,38.410435,10.93961,0.116958,0.990523,0.0,11.977386,-21.525021,18.05603,-34.690361,11.197357,-44.635735,1.407623,-52.411022,-9.018574,0.0,-27.156133,-43.200434,-25.495819,-49.411877,-25.509589,-48.131359,-23.211115,-42.4242,-26.613748,0.0,42.532482,36.345463,38.563671,44.224148,40.72649,47.190285,43.272801,46.417465,42.734356,0.0,-16.587766,16.065111,7.101019,32.595449,15.144412,44.684636,25.670696,53.452561,38.058508,-5.975189,142.718185,-41.009388,100.259667
67,-17.02795,-21.947856,0.116959,0.990523,0.0,30.603848,-15.882969,38.103161,-18.386879,34.559155,-19.743748,29.126987,-20.874252,15.164509,0.0,0.107878,-21.653863,-1.18005,-15.374371,7.177961,-6.194493,15.006801,4.255591,15.832898,0.0,43.327274,36.939754,41.0816,44.003735,41.680355,46.089535,42.751293,44.373035,41.270199,0.0,-17.034777,15.702883,9.503141,32.729015,18.736372,45.632319,29.274388,55.202738,41.227354,-23.00952,120.583997,-40.898809,101.063858
68,-14.069653,6.087695,0.689249,3.212364,0.0,29.342537,-4.803658,52.092819,-1.611385,52.579079,-0.40947,47.584076,-0.721207,34.51664,0.0,12.142848,-20.369454,-0.14536,-19.716351,4.302367,-15.061697,7.882193,-9.551832,4.443899,0.0,42.172251,32.91295,40.747003,40.186243,42.120352,43.259096,43.246107,42.832289,42.982263,0.0,-17.810779,15.871956,7.495744,32.252673,16.402361,44.398114,25.91654,53.069833,37.071907,-37.065697,126.55926,-40.196085,104.16379
69,8.498096,-4.812611,0.689249,3.212365,0.0,43.816967,-4.085598,52.873249,-12.527332,44.949703,-21.290474,29.329548,-29.108963,5.942688,0.0,4.527139,-18.3613,-1.129137,-12.721573,8.888972,-3.360025,15.701957,7.447563,19.17304,0.0,41.017227,28.886147,40.412407,36.368752,42.560349,40.428658,43.740921,41.291542,44.694328,0.0,-18.586781,16.041028,5.488346,31.77633,14.068349,43.163908,22.558691,50.936927,32.916458,-28.556099,121.674062,-39.495335,107.303567
70,-12.139435,17.928985,8.937521,5.767396,0.0,23.871117,-10.867138,47.835217,2.17392,53.021336,13.443947,54.821491,22.603226,49.913692,0.0,3.3482,-25.46621,-8.75766,-32.993369,-10.686866,-35.676856,-11.402924,-35.520103,-20.244008,0.0,32.169943,14.874115,32.165995,18.731031,32.091494,21.294508,32.908316,22.156963,32.863912,0.0,-24.808182,8.574585,2.605898,22.330585,10.632494,32.616722,17.698548,40.460136,27.101592,-40.717821,139.487234,-30.580101,112.955151
71,9.065838,9.22403,8.937521,5.767396,0.0,9.500427,-27.905674,33.105927,-12.031288,39.467697,4.381371,45.106201,19.861679,44.476089,0.0,-7.400787,-30.97802,-13.948584,-43.477786,-18.278462,-49.709452,-21.694186,-51.638751,-29.75882,0.0,23.322659,0.862083,23.919582,1.093311,21.622639,2.160358,22.07571,3.022385,21.033497,0.0,-31.029582,1.108142,-0.276549,12.884841,7.19664,22.069535,12.838405,29.983345,21.286726,-31.721706,148.174884,-21.712303,118.186167
72,-0.112953,-2.628221,-2.907143,-4.45415,0.0,33.715782,-18.611069,32.463684,-16.556396,38.298569,-10.980835,39.993324,-2.836075,37.64122,0.0,-12.711878,-25.889447,-6.769265,-39.235286,-9.49144,-45.792099,-13.44572,-46.925651,-20.635135,0.0,25.491428,3.259335,21.980953,6.283207,22.295666,9.668827,24.840603,12.465305,25.884533,0.0,-27.340273,-0.321565,4.504384,14.412052,15.020602,27.151409,23.079371,38.439292,32.954898,-31.888132,145.199178,-24.672918,113.384532
73,-2.409153,4.764168,-15.883884,-9.139987,0.0,-6.410408,-25.886478,30.385723,-9.988117,40.144672,6.457901,47.278118,22.497768,48.649578,0.0,-10.81824,-34.599991,-12.573465,-48.418158,-14.916399,-54.951043,-22.021308,-57.172206,-30.769057,0.0,41.86718,34.018478,42.707291,39.576416,44.650726,41.627197,45.273972,40.003395,44.341621,0.0,-18.70349,10.707027,9.01204,28.807648,19.241922,43.791571,31.55372,55.752378,45.265615,-34.250708,149.851901,-40.510225,104.133101
74,10.345631,-17.123513,0.096674,1.36504,0.0,37.033653,-12.985039,36.60244,-21.694851,34.708786,-27.507534,25.911255,-31.109505,14.970016,0.0,-9.423823,-24.187883,1.363017,-28.197863,8.523595,-26.256553,7.864069,-20.661009,1.237633,0.0,42.672872,35.018835,42.586756,40.232763,43.580904,41.592779,43.395624,39.379778,41.542997,0.0,-19.091144,10.479415,9.261435,28.978542,20.161139,44.629662,32.768458,57.161383,46.927333,-23.816071,132.5859,-40.324545,105.355651
75,-14.242458,19.346342,0.096674,1.365039,0.0,10.2812,-18.459263,41.722927,-3.317184,48.636761,10.54533,51.339855,22.629147,50.134449,0.0,-8.985704,-33.338708,-14.074463,-43.236897,-18.209702,-47.421877,-21.316674,-47.759498,-28.709372,0.0,43.478565,36.019192,42.466221,40.889111,42.511082,41.558361,41.517277,38.756161,38.744373,0.0,-19.478797,10.251803,9.510829,29.149436,21.080356,45.467755,33.983197,58.570389,48.589053,-38.012695,151.678324,-40.182037,106.466772
76,21.971283,-10.010236,1.24011,3.788727,0.0,25.939693,-12.318363,30.804234,-25.385571,26.059513,-36.332417,15.536213,-45.150833,-1.36385,0.0,-42.21533,-41.123397,-21.974255,-38.379857,-12.392752,-29.067,-3.812779,-17.062472,-4.456929,0.0,42.871485,37.617102,40.808745,42.547903,42.091112,42.893572,41.788302,39.82913,39.226942,0.0,-19.860322,12.916812,9.057273,32.090007,20.507713,47.744956,33.57109,59.69542,47.829585,-16.053085,140.665493,-38.9536,109.252904
77,-9.658871,20.945863,1.240111,3.788728,0.0,-15.942249,-33.425446,25.799561,-18.138142,33.664284,-2.077389,40.699196,12.934685,40.220604,0.0,-15.496698,-34.174747,-19.843896,-46.938125,-23.998248,-54.263576,-28.353319,-57.483922,-35.58528,0.0,42.264404,39.215012,39.151268,44.206696,41.671143,44.228783,42.059326,40.9021,39.709511,0.0,-20.241847,15.581821,8.603716,35.030576,19.935071,50.022156,33.158983,60.820451,47.070116,-25.778275,160.774361,-37.779808,112.204636
78,0.383778,-11.614511,17.961674,32.580999,0.0,32.499676,-21.633339,32.777767,-22.291203,35.451908,-18.668747,33.429165,-12.316704,27.883587,0.0,-19.281597,-33.147992,-8.655895,-36.520213,-3.549012,-33.042337,-3.923096,-25.740381,-8.161521,0.0,24.99464,-1.28088,23.229733,-1.584492,17.114811,-0.732136,21.196461,0.037251,10.319538,0.0,-26.585374,-5.695673,-5.400629,-9.192228,-7.388313,-12.982808,-7.075609,-16.21748,-11.861112,-25.40082,147.815759,-19.824457,143.441545
79,23.191051,33.787726,-6.455956,5.186849,0.0,-43.043118,-56.002007,-15.482941,-40.862331,1.893654,-23.687553,14.927902,-5.747108,15.181046,0.0,-31.61831,-36.728157,-38.627044,-51.417932,-38.973433,-61.278392,-40.855246,-66.541904,-52.387907,0.0,39.322758,27.950878,36.794872,18.432598,26.654835,7.179337,14.666004,-5.490761,1.378098,0.0,-50.135129,-9.361733,-8.612145,-2.69485,-3.984939,3.192496,0.678143,10.190362,5.939216,-2.249222,180.787036,-26.319866,147.811946
80,11.140594,-9.248236,-4.522991,-17.566757,0.0,-20.816574,-55.921497,-5.662079,-60.503998,-4.169884,-58.792305,-2.846718,-51.862335,-16.372719,0.0,-52.82723,-40.585273,-28.589144,-40.451954,-18.710066,-36.280065,-16.570908,-28.021936,-28.188785,0.0,43.162537,14.146214,47.067375,-0.035934,37.627258,-14.400272,28.039398,-26.564884,8.076725,0.0,-26.649286,-13.171826,14.706663,-6.896687,23.29312,2.088028,27.757736,14.212537,28.640891,8.845081,169.519562,-30.889149,128.22595
81,-7.524719,14.768167,-7.522888,8.387898,0.0,-22.281075,-53.066769,-11.351852,-50.958652,-1.042442,-43.235607,7.198563,-31.067677,6.127396,0.0,-56.180247,-36.363644,-34.820193,-44.85269,-27.790402,-49.100747,-25.99223,-48.333684,-36.280961,0.0,45.846519,12.589245,52.542229,-0.193405,48.973961,-13.026752,37.552757,-23.649387,17.096157,0.0,-30.115244,-25.555285,18.890223,-21.20679,23.34323,-11.820912,28.099185,1.149206,24.024152,1.4219,181.264676,-38.310499,133.590795
82,7.663879,-24.581666,-2.390156,2.901281,0.0,-6.832237,-46.447105,-2.528343,-57.939606,-7.596931,-63.295841,-14.327545,-64.468002,-40.243721,0.0,-47.907359,-31.442476,-4.948493,-20.05959,8.58658,-5.881047,15.88412,9.995848,16.943325,0.0,44.559345,5.627518,52.199879,-7.088413,47.368069,-18.131104,37.34602,-25.904102,18.848534,0.0,-22.176827,-21.072452,25.149183,-14.053159,31.806001,-2.667093,36.722445,10.779924,35.084639,9.293032,152.645382,-40.493402,132.454448
83,-3.160057,73.843921,-4.880733,16.41786,0.0,-62.115326,-61.634731,-28.029385,-47.298889,-9.239616,-31.989784,3.276443,-15.246391,-1.947899,0.0,-20.367756,-48.905091,-52.49668,-65.968644,-51.099145,-77.994908,-56.386895,-85.612747,-96.552419,0.0,49.051552,30.265617,55.035782,16.801815,45.724525,1.428509,32.432213,-14.325714,18.265686,0.0,-36.525616,-13.225765,24.826568,-7.347743,34.27154,1.179062,37.858128,12.546757,37.252048,6.639204,220.731726,-44.867907,143.114731
84,-13.84964,-1.46262,-4.746265,11.124398,0.0,-58.323784,-45.972748,-9.398518,-36.164703,2.402687,-22.964058,15.543137,-7.122173,11.654549,0.0,13.856113,-44.213048,-27.387419,-61.734419,-31.192974,-73.425995,-38.409991,-80.597317,-74.941473,0.0,50.872478,15.860825,62.732677,2.416878,57.223148,-10.750294,49.568081,-20.597305,27.540035,0.0,-31.898843,-20.91153,28.088719,-14.090209,36.98084,-2.150643,42.211347,14.265395,40.792075,-6.927996,214.729185,-49.331732,149.699208
85,-24.384785,-51.437723,-4.89933,3.543424,0.0,25.566616,-12.856293,31.25433,-15.252457,32.51215,-14.557228,33.382816,-11.525688,25.982723,0.0,-11.20875,11.974208,43.466238,12.253443,48.502293,9.462757,42.23932,5.172462,25.257462,0.0,52.546978,15.091782,73.349018,2.105255,70.030346,-10.483761,57.118092,-19.815903,30.697918,0.0,-21.443572,-10.067231,37.777605,0.169628,51.085498,12.229916,54.011727,26.339515,57.372431,-31.50773,160.18378,-54.426012,150.13495
86,16.901035,93.569164,1.681423,8.713601,0.0,-36.905308,-0.603619,-11.705704,1.194305,-2.859135,0.35614,3.826218,-1.165695,8.93795,0.0,30.005637,-1.754267,3.747818,-30.51094,-28.545239,-55.297988,-50.431932,-76.525865,-82.119959,0.0,52.980995,15.885143,67.662392,4.100246,58.999672,-8.838902,45.89859,-20.155792,20.856743,0.0,-14.36611,2.420554,45.191175,11.508795,57.016934,20.005651,57.72305,28.607916,58.612688,-14.604807,251.777934,-52.742701,156.873541
87,-8.563156,14.174066,-1.231327,15.81743,0.0,-19.812813,2.25174,4.835129,2.93993,8.780422,1.604404,15.293312,0.15358,16.509247,0.0,40.818875,3.552007,12.487354,-25.290622,-14.272867,-51.28594,-39.405964,-74.511752,-78.963525,0.0,52.185574,21.785431,69.418087,8.798046,56.550694,-6.239891,37.988091,-20.495911,6.580925,0.0,-9.216619,8.905768,45.686907,14.727535,56.891704,20.105131,55.808355,23.716604,49.248115,-22.965202,264.47067,-53.771267,171.20964
88,-1.072826,15.663486,4.313908,18.892292,0.0,-17.98605,2.655659,15.973263,3.225574,21.660175,0.995522,26.085835,-1.691437,18.89677,0.0,42.746599,2.210603,9.83857,-25.445307,-12.531258,-50.246742,-37.679299,-72.299667,-75.337232,0.0,47.175407,20.643253,64.197578,9.881744,54.353943,-2.573833,33.988953,-13.962078,8.655739,0.0,-9.808868,8.090724,45.181665,11.715535,53.444735,15.140028,47.714543,16.652604,38.643964,-23.848257,278.335073,-49.267588,188.302849
89,48.152332,18.603114,2.173119,15.235,0.0,-66.79945,-56.792278,-43.807468,-59.8423,-25.295448,-57.519722,-18.014603,-51.106167,-25.984726,0.0,39.307904,0.450284,12.613571,-23.986145,-6.692077,-46.900549,-29.243884,-68.158067,-55.327258,0.0,45.699577,19.31757,60.247192,13.092499,56.524086,6.631966,44.485359,1.032829,27.858524,0.0,-7.594436,10.659171,44.66043,13.87433,49.04934,16.613146,45.465655,16.871077,38.018741,24.55905,295.977706,-46.839495,202.577367
90,1.52916,12.226273,-8.615742,21.157544,0.0,-77.129059,-60.857162,-21.306725,-63.314552,-12.299881,-58.886776,-12.908478,-50.680904,-26.517677,0.0,37.663244,-12.370954,1.937234,-33.009053,-11.061413,-52.471178,-29.419131,-68.534003,-60.293905,0.0,56.882687,32.805347,78.503437,24.285164,70.851688,13.203793,59.930935,-0.188026,43.99538,0.0,-0.128441,21.672172,60.932466,37.789338,83.007436,52.040345,96.690956,64.423587,98.644616,26.370535,307.455919,-55.172911,222.986851
91,-6.31691,0.750885,-1.371861,10.277924,0.0,-71.83176,-43.278809,-28.337975,-42.204494,-22.157478,-37.604027,-21.970024,-28.875046,-28.035507,0.0,37.582968,-1.739015,11.054682,-17.491051,-1.10947,-31.862533,-16.480938,-43.769063,-38.420983,0.0,61.6745,23.945446,78.443985,11.774483,73.478851,0.463543,61.112709,-9.660187,40.113087,0.0,1.991389,17.484691,61.631975,33.396475,79.916395,47.539296,87.885471,58.265651,88.195458,20.100517,307.584576,-56.497879,232.642547
92,-0.864544,9.09846,-1.72102,11.477549,0.0,-66.925764,-46.865301,-36.320028,-47.348585,-18.989754,-43.061943,-17.91235,-34.886398,-29.941177,0.0,39.794034,3.560128,14.469326,-14.170731,1.115244,-31.632544,-15.745706,-47.375657,-38.217175,0.0,64.382343,24.461803,78.943806,12.693558,76.076603,1.33564,62.906742,-9.62122,41.47871,0.0,2.598087,19.789402,60.495582,34.38195,80.547793,47.239744,88.76492,56.821432,89.415893,19.213343,316.067816,-58.241529,243.504876
93,-0.864544,9.09846,0.566139,9.805471,0.0,-62.019768,-50.451794,-44.302082,-52.492676,-15.822029,-48.519859,-13.854675,-40.897751,-31.846848,0.0,42.0051,8.85927,17.883969,-10.850412,3.339956,-31.402555,-15.010475,-50.982252,-38.013368,0.0,63.700047,23.973427,79.493237,12.184067,75.642414,0.749702,63.448277,-10.499783,42.310982,0.0,3.230596,20.992608,63.311709,35.435474,83.56393,47.782839,92.66273,57.241273,91.288413,18.329515,324.925666,-57.694674,253.069737
94,-6.687698,9.380752,1.253128,5.896053,0.0,-59.008255,-41.56683,-44.857235,-39.903717,1.626778,-31.681595,5.033455,-20.244255,-9.205055,0.0,33.140705,-0.358399,6.318302,-19.385739,6.503986,-38.278895,-10.146642,-54.354442,-35.21626,0.0,64.188251,22.978764,81.783428,11.086006,76.80891,-0.127831,62.054844,-10.69725,43.222504,0.0,7.838536,22.206066,66.121291,36.980901,83.886823,49.196677,92.43024,58.640044,92.671128,11.594524,334.317719,-56.488838,258.977091
95,-2.655144,-0.904952,1.486931,4.968315,0.0,-57.161007,-44.597282,-10.8498,-42.237396,11.666565,-34.177094,18.664284,-24.594612,-0.714455,0.0,30.211327,0.069407,21.33168,-14.781011,15.303481,-30.970487,3.004158,-45.938231,-23.543827,0.0,63.686543,21.261177,82.18935,10.672073,79.274311,0.489578,64.798794,-9.431534,45.194149,0.0,8.77214,22.841354,61.549167,38.49107,81.811268,51.028688,91.116129,60.263771,92.223808,8.873434,333.299655,-55.067854,263.832294
96,-12.447968,-59.616565,0.522709,3.692428,0.0,-12.768173,-20.436401,25.639687,-31.058979,28.918419,-40.027771,15.024719,-47.522221,-58.270111,0.0,13.81474,23.220316,60.207084,39.690695,70.215714,50.723209,76.032603,60.02103,84.580219,0.0,63.756866,22.868099,85.148849,13.266277,82.795944,3.97728,68.029518,-4.998207,47.945595,0.0,6.725731,24.944696,60.906901,41.412914,80.384463,54.25842,89.257442,63.770638,92.67224,-3.556595,273.609298,-54.527206,267.45093
97,-13.423977,9.984362,6.492462,0.835915,0.0,-11.13287,-8.43132,53.785114,-17.471638,55.037785,-22.756977,40.600147,-25.098209,-30.490093,0.0,35.539215,19.457925,55.874675,31.957752,64.5482,39.859706,68.037221,47.124148,68.945879,0.0,67.141457,31.553192,84.62368,21.548309,77.973061,11.520023,65.128441,1.068592,51.181641,0.0,6.965199,38.239375,59.229204,55.719311,69.749128,67.358399,81.647691,74.697744,88.15532,-16.95096,283.41514,-48.005133,268.108325
98,-2.703896,-10.645401,-6.455841,1.036851,0.0,12.197971,-3.581486,52.548008,-13.65366,56.40707,-23.412323,37.619419,-31.704483,-40.110912,0.0,10.683254,23.382535,54.468062,41.391672,68.859922,53.552057,76.152646,63.218034,89.742862,0.0,70.371552,31.415577,91.550789,22.359924,90.354881,12.788486,76.70929,2.965794,55.679054,0.0,8.759913,32.677824,59.172456,48.812095,74.60339,59.287003,85.213531,65.711083,88.305991,-19.673223,272.714473,-54.479342,269.089909
99,-2.413902,0.90594,0.255375,1.680105,0.0,3.769684,0.018311,55.088825,-8.74094,55.970135,-17.995548,35.249691,-25.768833,-34.25806,0.0,24.154723,27.32641,48.663585,44.217803,62.350564,55.824163,69.282912,64.886592,88.194841,0.0,68.704891,31.71896,92.371731,22.241993,91.476803,12.653389,77.767582,3.539028,54.329052,0.0,10.367215,32.720123,58.904397,49.832953,72.772614,61.113148,81.902041,67.417618,84.609241,-22.00593,273.560701,-54.142771,270.710302
100,3.170528,2.196647,-1.415863,2.243825,0.0,10.294991,-6.444168,52.704964,-14.681225,54.194641,-22.76247,35.590897,-29.679909,-37.386131,0.0,15.324723,21.950481,46.551783,42.336823,60.798097,56.027446,70.443264,65.793705,86.590009,0.0,69.501171,31.722679,93.666859,22.556934,91.114941,13.273315,78.143978,4.449005,56.315861,0.0,11.066909,33.166455,58.009696,50.062418,70.867243,60.849103,80.726437,66.873658,83.318596,-18.742676,275.711329,-55.465908,272.908107
101,13.666306,0.093799,0.546799,0.948733,0.0,-12.292042,-20.612526,34.362259,-28.997097,32.975578,-34.772243,16.662712,-37.893333,-52.738266,0.0,11.596666,26.515256,47.392453,45.671407,59.658493,58.030691,68.531348,66.410222,83.663472,0.0,69.11459,28.68021,92.21529,19.449177,90.05476,10.512199,76.515484,2.130032,53.095379,0.0,12.491491,33.942102,55.297617,50.707277,70.33057,61.128462,80.655115,66.61091,82.520472,-4.909029,275.740768,-54.751768,273.792481
102,-7.786846,30.593315,0.090351,0.940644,0.0,-36.354046,-21.092377,37.39603,-23.54147,43.141651,-21.544304,37.477398,-17.172375,-6.864395,0.0,41.398464,12.455058,24.006152,19.411119,28.804097,24.321635,32.679368,29.036587,37.459529,0.0,68.978348,29.800529,92.504997,20.734921,90.211945,11.474304,76.76548,2.866058,54.227371,0.0,12.872244,32.560066,54.932858,50.195551,69.428335,61.431471,79.794562,67.608612,82.082167,-12.533598,306.184246,-54.49914,274.583288
103,13.357944,-27.236192,1.281338,1.483801,0.0,-26.354485,-30.149574,27.350578,-37.4366,26.757317,-40.418873,12.904129,-40.291958,-58.401375,0.0,19.451195,23.708577,44.883657,43.273948,56.852061,56.053257,64.132187,64.718754,79.774122,0.0,68.230076,28.335571,91.434231,18.998566,89.207096,9.885006,74.865818,1.496944,52.592525,0.0,12.330693,32.629535,53.266399,49.982512,68.614403,60.840211,78.819276,66.557805,80.965041,1.02416,278.794388,-53.017988,275.913422
104,-8.600578,16.889479,-0.333252,1.375614,0.0,3.813057,-20.416775,46.139374,-27.772236,43.970146,-29.595394,30.869751,-26.293945,-48.677044,0.0,8.040521,13.140364,37.197954,32.382904,44.633013,45.885681,53.415033,56.511754,64.821136,0.0,68.306065,28.697319,91.698589,20.30365,90.173435,11.58474,77.084599,3.426476,56.211262,0.0,12.404299,31.309558,52.530705,48.97456,66.945783,60.646685,78.148604,67.494929,81.045995,-7.415342,295.606725,-53.190165,277.211895
105,7.783699,-16.282657,0.652142,0.09948,0.0,-21.383572,-28.213348,27.68692,-36.037216,28.75351,-40.521355,15.097618,-42.207584,-58.857536,0.0,20.805319,23.531353,46.181898,42.128972,56.428761,54.53889,64.971869,63.572173,80.790781,0.0,67.404099,26.474419,89.78302,17.557583,87.816238,8.864365,74.998055,0.952148,53.548851,0.0,12.824326,32.021294,53.161979,49.709205,68.634039,61.104873,79.087272,67.478627,81.191294,0.467062,279.195904,-52.439318,277.183212
106,-9.16008,16.444073,-0.112209,0.041682,0.0,-7.382298,-18.640308,45.073013,-26.751823,41.403351,-28.893242,29.559517,-26.600647,-32.202015,0.0,14.291145,12.7945,34.399858,31.773242,41.406368,45.127695,50.750996,55.559377,58.567919,0.0,67.997189,26.448498,90.3792,17.748184,88.329563,9.23893,76.30022,1.469421,55.139294,0.0,12.546078,31.239039,52.456728,49.185438,66.903484,61.20707,78.389307,67.968617,81.305285,-8.593483,295.549899,-52.451992,277.134815
107,5.679703,-10.546847,0.741119,0.313507,0.0,-33.729229,-28.139076,29.171562,-34.559155,30.910378,-37.3209,18.184319,-37.772655,-53.711472,0.0,37.556848,17.254979,42.362697,33.410554,51.178865,45.133067,58.373282,54.747545,74.955799,0.0,68.159695,25.443935,89.512653,16.539173,87.251644,7.963486,74.489994,0.428009,53.961124,0.0,11.685154,30.45765,52.541388,48.384227,66.556632,60.324286,77.656701,66.961653,80.709888,-2.763147,284.947029,-51.56024,277.392298
108,-13.307877,15.763522,-0.239582,0.105902,0.0,11.489754,-10.950623,49.975548,-17.313881,52.322159,-20.360355,39.075737,-19.391613,-30.713482,0.0,3.331373,10.132378,34.375405,27.002158,45.972873,39.761399,52.271106,49.18093,58.659557,0.0,67.31987,25.604038,89.501839,16.383362,87.0187,7.494335,73.792076,-0.295887,52.757263,0.0,11.761786,29.950802,51.922896,47.975933,66.594176,59.902407,77.657009,66.480741,80.30005,-15.834274,300.595463,-51.563072,277.383113
109,27.27356,-14.012465,-0.225334,-0.008769,0.0,-41.125603,-41.643333,16.7799,-49.150944,14.144325,-50.310402,0.520248,-48.075771,-73.579445,0.0,22.46974,16.330761,41.45688,34.00484,49.167531,46.915678,56.088146,57.539466,70.758747,0.0,66.873322,25.278912,90.160789,15.995522,88.705559,7.188892,75.50457,-0.453243,52.706451,0.0,11.897143,29.893621,51.146508,47.58672,66.72132,59.149917,77.366165,65.247338,79.581955,11.502857,286.539094,-51.724834,277.33044
110,-17.808495,9.664742,0.082512,-0.010559,0.0,0.394707,-21.15778,32.617493,-28.642502,38.799362,-30.583076,29.008484,-28.323097,-50.359726,0.0,2.758885,4.109552,32.143498,23.579024,47.470197,39.150193,56.193307,51.707695,62.211873,0.0,66.641808,25.076408,90.305214,15.7374,88.659782,6.900158,75.485687,-0.664616,52.524719,0.0,12.223309,29.515462,50.943225,47.311437,66.740092,59.065257,77.300833,65.337864,79.319763,-6.167765,296.196719,-51.50445,277.312764
111,10.285835,-11.340957,0.418282,-0.004631,0.0,-34.429607,-35.333805,24.308739,-41.917248,25.515518,-42.834206,11.486435,-40.693073,-58.777256,0.0,29.258333,17.935284,41.852144,35.618749,50.273172,48.132964,57.086774,57.579666,75.20311,0.0,66.643295,24.087811,89.50367,14.876461,88.190689,6.29528,75.340347,-1.009712,52.567062,0.0,12.728798,29.522748,50.751614,47.333729,66.536625,59.137196,77.248098,65.390043,79.207315,4.286814,284.838009,-50.917425,277.290379
112,-12.037125,14.83566,0.227509,0.040261,0.0,9.964142,-17.762489,41.233864,-24.258671,42.37896,-26.45422,28.106575,-24.290485,-53.78603,0.0,-1.651268,12.008541,34.364784,28.840345,46.041416,41.088354,52.33014,51.201836,58.285658,0.0,66.405258,23.932457,89.014206,14.75956,87.765541,6.242638,75.102539,-0.956326,52.867012,0.0,12.948629,29.551277,50.347396,47.50169,66.191316,59.404761,77.069516,65.750665,79.45512,-7.42753,299.666737,-50.367136,277.323709
113,6.444969,-13.462331,0.233116,0.269294,0.0,-25.918751,-29.325485,28.747559,-36.863308,33.132591,-40.132942,19.424858,-40.651474,-51.857471,0.0,30.716446,16.831742,43.899356,31.615964,49.502033,41.692273,56.520461,49.644244,75.13537,0.0,66.157036,23.90974,88.931236,14.846592,87.579231,6.402454,75.01133,-0.741062,53.078384,0.0,12.692241,29.529418,49.973126,47.633712,65.298776,59.722096,76.18031,66.233924,78.823413,-0.616722,286.20135,-49.768181,277.589946
114,-12.000618,14.358885,-0.797997,-0.19544,0.0,21.768494,-9.591637,52.086182,-17.401085,45.932808,-20.664368,28.599472,-19.722462,-41.124229,0.0,-0.263798,10.417048,32.322574,26.74503,40.633562,39.614063,49.879204,50.09144,58.127207,0.0,66.047974,24.805126,89.504585,15.646648,87.945099,7.067757,75.465546,-0.347843,53.17234,0.0,12.17749,29.726772,49.836349,47.922086,64.806625,60.052893,76.173147,66.495622,79.007985,-12.34663,300.564449,-50.295467,277.398721
115,16.08593,-17.767137,-0.303268,0.216373,0.0,-28.778343,-30.288448,25.158234,-38.772125,26.137047,-42.400017,9.453506,-42.436008,-58.957558,0.0,19.580747,19.024499,44.414354,37.275266,52.305131,49.540009,59.80441,58.721307,76.581317,0.0,66.287727,24.94915,89.309692,16.08427,87.822647,7.682133,75.787926,0.288048,53.992996,0.0,11.964698,29.493355,49.740698,47.725473,64.86887,59.908088,76.035135,66.457152,78.775371,3.987179,282.804985,-50.350857,277.622766
116,-11.261101,15.88764,-0.346756,-0.608056,0.0,5.289917,-17.349701,45.631943,-24.570694,42.393723,-26.407013,27.482986,-23.642521,-50.212784,0.0,4.642952,11.666752,34.319891,28.829291,41.601006,41.466945,50.092181,52.009408,60.312801,0.0,66.318626,25.307693,89.926872,16.108761,88.133354,7.248917,75.801888,-0.635548,53.07724,0.0,12.441226,29.356763,50.450519,47.483597,65.576838,59.629409,76.499004,66.172544,79.494331,-7.022324,298.72035,-50.446014,277.042436
117,9.290428,-17.762938,0.520992,0.439169,0.0,-20.27298,-31.446819,28.085289,-39.456367,30.413475,-43.022804,14.563866,-43.305187,-52.34951,0.0,17.483765,18.852401,44.448626,38.350402,54.677088,51.479898,62.414785,60.862565,78.278713,0.0,65.843182,25.435467,89.103527,16.226635,86.976528,7.386646,75.02306,-0.389557,53.402767,0.0,12.215775,28.651574,50.48794,47.135942,64.792793,59.743709,75.820058,66.774549,78.754746,2.619352,280.988349,-49.573774,277.512542
118,-11.283188,19.713325,-0.3899,0.228724,0.0,-6.759109,-18.189125,43.72467,-23.850117,47.403603,-25.067596,35.517426,-21.75642,-47.718601,0.0,16.340332,13.107328,36.269104,26.863776,41.173446,37.126571,48.603749,46.079331,57.016131,0.0,66.055355,24.732971,89.390087,15.713825,87.858982,7.157421,75.473728,-0.361176,53.352528,0.0,12.451291,28.156088,50.13411,46.648237,64.865412,59.137382,75.405651,66.128146,78.558133,-8.258343,300.713083,-49.558182,277.752674
119,12.089882,-17.233675,-0.332508,-0.437008,0.0,-27.242775,-32.648678,26.396828,-40.550308,29.343109,-43.806782,15.785637,-44.19548,-56.843548,0.0,24.078956,18.56662,43.932639,35.337229,51.311628,46.656697,59.208456,55.249576,77.452245,0.0,65.920944,25.474091,89.421501,16.343765,87.54982,7.454624,75.2005,-0.57272,53.404655,0.0,12.208859,29.032265,50.48547,47.121616,65.632475,59.329796,76.000925,66.14735,79.253443,4.16605,283.509341,-49.556179,277.3456
120,-13.638039,18.308874,-0.14946,0.358338,0.0,-9.730339,-17.131519,44.148102,-21.970367,48.934479,-22.613754,36.875153,-18.650723,-43.421116,0.0,14.988122,11.379242,33.104396,25.99822,39.414423,36.77836,47.359664,45.543955,55.338064,0.0,65.849762,25.632935,89.460869,16.72142,87.738304,8.016014,76.090164,0.308475,55.262947,0.0,11.870714,28.966624,50.212656,47.184046,64.930002,59.552036,75.57423,66.482099,78.787721,-9.183655,301.843022,-49.417305,277.728746
121,27.411232,-9.069715,-0.56963,0.070519,0.0,-52.648201,-45.826092,12.300797,-50.437317,13.823776,-49.606991,3.235703,-46.337471,-70.736904,0.0,35.793626,14.640282,36.396249,28.781311,42.832741,38.82798,50.238777,46.79755,66.532426,0.0,66.262035,25.578918,89.599857,17.14468,88.650455,8.757877,76.502895,1.162834,54.577961,0.0,11.998352,28.353072,50.234578,46.274153,64.869487,58.32666,75.088439,64.802735,78.10717,18.375721,292.782493,-49.838791,277.80845
