takenoko1/special-research/HandMotion_SimilarSearch_自分用/NewProject/handData/test_key/d4_feature_d2/86.csv
frame,vel_0x_L,vel_0y_L,vel_0x_R,vel_0y_R,posFromWrist_0x_L,posFromWrist_1x_L,posFromWrist_2x_L,posFromWrist_3x_L,posFromWrist_4x_L,posFromWrist_5x_L,posFromWrist_6x_L,posFromWrist_7x_L,posFromWrist_8x_L,posFromWrist_9x_L,posFromWrist_0y_L,posFromWrist_1y_L,posFromWrist_2y_L,posFromWrist_3y_L,posFromWrist_4y_L,posFromWrist_5y_L,posFromWrist_6y_L,posFromWrist_7y_L,posFromWrist_8y_L,posFromWrist_9y_L,posFromWrist_0x_R,posFromWrist_1x_R,posFromWrist_2x_R,posFromWrist_3x_R,posFromWrist_4x_R,posFromWrist_5x_R,posFromWrist_6x_R,posFromWrist_7x_R,posFromWrist_8x_R,posFromWrist_9x_R,posFromWrist_0y_R,posFromWrist_1y_R,posFromWrist_2y_R,posFromWrist_3y_R,posFromWrist_4y_R,posFromWrist_5y_R,posFromWrist_6y_R,posFromWrist_7y_R,posFromWrist_8y_R,posFromWrist_9y_R,posFromBody_0x_L,posFromBody_0y_L,posFromBody_0x_R,posFromBody_0y_R
2,-17.588768,4.451217,-2.889805,1.948287,0.0,-0.797081,-9.016056,23.671761,-15.72298,23.985443,-22.761383,12.171135,-30.671482,-4.010811,0.0,-16.064864,12.758932,19.357581,32.66288,34.922945,48.152354,44.456283,59.479047,55.260629,0.0,70.708122,23.545361,89.540863,14.330235,88.975868,7.156162,75.672798,2.294655,55.659828,0.0,13.977515,35.901504,56.524228,53.323827,68.496644,63.916616,75.906941,68.947361,76.856971,-1.575937,307.28027,-56.204767,290.544858
3,3.270607,-2.470572,1.623745,1.008014,0.0,-7.160912,-17.220669,21.218262,-25.248299,22.145691,-32.215462,10.883675,-39.169292,-7.10289,0.0,-16.320943,12.938193,20.508238,33.928393,37.756487,50.417359,48.624744,63.375621,59.184497,0.0,69.609432,23.737907,88.48875,14.263058,86.702328,6.55323,73.370762,0.828037,53.725605,0.0,12.511374,34.155758,55.897955,51.887327,66.550333,62.931759,74.95228,68.597792,76.916128,3.470278,302.637009,-52.805414,289.380184
4,-18.351917,12.783941,0.627422,-0.059095,0.0,25.06628,-4.562073,41.807041,-13.336315,46.86945,-18.409138,33.756008,-20.971642,13.041859,0.0,-10.987868,-4.473076,18.240639,14.859619,35.901443,31.740329,42.163305,45.342772,44.287087,0.0,68.562698,22.605572,87.583351,13.257408,86.461143,5.788651,73.956299,0.384693,54.45694,0.0,12.553612,34.088389,55.606061,51.797975,66.366811,62.818385,74.931037,68.221732,76.795962,-13.984365,313.588337,-51.280718,287.488475
5,10.462017,-11.912457,0.741348,-0.340862,0.0,1.784477,-8.838558,31.716156,-15.95438,33.489761,-23.946991,23.396416,-32.426033,3.283882,0.0,-17.892058,9.275159,20.630319,30.051332,38.69818,47.260122,50.256376,61.480933,59.965208,0.0,68.105965,22.891502,86.958046,13.482628,86.206284,5.673752,74.181175,0.017338,54.975471,0.0,12.954434,34.198737,55.860164,51.92765,66.301417,63.184936,74.60234,68.696222,76.933727,-3.166838,301.247409,-50.183859,286.719142
6,-11.668282,5.185429,1.173363,0.174815,0.0,30.116844,-8.239117,42.495346,-17.213516,47.645531,-21.01965,35.438919,-22.11937,17.574921,0.0,-2.106368,3.462284,24.757407,24.356709,41.560127,41.216671,46.567715,54.397296,49.297886,0.0,67.755203,22.076283,86.299324,12.551765,85.67997,4.88657,73.753166,-0.424061,54.878998,0.0,13.059656,33.195169,55.599021,51.251483,65.693299,63.015246,73.394008,69.022696,76.41632,-15.042915,306.60824,-49.218292,287.06936
7,-1.749973,-7.693978,0.321636,0.122636,0.0,18.147182,3.359241,49.841022,-3.023472,51.698055,-11.28273,41.92709,-20.696125,20.6991,0.0,-21.893362,7.135198,18.17469,28.892092,38.020593,47.459514,51.265933,63.043836,61.053929,0.0,67.416286,21.643238,85.920925,12.167187,85.764484,4.621811,74.011173,-0.609112,54.676495,0.0,13.096027,32.828372,55.059323,50.879561,65.72967,62.63369,73.786061,68.563397,76.629606,-16.918631,298.904459,-49.022398,287.182193
8,0.861282,-1.294597,0.28965,0.182905,0.0,18.85397,4.302578,52.02055,-3.894024,52.674351,-14.000187,40.471973,-24.840431,18.231869,0.0,-19.384936,7.556089,21.809999,29.111552,40.963803,47.333729,53.710879,62.623007,62.908294,0.0,67.534389,21.722202,86.136646,12.086391,85.628757,4.363003,73.396397,-0.962849,53.820477,0.0,12.228187,32.902843,55.000536,50.782304,66.411024,62.32537,73.650519,68.077668,76.145977,-16.19379,297.57221,-48.86919,287.327446
9,-7.981625,-2.646129,0.181274,0.167035,0.0,27.382851,4.415359,60.402374,-0.874844,63.198853,-8.077526,53.73642,-16.406765,32.215118,0.0,-19.176096,7.23721,24.227342,29.60358,42.465697,48.392933,56.255984,64.394441,63.382167,0.0,67.872334,21.298256,85.258427,11.980019,85.570049,4.66032,73.781261,-0.235233,54.738865,0.0,12.018977,32.47942,54.978738,50.506403,65.787469,62.251578,72.854371,68.19487,75.462894,-24.274063,294.828438,-48.786564,287.396838
10,-1.394005,0.863394,-0.298176,0.150239,0.0,27.04113,4.445915,61.033173,-0.839653,65.035057,-7.677841,55.38208,-15.729218,32.744064,0.0,-19.465088,8.086896,24.186278,29.83712,42.014919,48.219785,55.483177,63.992631,62.877234,0.0,67.214355,21.91555,85.646553,12.684231,85.649414,5.339355,73.947372,0.279465,55.066452,0.0,11.681572,32.845353,54.813124,50.875115,65.684839,62.605593,73.119774,68.540549,75.486174,-25.7654,295.769653,-49.182072,287.624897
11,-0.612659,-1.497447,0.788956,0.012782,0.0,27.566471,5.836029,62.648678,-0.083199,65.87122,-7.62022,56.397343,-16.352634,33.447132,0.0,-18.523148,7.999889,25.713242,29.679101,43.472414,48.330627,56.838352,64.273596,64.306138,0.0,66.579208,21.434784,85.458183,12.168617,85.492744,4.789295,73.527489,-0.196209,54.757004,0.0,11.374364,33.076176,55.175228,51.098404,65.979945,62.753053,72.363394,68.671645,74.868484,-26.456051,294.127741,-48.471107,287.493215
12,1.141949,0.065826,0.154209,-0.536364,0.0,26.457024,6.586189,61.623116,-0.244389,64.437332,-8.665123,54.123688,-18.055344,31.099319,0.0,-16.551025,8.839818,27.296214,30.173166,44.234969,48.412323,56.772094,64.119343,63.992878,0.0,66.513348,21.920357,85.247784,12.330666,84.940624,4.355278,72.652302,-1.426907,52.81889,0.0,11.637297,33.056045,54.506595,50.573587,65.724051,62.011431,73.372766,67.891861,76.21137,-25.344601,294.105279,-48.347397,286.868563
13,9.470787,4.318947,-0.811558,-0.082437,0.0,16.581917,1.389256,48.254814,-3.931503,52.799492,-10.319023,44.374695,-18.422642,23.486023,0.0,-17.023477,7.125627,17.003717,28.06513,38.275684,46.135709,50.637993,61.684277,58.67308,0.0,66.484222,21.901875,86.380234,12.955685,86.065292,5.543346,74.462128,0.146427,55.412292,0.0,12.081715,33.523928,53.900453,51.072963,66.444555,62.339696,74.945611,67.875682,77.747659,-15.891037,298.463515,-49.176178,286.825415
14,-1.406364,-1.686219,0.099049,-0.334934,0.0,19.091721,1.512394,49.551773,-3.763847,54.2696,-10.128365,45.511894,-18.129673,24.7649,0.0,-17.762938,6.699302,17.966715,27.846348,39.679147,46.298915,52.629073,62.291099,60.021339,0.0,67.086124,20.950699,86.285305,11.975842,86.304302,4.864826,74.64529,-0.05785,55.923672,0.0,12.486057,33.263774,53.903602,51.063762,66.667103,62.540262,75.057008,68.168071,77.958598,-17.381773,296.708198,-49.161501,286.421382
15,-0.940819,0.119178,0.350246,0.426201,0.0,20.470963,3.145981,51.199265,-2.332592,54.86721,-9.031105,46.461067,-17.403259,26.015968,0.0,-19.249085,5.892842,16.726828,27.206552,39.30142,45.866168,52.247209,61.981173,59.548948,0.0,67.118797,22.083149,86.733856,12.838097,86.211319,5.127983,74.282112,-0.419197,54.776573,0.0,11.915174,32.515976,52.751586,50.375122,66.045832,61.958696,74.149895,67.787071,77.097242,-18.452196,296.762893,-48.940859,286.7831
16,-1.533165,-1.033825,0.309048,-0.474737,0.0,23.103218,4.929714,54.257584,-0.293369,58.106461,-6.824627,49.667473,-14.903069,29.667206,0.0,-17.491607,6.999718,17.299625,28.190607,39.404173,46.805701,52.61697,62.723784,60.301994,0.0,66.515522,21.419621,86.884747,12.183266,86.121998,4.691963,74.247036,-0.661125,55.062046,0.0,12.617462,33.168431,53.496605,51.046472,66.651295,62.499691,75.069173,68.0802,77.862947,-20.279016,295.643173,-48.925467,286.222468
17,-3.372002,0.219399,-0.026493,-0.078547,0.0,26.193581,7.276554,58.577843,2.017193,63.239365,-4.716854,54.296494,-12.808342,32.739601,0.0,-16.16632,6.806933,17.339948,28.180603,39.006315,47.092964,52.426285,63.351785,60.911286,0.0,67.391968,21.833553,87.231674,12.588959,86.725731,5.013599,74.631958,-0.215321,55.224953,0.0,12.267769,33.303911,53.095721,51.180964,66.901817,62.680991,74.558312,68.370797,77.37092,-24.069643,295.820952,-49.370584,286.102302
18,7.003098,1.872952,0.377483,-0.174568,0.0,16.300278,1.813831,50.824699,-4.288616,54.270744,-11.090984,45.090523,-19.387951,23.385773,0.0,-15.493672,6.645209,18.556616,27.349875,39.87397,45.479117,51.903815,61.393927,59.502512,0.0,67.501087,21.470032,86.646481,11.850529,85.838184,4.057961,73.878422,-1.278191,54.459057,0.0,12.496987,32.870609,53.535384,50.768348,67.004693,62.494257,74.842364,68.364252,77.633853,-17.503653,297.498125,-49.430208,285.731954
19,-4.735107,-1.007705,0.068665,-0.17568,0.0,22.376976,5.66288,56.733856,0.287704,60.700951,-6.420765,51.75602,-14.452972,30.318146,0.0,-16.157798,7.407888,18.362535,28.295212,39.652224,46.459651,51.771051,62.271338,59.870606,0.0,67.34808,21.876812,86.957073,12.439384,85.902386,4.735222,73.557987,-0.699978,53.934917,0.0,12.736516,33.184486,53.368535,50.914264,67.509132,62.342537,75.58516,67.949536,78.149839,-22.579737,296.374113,-49.70252,285.439967
20,2.818394,0.864753,0.937214,0.387113,0.0,21.871319,3.896313,53.899899,-1.943951,57.316418,-8.847427,48.269863,-16.740189,26.701183,0.0,-15.978907,6.21382,18.028836,27.462569,38.629576,45.99924,50.854799,62.109491,59.175235,0.0,66.532288,21.945877,86.849327,12.163353,84.991722,4.160614,72.294388,-1.571388,52.838173,0.0,12.595479,32.701598,54.208278,50.588531,67.591136,62.180195,75.477035,67.994181,77.772668,-20.142317,297.154144,-49.14628,285.742359
21,1.419868,-0.309431,0.114956,-0.403971,0.0,18.236103,2.461681,52.495365,-3.155251,55.704174,-9.76141,46.008396,-17.629738,24.41431,0.0,-15.687322,7.091664,19.147259,28.118359,39.472345,46.287862,51.330339,61.963204,59.497263,0.0,66.854496,21.801796,86.440029,12.058296,84.96397,4.062481,72.548847,-1.682682,52.80035,0.0,12.896512,32.362526,53.698838,50.218461,66.760285,61.943382,75.42609,67.822577,78.249319,-19.137411,296.713076,-49.446287,285.206751
22,-2.239723,-0.569895,0.059795,0.196984,0.0,21.514721,5.583515,55.88007,-0.048409,59.384136,-7.253036,49.512806,-15.669136,26.984768,0.0,-16.06122,7.227145,19.782671,28.351837,40.327218,46.697699,52.236217,62.556378,60.653045,0.0,66.527939,21.468086,86.826668,11.733112,85.539436,3.84264,73.100166,-1.81572,53.447685,0.0,12.828772,33.215855,53.811347,51.04005,66.949056,62.462518,75.464314,68.050683,78.231165,-21.789923,295.981087,-49.79928,285.24164
23,-0.99884,-0.71649,-0.24765,-0.285843,0.0,20.266972,7.169895,57.990932,1.292667,60.443516,-5.938168,50.153904,-14.49297,28.520222,0.0,-14.739576,7.944623,20.653413,28.71882,40.99264,46.727648,52.56158,61.979197,60.490148,0.0,66.899185,22.080345,86.996269,12.369747,85.745201,4.327812,73.567314,-1.353722,53.95031,0.0,12.434372,32.540244,53.017607,50.44737,66.232751,62.068365,75.152351,67.792813,78.212393,-23.189707,295.177544,-50.447874,284.868745
24,-1.114941,-0.633683,-0.073471,-0.269602,0.0,22.603569,8.437214,60.257378,1.51886,60.797081,-6.848602,50.253296,-16.652184,28.513756,0.0,-16.786294,6.412286,22.991778,27.013953,43.210468,45.126645,54.426257,60.685403,61.115494,0.0,66.365547,22.527122,86.917877,12.690239,86.082802,4.444828,73.830643,-1.707172,53.787804,0.0,12.869465,32.708637,54.095213,50.770324,66.659261,62.458133,75.777636,68.221299,78.93444,-24.650402,294.476476,-50.8671,284.531758
25,2.164764,-0.419656,-0.216465,-0.244099,0.0,20.420151,5.79483,56.817398,-0.482254,58.445206,-8.502045,48.550758,-17.964077,25.948105,0.0,-19.323618,7.106361,21.885458,28.357889,41.306641,46.990211,53.566939,63.04186,61.855017,0.0,66.710072,23.48156,87.233677,13.979988,86.526318,5.848274,73.809643,-0.265675,54.158192,0.0,12.531876,33.675155,54.594095,51.207394,67.773609,62.527479,76.207048,68.121758,78.830144,-22.751369,293.977965,-51.349297,284.208803
26,2.163563,-0.572179,-0.864029,-0.196119,0.0,18.406506,2.82526,55.077381,-3.36525,57.672443,-10.937176,48.238277,-19.844971,25.286694,0.0,-15.994345,8.027739,22.498145,28.976443,42.199861,47.184663,54.581127,62.948987,62.528529,0.0,67.322445,23.433495,89.281712,14.074173,88.316174,6.246185,75.978184,0.401745,56.061115,0.0,12.791536,34.532127,54.45176,52.215037,67.595459,63.376115,76.228846,68.575191,78.809396,-20.89282,293.304253,-52.518339,283.911151
27,-0.737,-0.194823,1.074486,0.449543,0.0,18.803844,2.695713,55.800076,-3.053684,59.016323,-10.278625,49.448261,-18.929558,26.320553,0.0,-16.152055,7.938942,22.753483,28.984223,42.230489,47.232087,54.639235,63.041675,62.802454,0.0,67.100544,23.481674,87.483959,13.895702,86.905117,5.757008,73.971004,-0.256176,54.021435,0.0,12.32001,34.378924,54.788177,52.102466,67.547911,63.303311,75.159267,68.686404,76.972197,-21.915751,292.996334,-51.729784,284.247598
28,1.21376,0.440836,0.421486,0.099974,0.0,18.406963,2.433357,53.82082,-3.3391,56.90134,-10.645409,47.433071,-19.653683,24.584026,0.0,-17.928738,7.200963,20.900477,28.429025,41.350237,47.043996,53.971898,63.277006,62.1705,0.0,67.710056,23.835068,87.407169,14.401417,86.686764,6.201038,74.117603,0.026722,54.520397,0.0,12.538668,33.535599,54.313254,51.374367,66.577071,62.858276,74.594745,68.561915,77.007025,-21.093864,293.323056,-51.700172,284.233457
29,-2.378197,-0.99517,0.020885,-0.344073,0.0,21.614742,5.700874,57.368031,-0.306759,60.272427,-8.066025,50.660305,-17.380142,27.637768,0.0,-18.880559,7.478531,22.251576,29.003428,42.268281,47.893249,55.073587,64.351772,63.447622,0.0,67.536736,23.174458,87.617226,13.756714,87.101097,5.79031,74.884758,-0.262871,55.136147,0.0,12.657661,33.565671,54.810901,51.440254,66.829445,62.929845,75.404601,68.561668,77.954708,-23.690987,292.295575,-51.898212,283.857073
30,2.602329,2.04011,0.6744,0.034642,0.0,18.796005,5.07597,53.86013,-1.366081,56.04744,-9.094334,46.155281,-18.524036,23.552971,0.0,-20.686141,5.445151,19.823673,26.804557,40.786456,45.583228,53.236759,61.71225,60.895045,0.0,67.47757,22.341557,87.138176,12.906876,86.908264,5.222168,74.94175,-0.313168,55.405083,0.0,12.264188,33.623655,54.054273,51.593704,66.061455,63.060941,74.573132,68.682451,77.394694,-21.228189,294.27818,-51.363344,283.83421
31,-4.566021,-1.276566,1.100235,-0.189203,0.0,25.869427,8.630161,59.765453,2.423229,62.57864,-5.253181,52.219677,-14.298706,29.712009,0.0,-19.630579,6.809094,19.060376,28.627244,40.147154,47.657177,53.438374,63.565689,61.886757,0.0,67.699013,22.468929,85.997086,13.060799,85.440559,5.150814,73.490868,-0.729446,54.18869,0.0,12.569111,32.900187,53.712546,50.817131,65.949625,62.499506,74.702623,68.37691,78.030291,-26.049728,292.930107,-50.518627,283.573499
32,-3.275986,-2.85571,0.047379,-1.922043,0.0,31.554623,13.496876,65.768681,6.043224,64.938068,-3.183804,53.03381,-13.823032,31.784649,0.0,-18.181236,6.755186,25.188981,29.599566,45.312082,49.108435,58.243112,64.908513,64.842626,0.0,65.892563,22.61673,85.693474,13.360577,84.772797,5.726681,72.684975,-0.080452,54.409218,0.0,13.821903,33.862012,58.408418,51.742214,70.16934,63.330049,78.519786,69.336265,80.608185,-29.519577,289.98594,-50.665112,281.562998
33,23.316021,1.194376,1.960602,-5.494552,0.0,7.907066,-15.88892,39.352913,-26.415653,38.501472,-34.499302,27.119293,-41.885147,5.824585,0.0,-11.897205,9.70136,42.285509,29.251664,57.790667,45.653129,67.855428,58.796643,71.158334,0.0,66.98925,23.91901,81.931801,13.204193,79.516754,2.995205,65.379868,-5.903778,45.737228,0.0,20.07086,32.984971,67.712476,49.874882,81.229456,61.182987,88.997473,67.793925,90.551854,-6.595631,291.014794,-49.096584,275.902925
34,-2.96196,36.800899,7.228718,-12.824634,0.0,-52.300587,-8.497753,-31.364079,6.263695,-23.583298,19.07341,-12.092628,29.660339,3.862267,0.0,15.087169,19.46725,-10.655528,9.952067,-23.744454,-2.526271,-37.704493,-17.668028,-45.819794,0.0,57.959805,21.479988,67.502232,9.202538,55.723171,-4.749126,33.934078,-18.599911,10.163383,0.0,28.286135,29.713125,78.328977,42.443405,91.781799,52.164649,93.881374,58.99023,85.102318,-10.376244,327.678314,-42.68652,262.940911
35,22.83062,-14.8025,5.088444,28.57031,0.0,-41.714058,-27.839527,-76.681595,-27.737904,-81.493378,-24.969063,-73.24728,-19.804001,-53.624039,0.0,-4.260655,8.50334,8.289746,18.208653,19.561543,26.25257,30.653954,33.266799,38.092903,0.0,13.110638,37.689857,-4.495583,33.315468,-18.411655,24.904919,-26.418858,13.783092,-24.597301,0.0,55.091309,22.426391,52.267957,13.028534,42.781241,4.644001,32.104224,-4.217121,23.942734,11.937704,313.178067,-38.114748,291.813474
36,3.577194,-23.962741,-28.211288,-78.833416,0.0,-54.583054,-25.934372,-83.147507,-23.055038,-84.819317,-18.460579,-78.054314,-12.854233,-59.816036,0.0,7.963889,19.309724,28.149234,35.885449,39.891075,48.522115,54.131461,56.639824,64.323984,0.0,66.649818,29.282227,50.42038,32.442627,46.944065,33.155708,45.195408,32.926655,49.008293,0.0,22.557487,-2.731159,14.562229,-28.566173,-9.232983,-50.569759,-30.497293,-68.012954,-48.332109,15.611601,290.680709,-66.229334,214.445441
37,1.955223,-4.098684,-12.509251,-77.639349,0.0,-56.749477,-26.54377,-83.354416,-23.234024,-86.959648,-17.765923,-79.137955,-10.809288,-61.05772,0.0,12.005206,21.886013,29.090804,38.538679,41.341345,50.555124,56.630191,58.49456,67.935333,0.0,60.207653,40.304031,44.7789,42.377129,37.539539,39.422321,32.777767,32.540646,33.233929,0.0,-4.474435,-10.855414,-17.554901,-29.576657,-28.733887,-45.791018,-44.200019,-59.785298,-57.413619,17.394762,288.296402,-78.910646,138.520469
38,1.309547,-3.191694,-32.79253,-131.06951,0.0,-58.20797,-26.950836,-84.710941,-23.23288,-88.487148,-17.383347,-80.440292,-10.107651,-61.002102,0.0,14.952121,23.841711,31.01575,40.384275,44.02897,52.468028,59.525236,60.46131,70.978641,0.0,47.81868,30.945339,32.088718,42.292385,38.605213,50.128155,45.316772,54.130726,49.082851,0.0,-45.330206,-3.667697,-17.959922,14.316833,2.206929,31.844842,21.253195,47.419006,39.257732,18.933821,285.608114,-111.473665,7.954364
39,0.64888,-1.013571,21.038132,-39.913861,0.0,-58.795795,-27.606812,-85.533314,-24.469986,-89.339218,-19.235115,-81.57795,-12.76062,-63.985405,0.0,14.778788,24.881341,32.066186,42.178372,44.641102,54.587426,58.799916,62.618746,70.926029,0.0,25.611248,-4.4981,16.144981,-15.13773,7.614956,-22.187004,-0.182419,-27.023392,-6.310101,0.0,-33.789856,-53.721068,-50.419829,-46.542274,-41.287499,-34.539815,-25.069093,-18.840421,-14.913805,18.444386,285.961851,-91.573849,-30.592188
40,-0.542908,-1.146211,-18.25079,-53.982231,0.0,-59.527874,-27.297249,-85.382023,-24.148407,-88.988743,-18.999939,-81.438961,-12.65316,-63.675327,0.0,16.777463,27.379762,32.368454,44.39552,45.118062,56.220169,60.016152,63.546793,71.624859,0.0,16.22839,-4.718571,11.046753,-9.487495,11.214581,-11.111545,11.992569,-10.525436,9.746132,0.0,-45.286368,-45.368774,-60.651501,-40.349067,-51.864598,-31.286052,-38.227153,-19.930815,-26.589876,15.307074,285.599638,-112.419043,-83.790421
41,0.237236,-0.673573,-18.250789,-53.982231,0.0,-60.519962,-27.776527,-84.060402,-24.633865,-88.225651,-19.454041,-80.556736,-13.060913,-63.722076,0.0,17.436032,28.195856,32.707896,44.787142,45.364508,56.32959,59.811511,63.806207,71.542916,0.0,6.845531,-4.939042,5.948524,-3.837262,14.814205,-0.036087,24.167556,5.972518,25.802364,0.0,-56.782879,-37.01648,-70.883174,-34.155861,-62.441697,-28.032289,-51.385214,-21.021209,-38.265948,10.631304,285.219148,-135.582838,-137.479569
42,0.354767,-0.229218,-18.25079,-53.98223,0.0,-61.509247,-28.435936,-83.881817,-24.970322,-88.50563,-19.546738,-80.939598,-12.957687,-63.49474,0.0,17.188165,28.358197,32.88123,44.667284,45.142824,55.995644,59.436995,63.407731,71.868155,0.0,-2.537327,-5.159512,0.850296,1.812973,18.41383,11.039371,36.342545,22.470474,41.858597,0.0,-68.279391,-28.664186,-81.114847,-27.962655,-73.018797,-24.778526,-64.543275,-22.111603,-49.94202,8.309813,285.145804,-156.509886,-191.305926
43,0.21183,-0.405885,-7.174644,-36.423264,0.0,-61.288261,-28.40435,-84.896908,-24.79248,-88.550205,-19.286499,-81.127853,-12.79747,-63.628349,0.0,17.783933,28.522824,33.495152,45.036243,46.094583,56.312177,60.038814,63.43027,71.671542,0.0,25.445194,-14.61565,-14.534569,-9.551811,-1.871853,3.355694,26.092243,22.443523,48.438034,0.0,-51.626586,-33.290743,-94.536176,-27.892862,-92.169607,-19.935318,-72.428617,-9.617164,-35.456315,5.046558,286.639623,-167.159615,-225.829485
44,0.28244,-0.432191,-1.361561,-29.967676,0.0,-61.639996,-29.786339,-85.233421,-26.126747,-88.658066,-20.244942,-80.9622,-13.204651,-63.418694,0.0,17.889712,28.272982,33.624643,44.792514,46.242105,56.240917,60.646685,63.649608,72.32727,0.0,15.340519,-13.816166,-20.676613,-8.330727,-4.038506,3.579254,23.050232,20.799408,51.002769,0.0,-46.822003,-32.168028,-89.895215,-25.55865,-88.900046,-15.79855,-68.857522,-3.593704,-29.674423,4.566479,288.890935,-169.283695,-253.113657
45,0.475273,-0.152956,-7.052937,1.946852,0.0,-61.488075,-30.498734,-87.145271,-26.49147,-89.672871,-20.446472,-81.969852,-13.442459,-64.416962,0.0,17.598682,28.158929,33.589754,44.946952,45.977196,56.497737,60.370229,63.854619,71.95053,0.0,18.587837,-4.122906,-17.223129,3.500061,-2.763805,15.022259,27.970791,28.058052,57.536716,0.0,-43.067346,-34.87495,-106.97744,-30.938469,-110.58852,-22.714565,-93.60217,-11.761786,-50.964676,4.404001,290.34948,-176.974382,-249.555305
46,-0.570488,-0.547479,0.377541,-3.019441,0.0,-60.710564,-30.849495,-86.755085,-26.858826,-89.121037,-20.773201,-81.365032,-13.788185,-64.025173,0.0,17.642587,27.429039,34.052326,44.337599,46.93797,56.152984,61.203921,63.810653,72.065386,0.0,13.043976,-4.684811,-18.313923,2.845802,-5.719357,14.385796,21.130543,28.393135,54.631004,0.0,-38.034719,-36.165518,-104.794772,-32.762978,-113.313812,-24.954252,-97.896788,-14.59647,-55.38518,3.365278,290.987516,-177.065077,-251.389231
47,-0.914497,-0.671227,3.010883,0.17568,0.0,-60.124512,-31.343079,-86.90546,-26.67366,-88.185253,-19.989967,-79.883137,-12.623634,-62.897987,0.0,18.320359,27.530618,36.752116,44.728108,48.414793,56.623955,62.29573,63.963115,72.476335,0.0,16.602345,-5.219765,-19.060707,2.669106,-9.99012,14.447079,20.058231,27.682514,53.689499,0.0,-36.146159,-34.795524,-103.242976,-32.25965,-108.426275,-25.23321,-95.531106,-15.921109,-53.064892,2.217751,290.986127,-174.287224,-250.543713
48,0.785294,0.186239,3.597336,4.290835,0.0,-60.595264,-31.691837,-88.951378,-27.166214,-90.29726,-20.472794,-81.182442,-12.98996,-62.687531,0.0,17.381691,26.802705,36.387974,44.063921,48.615358,56.242893,61.867553,63.977317,71.354701,0.0,20.773602,-6.071091,-16.529217,3.676758,-5.779953,16.941605,24.316006,29.849796,58.109608,0.0,-36.975251,-32.173369,-98.306764,-29.749079,-103.662207,-23.129697,-89.064441,-13.776254,-48.211017,1.738214,291.222492,-171.954718,-246.202752
49,-0.173149,0.260957,1.761532,6.470995,0.0,-61.864986,-30.294571,-88.933525,-26.238213,-90.895615,-20.050163,-82.605858,-13.095589,-64.868546,0.0,16.600055,26.356126,34.565658,43.361757,47.280808,55.307621,61.059301,62.655858,71.337781,0.0,15.405865,-4.67062,0.860424,4.757423,17.366409,18.195992,42.486877,32.323093,64.358082,0.0,-31.160524,-27.74869,-89.288379,-21.953661,-85.794077,-13.84736,-67.623818,-5.010012,-40.65309,0.488548,291.552795,-171.269703,-239.662411
50,-0.421486,0.00636,19.488773,4.44163,0.0,-61.796322,-30.747299,-89.178486,-26.880226,-91.301022,-20.824585,-83.262749,-13.901367,-65.269375,0.0,16.011079,26.455173,33.597102,43.412824,45.694317,55.423218,59.666397,62.821226,70.805492,0.0,7.028675,0.225849,9.596844,-2.192059,9.912472,-3.779068,5.28614,-4.479504,0.861282,0.0,-38.353906,-28.537721,-38.911405,-27.398133,-35.165347,-23.778139,-30.925054,-18.424455,-26.990982,-0.897789,289.707384,-152.745781,-237.072552
51,-0.363579,-1.496398,5.263252,17.574496,0.0,-62.29866,-31.477661,-88.096447,-27.997513,-91.167068,-22.168007,-83.888168,-15.281639,-66.555805,0.0,16.499772,25.772461,33.237653,42.947597,45.755512,55.22821,59.853625,63.173759,71.981035,0.0,10.429673,-2.098646,12.244148,-2.985334,12.249327,-2.223258,9.839444,0.026136,7.541814,0.0,-39.363005,-33.45857,-40.044008,-30.938281,-35.916533,-25.794128,-30.151681,-19.055985,-24.472735,-1.214676,285.362501,-147.435837,-222.346541
52,-1.427536,-0.776388,5.263252,17.574495,0.0,-62.434673,-30.782661,-87.010002,-27.350349,-90.614319,-21.751442,-83.418159,-15.193062,-66.176548,0.0,18.284544,26.316544,34.076286,43.66279,45.518266,55.822434,59.718576,63.572234,72.034202,0.0,13.830672,-4.423141,14.891453,-3.77861,14.586182,-0.667448,14.392748,4.531775,14.222346,0.0,-40.372103,-38.379417,-41.176611,-34.478428,-36.667719,-27.810116,-29.378307,-19.687514,-21.954487,-2.457247,283.592812,-141.98762,-205.765348
53,0.461769,0.362537,5.263253,17.574495,0.0,-62.332306,-30.929947,-87.91214,-27.70443,-92.162132,-22.065125,-84.483433,-15.508003,-66.833038,0.0,18.386803,25.878177,33.271801,43.178296,45.246812,55.357701,59.401365,63.189691,71.4464,0.0,17.231669,-6.747637,17.538757,-4.571886,16.923036,0.888362,18.946051,9.037413,20.902877,0.0,-41.381201,-43.300265,-42.309213,-38.018575,-37.418905,-29.826105,-28.604933,-20.319042,-19.436239,-1.88756,283.029771,-136.616449,-189.11643
54,1.113052,-0.001976,5.263252,17.574495,0.0,-62.831612,-32.195549,-88.856564,-28.802834,-92.223415,-22.768478,-84.473476,-15.922279,-67.390652,0.0,18.147829,25.377135,34.322237,42.47959,45.707902,54.741555,59.764766,62.740086,71.435594,0.0,20.632668,-9.072132,20.186062,-5.365162,19.259892,2.444172,23.499355,13.543053,27.583408,0.0,-42.390299,-48.221113,-43.441816,-41.558722,-38.170091,-31.842094,-27.831559,-20.950572,-16.917992,-0.698462,282.30848,-131.277151,-172.261249
55,-0.289764,0.503204,-7.564316,-1.126019,0.0,-61.188412,-31.312923,-88.526402,-28.298149,-91.75787,-22.666054,-83.948364,-15.942993,-66.86285,0.0,19.143986,25.307665,34.463708,42.600868,45.642879,54.832884,60.274083,62.747496,71.766267,0.0,28.524513,-9.8283,17.20356,-3.718872,24.503403,6.928711,30.435104,18.918285,33.996964,0.0,-49.498127,-47.348209,-42.347028,-39.753835,-37.300877,-30.12534,-25.970324,-19.799019,-14.911258,-1.004448,281.969362,-138.857689,-174.22959
56,0.426979,0.546121,-2.302837,-1.438321,0.0,-61.436176,-31.839867,-89.879723,-28.394279,-92.299919,-22.386017,-84.96912,-15.358772,-67.14283,0.0,17.759357,25.816674,34.823651,42.79884,45.956386,55.000104,59.638918,62.905577,71.171919,0.0,30.702839,-7.886066,19.348984,-0.551319,26.300526,10.668697,31.918545,23.023396,35.317039,0.0,-43.861302,-46.095309,-43.183684,-38.365685,-37.691942,-28.609475,-26.497488,-18.040306,-15.376069,-0.507374,281.817534,-141.090431,-176.365861
57,-0.399513,0.159872,-0.245075,-1.685539,0.0,-61.228809,-32.913609,-89.781933,-29.017296,-91.540947,-22.687798,-83.257141,-15.53833,-65.048733,0.0,17.679946,26.294622,35.338094,43.289941,47.319773,55.396912,60.922895,63.057668,71.128447,0.0,31.463127,-7.468185,18.500633,0.110321,25.648041,11.252689,31.469307,22.943859,34.665699,0.0,-44.357745,-44.988741,-42.904788,-36.705279,-36.789784,-27.004165,-25.207136,-16.830337,-13.930461,-0.291538,281.50466,-140.720158,-178.524146
58,0.929832,0.195131,-0.334568,-2.435652,0.0,-62.805176,-33.625202,-89.500294,-29.7686,-91.254272,-23.327065,-82.9216,-16.021271,-65.576935,0.0,17.882055,26.301106,36.050508,43.306058,47.63365,55.509051,61.404424,63.308128,71.043664,0.0,31.26503,-7.352314,17.330189,0.876789,25.227127,12.459641,31.372032,24.347477,35.226173,0.0,-46.647913,-42.810727,-41.580582,-35.061714,-35.906383,-26.141728,-24.162195,-16.876033,-13.153687,0.969601,281.285909,-140.723419,-181.373681
59,0.725441,-0.047239,1.044445,-1.800441,0.0,-63.401814,-33.593445,-90.129318,-29.812317,-92.128315,-23.453751,-83.986187,-16.27739,-66.815758,0.0,18.026242,26.560458,35.785167,43.683476,47.258517,55.844973,61.39899,63.505606,71.39385,0.0,30.246849,-8.187447,16.141949,-0.357342,23.021507,10.826626,29.526958,22.161541,33.581371,0.0,-49.101103,-42.459305,-41.288471,-34.318918,-34.552567,-25.20042,-23.31288,-15.871369,-11.97904,1.778069,281.146338,-139.595947,-183.266454
60,0.017738,-0.002594,0.338058,-0.453016,0.0,-62.798424,-33.310032,-90.589027,-29.647064,-92.820625,-23.436127,-84.75935,-16.376381,-67.512589,0.0,18.381245,26.606524,35.621404,43.985559,47.066535,56.308657,61.173601,64.139782,71.707789,0.0,27.588959,-9.476395,15.698433,-1.816807,22.539825,9.263763,28.807411,20.908413,32.922649,0.0,-48.840238,-42.356676,-41.70734,-34.604869,-34.793409,-25.785984,-24.032396,-16.649007,-12.753313,1.96907,281.067359,-139.084625,-183.795856
61,-0.208626,-0.735447,-0.532494,-0.537769,0.0,-63.270435,-32.303638,-89.95285,-28.213348,-92.78801,-21.759796,-83.320827,-14.749374,-65.502605,0.0,17.376072,27.199019,36.41113,44.74898,48.943315,57.159886,62.119865,65.03294,71.733539,0.0,28.99435,-8.734646,14.359703,-0.238438,22.138538,11.319008,28.978329,23.267441,34.078789,0.0,-47.51546,-41.237141,-40.904507,-33.165791,-34.909468,-24.121563,-23.688168,-15.252614,-13.217166,1.735983,280.289612,-139.641581,-184.375924
62,0.542793,0.168085,-0.733852,-1.462929,0.0,-63.324337,-32.817593,-90.549145,-29.001617,-93.209553,-22.836914,-84.976387,-15.82489,-67.102203,0.0,16.987291,26.848585,35.8329,44.015014,48.141239,56.333789,61.913557,64.375546,72.662883,0.0,28.796024,-8.150997,14.432945,0.788441,22.647572,12.539806,29.821186,24.409504,35.528412,0.0,-49.021012,-41.462036,-41.32052,-32.725495,-34.162041,-22.895494,-22.3415,-13.329784,-11.979024,2.363148,280.38162,-140.291061,-185.914929
63,-1.128845,-0.115844,-0.592175,-0.554889,0.0,-63.076344,-32.014217,-89.826508,-28.045349,-92.182045,-21.775246,-83.980408,-14.704857,-65.938454,0.0,17.764976,26.697667,37.143676,43.925662,48.643578,56.279078,61.945729,64.210487,72.317636,0.0,29.290066,-7.563343,15.54039,0.624332,23.575172,11.768417,30.011902,23.241463,34.706554,0.0,-44.732462,-42.045655,-41.556916,-33.515391,-34.448347,-24.003342,-23.262492,-14.73635,-12.382795,1.262541,280.315115,-140.854998,-186.42048
64,-0.910606,0.31962,0.043888,-1.275825,0.0,-62.764664,-31.235447,-89.677849,-27.458382,-91.643257,-21.48056,-83.92622,-14.7686,-65.684967,0.0,17.756948,26.387557,37.512634,43.581218,48.310497,55.958594,61.713362,63.87407,72.442496,0.0,26.937504,-7.513504,15.216637,0.864658,23.135319,12.05183,29.863758,23.528481,34.863968,0.0,-47.921948,-40.760953,-40.772284,-32.372684,-33.264808,-22.950498,-22.228419,-13.858614,-11.664591,0.474072,280.669748,-140.688972,-187.661293
65,0.067635,0.346914,-0.587254,-1.544084,0.0,-62.92717,-31.358299,-89.721394,-27.545242,-92.041969,-21.545563,-83.944874,-14.873657,-66.30043,0.0,18.190807,26.849635,36.721611,44.137033,48.355266,56.45729,61.665937,64.344176,72.434839,0.0,27.178345,-7.276897,15.648823,0.999813,23.412781,12.157631,30.144138,23.827686,35.095768,0.0,-45.183332,-40.653476,-40.9159,-31.615887,-33.157625,-21.594289,-21.99684,-11.957875,-11.266687,0.687904,281.081592,-141.130028,-189.140447
66,0.115929,-0.218411,-0.799084,-0.86429,0.0,-62.27314,-31.486073,-89.756756,-27.320251,-92.389584,-21.130371,-83.775444,-14.396896,-65.619564,0.0,18.718835,27.148383,36.814546,44.458629,49.367849,56.742577,62.441523,64.512508,72.36679,0.0,27.291756,-6.213169,17.171803,2.309818,24.59198,13.448181,30.992775,24.910927,35.136909,0.0,-44.327039,-40.269543,-40.737364,-31.358712,-32.780546,-21.319762,-21.968002,-11.77463,-10.685708,1.077461,281.046039,-141.655483,-189.821878
67,-0.001144,-0.013523,0.161362,-0.304306,0.0,-62.706184,-31.584435,-90.122108,-27.644577,-92.525368,-21.600151,-84.287968,-14.731865,-66.061592,0.0,18.334068,27.398781,37.227039,44.576511,49.65011,56.783147,62.945468,64.494662,73.335901,0.0,26.961765,-5.934563,16.763077,2.465801,24.755917,13.534126,30.96674,25.029831,35.441036,0.0,-40.925286,-41.080681,-41.074645,-32.592408,-33.635357,-22.707062,-22.144624,-13.094175,-11.340479,1.404505,281.36938,-141.165934,-189.78932
68,-1.335297,0.764779,-0.391273,-0.926194,0.0,-62.451782,-30.801144,-89.806023,-26.894531,-91.97319,-21.024399,-84.035625,-14.400444,-65.810852,0.0,17.72737,27.018028,35.914534,44.27344,48.417325,56.426847,62.50809,64.042155,73.58494,0.0,28.215637,-5.428391,16.947441,2.926941,24.293747,13.790646,30.461197,25.090485,34.715424,0.0,-41.406615,-40.11702,-40.744342,-31.919158,-33.198226,-22.360442,-21.65834,-13.162702,-10.636555,0.456705,282.452235,-141.16971,-190.397438
69,0.060997,0.14042,-0.856533,-0.540995,0.0,-63.195076,-31.613674,-89.599743,-27.638969,-92.413616,-21.627846,-84.042091,-14.859695,-66.032867,0.0,18.161043,27.330794,35.910829,44.465545,48.542184,56.604688,62.201437,64.451931,73.444458,0.0,29.253044,-5.029564,17.813873,3.733578,25.208702,14.818096,31.502495,26.2397,35.911102,0.0,-39.999215,-39.365023,-40.587712,-30.751119,-32.81014,-20.977881,-21.342224,-11.77128,-11.030584,0.731363,282.755013,-141.812582,-190.776076
70,-0.333252,-0.099665,-0.268936,-0.315807,0.0,-62.180443,-32.116528,-89.57365,-28.300552,-92.553234,-22.236557,-84.193382,-15.211029,-66.051807,0.0,17.529522,26.859762,35.677165,44.087756,48.972461,56.375594,62.368781,64.431306,73.329417,0.0,26.959076,-5.37426,17.974834,3.083553,25.22438,13.963909,31.402874,25.309238,35.395718,0.0,-40.976894,-39.466633,-40.543344,-31.057277,-32.75634,-21.521686,-21.711275,-12.383227,-11.038396,0.589085,282.810033,-141.890545,-190.937198
71,-0.592232,-0.014573,-0.312481,-0.677232,0.0,-61.748543,-31.187553,-89.376698,-27.366371,-92.330875,-21.330872,-84.196701,-14.463272,-65.927582,0.0,18.65801,27.074221,35.60961,44.415713,48.237755,56.576221,62.09677,64.266371,73.351524,0.0,28.470154,-5.588722,17.60788,2.962475,25.058727,13.989716,31.260567,25.442276,35.149841,0.0,-41.773567,-39.604275,-40.339383,-31.576907,-33.138528,-22.263879,-22.078319,-13.200046,-11.082717,0.140791,282.924564,-142.059088,-191.485326
72,-0.419197,0.175495,1.284313,-0.535886,0.0,-61.865788,-32.061882,-90.299835,-28.021202,-92.369385,-21.791382,-84.214783,-14.654617,-65.775032,0.0,17.866308,26.584726,37.099648,43.835753,49.336727,56.19059,62.457578,64.294714,73.411236,0.0,27.388401,-7.391968,15.863914,0.772877,23.286152,11.705418,29.298019,23.072319,33.391914,0.0,-47.890918,-38.908996,-39.874202,-31.949663,-32.357756,-23.422749,-21.023669,-14.846698,-9.528444,0.111694,283.221676,-140.384674,-191.899594
73,-0.602875,0.009201,-0.58897,0.252883,0.0,-61.705055,-32.028294,-89.525471,-28.122196,-92.515869,-21.775932,-84.499054,-14.68277,-66.437531,0.0,19.402844,26.62511,35.700815,44.035824,48.207559,56.318784,61.737012,64.273534,73.095939,0.0,24.484463,-5.799465,16.970901,2.860565,24.257011,13.858452,30.611515,25.381336,35.532303,0.0,-48.183708,-38.765751,-40.388922,-31.428274,-31.712156,-22.662648,-20.722605,-13.916335,-10.441717,-0.125198,283.476875,-140.607662,-191.400712
74,-0.371933,-0.093922,-0.743179,0.42052,0.0,-62.090034,-32.262897,-89.600315,-28.131695,-92.347813,-21.505623,-84.133015,-14.203491,-66.159668,0.0,20.181455,27.068849,36.493073,44.381133,48.870388,56.54442,62.536062,64.246364,73.377644,0.0,21.834869,-5.252323,17.894039,2.980328,25.161324,13.674431,31.306458,25.152626,35.823956,0.0,-43.485258,-39.395574,-40.405301,-32.182323,-32.267462,-23.296362,-21.116372,-14.394886,-10.28342,-0.21266,283.403068,-141.06637,-190.960077
75,0.337944,-0.33654,0.65609,-0.220681,0.0,-63.140259,-32.953033,-90.048637,-28.721123,-92.46666,-21.979294,-84.007301,-14.608498,-66.219463,0.0,20.229497,26.75775,37.159298,44.061945,49.400515,56.407643,63.014813,64.432726,74.131431,0.0,24.15453,-6.03693,16.916256,2.107143,24.45694,12.683659,30.186882,23.955059,34.467773,0.0,-48.553762,-38.522794,-40.121358,-31.115786,-31.450874,-22.123814,-20.144528,-13.28293,-8.782159,0.280437,283.081719,-140.255127,-191.165567
76,-0.483398,0.060762,0.301609,-0.633636,0.0,-63.391056,-32.299175,-89.40239,-28.30965,-92.706127,-21.82457,-84.142685,-14.670868,-65.990925,0.0,20.968526,26.72774,37.64688,44.005567,49.606514,56.198865,62.996288,64.090814,74.199913,0.0,25.618572,-6.24836,15.992031,2.098961,23.812752,12.718678,29.490795,23.835926,34.023514,0.0,-50.923342,-38.272319,-39.103556,-30.489667,-30.349695,-21.304695,-19.263628,-12.341268,-7.707779,-0.045204,283.150571,-139.795761,-191.791114
77,0.07164,0.299181,0.285816,0.051623,0.0,-63.537312,-32.395763,-90.479679,-28.189087,-92.971401,-21.774559,-84.3853,-14.845619,-66.311531,0.0,20.578387,27.136527,38.113157,44.390457,49.769288,56.436974,63.217725,64.020048,74.168049,0.0,26.077366,-7.548695,15.363693,1.132793,22.690315,12.119751,28.484688,23.558865,33.236504,0.0,-52.374322,-37.248806,-38.951728,-29.579929,-30.712633,-20.674239,-19.785851,-12.067358,-8.407241,0.213747,283.437556,-139.322634,-191.751686
78,0.093498,-0.170863,-0.807381,0.117511,0.0,-63.712521,-32.761574,-90.933952,-28.80558,-93.278275,-22.514191,-84.709282,-15.658836,-66.605873,0.0,20.069934,26.878472,37.761674,44.233796,50.084154,56.500021,63.74248,64.348561,74.748009,0.0,26.080513,-6.353703,16.419754,2.394218,23.815441,13.286076,29.015408,24.585285,33.401642,0.0,-50.606439,-37.684764,-39.495486,-29.905354,-30.869293,-20.53158,-19.150624,-11.434092,-7.69387,0.737457,283.251919,-139.699802,-191.648949
79,-0.062141,1.015362,0.627251,-0.691327,0.0,-63.576107,-32.417049,-90.16428,-28.590374,-93.15794,-22.463951,-84.798717,-15.657005,-66.129112,0.0,19.525542,26.400648,36.718215,43.623517,48.572874,55.723757,62.158706,63.443547,73.296195,0.0,27.099438,-7.631207,15.732651,0.890121,22.801952,11.831932,28.233662,23.182583,32.765923,0.0,-53.021899,-36.570045,-38.090016,-28.416413,-29.232583,-18.988082,-17.940455,-10.005527,-6.880246,1.179914,284.272113,-138.567953,-192.335444
80,0.358658,0.291894,-0.92823,-0.408371,0.0,-63.087559,-32.185879,-90.842972,-28.349018,-93.839951,-22.286911,-85.71722,-15.589485,-66.979809,0.0,18.523086,26.306849,35.629926,43.572264,47.865523,55.814468,61.378242,63.789966,72.950393,0.0,27.560406,-6.900673,15.303955,1.767426,22.842808,12.723026,28.432674,23.814011,32.625847,0.0,-51.566827,-36.620943,-38.406487,-28.651049,-29.949614,-19.006669,-18.287693,-9.747303,-7.029343,2.242384,284.576542,-138.792372,-192.731279
81,0.510635,0.335984,-0.250626,-1.023405,0.0,-64.355106,-31.644917,-92.281265,-27.614365,-94.519844,-21.609535,-86.512985,-15.143051,-67.927094,0.0,17.719466,26.406699,35.395892,44.005381,47.206646,56.513298,61.349405,64.561044,73.362083,0.0,28.328876,-6.172371,15.863228,2.060738,23.155689,12.667065,28.717747,23.556976,32.737999,0.0,-52.890988,-36.172959,-37.70423,-27.899346,-28.403167,-17.932536,-16.694672,-8.36397,-5.823573,3.218136,284.919226,-138.577881,-193.747985
82,0.635033,1.065195,0.276146,-1.032807,0.0,-65.71701,-30.809326,-94.697056,-26.26545,-94.94545,-20.395432,-86.98534,-14.621773,-68.353043,0.0,17.513528,25.60697,39.245289,43.060971,50.919081,55.679358,63.913035,63.637196,73.744195,0.0,28.020172,-7.194958,15.10088,0.8741,22.430305,11.512756,28.023491,22.685909,32.816334,0.0,-52.829253,-36.869102,-37.668863,-29.184248,-28.581688,-20.055206,-17.799278,-11.107849,-7.023446,4.380198,286.020143,-137.774706,-194.745068
83,0.186424,0.630533,-3.680534,-0.848945,0.0,-64.784145,-30.154667,-93.109074,-26.107063,-95.227547,-20.222855,-86.983223,-13.551636,-67.449417,0.0,17.030023,26.393299,37.964586,43.967343,49.871547,56.352006,64.899251,63.913652,76.088796,0.0,28.239841,-6.117897,15.953178,2.965336,23.789349,14.167099,29.678936,25.525246,34.472866,0.0,-51.061447,-36.667549,-38.670408,-28.646757,-30.091593,-19.352703,-19.010219,-10.594889,-7.045722,5.262365,286.836021,-140.759497,-195.408669
84,1.459351,0.864629,-3.589268,-2.060117,0.0,-65.939655,-30.527973,-93.751945,-25.891457,-96.049004,-19.69265,-86.948433,-12.987556,-67.375832,0.0,16.162244,26.180137,40.032113,43.489951,52.594308,55.974402,66.930469,63.790954,76.336045,0.0,22.83886,-7.504234,17.417107,1.459465,23.338165,12.730751,30.05928,24.625225,35.951843,0.0,-52.901069,-33.776503,-39.969652,-27.400973,-28.895951,-19.810026,-18.519072,-12.108144,-9.651358,7.717066,288.412725,-143.353415,-196.756712
85,0.861855,1.013139,4.596892,14.966212,0.0,-67.320099,-30.384865,-94.20187,-25.909882,-96.257572,-20.047531,-88.165226,-13.621559,-68.960037,0.0,16.769312,26.418247,39.557005,44.070034,50.7991,56.681506,66.688284,64.551719,78.162807,0.0,19.916708,-7.306378,16.298074,-0.523877,20.793457,8.535804,25.906797,18.341074,30.357708,0.0,-53.439123,-34.951142,-41.291413,-28.906056,-30.439241,-21.324983,-19.935354,-13.389669,-11.218093,9.332685,289.685262,-138.002758,-181.531101
86,-0.287018,0.436946,4.596891,14.966213,0.0,-66.242466,-30.573692,-93.045387,-26.0392,-95.092506,-19.906197,-87.080727,-13.094788,-67.756634,0.0,16.842487,26.840372,39.446595,44.377181,51.30922,56.965002,67.023033,64.892026,78.730479,0.0,16.994556,-7.108521,15.179043,-2.507217,18.248749,4.340858,21.754314,12.056923,24.763573,0.0,-53.977177,-36.125782,-42.613175,-30.411139,-31.982533,-22.83994,-21.351637,-14.671194,-12.78483,10.263176,290.576722,-132.188358,-166.110374
87,0.405121,0.646156,4.596891,14.966213,0.0,-67.57267,-30.179214,-93.024902,-25.676308,-95.20752,-19.577293,-86.279984,-12.61013,-65.660934,0.0,16.915167,26.510008,39.724966,44.103873,51.98761,56.691139,68.086313,64.429577,79.134944,0.0,14.072405,-6.910663,14.060011,-4.490558,15.704041,0.145913,17.601832,5.772772,19.169438,0.0,-54.515232,-37.300421,-43.934937,-31.916222,-33.525824,-24.354897,-22.76792,-15.952719,-14.351566,12.338648,291.279179,-125.921116,-151.087861
88,0.610542,-0.042299,4.596892,14.966213,0.0,-67.389221,-30.403748,-93.140831,-25.808601,-95.355892,-19.570084,-86.100998,-12.453003,-65.871506,0.0,16.763384,26.798382,39.365085,44.110851,51.930553,56.544173,67.346111,64.292429,78.165956,0.0,11.150253,-6.712807,12.940979,-6.4739,13.159332,-4.049034,13.449348,-0.51138,13.575302,0.0,-55.053287,-38.475061,-45.256698,-33.421306,-35.069115,-25.869854,-24.184204,-17.234244,-15.918303,14.582663,291.409271,-119.690752,-135.949256
89,-0.552177,0.057428,4.596891,14.966212,0.0,-66.907997,-30.803719,-93.226376,-26.197701,-94.649849,-19.813385,-85.046711,-12.494659,-64.729099,0.0,16.752578,26.512169,40.23064,43.903678,53.032551,56.393934,69.080927,63.9097,79.524218,0.0,8.228102,-6.51495,11.821947,-8.457241,10.614624,-8.24398,9.296866,-6.79553,7.981167,0.0,-55.591341,-39.6497,-46.578459,-34.926388,-36.612406,-27.38481,-25.600486,-18.515768,-17.485038,15.164051,292.229749,-113.960295,-120.219994
90,-1.397324,-0.538525,4.596892,14.966213,0.0,-66.424885,-30.096703,-92.838993,-24.893303,-94.544392,-18.222198,-84.484463,-11.005783,-64.727154,0.0,17.477466,27.309861,41.45688,45.054706,54.211304,57.793137,70.4403,65.441481,81.53475,0.0,5.30595,-6.317093,10.702915,-10.440583,8.069915,-12.438927,5.144382,-13.079682,2.387031,0.0,-56.129396,-40.82434,-47.900221,-36.431471,-38.155697,-28.899767,-27.016769,-19.797293,-19.051774,15.253,292.425668,-107.87713,-104.519337
91,-1.161118,0.198157,4.596891,14.966213,0.0,-65.396919,-30.009041,-91.716614,-24.905777,-93.327198,-18.175735,-83.591709,-10.73616,-63.528099,0.0,16.829334,27.972134,41.879068,46.079886,54.886668,59.051981,70.984075,66.969866,83.492732,0.0,2.383799,-6.119236,9.583883,-12.423924,5.525207,-16.633873,0.991899,-19.363833,-3.207104,0.0,-56.66745,-41.99898,-49.221982,-37.936554,-39.698988,-30.414724,-28.433052,-21.078818,-20.618511,14.990559,294.094766,-102.381563,-88.082183
92,0.376167,0.709636,4.596891,14.966212,0.0,-65.370426,-30.812359,-92.528343,-25.772552,-93.409481,-18.94146,-83.046284,-11.134186,-62.842827,0.0,16.194848,27.924154,40.867102,45.745631,54.202844,58.57854,72.187096,66.479753,84.215335,0.0,-0.538353,-5.921379,8.464852,-14.407264,2.9805,-20.828819,-3.160583,-25.647983,-8.801239,0.0,-57.205504,-43.173618,-50.543743,-39.441637,-41.242279,-31.92968,-29.849334,-22.360343,-22.185246,16.878376,295.220229,-96.273022,-72.700144
93,-0.089951,0.118623,4.596892,14.966213,0.0,-65.54369,-31.111908,-92.077961,-25.593452,-92.542877,-18.312492,-81.772099,-10.120583,-61.907272,0.0,17.070901,28.010543,42.468599,46.02851,57.024776,58.904397,73.163926,66.815366,84.70267,0.0,-3.460505,-5.723522,7.345819,-16.390606,0.435791,-25.023766,-7.313067,-31.932135,-14.395375,0.0,-57.743559,-44.348258,-51.865505,-40.94672,-42.78557,-33.444637,-31.265617,-23.641868,-23.751983,18.545465,298.495594,-89.91909,-54.577188
94,-0.099564,0.124921,4.596891,14.966213,0.0,-65.14349,-30.659466,-91.768055,-25.15892,-92.316456,-17.926826,-81.439362,-9.81617,-61.604576,0.0,17.629557,28.060499,43.626666,46.357022,57.880637,59.493434,74.049118,67.606451,85.38353,0.0,-6.382656,-5.525665,6.226788,-18.373947,-2.108917,-29.218712,-11.465549,-38.216286,-19.98951,0.0,-58.281613,-45.522898,-53.187266,-42.451803,-44.328861,-34.959594,-32.6819,-24.923393,-25.318719,19.940357,299.122809,-83.827744,-39.108682
95,0.506287,0.380197,-14.71816,28.836068,0.0,-65.411911,-30.987453,-91.47583,-25.679054,-92.267876,-18.564606,-82.070217,-10.485077,-62.370586,0.0,18.138257,28.615882,43.857983,47.022753,57.397687,60.006642,73.504726,67.771818,85.425952,0.0,18.871049,4.221782,20.39958,1.662225,18.962602,0.032186,16.014432,-1.008826,11.807699,0.0,-56.629496,-32.542405,-40.578758,-21.841815,-27.641568,-9.535282,-13.014378,3.067467,-1.804455,22.457199,299.288362,-96.535348,-10.487258
96,1.730347,0.693334,-14.718161,28.836069,0.0,-65.795689,-31.931248,-91.807652,-26.73317,-92.635918,-19.326668,-81.873379,-10.862732,-62.008495,0.0,15.995518,28.048828,43.711882,46.275388,57.520077,59.28021,73.516706,67.304862,83.979572,0.0,44.124756,13.969231,34.572372,21.698399,40.034122,29.283085,43.494415,36.198635,43.604908,0.0,-54.97738,-19.561913,-27.97025,-1.231828,-10.954276,15.889029,6.653144,31.058327,21.709808,26.219387,298.781561,-109.221668,17.148676
97,1.615105,-0.225945,10.697536,36.630715,0.0,-66.431351,-31.869392,-92.287102,-26.741753,-93.406219,-19.394646,-82.842751,-10.908165,-63.369026,0.0,15.977796,28.319727,44.076333,46.26205,57.616531,59.197959,73.674046,67.400513,83.784935,0.0,53.645726,17.189484,42.148161,20.740214,42.928133,25.12024,43.601675,29.714356,41.210261,0.0,-41.829791,-15.275555,-19.122822,5.349546,-0.258055,25.167754,18.378296,42.625861,32.476594,29.195967,296.989872,-97.162657,52.213648
98,0.594063,-0.137024,10.697537,36.630714,0.0,-65.944691,-31.472282,-92.253857,-26.297264,-93.659248,-19.059448,-82.934589,-10.719681,-63.052597,0.0,15.962605,28.174366,44.273502,46.346833,58.74045,59.368452,74.594065,67.554951,84.304318,0.0,63.166695,20.409737,49.723949,19.782028,45.822144,20.957394,43.708935,23.230076,38.815613,0.0,-28.682202,-10.989196,-10.275392,11.930921,10.438166,34.446479,30.103449,54.193397,43.243381,29.604521,295.111209,-86.650629,87.102723
99,1.13102,-0.08571,9.176216,36.96568,0.0,-66.240349,-31.912079,-92.896843,-26.670685,-94.301262,-19.311104,-83.389206,-10.918694,-63.718472,0.0,15.733079,28.088472,44.166118,46.292308,58.302392,59.335971,74.342988,67.433488,84.485926,0.0,65.063496,25.108623,56.439457,22.288685,54.693918,20.547523,49.922419,19.492807,40.792379,0.0,-15.771364,2.039076,-0.370193,24.660151,18.016918,44.878811,35.672287,61.51045,49.474523,30.307159,294.286131,-77.902794,123.329034
100,0.180359,-0.848574,9.176216,36.96568,0.0,-65.825787,-31.512222,-92.691994,-26.141281,-94.487,-18.840523,-83.429832,-10.72197,-63.594646,0.0,17.619801,28.21506,45.500729,46.772047,59.854119,60.176579,75.748304,68.459718,85.315234,0.0,66.960297,29.80751,63.154964,24.795341,63.565693,20.137653,56.135902,15.755539,42.769146,0.0,-2.860526,15.067348,9.535005,37.38938,25.595669,55.311141,41.241124,68.827503,55.705664,29.921207,292.398081,-69.292889,159.255239
101,0.120506,0.670548,8.85993,35.851086,0.0,-63.808937,-31.58329,-92.507401,-26.633263,-94.467487,-19.661865,-84.049644,-11.437798,-63.759785,0.0,17.696989,28.980889,43.835629,46.992311,58.313446,59.751366,74.321437,67.49882,84.634744,0.0,66.239176,31.709175,64.390869,29.246349,50.226059,25.313788,39.046068,20.930328,33.515568,0.0,7.734486,19.525943,33.299033,45.128652,57.956991,66.491114,78.484495,82.684017,87.545164,29.645491,291.915455,-60.829182,193.953151
102,-1.910133,7.660324,8.85993,35.851085,0.0,-41.927719,-29.917374,-90.525284,-26.678581,-94.490833,-20.766335,-84.234581,-13.331795,-62.277203,0.0,17.97468,21.102339,36.498384,36.351294,51.123784,48.582569,63.906181,58.012845,73.815454,0.0,65.518055,33.61084,65.626774,33.697357,36.886425,30.489922,21.956234,26.105118,24.26199,0.0,18.329498,23.984539,57.063062,52.867924,90.318314,77.671088,115.727867,96.540532,119.384665,27.273016,298.839637,-52.431593,229.068093
103,7.742729,44.44066,0.244732,23.289909,0.0,-71.236382,-30.574608,-99.143429,-26.265335,-81.851463,-19.696541,-61.753807,-12.425995,-44.58847,0.0,32.676404,9.965034,6.86819,-7.918317,-23.396305,-27.111827,-46.545423,-45.523577,-62.729156,0.0,69.113617,29.797554,95.86647,21.036758,89.906387,12.025738,67.896996,3.595848,43.273087,0.0,16.066963,27.687835,50.848253,47.104079,71.74169,61.856499,84.665805,71.193841,86.426803,33.977709,342.7904,-53.224897,251.868105
104,-7.209091,-4.617325,3.404903,19.29583,0.0,-68.204269,-18.855629,-82.180767,-11.397972,-71.808758,-3.991814,-58.352737,1.926384,-46.559544,0.0,24.168864,17.41868,1.851833,4.25942,-15.603465,-13.303879,-27.52963,-33.36807,-45.866601,0.0,72.017269,31.044903,85.132427,19.567165,79.611683,8.760223,65.580425,-0.685215,45.621243,0.0,22.681235,32.805833,55.325096,49.205507,67.868458,60.441242,78.607719,66.919724,84.641413,25.26701,337.476453,-51.321602,270.467314
105,1.961632,1.879991,-1.447163,14.345423,0.0,-55.889969,-50.64188,-11.233406,-49.861622,5.283051,-45.643616,0.753021,-38.765202,-25.728378,0.0,30.318403,4.148516,35.343342,-5.48566,28.522701,-16.142052,18.509624,-26.74787,-2.878866,0.0,70.265465,28.563995,87.530708,18.210411,85.587044,8.510284,70.334358,-0.552864,48.32016,0.0,16.868669,34.037753,64.089579,49.657891,79.859585,60.33324,90.772859,66.124873,95.072849,25.704889,338.693229,-54.292517,284.149523
106,2.737083,-21.405904,2.875328,6.321019,0.0,-16.847878,-44.900894,-1.630783,-51.554546,5.348396,-52.523804,-2.712479,-50.578537,-22.597733,0.0,30.772145,13.417685,42.49052,20.64483,49.121341,26.830245,52.935664,31.110228,55.103165,0.0,71.046867,26.163197,87.648582,15.77219,86.694946,6.113663,72.492371,-2.418022,52.801208,0.0,15.24278,32.899446,63.56643,49.644305,77.361472,60.8102,89.477829,67.27658,92.812289,27.404737,316.827223,-52.454424,290.010439
107,-21.726379,-21.023545,-0.64888,-0.329809,0.0,-6.493034,-30.100994,27.461014,-42.873688,30.231056,-51.222267,20.567551,-56.50629,-6.701546,0.0,3.11747,15.36412,51.775621,35.010075,67.204764,50.669177,74.388869,63.119048,74.592089,0.0,69.768105,26.810017,89.530334,15.756912,85.527763,5.670547,71.559219,-2.541161,52.810364,0.0,18.502029,33.368564,63.694006,50.803114,77.058771,61.473955,85.244406,66.741513,87.374239,4.772358,295.593773,-54.009304,289.470725
108,-20.909443,6.604639,0.603848,-1.549503,0.0,22.957134,-12.183666,42.139149,-20.819206,50.080547,-24.262505,39.41328,-24.938107,18.110905,0.0,13.452513,15.954022,42.150646,34.65711,58.297452,49.388474,62.425591,61.222384,64.868746,0.0,67.005672,27.536259,88.570576,16.516743,84.398861,5.856342,70.672359,-3.548069,50.310345,0.0,19.246986,33.691828,64.153491,51.032146,78.335585,61.60604,87.007565,67.033345,88.225469,-16.350517,302.136044,-53.618889,287.858854
109,-1.245518,5.176414,0.912151,-0.443121,0.0,23.982925,-5.775833,50.957108,-13.156757,51.738625,-17.2435,39.199791,-18.931503,15.272713,0.0,5.895003,13.863523,42.44606,30.458391,56.482855,43.764369,62.512474,54.120655,64.11255,0.0,66.765175,27.241573,87.879066,15.999584,84.658356,5.063496,70.307922,-4.754963,49.15638,0.0,20.173489,33.842066,63.4052,51.070431,78.748942,61.447156,86.851893,66.593497,87.317985,-17.94548,307.215046,-53.056183,287.318322
110,40.579948,-10.173257,0.901394,-0.108372,0.0,-29.664574,-47.794476,7.478371,-60.181446,9.889755,-65.278645,2.049866,-66.729698,-23.706207,0.0,6.338124,14.602984,52.569175,33.492065,68.02376,48.567996,71.02977,60.460508,71.686856,0.0,65.682621,25.99371,85.934772,14.321651,82.343616,3.19685,68.052349,-6.829033,46.147442,0.0,21.103883,34.650009,64.383079,51.728444,79.060967,61.890462,88.254986,66.729348,87.609323,22.406244,296.967658,-52.383013,287.135819
111,-23.218346,14.511223,-0.314884,0.485852,0.0,-8.253365,-30.350075,19.967079,-34.532146,30.609169,-33.809109,26.603622,-30.343609,8.475151,0.0,19.291323,18.819241,42.23932,28.362273,52.518602,34.421285,53.871059,38.337682,52.022993,0.0,65.796432,26.084061,85.484848,14.722252,82.400894,3.776035,68.309441,-5.929871,47.691536,0.0,20.682127,33.835027,64.081428,50.707462,78.625873,61.026574,87.328976,66.185512,87.417094,-0.940018,311.411496,-52.825813,287.554286
112,16.408768,-14.590881,-0.189743,-0.297637,0.0,-22.07016,-38.077068,12.372665,-50.800438,15.404205,-57.904873,7.313118,-61.543751,-21.973915,0.0,5.944403,14.596007,50.627372,33.308851,66.654815,48.398429,71.545509,60.813843,72.100275,0.0,65.318871,25.425224,85.161667,14.119549,82.474251,3.30162,68.26767,-6.164875,47.297173,0.0,21.495874,34.398932,64.546347,51.164415,79.08579,61.304327,87.545473,66.268937,87.273772,15.364809,296.728421,-53.119497,287.164456
113,-20.700874,10.176962,-0.40947,0.536117,0.0,10.183525,-24.287395,29.786339,-31.555481,36.740913,-33.339043,28.274918,-32.278862,6.758881,0.0,7.604687,16.741772,39.157048,32.98707,53.289185,45.20723,58.964789,54.049333,60.462978,0.0,65.175819,25.553799,85.761909,14.414062,83.473091,3.708515,69.384956,-5.558338,49.472466,0.0,21.362987,33.732459,63.890311,50.68622,77.935133,61.30618,86.851769,66.850996,87.57462,-5.386276,306.806768,-53.579178,287.601957
114,24.181709,-9.160056,-0.768929,-0.442565,0.0,-29.147415,-42.219715,7.44278,-54.654751,10.005341,-61.219883,1.532822,-64.588966,-27.267609,0.0,8.130491,12.960176,50.579701,31.1939,65.73282,46.031659,69.321939,58.489064,69.611425,0.0,63.661652,25.153084,86.750336,13.932724,84.08741,3.392944,70.103645,-5.665112,49.220352,0.0,21.46716,33.992984,63.54457,51.141321,77.569941,61.650068,86.732282,66.807091,87.314959,18.758039,297.616377,-54.3855,287.129057
115,-19.423599,9.744956,-0.454159,0.305232,0.0,-7.186432,-28.237209,21.389351,-34.938297,30.665131,-36.780796,22.496223,-36.067142,0.811272,0.0,9.87809,15.81391,41.298243,30.877059,55.157815,42.633596,59.30312,51.557642,59.705177,0.0,63.431683,25.41584,86.722126,14.643345,84.948292,4.407349,70.920811,-4.510174,50.557079,0.0,21.382562,33.546961,62.979739,50.656456,77.225621,61.541696,86.688131,67.204888,87.549981,-0.666103,307.309308,-54.840202,287.382265
116,21.986389,-1.234638,0.004406,0.046807,0.0,-37.241993,-44.879036,2.670021,-57.016754,5.22789,-63.492107,-1.306801,-66.694279,-30.121078,0.0,15.151452,7.138595,47.915973,20.477239,58.554581,31.245894,60.102232,40.721,59.838928,0.0,63.548241,24.557247,86.3974,13.589859,84.420319,3.30019,70.700798,-5.43457,50.2771,0.0,21.912319,33.68275,63.283922,50.797865,77.622553,61.527555,86.641571,66.864087,87.496135,21.304493,305.980439,-54.851589,287.33484
117,-19.392586,12.235412,-0.614891,0.298254,0.0,-30.743065,-34.223042,14.722252,-37.245026,25.850601,-35.229149,21.915894,-31.08078,2.590714,0.0,19.402782,16.728928,37.678619,23.47479,44.755896,26.76516,45.349626,28.172946,42.892886,0.0,64.198265,24.232121,87.733841,13.249741,84.806442,3.269348,71.601334,-5.127811,50.774002,0.0,21.266595,33.135024,61.175886,50.242605,76.541859,61.09382,86.083779,66.506552,87.755301,1.939659,318.147524,-55.438728,287.564768
118,21.502991,-15.254328,0.337944,0.295414,0.0,-40.536289,-47.152233,-0.012474,-59.187126,2.732391,-64.702206,-5.11116,-67.282906,-39.456596,0.0,10.380924,10.006901,48.673342,26.293572,61.451725,39.354958,64.133113,50.308246,63.243846,0.0,64.196892,23.788605,87.155228,12.763195,84.100685,2.779598,70.862045,-5.491676,50.267143,0.0,21.204103,33.012017,61.209293,50.043337,77.104467,60.861885,85.970467,66.285424,87.27723,23.517809,302.826367,-55.025625,287.793353
119,-22.185402,15.346336,-0.871639,-0.085648,0.0,-36.120358,-37.726536,15.46257,-41.242104,28.150978,-39.110584,24.497566,-34.498787,8.272591,0.0,26.154263,17.060095,39.149329,22.440841,43.957463,24.483359,43.066343,24.349237,40.679751,0.0,64.476643,24.104519,87.830486,13.481197,85.340481,3.759327,72.135258,-4.335136,51.581783,0.0,21.020458,32.703821,60.719983,49.898347,76.063972,60.929502,85.74267,66.532426,87.521452,1.420183,318.098896,-55.809488,287.633898
120,19.663925,-15.138484,0.518532,0.021921,0.0,-38.377762,-45.717659,2.234917,-57.79953,5.857544,-63.885441,-1.422844,-66.98513,-29.675331,0.0,11.427161,9.989735,47.79099,25.784317,60.149224,38.533739,62.706494,49.161788,62.424912,0.0,63.853054,23.771439,87.49815,12.857952,84.998417,2.744293,71.409931,-5.673065,50.722675,0.0,21.263384,32.962185,61.399731,50.113979,76.114978,61.020275,85.249593,66.418743,86.786129,21.165762,302.890248,-55.209303,287.585655
