takenoko1/special-research/HandMotion_SimilarSearch_自分用/NewProject/handData/test_key/d4_feature_d2/87.csv
frame,vel_0x_L,vel_0y_L,vel_0x_R,vel_0y_R,posFromWrist_0x_L,posFromWrist_1x_L,posFromWrist_2x_L,posFromWrist_3x_L,posFromWrist_4x_L,posFromWrist_5x_L,posFromWrist_6x_L,posFromWrist_7x_L,posFromWrist_8x_L,posFromWrist_9x_L,posFromWrist_0y_L,posFromWrist_1y_L,posFromWrist_2y_L,posFromWrist_3y_L,posFromWrist_4y_L,posFromWrist_5y_L,posFromWrist_6y_L,posFromWrist_7y_L,posFromWrist_8y_L,posFromWrist_9y_L,posFromWrist_0x_R,posFromWrist_1x_R,posFromWrist_2x_R,posFromWrist_3x_R,posFromWrist_4x_R,posFromWrist_5x_R,posFromWrist_6x_R,posFromWrist_7x_R,posFromWrist_8x_R,posFromWrist_9x_R,posFromWrist_0y_R,posFromWrist_1y_R,posFromWrist_2y_R,posFromWrist_3y_R,posFromWrist_4y_R,posFromWrist_5y_R,posFromWrist_6y_R,posFromWrist_7y_R,posFromWrist_8y_R,posFromWrist_9y_R,posFromBody_0x_L,posFromBody_0y_L,posFromBody_0x_R,posFromBody_0y_R
2,-0.535011,-10.589146,6.538467,-24.068026,0.0,5.665398,-33.510017,15.903282,-39.315605,23.218918,-39.730911,15.65403,-37.456055,-17.527657,0.0,21.55392,9.055945,29.874417,18.33203,39.710146,26.540574,43.382567,32.74649,44.343588,0.0,61.67347,23.655167,85.367203,14.959145,82.804184,6.193085,67.475395,-2.021141,46.354294,0.0,18.954721,30.522179,57.908425,47.472296,67.200318,59.633361,78.387393,66.473886,82.825334,10.659885,308.403525,-48.298359,281.337517
3,-3.569183,5.464911,0.675316,-0.74823,0.0,-51.479015,-41.751022,14.008255,-44.304714,26.914673,-42.273159,22.768135,-37.421494,-1.541977,0.0,32.732658,7.725038,32.679862,13.20724,34.537746,15.662868,32.965581,16.174594,30.759733,0.0,63.088875,22.73901,86.399574,13.196354,83.26664,4.079647,69.3013,-3.65799,48.906555,0.0,21.088692,30.109933,56.543308,47.262963,69.136996,58.723901,78.616796,65.008364,82.461006,7.011194,315.773313,-47.702551,282.494164
4,-4.35482,-4.581201,0.485229,-0.607007,0.0,9.699669,-22.864723,23.443222,-30.844345,31.565666,-34.035187,20.021553,-33.783875,-4.09893,0.0,-5.521784,2.203193,21.445239,18.75959,38.088148,33.175841,45.933538,44.841729,49.344075,0.0,63.032112,23.355732,85.903244,13.121052,81.553688,3.50172,67.926865,-4.820137,47.325783,0.0,22.233853,29.772529,56.42308,47.364666,70.05788,59.22692,79.69607,65.807661,83.90152,2.482309,312.276604,-47.391386,282.971649
5,-0.549202,9.650848,-0.659294,0.53587,0.0,-12.15065,-24.302044,25.866394,-31.434174,27.085648,-33.315296,21.510201,-31.724682,-45.76767,0.0,-22.074908,-1.249149,20.218937,12.329273,28.881347,23.986701,35.546439,32.886232,42.180224,0.0,63.464699,24.463348,86.620903,14.495544,82.878113,4.721775,69.0168,-4.005203,47.769928,0.0,21.224852,29.866143,56.004289,47.187071,69.188928,58.904459,78.961796,65.600674,83.648343,1.848764,322.411514,-48.135023,283.99158
6,-4.103851,-0.759777,0.256691,0.129552,0.0,-8.597946,-19.459419,28.214951,-26.476307,30.496788,-29.196281,25.515518,-27.580261,-8.559952,0.0,-18.368401,-1.590567,22.597563,10.820648,31.949107,22.035696,37.946369,31.191059,45.271944,0.0,62.96505,24.01783,86.341438,14.095287,82.597961,4.386806,69.022179,-4.218864,47.905312,0.0,21.219726,29.597837,56.113093,46.933462,69.192078,58.713403,78.936293,65.502923,83.398007,-2.359343,322.538411,-47.982588,285.007807
7,-2.951202,-0.152524,-0.33205,-0.33339,0.0,0.766068,-14.540005,33.714867,-23.369751,33.67115,-28.30822,25.610733,-29.293213,-5.568695,0.0,-20.65613,-2.350406,20.559306,10.4838,33.107298,22.789792,39.1476,33.381285,46.433902,0.0,63.23988,24.345646,86.531696,14.48885,82.982311,4.755821,69.584827,-3.943176,48.432941,0.0,21.377684,30.217873,56.360033,47.554672,69.3107,59.281075,78.980259,65.979821,83.51947,-5.302935,322.842809,-48.307028,285.131339
8,2.326241,-1.690232,0.250168,0.07268,0.0,-5.40184,-19.917698,31.523209,-28.176842,30.764923,-31.478233,23.230019,-30.674973,1.131706,0.0,-3.717622,-0.304924,27.745633,9.361486,35.700877,19.440512,38.799389,29.533123,44.041505,0.0,63.09351,23.756618,86.147175,13.816223,82.63773,4.286728,69.034939,-4.072609,48.238049,0.0,21.57016,30.235904,56.741342,47.901956,69.528926,59.799655,78.617167,66.519088,82.472677,-2.926569,321.439269,-48.006735,285.490711
9,16.592789,12.45123,0.236607,-0.100036,0.0,-62.875557,-46.938686,5.214844,-48.133392,20.411568,-44.373722,19.496613,-38.17091,-8.149338,0.0,32.857826,2.25531,29.000834,-3.955731,22.017233,-11.946235,13.399037,-20.230979,3.773629,0.0,63.102036,23.686981,86.057167,13.583164,82.400894,3.910618,68.842735,-4.538155,48.358269,0.0,21.705887,30.386884,56.64427,47.973833,69.638039,59.761308,78.97606,66.308148,82.665647,13.758745,334.065669,-47.677603,285.565845
10,-3.731575,2.854166,0.016308,-0.01198,0.0,-26.778545,-40.75882,9.478455,-42.490768,22.925835,-39.09605,19.900131,-33.213844,-6.014214,0.0,30.89509,8.514147,25.687616,-1.92581,17.820984,-14.057975,7.422153,-26.598125,-10.940753,0.0,63.058949,23.447342,85.97002,13.354683,82.591038,3.799381,69.011021,-4.438362,48.553677,0.0,21.653276,30.359343,55.875972,48.0157,69.530408,59.884994,79.254246,66.484199,82.96736,10.08997,337.039862,-47.598495,285.673893
11,2.571373,-15.360353,0.173092,0.013153,0.0,-57.228413,-41.533527,10.078468,-44.541893,21.942444,-43.753853,17.402573,-40.805397,-14.190559,0.0,34.115065,4.476781,31.662338,9.219151,32.315102,11.713436,31.184514,12.83013,31.162592,0.0,62.909317,22.946892,85.886536,12.857323,82.699127,3.566093,69.062119,-4.344978,48.476143,0.0,21.787645,29.767527,55.636318,47.723806,69.555355,59.85276,78.78346,66.665683,82.353993,12.699537,321.615844,-47.387209,285.623381
12,-3.315468,-8.678156,0.063972,-0.037977,0.0,-5.521889,-29.883442,20.139656,-37.496281,25.096436,-40.14782,11.617928,-39.023952,-11.575012,0.0,-7.508356,6.952726,24.837436,22.549583,39.218613,35.449183,46.871156,45.410944,49.742489,0.0,63.034515,23.256855,85.893059,13.002033,82.612152,3.613987,69.34227,-4.368496,48.922691,0.0,22.09121,29.563257,55.880047,47.62939,69.528494,59.966628,78.779632,66.960726,82.660583,9.410076,312.936113,-47.29723,285.58383
13,0.585709,-12.643582,0.099277,-0.397981,0.0,-30.915642,-38.184013,18.459091,-47.209454,22.153358,-50.422668,11.520767,-49.922104,-12.471886,0.0,25.117289,9.741868,40.327959,28.484971,52.984818,43.595914,57.289439,55.071549,60.583144,0.0,63.246174,23.650246,85.495434,13.171635,82.340069,3.446388,68.977375,-4.796734,48.469791,0.0,21.801786,30.843034,56.579494,48.694152,69.640015,60.612228,78.731405,66.934359,82.530784,9.915876,300.199906,-47.277861,285.093223
14,-17.921104,18.475662,-0.202217,0.454854,0.0,23.087769,-13.978901,35.050964,-23.346062,44.544182,-28.509064,30.073013,-30.149345,1.361961,0.0,-14.3721,-0.726802,20.103896,16.019415,36.766936,29.835267,42.001704,40.776946,44.037245,0.0,63.557796,23.457184,85.569706,12.87117,82.317524,3.218307,68.645496,-5.060406,48.168812,0.0,21.751397,30.232755,54.961819,48.167174,69.102848,60.213753,78.373746,66.727557,81.706787,-8.086281,318.61164,-47.561131,285.48415
15,-9.033794,-12.423627,-0.456448,-0.006731,0.0,12.872143,-9.152584,48.060551,-17.711735,48.031597,-22.261677,41.35191,-22.76247,22.861118,0.0,17.872051,13.109983,42.526768,22.793189,53.320246,30.271904,56.290132,36.503941,56.020159,0.0,64.030609,23.848915,86.0709,13.451958,82.761269,3.911304,69.541512,-4.073582,49.230766,0.0,21.289628,30.676184,54.692216,48.666549,69.1964,60.589813,78.780373,66.851181,82.139842,-17.278719,306.170553,-48.176222,285.459959
16,29.047565,1.342948,-0.107689,-0.145175,0.0,-33.05151,-39.722614,13.402176,-46.587067,19.987907,-48.632755,12.555771,-47.449493,-7.718925,0.0,21.772516,9.235639,35.625295,23.473184,46.499789,34.521383,48.534712,42.821194,51.319841,0.0,64.015732,24.102345,86.172981,13.779716,82.768593,4.146309,69.439888,-4.066486,48.905182,0.0,21.520266,30.729105,54.612126,48.704835,69.523369,60.567212,79.128892,66.863161,82.401726,11.655064,307.460195,-48.397694,285.261478
17,-14.222145,11.403449,0.087605,-0.339133,0.0,13.378143,-18.198223,29.846306,-27.489109,38.450775,-31.87397,24.488525,-32.94239,1.022987,0.0,-16.347372,-0.965406,18.880559,15.364552,34.724171,29.521637,41.848378,41.24767,43.940914,0.0,64.064999,23.884563,86.036854,13.683815,83.16782,4.275398,69.986858,-3.71212,49.688358,0.0,21.519648,30.745715,54.895252,48.852542,69.349171,60.902641,79.036637,67.379147,82.150155,-2.650967,318.820943,-48.393974,284.879644
18,-4.733505,-13.145983,-0.071983,0.158699,0.0,9.645653,-17.158985,39.363213,-27.74929,36.592941,-32.334709,28.923111,-31.835346,4.061508,0.0,6.865226,9.897727,40.515989,22.87896,52.130315,33.859665,56.261665,43.66279,58.500858,0.0,64.078388,23.962212,86.724758,13.731995,83.414326,4.298172,70.284519,-3.680935,49.942074,0.0,21.502914,30.939179,54.903835,48.930409,69.193992,60.833357,79.007676,67.228353,82.596178,-7.431335,305.645937,-48.512821,285.00932
19,23.755074,-2.033256,-0.104713,0.224463,0.0,-29.626579,-41.662846,11.994896,-50.571957,15.136414,-53.891602,4.171944,-53.78088,-18.310089,0.0,13.279797,9.75428,37.19147,27.452442,49.652827,41.573156,53.960042,52.678041,57.041202,0.0,63.737926,24.072189,86.358089,14.109364,83.615742,4.73465,70.285549,-3.434372,49.613514,0.0,21.269929,30.730401,54.019137,48.626226,68.902098,60.491445,78.779879,66.988082,81.957555,16.242256,303.602122,-48.699017,285.223223
20,-14.077721,14.584768,0.302467,0.319497,0.0,-2.110519,-24.718838,23.001823,-32.838593,28.476562,-35.785675,16.277504,-35.640278,-14.940033,0.0,-10.636694,4.88631,23.409334,18.769223,36.571929,30.095237,41.95323,38.714297,44.485676,0.0,63.704739,23.780479,86.637554,13.85313,83.615284,4.512405,70.103931,-3.563461,49.556065,0.0,21.08332,30.70212,54.26583,48.451102,68.690973,60.19708,78.30613,66.629621,81.853814,2.150288,318.173783,-48.410797,285.529613
21,9.461517,-8.492596,-0.084801,-0.515245,0.0,-40.028114,-40.932312,12.191162,-45.210629,20.442696,-45.212402,14.90078,-42.68692,-5.989265,0.0,25.861134,8.477529,35.769358,20.951359,44.280356,30.501554,46.290517,37.616375,47.636059,0.0,63.872623,23.805313,86.312313,13.780117,83.554974,4.391556,70.040302,-3.729229,49.206562,0.0,20.888065,30.349463,54.908281,48.243003,69.316072,60.161944,79.178354,66.702363,82.663671,11.592894,309.697397,-48.514509,285.030577
22,-0.020943,4.434668,0.284443,-1.313555,0.0,-9.855995,-30.309448,15.525513,-35.711918,20.423012,-36.854782,7.83783,-34.850349,-31.992245,0.0,-12.480561,8.366872,23.246498,23.260083,35.872173,35.306477,44.473882,44.632395,49.774908,0.0,64.077644,24.212837,86.546059,14.457722,84.00032,5.019951,70.674133,-3.299274,50.135078,0.0,21.44104,31.194456,56.786111,48.798572,70.679954,60.557085,80.712729,66.974373,83.987044,11.459227,314.191283,-48.342791,283.776241
23,1.903839,-7.415298,0.603848,-4.730452,0.0,-53.473091,-42.960491,14.743881,-48.470135,19.734077,-48.833256,10.537262,-46.126614,-49.255314,0.0,36.8708,9.061379,36.469176,22.079477,43.956907,32.329428,48.797213,40.035756,55.760313,0.0,63.204174,24.515648,84.962139,14.65519,83.96925,5.093479,69.60062,-3.501263,47.749157,0.0,22.538098,32.637069,64.490772,49.72736,80.511916,60.827923,87.210477,66.743859,87.625317,13.257895,306.883307,-47.844114,279.153111
24,-11.046181,17.605969,0.915642,-11.628405,0.0,-40.708351,-33.462524,16.214104,-33.994904,26.820602,-30.155811,22.842293,-23.64933,6.493149,0.0,28.158867,3.480315,25.567264,3.57399,29.18201,3.205155,26.712672,3.20781,23.998865,0.0,61.342335,25.957432,80.476856,15.916786,76.209354,4.973316,57.004452,-5.89056,27.47057,0.0,20.333793,31.666599,72.284662,48.064977,91.587594,60.055734,98.567922,67.789726,96.257592,2.221098,324.530124,-46.919088,267.565554
25,28.036308,-56.612716,3.721447,6.384807,0.0,-53.870659,-27.350349,-63.014946,-18.239021,-57.521152,-8.531456,-39.087296,1.15448,-17.463226,0.0,40.328391,43.346257,71.765464,51.499288,85.683019,54.165238,81.30652,52.497236,77.947669,0.0,45.078735,28.764668,66.790924,21.831665,55.82428,11.227112,31.368942,-1.281395,14.101639,0.0,35.714771,14.399826,57.349584,23.871166,73.455017,34.049239,77.50109,44.491234,64.728079,30.467463,267.794092,-42.987585,273.827046
26,-0.408325,-13.504568,-9.314175,-53.080901,0.0,-45.41399,-26.055222,-49.305325,-11.947861,-35.082779,4.360657,-16.479836,20.966949,4.794731,0.0,26.436154,25.072582,72.408595,35.941827,85.342466,43.48853,93.937505,47.761227,92.962775,0.0,58.410244,62.661724,80.002956,56.402378,64.279346,45.206165,45.721607,27.219601,37.486324,0.0,24.866212,26.607203,103.511104,30.065102,118.810324,34.55516,110.94536,39.382684,92.564485,30.086603,254.503026,-52.274294,220.959647
27,1.460152,3.003787,-17.925453,-27.205317,0.0,-18.459206,-5.274239,-30.645103,2.175407,-23.215714,10.613937,-20.01606,19.500504,-0.353851,0.0,34.505266,3.521564,35.590776,8.718664,40.991097,13.723288,43.886018,16.905472,41.668746,0.0,61.715984,23.99992,51.462879,16.271095,43.656807,8.134289,34.853954,-0.574322,29.391575,0.0,4.26047,3.250665,10.941494,2.940122,11.004726,2.367017,6.669477,1.843682,0.109607,31.099863,258.873196,-70.646639,195.120712
28,57.829056,-99.596869,-32.339458,-49.304802,0.0,-65.044441,-53.655052,-80.682564,-46.475487,-69.854736,-35.135651,-57.009773,-21.176834,-40.727005,0.0,31.108746,28.632493,59.63756,46.336521,72.062978,60.501757,80.909959,69.564556,86.701036,0.0,54.300728,26.398315,54.082832,24.304047,53.701344,21.068058,48.451366,17.073097,45.323353,0.0,-24.261552,3.752881,-5.083294,7.956417,-0.787071,10.726664,0.552049,13.37798,-2.140702,88.74135,160.678076,-103.173666,147.21766
29,24.814911,-35.327225,-33.722134,-41.465649,0.0,-64.064484,-28.015823,-56.769676,-28.268623,-59.16893,-27.18029,-50.537567,-24.375343,-46.260223,0.0,16.489521,0.270405,11.877506,22.059161,31.317833,42.206221,42.693864,59.319051,56.599748,0.0,44.461727,36.32246,36.826744,47.704639,41.618958,54.497223,43.432789,58.541393,46.508961,0.0,-50.840627,-28.843648,-22.799518,-12.97617,-3.647844,5.017005,11.906838,23.395564,26.652713,114.61484,128.280383,-135.837221,108.681543
30,23.069801,-24.304129,-13.48011,-4.214095,0.0,-54.779778,-29.522667,-41.967545,-37.204742,-40.34729,-43.183365,-40.822449,-47.214088,-45.837364,0.0,-13.364703,-18.121245,-16.890004,-2.427223,1.611593,13.372113,13.501388,28.897248,27.067953,0.0,36.335564,33.986034,34.671822,42.222977,37.552414,46.303024,38.690243,49.090576,46.198769,0.0,-57.450453,-21.180484,-33.004206,-6.536343,-16.411376,8.004984,2.13746,22.744591,14.024321,138.1703,107.542881,-148.831673,108.034075
31,21.347351,-4.78649,10.668411,7.99955,0.0,-50.102463,-17.306614,-30.905743,-28.058682,-34.153862,-38.037072,-37.962227,-46.21645,-46.188813,0.0,-33.509078,-20.836164,-20.542217,-7.749245,-6.979773,5.244863,3.043369,17.804727,10.716181,0.0,25.460644,6.457214,28.155384,2.951488,24.774284,-0.6847,21.6572,-4.0872,14.595165,0.0,-44.029464,-4.962232,-43.693912,-0.107847,-46.671239,1.528971,-48.355605,0.499561,-41.533728,159.15227,105.211572,-138.528643,118.488805
32,21.347351,-4.786491,-48.409023,-13.05944,0.0,-45.425148,-5.090561,-19.843941,-18.912621,-27.960434,-32.890778,-35.102005,-45.218811,-46.54026,0.0,-53.653451,-23.551082,-24.194429,-13.071265,-15.571138,-2.882386,-7.41465,6.712208,-5.63559,0.0,24.804554,1.673069,23.619576,14.994507,34.293995,29.520321,41.72533,45.415878,49.304066,0.0,-71.13737,-11.564926,-38.407027,5.010058,-23.079247,17.806472,-9.906063,26.860688,0.61559,180.19824,101.205838,-187.239046,106.210122
33,3.76545,10.385771,-10.380249,21.445856,0.0,-31.126556,-1.937943,-18.357811,-14.202576,-30.929375,-25.885735,-28.252487,-34.51767,-31.902122,0.0,-36.676966,-15.070404,-26.199897,-6.410773,-31.363189,2.162129,-17.836174,9.94549,-8.986321,0.0,17.228909,18.355808,21.080532,35.068302,32.741718,48.704739,38.835411,60.060425,45.904484,0.0,-63.814728,-38.063324,-46.62505,-32.480377,-33.779884,-23.242948,-22.578544,-13.081856,-12.073194,182.74169,113.217265,-198.841295,129.281635
34,5.290146,25.342122,-13.390846,49.643009,0.0,-3.801441,0.119476,0.163021,-10.123501,-9.819431,-19.718799,-12.643719,-26.878967,-18.500175,0.0,0.477979,-4.542345,8.473453,0.717926,7.705263,6.646814,11.129771,12.475606,14.752127,0.0,13.419743,14.782562,15.121136,31.526871,26.849842,44.752865,36.656284,54.894905,45.212402,0.0,-69.734524,-31.304433,-64.751945,-24.625879,-52.370185,-17.227377,-44.416886,-9.92008,-33.544985,186.92359,139.203784,-213.340387,179.56904
35,5.290146,25.342122,6.438789,21.113547,0.0,23.523674,2.176895,18.683853,-6.044426,11.290512,-13.551865,2.96505,-19.240265,-5.098228,0.0,37.632924,5.985714,43.146804,7.846625,46.773714,11.1315,40.095716,15.005721,38.490576,0.0,-3.2234,1.026879,0.219298,16.37661,13.64399,30.182333,24.973698,42.457152,35.74997,0.0,-23.901686,-3.621847,-22.187402,2.938146,-12.196525,7.95759,-7.04881,11.808469,0.996497,191.009817,164.635645,-208.105517,200.772326
36,0.921364,39.529094,6.43879,21.113546,0.0,19.922333,22.145576,19.184303,8.791695,6.84185,-6.305351,-6.203728,-21.614227,-18.477631,0.0,24.834595,34.681934,26.770224,41.420694,25.307789,42.829283,22.986159,41.077856,24.633042,0.0,-19.866543,-12.728806,-14.682541,1.226349,0.438137,15.611801,13.291111,30.019398,26.287537,0.0,21.931153,24.060739,20.377142,30.502172,27.977136,33.142558,30.319267,33.537019,35.53798,190.998001,204.140517,-202.599907,221.86165
37,13.265533,39.67396,-12.796612,32.020861,0.0,12.059898,12.861671,15.770988,-3.17276,-1.789742,-19.79908,-14.256935,-35.920258,-29.474602,0.0,41.970458,31.996655,51.182323,33.982734,48.959864,32.711169,39.87854,29.190099,33.577219,0.0,-14.353409,-10.97105,-11.614895,6.364059,4.638805,23.25943,19.40134,39.551811,33.752804,0.0,29.460689,40.689508,42.427164,46.196224,39.925161,46.744691,36.244219,43.754983,39.37478,203.330154,243.142988,-216.329899,253.211022
38,-6.318283,14.80849,0.66576,12.004836,0.0,3.707428,13.484917,24.515762,-0.639153,5.700073,-14.337387,-10.264091,-28.882256,-26.023064,0.0,46.93939,34.743684,79.960794,37.214689,83.167616,36.439906,76.766568,32.662139,59.010423,0.0,-16.551876,-9.589062,-12.503128,7.457886,4.387436,23.873978,21.078415,38.561783,35.574818,0.0,43.82964,20.090188,77.766493,24.123539,81.336161,26.742621,76.452568,28.756673,63.571679,195.462027,256.069819,-217.213984,263.3342
39,-0.676804,7.930235,0.62233,0.691666,0.0,3.096313,10.780678,21.484566,-3.619652,2.606049,-17.097015,-13.10955,-31.968956,-27.524185,0.0,49.841783,38.981615,80.507841,43.279505,83.131307,43.41054,72.044576,39.52366,54.239833,0.0,-17.77113,-3.268147,-11.222591,11.483345,4.468231,26.160107,18.728371,40.520096,34.603271,0.0,45.651833,33.681577,82.474777,38.880776,82.11508,39.873106,72.364196,37.665467,63.109724,194.014006,262.513243,-217.362871,262.539055
40,-1.78894,-4.78399,2.482166,-8.164516,0.0,2.019539,14.9897,22.496452,0.304527,4.317055,-13.610229,-11.42704,-28.937759,-23.100357,0.0,46.770935,44.639064,80.219096,48.87366,85.744337,47.345399,67.131281,41.387164,45.852892,0.0,-16.673069,-9.748249,-13.846664,7.664337,4.422684,24.228287,17.631454,39.914818,30.62851,0.0,43.470685,40.268864,69.622972,46.176896,54.746557,47.190529,39.96005,45.207662,42.831691,191.445637,256.359784,-215.660133,253.005069
41,3.057976,-14.01722,-3.51059,6.271248,0.0,-0.755653,17.495384,16.489677,0.486488,1.383362,-16.224632,-11.732826,-31.590042,-22.652893,0.0,39.482164,47.381029,50.552531,50.862209,48.944241,46.729192,33.882575,39.481237,29.211032,0.0,-10.315361,-7.719383,-4.143391,9.062462,9.74493,25.470772,23.667011,39.640732,36.110744,0.0,-2.388197,27.065329,3.311983,28.371227,6.99626,25.182312,3.294261,20.379797,6.568206,194.174795,242.396318,-219.49954,259.330071
42,8.841934,-45.688698,-0.932865,-90.113735,0.0,10.963211,9.384842,8.367691,-6.485367,-8.009262,-23.257484,-20.448761,-39.31572,-35.881805,0.0,53.313453,26.735952,59.921488,27.41107,54.445462,26.322719,45.565444,23.92143,36.364015,0.0,-12.695732,-7.577991,-13.100338,7.864437,2.285042,22.980766,15.031185,37.414341,28.942108,0.0,44.545821,31.274114,47.598823,35.887302,44.233611,37.293667,42.848611,36.454232,42.43902,202.48867,198.761562,-220.960464,171.270279
43,-6.201954,-29.581319,0.451212,-45.377104,0.0,16.8326,15.591431,19.537812,2.373162,3.481236,-13.421287,-10.938835,-29.72311,-32.602043,0.0,0.538958,-0.910371,-14.537097,0.715996,0.242324,1.23558,2.970982,0.69426,-18.709309,0.0,-12.662344,-13.119449,-22.468328,2.156382,-7.088842,19.016362,25.252676,36.539526,43.226652,0.0,-4.698034,1.192523,-22.753005,5.021142,-20.845658,7.726844,-2.489299,8.341183,-4.152762,195.742292,172.069113,-221.053677,128.782044
44,-6.201954,-29.581319,0.451212,-45.377105,0.0,22.701988,21.798019,30.707932,11.231689,14.971733,-3.585091,-1.428909,-20.130501,-29.322281,0.0,-52.235538,-28.556694,-88.995682,-25.979078,-53.960814,-23.85156,-39.623479,-22.532911,-73.782634,0.0,-12.628956,-18.660908,-31.836319,-3.551674,-16.462727,15.051956,35.474167,35.664711,57.511196,0.0,-53.941887,-28.889066,-93.104832,-25.845017,-85.924926,-21.839978,-47.827207,-19.771864,-50.744543,186.896152,142.26097,-223.246651,83.178114
45,-18.164978,-74.420145,29.349232,-73.584878,0.0,-32.818336,35.384903,45.329475,46.313553,50.47245,49.435158,51.892433,48.594131,50.158424,0.0,-61.57535,-47.530218,-103.558714,-40.590059,-88.057014,-33.784638,-71.148886,-26.924384,-56.66826,0.0,28.102455,-4.396191,-9.932671,-15.256119,-4.433498,-24.587574,-8.650246,-32.560158,-42.096348,0.0,-43.611722,-7.551674,-43.856131,-11.230146,-43.121949,-16.779162,-58.400576,-23.263078,-66.465272,170.62397,67.577459,-192.004623,9.32987
46,33.033142,-49.692316,-38.179207,-42.402927,0.0,-5.45105,5.625572,15.267448,-5.759926,4.953804,-19.289131,-10.508423,-33.545723,-47.816048,0.0,-58.068451,-48.487195,-73.044902,-46.636042,-73.338927,-39.874279,-68.53564,-30.287095,-62.682905,0.0,-4.163132,2.255516,-7.35569,21.84803,30.463142,41.649284,62.561989,59.655018,96.64381,0.0,-56.365653,-27.464021,-79.966228,-26.255781,-66.999722,-21.297902,-65.062395,-15.279491,-52.333227,205.241661,20.938376,-228.599281,-30.019824
47,7.016373,-38.385476,19.206219,-7.85561,0.0,13.540993,1.215363,15.995064,-14.250183,-1.173363,-30.056763,-23.482819,-45.185852,-74.538918,0.0,-63.966387,-30.226333,-79.722036,-26.278197,-75.520754,-19.524091,-68.221361,-11.798836,-54.398192,0.0,10.212135,5.054626,8.769093,11.300354,16.383877,15.913239,26.247597,17.824802,44.383678,0.0,-58.736467,-25.583443,-83.511936,-24.141663,-87.253888,-22.012663,-89.41049,-19.110672,-71.331297,212.590284,-13.662495,-209.060812,-34.090828
48,-3.700676,2.683117,-15.319576,-28.686,0.0,-7.590179,2.236176,20.15831,-12.181435,-8.415871,-27.731094,-34.450035,-43.962364,-79.478645,0.0,-60.040358,-40.729182,-103.401775,-40.764534,-97.583312,-36.761996,-92.038742,-28.965328,-71.567832,0.0,10.713902,3.579769,-10.09552,21.824055,33.207893,40.237598,66.157722,56.055965,97.048416,0.0,-55.242443,-41.877215,-100.333876,-42.020723,-91.432724,-36.321747,-87.370534,-27.451207,-66.323647,207.344828,-8.911356,-225.925169,-60.708806
49,-0.800514,-13.844813,3.880291,-10.802648,0.0,-14.651413,1.387253,15.250053,-12.304802,-14.325371,-28.059654,-40.285835,-44.550133,-81.744804,0.0,-66.59609,-34.893768,-100.94238,-32.898119,-91.539428,-28.984161,-83.901304,-21.981294,-64.734007,0.0,24.777374,3.921032,-12.004623,19.824371,24.85651,37.5103,64.00383,52.928181,94.725151,0.0,-57.173456,-37.295118,-97.502079,-34.791077,-87.541197,-29.405978,-85.18176,-21.899259,-62.670617,206.534472,-21.244936,-222.05472,-70.000221
50,-0.629997,-4.94593,1.88467,-3.554446,0.0,-10.358276,-0.453644,11.998215,-15.074615,-17.084312,-31.088562,-46.502495,-46.928215,-87.709579,0.0,-64.576697,-34.661927,-96.93345,-33.221135,-87.561467,-29.010097,-79.495628,-21.537525,-62.048883,0.0,30.597267,3.68185,-9.586773,19.637146,27.652645,37.139626,64.847603,52.045612,94.549141,0.0,-51.764568,-35.76377,-94.959459,-32.398156,-83.818373,-26.121845,-81.395318,-18.281117,-58.666643,206.141424,-25.282286,-219.9331,-72.646087
51,-1.397095,-5.371637,1.006794,-0.88334,0.0,-7.680702,1.242485,13.915787,-13.127518,-14.676247,-29.771461,-38.653793,-46.662712,-88.125343,0.0,-63.280927,-29.215478,-90.085577,-27.494309,-82.331793,-22.701674,-73.487869,-14.581928,-55.962206,0.0,27.828197,4.55904,-6.931973,21.180038,31.121979,38.816929,65.944118,53.46056,96.235886,0.0,-50.797433,-31.840211,-90.951178,-28.081494,-84.559779,-21.643458,-77.970331,-13.799056,-56.150916,205.123701,-29.886443,-218.546934,-72.761946
52,-1.255074,-1.199193,-0.028267,5.004099,0.0,-12.1978,-0.262756,11.241989,-14.5467,-16.159058,-31.026764,-43.166771,-46.992874,-86.077881,0.0,-53.742001,-27.134767,-85.156473,-24.852904,-79.323869,-20.001175,-67.952376,-12.678502,-51.33602,0.0,27.113171,2.176895,-6.266041,18.941746,29.245834,37.059402,65.112362,52.025928,94.210396,0.0,-49.285906,-30.892033,-93.64663,-27.152768,-86.128409,-20.447445,-80.534702,-12.196972,-54.344731,204.299355,-30.766464,-218.144474,-67.438675
53,-0.870323,1.058186,1.193676,-1.702706,0.0,-2.027092,-0.177956,10.161552,-14.345055,-15.600815,-30.783577,-40.970192,-47.07859,-86.412621,0.0,-59.342393,-22.388692,-79.401983,-19.125183,-74.97698,-14.266939,-63.42922,-8.267824,-49.102878,0.0,27.497406,1.380787,-7.10083,17.826576,26.760578,35.810108,62.182388,50.821152,94.005089,0.0,-50.625072,-27.951231,-87.633977,-22.983318,-80.236602,-16.126151,-74.365512,-8.229169,-48.6006,203.649645,-28.457075,-216.730185,-67.890178
54,-0.033646,4.746445,-0.032902,5.256226,0.0,-13.080025,-0.764465,12.744484,-14.793777,-14.052773,-31.144867,-37.907066,-47.367554,-84.088211,0.0,-46.489786,-24.54511,-81.776534,-22.329165,-77.447151,-18.069313,-65.402486,-11.995759,-52.668069,0.0,26.738033,1.407909,-5.430565,18.152618,27.889137,36.31216,61.757355,51.567993,94.544678,0.0,-48.109036,-28.331861,-89.683859,-23.636421,-81.296007,-17.02641,-79.851712,-9.546953,-51.336761,203.659744,-22.554261,-216.719341,-61.477583
55,-0.019226,2.683704,-0.048752,1.384722,0.0,-12.211075,-0.477791,14.109421,-14.452286,-13.38295,-30.700264,-37.164345,-46.960716,-84.759064,0.0,-48.306575,-23.071498,-84.372243,-20.501816,-80.064596,-16.209391,-67.932338,-10.558209,-53.690841,0.0,27.361393,1.719074,-6.483192,18.152962,29.293556,36.049175,61.911392,51.244125,93.424931,0.0,-49.02217,-28.193077,-89.724738,-23.257521,-82.547102,-16.564332,-80.173431,-9.204053,-51.412652,203.730469,-18.8342,-216.678143,-59.056504
56,-0.074043,0.854626,0.005894,-0.19402,0.0,-13.84346,-0.668335,14.25087,-14.801216,-12.061501,-30.79834,-35.768623,-46.689835,-83.083305,0.0,-46.601369,-22.73008,-84.705325,-20.623403,-82.070898,-16.413877,-67.996898,-10.535824,-55.154696,0.0,27.492142,2.314911,-5.724678,19.172287,30.341949,37.140198,62.37711,52.197247,93.629036,0.0,-49.176484,-27.609628,-89.235613,-23.264159,-81.331082,-16.791018,-80.101893,-9.417802,-50.699744,203.808775,-17.55152,-216.519899,-58.82247
57,-0.02655,-1.085757,-0.211372,-0.856633,0.0,-9.28093,0.306244,14.791145,-14.061241,-13.013535,-30.490265,-36.241608,-46.986122,-83.900986,0.0,-50.19481,-21.982313,-83.703733,-19.543481,-81.133619,-15.003868,-66.572934,-8.839695,-54.55263,0.0,26.699352,2.353363,-6.104794,18.936653,34.483223,36.575203,62.767982,51.671848,91.194992,0.0,-50.503501,-26.413677,-88.875052,-21.498159,-81.196728,-14.688138,-77.734784,-7.319338,-49.628775,203.87372,-18.260045,-216.639776,-59.301869
58,-0.141907,0.914925,-1.050911,0.294982,0.0,-12.999001,-0.351791,14.953766,-14.513626,-13.233604,-30.757942,-37.351341,-46.909218,-83.015556,0.0,-45.235542,-22.614452,-84.917438,-20.303381,-81.977006,-15.927562,-67.702102,-9.891366,-54.09793,0.0,26.754627,2.960186,-5.431309,19.731159,34.837818,37.252979,62.413158,52.179222,90.051727,0.0,-51.45631,-25.269596,-89.853148,-20.378161,-80.317294,-13.900882,-78.738691,-6.980822,-49.085804,203.716049,-16.957342,-217.706451,-58.61911
59,-0.540161,2.050021,-1.243572,1.037685,0.0,-15.459824,0.536613,15.50663,-13.832588,-12.39933,-30.157127,-32.123566,-46.420784,-81.265297,0.0,-43.107993,-24.670278,-85.499528,-23.327793,-82.666141,-19.323834,-66.721814,-13.163706,-55.486605,0.0,24.266968,2.67128,-4.314308,19.371929,32.803173,36.827431,61.085472,52.016544,90.612602,0.0,-51.803162,-25.195681,-89.7382,-20.980382,-83.321483,-14.52626,-80.743635,-7.507522,-49.7302,203.188677,-14.562106,-218.937235,-57.23621
60,0.630569,-0.242278,-0.766811,0.673635,0.0,-13.780746,0.694542,12.614594,-12.927132,-12.133026,-29.168701,-34.08577,-45.904541,-83.277626,0.0,-50.43576,-22.009792,-85.116212,-18.787347,-79.747724,-13.959483,-66.186932,-7.871109,-52.905962,0.0,23.66066,1.817722,-4.302921,18.724594,32.072983,36.566677,61.947098,52.014942,90.48048,0.0,-51.432875,-25.371731,-90.356568,-21.001809,-85.107737,-14.404766,-79.805893,-7.409957,-50.615145,203.82019,-14.395148,-219.703102,-56.153339
61,-1.254044,2.153576,0.348358,2.623312,0.0,-11.789474,0.58548,8.676338,-13.574753,-15.708275,-30.188255,-38.370209,-46.714096,-83.203125,0.0,-53.057127,-21.652597,-83.31168,-17.749137,-77.823982,-12.798113,-64.945656,-7.153878,-50.231459,0.0,19.433842,1.460152,-4.172173,17.952347,28.466892,35.359039,58.383694,49.869404,90.178642,0.0,-51.915949,-25.478313,-90.014579,-21.837941,-86.997037,-15.493086,-81.229579,-8.28107,-51.869698,202.807217,-12.252795,-219.113674,-53.54125
62,2.491379,7.498754,1.107731,4.005317,0.0,-0.1688,-0.119133,-7.326736,-16.126785,-25.82325,-32.175179,-44.959373,-47.122421,-78.517342,0.0,-66.057997,-35.411546,-85.547662,-28.350293,-80.398481,-19.357982,-74.041924,-9.714173,-54.682089,0.0,19.374905,0.207138,-5.859833,17.225475,25.573711,35.049419,55.799732,49.969997,87.54158,0.0,-49.983253,-26.346122,-91.181554,-23.222354,-89.234023,-17.30157,-82.06693,-10.189682,-54.054057,205.918322,-4.834146,-217.386217,-49.616039
63,-6.499786,11.897328,-0.022831,4.946115,0.0,-6.165276,2.885056,-2.111778,-11.353111,-19.920616,-26.726189,-43.575325,-42.494545,-74.525757,0.0,-68.614372,-31.246913,-92.238227,-26.843522,-91.300763,-20.507806,-80.810078,-13.160063,-58.457849,0.0,18.943977,0.367241,-3.784904,17.343521,30.122509,35.421352,55.464649,50.729256,84.680614,0.0,-50.830901,-25.607711,-93.849388,-20.8131,-88.988179,-14.109784,-79.992533,-7.224459,-54.076472,199.856672,5.765559,-216.970911,-45.967547
64,0.195808,13.383198,3.539886,7.047698,0.0,-28.452301,-3.774605,-13.358002,-19.252167,-37.747307,-34.672852,-54.482574,-49.0979,-77.984734,0.0,-47.429596,-30.97907,-95.7601,-25.957805,-95.722648,-18.751933,-84.803817,-10.333962,-60.936511,0.0,17.449837,-1.746941,0.774765,16.136055,34.009094,34.809151,54.077625,50.242252,76.834488,0.0,-52.540091,-23.57535,-93.791234,-17.852939,-88.589935,-10.898886,-77.602978,-4.496418,-55.924137,200.459833,17.940918,-213.023672,-40.127687
65,-5.401039,8.389905,6.576347,5.963299,0.0,-27.602806,-5.967064,-30.035706,-20.16037,-55.713501,-34.259148,-66.831665,-47.967339,-80.510902,0.0,-52.374909,-26.829473,-90.466916,-18.280839,-84.884772,-8.583431,-74.169253,1.169368,-49.353492,0.0,7.879314,-4.220066,1.290894,12.990818,27.718849,31.187439,51.510372,47.390957,68.306236,0.0,-54.820873,-19.818301,-89.34664,-13.098096,-84.864255,-6.211227,-70.088292,-0.77012,-50.017556,195.283041,25.355753,-206.223078,-35.139458
66,-7.309799,2.9404,3.609409,-0.318879,0.0,-28.684616,-8.806343,-48.170929,-19.648018,-70.062561,-31.74511,-78.810425,-45.012703,-82.446556,0.0,-69.959327,-18.544729,-76.824645,-4.719954,-68.716754,9.171696,-54.242673,22.633965,-30.116479,0.0,-1.832886,-3.57851,9.371452,11.381721,39.173927,27.795353,56.213779,43.091068,68.651333,0.0,-66.750466,-9.147799,-71.834687,0.682404,-67.022137,10.225868,-53.87038,16.971113,-32.216054,188.290586,26.048176,-202.296324,-37.706314
67,-11.557045,7.721796,5.824413,2.521455,0.0,-34.481964,-12.574997,-63.667831,-20.53997,-83.337135,-29.02256,-89.231987,-37.855682,-85.079956,0.0,-59.180885,-15.312929,-61.991887,0.003057,-51.073828,16.305752,-35.390612,31.664315,-10.583681,0.0,5.454426,22.856827,21.161327,34.077015,30.678749,42.267609,38.40786,46.960945,49.045258,0.0,-53.515254,-30.128644,-28.104218,-18.788149,-11.560696,-2.352475,5.503073,15.015817,19.361255,175.854235,32.721296,-197.351217,-36.233536
68,-7.135735,8.575743,16.199284,5.519005,0.0,-31.746368,-16.245689,-82.740898,-22.444725,-101.659813,-27.4086,-101.433792,-32.635918,-89.419899,0.0,-47.846411,-14.247148,-43.4215,5.064738,-29.625656,24.23398,-11.551557,40.33117,13.733662,0.0,-1.699619,26.953926,21.53801,34.43121,18.70657,35.518913,17.206478,32.708244,25.192051,0.0,-38.557204,-22.185873,-0.419594,-8.489694,32.636235,7.574491,48.442642,22.322496,52.907846,167.843542,35.250778,-182.026892,-36.760792
69,-19.979267,24.952399,-0.833816,39.743229,0.0,-47.959786,-23.175202,-83.099213,-28.776055,-96.531201,-32.375336,-97.92017,-34.449177,-88.940563,0.0,-36.0573,-13.101106,-29.192106,6.619814,-14.066466,25.594002,1.822595,41.981296,21.081236,0.0,12.087192,32.347154,32.710733,41.204853,33.976535,44.60721,34.38097,44.658479,39.31489,0.0,-50.057678,-27.051003,-21.455196,-13.012695,1.204025,3.195074,14.804723,19.16458,24.333537,148.868122,54.824161,-181.856861,-2.39658
70,-19.979267,24.9524,-0.833817,39.743229,0.0,-64.173203,-30.104713,-83.457527,-35.107384,-91.402588,-37.342072,-94.406548,-36.262436,-88.461227,0.0,-24.26819,-11.955065,-14.962711,8.17489,1.492724,26.954024,15.196746,43.631421,28.428809,0.0,25.874004,37.740383,43.883457,47.978497,49.246502,53.695507,51.555462,56.608715,53.437729,0.0,-61.558152,-31.916133,-42.490798,-17.535697,-30.228185,-1.184342,-18.833196,16.006664,-4.240771,129.534645,73.074666,-182.044888,30.644753
71,-6.940155,16.116487,12.262459,17.768187,0.0,-64.422798,-33.15239,-105.041199,-30.177956,-109.587708,-25.30838,-106.181946,-20.192413,-89.66526,0.0,-24.691921,-6.529736,6.260627,8.908917,21.76384,26.503246,33.953896,43.828899,47.724609,0.0,21.176376,43.61784,48.446846,54.566574,55.272789,58.730278,53.667469,59.422359,54.691429,0.0,-59.766464,-33.712051,-35.68615,-21.529528,-25.32863,-7.076381,-10.765351,8.472187,-4.272542,123.97954,85.717476,-168.397379,44.939264
72,-3.389053,26.187856,9.634781,30.088212,0.0,-71.076393,-38.424568,-108.989754,-33.990326,-116.98597,-27.676392,-108.468018,-20.381584,-88.331566,0.0,-19.05488,-8.904533,16.462722,5.399333,34.164774,20.242094,41.946376,34.322978,51.730296,0.0,27.080784,46.868562,57.986755,56.738605,65.491075,59.895,63.717642,58.689308,61.3379,0.0,-56.522205,-30.364067,-32.21431,-15.781336,-18.222454,0.460427,-3.843345,17.176418,7.417815,121.712494,110.897117,-157.64059,74.019261
73,-29.574852,30.900585,9.634781,30.088213,0.0,-73.128662,-39.364243,-91.164551,-33.996048,-90.602646,-27.585411,-82.185287,-20.228233,-68.52356,0.0,25.694593,4.103377,27.592739,23.687211,41.190551,41.307753,52.98562,54.99257,65.391525,0.0,32.985191,50.119286,67.526665,58.910637,75.709362,61.059723,73.767815,57.956257,67.984371,0.0,-53.277947,-27.016083,-28.74247,-10.033145,-11.116278,7.997234,3.078659,25.880647,19.108171,92.556639,140.858294,-147.586813,103.168065
74,1.133423,14.481336,11.767788,6.138022,0.0,-73.575211,-43.359375,-100.587502,-39.195099,-108.191986,-31.661911,-101.759491,-22.148209,-80.506897,0.0,6.089579,13.039773,39.503529,32.257242,61.881199,49.192601,74.353486,63.109662,83.738313,0.0,31.923065,45.273228,85.120125,40.334015,77.627907,28.68187,64.705811,14.012547,31.885643,0.0,-38.906989,1.73389,3.447217,19.357982,15.657095,34.288923,28.431464,46.343839,37.02354,93.64706,153.764408,-135.862026,107.730865
75,-4.137726,21.4206,12.637395,30.338425,0.0,-75.245819,-42.350235,-100.633736,-37.485008,-108.466473,-30.760803,-98.717194,-21.817818,-76.634102,0.0,9.303811,15.012081,44.093499,33.900544,68.593469,49.793865,79.540088,62.344883,91.95507,0.0,39.842148,42.628327,81.731844,39.245139,76.962147,31.391545,66.220208,20.563031,44.709263,0.0,-31.135531,7.535279,12.131331,27.400834,24.359287,43.932809,36.327721,56.696743,44.671807,89.508162,174.95806,-123.225804,137.842342
76,-24.054337,33.243952,12.637396,30.338425,0.0,-63.99971,-41.237526,-91.256905,-33.922234,-91.119804,-23.87661,-80.304565,-13.12294,-63.308601,0.0,23.214326,22.177475,60.95661,40.837276,74.347434,56.10062,82.834226,66.922009,88.911578,0.0,47.76123,39.983425,78.343563,38.156261,76.296387,34.101219,67.734604,27.113514,57.532883,0.0,-23.364071,13.336669,20.815446,35.443687,33.061479,53.576695,44.223978,67.049647,52.320074,65.396748,208.47552,-110.645485,168.454275
77,-2.665329,12.085667,1.939659,16.498166,0.0,-63.114624,-36.279144,-88.30719,-27.910995,-90.445175,-18.48484,-80.668831,-8.455925,-57.912941,0.0,23.491277,24.751973,60.751105,42.834408,81.106634,57.885886,93.200144,69.226102,99.811205,0.0,59.288292,20.986347,97.10741,16.177711,99.781322,13.600101,91.5798,12.360535,72.329292,0.0,-13.896251,16.47254,31.85358,35.254977,48.480187,49.666103,61.826241,59.530917,67.67345,63.034344,220.274372,-108.402901,184.665626
78,-1.94252,17.321299,15.424576,27.103059,0.0,-57.040672,-35.215187,-90.984421,-27.495461,-92.973232,-18.390656,-81.671219,-8.672791,-59.719505,0.0,23.256008,24.008004,63.933289,41.929641,79.699651,57.131049,90.705427,68.591061,98.144808,0.0,55.687523,43.373165,82.162342,42.532139,82.505894,38.709755,82.81477,34.31345,77.251568,0.0,-3.287715,25.98939,53.40787,48.557066,84.389039,65.358736,96.26951,77.452121,99.331651,61.125326,237.400678,-92.944822,211.573692
79,-8.882446,13.448746,2.218037,12.546881,0.0,-58.537216,-32.677345,-81.088486,-24.895935,-89.516602,-15.410843,-77.159328,-4.841766,-51.343117,0.0,22.711122,33.551716,64.9045,47.273275,86.261868,57.810427,96.413697,64.972919,100.448037,0.0,70.418758,29.534683,103.201561,21.544189,97.008018,14.250927,84.320068,8.258572,63.815289,0.0,0.629731,28.235561,56.748505,48.021505,72.267989,61.665567,83.407393,69.392396,83.837423,52.211437,250.335198,-90.758228,223.606347
80,-5.355148,9.418729,7.089844,19.453726,0.0,-51.533432,-33.438148,-95.74419,-27.783623,-98.848915,-19.611626,-83.888054,-9.363327,-56.123428,0.0,32.180363,30.421711,37.704122,44.461964,61.81914,55.10755,91.830581,60.874853,98.854135,0.0,72.56115,32.97472,96.859245,24.234638,93.67218,16.550617,80.918198,9.454308,57.5144,0.0,3.924609,29.732144,55.958656,47.110377,68.776065,58.875375,80.283193,65.702809,84.58485,46.708031,259.751364,-83.816643,243.05751
81,-13.937416,18.618675,22.744446,12.969069,0.0,-65.431595,-35.505409,-81.382542,-33.098373,-82.891731,-27.267265,-75.835304,-19.680061,-58.434505,0.0,8.666485,42.888316,29.340894,53.913914,39.361195,58.132641,52.580538,56.698981,75.278322,0.0,65.256271,31.683426,81.410065,21.807518,69.965973,12.356815,58.148804,3.665371,43.190689,0.0,14.732784,45.081074,60.784759,64.83256,70.968205,76.480602,86.774334,82.141077,92.157673,32.593346,278.41487,-61.249466,256.07141
82,3.694038,4.367977,-0.67709,11.200598,0.0,-59.995079,-47.798424,-18.405762,-44.043617,-13.135643,-37.584686,-21.136665,-30.252113,-73.148174,0.0,8.70298,25.80241,55.437853,39.354279,60.501448,50.04593,67.015129,58.952439,91.400181,0.0,72.844105,32.695656,96.168766,22.191982,92.394733,11.923599,73.852673,2.282124,48.532505,0.0,19.054139,37.628169,68.295276,55.788348,83.739672,67.406194,92.341443,73.946674,94.469424,36.176291,282.651442,-62.037649,267.140603
83,-1.176453,45.089533,7.363644,11.921843,0.0,-55.305347,-43.565483,-23.857269,-39.77005,-9.424553,-33.812828,-5.288086,-27.166557,-28.970718,0.0,39.89762,5.816024,35.715512,-2.240428,32.939893,-10.763159,22.84438,-19.807433,3.476178,0.0,75.001945,31.079006,91.043015,19.563046,87.40448,9.005699,69.941368,-0.988655,46.365738,0.0,17.458817,37.530789,69.031465,53.52007,83.821676,63.776011,92.966295,69.385665,93.919598,34.856815,327.480018,-54.817028,278.801489
84,2.046547,12.400471,5.649548,8.55447,0.0,-53.565331,-45.445633,-22.336235,-42.53334,-6.992912,-36.699028,-2.46151,-29.327316,-26.321411,0.0,41.757852,2.781671,34.529842,-8.499697,29.153172,-19.380367,19.132377,-30.004896,-0.059651,0.0,74.584179,27.814808,86.525745,16.04147,83.712788,5.214729,66.913204,-4.711533,42.415867,0.0,22.989864,36.254902,70.727008,51.843608,84.778931,61.976418,92.276975,67.563411,92.524656,36.471319,339.389542,-49.599524,286.865012
85,-2.196808,3.100673,-0.768757,2.755242,0.0,-50.219307,-43.5252,-19.377937,-41.836395,-5.163803,-36.993484,-2.732048,-29.788971,-33.728371,0.0,40.530192,5.241375,33.366959,-3.66853,29.014419,-12.947394,19.191472,-22.618126,0.745327,0.0,69.69635,29.524326,87.16301,18.296185,86.056366,7.271461,69.241333,-2.795105,46.374893,0.0,24.545295,35.552861,66.603315,51.806805,81.121763,61.774865,89.292516,66.865075,90.285586,34.188395,342.28153,-50.454397,289.411568
86,-1.255989,6.114896,0.578156,-2.819339,0.0,-54.252777,-41.726074,-15.80864,-38.149109,-1.607895,-31.824188,1.0215,-23.532944,-30.581017,0.0,38.779382,3.187556,23.986145,-9.623987,16.834027,-23.298986,4.556254,-37.617919,-21.340819,0.0,68.234138,28.734341,87.214394,17.433357,85.322685,6.333275,69.294777,-3.934822,45.974922,0.0,25.4232,35.839198,64.125395,52.263449,79.572013,62.215331,88.118826,67.290659,89.057,32.983189,348.336328,-49.825459,286.532131
87,-5.951958,1.266624,2.198982,-1.666705,0.0,-47.37545,-41.664047,-7.511902,-39.676781,8.015671,-33.456802,10.274277,-25.117035,-16.679192,0.0,37.47472,1.929824,24.895173,-10.988115,16.095368,-24.76315,2.835702,-38.864351,-26.911138,0.0,65.71106,28.416538,86.246338,17.365551,83.847198,6.251335,66.763687,-4.277401,44.485474,0.0,24.135766,33.945375,64.703934,50.434772,80.78053,60.955128,88.532307,66.869151,89.614668,27.019758,349.54642,-47.637949,284.808893
88,-5.918999,-3.503533,1.356869,-0.190747,0.0,-37.400551,-36.115494,3.243256,-34.901276,13.376884,-29.556198,14.205437,-22.353287,-5.079918,0.0,29.180713,1.618293,21.19515,-1.776189,18.325608,-6.136015,13.676111,-10.846769,6.296875,0.0,65.78413,28.488979,85.285549,17.225819,82.977505,6.082363,66.741543,-4.231167,45.349331,0.0,25.459818,33.454644,64.877947,50.222475,80.868278,60.881769,88.311734,66.982154,90.789161,20.989065,346.026646,-46.392775,284.601906
89,-3.204231,-4.175378,0.616207,1.235564,0.0,-66.854382,-48.975277,3.716698,-46.364307,14.945526,-40.092487,16.946411,-32.813988,-56.358547,0.0,40.33117,8.36255,30.099189,-3.032563,20.761971,-16.3039,10.377033,-28.109282,2.869418,0.0,65.036316,26.398659,84.38221,15.217495,81.815414,4.744148,65.826073,-4.623413,44.533768,0.0,25.733373,32.761434,63.856163,49.700128,80.132213,60.598829,88.046269,66.945042,90.921554,17.550945,341.699672,-46.010456,285.685873
90,-4.807549,3.893363,1.064415,1.353507,0.0,-45.011215,-41.353683,6.809807,-39.685249,20.569725,-33.176365,20.863266,-23.868713,-13.662758,0.0,40.226565,5.248662,28.169365,-6.276806,18.772866,-19.194807,9.356669,-31.969856,-5.638121,0.0,64.678802,24.992809,84.331741,13.614979,81.218834,3.341446,66.328926,-5.434399,45.077705,0.0,24.876647,31.69519,63.735811,48.911266,78.6515,60.178555,86.603471,66.475862,88.275487,12.51543,345.573012,-45.174007,287.019358
91,-2.277374,2.031342,0.832787,0.20532,0.0,-32.664013,-34.489632,9.504662,-33.798637,23.307953,-29.117203,25.859413,-23.046455,-3.776779,0.0,31.673145,2.923759,25.455558,-5.176414,18.381986,-12.92572,13.711926,-19.766245,-1.06538,0.0,63.320618,24.798889,83.606644,13.701782,81.28109,3.446331,66.270332,-5.549068,45.351791,0.0,24.763891,31.716988,63.440521,48.741638,77.380059,59.983671,85.816091,66.329082,88.132843,10.102787,347.577848,-44.47649,287.198171
92,8.712616,-6.126011,1.275444,0.434661,0.0,-65.274696,-47.551403,0.66021,-44.256134,14.011574,-37.625542,15.02037,-29.471169,-43.602448,0.0,41.957738,4.884211,31.696425,-5.282562,23.610764,-16.198306,14.973981,-26.302279,0.590272,0.0,62.794075,24.322701,83.236542,13.307533,81.254654,2.985764,66.359024,-6.102219,45.427322,0.0,24.108966,30.747074,62.275352,47.938697,76.625963,59.489668,85.053103,66.150129,88.15637,18.714952,341.441601,-43.301497,287.622597
93,-0.295601,5.378214,0.102654,-0.142582,0.0,-46.240025,-43.149033,1.708488,-41.033363,15.310593,-34.569855,16.617508,-25.617828,-10.21534,0.0,40.296405,4.390578,28.879062,-8.243433,19.549254,-22.062928,8.269553,-36.10738,-15.126751,0.0,62.307243,23.415527,83.143616,12.234306,80.464325,1.967754,65.895996,-6.792698,44.81678,0.0,23.854246,30.507606,61.539411,47.846319,77.076741,59.257733,85.219274,65.615803,87.985754,18.271866,346.790051,-43.346329,287.450252
94,-6.008606,3.958819,0.129261,0.188709,0.0,-34.645729,-32.467403,5.175362,-30.239754,20.754318,-24.626884,25.396614,-17.54734,4.232826,0.0,31.619731,2.969886,21.250169,-7.374234,14.726856,-17.915647,7.045043,-27.84147,-7.82458,0.0,62.205906,22.491531,82.955761,11.776485,80.799809,1.993561,66.261463,-6.46677,45.381489,0.0,23.93977,30.311425,60.211592,47.791546,76.194389,59.444528,84.764297,65.964384,87.811618,12.04113,350.778927,-43.439198,287.669018
95,6.63414,-10.830837,0.163536,0.220078,0.0,-67.03886,-50.280933,1.966896,-48.093967,13.277321,-42.629757,14.304428,-36.271133,-61.666088,0.0,42.992181,8.592138,31.847281,-3.498346,22.731994,-17.078435,12.664948,-28.833367,-0.075521,0.0,61.40871,23.010693,82.861347,12.428226,80.552044,2.508316,66.242924,-6.231766,45.397739,0.0,23.66918,30.360022,60.704298,47.632477,76.590271,59.139913,84.805052,65.608639,87.832428,18.146238,339.896729,-43.804693,287.837736
96,-6.035728,2.188743,-0.077419,-0.072618,0.0,-42.008915,-41.196842,6.554031,-40.699482,18.813629,-35.454197,20.190926,-27.303772,-12.439156,0.0,43.007001,5.819853,32.233036,-4.815235,22.987579,-16.828778,14.676097,-28.513191,1.573956,0.0,61.123466,23.137608,82.929153,12.586613,80.150185,2.62722,66.367035,-6.124592,45.545425,0.0,23.119972,30.010824,60.747215,47.201397,76.469425,58.515246,84.961404,64.661203,87.659773,11.752825,342.108351,-44.239798,287.787996
97,7.446899,2.136441,0.157127,-1.12114,0.0,-72.247753,-54.560509,-4.949226,-49.695454,11.094246,-41.196842,17.573547,-31.910362,-51.548023,0.0,40.213289,6.283907,30.666243,-9.28121,18.956635,-26.179458,5.173697,-42.148423,-20.818781,0.0,61.4534,23.310928,82.437515,12.609444,80.239677,2.291451,66.120872,-6.734276,45.345726,0.0,24.223328,30.426157,61.742261,47.308967,76.512095,58.454175,85.399894,64.3577,87.855275,18.894281,344.263657,-44.388113,286.68572
98,-2.458992,1.360423,0.547142,-0.10337,0.0,-53.984985,-47.195892,-2.685585,-44.671669,13.29895,-37.461662,17.642441,-27.775154,-8.244095,0.0,43.748623,4.494071,31.115168,-10.327262,19.646882,-26.479071,7.502366,-42.56987,-15.362391,0.0,60.741577,22.918797,82.078857,12.083359,79.866142,1.752892,65.674324,-7.304363,44.547844,0.0,23.771006,30.121295,61.714164,47.149527,76.247186,58.442998,85.28757,64.474531,88.139389,16.156054,345.646125,-44.120207,286.604395
99,-2.926712,2.076172,-0.363121,-0.030319,0.0,-45.244274,-43.100624,-3.537254,-40.651302,14.446335,-34.102364,19.290504,-25.89695,-4.317284,0.0,40.699079,5.351723,28.106009,-9.946695,17.390275,-26.337292,5.340855,-42.091613,-20.416168,0.0,60.953064,23.084736,82.303162,12.305431,79.950256,2.099075,66.015129,-6.776333,45.380745,0.0,23.721359,29.786731,61.592331,47.145019,76.064713,58.744402,85.297264,65.021702,88.079861,12.896376,347.725863,-44.816294,286.577641
100,-4.990997,-0.199207,-0.245533,-0.301527,0.0,-37.975044,-35.411854,3.89225,-33.390713,21.226616,-27.661972,25.960808,-20.739098,-2.567139,0.0,35.060711,5.652077,26.302279,-6.926111,17.890885,-20.054126,9.686355,-31.907426,-18.659925,0.0,61.264172,22.544403,82.615299,11.614666,79.840221,1.437263,65.538197,-7.249432,44.482555,0.0,23.987565,29.821806,62.049531,47.121801,76.886117,58.646775,85.897108,64.723571,88.120308,7.65604,347.520358,-45.311165,286.269816
101,10.509338,-3.200153,-0.215778,-0.22613,0.0,-64.920616,-53.958778,-6.465569,-49.865685,10.8601,-41.389217,16.638107,-31.019211,-19.640007,0.0,40.783986,3.718425,31.954603,-11.884731,20.065302,-28.545486,6.724249,-44.595468,-22.290355,0.0,61.213074,22.93951,82.216759,12.14138,79.490433,1.901608,65.039177,-7.022896,44.264488,0.0,23.930569,29.623093,61.82865,46.902031,76.788428,58.424041,85.657084,64.693684,88.315933,17.928171,344.312717,-45.764151,286.036198
102,-0.925941,2.820388,0.077133,-0.306344,0.0,-53.163414,-48.183346,-8.944473,-45.228539,9.586029,-37.561913,15.018883,-27.395325,-3.334808,0.0,40.324748,3.456171,29.520525,-11.405857,19.235933,-27.434782,6.709059,-43.324274,-15.30274,0.0,60.881538,22.54097,81.820908,11.796913,79.527626,1.596909,64.843483,-7.245483,43.769875,0.0,24.277174,29.734491,62.268992,47.01417,77.358508,58.486779,85.771631,64.618657,88.624809,16.808968,347.165355,-45.88028,285.762104
103,-6.698456,2.108221,-0.727444,-0.462696,0.0,-44.968357,-41.812935,-0.299149,-39.097424,18.254128,-31.881523,22.648544,-23.057671,3.006821,0.0,37.973663,2.631741,26.335995,-11.212208,15.998235,-25.601227,4.606519,-39.017121,-18.271638,0.0,60.841198,22.668858,82.606945,11.799145,79.974232,1.521435,65.149441,-7.371025,44.053173,0.0,24.23679,29.94685,62.53211,47.212204,78.068267,58.576873,86.634531,64.515472,88.719534,9.938936,349.263711,-46.779299,285.289543
104,5.670662,-5.439594,-0.348701,0.324498,0.0,-66.185532,-51.594715,-3.072739,-47.585449,12.565956,-39.343586,16.864243,-29.661369,-38.091316,0.0,39.940907,5.110526,30.996299,-9.017289,19.552342,-24.298787,7.365342,-39.353291,-15.175287,0.0,60.770931,22.640076,82.360325,11.816311,80.178509,1.615906,65.040264,-7.190952,43.835278,0.0,24.274457,30.032869,61.762515,47.217453,77.578278,58.457201,86.20833,64.416548,88.712494,15.524282,343.80851,-47.213316,285.598434
105,-2.308617,2.334227,-0.300179,0.185498,0.0,-48.781185,-47.469921,-1.054802,-45.770073,15.814362,-38.551941,18.512993,-28.499794,-9.258957,0.0,41.517148,4.075774,29.969327,-9.254658,18.449973,-23.507517,7.868484,-37.495962,-11.095499,0.0,61.173763,22.732944,83.064594,12.01189,80.651722,1.813602,65.563831,-7.109928,44.274387,0.0,24.065803,29.991125,61.342551,47.092655,77.302871,58.318448,85.884449,64.246611,88.641296,13.134928,346.096409,-47.594233,285.737604
106,-5.075798,2.19955,-0.180588,-0.122513,0.0,-40.737019,-39.33094,3.914795,-37.216644,23.509483,-30.539875,26.071014,-22.361183,-1.877403,0.0,33.774635,4.126595,24.384805,-6.525969,16.108274,-17.646971,8.467216,-27.82949,-7.857122,0.0,61.209354,22.699814,83.401051,11.961308,80.849934,1.856747,65.869617,-6.950169,44.729633,0.0,24.411667,29.877319,61.37991,46.938835,77.400869,58.131035,85.993994,64.091123,88.737009,8.015156,348.223865,-47.818794,285.542998
107,3.553505,-12.290061,0.471325,0.753664,0.0,-63.899059,-47.840366,5.537224,-45.38744,16.942749,-38.760452,16.258278,-30.883141,-52.875595,0.0,43.392632,3.663343,31.800104,0.271825,27.400634,-4.322714,23.292811,-8.052439,25.075669,0.0,61.438293,22.323532,82.851219,11.36261,80.245743,1.183205,65.200996,-7.62394,44.160233,0.0,23.785085,29.39579,60.876767,46.440138,76.659184,57.710638,84.993391,63.774961,87.862376,11.603336,335.950353,-47.312794,286.313211
108,-0.511322,15.214931,0.296173,-0.039335,0.0,-49.007492,-44.592247,0.229797,-42.24638,20.451622,-34.912891,22.729111,-25.259171,-8.923416,0.0,38.028559,3.593503,23.708021,-10.970763,12.511683,-26.574846,2.133168,-41.592669,-28.978851,0.0,60.992546,22.066212,82.611465,11.142941,79.994202,0.968056,64.812698,-7.903633,43.352852,0.0,23.825408,29.814334,61.056337,46.97607,76.901308,58.197108,85.277813,64.143796,88.162483,11.24445,351.180104,-46.864185,286.288696
109,-5.760155,3.053311,-0.641842,1.0555,0.0,-39.658642,-39.147549,-0.665131,-36.4991,22.12326,-29.239311,29.394493,-20.455055,-2.880707,0.0,28.68109,0.27059,16.024479,-11.69417,9.247433,-24.395982,1.855353,-36.266326,-21.429801,0.0,61.175938,22.071533,83.153629,11.25246,80.752659,1.47131,66.171513,-6.780624,44.980145,0.0,22.873341,28.590441,60.354173,46.43526,75.672907,58.315175,84.14284,64.667007,86.948779,5.727024,354.176497,-47.263298,287.287277
110,8.901443,-12.743062,-0.314655,0.542848,0.0,-68.261375,-52.526035,0.826721,-48.803959,15.012932,-41.403694,15.845375,-33.066673,-56.487865,0.0,41.487385,5.389699,29.069994,-5.199817,20.71152,-17.013227,11.62538,-27.014755,7.611912,0.0,61.512451,22.197933,83.272133,11.640415,80.868073,2.075272,66.718597,-6.049461,45.835304,0.0,22.388785,28.427234,60.010347,46.093225,75.407627,57.79147,83.537254,64.01974,86.10638,14.97016,341.40012,-47.236261,287.796811
111,-4.160385,-15.109153,-0.027122,-0.27868,0.0,-29.046936,-38.670158,13.200989,-42.741451,21.952629,-41.969147,11.261444,-38.177261,-51.044312,0.0,38.013368,6.58068,33.448099,13.817025,35.744473,19.056424,38.732575,23.285031,54.981702,0.0,61.436462,22.646027,83.643379,11.8606,81.123505,1.926212,66.532173,-6.514149,45.266304,0.0,22.599972,28.753153,60.444885,46.452982,75.690938,58.095158,83.772153,64.228271,86.207651,11.096592,326.238742,-46.976566,287.465906
112,-8.183899,13.365815,0.086002,0.047795,0.0,-23.047943,-30.370274,16.95488,-33.947468,28.839798,-32.721634,26.556129,-28.059082,-36.335564,0.0,27.673138,0.727914,24.406912,0.533832,25.931839,0.786453,29.642606,1.941742,28.699307,0.0,61.858349,22.732258,83.517094,11.981792,81.209507,2.027836,67.010822,-6.536064,45.378971,0.0,22.364949,28.583833,60.225424,46.119036,75.516493,57.645862,83.913993,63.657326,86.147259,3.096313,339.546898,-46.706944,287.456041
113,9.552727,3.198177,0.382175,0.109051,0.0,-61.557369,-49.567337,4.294281,-49.209023,18.565521,-43.559418,19.689331,-35.693092,-43.469009,0.0,42.165466,7.353795,29.910665,-5.778233,19.12083,-21.034475,6.412039,-35.808014,-6.062841,0.0,61.868935,22.917824,83.159637,12.411175,80.772629,2.542477,66.605186,-6.070976,45.538788,0.0,21.962522,27.99844,60.153855,45.782435,75.227686,57.613011,83.268516,64.003191,85.72328,12.828512,342.678894,-46.145296,287.498911
114,-9.921913,-1.934826,0.484028,0.464981,0.0,-25.542011,-33.586807,17.386436,-34.476414,28.912468,-30.669136,23.965645,-23.364258,-7.770424,0.0,38.185899,4.719522,27.568101,-1.270576,24.455263,-8.026195,19.750375,-14.409026,15.935311,0.0,61.486187,23.040562,82.926807,12.417698,80.715122,2.148685,66.307583,-6.993256,44.887333,0.0,21.396086,27.844928,59.381049,45.656155,74.809883,57.615851,82.663177,64.158616,85.18988,3.114052,340.687227,-45.453815,287.907051
115,8.621864,-8.798878,-0.272198,-0.616948,0.0,-54.697781,-42.047539,10.18959,-44.801331,19.16153,-43.620529,12.633133,-40.525017,-63.235817,0.0,47.095866,9.640598,31.339013,9.134738,28.335535,6.906043,25.763322,4.964424,39.465059,0.0,62.176666,23.359566,83.203011,12.977085,81.474266,2.994175,67.770538,-5.800323,47.290764,0.0,21.99173,27.762306,59.926367,45.774654,74.549667,57.956467,82.705908,64.650335,85.580637,12.104788,331.874888,-45.357141,287.276641
116,-5.263023,-12.260791,0.27277,0.582986,0.0,-3.154449,-27.072029,23.889084,-35.595074,28.828354,-38.733444,14.096947,-37.849445,-44.940662,0.0,13.628439,8.449,34.197934,21.828832,41.481148,32.751925,50.001593,42.566905,67.978435,0.0,62.121449,22.790909,83.188763,12.348061,81.556492,2.343693,67.503262,-6.522617,46.878719,0.0,20.843358,27.699074,58.976522,45.647881,74.013241,57.796595,82.167136,64.577222,85.204392,7.293491,319.590786,-44.632645,287.836315
117,4.469147,9.432005,-0.031071,-0.074656,0.0,-43.404636,-41.04475,13.749847,-46.143837,21.060448,-46.662083,11.922798,-44.41824,-58.011589,0.0,47.699291,7.25907,32.303925,9.86679,30.854149,10.265635,30.489698,10.161216,43.818957,0.0,62.335167,23.007202,83.024254,12.681255,81.40892,2.78532,67.982712,-5.920143,47.550316,0.0,21.512053,27.84252,59.514677,45.686536,73.935374,57.709095,82.468972,64.379127,85.475908,12.160263,328.983965,-44.26609,287.722834
118,-6.735878,-9.857342,0.366154,0.132393,0.0,4.568024,-24.710884,26.068954,-34.213715,30.823517,-38.096809,18.206749,-37.883434,-54.259586,0.0,10.618539,6.23463,35.030391,20.14249,42.055056,31.88075,50.653184,42.690839,68.727529,0.0,62.515011,23.445797,82.803898,13.124084,80.752659,2.999496,66.482449,-6.063824,45.819569,0.0,21.114627,27.821895,59.340355,45.600086,74.034051,57.644133,82.236111,64.385858,85.679067,5.855684,319.103729,-43.468637,287.832333
119,9.202881,15.785134,-0.354881,-0.223042,0.0,-53.978348,-46.620541,9.070358,-48.578796,18.462753,-45.767784,13.421745,-40.463734,-52.0681,0.0,44.476166,3.448328,29.488909,2.016336,26.705571,-0.736559,23.971572,-3.443141,31.510309,0.0,62.220669,23.837471,82.948437,13.684158,81.294994,3.691692,67.146435,-5.373287,46.25845,0.0,21.356195,28.102612,59.193883,45.927425,73.875846,57.952453,82.423771,64.670712,86.024869,15.396223,334.816616,-43.485861,287.537042
120,-11.551781,9.840052,0.104942,0.356423,0.0,-29.471855,-28.446865,12.146072,-28.800373,27.179375,-24.246941,28.358803,-17.370186,-6.095352,0.0,28.213454,1.349679,18.973185,-0.636955,18.867036,-3.031883,18.125104,-5.567108,18.622627,0.0,61.875286,22.940769,81.688213,12.772694,80.575504,2.810097,66.320171,-6.240749,45.170918,0.0,20.950927,28.107985,58.513085,46.03839,73.670897,58.179633,81.803735,64.991321,85.591258,4.305868,344.594176,-42.919493,287.830974
