takenoko1/special-research/HandMotion_SimilarSearch_自分用/NewProject/handData/test_key/d4_feature_d2/91.csv
frame,vel_0x_L,vel_0y_L,vel_0x_R,vel_0y_R,posFromWrist_0x_L,posFromWrist_1x_L,posFromWrist_2x_L,posFromWrist_3x_L,posFromWrist_4x_L,posFromWrist_5x_L,posFromWrist_6x_L,posFromWrist_7x_L,posFromWrist_8x_L,posFromWrist_9x_L,posFromWrist_0y_L,posFromWrist_1y_L,posFromWrist_2y_L,posFromWrist_3y_L,posFromWrist_4y_L,posFromWrist_5y_L,posFromWrist_6y_L,posFromWrist_7y_L,posFromWrist_8y_L,posFromWrist_9y_L,posFromWrist_0x_R,posFromWrist_1x_R,posFromWrist_2x_R,posFromWrist_3x_R,posFromWrist_4x_R,posFromWrist_5x_R,posFromWrist_6x_R,posFromWrist_7x_R,posFromWrist_8x_R,posFromWrist_9x_R,posFromWrist_0y_R,posFromWrist_1y_R,posFromWrist_2y_R,posFromWrist_3y_R,posFromWrist_4y_R,posFromWrist_5y_R,posFromWrist_6y_R,posFromWrist_7y_R,posFromWrist_8y_R,posFromWrist_9y_R,posFromBody_0x_L,posFromBody_0y_L,posFromBody_0x_R,posFromBody_0y_R
2,-16.307716,7.318041,0.015106,-0.362907,0.0,-13.320007,-33.689575,16.555481,-44.627209,17.138786,-49.016075,0.51693,-50.729427,-18.611984,0.0,-10.815152,13.327468,34.735286,31.510556,46.502198,44.488887,53.189458,53.781583,56.755359,0.0,70.554142,25.807915,88.452358,15.469437,85.39484,6.202011,70.759335,-1.355953,50.291348,0.0,11.82718,34.813153,60.181643,51.958587,70.708915,62.656291,80.015813,67.881425,83.973212,20.857658,296.766814,-45.272198,277.417076
3,-15.390587,10.461076,-0.144138,0.010189,0.0,1.129417,-15.128345,29.494629,-25.970192,30.113983,-32.261467,11.527405,-35.819607,-15.068321,0.0,-19.635705,4.014827,24.425067,20.206649,38.517684,33.679477,45.112566,44.261275,46.214132,0.0,69.610748,26.114101,87.88765,15.620556,85.227356,6.296997,70.490456,-1.33707,49.395905,0.0,11.226101,34.57881,60.395052,51.93963,70.925535,62.670987,80.473137,67.975965,84.129749,4.495869,307.140436,-46.387539,277.339811
4,-12.329979,4.562614,0.272255,-0.25929,0.0,9.828415,-6.899986,45.15564,-17.038937,41.302299,-23.098297,25.423279,-26.429443,5.457573,0.0,-28.662936,1.787921,22.842095,17.137839,36.241379,29.7976,40.911562,39.214476,45.137266,0.0,70.261803,25.671158,87.72583,15.251598,85.270386,6.039333,70.942497,-1.499348,50.146408,0.0,11.978098,34.709227,60.063946,51.85849,70.780422,62.408054,80.561378,67.520926,83.959009,-8.350468,311.686995,-46.631641,277.064466
5,5.630608,-4.811839,0.138016,0.185128,0.0,10.861702,-13.223991,42.971764,-23.680115,39.132271,-29.176311,25.84774,-31.673241,7.080803,0.0,-15.521645,5.243783,27.022783,19.405561,40.481162,31.183526,45.823746,40.557424,50.530918,0.0,70.684891,26.079712,88.344498,15.592518,84.276695,6.419506,70.103874,-0.936985,50.474625,0.0,11.763824,34.197131,59.980769,51.862751,70.208983,62.844753,79.86119,68.283173,83.415359,-3.142805,306.843247,-46.916571,277.217684
6,14.065247,-19.835282,0.293026,-0.010251,0.0,-7.473221,-20.956593,25.295677,-33.544693,22.997475,-42.8195,10.797501,-50.816574,-11.689224,0.0,-16.335701,8.173161,37.777111,29.92814,54.404459,47.417709,65.177375,61.295497,71.008651,0.0,69.867611,25.078869,87.751751,14.639568,84.53619,5.649204,69.770908,-1.477261,50.256214,0.0,11.869541,33.457114,59.716662,51.080867,70.169093,62.181121,79.607828,67.770151,83.125626,10.600176,286.987849,-46.94581,277.187318
7,-27.90659,10.719439,-0.181332,-0.109977,0.0,34.980755,1.967468,52.049389,-9.409046,53.080044,-17.893696,37.558079,-24.450302,16.804218,0.0,-6.5553,2.715042,25.535771,20.711273,43.511872,37.340351,53.137094,50.771436,58.623433,0.0,69.671402,25.702114,87.441216,15.296574,83.791122,6.118412,69.218216,-1.356354,49.37233,0.0,11.506078,34.250051,60.155522,51.577464,70.413686,62.36946,79.90139,67.765273,83.36812,-17.454643,297.686633,-47.275372,277.056685
8,31.551533,-11.878,0.128517,0.288066,0.0,-8.109055,-27.841358,21.720657,-41.524544,19.280548,-50.158367,7.426643,-56.48592,-14.82399,0.0,-16.789752,9.403476,40.290353,31.383535,56.850702,48.753618,66.867113,62.536618,71.212057,0.0,69.926491,25.35387,87.489166,14.984493,84.10881,5.983315,69.197845,-1.13451,49.455757,0.0,11.639088,33.709303,60.197327,51.363499,70.265856,62.435409,79.335818,67.975101,82.819653,14.020157,285.803924,-47.223587,277.340042
9,-36.285553,11.418824,-0.443172,0.056934,0.0,38.280716,4.649906,56.014938,-5.217991,58.60302,-12.912598,43.600044,-19.035702,22.229462,0.0,-10.234143,3.308031,25.006879,22.051504,43.902937,38.716397,53.140305,52.231895,58.536303,0.0,69.801922,25.075893,87.425938,14.698105,83.789577,5.71146,68.706837,-1.43652,49.054012,0.0,10.875483,33.581727,59.78607,50.989168,70.147357,61.84594,79.304943,67.329191,82.940128,-22.320242,297.204548,-47.721605,277.378775
10,17.01828,-10.083904,-0.024605,-0.196613,0.0,12.19883,-7.745304,42.932854,-19.573174,40.515289,-30.175667,27.678795,-40.032978,3.948097,0.0,-17.223363,6.674664,38.514843,28.174119,55.016838,45.779903,65.831497,60.126994,70.100611,0.0,70.255337,25.806313,87.84502,15.550117,83.807316,6.38483,68.996944,-1.050739,49.33588,0.0,11.228016,34.044669,60.415492,51.454395,70.11185,62.237931,79.098881,67.595397,82.963778,-5.326996,287.105314,-47.771244,277.166832
11,16.499634,1.082608,0.270309,-0.132331,0.0,-11.965599,-22.763157,19.05098,-35.730515,19.013214,-43.449097,4.137497,-48.671665,-15.737457,0.0,-1.436562,16.919119,31.847898,36.127696,47.485017,50.759641,56.555041,63.049023,64.699982,0.0,70.777988,25.18507,86.859913,14.854946,84.111843,5.957165,68.839931,-1.00811,49.510403,0.0,11.389678,33.998851,60.400116,51.579008,70.565098,62.432569,78.70973,67.890441,82.459277,11.123915,288.160613,-47.549658,277.007192
12,-18.093681,4.008713,-0.405693,0.196058,0.0,27.076607,-11.37085,37.662392,-22.521687,45.546341,-28.094501,28.772163,-31.36322,6.630363,0.0,4.473076,3.169896,28.508498,24.425128,51.317062,42.902766,56.489709,57.93294,59.943595,0.0,71.136646,25.270157,87.446194,15.212688,85.244007,6.538811,69.954815,-0.331078,50.192699,0.0,10.640584,33.717022,59.886908,51.234255,70.516006,62.181121,79.060226,67.724456,82.632117,-7.073879,292.163661,-48.059464,277.197584
13,33.256187,-5.80281,0.223675,-0.048227,0.0,-29.52198,-36.595001,5.932846,-51.562157,2.753105,-60.730934,-9.656754,-67.247944,-36.333618,0.0,-10.676893,11.402646,43.012867,32.552038,58.060701,48.821481,66.349027,61.984878,70.1376,0.0,70.874062,25.244064,87.665405,14.694557,84.767532,5.496368,69.19899,-1.86676,49.20742,0.0,11.282665,33.35078,59.759702,50.739573,71.361987,61.448576,79.550833,66.905275,82.5758,26.174841,286.359616,-47.843256,277.148122
14,-38.995228,4.123137,0.078392,-0.149374,0.0,27.236538,-2.146568,42.093029,-13.395138,44.235935,-20.886097,31.475887,-26.876965,6.828518,0.0,-4.320676,9.680921,34.388249,30.775479,51.504907,47.033622,58.537909,58.253733,60.383443,0.0,70.851059,24.49213,87.792206,14.148445,85.472488,5.356636,70.066452,-1.496658,49.934464,0.0,11.672804,32.966878,59.761987,50.700238,71.531739,61.65933,79.562998,67.171604,82.221353,-12.836094,290.466559,-47.780571,276.982554
15,30.940075,-5.697031,-0.034904,-0.32703,0.0,-18.118515,-28.828526,14.534454,-43.349018,11.542168,-52.561855,-0.040512,-59.155827,-27.056007,0.0,-6.703316,11.924066,42.309345,33.300145,57.259181,49.842771,65.71485,63.049826,69.797602,0.0,70.300713,25.576286,87.913971,15.20937,85.068855,6.060448,69.175873,-1.242771,49.395103,0.0,11.543128,33.654469,60.210542,51.07321,71.353651,61.8791,79.424862,67.441947,82.605626,18.100805,284.760697,-47.818651,276.646693
16,-27.455292,8.124502,-0.122967,0.375319,0.0,30.277061,-9.230003,41.02787,-20.164776,47.651367,-25.899124,35.343819,-28.874187,11.836853,0.0,-1.326831,4.842776,26.307096,26.435413,47.975068,43.746462,55.487809,56.755668,59.500103,0.0,70.960407,25.036926,88.342381,14.783363,85.708752,5.947723,69.819889,-0.968742,49.762974,0.0,11.266486,33.557953,58.902792,51.150336,70.700825,61.974998,78.75734,67.495979,81.597427,-9.374256,292.881648,-47.961388,277.018461
17,-11.039658,0.479924,0.076447,0.171357,0.0,32.310104,5.41769,54.635124,-6.004086,52.43969,-14.530563,40.771408,-21.05444,19.876556,0.0,-7.453151,12.776345,37.371102,30.893978,52.035837,44.760095,58.374517,54.622932,59.672387,0.0,71.007671,25.263004,88.169918,15.035648,85.875835,6.191826,69.889126,-0.59824,50.582829,0.0,10.290274,33.263094,58.034704,51.084757,69.5548,62.154568,77.507018,67.760086,79.5412,-20.425644,293.348543,-47.896671,277.17679
18,3.975449,-8.254425,-0.542736,0.064467,0.0,26.708107,6.260376,54.645767,-5.230007,49.943848,-17.138557,36.859131,-28.839626,10.901985,0.0,-17.300428,8.557619,37.086556,29.90943,53.153952,47.002499,62.776333,60.773459,67.882537,0.0,70.142555,24.900284,89.261055,14.821301,87.863159,6.160698,71.883545,-0.568371,50.958252,0.0,9.699384,33.637858,57.723915,51.39493,70.708297,62.460048,77.870851,68.223646,80.170436,-16.459637,285.099475,-48.448849,277.246614
19,22.236214,-2.132612,-0.772076,-1.710239,0.0,-3.551331,-24.100285,32.122307,-36.012211,33.693581,-44.106846,22.101173,-49.744148,-6.172714,0.0,-12.461171,11.53331,46.039872,33.056292,61.808704,49.817392,70.74473,63.359504,73.312497,0.0,70.296192,24.723701,90.193806,14.462185,88.943539,5.784416,74.041386,-1.079636,51.508999,0.0,9.532164,35.235588,60.649402,52.748005,75.185696,63.328382,84.077138,68.38253,84.828949,5.71043,282.948709,-49.287071,275.51822
20,-11.348076,7.399181,-2.82486,-1.548577,0.0,14.250298,-16.581459,40.604324,-25.865307,46.806221,-30.440483,37.524376,-33.221684,15.430641,0.0,2.940122,15.92117,40.494932,32.334368,59.786193,46.128855,67.950586,57.121786,72.54741,0.0,69.10738,28.746071,92.11607,17.785091,90.029583,7.522144,73.437252,-1.385593,48.836918,0.0,7.874227,35.880694,63.596626,52.77289,82.700783,62.424294,92.864407,67.018216,89.89026,-5.806847,290.347427,-52.281132,273.96918
21,-16.016636,13.680866,-4.415245,-5.640406,0.0,29.363308,-1.381359,48.356609,-7.954903,56.067295,-12.897205,46.623058,-16.941547,26.458683,0.0,-23.384572,-0.701114,20.420182,15.619458,39.336988,30.815493,48.214289,43.656677,51.315827,0.0,68.042736,28.355312,89.614277,18.214817,88.496304,7.936935,68.9538,-2.216549,30.62788,0.0,10.410749,32.439591,63.225629,49.842092,86.511154,60.694295,95.133179,66.396698,81.178327,-22.145948,304.03209,-57.018843,268.332571
22,40.900898,-1.324052,-1.622772,-11.8667,0.0,-67.178135,-27.041588,-68.929253,-27.461586,-67.588749,-26.850243,-64.020309,-25.835838,-62.727871,0.0,29.744371,16.957651,9.787873,16.459881,2.524419,11.881459,-0.793616,3.711262,1.634533,0.0,64.186878,26.681786,74.074116,16.72823,59.069309,6.769352,38.453636,-2.89444,19.807892,0.0,22.583608,27.658195,55.964028,46.169795,73.371901,59.539315,78.34954,68.67498,74.8888,18.306799,302.677301,-59.089766,256.435135
23,10.769119,-27.126894,-1.763878,25.61722,0.0,-61.889534,-34.057045,-92.825432,-30.020027,-96.028633,-23.754845,-87.538834,-15.956841,-66.621552,0.0,-16.225168,22.299247,38.958891,38.203807,54.779408,51.364981,66.608502,61.504954,75.967024,0.0,43.678551,50.173244,20.339241,47.847462,4.817448,42.190876,-2.034302,34.142246,9.603539,0.0,40.170557,13.012109,58.739894,10.381294,55.50726,7.693978,50.416556,5.067054,47.467789,28.558416,275.433514,-61.371145,281.935462
24,0.259094,-3.47766,-25.584984,-65.573133,0.0,-61.100121,-32.286301,-91.922779,-27.974281,-96.079216,-21.600952,-86.797085,-13.853073,-67.102089,0.0,19.555861,25.190587,43.641486,43.093204,57.377001,56.302729,72.123678,65.161752,81.30016,0.0,57.38451,40.182724,52.805386,29.807911,46.99419,17.378368,31.556511,3.194962,19.218521,0.0,16.179349,1.753279,19.009123,0.200318,17.80956,1.89969,17.103073,6.49497,14.792805,28.499594,272.611427,-87.274046,217.017902
25,1.203804,-0.742425,-31.52441,-59.442243,0.0,-63.209209,-33.942261,-94.339714,-29.548531,-97.968864,-22.601395,-88.191319,-14.182777,-68.85458,0.0,21.08085,25.806115,43.240541,43.2532,56.31477,56.261788,71.277945,65.289884,80.012726,0.0,66.821136,25.701141,79.114666,24.708366,82.126007,24.115448,73.828926,23.431721,67.379494,0.0,9.407861,-7.425981,6.233395,2.528432,15.411791,15.779268,21.193853,31.383906,27.163142,29.562035,272.886047,-118.939819,158.592703
26,0.310822,-0.504007,-22.292175,-51.656196,0.0,-63.038292,-33.868332,-94.290218,-29.489479,-97.658958,-22.566719,-87.417011,-14.33567,-68.242893,0.0,20.691946,25.460004,43.376639,43.267649,56.260492,56.637107,71.007849,65.799016,80.078675,0.0,73.133926,33.435516,81.924648,29.841557,84.332771,25.570221,71.973038,21.782398,59.009743,0.0,-1.222751,-5.904605,0.186857,8.600597,10.458791,24.636932,20.128226,41.229392,27.410143,30.108719,272.485858,-140.996132,107.040325
27,0.753136,-0.263366,-13.648109,-38.162002,0.0,-63.816948,-34.488373,-94.53043,-29.773064,-97.723732,-22.616272,-87.561779,-14.174767,-68.34343,0.0,21.450241,25.912387,44.35211,43.805804,57.304321,57.072757,71.950592,65.968027,80.425157,0.0,62.991543,33.155365,88.483086,36.93512,93.274212,37.510242,87.696304,36.705494,76.923523,0.0,4.296347,-12.519803,-23.821889,0.126341,-5.702836,16.053502,11.006918,34.385223,21.684213,30.831499,272.210976,-154.674597,68.866807
28,-0.73391,-0.513208,-2.620983,22.528619,0.0,-62.397995,-33.512077,-93.334236,-28.542824,-96.173115,-21.24939,-85.681744,-12.784424,-66.804886,0.0,21.859152,25.536821,44.808569,43.451233,58.438182,56.935485,73.225862,66.135062,81.752605,0.0,60.337543,33.30225,93.186436,33.598709,93.175678,30.857964,88.962421,25.774097,74.038353,0.0,9.294332,-11.388536,-21.260976,-32.380311,-52.665537,-49.667771,-73.366683,-63.125007,-92.410294,29.932051,271.915037,-157.461119,91.612695
29,0.923767,-0.078423,-11.518193,-49.699309,0.0,-62.29763,-33.545952,-93.756752,-28.520966,-96.344604,-21.106224,-85.852776,-12.556686,-66.569309,0.0,21.505754,25.184535,45.030932,43.348542,58.438305,56.975129,73.397589,66.281842,81.866967,0.0,59.94567,32.769614,95.667401,33.211899,99.277497,31.547299,99.609118,28.207999,64.652224,0.0,14.535182,-12.448667,-31.691964,-14.254188,-36.703766,-12.875378,-25.036813,-9.72708,-34.147114,29.963179,272.075758,-169.871951,42.15253
30,0.210342,0.224463,-11.518192,-49.69931,0.0,-62.398224,-33.399696,-93.813457,-28.642159,-96.515751,-21.598206,-86.324158,-13.35537,-67.545719,0.0,21.15989,25.280619,44.700135,43.311121,57.584667,56.833721,72.241375,66.203111,81.772304,0.0,59.553795,32.236977,98.148365,32.825089,105.379314,32.236633,110.255814,30.641899,55.266094,0.0,19.776033,-13.508798,-42.122951,3.871936,-20.741994,23.917015,23.293058,43.670848,24.116068,29.732809,272.314655,-181.830854,-7.532346
31,0.878563,-0.10689,-5.864868,-7.19241,0.0,-63.00808,-33.311806,-93.626862,-28.549118,-96.374531,-21.424141,-86.349678,-13.120537,-67.56752,0.0,21.388367,25.34169,44.735086,43.352556,58.291154,56.900473,72.808182,66.274371,81.78274,0.0,61.159344,32.261295,101.152039,33.803444,107.796993,34.970741,116.133556,35.849361,51.213398,0.0,11.291989,-14.107901,-44.801715,4.54165,-16.851657,23.644233,21.10027,40.492524,21.55182,30.050783,272.240554,-188.256311,-14.691967
32,0.843544,0.06984,-0.206337,-4.324042,0.0,-63.641624,-33.489418,-93.781414,-28.962021,-97.157135,-21.942329,-87.292271,-13.524742,-68.471718,0.0,21.135746,25.489582,44.36798,43.363671,57.491239,56.713925,71.998387,66.010264,81.368147,0.0,60.589657,31.044388,102.682972,32.645187,105.482712,32.866631,119.780617,32.690449,53.083992,0.0,14.268637,-14.779498,-48.634007,3.179004,-20.299769,22.421081,27.14122,39.314974,20.530005,30.054817,272.623407,-189.302158,-18.702996
33,0.407524,0.150671,-0.791302,-1.060378,0.0,-63.612156,-33.269806,-93.855801,-28.811531,-97.554417,-22.052078,-87.476864,-13.981247,-68.749294,0.0,20.889856,25.518852,44.442327,43.734482,57.494265,57.158034,72.295221,66.273197,81.616755,0.0,61.699963,30.810986,103.607826,32.989883,106.75478,33.389683,117.583122,33.153362,53.3638,0.0,17.164083,-13.081053,-44.394934,5.441632,-19.958412,25.3223,28.68248,42.900852,20.400484,29.56727,273.011848,-190.988531,-19.525604
34,1.165123,-0.044028,-2.142162,10.445607,0.0,-63.650665,-33.808022,-94.760685,-29.204636,-98.203812,-22.223167,-88.528004,-14.05323,-69.872932,0.0,20.164844,25.226525,44.694886,43.283334,57.535699,56.681197,72.359009,65.811984,81.136769,0.0,58.965397,32.152519,103.053761,35.19865,108.098831,36.257973,117.721882,36.166477,67.758636,0.0,14.348264,-14.390378,-45.093177,3.378056,-28.291939,23.245078,21.227198,41.118704,18.53065,29.778471,272.651766,-194.084616,-9.396051
35,0.963707,0.43639,-2.128086,18.712413,0.0,-64.093151,-34.56459,-95.119457,-30.208511,-98.810921,-23.384514,-88.951206,-15.266418,-70.615482,0.0,19.661516,24.775253,44.080593,42.926355,56.686569,56.494093,70.835935,65.912081,79.968636,0.0,57.422104,36.175117,101.755199,40.028057,108.1604,42.606525,114.537849,43.644161,85.942669,0.0,10.633421,-12.768503,-41.062295,2.541276,-22.57629,19.830188,7.727848,36.765917,19.644936,29.444847,272.913572,-197.510033,9.141778
36,1.128845,-0.432438,1.01675,22.574901,0.0,-64.844856,-34.765434,-96.679802,-30.060081,-99.796658,-23.014183,-89.485245,-15.038223,-71.046352,0.0,20.094819,25.224611,45.0954,43.560346,58.310297,57.245843,72.128495,66.522669,80.227988,0.0,56.371422,34.996376,104.020443,37.193584,108.875027,37.283192,104.880581,35.037003,75.432186,0.0,10.518936,-7.153631,-19.847416,2.671292,-12.512733,13.543934,3.875425,24.059937,13.957168,30.336628,272.854986,-196.730347,32.090531
37,-0.522194,-0.289856,1.189728,18.805779,0.0,-63.380756,-34.163132,-95.982113,-29.768372,-98.932285,-22.834053,-89.025993,-14.829025,-69.781609,0.0,19.855907,25.354781,44.885572,43.661493,57.896631,57.20589,71.786398,66.165134,80.469185,0.0,57.693357,34.118557,99.977217,36.398277,110.721617,36.589279,106.327171,35.22357,70.389519,0.0,11.16131,-4.252442,-22.87808,8.814439,-9.231332,21.565513,9.235623,32.912028,15.952678,28.761663,274.430394,-196.593389,52.761574
38,0.163422,-0.004199,1.189728,18.805779,0.0,-63.592701,-33.785477,-96.008205,-29.461899,-98.746948,-22.70462,-89.186726,-14.908905,-69.930382,0.0,20.222395,24.865038,44.539461,43.010706,57.536379,56.53102,71.27813,65.614629,80.443682,0.0,59.015293,33.240738,95.93399,35.60297,112.568207,35.895367,107.773762,35.410137,65.346851,0.0,11.803684,-1.351253,-25.908744,14.957586,-5.94993,29.587092,14.595821,41.764119,17.948189,28.699207,275.360679,-195.629539,72.501838
39,0.489807,0.342653,-2.014103,1.694246,0.0,-65.105095,-33.937798,-96.402111,-29.556427,-99.441891,-22.775345,-89.134541,-14.933739,-70.046711,0.0,20.392024,24.540231,44.587008,42.678612,57.0743,56.264197,70.929796,65.449941,79.942392,0.0,61.405506,34.542961,106.040611,40.778847,123.902035,44.659195,122.897301,45.914154,68.759594,0.0,2.146568,-5.953666,-30.396949,14.564421,-5.789904,31.791675,12.449809,44.80718,13.565701,29.155254,276.12606,-197.677402,74.618812
40,-0.303726,0.223166,7.816257,-1.025643,0.0,-65.266342,-33.843956,-95.991554,-29.031372,-99.427185,-22.118568,-88.190174,-14.295044,-68.818073,0.0,20.974824,25.233812,45.901242,43.436969,58.787627,56.901646,71.765156,65.935237,79.905465,0.0,64.033756,34.071121,108.384304,42.640228,120.524654,47.858849,115.276966,49.839535,81.722775,0.0,-11.778737,-8.332601,-36.616883,11.893592,-15.892395,28.340444,-0.378314,40.059437,7.115593,29.197454,276.484753,-189.515219,73.728695
41,0.303383,0.051809,8.866653,-2.40595,0.0,-65.317955,-33.756638,-96.856441,-29.00013,-99.618874,-22.107925,-88.326645,-14.458923,-69.341698,0.0,21.536506,25.574304,45.992695,44.138453,58.870126,57.782454,72.492205,66.71638,80.685064,0.0,68.106194,31.5275,106.700306,44.441586,115.827255,53.37656,88.737431,58.292713,81.606846,0.0,-23.794502,-8.097517,-43.463707,10.95934,-41.959559,26.017363,-24.348774,35.441958,-10.71348,29.711037,276.501719,-180.438366,71.287902
42,-0.607109,-0.109175,25.26701,-12.772671,0.0,-64.998379,-34.260521,-96.485481,-29.357872,-99.108353,-22.456055,-87.763252,-14.772377,-69.032764,0.0,21.296667,25.909732,46.640827,44.54755,59.745994,58.299367,72.897658,67.394276,81.436629,0.0,66.265354,23.145504,86.62159,31.818523,47.70853,38.593884,49.546394,44.751091,50.33844,0.0,-49.206063,-8.369126,-42.256332,10.33634,-9.726091,27.743441,5.983275,42.403143,20.952594,29.256105,276.379345,-155.019178,58.502032
43,-1.097374,0.153388,6.724777,-0.019174,0.0,-64.776363,-33.397408,-95.537453,-28.488922,-97.988663,-21.599579,-86.810074,-13.911552,-67.967148,0.0,21.270732,25.910411,46.420008,44.451652,59.274344,58.082932,72.626142,66.973262,81.020246,0.0,59.759502,29.040928,95.166435,40.8601,47.435188,48.676128,49.16502,53.046799,52.77935,0.0,-59.813178,-8.769639,-47.616422,9.839558,-14.76264,25.140445,0.488446,36.247523,13.78828,28.457422,276.544481,-147.99571,58.494606
44,0.266991,0.19754,8.170338,-0.312951,0.0,-64.757423,-33.730888,-96.133919,-28.841743,-98.887424,-21.850548,-87.783737,-14.014549,-68.525963,0.0,21.554228,26.025205,46.575248,44.45937,59.615824,57.957578,73.027828,66.726692,81.188639,0.0,56.341095,25.553799,72.480412,39.578533,81.518269,49.386978,52.516079,55.298824,54.634895,0.0,-52.421129,-12.688567,-59.684583,5.41829,-43.579798,20.288129,-6.96415,30.466357,6.16899,29.010229,277.29552,-139.539557,58.735155
45,0.315971,0.188339,10.449257,-3.492572,0.0,-64.355221,-33.539543,-96.512146,-28.710136,-99.192238,-21.853065,-88.17009,-14.222832,-68.440933,0.0,21.500876,25.949005,46.236362,44.265227,59.570931,57.664078,72.891483,66.416088,80.562799,0.0,55.980663,28.64748,75.682812,42.33387,72.819614,50.893993,55.369205,54.669113,55.580921,0.0,-58.941818,-7.312391,-53.323055,10.362368,-34.979571,23.900034,-7.72473,32.99729,4.970291,29.476547,278.560925,-128.939953,56.319649
46,0.258865,-0.320793,8.204441,-1.614218,0.0,-64.538727,-33.534279,-96.649418,-28.808098,-99.338722,-21.906509,-88.743496,-14.094429,-68.693218,0.0,21.347056,25.910473,46.330099,44.154941,59.540797,57.604798,72.937981,66.47648,80.878281,0.0,55.7341,27.160435,73.545456,41.569118,85.765228,50.821609,52.072964,55.835838,52.904892,0.0,-58.32348,-11.978746,-60.712851,5.433728,-45.667826,19.523473,-7.841623,28.88391,5.076347,29.644089,279.332836,-120.826836,55.798135
47,0.389557,0.432191,10.081215,-4.004823,0.0,-65.080948,-33.637619,-97.145519,-28.714943,-100.367603,-21.768265,-89.548759,-14.121666,-69.5751,0.0,21.692796,25.76857,46.332507,44.029588,59.034938,57.425166,72.369136,66.257019,80.324565,0.0,54.809532,29.515686,60.839596,43.578358,79.681549,52.15416,54.845066,56.34676,55.837154,0.0,-58.09559,-8.017025,-50.666769,8.494294,-40.140083,20.912178,-9.964602,28.175231,0.647021,29.935112,281.938981,-110.844154,53.967267
48,0.251198,0.648009,13.549461,-23.242701,0.0,-64.094238,-34.179153,-97.129555,-29.282341,-100.452061,-22.312317,-89.557114,-14.570389,-68.712215,0.0,20.952779,25.738313,45.532222,43.886697,58.938916,57.135618,72.031609,65.881453,79.485871,0.0,50.849075,37.485237,84.436111,47.995377,53.530254,53.746777,49.646587,56.203995,52.811966,0.0,-59.254954,-5.429528,-53.110541,14.062637,-23.461606,28.97425,-3.842265,41.477813,8.184276,30.166254,284.020155,-97.314749,32.157731
49,-0.079651,0.170246,15.044403,-30.091315,0.0,-64.919128,-34.299316,-96.632538,-29.664001,-100.182724,-22.965431,-89.621944,-15.445404,-69.503345,0.0,19.360854,26.144754,44.812459,44.034836,58.25787,57.062691,70.663405,65.697992,79.120803,0.0,43.537159,45.809212,112.5,54.249516,103.853073,55.146046,69.32888,51.380768,55.617943,0.0,-58.936693,-15.373506,-65.982353,3.755012,-49.071416,21.88095,-13.901376,38.877751,9.860769,29.300394,285.116904,-83.056555,2.992919
50,-0.653343,-0.518827,-1.248207,-12.263539,0.0,-65.421925,-33.842926,-96.823483,-28.894386,-99.687023,-22.058601,-89.381733,-14.591103,-69.794998,0.0,20.424566,26.353594,45.591379,44.570645,58.907608,57.739537,71.157779,66.327291,79.851249,0.0,43.859768,44.580402,94.039307,56.755428,103.891525,63.496056,84.190521,65.16037,83.906021,0.0,-67.996281,-20.746873,-67.013307,-4.472675,-48.75547,11.188712,-10.803265,24.390733,17.97712,28.054132,286.460099,-84.89768,-7.408598
51,-0.688248,-0.231688,12.024536,-27.91943,0.0,-64.21669,-33.837318,-96.006546,-28.921394,-98.652077,-22.185287,-89.127903,-14.783707,-69.312286,0.0,20.902329,26.430905,45.201425,44.523467,57.319511,57.68248,70.642657,66.382372,79.091163,0.0,35.815487,58.412704,107.451668,67.22683,110.539398,67.146263,72.036209,60.973549,58.379059,0.0,-54.741061,-25.271788,-92.871662,-12.11151,-88.398308,1.838372,-51.604819,16.391462,-22.309899,26.844692,286.797627,-73.394337,-34.758813
52,-0.285301,-1.100145,-3.454399,11.486318,0.0,-63.947525,-33.889275,-95.735607,-28.754425,-98.339939,-21.914177,-88.717346,-14.525986,-69.141483,0.0,20.733689,26.469191,45.385071,44.534459,57.725211,57.877117,71.153765,66.827778,79.715212,0.0,34.229164,48.465729,102.008972,62.943878,116.201134,69.04644,88.730736,69.33712,78.550644,0.0,-70.135778,-24.571384,-95.222964,-8.337942,-87.277909,4.496758,-53.220519,13.688276,-30.035678,25.921469,286.348547,-77.486658,-22.62143
53,0.30899,0.050821,-0.027122,5.952122,0.0,-63.345337,-33.058662,-95.321159,-28.228569,-98.176575,-21.531029,-88.527946,-14.085503,-68.527393,0.0,20.409314,25.826678,44.899836,43.69984,57.496364,56.810811,70.740037,65.634822,79.318095,0.0,35.167351,48.352089,99.566116,61.089592,112.61673,65.425072,78.300819,65.148468,69.759521,0.0,-68.947237,-28.313892,-84.464128,-9.617627,-63.224147,7.564209,-26.184398,22.013312,-3.691224,25.248814,287.844667,-78.495426,-15.224008
54,0.013618,-0.237554,8.025284,17.168591,0.0,-64.254227,-32.655716,-94.949398,-27.86911,-98.13818,-21.153259,-88.065319,-13.775826,-69.247971,0.0,20.51219,25.655197,45.478808,43.735964,57.675811,57.010142,70.603445,65.781788,79.295124,0.0,39.054451,47.494926,93.031654,51.778679,91.537514,49.921932,77.42363,42.962265,60.081024,0.0,-66.241303,-11.941758,-72.593012,-0.007472,-72.690578,8.418063,-53.113444,14.448114,-44.594882,24.473591,288.976907,-71.258984,3.314376
55,0.22007,-0.203159,-8.150425,12.73593,0.0,-63.48999,-32.514038,-94.458847,-27.572365,-97.428303,-20.709,-87.589703,-13.123398,-68.29668,0.0,20.554427,26.059477,45.684993,43.909792,58.767682,56.96846,71.37798,65.635316,79.692118,0.0,41.605911,42.452545,91.063328,52.582054,90.283527,56.51001,77.355366,56.270084,66.297741,0.0,-69.320179,-11.890227,-67.384149,5.862985,-54.38331,19.164333,-32.886633,28.664881,-16.102346,24.253035,290.456077,-79.850035,17.732634
56,0.911064,0.284052,-2.551575,14.69209,0.0,-63.580227,-33.433228,-94.907513,-28.700294,-98.235512,-21.782341,-88.499622,-13.974266,-69.185257,0.0,20.6339,26.059415,45.243354,43.879596,58.093985,56.880836,70.859709,65.549236,79.908182,0.0,43.976784,44.423103,91.371059,54.334946,91.01675,58.427238,78.892994,57.952995,68.780537,0.0,-70.531321,-11.001546,-71.683305,5.144025,-61.407666,16.867279,-44.130302,25.201022,-25.869718,24.917479,291.660179,-82.64823,33.344775
57,0.737114,-0.346914,-3.485699,2.661258,0.0,-63.674641,-32.900505,-95.118599,-28.000488,-97.995701,-20.965805,-87.927361,-13.227768,-68.622322,0.0,21.336311,25.982165,45.53673,43.9863,58.594657,57.079549,71.540199,65.695769,80.083924,0.0,47.069893,42.939262,93.607521,54.864693,93.045273,61.36797,78.683853,63.236618,70.06897,0.0,-71.674197,-12.232757,-69.215635,4.486908,-60.647087,16.545375,-39.567317,25.081535,-21.804256,25.542555,291.717205,-86.245966,36.409973
58,0.459824,0.143817,1.090107,-11.609139,0.0,-63.937225,-32.91481,-95.260735,-28.042259,-98.040562,-21.061134,-88.0509,-13.325615,-68.555717,0.0,20.649832,26.08992,45.430951,44.2149,58.67944,57.296293,71.893411,65.791791,80.547731,0.0,42.890854,45.463028,91.432285,56.287994,89.737988,60.753651,62.297573,60.715313,55.970192,0.0,-63.618269,-13.064226,-58.668572,4.280755,-47.785711,18.168546,-18.045539,28.715362,-0.707073,25.657253,292.096307,-85.500984,25.036118
59,0.203362,-0.388534,1.524982,-15.342415,0.0,-63.744106,-33.459091,-95.381527,-28.25592,-97.460747,-21.008034,-87.810059,-12.927475,-68.423424,0.0,20.886706,26.421952,46.341832,44.645733,59.667138,57.809995,72.414523,66.445913,81.067917,0.0,40.137806,40.810204,89.756584,52.170925,89.797325,57.449455,62.276802,58.591461,59.357872,0.0,-61.275737,-19.273816,-58.60957,-2.502806,-45.235758,12.4022,-14.44336,24.601488,2.611054,25.697594,291.745811,-84.139023,9.731741
60,-0.668793,-0.311654,-1.428795,-15.414354,0.0,-63.428993,-33.207092,-95.184917,-28.030243,-97.66222,-20.709801,-88.037338,-12.534027,-68.269787,0.0,21.356442,26.226017,46.532455,44.371994,59.531534,57.689643,72.534195,66.510195,81.680975,0.0,33.228378,41.316547,79.063568,52.66325,43.7043,57.573624,46.759701,59.290123,55.340652,0.0,-64.815702,-22.392305,-62.107329,-6.455666,-19.457308,8.596429,-3.253876,21.218615,13.357973,25.231447,291.466113,-85.365171,-5.650657
61,0.43396,0.352039,-3.928185,-8.87869,0.0,-63.850594,-33.616104,-94.885254,-28.850212,-96.936665,-21.678658,-87.517662,-13.229256,-67.277641,0.0,20.622229,26.719589,45.638247,44.517539,57.770227,57.428748,71.902365,65.901645,81.32696,0.0,32.207222,41.534615,77.576523,54.27475,38.759937,58.746071,44.70274,59.355183,49.391098,0.0,-65.423635,-21.352953,-62.366403,-5.862306,-21.653122,8.343654,-7.186482,19.98583,5.701693,25.752897,290.822643,-89.205866,-15.524856
62,0.344009,-0.075706,1.563091,-1.855754,0.0,-64.222412,-33.477516,-95.225143,-28.662643,-97.547092,-21.571426,-88.160648,-13.260155,-67.934475,0.0,20.609694,26.715328,45.861537,44.56873,57.767449,57.482347,71.571445,65.973893,81.416745,0.0,29.67104,40.42345,76.961689,52.679214,36.280804,56.856365,38.668098,58.038712,41.404667,0.0,-63.902815,-23.005116,-59.383086,-7.844896,-16.453521,6.187175,-1.134386,18.478656,10.776311,26.299725,290.046455,-87.439957,-18.081092
63,0.474472,0.512405,-0.131435,6.983694,0.0,-63.988037,-33.277702,-94.899445,-28.587227,-97.489243,-21.563301,-87.887192,-13.343353,-67.62989,0.0,20.495888,26.437204,45.496407,44.304994,57.341124,57.233061,70.822103,65.759681,80.395825,0.0,30.319805,41.456566,75.973892,53.600063,37.519913,57.950935,38.878269,59.139977,42.788143,0.0,-66.84726,-24.013377,-63.773757,-8.594885,-20.405238,5.720002,-3.484483,18.527223,7.688389,27.098951,290.52482,-87.246637,-11.131438
64,0.520363,0.19192,-0.163937,2.301994,0.0,-64.102821,-33.578796,-95.427017,-28.81485,-97.985344,-21.75705,-88.08609,-13.660126,-67.976933,0.0,20.291371,26.263562,45.899699,44.260966,58.136222,57.276224,70.928376,65.776848,80.484561,0.0,33.446503,41.911812,75.878849,54.079227,37.886009,58.259411,39.119797,59.181862,42.535744,0.0,-67.229866,-22.324379,-63.133374,-6.507814,-23.546327,7.644948,-5.496188,19.644041,6.220366,27.754068,290.67228,-87.27582,-8.873905
65,-0.181618,0.236936,-0.280609,0.66885,0.0,-63.614216,-32.511063,-95.103264,-27.742081,-97.524719,-20.880089,-87.168388,-13.348045,-67.635441,0.0,20.651129,25.67755,45.782496,43.97642,58.508824,57.226206,71.234226,65.77518,79.97617,0.0,34.065628,42.033176,76.907101,53.64378,41.013737,57.467194,40.50745,58.416195,42.547417,0.0,-66.401762,-22.545014,-63.360214,-6.985392,-23.543178,6.820179,-6.545297,18.425026,5.256658,27.531939,291.005748,-87.596941,-8.108524
66,0.048866,-0.092934,-0.528488,0.738628,0.0,-64.867859,-32.169342,-94.483795,-27.245979,-96.696682,-20.308228,-87.038269,-12.691727,-67.463837,0.0,20.782286,26.473945,46.634282,44.908296,58.872472,58.054465,71.373843,66.465859,80.945775,0.0,34.117641,41.021461,78.329144,53.190937,40.314903,57.370434,40.66452,58.482056,42.797298,0.0,-67.745327,-23.039758,-65.15462,-7.58258,-23.792588,6.300117,-6.008531,17.931486,5.302909,27.622433,290.996408,-88.083801,-7.286302
67,0.606766,0.759592,-0.18671,-0.687375,0.0,-64.154091,-31.676216,-95.004444,-26.8713,-97.785931,-20.263023,-88.074417,-13.002205,-67.568607,0.0,19.659787,25.983894,44.963007,44.301413,57.724532,57.432267,70.338906,65.862187,80.07497,0.0,33.973103,41.018887,78.768425,53.31419,39.69944,57.571735,40.873032,58.618526,42.751808,0.0,-67.700743,-22.797202,-64.411453,-7.241656,-23.872339,6.753581,-5.878855,18.561587,6.312312,28.271971,291.856267,-88.227739,-7.873409
68,-0.098991,0.061256,-0.700665,-0.248638,0.0,-64.489117,-31.248779,-95.123348,-26.298409,-97.798805,-19.590569,-87.976856,-12.226524,-67.677898,0.0,19.641633,26.330993,45.073787,44.65481,58.215818,57.679454,70.814508,65.877563,80.184145,0.0,34.548225,42.585297,78.961658,54.683475,39.735718,58.687878,40.770206,59.555225,42.67622,0.0,-66.344951,-22.928762,-62.984587,-7.460222,-22.764938,6.608683,-4.928794,18.610463,7.665758,28.225451,292.014271,-88.875933,-8.0253
69,0.740433,-0.086698,-0.176182,0.861789,0.0,-64.678631,-31.963692,-95.528984,-26.903229,-98.208561,-20.139084,-88.732452,-12.711411,-67.880001,0.0,20.861265,26.705448,46.005354,44.85235,58.174322,57.820492,71.149504,66.128022,80.564466,0.0,35.06218,42.495804,79.321747,54.620934,39.989491,58.745155,41.378002,59.615192,43.758202,0.0,-67.975903,-22.865992,-64.632118,-7.227021,-24.697571,6.697295,-7.134581,18.297697,5.74884,29.04705,292.052448,-88.970947,-7.038636
70,0.460167,0.235454,0.10128,-0.513084,0.0,-64.808578,-32.564621,-95.960026,-27.502899,-98.778992,-20.691719,-89.489937,-13.207741,-68.44883,0.0,20.490948,26.280543,45.790215,44.603002,57.642713,57.795236,70.844889,66.30185,80.541309,0.0,35.152302,43.472729,77.860336,54.848614,40.994682,58.313541,41.355801,58.765869,43.111153,0.0,-67.61914,-22.225394,-64.200483,-6.433467,-23.722965,7.646986,-6.641566,19.444186,6.368999,29.551163,292.372485,-88.825722,-7.467138
71,-0.192375,-0.165676,-0.828667,0.412184,0.0,-64.417591,-33.424759,-95.877571,-28.506889,-98.811836,-21.530228,-89.618225,-13.453789,-68.366375,0.0,20.536149,26.81382,45.38822,45.026177,57.549655,58.130294,70.677422,66.555582,81.357773,0.0,35.799465,44.630299,76.727257,55.810432,41.019573,58.901711,41.502228,59.042816,42.73653,0.0,-67.444325,-22.140919,-65.094289,-5.784871,-23.578499,8.805485,-6.104985,20.857066,7.276885,29.38282,292.320105,-89.630356,-6.941657
72,-0.414963,-0.008275,0.196438,0.813376,0.0,-64.548798,-32.861595,-95.983143,-27.744827,-98.664608,-20.76416,-88.812332,-12.88662,-67.648602,0.0,20.891152,26.874026,46.728142,44.937689,58.831841,58.033902,72.086381,66.489386,82.093715,0.0,35.831509,43.649712,77.762318,55.036926,42.935257,58.460884,42.969818,58.87579,43.101826,0.0,-68.026878,-21.878078,-65.862434,-5.531108,-24.904281,8.931703,-7.239865,21.016722,6.201995,28.990088,292.49367,-89.411688,-5.946441
73,-1.452026,0.277815,-0.886345,3.342951,0.0,-63.001556,-32.516098,-94.740715,-27.328148,-97.491417,-20.337181,-87.625351,-12.650185,-67.481747,0.0,21.222135,26.727801,46.954766,44.885078,59.031912,58.031493,71.856299,66.343655,81.381547,0.0,36.548481,43.918018,78.055973,55.517349,41.889496,59.053288,42.345314,59.460297,43.686733,0.0,-68.125926,-23.212505,-65.61676,-7.111023,-24.021867,7.670019,-5.780827,19.990214,7.820319,27.610073,292.879796,-90.226021,-2.49518
74,0.145569,0.713217,-0.246735,2.677066,0.0,-64.926453,-32.266502,-93.959656,-27.44545,-97.219391,-20.718613,-87.423019,-13.140106,-67.82341,0.0,21.809072,27.064712,46.833365,45.282874,58.407245,58.275037,71.843826,66.372986,81.311337,0.0,37.08292,44.114799,81.878414,55.580006,45.459194,59.446106,45.55624,60.009155,46.117058,0.0,-67.81952,-22.86275,-65.020498,-6.843489,-26.619584,7.559732,-9.316254,19.756612,4.613991,28.156843,293.836418,-90.071554,0.425291
75,-0.356712,0.864135,-0.919476,5.525489,0.0,-64.807262,-30.652428,-92.40097,-25.423508,-95.178394,-18.547211,-85.288982,-11.046066,-66.125679,0.0,20.626861,26.679513,46.160162,45.047296,58.375196,58.204889,72.074031,66.614677,81.769402,0.0,37.472534,44.723969,83.249359,56.542854,45.170689,60.476074,44.784336,60.80246,44.745941,0.0,-69.320271,-22.880473,-68.482658,-7.020929,-29.724796,7.263639,-11.395452,19.697733,1.805459,28.787355,294.856318,-90.003805,6.106545
76,1.535683,1.891971,0.164108,4.633535,0.0,-65.081692,-31.691551,-93.368568,-26.820488,-95.800381,-20.107956,-86.181335,-12.404938,-66.614056,0.0,17.644316,26.185077,44.669631,44.341736,57.29265,57.490869,72.196667,66.018106,81.802253,0.0,38.570194,43.263359,85.502014,55.276165,42.198772,59.488621,44.441929,59.96727,45.754108,0.0,-68.302933,-20.03242,-62.92191,-4.148207,-28.727218,10.033732,-10.3025,22.728721,2.811712,31.08799,296.86614,-89.074745,10.85793
77,1.398582,1.115274,0.799885,8.447858,0.0,-64.913177,-31.154823,-93.803558,-26.320381,-96.689816,-19.754105,-86.730309,-12.25399,-66.389465,0.0,16.010153,25.107471,43.956599,43.36682,57.434182,57.00267,72.22075,66.245224,81.522029,0.0,37.690773,42.756729,79.009495,54.488811,49.27454,58.798313,45.362091,59.53846,45.323524,0.0,-68.585874,-20.130696,-62.237252,-3.852207,-29.615621,10.650063,-9.119517,23.648154,4.427288,32.808294,297.932971,-87.953138,19.257345
78,1.134567,-0.199948,0.209255,11.383256,0.0,-64.911518,-31.13102,-94.95266,-26.063576,-97.62331,-19.303894,-86.99604,-11.549377,-66.184158,0.0,16.456608,25.461177,44.381441,43.768877,58.767003,57.350016,73.558079,66.30432,83.030036,0.0,37.801151,43.594837,80.215416,54.43119,44.434204,58.406525,43.953953,58.693085,42.375984,0.0,-69.020566,-20.155489,-59.625889,-3.254463,-20.179541,11.863335,-3.936712,25.271912,8.627274,34.299459,297.570172,-87.387285,30.477749
79,0.431442,0.323757,0.517216,12.809073,0.0,-65.503349,-30.01236,-95.218449,-25.32177,-98.261547,-19.276657,-88.722782,-12.329178,-68.756676,0.0,15.723446,25.288214,43.279691,43.823279,57.053861,57.509517,72.51919,66.414853,82.48441,0.0,37.994728,45.18734,88.488522,54.08884,70.758419,57.219315,49.965878,56.457653,43.979473,0.0,-67.230514,-17.667843,-59.35005,-0.688023,-38.413141,14.094809,-8.892306,26.992494,6.280727,35.628347,297.522408,-85.972624,42.915301
80,-0.133781,-0.170802,2.584362,12.599369,0.0,-65.899315,-29.941978,-96.205559,-25.374298,-98.715992,-19.422455,-89.289093,-12.616196,-69.199219,0.0,15.440752,25.159094,43.286174,43.924735,56.779936,57.739846,72.335421,66.651295,82.949575,0.0,37.135105,43.515644,84.363556,51.007061,48.725853,52.734375,42.095261,51.393642,39.929409,0.0,-65.278367,-15.137743,-48.842507,1.127192,-7.886485,16.445401,8.336213,30.444898,20.085711,36.099701,296.862589,-82.783127,55.025653
81,0.607109,-0.438737,2.457676,19.04324,0.0,-66.4888,-31.832886,-96.464081,-27.325058,-98.840103,-21.158524,-89.949646,-13.958702,-70.006886,0.0,15.35282,26.376565,42.937037,45.165672,56.737205,58.593793,71.60127,67.105778,81.902103,0.0,38.253822,40.340824,84.404697,46.390972,58.782406,47.815418,46.038208,46.588612,42.283173,0.0,-65.820135,-8.09162,-53.936546,8.24158,-21.248132,21.938007,2.886276,33.772937,12.56377,36.877785,295.437915,-80.154476,73.082956
82,0.096588,-0.147645,4.852238,19.498279,0.0,-66.95549,-31.544724,-97.045555,-27.257423,-99.218788,-21.330414,-90.508518,-14.336128,-70.306549,0.0,14.460773,26.295734,42.655517,45.012284,55.82194,58.395697,70.974812,66.777698,81.674306,0.0,39.515476,36.866341,89.893913,41.374283,56.798344,42.277565,46.212845,41.568146,42.18235,0.0,-61.414304,-5.238133,-36.989639,9.813684,-20.148542,20.625533,-1.34761,28.619525,4.679755,37.066183,293.460651,-75.210428,90.751616
83,-0.802803,-0.509009,-1.748972,32.195168,0.0,-66.774273,-31.462097,-96.339512,-26.789131,-98.442707,-20.553932,-89.529591,-13.321495,-69.610519,0.0,14.854741,26.446713,42.779821,45.11269,56.236718,58.534451,71.74768,66.978325,82.383509,0.0,48.950615,47.574806,96.963015,51.050978,56.508121,50.250549,48.173561,47.370844,45.584507,0.0,-58.453342,0.648765,-37.724732,18.316098,-23.507935,30.541614,-4.882991,39.298919,8.575403,35.979538,290.370861,-77.243242,120.366003
84,0.036964,0.640908,-1.748972,32.195167,0.0,-68.258057,-32.454071,-97.593441,-28.136673,-99.577103,-22.274094,-90.822487,-15.295372,-71.642303,0.0,14.496156,26.289867,42.401785,45.083852,55.559563,58.598856,71.378413,67.068975,82.405122,0.0,58.385754,58.283272,104.032116,60.727673,56.217899,58.223534,50.134277,53.173542,48.986664,0.0,-55.492378,6.535664,-38.459824,26.818513,-26.867326,40.457697,-8.418372,49.978313,12.471051,35.845871,288.007148,-79.162846,149.556549
85,-1.155281,0.103741,4.571285,24.502996,0.0,-65.63158,-33.100662,-96.682663,-28.720894,-99.004784,-22.123146,-89.209957,-14.158058,-68.939438,0.0,14.381177,25.5283,42.90962,44.419665,56.189973,58.204271,71.247193,66.89558,81.8025,0.0,61.903152,47.092838,95.996246,49.150085,72.982864,48.034515,67.566605,46.183262,65.324821,0.0,-48.629808,12.28685,-23.237977,27.102379,-16.586778,36.529815,-5.9972,42.05271,7.93042,34.615974,285.485261,-74.666176,171.433917
86,-0.7164,0.274975,2.202559,26.447485,0.0,-64.859333,-32.777939,-96.559353,-28.290482,-98.928108,-21.714706,-88.72839,-13.804779,-68.265495,0.0,15.291625,25.916524,43.288459,44.434361,57.815676,57.999568,72.206547,66.607576,82.639897,0.0,66.734819,48.102493,100.758619,49.23337,83.786573,46.739959,76.016092,42.663202,68.285208,0.0,-36.925666,20.976985,-13.053728,38.319187,-3.039077,48.767048,13.596298,53.829687,28.778594,34.214888,283.348404,-72.148304,195.469571
87,-0.130806,2.528988,2.202558,26.447485,0.0,-65.369225,-32.63546,-96.580811,-29.233932,-98.902645,-23.523102,-90.084515,-16.019211,-70.028114,0.0,12.476362,25.547319,40.703402,42.876522,54.423479,55.734749,69.319839,63.950023,80.486722,0.0,71.566486,49.112148,105.520992,49.316654,94.590282,45.445404,84.46558,39.143143,71.245594,0.0,-25.221524,29.667121,-2.86948,49.535995,10.508623,61.004282,33.189797,65.606663,49.626768,35.008078,284.533579,-69.021749,220.573243
88,2.488976,2.764257,3.198509,13.289491,0.0,-48.261108,-32.829437,-96.525993,-31.023216,-102.242546,-26.212463,-93.353748,-19.170341,-72.051086,0.0,-17.859269,26.471352,33.646873,41.019255,50.113115,51.854908,63.756745,59.949646,75.995615,0.0,73.155613,34.864597,106.479435,32.584419,104.768085,30.461483,96.144161,27.967243,82.056942,0.0,-16.434687,27.18988,23.792989,44.165253,30.436716,54.770392,46.247539,60.582156,66.150993,38.041162,286.307128,-65.279131,232.872027
89,3.535309,42.229872,1.373692,15.236235,0.0,-69.785442,-39.624252,-100.023422,-44.373894,-102.815495,-43.21003,-54.356918,-38.967247,-53.7743,0.0,32.511592,10.678807,16.322425,-6.485646,1.07421,-24.381224,-24.683122,-41.417298,-40.615839,0.0,72.943153,36.586704,104.776611,30.346012,96.6782,25.295277,83.286209,20.678787,67.851219,0.0,-10.809039,27.902171,29.363062,43.510143,44.940097,53.970416,57.981476,60.429324,68.625641,41.660671,328.205524,-63.821239,247.776785
90,-8.80085,2.036714,0.741062,12.905095,0.0,-68.134918,-33.609123,-85.698509,-34.866142,-53.917408,-31.992531,-35.639763,-25.571022,-43.124886,0.0,30.136795,7.857925,6.260874,-7.414434,-17.7362,-23.244461,-28.673619,-37.716287,-38.424688,0.0,72.123127,34.753189,95.764561,27.097492,92.537212,20.354691,79.300747,14.082756,61.559658,0.0,-5.031979,30.450116,41.273049,46.703998,54.947987,57.589299,66.38793,63.388959,72.248661,33.049278,329.742306,-62.89072,260.181949
91,-0.172462,-40.386375,0.769787,10.492321,0.0,-56.220531,-16.690063,-48.478832,-17.790871,-69.40424,-19.601784,-85.698452,-20.085182,-79.026031,0.0,-6.555362,16.525892,3.489701,37.329915,23.758656,52.656182,48.362552,61.95141,71.332532,0.0,70.601349,31.431656,96.931915,23.144245,90.755768,15.680065,76.862869,9.40361,56.261902,0.0,-3.598382,34.073013,45.150172,51.252471,56.269137,61.429927,66.968631,65.736092,77.349616,32.975407,289.226749,-62.022343,270.545089
92,1.105614,-2.888993,0.634403,6.5172,0.0,-61.12627,-31.938629,-50.145607,-31.202774,-59.768486,-29.148674,-72.634678,-24.606056,-73.275547,0.0,5.177093,21.024225,29.885903,39.632835,41.778661,54.491651,60.444206,65.481187,76.447134,0.0,70.24744,28.507748,95.410938,20.745106,94.010296,14.02914,81.586018,8.500843,54.579906,0.0,2.034306,34.595421,49.53439,52.974196,63.264779,64.482003,73.346769,69.729985,80.977576,34.496927,286.068216,-60.972033,276.792748
93,0.469208,3.736085,-2.614632,5.92946,0.0,-59.142895,-36.492119,-14.003792,-37.849731,-13.363495,-36.228676,-16.732063,-32.868004,-62.870178,0.0,3.262398,18.46504,32.646146,37.373819,45.988681,52.096229,57.272581,63.132695,73.246177,0.0,71.854649,29.098606,98.011036,21.758194,98.627529,15.450497,86.757603,10.420933,64.323406,0.0,1.498559,35.929786,48.486547,53.327718,64.586176,63.816396,74.821245,68.994662,79.591712,35.612698,289.38781,-62.940102,282.305717
94,1.856232,3.105119,0.532036,2.293102,0.0,-54.143257,-24.477081,-46.263657,-26.191635,-55.701084,-27.337646,-67.136421,-27.03289,-71.156559,0.0,1.717464,16.817725,23.721483,36.25379,40.246572,51.465325,59.547775,61.933625,73.015601,0.0,71.428471,28.82309,98.943844,20.529556,99.388905,12.938862,85.756588,6.808434,63.807392,0.0,2.95698,34.655813,51.130453,52.411959,66.607452,63.017777,76.761196,68.230685,80.104734,37.894764,292.478341,-61.982231,284.58423
95,-2.208595,3.270425,-0.52763,-0.715873,0.0,-56.329994,-30.308647,-14.731407,-31.137199,-11.082573,-30.753479,-16.856003,-29.60083,-49.311905,0.0,-1.519122,15.909623,32.089898,33.518185,49.530685,47.223134,60.939876,57.117155,65.515458,0.0,71.143227,30.449181,98.644066,21.656342,97.893448,13.385696,84.258957,6.316624,63.272209,0.0,5.755694,33.677378,53.561196,51.954574,69.304155,63.251256,79.718176,69.095994,82.81638,36.285009,295.809915,-61.91102,283.929506
96,-3.763046,1.462744,1.540833,-0.469612,0.0,-54.887524,-58.474045,-4.809494,-67.432423,0.222702,-68.465023,-6.356277,-65.991898,-30.195465,0.0,-3.588996,15.050613,38.385168,34.878053,50.628484,49.964543,55.175043,61.622095,59.776313,0.0,68.404884,29.422703,96.33007,20.755749,96.234512,12.116489,81.531715,4.459362,60.250282,0.0,6.803043,33.41216,54.338387,51.571104,70.585661,63.252182,79.903675,69.62538,82.717209,33.391857,297.550628,-59.500294,283.737863
97,0.218124,3.027561,-1.592388,-0.846969,0.0,-48.010883,-50.126095,-4.108429,-59.250183,-1.723709,-61.471996,-11.47934,-59.946213,-32.633858,0.0,-7.245732,9.523149,37.240438,27.656466,52.467164,42.636375,60.516392,55.511397,63.803181,0.0,67.824383,28.02103,95.638103,18.823814,94.043827,10.252991,80.287571,2.894211,59.789257,0.0,8.832655,31.587188,55.419019,50.272369,71.157593,62.349453,81.186601,68.968912,83.642724,34.380856,300.673346,-60.321808,282.986052
98,-3.887901,0.130726,0.306759,-0.165676,0.0,-41.624279,-43.091297,-4.729958,-49.418278,-2.513924,-49.477501,-8.357849,-46.92421,-33.442497,0.0,-3.921522,9.967072,34.254744,25.917204,47.493106,39.019838,56.975253,49.654247,60.031342,0.0,66.819191,26.62508,92.289848,17.740517,93.063927,9.248829,79.470749,1.641541,58.479996,0.0,9.929096,31.908167,56.907327,49.930395,72.569455,61.650809,81.852641,68.099713,84.287892,31.216965,300.835564,-59.291039,282.851869
99,0.61203,-1.716476,-1.227493,-0.332094,0.0,-50.392857,-52.841034,-6.236343,-63.269405,-0.633545,-66.5625,-7.581825,-66.791553,-32.006378,0.0,3.351318,10.512267,37.228768,29.520093,50.424275,44.741817,55.051974,56.950923,57.99611,0.0,67.119484,26.470699,92.732506,17.54488,93.359642,9.060917,80.136566,1.596966,58.933868,0.0,11.01473,32.122194,56.66613,50.074027,72.862337,61.701012,82.140028,67.925391,84.589543,32.605247,299.129462,-59.742279,282.530149
100,0.304642,-0.096269,-0.671711,0.310666,0.0,-46.148643,-50.369625,-7.601395,-59.380989,-3.867073,-61.768799,-13.038483,-60.456791,-38.93177,0.0,-0.282014,11.090744,40.879822,28.414452,54.089471,43.333166,62.171241,56.079254,64.613964,0.0,67.046871,25.694618,92.027264,16.437149,92.57349,7.838001,79.235058,0.38229,58.189373,0.0,12.441473,31.362293,56.993407,49.443987,73.03141,61.278392,82.176213,67.637943,84.729593,34.162445,298.985862,-59.161434,282.793483
101,-0.948715,0.455039,-0.234718,0.30443,0.0,-44.543037,-46.169186,-7.590179,-53.274136,-3.14724,-53.708439,-9.216156,-51.319084,-28.409386,0.0,-0.824059,9.813931,37.638296,26.211691,51.177383,39.89478,60.048879,51.274455,62.492158,0.0,65.593357,25.364742,91.07008,16.505642,91.929417,8.216286,78.731861,0.884228,58.214092,0.0,12.587389,30.346561,55.708813,48.339149,71.887236,60.41895,81.443359,67.298563,84.462955,34.417534,299.401921,-58.192348,283.058933
102,-3.150215,-0.662458,-0.618267,0.064282,0.0,-46.683655,-55.876465,-2.958641,-67.408848,2.362862,-70.406399,-6.085052,-69.634209,-29.189415,0.0,4.585647,9.782068,38.371644,29.134524,51.545971,44.86964,56.499219,57.308705,59.614156,0.0,66.161728,25.611134,91.093369,16.260452,91.342392,7.572727,78.433113,-0.003605,58.157501,0.0,13.673023,30.22695,55.984653,48.475432,72.273732,60.715228,81.363578,67.515122,84.259672,32.523422,298.803096,-57.554512,283.186849
103,-7.572784,2.364856,-0.389099,-0.593483,0.0,-32.9179,-48.535938,6.139069,-58.385868,9.149437,-60.435619,-1.770172,-58.776054,-20.804443,0.0,-3.691316,8.571328,34.738188,27.16592,50.670289,42.771793,59.332389,55.977181,60.361583,0.0,65.237503,26.123886,91.333694,16.797237,91.396179,7.872391,77.85862,-0.032845,57.2295,0.0,14.696722,31.033596,56.072462,49.142769,72.990407,61.063377,82.134964,67.555198,85.113063,26.577044,301.217275,-56.317205,282.642689
104,-13.507233,5.909947,-0.460396,0.367415,0.0,-17.198696,-33.532619,14.600601,-41.438141,17.297173,-42.862701,9.325676,-41.098537,-21.730785,0.0,-8.672722,7.770981,28.435941,23.03488,43.009532,35.587318,51.645081,45.562603,52.337673,0.0,64.912491,26.302013,91.690178,17.115269,91.347771,8.146935,77.244072,0.031471,56.327248,0.0,14.500973,30.62981,55.682014,48.487473,71.88489,60.330708,81.840291,67.063911,85.582922,14.161005,307.152416,-55.686407,283.035298
105,15.479507,-11.189916,-0.232143,-0.0515,0.0,-37.911758,-52.839317,2.210083,-65.965233,4.695168,-70.574913,-4.272995,-71.333942,-29.106102,0.0,-2.347442,7.780181,40.275842,29.064931,57.04818,46.989161,63.844862,61.570286,67.257869,0.0,66.143475,26.817627,91.937885,17.740459,91.070194,8.557835,75.88068,0.130234,54.874477,0.0,15.033323,30.979688,55.503679,48.604923,71.546621,60.336513,80.92904,67.123501,86.433163,30.686731,295.951462,-54.872332,282.97276
106,-25.302544,9.535313,0.747871,0.411134,0.0,-1.983376,-29.785423,27.51709,-41.269341,29.422646,-44.854031,17.444229,-44.596195,-2.710533,0.0,-8.303207,3.969255,29.046776,21.856311,47.492674,37.582042,57.780046,50.941249,60.445194,0.0,65.954418,26.007271,90.854931,16.779041,90.819683,7.544518,75.607395,-0.94305,53.35825,0.0,15.017824,30.993458,55.487068,48.813948,70.747077,60.823168,80.964423,67.722788,87.460011,6.240749,305.467818,-53.267899,283.364937
107,-25.001278,3.148221,1.422958,-0.137333,0.0,30.607395,-7.857914,54.350109,-18.398838,53.517208,-23.667698,44.391918,-24.896221,18.771801,0.0,-9.915572,5.463244,28.794773,21.689338,49.624175,35.927933,58.306839,47.418203,60.097353,0.0,65.561314,23.724689,90.353336,14.089737,89.912052,5.03746,75.2104,-3.08939,53.558064,0.0,15.860717,31.911934,56.998841,49.787381,72.836525,61.665505,84.748982,68.237849,89.475915,-18.132563,308.57266,-51.216974,283.184225
108,-0.624733,8.449494,0.550919,-0.237924,0.0,33.223515,-1.343422,59.086361,-11.326847,57.237911,-18.038521,40.556889,-22.366276,13.466206,0.0,-27.440957,-0.404959,25.937705,15.136014,41.852577,29.231163,49.218475,40.783492,53.009641,0.0,65.398922,23.052921,90.189686,13.468323,89.630756,4.770985,76.155338,-2.746754,54.753284,0.0,15.45125,32.220377,57.172916,50.562472,72.627006,62.700195,84.728296,69.294645,89.628253,-18.011484,316.912825,-49.920244,282.836971
109,51.501789,-17.975792,1.905556,0.247928,0.0,-40.159664,-55.703773,2.812958,-66.367435,7.078857,-68.459072,-1.943893,-66.623325,-24.204369,0.0,1.128242,9.724887,43.811115,28.323247,58.432192,44.112457,62.906688,57.474011,65.739427,0.0,65.532475,23.405628,89.388142,13.37986,87.463818,4.286957,74.405308,-3.560143,53.373356,0.0,14.698759,32.669364,56.853975,50.673438,72.861287,62.67778,84.444368,69.159967,88.460367,34.008293,298.689552,-47.4967,282.837419
110,-13.511353,6.455079,0.461998,-0.126156,0.0,-15.896072,-38.328323,17.612915,-48.585091,22.120399,-51.091118,11.208687,-50.332947,-8.436584,0.0,-9.727728,8.219968,33.819095,25.59641,50.212101,39.99216,58.289178,51.949263,58.344692,0.0,65.27544,23.185558,88.485661,13.396797,87.194424,4.653339,74.769459,-2.752018,54.602909,0.0,14.682951,32.516594,57.402998,50.63188,73.700228,62.742124,84.566201,69.244071,87.483846,21.141386,304.923828,-46.390257,282.490459
111,-20.589581,10.735,-0.190945,-0.52352,0.0,11.846523,-19.25972,35.076542,-29.123325,37.305737,-32.640381,29.186153,-33.133106,4.191914,0.0,-19.068465,-0.986463,23.049638,14.452375,39.732191,27.792749,47.138535,39.258318,49.111585,0.0,64.914665,22.667427,88.864517,12.851257,87.996368,4.289474,75.900421,-2.796249,55.274734,0.0,15.421486,32.167457,57.790667,50.157698,73.45088,62.264608,83.793395,68.712339,87.00244,0.812387,315.663768,-46.32062,281.971879
112,-21.02211,-6.207707,0.777225,0.50623,0.0,29.720821,4.075069,57.605152,-5.780411,59.061298,-13.061428,50.354633,-17.621899,29.422817,0.0,-13.376559,6.274027,30.56596,22.073302,50.658556,34.84761,56.278337,45.308253,57.992405,0.0,65.699558,22.625713,88.908176,12.68755,87.933712,4.019737,76.393261,-2.891464,56.563625,0.0,14.481274,31.578111,57.261528,49.929839,72.244771,62.285788,82.777662,68.855908,85.911002,-20.002842,309.41174,-45.336514,282.433787
113,55.184155,-12.662231,0.797253,-0.630533,0.0,-37.664623,-51.690216,4.081306,-63.39283,6.987534,-67.121086,-2.299347,-67.42115,-26.244049,0.0,-1.452802,9.386433,42.944077,29.654153,58.99832,46.372769,64.568454,60.283346,65.457474,0.0,64.568253,23.865738,89.100723,13.872643,87.729721,4.905224,75.726013,-2.702694,55.262604,0.0,15.543628,32.120897,58.390078,50.130034,73.099891,62.040639,83.409307,68.235564,86.420134,35.279961,296.755205,-44.440613,281.80895
114,-22.68528,8.475429,0.630283,0.301589,0.0,-1.523552,-28.20694,28.059425,-39.375286,31.51886,-43.227768,21.022339,-43.799915,0.78907,0.0,-11.588329,7.831558,32.515544,24.935125,46.397839,38.58104,53.580709,49.606452,55.358689,0.0,64.99609,23.419762,89.058208,13.5886,87.51955,4.743519,75.10397,-2.525711,54.87505,0.0,15.211041,31.553905,57.33569,49.608058,72.696228,61.481859,82.547518,67.656345,85.946199,12.660398,305.263146,-43.744612,282.143051
115,-18.132935,9.841534,0.270424,0.025071,0.0,19.838333,-7.247086,50.504379,-17.024918,50.150871,-23.311157,36.69651,-27.389317,9.421806,0.0,-26.39472,0.214027,25.752639,15.431304,42.241728,28.921052,48.886319,39.937511,49.775402,0.0,65.305996,24.553642,90.152378,14.483128,88.278065,5.15974,75.279293,-2.808094,54.157391,0.0,15.082353,31.546001,56.803586,49.507775,71.914345,61.250295,82.428772,67.390756,85.928415,-5.41131,315.128145,-43.412962,282.191587
116,44.071312,-14.291701,0.915985,-0.04551,0.0,-45.99638,-49.848118,-0.398598,-57.585468,4.162788,-59.104557,-2.348671,-57.354412,-25.899696,0.0,7.115438,11.130759,41.118797,27.908778,53.988385,41.595695,58.7796,52.97432,59.430573,0.0,65.301762,25.388718,90.350933,15.521507,88.178616,6.051865,74.753551,-2.220154,53.578205,0.0,15.213264,31.681296,57.607453,49.427438,72.572542,61.047939,82.445939,67.244037,86.055745,38.655939,300.861206,-42.50104,282.170839
117,-5.158195,3.127967,0.074615,0.097751,0.0,-22.867012,-43.381348,14.093056,-54.576874,15.466919,-57.38102,2.710991,-56.738434,-18.053513,0.0,-10.718451,7.892505,34.465498,25.348791,49.066075,39.792274,57.091899,52.643152,58.312334,0.0,66.067486,25.522099,90.99329,15.517159,89.395237,6.10445,75.971432,-2.23772,54.41534,0.0,14.266445,30.48377,56.408446,48.693102,71.948925,60.758762,81.996705,67.331352,85.74514,33.392944,303.999779,-42.531223,282.279195
118,-20.795517,12.047505,0.764236,-0.005805,0.0,5.95768,-20.93462,32.854271,-31.312923,34.19632,-35.678558,24.954987,-37.104549,-2.902794,0.0,-21.163225,-3.014964,22.578421,12.429802,36.844742,26.195081,45.838628,38.03282,48.040586,0.0,66.996517,25.816784,91.75375,15.647564,89.460125,5.964832,75.406208,-2.403316,54.094563,0.0,14.303989,30.881134,56.34157,48.975672,72.115527,60.77809,81.507827,67.181916,84.721565,12.558947,316.046713,-41.805468,282.272819
119,-22.825241,-9.17432,0.688763,-0.195934,0.0,30.094872,3.717499,58.349991,-6.30312,57.285118,-13.743896,49.195633,-18.319073,24.847755,0.0,-10.539252,7.405048,31.76046,22.758917,50.622308,35.156733,56.836067,45.192163,59.287373,0.0,66.64959,26.0606,91.741104,16.013546,89.530106,6.381683,75.435791,-2.082481,53.587303,0.0,14.186478,30.74059,56.341508,48.729473,72.376485,60.555665,81.956876,67.072927,85.812819,-10.384111,306.822653,-41.234522,282.027145
120,55.128708,-8.045523,0.548286,0.494991,0.0,-43.816223,-52.18317,0.793991,-63.220539,3.117485,-66.906738,-5.731659,-66.84185,-29.237366,0.0,-1.081311,8.407319,38.575112,27.98893,55.699736,44.653822,62.134561,58.707907,65.333727,0.0,66.917725,24.797058,91.518631,14.745884,89.646149,5.356236,75.475273,-2.550774,53.750381,0.0,14.12658,29.843048,55.72845,47.911898,71.983011,59.808856,81.357588,66.321116,85.31227,44.534683,298.561065,-40.896149,282.306072
