takenoko1/special-research/HandMotion_SimilarSearch_自分用/NewProject/handData/test_key/d4_feature_d2/92.csv
frame,vel_0x_L,vel_0y_L,vel_0x_R,vel_0y_R,posFromWrist_0x_L,posFromWrist_1x_L,posFromWrist_2x_L,posFromWrist_3x_L,posFromWrist_4x_L,posFromWrist_5x_L,posFromWrist_6x_L,posFromWrist_7x_L,posFromWrist_8x_L,posFromWrist_9x_L,posFromWrist_0y_L,posFromWrist_1y_L,posFromWrist_2y_L,posFromWrist_3y_L,posFromWrist_4y_L,posFromWrist_5y_L,posFromWrist_6y_L,posFromWrist_7y_L,posFromWrist_8y_L,posFromWrist_9y_L,posFromWrist_0x_R,posFromWrist_1x_R,posFromWrist_2x_R,posFromWrist_3x_R,posFromWrist_4x_R,posFromWrist_5x_R,posFromWrist_6x_R,posFromWrist_7x_R,posFromWrist_8x_R,posFromWrist_9x_R,posFromWrist_0y_R,posFromWrist_1y_R,posFromWrist_2y_R,posFromWrist_3y_R,posFromWrist_4y_R,posFromWrist_5y_R,posFromWrist_6y_R,posFromWrist_7y_R,posFromWrist_8y_R,posFromWrist_9y_R,posFromBody_0x_L,posFromBody_0y_L,posFromBody_0x_R,posFromBody_0y_R
2,-23.853264,11.526455,0.740433,-0.726494,0.0,8.461876,-18.44244,37.217674,-28.354912,37.882004,-32.033844,29.571304,-32.397537,4.758797,0.0,-21.224049,-3.236092,17.410343,11.927895,36.42947,25.612774,44.154323,37.448908,46.549375,0.0,67.978535,25.476437,90.708675,16.046734,88.755856,6.902504,74.888706,-1.140175,53.649502,0.0,16.693112,32.07372,55.775874,49.723778,72.155727,61.370462,81.984416,67.759715,86.793292,-0.156727,318.590614,-47.871666,283.771286
3,-18.024502,-7.883613,-0.488834,-0.453186,0.0,26.452847,-0.523338,57.303143,-9.228973,57.460499,-15.408211,48.438435,-18.227921,25.157261,0.0,-13.35223,5.158321,28.819597,21.37472,48.162172,34.71003,54.85814,45.783114,57.57522,0.0,68.146019,25.520039,90.766983,16.225376,88.877106,7.079315,74.887276,-0.999355,53.742027,0.0,17.550023,32.583408,57.168223,50.381914,72.986146,61.920473,82.627918,68.030429,86.950817,-19.13023,310.445472,-49.309502,283.056571
4,58.337917,-7.986675,-0.203304,-0.133751,0.0,-46.190815,-51.657085,-1.050568,-63.399296,1.728058,-67.483006,-7.535706,-67.970181,-39.284019,0.0,-9.825355,5.974723,37.843616,26.017054,53.004701,43.085671,59.446319,57.542986,61.87521,0.0,67.197819,25.138893,91.34737,15.868206,89.650211,6.907711,75.600185,-0.955811,53.946934,0.0,17.628816,32.644417,57.001744,50.376604,73.084144,61.92319,82.826136,68.019684,87.223074,38.727894,302.285649,-49.992599,282.749672
5,-18.22998,5.548275,0.211143,0.02822,0.0,-15.613403,-38.878212,18.180199,-51.501274,19.760056,-55.010319,8.505821,-54.649029,-15.861855,0.0,-10.390248,4.259235,31.688274,20.761724,46.86072,35.063366,54.65708,47.504901,56.446484,0.0,67.69701,25.03521,91.154079,15.845547,89.449482,6.904221,75.380688,-0.991058,53.424168,0.0,17.69174,32.80293,56.915416,50.397537,73.074758,61.857364,82.722272,68.005482,87.277106,20.206804,307.70167,-50.072565,282.645638
6,-27.123413,11.168674,-0.376053,0.167652,0.0,14.454002,-12.717247,42.994194,-22.406502,42.09938,-27.214394,32.282181,-28.859882,3.826561,0.0,-23.831707,-1.052906,20.394556,14.079526,38.924249,27.06465,44.727244,37.389195,47.152923,0.0,68.485622,25.329323,91.567669,16.049595,89.712811,7.072964,75.543423,-0.764179,53.774815,0.0,17.709092,33.157872,57.145684,50.697335,73.13972,62.021558,82.591547,68.026971,87.079319,-7.170296,318.71501,-50.702305,282.657957
7,-8.917294,-10.720489,-0.017796,-0.022292,0.0,25.556889,-3.451653,58.21249,-12.424965,55.643635,-18.505497,45.552349,-20.807877,17.047405,0.0,-10.316641,5.904636,31.728905,22.01643,48.111413,35.210641,55.641197,46.445017,60.206219,0.0,67.688599,25.754528,91.440468,16.498489,89.650497,7.445011,75.422058,-0.557098,53.552399,0.0,17.578675,32.738339,57.175694,50.290956,73.471258,61.777829,82.87918,68.030861,87.371831,-16.307831,307.847401,-50.940342,282.488545
8,49.521847,-8.814007,0.394821,0.135789,0.0,-38.397102,-46.903038,2.910118,-59.620914,4.13166,-65.360584,-5.001869,-67.490387,-35.258331,0.0,-9.00074,7.665264,37.278044,28.319912,53.735517,45.293742,60.827429,59.26786,64.365665,0.0,68.200722,25.364571,91.16066,16.056862,89.490852,6.928539,75.27935,-1.144466,53.598976,0.0,17.15834,32.844427,56.594253,50.370923,72.829239,61.695948,82.474159,67.80257,87.020471,33.039579,299.033116,-50.719957,282.624056
9,-34.398994,10.215556,-0.20422,-0.022909,0.0,8.617973,-17.300892,40.077095,-28.773365,40.824394,-33.645,29.945412,-35.699787,7.935333,0.0,-16.01639,3.553304,25.964566,19.726663,43.294511,33.827864,52.782153,45.639977,54.693081,0.0,67.835827,25.35799,91.301365,16.078205,89.787655,7.023811,75.294971,-1.021042,53.415127,0.0,17.32025,32.57748,56.766413,50.063653,73.338803,61.336128,82.755494,67.41663,87.074379,-1.459665,309.177505,-51.024427,282.529979
10,-18.964062,-0.140359,-0.169888,-0.048845,0.0,29.667492,-1.703453,58.851299,-11.970005,57.437038,-18.754578,48.119717,-21.986046,23.366718,0.0,-12.580535,6.765993,30.01033,22.29406,48.275855,35.328275,54.914147,45.497765,57.93788,0.0,68.23082,26.098309,91.899376,16.797123,90.322495,7.579708,75.952148,-0.618954,54.020691,0.0,16.500081,32.608293,56.868795,50.075262,72.858323,61.362928,82.464649,67.47943,87.180467,-20.515623,309.011983,-51.286211,282.455971
11,53.607159,-11.568384,-0.077362,0.42793,0.0,-39.749966,-47.081223,1.921692,-60.060368,4.163132,-65.729656,-5.111961,-67.669029,-36.247902,0.0,-2.960624,8.371195,40.966273,29.025164,56.797535,46.098473,63.318008,60.221719,65.910167,0.0,68.887825,26.60511,91.788826,17.331505,90.239868,8.014698,75.760918,-0.325928,54.111214,0.0,16.141249,32.318375,56.980995,49.748911,72.917542,61.116297,82.023319,67.376924,86.910926,33.03669,297.419624,-51.418419,282.859927
12,-25.319481,7.600796,0.185452,0.289239,0.0,0.552635,-28.190002,30.942535,-39.695034,33.656273,-43.212032,23.913345,-43.536472,1.169243,0.0,-11.87658,5.263976,29.455749,23.150415,47.804637,38.191271,56.767339,50.482197,58.024454,0.0,68.990765,25.598602,92.11195,16.356926,90.343952,7.413197,75.742207,-0.367928,54.062176,0.0,15.920429,32.348262,56.316129,49.871856,72.444781,61.125992,81.584027,67.210569,86.441685,7.684708,305.011019,-51.265469,283.139764
13,-16.622486,11.274081,0.695686,-0.027849,0.0,13.259983,-11.12011,47.507343,-20.597134,48.189068,-26.075592,36.542988,-28.836937,7.691517,0.0,-25.103457,2.336759,26.817957,17.558297,43.346443,30.077267,47.542383,39.748246,50.238283,0.0,67.493877,25.923386,91.531849,16.397209,89.836979,7.165489,75.730419,-0.908718,53.547192,0.0,16.145201,32.047476,56.773761,49.947747,72.218712,61.536509,81.900004,67.745451,86.452121,-8.948307,316.293082,-50.580311,283.119896
14,-10.681171,-12.205339,0.370789,0.030505,0.0,27.66243,1.146126,59.247437,-8.356361,56.739464,-15.318089,47.855644,-19.113293,22.34024,0.0,-9.342405,11.118717,37.183566,27.296337,53.787388,39.946527,59.824108,49.453805,62.994065,0.0,67.069302,25.572109,91.350689,16.14584,89.902554,6.936207,75.306301,-1.269894,52.971897,0.0,16.130504,32.02753,56.527994,49.775278,72.804044,61.159893,81.993185,67.334193,86.380058,-19.648647,304.115793,-50.228691,283.178451
15,44.733467,-8.175508,0.533981,0.081202,0.0,-23.086739,-39.853535,12.572136,-54.091473,11.468124,-61.998825,0.402718,-66.336479,-25.859299,0.0,-8.456781,7.100989,40.152156,28.454899,58.19365,46.056977,66.207186,60.454271,68.857205,0.0,67.552929,25.93832,91.10899,16.380444,89.358158,6.987305,74.784336,-1.356354,52.347736,0.0,15.997926,32.552965,56.581532,50.171839,72.510113,61.387628,81.923407,67.385631,86.556664,25.063362,295.946553,-49.716167,283.26592
16,-42.630615,8.958256,0.404091,-0.468871,0.0,30.508461,0.080452,59.25705,-10.602951,59.928017,-18.5392,48.717728,-23.59354,23.357162,0.0,-9.508699,5.929213,30.818087,23.148871,50.183757,38.20535,59.094959,50.745068,61.211269,0.0,67.855053,25.657082,91.537571,16.060123,89.836063,6.706181,75.572948,-1.49231,53.308926,0.0,16.470934,32.387412,56.300876,50.398154,72.236805,61.817782,82.42198,67.725135,86.678559,-17.633286,304.905025,-49.378109,282.797266
17,45.326042,-8.237937,0.298405,-0.248051,0.0,-26.695518,-42.339764,10.299225,-56.64917,9.3536,-63.622341,-1.734352,-66.915321,-27.924614,0.0,-9.052734,8.317533,39.388982,30.074488,55.801871,47.425366,63.456329,61.048804,67.21625,0.0,68.401451,25.985985,91.511421,16.221886,89.722939,6.760998,75.473213,-1.458035,53.14579,0.0,16.708118,32.201975,56.743812,50.389262,72.643061,62.051507,82.632302,68.129168,87.041652,27.609529,296.673355,-49.162931,282.555482
18,-35.937767,12.021694,0.302982,-0.220017,0.0,20.401497,-11.500683,49.020081,-22.16011,52.113075,-27.592735,41.61232,-29.478493,15.578041,0.0,-14.139548,3.386948,28.273599,21.185023,47.32249,36.141775,55.018876,48.122714,57.013167,0.0,68.48814,25.851116,91.518002,15.953922,89.364338,6.506023,74.632359,-1.57156,52.620449,0.0,16.823653,32.381731,57.518533,50.654048,73.529859,62.270721,82.761792,68.267674,86.96397,-8.439817,308.675165,-48.971529,282.315582
19,-17.213688,-2.48002,-0.089664,-0.087562,0.0,36.271305,4.971027,66.554203,-5.081921,65.973186,-12.944355,55.068111,-17.451725,31.431942,0.0,-13.843269,8.982709,33.696027,25.044917,51.215915,38.554734,58.021305,48.898978,60.454271,0.0,68.462906,26.436138,91.881409,16.472397,89.841042,6.878872,75.395966,-1.367855,53.387947,0.0,16.784256,32.436009,57.881378,50.693754,73.199247,62.265781,82.941486,68.199255,86.958042,-25.738363,306.184895,-49.146051,282.217769
20,49.782887,-11.144344,0.696716,0.242926,0.0,-19.423943,-38.77367,15.371132,-52.96154,14.914169,-60.758228,3.988495,-64.900875,-24.572868,0.0,-9.225635,7.6757,39.071276,29.421046,56.313103,47.298284,65.379051,61.724106,69.73826,0.0,68.335762,26.120052,91.931419,16.068363,89.611244,6.514664,75.465088,-1.659737,53.400307,0.0,16.755295,32.454473,57.081957,50.794963,72.687274,62.374585,82.63718,68.278542,86.55722,24.027128,295.044395,-48.46673,282.464539
21,-40.973339,12.653833,0.481853,-0.23811,0.0,32.523937,-1.159344,59.225063,-11.553211,60.255833,-18.575191,49.523678,-22.767334,23.395557,0.0,-14.507518,3.927017,26.436895,21.54052,46.359554,36.708891,55.056853,49.06978,58.894394,0.0,68.400707,25.879612,91.486073,15.782604,89.193249,6.273251,75.372791,-1.885128,53.423824,0.0,17.308146,32.064828,57.128579,50.428227,72.687645,62.130733,83.169901,68.148002,86.943592,-16.984749,307.70536,-48.023415,282.233562
22,27.141895,-13.634429,0.348072,0.611823,0.0,-2.869835,-21.454353,28.832932,-34.198723,28.642159,-44.04253,17.600441,-51.092262,-12.12513,0.0,-6.378077,9.100776,37.52554,29.857436,55.44798,47.223134,65.55504,61.321308,71.645236,0.0,68.253479,25.819931,91.471481,15.910778,89.289894,6.564903,75.042458,-1.471596,53.041649,0.0,15.971127,32.328996,57.380521,50.400378,72.553647,61.803209,82.557152,67.750267,85.948422,10.099726,294.115622,-47.732763,282.890077
23,-20.088329,12.990866,0.704956,-0.159131,0.0,25.052319,-10.23325,51.378078,-20.446701,53.836842,-25.943413,42.454662,-28.450699,17.638493,0.0,-16.670388,5.595143,31.520251,23.802623,45.436818,38.941292,52.088387,50.902655,56.326873,0.0,68.794899,25.649929,90.843773,15.690937,88.621559,6.33316,74.691353,-1.769772,52.992554,0.0,16.062455,32.215622,58.443554,50.316953,72.523204,61.857302,82.581049,67.924403,86.135897,-10.146275,307.144048,-47.185478,282.768505
24,17.011127,-12.11716,-0.254288,0.126156,0.0,2.823944,-18.511963,34.755707,-31.221142,33.849907,-40.864506,22.490044,-48.623428,-4.22081,0.0,-14.209881,6.800882,34.938754,28.472127,52.78981,46.926052,64.132619,61.966353,70.686808,0.0,68.502274,26.105232,91.770859,16.071568,89.015236,6.674538,75.001602,-1.429367,53.240776,0.0,16.019107,32.063284,58.097381,50.1267,72.348018,61.593195,82.538194,67.638499,85.949472,6.658459,295.045707,-47.64616,282.91348
25,-15.775681,8.855997,0.492153,0.045201,0.0,27.846107,-15.204735,45.958672,-24.797173,52.519226,-28.675003,42.482071,-28.860569,18.173904,0.0,-8.057503,6.219254,33.004113,25.530955,47.649767,41.198269,54.920816,53.433743,59.407972,0.0,69.361324,25.586071,91.195049,15.706615,88.9678,6.53183,74.710064,-1.191044,53.332157,0.0,15.065804,31.841106,58.425523,50.075941,72.115713,61.77999,81.458056,67.881549,86.063093,-9.503145,303.944296,-47.53993,283.001274
26,31.105042,-10.431682,0.494156,-0.268491,0.0,-18.774605,-35.267429,17.850037,-48.512077,19.004173,-56.40049,6.735191,-60.46772,-22.181854,0.0,-4.433988,8.124934,40.199889,29.476621,55.442854,47.085862,64.735303,61.443204,69.08173,0.0,69.50346,25.106506,91.100864,15.080051,88.543568,5.94286,74.728031,-1.667461,52.967892,0.0,15.207583,31.646777,58.202295,50.182028,71.598553,62.161114,81.669613,68.23013,85.758725,21.335678,293.513556,-47.311993,282.733725
27,-32.881908,15.116007,-0.023575,-0.33691,0.0,22.74004,-8.180695,53.868656,-18.401012,54.602451,-23.942757,44.555111,-26.168232,19.84148,0.0,-19.684673,3.070107,26.850685,20.812606,44.492283,36.155484,53.057251,48.699524,57.863718,0.0,69.819317,25.386086,91.293583,15.22728,88.396397,5.862293,74.664402,-2.091293,52.974873,0.0,15.252167,32.398033,58.221746,50.697706,71.757746,62.344513,82.052527,68.241554,86.095882,-11.77597,308.61905,-47.565308,282.386301
28,-16.410999,-12.006503,0.135326,-0.110163,0.0,42.750778,7.787647,72.096977,-0.766411,69.02401,-7.309456,61.14418,-11.104031,39.855881,0.0,1.48448,13.54662,38.941662,32.115278,58.197664,46.569197,66.586643,57.915279,70.268573,0.0,69.97982,25.413265,91.736069,15.333939,88.564224,6.053009,74.896889,-1.794491,53.248787,0.0,15.823234,32.607984,58.662336,50.873509,72.168941,62.483451,82.178869,68.267612,86.039998,-28.414764,296.596059,-47.657776,282.259651
29,41.950264,-2.507005,-0.533638,0.065455,0.0,-8.055611,-25.276451,26.690598,-38.333817,27.604866,-47.552032,14.969559,-53.980579,-14.105644,0.0,-9.946818,7.310323,36.630715,28.736913,52.737013,46.700725,63.545496,61.463334,69.437659,0.0,70.113716,25.15274,92.91687,14.94421,89.361992,5.811825,75.569115,-1.717415,53.790779,0.0,16.285004,32.705735,58.529572,50.89611,72.17172,62.402743,82.050675,68.022772,85.980409,13.205652,294.058272,-48.521261,282.294324
30,-27.032318,12.082703,-1.007195,0.080399,0.0,29.0728,-9.229889,54.216385,-19.072094,57.033234,-23.753357,46.444702,-25.077209,22.875252,0.0,-12.217998,4.895573,29.501815,23.490783,45.732973,39.092642,54.044269,51.637918,58.664929,0.0,70.048599,24.729424,93.786736,15.191803,90.914497,6.72884,77.461395,-0.149345,56.200333,0.0,16.389547,33.748206,56.802228,51.771422,71.397926,63.194137,82.37048,68.753032,86.665345,-14.197397,306.109081,-49.899187,282.342829
31,15.107918,-12.753251,-3.510704,-0.903285,0.0,4.015503,-10.887222,37.03846,-22.36187,36.503906,-33.474426,27.274933,-42.81601,0.15873,0.0,0.433364,7.549544,38.599009,27.770457,54.439534,44.615537,64.140832,59.409454,70.94227,0.0,72.030945,26.212749,96.546593,17.29517,94.771271,9.224052,80.506897,2.473755,58.107491,0.0,13.46653,32.931495,56.348239,50.790764,72.423971,62.323641,82.893197,68.482812,89.528711,0.5165,293.281189,-53.803911,281.364903
32,-7.668686,6.157072,-2.320747,-6.672441,0.0,-3.964462,-21.528683,41.456566,-30.158844,43.852615,-32.834244,33.409424,-33.30843,14.074059,0.0,-16.328291,10.043581,34.393374,32.193824,46.455946,49.037175,56.604812,62.445166,61.363607,0.0,68.66684,23.37862,92.313766,15.142365,92.81559,8.427029,77.004662,3.359814,56.630745,0.0,16.300627,34.832358,61.502299,52.691565,79.391331,63.66381,89.3237,69.242281,93.563113,-7.904119,299.404838,-56.876593,274.65904
33,59.276733,-44.594666,2.523994,-11.490764,0.0,-46.681595,-34.586563,-71.73357,-22.170296,-67.360439,-7.962112,-52.911644,7.135506,-29.99073,0.0,46.939267,36.366608,83.875893,46.775381,101.935481,55.006155,108.697151,59.433166,110.021265,0.0,52.013741,18.160515,65.092278,12.303486,59.715385,5.945206,48.709373,-0.271282,37.858086,0.0,5.232112,25.971791,57.702796,44.850744,83.81229,58.321473,88.696625,67.852402,87.120754,50.518055,254.542083,-55.207157,262.900187
34,5.992012,-19.694244,-26.34058,-55.422292,0.0,-44.627037,-32.622528,-59.242744,-19.366608,-48.220711,-3.707085,-32.416992,12.666893,-8.606529,0.0,54.925448,34.360214,77.759824,45.352096,91.188624,53.991534,98.762065,59.71271,104.527454,0.0,48.575535,17.037249,54.582853,18.16495,53.622179,18.93239,51.195088,19.437933,50.102978,0.0,-23.445319,15.638076,31.139189,35.980298,56.726121,52.509772,67.734243,65.576128,72.674523,56.143513,234.844011,-81.914292,207.474067
35,-5.322533,-5.485227,-26.34058,-55.422291,0.0,-23.81115,-17.662811,-30.010185,-9.069099,-14.109879,2.467575,-0.936813,15.338173,14.187012,0.0,24.234505,25.934,41.860913,34.048066,43.531879,38.793832,42.093156,40.405765,41.328871,0.0,45.137329,15.913982,44.073429,24.026413,47.528973,31.919575,53.680801,39.147148,62.34787,0.0,-52.122751,5.30436,4.575582,27.109851,29.639951,46.69807,46.771862,63.299853,58.228292,48.940372,231.72719,-110.135479,154.420182
36,73.940735,-130.921618,-9.648342,-21.678594,0.0,-64.404831,-46.887589,-59.983749,-44.431686,-54.311943,-37.151871,-44.278564,-25.946846,-31.595192,0.0,5.633305,6.584292,22.664068,29.271733,46.489353,48.97067,60.452851,64.771427,73.443099,0.0,40.386257,28.531151,29.362106,23.050632,20.663853,15.638638,16.571789,7.132473,19.17366,0.0,-37.326642,-23.364473,-22.716309,-34.044237,-31.937776,-43.237114,-44.231264,-50.213336,-84.00878,123.069906,101.554527,-119.595022,133.490543
37,26.815224,-30.065164,-41.218872,-90.582791,0.0,-49.784317,-20.344391,-47.878761,-22.193069,-47.20047,-23.234825,-43.191147,-23.388977,-42.997513,0.0,-33.19804,-52.064489,-45.556953,-48.205891,-37.69205,-39.261221,-29.232367,-27.788396,-22.508704,0.0,28.93301,20.051479,29.032402,33.420238,39.824009,45.391159,48.409023,55.171509,54.997501,0.0,-56.687063,-21.708512,-32.971756,-5.312635,-12.69925,11.329472,4.172691,26.92142,20.647393,151.282282,72.607169,-159.416742,44.025558
38,4.992256,-43.240849,-15.356712,-43.540185,0.0,-43.998985,-2.690163,-8.375587,2.02137,-9.549179,3.427963,-10.793724,3.701019,-9.376488,0.0,-57.85004,-52.784746,-108.965672,-46.372614,-91.010629,-35.241886,-64.689176,-21.88731,-43.661833,0.0,19.899216,22.910614,20.201511,40.438843,35.134449,54.50861,46.284657,65.678673,57.329121,0.0,-74.550315,-35.787791,-45.979141,-25.936439,-27.784907,-14.178142,-17.530355,-2.048601,-9.64174,157.97224,29.891491,-173.075752,1.010545
39,12.763481,-41.255697,16.840725,7.88877,0.0,-29.188843,-0.077934,-1.303253,3.527527,6.982727,4.962158,4.821396,5.821495,-3.541718,0.0,-61.064241,-49.54535,-115.509394,-45.520181,-116.413143,-36.952033,-105.573722,-23.523387,-72.965059,0.0,43.111839,12.010689,36.828976,1.453514,24.22554,-9.091244,3.05809,-18.215218,-11.173897,0.0,-44.35742,-31.815541,-67.369638,-40.062031,-99.604186,-45.990966,-112.528054,-49.004108,-106.831671,167.231884,-11.420785,-159.738865,8.842736
40,12.584267,-17.863375,-35.384331,-68.052844,0.0,-36.03447,-4.593658,-3.181458,-0.096703,-1.779213,2.970428,-2.307243,4.039879,-10.364914,0.0,-57.837937,-47.773422,-118.609265,-43.921895,-123.41144,-36.306402,-109.12698,-24.795168,-72.053777,0.0,13.912525,0.362434,3.370628,9.826584,34.191399,22.656898,51.91452,39.085693,68.180466,0.0,-57.952021,-36.059647,-95.156582,-27.308008,-78.181085,-14.69314,-61.08499,0.169659,-33.08374,178.37451,-27.65662,-196.564837,-57.582568
41,26.185799,-13.856515,-11.20142,5.063379,0.0,-35.098343,-6.118813,-4.552116,-13.880768,-16.5485,-22.798119,-34.028664,-34.29451,-60.832901,0.0,-59.81148,-48.961871,-127.516623,-44.894001,-127.745192,-36.155422,-107.573834,-22.498639,-64.497626,0.0,21.553574,2.055874,-4.288731,12.647266,22.291718,26.103058,48.608379,40.136547,71.089554,0.0,-52.176288,-38.071568,-105.071012,-32.706106,-100.612509,-23.649605,-84.496547,-11.571904,-56.204978,204.286308,-39.874835,-208.040257,-50.880888
42,11.788788,4.850217,-12.901211,5.541142,0.0,-27.571449,-8.200493,-10.78949,-18.667603,-28.808441,-29.61731,-43.951149,-42.627296,-76.283455,0.0,-53.45199,-51.453129,-127.252995,-48.73253,-130.711543,-40.78661,-114.949781,-27.545963,-74.762551,0.0,27.786827,-0.324383,-3.540001,12.337303,27.637596,27.991562,53.476067,43.599987,72.316818,0.0,-47.356731,-37.052933,-109.721513,-31.666074,-107.166481,-23.46599,-92.89028,-13.774819,-64.700908,214.731503,-34.184935,-222.285061,-44.500064
43,7.04361,13.603616,-7.152157,8.676458,0.0,-23.237114,1.132965,-19.43676,-12.981033,-40.527763,-28.306847,-56.267281,-43.874474,-77.826462,0.0,-53.200265,-45.648961,-118.043199,-40.936695,-122.641768,-32.203673,-106.993302,-21.061645,-74.161596,0.0,10.974426,-2.395821,-0.017338,12.800674,29.829712,28.532753,46.297817,43.799686,49.53661,0.0,-57.1505,-33.195941,-102.641782,-29.741252,-99.685666,-23.968515,-84.562342,-17.822774,-62.217029,220.199633,-19.420412,-231.012697,-34.662698
44,5.825958,46.696897,-16.162777,57.307346,0.0,-13.187027,7.802811,-25.587044,-4.485741,-37.447472,-18.735809,-43.6306,-33.377151,-43.101082,0.0,-65.275867,-33.73496,-101.07715,-28.642805,-103.919305,-22.212395,-99.611751,-15.590651,-80.755367,0.0,1.982288,-11.237755,11.905804,3.006935,20.616074,18.962631,27.390347,35.205288,32.608738,0.0,-62.310766,-29.380321,-92.967592,-23.724045,-95.446902,-19.634964,-87.259137,-16.953853,-72.969844,225.486317,28.169442,-247.714748,23.537605
45,-29.492798,12.591218,9.876767,19.251431,0.0,2.970657,-3.399124,5.70076,6.612396,9.415627,17.461853,18.116684,28.752136,22.067642,0.0,-48.10141,-45.780212,-58.966642,-44.517941,-55.039902,-38.109298,-49.568692,-28.375148,-39.492445,0.0,-2.283926,-12.663432,3.020925,-5.5618,7.35094,3.917999,11.073503,15.094528,13.609342,0.0,-58.793833,-7.21217,-69.171422,1.969545,-71.263232,5.813709,-64.956447,5.642475,-51.875594,192.446651,40.555648,-241.384849,42.584025
46,27.153397,62.305703,9.876766,19.251432,0.0,-16.288147,11.817627,-11.934242,-2.634087,-20.202827,-18.759384,-28.385239,-34.769211,-31.094055,0.0,-70.031574,-10.031818,-83.631732,-3.898859,-85.24033,-1.11407,-81.868974,-0.894949,-64.603837,0.0,-6.55014,-14.089108,-5.863953,-14.130535,-5.914192,-11.126633,-5.24334,-5.016232,-5.390053,0.0,-55.2769,14.955981,-45.375252,27.663135,-47.079564,31.262381,-42.653757,28.238803,-30.781345,219.897652,100.799026,-231.21048,59.773133
47,-5.516853,6.16865,-10.904045,17.132065,0.0,-12.048111,13.700867,-15.054016,0.876732,-24.660759,-15.300407,-30.937614,-31.954422,-33.090134,0.0,-61.450027,-13.303879,-83.817539,-3.105552,-85.737607,2.69661,-78.636247,3.854739,-58.807418,0.0,0.149746,-14.195309,1.632786,0.281181,14.191189,17.038879,19.958496,34.601555,26.953239,0.0,-65.913625,3.278576,-68.005574,14.108981,-68.746487,17.679452,-61.713393,15.48123,-48.11907,215.757494,104.324975,-240.737829,74.262497
48,-1.915741,3.920194,6.090488,10.915559,0.0,-6.730614,13.327675,-13.041344,-1.03569,-24.1745,-18.372803,-31.070023,-35.181084,-33.455544,0.0,-55.931794,-14.52981,-84.858713,-4.847531,-91.417286,0.093583,-83.272314,0.071908,-64.186466,0.0,-7.531815,-24.102173,-2.770214,-8.28392,11.600933,10.674248,21.57589,30.586166,28.041058,0.0,-57.010481,-8.514703,-80.966955,2.210665,-84.400062,5.382907,-79.902872,1.978545,-62.679354,215.240192,106.96198,-233.248901,83.894866
49,0.383263,-1.630458,1.581402,-19.079704,0.0,-6.1203,14.038925,-11.152496,-1.564407,-25.064735,-20.385818,-32.678947,-38.987045,-34.123993,0.0,-52.96867,-15.95785,-84.859948,-5.466239,-90.403653,-0.169999,-83.329186,0.076077,-66.926733,0.0,-1.525898,-20.066929,-1.472912,-10.237885,7.555275,3.958969,11.928692,20.209122,18.187637,0.0,-65.536206,-2.897237,-73.805976,7.850145,-75.160378,12.391826,-67.955464,11.747553,-53.068366,216.255112,105.008027,-231.035843,64.491667
50,1.426392,-1.80657,-3.443012,7.251752,0.0,-3.238449,12.084961,-11.122742,-3.269348,-23.768005,-21.493378,-30.372505,-39.310799,-31.87294,0.0,-53.825488,-17.323121,-86.439647,-8.516493,-92.087494,-3.942918,-86.554595,-3.510696,-70.210373,0.0,-12.134056,-23.529911,-3.406048,-7.487469,8.705807,12.187443,19.331703,32.487087,26.794224,0.0,-54.397389,-9.743875,-82.108535,-2.265777,-87.496135,0.515276,-83.865427,-1.744387,-65.953546,217.700386,102.697836,-234.459972,71.239798
51,-0.313568,-3.389912,-3.673439,-4.487495,0.0,0.339546,12.165642,-10.975342,-2.534752,-23.196716,-20.278931,-30.709305,-38.30349,-30.67852,0.0,-54.653622,-18.267099,-88.582325,-10.060964,-95.645892,-6.132433,-91.814156,-5.76508,-74.36775,0.0,-8.723316,-21.058273,-0.909691,-5.335407,13.024921,14.051342,23.91449,34.008465,30.20977,0.0,-54.652017,-12.696348,-84.060095,-4.366403,-91.268437,-0.975317,-86.562716,-2.224466,-68.582045,217.440577,99.089142,-238.079653,66.533522
52,0.628853,-3.329922,0.860939,-2.016244,0.0,-0.969543,12.863388,-12.351494,-2.268105,-24.566116,-20.168495,-32.00695,-38.1847,-32.068977,0.0,-57.2715,-19.300894,-90.10722,-10.936091,-96.891614,-6.575184,-92.2842,-5.720589,-73.937782,0.0,-7.159481,-22.288857,0.457935,-5.932102,13.714256,13.833561,24.626713,34.364033,30.53009,0.0,-55.267483,-12.880333,-85.607468,-4.726685,-92.339497,-1.464102,-87.556959,-3.186661,-68.853562,218.065767,95.892709,-237.222376,64.650767
53,-1.392174,-1.976723,2.616863,-0.457447,0.0,-2.391014,14.236565,-12.837753,-1.545639,-25.859528,-19.979324,-32.394905,-38.099442,-33.147125,0.0,-59.015888,-19.628943,-89.957753,-11.056905,-95.286443,-6.177511,-89.392953,-4.919871,-70.374629,0.0,-6.962929,-23.25079,-1.436005,-7.626915,12.523041,11.885719,22.873993,32.340431,29.213791,0.0,-55.880603,-12.375246,-84.200855,-3.523077,-88.951098,-0.36831,-86.183969,-2.68358,-69.145827,216.808548,93.94859,-234.470558,64.225924
54,-2.21386,-0.366797,0.997066,1.973636,0.0,-3.209724,17.281837,-11.693916,1.918488,-24.447327,-16.507416,-31.423187,-34.809265,-32.674713,0.0,-59.829295,-20.942683,-91.082537,-12.142107,-95.295768,-6.769976,-89.233143,-5.291393,-70.527739,0.0,-7.697983,-23.219604,-4.199352,-7.554989,10.350437,11.620846,21.031895,31.389027,27.975025,0.0,-55.77995,-10.620669,-83.24959,-2.241046,-88.378054,0.244223,-86.301388,-2.805476,-69.338272,214.952288,93.599823,-233.115892,66.217591
55,-1.273956,0.047363,0.701065,2.346763,0.0,-4.605217,18.212357,-10.078354,2.119904,-22.059517,-16.513138,-30.184708,-34.456329,-31.456833,0.0,-58.486193,-19.199129,-91.361865,-10.872241,-95.89135,-6.568577,-89.897114,-6.836141,-72.093297,0.0,-7.405472,-23.403511,-4.741745,-7.401524,8.930969,11.913929,19.9189,31.704655,26.931152,0.0,-55.665959,-10.720674,-83.298033,-2.867103,-88.986357,-0.573847,-86.952731,-3.826117,-70.3842,214.013672,93.662052,-232.079487,68.57922
56,-1.282196,0.440497,-1.030483,1.269588,0.0,-3.388252,18.15834,-9.846954,1.996193,-20.905724,-16.567612,-29.210243,-34.079819,-29.935455,0.0,-56.63754,-18.100497,-90.38096,-9.588573,-96.405453,-5.393744,-90.391179,-5.938383,-72.124111,0.0,-4.802513,-22.637444,-2.507057,-6.510201,11.092873,13.043404,21.479588,33.302937,28.40023,0.0,-56.466676,-11.150673,-83.569519,-1.961718,-89.719026,0.931134,-87.568661,-2.115137,-70.52141,213.049307,94.090508,-232.792139,69.836767
57,0.557899,-0.077312,-0.20525,0.206154,0.0,-3.107758,17.363319,-11.670456,1.225319,-22.908897,-17.22702,-30.219955,-34.691849,-30.629997,0.0,-57.695911,-17.251984,-88.488032,-8.20277,-95.135031,-3.741797,-88.786008,-4.237344,-70.628392,0.0,-5.004673,-21.007805,-2.038536,-4.612999,12.455177,14.923553,22.622337,34.86866,29.423618,0.0,-58.103803,-11.060888,-83.777062,-2.142739,-90.961877,0.596169,-87.639396,-2.316011,-70.593565,214.209538,93.972533,-232.395058,70.002258
58,0.622673,1.892527,0.493584,0.440836,0.0,-4.42028,16.741219,-11.751709,1.119461,-22.870445,-17.511063,-30.75325,-35.386848,-30.623016,0.0,-57.569971,-18.761134,-88.756461,-9.852463,-95.119748,-5.190771,-89.237435,-5.084066,-70.908523,0.0,-5.239563,-20.617504,-2.521648,-4.472809,11.654148,14.810715,22.35466,34.400024,28.893356,0.0,-55.46882,-11.117019,-84.516369,-2.805476,-91.628935,-0.336354,-88.260975,-3.272494,-71.814649,215.376034,95.79275,-231.357651,70.370785
59,0.302811,0.7126,1.017094,1.124969,0.0,-5.313034,15.784492,-11.273689,0.0737,-22.636757,-18.415375,-30.909348,-36.282234,-31.497688,0.0,-57.462278,-19.473332,-91.282454,-10.727621,-95.506151,-6.06318,-89.494224,-5.750507,-72.420729,0.0,-6.460533,-20.762444,-3.227749,-4.065628,10.414009,15.468349,20.751972,34.849205,27.768002,0.0,-55.916881,-11.359359,-84.751051,-4.620011,-92.275061,-2.971924,-89.340465,-6.379466,-73.658578,215.942774,96.236767,-230.076628,71.227171
60,0.094414,0.824337,-1.410828,-0.238326,0.0,-5.051537,15.371819,-12.423935,-0.243187,-23.350639,-18.537827,-32.048836,-36.20842,-32.827377,0.0,-57.158991,-20.529635,-91.43788,-12.107033,-95.732312,-7.239433,-89.709177,-6.681827,-71.912369,0.0,-5.517254,-19.92754,-0.950432,-2.557983,12.405853,17.249794,22.854824,36.616802,29.473057,0.0,-56.065484,-11.86565,-85.542969,-4.668825,-91.401787,-2.767715,-88.234176,-6.001214,-72.752174,216.238604,96.878245,-231.286039,70.805986
61,-1.679192,-1.445577,0.240612,0.156321,0.0,-4.616661,15.283699,-11.134186,0.574608,-21.853409,-16.917114,-30.175781,-34.406662,-32.013931,0.0,-55.216416,-18.903283,-88.828431,-10.365918,-94.518361,-5.643247,-88.267027,-5.325788,-70.396643,0.0,-5.373688,-20.196934,-0.158043,-3.03606,13.777943,16.49437,24.231606,35.672436,30.151176,0.0,-56.066472,-12.100395,-85.417647,-5.206517,-91.203753,-3.18274,-89.202391,-6.567465,-73.693096,214.692478,95.055589,-230.912361,70.585229
62,0.254517,1.567596,-0.07021,-0.04304,0.0,-7.252808,14.440384,-12.509422,-0.782204,-23.720512,-18.504982,-31.744652,-35.748367,-33.115425,0.0,-53.911259,-20.032235,-90.519651,-11.378409,-95.486082,-6.469097,-89.13357,-5.867215,-71.769077,0.0,-4.445457,-20.469131,0.534668,-3.201599,14.44828,16.572533,24.938278,36.086597,30.471783,0.0,-56.872315,-11.24685,-83.464296,-4.036532,-88.439866,-1.868537,-86.318585,-5.040161,-70.577726,215.193186,96.318185,-230.73638,70.237188
63,-1.606522,1.058155,0.844059,1.748586,0.0,-6.705551,15.26825,-13.447838,0.519447,-23.890572,-17.33139,-31.87912,-34.966164,-32.643929,0.0,-54.443733,-19.783226,-91.351769,-10.42418,-96.318169,-4.814772,-88.966165,-3.714164,-70.56763,0.0,-6.807575,-20.756207,-1.00296,-3.958683,12.066193,15.538902,22.703991,34.840565,29.526043,0.0,-55.544743,-10.689799,-84.121228,-3.712589,-88.16588,-1.537925,-86.530451,-4.402743,-70.604958,214.076099,97.427268,-229.402885,72.036703
64,-1.778984,2.37946,1.045418,1.65099,0.0,-4.345322,14.097404,-12.602692,0.27626,-23.856697,-16.704826,-31.124268,-33.546181,-31.604233,0.0,-53.239878,-20.641156,-92.003575,-12.059022,-96.626674,-6.849387,-89.219033,-5.665909,-71.434112,0.0,-4.665756,-20.938683,-1.869221,-4.604359,11.76836,14.791889,22.873821,34.101162,29.200687,0.0,-57.106349,-9.748136,-83.311587,-1.967739,-87.011919,0.388472,-85.267809,-2.52235,-69.729893,212.765808,99.814663,-227.888775,73.695628
65,-0.636635,-1.034813,0.496502,3.168167,0.0,-3.064384,14.542694,-12.786942,-0.299377,-25.010147,-17.748184,-33.027077,-35.114021,-33.745995,0.0,-54.37025,-19.230499,-89.942316,-10.326645,-94.410328,-4.92052,-87.516821,-3.931741,-70.292501,0.0,-4.492722,-21.212368,-2.508202,-5.368481,11.542683,13.531666,22.477169,32.904854,29.025192,0.0,-55.788564,-11.007134,-83.705987,-2.227461,-87.706333,0.69639,-86.019682,-2.260405,-69.155058,212.590685,98.705656,-226.930761,76.789601
66,-1.360703,2.506974,12.206898,-18.074901,0.0,-3.08876,13.866463,-12.964096,-0.46669,-25.563126,-17.627563,-32.953949,-34.488258,-33.117256,0.0,-54.042942,-19.84155,-91.365138,-11.14527,-96.544021,-6.057345,-89.617601,-5.303002,-72.535739,0.0,-0.62645,-13.734398,-2.341061,-11.675892,3.861294,-5.93874,2.387638,2.332363,2.526283,0.0,-61.851837,4.054254,-68.659758,12.96595,-69.455937,15.948649,-64.338804,14.495786,-48.795608,211.972475,101.160204,-213.981371,58.662274
67,-0.930634,0.930517,-14.762936,15.928704,0.0,-4.13372,13.141708,-14.183578,-1.692009,-27.328033,-19.195061,-34.712563,-36.223984,-34.824257,0.0,-54.931345,-19.819042,-91.885323,-11.037269,-96.799761,-5.505111,-89.595247,-4.075651,-70.369287,0.0,2.795448,-9.849415,5.039749,6.630363,20.065327,24.088326,28.778915,40.309639,35.020523,0.0,-51.56039,-10.250785,-75.193014,-5.023118,-79.423009,-3.779804,-76.280037,-5.895281,-61.40569,212.741318,101.943647,-227.04483,74.443904
68,-1.659393,0.2399,2.216434,1.636849,0.0,-3.962517,12.501526,-15.060768,-3.134995,-28.282471,-21.186905,-37.078056,-38.865623,-38.130913,0.0,-56.400295,-20.077375,-91.353961,-11.421171,-95.581116,-5.700582,-88.641018,-3.777057,-69.971831,0.0,5.173073,-8.769608,8.261948,6.533031,20.567665,23.648529,29.443474,39.839916,35.749168,0.0,-51.038939,-9.282384,-75.319015,-2.959944,-79.231984,-1.060532,-75.828796,-2.956394,-62.066914,212.06543,102.153614,-223.844891,76.050819
69,-4.923477,-0.862592,5.02779,3.483464,0.0,-4.174461,12.923813,-15.57209,-2.568626,-28.375969,-20.552673,-38.211823,-38.24501,-38.948364,0.0,-60.024673,-20.758142,-89.934566,-10.977525,-93.878225,-4.106773,-86.547216,-0.874849,-67.392918,0.0,2.626877,-11.30476,7.495193,4.251766,19.144535,21.573887,28.488693,38.038216,35.533218,0.0,-51.425897,-14.061341,-78.552792,-8.723234,-81.888395,-5.935233,-76.692499,-5.405353,-62.937101,208.262444,101.202688,-217.696609,79.44595
70,-3.072052,-0.644211,1.319332,-3.077208,0.0,-13.023834,8.941841,-22.105865,-6.180382,-35.323334,-24.237556,-44.75029,-42.538033,-45.584793,0.0,-58.04196,-23.05958,-90.265363,-13.165095,-93.120331,-5.714445,-85.038777,-1.539314,-67.531547,0.0,9.0798,-6.364059,16.499176,9.488411,28.015594,26.631145,36.197205,42.396984,42.482586,0.0,-51.632514,-7.142917,-72.961508,0.996528,-75.841702,5.16465,-68.47216,6.337105,-51.877355,205.394611,100.603972,-216.173058,76.414236
71,-3.444099,0.293469,5.911274,-0.23635,0.0,-29.011116,-0.073013,-33.984032,-14.994049,-49.583015,-31.937943,-59.67144,-48.861122,-59.30294,0.0,-62.187574,-24.368071,-90.725403,-13.185164,-94.182593,-3.889195,-84.011436,2.599939,-66.33007,0.0,14.226723,-8.143387,18.928413,7.452793,35.004044,25.662003,43.183365,43.950863,50.51136,0.0,-52.865022,-4.403237,-71.382735,7.310199,-73.970386,13.313234,-63.962404,14.687428,-45.413723,202.730312,100.854524,-209.481983,76.13497
72,-5.942116,3.685913,13.665733,-6.769482,0.0,-36.824684,-10.288925,-47.289276,-24.265823,-64.928741,-38.868256,-75.43911,-52.57267,-75.681725,0.0,-49.070984,-26.417259,-93.539524,-15.834596,-91.647368,-5.113799,-78.374951,4.543688,-59.781716,0.0,30.571861,-7.597675,30.633602,7.708626,37.537594,24.437485,44.141521,40.596542,46.708088,0.0,-58.572767,-3.707062,-59.585875,11.153884,-56.015188,20.051563,-47.422587,23.910531,-33.0562,199.780111,104.74074,-192.824335,69.565791
73,-8.980293,3.329335,12.610073,-9.984733,0.0,-40.010033,-18.197823,-66.182899,-32.161102,-87.28775,-45.276718,-92.427979,-56.733284,-88.443947,0.0,-42.418149,-27.75116,-86.927907,-15.989528,-80.868247,-3.645528,-65.111518,7.603236,-46.244204,0.0,24.10223,-3.261566,28.026352,5.567608,42.48745,17.466602,48.036804,30.97784,47.907314,0.0,-42.844412,12.567104,-37.093071,28.546135,-31.603552,38.825849,-24.877882,43.953295,-5.581465,192.266235,108.046873,-178.747845,59.557856
74,-10.347176,3.517427,17.303524,31.975537,0.0,-46.828995,-24.831505,-82.381439,-38.131027,-104.14032,-49.826775,-108.932762,-59.141464,-98.353386,0.0,-38.992946,-23.645653,-75.171957,-9.613459,-65.871079,3.903738,-51.480639,15.548723,-32.73661,0.0,23.44059,36.840878,24.011192,48.285999,27.865047,53.132744,30.862312,53.73064,32.884712,0.0,-49.603211,-53.680899,-37.52659,-49.421356,-31.311071,-40.062371,-22.798252,-28.034378,-18.486962,182.234945,111.619566,-161.128435,91.588659
75,-19.615974,0.288838,6.697998,3.904479,0.0,-51.264153,-28.028755,-94.142418,-35.055084,-107.937469,-40.718994,-107.824631,-44.755211,-93.892822,0.0,-44.395953,-17.517172,-50.309203,-2.961241,-40.566871,11.812175,-26.52631,25.157921,-9.893281,0.0,29.977169,17.75322,33.188267,29.195538,37.350597,37.308941,37.043324,43.422318,34.912262,0.0,-47.501443,-8.761365,-39.503622,3.860759,-31.712572,14.500417,-22.089728,22.554214,-8.79508,163.24894,111.956878,-153.800468,95.541611
76,-15.464859,12.088199,21.234455,30.843806,0.0,-56.907806,-29.966125,-102.496147,-32.426605,-112.039146,-33.205261,-106.041985,-31.954079,-82.672348,0.0,-41.927542,-15.754907,-34.161748,-1.857452,-22.573357,12.900032,-11.447878,27.272316,4.864327,0.0,32.597408,40.815926,41.140652,44.385395,43.633232,42.504444,39.025154,37.845039,34.54319,0.0,-57.296509,-35.077075,-45.007344,-29.907083,-36.264905,-22.368624,-26.791312,-11.878278,-21.538852,148.007984,123.743333,-132.34211,126.083674
77,-43.271942,9.262932,2.909403,12.842696,0.0,-65.552216,-30.730247,-92.281723,-32.418938,-95.207405,-31.859207,-96.758537,-28.526688,-87.924728,0.0,-22.187726,-1.312999,-13.747679,15.329108,-3.18521,29.4928,12.745779,41.220067,26.692233,0.0,44.419441,34.155836,68.173027,38.216829,72.858152,39.231262,69.169006,38.355474,59.909248,0.0,-50.009914,-17.30722,-37.032741,-4.72298,-27.984608,6.999363,-17.647326,18.222407,-8.595194,104.653244,132.336968,-129.515504,138.257073
78,4.319572,9.936506,2.909402,12.842696,0.0,-59.869423,-33.856659,-98.101387,-37.504921,-112.327881,-38.491402,-110.762787,-36.841507,-99.634895,0.0,-20.896216,0.574649,0.254103,18.100528,16.108706,34.966418,28.984779,50.504427,46.18585,0.0,56.241474,27.495747,95.205402,32.048264,102.083073,35.95808,99.312859,38.86591,85.275307,0.0,-42.723319,0.462634,-29.058138,20.461123,-19.704309,36.367349,-8.50334,48.323094,4.348464,109.057102,141.806101,-126.521816,150.632396
79,-1.347313,21.60122,6.569138,14.263295,0.0,-66.792183,-34.2136,-91.044502,-37.753258,-114.236012,-38.537979,-108.980484,-36.523018,-94.070206,0.0,-20.854473,-0.478689,-4.463567,16.383187,14.730684,31.797572,33.888317,44.63857,50.242729,0.0,62.129974,30.548115,105.86689,30.73185,114.808502,30.814648,110.388737,30.056877,92.58997,0.0,-33.525904,4.371126,-7.617099,23.243596,4.60127,38.763512,15.521954,50.394202,25.929121,107.699947,162.71283,-119.962521,164.2012
80,-17.800255,20.540688,9.279842,18.961884,0.0,-66.316109,-40.864563,-112.494564,-41.335087,-128.119726,-38.453064,-117.716446,-32.551918,-93.121948,0.0,-11.477981,7.868485,6.20215,24.727582,25.849649,39.501368,43.550559,51.275844,56.528983,0.0,64.181042,31.773891,99.8703,28.606052,103.596897,25.945244,92.063313,23.219833,75.121078,0.0,-31.119923,10.022833,5.669058,24.819528,20.787659,36.498878,31.052183,45.433668,37.545856,89.706373,182.013152,-110.875998,181.922719
81,-17.800255,20.540688,11.884232,20.855399,0.0,-65.840034,-47.515526,-133.944626,-44.916916,-142.003441,-38.368149,-126.452408,-28.580818,-92.173691,0.0,-2.10149,16.215658,16.867866,33.071977,36.968613,47.205164,53.2128,57.913118,62.815236,0.0,64.445,28.414421,89.960976,21.5835,75.571404,14.272785,57.096977,7.678699,38.089256,0.0,-25.679712,10.285272,20.175465,20.875591,26.506858,29.343796,29.796303,34.792096,31.999372,72.028484,202.116153,-98.8694,202.340431
82,1.056519,11.992609,8.082619,20.159842,0.0,-69.684448,-43.985252,-127.744617,-42.156258,-132.793121,-37.054825,-118.257523,-29.04213,-87.577572,0.0,6.961433,25.392078,32.015489,42.086858,48.439431,53.884212,64.338063,61.106726,77.529742,0.0,71.617298,44.968758,118.904514,48.017521,120.138187,49.912262,116.286793,49.694996,109.388638,0.0,-12.141737,41.100704,13.480238,54.626946,19.10496,59.636387,32.262614,58.742488,40.154564,73.047781,213.740344,-90.824003,222.131855
83,-9.897423,16.041337,7.03949,11.574991,0.0,-67.745533,-40.471687,-112.880974,-35.52887,-115.384483,-28.227768,-100.989189,-18.902092,-73.809357,0.0,4.276957,28.957732,29.815631,43.080854,50.576304,52.532619,67.971951,57.035274,78.399867,0.0,83.402767,30.456963,119.15617,28.989601,122.524624,28.560848,116.252117,28.991089,99.310284,0.0,-9.099417,33.468909,23.196481,52.270489,37.451378,62.678335,57.690693,66.465673,70.04763,63.150301,229.395556,-83.784571,233.320721
84,-8.562469,13.020136,4.004002,15.688927,0.0,-68.653164,-35.083809,-99.33403,-28.416824,-100.532799,-20.802155,-86.995525,-12.089424,-62.556839,0.0,12.070044,32.715986,44.160745,46.072291,58.559089,55.36369,75.752256,59.760134,88.052135,0.0,83.712158,40.399132,109.464226,34.369354,111.040764,29.331493,101.226082,24.976387,81.509285,0.0,-4.290172,36.303993,42.311753,53.037244,52.93869,62.45943,69.213011,66.396513,80.416512,54.643822,242.458114,-79.724579,249.05207
85,-7.921257,17.094305,22.955589,14.837698,0.0,-76.709862,-25.952911,-84.85754,-17.827034,-84.797344,-9.188805,-73.926086,-0.835762,-51.458015,0.0,6.065372,36.268672,45.11269,46.188629,57.492227,51.988845,70.903182,51.489593,82.145338,0.0,72.978859,34.210968,95.774574,30.161362,92.887688,26.274033,81.606331,21.960983,69.306221,0.0,1.353816,44.85235,34.20522,65.864101,40.984489,77.774088,55.706096,82.120082,67.158698,46.739159,259.538124,-56.752396,263.875473
86,-8.6586,55.335903,-2.535496,7.321067,0.0,-66.439648,-53.989277,-28.641586,-52.365646,-13.141708,-46.396351,-8.228073,-37.092133,-26.219559,0.0,48.481422,6.489042,32.353202,4.067994,28.371474,1.37302,24.464896,-0.584653,24.101989,0.0,75.58382,36.463451,102.192135,27.280884,97.965145,18.863697,81.506596,10.561352,56.409016,0.0,3.838282,40.081822,58.591508,58.292512,74.542936,69.324471,85.742361,75.123884,93.025637,38.078556,314.951029,-59.289894,271.273543
87,2.806435,20.570544,4.860992,11.511327,0.0,-67.747765,-53.413811,-18.380585,-51.134605,-3.822556,-44.399471,4.09996,-34.576263,-25.223923,0.0,41.691532,4.624921,32.655285,-5.63985,24.073583,-16.314521,12.498839,-26.256954,3.029537,0.0,76.988239,34.640751,101.022205,26.437168,102.274647,19.162216,88.651485,12.13068,64.655285,0.0,2.578697,36.351356,55.982738,53.164758,71.939971,63.726549,84.80394,69.28106,91.182264,40.850973,335.587816,-54.462919,282.851112
88,7.033539,-30.33773,16.493111,7.626917,0.0,-50.982113,-49.374504,-3.518715,-54.511986,-0.886688,-55.153942,-10.777245,-52.56506,-76.582832,0.0,-5.928348,19.109962,46.117863,35.635113,56.631612,47.752705,63.233163,58.052303,85.557666,0.0,67.130299,34.587822,90.609112,24.875565,87.896633,14.172935,72.067051,3.704853,52.653408,0.0,3.441536,35.439055,57.69131,52.87873,69.981618,65.089689,80.127582,72.586868,89.324009,47.703352,305.253374,-38.150969,290.481317
89,-19.263039,2.41969,-4.782543,1.840286,0.0,-16.86882,-34.140015,15.744324,-40.73101,18.831253,-42.93663,8.294678,-41.773281,-54.784698,0.0,-7.890221,21.820558,43.648464,38.080862,56.330825,48.370456,63.725869,55.458601,83.963085,0.0,70.511856,31.79615,93.659134,23.389378,94.342575,14.4944,80.543976,5.353317,59.776268,0.0,4.559342,32.521287,56.102102,50.314236,70.503286,62.137464,81.649606,69.452479,87.849718,28.347731,307.673049,-43.026094,292.321588
90,-26.160393,13.751384,0.471668,-0.274728,0.0,21.295738,-9.169865,50.119057,-16.975479,48.349457,-21.357479,33.230095,-21.667385,-26.894016,0.0,-28.981012,3.814261,24.84287,21.998152,40.99968,35.902307,52.57955,46.424762,67.937618,0.0,71.240559,31.175251,94.19054,23.314877,94.591427,14.458179,79.335423,5.243397,57.842503,0.0,3.427704,32.000546,55.461503,48.809749,69.873185,60.263833,80.078922,67.755948,86.745682,2.231426,321.517259,-42.510338,292.139686
91,3.489189,-0.601758,0.94574,-1.6136,0.0,17.481422,-12.902412,39.797745,-19.54525,39.065895,-21.809978,31.011772,-20.188465,-37.507095,0.0,-27.15919,7.37516,31.043599,22.380264,41.41983,33.402959,49.124923,41.892962,62.754041,0.0,69.636784,30.14122,94.717312,21.930199,93.617764,12.9883,78.236103,3.932934,57.044048,0.0,5.262,31.14487,53.933366,48.07918,69.784696,59.58711,79.867427,67.036556,86.646079,5.706682,321.163028,-41.578531,290.773613
92,23.106766,-26.749105,0.832672,-0.654863,0.0,-24.053764,-37.18689,11.606483,-47.309761,14.913483,-52.806301,1.897202,-55.210819,-75.085144,0.0,4.150677,27.783857,52.93165,44.852103,65.759804,55.290763,71.501296,63.692154,91.398143,0.0,68.953457,30.164165,93.986378,21.947536,93.065701,12.704659,78.476429,3.310947,56.766644,0.0,7.031211,31.325675,55.355478,48.285488,69.852684,59.929825,80.012973,67.188339,85.821155,28.758802,294.531866,-40.800505,290.236693
93,-15.027695,4.029461,0.474529,0.628681,0.0,-8.565903,-25.432434,39.326706,-34.639206,40.970078,-38.694305,27.710266,-39.14978,-40.848312,0.0,30.35607,27.651279,53.456529,44.681178,61.793761,56.490882,68.888574,66.601463,85.936566,0.0,69.388847,28.978844,93.836174,20.635929,92.780914,11.468239,78.49617,2.441483,56.825523,0.0,7.103706,30.504086,54.881605,47.620312,69.739989,59.393152,79.794932,66.606464,84.928985,13.64459,298.70235,-40.412493,291.006396
94,-18.42144,11.930921,0.38435,0.244038,0.0,36.860161,-6.750526,58.146744,-14.618683,59.786224,-18.461037,44.963036,-18.716354,-15.393219,0.0,5.743653,16.138717,45.275093,33.834533,50.095269,47.039488,58.846969,57.755716,72.719385,0.0,69.669743,29.003506,93.69936,20.832195,92.392445,11.754055,78.199825,2.725067,56.786442,0.0,7.735721,30.788014,54.462999,47.833166,69.335462,59.602856,79.53873,66.928061,85.056129,-5.189867,310.668546,-40.44116,291.285709
95,28.598671,-15.232036,0.429325,-0.142026,0.0,-13.590431,-33.118916,19.734192,-42.596283,18.601227,-48.166466,3.622169,-49.760113,-67.539597,0.0,-3.041208,26.183101,49.284115,45.39174,64.006216,57.144634,72.350241,65.942524,90.532773,0.0,69.525032,28.460941,92.78904,19.982471,91.311035,10.776558,77.130318,1.827106,55.76992,0.0,7.914859,30.874465,54.365742,48.005079,69.710411,59.690356,79.99735,66.662843,85.398103,22.969007,295.424685,-40.451632,291.131858
96,-16.594505,3.881137,0.300922,0.152771,0.0,11.809731,-17.193317,46.661797,-27.096863,48.143806,-31.64772,33.946953,-31.730175,-32.570744,0.0,22.951146,23.95669,52.50088,42.472983,59.543946,56.120997,68.041791,67.612873,84.421211,0.0,69.605198,28.582363,92.238636,20.231667,91.303654,11.093502,76.942692,2.099419,55.727863,0.0,7.531142,30.170819,54.01537,47.48125,69.534792,59.43014,79.851743,66.66803,85.329313,5.974331,299.199796,-40.55088,291.178603
97,-14.458923,8.822281,0.541534,0.22613,0.0,38.301888,-4.646587,61.051826,-12.682972,62.953377,-15.800114,49.862251,-14.706573,-6.622524,0.0,8.944732,17.584233,47.16373,34.457409,52.667914,46.684855,60.984892,55.784519,76.11362,0.0,70.115604,27.876778,92.004147,19.570255,91.852398,10.543156,77.697659,1.563377,56.372395,0.0,7.15008,29.360098,53.182295,46.767477,69.01047,58.902545,78.697627,66.431525,84.172789,-9.080114,307.659494,-40.604868,291.04215
98,16.305885,-14.56297,0.30407,0.375628,0.0,-2.040253,-16.863384,36.283722,-25.546017,36.197662,-33.019295,17.445831,-37.671089,-51.684837,0.0,-6.747838,26.382555,47.419129,46.930375,64.381041,60.088832,75.30154,69.70757,93.028169,0.0,69.374828,27.639484,91.947384,19.387836,91.895657,10.425797,77.730961,1.576138,56.207943,0.0,7.184969,29.264323,53.061573,46.560058,68.083719,58.632448,77.651328,66.24047,83.800126,6.787863,292.926263,-40.738707,291.247516
99,12.607727,2.429632,-0.132294,0.073977,0.0,-18.401871,-30.517044,23.710213,-40.456867,24.259071,-46.37455,6.457443,-48.573647,-66.87212,0.0,-8.303887,26.296598,49.532908,46.766613,62.830241,58.941447,71.177045,67.505056,90.289106,0.0,69.036999,27.255363,91.388454,19.076328,91.950588,10.225067,77.731533,1.41758,56.187687,0.0,6.980884,29.090187,52.667482,46.387712,67.961577,58.345124,78.061907,65.767462,83.605859,18.944178,295.296398,-41.322412,291.261997
100,-20.991898,0.279482,-0.204105,0.071507,0.0,23.585587,-12.222118,54.947205,-22.471447,53.512917,-27.836266,38.627586,-29.025822,-25.231133,0.0,18.485048,28.323864,55.459589,46.977676,63.678322,59.90815,71.156667,70.450181,90.430947,0.0,68.639259,27.377815,91.629753,19.329071,91.997223,10.496464,78.005333,1.503868,56.307106,0.0,6.951367,28.510968,52.676559,45.884261,67.818748,58.113251,77.874865,65.959999,83.441973,-2.389126,295.51308,-41.867924,291.270704
101,19.274368,-2.376773,-0.096302,-0.08256,0.0,-15.93029,-30.678635,24.852905,-40.196171,26.552925,-45.919247,9.247971,-47.932777,-66.484623,0.0,-4.601147,29.573137,52.508351,48.765721,66.65463,60.110074,74.183981,68.486641,94.040011,0.0,68.233624,26.70187,90.860653,18.743763,91.66357,9.975815,77.320576,1.083012,55.631161,0.0,7.393686,28.890239,54.263607,46.168437,68.21426,58.314496,78.518489,66.115919,84.055649,16.261911,293.078292,-42.587557,291.130129
102,-18.011742,2.795071,-0.145855,0.050388,0.0,18.984261,-15.384178,52.103233,-26.304646,49.857216,-31.495399,34.05407,-32.377911,-20.336895,0.0,14.743652,25.049734,52.995562,45.287382,60.528001,59.691344,69.967539,71.1303,86.768097,0.0,68.695564,27.091484,90.423317,19.215546,91.540604,10.436783,77.359886,1.409054,55.65033,0.0,6.834474,28.829477,53.690686,45.805776,68.083966,57.782331,78.543251,65.507431,83.695644,-2.249336,295.893231,-43.232918,291.200385
103,-14.338818,13.928176,-0.257835,-0.326227,0.0,0.663357,-2.653542,68.263378,-10.338078,69.213009,-14.432144,56.633663,-15.451183,12.002621,0.0,55.059076,19.770876,43.141555,29.179354,47.167373,34.713735,51.258832,38.862992,63.799538,0.0,68.562469,27.343884,90.481453,19.284325,91.005936,10.125275,76.827507,0.62748,55.061646,0.0,6.888073,28.6772,54.208402,45.547907,68.412355,57.497723,79.046394,65.297788,84.267329,-16.952391,309.776438,-43.85499,290.829188
104,35.303135,-13.803934,0.293598,-0.011671,0.0,-21.646614,-32.364635,21.12133,-42.915058,23.061447,-48.692951,3.17276,-50.720959,-72.127762,0.0,-7.45488,27.161783,53.434052,46.477065,63.974477,57.981043,71.068487,66.55163,88.3218,0.0,68.184071,26.610203,90.36478,18.219166,90.69643,9.166203,76.152477,0.133095,54.418545,0.0,7.273334,28.646757,54.379142,45.903466,69.037022,58.100407,79.266534,65.850145,83.915599,18.068447,296.013953,-43.843689,290.858967
105,-16.624489,0.872101,-0.255089,-0.216126,0.0,7.132416,-18.173332,46.125069,-28.70121,45.062141,-33.931561,31.282196,-34.908142,-44.056206,0.0,20.433088,27.650785,57.362489,45.392604,64.096804,57.319264,71.724771,67.713217,90.990714,0.0,68.206844,26.614437,89.877033,18.111191,90.33308,8.839645,75.931606,-0.466347,54.14114,0.0,7.431415,28.904009,54.462073,46.020915,69.465694,58.126527,80.201003,65.853048,84.720701,1.04928,296.949457,-44.493456,290.706243
106,-17.181129,10.315839,-0.167027,-0.048289,0.0,22.986946,-6.787834,65.254326,-14.483013,67.70565,-16.75621,55.802307,-14.494228,-3.870106,0.0,25.462103,18.911249,44.792699,34.485876,51.297734,45.024078,60.622788,53.475795,76.670114,0.0,68.101616,26.929493,89.74617,18.513393,90.742607,9.227543,76.470108,-0.230885,54.259987,0.0,7.816614,29.073823,53.963809,46.068092,69.430558,57.92306,80.556315,65.374111,85.196241,-16.351004,307.295429,-44.879637,290.688088
107,29.383736,-13.777505,-0.156269,-0.306344,0.0,-16.570015,-29.999828,20.452995,-40.357475,24.392624,-46.677761,7.272949,-49.309158,-68.630905,0.0,-1.624406,27.410082,53.75571,45.273303,67.699261,56.336568,74.063382,64.828547,91.870472,0.0,67.830906,26.162052,89.233189,17.651653,90.075932,8.631191,75.909863,-0.449409,53.911915,0.0,8.372862,28.34665,54.360123,45.659119,69.788834,57.903485,80.730945,65.679097,84.866864,12.79501,293.467135,-45.273628,290.330955
108,-16.572762,2.579315,-0.599098,0.260093,0.0,10.055923,-16.967869,46.238136,-27.296391,48.333893,-32.210255,33.919945,-33.29607,-22.787704,0.0,25.583937,26.515689,54.894881,44.60646,62.463753,57.598253,71.093002,68.416307,87.658662,0.0,68.187847,26.699295,89.405079,18.263683,90.003147,9.132328,75.899677,-0.149231,53.842793,0.0,8.039224,28.676459,55.038513,45.742914,69.347442,57.87014,79.665256,65.660572,84.808942,-3.96801,296.022521,-46.062984,290.567119
109,-16.311493,6.135583,-0.197697,-0.889268,0.0,40.95829,-1.445103,67.621307,-10.116119,68.645668,-13.9991,51.737823,-13.722897,8.211651,0.0,7.57128,18.277813,49.984056,35.194586,58.43707,46.94433,66.890702,56.595488,79.90738,0.0,69.940567,26.290684,89.73999,17.893524,90.88623,9.15041,76.333122,0.669537,54.712029,0.0,9.128131,30.181934,56.539418,47.663538,71.273375,59.783106,81.028829,67.116646,85.636521,-20.401812,302.11139,-46.38299,289.631137
110,30.76664,-7.326748,-0.647907,-0.332773,0.0,-13.443832,-29.50676,24.940224,-38.914204,28.914757,-44.471397,11.82415,-46.319733,-65.174732,0.0,-8.351496,24.936484,49.120662,45.221062,63.279723,57.739537,71.009825,67.132207,92.021761,0.0,70.28429,26.325989,90.55418,17.487202,90.569286,8.728638,76.01469,0.545712,55.222721,0.0,9.550072,30.104314,56.583693,47.853852,71.656413,60.066664,81.059395,67.309061,85.395756,10.216055,294.753581,-47.17967,289.267304
111,-21.827087,8.519087,0.558472,0.116894,0.0,36.310272,-7.688656,58.658638,-16.827507,58.118935,-22.530384,41.349792,-23.845367,-25.817928,0.0,1.075075,19.380552,51.804458,39.257577,58.574774,52.784931,65.771661,63.580879,80.28029,0.0,69.991207,25.733528,90.14185,16.958656,90.002003,8.345833,75.735569,0.208626,54.772739,0.0,9.182595,29.914493,55.990087,47.496132,70.906454,59.633361,80.679816,66.913549,85.480354,-11.876192,303.209034,-46.886358,289.320564
112,-4.609737,-1.096687,-0.207825,-0.033901,0.0,38.344173,-3.915081,59.080296,-13.247166,58.559475,-17.777023,43.336773,-18.458977,8.053322,0.0,0.896492,17.836854,47.003549,37.861401,57.724038,51.951857,65.704538,62.945097,75.521618,0.0,69.704876,25.959091,90.259609,17.081051,89.785366,8.327866,75.106602,-0.01379,54.209461,0.0,9.452321,29.978096,56.369666,47.551028,71.21533,59.725925,81.070757,67.072927,85.645845,-16.716528,302.052881,-47.324781,289.227197
113,16.471081,-10.597976,-0.353107,-0.243544,0.0,-3.2341,-21.619205,34.455643,-31.184635,39.746361,-37.917938,22.000351,-41.190777,-54.844551,0.0,-2.161388,26.79406,50.867458,46.424454,65.452473,59.032159,74.453336,68.777979,94.799294,0.0,69.838142,26.11702,90.461311,17.090149,90.064545,8.221493,75.348473,-0.134296,54.408073,0.0,9.670423,29.915605,56.678233,47.647174,71.480548,59.869494,81.31498,67.136345,85.702841,-0.393362,291.433586,-47.825804,288.962334
114,-16.361961,9.45652,-0.20216,0.179508,0.0,-1.708889,-9.117966,57.662201,-17.714252,57.239799,-21.343002,44.605751,-20.627174,-1.313553,0.0,46.410869,22.571381,48.860816,38.400173,56.367567,49.756382,62.229286,59.21352,74.565845,0.0,70.120296,26.309795,90.763264,17.296944,90.16737,8.380795,75.43848,0.066261,54.736004,0.0,9.417802,29.897265,56.398751,47.593821,71.397555,59.710919,81.07897,66.912993,85.754279,-16.868649,300.835379,-48.141289,289.087116
115,27.320824,-8.254795,0.100365,-0.151042,0.0,-17.477875,-31.458836,23.203812,-42.534714,28.202591,-49.379368,11.307678,-52.151985,-67.288227,0.0,-1.674362,24.233887,52.547007,43.235909,66.347545,55.582904,74.010771,65.731276,93.780721,0.0,69.965801,25.659142,89.782047,16.682625,89.348202,7.796803,74.53577,-0.508232,53.879528,0.0,9.15209,30.099806,56.795127,47.572209,71.486414,59.505599,81.219885,66.643638,85.893897,10.34008,292.543488,-48.153019,288.898978
116,-23.229847,4.622512,-1.053085,-0.284422,0.0,28.475132,-11.063633,55.403996,-21.565933,56.295033,-27.744198,39.947147,-29.195309,-33.807278,0.0,9.608982,23.864188,57.05911,43.487975,62.817706,56.685581,70.214356,67.346543,87.165523,0.0,70.216312,26.20348,91.041584,17.317886,90.628452,8.321342,75.648937,-0.252571,54.535732,0.0,9.436636,29.597837,55.890977,47.044798,70.903923,59.130342,80.910639,66.483025,85.86049,-12.940063,297.150748,-49.256401,288.599304
117,-13.388557,-0.599041,0.10849,0.103741,0.0,46.429653,3.959713,77.75877,-8.143501,73.440456,-15.268536,55.593395,-18.275242,13.614178,0.0,18.166539,20.916285,52.368363,39.940352,63.078108,52.920844,69.871456,62.852163,85.232056,0.0,69.817028,25.699253,89.631901,17.253342,90.62788,8.592453,76.161747,0.176868,55.179234,0.0,9.401562,29.405793,55.89215,46.872021,70.610546,59.09922,80.383105,66.714034,85.370315,-26.356058,296.543556,-49.175348,288.694893
118,26.99873,-6.583767,-0.307903,-0.142458,0.0,-8.181725,-23.713875,31.524925,-34.17429,36.583786,-41.932011,18.598595,-46.567097,-60.488033,0.0,1.666705,24.217647,53.890017,42.796308,67.381803,55.156703,76.041804,65.154465,95.110022,0.0,70.395813,26.895218,90.070038,18.368912,90.482826,9.405327,75.498848,0.682297,54.760437,0.0,8.862913,29.755671,56.082589,47.136621,70.530271,59.240937,80.151973,66.592385,85.34049,0.587969,289.905062,-49.537954,288.497709
119,-19.486313,18.250705,-0.220184,-0.192847,0.0,-10.553455,-12.456722,54.132614,-17.404232,61.357613,-18.729858,55.452118,-17.594376,28.351936,0.0,51.326572,25.302108,49.32592,30.422575,52.069182,32.901608,49.477085,34.674277,49.751319,0.0,70.628357,26.88961,90.014534,18.593273,90.842171,9.879456,75.9478,1.367569,54.918594,0.0,8.974126,29.82724,56.331319,47.230173,70.319702,59.337021,79.881753,66.773067,85.378096,-18.914108,308.063805,-49.773903,288.2129
120,8.180466,-16.748317,0.307331,-0.676785,0.0,3.608665,-10.915546,43.196983,-19.507542,47.237778,-27.831745,30.663528,-34.978638,-38.035183,0.0,11.827427,24.538132,51.258461,41.140903,65.586224,51.866579,73.394131,60.638411,88.280118,0.0,70.400219,27.085018,90.272884,18.721104,90.466518,9.71323,75.529804,0.698032,54.247112,0.0,9.6188,30.672665,56.524536,47.741837,70.472411,59.752477,79.592453,67.314433,86.184062,-10.748405,291.239906,-49.481335,287.460533
