takenoko1/special-research/HandMotion_SimilarSearch_自分用/NewProject/handData/test_key/d4_feature_d2/93.csv
frame,vel_0x_L,vel_0y_L,vel_0x_R,vel_0y_R,posFromWrist_0x_L,posFromWrist_1x_L,posFromWrist_2x_L,posFromWrist_3x_L,posFromWrist_4x_L,posFromWrist_5x_L,posFromWrist_6x_L,posFromWrist_7x_L,posFromWrist_8x_L,posFromWrist_9x_L,posFromWrist_0y_L,posFromWrist_1y_L,posFromWrist_2y_L,posFromWrist_3y_L,posFromWrist_4y_L,posFromWrist_5y_L,posFromWrist_6y_L,posFromWrist_7y_L,posFromWrist_8y_L,posFromWrist_9y_L,posFromWrist_0x_R,posFromWrist_1x_R,posFromWrist_2x_R,posFromWrist_3x_R,posFromWrist_4x_R,posFromWrist_5x_R,posFromWrist_6x_R,posFromWrist_7x_R,posFromWrist_8x_R,posFromWrist_9x_R,posFromWrist_0y_R,posFromWrist_1y_R,posFromWrist_2y_R,posFromWrist_3y_R,posFromWrist_4y_R,posFromWrist_5y_R,posFromWrist_6y_R,posFromWrist_7y_R,posFromWrist_8y_R,posFromWrist_9y_R,posFromBody_0x_L,posFromBody_0y_L,posFromBody_0x_R,posFromBody_0y_R
2,-0.611,-0.139988,-0.090237,0.132949,0.0,37.247829,15.866776,63.410397,5.013428,63.992558,-7.423496,45.178127,-18.176136,-9.467754,0.0,-11.351516,14.282068,41.026294,38.174413,59.461633,54.705925,70.025338,66.976349,80.822397,0.0,69.367905,24.33466,87.714958,14.774437,85.333099,5.745907,70.56839,-2.196522,51.069374,0.0,6.753334,27.880743,54.023645,45.781076,66.933927,58.511603,76.68197,66.132283,82.560486,-26.620531,289.444157,-43.286619,286.928754
3,5.919228,-1.037036,0.193462,-0.342777,0.0,31.569271,9.666309,57.848225,-0.343323,58.152294,-12.022247,38.05521,-21.813068,-26.666965,0.0,-12.943195,19.168316,44.962451,41.747848,61.553366,56.915416,72.258109,67.845486,86.915804,0.0,69.061604,24.819202,87.7458,15.378685,85.573139,6.145706,70.51363,-2.128086,50.561543,0.0,7.300072,28.73117,54.233473,46.444831,67.462016,58.883279,77.034936,66.318213,82.835028,-21.079445,288.471295,-43.471298,286.650152
4,7.252693,2.893686,-0.370903,0.219831,0.0,15.642529,2.603931,51.123562,-5.659046,53.332615,-15.883713,34.391384,-25.425854,-30.424118,0.0,-12.365396,18.615341,40.653631,40.924715,58.323511,56.212326,69.348738,67.47696,85.093982,0.0,69.268742,25.475235,87.335529,16.200428,85.771923,6.80666,70.582981,-1.828823,50.296383,0.0,6.883627,28.63805,53.723105,46.253035,66.951773,58.725568,76.580453,66.323215,82.559807,-14.012146,291.429865,-44.027596,286.934868
5,19.421825,2.272353,-0.207767,-0.133072,0.0,-12.659798,-20.021725,28.793793,-28.345356,31.665001,-34.426403,16.285973,-38.270702,-49.405689,0.0,-14.018332,20.961795,40.745577,42.555235,56.513298,55.859608,64.967114,64.86183,83.384051,0.0,69.025269,25.281029,87.749062,15.869865,85.944557,6.457043,70.77095,-2.179184,49.866257,0.0,7.009783,28.733208,53.523405,46.403088,66.808944,58.850551,76.32283,66.269245,82.035052,5.184574,293.773263,-44.460468,286.872839
6,-16.337128,5.241437,0.082111,0.213533,0.0,23.319511,-9.285393,52.473564,-17.85656,55.60627,-22.16383,39.504776,-22.533588,3.646774,0.0,14.277128,18.365499,47.527563,34.007187,56.200408,46.041107,63.328691,56.006821,69.984274,0.0,68.876896,25.152569,87.391148,15.786152,85.832233,6.410809,70.751209,-2.217636,50.380726,0.0,6.842687,28.335597,53.336857,46.152073,66.832903,58.782625,76.219522,66.452335,81.822754,-11.312113,299.069997,-44.537916,287.14167
7,-5.611954,10.918152,0.112553,-0.15592,0.0,35.199051,1.467018,64.460678,-8.623524,67.843094,-14.520779,46.432343,-16.281223,3.969383,0.0,12.517056,4.905267,34.354224,19.770074,43.941346,32.917786,55.056173,44.720204,68.065009,0.0,67.620506,25.363026,87.302055,15.904713,86.11908,6.338539,70.801277,-2.527542,50.175705,0.0,7.329712,28.406363,53.341303,46.244081,66.508652,58.8671,76.149126,66.511307,81.76545,-17.004004,310.023501,-44.505301,287.021102
8,2.745094,-17.877732,0.107174,-0.139371,0.0,9.058113,2.522221,50.029335,-6.235485,51.121101,-16.8857,32.66819,-26.0396,-30.952206,0.0,-13.860497,19.177949,40.50543,40.692657,57.290056,55.252848,67.169134,65.638588,82.803906,0.0,67.698841,25.330868,87.456722,16.09148,86.229,6.635456,71.372051,-2.14325,50.254955,0.0,7.329774,29.09525,53.203105,46.641198,66.533969,58.924034,76.143877,66.223303,82.052095,-14.401445,292.158674,-44.540663,286.894637
9,-0.797768,-1.308121,0.193577,0.196181,0.0,10.875549,2.093182,51.602325,-6.563873,53.131485,-16.757011,34.169655,-25.713558,-28.876076,0.0,-11.52133,18.833814,41.757111,40.554707,57.812279,55.426861,68.446812,66.022182,83.727816,0.0,68.019676,25.039387,86.942139,15.732079,85.896606,6.399937,71.014709,-2.088547,50.153732,0.0,7.342556,28.674298,53.050643,46.410189,66.082821,58.812451,75.893479,66.056206,81.645715,-15.288134,290.869264,-44.436007,287.109529
10,-0.907516,0.63992,-0.379486,-0.34889,0.0,14.245377,2.273197,53.762856,-6.784916,54.738235,-17.356682,34.841423,-26.413307,-25.589161,0.0,-11.863983,17.058675,41.440763,38.837304,57.398366,53.662775,68.275146,64.348561,81.639417,0.0,67.641449,25.386887,87.143669,15.932579,85.92453,6.467743,70.822449,-2.141361,49.953232,0.0,7.689347,28.808605,53.464495,46.611619,66.957701,59.01845,76.349938,66.257019,82.017515,-16.246262,291.503595,-44.866104,286.75505
11,-2.854557,-1.518319,-0.042515,-0.280038,0.0,16.66357,5.419064,56.227055,-3.301678,57.51955,-14.273701,38.785,-23.455925,-24.056396,0.0,-13.009206,18.662271,42.285324,40.246387,59.932603,54.788115,69.989584,65.611542,84.659259,0.0,67.738895,25.613136,87.166729,16.344452,86.003551,6.893864,70.841961,-1.823788,49.384403,0.0,7.860827,28.947852,53.229226,46.465518,66.613319,58.761877,76.430152,66.03515,82.543628,-19.120703,290.022126,-44.928503,286.511862
12,3.838291,1.564323,-0.04097,0.412925,0.0,10.344429,-0.053616,50.41214,-8.22361,53.412323,-18.0233,34.836502,-26.121254,-31.450481,0.0,-14.623486,18.406316,40.363404,40.259169,57.382003,54.787806,68.160846,65.270865,83.809573,0.0,67.893734,25.580406,86.642475,16.415062,85.662403,7.17762,70.398045,-1.379471,49.588223,0.0,7.106793,28.122434,53.168154,45.724266,66.663213,58.145176,75.567869,65.585668,81.356538,-15.320263,291.613032,-45.007324,286.95137
13,20.586433,2.467855,-0.250568,-1.140345,0.0,-14.146042,-21.236458,28.383751,-31.905785,30.956154,-39.28751,14.460297,-43.935471,-52.504578,0.0,-12.876752,18.324682,40.188527,39.597699,55.005229,53.584414,64.175536,63.783359,78.93055,0.0,67.931671,23.936634,87.136116,14.386196,86.396484,5.35984,71.412964,-2.563877,50.719986,0.0,8.546134,28.694675,54.256999,46.531467,67.94367,59.067851,77.621441,66.434489,82.722643,5.23633,294.076627,-45.287733,285.806765
14,-18.972015,7.856505,0.361519,-0.220264,0.0,33.097343,-5.725136,61.365852,-14.508133,59.820557,-19.947109,42.209244,-21.468887,-12.225895,0.0,-3.370893,14.074277,46.227346,32.847267,55.153492,47.226839,61.827353,58.209026,73.250994,0.0,68.077469,23.435326,87.741051,13.945599,86.01963,5.142174,71.899796,-2.583218,51.457329,0.0,9.123129,28.65991,54.488872,46.229261,67.510861,58.563411,77.35295,65.725101,82.574874,-13.789158,301.947087,-44.979687,285.600457
15,1.791973,3.245663,-0.022087,0.278618,0.0,19.694309,-12.411461,52.773571,-18.967438,57.414036,-20.60955,42.656765,-17.947598,-4.196949,0.0,-1.664668,13.27004,39.481855,29.950308,44.437758,41.826765,56.495946,51.030911,68.405254,0.0,67.937393,23.529396,87.59697,13.979301,86.244507,5.07391,71.579475,-2.757111,50.64537,0.0,8.243495,28.10959,53.914038,45.626391,67.329315,58.117697,77.006407,65.525894,82.433465,-12.04525,305.208312,-45.049839,285.894635
16,9.212437,-11.581599,0.211601,-0.322214,0.0,-4.058075,-13.123398,36.771812,-21.855297,36.760483,-29.59837,19.035301,-34.312706,-46.748886,0.0,-17.713785,19.493,38.102968,41.438664,54.539693,55.290763,64.144475,65.075548,80.026064,0.0,67.916565,23.912945,87.033463,14.387169,85.714188,5.53688,71.210289,-2.177868,50.634155,0.0,8.418866,28.323864,54.190865,46.066116,67.464795,58.617628,77.195055,65.941783,82.490523,-2.907257,293.709521,-44.912682,285.655229
17,-6.158981,25.049116,-0.12188,-0.338639,0.0,-41.353283,-22.206173,38.074837,-21.670361,47.685127,-16.555195,45.701065,-8.446426,18.3284,0.0,43.474266,14.951319,34.357497,16.30532,30.213242,14.301457,26.866925,11.764688,19.64787,0.0,68.418617,23.314304,87.507706,13.858509,86.271973,5.131874,71.789017,-2.378483,50.970383,0.0,8.650615,28.845161,54.28102,46.481696,67.491965,58.928109,77.659665,66.151611,82.73666,-9.131355,318.761539,-45.099678,285.319492
18,22.468071,-22.454426,0.00658,-0.055328,0.0,-21.287727,-28.441601,21.540985,-39.654522,22.135849,-46.262627,5.098572,-49.753475,-60.800171,0.0,-15.860223,17.38447,37.978418,39.267272,52.36719,53.122583,61.072578,62.820608,77.308552,0.0,68.378048,24.08329,87.46645,14.565983,85.970364,5.431652,71.610661,-2.722607,50.948238,0.0,8.291845,28.763898,54.383958,46.138549,67.446455,58.494992,77.568768,65.83656,82.759816,13.258581,296.309954,-45.171232,285.267004
19,-22.68528,9.729518,0.08606,0.055081,0.0,28.577957,-10.861588,53.214798,-18.886757,50.399094,-23.157063,38.08445,-23.24564,-19.776707,0.0,-7.624447,11.38375,43.91856,29.285689,53.218975,42.473601,58.746007,51.995452,68.856896,0.0,68.866825,24.120255,87.374554,14.499435,85.76231,5.365162,70.849056,-2.722549,50.064983,0.0,8.071705,28.441622,53.872541,46.226482,67.729087,58.778612,77.252359,66.177176,82.606799,-9.44787,306.043841,-45.106344,285.326455
20,8.107681,-14.214451,-0.327187,-0.002655,0.0,-6.584015,-16.162548,37.035942,-25.656166,39.796944,-32.776966,24.668427,-36.218948,-42.472515,0.0,-14.722842,21.766773,39.465615,43.542994,55.831511,56.652113,65.084872,65.350955,81.64411,0.0,69.142628,25.304203,88.360233,16.065216,86.47047,6.842537,71.72533,-1.63868,50.532932,0.0,7.754184,29.205104,53.746879,46.227593,66.901446,58.278248,76.733347,65.403628,82.68973,-1.362133,291.834979,-45.455475,285.329388
21,-5.131531,6.818974,0.642986,0.196119,0.0,20.651436,-14.923038,45.598068,-23.487225,48.176193,-26.64299,35.897713,-25.936146,6.665726,0.0,-4.601764,15.135396,41.994788,34.886142,51.123845,49.011117,59.694494,60.252223,66.119809,0.0,68.808517,25.306664,87.452888,15.942764,85.67585,6.708698,70.613594,-1.671753,50.133476,0.0,7.26154,28.489355,53.652216,45.974849,66.780477,58.469551,76.595458,66.072015,82.326267,-6.54336,298.715874,-44.862185,285.587427
22,2.408066,4.201128,0.778999,-0.018587,0.0,31.064873,-13.127689,45.957413,-21.280861,49.448318,-24.523201,32.711105,-23.218803,-29.521351,0.0,-0.479677,12.01663,42.293722,29.118469,50.212409,42.415802,60.299401,53.584785,73.16547,0.0,68.5326,25.059872,87.287521,15.461025,84.949608,6.006489,70.024567,-2.550945,49.501534,0.0,7.467292,27.716734,54.121951,45.281207,67.462819,57.851738,77.024685,65.487856,82.691335,-4.196262,302.959393,-44.144154,285.611232
23,1.301765,2.596667,-0.55727,-0.200689,0.0,19.022827,-15.667362,47.116585,-24.187603,49.335938,-27.690754,33.059807,-26.836224,-18.864269,0.0,-0.726555,12.220715,39.996792,29.418946,47.44031,42.19807,55.643049,52.873976,66.956404,0.0,68.858929,25.388317,87.567501,15.852013,85.414295,6.514835,70.514545,-1.942177,49.819851,0.0,7.593386,28.005232,54.342339,45.829365,67.911312,58.459609,77.213271,66.040213,82.696584,-3.00396,305.637184,-44.810886,285.491668
24,1.129417,-14.731425,0.66164,-0.642513,0.0,-2.663841,-15.252228,38.098755,-24.947433,38.676338,-32.660522,20.299072,-36.760998,-45.140419,0.0,-14.677826,20.317368,41.522891,42.166207,57.113697,55.756608,67.391683,65.062519,83.269813,0.0,68.391609,25.323715,87.599716,15.841141,85.213165,6.553974,70.292816,-1.847363,49.761314,0.0,8.544343,28.939269,54.70506,46.534122,67.961145,58.960899,77.758218,66.353473,83.347557,-1.954365,290.976339,-44.229069,284.919735
25,-11.971664,7.771042,-0.180759,0.288313,0.0,-2.826118,-7.291946,52.409935,-13.882484,55.268669,-16.137428,43.172035,-14.82399,9.690056,0.0,26.752193,19.800208,43.436475,35.422445,51.162686,45.553279,57.043178,53.894957,64.489043,0.0,67.673893,24.448071,87.073002,15.213318,85.05312,6.128712,70.437069,-2.349415,50.277271,0.0,8.015018,28.958658,53.972886,46.229199,67.744586,58.440034,77.620268,65.825383,82.933953,-13.987856,298.766802,-44.471655,285.227469
26,6.307182,-9.514503,0.072842,0.038903,0.0,3.123894,-10.890827,45.274773,-21.15921,47.04792,-28.785324,25.924988,-33.187237,-41.395512,0.0,-10.939271,22.038907,44.688094,43.427953,58.978992,57.208978,69.125078,66.193107,85.973925,0.0,68.314819,24.73423,87.964325,15.541935,85.608215,6.284409,70.944672,-2.42197,50.316696,0.0,7.687618,28.605631,53.593121,45.707778,66.641045,57.960727,76.982818,65.447594,83.095677,-7.791338,289.279901,-44.509478,285.293974
27,0.303841,0.114424,-0.418739,-0.120475,0.0,4.022713,-11.210403,43.370476,-20.256386,43.632202,-26.759777,22.177162,-30.247078,-41.642418,0.0,-9.440835,21.952271,44.541128,43.44407,58.877845,57.617272,68.055006,66.930654,84.34532,0.0,68.408203,25.015812,87.96936,15.912437,86.380348,6.697826,71.547318,-2.008381,50.967636,0.0,7.580542,28.64157,53.258866,45.833749,66.480061,58.066691,76.56236,65.532069,82.650148,-7.666798,289.425262,-45.107517,285.204436
28,-7.817802,8.416211,-0.163708,-0.111521,0.0,-12.304802,-9.138851,51.630821,-12.587929,56.576729,-11.781578,50.700302,-8.064137,21.283379,0.0,36.506535,22.25244,41.485285,37.826573,49.209089,47.075365,53.348713,53.388542,59.249582,0.0,68.519955,25.166302,87.727947,16.110077,86.250744,6.871834,71.265278,-1.846046,50.402699,0.0,6.935992,28.388146,53.237191,45.639359,66.429858,58.060207,76.684811,65.78821,83.083203,-15.602074,297.922998,-45.388699,285.17444
29,13.201332,-5.917542,0.337543,-0.204641,0.0,0.714111,-13.242874,38.563843,-23.231335,39.381523,-30.685673,21.828117,-35.358868,-40.552483,0.0,-11.870776,18.892415,41.855788,40.473752,56.890778,55.113663,65.287661,65.248696,81.836215,0.0,68.548737,25.368519,88.665047,16.13554,86.722641,6.714478,71.817856,-2.18256,50.767937,0.0,7.412458,28.741668,53.112209,45.978678,66.243557,58.225945,76.64634,65.711824,83.390844,-2.550058,292.057049,-45.200472,285.021392
30,-5.303078,3.343661,0.14946,-0.444232,0.0,25.825195,-12.659512,48.523865,-21.787319,48.230782,-25.479527,34.875183,-24.911442,5.226631,0.0,1.030306,20.471435,45.338511,40.20063,54.102253,53.885139,62.57867,64.38592,69.716524,0.0,68.347778,25.391293,88.963394,15.898361,86.672401,6.373959,71.795082,-2.456932,50.626945,0.0,7.645751,28.782917,53.6432,46.070439,67.002223,58.340492,77.615451,65.713183,83.971359,-8.03195,295.436849,-45.229826,284.613299
31,-3.819008,2.348368,0.056992,-0.065147,0.0,20.503235,-13.132725,53.857841,-19.565907,59.625092,-20.825615,45.668564,-17.188396,-2.588024,0.0,18.478317,16.149153,48.837722,31.706675,54.800959,42.600559,64.426984,51.519418,76.332587,0.0,69.536591,25.157146,88.663101,16.339931,86.640587,7.411251,72.094917,-1.123009,51.456642,0.0,7.349534,27.950151,53.449983,45.226866,67.342221,57.775908,77.809965,65.665388,84.242382,-11.947947,297.803156,-45.269823,284.566091
32,25.494461,-5.032226,0.817566,-0.761259,0.0,-18.334007,-29.321308,21.143532,-39.695606,22.987976,-45.106659,7.41394,-47.56485,-54.720955,0.0,-2.153175,19.283172,48.689953,39.617953,62.08479,52.609066,67.058786,62.326173,81.631081,0.0,68.239632,25.595284,87.58461,16.721878,86.272545,7.168236,70.576973,-2.205563,48.606949,0.0,6.465886,27.1779,55.808046,43.88293,71.638444,55.972858,79.951469,63.748964,85.370192,13.514414,292.785256,-44.484358,283.819158
33,-19.509773,-0.443862,1.986065,-3.173292,0.0,23.774529,-15.67091,46.824303,-26.554756,48.128242,-31.277218,28.084373,-30.617981,-24.73423,0.0,9.938791,17.757195,61.611597,34.780611,69.176023,47.035042,75.57318,57.57065,85.100157,0.0,67.479343,22.900944,80.743504,13.397198,79.896183,3.595905,66.617603,-5.833225,43.304729,0.0,6.751481,23.771439,59.042348,40.973683,79.797217,54.038341,87.554365,63.019753,88.784063,-6.126938,292.351181,-42.629871,280.655653
34,-1.730919,43.517738,1.172962,-8.393301,0.0,-23.8064,-23.28804,16.990471,-21.461391,22.343674,-15.761204,26.637039,-6.130371,22.932243,0.0,26.753675,-8.495004,19.00264,-17.577625,12.56553,-26.443935,-1.066368,-34.757084,-13.711432,0.0,67.28817,24.849987,75.798683,13.515759,71.119652,1.387539,54.864922,-10.822105,32.889977,0.0,11.418824,17.647897,60.507561,32.900126,78.170711,45.863513,86.909691,56.235483,87.748694,-8.14682,335.891073,-41.745872,272.284505
35,37.466698,-57.861618,3.507442,-9.727666,0.0,-61.343765,-22.508583,-59.602203,-10.7024,-51.839848,-0.232544,-38.710442,8.268929,-21.141815,0.0,7.822048,40.21829,67.407552,51.382271,79.9448,58.199887,82.803474,61.046149,90.275336,0.0,53.729382,18.974934,54.879055,7.98975,44.674587,-2.448063,31.709347,-11.270885,18.080864,0.0,39.500071,13.182725,65.530957,26.909842,83.724728,40.324254,84.52699,51.666323,82.97477,29.141121,278.056347,-38.417187,262.583731
36,3.292694,-12.764242,-17.513351,-24.007263,0.0,-36.73233,-20.605774,-44.278336,-5.599823,-23.156548,9.708824,-8.582153,24.111328,2.646332,0.0,42.677809,25.207074,79.420478,33.867446,79.64988,41.280953,81.268729,46.476077,83.47396,0.0,48.384504,27.199287,52.569237,19.111977,46.122694,9.367504,36.611881,-0.834503,25.462303,0.0,16.492639,-4.82561,20.760272,-4.813291,21.773843,-3.120774,15.88696,-0.993318,4.668516,32.498674,265.051355,-55.865679,238.335719
37,33.767624,-62.231695,-17.513351,-24.007264,0.0,-41.948547,-29.301109,-53.344345,-14.137688,-31.743279,1.477089,-18.069992,16.351776,-2.213745,0.0,53.371066,15.216907,81.009007,25.890651,86.30182,36.698579,87.344105,46.083715,86.267672,0.0,43.039627,35.423641,50.259418,30.234203,47.570801,21.183071,41.514416,9.601879,32.843742,0.0,-6.514792,-22.833944,-24.010413,-36.536422,-40.177041,-46.5658,-52.753068,-53.652957,-73.637737,65.969868,202.951235,-73.675461,214.46003
38,17.653999,-53.901379,1.281223,-65.33842,0.0,-47.718315,-27.68383,-43.967972,-13.224335,-24.610291,1.616821,-14.516144,15.099678,-3.321877,0.0,30.943008,3.655995,50.178447,9.922365,56.508667,19.175602,55.845344,29.726834,63.900994,0.0,34.0135,9.954987,20.0144,-4.435673,19.501934,-16.912766,7.838573,-26.987457,-3.800354,0.0,-26.162662,-47.85237,-97.045527,-48.76853,-66.311514,-43.718489,-33.301935,-34.997262,-24.922713,82.493563,149.928318,-73.524542,150.000072
39,0.021286,-30.764982,-2.457905,-57.185605,0.0,-19.053497,-10.671844,-24.124374,4.085312,-8.207016,15.974922,2.593231,25.782509,12.915115,0.0,-25.71633,-48.002269,-90.247023,-48.451164,-23.185458,-41.194533,-13.225302,-29.838108,-7.807043,0.0,16.921406,-3.027649,7.519569,-19.814072,4.781227,-31.433544,-5.726738,-38.425655,-14.471684,0.0,-52.054177,-53.809463,-114.588541,-54.09086,-49.563412,-48.46867,-36.348238,-40.877445,-33.895635,82.553959,123.781896,-75.943336,97.433026
40,-7.840805,-65.567267,0.771446,-52.024444,0.0,-0.598068,5.062065,0.97229,22.611923,5.646629,36.823425,16.54232,49.030609,26.528664,0.0,-45.453182,-53.880569,-105.462726,-53.060709,-20.989397,-45.03331,-12.815125,-34.312512,-9.80967,0.0,9.455967,-7.433453,-2.2328,-24.364185,-7.816601,-37.969608,-18.712063,-49.213428,-29.017124,0.0,-50.937143,-56.195993,-118.810818,-53.152933,-23.157485,-43.678969,-15.310397,-31.718686,-13.26297,76.674042,60.564974,-73.211002,47.758926
41,4.483223,-49.582802,-0.254459,-39.320069,0.0,-1.493454,1.382217,4.820595,17.814903,7.929039,31.742706,20.449791,45.077248,30.766296,0.0,-57.094585,-56.409464,-123.726182,-53.440072,-24.903416,-46.368168,-17.325591,-37.624958,-18.159067,0.0,2.499161,-8.345375,-4.331989,-26.1236,-5.198307,-40.148792,-14.3894,-51.972256,-25.457439,0.0,-53.320524,-56.465688,-123.661591,-53.512259,-17.56793,-45.68314,-12.919174,-35.399072,-12.906639,83.622751,13.577279,-70.999975,11.033965
42,-1.44207,-37.261217,0.508404,-27.147457,0.0,-5.77652,0.273857,0.479279,15.282211,4.673538,29.24263,15.609512,42.815208,26.965714,0.0,-53.720605,-51.380727,-120.964549,-49.214183,-23.572355,-43.657572,-18.040908,-36.295873,-19.014187,0.0,12.500553,-10.232964,0.070267,-26.290398,4.035358,-39.473019,-8.280945,-50.295925,-20.991268,0.0,-60.183125,-53.691644,-105.980874,-50.762081,-26.351433,-42.785317,-18.091049,-31.528062,-16.306339,81.961155,-17.019448,-70.711098,-9.449002
43,-8.660889,-18.815042,8.982754,-23.642349,0.0,-14.277649,2.387581,1.666718,17.378426,3.879089,31.684456,17.009583,45.950661,27.857094,0.0,-58.587896,-49.462914,-107.406583,-49.651252,-36.025221,-45.796483,-25.756035,-39.265852,-26.095878,0.0,5.723648,-13.426151,-7.034798,-29.060268,0.891953,-41.945343,-11.110954,-52.44381,-21.700802,0.0,-57.993826,-54.43447,-109.389959,-51.755799,-24.166857,-43.671775,-15.402529,-32.09913,-13.982949,73.38521,-33.718272,-61.6434,-30.975134
44,-8.03524,-10.939981,3.496399,-7.887565,0.0,-18.919258,3.198624,-2.08992,18.396034,2.639122,32.552719,15.064659,46.470566,26.112213,0.0,-58.466402,-49.204797,-93.482143,-49.021923,-38.537197,-44.936454,-27.16274,-38.095496,-25.415698,0.0,6.595001,-13.64954,-7.906494,-29.289665,1.265316,-41.855564,-9.803238,-51.853466,-19.595604,0.0,-55.762444,-54.080517,-110.104365,-51.764629,-26.214131,-43.437463,-14.919795,-31.553256,-14.189226,65.791426,-43.019505,-57.705545,-37.223951
45,-5.274925,2.012106,2.867718,3.759612,0.0,-18.208351,1.269836,-1.940231,16.444359,-1.347771,30.759201,12.438698,44.938431,26.045151,0.0,-55.704707,-51.744313,-105.433796,-51.293103,-38.387174,-47.157184,-24.309346,-40.406783,-24.017668,0.0,3.680363,-12.43,-10.744972,-29.376755,-2.301121,-42.70483,-11.912441,-53.901558,-20.624657,0.0,-56.920202,-54.505483,-117.786858,-51.617386,-22.322805,-43.187744,-12.661027,-31.436949,-11.584655,60.196953,-38.772466,-55.157375,-31.229406
46,-1.238937,14.00027,-3.423386,14.315567,0.0,-10.819473,-1.550102,-4.64962,15.237236,-1.013718,30.85144,13.332939,45.700951,25.586472,0.0,-56.821679,-56.172713,-124.188013,-54.611694,-32.139206,-48.508314,-20.584098,-39.645864,-19.191503,0.0,1.994019,-13.908005,-12.833405,-31.442928,-0.915928,-44.501324,-13.513584,-54.651546,-21.885452,0.0,-53.009271,-56.015003,-124.971287,-52.801017,-20.411228,-43.630464,-12.632683,-30.773904,-9.756874,58.267279,-23.688801,-59.271498,-15.830444
47,6.348152,23.153379,-14.703598,18.357409,0.0,-7.973785,-0.275688,-1.767311,15.965424,3.756981,30.870667,17.76741,44.729805,27.335243,0.0,-47.994026,-55.895392,-128.970428,-52.863509,-24.988941,-45.661404,-18.824613,-36.465563,-19.163191,0.0,2.16671,-11.187801,-10.786514,-28.68021,-8.225098,-42.351437,-19.998608,-53.363972,-29.659138,0.0,-44.72005,-48.243343,-116.630164,-43.127877,-18.368278,-32.312972,-14.555498,-18.783117,-6.179333,62.988853,-0.718775,-75.601673,2.343613
48,21.462021,29.373096,-23.251076,23.518478,0.0,-9.34124,-0.461769,-3.105812,15.539703,4.152489,29.70314,16.267662,42.527275,26.642876,0.0,-49.346113,-51.121036,-121.582455,-48.49865,-27.575881,-42.127335,-21.863166,-34.064646,-16.192162,0.0,-6.311474,-13.446922,-11.262817,-31.050968,-9.902973,-44.828281,-18.999081,-56.39986,-31.998253,0.0,-47.554672,-49.786609,-119.227356,-43.523913,-20.721987,-31.753389,-14.088542,-17.637431,-7.523361,84.293804,26.199048,-99.009819,23.406818
49,35.362816,28.7848,-35.881176,13.305639,0.0,-11.204681,-3.934822,-5.915451,9.85817,3.97522,22.515564,14.90593,34.589882,25.117607,0.0,-44.548075,-51.695531,-112.639204,-48.886906,-36.885559,-41.644663,-20.844654,-32.133556,-12.993491,0.0,-14.591618,-14.824162,-20.715122,-33.195419,-12.794781,-46.208038,-21.895237,-55.946274,-30.934753,0.0,-48.521096,-49.515525,-116.231535,-42.446461,-21.575162,-30.433752,-11.889146,-16.545313,-1.791379,118.774652,52.535089,-135.772963,34.263698
50,37.639275,18.560692,-52.100487,9.212297,0.0,5.6353,-4.54422,2.170258,11.130409,10.484505,23.611565,22.003899,33.937569,26.422462,0.0,-59.583158,-44.696029,-94.147488,-42.589167,-29.217671,-36.590268,-18.210876,-28.631567,-14.218403,0.0,-26.259785,-14.200287,-26.896019,-29.318447,-17.441483,-41.534328,-23.942127,-50.585175,-33.116283,0.0,-45.130474,-51.158487,-115.365115,-43.643184,-19.325378,-32.630554,-11.282171,-19.749758,-3.869528,152.467947,68.601744,-191.819429,40.981958
51,45.664101,2.837709,-42.716446,-24.073182,0.0,22.974243,10.545845,28.676262,25.388145,14.631729,37.171898,23.094521,46.057434,31.136284,0.0,-37.287894,-54.535,-118.05521,-49.152155,-28.456875,-40.125665,-18.706886,-29.385755,-13.650299,0.0,-26.059456,-2.783546,-30.608711,-2.602501,-40.773811,-2.567024,-46.668205,-2.900219,-45.868034,0.0,-59.888822,-22.541278,-60.857223,-5.286854,-27.044087,12.202746,-7.662238,26.542519,10.747505,195.797796,70.499303,-236.870127,15.968626
52,52.47345,-25.543212,-49.637432,-26.198292,0.0,25.629501,10.336647,33.080978,23.402252,11.105804,34.499588,18.088188,43.229828,29.192963,0.0,-42.633534,-52.714876,-113.421212,-44.724866,-21.554846,-33.037119,-10.352395,-20.505768,-5.279784,0.0,-35.529156,-16.72142,-37.651978,-29.483414,-24.081173,-39.574013,-27.682171,-47.038364,-35.008049,0.0,-45.328971,-52.017713,-124.273075,-40.753512,-26.524025,-26.861923,-14.083293,-12.306548,-7.806796,248.421879,43.936406,-286.356926,-11.24935
53,48.233643,-20.087409,-23.943729,-28.009894,0.0,25.470657,-13.93261,7.775688,-16.095543,15.380402,-14.564095,19.834213,-9.832878,19.260979,0.0,-58.368095,-38.058848,-101.401988,-28.123916,-56.741219,-13.778925,-32.28997,4.026652,-15.39518,0.0,-35.10149,-17.840824,-34.894581,-32.214375,-23.541756,-43.008385,-29.288349,-50.576534,-39.043121,0.0,-48.26721,-57.169272,-130.240017,-47.815135,-32.41239,-35.090382,-19.30781,-20.761137,-12.87422,297.020559,23.689202,-309.935617,-39.419039
54,5.786934,-33.154012,-11.723728,-19.381293,0.0,31.158142,15.023346,41.79863,30.07164,24.635925,42.109909,31.113281,51.680832,44.073143,0.0,-59.56136,-62.615844,-128.334924,-53.318764,-35.40781,-40.976709,-21.942052,-27.988436,-19.512111,0.0,-33.948555,-12.237511,-31.481323,-26.28788,-25.973797,-37.912502,-30.17252,-46.752262,-38.905392,0.0,-66.188908,-56.23292,-129.854694,-49.046006,-34.754923,-39.708016,-26.271713,-27.697622,-18.424316,303.077374,-9.517282,-321.389465,-58.852805
55,12.032433,-15.854881,-3.965721,-14.347801,0.0,35.356636,9.941826,36.747093,24.96357,25.674362,36.709328,34.689102,45.713081,45.055161,0.0,-67.534573,-61.580104,-129.558848,-55.092606,-44.348745,-45.26685,-33.571136,-33.868897,-31.431021,0.0,-29.210873,-10.77816,-27.219772,-24.902458,-25.140495,-36.094608,-30.371761,-44.913197,-39.693375,0.0,-68.625641,-57.383099,-135.284007,-51.085159,-40.442784,-42.49793,-29.962535,-31.012632,-21.235071,315.313311,-25.371932,-325.151682,-73.200374
56,6.518784,-17.112737,-0.609684,-10.869153,0.0,36.552544,9.104805,32.966881,24.779434,26.128006,37.169952,33.539886,47.033615,41.884804,0.0,-64.908668,-58.042084,-127.363853,-52.672268,-39.510939,-43.460033,-28.17415,-32.184438,-26.868376,0.0,-28.540936,-10.260258,-22.790394,-24.051819,-22.700329,-35.744591,-27.96524,-46.179085,-38.631306,0.0,-66.5675,-57.228337,-131.915661,-50.107032,-36.213653,-40.497063,-25.393344,-28.192243,-18.774317,321.834984,-42.449966,-325.758476,-84.034823
57,2.034645,-7.507677,2.289906,-2.884454,0.0,33.380013,10.663834,34.014473,25.725632,22.977562,38.036499,30.130119,48.155251,42.531052,0.0,-62.477894,-56.840112,-121.849772,-48.861773,-28.279497,-38.685429,-20.603581,-26.225709,-20.657149,0.0,-32.269878,-11.994495,-22.424183,-25.908337,-20.9725,-37.059517,-26.546001,-46.248379,-36.819878,0.0,-63.2149,-53.946657,-128.130345,-44.90402,-28.222933,-33.353497,-14.380374,-19.969527,-10.483367,323.900785,-49.804254,-323.437414,-86.76589
58,-2.264442,3.913278,5.340557,15.262077,0.0,34.46022,13.500595,34.69471,27.082558,23.119125,37.955704,29.109993,46.966667,40.819244,0.0,-63.120098,-56.422926,-118.623776,-46.034778,-27.846534,-33.310735,-16.428975,-19.919355,-13.011985,0.0,-28.95195,-15.17704,-26.843033,-28.693142,-23.708954,-39.337521,-26.973724,-47.401943,-36.79882,0.0,-62.310041,-55.748889,-126.549673,-45.505978,-23.438758,-32.161868,-10.740589,-18.692683,-6.739131,321.526194,-45.769853,-318.207006,-71.382689
59,-5.671463,16.127077,1.97588,13.042243,0.0,38.58387,13.472099,37.227745,26.709023,22.420578,37.098083,26.803207,46.007423,39.571266,0.0,-60.514663,-57.89521,-119.366603,-47.294177,-29.531332,-34.154585,-13.419075,-21.628298,-12.858751,0.0,-29.998684,-14.973049,-26.206684,-26.781635,-19.756508,-35.528126,-21.91824,-41.496334,-31.994762,0.0,-45.363983,-48.375582,-110.870858,-37.800237,-15.801807,-23.082088,1.142568,-9.300693,1.95403,315.938931,-29.61153,-316.146927,-58.3092
60,-10.782509,17.975885,23.891572,42.71418,0.0,37.470932,15.59967,40.603065,29.681053,24.190865,40.096321,30.101166,49.048691,40.280914,0.0,-45.989329,-55.04793,-112.542441,-45.578597,-25.264903,-31.803099,-8.781032,-17.87977,-7.872313,0.0,-34.255456,-20.923204,-38.419075,-34.164133,-23.552255,-43.357143,-26.152639,-49.479017,-34.43902,0.0,-43.617033,-51.966646,-118.555063,-41.243826,-21.64585,-26.544634,-5.774111,-11.931816,-1.080694,306.327496,-12.001208,-291.08428,-15.960583
61,-9.032822,9.278771,23.891573,42.71418,0.0,32.869949,13.944969,39.964485,29.546928,23.643494,40.018616,28.489494,49.579353,36.70887,0.0,-35.034004,-40.928173,-93.381196,-32.507856,-13.161946,-18.425983,9.531917,-4.838917,10.965947,0.0,-38.51223,-26.87336,-50.631466,-41.546631,-27.348003,-51.186161,-30.387039,-57.4617,-36.883278,0.0,-41.870083,-55.55771,-126.239269,-44.687415,-27.489894,-30.00718,-12.69079,-14.562939,-4.115418,298.699636,-5.129823,-265.787745,24.346211
62,-32.39851,33.919995,25.468826,32.934829,0.0,37.051278,18.560543,50.726452,32.104226,23.350926,41.873818,27.8508,50.084382,37.781811,0.0,-40.391376,-47.633912,-105.54896,-37.000538,-17.908592,-22.558614,-0.299443,-7.902076,3.913772,0.0,-39.060287,-23.80909,-50.154133,-38.95689,-24.330025,-49.65929,-29.950333,-57.077122,-41.546974,0.0,-40.582463,-52.67199,-124.209533,-41.933408,-25.815686,-28.332108,-11.347997,-13.875256,-4.982949,266.323356,26.744288,-240.296688,55.235157
63,-32.39851,33.919996,28.365669,18.492025,0.0,41.232605,23.176117,61.488419,34.661522,23.058357,43.729019,27.212105,50.589409,38.854752,0.0,-45.74875,-54.339652,-117.716725,-41.49322,-22.655238,-26.691245,-10.130803,-10.965237,-3.138403,0.0,-36.56868,-20.799236,-45.774593,-34.732361,-19.765091,-45.796223,-23.841763,-53.753529,-35.181255,0.0,-36.758569,-49.308167,-116.049402,-39.07458,-14.183637,-26.035116,-6.183779,-12.778322,0.55705,234.326162,58.622661,-211.529703,71.685559
64,-14.605293,5.517615,33.868561,6.240342,0.0,28.645706,13.443375,43.670883,23.736534,18.018951,31.126556,21.69342,38.445168,31.243057,0.0,-34.118924,-52.224763,-111.239693,-41.760846,-19.21361,-26.902184,-5.743375,-11.988441,-5.180427,0.0,-33.581772,-21.195488,-44.021301,-35.371513,-17.430096,-46.065788,-21.674423,-54.053249,-34.026718,0.0,-42.719861,-43.704688,-108.512116,-33.285355,-12.540644,-20.272444,-1.196013,-6.177696,5.309208,219.367962,62.128402,-178.01405,75.914027
65,-45.114098,-1.336989,29.317131,1.30423,0.0,33.486671,18.377495,46.410828,32.355423,21.901932,42.409515,29.921494,49.817276,36.110001,0.0,-36.932397,-52.299264,-116.394093,-44.474746,-26.875138,-32.997352,-15.83262,-19.99361,-7.153199,0.0,-25.270557,-19.799767,-27.506332,-34.502163,-17.548084,-45.163651,-22.673092,-52.989292,-29.524555,0.0,-42.305763,-41.88339,-100.136351,-33.481598,-21.457774,-20.877598,-9.720318,-6.592814,0.325857,173.787889,59.521685,-149.162893,75.94853
66,-15.672569,-12.970489,25.431232,-10.591925,0.0,13.582077,10.819588,25.778847,23.575745,13.431816,32.733994,19.3927,41.699066,24.95327,0.0,-55.872267,-48.819413,-113.140185,-41.301454,-23.346874,-29.8918,-15.49994,-17.752163,-6.067101,0.0,-13.117962,-17.680035,-26.756229,-32.635918,-19.974976,-43.04781,-25.123215,-50.377522,-33.158054,0.0,-39.281104,-44.068892,-108.725618,-36.986768,-19.914971,-24.156175,-11.54356,-9.230482,-2.06728,161.862345,46.707379,-119.984636,65.512787
67,-42.805023,-14.597118,11.117992,-13.16139,0.0,13.685303,10.955887,22.593956,25.473747,14.94381,37.054825,22.920685,47.250137,30.75428,0.0,-50.66081,-52.785024,-119.365646,-46.378542,-30.673684,-36.8369,-19.90401,-25.034759,-10.978297,0.0,3.821983,-21.248188,-4.223785,-34.259148,4.000683,-40.330467,-4.745979,-42.568302,-11.011448,0.0,-49.185809,-43.870086,-101.314055,-38.622413,-27.085151,-27.753723,-14.054641,-14.56436,-6.821383,122.039251,34.82538,-105.884714,55.066517
68,-17.551231,-10.672447,29.277477,-18.578352,0.0,-7.349739,10.068283,5.848618,27.687378,7.550697,41.039658,18.426476,52.163887,27.54158,0.0,-56.675732,-53.601179,-122.362424,-50.051858,-36.720778,-40.849904,-26.145865,-28.96366,-19.008413,0.0,-1.691437,-13.464718,-16.559143,-30.05579,-13.828411,-42.658253,-21.598835,-52.519741,-31.569214,0.0,-51.342318,-52.081316,-123.693887,-47.784198,-23.200124,-37.788998,-16.77947,-24.842654,-9.384488,106.927385,29.051408,-74.167871,41.386639
69,-28.819199,-21.143187,10.107365,-19.647715,0.0,2.193604,4.37439,10.47821,19.757538,10.624809,33.481979,20.474739,46.191559,30.9375,0.0,-51.507562,-50.362988,-125.62862,-44.625078,-24.943245,-36.204452,-18.03569,-26.169639,-13.044929,0.0,2.582302,-19.094524,-12.109737,-34.143391,0.555725,-44.116802,-9.317379,-50.471363,-16.470509,0.0,-52.70197,-51.623159,-112.292074,-45.903929,-28.428593,-34.639511,-14.742602,-20.127886,-10.170355,78.809967,9.468901,-63.358727,23.299604
70,-12.381477,-5.959224,10.61388,-12.800706,0.0,-10.53875,2.803688,1.711006,19.913521,2.528229,34.652367,14.101639,47.841339,24.074936,0.0,-54.08135,-53.25232,-120.623162,-49.619111,-35.294096,-42.10492,-23.535398,-32.346842,-19.587354,0.0,0.548458,-20.45969,-14.029541,-35.397778,0.220757,-45.457134,-11.053505,-52.116051,-17.855473,0.0,-54.505483,-54.655815,-112.93079,-49.934285,-25.577607,-38.80646,-12.645774,-23.887282,-10.108666,66.129971,4.10296,-53.043365,11.09218
71,-9.950523,-2.099329,8.295193,-6.051664,0.0,-10.398674,1.896057,-2.430496,19.012985,3.685112,33.877487,14.425278,46.923294,24.249344,0.0,-54.605179,-56.254965,-127.441272,-53.206069,-33.48342,-46.400186,-23.226738,-36.997543,-21.948999,0.0,-0.919819,-20.155106,-18.786449,-37.609634,-1.477375,-48.833542,-12.456322,-56.280155,-19.898815,0.0,-53.954731,-57.118359,-125.046005,-52.022746,-24.106867,-40.403202,-13.083863,-25.115436,-10.314357,56.186171,2.990711,-44.741449,6.027597
72,-5.666199,2.874019,2.016506,-3.589891,0.0,-4.642181,0.265732,1.768341,18.267059,3.52581,33.937798,15.762405,48.060608,26.347504,0.0,-60.351487,-61.016385,-134.766569,-58.019853,-32.691378,-50.578774,-21.45515,-40.731066,-19.192337,0.0,-4.325581,-19.429951,-19.505253,-37.564831,-2.458878,-49.637432,-12.041645,-58.872585,-20.521374,0.0,-53.234691,-56.222515,-128.240816,-51.024026,-17.971778,-39.752136,-9.90489,-24.875906,-8.096807,50.65733,7.687432,-42.587585,4.260408
73,-0.155182,2.415491,-2.23629,3.446599,0.0,-8.532486,2.555237,3.276329,19.868774,2.816048,34.685783,15.338173,48.032341,24.709053,0.0,-59.01879,-61.446229,-137.001965,-58.165615,-33.117981,-50.54969,-19.688903,-40.669377,-17.708413,0.0,0.140762,-19.087772,-17.204132,-35.1404,-1.193848,-46.65596,-10.622807,-55.577946,-19.863739,0.0,-52.538331,-51.99573,-117.659667,-46.853588,-21.33767,-36.167031,-12.056953,-22.621553,-9.782747,50.89963,10.857174,-44.426394,8.461258
74,0.584564,2.740977,-0.962048,2.296282,0.0,-8.945618,2.152634,3.949127,19.487343,3.178825,34.269676,15.458221,47.594147,24.831848,0.0,-60.279023,-61.991362,-137.289938,-58.374177,-34.922575,-50.629904,-21.611811,-40.775711,-18.641523,0.0,-1.34119,-18.635101,-20.15934,-35.877514,-1.319103,-47.475014,-11.589432,-56.405182,-20.191784,0.0,-49.344445,-54.011789,-126.105765,-48.449836,-20.649091,-37.104927,-12.268572,-22.920364,-8.747718,51.441679,14.425313,-45.430956,11.584701
75,0.994263,1.983948,-0.500736,1.557407,0.0,-7.410851,2.178841,4.722862,19.46743,3.832741,34.202614,16.402359,47.795334,24.913216,0.0,-61.269191,-62.130702,-137.614807,-58.753757,-35.053239,-51.58333,-20.401008,-42.206684,-18.143012,0.0,-4.749985,-19.083939,-20.791912,-37.433109,-2.762547,-49.469204,-12.682343,-58.270454,-20.117855,0.0,-50.733861,-57.317937,-128.573404,-51.820699,-19.124226,-40.060086,-11.202821,-25.498536,-6.246425,52.257729,16.602293,-46.109905,13.33514
76,1.049652,0.182287,-0.232143,0.334934,0.0,-8.87661,2.432098,4.655113,19.721375,3.536682,34.441566,16.027794,47.802429,23.670616,0.0,-59.597885,-62.12147,-138.821132,-59.150349,-34.529256,-52.143746,-20.533278,-42.522013,-18.427434,0.0,-4.598694,-19.575691,-21.190796,-37.674408,-3.218422,-49.730415,-13.027267,-58.738346,-19.982986,0.0,-49.854195,-57.95057,-128.075696,-52.488005,-20.228817,-40.963433,-11.496939,-26.227993,-7.149802,53.183613,16.907973,-46.465816,13.793467
77,0.190315,-0.470137,0.774879,-0.740202,0.0,-8.667755,2.415619,4.617233,19.916039,3.247833,34.640923,16.068993,47.77668,24.955101,0.0,-58.995109,-62.191588,-138.222678,-59.020272,-34.818865,-51.955315,-20.826129,-42.234719,-18.291429,0.0,-6.303291,-20.436573,-21.389866,-38.824253,-4.164848,-51.162243,-13.959389,-60.541992,-21.104221,0.0,-49.153976,-58.342685,-127.922987,-52.501281,-16.646059,-40.753481,-9.246908,-25.707932,-5.731704,53.21208,16.477588,-45.852785,13.093017
78,0.8535,-0.82409,0.396824,-0.477763,0.0,-9.011078,2.650223,4.908714,20.050278,3.65181,34.638405,16.163406,47.739258,25.222092,0.0,-59.861992,-62.152963,-138.580305,-59.093415,-34.091816,-52.148748,-20.619821,-42.666602,-18.059248,0.0,-5.850563,-19.553375,-21.501503,-37.912102,-4.000626,-50.463123,-14.37355,-60.270481,-21.027832,0.0,-49.934162,-59.149392,-129.166208,-53.350287,-16.792932,-41.594028,-9.644025,-26.275109,-6.795664,53.970823,15.737695,-45.550718,12.699451
79,0.312309,-1.019283,-1.010456,-1.809966,0.0,-8.666954,3.056831,5.038147,20.446472,4.096298,35.062408,16.665344,48.235245,26.457138,0.0,-60.096242,-62.139563,-137.52919,-58.915451,-35.998854,-52.017343,-20.766941,-42.712081,-17.743209,0.0,-0.854187,-18.934879,-20.608463,-36.195602,-0.905914,-47.977867,-10.927048,-56.776028,-20.70591,0.0,-50.187431,-54.192347,-124.583031,-49.098524,-18.646494,-37.948253,-9.96522,-23.757637,-6.849294,54.23069,14.755817,-46.613617,10.92689
80,1.248779,-1.122561,-0.106716,-1.382839,0.0,-7.924118,3.382187,4.484367,20.336723,3.810883,34.603615,15.967255,47.792816,25.949593,0.0,-58.899056,-62.099364,-137.195583,-58.374671,-35.76482,-51.369334,-21.75856,-41.856344,-18.651774,0.0,-2.172546,-20.109329,-20.952644,-36.661491,-1.282825,-48.171101,-11.092758,-56.869869,-21.0145,0.0,-50.05686,-52.985651,-120.334849,-47.860089,-17.984313,-36.886578,-9.298223,-22.834438,-7.21112,55.442448,13.622481,-46.757355,9.533276
81,0.85968,-3.1397,-0.499821,0.392887,0.0,-10.872231,5.314407,3.662338,21.83075,3.471794,36.132889,14.51786,48.316956,25.896492,0.0,-58.384181,-56.506413,-129.523743,-53.749288,-34.155141,-46.763587,-18.655849,-37.23025,-16.674248,0.0,-2.316284,-19.073353,-22.679787,-37.221737,-2.347412,-48.996964,-12.148705,-57.950935,-21.243267,0.0,-49.250955,-55.465146,-126.50421,-49.883897,-19.962982,-38.106797,-10.566298,-23.067206,-6.818388,56.235781,10.467451,-47.323523,9.910833
82,1.266174,0.844283,-0.873985,-0.669652,0.0,-11.120567,3.548126,2.186966,19.82048,3.339958,34.424286,14.469223,47.422371,26.098366,0.0,-58.947159,-55.574198,-126.160291,-53.357142,-34.147669,-46.84729,-19.927692,-37.824597,-17.839787,0.0,-3.95834,-20.845585,-21.158638,-37.595329,-1.812515,-49.221039,-11.702957,-57.969418,-20.83334,0.0,-49.881674,-53.860099,-124.532426,-48.148649,-19.41294,-36.598944,-9.573166,-21.879468,-7.402886,57.442932,11.302332,-48.256531,9.231779
83,-0.790558,0.91653,0.054359,0.568413,0.0,-11.152954,3.476944,3.095284,20.691032,3.568726,35.622711,15.632286,48.62709,26.751137,0.0,-59.794313,-58.907361,-133.745372,-55.801408,-31.041932,-48.453047,-20.128195,-38.504006,-16.831557,0.0,-3.866043,-21.220837,-22.247772,-38.078156,-2.719517,-49.710846,-12.878895,-58.510952,-21.356564,0.0,-49.089324,-53.88202,-124.145467,-48.262455,-17.853866,-36.773667,-9.069468,-22.0884,-7.199913,56.662931,12.263493,-48.191614,9.844822
84,0.793304,0.474274,-0.321579,1.692394,0.0,-12.027512,4.296227,3.212357,21.536522,3.776207,36.100845,15.278091,48.502579,25.577431,0.0,-57.843186,-57.802245,-131.866338,-55.37851,-30.223461,-48.307347,-18.312085,-38.396128,-16.756592,0.0,-3.067131,-20.550327,-21.799622,-37.266254,-3.683167,-48.966465,-13.368244,-57.941322,-22.284565,0.0,-50.157328,-54.314674,-124.354585,-48.603163,-19.359063,-37.283695,-10.06578,-22.933053,-7.425209,57.443476,12.756354,-48.525953,11.555802
85,0.02552,4.035451,0.826778,0.964449,0.0,-10.789719,3.833542,2.905426,20.064697,5.46833,34.510689,15.275459,47.473984,26.786385,0.0,-58.355961,-56.937708,-130.736521,-54.514993,-31.905265,-47.810195,-18.328078,-38.52389,-17.055896,0.0,-4.196033,-20.716839,-21.732044,-38.06139,-3.380871,-49.771099,-12.77916,-58.239956,-20.327282,0.0,-51.343245,-54.545281,-124.500007,-49.049649,-17.853897,-37.371133,-9.176266,-22.512008,-6.606213,57.419186,16.739456,-47.748985,12.467902
86,0.20977,5.443484,0.362892,6.628783,0.0,-14.487877,3.67321,1.501923,19.153976,4.14505,33.062439,13.965225,45.424461,25.959435,0.0,-57.534495,-57.040615,-128.6664,-54.698793,-32.452157,-48.153712,-21.569018,-39.159178,-18.65165,0.0,-5.732632,-20.067902,-22.02507,-38.359852,-2.14777,-50.527611,-11.641788,-59.571476,-19.577179,0.0,-51.655856,-57.682326,-127.448744,-52.863848,-19.248036,-41.185765,-11.75027,-26.602232,-7.986984,57.636423,21.857145,-47.378626,18.77089
87,-1.802444,6.222249,-1.067047,4.297057,0.0,-10.933456,3.40107,2.230568,19.444885,4.095955,33.794518,15.66227,46.895714,25.536232,0.0,-55.719373,-57.887337,-130.591809,-54.628706,-31.335092,-47.516325,-19.72163,-37.67405,-18.809762,0.0,0.397224,-19.547653,-18.28577,-37.587147,-3.593044,-49.398193,-10.902843,-57.513371,-18.165894,0.0,-51.609667,-56.413633,-125.895258,-51.997274,-18.412985,-40.677744,-8.504761,-25.738004,-6.223886,55.850945,27.551536,-48.428707,22.540089
88,0.745239,12.26039,-0.593891,9.010774,0.0,-16.017838,2.354279,-3.893738,18.078918,-1.35498,31.605263,8.449631,43.246536,19.366951,0.0,-53.075745,-54.811395,-120.493394,-52.870919,-35.269952,-46.09236,-22.84932,-36.581006,-18.017813,0.0,2.000713,-19.039764,-16.536026,-37.01952,-2.174377,-48.564434,-10.121326,-56.21624,-17.187881,0.0,-52.546451,-56.285068,-124.569816,-52.23313,-18.247339,-41.248071,-10.029903,-26.917066,-6.209992,55.891571,39.797353,-49.727211,31.53629
89,-4.617233,11.951051,-2.696114,11.934626,0.0,-15.626564,6.80191,-4.277344,23.029861,-4.883995,35.417404,5.492363,44.792633,15.106544,0.0,-50.5257,-53.219901,-115.911266,-50.709006,-25.82146,-42.365784,-12.323561,-30.81009,-8.960664,0.0,5.522633,-15.742664,-9.923973,-31.923122,-0.819569,-42.459984,-8.193684,-50.109615,-18.095455,0.0,-49.148697,-56.830077,-124.640181,-51.178278,-21.154734,-39.057877,-10.248994,-24.553014,-8.524521,50.719299,51.666848,-52.978363,43.389359
90,-1.588554,18.7021,0.456791,11.076357,0.0,-21.618347,3.258133,-16.519661,17.984619,-10.53257,29.299393,0.189056,38.65963,8.654366,0.0,-43.032071,-50.725679,-96.962658,-47.725782,-22.934968,-37.785602,-10.184403,-24.324722,-4.179175,0.0,9.834995,-17.363205,-2.082138,-32.500706,4.144192,-41.357861,-4.758739,-46.643715,-14.974766,0.0,-44.988386,-54.704566,-114.221528,-48.304723,-19.56673,-34.843843,-4.464802,-19.505689,-1.626413,47.907,68.855507,-53.745317,52.952275
91,4.728012,3.708143,-2.342606,9.72004,0.0,-35.372887,-7.071533,-42.434692,8.016586,-29.056091,19.470062,-11.219215,28.214607,3.740158,0.0,-22.380974,-38.636677,-26.12592,-30.75365,-5.686071,-15.905301,8.856059,0.054711,22.361584,0.0,16.292324,-14.026222,8.891201,-29.54092,6.78915,-37.573643,-1.398754,-40.992336,-13.733826,0.0,-34.553987,-50.605698,-91.626157,-42.600312,-10.668156,-26.0864,3.534655,-8.078683,10.699093,49.937325,70.712682,-58.78561,60.821346
92,0.64064,21.746766,-11.612406,18.940473,0.0,-50.103006,-17.32481,-58.286676,-5.197449,-39.370022,5.308914,-23.834896,14.21339,-9.975815,0.0,-0.125508,-23.002754,3.451493,-12.878681,23.77854,1.44834,34.539028,16.84701,42.227124,0.0,31.554966,-2.330131,33.321648,-14.811659,24.319554,-20.948839,15.057936,-23.378391,6.194945,0.0,-27.048533,-45.281114,-60.040775,-33.800153,-5.909005,-16.107889,9.537644,3.182462,18.546257,50.054111,87.502279,-70.92187,74.80465
93,0.64064,21.746766,-11.612405,18.940472,0.0,-64.833126,-27.578087,-74.13866,-18.411484,-49.683952,-8.852234,-36.450577,0.212173,-23.691788,0.0,22.129958,-7.368831,33.028906,4.996288,53.24315,18.801982,60.221997,33.639309,62.092664,0.0,46.817608,9.365959,57.752094,-0.082397,41.849957,-4.324036,31.514626,-5.764446,26.123714,0.0,-19.543079,-39.95653,-28.455393,-24.999994,-1.149854,-6.129377,15.540634,14.443607,26.393423,50.906353,106.704449,-82.322674,91.200527
94,7.140541,16.39353,-5.069675,5.011941,0.0,-58.163338,-37.364273,-91.347656,-28.694916,-78.747082,-16.770058,-67.157364,-4.981384,-45.460167,0.0,8.875078,3.570409,54.208031,14.969658,69.815078,26.272083,73.476259,36.501471,75.797766,0.0,69.84684,17.834988,62.235718,9.165287,61.622429,5.062523,56.621418,3.171215,50.800896,0.0,-6.757317,-22.022327,0.599195,-6.452054,26.574352,13.026002,42.794394,33.421855,55.867327,58.112698,121.084793,-87.326546,94.199281
95,-22.201767,42.173061,5.483665,31.631093,0.0,-56.980534,-39.74144,-79.766293,-30.576897,-68.872547,-18.977966,-58.147316,-5.969353,-41.396484,0.0,17.202924,21.293518,58.257809,34.92344,73.706836,46.870168,84.875756,56.867313,87.78488,0.0,68.282948,25.338593,73.798428,20.603371,71.411762,16.45895,62.287273,13.155727,43.972721,0.0,-4.010504,-12.514925,15.160899,5.10997,44.494136,24.043387,64.496823,41.865544,63.68672,36.030178,161.831836,-81.723633,124.404356
96,8.909225,21.372373,9.737835,22.880627,0.0,-51.77536,-34.108658,-83.487339,-29.16687,-89.310837,-21.122932,-79.795532,-10.931625,-53.522415,0.0,3.016384,16.437774,22.954975,32.971385,65.724422,47.165767,81.96762,58.298008,90.186415,0.0,67.885666,12.016125,74.973106,-1.152477,72.323456,-11.185055,62.667961,-17.531605,40.452862,0.0,-7.704167,-9.66184,21.713668,5.421748,47.84354,22.195074,55.167139,39.843712,62.775716,45.70816,181.978078,-71.217041,146.058852
97,-0.670509,18.60367,5.65115,16.670141,0.0,-52.741013,-33.670349,-87.111282,-27.597656,-89.706917,-19.061279,-75.190144,-10.198975,-54.78241,0.0,0.875991,25.816056,44.064785,41.384138,63.326715,54.189692,74.914612,63.633553,92.464326,0.0,65.097599,15.008183,65.140285,1.815434,59.947414,-12.465706,39.663448,-25.098152,7.324276,0.0,-5.532837,1.52999,30.775726,13.896374,54.94564,24.472059,57.439369,32.88759,59.701163,45.63406,199.895145,-64.969482,162.04239
98,-5.122834,47.437006,1.351261,28.236055,0.0,-59.097919,-39.41288,-81.371784,-39.137735,-82.779293,-34.980211,-75.600528,-29.068222,-60.629768,0.0,20.166758,17.539772,26.15025,17.630391,24.789333,14.698142,18.405915,9.203714,20.813903,0.0,65.311661,24.80753,70.574856,14.895659,58.873158,3.505755,42.579403,-8.090028,19.103937,0.0,-3.289939,10.227597,49.358061,25.348883,73.338247,38.961978,80.147403,50.386051,81.970183,40.771866,246.603172,-63.357582,189.549466
99,-5.122833,47.437006,1.351261,28.236055,0.0,-65.454826,-45.155411,-75.632286,-50.677814,-75.851669,-50.899143,-76.010914,-47.937469,-66.477127,0.0,39.457525,9.263488,8.235714,-6.123356,-13.74805,-24.793408,-38.102783,-45.226125,-50.836521,0.0,65.525723,34.606876,76.009426,27.975883,57.798901,19.477215,45.495358,8.918095,30.883598,0.0,-1.04704,18.925205,67.940397,36.801393,91.730855,53.451898,102.855438,67.884513,104.239203,35.592241,293.278009,-62.063112,217.023351
100,3.569412,1.234329,-2.739487,12.591527,0.0,-68.956375,-36.770096,-88.856506,-38.58799,-78.991299,-38.296165,-65.679302,-35.810051,-59.164982,0.0,38.757029,11.627047,12.130745,0.124242,-9.807633,-14.565749,-25.692432,-30.054296,-33.239815,0.0,71.361179,27.451286,89.669209,16.194706,84.878254,5.698757,70.217457,-4.030037,43.654175,0.0,-1.234885,19.83133,58.920452,37.669666,75.349088,52.581402,84.251459,63.049888,87.57499,39.16955,293.839891,-64.794703,228.942431
101,-5.348053,-35.178777,0.18671,15.235185,0.0,-63.12418,-19.960442,-65.793343,-16.892853,-85.200977,-13.442917,-87.123299,-9.55204,-66.280174,0.0,5.185614,26.806533,-3.920781,47.079255,28.828797,61.847607,61.07091,70.131363,92.143409,0.0,74.011574,29.462013,89.394836,19.566135,88.463402,9.941139,75.884743,0.753708,52.672291,0.0,-3.566025,21.264928,55.871341,38.772898,76.074779,52.665321,86.191843,61.964068,90.612678,33.766451,258.454481,-64.663038,243.970984
102,-2.572746,23.877402,2.689648,9.930887,0.0,-58.403778,-16.23333,-80.518112,-10.139923,-78.280621,-6.176147,-71.808014,-5.362587,-56.868896,0.0,29.02998,41.726544,37.948963,40.991035,27.05619,33.741845,18.822884,20.66422,11.753079,0.0,73.765926,28.726444,89.973164,18.664341,88.213978,9.114132,74.084759,-0.433102,51.859303,0.0,-2.725107,25.069185,57.408864,41.624038,78.867564,54.671221,89.06089,63.697896,93.444552,31.052599,282.240061,-62.114496,253.810048
103,7.215271,4.060892,3.550816,8.711563,0.0,-48.197479,-22.418175,-55.550365,-20.650291,-51.994171,-19.607735,-49.700089,-19.618149,-45.333595,0.0,2.351023,38.592587,36.123929,39.935597,29.035167,33.279952,17.694951,22.317463,8.896567,0.0,72.18029,29.252529,89.184608,18.842468,89.01741,9.152412,75.065346,-0.773506,52.840118,0.0,-3.052199,25.118092,57.330626,41.656704,77.759145,54.744519,87.732824,64.164606,91.710106,38.248901,286.200068,-58.582649,262.420726
104,5.530815,7.965927,4.504795,4.905453,0.0,-47.673798,-45.048637,-24.933815,-43.629913,-9.507866,-39.874191,-6.822853,-35.072594,-11.777229,0.0,14.955641,13.537234,52.88225,13.452513,56.503356,12.870947,48.720334,10.940753,36.742113,0.0,70.64661,29.788857,88.921108,19.987164,88.861485,10.240345,75.166225,0.165253,54.361668,0.0,-0.448678,26.491359,55.64484,43.267649,76.200688,56.315882,86.830342,65.890839,91.857196,43.75823,294.162321,-54.09934,267.322504
105,-1.399841,-12.096844,2.889404,1.715118,0.0,-46.175423,-41.438828,-11.005554,-42.036781,-1.738472,-39.792137,-2.498245,-34.646759,-13.957558,0.0,3.846186,18.478008,51.088586,29.486563,64.641752,38.999522,65.679035,45.865736,66.797026,0.0,69.946575,31.016922,91.242199,22.22374,91.66769,13.148918,78.934422,3.618279,58.544483,0.0,0.379024,28.472065,55.57852,45.729144,73.767536,58.470107,86.191534,67.486223,90.770327,42.299452,282.014116,-51.268873,268.986261
106,-63.392658,-7.454386,1.717415,3.054237,0.0,27.963924,9.71529,58.467579,1.492996,52.61919,-9.562454,43.160305,-18.988438,3.242569,0.0,-8.562621,25.019847,45.360247,44.048545,63.01506,55.874552,71.063424,64.090444,74.443086,0.0,69.625912,29.705429,91.043758,22.420521,93.772602,14.520435,82.306538,6.428547,61.849308,0.0,-0.702596,29.299212,55.392219,46.395184,69.987238,58.914895,79.954495,67.704263,85.60756,-21.012039,274.488825,-49.470291,271.969593
107,36.171856,7.562635,0.626907,1.706226,0.0,-21.246758,-30.36375,18.065071,-38.421822,20.136452,-43.283157,10.991936,-45.237579,-24.479256,0.0,-2.065057,26.639683,44.455233,43.72207,56.576654,54.681904,61.367806,62.535445,66.609552,0.0,69.404354,30.930347,91.228352,21.705093,89.978886,11.87067,75.632687,2.933636,55.011578,0.0,1.636324,31.014762,58.494807,48.064359,71.971402,59.82207,80.768983,66.949179,83.127725,15.162506,282.039403,-48.840694,273.663762
108,-20.183372,18.306157,0.049553,0.622753,0.0,25.48851,-4.765205,45.989799,-12.136574,48.868103,-17.309361,35.703964,-20.371799,6.479073,0.0,-27.536114,6.427539,26.612205,23.064767,43.343911,36.916187,51.393386,47.599317,52.589121,0.0,69.759464,31.224403,91.927357,22.510929,91.030483,12.90041,77.194004,4.01247,57.812748,0.0,1.899443,30.460922,56.824829,47.518054,70.406708,59.460583,78.894055,67.128379,83.018983,-5.079002,300.249507,-48.849277,274.190462
109,30.105057,-15.522139,0.26247,-0.894269,0.0,-37.047958,-39.192238,8.809662,-48.502407,11.389961,-52.877941,0.973206,-53.661518,-40.80368,0.0,2.45816,23.449472,42.357078,39.261838,53.322345,49.912735,58.147769,58.195317,65.395601,0.0,69.59507,31.869793,91.624718,23.954945,91.601257,14.810429,78.478088,5.858974,59.505844,0.0,4.35149,30.764426,57.624435,47.757954,70.261657,59.828307,78.622107,67.877535,83.04782,24.975157,284.709475,-48.637705,273.278301
110,-12.518349,6.505344,0.765953,0.49246,0.0,-6.515694,-24.682045,28.91201,-33.221226,31.648064,-36.054153,20.157166,-35.52927,-21.977234,0.0,-17.687294,15.412841,35.114187,33.504539,47.644518,46.205055,56.06604,55.162816,58.602314,0.0,69.815254,31.149158,91.692238,22.933102,91.182518,13.689308,78.254356,4.780426,59.2519,0.0,4.529948,30.581892,57.358352,47.635441,69.511513,59.720614,77.927723,67.626211,82.099458,12.494345,291.223588,-47.834215,273.779529
111,-5.657616,-7.491251,-0.145798,0.915573,0.0,-15.603676,-17.124596,25.905762,-25.337219,26.32164,-32.310791,15.545311,-37.458344,-19.686527,0.0,0.578848,24.398267,39.923309,40.739093,51.443651,51.495953,55.974464,58.8537,62.760772,0.0,69.345589,30.816364,91.187897,22.333946,91.446991,12.944183,78.30574,4.082222,58.745956,0.0,5.017221,29.426171,56.827237,47.046898,69.68781,59.630088,78.105997,67.762494,81.794657,6.809607,283.722889,-48.007135,274.685654
112,-14.38385,13.281155,-0.32856,0.092873,0.0,29.759789,-2.749557,45.512238,-9.177589,42.178917,-12.786484,31.994934,-13.563595,6.458244,0.0,-12.8079,11.260743,28.789339,28.916112,42.275073,41.684307,48.889715,51.805199,50.982622,0.0,69.054337,30.536213,90.875244,22.153072,90.681381,12.816353,78.012428,3.836575,58.056221,0.0,5.392046,30.218058,56.960062,47.580483,69.870035,59.835902,78.88294,67.633188,82.129715,-7.602825,296.936705,-48.364277,274.711188
113,12.829399,-11.371215,0.232086,-0.163083,0.0,-14.233818,-22.174129,28.948517,-30.97744,33.824959,-37.594013,21.852493,-42.168388,-22.537365,0.0,7.460623,21.590538,41.346779,35.849387,52.12482,45.259964,55.235311,53.116531,62.491355,0.0,69.038315,29.021873,90.419884,20.583572,89.97345,11.475391,77.825546,2.69331,57.869797,0.0,6.212956,30.546323,57.246275,47.770983,70.212009,59.930504,79.074675,67.612687,82.251055,5.235815,285.503138,-48.12295,274.485753
114,-20.864754,13.699267,-0.272484,0.206555,0.0,34.438248,2.31039,54.995728,-3.798981,61.974335,-7.691059,50.265999,-10.354385,27.462158,0.0,-14.76545,7.32576,24.924195,23.313683,38.31082,37.098227,47.151627,48.728238,50.656086,0.0,69.022064,29.038296,90.623016,20.228806,89.057007,10.824566,76.136169,1.851482,56.005783,0.0,5.564206,30.650558,57.210213,47.932708,70.380773,60.025229,78.939874,67.615281,81.276448,-15.651169,299.159705,-48.417664,274.649608
115,30.188828,-7.588508,0.103626,0.426448,0.0,-42.291298,-33.529472,14.302025,-37.592068,22.281532,-38.932858,11.316376,-38.397102,-48.560829,0.0,20.003367,21.377931,37.739444,32.006906,44.183161,38.704479,47.128655,44.552305,57.141114,0.0,69.684963,28.993149,91.433086,20.080204,90.371647,10.581093,77.361431,1.574192,56.887722,0.0,5.082738,29.966734,56.643838,47.634453,70.389418,59.966257,78.26309,67.594965,80.694142,14.465733,291.416635,-48.385963,274.921495
116,-15.65918,3.247269,0.91959,-0.11782,0.0,24.234123,-12.274189,39.324188,-19.248962,45.062141,-22.92326,30.291481,-23.40723,-0.574036,0.0,-9.250953,13.867722,27.26009,29.385045,43.462225,41.554816,52.059117,51.577402,54.594712,0.0,68.999405,28.261471,90.373192,19.196148,89.542007,9.67432,76.5588,0.714741,55.902443,0.0,5.150478,29.663354,56.255181,47.612655,70.184654,60.184483,78.228077,67.983931,80.31308,-1.234016,294.582548,-47.506943,274.722319
117,28.140221,-4.939415,0.022202,0.055205,0.0,-43.867435,-43.255177,5.178108,-51.775932,8.763542,-55.243492,-4.622726,-55.514431,-68.979607,0.0,4.004267,18.139369,37.646386,33.40864,46.796438,43.779437,51.553937,52.334894,60.519109,0.0,68.534889,27.830944,90.112267,18.837833,88.552551,9.320297,75.718117,0.18013,54.90715,0.0,4.975972,29.647237,56.122171,47.006266,69.85608,59.254769,78.140145,67.020871,80.333149,26.871786,289.620794,-47.519159,274.755185
118,-25.739594,2.076975,0.134068,-0.066505,0.0,16.075745,-19.398422,31.266975,-29.110222,33.049278,-33.521175,22.220421,-34.983559,-12.12719,0.0,-10.793663,13.19526,34.574673,31.620163,47.677308,44.331671,55.185602,53.814249,55.174919,0.0,68.629475,28.4305,90.471554,19.254742,88.581905,9.345074,74.793262,-0.109177,53.715649,0.0,5.431196,29.369175,56.176882,46.927781,70.474263,59.276258,78.472053,67.081881,80.699205,1.100893,291.69374,-47.416391,274.684651
119,-3.884811,7.956479,-0.113297,-0.132578,0.0,25.621376,-12.588043,44.065704,-19.810638,47.504425,-22.939224,34.003944,-22.740784,-17.618237,0.0,-22.498577,5.789719,20.187753,22.760708,38.033931,36.208033,48.661671,46.480832,53.062006,0.0,68.654652,28.230114,90.910664,19.011154,88.551464,9.175701,74.873257,-0.127888,53.717594,0.0,5.564947,29.483352,56.008735,46.773158,70.381205,59.040927,78.487058,66.958318,81.053035,-2.806063,299.582247,-47.551832,274.484101
120,7.538567,2.011334,-0.479507,0.042361,0.0,15.206566,-20.180225,31.12072,-28.512783,33.792572,-31.810741,26.098251,-31.510506,-28.612747,0.0,-24.961493,5.819915,23.201729,21.192309,36.56211,33.146263,46.242846,42.364426,52.04794,0.0,68.839245,28.649311,91.084728,19.260349,88.582249,9.254036,74.47443,-0.259209,51.908627,0.0,5.509495,28.513314,55.461256,45.979727,70.47698,58.446888,78.402522,66.509393,81.226183,4.717484,301.532696,-48.04636,274.465576
121,2.01931,-16.883118,-0.386868,-0.450037,0.0,-10.950623,-19.746265,28.800545,-30.040283,27.598228,-38.411293,10.408401,-44.792976,-45.34647,0.0,-9.520679,17.594236,38.166695,35.57398,49.808685,48.332974,57.55935,58.562979,66.701437,0.0,69.215584,28.308849,89.737358,19.461651,88.4412,9.968548,74.496002,0.945396,52.641106,0.0,7.006449,29.085803,56.822235,46.897585,71.297211,59.517394,78.914804,67.721245,81.702464,6.74037,284.656277,-48.429651,274.022239
122,-20.779495,13.288689,0.162334,-0.144125,0.0,29.84127,-1.279278,53.525963,-9.674835,47.191086,-14.73959,32.069435,-16.105843,-12.734299,0.0,-15.908512,9.100282,28.897711,28.138181,43.078322,41.931432,50.292623,53.208169,51.309961,0.0,68.882618,28.48526,89.12859,19.531746,87.488995,9.790993,73.418941,0.364208,51.140957,0.0,7.070978,29.03597,57.154391,46.609952,71.666787,59.134973,79.216887,67.31857,82.091615,-14.029427,297.928448,-48.257618,273.861595
123,-1.116371,-4.111342,0.133553,0.539205,0.0,36.222496,1.551304,57.434921,-7.007217,58.365555,-13.283329,41.340408,-16.815777,5.608063,0.0,-8.903607,8.33859,27.178085,26.722553,44.886683,41.748219,53.470423,53.44634,55.33652,0.0,69.058857,28.702354,89.178257,19.686756,87.282085,9.788246,72.761364,0.266533,50.932446,0.0,6.186527,28.690538,56.696511,46.221048,71.208476,58.97257,78.474461,67.513022,81.340854,-15.129004,293.809309,-48.107271,274.393004
124,14.50882,-9.87315,-0.896759,0.367044,0.0,-2.302094,-11.676292,36.206703,-22.009106,35.204544,-31.739273,19.0448,-40.153942,-31.662312,0.0,-10.598779,16.143781,38.50237,34.805434,50.916364,48.373482,59.190116,59.258845,67.575267,0.0,69.250546,28.151722,89.347401,19.360371,88.166027,9.941368,73.867779,0.875359,51.558552,0.0,6.025852,27.634791,55.600997,45.603482,70.508658,58.59651,77.969158,67.213409,80.955469,-0.587597,283.921463,-48.971443,274.745352
125,-7.995987,11.033317,0.051441,-0.15839,0.0,23.274879,-3.213501,39.465408,-14.346828,31.686401,-21.032238,20.352631,-23.697395,-10.969334,0.0,-11.930612,10.141949,26.208295,30.64358,41.689617,44.493024,47.11507,55.514732,53.598617,0.0,68.257141,28.483257,88.916016,19.778423,87.534485,10.325947,73.502884,1.316814,51.98719,0.0,6.595932,27.534756,56.171756,45.327705,70.415971,58.224155,78.003182,66.767695,80.960348,-8.567104,294.9474,-48.903522,274.579583
126,-3.55545,-1.516096,0.222874,0.299984,0.0,31.934166,-2.595291,48.049164,-10.674248,44.280281,-15.525799,28.926315,-16.800385,-14.169216,0.0,-7.571033,11.600618,34.120869,29.839034,47.381894,42.708931,54.848568,53.008159,55.304472,0.0,68.767719,28.802319,89.090595,19.695683,87.225895,9.930096,72.45615,0.862942,50.805416,0.0,6.219131,27.621824,56.479953,45.564023,69.998909,58.388349,77.328127,66.631041,80.041069,-12.116776,293.438297,-48.67487,274.886559
127,-2.745552,2.721217,0.000687,-0.519074,0.0,32.475128,1.328316,47.835388,-6.140156,45.73391,-11.006699,33.999825,-13.423233,9.720955,0.0,-11.272167,9.349753,28.352887,26.984621,42.414197,40.33222,48.305742,50.841769,50.871348,0.0,68.480587,27.946987,88.614635,18.913479,87.249584,9.347019,73.346157,0.42057,51.492634,0.0,6.477248,27.676596,55.87591,45.792191,70.161991,58.705561,77.774767,67.013894,80.397863,-14.861555,296.14755,-48.67341,274.355521
128,14.977684,-12.986297,0.009899,0.145731,0.0,-5.755463,-12.390804,35.811424,-23.806915,33.170242,-34.256001,17.174149,-43.034191,-30.478935,0.0,-11.401102,17.000259,38.612656,35.61949,51.207641,48.875266,59.828801,59.388829,66.844203,0.0,68.186073,28.053417,88.662415,18.930645,87.056923,9.189434,72.859955,0.160789,50.994072,0.0,7.053441,27.499558,56.030904,45.671531,70.351071,58.591014,77.706965,66.885267,79.919236,0.126972,283.171844,-48.652668,274.511842
129,-2.208824,12.389294,-0.45845,-0.229279,0.0,10.724487,-8.060074,32.023201,-21.154976,22.499886,-29.223862,11.137047,-33.047218,-19.039249,0.0,-12.114011,8.470675,24.436367,28.903207,39.368605,42.836323,45.851595,53.914593,52.398559,0.0,68.435326,28.603878,89.095459,19.338398,87.41375,9.383984,73.013763,0.139961,50.83683,0.0,6.916417,27.568718,56.083515,45.883273,70.640742,58.996158,78.072775,67.436019,79.909047,-2.077274,295.539324,-49.106541,274.26075
130,-10.745316,-0.059713,-0.315571,-0.048227,0.0,30.713081,-1.835289,51.33934,-9.397831,49.769783,-14.529533,34.836502,-17.102394,8.413925,0.0,-13.644433,10.259399,31.294244,28.168315,45.649424,41.552223,52.007,52.249,53.428679,0.0,68.648472,28.601418,89.098835,19.533577,87.696705,9.781265,73.572063,0.690022,51.594486,0.0,6.859668,27.359446,56.010094,45.512709,70.32069,58.639303,77.74945,67.239036,80.440841,-12.828569,295.459929,-49.428091,274.19284
131,12.712326,-12.86718,-0.543938,-0.0494,0.0,-6.35582,-12.186584,34.366951,-22.67252,31.443787,-32.539101,16.823387,-40.668755,-35.055141,0.0,-11.740606,18.340119,38.051098,36.887967,50.706968,49.74465,59.323497,59.65343,67.982325,0.0,69.540768,28.079739,89.166241,19.205418,87.88702,9.713287,73.981075,0.862026,52.230091,0.0,6.953899,26.681921,55.859731,45.108367,69.920424,58.409468,77.379997,67.079781,79.785237,-0.09779,282.571089,-49.953575,274.121781
132,0.098305,0.282199,0.341091,0.185498,0.0,-6.87355,-12.496834,34.903793,-22.592468,32.981873,-32.425919,18.272781,-40.601006,-35.833225,0.0,-12.556638,18.177345,38.475755,36.386245,51.092723,49.060579,59.299106,59.075322,69.060549,0.0,69.468842,28.296032,88.514786,19.29966,87.032547,9.624596,73.188972,0.705471,51.51535,0.0,6.609208,27.069775,56.033682,45.275711,69.811187,58.311161,77.238342,66.701004,79.551327,0.004778,282.809678,-49.608221,274.263668
133,-3.223,0.061997,-0.064373,-0.279668,0.0,-4.959641,-6.400452,39.240875,-18.660564,34.321747,-30.512295,15.991516,-40.588188,-28.817196,0.0,-11.146382,15.814589,37.463913,34.40381,48.899287,47.955493,58.175557,58.460968,63.459231,0.0,69.221363,28.768673,89.740162,19.942303,87.640171,10.244923,73.682842,1.216564,52.567348,0.0,7.112968,27.867529,56.742639,45.551797,70.140626,58.287943,77.313986,66.473083,80.397493,-3.212357,282.857194,-49.666729,273.969519
134,0.396194,-0.697409,-0.220299,0.068358,0.0,-5.357552,-8.258171,39.366875,-20.54409,34.375076,-31.986923,18.314438,-41.652946,-19.761658,0.0,-9.226623,16.184474,38.780802,34.49131,50.761679,47.890717,59.558581,58.233047,63.485969,0.0,68.835583,28.335114,89.952908,19.365406,87.416325,9.579906,73.45499,0.414391,52.042294,0.0,6.804957,27.166909,56.108833,44.833701,70.473275,57.711132,77.566236,66.227193,80.092878,-2.805033,282.130438,-49.875898,274.00853
135,2.24865,-1.15782,0.360432,-0.215509,0.0,-7.455025,-12.973194,36.394157,-24.611835,35.021095,-35.744991,20.90538,-44.624348,-24.405556,0.0,-9.10164,15.892395,41.459844,34.641672,53.701308,48.022678,61.776903,58.906806,69.459333,0.0,68.225327,29.236679,90.181389,19.973373,86.915131,9.729767,72.558403,0.188541,51.543159,0.0,6.933398,27.570818,56.653039,45.152025,70.417823,57.907622,77.283419,66.27295,79.598813,-0.536356,280.914789,-49.49544,273.735192
136,-2.542992,12.639383,-0.295486,0.129244,0.0,7.322845,-8.781853,37.602768,-20.787048,34.099617,-28.206081,18.708115,-31.910763,-17.307014,0.0,-10.528877,9.764531,27.762368,29.622969,43.043001,43.211271,49.91397,54.490848,55.035549,0.0,68.685493,29.131908,89.498749,20.086098,87.4403,10.000248,72.641144,0.537701,51.052666,0.0,6.607788,27.158943,56.406593,44.831108,70.234425,57.844575,76.848635,66.573613,78.891894,-3.076086,293.480056,-49.787664,273.79032
137,-12.649212,3.187865,-0.640411,-0.606327,0.0,29.23399,1.651611,58.058224,-7.095222,56.537075,-13.544197,38.611851,-17.66201,7.698727,0.0,-17.954118,5.708085,26.473328,23.300962,40.283808,37.80916,48.745405,49.23842,49.551186,0.0,68.757362,28.668766,90.024605,19.887543,87.646294,10.123043,73.65818,1.093597,52.828331,0.0,6.80119,27.519565,56.510457,45.174317,70.093757,58.052489,77.211418,66.626225,79.368916,-15.728903,296.593527,-50.431681,273.109599
138,10.088596,-16.530462,0.234718,-0.255647,0.0,0.940819,-6.368408,40.322113,-17.272797,38.828201,-28.513699,25.873833,-37.663879,-13.590488,0.0,-9.296401,15.812799,39.52261,34.393436,52.486615,47.775367,61.113148,58.695804,67.050079,0.0,68.718109,28.995266,89.659538,20.104408,87.139206,10.152626,73.116646,0.799084,52.055283,0.0,7.14619,27.531977,56.033559,45.226249,70.128029,58.229342,77.279159,66.95486,79.621537,-5.63776,279.961255,-50.194416,272.752141
139,0.028839,0.063788,-0.016308,-0.032728,0.0,0.596466,-6.140099,40.579834,-17.474155,39.13559,-29.226379,26.34613,-38.711414,-18.25779,0.0,-10.155288,14.993432,39.038055,33.747526,52.516441,47.207881,61.152915,58.360191,68.128612,0.0,68.592281,28.439255,89.559803,19.612312,87.586498,9.824295,73.429928,0.68224,52.52409,0.0,7.329527,27.731493,55.964584,45.286517,69.722267,58.116585,76.901987,66.755653,79.630367,-5.613184,279.964975,-50.214987,272.659346
140,-6.102333,-0.539452,0.084629,-0.128873,0.0,7.629776,0.438652,47.127914,-10.952854,44.414978,-22.833138,30.214005,-32.618809,-10.928879,0.0,-10.581798,15.917095,38.326999,35.192301,52.526259,48.726509,60.80915,59.273912,66.877981,0.0,68.250389,28.165627,89.506073,19.327297,87.155914,9.572697,73.173294,0.524426,52.359581,0.0,7.241162,27.792996,56.244745,45.213219,70.0995,57.957269,77.490469,66.497413,79.996732,-11.708279,279.363727,-50.123119,272.468676
141,8.522644,-0.236195,0.062084,-0.338392,0.0,-2.616348,-10.187874,38.994484,-20.603199,37.824554,-31.219883,23.278313,-39.868698,-36.258144,0.0,-10.590875,16.996616,40.478815,35.52316,53.441956,48.390093,61.794996,58.750145,71.236449,0.0,68.630962,28.691597,89.313068,19.821682,86.775913,9.93885,73.396053,0.619926,52.74622,0.0,7.388807,26.903296,56.73492,44.377181,70.309204,57.419238,77.874433,66.368849,80.967572,-3.17728,279.078517,-50.052681,272.081269
142,-5.189552,-0.176112,-0.163193,-0.087006,0.0,2.194977,-4.983501,44.640884,-15.548401,42.135658,-26.384182,27.912941,-34.803658,-21.47049,0.0,-10.646203,16.58968,38.137425,35.619058,52.906271,48.926025,61.006937,59.408034,67.936074,0.0,68.970737,28.367329,89.246235,19.595432,87.220516,9.912987,73.904514,0.888805,53.217716,0.0,6.810391,26.955907,56.78679,44.581698,70.143837,57.579727,78.136748,66.289376,81.171287,-8.360052,278.881271,-50.209093,271.973129
143,2.385979,0.575514,0.35305,-0.131714,0.0,-0.1894,-6.522732,41.915703,-16.860809,39.689369,-27.51646,26.665764,-35.84816,-17.307243,0.0,-11.229127,16.569179,38.543496,34.982843,53.756512,47.91869,61.737197,58.58348,67.95003,0.0,68.491573,28.675404,89.190617,20.034657,87.364368,10.292416,74.056606,0.978413,53.253765,0.0,6.96415,26.555085,56.508543,44.121102,69.942839,57.315683,77.928588,66.431464,81.219823,-5.963917,279.390681,-49.845886,271.775311
144,-5.122147,-0.642945,-0.056305,-0.174815,0.0,6.607819,0.448723,46.969986,-9.639587,44.222832,-21.160297,30.806007,-30.566425,-14.145584,0.0,-11.162684,15.655335,37.950445,34.132602,53.233919,47.405174,61.550773,58.621457,69.297239,0.0,68.84531,29.351807,88.651028,20.833454,87.412891,11.174011,73.708706,2.014732,52.999477,0.0,7.332244,26.639128,57.324451,44.194646,70.112344,57.357055,77.875606,66.325315,81.525179,-11.089554,278.707196,-49.905682,271.559957
145,-7.488556,0.263427,-0.285072,-0.071877,0.0,17.410469,12.611389,51.576576,2.572403,43.179016,-9.095478,26.024666,-19.919472,-16.806793,0.0,-19.15257,12.905095,30.843096,33.961368,49.53476,49.258983,59.477812,60.757465,65.28445,0.0,69.011021,28.997383,89.345112,20.734463,88.430614,11.096592,75.207882,1.760044,54.378834,0.0,6.821753,26.700261,56.742577,44.095722,69.542573,56.970374,77.603842,65.623336,81.601008,-18.568268,278.958829,-50.180912,271.476285
146,1.820354,-0.800224,0.545826,0.324128,0.0,14.861813,9.305592,51.514835,-0.459938,45.06197,-12.260227,28.547459,-22.340298,-20.811367,0.0,-15.528747,14.38939,33.594818,34.735718,52.167613,49.526671,61.247702,61.04831,68.000603,0.0,68.905334,28.705101,89.050369,20.339642,88.145599,10.757618,74.766655,1.566753,54.34124,0.0,6.147995,26.377182,56.548249,43.677054,69.182012,56.486189,76.830974,65.084687,80.866364,-16.73727,278.145159,-49.624443,271.786967
147,-1.121807,-1.277801,-0.048122,-0.226562,0.0,17.845573,10.399475,52.563515,0.921707,44.940262,-11.06123,28.372879,-21.821823,-27.162724,0.0,-15.572095,15.212955,35.803321,35.757008,53.364521,50.383396,62.233609,61.712065,70.583994,0.0,69.417171,28.750076,89.305515,20.261364,87.874317,10.625954,74.640369,1.384449,54.03677,0.0,7.34799,26.967825,56.763202,44.297461,69.205354,56.977908,77.007889,65.287043,80.835365,-17.871552,276.856367,-49.68504,271.549413
148,1.876545,0.585826,0.053844,-0.103,0.0,15.064602,8.878155,50.826473,-0.752449,43.831158,-12.822018,26.708164,-23.287983,-28.486519,0.0,-14.970893,16.157119,36.640718,35.98709,53.075652,49.900446,62.088742,60.727393,70.449934,0.0,69.184799,29.2523,89.570732,20.860062,88.30513,11.230774,74.478607,2.028923,54.199791,0.0,6.669847,26.828516,56.792595,44.316665,69.544672,57.230344,77.148865,65.89263,80.820421,-15.997925,277.431062,-49.634113,271.435283
149,1.449451,-0.214274,0.19392,-0.174074,0.0,12.426682,8.048401,49.686584,-2.863026,43.009987,-15.518188,26.911926,-26.031647,-21.063137,0.0,-13.925397,15.839351,37.460702,35.543043,53.421949,49.359821,62.345254,60.046286,68.80163,0.0,69.319668,29.71384,89.961147,21.175175,88.652401,11.406612,74.64838,2.11544,54.265079,0.0,7.046834,27.542475,56.903931,44.974986,69.543808,57.663399,77.0873,66.011931,81.015306,-14.550362,277.204948,-49.442081,271.249367
150,-6.548023,-1.119905,0.24725,-0.244779,0.0,20.565319,12.676334,58.670712,0.941792,54.265423,-12.118835,38.342228,-23.343601,-11.248913,0.0,-13.629057,14.665291,37.164424,34.925477,53.462086,49.895568,63.544879,60.965626,70.751584,0.0,68.996658,28.365669,89.59465,20.140915,89.002419,10.9548,75.784836,2.219009,54.813652,0.0,7.024603,26.724467,55.953839,44.663394,69.061537,57.806351,77.461755,66.437083,81.606998,-21.12854,276.076258,-49.224987,270.995805
