takenoko1/special-research/HandMotion_SimilarSearch_自分用/NewProject/handData/test_key/d4_feature_d2/94.csv
frame,vel_0x_L,vel_0y_L,vel_0x_R,vel_0y_R,posFromWrist_0x_L,posFromWrist_1x_L,posFromWrist_2x_L,posFromWrist_3x_L,posFromWrist_4x_L,posFromWrist_5x_L,posFromWrist_6x_L,posFromWrist_7x_L,posFromWrist_8x_L,posFromWrist_9x_L,posFromWrist_0y_L,posFromWrist_1y_L,posFromWrist_2y_L,posFromWrist_3y_L,posFromWrist_4y_L,posFromWrist_5y_L,posFromWrist_6y_L,posFromWrist_7y_L,posFromWrist_8y_L,posFromWrist_9y_L,posFromWrist_0x_R,posFromWrist_1x_R,posFromWrist_2x_R,posFromWrist_3x_R,posFromWrist_4x_R,posFromWrist_5x_R,posFromWrist_6x_R,posFromWrist_7x_R,posFromWrist_8x_R,posFromWrist_9x_R,posFromWrist_0y_R,posFromWrist_1y_R,posFromWrist_2y_R,posFromWrist_3y_R,posFromWrist_4y_R,posFromWrist_5y_R,posFromWrist_6y_R,posFromWrist_7y_R,posFromWrist_8y_R,posFromWrist_9y_R,posFromBody_0x_L,posFromBody_0y_L,posFromBody_0x_R,posFromBody_0y_R
2,-17.041168,21.866932,-1.181545,1.683254,0.0,13.17112,-11.304245,39.808159,-19.121819,39.821548,-22.40181,28.151321,-22.029591,-16.247692,0.0,5.438112,12.116975,31.099545,27.649611,43.100676,39.301667,49.874758,48.764486,54.268485,0.0,69.435654,25.372066,90.51796,17.236004,89.493713,9.485092,75.930977,2.996178,56.84269,0.0,9.259845,32.272433,54.293309,49.916872,66.201752,61.443451,74.258575,68.141333,76.862961,-10.733299,305.627566,-49.986763,283.856965
3,20.936623,-22.326664,1.02562,-0.744895,0.0,-15.682411,-32.139187,20.971527,-42.73098,20.824471,-48.600254,7.605171,-50.861549,-35.412998,0.0,6.520844,25.432895,43.594556,45.289975,57.913056,58.945955,65.666561,68.789712,74.16453,0.0,69.358177,25.165272,89.949074,16.449165,88.502655,8.350124,74.535828,1.624775,55.696678,0.0,9.548528,32.755815,55.791868,50.427795,66.904595,62.005688,75.069729,68.2573,77.434893,10.478125,283.680868,-48.686342,283.492035
4,-21.699944,17.416333,0.408669,0.378407,0.0,15.060196,-13.466434,40.297737,-19.886284,46.02562,-22.130814,34.799194,-21.01244,-2.04237,0.0,7.186698,12.303708,32.264405,29.658785,47.256355,42.986253,52.71787,53.533223,57.472405,0.0,68.290672,26.756516,89.843903,18.14867,87.848396,9.906979,74.238052,2.90966,55.989532,0.0,8.236887,33.634091,55.828362,51.111742,66.521558,62.507657,74.490448,68.85739,77.236983,-11.024208,301.197931,-48.080063,283.971172
5,23.708153,-16.322672,-0.2005,-0.781081,0.0,-23.784084,-30.515957,17.570114,-39.899597,17.279434,-45.967884,5.205345,-49.408436,-35.958138,0.0,14.791138,24.20363,45.009752,42.626618,58.635659,55.543322,66.217684,65.071164,74.505021,0.0,68.935089,26.435909,90.077133,17.497787,87.82814,9.068413,73.941536,1.86882,55.282745,0.0,9.493879,33.437972,56.310201,51.34695,67.473564,62.824684,76.285656,68.883079,78.594072,12.866993,284.928689,-48.097515,283.24352
6,-23.059731,16.278891,0.198727,0.48295,0.0,21.993141,-11.161938,38.959351,-18.200912,45.092926,-21.349983,35.785103,-21.882191,8.81012,0.0,4.602567,12.00144,32.064519,28.673495,47.545841,41.892467,52.058376,52.575165,56.354352,0.0,68.348522,27.07592,90.252056,18.461037,88.063145,10.000019,74.114399,2.657776,55.615139,0.0,9.32036,33.532511,56.139337,50.902223,67.292882,62.174823,75.442578,68.331339,77.719501,-10.160351,301.264159,-47.866402,283.783049
7,12.025566,-19.761676,0.354481,-0.494683,0.0,-4.907112,-23.319054,30.094986,-32.140846,29.745941,-38.276997,14.663315,-41.578274,-54.690571,0.0,3.784003,26.77078,47.600923,46.537148,60.663605,59.325165,69.785684,68.821143,83.072212,0.0,67.97699,26.434135,89.739876,17.592144,87.614021,9.086895,73.717346,1.73521,55.114403,0.0,10.204194,32.854245,56.29711,50.753775,67.397302,62.2982,75.467155,68.527334,77.922783,1.900835,281.506126,-47.476301,283.29201
8,-23.028202,22.038228,-0.310135,0.190377,0.0,-6.796589,-2.575722,54.866123,-7.437344,55.698109,-9.439945,45.305614,-8.434238,15.599499,0.0,27.925142,15.753889,36.666777,27.978988,46.960324,36.786388,47.174412,44.71125,47.171201,0.0,69.19384,26.530838,90.389099,18.075657,88.860168,10.053864,75.60791,3.285599,57.147675,0.0,9.680674,33.734065,56.58042,51.435191,67.50907,62.843333,74.989392,68.803235,77.710856,-21.067286,303.537979,-47.726355,283.476011
9,27.458439,-22.516608,0.283642,-0.23107,0.0,-11.955414,-24.691658,24.586716,-34.17944,23.590736,-41.088982,9.016228,-45.312939,-45.24147,0.0,16.420855,26.622208,48.211943,45.991583,61.615364,58.935705,70.150197,67.85302,79.515079,0.0,68.750553,27.03392,90.794163,18.254013,88.551579,9.658871,74.618282,2.217178,55.926533,0.0,9.859071,32.672946,56.263764,50.622864,67.347531,62.30845,75.231021,68.582539,78.112419,6.416845,281.015411,-47.417021,283.238982
10,-20.600967,17.464313,0.13773,0.037359,0.0,15.589027,-7.677326,47.451553,-14.727688,48.221626,-17.415848,38.054352,-17.119617,10.849113,0.0,10.02697,16.890899,40.656533,32.802807,53.53205,44.564655,55.52066,54.435643,55.904315,0.0,68.794899,27.668953,90.29995,19.040394,87.891884,10.443535,74.149132,2.790756,55.806198,0.0,9.805904,32.394513,56.127913,50.199318,67.618739,61.878297,75.679205,68.338378,78.476437,-14.177599,298.469366,-47.272768,283.265982
11,17.96608,-18.283556,0.823002,-0.15135,0.0,-4.802742,-22.821236,29.998627,-31.757927,29.884644,-38.148594,14.77066,-41.922855,-40.986271,0.0,9.743598,27.998687,48.157109,47.698673,62.479931,60.510464,70.966414,69.250494,79.782212,0.0,69.100628,26.92646,89.796925,18.166809,88.150349,9.421921,74.639568,1.638908,55.729694,0.0,10.205305,32.270024,55.939328,50.187771,67.412369,62.023534,76.103554,68.606066,79.596343,3.794518,280.183139,-46.443729,283.111961
12,-18.336811,17.815117,-0.285072,-0.415457,0.0,11.40089,-4.911518,51.611309,-11.821861,51.486225,-14.983578,38.415813,-15.25732,7.008762,0.0,16.555965,19.583464,40.309249,36.09114,52.446601,47.239065,55.456131,56.42413,55.095447,0.0,68.897038,27.447453,90.010815,18.755207,88.070011,10.042763,74.48473,2.19698,55.430889,0.0,10.540178,32.860976,56.285068,50.473181,67.955093,61.998525,76.6929,68.372958,79.945603,-14.537029,298.019283,-46.723537,282.71753
13,27.942982,-14.156097,-0.861626,-0.058231,0.0,-22.826614,-30.067806,17.179871,-39.009075,17.021255,-45.02924,2.684212,-48.56266,-63.047676,0.0,9.489248,26.965417,48.662783,44.929847,59.334118,56.579124,66.471601,64.895731,78.16398,0.0,69.925175,28.182793,90.747356,19.124222,89.239712,10.134888,75.782948,2.124996,56.3661,0.0,10.593283,32.431008,56.970621,50.538698,69.085682,62.490738,77.748894,69.079321,79.95962,13.394423,283.888102,-47.596693,282.684216
14,-21.840477,16.590113,0.101051,0.141285,0.0,21.515007,-13.075562,44.889107,-21.400795,46.904182,-25.002537,33.533936,-24.737892,-20.183716,0.0,4.731502,15.742218,37.652437,32.390499,47.399184,44.638447,53.618994,54.927238,59.337638,0.0,70.698681,28.439426,90.897617,19.24427,88.634777,9.834938,74.772205,1.230068,54.586773,0.0,10.355421,32.682085,56.810317,50.499363,69.871888,62.030512,78.338116,68.361782,80.686855,-8.458872,300.478709,-47.508459,282.825995
15,22.012596,-17.015079,-0.242901,-0.108928,0.0,-25.012436,-32.250595,17.85141,-40.24744,17.985992,-45.446377,5.41626,-47.875786,-61.415749,0.0,12.315996,25.879845,50.071433,44.025944,60.301006,56.013305,67.348581,64.689361,80.512966,0.0,70.983467,28.70945,90.844688,19.866714,89.282227,10.736504,75.635376,2.329216,56.070671,0.0,10.879373,32.735808,56.532255,50.631818,69.345342,62.348588,78.184111,68.955512,80.849259,13.539419,283.485335,-47.765665,282.738773
16,-18.20755,18.109605,0.299492,-0.04798,0.0,19.397392,-14.233646,42.362938,-23.441963,43.923912,-27.725716,28.640785,-28.209286,-39.681473,0.0,3.333658,15.244509,39.233001,32.167025,46.097794,44.277021,53.507349,54.558342,58.967136,0.0,70.919724,28.656521,91.132393,19.734879,89.267693,10.509853,75.438194,1.973305,55.46196,0.0,10.843496,32.908585,56.683297,50.699435,70.146677,62.186185,78.537694,68.6362,81.291392,-4.671335,301.596005,-47.469378,282.691858
17,23.485222,-15.830644,-0.188599,-0.091946,0.0,-30.856133,-35.134335,9.410934,-43.698864,11.245995,-49.160271,-0.694199,-51.995831,-68.206558,0.0,7.123219,26.37391,51.078274,43.513107,60.561037,54.543027,65.868238,62.491479,78.738383,0.0,71.260529,28.410015,90.902023,19.446716,89.369545,10.332012,75.765152,2.035503,56.174011,0.0,10.70678,32.604526,56.699599,50.632436,69.590677,62.322159,78.324284,68.761739,80.939847,18.811312,285.757148,-47.660551,282.591699
18,-21.747093,13.41466,-0.037994,0.020192,0.0,17.987251,-16.145897,37.462692,-25.638657,39.342384,-30.296345,24.58889,-31.169472,-34.898014,0.0,4.24213,15.409692,40.634488,33.631683,49.102569,46.77816,55.432666,57.364465,58.985476,0.0,71.547089,28.438454,91.021042,19.620953,89.05426,10.628529,75.795364,2.509689,56.426239,0.0,10.721415,33.563387,57.085168,51.260375,69.86948,62.608063,78.729491,68.797431,81.143746,-2.933865,299.163163,-47.696629,282.603246
19,18.694611,-14.085701,-0.238724,0.583974,0.0,-21.579666,-31.038036,16.774521,-39.988403,16.868134,-45.941734,2.399139,-49.274311,-65.882149,0.0,-2.056289,27.030378,47.51404,45.923411,58.923108,57.805302,65.752765,66.257081,78.707075,0.0,71.416168,28.754139,91.007996,19.920387,89.268036,10.901985,75.996895,2.688904,56.503487,0.0,10.54765,33.003743,56.44494,50.960207,69.094574,62.501915,77.984657,68.863936,80.072191,15.737286,285.057115,-47.958813,283.166873
20,-25.728378,10.865973,0.780029,-0.327956,0.0,27.898178,-11.31649,44.021759,-20.887356,48.55854,-25.588017,36.233368,-27.329693,5.765991,0.0,6.109833,15.112178,40.021924,34.422335,51.841138,49.091825,56.788087,60.052276,59.232045,0.0,71.513557,28.554325,90.718117,19.739285,88.494873,10.717964,75.389442,2.578354,55.930824,0.0,10.555615,33.54023,57.191132,51.158487,69.335277,62.399285,78.521021,68.542896,81.337704,-10.037127,295.907017,-47.224817,282.822846
21,-0.440025,3.934798,-0.900421,-0.028096,0.0,32.390556,-6.590481,49.011383,-15.459709,54.382782,-19.427032,37.591438,-20.357895,-0.18877,0.0,5.148564,11.51781,35.666297,28.702888,49.926196,42.620505,56.362812,54.197657,56.503479,0.0,71.999931,28.537331,91.370316,19.778194,89.657822,10.924473,76.622658,2.882881,57.292557,0.0,11.122978,33.104025,56.663228,51.022636,69.033441,62.520625,78.092967,68.851277,80.963065,-10.499411,299.81199,-48.147497,282.764924
22,26.614494,-14.984231,0.440712,0.35914,0.0,-25.588646,-31.934166,16.947784,-41.43837,15.868378,-47.637234,1.542892,-51.030807,-62.622013,0.0,3.743742,27.916435,48.379225,46.012825,59.690789,57.336246,66.500624,65.589497,77.330844,0.0,71.705246,28.563423,90.742607,19.815502,88.89267,10.877552,75.989113,2.774105,57.003593,0.0,10.470523,32.991269,56.319402,50.866099,68.327078,62.440843,77.598223,68.893206,80.648014,16.063156,284.801082,-47.758713,283.097388
23,-26.176987,11.97112,-0.280437,0.245828,0.0,25.247269,-11.182594,43.287849,-19.993858,47.721405,-24.287968,36.861877,-25.804825,5.190353,0.0,3.860821,17.544033,39.184897,35.391446,51.158549,48.783134,55.756052,59.335786,59.571487,0.0,71.826153,28.851929,91.191845,20.270061,89.32703,11.39637,76.170101,3.232899,57.151852,0.0,10.153682,32.846279,56.133903,50.584455,68.460582,62.129807,77.744818,68.662444,80.724585,-10.152969,296.744908,-48.078289,283.315923
24,0.540848,3.354035,-0.082684,-0.411628,0.0,32.006607,-6.813412,47.749672,-15.892696,54.669914,-19.717827,38.312645,-20.922489,2.95475,0.0,6.666513,10.090017,31.113686,27.446206,50.204258,41.631819,55.56617,53.429482,56.468343,0.0,72.401619,29.075661,92.120018,20.312462,89.932251,11.279068,76.521378,2.973862,57.140579,0.0,10.628419,33.204432,56.763819,50.995837,69.024981,62.442511,78.25006,68.815091,81.546421,-9.659357,300.093078,-48.208208,282.898428
25,32.127914,-12.798452,-0.062428,-0.033963,0.0,-28.011475,-40.785198,12.908936,-50.700016,13.05748,-55.224781,-0.302467,-56.298523,-74.771519,0.0,-8.736448,24.813662,46.412474,42.611242,55.891656,54.097251,63.273918,63.009812,77.785635,0.0,72.121868,27.560749,91.65041,18.816204,89.773922,10.311527,77.067204,2.810211,58.034306,0.0,11.061598,32.695917,56.250365,50.698756,68.35184,62.323579,77.74945,68.6651,80.656042,22.365103,287.259891,-48.37409,282.829731
26,-27.067108,5.586313,0.825062,0.229218,0.0,21.128082,-16.59256,37.099457,-26.944256,43.026123,-32.01519,31.757011,-33.86919,-2.930145,0.0,9.535746,13.796771,37.115085,34.055599,51.382086,49.866977,57.934854,61.674027,62.031376,0.0,71.381493,27.369804,90.660667,18.666458,88.764381,10.253448,75.598869,2.948971,56.945801,0.0,10.960142,32.672328,55.898758,50.594953,68.14936,62.279798,77.496088,68.723948,80.371928,-4.783916,292.808567,-47.630939,283.021312
27,-7.454109,5.850358,-0.163136,0.154376,0.0,35.394516,-6.813011,51.819763,-15.58485,55.481873,-20.073738,40.693016,-22.090874,13.676949,0.0,2.444822,14.626635,39.001004,31.064348,51.36461,44.498026,57.361687,55.021037,60.479156,0.0,71.19833,27.242832,90.729847,18.630238,88.864117,10.331612,75.971546,3.066444,57.250614,0.0,10.641201,33.174421,56.034979,51.16034,68.234637,62.748299,77.668433,68.945385,80.30567,-12.263432,298.630998,-47.819481,283.147761
28,30.805779,-12.676619,-0.517445,-0.168208,0.0,-17.232971,-38.484478,18.368454,-49.364948,17.704811,-54.865551,2.716255,-56.315689,-71.082745,0.0,-6.46428,25.544972,47.346449,44.065711,57.15402,55.798475,65.324155,64.647618,79.219295,0.0,70.17643,27.627983,91.344223,19.035072,89.149246,10.872517,76.322365,3.899403,58.239555,0.0,8.369651,34.44969,57.665807,52.542438,69.23592,64.071116,78.421047,70.14254,80.806527,18.52767,285.911802,-48.351603,282.936976
29,-16.838722,10.393953,-0.686359,0.179879,0.0,6.734734,-20.314922,36.670074,-29.953651,34.29554,-34.720402,19.291077,-35.844498,-39.466438,0.0,0.586382,17.305244,37.781187,37.281811,51.53535,51.895417,57.164888,63.869563,65.853665,0.0,69.084606,27.15374,93.658047,18.64769,92.756481,10.551224,79.575291,3.587837,59.523411,0.0,6.66361,33.959083,61.88157,51.215545,74.413137,62.432754,82.875598,68.469783,84.808942,1.669722,296.294933,-49.057188,283.106033
30,-11.290855,2.806309,1.74202,1.434092,0.0,20.429306,-7.091675,53.244209,-16.05669,55.719452,-22.856941,38.893089,-27.141323,12.833061,0.0,-2.513427,15.383942,40.27862,32.178572,65.34021,46.052902,76.451641,55.76618,84.788997,0.0,64.986706,27.99242,91.943607,20.040779,92.428493,11.379948,79.449635,2.201843,51.64896,0.0,10.000232,33.015043,57.949736,50.221672,80.268867,61.903059,93.068121,69.621737,101.726332,-9.626684,299.101844,-47.320719,284.540727
31,-0.849495,-13.077317,-3.747082,-2.175467,0.0,24.428215,-4.981041,48.545151,-14.21711,44.788857,-22.237988,30.574036,-29.20063,-5.183315,0.0,-7.489399,16.804201,48.503961,36.200253,73.491882,50.509552,90.706477,60.896033,98.770031,0.0,60.370789,26.784954,92.62207,20.057373,94.828377,12.677994,81.076355,4.689732,45.748215,0.0,15.904683,32.354622,52.905283,50.71549,79.685696,63.241993,95.43977,70.97685,112.814483,-10.521183,286.025654,-51.112804,282.366387
32,31.981888,3.273698,-4.080791,-3.284751,0.0,-28.808327,-43.528519,-3.808022,-54.517193,0.272484,-58.903484,-11.132011,-59.154911,-75.537815,0.0,4.031067,15.27557,57.731942,30.344029,71.475608,40.899336,77.387284,49.767312,80.218849,0.0,54.406757,24.079514,88.765125,17.509689,89.696217,10.575485,78.974133,3.915253,41.296349,0.0,22.392614,26.399042,39.662228,44.543474,70.944369,57.755284,88.115924,66.899655,111.211195,21.347694,289.312289,-55.306606,279.094572
33,-9.389305,6.264703,-3.413773,-4.853397,0.0,-42.310467,-44.437752,-39.36842,-42.558575,-42.698193,-37.173157,-58.177929,-28.039169,-49.694996,0.0,18.845299,15.084267,40.67617,29.798588,53.216258,41.368701,65.583631,52.019103,70.399977,0.0,43.550434,19.338799,75.034161,15.220585,79.595089,9.828873,64.104824,3.883152,38.82225,0.0,23.316029,19.569261,29.3785,37.063215,62.046752,50.027714,78.349664,58.471897,92.224549,11.682301,295.818807,-58.996468,274.48299
34,-69.365501,-12.288764,-5.677814,-9.68583,0.0,-81.487999,33.298302,33.83234,56.57856,6.476612,65.345306,11.030502,66.317825,20.849819,0.0,-44.348528,7.309211,-10.353136,30.339212,38.962163,48.684395,64.937351,61.055041,85.26077,0.0,46.021213,29.299478,66.695108,24.670744,65.451193,18.212757,54.063062,10.740852,39.710455,0.0,20.424659,11.103867,19.182766,19.366906,34.199293,25.117289,42.151696,28.246708,48.098878,-57.847567,283.997462,-64.838647,265.264579
35,89.870796,-4.592872,-5.677815,-9.685829,0.0,-64.694653,-41.844635,-104.120865,-35.351028,-104.919147,-26.783524,-92.357941,-16.84639,-69.086895,0.0,25.803151,28.834046,58.578355,46.259765,74.759927,58.922367,82.741353,67.682898,89.232618,0.0,48.491993,39.260159,58.356056,34.120903,51.307297,26.596642,44.021301,17.598553,40.59866,0.0,17.533288,2.638472,8.987031,1.670596,6.351833,0.206864,5.953728,-1.978483,3.973207,31.841269,279.861111,-70.698423,256.03527
36,0.51384,0.001606,-15.249081,-17.030764,0.0,-67.127781,-38.081589,-100.31147,-32.032814,-103.612003,-23.932228,-90.19083,-14.645691,-66.519928,0.0,23.840167,29.643841,56.904857,46.603159,71.915024,58.775648,81.533762,66.735893,87.841258,0.0,43.22525,35.492592,33.890591,33.379269,27.529278,29.101067,25.965385,22.629318,30.892067,0.0,3.023485,-7.446482,-7.69052,-23.55136,-21.387811,-38.264199,-34.182188,-51.600929,-48.737254,31.762047,280.28722,-86.540565,239.42901
37,-1.815262,0.753602,-22.41291,-75.149943,0.0,-64.992599,-36.730957,-99.105492,-30.494041,-102.115803,-22.724991,-89.4524,-13.986168,-66.087227,0.0,23.320167,28.989842,56.363985,46.289591,70.319517,58.707846,79.858473,66.604118,86.334733,0.0,43.383121,24.928322,27.906246,33.37944,32.384377,39.5644,36.369953,43.419685,42.824249,0.0,-21.895399,-4.188469,-7.084501,9.534511,6.902029,23.129111,18.829244,35.88761,31.557054,29.955196,281.432118,-108.945065,164.670364
38,-1.484184,-0.931814,-3.815918,-24.55042,0.0,-63.440266,-36.041107,-97.206688,-29.972191,-99.852791,-22.1418,-87.576714,-13.217354,-64.89315,0.0,24.466192,29.284392,56.289453,46.739319,70.801849,59.364253,80.359084,67.52352,87.519538,0.0,29.061756,6.333675,21.876068,13.950806,25.590305,20.746536,28.827724,26.373539,35.047474,0.0,-24.261984,-19.545549,-19.4549,-15.079327,-10.37691,-7.587891,-4.214095,0.826715,1.045496,27.243633,281.157098,-113.988361,140.776737
39,-0.950089,-0.430092,-20.77137,-38.842152,0.0,-62.603245,-36.015701,-96.384773,-29.800072,-99.680557,-21.766319,-87.054119,-12.608643,-63.799667,0.0,24.738203,29.92919,56.355402,47.164779,70.687858,59.539747,80.041563,67.508267,87.838356,0.0,44.497662,0.751419,19.192486,15.185051,30.060997,30.315914,42.291813,44.779587,53.04285,0.0,-43.884567,-15.975758,-30.255077,-4.445289,-19.083316,5.44935,-8.643267,12.920965,-1.43968,25.954828,281.716973,-135.098448,102.924552
40,0.503654,-0.419656,-8.054295,-30.589579,0.0,-62.588768,-36.13163,-96.902161,-30.134926,-99.770565,-22.085724,-87.318478,-13.032303,-63.796806,0.0,25.081474,30.193605,56.312609,47.635688,70.143898,60.017757,80.217614,67.864197,87.907825,0.0,46.463642,0.774994,16.567268,16.680679,28.035851,33.316383,43.024693,49.613628,56.643105,0.0,-44.072751,-19.427204,-33.806961,-11.899737,-27.796917,-5.245234,-20.849316,0.384242,-18.261974,26.143227,281.502437,-143.467999,72.540092
41,0.29892,-1.148866,19.079819,-25.510485,0.0,-62.530746,-35.958138,-97.478313,-29.888191,-99.615726,-21.809464,-86.988945,-12.801018,-63.45005,0.0,25.238258,30.029843,57.230344,47.584003,71.329815,60.30854,81.090147,68.589579,88.826671,0.0,25.860329,-17.334938,3.167725,-17.417221,3.021126,-11.914616,8.181152,-3.018951,14.746685,0.0,-48.05451,-19.070318,-36.237457,-14.217631,-27.839432,-10.654323,-28.090108,-8.438286,-35.15099,25.188303,280.371046,-125.642023,47.047083
42,0.505714,-0.270405,-33.445587,-24.405276,0.0,-61.667519,-34.898529,-96.49395,-29.06559,-99.978676,-21.157265,-87.04668,-12.049828,-62.894783,0.0,25.538612,29.695279,57.182858,47.075427,71.129744,59.656579,81.342212,67.869013,88.497356,0.0,32.698517,-1.144524,10.974541,14.138374,24.230175,31.952591,38.750954,50.571556,64.333763,0.0,-49.157712,-20.031865,-33.647491,-13.115077,-27.488227,-7.79812,-24.07207,-4.444609,-51.896868,23.962183,279.597375,-160.819445,22.138542
43,0.715714,-0.501166,-4.60207,-4.679477,0.0,-62.306385,-35.610237,-96.793327,-29.61628,-99.562569,-21.492805,-86.4925,-12.246323,-63.579941,0.0,25.257895,30.253503,57.78406,47.987233,71.760339,60.75197,81.649729,69.036899,88.751274,0.0,24.627514,-1.791687,18.034916,12.701397,30.521049,29.029255,42.734528,45.499191,62.448864,0.0,-57.132716,-30.816728,-47.438179,-24.472429,-45.95407,-17.665496,-41.411,-12.20219,-70.348261,21.862478,278.949783,-168.236933,17.312639
44,0.010757,-0.00142,-4.257088,-9.270497,0.0,-62.319317,-34.651566,-96.923218,-28.504944,-99.529839,-20.34256,-87.177029,-11.316261,-63.93219,0.0,25.115004,30.318526,58.011795,48.13,71.165436,60.753946,81.387599,68.699742,88.610359,0.0,20.14864,-2.652569,17.939529,13.005123,28.80558,29.601688,37.951984,45.736885,54.982567,0.0,-53.734498,-29.80257,-63.106019,-24.989002,-61.854276,-20.209706,-56.418851,-16.698855,-78.848607,19.438677,278.836548,-174.928579,7.930328
45,-0.179443,-0.629175,-2.859135,-8.679082,0.0,-61.809483,-34.451752,-95.910702,-28.261414,-97.228432,-20.07534,-85.718193,-11.043434,-62.731361,0.0,24.486632,30.323466,57.054231,47.958149,70.347366,60.717883,80.813443,68.941124,88.458206,0.0,24.91087,-1.200256,11.96806,14.466362,25.162811,30.855045,37.943687,46.213818,52.992954,0.0,-56.728868,-28.478426,-49.083673,-23.967095,-48.169459,-19.428254,-46.673123,-15.912217,-74.040689,16.997452,278.294163,-180.049496,-0.661964
46,1.343422,-0.00352,-4.050064,-0.894918,0.0,-61.574478,-34.169312,-95.822582,-27.938919,-97.027874,-19.822197,-85.609245,-10.83744,-62.489834,0.0,23.647814,29.430864,56.078945,47.316315,69.51917,60.261486,80.114244,68.598471,87.553439,0.0,21.869373,-2.027149,10.392723,14.743996,25.650444,31.941433,38.764057,47.885227,53.779221,0.0,-55.773651,-30.271843,-45.681102,-27.31758,-44.295763,-23.885739,-40.807142,-21.224821,-81.91257,17.768326,278.589901,-184.672108,-1.257624
47,0.840912,-0.671103,-2.462883,4.385298,0.0,-62.0327,-33.832397,-94.578152,-28.052902,-96.756363,-20.263023,-86.067238,-11.277466,-62.773476,0.0,23.132692,30.019345,55.2455,47.488722,68.200243,59.97447,79.069241,67.90557,87.935921,0.0,22.670403,-5.151272,11.919365,12.237511,25.822048,30.155239,38.725491,47.092094,51.884766,0.0,-58.512406,-29.937927,-47.687713,-27.239867,-45.634697,-24.124466,-42.594693,-21.602085,-82.920367,18.346939,278.477932,-187.397289,3.686808
48,0.690422,-0.638561,-2.473068,8.408554,0.0,-62.084141,-33.905525,-94.060135,-28.066292,-96.855125,-20.118828,-85.812149,-10.913086,-62.546768,0.0,23.2247,29.398321,55.332259,46.882148,68.657134,59.312444,79.81531,67.042731,87.180528,0.0,23.055038,-5.953388,10.457954,10.860558,25.111485,28.59026,39.776173,45.519276,46.811428,0.0,-61.476549,-26.667595,-47.519937,-23.951163,-46.597448,-21.950666,-44.242071,-20.889794,-81.307725,19.209452,278.288729,-189.698267,12.54472
49,1.473427,-0.466339,-2.457962,11.078703,0.0,-62.346497,-34.473953,-93.71069,-28.879852,-96.54356,-20.991096,-86.244736,-11.704559,-64.03656,0.0,24.700165,29.783273,55.394319,46.992558,69.123782,59.335477,80.367544,67.258487,87.722512,0.0,23.019619,-6.740856,8.501244,9.923859,22.642078,27.631416,35.931702,44.427166,44.152679,0.0,-58.384706,-26.486388,-46.803447,-23.342335,-46.848247,-20.75385,-46.038298,-18.922333,-77.994197,20.7304,277.861524,-192.108707,23.662557
50,0.861969,-0.467883,19.794674,4.052494,0.0,-62.58934,-35.045471,-90.833416,-29.212761,-92.448521,-21.241264,-83.490314,-11.963768,-63.059864,0.0,24.299837,29.957533,57.32266,47.022198,71.197731,59.323806,82.12107,67.25435,87.324716,0.0,14.327259,-12.490654,-2.938385,-9.021435,-0.952435,-3.386936,2.134781,3.243599,-0.798225,0.0,-60.155955,-9.469055,-37.246058,-4.994806,-31.310793,-4.376993,-32.202315,-6.305674,-37.690692,21.69857,275.750648,-172.207832,26.072058
51,0.513611,-0.776388,18.479004,11.43914,0.0,-62.721748,-34.916382,-86.526604,-29.204292,-88.965855,-21.273994,-81.22427,-11.819,-63.503838,0.0,23.752913,30.613446,57.280917,47.618768,71.166794,59.945324,81.787062,68.046854,88.126668,0.0,-6.131973,-4.489689,-3.712063,-21.981068,-19.767323,-36.152401,-29.982548,-46.150818,-41.190319,0.0,-59.013819,-6.615939,-42.160217,-3.436657,-29.068574,-3.013266,-25.853446,-4.304899,-27.067861,22.488871,271.514477,-153.452139,34.051416
52,0.973778,-0.13369,-9.577217,6.031441,0.0,-63.230324,-35.185432,-83.629246,-29.622803,-85.039158,-21.749268,-78.74794,-12.467422,-64.010639,0.0,23.280523,30.56985,53.624552,47.661808,66.688839,60.062711,78.851324,68.281815,87.799638,0.0,0.524139,-7.896538,-6.448059,-15.187054,-11.950893,-20.461979,-15.158901,-23.09309,-18.53857,0.0,-51.482677,0.81103,-30.896109,6.185971,-25.97633,8.529152,-27.265246,7.852769,-31.683025,23.801136,269.800981,-162.690868,38.503049
53,0.197296,-0.253547,-28.07539,31.193962,0.0,-63.57954,-35.496483,-82.996101,-29.756813,-84.205627,-21.719284,-78.467445,-12.405052,-64.465256,0.0,23.569453,31.071696,54.55229,47.935363,67.87914,60.262783,80.482152,68.316766,88.840009,0.0,19.415703,-9.035625,-0.051556,8.123245,15.407124,25.913601,27.186527,42.763367,33.2654,0.0,-59.94625,-24.399626,-42.832309,-19.979902,-41.610206,-17.571852,-42.049283,-16.868206,-75.215799,25.715361,269.168363,-189.04933,69.31794
54,0.326614,0.116276,-1.204376,3.063592,0.0,-63.21619,-35.367737,-80.466385,-29.408913,-81.755905,-21.381912,-77.606506,-12.44339,-65.818233,0.0,22.462577,32.345607,48.272644,49.412186,61.723427,61.532248,75.97993,69.020473,87.886459,0.0,23.340168,-9.672489,1.677418,8.334446,15.141106,27.793922,31.150074,45.182648,35.389538,0.0,-68.870636,-25.358332,-45.990348,-21.44317,-45.293371,-19.286784,-56.32005,-19.03617,-73.585249,27.401133,269.297375,-188.894548,72.394269
55,-0.308533,0.244655,-1.907501,-2.753204,0.0,-63.630638,-35.031738,-79.27557,-29.013519,-80.053139,-21.138382,-76.409054,-12.58873,-65.511932,0.0,22.020629,31.567984,48.371938,48.59566,60.829713,60.913323,74.734301,68.689121,87.914432,0.0,17.63649,-6.37928,1.205463,11.568661,15.790215,30.201702,28.770161,46.79266,34.543304,0.0,-67.183028,-24.682072,-48.925531,-22.576877,-49.745082,-21.528478,-61.495908,-21.578959,-73.522727,27.83741,269.309571,-190.05724,69.408605
56,-0.29068,-0.172963,-0.004921,-4.791431,0.0,-63.387451,-35.83889,-77.418995,-29.594879,-78.876629,-21.389236,-75.434818,-12.533569,-65.646687,0.0,22.31345,32.719814,45.632566,49.873523,60.317494,62.066265,75.155006,69.579067,88.33909,0.0,15.290508,-9.178677,3.704853,7.616673,16.233387,26.093502,29.516487,43.424778,35.963402,0.0,-68.018326,-26.128637,-49.471867,-22.661104,-51.801587,-20.381928,-63.577174,-19.401979,-76.201892,27.611332,268.776294,-189.997559,64.256861
57,-0.257263,-0.317644,2.309875,-3.556484,0.0,-63.492908,-36.070518,-74.665604,-29.642258,-76.303482,-21.235313,-73.046207,-12.285347,-64.783001,0.0,22.782073,33.26717,45.811828,50.046054,60.891217,62.087569,76.666348,69.57598,89.874761,0.0,16.713409,-5.558167,1.385021,8.776302,12.922611,24.162598,22.153358,38.818989,25.584755,0.0,-67.66783,-22.674072,-57.485404,-21.20256,-53.879951,-21.063868,-60.138016,-21.995095,-69.229622,27.703915,268.302329,-187.337837,60.544056
58,-0.589027,0.469056,-1.366138,-2.839346,0.0,-63.831482,-36.109428,-71.864433,-29.726601,-74.637508,-21.511803,-71.986656,-12.925072,-66.006718,0.0,22.524698,32.836955,41.855911,49.662954,57.580715,61.859587,74.966606,69.331881,89.744529,0.0,17.286129,-8.701172,2.006664,6.736622,14.403419,23.794155,25.723343,40.103474,32.46151,0.0,-68.789527,-23.293182,-49.307827,-20.552235,-49.432563,-19.227658,-59.553301,-19.189929,-74.132697,27.792406,268.620745,-188.026457,57.55407
59,0.013275,-0.557544,-1.831627,2.290971,0.0,-64.205704,-36.512375,-71.128979,-29.734154,-73.943653,-21.124878,-71.390591,-12.157288,-66.376534,0.0,22.86414,33.69473,41.671833,50.536167,57.494944,62.605964,75.273629,70.015211,89.924531,0.0,13.278866,-6.840534,1.721764,10.390148,16.063728,28.165627,27.310123,44.549274,34.09029,0.0,-64.663827,-24.941979,-51.612754,-23.601687,-51.708992,-22.935462,-58.246539,-23.181228,-76.663816,28.329077,267.989007,-189.334688,59.770848
60,0.08194,0.363463,0.925198,-2.340094,0.0,-64.67823,-36.242523,-71.514416,-29.857521,-74.310493,-21.605988,-71.791534,-12.861786,-66.756763,0.0,22.455537,33.022453,40.415151,50.030184,56.361145,62.225828,74.007375,69.694417,89.11449,0.0,22.123146,-6.469917,2.348328,10.329895,16.433716,28.024406,29.334698,44.214478,31.710205,0.0,-68.50285,-21.924113,-46.917932,-19.406148,-46.758184,-18.248142,-57.691094,-18.576438,-65.785894,28.803177,268.406286,-188.01733,57.48457
61,-0.641556,0.652455,-1.220341,1.713975,0.0,-63.753204,-36.384773,-73.832989,-30.027008,-75.395508,-21.522446,-72.08931,-12.335472,-64.28793,0.0,21.804379,32.306519,43.804816,49.461586,60.722144,61.826241,77.598717,69.399189,89.699019,0.0,24.186859,-8.259201,2.775307,9.401665,15.989399,28.292255,31.673698,45.465488,35.641766,0.0,-69.476963,-23.954004,-44.709243,-21.089001,-46.880697,-19.683191,-63.660661,-19.976042,-71.370972,28.675003,269.077328,-188.724289,59.217132
62,-0.058594,-0.052241,0.290623,1.19484,0.0,-63.857346,-36.518669,-75.573463,-30.119362,-77.09919,-21.577377,-73.520451,-12.324371,-64.465084,0.0,21.407386,32.757667,44.992832,49.862161,61.468583,62.061881,77.866282,69.477735,89.399715,0.0,19.521561,-8.048687,1.981544,9.448013,16.062355,28.003235,30.510921,44.725571,34.774189,0.0,-67.423793,-24.765373,-46.103444,-22.124648,-48.041481,-20.721956,-57.980673,-21.041484,-72.999515,28.907375,269.027155,-188.1427,60.41404
63,-0.045319,0.134616,0.040169,-0.982418,0.0,-64.226074,-36.66172,-76.719646,-30.090065,-78.070793,-21.520729,-74.599972,-12.363853,-65.122547,0.0,21.154641,32.680356,45.311341,49.704636,61.519651,61.886078,77.057413,69.408636,89.160617,0.0,27.537117,-8.416615,1.524353,9.537163,15.131893,28.606853,30.189743,45.538101,34.067688,0.0,-69.816436,-24.01137,-44.416083,-20.909523,-46.475243,-19.35156,-61.414613,-19.742471,-69.861823,29.150562,269.179077,-187.814026,59.448928
64,-0.896072,-0.330982,-0.402718,-0.205011,0.0,-64.238892,-36.833725,-78.344822,-30.047607,-79.915237,-21.216431,-76.122208,-11.672516,-64.54422,0.0,22.02878,32.72778,48.385215,49.882292,64.262666,62.069415,79.067698,69.65113,89.856791,0.0,26.262817,-8.473434,1.586895,9.413853,16.23642,28.417454,29.677906,45.395222,35.161972,0.0,-70.32282,-24.354146,-44.757162,-20.768578,-45.455374,-18.795066,-53.804029,-18.808805,-72.897812,28.394909,268.854347,-188.076324,59.250169
65,-0.673485,0.087994,0.092525,0.23811,0.0,-63.955364,-36.091461,-79.34103,-29.600029,-80.246372,-21.026688,-75.971603,-11.600304,-64.051666,0.0,22.35896,32.842512,49.618309,50.081066,64.592536,62.194459,79.012122,69.55869,89.239102,0.0,26.453476,-8.728981,1.367741,8.877583,15.345268,27.852287,29.661655,44.935741,34.078331,0.0,-68.517393,-24.278409,-46.224135,-21.385866,-48.330689,-19.775816,-61.126733,-19.903177,-71.990112,27.766113,268.895951,-187.93911,59.441888
66,-0.826149,0.537599,0.024147,0.283836,0.0,-64.479504,-36.146393,-81.271019,-29.639053,-81.645584,-21.082191,-77.386837,-11.740723,-64.923592,0.0,21.680384,32.147511,49.424721,49.486657,63.842825,61.665629,78.153236,68.934825,89.288873,0.0,24.41597,-8.568363,2.10577,8.723946,16.665516,27.521954,30.014648,44.735985,34.531174,0.0,-68.843157,-25.155728,-47.322027,-21.786101,-49.178738,-19.840809,-61.867089,-19.661794,-74.818806,27.050257,269.467544,-187.80467,59.759718
67,-0.614433,0.071692,1.123066,0.410084,0.0,-64.206276,-36.523933,-82.42012,-30.228653,-82.916164,-21.820679,-78.180771,-12.505302,-65.09634,0.0,22.518584,31.505122,51.122919,48.938251,65.181759,61.252642,79.293642,68.768532,88.922446,0.0,25.50745,-9.185886,2.081337,7.854767,15.754166,26.462574,28.810043,43.706818,34.198551,0.0,-68.407909,-25.877498,-48.316888,-23.101725,-48.51063,-21.566733,-58.58524,-21.597608,-75.441621,26.487265,269.589424,-186.630163,60.21999
68,-0.439224,0.294611,-1.851311,0.048073,0.0,-63.366966,-35.878029,-85.294304,-29.250183,-85.046368,-20.45723,-78.694611,-10.600548,-62.224102,0.0,24.228083,30.872365,57.924109,47.742455,70.686808,59.812499,81.969782,67.286583,88.511188,0.0,22.854939,-7.459145,2.586994,10.103359,16.439552,28.842602,31.667862,45.800629,35.691032,0.0,-66.340598,-25.291209,-47.083578,-22.671448,-48.274743,-21.261686,-61.243441,-21.490378,-73.22509,26.176357,270.00732,-188.353157,60.391347
69,-0.260696,-0.286028,0.285358,-0.688949,0.0,-63.855,-35.913048,-85.415955,-29.592934,-85.589046,-21.013184,-79.401855,-11.460342,-63.707199,0.0,23.890246,30.929917,57.828767,47.711703,70.838097,59.880671,82.363194,67.627199,89.480361,0.0,19.552402,-8.449631,2.691936,9.042091,17.916355,27.702255,30.978012,44.788399,36.310387,0.0,-68.072697,-25.811641,-46.094151,-23.10052,-46.87307,-21.47068,-51.525532,-21.314822,-77.177981,25.995941,269.757045,-187.987518,59.738151
70,-0.258408,0.273122,0.103226,0.619758,0.0,-63.72551,-35.684052,-86.205769,-29.282913,-86.638355,-20.679245,-79.871235,-11.199989,-63.565063,0.0,23.670971,30.65414,57.009648,47.781481,70.253258,60.060118,81.809045,67.739893,89.179513,0.0,15.206223,-7.556419,3.027592,9.780807,17.592087,28.026352,28.84552,44.833317,37.353916,0.0,-66.887213,-26.013009,-48.596895,-23.645128,-50.167825,-22.283686,-54.702683,-22.249569,-79.013141,25.83518,270.21193,-187.786646,60.539672
71,-0.414276,-0.179323,-0.292168,-0.05468,0.0,-63.64809,-35.375862,-86.310425,-29.090195,-86.789646,-20.627632,-79.718227,-11.313744,-63.68803,0.0,23.709873,30.61289,56.363677,48.01181,70.570532,60.460322,82.672378,68.343195,89.755027,0.0,20.211353,-7.447071,2.789383,10.011349,17.021484,28.604393,31.128674,45.532265,36.727352,0.0,-66.685659,-25.655197,-48.228986,-23.020986,-52.179253,-21.494516,-65.943882,-21.54231,-76.255121,25.587158,270.113669,-187.91256,60.566055
72,-0.563164,0.010745,0.091724,-0.459824,0.0,-62.997952,-34.794502,-86.240387,-28.652687,-86.83794,-20.217361,-79.40855,-10.787201,-62.797794,0.0,24.094949,30.39874,56.359292,47.694166,71.22311,60.137059,83.300441,68.155041,89.576012,0.0,20.271549,-7.747536,2.393417,9.722958,16.842384,28.250599,30.738888,45.2005,36.960697,0.0,-65.318721,-25.401649,-47.319711,-22.712635,-51.271985,-21.022526,-63.570999,-20.788925,-76.404217,25.28203,270.170372,-187.562799,60.152188
73,0.235977,-0.22613,-0.48769,-0.769997,0.0,-63.733521,-34.938354,-87.001762,-28.591576,-87.112656,-19.830666,-79.635487,-10.089226,-63.327484,0.0,24.548135,31.549953,57.14414,49.04934,70.841246,61.380959,82.985391,69.058573,89.313511,0.0,18.354492,-6.305695,3.535423,10.661659,17.6231,28.64399,29.685631,45.262241,35.998993,0.0,-65.224181,-23.929427,-49.492152,-21.793604,-51.218509,-20.631585,-59.780234,-20.592311,-75.633664,25.71456,270.032514,-187.853937,59.470463
74,-0.551262,-0.313569,0.298405,-0.029825,0.0,-63.690376,-35.520744,-88.66785,-28.886948,-88.112869,-19.999809,-80.914478,-10.225983,-63.989239,0.0,24.990206,32.035434,58.308135,49.409407,71.716867,61.797775,83.427709,69.654279,90.822197,0.0,15.984764,-6.571999,2.757111,10.212936,16.886044,27.99614,29.024849,44.586124,36.57732,0.0,-65.187934,-24.023936,-48.382498,-22.024766,-49.78062,-20.857622,-58.364266,-20.763175,-76.315142,25.443792,269.963755,-187.275038,59.685447
75,-0.389671,0.246261,-0.124111,-0.781174,0.0,-63.63224,-35.024872,-88.068981,-28.390274,-87.699795,-19.674797,-80.637817,-10.13546,-63.802185,0.0,24.690223,32.054639,57.825309,49.37248,71.082937,61.572633,82.951737,69.126869,90.483249,0.0,11.45937,-5.669689,2.828178,11.146946,17.37133,28.652,28.663387,44.724941,38.659401,0.0,-65.132883,-24.244292,-48.146426,-22.443496,-50.409547,-21.581738,-56.673725,-21.672882,-79.060565,25.276079,270.403973,-187.177191,59.098232
76,0.03685,-0.224586,0.15255,-0.77151,0.0,-64.214859,-35.110931,-88.357487,-28.300323,-87.756271,-19.58931,-80.651836,-10.240059,-64.199295,0.0,24.949266,31.912983,57.409296,49.298009,70.657785,61.661059,82.482681,69.337932,90.497205,0.0,12.120895,-5.481033,3.268948,11.51722,17.33408,29.149075,29.29493,45.442085,39.092674,0.0,-65.449632,-24.744347,-47.099417,-22.922772,-50.444683,-21.925595,-58.023497,-21.831025,-78.392766,25.714245,270.353601,-186.623325,58.500935
77,0.156555,0.241691,0.216522,-1.531595,0.0,-64.232712,-35.210495,-88.479538,-28.341637,-88.010788,-19.540672,-80.869904,-10.172882,-64.372559,0.0,24.638847,31.76151,57.977894,49.200752,71.291839,61.602705,82.718135,69.388382,90.47411,0.0,15.973606,-5.682964,3.657188,11.035767,17.264614,28.799286,31.549931,45.463886,39.880657,0.0,-66.474905,-25.381148,-44.871987,-22.670799,-48.935843,-20.788616,-59.380153,-20.073639,-76.943977,26.134729,270.77233,-186.142874,57.146378
78,-0.036621,-0.48931,1.211872,0.038409,0.0,-64.550629,-35.062981,-88.685417,-28.353767,-88.028526,-19.674454,-81.116524,-10.384483,-64.185905,0.0,25.158229,31.739959,57.852355,49.061382,70.693601,61.393371,82.245682,69.08951,90.425513,0.0,12.207527,-3.605118,3.050137,13.023777,17.409439,29.839325,27.97554,45.106201,38.682919,0.0,-64.776151,-24.899495,-48.688841,-23.848904,-51.133046,-23.089621,-56.439228,-22.909063,-77.637558,26.535759,270.477796,-184.493351,57.379563
79,0.200386,0.470168,0.016823,-3.024937,0.0,-64.654198,-35.332031,-88.470783,-28.803291,-88.404007,-20.283966,-81.591339,-11.04641,-64.877243,0.0,24.243953,31.642393,57.531994,48.958011,70.755042,61.331188,82.608466,69.217272,90.524128,0.0,13.956013,-5.394173,3.421783,11.985683,18.044186,29.96172,30.957985,46.304111,40.533085,0.0,-67.612564,-26.584201,-45.754462,-23.5965,-49.016149,-21.076404,-53.002169,-19.60415,-77.784956,27.266092,271.434943,-183.946581,54.841606
80,-0.904312,0.512343,2.544708,-0.886458,0.0,-63.288345,-35.052795,-87.95969,-28.579903,-87.932854,-20.061607,-81.235371,-10.82943,-64.171658,0.0,23.877958,31.748974,56.328788,48.774057,69.968898,60.9245,81.988616,68.618293,89.924778,0.0,5.958996,-5.616016,3.004246,11.918507,17.955093,29.571304,29.182262,45.603046,40.975342,0.0,-63.62886,-25.651986,-51.411849,-24.96918,-52.430391,-24.137402,-56.876514,-23.517212,-82.143702,26.983595,272.166454,-180.780058,54.174316
81,-0.510292,0.621086,-0.342865,-4.99002,0.0,-63.677158,-34.381485,-88.149433,-27.747345,-87.787113,-19.285927,-80.497055,-10.332642,-63.271294,0.0,24.028073,31.698895,56.360466,49.015501,69.634581,61.137539,81.758472,68.525976,89.163087,0.0,7.259045,-3.276672,4.838791,14.48679,17.708244,32.248192,30.300636,47.89032,43.967628,0.0,-67.597775,-24.762656,-46.805052,-22.689726,-51.31135,-20.965685,-60.330647,-19.531347,-79.940385,26.896706,272.832108,-180.69952,49.228864
82,0.876732,1.209135,1.470222,-3.097802,0.0,-64.051266,-35.059204,-90.006523,-28.56926,-89.6632,-20.287514,-81.843796,-11.734428,-64.49564,0.0,23.745936,29.976552,55.047775,47.487734,69.495272,60.091858,81.89457,68.154053,89.135238,0.0,9.593124,-2.46397,6.419563,14.927845,19.664669,32.351761,31.211357,48.007336,43.553696,0.0,-65.830015,-26.866616,-47.583447,-24.334232,-49.523059,-21.657845,-52.128926,-19.253161,-78.933483,27.997341,274.182744,-179.005394,46.272563
83,0.655632,0.512837,1.263199,-3.444561,0.0,-64.096184,-35.979881,-89.547443,-29.183922,-89.758015,-20.440178,-81.157379,-11.216469,-62.928314,0.0,24.132987,30.44709,56.512557,47.744678,71.297458,59.993489,83.418693,67.549393,88.239363,0.0,10.763397,-1.896572,7.086182,15.960217,19.915009,33.64603,33.424931,49.220638,47.04277,0.0,-65.181728,-25.876665,-46.834476,-22.995421,-50.198485,-20.222797,-59.814259,-17.788102,-76.987789,28.796625,274.854218,-177.598543,42.986638
84,0.219498,0.293808,1.536999,-1.006686,0.0,-64.073009,-35.354919,-90.220413,-28.594551,-90.364094,-20.179138,-81.840763,-11.622276,-63.973618,0.0,24.178065,30.678531,55.240066,48.063804,69.081359,60.144099,81.691534,67.393103,87.151012,0.0,11.718464,-1.392803,8.324718,16.474285,22.309513,34.091377,35.911846,49.824829,50.001354,0.0,-66.283047,-26.729901,-45.4563,-23.68011,-46.51112,-20.667307,-47.450715,-18.413139,-78.816003,29.291382,275.252431,-175.786285,42.084357
85,0.410957,-0.203159,1.986752,0.326876,0.0,-64.691677,-34.506683,-91.044674,-27.65625,-91.604462,-19.001884,-82.722874,-10.447769,-64.561729,0.0,24.554619,30.66896,54.886113,48.095852,68.467869,60.163303,81.824792,67.073421,87.440621,0.0,12.634678,-0.070038,9.930325,17.739658,24.01823,34.888802,37.606087,50.071049,53.801994,0.0,-64.082447,-27.363831,-46.45502,-24.485953,-47.670454,-21.308616,-49.180313,-18.722015,-79.198578,30.117788,275.17444,-173.384085,42.536401
86,2.013931,0.734398,2.308903,0.88899,0.0,-65.666943,-34.583702,-93.397865,-28.323326,-94.256859,-20.320358,-85.1437,-12.210617,-65.388451,0.0,23.739143,30.225715,53.518279,47.890409,67.724764,60.27044,80.91527,67.687097,87.045357,0.0,17.694511,0.560532,11.151524,18.678703,25.973625,35.928383,41.126518,51.272278,55.825825,0.0,-61.463427,-28.612578,-46.457614,-24.997123,-45.446512,-21.062633,-42.554926,-18.042266,-79.510602,32.265444,276.096466,-170.941458,43.613019
87,-0.122452,-0.376245,2.617722,3.101476,0.0,-66.02663,-33.667831,-94.393559,-26.93882,-94.406204,-18.741302,-84.939537,-10.586357,-64.344234,0.0,24.051291,30.458205,55.579385,48.048304,69.654341,60.187818,82.457857,67.297081,87.85157,0.0,26.814308,2.292767,14.491825,19.379425,27.928276,36.447029,44.172707,51.917896,61.892624,0.0,-63.908095,-28.34066,-46.468173,-24.164789,-42.570487,-20.480296,-37.851768,-17.639931,-79.80225,31.806049,276.293573,-168.660679,47.287848
88,0.080452,-0.84524,4.879475,3.574299,0.0,-65.688515,-33.28228,-95.769939,-26.411476,-95.843067,-18.288803,-85.86153,-10.278625,-64.580269,0.0,24.039497,31.200198,56.075611,48.794496,69.19356,60.771915,81.378151,67.679563,87.260001,0.0,34.90242,3.797207,14.634762,21.151028,27.816639,38.469772,43.165512,53.827057,66.639004,0.0,-64.181989,-27.918998,-46.528102,-22.525778,-41.17996,-17.9401,-34.36182,-15.082878,-77.246184,32.158098,275.479286,-163.509607,50.893099
89,0.734138,-0.326351,6.517239,3.800583,0.0,-66.013699,-33.474083,-96.358624,-27.033463,-96.837902,-19.491348,-87.0298,-11.988258,-65.512104,0.0,23.092308,30.645433,54.890065,48.348473,67.872657,60.535534,79.981974,67.921933,86.754142,0.0,35.837402,4.443455,15.952377,22.12738,29.193592,39.894733,44.745655,55.595226,73.645248,0.0,-62.04456,-26.50834,-42.876553,-19.96891,-37.408554,-14.271446,-30.542279,-10.364436,-71.391226,33.473568,275.314135,-156.411037,54.854882
90,0.123024,-0.248237,5.44035,7.837764,0.0,-66.543446,-33.491249,-97.732887,-27.384109,-98.958549,-20.092964,-88.374023,-12.501297,-66.383915,0.0,20.688735,29.846506,52.672546,47.641801,65.537565,59.985153,77.859736,67.473131,86.211541,0.0,42.858238,8.238487,18.832684,26.071701,31.369514,43.67403,46.690636,58.655949,79.358082,0.0,-55.972549,-25.709506,-41.603043,-18.16234,-36.618241,-10.941864,-29.495949,-5.047787,-62.038601,34.164705,275.575447,-150.402575,63.202195
91,-0.503197,-0.996775,9.414825,9.773546,0.0,-65.758152,-33.062553,-98.375645,-27.088737,-100.272732,-19.89933,-89.404564,-12.247009,-67.17453,0.0,19.898329,29.524477,51.896034,47.875959,64.757534,60.573758,78.128721,68.118114,87.100438,0.0,38.830605,9.013767,20.449219,26.257954,32.757797,43.059254,46.33604,57.773666,83.109913,0.0,-54.793827,-22.792077,-39.719347,-13.995391,-32.91263,-5.958483,-25.846839,0.465845,-54.78123,33.924208,274.895729,-140.72505,73.292799
92,0.074272,-1.556604,11.213264,7.261231,0.0,-66.146965,-33.763962,-99.227028,-28.076935,-101.318607,-20.873909,-89.705658,-13.068352,-68.118954,0.0,19.282184,29.679101,50.755134,48.075166,64.941365,60.963403,78.955312,68.722898,87.373004,0.0,31.011829,10.163383,20.361042,25.307407,31.234188,40.470543,43.506374,53.995171,87.428684,0.0,-44.468355,-14.369846,-32.134359,-5.392108,-25.603666,2.751413,-21.354836,9.724887,-39.026353,34.262323,273.570041,-129.247942,80.784946
93,-0.667877,-0.396067,14.121952,7.836004,0.0,-66.540871,-33.401985,-99.71077,-28.093185,-101.93367,-21.219521,-90.576324,-13.683357,-68.38932,0.0,17.763556,28.542893,49.194021,47.1013,63.270213,60.105381,77.380553,67.798556,86.467682,0.0,28.758545,11.498451,21.929111,22.60603,29.865704,32.513123,37.976818,40.640202,52.458858,0.0,-24.31475,-16.235604,-14.319643,-12.425572,-9.494157,-6.883936,-5.655381,-0.982109,-2.748109,33.591356,273.533438,-115.12908,88.980414
94,1.107559,-1.478737,16.881638,44.078432,0.0,-66.390209,-34.549255,-100.931683,-29.511337,-102.692299,-22.663536,-90.963707,-15.055733,-69.087353,0.0,17.088747,27.841038,47.77475,46.403088,62.537112,59.654541,77.437795,67.854811,86.260015,0.0,30.748215,19.932404,37.951241,19.68647,32.085915,20.603142,42.27356,22.071304,67.454796,0.0,-58.396407,-12.092213,-57.08699,-10.311948,-61.254896,-9.400821,-56.230049,-7.979635,-36.250672,34.55924,272.164956,-98.387117,133.169101
95,-2.159615,-1.273479,-9.888268,1.206788,0.0,-65.225372,-33.778954,-99.356747,-28.830528,-101.939964,-21.908913,-88.943882,-13.932152,-66.760712,0.0,17.115176,27.82313,48.012119,46.467556,62.48376,59.710734,76.734026,67.678143,85.693146,0.0,48.44038,28.474159,62.103767,34.27597,68.452206,38.961124,78.908386,42.731552,100.514488,0.0,-47.450066,-8.417384,-60.820513,8.454249,-54.09262,22.252996,-35.32599,33.230428,4.946084,32.117844,270.833803,-108.557167,134.318215
96,0.81562,-0.900136,21.119213,46.557896,0.0,-65.756149,-35.160942,-100.389118,-30.12394,-102.810631,-23.012123,-90.100708,-14.976082,-68.429489,0.0,18.889204,28.256927,47.801797,47.06814,62.578732,60.277294,77.055313,68.285767,85.57156,0.0,57.356443,28.517418,68.07684,27.880182,68.323832,25.919781,69.035854,23.020907,68.36689,0.0,-41.066741,-4.703343,-43.957185,-7.803214,-58.457972,-10.139417,-49.198591,-10.572751,-22.396504,33.100033,269.932278,-87.271385,180.874722
97,0.783806,1.096626,21.119213,46.557897,0.0,-65.945435,-35.181999,-100.183411,-30.625877,-103.261871,-24.105835,-90.209999,-16.861839,-68.920956,0.0,18.177531,27.817326,47.34225,46.363074,62.009146,59.423224,76.035073,67.712538,83.990811,0.0,66.272507,28.560677,74.049911,21.484394,68.195457,12.878437,59.163322,3.310261,36.219292,0.0,-34.683416,-0.989303,-27.093858,-24.060678,-62.823325,-42.531831,-63.071192,-54.375931,-49.739092,34.488001,270.477101,-65.54801,226.880817
98,-1.819267,1.528693,-17.232914,-30.929423,0.0,-66.026115,-33.807907,-98.540955,-29.321938,-101.743412,-22.978592,-88.559761,-15.923195,-68.365688,0.0,16.81439,28.177392,46.803972,46.521896,62.419601,59.11194,75.797828,66.572255,82.830027,0.0,61.064987,43.022804,102.787228,43.063774,107.420597,41.054707,103.208256,37.118912,90.235119,0.0,-12.80895,8.899099,-7.380224,25.341505,6.320278,38.368989,29.191458,47.975933,44.382738,33.093853,271.797634,-82.355804,195.743233
99,2.635803,5.074525,7.075481,20.564925,0.0,-49.653625,-37.696724,-100.277538,-35.823097,-104.848194,-30.598183,-93.499031,-23.035583,-71.461315,0.0,3.790549,20.648782,40.958863,36.969725,56.54547,50.103852,68.670719,59.977125,77.492692,0.0,63.26849,33.528957,102.618942,29.686832,108.080635,25.192451,100.851974,20.164318,83.128166,0.0,-7.575355,11.98594,10.428471,26.172109,21.732378,37.39395,41.13479,45.268239,52.372686,35.872765,276.635763,-75.137215,216.071762
100,-0.097961,4.054038,42.817898,69.16676,0.0,-56.600418,-29.85466,-94.891376,-29.566269,-105.002804,-27.9776,-94.429836,-23.489342,-72.052917,0.0,-14.47337,23.866287,32.735128,38.496195,50.012338,48.923925,62.506978,56.62309,73.831324,0.0,65.190411,42.910023,140.083981,30.76395,80.977077,15.921879,2.236977,2.043514,-4.750671,0.0,-15.58389,13.830549,-10.782857,6.25507,-1.826824,-3.610794,17.003161,-15.10341,9.49604,35.46032,280.626059,-32.633801,285.17478
101,-10.942154,-2.061105,-17.177982,-32.06563,0.0,-50.064983,-33.553276,-73.995552,-28.697891,-65.307198,-22.128067,-66.890545,-13.180389,-62.03001,0.0,5.436136,25.213928,25.817538,39.190269,33.108842,49.365008,48.744231,55.980824,70.756957,0.0,60.075073,28.61475,83.858643,29.824963,82.319984,30.999985,80.257759,30.533295,67.737808,0.0,12.824881,23.762361,27.041926,46.896289,35.175443,62.68661,51.423829,72.407113,66.312532,24.378004,278.530281,-49.951944,253.074477
102,-15.201416,40.547852,-4.984245,7.162801,0.0,-59.818382,-27.47263,-52.896023,-26.346245,-50.213585,-25.76952,-48.926296,-26.091728,-43.231716,0.0,37.59291,17.278815,15.546901,-3.553242,0.972445,-26.052561,-24.348002,-48.616223,-47.388625,0.0,66.100731,30.886173,97.61982,25.444107,95.468788,19.168568,86.960793,12.922325,67.700272,0.0,15.563203,27.75187,39.074364,46.083159,54.632936,58.196738,66.780045,65.724298,74.506936,9.112902,318.994385,-54.999876,260.153529
103,-10.240631,-14.929397,-1.393261,7.724915,0.0,-39.828758,-34.634686,30.847092,-35.396461,47.570686,-31.472912,40.385513,-23.993797,-24.978104,0.0,45.686104,16.841375,24.201036,10.85282,17.436155,3.802837,12.529159,-2.13323,24.246485,0.0,68.462849,33.691292,95.516682,28.304443,98.301373,21.763058,89.320736,14.635792,69.0695,0.0,15.393081,25.147361,38.807664,42.437168,53.206501,54.421626,65.393501,62.621031,76.713093,-1.214933,303.814991,-56.480341,267.628447
104,6.501389,11.242959,5.232239,2.742706,0.0,-51.689529,-29.737015,5.497169,-24.637184,21.47541,-18.949757,28.148003,-12.633476,3.794861,0.0,38.084999,11.585798,23.626819,-2.524295,18.883708,-17.708968,5.278919,-32.340482,-12.869527,0.0,64.891033,32.869549,94.128513,26.620674,95.281506,19.291935,84.844036,11.771679,65.653095,0.0,15.848675,26.830307,44.1274,43.706633,57.179832,55.857941,69.795317,64.254762,78.831934,5.799465,314.916604,-50.735092,270.229806
105,-26.894703,-23.229702,4.512749,-0.018155,0.0,-19.836903,4.68132,45.88995,10.488224,46.948986,10.715733,41.972637,7.716751,5.159912,0.0,46.772047,25.178792,36.563345,28.30256,39.241214,27.359138,35.940098,25.453458,37.555983,0.0,63.077717,32.660122,94.512119,24.96151,93.568096,16.100521,81.270046,7.328968,61.847019,0.0,20.142676,29.442349,50.713884,46.451933,62.495307,58.240519,73.819283,65.858667,81.737847,-20.476427,291.454874,-45.603533,269.979625
106,-2.983818,20.224804,1.59708,1.839051,0.0,-25.048714,1.732349,43.949032,9.557304,61.239452,13.86961,67.408619,15.725613,46.256962,0.0,42.833173,16.498413,32.132444,2.601977,25.250484,-13.177723,12.292222,-28.807061,-5.115651,0.0,61.936684,31.281281,94.448547,23.341026,92.368126,14.179974,79.374619,5.269775,59.02256,0.0,17.647897,29.001081,50.907472,46.376288,64.377151,58.077003,74.086354,65.044796,78.03838,-23.155804,311.615751,-43.702011,271.754748
107,-8.508339,3.992967,-0.735226,-0.223845,0.0,-16.529446,7.521229,46.671696,14.320107,72.333469,19.139214,78.413944,21.720085,64.063969,0.0,39.597822,13.123568,28.686833,-3.72639,19.855104,-22.080342,5.435518,-40.096272,-15.408951,0.0,63.076801,30.737286,93.416233,22.867928,92.015591,13.712139,79.936352,4.643669,59.053974,0.0,18.287693,28.13534,51.936234,45.756747,66.360574,57.846242,75.542552,65.096976,77.999107,-31.485243,315.590702,-44.258337,271.512887
108,4.8983,-13.549646,-0.891209,-0.501105,0.0,-17.183418,5.832996,48.545437,12.038441,64.664097,14.030399,63.662624,14.093628,35.039463,0.0,43.628827,19.117001,34.408009,11.491258,31.215574,1.252978,23.009192,-8.902989,13.82672,0.0,62.202415,31.300335,92.963448,23.402939,92.505455,14.127617,79.43985,4.884739,58.038368,0.0,18.455037,28.151642,51.35578,46.294778,66.196812,58.741314,74.806302,66.155192,76.512465,-26.306877,302.038216,-44.86948,271.008942
109,3.551388,11.444451,-1.628723,-1.447121,0.0,-34.072437,-0.065861,42.598228,7.355976,59.570618,12.47366,65.131187,15.917702,43.286247,0.0,36.630406,12.950296,28.241551,-2.473907,20.763638,-19.163932,7.981611,-35.482157,-10.376971,0.0,64.169655,31.308117,94.472122,23.067341,94.17366,13.681698,79.982986,4.580669,57.114716,0.0,20.033254,29.326444,52.329337,47.255367,66.727433,59.299909,74.42771,66.277149,76.372477,-22.346592,313.491651,-46.089306,269.570806
110,6.771641,-6.409322,-0.241413,-0.580392,0.0,-40.945358,-4.526024,36.380253,2.744808,51.545277,6.609135,53.984928,8.151913,17.709103,0.0,38.648533,16.5325,30.169214,6.121751,27.708336,-6.130951,18.415023,-18.375873,8.782885,0.0,63.564777,31.557713,94.29388,23.525333,94.263783,14.367828,80.90189,5.253811,58.406925,0.0,21.066277,29.949259,52.842483,47.70312,66.536933,59.717774,74.939806,66.643947,76.483443,-15.103769,307.146163,-45.859537,269.054248
111,4.947968,-6.10409,0.097847,-0.073977,0.0,-34.876328,-9.105835,39.344616,-5.828934,49.009724,-5.343475,45.241528,-6.627159,-9.634495,0.0,39.614927,17.986166,33.99953,12.19373,32.739574,4.217924,26.877608,-3.512302,25.086969,0.0,63.451939,31.241341,93.782673,23.14127,94.028263,14.019527,80.735493,5.111675,58.036366,0.0,21.071649,30.261098,52.84767,48.136299,66.321116,60.075803,74.92548,66.768189,76.289979,-9.773111,301.081146,-45.379,269.019344
112,-1.061611,-7.609565,-0.361176,0.069469,0.0,-28.561764,-7.395973,43.016167,-4.972572,50.378952,-5.985718,42.933311,-9.046326,-19.342632,0.0,37.139909,19.975394,36.132142,21.211884,39.119318,19.452121,37.504668,17.71854,42.374182,0.0,63.992329,31.036263,94.143162,23.020992,94.264584,14.165897,81.439877,5.555935,59.288578,0.0,20.703122,30.067511,52.339155,48.096593,66.099432,60.091672,75.023107,66.666362,76.318322,-10.425053,293.532606,-45.330505,269.149838
113,0.274086,13.486846,-0.017738,-0.203591,0.0,-36.659889,-11.039543,38.096581,-7.411251,51.690674,-5.328197,51.398163,-4.277344,1.919975,0.0,34.341998,13.183281,30.927138,3.819819,27.193646,-7.363737,19.456073,-17.941582,12.572569,0.0,64.523792,30.925255,93.668346,22.758179,94.15163,13.588028,80.93668,4.692936,58.07539,0.0,20.636185,30.353292,52.642535,48.574047,66.260477,60.596544,75.149634,67.180743,76.533214,-9.727478,307.051639,-44.924755,268.978434
114,-9.449902,-3.520576,0.182819,0.153697,0.0,-29.195995,-3.344364,47.2859,1.731892,61.654301,4.570427,62.802601,5.614758,17.458935,0.0,38.318415,18.293992,35.407686,8.246212,31.702353,-4.186987,22.038969,-15.999964,15.163308,0.0,64.862366,30.558472,93.326569,22.42012,94.029694,13.521881,81.410294,4.930286,58.249626,0.0,20.389554,30.064361,52.359162,48.378113,66.16816,60.413516,75.032802,66.91818,76.632138,-18.857031,303.523992,-44.421587,269.125061
115,2.527771,-1.186411,-0.856133,-0.249657,0.0,-33.19519,-4.379482,45.359974,0.93298,60.168972,3.539658,60.231686,3.840981,11.095219,0.0,38.482548,15.788716,33.482988,8.098505,31.21014,-1.612859,22.936573,-10.548823,18.965157,0.0,65.613556,30.897503,94.183388,22.563744,94.682808,13.503284,81.197319,4.823627,56.93985,0.0,20.328977,29.792907,52.492481,48.348103,65.916651,60.678178,75.095911,67.325424,76.533399,-16.132336,302.325092,-45.080795,268.862915
116,-0.46526,0.28115,-0.032616,0.199577,0.0,-28.826981,-4.588509,46.509247,-0.369873,61.546555,1.897659,61.010399,2.44463,14.632759,0.0,38.171202,14.561179,34.003482,6.822309,30.522611,-2.772099,22.939846,-11.701271,18.664556,0.0,65.562172,31.526527,93.982658,23.121929,94.392471,13.67506,80.742989,4.545879,56.501312,0.0,20.206155,29.871762,52.412206,48.230283,66.184586,60.345405,74.785306,66.849082,76.456273,-16.449423,302.606412,-44.965239,269.062662
117,2.632313,6.119836,-0.404091,0.061997,0.0,-35.969353,-7.956619,41.768246,-2.258606,57.840557,1.940689,60.530262,4.543819,21.128368,0.0,39.387439,13.56107,29.861202,0.497523,24.619581,-13.807269,14.669613,-27.530495,4.993324,0.0,65.475883,31.466846,94.689331,22.973614,94.756279,13.49659,80.816116,4.365749,55.414925,0.0,19.966378,29.836379,52.170021,48.355019,66.140866,60.530533,74.717381,66.92979,76.841286,-13.670111,308.722358,-45.22233,269.120769
118,3.68042,4.672839,0.16325,-0.055575,0.0,-39.68811,-12.660999,34.127827,-6.885166,53.660259,-1.798267,58.993664,2.082653,24.632893,0.0,38.585362,10.140344,26.076087,-5.258665,20.937589,-21.159026,9.710314,-36.39946,-5.236003,0.0,65.31126,31.404934,94.576893,22.826557,93.779583,13.357201,80.004559,4.266071,54.690571,0.0,20.282973,29.850705,52.058623,48.4348,66.400589,60.616242,75.250349,66.981166,77.466695,-9.881744,313.377166,-44.951134,269.047163
119,-7.387218,1.808114,0.306644,0.110965,0.0,-30.407696,-5.966148,43.566055,-0.455818,63.148727,4.326153,69.624138,7.766876,45.495415,0.0,39.401703,9.449913,26.967825,-7.886701,19.538757,-25.583937,6.748147,-42.597904,-12.385342,0.0,65.286598,31.117802,94.148369,22.585144,93.539543,13.211346,79.907455,4.161472,55.368462,0.0,21.053494,29.672123,51.667249,48.221823,66.095047,60.389309,75.243309,66.841239,77.155226,-17.181873,315.201705,-44.5574,269.174554
120,1.076317,2.721711,0.566254,-0.236072,0.0,-30.818996,-9.074593,40.162468,-3.972931,63.45005,0.978298,70.002594,4.776592,50.030251,0.0,37.295643,6.189429,23.999545,-12.893301,16.744056,-31.92379,4.44356,-49.790716,-15.556967,0.0,64.930344,31.113453,93.797722,22.331371,92.973289,12.627354,79.074669,3.308086,54.261818,0.0,21.244673,29.544176,51.946731,47.988283,66.517112,60.053017,75.252016,66.398304,77.45311,-16.049452,317.941694,-43.935041,268.95676
121,10.657368,0.491595,-0.653229,-0.71507,0.0,-44.499149,-17.778568,29.342136,-13.183022,52.710514,-7.807617,58.672085,-3.458691,34.556866,0.0,33.861209,8.498894,20.567642,-10.309725,15.284524,-29.603333,2.492741,-48.112586,-17.082757,0.0,64.493179,31.911507,94.520874,23.406429,93.736954,14.0938,80.773315,4.994717,57.83226,0.0,22.230519,29.302361,51.608524,47.735291,66.705821,60.052584,76.091081,66.837226,78.083828,-5.377808,318.442598,-44.573994,268.250999
122,-6.727066,-2.570731,0.399456,0.626149,0.0,-36.543732,-10.643063,32.717915,-5.315151,57.878666,-0.156555,63.750858,3.403187,39.946461,0.0,35.639744,9.479182,24.065124,-8.190019,18.053659,-26.70446,5.093915,-44.45406,-13.88668,0.0,63.80991,31.790314,94.285984,23.56144,93.535709,14.291668,80.805645,5.209351,59.052258,0.0,20.746718,28.509115,51.926045,46.933339,66.213608,59.420754,75.089612,66.422633,76.871421,-12.074203,315.902742,-44.143867,268.908023
123,5.906525,2.484404,-0.127888,-0.045881,0.0,-42.663631,-18.353806,28.986454,-12.899208,53.417416,-6.735191,60.377941,-1.49889,35.490246,0.0,33.492497,6.212709,19.548884,-12.274562,14.990345,-31.080279,2.121806,-48.996482,-17.726012,0.0,63.519859,32.320461,94.084969,24.179478,93.696899,14.776726,80.656357,5.41523,58.588486,0.0,20.707383,28.162016,51.733631,46.358072,66.296169,58.81949,75.197737,65.958085,77.119287,-6.134863,318.38957,-44.238939,268.864567
124,1.513882,0.281335,0.945625,0.076632,0.0,-45.454102,-18.691463,24.998245,-13.384209,49.811897,-7.21653,57.846794,-1.829224,35.334091,0.0,33.869298,7.995814,20.225483,-10.637188,15.463538,-29.659773,2.993783,-47.834771,-16.646923,0.0,62.6548,32.03476,93.583603,23.799019,92.727814,14.273472,79.239235,4.828892,57.606239,0.0,20.644398,28.744076,51.61297,46.884494,66.299071,59.225685,75.008534,66.343531,77.242602,-4.536381,318.663356,-43.208714,268.93365
125,-11.473675,-3.28963,0.423374,0.056563,0.0,-32.654114,-5.606403,39.210377,0.0737,63.159313,4.489918,68.841763,6.992226,41.539822,0.0,37.3435,10.30213,24.65941,-7.50249,18.071814,-25.923749,3.933316,-43.74356,-15.409383,0.0,63.222942,31.606636,93.417492,23.246555,92.71059,13.676376,79.515324,4.16748,57.162952,0.0,20.838541,27.960587,51.79674,46.160965,66.533537,58.603055,74.96395,65.779565,76.959662,-15.982847,315.386478,-42.758131,269.002965
126,6.715965,0.498696,0.097675,0.397858,0.0,-41.322899,-13.821774,31.611156,-7.524433,54.465923,-1.60881,61.973019,2.820969,36.537495,0.0,35.69427,9.491656,23.166593,-7.935669,18.679561,-26.006865,6.030854,-43.362189,-12.505508,0.0,62.403717,32.250652,93.709946,23.994656,92.380028,14.310322,79.008751,4.640408,56.994896,0.0,20.351701,27.821463,51.834716,45.909147,66.360821,58.356424,74.738994,65.687927,76.779474,-9.250889,315.881901,-42.644463,269.39755
127,-13.007927,-4.94979,-0.035362,0.365995,0.0,-23.806515,1.229382,48.89677,6.668301,69.842434,9.918995,73.614864,10.945873,43.053303,0.0,39.38997,11.307118,28.566914,-3.364039,22.86309,-19.119471,10.499917,-34.204603,-4.314193,0.0,63.217735,32.017994,93.387451,23.806629,92.503738,14.089737,78.857117,4.338455,55.851746,0.0,19.9975,27.614722,50.867396,45.715683,66.143089,58.104915,74.377815,65.334097,76.374453,-22.239447,310.916829,-42.660456,269.748261
128,16.570015,0.39724,-0.030556,-0.676105,0.0,-39.85136,-14.702625,33.330517,-9.859371,52.020092,-6.292248,53.58427,-4.085541,9.218502,0.0,38.112293,10.790082,26.424422,-2.597778,21.976972,-16.779192,11.450996,-30.528539,-0.458312,0.0,62.941017,31.427479,93.464584,23.175888,92.787895,13.677864,79.359055,4.191456,56.279984,0.0,20.820016,28.331892,51.223696,46.571975,66.458819,58.961516,74.923195,66.076028,76.946941,-5.651636,311.344497,-42.673216,269.102584
129,-7.475853,-11.693367,0.632515,-0.165738,0.0,-26.492271,-4.028721,46.212559,-0.475788,58.460598,-0.434704,54.465122,-2.60788,2.483826,0.0,40.741069,17.382,32.420881,11.944567,32.405813,4.415525,26.378726,-2.519849,23.285154,0.0,63.274956,31.637535,93.388824,23.306808,92.809868,13.586483,79.359741,3.891277,56.323242,0.0,20.405424,28.395865,51.926724,46.545917,67.143384,58.893961,75.334391,66.01224,77.303241,-13.151865,299.651485,-42.065077,268.9372
130,8.290844,-5.167521,-0.501251,-0.111583,0.0,-34.843597,-11.552525,37.09259,-8.471546,47.710991,-8.753242,41.110268,-11.220245,-20.094395,0.0,41.651023,18.128007,33.087847,17.855687,35.861058,15.311694,33.895604,12.814939,37.366595,0.0,63.254128,32.555294,93.832283,24.276695,93.581543,14.485703,80.035973,4.598007,56.54068,0.0,20.662182,28.468298,51.585183,46.625884,66.929975,58.992824,75.391943,66.183165,77.484973,-4.879589,294.485214,-42.584896,268.826868
131,-10.449657,-13.229902,0.194321,0.096269,0.0,-12.408199,0.299835,53.081074,0.950546,57.412434,-2.640324,42.743626,-8.504791,-25.051346,0.0,35.226634,21.692487,37.190606,32.340543,48.397318,38.841256,52.681932,44.521677,63.241746,0.0,62.689705,32.262897,93.475571,23.988819,93.191185,14.185238,79.246902,4.260063,55.375671,0.0,20.576966,28.618105,51.603646,46.640333,67.15876,58.907917,75.388114,65.985379,77.423222,-15.34215,281.256778,-42.403479,268.924603
132,-2.853012,2.903381,-0.168629,-0.029764,0.0,-13.310337,2.143993,54.099369,3.932991,61.03323,1.084099,47.100391,-4.613972,-17.917957,0.0,39.524648,21.408806,37.292432,29.356022,46.163435,33.551345,48.048984,37.34103,56.509161,0.0,63.106556,32.304211,93.786564,24.087296,93.425617,14.36594,79.784603,4.549084,56.308537,0.0,20.484217,28.594208,51.648353,46.641939,67.011115,58.879821,75.358844,65.917392,77.301821,-18.200827,284.161409,-42.577772,268.89609
133,0.927315,-7.772771,-0.098705,0.380074,0.0,5.131016,4.120216,58.795223,1.949787,58.741665,-3.788166,41.355114,-10.542812,-27.154541,0.0,20.686018,21.955606,39.299938,36.637013,53.138885,45.816397,59.956748,53.368288,71.14654,0.0,62.545395,32.020397,93.605232,24.032249,93.59848,14.784393,80.089188,5.538425,57.483215,0.0,20.356394,28.410994,50.451383,46.765625,66.241705,59.286694,74.610491,66.57244,77.287989,-17.268677,276.359631,-42.671642,269.247157
134,-1.270866,-0.047239,0.434647,-0.287819,0.0,2.451725,5.408192,58.902912,3.777981,56.547489,-2.149029,37.155704,-9.145889,-28.912182,0.0,20.704234,22.641962,37.520106,37.751979,53.315676,47.367012,60.205478,55.375114,71.343585,0.0,62.177238,31.430397,93.29361,23.300056,93.167152,14.051685,79.322777,4.883308,56.096764,0.0,20.762588,28.847631,50.75149,47.180588,66.612948,59.528941,74.984575,66.50754,77.365856,-18.56349,276.269522,-42.260942,268.916468
135,2.53521,3.789005,-0.602474,0.138197,0.0,-2.809753,0.984764,54.981709,0.424576,58.68845,-3.353977,44.87669,-8.986301,-21.300373,0.0,26.996724,22.323206,38.888372,33.430438,49.850737,39.646173,54.385996,44.675497,63.534073,0.0,63.085499,32.221527,94.246159,24.065781,93.646946,14.653702,80.31435,5.303936,57.250385,0.0,20.76055,28.323247,50.820157,46.745803,66.262268,59.284533,74.875524,66.457955,77.366288,-16.046705,280.026046,-42.881842,269.022184
136,-0.076962,-0.964418,0.577126,0.058786,0.0,-2.608566,1.283512,55.403481,0.152149,58.503342,-4.073238,43.493958,-9.932384,-24.067097,0.0,25.531572,22.551806,38.982788,34.468092,50.543453,41.22297,55.92883,46.612731,66.056762,0.0,62.082081,31.357212,93.455143,23.249874,93.252697,14.028282,79.367237,4.890633,56.384068,0.0,20.561961,28.650956,50.391732,46.995892,66.288882,59.338379,74.622903,66.339579,77.281443,-16.138258,279.043149,-42.319307,269.062492
137,2.205276,1.856526,-0.551891,-0.046128,0.0,-2.466145,-1.375866,52.198563,-2.594318,56.153412,-6.528511,42.183723,-11.973495,-23.658657,0.0,25.243692,22.031621,39.282031,32.202222,48.724471,37.556292,53.190879,41.806387,62.186679,0.0,63.256187,32.163334,94.347382,24.021721,93.759041,14.684544,80.669746,5.461636,58.111382,0.0,20.658045,28.202833,50.653492,46.60353,66.005386,59.154363,74.741896,66.369837,77.30355,-13.95215,280.88132,-42.890368,268.998009
138,-4.186249,-0.546985,0.4739,-0.0628,0.0,-2.186623,1.887302,56.180534,1.835232,59.346085,-1.644459,46.06842,-6.826057,-15.977783,0.0,27.669804,25.270121,40.218229,34.234675,49.294489,38.264199,52.819512,41.46182,60.646068,0.0,62.377968,31.538887,93.518829,23.495464,93.431969,14.265633,79.830551,5.104408,56.905289,0.0,20.278094,28.605323,50.553395,47.010897,66.367799,59.433413,74.729422,66.55904,77.539622,-18.163147,280.320951,-42.441216,268.921825
139,-4.160328,-2.707756,-0.496788,-0.061133,0.0,2.079163,5.916595,61.269894,5.86956,62.624416,1.770573,49.201069,-3.701477,-11.346302,0.0,30.063991,25.732323,40.877414,36.711423,51.320335,42.399315,55.617979,46.912158,64.515472,0.0,63.329887,32.157383,94.290276,23.965244,93.745995,14.579144,80.597191,5.326481,57.934227,0.0,20.697009,28.29336,50.980152,46.677939,66.129998,59.195612,74.89763,66.368602,77.446564,-22.353373,277.597233,-42.967901,268.844729
140,-0.060997,-1.483924,0.490723,0.113065,0.0,4.845943,6.596889,61.740475,5.983372,62.097416,1.285686,48.089046,-4.515953,-13.486862,0.0,27.997822,26.160006,40.567798,38.650633,52.419925,45.488997,57.570527,50.907287,67.705066,0.0,62.436562,31.669693,93.542862,23.617001,93.402214,14.365883,79.824142,5.189209,57.027283,0.0,20.200536,28.669975,50.558273,47.045848,66.331119,59.424027,74.730102,66.500748,77.467312,-22.438688,276.097145,-42.501497,268.941631
141,-0.789127,3.984445,-0.432816,-0.175186,0.0,-0.271683,6.879559,60.328102,7.207375,64.596748,3.701591,54.287682,-1.222286,-0.166798,0.0,35.709399,25.913066,41.654728,34.488717,49.677774,38.074193,51.384741,40.731189,57.775414,0.0,63.220367,32.150116,94.211426,23.944874,93.678246,14.530392,80.402412,5.25095,57.650757,0.0,20.702381,28.367398,51.099577,46.766304,66.307284,59.262611,74.975621,66.408678,77.512081,-23.250961,280.067048,-42.957458,268.751903
142,0.095215,2.33361,0.332737,0.145978,0.0,-3.468647,6.055298,58.769302,7.122231,64.648476,4.290104,55.418701,-0.136242,2.659492,0.0,37.161151,25.755912,41.280768,32.205063,47.832487,33.929628,48.262208,35.039716,53.210392,0.0,62.413502,31.845074,93.621197,23.770123,93.519344,14.46722,79.925709,5.212097,56.990719,0.0,20.315639,28.547648,50.582788,46.963905,66.382866,59.396425,74.792037,66.526745,77.473796,-23.18058,282.384603,-42.649555,268.881826
143,1.133022,0.259722,-0.209141,-0.175803,0.0,-4.578323,5.274181,57.216511,6.436443,63.310261,3.658791,54.292316,-0.786438,1.409397,0.0,36.578721,25.662421,41.207161,32.036237,47.654151,33.728569,48.057505,34.883487,52.956412,0.0,62.976151,31.930218,93.861923,23.760052,93.581429,14.390831,80.157051,5.107727,57.179604,0.0,20.633221,28.456813,51.092106,46.850223,66.554841,59.321645,75.088254,66.448013,77.604089,-22.067499,282.627745,-42.878637,268.689442
144,0.018654,1.765691,0.281181,0.073853,0.0,-6.445427,4.843082,56.708164,6.405087,64.08411,4.041653,55.912571,-0.138874,2.844601,0.0,37.480833,25.252584,41.359253,30.039044,46.404138,30.313154,45.735443,30.282896,49.637204,0.0,62.606964,31.796722,93.495941,23.663063,93.306656,14.311581,79.783974,5.013313,56.789017,0.0,20.438645,28.576856,50.902285,46.951555,66.626163,59.404884,74.995875,66.554162,77.660282,-22.070761,284.376888,-42.619371,268.746747
145,-4.451122,-7.678478,-0.917645,-0.199824,0.0,7.701187,12.3139,64.65786,11.988029,68.260345,6.826973,57.233734,-0.071239,0.680523,0.0,30.831178,24.573576,41.446568,37.324543,53.413118,44.594913,57.146054,50.460275,65.741712,0.0,62.864399,32.431183,94.189281,24.485035,94.447346,15.276203,81.083965,6.116524,57.928905,0.0,20.665887,28.856894,50.681033,47.347993,66.431525,59.898949,74.995196,67.170554,77.564075,-26.529551,276.686244,-43.544683,268.534758
146,-1.88364,2.996315,0.175037,0.088859,0.0,4.791527,13.701153,65.93359,13.479939,72.149906,8.762913,61.554737,2.234917,11.526947,0.0,35.998329,22.97492,41.166591,33.185721,51.128044,38.598886,53.35532,43.098083,59.361597,0.0,62.662125,31.895828,93.963318,23.935547,94.20536,14.794121,80.570984,5.693779,57.069397,0.0,20.719795,29.050296,50.603536,47.470876,66.47506,59.860788,75.001433,66.939114,77.364683,-28.412218,279.6787,-43.368673,268.619757
147,-0.027294,1.657937,-0.551262,-0.09596,0.0,2.189598,13.144398,65.801125,13.529491,72.334785,9.503345,62.151718,3.539028,13.390331,0.0,37.937539,22.326664,41.387596,31.408421,49.94009,35.875199,51.375972,39.552806,56.609258,0.0,63.539314,32.164822,94.719086,24.143257,94.57489,15.064888,81.364746,6.139698,58.212776,0.0,21.040094,29.314958,50.673376,47.72677,66.573798,60.09371,75.181621,67.120351,77.655342,-28.436708,281.332314,-43.917131,268.519474
148,-0.595722,2.761602,0.32198,0.073236,0.0,-0.147629,13.013706,64.987392,14.603176,73.549061,11.460686,64.709415,6.078987,18.838577,0.0,39.878046,22.067745,41.797434,28.689735,48.364528,30.912997,47.735538,32.719012,50.419767,0.0,63.006878,32.04998,94.524479,24.02338,94.354763,14.89048,80.974674,5.844784,57.762051,0.0,20.764564,29.188061,50.614837,47.595303,66.417261,59.98682,75.048548,67.0381,77.491518,-29.03718,284.085796,-43.599901,268.58459
149,2.831841,-4.93676,-0.009899,0.00105,0.0,3.491535,11.859398,64.358196,11.60677,68.570995,6.985474,56.744213,0.695858,4.716854,0.0,31.607936,22.329566,39.722311,34.354409,51.176765,41.332762,55.085567,46.971315,62.396877,0.0,63.109932,32.015076,94.389038,23.95998,94.287071,14.821129,80.923233,5.777321,57.611275,0.0,20.908875,29.185035,50.472872,47.59518,66.458449,59.983424,75.093379,67.038903,77.558394,-26.20966,279.135405,-43.61412,268.572009
150,4.665527,21.177798,-0.150375,0.058848,0.0,-19.675941,2.286129,50.50066,8.605156,67.161999,10.722656,67.311916,10.097237,31.39143,0.0,41.817811,16.610614,35.7052,9.429658,33.030234,0.054526,24.604946,-8.657778,17.501919,0.0,63.320732,31.92112,94.291191,23.938751,94.366608,15.022202,81.548538,6.248875,59.023819,0.0,20.980258,28.82855,50.716293,47.179106,65.947834,59.647131,75.088933,66.821356,77.492321,-21.562414,300.282852,-43.782778,268.600506
151,2.245102,2.549489,0.357513,0.156229,0.0,-23.251877,0.040054,47.619152,6.791153,64.299259,9.783497,65.519657,9.89994,31.370716,0.0,42.560916,15.004547,33.913265,6.424142,30.778505,-3.87842,21.773134,-13.641469,13.13493,0.0,63.251839,32.135525,93.861694,24.016285,93.988495,14.855518,80.989952,5.915737,58.410301,0.0,20.415798,28.699245,51.349481,47.152368,66.063678,59.71413,75.077262,66.932383,77.30213,-19.340973,302.815947,-43.448925,268.74034
152,-1.316814,-1.692702,-0.146198,0.000247,0.0,-20.455456,1.499462,49.658661,7.768936,65.847359,10.142326,66.176834,9.777832,31.303139,0.0,42.933765,17.291844,34.856564,9.168578,32.413718,-0.934345,23.549014,-10.545365,15.227343,0.0,63.046932,32.080078,94.122562,23.966846,94.161358,14.823589,80.991955,5.836773,58.04987,0.0,20.682559,28.811013,50.840349,47.071969,65.92511,59.511404,74.894049,66.682541,77.304415,-20.681162,301.109952,-43.618498,268.727295
153,3.20097,1.683131,0.091324,-0.100962,0.0,-22.579308,-0.898132,45.75079,5.038719,62.894726,7.258816,63.27673,6.780968,27.698879,0.0,42.337317,15.483422,33.271245,7.149648,30.462096,-3.067328,21.796475,-12.697428,13.379709,0.0,63.333836,32.164822,94.165821,23.921185,93.923435,14.649582,80.848217,5.622482,58.240528,0.0,20.550537,28.843062,51.359485,47.259628,66.174459,59.759826,75.104494,66.914846,77.353568,-17.500906,302.776179,-43.547888,268.609429
154,1.001358,-4.045887,-0.106487,0.016734,0.0,-20.65361,-0.361977,46.352177,4.318829,61.736927,5.110016,59.320507,3.192043,17.653255,0.0,42.322868,17.300428,35.080162,12.402879,34.124513,5.141092,27.377107,-1.609586,22.779603,0.0,63.143463,32.131462,94.111404,23.941097,94.10099,14.719505,80.960884,5.659904,58.153038,0.0,20.698368,28.776803,50.883389,47.082528,65.968891,59.565188,75.009646,66.76683,77.446132,-16.518602,298.711968,-43.673429,268.607839
155,-0.46629,-8.21157,-0.06094,-0.014388,0.0,-17.233543,1.165009,49.373817,4.484653,60.450897,3.503094,54.378662,-0.158958,4.434528,0.0,37.486823,20.681942,38.046343,22.661413,41.086995,21.109317,38.842121,19.657317,40.246881,0.0,63.457088,32.231197,94.223728,24.000721,94.069347,14.733582,80.933361,5.700531,58.242931,0.0,20.485884,28.796625,51.354915,47.209487,66.221327,59.720738,75.114807,66.905336,77.442365,-16.99625,290.487708,-43.745728,268.580762
156,-1.791229,21.350143,0.205307,-0.680737,0.0,-27.571564,-1.450481,43.000031,5.376549,62.905769,9.709396,67.213554,12.066364,38.196144,0.0,37.269029,9.528706,28.601185,-4.944911,21.308153,-20.460999,9.568165,-35.292707,-5.94959,0.0,62.997608,31.269493,94.228649,23.099728,94.132748,14.187298,80.985661,5.396004,57.954426,0.0,21.230286,27.639052,50.866408,45.755388,66.173409,58.242001,75.364217,65.77623,77.705977,-18.873968,311.80852,-43.626909,267.870694
157,2.818108,-18.664186,0.487976,-0.032851,0.0,-13.781891,-3.59127,49.479904,-1.620426,62.049065,-2.254429,56.270142,-5.307884,-4.94276,0.0,33.565239,16.968766,38.323417,16.588445,39.724102,12.718671,35.083373,9.640351,35.436956,0.0,61.560459,30.889606,93.222599,22.871418,92.769756,14.044933,79.921703,5.389595,57.957401,0.0,21.709592,28.352825,51.582342,46.178872,65.672119,58.429475,75.023663,65.49366,76.229093,-16.084785,293.112271,-43.167858,267.805779
158,-4.536152,4.489872,0.267792,0.386558,0.0,-17.178211,-0.664444,49.394131,4.207649,65.169811,5.195045,63.008823,3.4865,15.657177,0.0,38.273955,17.959119,38.072772,13.215638,37.514734,5.369198,28.809778,-1.781808,23.649358,0.0,61.553936,30.645275,93.68288,22.768536,93.736324,13.923054,81.216145,5.130043,58.57378,0.0,20.900168,28.671581,50.804719,46.288788,64.906352,58.343765,74.545159,65.240484,76.132206,-20.672579,297.554456,-42.951708,268.144649
159,-1.55777,9.633003,-0.154953,-0.012288,0.0,-20.136395,-1.439381,48.019924,4.936523,67.577076,8.288841,69.829273,9.213924,30.251827,0.0,37.813482,12.827537,32.416064,1.38605,28.344612,-12.057015,16.558867,-24.533068,4.737183,0.0,61.58987,30.805779,93.663197,23.005543,93.385677,14.200115,81.130543,5.451279,58.759861,0.0,20.913938,28.246923,50.85412,45.992324,65.172126,58.170061,74.751899,65.187069,76.367352,-22.287884,307.132825,-43.164196,268.077727
