takenoko1/special-research/HandMotion_SimilarSearch_自分用/NewProject/handData/test_key/d4_feature_d2/95.csv
frame,vel_0x_L,vel_0y_L,vel_0x_R,vel_0y_R,posFromWrist_0x_L,posFromWrist_1x_L,posFromWrist_2x_L,posFromWrist_3x_L,posFromWrist_4x_L,posFromWrist_5x_L,posFromWrist_6x_L,posFromWrist_7x_L,posFromWrist_8x_L,posFromWrist_9x_L,posFromWrist_0y_L,posFromWrist_1y_L,posFromWrist_2y_L,posFromWrist_3y_L,posFromWrist_4y_L,posFromWrist_5y_L,posFromWrist_6y_L,posFromWrist_7y_L,posFromWrist_8y_L,posFromWrist_9y_L,posFromWrist_0x_R,posFromWrist_1x_R,posFromWrist_2x_R,posFromWrist_3x_R,posFromWrist_4x_R,posFromWrist_5x_R,posFromWrist_6x_R,posFromWrist_7x_R,posFromWrist_8x_R,posFromWrist_9x_R,posFromWrist_0y_R,posFromWrist_1y_R,posFromWrist_2y_R,posFromWrist_3y_R,posFromWrist_4y_R,posFromWrist_5y_R,posFromWrist_6y_R,posFromWrist_7y_R,posFromWrist_8y_R,posFromWrist_9y_R,posFromBody_0x_L,posFromBody_0y_L,posFromBody_0x_R,posFromBody_0y_R
2,8.002338,1.810522,0.762863,0.703522,0.0,11.726074,-2.931976,47.550659,-11.804867,47.373505,-21.246586,39.427986,-29.951878,17.864456,0.0,-6.02295,14.312634,38.767958,32.320166,54.485847,45.989731,62.146047,57.583988,66.094862,0.0,67.284908,26.978531,90.696888,18.556137,90.803318,10.217228,76.985264,2.674084,56.24342,0.0,9.638745,29.379117,54.559453,47.21418,68.612921,59.150226,74.774253,66.385274,74.601784,-2.964935,272.486089,-44.781818,266.031133
3,0.731049,0.648071,1.032028,0.061812,0.0,10.09346,-3.25058,45.795021,-12.578716,47.538185,-22.482262,38.011436,-31.465816,15.984993,0.0,-6.850097,15.24525,37.91395,33.278532,54.728402,46.811135,61.266289,57.865632,64.710603,0.0,67.16898,26.323872,89.247952,18.090134,90.244732,9.875965,76.753178,2.38615,56.958218,0.0,9.343208,30.105364,55.003068,47.574493,68.286323,59.282372,74.687309,66.333589,74.865582,-2.780914,273.185444,-44.296818,266.144229
4,4.245758,1.250569,-0.142536,-0.119549,0.0,5.717125,-6.501389,42.987442,-14.382992,44.685059,-22.76207,36.504936,-30.75491,15.818481,0.0,-8.386756,14.086813,35.715389,31.682654,52.474574,45.163263,59.119968,56.335518,62.778803,0.0,67.034111,26.650543,89.197197,18.152618,89.8843,9.65023,76.539574,2.036533,57.013321,0.0,10.206479,29.939687,55.924569,47.425304,69.058264,59.279963,75.227254,66.474257,75.338158,1.00831,274.463368,-44.895887,266.052036
5,4.382858,1.076804,0.300179,0.185313,0.0,-1.059151,-10.924759,38.147964,-17.907772,40.156975,-24.837055,31.782646,-31.615906,12.755928,0.0,-7.776291,13.913973,34.023427,31.272138,50.346716,44.492716,57.001064,55.289096,60.599508,0.0,67.697639,26.543083,89.62944,18.051281,90.299263,9.525948,76.789169,1.865101,56.633034,0.0,9.766569,29.741283,55.397221,47.316809,68.729814,59.094774,75.160872,66.187426,75.334206,4.970484,275.599159,-45.016394,266.296336
6,1.100464,-0.080646,0.32856,-0.146472,0.0,-1.851196,-12.533913,37.164459,-19.967995,39.60331,-26.897392,31.178169,-33.640594,11.004639,0.0,-7.087712,13.880258,33.872139,31.36359,50.269281,44.914594,57.653087,56.053998,61.487602,0.0,67.424927,26.226883,89.691353,17.123337,89.901123,8.129082,76.141319,0.214291,55.251274,0.0,10.434029,30.077391,55.825892,47.569492,69.387271,59.096071,75.799125,65.821555,75.784613,5.663424,275.586284,-45.095358,266.217635
7,-6.685982,-1.832505,-0.002174,0.317027,0.0,7.289886,-6.516495,46.096344,-13.989143,47.368698,-21.433811,39.43222,-28.809471,21.016617,0.0,-5.157147,14.971079,36.087311,32.268172,52.271785,45.613733,59.377097,56.90708,63.562046,0.0,67.815857,25.865421,89.718132,17.147598,89.881325,8.675137,76.267548,1.277847,55.454979,0.0,10.630333,30.386204,55.581299,48.087207,69.210912,59.673066,75.439429,66.240346,75.475429,-1.217823,273.810713,-45.292797,266.591596
8,0.182991,-0.385631,0.052872,0.069901,0.0,10.347862,-5.934219,44.923668,-12.909622,46.07769,-20.335693,37.686882,-27.597141,16.62941,0.0,-6.750864,15.693003,35.243677,33.750182,52.510513,47.485079,59.203393,58.499809,63.350118,0.0,68.1744,25.923386,89.71962,17.08643,90.051155,8.5849,76.014061,1.21479,54.726562,0.0,10.349122,30.329024,54.982505,48.243374,69.481564,60.02702,75.341492,66.677107,75.163775,-1.284885,273.461931,-45.489979,266.698347
9,11.732254,1.739818,0.220814,-0.314433,0.0,-5.925751,-18.609009,29.785881,-24.694748,33.539314,-30.341663,26.336403,-35.399609,4.729156,0.0,-8.51427,16.404244,33.527942,34.152671,50.239518,47.404618,57.034286,57.616469,61.149457,0.0,68.090687,27.097664,90.363064,18.165665,90.464802,9.215412,76.328831,1.111221,54.996586,0.0,10.408032,30.852358,54.926189,48.40516,69.565174,59.917413,75.58658,66.489509,75.12481,10.273848,275.226789,-45.442686,266.408953
10,-16.685829,20.832304,0.120964,0.167467,0.0,13.630486,-0.61718,40.517006,-5.746193,53.248444,-8.648987,43.570518,-10.942383,26.094246,0.0,-19.550613,-5.159123,5.710122,11.587527,28.623354,26.942816,36.961388,40.614234,40.376989,0.0,68.688641,27.113056,90.295887,17.841511,89.882526,8.616199,75.675373,0.324955,53.943501,0.0,10.759083,30.383858,55.073525,48.009587,69.323297,59.448542,75.467278,65.910105,75.058305,-6.508884,296.089737,-45.418625,266.607064
11,21.073151,-20.37918,-0.384521,-0.003458,0.0,-12.469826,-20.833054,25.034523,-27.172737,28.537102,-32.123451,22.859116,-36.791611,3.528099,0.0,-11.719858,13.632824,29.695958,32.185241,48.470739,46.070006,55.71999,56.752272,59.599151,0.0,69.55965,27.327347,90.859394,18.284798,90.469723,9.331913,76.10693,1.208153,54.327106,0.0,10.972369,30.430109,55.280821,48.040586,69.39641,59.474415,75.587753,65.880156,75.261896,14.478378,275.722861,-45.889034,266.61591
12,-16.036034,17.124439,-0.746784,-0.236134,0.0,7.23896,-8.71067,36.46122,-14.372864,47.519188,-17.052612,38.681145,-17.852554,13.389015,0.0,-24.993047,0.788862,12.321615,16.365218,34.984881,30.028052,43.845448,40.694386,45.334188,0.0,70.026398,27.357616,91.718102,18.531017,91.549644,9.94154,77.572975,2.258434,56.20491,0.0,11.234438,30.936462,56.031336,48.687668,69.75166,60.035788,76.058415,66.177361,75.553173,-1.704597,292.890386,-46.782761,266.422863
13,30.783119,-16.89022,-0.18568,0.019081,0.0,-26.159592,-37.286453,7.686081,-44.69244,11.813965,-48.217335,6.833153,-49.500904,-11.635323,0.0,-7.967964,12.291049,32.519928,31.151848,49.631894,45.434224,57.093999,56.412151,60.887697,0.0,68.306866,28.047638,92.003918,19.32375,91.468906,10.671558,77.033672,2.808495,55.226498,0.0,10.277553,31.00093,55.475644,48.454807,70.262151,59.613354,76.574648,65.760545,75.014956,28.826866,276.016144,-47.220097,266.457921
14,-16.85257,14.454166,-0.729847,0.186548,0.0,-10.397186,-21.421509,26.05545,-27.493572,32.414131,-29.43346,26.104088,-29.221058,-14.670181,0.0,-19.549316,8.963134,26.508773,23.966138,40.005066,35.296165,45.706914,43.691566,47.25018,0.0,68.670044,28.695431,92.794075,20.337296,92.74498,11.935043,78.116226,4.237118,56.513901,0.0,10.677078,31.223787,55.149046,48.692732,70.034847,59.722652,76.364573,65.774254,74.813835,11.799946,290.459596,-48.124294,266.633756
15,-13.897591,6.355167,0.702553,-0.22576,0.0,3.015518,-4.889374,43.654518,-11.634407,47.714767,-16.32185,39.449615,-19.131947,3.569412,0.0,-25.019167,2.167069,18.896614,16.467909,35.09807,28.46589,40.799423,37.999598,45.771258,0.0,68.816299,27.795353,92.202072,19.178352,92.352448,10.759449,77.675056,3.112335,55.823021,0.0,10.922289,31.753606,55.666823,49.354511,70.302474,60.399869,76.643623,66.342543,75.142656,-2.16608,296.810457,-47.490177,266.403689
16,22.386589,-20.203191,-0.380688,-0.32314,0.0,-18.185806,-27.553024,16.61087,-34.22184,21.273766,-38.507824,15.176239,-41.69426,-4.001427,0.0,-11.139589,11.016026,30.315933,30.120925,48.208238,44.582377,55.739874,55.811072,59.778968,0.0,69.459629,28.728676,92.734394,19.918671,92.141705,11.225624,77.383404,3.312092,55.443707,0.0,11.447291,31.473567,56.309213,49.215017,70.927696,60.484343,76.812881,66.550704,75.294192,20.1824,276.550594,-47.908974,266.023878
17,-13.919449,16.409863,0.253143,0.195625,0.0,-4.941788,-17.619152,32.827034,-23.876324,41.576729,-26.412449,34.933205,-26.728134,1.133995,0.0,-25.069926,4.432445,20.947469,20.29699,38.135572,33.140829,44.092017,43.079557,45.930697,0.0,68.750553,28.928261,92.50494,20.256958,92.487774,11.529694,77.351475,3.524094,55.842991,0.0,11.325828,31.633748,55.998114,49.279052,70.508041,60.428336,76.663322,66.455917,74.949192,6.168051,292.927251,-47.750731,266.186297
18,-18.573132,-6.129963,-0.201702,-0.185622,0.0,22.010479,2.798595,55.424137,-2.281265,57.32523,-6.205044,50.557537,-9.05714,17.821712,0.0,-10.70042,10.348937,29.038316,26.290485,44.653575,37.740493,49.905386,45.519501,53.564469,0.0,69.339294,29.201202,92.951088,20.350742,92.342377,11.488724,77.310104,3.411427,55.594597,0.0,11.649709,31.776762,56.240484,49.432316,70.552377,60.555603,76.810535,66.49729,75.166986,-12.497263,286.794524,-48.044615,265.997912
19,44.419956,-10.157017,-0.074272,0.2688,0.0,-29.692726,-41.262817,3.508186,-49.628105,7.623024,-53.172855,0.810356,-53.879814,-20.2668,0.0,-8.102395,13.485302,34.003667,32.155848,50.84745,45.897105,57.871992,56.2227,61.883546,0.0,69.167633,29.989414,92.614746,21.247444,92.410583,12.116833,77.019653,3.585033,55.254364,0.0,11.102354,31.888777,56.290194,49.196244,70.50767,60.114952,76.764716,66.142657,75.032617,31.858492,276.585684,-48.183088,266.214887
20,-24.424667,16.685641,0.03479,0.014264,0.0,-0.899506,-16.834946,30.968628,-23.406487,37.144089,-26.053963,29.425964,-26.219444,-5.833282,0.0,-23.357649,4.872293,22.863337,19.773964,37.899562,31.805661,44.32531,40.687223,44.464866,0.0,69.432678,29.28566,92.685242,20.529041,92.546539,11.61478,77.303352,3.503036,56.164513,0.0,11.05635,31.869264,56.259565,49.351794,70.143281,60.344849,76.536363,66.290858,74.920046,7.409391,293.244694,-48.172731,266.202522
21,-14.801331,-0.586382,-0.167542,-0.150795,0.0,17.131348,-0.216751,48.622856,-6.395931,50.531502,-11.135845,43.646622,-13.949604,0.270653,0.0,-19.109776,5.64232,22.675739,20.659588,38.50626,31.870252,44.240774,40.415953,50.881413,0.0,69.809303,29.394035,93.033257,20.557594,92.423973,11.60368,77.263527,3.528442,56.140137,0.0,11.23839,31.90051,56.51515,49.453929,70.416403,60.570362,76.505982,66.633882,75.16044,-7.438688,292.627514,-48.387022,266.020929
22,24.723473,-16.727322,-0.272598,0.310296,0.0,-12.545357,-23.660889,20.269547,-30.401573,23.7854,-35.338898,16.459808,-39.553871,-3.550644,0.0,-10.66584,13.491168,30.98506,32.21908,48.994012,46.186159,56.470628,56.896089,60.624455,0.0,70.052261,29.713097,93.436089,20.919571,92.994576,11.930122,77.713394,3.82267,56.391563,0.0,10.7371,31.339384,56.511137,48.967953,70.172427,60.252841,76.190437,66.453941,74.797904,17.26264,275.866338,-48.681765,266.29737
23,-21.995201,18.745881,0.234718,-0.230761,0.0,14.92321,-4.863396,42.87426,-10.773411,51.968422,-14.191017,42.901611,-15.768242,15.723038,0.0,-23.672391,-0.449358,12.238746,15.321636,33.493423,28.982,41.241062,39.831239,42.857812,0.0,69.925117,29.538975,93.246803,20.626431,92.490921,11.518307,77.234802,3.333721,55.856094,0.0,11.057832,31.678517,56.746035,49.249288,70.29105,60.444082,76.385568,66.525633,74.696756,-4.752932,294.58579,-48.467417,266.04018
24,19.063911,-18.932923,0.149002,0.297266,0.0,-9.254837,-19.963989,23.42823,-26.504345,26.916275,-31.719189,19.612541,-36.560555,-0.240211,0.0,-10.738088,12.830809,29.836441,31.85253,48.479878,46.250379,56.191393,57.387869,60.530594,0.0,70.297279,29.379616,93.32325,20.496254,92.706528,11.493416,77.485199,3.494453,56.475334,0.0,10.687947,31.200878,56.107906,48.883787,70.022559,60.246357,76.14925,66.492844,74.778761,14.291067,275.643419,-48.338327,266.327999
25,-20.173187,20.57147,0.108318,-0.748291,0.0,9.987259,-4.801941,41.415138,-10.685921,52.13562,-14.107933,42.731781,-15.644417,12.130966,0.0,-27.455839,-1.893947,7.586409,14.060507,31.472888,27.93002,39.969621,38.622721,40.333887,0.0,69.705219,30.253372,93.050137,21.083679,92.29723,11.546001,77.112064,2.970371,55.785427,0.0,11.730664,31.821716,56.511569,49.415891,69.873679,60.642054,76.78849,66.634746,76.164008,-5.918627,296.210582,-48.266516,265.5754
26,32.182045,-18.655417,-0.105114,0.292759,0.0,-22.472992,-33.18512,8.829117,-39.808731,11.840744,-43.181763,5.568466,-44.602661,-11.72596,0.0,-11.229868,15.189366,31.749592,33.220178,48.440234,46.457181,54.474237,56.039302,58.925763,0.0,70.043221,30.105515,93.258362,21.119785,92.888374,11.777229,77.852669,3.391514,57.098923,0.0,11.564247,31.889086,56.099138,49.482025,69.645017,60.722515,76.465782,66.770288,75.981165,26.259785,277.541364,-48.375263,265.854357
27,-16.627007,14.570627,-0.202618,-0.374084,0.0,-7.039375,-21.091919,28.858223,-27.280884,35.696526,-29.010029,26.743584,-28.125286,-16.716042,0.0,-22.507469,5.645161,23.476395,20.880161,38.241413,33.030728,44.52143,42.034308,44.688156,0.0,69.573956,30.2215,93.262653,21.016273,92.667789,11.521397,78.033199,2.990398,56.969662,0.0,11.533865,31.880132,56.026643,49.659434,69.889302,61.03633,76.858762,67.170122,76.423915,9.622164,292.101941,-48.588495,265.470224
28,-13.548431,2.861267,-0.087032,0.000494,0.0,13.011017,-5.597305,44.603806,-12.196426,47.69371,-16.405392,40.129166,-18.336411,2.99469,0.0,-24.87708,3.397878,20.300386,17.684639,35.016312,29.132424,41.889318,38.29742,48.468145,0.0,70.313187,30.223789,93.543205,21.075897,93.080635,11.566772,78.141975,2.999668,56.988487,0.0,11.690403,31.956579,55.996076,49.717541,70.190952,61.027129,76.865184,67.072248,76.230822,-3.901577,294.940762,-48.650837,265.448271
29,30.346642,-18.769161,-0.183678,0.183275,0.0,-25.079269,-31.323395,9.258957,-38.824253,10.833778,-43.16597,4.103851,-45.861511,-13.005524,0.0,-9.709017,14.843626,32.606132,33.576231,48.959185,47.400234,55.70659,57.361131,60.306626,0.0,70.445709,30.061684,93.794632,20.775604,92.815819,11.276779,77.94651,2.809525,56.276207,0.0,11.401843,31.727979,55.765068,49.698214,69.820512,61.152421,76.520864,67.244346,75.520754,26.483116,276.118881,-48.796463,265.578827
30,-21.466255,18.035813,0.446949,-0.419162,0.0,-2.141762,-14.992218,31.682053,-20.645943,38.999863,-22.832222,30.159874,-23.118553,-5.544891,0.0,-26.352853,3.49989,19.235747,18.888834,34.975804,31.31808,41.338752,40.754963,41.007028,0.0,70.261517,30.220242,92.93684,20.825043,92.104053,11.07811,77.042484,2.197952,54.845066,0.0,11.626182,31.945217,56.145512,49.820418,70.208798,61.241897,76.688145,67.396437,75.538476,5.05806,294.082015,-48.308315,265.086985
31,-6.490746,-5.115281,0.049725,-0.152956,0.0,8.364601,-9.008675,45.285301,-15.637321,44.395294,-19.287415,34.441338,-19.952431,-20.553246,0.0,-16.145571,6.597352,24.380483,22.41929,38.780123,34.313345,44.13339,43.341935,52.135317,0.0,69.958992,30.639153,92.641754,21.329784,91.155739,11.500912,76.32122,2.356052,54.06498,0.0,10.708942,31.842094,56.083021,49.379149,69.827736,60.657615,76.623184,67.023218,75.931456,-1.367798,288.919742,-48.193703,264.887037
32,26.949921,-14.334123,0.056992,-0.160551,0.0,-18.319588,-29.999542,12.225952,-38.867741,13.293343,-44.89809,5.356407,-49.103508,-14.776268,0.0,-12.967278,9.473192,31.341483,29.006947,49.72279,44.544586,57.97882,56.803031,62.613312,0.0,69.630432,30.300179,92.880363,21.405888,91.856461,12.054176,76.858864,3.424301,55.637741,0.0,9.520246,30.589981,55.68257,48.271656,69.612845,59.899567,76.019882,66.66593,75.626903,25.596771,274.531417,-48.122063,264.672285
33,-13.060455,9.550936,0.145168,-1.466943,0.0,-9.849358,-26.106834,27.412605,-33.080807,30.922623,-34.620094,20.645027,-33.664799,-11.393394,0.0,-15.921417,10.317753,28.501088,26.638695,42.752836,38.750298,48.288081,47.717384,52.397077,0.0,68.952312,29.726658,93.263569,20.372715,92.507915,10.783024,77.570858,1.852341,54.490643,0.0,10.196228,30.001252,54.277562,47.888247,68.582045,59.493187,75.371688,66.11277,75.675377,12.666435,283.983445,-47.846775,263.106433
34,17.876129,-14.425514,-0.476875,-3.37361,0.0,-28.439713,-36.330414,9.20826,-43.84861,10.862389,-49.282951,2.285843,-51.993256,-38.959808,0.0,-5.432184,16.002434,39.263258,33.360537,52.406525,45.465038,58.660051,54.74137,66.774179,0.0,67.247486,28.79797,93.798351,19.173031,94.212742,9.484921,78.814831,0.812473,53.718739,0.0,9.01945,28.529617,54.875183,47.055852,70.794439,59.285336,76.724516,66.216017,76.959909,30.65629,269.466247,-48.209925,259.641139
35,-16.449966,4.840862,-1.472282,-7.59703,0.0,-11.888695,-26.81654,29.764366,-33.976364,28.851814,-35.843468,17.175522,-34.217834,-56.940594,0.0,-7.501502,15.830027,44.183531,28.770258,51.636374,37.835959,56.863608,45.305907,67.804052,0.0,64.630451,31.032772,92.338314,23.065453,92.203274,13.631744,78.465557,3.816261,55.600033,0.0,6.555238,25.970494,58.86321,43.154214,75.615664,56.119886,83.636672,65.732881,82.745861,14.316673,274.213897,-49.571857,251.950897
36,-3.961258,10.012459,-0.432072,-10.539005,0.0,-36.812496,-32.485542,11.45668,-39.401093,21.275482,-44.143982,14.568443,-46.472569,-26.018486,0.0,43.291238,3.954558,35.058982,-0.53834,36.690613,-6.043883,30.957643,-10.308799,23.410569,0.0,62.226448,29.766769,86.051559,21.606846,85.81501,11.079597,67.725334,-0.637894,35.165977,0.0,10.537523,23.818369,58.858146,40.810971,77.636817,54.2909,87.40036,64.457674,82.811378,10.400677,284.118616,-49.958668,241.304154
37,31.65184,-15.800942,-6.525192,-10.144852,0.0,-63.127613,-48.564491,-66.999664,-47.648964,-45.322266,-44.073601,-40.671844,-37.307739,-49.133606,0.0,47.589437,22.633317,35.85056,14.40563,18.233106,4.813692,6.072536,-5.912664,2.141751,0.0,56.424866,28.775368,80.266228,24.969006,68.207016,18.863354,43.638954,10.492687,28.643703,0.0,-6.923394,14.221737,47.486931,33.33985,72.677888,49.103001,87.364977,62.530134,87.890473,42.218313,268.120644,-56.318064,230.962272
38,-1.704025,-30.907254,6.515636,-30.576705,0.0,-59.261169,-35.536308,-70.108509,-28.917389,-62.591915,-19.236259,-55.195484,-6.954117,-41.129608,0.0,48.969188,31.900572,50.110892,34.312234,55.753891,34.73368,53.890511,31.142524,49.556743,0.0,55.597515,66.905994,109.731045,55.725574,64.985905,38.067913,40.202007,17.891407,28.450699,0.0,11.371338,16.432464,54.765761,28.43236,85.706484,40.966397,90.878884,52.250296,90.173386,40.853977,237.193861,-49.462738,200.366039
39,-3.154106,-14.597489,41.082859,51.647365,0.0,-36.157722,-38.393555,-51.458931,-32.017593,-39.67907,-20.513191,-25.226097,-5.424957,-9.751053,0.0,25.104012,19.434398,32.593226,25.79395,37.824289,30.634379,37.439954,34.038371,35.192116,0.0,3.892593,-5.698814,-9.069557,-13.736858,-9.626369,-20.742302,-16.872025,-26.057053,-30.223045,0.0,21.728858,-8.556755,-6.983848,-32.027469,-27.827638,-50.516901,-49.779107,-62.144812,-88.382377,37.828131,223.01311,-8.251619,252.430142
40,41.563339,-85.676844,-94.879875,-124.369282,0.0,-61.592445,-45.97538,-86.316261,-39.982796,-77.275887,-30.053787,-63.174248,-16.478691,-44.04911,0.0,-4.488946,14.874748,58.195997,31.5368,71.351366,47.069746,76.677154,60.043692,79.45407,0.0,58.311653,38.304119,73.736401,31.193161,61.501007,21.493378,46.670094,11.246166,32.170143,0.0,-34.273486,-4.733787,16.75054,10.567348,29.393011,27.135539,40.608182,44.784301,47.270311,79.243298,138.183806,-103.279667,128.9084
41,11.360207,-36.409309,-9.811764,-38.188184,0.0,-59.762878,-46.158028,-75.445404,-42.448425,-67.230606,-34.440193,-47.496986,-22.758064,-32.678833,0.0,-3.618636,1.257949,23.856809,18.357193,38.309801,34.755139,43.45571,48.59106,52.502331,0.0,54.577732,42.935486,72.015724,40.148849,65.177765,32.701435,47.177982,23.603725,32.239323,0.0,-32.789561,-16.40128,-8.703659,-2.374921,11.421665,14.769124,27.229523,34.352804,39.154825,90.52557,103.306386,-113.169365,92.252105
42,5.296097,-36.747423,2.589741,20.002348,0.0,-55.680885,-55.210876,-80.667458,-51.661949,-69.330368,-42.374153,-55.077209,-28.099709,-37.588577,0.0,-31.502714,8.694026,-4.042367,19.375983,4.424232,27.406068,11.744805,32.626849,21.931276,0.0,64.567223,43.428154,77.595463,34.532833,69.446869,22.553387,60.166111,9.300499,44.748116,0.0,-3.492572,-26.016066,-77.45984,-29.56443,-83.340919,-30.660037,-77.522301,-28.761829,-66.135803,95.790625,67.9594,-110.610666,113.654891
43,-7.233123,-34.29412,9.813938,-70.248041,0.0,-51.109238,-49.023018,-83.743382,-45.76191,-75.111199,-38.238678,-62.661667,-26.989251,-46.76941,0.0,-35.189461,-5.568375,-22.556108,2.055208,-16.801649,8.929706,-10.520336,14.374394,0.206915,0.0,42.516804,46.639709,59.837837,44.500408,57.518005,38.552856,53.854523,30.533695,46.530533,0.0,-41.577695,-25.770454,-64.182699,-25.504618,-68.233927,-26.374095,-64.522511,-26.571604,-58.967753,88.552409,34.244669,-100.801821,43.986239
44,-7.233124,-34.294121,17.143225,-28.093602,0.0,-46.53759,-42.83516,-86.819306,-39.86187,-80.892029,-34.103203,-70.246124,-25.878792,-55.950241,0.0,-38.876207,-19.830774,-41.069849,-15.265566,-38.027529,-9.546655,-32.785475,-3.878059,-21.517445,0.0,35.531387,39.338297,50.550646,37.321668,49.02711,32.167674,45.96114,25.284919,39.085889,0.0,-32.922417,-21.899375,-51.325711,-24.009938,-58.004358,-26.853348,-57.515061,-28.795941,-54.651033,81.774502,-0.071512,-83.203378,15.870577
45,-7.233124,-34.29412,17.143225,-28.093601,0.0,-41.965942,-36.647301,-89.895229,-33.96183,-86.672859,-29.967728,-77.830582,-24.768333,-65.131073,0.0,-42.562953,-34.093174,-59.58359,-32.586341,-59.253411,-28.023016,-55.050616,-22.130514,-43.241807,0.0,28.54597,32.036884,41.263455,30.142928,40.536215,25.782492,38.067757,20.036144,31.641246,0.0,-24.26714,-18.028297,-38.468725,-22.515259,-47.77479,-27.332602,-50.507611,-31.02028,-50.334313,75.839481,-34.55303,-64.76205,-12.410421
46,15.30201,-0.000278,17.143225,-28.093601,0.0,-52.470703,-40.541382,-95.371628,-38.329697,-104.354668,-34.071007,-95.411453,-28.020287,-75.531693,0.0,-41.070878,-30.843065,-71.988507,-30.188017,-75.383637,-27.592523,-73.605874,-23.322575,-63.317792,0.0,21.560554,24.735472,31.976263,22.964188,32.04532,19.39731,30.174375,14.787368,24.196603,0.0,-15.611863,-14.157219,-25.611738,-21.020579,-37.545221,-27.811857,-43.500162,-33.244618,-46.017594,92.00469,-34.42993,-46.755625,-40.380645
47,10.217437,6.717364,17.143225,-28.093602,0.0,-52.369404,-40.760288,-92.953367,-38.280553,-100.996866,-33.703823,-92.43556,-27.155771,-73.204031,0.0,-42.091476,-29.927298,-72.103576,-29.017993,-75.472241,-26.383772,-73.440017,-22.296571,-62.978977,0.0,14.575138,17.43406,22.689072,15.785448,23.554425,13.012128,22.280992,9.538593,16.751959,0.0,-6.956585,-10.286141,-12.75475,-19.525899,-27.315652,-28.29111,-36.492711,-35.468955,-41.700873,104.010296,-27.140094,-27.824232,-67.901775
48,10.217438,6.717364,17.143225,-28.093601,0.0,-52.268104,-40.979195,-90.535107,-38.231411,-97.639065,-33.336639,-89.459667,-26.291256,-70.876369,0.0,-43.112074,-29.011532,-72.218645,-27.847969,-75.560845,-25.17502,-73.27416,-21.270567,-62.640163,0.0,7.589721,10.132647,13.401881,8.606709,15.063531,6.626946,14.38761,4.289817,9.307316,0.0,1.698692,-6.415063,0.102237,-18.031219,-17.086083,-28.770364,-29.485261,-37.693294,-37.384154,115.378809,-13.958063,-9.529932,-89.530709
49,10.217438,6.717365,17.143225,-28.093601,0.0,-52.166805,-41.198101,-88.116846,-38.182268,-94.281264,-32.969456,-86.483774,-25.426741,-68.548708,0.0,-44.132673,-28.095766,-72.333715,-26.677946,-75.64945,-23.966269,-73.108305,-20.244564,-62.30135,0.0,0.604305,2.831235,4.11469,1.427969,6.572636,0.241764,6.494227,-0.958958,1.862673,0.0,10.353969,-2.543985,12.959223,-16.53654,-6.856515,-29.249618,-22.477812,-39.917632,-33.067434,126.524849,-1.894456,8.541895,-112.278068
50,10.217438,6.717364,17.143225,-28.093602,0.0,-52.065506,-41.417008,-85.698586,-38.133126,-90.923462,-32.602272,-83.507882,-24.562226,-66.221047,0.0,-45.15327,-27.18,-72.448784,-25.507922,-75.738054,-22.757518,-72.942448,-19.21856,-61.962535,0.0,-6.381111,-4.470177,-5.172501,-5.750771,-1.918259,-6.143417,-1.399155,-6.207733,-5.58197,0.0,19.009247,1.327094,25.816211,-15.04186,3.373055,-29.728871,-15.470362,-42.14197,-28.750714,137.430964,8.596831,26.373796,-136.597747
51,10.217437,6.717364,-12.15168,-3.396844,0.0,-51.964206,-41.635914,-83.280325,-38.083982,-87.56566,-32.235088,-80.531988,-23.69771,-63.893385,0.0,-46.173868,-26.264233,-72.563853,-24.337898,-75.826658,-21.548766,-72.776591,-18.192557,-61.623721,0.0,-9.224281,-0.80761,5.424271,6.528854,17.348213,14.075089,25.785255,21.220436,30.019341,0.0,20.257454,-0.264338,28.276733,-17.119206,10.604383,-30.13735,-6.665926,-40.22215,-20.251958,147.604026,16.562356,14.177742,-138.74643
52,10.217438,6.717364,-35.319458,33.996037,0.0,-51.862907,-41.85482,-80.862064,-38.03484,-84.207859,-31.867905,-77.556095,-22.833195,-61.565723,0.0,-47.194466,-25.348467,-72.678923,-23.167875,-75.915262,-20.340014,-72.610735,-17.166553,-61.284906,0.0,3.813358,7.618161,23.868471,12.284618,33.997121,16.858249,39.140382,21.033555,38.598447,0.0,3.456398,-10.80591,0.345667,-23.006471,-14.843267,-31.588107,-26.299123,-37.289222,-33.014422,157.646227,22.889257,-21.316953,-105.140855
53,10.217438,6.717364,-35.319457,33.996037,0.0,-51.761608,-42.073727,-78.443804,-37.985697,-80.850058,-31.500721,-74.580202,-21.96868,-59.238062,0.0,-48.215064,-24.4327,-72.793992,-21.997851,-76.003866,-19.131263,-72.444878,-16.140549,-60.946092,0.0,16.850996,16.04393,42.31267,18.040381,50.646029,19.641409,52.495509,20.846672,47.177554,0.0,-13.344658,-21.347481,-27.585399,-28.893736,-40.290917,-33.038864,-45.932319,-34.356293,-45.776885,167.152844,26.812584,-57.347231,-73.938855
54,10.217438,6.717364,-35.319457,33.996037,0.0,-51.660309,-42.292634,-76.025544,-37.936554,-77.492257,-31.133538,-71.60431,-21.104165,-56.910401,0.0,-49.235661,-23.516934,-72.909061,-20.827827,-76.09247,-17.922511,-72.279021,-15.114545,-60.607278,0.0,29.888635,24.4697,60.75687,23.796144,67.294937,22.424569,65.850635,20.65979,55.75666,0.0,-30.145714,-31.889051,-55.516465,-34.781001,-65.738566,-34.48962,-65.565515,-31.423365,-58.539348,175.036059,31.852004,-95.000911,-41.620762
55,10.217437,6.717365,-35.319457,33.996037,0.0,-51.559009,-42.511539,-73.607282,-37.887411,-74.134454,-30.766353,-68.628416,-20.239649,-54.582739,0.0,-50.25626,-22.601168,-73.024131,-19.657804,-76.181074,-16.71376,-72.113166,-14.088542,-60.268464,0.0,42.926273,32.89547,79.201069,29.551907,83.943844,25.207729,79.205761,20.472908,64.335766,0.0,-46.94677,-42.430622,-83.447531,-40.668266,-91.186216,-35.940376,-85.198711,-28.490436,-71.301811,183.933134,33.630247,-131.64073,-12.563847
56,10.217438,6.717364,-24.060859,24.310396,0.0,-51.45771,-42.730446,-71.189022,-37.838268,-70.776653,-30.39917,-65.652523,-19.375133,-52.255077,0.0,-51.276858,-21.685402,-73.1392,-18.48778,-76.269678,-15.505009,-71.947309,-13.062538,-59.92965,0.0,39.311943,27.850713,66.989336,24.575786,69.406442,20.653009,64.972458,16.707201,52.76679,0.0,-50.173398,-41.329952,-77.856093,-38.772821,-82.004485,-34.127693,-74.668104,-27.002899,-62.207705,192.909918,33.728554,-156.942243,5.127492
57,10.217438,6.717364,-24.06086,24.310396,0.0,-51.356411,-42.949352,-68.770762,-37.789126,-67.418852,-30.031986,-62.67663,-18.510618,-49.927416,0.0,-52.297456,-20.769635,-73.254269,-17.317756,-76.358282,-14.296257,-71.781452,-12.036534,-59.590835,0.0,35.697613,22.805958,54.777603,19.599667,54.869041,16.098289,50.739155,12.941494,41.197815,0.0,-53.400027,-40.229282,-72.264655,-36.877377,-72.822755,-32.315009,-64.137498,-25.515363,-53.113598,201.619768,37.508976,-182.510691,26.500946
58,10.217438,6.717364,-12.882643,9.685244,0.0,-51.255112,-43.168259,-66.352501,-37.739983,-64.06105,-29.664803,-59.700737,-17.646103,-47.599754,0.0,-53.318054,-19.853869,-73.369339,-16.147733,-76.446887,-13.087506,-71.615596,-11.010531,-59.252021,0.0,37.919026,23.451805,50.463839,18.136683,46.227293,11.616326,40.086994,4.35236,27.970848,0.0,-52.819497,-30.923989,-67.808961,-25.084314,-67.023928,-18.523179,-56.941028,-10.297298,-41.788403,211.022501,40.691407,-196.208039,32.651256
59,13.82515,19.801227,-12.882643,9.685243,0.0,-52.585831,-45.310707,-80.785789,-41.026382,-75.442657,-35.427361,-66.227989,-28.719406,-57.459755,0.0,-58.610805,-39.851555,-92.064585,-42.058514,-87.547357,-41.795334,-80.185226,-40.035756,-66.443104,0.0,40.140438,24.097652,46.150074,16.673698,37.585545,7.134361,29.434834,-4.236774,14.743881,0.0,-52.238965,-21.618696,-63.353267,-13.291251,-61.225101,-4.731347,-49.744557,4.920767,-30.463207,223.61578,58.576333,-210.322552,40.420199
60,9.014969,-4.645545,-3.442211,8.240376,0.0,-49.798851,-24.315033,-54.640846,-14.35936,-50.367393,-2.132034,-38.852577,12.076149,-16.873283,0.0,-51.31629,-12.733738,-50.682515,-5.13677,-42.870316,2.970689,-33.125916,10.857791,-11.942869,0.0,42.385082,20.950069,42.508049,11.912441,33.688488,-0.073929,24.317951,-15.177097,3.317699,0.0,-59.711136,-14.454413,-63.583319,-8.529121,-61.130283,-2.00766,-51.254355,5.852735,-28.893851,231.753588,52.663036,-214.641924,47.392824
61,2.743835,8.732249,-5.581799,5.679093,0.0,-49.13063,-24.895477,-54.816971,-15.860596,-46.402702,-3.331718,-34.047318,13.249512,-13.139534,0.0,-49.305604,-10.319451,-53.162134,-6.895545,-55.671362,-3.409395,-47.41033,0.015345,-24.507411,0.0,44.020901,24.477825,46.242542,15.047951,40.27359,2.419281,31.025105,-14.027939,9.659729,0.0,-58.643162,-13.701151,-67.12841,-9.813931,-63.409646,-5.508631,-53.668734,-0.646156,-35.076797,234.401035,60.921691,-220.32011,52.598322
62,3.126869,5.08703,-3.959942,-3.031544,0.0,-37.68116,-23.999748,-53.739738,-15.330162,-46.742935,-3.370171,-32.761688,12.329979,-10.392036,0.0,-44.707391,-13.802298,-61.210497,-11.734616,-62.740302,-9.740695,-55.410003,-8.077849,-33.678335,0.0,45.132122,25.50602,50.014057,16.68211,45.85041,4.596291,36.528511,-11.388187,12.969475,0.0,-56.958117,-13.293721,-63.454137,-8.500006,-61.155385,-3.30022,-50.724475,1.547805,-33.49929,237.119522,65.781726,-224.688435,49.339783
63,-2.430382,-0.912393,2.272854,1.444373,0.0,-33.861351,-21.608162,-50.335922,-12.346458,-42.480927,-0.280724,-29.132309,15.617752,-8.958778,0.0,-44.541251,-15.746046,-62.999839,-14.618546,-65.544018,-13.152745,-59.164675,-11.546493,-38.45158,0.0,42.100697,24.495964,50.502033,15.783806,46.062584,3.564205,34.999981,-12.396755,12.351494,0.0,-55.500282,-13.304713,-63.430702,-9.64526,-62.571631,-5.576309,-53.823295,-1.499177,-35.914287,233.743629,64.884755,-223.361092,50.799578
64,-3.83709,-1.585226,-0.78186,2.786487,0.0,-28.886948,-21.547737,-46.688004,-11.916389,-39.316978,-0.128059,-26.817627,15.528946,-9.462891,0.0,-43.193487,-19.99747,-63.765266,-20.854349,-68.41498,-20.189266,-63.200157,-18.532966,-42.832432,0.0,38.73991,25.641289,53.371983,18.019009,50.530586,6.698685,39.322758,-8.544731,15.76355,0.0,-46.460454,-16.581591,-66.695725,-13.650176,-67.400636,-9.777221,-58.822763,-5.717069,-39.871624,229.441137,63.30081,-224.608355,53.587347
65,-2.862167,-3.552594,3.149414,-0.706178,0.0,-26.491699,-19.771271,-45.287018,-9.738693,-36.200752,2.688904,-22.799835,18.89019,-4.642639,0.0,-45.778575,-15.892426,-62.531061,-15.842099,-66.121106,-15.307217,-60.787661,-14.367901,-39.758991,0.0,39.289112,24.603882,51.926765,16.569042,48.019638,5.114079,36.677399,-9.979763,13.49905,0.0,-46.555797,-16.109972,-65.55044,-13.43442,-66.559935,-9.696822,-57.795576,-5.643031,-39.06047,226.111364,59.677296,-221.926546,52.810249
66,-3.07354,-1.273818,-0.409813,-1.284594,0.0,-28.318977,-19.086685,-43.796883,-9.230576,-33.980598,3.271751,-20.235443,19.499817,-1.739845,0.0,-46.442114,-17.838922,-62.470422,-16.929184,-65.733344,-14.890216,-59.716106,-12.036668,-36.965865,0.0,38.267097,25.551796,53.870316,17.771587,50.481606,6.736965,39.227314,-7.79995,16.87849,0.0,-44.364182,-15.679232,-64.54715,-12.77369,-64.698747,-8.63913,-55.284773,-4.273746,-36.951323,222.612305,58.200365,-222.761879,51.322543
67,-2.337227,0.193557,3.005905,-0.335243,0.0,-27.408829,-18.508873,-42.565041,-8.837128,-33.380127,3.497658,-19.964447,19.334564,-1.469193,0.0,-45.281948,-18.095372,-62.979801,-17.309536,-66.14099,-15.146018,-59.654634,-12.170111,-36.858852,0.0,37.44421,23.528881,51.983242,15.681839,48.542747,4.69305,37.458858,-9.827614,15.0844,0.0,-46.391973,-14.576864,-64.315864,-11.723779,-63.870736,-7.884817,-54.841683,-3.778446,-36.697374,220.243635,58.311269,-219.787416,50.904647
68,-2.047462,-0.767743,-0.454159,-0.690987,0.0,-27.974968,-18.373032,-42.78614,-8.825912,-32.845116,3.548355,-19.657516,19.358826,-1.08181,0.0,-46.28252,-17.664539,-62.690161,-16.675267,-65.125165,-14.490012,-58.159533,-11.671075,-36.507801,0.0,37.164059,24.647655,52.075138,16.965408,49.139729,6.130028,38.257484,-8.281803,16.636276,0.0,-45.855053,-13.285601,-61.975863,-10.373143,-62.264361,-6.456438,-52.843347,-2.612814,-35.540357,218.052778,57.430183,-220.38497,50.100317
69,-2.317657,-0.082993,4.536781,2.593548,0.0,-28.159218,-17.873497,-41.908379,-8.251762,-32.555466,4.175377,-19.687271,19.956207,-1.376495,0.0,-46.714989,-17.439613,-62.354146,-16.190557,-64.448781,-13.878065,-57.239915,-11.141781,-36.155453,0.0,35.667515,22.269688,48.692207,13.819771,44.380589,2.437134,33.225632,-12.285004,11.290627,0.0,-44.983384,-15.468231,-65.158757,-12.901761,-65.921467,-9.27204,-56.375039,-5.389699,-37.630176,215.59742,57.252388,-215.985889,52.599063
70,0.126457,2.549304,0.175896,0.019668,0.0,-20.668831,-20.572929,-44.086075,-12.913628,-38.470802,-2.697144,-27.767715,11.137505,-12.775269,0.0,-39.281351,-17.945225,-60.51667,-20.447105,-66.731756,-22.120449,-64.808941,-23.364349,-51.365413,0.0,36.333961,21.933002,48.542633,13.876305,44.857922,3.009453,34.120617,-11.309452,12.334442,0.0,-46.117215,-14.660505,-64.404321,-12.319176,-65.175923,-8.843122,-55.770564,-5.110804,-37.438225,215.648031,59.867395,-215.885839,52.684433
71,-3.830338,-3.523756,1.46307,1.624098,0.0,-24.781837,-19.429665,-41.888695,-10.469398,-35.578308,0.946655,-24.038887,15.978699,-6.722946,0.0,-41.73982,-18.157276,-59.077484,-19.007116,-61.964686,-18.651805,-57.814039,-17.752101,-41.899414,0.0,35.6353,20.704021,48.510933,12.881241,44.606552,2.29763,33.620281,-11.733799,11.612606,0.0,-41.52496,-16.761316,-65.791915,-14.979137,-66.128053,-11.751443,-57.149759,-7.849898,-38.745759,211.812372,56.245224,-214.428091,54.210115
72,-1.940689,-0.118098,1.591187,-0.165429,0.0,-26.766243,-18.271523,-42.045937,-8.568878,-35.270119,3.429565,-22.443237,18.228264,-4.146194,0.0,-43.663747,-17.927719,-59.145934,-18.323725,-61.990745,-17.337787,-55.768773,-15.545512,-36.171601,0.0,35.223656,19.674911,47.484169,11.701012,43.716488,1.165009,32.229939,-12.435894,10.681744,0.0,-41.340635,-16.589835,-65.975406,-15.065773,-66.610447,-12.067574,-57.335628,-8.094645,-39.077915,209.77704,56.071443,-212.931547,53.989003
73,1.556168,1.956068,-2.013073,0.66499,0.0,-24.350739,-20.333519,-44.760818,-11.494904,-39.446182,-0.656891,-26.709251,12.519836,-7.821922,0.0,-39.525605,-19.175355,-58.848513,-21.455582,-63.295654,-21.776777,-57.206014,-20.412926,-34.275369,0.0,34.606533,21.896496,50.903149,14.227238,47.789326,3.644428,36.265583,-10.104446,14.666462,0.0,-40.260805,-15.979617,-66.257266,-14.379077,-65.956757,-11.533649,-56.38001,-7.763447,-38.657147,211.12504,57.781003,-215.152788,54.407485
74,-3.957024,-0.048196,1.390629,-1.234607,0.0,-26.323929,-18.84407,-42.948189,-9.714546,-37.280045,1.747169,-24.673233,16.015205,-5.877342,0.0,-41.3754,-19.23868,-59.75998,-20.391869,-62.593212,-19.637434,-56.840081,-17.633633,-36.687371,0.0,33.540058,21.432667,50.43108,13.966656,47.068291,3.687973,35.71209,-9.66053,14.3997,0.0,-42.49299,-15.796249,-64.512662,-13.714921,-63.263915,-10.222534,-52.706045,-6.025729,-36.424438,207.130308,57.69378,-213.799868,53.133852
75,-0.090637,1.049757,3.060265,2.674812,0.0,-19.285355,-19.447174,-44.185982,-11.49044,-39.838257,-1.256561,-27.791748,11.741638,-9.963226,0.0,-37.560892,-18.734149,-58.352379,-21.420323,-62.973163,-22.432659,-58.2822,-21.876905,-37.484507,0.0,34.693451,19.869289,48.905411,11.651287,45.427437,0.99226,33.568153,-12.662258,12.300797,0.0,-41.228527,-16.53429,-65.092962,-15.523899,-65.035503,-13.157716,-56.306063,-9.736836,-39.193419,206.99192,58.73057,-210.787354,55.795696
76,-4.824257,-0.126804,0.172176,-1.052196,0.0,-27.325516,-16.707916,-41.833076,-7.68837,-35.704765,3.948326,-22.208176,18.227806,-2.774162,0.0,-43.191233,-19.735185,-57.367615,-19.731696,-61.052601,-17.670374,-53.661139,-14.340576,-31.56891,0.0,35.145493,19.964046,49.130058,12.311668,45.480366,2.028751,33.428993,-11.253891,12.870541,0.0,-41.487817,-15.394964,-63.422335,-13.947102,-62.91308,-11.119767,-53.312126,-7.465223,-37.359648,202.003527,58.524694,-210.779314,54.664429
77,13.088493,-1.902962,1.354065,-0.17673,0.0,-45.169373,-31.637993,-60.836105,-21.173172,-53.791237,-7.47654,-43.530235,9.931068,-20.06115,0.0,-50.004156,-21.07344,-66.616869,-16.130504,-62.967852,-9.85799,-52.775113,-2.434232,-32.266999,0.0,35.896225,19.963131,49.955235,12.514687,46.221542,2.19595,33.959255,-11.102657,13.219128,0.0,-40.768888,-14.491432,-63.240388,-12.41421,-61.584149,-9.308504,-51.815234,-5.638183,-35.856766,215.084124,56.67158,-209.433146,54.537547
78,0.324898,-4.941144,3.735466,2.566625,0.0,-51.837158,-34.027863,-61.869049,-24.882317,-53.109856,-11.962395,-44.709549,5.398407,-24.856453,0.0,-45.42456,-6.389346,-50.094342,-0.802539,-49.611979,3.087891,-42.776425,5.417734,-21.589117,0.0,36.499958,17.671909,49.33136,10.104847,46.029453,0.287361,33.194561,-12.094917,11.680927,0.0,-40.759039,-16.547937,-65.14968,-14.708423,-63.684342,-11.926691,-55.100263,-8.24087,-38.879387,215.674353,51.905127,-205.432348,57.278864
79,-4.413872,10.008322,2.566967,-2.767777,0.0,-48.71006,-30.975037,-61.372948,-23.225899,-54.669113,-11.966972,-41.601562,3.813629,-21.252594,0.0,-38.838477,-11.167902,-47.04909,-8.402502,-50.002643,-6.312034,-46.288016,-4.502531,-28.010327,0.0,36.105194,17.237434,50.099659,10.425911,46.671524,0.772648,34.018593,-11.250744,12.261372,0.0,-46.197799,-13.899215,-60.801493,-10.817499,-57.845995,-6.711097,-48.160752,-1.262827,-30.5307,211.490078,62.10137,-202.635784,54.699009
80,-9.628143,6.3736,5.995903,6.329757,0.0,-46.356926,-26.927834,-61.913681,-18.772316,-56.549149,-7.828674,-42.072372,7.135048,-19.399681,0.0,-39.800394,-12.769275,-45.720314,-11.143634,-49.287419,-8.986908,-44.506393,-6.791125,-26.852167,0.0,34.608135,13.838367,46.373291,6.480274,43.716602,-2.510834,30.962677,-13.285732,9.491444,0.0,-42.72616,-17.371286,-61.454473,-15.217278,-60.154534,-11.769382,-52.370339,-7.033835,-36.500051,202.173328,68.281383,-196.328487,60.835178
81,-3.166237,7.198184,6.776962,3.019194,0.0,-48.514938,-23.125534,-66.00563,-16.717529,-64.237976,-8.675652,-51.488457,1.929932,-30.442429,0.0,-32.751678,-19.104744,-45.077986,-17.178779,-45.23934,-13.396505,-39.401363,-8.723265,-29.187011,0.0,30.641727,6.296482,42.23402,0.512066,40.42099,-5.226688,32.072868,-11.181622,14.718533,0.0,-39.884807,-27.789847,-57.243404,-25.322949,-55.955506,-20.033316,-49.167994,-11.333362,-35.72919,199.588995,75.694149,-188.969622,64.068955
82,1.886101,-0.7373,7.215099,-10.55435,0.0,-54.267769,-21.078987,-79.652596,-17.983131,-82.866554,-13.741951,-74.920921,-8.199005,-51.214828,0.0,-27.074715,-22.934227,-37.44829,-14.910687,-25.824547,-3.662664,-14.247302,9.149157,4.745704,0.0,39.391994,6.176262,46.711178,-3.284225,44.511337,-8.894405,38.459873,-10.730495,28.681984,0.0,-53.409568,-30.489606,-36.963673,-18.463558,-25.236992,-3.707618,-13.821965,13.404285,-4.036532,201.952057,76.570048,-181.277561,55.127804
83,-5.064697,8.21793,5.882435,9.150423,0.0,-55.115204,-26.314659,-87.599373,-22.683449,-96.394501,-18.41217,-88.973808,-13.705215,-65.725365,0.0,-27.607096,-24.311384,-35.870907,-14.672238,-15.793934,-2.113284,1.598533,11.550445,17.64836,0.0,37.824554,-3.082981,57.099838,-10.193825,58.21146,-14.244118,49.384632,-14.37355,31.161289,0.0,-67.51472,-33.89477,-37.489632,-21.305282,-30.007242,-4.026775,-18.147365,14.998588,-2.400146,197.713079,86.934638,-174.569407,66.424887
84,-15.473557,6.785815,1.559315,9.039458,0.0,-63.619766,-27.480011,-93.248291,-24.068527,-101.487694,-20.422211,-95.7407,-16.598167,-79.021797,0.0,-27.253205,-22.036561,-24.520749,-8.822868,-2.12301,6.331208,12.912567,22.211314,28.307439,0.0,38.856354,0.295944,63.998795,-4.478302,68.895779,-6.403084,61.179314,-4.352417,40.922298,0.0,-63.63346,-32.996117,-35.833239,-20.196892,-31.614822,-4.064875,-18.381461,14.08885,-0.342066,183.165407,96.019668,-172.084208,77.76356
85,-31.315956,7.462908,2.191944,8.679978,0.0,-65.680618,-31.345711,-95.842209,-25.061188,-98.443909,-18.721275,-90.426292,-12.803764,-68.030205,0.0,-29.684504,-16.598295,5.338261,-4.002075,24.305147,10.736853,33.963468,26.818636,40.532723,0.0,44.692039,8.07066,74.93494,3.087044,81.079388,-0.342865,73.892097,-0.17086,52.734146,0.0,-58.542231,-30.889162,-26.800636,-17.627797,-20.721339,-1.222288,-10.233958,17.171277,5.897689,152.638893,106.315669,-169.102821,89.276631
86,-9.108124,9.699477,9.226055,9.231378,0.0,-68.885994,-29.353752,-101.851158,-22.796974,-106.081467,-16.495399,-95.452538,-10.262947,-73.426094,0.0,-27.819641,-13.778956,8.359616,1.76282,28.109065,19.547124,40.683858,37.63456,49.496012,0.0,49.549541,8.788891,79.091778,4.495068,85.836697,1.412659,77.454586,1.370773,58.476391,0.0,-52.286389,-28.879587,-16.640655,-14.548551,-10.279313,1.736236,-1.553517,19.776002,12.619808,144.586201,117.955266,-158.821335,100.448129
87,-23.108597,15.046692,8.061333,10.651298,0.0,-68.05275,-37.255211,-100.946846,-33.080521,-104.541321,-26.426468,-97.130699,-18.206177,-75.90786,0.0,-18.088054,-8.004212,16.048068,7.560906,32.476147,23.948848,44.320741,39.871809,50.743216,0.0,51.202354,11.647053,83.883533,5.796146,88.054447,1.054058,79.302349,-0.667877,57.410202,0.0,-49.592126,-24.132956,-11.841846,-9.860213,-2.720661,6.878224,6.579321,26.108105,20.406937,122.183876,133.39111,-150.05373,111.488578
88,-3.31604,11.787474,6.598835,9.782963,0.0,-74.04213,-32.463913,-106.553078,-29.732895,-113.100128,-25.381737,-104.857521,-20.142517,-83.960838,0.0,-19.050743,-4.404225,15.733943,13.231446,32.666956,30.989259,44.230153,48.158405,56.430243,0.0,54.119053,14.363537,87.824421,9.986286,93.100204,5.823669,84.573898,3.348656,61.23333,0.0,-41.190983,-17.678402,-3.519249,-2.88041,6.525228,13.798377,13.996966,32.817689,29.785002,118.828497,145.043381,-143.494234,121.136339
89,-23.261604,13.20829,8.446426,14.915936,0.0,-72.44133,-38.908768,-103.25798,-34.630852,-105.690765,-27.756042,-98.291588,-18.919258,-77.508774,0.0,-6.053578,-0.69074,26.009829,17.752935,41.45935,34.688047,55.125334,48.852418,62.796896,0.0,57.221603,16.515656,89.011574,12.227669,94.428921,8.189106,84.282017,5.412941,61.134853,0.0,-36.296367,-16.291055,-2.344725,-0.649923,9.97405,16.507676,20.574682,34.945176,36.129981,95.465326,158.338554,-135.149374,136.139157
90,-4.156494,11.862625,5.866928,13.080034,0.0,-74.5895,-34.986191,-104.423275,-31.085587,-109.600983,-25.075607,-100.803795,-17.965622,-79.903221,0.0,-9.085709,2.442785,28.781497,20.840764,44.411452,38.047269,55.626438,53.281652,65.143844,0.0,63.361073,23.357105,92.141762,20.200825,101.313686,16.694527,92.35136,13.005638,68.363571,0.0,-28.317627,-11.103774,0.144558,4.189395,15.207953,20.877135,26.959304,38.674345,39.491426,90.911694,169.955288,-129.679585,148.973301
91,-9.173813,12.013357,9.999218,11.75944,0.0,-73.170204,-32.907486,-100.899696,-29.627266,-108.793774,-25.257454,-99.992008,-19.349899,-78.645401,0.0,-5.813369,5.167768,34.567942,23.846959,48.715703,40.771698,59.476021,55.321638,70.461543,0.0,61.625004,26.600418,95.344734,22.634583,101.525688,18.030453,91.650925,13.40601,71.280613,0.0,-25.788454,-2.271551,13.027361,13.392059,26.449801,29.069006,36.944839,44.124251,48.059852,81.799307,181.490945,-119.61894,160.25504
92,-8.750267,11.29483,11.371765,13.35013,0.0,-69.814796,-31.934853,-89.693356,-27.871742,-100.832691,-23.228531,-95.851135,-17.878189,-75.710907,0.0,4.43053,10.316147,28.262423,29.187073,49.388721,45.683819,65.89442,58.509503,73.98533,0.0,62.149315,25.983696,95.608292,20.902119,98.392582,16.171532,87.404995,11.64299,68.003025,0.0,-19.566853,1.737101,22.588671,17.105667,33.340715,31.876057,41.874436,44.965477,50.014005,73.022346,192.288205,-108.273869,173.107601
93,-8.666382,12.550462,27.120781,13.958866,0.0,-58.843575,-33.694496,-69.176674,-29.010315,-91.731033,-23.399048,-92.912121,-17.10228,-71.89888,0.0,15.540479,14.060075,24.448841,30.840132,47.531886,45.997388,70.880025,57.390833,77.163006,0.0,54.03019,36.408291,88.286304,35.357666,92.231312,31.455746,87.638111,25.382881,76.689548,0.0,-1.462929,8.077077,34.022192,29.884235,54.076935,49.310668,68.711042,65.894112,76.838014,64.301119,204.53927,-81.207933,186.76707
94,-5.074883,19.120768,1.61705,13.461158,0.0,-60.02243,-30.080795,-77.395248,-24.885979,-71.447983,-19.61689,-62.094955,-13.844833,-49.720345,0.0,13.945651,27.470103,31.390884,33.701708,36.575448,38.530466,41.126145,41.089465,48.444804,0.0,59.985294,24.93433,95.329342,17.917786,95.800266,11.228313,87.183781,4.461021,65.530815,0.0,-1.232847,11.058079,33.122674,29.494343,49.862161,46.696279,65.471615,60.697567,76.502709,59.111338,223.427733,-79.705782,199.995922
95,-11.346016,60.391841,1.779499,14.738156,0.0,-73.8727,-56.232147,-71.371708,-58.707848,-61.215534,-57.550163,-62.210255,-53.260918,-71.798,0.0,26.612081,0.456891,2.98909,-15.187699,-8.035519,-30.197125,-26.118078,-45.907418,-40.517162,0.0,64.055958,25.248356,93.68248,19.403973,94.454155,14.065762,84.867439,8.224583,68.119926,0.0,0.203468,14.14492,36.621823,31.379583,54.920816,47.080922,71.782754,59.96107,82.631314,47.687759,283.363965,-78.003845,214.278468
96,-2.85656,5.587301,14.690609,11.527752,0.0,-76.314468,-41.352425,-74.407253,-41.542168,-66.904449,-38.933258,-68.999233,-34.166222,-71.94809,0.0,28.028141,4.168215,-1.290275,-10.294164,-18.208838,-25.499709,-33.345037,-41.178818,-44.675373,0.0,60.49387,39.193096,103.000088,30.781174,99.222164,21.118298,85.187588,10.271301,67.644024,0.0,9.678327,28.163745,54.12189,50.085944,67.271393,67.047548,78.319715,78.738383,90.126702,44.622889,288.68103,-63.521547,225.535985
97,2.691994,15.283968,-1.655045,11.574312,0.0,-75.567169,-43.400345,-53.935318,-42.461357,-42.21817,-38.522873,-49.19735,-32.722549,-66.631222,0.0,29.162373,-1.424582,6.897089,-17.868902,-7.361205,-35.45826,-27.045692,-54.170055,-47.374916,0.0,76.01675,32.938843,101.754055,25.383053,100.015354,17.665272,87.597828,9.316578,64.159069,0.0,13.4556,26.013411,51.726591,46.529182,67.683577,62.221197,78.739494,73.625387,88.023545,47.241926,303.903186,-65.249548,237.048485
98,-6.873322,-14.086627,0.83147,7.918194,0.0,-71.37188,-40.406342,-48.237534,-32.725639,-35.573845,-23.475609,-35.376663,-13.130836,-49.917641,0.0,37.021039,9.962379,19.650525,4.206994,12.952828,-2.691639,6.842378,-11.423394,7.963827,0.0,74.253387,35.901775,101.396141,28.187828,102.181435,19.307041,87.430229,10.328579,64.414215,0.0,11.230918,25.749304,53.215888,44.248678,72.913651,58.459671,82.887269,69.20733,89.899646,40.276594,289.731482,-64.510088,244.881602
99,3.833656,13.242993,1.98967,7.631116,0.0,-69.082146,-49.329758,-27.794266,-48.046188,-13.240471,-42.421074,-12.181549,-34.120903,-57.261314,0.0,36.045815,2.430064,25.226155,-4.062436,19.204193,-10.655589,14.085269,-17.182114,6.998359,0.0,73.143997,37.96772,100.145416,30.020313,100.423622,20.803127,86.922913,11.493073,64.896698,0.0,9.202293,25.29723,54.098116,43.122227,72.82541,56.57301,83.56955,66.462092,87.623402,43.892412,302.93372,-62.738256,252.471963
100,-2.15435,6.260195,4.883423,5.351044,0.0,-71.475277,-52.382126,-21.083794,-51.329842,-4.869576,-45.943108,-1.362076,-38.479729,-79.669018,0.0,33.374122,-0.348952,26.141049,-5.483622,20.574188,-10.48874,15.332936,-14.622621,9.930393,0.0,73.691368,36.228619,98.178749,28.405609,99.735603,19.562016,87.279167,10.394726,65.234642,0.0,8.274987,25.943942,54.417859,43.303958,71.81894,56.643159,82.802177,66.922626,87.993843,41.578674,309.124924,-58.014221,257.754016
101,-2.062683,-13.239721,2.478905,6.024617,0.0,-65.619965,-49.748497,-15.586967,-49.085426,-1.854286,-43.900681,-1.281395,-36.298141,-71.53759,0.0,25.700398,7.181079,33.610811,14.085022,39.410101,19.354679,40.047921,24.214683,46.958224,0.0,71.238785,35.409393,97.903862,28.041058,99.465981,19.85424,87.628098,11.471443,66.500816,0.0,8.559163,25.617652,53.382428,43.231278,69.33892,56.390723,80.933918,66.150623,85.329869,39.236355,295.860149,-55.814953,263.753578
102,1.356125,-4.788497,2.702007,4.131844,0.0,-54.492645,-52.521172,-8.030891,-56.105633,-0.550117,-53.770237,-1.209183,-47.172432,-38.677025,0.0,0.61596,8.212805,38.160458,22.901128,49.353152,34.752453,56.358551,44.085348,61.60536,0.0,70.164356,35.653381,96.937351,28.220444,97.186375,19.667358,83.994312,10.63282,62.088833,0.0,9.237738,26.905025,53.804184,44.017423,69.990757,56.521511,80.843886,65.468898,84.140741,40.494461,291.059919,-53.210964,267.873689
103,-1.940346,1.684181,1.823044,2.264758,0.0,-46.551704,-44.675903,3.132019,-50.361214,6.306953,-49.561157,1.599312,-45.490723,-30.281868,0.0,-9.811399,9.969234,32.635957,25.522001,44.770531,37.922657,54.097436,46.827005,61.808581,0.0,70.27319,35.641937,97.391338,28.068409,96.560955,19.36306,84.042149,10.364056,62.825832,0.0,12.916889,28.612733,57.079981,45.782249,70.923744,58.043411,80.997892,66.396575,82.301443,38.423281,292.746662,-51.518755,270.141009
104,-46.300735,-13.758054,3.183231,4.779914,0.0,4.159241,-3.66291,43.707047,-8.017216,40.907936,-15.014591,25.468597,-20.894623,-44.568672,0.0,1.600138,23.157701,41.103915,42.249014,59.245568,54.861289,65.20967,64.812368,79.587327,0.0,69.914818,33.645973,95.242767,25.14576,93.930702,15.92577,80.025215,6.687584,56.517906,0.0,12.778383,29.438089,57.702672,46.682941,70.04306,58.426264,78.980815,65.814639,79.501618,-7.920485,278.926935,-48.378553,274.85925
105,-4.993744,1.363758,0.455017,1.696531,0.0,14.763336,2.381859,51.772614,-4.868145,52.878571,-14.772663,34.661522,-23.554344,-39.804039,0.0,4.801527,21.8933,42.097788,40.566316,62.354949,53.050767,69.527197,62.573977,82.587162,0.0,68.627472,33.774548,93.148155,25.373497,93.214645,15.733967,79.405403,5.995502,56.809616,0.0,12.803886,31.028409,56.626486,48.319636,70.133648,60.136133,79.202313,67.567486,80.764846,-13.055506,280.264897,-48.064814,276.529985
106,-5.744877,0.91792,-1.043816,1.189375,0.0,22.208004,8.619289,59.913654,0.233917,60.185566,-10.707321,42.353725,-20.307941,-24.917793,0.0,5.076563,21.258876,41.801139,40.44689,61.504584,53.047741,67.230391,62.389529,79.276784,0.0,68.614426,33.415775,94.521103,24.616928,93.472939,14.757442,79.105453,5.054741,56.570778,0.0,13.240215,30.587326,55.663242,47.894175,69.61019,59.599028,78.482798,66.847908,79.823399,-18.930244,281.195198,-49.238491,277.73174
107,10.285664,-0.276518,1.17754,-1.015424,0.0,13.041687,-1.66008,47.215118,-9.050674,50.675011,-18.614902,35.210152,-27.140579,-42.748547,0.0,4.580584,20.308908,42.991995,39.16489,60.467238,52.051584,66.81339,62.31302,81.026112,0.0,68.054981,31.741104,93.850536,23.162098,93.414059,13.677807,79.584332,4.3606,57.825108,0.0,15.037152,30.955852,55.457181,48.50816,70.60079,60.388136,78.979209,67.700682,80.087259,-8.804798,280.915005,-48.221169,276.712643
108,0.07061,-0.142952,0.476818,0.171975,0.0,14.898033,-1.493225,46.856346,-8.896294,50.405846,-18.200054,33.711433,-26.391277,-45.023403,0.0,6.103534,21.106661,43.618083,40.20804,60.477304,53.092695,66.390091,63.260518,80.586511,0.0,68.351669,32.403202,94.194374,23.905106,94.231796,14.42379,80.409164,5.071793,59.352493,0.0,15.013748,30.795857,55.10508,48.204965,69.6557,60.07994,78.407462,67.369205,79.963573,-8.988676,280.797618,-47.998838,276.910182
109,-10.768661,0.420397,0.651283,1.101689,0.0,27.360764,10.384827,61.129761,0.555096,63.441238,-11.560307,42.901154,-22.119026,-27.141209,0.0,2.647981,18.609722,44.387493,38.543249,60.978902,52.193856,67.105099,62.862969,77.976321,0.0,67.38224,31.99625,93.113594,23.504906,93.316269,13.787441,79.458961,4.339256,58.761749,0.0,14.281759,30.054296,55.294653,47.334161,68.915683,59.017462,77.080878,66.257451,78.773951,-20.021925,281.161436,-47.612143,277.955292
110,1.744938,-1.558642,1.090965,-0.024638,0.0,23.306065,5.72794,59.619541,-4.058933,61.228466,-14.955482,41.806355,-24.192753,-24.237099,0.0,7.870337,19.590936,45.131091,39.668403,62.7152,53.303141,69.058141,63.264285,78.620069,0.0,66.544418,31.435547,92.035446,22.997417,92.402229,13.401432,78.625374,4.155464,58.022804,0.0,14.566984,29.722511,55.676518,47.034671,69.109332,58.793679,77.286013,66.078437,79.351811,-18.374519,279.497355,-46.61871,277.825215
111,4.640064,1.823984,0.504856,0.245828,0.0,19.905739,1.328888,53.761711,-8.034382,57.879181,-18.328514,39.086151,-26.92543,-33.275986,0.0,6.148489,17.829629,44.868343,37.431185,60.913262,50.711785,66.875387,60.960748,79.021014,0.0,66.198635,31.316643,91.809597,22.861919,91.541119,13.234177,77.785892,3.804417,56.241016,0.0,14.409335,29.516203,55.191098,46.964523,69.281554,58.793926,77.494235,66.197862,78.681757,-13.773165,281.288549,-46.152563,278.038254
112,-3.571587,-0.780896,0.135441,-0.138938,0.0,24.063263,5.347595,57.249641,-4.147854,61.036377,-15.227509,41.235695,-24.76387,-29.811115,0.0,6.520844,18.011792,45.628491,37.958102,62.298632,51.56814,68.864183,62.09183,80.227432,0.0,66.338997,31.265087,91.803131,22.848072,91.344223,13.21003,77.735367,3.703823,56.477966,0.0,14.793855,29.009973,55.066794,46.534308,69.138355,58.570883,77.35894,66.215152,78.78556,-17.354565,280.468658,-46.026936,277.86032
113,-3.705883,0.027602,0.108032,-0.176483,0.0,31.166782,8.184986,62.436619,-1.178627,66.809978,-12.426281,46.833401,-21.953373,-24.219074,0.0,3.292223,17.157722,44.857537,37.299287,62.136784,51.123784,68.244024,61.969996,79.298891,0.0,66.589737,31.666946,91.333923,23.338394,90.925484,13.653831,77.256317,4.077873,57.169075,0.0,14.461452,29.048258,55.770317,46.567221,69.068145,58.670425,77.626628,66.305122,79.45197,-21.083622,280.396379,-45.942078,277.583956
114,5.921688,0.738473,-0.516815,0.209704,0.0,15.031586,4.166794,54.433594,-5.780182,57.367516,-16.946354,37.340012,-26.896191,-31.77475,0.0,8.91503,19.255137,44.982088,37.034254,60.615192,49.02569,66.911203,58.258426,78.234437,0.0,66.421967,31.704311,91.887817,23.131142,91.080437,13.177929,77.251167,3.411369,56.570206,0.0,14.102436,28.370795,55.362949,45.800281,68.787118,57.854084,77.361966,65.522251,79.549845,-15.174723,281.102279,-46.471682,277.761087
115,-2.701607,-1.715735,0.052757,0.459794,0.0,23.784027,4.121704,58.469467,-7.314606,61.004906,-19.139042,39.822464,-29.238911,-31.100235,0.0,10.261683,18.139245,46.459404,37.309414,62.0696,50.854552,70.469632,61.216518,81.690608,0.0,66.443825,31.315041,91.85463,23.084621,91.225433,13.663445,77.240753,4.535809,57.290154,0.0,13.520067,28.137316,54.452007,45.88988,68.169738,58.244162,76.717477,66.206013,79.236523,-17.883797,279.366969,-46.426392,278.201306
116,5.028076,0.305665,-0.186138,0.178644,0.0,11.286736,-1.132622,50.315895,-12.171135,53.442078,-23.021107,32.326584,-32.080364,-33.966408,0.0,11.914124,18.787254,45.883582,39.265543,61.6484,53.679077,70.160509,64.1136,80.618744,0.0,66.125507,31.101894,92.077274,22.933445,91.582432,13.409672,77.742176,4.073238,58.183994,0.0,13.802884,27.499928,54.429345,45.01957,68.209629,57.533476,76.59657,65.91134,80.220578,-12.828226,279.582647,-46.585035,278.289964
117,-2.885799,1.858934,-0.646992,-0.114424,0.0,19.803371,4.121189,56.547146,-6.127796,57.448368,-17.163963,36.968365,-26.598701,-25.006313,0.0,-1.329363,17.722677,41.74544,38.234805,58.091206,52.80568,67.864567,63.479053,77.959772,0.0,66.335793,31.403904,92.538185,23.198147,91.568871,13.520908,77.520332,4.025459,57.608299,0.0,13.374028,27.464978,54.480289,45.107132,68.464287,57.91744,76.890872,66.564165,81.220934,-15.682297,281.310208,-47.200298,278.044167
118,-7.520199,-0.50623,-0.306187,0.20779,0.0,31.233673,12.08519,63.3181,2.360287,62.414703,-9.07917,42.093887,-18.768139,-16.967411,0.0,0.232058,18.011484,41.740932,39.374224,58.569834,54.184196,67.190438,65.094938,76.948176,0.0,66.184902,31.581287,93.012829,23.42823,91.900463,13.718777,77.719631,4.169827,57.629986,0.0,13.384525,27.6979,54.506595,45.239093,68.11867,57.992776,76.727789,66.6416,81.349869,-23.157291,280.709114,-47.461281,278.157093
119,-0.543537,-0.430833,-0.083656,-0.261883,0.0,31.409855,9.66608,65.537167,-0.414562,67.569408,-11.553898,47.815647,-20.905323,-15.20462,0.0,0.221807,17.375331,42.646255,38.64279,59.035617,53.755524,68.044199,65.128654,77.6475,0.0,65.738354,31.434689,92.548084,23.135147,91.225491,13.356056,77.312107,3.697014,57.170048,0.0,13.386131,27.662517,54.883519,45.254036,68.548885,58.05749,77.204749,66.746391,81.308373,-23.639946,280.088321,-47.484055,277.70525
120,3.314209,0.455595,-0.526943,0.113312,0.0,26.928806,8.66106,59.452801,-0.822487,61.255589,-12.21817,40.678768,-22.260303,-27.480125,0.0,0.894763,19.861156,42.725666,39.952393,60.849535,53.840246,68.598039,64.390489,79.667788,0.0,66.590652,31.364307,92.505455,23.228188,91.80645,13.514385,77.970314,3.883152,57.82196,0.0,13.645483,28.011284,54.494862,45.507337,68.127562,58.147337,77.09471,66.722308,81.411373,-20.218306,280.344339,-47.903566,277.618984
