takenoko1/special-research/HandMotion_SimilarSearch_自分用/NewProject/handData/test_key/d4_feature_d2/96.csv
frame,vel_0x_L,vel_0y_L,vel_0x_R,vel_0y_R,posFromWrist_0x_L,posFromWrist_1x_L,posFromWrist_2x_L,posFromWrist_3x_L,posFromWrist_4x_L,posFromWrist_5x_L,posFromWrist_6x_L,posFromWrist_7x_L,posFromWrist_8x_L,posFromWrist_9x_L,posFromWrist_0y_L,posFromWrist_1y_L,posFromWrist_2y_L,posFromWrist_3y_L,posFromWrist_4y_L,posFromWrist_5y_L,posFromWrist_6y_L,posFromWrist_7y_L,posFromWrist_8y_L,posFromWrist_9y_L,posFromWrist_0x_R,posFromWrist_1x_R,posFromWrist_2x_R,posFromWrist_3x_R,posFromWrist_4x_R,posFromWrist_5x_R,posFromWrist_6x_R,posFromWrist_7x_R,posFromWrist_8x_R,posFromWrist_9x_R,posFromWrist_0y_R,posFromWrist_1y_R,posFromWrist_2y_R,posFromWrist_3y_R,posFromWrist_4y_R,posFromWrist_5y_R,posFromWrist_6y_R,posFromWrist_7y_R,posFromWrist_8y_R,posFromWrist_9y_R,posFromBody_0x_L,posFromBody_0y_L,posFromBody_0x_R,posFromBody_0y_R
2,9.457054,-20.839961,-0.587883,0.146225,0.0,-34.22493,-33.866615,-7.674751,-37.616444,-9.624596,-38.478069,-23.463821,-36.871433,-53.700199,0.0,5.791756,13.411634,29.57431,26.790601,39.380955,37.678249,46.208204,46.041848,55.43001,0.0,67.870331,17.704639,80.401497,6.980438,80.024529,-0.780373,67.708397,-5.762444,47.509689,0.0,19.527148,37.480648,60.515157,54.856411,70.568988,65.154959,77.841828,69.446489,77.334857,23.728981,301.899354,-53.831062,282.808659
3,-8.503418,14.78379,0.080338,0.864259,0.0,-59.566956,-46.259136,-1.308174,-49.43779,7.790222,-48.019123,4.511375,-44.310951,-28.257751,0.0,26.833395,1.348135,26.897491,7.346385,32.422301,11.975257,31.882417,15.655397,31.396318,0.0,66.950684,18.559971,81.22364,7.702732,80.168724,-0.402775,69.103661,-5.854626,48.874626,0.0,17.936272,35.852598,60.202638,52.91893,70.096845,63.632873,77.307873,68.644475,78.290569,15.353193,316.23144,-53.623095,283.221213
4,7.22271,-17.785971,0.832157,0.454607,0.0,-29.372978,-37.185345,-0.220184,-43.862743,-0.024719,-46.560802,-15.230026,-47.069206,-66.640034,0.0,-2.910544,15.733511,33.81502,31.194517,44.76874,42.541526,52.69317,51.403389,61.571027,0.0,67.027416,17.870522,81.407604,7.215443,80.160198,-0.78495,69.023266,-6.107769,48.941975,0.0,16.914549,35.293448,58.191056,52.469634,68.421062,63.287441,75.873596,68.211234,77.166341,22.683134,298.178475,-52.683706,283.408826
5,-23.287926,9.484678,-0.251884,0.01692,0.0,-8.820877,-21.091976,22.607346,-27.233791,25.429802,-29.421329,10.341568,-29.249496,-42.930508,0.0,-17.556692,11.406227,24.19801,27.083854,37.144046,38.39795,44.528407,46.304102,49.880316,0.0,67.573071,17.232628,81.45155,6.739883,80.442066,-0.886917,69.913502,-5.614185,50.789394,0.0,17.195575,35.545822,58.3718,52.731826,68.322817,63.628736,75.43702,68.648859,77.284346,-0.440683,307.606775,-52.771482,283.369368
6,14.715729,-3.577881,0.382633,0.505118,0.0,-48.071423,-39.674664,6.003227,-47.42569,9.921455,-50.42078,1.099434,-50.893879,-31.868763,0.0,20.089447,6.535478,34.951536,18.555937,43.923192,27.720748,47.118158,35.3983,50.78959,0.0,67.559624,17.151604,81.482162,6.643696,80.192299,-0.901051,69.589119,-5.693836,49.692078,0.0,16.65316,34.992415,57.77986,52.097835,67.560941,62.928363,74.598882,67.911621,76.932554,14.362764,303.950919,-52.30113,283.796511
7,-12.039642,0.76447,-0.119762,-0.236689,0.0,-15.26762,-26.374168,16.378212,-32.234802,19.474754,-34.120445,5.837631,-33.632469,-42.157631,0.0,4.518401,17.738547,28.148555,31.053973,40.020751,39.957889,44.833207,46.149479,52.402388,0.0,67.820034,17.455444,82.136021,6.773014,80.482349,-1.048336,69.666538,-5.930672,49.187908,0.0,17.104061,34.86348,57.917934,51.866703,68.05482,62.669382,74.793087,67.672029,77.300771,2.369642,304.669354,-52.374372,283.513787
8,16.340904,-4.892423,-0.198784,-0.080214,0.0,-44.156742,-41.852074,4.065056,-50.762272,6.232452,-54.255981,-4.333534,-54.993839,-40.432606,0.0,10.984843,10.642745,38.134276,25.352496,49.164011,36.217296,53.434546,44.677473,57.230961,0.0,67.0788,17.468605,81.914921,6.734962,80.210896,-1.140518,69.305592,-6.049862,48.530674,0.0,17.041138,35.129068,58.070705,52.079371,68.20049,62.706988,75.156612,67.434537,77.216852,18.78499,299.774553,-52.498713,283.431195
9,-20.35183,2.763146,0.093441,0.208593,0.0,3.214645,-24.709454,26.118393,-32.733192,28.23555,-36.08305,10.611534,-36.935349,-30.338631,0.0,-8.174581,17.863777,28.946555,33.972113,41.271691,44.590096,47.108772,52.255607,52.585169,0.0,67.744102,16.363106,81.901131,6.138496,80.795517,-0.975723,70.405083,-5.085182,50.587578,0.0,17.041385,34.902938,58.183152,51.852747,67.721986,62.644064,74.059554,67.607686,76.817513,-1.53883,302.607462,-52.377262,283.709551
10,14.071426,-9.411998,-0.140591,0.04199,0.0,-24.473419,-36.945934,13.982849,-48.956852,14.85569,-56.133385,1.74408,-60.30138,-25.01421,0.0,0.899395,12.014469,41.466945,30.374595,56.718556,44.648821,61.694898,56.182624,64.705416,0.0,67.75732,16.411114,81.459332,6.275253,80.779896,-0.653801,70.662861,-4.58456,51.301861,0.0,16.605489,34.991365,58.369639,51.964392,67.867778,62.771517,74.362687,67.736682,76.807138,12.601662,293.260672,-52.448788,283.81675
11,-23.349495,17.50618,0.053444,-0.282323,0.0,8.492661,-18.153706,28.819542,-26.297894,33.935051,-29.412403,21.162872,-29.598598,-10.439529,0.0,-3.840937,6.147315,22.468752,21.44493,36.014014,33.285757,40.532229,42.377949,42.881894,0.0,66.560841,16.064186,81.116123,5.928841,80.550098,-0.935097,70.662746,-4.678459,51.785145,0.0,17.389966,35.103627,58.610898,52.112531,68.408403,62.986408,75.161552,68.066182,77.615019,-10.691786,310.854322,-52.339296,283.621896
12,24.120941,-15.628659,0.252171,-0.277012,0.0,-27.963696,-40.266495,11.492729,-52.46727,13.570404,-59.256535,0.017395,-62.812443,-29.547729,0.0,0.131899,10.617119,40.458314,28.644719,54.983617,42.355966,59.605511,53.619797,63.168881,0.0,67.25132,16.826134,80.93399,6.35828,79.653168,-1.020985,69.43222,-5.379124,50.22789,0.0,17.345629,34.953759,59.309048,51.815635,68.93816,62.669258,76.195809,67.691172,78.605249,13.501453,295.22557,-52.014828,283.344791
13,-35.306282,16.260674,-0.163193,0.197848,0.0,4.403801,-10.108566,35.879402,-15.567398,46.275444,-17.531776,38.226814,-17.233601,18.967438,0.0,12.072144,1.916424,20.127362,15.82027,37.586056,27.757057,40.614604,37.039503,42.366402,0.0,66.814384,17.357197,81.772041,6.503735,80.13073,-1.388111,68.722687,-6.34243,48.656616,0.0,17.539093,35.119991,58.285596,52.088696,69.387579,62.807394,76.41595,67.871792,78.153915,-21.714563,311.493701,-52.087755,283.550096
14,34.760857,-7.748997,0.033875,-0.052056,0.0,-39.986629,-40.708694,8.561783,-49.049149,12.562637,-52.372456,4.631538,-53.307781,-18.413658,0.0,13.726067,6.751543,35.773743,19.899688,47.502986,30.018543,49.174755,38.525279,50.407726,0.0,67.094307,17.40469,81.20533,6.749325,79.334221,-0.987625,68.405457,-5.88541,48.864098,0.0,16.828284,35.495681,59.143927,52.288643,69.163487,62.846297,76.191919,67.687344,78.07753,13.119621,303.789442,-51.980553,283.542778
15,-31.744995,10.406118,-0.151348,-0.275283,0.0,11.964111,-3.342075,37.204628,-8.849258,43.077278,-13.006439,30.867004,-16.453571,11.744843,0.0,-11.367016,4.713594,17.298452,19.223089,32.552285,30.569788,38.415302,38.978342,39.184835,0.0,66.824169,17.433815,81.740284,6.626472,79.688473,-1.212902,68.643665,-6.109085,48.938541,0.0,18.023834,36.07774,58.742611,52.973888,69.213814,63.477633,76.586628,68.28058,78.63211,-18.560629,314.20916,-52.067156,283.281096
16,36.720657,-1.550059,-0.608883,0.116091,0.0,-56.1022,-46.847591,-1.076431,-51.106339,7.21756,-50.06155,4.84623,-46.580429,-17.761459,0.0,17.840559,6.520164,32.58983,12.97722,38.628711,17.527052,36.878087,21.36836,35.881744,0.0,67.042351,18.502121,82.066383,7.691002,80.056,-0.386066,69.194183,-5.664654,49.271049,0.0,17.558483,36.175985,59.286756,52.894971,68.924451,63.348204,76.607067,68.183076,78.788339,18.186808,312.647569,-52.64926,283.385655
17,0.794106,-6.212771,0.320377,-0.042237,0.0,-22.239876,-35.352688,0.426521,-40.545444,1.663399,-41.248169,-8.094177,-38.788948,-25.280685,0.0,-1.526347,11.24617,26.066578,24.770499,37.458047,34.975804,42.650577,42.378443,48.310311,0.0,66.439991,17.734795,81.071148,6.787148,79.630222,-1.357613,68.335247,-6.694393,48.166637,0.0,17.684453,35.165131,59.550801,52.00842,69.519478,62.604791,76.899208,67.526113,78.95068,19.000425,306.412476,-52.30937,283.321094
18,-1.831284,6.25791,0.135727,0.03421,0.0,-56.389618,-46.311436,0.161247,-50.37632,7.811394,-49.407349,5.392342,-46.20575,-17.805061,0.0,20.897636,5.719817,33.102296,12.118457,39.335877,16.542009,37.552834,20.453774,36.293311,0.0,66.426373,17.346611,80.93256,6.335907,79.726925,-1.841183,67.983913,-7.118397,47.463055,0.0,17.649997,34.957773,58.950587,51.868988,69.778707,62.44109,76.862282,67.321719,78.533618,17.173862,312.62574,-52.168922,283.310659
19,1.070366,-8.001989,-0.526714,-0.426387,0.0,-22.838402,-35.608578,-0.069122,-39.917679,1.539001,-39.797401,-7.067757,-36.858101,-24.312172,0.0,2.903998,13.867908,30.897251,26.288324,40.679319,35.419357,44.557245,41.712156,50.059639,0.0,66.479988,18.376923,81.242294,7.351456,79.678001,-1.032257,68.279572,-6.655369,47.845917,0.0,17.715143,35.096094,59.421372,51.839594,69.658602,62.394839,77.622182,67.236442,79.696996,18.254642,304.622779,-52.685223,282.883299
20,-8.831978,-0.525373,0.34647,0.512837,0.0,-39.797745,-39.833622,10.584869,-46.486759,15.637894,-48.820953,8.329697,-48.911705,-14.264717,0.0,16.752578,8.196688,34.713426,20.21196,45.886052,29.228384,47.178303,36.86586,48.621039,0.0,67.085896,16.755066,80.720387,5.772686,79.815273,-2.121792,68.292103,-6.887627,48.729687,0.0,18.209702,34.561767,59.586184,51.675709,69.665518,62.551191,76.498695,67.791208,77.901664,9.431849,304.111347,-52.329569,283.410077
21,-28.933468,14.600638,-0.576839,-0.259043,0.0,-2.227421,-3.093452,33.522434,-5.063267,41.183109,-6.025944,33.657589,-6.727524,14.364223,0.0,-2.862687,3.51224,15.23642,14.728276,29.746964,23.85369,32.992195,30.578495,33.734806,0.0,66.661606,17.661152,80.722733,6.820793,79.931374,-1.124382,68.965416,-6.101818,49.438248,0.0,17.854638,35.217989,59.843868,52.156127,69.73789,62.764169,76.906124,67.653257,78.736468,-19.491405,318.738723,-52.896194,283.177772
22,26.995983,-18.576129,0.012131,0.249225,0.0,-33.044128,-37.37709,14.140205,-46.275101,17.812386,-50.617561,9.139595,-52.710285,-14.331207,0.0,14.879009,7.309088,38.073019,22.23268,51.724677,33.895048,53.905146,43.742201,55.466628,0.0,66.947136,17.948742,80.734634,6.93821,79.836159,-1.228695,68.604584,-6.406689,49.239006,0.0,17.76794,34.633954,59.615021,51.544242,68.946187,62.24423,76.594779,67.242061,78.480142,7.504606,300.167425,-52.884035,283.431828
23,-17.346268,10.538758,-0.180416,0.181114,0.0,7.295494,-18.692493,27.740364,-25.411663,35.187492,-26.88303,27.108192,-25.418758,6.214714,0.0,-7.886516,5.069585,19.798108,21.157358,36.897477,34.307911,41.622186,44.146296,42.224191,0.0,67.501316,17.649307,80.913219,6.581898,80.019779,-1.50444,68.670559,-6.652336,49.248562,0.0,17.364648,34.07962,59.260512,51.093711,68.856896,61.925104,76.828381,67.108742,78.498112,-9.836826,310.724862,-53.059616,283.631622
24,2.000198,-16.990132,1.220627,-1.277431,0.0,7.182198,-25.962467,32.038651,-36.154747,34.214172,-41.731453,20.898514,-45.361004,-3.233185,0.0,-4.483512,13.298445,38.542199,32.90346,53.871121,47.55356,62.096153,58.832829,63.386119,0.0,66.025372,16.938972,79.364948,6.42334,80.455914,-1.253986,68.68372,-6.479702,49.829693,0.0,17.998454,32.530364,60.695653,49.526733,71.914962,60.813226,80.328703,66.699831,82.538256,-7.81949,293.721917,-51.821852,282.341378
25,-12.357044,5.816518,3.103752,-1.343442,0.0,31.356525,-9.155502,46.56332,-18.862495,50.385418,-23.860016,39.339466,-26.751595,21.976261,0.0,0.462572,8.420842,41.960269,27.178579,60.959019,42.958835,66.946771,55.910984,66.890208,0.0,62.681751,17.784119,76.045246,7.291374,75.733395,-1.716385,62.540302,-9.581165,43.514843,0.0,16.869657,30.95153,66.046944,47.198495,82.745367,58.04582,92.200405,64.313919,91.204803,-20.072908,299.611486,-48.614473,281.070987
26,1.164551,21.971723,1.522522,-9.728716,0.0,-30.082912,-19.342747,22.057743,-18.284798,34.223957,-15.784378,34.168911,-12.275963,16.357327,0.0,23.920504,4.282206,31.68568,3.635123,36.589466,3.358111,31.72094,4.192112,24.596239,0.0,61.459179,17.391701,69.589634,5.780869,63.082066,-5.338955,45.385838,-15.218296,23.111,0.0,13.7336,24.65132,67.736867,39.551942,87.265126,51.189239,95.963104,59.323621,92.557075,-18.847103,321.602969,-47.030697,271.362031
27,42.684231,-6.47132,8.068199,-7.502181,0.0,-76.712894,-44.559116,-70.8811,-40.420761,-58.206654,-34.340172,-48.231812,-26.475449,-42.516232,0.0,23.451818,1.749142,2.555232,-14.959717,-12.157112,-30.872736,-25.584307,-45.998252,-37.971502,0.0,38.047657,16.77412,27.359104,4.246788,14.08556,-8.682632,-2.916412,-21.546364,-13.290367,0.0,42.526829,22.121221,55.457798,30.937512,65.232888,38.066103,65.49755,43.920598,66.246089,23.908424,315.318305,-38.891201,264.046506
28,12.448997,-17.768805,-14.083385,-45.121211,0.0,-64.225445,-34.836502,-73.254433,-36.140213,-75.429554,-35.237732,-58.972836,-32.010956,-37.477455,0.0,10.417233,14.875242,19.761367,-0.746562,12.078813,-17.788132,-4.943985,-35.753797,-22.806959,0.0,42.743454,53.969421,41.210575,53.181953,30.431099,46.450768,19.175377,34.797134,21.507397,0.0,21.132658,37.174242,72.7305,46.116319,84.052006,51.274084,85.555752,53.430964,85.557542,36.394529,298.021984,-52.937479,219.397778
29,-16.11145,-38.34608,-36.490459,-67.890132,0.0,-38.090115,-28.944969,-44.643345,-19.679832,-35.207462,-8.925018,-27.831116,2.491264,-15.930862,0.0,27.216494,22.200385,27.226004,23.810465,26.041631,23.143931,26.478021,22.028163,21.95258,0.0,56.240158,38.5112,55.739079,39.266567,46.78997,37.025127,38.941841,33.443184,36.86451,0.0,3.588872,-12.653894,10.489728,3.820066,25.659643,23.756124,41.175113,44.241638,54.390689,19.648218,260.734615,-90.062799,152.566357
30,60.372963,-80.772812,-7.181225,-35.460359,0.0,-57.730751,-42.933655,-85.905991,-39.673462,-85.472946,-32.331505,-67.62085,-22.656555,-54.990807,0.0,25.462721,10.181223,41.52814,24.216968,55.481572,37.738703,60.540474,49.210694,66.729656,0.0,41.040859,19.815388,37.118454,16.086617,34.958839,12.455978,32.920303,9.30582,25.286236,0.0,-21.841491,-30.25974,-39.067263,-26.181588,-35.042155,-18.652762,-20.397056,-7.624478,-9.087623,78.944321,181.883862,-98.320885,119.028056
31,21.322174,-46.950999,-11.047955,-54.107286,0.0,-72.191505,-33.345909,-57.006569,-29.747086,-46.469421,-25.330811,-36.021881,-20.037804,-27.197342,0.0,19.188385,-16.609688,19.544685,0.411134,33.82984,19.338068,43.375404,38.644334,53.84111,0.0,21.952858,5.454769,23.228188,-9.467869,9.868813,-22.642994,16.82991,-31.465759,10.427914,0.0,-26.089549,-51.220269,-103.356111,-48.522918,-96.882012,-38.156413,-18.569862,-22.614915,-8.533104,100.144587,135.866313,-109.490747,65.854221
32,13.790817,-56.607405,-11.450615,-48.371444,0.0,-54.793854,-24.051476,-47.316284,-15.137444,-38.122101,-7.901001,-27.271385,-1.149902,-26.398201,0.0,-9.749958,-24.576571,-2.166143,-11.902392,15.732955,4.059102,33.470298,21.418532,49.959418,0.0,3.411255,1.515713,7.199249,-16.459522,3.613586,-33.275814,-8.367691,-47.487373,-22.963028,0.0,-52.822939,-59.094712,-122.492563,-59.290492,-111.132247,-53.135334,-22.443527,-41.902625,-17.580713,114.037457,84.197984,-120.83931,22.421852
33,5.428391,-22.124277,-15.401917,-46.92528,0.0,-23.936005,-9.615555,-35.535736,0.950203,-30.281525,10.470314,-12.916832,18.506699,-6.56147,0.0,-25.654703,-47.432838,-88.674857,-45.871201,-79.971477,-36.900657,-10.164056,-22.242004,-0.460565,0.0,-3.660164,1.060982,7.377548,-15.534267,-0.630112,-31.440697,-5.270176,-45.981388,-16.019325,0.0,-57.463698,-57.919169,-125.447691,-57.843216,-129.968253,-50.508348,-27.288063,-39.172393,-20.70232,119.467936,63.137172,-136.239138,-23.439962
34,-3.30471,-43.406464,-22.406158,-25.822293,0.0,-5.342216,0.050468,-17.621384,13.942223,-12.604408,25.639801,1.209984,34.24015,10.942726,0.0,-43.424372,-57.791006,-108.755412,-57.217808,-98.533589,-49.949847,-20.655173,-37.458634,-11.795595,0.0,6.639519,12.094288,13.062,-1.147728,4.834785,-15.629826,-5.044384,-31.406651,-15.998211,0.0,-62.074077,-45.849403,-107.06447,-46.180046,-124.746963,-43.227048,-41.662571,-37.895487,-37.31176,115.071745,19.326922,-159.736776,-49.666042
35,7.998047,-41.25227,-15.745697,-49.956516,0.0,-9.510498,-6.155548,-21.299286,8.374786,-16.339645,22.838631,-3.915024,35.293579,9.050102,0.0,-47.301834,-56.592647,-115.61738,-57.368695,-120.947537,-51.538221,-23.778941,-42.823201,-17.988698,0.0,-8.310699,3.895569,15.162106,-13.120594,-3.415146,-28.80106,-7.047043,-42.912426,-20.423985,0.0,-62.689312,-57.386202,-124.631119,-57.260046,-133.250689,-49.445485,-28.530821,-37.81024,-23.002183,121.680164,-21.946127,-176.872101,-99.643336
36,1.667747,-37.474349,-17.641811,-25.992755,0.0,-9.311028,-7.3209,-24.625969,7.412109,-22.117538,22.105293,-3.481293,34.952431,9.560852,0.0,-44.46042,-54.85885,-117.119907,-56.071751,-125.60463,-50.484204,-27.414188,-41.69922,-21.706474,0.0,-3.343563,4.124508,7.619877,-9.570351,-5.53299,-23.741398,-9.427986,-39.26199,-21.364002,0.0,-61.229887,-51.148422,-120.845402,-50.546988,-129.639757,-44.927346,-35.276127,-36.411208,-27.461952,123.043442,-58.717926,-194.818382,-124.933542
37,0.611916,-25.639512,-17.693424,-20.708032,0.0,-7.813225,-8.983955,-27.203979,5.192986,-23.868027,19.824829,0.85659,34.090004,13.825264,0.0,-52.184084,-53.314549,-113.272656,-56.029946,-124.874848,-51.888115,-30.941588,-44.733511,-27.664308,0.0,-5.212841,-0.155697,-2.965221,-12.833405,-8.70821,-26.30928,-12.423019,-41.580505,-25.328808,0.0,-64.086322,-51.996518,-119.399879,-50.382439,-129.242107,-44.44401,-36.746096,-35.640424,-28.235947,122.769184,-83.709522,-213.39798,-144.993657
38,7.637787,-20.345618,-12.755814,-16.56143,0.0,-9.307365,-12.498665,-24.985886,1.08902,-25.022392,14.774895,-0.956726,29.477005,9.614525,0.0,-55.980824,-52.569206,-112.98655,-56.548202,-118.529453,-53.66858,-37.547184,-47.128393,-34.140799,0.0,-10.708752,-2.370815,-8.722229,-15.916214,-14.939232,-30.556183,-17.326527,-46.958485,-28.84037,0.0,-66.509609,-53.95362,-123.464075,-52.727998,-134.791038,-45.585574,-33.597149,-34.137557,-28.515074,130.299025,-102.417396,-226.26174,-159.917342
39,9.925461,-28.698473,-1.486702,-8.125752,0.0,-5.10498,-11.181793,-27.826309,2.229881,-22.431793,16.818352,-2.511406,32.009697,9.462891,0.0,-51.951502,-53.605687,-112.273889,-57.420844,-124.334393,-53.528993,-36.560767,-46.050987,-30.675212,0.0,-13.115788,-4.500732,-7.504692,-18.815689,-15.329704,-32.994118,-14.190216,-47.205105,-24.762039,0.0,-65.933354,-56.626023,-128.365213,-55.113308,-135.107748,-45.968535,-29.553577,-32.153115,-25.219625,140.178652,-129.617758,-227.794275,-166.544983
40,17.10434,-21.764211,13.770504,0.310111,0.0,0.309448,-14.968987,-26.197014,-0.289192,-24.975815,14.438438,-1.835289,31.010628,9.667053,0.0,-53.396353,-48.011023,-114.153047,-51.436441,-120.565356,-48.135913,-40.270469,-41.619206,-35.243013,0.0,-12.43269,-2.682209,0.298233,-16.978626,-1.62838,-30.784435,-5.730858,-44.18066,-18.119488,0.0,-63.517261,-55.827498,-121.563991,-54.921233,-125.168209,-46.39452,-28.67104,-34.23679,-20.092009,157.075853,-151.046494,-214.230909,-165.899398
41,19.053383,-19.527456,13.637295,9.388208,0.0,1.895027,-11.531525,-21.156921,2.426605,-17.679863,16.127129,2.849464,31.398582,14.016266,0.0,-59.037068,-48.96377,-118.898064,-49.95474,-114.373465,-45.561368,-40.509413,-38.626581,-33.711433,0.0,2.04586,2.874298,20.453854,-8.09206,29.169788,-20.170727,6.442223,-33.603287,-8.512173,0.0,-56.702146,-51.734433,-110.116144,-51.533467,-110.16407,-46.151131,-28.437747,-37.517667,-22.466205,176.243849,-171.658226,-200.479002,-157.595465
42,19.113235,-15.292196,28.303928,24.178683,0.0,11.478882,-8.172455,-9.534416,6.787834,-10.074005,21.465912,10.156746,37.747192,21.655655,0.0,-57.948254,-51.880458,-123.914312,-52.844737,-127.18192,-47.001851,-36.546781,-37.81958,-30.321953,0.0,7.586803,10.497522,32.987909,-1.934938,33.759184,-15.951691,5.615787,-31.313553,-7.599649,0.0,-57.37653,-51.513005,-109.797513,-53.729512,-115.425032,-50.386584,-30.256568,-43.725645,-28.612401,195.572062,-189.105496,-171.960096,-135.571856
43,15.099564,-3.572863,28.303928,24.178682,0.0,12.643547,-6.161041,-7.852592,9.897308,-1.456146,24.9646,17.576065,40.504303,28.642616,0.0,-49.985754,-59.806555,-129.118969,-61.444115,-140.108983,-54.197673,-37.33291,-42.028612,-32.537373,0.0,13.127747,18.120747,45.521965,4.222183,38.348579,-11.732655,4.789352,-29.023819,-6.687126,0.0,-58.050914,-51.291575,-109.47888,-55.925557,-120.685993,-54.622037,-32.075387,-49.933622,-34.758597,211.668377,-192.093259,-142.659416,-110.808073
44,-4.76738,5.59255,-4.262466,-1.301019,0.0,14.325027,-3.912506,-5.851822,11.254234,-2.104225,26.566086,14.881668,42.378273,27.003365,0.0,-54.239323,-56.368864,-125.906057,-57.826606,-132.946823,-51.401938,-34.901302,-40.893716,-32.046009,0.0,18.632469,20.318012,47.919674,7.022209,42.928276,-8.735619,4.751186,-25.745773,-7.199707,0.0,-56.333666,-50.938517,-108.330168,-55.727971,-116.567117,-54.093546,-31.516855,-49.393954,-31.644647,207.939634,-185.860049,-145.883245,-111.468432
45,-11.378059,12.953106,-11.89476,-14.757083,0.0,6.088257,-11.208115,-16.439781,4.841423,-16.091995,21.542816,7.762985,39.08844,21.757851,0.0,-48.795484,-56.089813,-122.664677,-56.096004,-120.589894,-49.791148,-32.406647,-40.057955,-29.328358,0.0,10.064449,13.20837,34.666386,-1.01223,25.670242,-16.293182,4.399223,-33.830452,-10.6493,0.0,-57.047917,-51.730435,-112.697651,-52.727874,-103.856876,-48.701238,-40.50049,-42.096475,-33.219684,197.726383,-173.11146,-156.613197,-126.430032
46,-14.040642,12.418224,-28.858051,-17.654103,0.0,-7.685509,-14.334641,-34.800339,-1.255875,-35.06424,12.667923,-5.573959,28.34507,7.846642,0.0,-38.442487,-51.505154,-108.203425,-51.624456,-91.642953,-46.076861,-21.594798,-37.116845,-20.632573,0.0,7.974873,14.866562,27.004738,3.639336,15.876617,-9.233208,-1.333351,-23.840332,-13.97707,0.0,-60.868184,-51.223758,-117.104346,-52.342119,-122.097299,-47.614075,-49.592898,-39.607054,-35.809527,183.750601,-161.395385,-185.406389,-144.786284
47,-22.095852,32.718672,-28.547516,-15.820471,0.0,-10.220433,-18.117943,-40.142384,-5.147725,-40.085392,9.3544,-4.323635,25.701713,7.680358,0.0,-46.677823,-51.830764,-107.794776,-54.728873,-104.949318,-51.638242,-30.926274,-45.225438,-30.683733,0.0,1.470051,13.505974,16.790199,2.846317,8.617516,-9.717236,-5.059147,-23.029804,-18.399982,0.0,-58.55472,-54.361142,-125.997115,-53.446201,-129.208631,-46.802521,-55.611495,-37.112893,-39.637219,161.347046,-131.831093,-214.261608,-163.761135
48,-22.095852,32.718672,-21.998863,-13.581988,0.0,-12.755356,-21.901245,-45.484428,-9.039574,-45.106544,6.040878,-3.073311,23.058357,7.514076,0.0,-54.913159,-52.156374,-107.386128,-57.83329,-118.255682,-57.199623,-40.257749,-53.334032,-40.734894,0.0,-1.710663,4.658718,4.579582,-7.925205,-3.432827,-20.779037,-13.775425,-35.690002,-25.163383,0.0,-63.227482,-56.919863,-126.076982,-56.411286,-136.670512,-49.709082,-47.92434,-39.376787,-34.474946,138.504381,-100.619379,-237.007284,-178.85008
49,-1.392403,1.797338,-12.790833,-9.339194,0.0,-11.853447,-20.654411,-43.309479,-7.80407,-44.704514,7.219162,-2.773361,24.478111,7.364044,0.0,-52.860097,-51.337594,-106.358076,-56.827144,-115.488229,-55.693577,-39.515663,-51.628176,-40.120539,0.0,-12.342396,-1.576595,-4.145222,-16.919804,-14.178028,-31.383476,-21.435413,-46.599369,-31.568871,0.0,-66.951402,-60.168305,-131.516537,-58.27002,-141.097576,-49.723037,-35.059522,-37.644147,-30.970626,136.491652,-99.915748,-250.418444,-189.282982
50,11.56929,-12.905929,-3.642483,-1.845365,0.0,-9.018631,-21.21563,-38.996658,-6.790695,-33.637047,8.774872,-4.583244,27.137032,9.27887,0.0,-51.971586,-51.171362,-113.176896,-53.837838,-91.671018,-51.146122,-42.770219,-44.770963,-39.349586,0.0,-13.536301,-1.801014,-3.538399,-16.811199,-15.396938,-31.043644,-16.297646,-44.563236,-25.464821,0.0,-64.963919,-60.276368,-130.195742,-58.157233,-138.681121,-47.748938,-29.076756,-33.126441,-22.447201,147.861843,-112.839384,-254.260025,-191.146054
51,16.15036,-17.208667,10.468483,8.246366,0.0,-1.504211,-16.254158,-27.593994,-1.917915,-26.997643,13.393936,2.950859,30.825806,13.428841,0.0,-54.836095,-50.004094,-114.095958,-52.619271,-112.099475,-48.690354,-38.52582,-40.606453,-34.770298,0.0,-15.306358,0.949631,3.595448,-13.201504,-3.612957,-27.71347,-11.075764,-42.823734,-25.041447,0.0,-56.968661,-55.671562,-124.756796,-55.081229,-132.322418,-47.126124,-31.138108,-35.668242,-25.923657,163.802261,-130.165623,-244.001484,-183.01726
52,23.303146,-15.119434,14.634933,12.940061,0.0,1.601486,-14.557686,-19.949799,-0.514641,-19.527626,13.477592,8.403511,29.555397,17.804718,0.0,-58.067062,-49.742643,-118.990327,-52.660535,-124.705158,-49.191274,-41.972234,-41.977405,-35.164266,0.0,-4.15163,4.917469,16.244831,-7.961025,20.809994,-22.421608,1.51926,-37.539024,-12.726116,0.0,-54.674448,-53.274319,-115.552867,-53.453472,-116.774058,-46.908947,-28.809408,-36.802613,-22.784451,186.65308,-145.025721,-229.818878,-169.817863
53,19.650421,-12.976108,11.336288,11.545444,0.0,10.017586,-9.918365,-14.442673,5.495453,-7.406273,20.587921,12.798042,37.209663,25.28595,0.0,-54.230632,-55.759526,-126.86203,-57.57488,-133.225263,-50.586817,-37.729795,-39.046592,-31.353556,0.0,10.552311,10.382309,36.420536,-0.245934,44.236736,-11.489353,15.065632,-23.747177,0.348701,0.0,-48.337034,-48.868288,-102.086229,-48.81949,-100.081069,-43.174236,-21.355145,-34.951351,-18.543927,205.885191,-156.909865,-218.9009,-157.180456
54,12.221947,-4.871382,16.975994,15.669738,0.0,12.103157,-6.469917,-11.362953,9.683533,-4.45118,25.213623,18.428535,41.238441,29.271126,0.0,-52.759367,-58.92726,-128.609837,-60.896975,-141.296529,-53.889384,-35.156115,-42.092678,-30.844717,0.0,15.746899,12.798328,44.633617,3.349857,52.33366,-7.690544,15.108032,-20.114937,-0.842514,0.0,-45.747669,-46.728636,-98.385295,-48.377419,-99.11412,-44.76664,-15.273903,-37.385027,-17.06681,218.077641,-160.856566,-201.954403,-140.586036
55,1.742363,1.289488,21.954918,20.028453,0.0,14.603348,-3.774605,-13.187828,11.772423,-3.338585,27.013779,17.879791,42.387543,28.63678,0.0,-57.245781,-59.963232,-130.630094,-61.545169,-142.654899,-54.783715,-36.047868,-44.050953,-35.296057,0.0,11.337719,12.081928,38.245354,0.468063,38.87146,-13.412075,6.788692,-28.041286,-5.866528,0.0,-52.640204,-48.270143,-105.999291,-51.293288,-113.232641,-48.438366,-23.46846,-41.965086,-20.629547,219.894133,-158.063394,-179.925356,-119.053899
56,-3.940544,0.603919,13.328762,13.255436,0.0,12.111053,-5.414314,-14.897118,10.124702,-4.790611,25.937347,16.720047,42.008743,28.424492,0.0,-55.966498,-58.545982,-130.531911,-60.746752,-142.732982,-54.604145,-34.223097,-44.832544,-33.672284,0.0,8.01899,12.398129,31.486473,-2.150517,24.304161,-18.634644,-1.041069,-35.005589,-11.25515,0.0,-60.032593,-54.708472,-117.714872,-57.261157,-128.117995,-52.886387,-32.114074,-45.187423,-28.331984,216.007776,-156.63804,-166.542406,-104.977028
57,-4.332848,3.590061,-0.573921,3.598752,0.0,7.857971,-6.486397,-18.002586,9.445381,-7.955246,25.451431,15.098534,41.719437,27.543297,0.0,-57.143862,-58.238218,-128.429472,-60.704298,-138.855705,-54.374896,-36.386461,-44.064832,-33.807393,0.0,10.116634,12.392979,30.765038,-2.454014,22.550812,-18.447647,0.662498,-34.298115,-9.218788,0.0,-62.822924,-56.233291,-121.539955,-58.851462,-131.914719,-54.355306,-33.653172,-46.583044,-30.500103,211.631784,-152.291737,-167.159472,-100.622034
58,-3.485756,3.331852,-1.61459,-0.928448,0.0,10.401878,-6.949425,-17.588768,8.889885,-9.708252,24.949722,15.689392,41.308594,27.490082,0.0,-55.630051,-57.979283,-128.767447,-60.871796,-138.986314,-54.810962,-35.449059,-44.52481,-32.05961,0.0,8.605957,12.188301,30.681267,-2.29866,22.064266,-17.987652,-0.981102,-33.782902,-10.554028,0.0,-61.919901,-57.595968,-121.64331,-59.71572,-133.369003,-54.430734,-32.803177,-46.075008,-29.944843,208.22299,-148.166656,-168.6971,-100.757252
59,-0.826035,2.864864,-0.8951,-1.050961,0.0,10.007286,-7.265968,-20.113106,8.614426,-9.267197,24.856339,15.473557,41.402664,27.805824,0.0,-56.633063,-58.377774,-128.565786,-61.854477,-139.773609,-56.021085,-36.976409,-46.107705,-34.567294,0.0,9.417171,12.406654,31.026592,-2.224503,21.307125,-17.945938,-0.66021,-33.792114,-10.726032,0.0,-61.27285,-57.768606,-121.526941,-59.726681,-132.993885,-54.194292,-33.173232,-45.531373,-29.542756,207.631788,-145.037808,-169.357367,-101.54423
60,-0.670853,1.375151,0.352993,0.229125,0.0,10.774384,-6.920357,-18.42659,8.959007,-9.439316,25.280571,16.174278,41.793938,27.759933,0.0,-54.531634,-58.671737,-128.893495,-61.862427,-140.654417,-55.898958,-36.802134,-45.585312,-33.095596,0.0,8.912773,12.962837,30.495586,-2.149601,21.379166,-18.487244,-1.10939,-34.658146,-11.968002,0.0,-62.444734,-57.897881,-121.940453,-60.374721,-133.743303,-55.24479,-33.902288,-46.872839,-28.664726,207.245464,-143.469765,-168.719845,-101.122212
61,0.188026,0.869755,0.553322,0.656808,0.0,9.984055,-7.8368,-20.171013,8.507767,-8.561897,25.038528,16.412888,41.833878,28.073158,0.0,-57.174444,-58.836811,-129.492366,-62.129112,-141.292484,-56.007963,-35.340625,-45.829813,-32.652537,0.0,10.361881,12.095547,30.943565,-2.789268,22.369595,-19.112492,-0.29171,-35.243626,-10.754414,0.0,-61.606734,-57.187581,-121.363056,-59.182043,-132.81399,-54.149029,-32.361631,-45.99992,-29.149776,207.66552,-142.25268,-167.934494,-100.118073
62,0.300522,0.460025,-0.272083,1.541877,0.0,8.143387,-7.628174,-19.9189,8.390465,-9.604912,24.704819,15.581818,41.37188,27.487221,0.0,-56.153015,-59.105086,-129.311129,-62.23557,-140.763638,-56.237582,-35.158168,-46.372645,-33.359672,0.0,11.464806,12.357101,31.657734,-2.675743,22.513733,-18.929844,-0.156727,-35.005932,-11.335545,0.0,-62.114986,-57.021519,-121.451004,-59.321954,-133.009924,-54.412441,-33.153395,-46.414805,-29.192878,208.092442,-141.165193,-168.080177,-97.948735
63,-0.628166,1.392055,1.070194,1.17829,0.0,9.514503,-8.045998,-20.391541,8.000336,-10.321198,24.429359,15.102425,41.26339,27.22538,0.0,-56.151363,-59.300356,-129.15896,-62.480209,-140.448194,-56.453168,-35.661156,-46.414527,-34.087123,0.0,9.761753,11.678123,30.573635,-3.311691,21.996746,-19.459534,0.177498,-35.409737,-10.76231,0.0,-60.651208,-57.242632,-121.856025,-59.324084,-132.7385,-54.36003,-30.487074,-46.457305,-29.445283,207.590933,-139.557737,-166.883326,-96.555044
64,-1.291351,2.37861,0.478592,2.878156,0.0,9.441833,-7.548294,-20.41935,8.442764,-10.095634,24.917793,15.165024,41.657524,27.16095,0.0,-54.563251,-59.228093,-130.019082,-62.050087,-141.207106,-56.026921,-36.359044,-45.986072,-34.688402,0.0,9.862747,11.713715,30.466347,-3.202343,21.39061,-19.434185,-0.03233,-35.428276,-10.960464,0.0,-62.304992,-56.975963,-122.089673,-59.441518,-133.069622,-54.918377,-31.855926,-47.308272,-30.202034,206.567001,-137.005655,-166.137314,-93.503416
65,-0.761604,3.411865,2.018051,2.169693,0.0,8.719368,-9.031563,-22.470703,6.871376,-14.044418,23.088112,12.351494,39.799576,24.692459,0.0,-53.652417,-58.480635,-128.602836,-61.333458,-140.270376,-55.390011,-35.355569,-45.29754,-32.976573,0.0,8.892403,11.381493,29.295731,-3.760014,20.850677,-19.935493,0.382805,-35.750084,-11.331482,0.0,-61.044805,-56.176141,-122.926576,-58.291185,-131.995983,-53.473773,-31.908754,-45.585899,-28.791346,206.001463,-133.555798,-163.923197,-91.29573
66,-2.966423,6.990301,2.516041,4.6524,0.0,9.23069,-11.554527,-23.337135,4.489174,-13.143196,21.136665,12.680855,38.131714,24.60228,0.0,-52.951086,-60.203456,-127.624547,-63.133297,-141.718292,-56.874692,-34.73456,-46.34935,-32.089729,0.0,9.901142,11.93716,29.779987,-3.671265,20.96735,-20.437489,1.254387,-36.636658,-11.972179,0.0,-59.589719,-56.412521,-123.315789,-58.767157,-131.804062,-53.989713,-31.535719,-46.021347,-27.404771,203.251333,-126.567118,-161.190863,-86.644952
67,-5.223885,10.055962,1.576881,8.355695,0.0,4.848061,-12.734642,-24.954414,3.30883,-15.860825,20.114594,12.275162,37.24514,23.279572,0.0,-55.565321,-59.688195,-127.921752,-63.005041,-140.597583,-57.035583,-35.222173,-46.851072,-31.285615,0.0,11.552982,11.257439,30.678406,-4.304295,22.004356,-20.173073,3.046932,-35.694408,-9.317837,0.0,-57.114098,-58.747196,-123.51728,-61.288195,-135.740651,-56.42325,-33.460727,-47.462386,-31.071264,198.827133,-116.503375,-158.814297,-78.281476
68,-6.702347,14.70512,3.197708,10.594086,0.0,5.411224,-13.910522,-28.62133,2.526169,-18.742104,19.712219,8.158607,36.63826,21.282349,0.0,-52.365924,-60.062619,-127.887172,-62.314193,-136.16571,-55.999349,-34.200311,-45.387664,-30.521299,0.0,13.616295,12.183208,31.203232,-3.258018,22.418804,-19.205589,4.424286,-34.685669,-8.212452,0.0,-56.652082,-59.693876,-122.735428,-62.140119,-135.489265,-56.992419,-34.736706,-47.702101,-30.593223,192.602034,-102.361342,-155.139341,-68.250476
69,-9.219933,15.909284,5.512848,12.291852,0.0,5.308456,-15.041199,-26.225052,1.155853,-23.723259,18.274155,4.609108,35.7621,19.290619,0.0,-48.275592,-57.798432,-124.938976,-59.398385,-126.730509,-54.238058,-28.121323,-45.00688,-26.395955,0.0,10.702114,11.717091,31.708317,-3.946953,21.878643,-20.307255,0.764294,-35.970325,-10.017128,0.0,-57.811662,-59.60051,-123.377045,-61.487232,-133.315126,-55.89459,-29.903903,-47.019851,-25.220103,183.487587,-89.017912,-149.521008,-58.524478
70,-11.133041,18.560198,6.896267,11.191274,0.0,-3.414345,-15.982132,-27.940636,1.674843,-23.776703,18.974762,1.092339,36.503105,14.524727,0.0,-34.877837,-54.098641,-119.454937,-55.51924,-117.632157,-50.419675,-22.499071,-40.514476,-17.917222,0.0,8.258686,10.191078,30.445061,-4.30933,20.018063,-20.308685,-0.503998,-35.850506,-10.648727,0.0,-51.927156,-54.901736,-120.279984,-57.169766,-128.247871,-52.397046,-25.417334,-44.436708,-23.558307,172.651262,-72.738604,-142.328024,-49.614094
71,-12.684746,12.383675,3.856716,27.127388,0.0,-12.512283,-11.977844,-32.424889,3.97007,-20.791054,18.311234,-7.305565,33.696098,6.97506,0.0,-19.667815,-44.787697,-106.233124,-43.256935,-91.416236,-36.429748,-1.003506,-25.994423,3.592361,0.0,14.300308,12.377987,32.666359,-2.492523,25.433407,-18.278103,4.352646,-33.417206,-7.229118,0.0,-55.790478,-58.23987,-122.668737,-60.609975,-132.706761,-56.179074,-30.789682,-48.32436,-26.215335,160.172596,-63.083881,-138.265228,-25.215657
72,-13.899422,44.961185,8.760567,20.339412,0.0,-25.693588,-10.74068,-37.162628,3.72963,-23.583126,15.80761,-11.057338,27.736759,-0.794906,0.0,-26.320079,-49.554011,-105.899162,-48.396098,-63.141633,-40.426235,-3.889735,-28.214103,0.586938,0.0,14.405479,9.664593,32.188568,-4.575634,24.840488,-19.918671,3.356781,-34.297543,-7.684994,0.0,-49.372264,-56.149526,-119.922449,-58.786701,-127.68639,-54.766379,-31.106245,-46.899314,-27.129056,147.841272,-21.465262,-127.936563,-8.21881
73,-13.899421,44.961185,7.945747,15.1341,0.0,-38.874893,-9.503517,-41.900368,3.489189,-26.375198,13.303986,-14.809113,21.77742,-8.564873,0.0,-32.972343,-54.320325,-105.565201,-53.535261,-34.867031,-44.422722,-6.775965,-30.433783,-2.418486,0.0,13.700523,6.532917,29.748344,-6.59523,27.559605,-20.785675,4.12302,-33.502636,-7.026787,0.0,-43.178389,-55.654658,-112.685425,-56.200285,-109.769477,-49.54251,-20.983809,-38.239498,-21.582633,136.712809,26.006773,-117.219858,9.426139
74,17.354965,-7.973028,8.269386,15.294095,0.0,-68.293304,-24.810104,-94.802284,-18.428307,-94.789467,-13.795052,-76.678619,-9.143143,-61.520348,0.0,-19.782949,-36.563314,-35.150558,-25.073323,-7.687741,-7.838566,28.704247,11.576998,41.168197,0.0,13.956699,3.833084,35.587635,-9.158993,35.177479,-20.723763,8.478584,-30.514297,-4.136009,0.0,-32.970891,-51.753298,-94.610338,-51.332376,-85.340984,-43.72346,-12.578188,-30.506309,-9.504191,154.241667,18.404263,-108.776579,25.090752
75,-28.833618,48.404326,-6.596947,1.312505,0.0,-66.337967,-27.325287,-94.074783,-25.212593,-98.524132,-23.723488,-89.853401,-22.326393,-70.049171,0.0,-5.964503,-27.40261,-14.573591,-13.224931,10.52156,4.025509,35.884183,22.603924,49.226564,0.0,39.100056,11.073475,51.4785,0.571003,54.437141,-6.682262,31.064358,-12.603436,19.237976,0.0,4.506699,-33.854879,-69.08528,-28.17906,-42.543101,-16.70148,23.880521,-0.318725,25.272529,125.117769,66.943421,-115.663805,26.538089
76,-12.302055,30.82065,15.847378,42.976836,0.0,-80.139542,-43.271713,-104.588928,-40.228043,-103.810959,-35.557022,-93.256302,-29.811401,-76.826477,0.0,12.388954,-9.64807,27.578506,7.996431,40.962352,26.589079,50.267892,43.815344,59.442336,0.0,49.485683,2.307472,57.44276,-5.729942,52.751369,-8.456841,47.993946,-7.368679,45.026836,0.0,-8.702856,-41.1108,-61.202593,-31.737952,-42.673518,-15.971651,4.856516,3.107651,13.530164,112.131357,97.940677,-100.500784,69.69153
77,-2.330475,23.39683,3.878803,3.571335,0.0,-69.572067,-47.805977,-116.157532,-43.514099,-114.04026,-36.776505,-106.758728,-29.46991,-88.73394,0.0,9.275097,-0.72353,34.757393,14.854494,52.964625,30.892867,63.193643,46.394567,73.568206,0.0,61.049423,21.185589,63.951416,17.386494,68.047657,14.752407,68.06076,13.920307,55.194855,0.0,-8.672135,-17.577749,-10.776157,-2.633933,2.220576,14.147606,27.64461,30.93921,39.157295,109.741716,121.473558,-96.681147,73.398917
78,-31.34388,43.000579,17.386895,34.12919,0.0,-73.622475,-39.262047,-95.947208,-33.096886,-93.948612,-24.657211,-82.42733,-15.441628,-64.085655,0.0,30.803699,8.359153,45.414464,23.148686,60.271922,37.880543,65.418695,51.547453,71.322652,0.0,60.23303,23.030948,64.947538,15.816249,64.040336,9.507579,59.705543,4.797592,46.097459,0.0,2.389571,-15.731689,3.509384,-3.162995,14.787171,11.479819,30.149114,26.896859,38.218627,77.947855,164.144868,-79.744234,107.198838
79,2.124939,14.690855,17.386894,34.129191,0.0,-65.569954,-37.522087,-100.854721,-31.87706,-104.875832,-24.708481,-94.640808,-16.293869,-71.195755,0.0,12.642841,16.867743,55.463294,35.354951,74.84045,50.771991,83.608761,63.05421,90.240447,0.0,59.416637,24.876308,65.943661,14.246006,60.033016,4.262753,51.350327,-4.325123,37.000065,0.0,13.451277,-13.88563,17.794925,-3.692057,27.353765,8.812031,32.653618,22.854507,37.279959,79.689188,178.383695,-62.740946,140.876001
80,-5.340729,20.741469,9.200535,11.69102,0.0,-61.925812,-38.988419,-104.13517,-33.310661,-106.50238,-26.432877,-97.460003,-18.983459,-74.486618,0.0,11.311502,21.007861,64.32843,39.470246,80.686114,55.528564,90.437554,66.998333,96.336818,0.0,62.220497,13.58551,66.909027,-1.951103,62.16877,-15.468006,49.926224,-25.564156,28.522511,0.0,11.475635,-5.281821,35.327905,7.096851,48.241892,21.551203,53.194831,37.4846,56.484337,74.084988,198.654626,-53.803883,152.096483
81,-5.840721,21.457465,4.769325,29.061226,0.0,-54.936562,-39.007759,-103.794079,-34.623299,-106.276989,-27.406082,-97.79789,-19.012756,-72.46788,0.0,5.088913,25.218313,52.841371,40.903288,71.130917,54.652387,84.449678,64.538134,94.476895,0.0,41.6082,62.083054,46.232071,57.354813,29.248466,47.951317,20.638504,35.180283,23.274651,0.0,21.170017,23.386116,92.278087,40.494438,112.362346,55.885667,119.328781,66.932445,120.01279,68.139896,219.747625,-49.138927,180.793242
82,-9.573097,17.853032,0.057163,24.295885,0.0,-61.627579,-34.148483,-99.322987,-27.270584,-101.097507,-18.918457,-88.42186,-9.326248,-64.210625,0.0,2.985941,32.374074,39.945601,41.379692,40.039585,48.00724,60.52479,50.276877,75.819441,0.0,58.290997,26.446095,83.078213,15.929546,81.634998,6.244526,68.952198,-2.339687,49.896069,0.0,9.945583,3.19756,44.373043,19.339673,59.009496,36.395569,64.210734,52.542129,68.189189,58.413506,237.322672,-49.235058,204.811142
83,1.083527,42.923638,-2.910061,12.897068,0.0,-67.096939,-34.238892,-85.042877,-34.122391,-92.865086,-32.470779,-85.509224,-30.396194,-74.534397,0.0,29.733811,15.558943,-0.286275,1.860108,-23.107683,-12.45901,-37.024127,-27.962933,-42.720479,0.0,56.06987,24.123917,82.940826,14.574394,84.998703,5.688686,74.992218,-3.101349,53.311386,0.0,11.034799,12.273882,47.047454,27.059216,62.951087,41.678379,72.697155,55.729623,80.027978,59.5158,279.760998,-52.12635,217.222898
84,-4.231339,7.064988,14.340935,21.77443,0.0,-63.828392,-31.026878,-78.737068,-29.426079,-80.800667,-27.29393,-76.790371,-24.502831,-65.839005,0.0,28.558145,13.126285,2.922647,0.902359,-13.512349,-13.256578,-28.736419,-29.752769,-40.242002,0.0,58.672142,33.77964,74.000015,22.630062,67.981796,11.53101,48.346481,-0.490322,34.782372,0.0,26.170689,17.371996,47.340151,37.09409,53.752622,55.041724,65.967595,69.408883,74.059739,55.350838,286.312238,-37.71904,238.48358
85,-83.270302,17.425472,-4.215088,11.492122,0.0,-14.350891,3.008823,40.800247,7.338581,60.812988,9.302616,65.467529,9.781437,49.566994,0.0,35.714586,6.576295,23.120898,-12.514091,15.619026,-33.191155,-3.21522,-54.019137,-35.737495,0.0,62.192688,30.998383,85.091286,19.940815,82.355461,8.984413,70.076752,-1.471596,49.649391,0.0,17.682292,19.694738,53.731689,37.108725,70.921583,52.048867,79.511436,63.660784,82.784084,-27.914772,303.037816,-41.929436,249.275808
86,-7.962742,2.438153,-4.783058,10.842446,0.0,-6.061592,14.544353,55.517521,18.78685,70.835438,19.456158,75.087032,17.845345,59.247265,0.0,39.476483,9.424286,31.142462,-5.16993,22.512101,-19.866466,7.909425,-33.868742,-9.532349,0.0,62.668877,32.895298,91.16993,24.793854,91.500893,15.761032,78.417778,6.332989,59.185524,0.0,13.98548,23.692583,50.723517,40.697474,69.360409,54.014444,79.131918,63.778913,82.135828,-35.857115,304.759911,-46.692095,259.402196
87,-1.277618,-3.496679,-0.027924,7.743008,0.0,-2.464256,17.96236,62.865887,22.624111,75.717716,21.490402,75.497074,18.095226,51.062336,0.0,44.139194,16.566215,33.938273,6.309904,28.603285,-5.416623,17.628878,-16.557694,4.655055,0.0,66.548767,33.028049,93.409195,26.609116,95.991783,19.083195,84.844322,11.30825,65.106926,0.0,13.768551,22.382116,47.537505,38.910787,62.228792,51.899986,72.187837,61.763441,77.568892,-37.122431,300.938008,-46.707716,266.81998
88,-21.56971,6.382831,2.416363,6.584138,0.0,11.863689,41.50177,86.635723,46.619282,97.130756,45.914955,92.712994,40.820045,75.666332,0.0,43.734915,16.660817,30.079614,5.3361,21.448697,-8.082758,9.396745,-20.907825,-12.541447,0.0,64.372845,33.47517,94.167995,26.01614,92.171001,17.201385,78.522549,8.38131,59.680309,0.0,16.381088,27.965527,48.184217,44.410958,62.044838,55.720423,70.741581,63.407052,73.520164,-58.683987,307.06314,-44.283199,273.146417
89,17.788754,-4.777197,-0.949001,3.876691,0.0,-5.022926,15.674343,72.228127,18.000641,88.90686,17.338543,85.739365,14.995422,56.134186,0.0,38.540902,16.357993,38.892756,12.047444,36.669926,5.453426,28.422233,-0.812018,21.627588,0.0,64.17881,30.852127,92.876701,22.869701,91.328773,13.934841,78.416748,5.116425,59.485817,0.0,19.612548,29.29032,50.651702,46.264458,63.640901,57.643454,71.958126,64.987122,75.403737,-40.891628,302.209218,-45.228596,276.946383
90,8.89389,-20.712323,-1.664886,-0.204579,0.0,33.609467,20.432796,69.971695,13.159389,69.376602,2.609711,50.133705,-7.330971,-4.054413,0.0,9.829122,14.886481,35.888104,34.138839,51.340898,48.397565,57.891567,59.229143,74.015588,0.0,63.767967,32.695827,93.500519,24.077682,90.613632,14.428825,77.537041,4.793701,57.751236,0.0,18.823996,28.040924,49.610157,45.334127,62.076269,57.387066,71.870008,65.204174,73.584199,-31.893282,281.155014,-46.789026,276.399923
91,6.579609,-3.590354,-0.378571,-2.904739,0.0,18.064899,8.961525,63.574734,2.641811,66.694393,-5.908642,50.771198,-14.094715,-0.990658,0.0,18.679932,17.694704,41.622433,33.326512,55.058643,44.071825,59.702583,52.711387,69.047643,0.0,62.445602,31.385021,92.738457,23.334274,91.490135,14.186954,78.054657,4.85527,56.246109,0.0,20.121372,28.567593,49.227922,46.159421,64.204312,58.231812,73.138423,65.497736,75.230033,-25.104303,277.421645,-46.958227,273.35217
92,-4.3713,-4.649744,1.019897,-0.512343,0.0,45.003262,13.329334,70.585041,4.73608,68.788891,-5.797119,51.462536,-14.604435,-16.778584,0.0,2.923759,17.749044,39.580038,37.959028,57.003596,51.943026,64.6357,62.18143,78.403695,0.0,62.674026,31.237793,93.331261,22.927437,91.976967,13.402576,78.421097,3.933849,56.647911,0.0,19.244948,28.275575,49.511295,45.53957,63.87722,57.426895,72.231865,64.776244,73.628412,-29.340649,272.829761,-45.803375,272.897687
93,0.462284,3.161374,1.055374,1.108235,0.0,36.340256,13.643932,71.497192,4.631596,70.037041,-6.302204,51.973801,-15.953693,-12.94487,0.0,7.663226,16.973212,40.233604,35.390273,55.881097,48.374964,63.327085,58.460041,75.792641,0.0,62.804604,30.409184,92.568855,22.25029,91.065331,12.950649,77.769356,3.74136,56.786499,0.0,18.798369,27.682216,48.934423,44.865132,62.78152,56.825817,71.846357,64.277548,73.260689,-28.790274,276.120055,-44.65991,274.134841
94,3.592186,0.48332,0.526085,0.808004,0.0,35.942574,11.274147,65.864182,4.273911,67.063293,-5.058918,49.980927,-13.291855,-16.406364,0.0,7.337925,18.270465,41.005114,38.003674,57.076462,51.716402,61.660997,61.970676,75.902248,0.0,62.903252,30.811214,92.218437,22.858429,91.674042,13.596897,78.549156,4.516411,58.071785,0.0,19.236859,29.638345,50.683935,47.078391,63.333878,58.888898,72.193271,65.971979,72.602368,-25.028887,276.552724,-43.964624,274.892194
95,-1.828709,1.138554,0.828037,1.044632,0.0,37.562656,12.822361,68.732471,3.689404,69.744244,-6.264153,49.676228,-14.668465,-18.721962,0.0,10.347455,14.698451,41.170729,35.040642,55.141698,49.610343,61.197437,60.960007,77.540795,0.0,62.654858,30.740032,92.336483,22.34024,90.98814,12.680798,78.284397,3.169441,57.01704,0.0,19.674855,29.08358,49.85685,46.488921,62.267942,58.353584,71.04601,65.580667,72.7171,-26.683016,277.64018,-42.962008,275.885727
96,0.796852,0.658568,0.024376,0.263057,0.0,34.694538,13.265762,67.507496,3.66663,68.522015,-6.394558,48.632755,-14.750347,-18.848476,0.0,12.024781,14.059951,42.201775,34.612217,55.735304,49.21724,60.612784,60.650267,75.734472,0.0,62.864628,30.851154,92.253513,22.588062,91.467876,13.151894,79.122334,3.852654,58.238354,0.0,18.753415,28.738765,49.230825,46.034438,61.93307,57.936954,71.236943,65.158417,72.816333,-25.734186,278.287139,-42.785654,276.137175
97,3.618793,-0.696421,0.306129,-0.172716,0.0,38.799477,10.936947,63.480492,3.012028,67.135849,-6.657658,50.062981,-15.181103,-22.226772,0.0,10.053276,14.664117,43.117843,34.3181,57.618013,48.223367,60.61334,59.217348,74.677614,0.0,62.714252,30.507545,92.199841,22.140026,91.718388,12.655792,79.045086,3.265686,57.603436,0.0,19.357581,29.872009,49.438985,47.333976,61.817596,58.893776,70.944987,65.492116,71.803132,-21.959181,277.536239,-42.323313,275.90998
98,0.619812,-0.489372,-0.337315,0.636091,0.0,38.525848,9.707336,62.904053,1.941147,67.072105,-7.009735,50.402527,-14.706116,-25.744514,0.0,10.74945,15.723878,42.902025,35.424544,57.800917,49.200876,60.4426,59.856897,74.325266,0.0,62.759399,30.357857,92.586136,22.050304,92.100449,12.506847,79.724464,3.082123,58.316917,0.0,19.224941,28.614956,49.134185,45.976393,61.217135,57.702055,69.755982,64.635638,71.509818,-21.220064,277.023355,-42.541323,276.522559
99,-1.903095,-0.18698,0.203705,0.301157,0.0,48.034,10.927792,64.754505,3.611412,70.027599,-5.430336,54.248257,-13.330193,-25.476036,0.0,9.858886,17.166738,43.161624,36.995289,58.222487,50.689431,61.06949,61.290371,75.665806,0.0,62.343292,29.614391,92.152519,21.491833,92.511292,12.278996,79.300117,3.252811,57.152023,0.0,18.974358,28.473609,48.973325,45.805962,61.970984,57.470676,70.275612,64.294282,71.22311,-22.985144,276.751437,-42.199602,276.738778
100,3.842239,-0.545565,0.027122,0.453495,0.0,41.971264,8.858585,60.207424,1.233559,66.841106,-8.100758,52.173672,-16.32494,-34.694824,0.0,8.358906,17.329265,43.25851,36.933662,57.698967,50.732162,62.014271,61.909543,79.26499,0.0,62.706757,29.608269,92.52182,21.449089,92.733307,12.270069,79.370499,3.277645,56.808128,0.0,18.825786,28.05914,48.211017,45.592429,61.169464,57.316424,69.630814,64.198013,70.612584,-19.080276,276.142763,-42.109852,277.129165
101,10.478497,2.491197,0.782948,-0.480356,0.0,34.448318,-1.48962,48.515625,-9.56955,53.197746,-17.956581,37.147522,-24.740067,-46.461525,0.0,8.194218,18.21489,43.30402,37.283787,54.044763,50.564387,59.519802,60.991499,75.526929,0.0,62.120876,29.038181,91.43652,20.823097,91.866131,11.680641,78.755779,2.80077,56.584568,0.0,19.597481,28.583092,48.851677,46.182207,61.596962,57.928432,70.294508,64.712703,71.377486,-8.512259,278.607284,-41.237383,276.622132
102,1.224976,-0.667151,-0.264931,0.086821,0.0,32.55352,-3.644428,46.331863,-11.994438,51.606903,-20.096397,36.051178,-26.403637,-48.81546,0.0,6.70381,17.674944,44.01804,36.759341,54.862524,50.272245,61.005393,60.821439,76.250088,0.0,62.244358,29.740219,91.524296,21.426144,91.262569,11.915359,77.87962,2.628422,56.187344,0.0,19.880298,28.510597,48.352178,45.879321,61.428507,57.490004,70.363421,64.350537,71.901809,-7.193499,277.927289,-41.408529,276.696109
103,-14.925098,-0.674809,-0.31517,0.468068,0.0,42.150478,12.363281,65.533848,3.475113,68.492718,-6.635113,50.661564,-15.243759,-27.588787,0.0,6.575122,16.688296,42.632114,36.398719,56.176141,50.366971,61.681746,61.255482,77.613969,0.0,61.858578,29.970303,91.738758,21.754475,91.318989,12.259312,77.756481,3.003731,56.582165,0.0,19.209442,28.122867,48.115057,45.29368,61.054114,56.890161,69.754994,63.869192,71.55928,-22.059774,277.242091,-41.664877,277.153787
104,1.28706,0.359881,-0.005665,-0.127823,0.0,32.698631,10.865307,65.303078,2.33614,68.539009,-7.537022,50.47657,-16.491795,-23.763142,0.0,9.71581,17.287584,43.083015,35.94757,56.218563,49.14635,62.071082,59.362832,78.592096,0.0,61.947327,30.0741,92.13089,21.784973,91.230927,12.249413,77.637291,2.959728,56.634178,0.0,19.156275,28.29762,48.47537,45.402978,61.414675,56.968892,69.987361,63.835785,71.570086,-20.754347,277.589992,-41.652174,277.013985
105,0.600414,2.359236,0.494785,-0.343765,0.0,17.604618,10.295334,63.716984,2.405033,67.17802,-6.644382,49.470463,-15.319233,-15.461082,0.0,17.763124,17.518407,40.731251,33.687382,53.330558,45.020743,59.731606,54.065079,76.588789,0.0,61.912937,30.278034,91.948299,21.788635,90.581532,11.958275,76.53471,2.446117,55.749149,0.0,19.381108,28.427667,48.857111,45.550562,61.920905,57.106411,70.437583,64.014738,71.993015,-20.113392,279.952347,-41.116848,276.673338
106,-1.951103,21.268386,-0.637321,-0.216682,0.0,-13.305531,2.080364,55.478611,0.176468,70.863476,-1.507759,65.637074,-3.037434,33.920345,0.0,29.655203,16.937768,38.311499,11.8935,34.648588,4.192544,28.819473,-3.185272,25.871941,0.0,61.734982,30.707474,92.357082,22.563686,91.325626,13.015766,77.566509,3.745422,57.494946,0.0,19.941308,28.040553,48.836672,45.169006,61.783448,56.926285,70.276847,64.099953,72.307386,-22.040148,301.223017,-41.729822,276.458941
107,1.905212,2.989893,0.389786,-0.137024,0.0,-22.040749,-0.87204,51.727581,-1.382732,68.515377,-1.659336,64.651051,-2.017078,34.106998,0.0,32.044944,15.641194,37.469409,8.618505,32.796879,-0.71754,25.582146,-9.704139,19.996821,0.0,62.199039,30.775108,92.912006,22.509613,91.46307,12.95145,77.338657,3.816376,57.564297,0.0,19.488307,29.189543,49.844933,46.588772,62.820732,58.22187,70.789376,65.066533,72.344313,-20.128756,304.199866,-41.333857,276.308872
108,-1.784077,-14.570195,-0.022316,0.225451,0.0,-6.621838,7.807388,61.048965,4.46846,68.147736,-0.615692,55.63179,-6.212082,0.348015,0.0,27.883831,19.747164,38.691203,27.753723,45.441511,31.67086,47.224677,34.379789,58.411011,0.0,61.910763,30.360031,92.297688,22.096252,91.039867,12.590675,77.582417,3.391171,56.788273,0.0,20.015717,28.580622,48.654261,45.838751,62.322838,57.527054,71.126286,64.610938,72.753903,-21.912975,289.634379,-41.356316,276.539031
109,-5.627747,-4.912184,-0.308647,-0.158699,0.0,7.499657,11.935501,70.405197,6.347752,76.209869,-0.317631,60.158501,-6.955776,-0.907288,0.0,26.041816,14.966324,39.620793,28.844976,49.494622,38.387514,53.861426,46.1735,68.457865,0.0,61.912479,30.855217,92.537899,22.667198,91.6329,13.059597,78.391857,3.557568,57.119236,0.0,20.034921,29.783953,49.290105,46.77427,62.826598,58.004323,71.574347,64.50059,72.902289,-27.600718,284.73379,-41.724958,276.391926
110,-3.298073,-0.597065,0.15667,0.241691,0.0,12.097321,16.618423,73.889351,11.247654,78.169556,3.711319,61.412086,-4.074726,-1.458378,0.0,26.58522,15.767782,40.728163,30.210092,51.866456,40.262195,55.085999,48.563056,68.463855,0.0,61.987324,31.211128,92.539501,23.046913,91.958714,13.431644,78.620739,3.899632,57.661915,0.0,20.152062,29.727389,49.077992,46.75204,62.577929,58.112819,71.041749,64.826385,72.632131,-30.969172,284.068707,-41.63867,276.565599
111,10.567589,-1.047534,0.111866,-0.134307,0.0,7.947807,9.593582,62.842827,2.630138,66.919785,-5.411339,48.647118,-13.233204,-20.18589,0.0,24.106435,14.830411,40.006363,31.055517,50.683688,43.089314,56.591844,52.546204,72.42854,0.0,61.970787,31.289406,92.822685,23.047485,91.906471,13.472958,78.454399,3.99765,57.690697,0.0,19.751487,29.349909,49.626089,46.526774,62.875998,58.015747,71.472953,64.762412,73.054195,-20.478201,282.910408,-41.603422,276.320527
112,-2.832355,-1.131391,0.263214,-0.022539,0.0,19.62347,15.854816,66.87933,8.007202,70.233707,-1.925125,50.977879,-11.68808,-18.948383,0.0,18.335365,16.55405,40.806648,33.365785,52.68681,45.552414,58.69037,55.168374,74.742081,0.0,61.940918,30.995808,92.368698,22.708969,91.553535,13.106632,78.004532,3.595161,56.819687,0.0,19.863008,29.68367,50.013017,46.824782,63.632626,58.16191,71.974057,64.694116,72.727412,-23.398218,281.662293,-41.42787,276.181265
113,-5.178623,6.679913,0.661926,0.144125,0.0,6.288414,15.510921,70.823479,9.799805,78.010826,2.15086,62.184448,-5.615387,1.962204,0.0,28.112246,15.06074,38.935487,25.010337,46.426244,31.395021,49.884823,37.046604,62.15216,0.0,61.547356,30.640182,91.838837,22.406788,90.742493,12.898235,77.350388,3.463268,56.624222,0.0,20.086606,29.110811,49.280596,46.295272,62.905453,57.831916,71.379277,64.670836,72.670108,-28.586512,288.248438,-40.775614,276.231622
114,6.219578,-4.512103,-0.098763,-0.028837,0.0,7.586288,9.935074,65.152302,2.754021,71.392651,-5.22068,53.328609,-12.89669,-15.266075,0.0,25.161008,14.062236,39.644814,29.056965,49.353091,39.961347,55.667317,48.744602,72.330728,0.0,61.295586,30.813618,91.930847,22.649975,90.924225,13.136101,77.57515,3.618221,56.505547,0.0,19.839728,29.304214,49.721123,46.351897,63.12652,57.736141,71.754658,64.436431,72.887161,-22.407246,283.686811,-40.914688,276.153261
115,4.001827,6.356834,-0.029011,-0.162836,0.0,-12.472172,2.402115,57.853546,-1.630325,67.771339,-6.518269,52.950211,-11.617641,-15.802917,0.0,32.521657,13.360504,38.655881,22.2362,43.134021,28.104033,47.704725,33.091305,63.729451,0.0,61.384563,31.12999,92.378025,23.142185,91.323566,13.824291,78.008823,4.558754,57.416439,0.0,20.33052,29.56585,49.946882,46.521278,63.202473,57.876253,71.925213,64.594883,73.374618,-18.409081,289.984628,-40.947361,275.931407
116,-0.773849,13.20619,0.213718,0.182102,0.0,-25.024223,1.205006,55.67276,-1.086502,70.420303,-4.301434,59.336472,-7.853966,3.047504,0.0,36.575387,9.978187,34.758257,6.622423,31.509568,2.184668,28.944826,-1.392348,31.757064,0.0,61.483498,31.146011,91.769142,23.150597,90.710678,13.793106,77.094727,4.51458,57.059555,0.0,19.889437,29.208686,49.749158,46.191531,62.887361,57.574479,71.535629,64.304471,73.306384,-19.227905,303.163864,-40.778618,276.086555
117,1.162663,-11.737148,0.405293,0.098554,0.0,-14.685345,2.700577,56.741581,-0.726528,66.452808,-5.392742,51.901188,-10.418701,-14.346027,0.0,33.536031,12.571396,37.383205,20.661379,41.809475,25.993095,46.054816,30.555339,60.959266,0.0,61.055202,31.244144,91.533108,23.297997,90.571918,13.85828,77.049465,4.40403,56.790562,0.0,19.594147,29.541088,49.455164,46.497937,62.591514,57.820986,71.311969,64.409138,72.96651,-18.083754,291.256655,-40.391836,276.015048
118,-1.937199,-1.05655,-0.187798,0.422496,0.0,-4.345837,3.696671,59.213562,-1.071281,69.013023,-6.472492,54.302902,-11.968403,-8.658829,0.0,32.091319,14.224084,40.550261,21.217256,44.187977,24.9053,46.797797,28.158126,61.224051,0.0,60.862827,31.01738,90.995121,23.173771,90.346813,13.805466,77.076931,4.453411,56.952038,0.0,19.537707,28.91531,48.95727,45.903651,62.266707,57.323895,71.024027,64.058951,73.000164,-20.101147,290.117993,-40.659828,276.355432
119,-9.148521,-5.021297,0.186367,0.141532,0.0,5.120945,12.364769,69.87339,7.745934,76.041756,1.391945,60.33268,-5.411682,-3.928642,0.0,28.981444,15.168309,41.235752,27.3571,49.122453,35.307836,52.518972,41.786751,67.460164,0.0,60.426979,30.33205,90.497017,22.390137,89.425392,12.993793,76.015663,3.657761,56.047668,0.0,19.098847,28.991818,49.204951,45.969847,62.582993,57.231517,71.085716,63.773479,72.75026,-29.383421,285.067597,-40.607214,276.467864
120,7.267399,-5.963114,-0.442715,0.104976,0.0,22.485981,10.41647,64.885654,2.269535,67.307796,-7.373714,51.363201,-16.975479,-26.763954,0.0,13.300174,17.223734,42.424015,34.530954,54.20056,46.636752,60.894737,56.386833,78.307056,0.0,60.135441,30.022202,91.181316,22.060204,89.623661,12.720509,76.305828,3.472652,55.469112,0.0,19.599457,28.533013,48.494328,45.532654,62.616647,56.978834,71.368594,63.752299,71.868711,-22.259703,279.012058,-41.193609,276.480415
