takenoko1/special-research/HandMotion_SimilarSearch_自分用/NewProject/handData_new/tgt/d3_feature/14.csv
,vel_0x_L,vel_0y_L,vel_0x_R,vel_0y_R,posFromWrist_1x_L,posFromWrist_2x_L,posFromWrist_3x_L,posFromWrist_4x_L,posFromWrist_5x_L,posFromWrist_6x_L,posFromWrist_7x_L,posFromWrist_8x_L,posFromWrist_9x_L,posFromWrist_10x_L,posFromWrist_11x_L,posFromWrist_12x_L,posFromWrist_13x_L,posFromWrist_14x_L,posFromWrist_15x_L,posFromWrist_16x_L,posFromWrist_17x_L,posFromWrist_18x_L,posFromWrist_19x_L,posFromWrist_20x_L,posFromWrist_1y_L,posFromWrist_2y_L,posFromWrist_3y_L,posFromWrist_4y_L,posFromWrist_5y_L,posFromWrist_6y_L,posFromWrist_7y_L,posFromWrist_8y_L,posFromWrist_9y_L,posFromWrist_10y_L,posFromWrist_11y_L,posFromWrist_12y_L,posFromWrist_13y_L,posFromWrist_14y_L,posFromWrist_15y_L,posFromWrist_16y_L,posFromWrist_17y_L,posFromWrist_18y_L,posFromWrist_19y_L,posFromWrist_20y_L,posFromWrist_1x_R,posFromWrist_2x_R,posFromWrist_3x_R,posFromWrist_4x_R,posFromWrist_5x_R,posFromWrist_6x_R,posFromWrist_7x_R,posFromWrist_8x_R,posFromWrist_9x_R,posFromWrist_10x_R,posFromWrist_11x_R,posFromWrist_12x_R,posFromWrist_13x_R,posFromWrist_14x_R,posFromWrist_15x_R,posFromWrist_16x_R,posFromWrist_17x_R,posFromWrist_18x_R,posFromWrist_19x_R,posFromWrist_20x_R,posFromWrist_1y_R,posFromWrist_2y_R,posFromWrist_3y_R,posFromWrist_4y_R,posFromWrist_5y_R,posFromWrist_6y_R,posFromWrist_7y_R,posFromWrist_8y_R,posFromWrist_9y_R,posFromWrist_10y_R,posFromWrist_11y_R,posFromWrist_12y_R,posFromWrist_13y_R,posFromWrist_14y_R,posFromWrist_15y_R,posFromWrist_16y_R,posFromWrist_17y_R,posFromWrist_18y_R,posFromWrist_19y_R,posFromWrist_20y_R,posFromBody_0x_L,posFromBody_0y_L,posFromBody_0x_R,posFromBody_0y_R
6,-0.931618,1.752329,-0.058731,-0.306443,-0.260239,7.851791,15.741886,18.708069,17.907188,38.36388,41.149486,42.878368,19.557266,43.789581,48.693615,50.28614,19.822906,40.461925,40.651016,38.370598,18.276409,28.462131,27.493732,25.165626,15.817528,37.199152,55.218614,64.968856,43.107666,63.936228,73.404666,81.066151,43.017128,68.341194,80.789348,89.135163,39.670687,66.470292,80.612223,90.41357,34.382567,57.856777,72.291689,83.574588,28.432754,54.315296,73.874576,88.444462,65.456531,95.667217,105.897091,108.596729,53.757259,85.932209,96.319668,98.452091,38.891613,68.390774,80.709263,85.826214,22.879303,46.214218,57.149837,62.763691,-16.629966,-18.267785,-15.01444,-13.847209,10.614352,35.578673,48.941005,55.808577,29.274314,56.163543,67.73951,71.548424,44.861921,70.890374,80.501023,83.447135,56.093555,80.011639,87.453626,88.795437,-42.349897,355.871039,-62.447702,358.23708
7,3.610691,0.677427,1.315235,0.254053,-8.362038,-4.621903,-0.445519,-1.696449,7.527317,25.960533,26.027504,25.509922,14.271995,38.199909,40.162628,39.512615,20.364086,42.998989,40.690487,36.216282,24.265858,39.794998,40.730163,39.482563,25.777536,53.913395,76.338316,88.981355,48.073819,70.846198,80.180773,87.455305,41.63004,67.762246,80.78605,90.210917,33.972199,60.932515,74.444444,83.964875,26.540623,49.266417,63.500505,73.741292,28.040714,53.256821,72.448402,86.926094,64.101128,93.804497,104.536537,107.840195,52.518951,83.845482,94.536552,96.932968,37.709827,66.281753,78.707886,84.125473,21.775097,44.034038,54.664673,60.371864,-16.632695,-18.514737,-15.590027,-14.572726,10.899035,34.889625,48.341953,55.633627,29.350762,55.378894,67.214015,71.619635,44.604509,70.23939,79.936959,83.352547,55.455847,79.203845,86.725898,88.506421,-39.569544,357.670243,-61.962805,359.61291
8,-2.056297,-0.288968,1.283924,0.64181,1.484321,9.645389,16.844718,19.245048,19.435306,42.99068,46.832851,49.17564,19.43605,46.253826,51.029949,51.634197,18.252067,40.123443,39.750309,36.147731,15.627822,26.48664,25.758064,22.966358,17.550579,39.633193,57.458932,67.062393,42.169814,62.114987,70.730775,77.397757,41.528128,66.410926,78.070626,86.34775,38.17324,64.998336,79.091361,88.980034,33.118858,56.949762,71.383785,82.232011,27.592976,52.290516,71.206158,85.551258,62.900883,92.272099,103.095852,106.589367,51.261875,82.213406,92.902668,95.286747,36.38633,64.581219,76.937336,82.371632,20.422829,42.28553,52.80621,58.678173,-16.921812,-19.232117,-16.666869,-15.806575,10.653848,34.493187,48.055479,55.409299,28.900946,54.931523,66.907769,71.462245,43.942655,69.554466,79.319083,82.887318,54.654486,78.264448,86.009283,88.119641,-42.16258,358.022738,-61.21562,360.896183
9,2.496883,-0.179348,1.156803,0.606636,-5.902874,-1.671902,2.146831,0.494385,10.875057,33.001808,34.70446,34.925766,15.672581,41.985832,44.236084,42.982704,19.824749,42.585445,39.39386,33.742584,21.850079,37.26329,38.095871,36.112472,27.220348,55.517721,78.014927,91.127874,47.296987,69.22525,77.67777,84.047165,41.111572,66.591669,78.927253,88.448697,34.021797,60.733976,74.797805,85.184891,27.011718,50.022354,64.39165,74.404307,27.057415,51.400429,70.134133,84.510178,61.854149,91.196274,101.959007,105.330208,50.141396,81.079262,91.791687,94.13855,35.144051,63.373055,75.797241,81.307915,19.138069,40.785553,51.408577,57.54467,-17.069321,-19.563976,-17.368983,-16.891455,10.21495,34.278592,47.883949,55.122505,28.243465,54.55187,66.596226,71.069599,43.166403,68.927637,78.66774,82.208385,53.805949,77.399547,85.292497,87.569728,-40.056158,358.23448,-60.449278,361.893909
10,0.317413,0.441331,0.798329,0.36818,-6.412605,-2.386116,1.481587,-0.181869,9.41201,30.923458,31.610482,31.071636,15.036003,42.142067,44.526879,43.172814,20.051892,44.015431,41.519188,36.13955,22.855488,39.299286,40.815331,39.302719,27.107899,55.09368,77.362064,90.258453,46.686979,68.24222,77.336858,84.129094,40.204026,65.457425,77.882102,87.628688,32.878364,59.246334,73.227763,83.730965,25.737719,48.447422,62.697651,72.91459,26.586524,50.718189,69.290851,83.694431,61.220523,90.64262,101.367588,104.6124,49.389987,80.380268,91.202762,93.549579,34.234382,62.571384,75.197719,80.828144,18.180519,39.72631,50.530345,56.864742,-17.218052,-19.738939,-17.743215,-17.574426,9.908373,34.182497,47.752137,54.841616,27.847275,54.440979,66.367626,70.609719,42.729569,68.688479,78.320814,81.741589,53.277169,76.976162,84.98645,87.350626,-40.013552,358.863255,-59.925756,362.449533
11,-2.348167,0.616738,0.528442,0.214287,1.227539,9.19582,16.304993,19.148655,18.35955,41.777538,45.061615,46.909149,18.975506,46.5951,52.152351,53.233818,18.597748,41.17297,41.876953,39.167221,16.508125,29.194645,30.002094,28.180893,16.714849,38.157975,55.668169,64.953221,39.878391,59.308047,68.688577,76.049782,39.688002,63.867179,75.628978,84.32945,37.05452,62.819941,77.060118,87.457442,32.704871,55.928571,70.101871,80.880813,26.213894,50.212681,68.761631,83.219868,60.752872,90.190922,100.910236,104.127857,48.937878,79.884922,90.768619,93.144688,33.726162,62.012432,74.751697,80.495327,17.615684,38.991417,49.868282,56.333759,-17.229798,-19.815844,-17.913523,-18.026971,9.731062,33.980016,47.563748,54.64925,27.602742,54.328271,66.297737,70.500161,42.423446,68.475846,78.18143,81.643406,52.870394,76.584923,84.771262,87.292568,-42.514154,359.607455,-59.549749,362.791282
12,-0.246071,0.036692,0.285873,0.07489,0.092892,8.075306,15.653435,18.93766,17.863586,40.026398,42.623852,43.992302,19.191616,45.8172,51.313637,52.497414,19.273476,41.257999,41.741409,38.787804,17.533882,29.641949,30.331799,28.191193,15.785937,36.735308,54.314712,63.470198,39.750198,59.666323,69.743904,77.689243,40.17367,64.773391,76.78928,85.548206,37.867996,64.063113,78.554675,89.309856,33.767027,57.031853,71.225408,82.566143,26.107842,50.059971,68.545475,82.965901,60.525524,89.971608,100.768673,104.007763,48.648045,79.601063,90.582356,93.004681,33.362732,61.65009,74.534901,80.358364,17.217522,38.529957,49.540295,56.17899,-17.227327,-19.779138,-17.832444,-18.012792,9.542798,33.73367,47.369767,54.500988,27.446922,54.323666,66.344112,70.51224,42.265354,68.419827,78.144591,81.584879,52.617539,76.359856,84.678797,87.332534,-42.817886,359.750157,-59.321537,362.972182
13,-0.453426,-0.046955,0.105812,0.285621,-0.73835,7.073707,14.621326,17.256466,17.083774,38.738399,41.74118,43.777919,19.520542,45.339214,50.920772,52.664806,20.735836,43.290195,44.790836,43.112514,19.879188,32.833728,34.596313,33.77996,17.414913,39.423723,57.761237,67.705498,40.922529,61.454504,71.13398,79.149764,39.904697,64.612519,76.876213,85.975568,36.502768,62.40982,75.965802,86.253902,31.89841,54.622574,68.450097,80.062114,26.03238,50.149418,68.722836,83.192448,60.286091,90.002438,100.852215,103.977642,48.348668,79.487561,90.628361,93.021344,33.077614,61.456479,74.49654,80.36839,17.003071,38.2538,49.388661,56.241543,-17.380481,-20.035564,-18.039963,-18.119349,9.149497,33.132974,46.801168,54.024842,27.203551,54.14181,66.061418,70.070205,42.060317,68.281765,77.930144,81.27851,52.363546,76.138567,84.552814,87.251344,-43.294767,359.776901,-59.23918,363.331502
14,0.080509,0.371676,-0.049049,0.158414,-2.05101,5.806183,13.727131,16.555698,15.946873,36.701603,38.59338,39.884651,19.177517,44.9767,50.555671,52.513481,21.194378,44.49337,46.266174,44.744316,21.292454,34.65152,36.548412,35.741192,16.944683,38.671924,57.180523,66.946462,40.865607,61.704074,71.918457,80.341411,39.960667,64.928508,77.084867,85.639016,36.501632,62.566518,75.618949,85.135009,31.787025,54.351329,68.060476,79.68803,25.983421,50.186268,68.808758,83.340717,60.251438,90.26508,101.12978,104.100094,48.293781,79.714542,90.957195,93.278881,33.048122,61.616947,74.761768,80.652317,17.036201,38.40913,49.606739,56.546597,-17.472229,-20.158311,-18.05971,-17.809041,8.912487,32.795582,46.500308,53.731467,27.075629,54.095498,65.989405,69.865404,42.016574,68.382826,77.971282,81.157233,52.359842,76.2594,84.681724,87.254086,-43.215757,360.186847,-59.289728,363.528186
15,-2.791489,0.119573,-0.074352,0.241049,6.754738,18.666218,29.491642,36.17569,26.804581,50.246018,55.424664,59.562252,24.233151,50.114319,58.145233,61.959938,19.880551,41.306122,45.588959,46.061028,14.095757,22.503914,22.670975,20.867981,7.650395,23.484991,37.5979,44.177875,35.121585,53.616278,63.262742,71.379043,40.203051,64.142821,75.423892,82.516607,41.192613,67.095775,80.244364,89.139486,39.051862,62.753955,76.729679,88.641543,25.890712,50.229149,69.030166,83.719253,60.202469,90.49649,101.419784,104.34114,48.319519,79.977424,91.260681,93.485641,33.149334,61.830368,74.969215,80.822983,17.1893,38.637302,49.885299,56.926941,-17.644649,-20.453774,-18.301698,-17.829122,8.530499,32.197208,46.025719,53.413353,26.826479,53.875518,65.862829,69.740014,41.868607,68.333216,77.935455,81.041537,52.315913,76.303984,84.733755,87.1777,-46.014342,360.332194,-59.371176,363.795009
16,1.912983,-0.37827,0.003032,0.198244,0.435288,9.110584,17.026634,19.944592,19.529331,40.777233,43.588348,45.516953,20.891487,44.366764,48.606777,49.744183,20.704022,41.410069,41.298226,38.448624,18.691143,29.006584,28.52829,26.028614,17.133812,38.708678,57.359278,67.168208,41.924985,62.491701,71.716446,79.234423,41.764607,66.978844,79.391047,87.37724,38.571283,65.592732,78.871281,88.201806,33.942065,57.01886,70.925004,82.698819,25.739159,50.277523,69.211865,83.987652,60.22427,90.988415,101.817959,104.38892,48.324772,80.355687,91.724522,93.847126,33.166489,62.106434,75.303509,81.141507,17.255516,38.915886,50.267086,57.397465,-17.809227,-20.624341,-18.420593,-17.705387,8.366872,32.13069,45.898933,53.149864,26.777498,53.842209,65.642034,69.293966,41.920687,68.459557,77.90222,80.804366,52.433929,76.571227,84.920969,87.141749,-44.120871,359.966963,-59.387656,364.006292
17,-2.79348,-0.19712,-0.257549,0.352273,4.567543,15.806362,25.773628,31.648876,25.24292,48.331032,54.400532,59.009297,24.449822,48.577091,55.87492,59.356075,21.913719,42.171421,45.612625,45.63897,17.629864,25.87793,26.150505,24.686474,13.569011,32.395217,48.934571,57.410309,41.451125,60.958006,69.24154,75.956786,42.305318,66.685159,78.569137,85.424655,39.494464,65.607182,78.350886,87.198819,34.455841,56.855506,69.988744,81.956036,25.561947,50.293762,69.441055,84.425583,60.247284,91.405632,102.228012,104.629624,48.432472,80.860748,92.328941,94.355461,33.346985,62.642052,75.869408,81.666069,17.481526,39.420181,50.857865,58.009415,-18.045347,-20.97018,-18.753563,-17.929269,8.149499,31.969263,45.678509,52.871802,26.59142,53.637792,65.316202,68.892996,41.80151,68.344233,77.675646,80.524687,52.436697,76.637585,84.848895,86.850732,-46.945788,359.763856,-59.676642,364.352578
18,2.164524,-0.029406,-0.123596,0.132961,-0.56567,7.81691,14.598221,17.074368,19.042534,41.138935,44.905083,47.15268,20.727104,43.454338,47.55233,48.522011,21.07584,40.461823,39.513073,36.219269,19.57164,29.487122,28.664212,25.997029,21.23346,44.791749,65.127123,76.237084,46.616387,67.213027,75.311124,81.793806,43.835494,68.77383,81.30867,89.014207,38.170659,64.891409,78.021485,87.528468,31.529316,53.39321,66.551655,78.021238,25.443432,50.145927,69.364105,84.408897,60.435608,91.694412,102.459068,104.752075,48.682365,81.277222,92.716896,94.711327,33.587608,63.063263,76.244636,82.000236,17.672687,39.85714,51.271088,58.26757,-18.004678,-20.86828,-18.664753,-17.882338,8.267701,32.323661,45.988299,53.063908,26.659271,53.649339,65.252612,68.837421,41.900557,68.401982,77.653045,80.470482,52.604472,76.77509,84.795642,86.583279,-44.815968,359.721504,-59.834942,364.472593
19,-0.094185,-0.162539,-0.076309,0.224093,0.648617,9.411599,16.109814,18.528866,20.557354,43.472237,48.132546,51.043007,21.307904,43.796975,47.88208,48.811959,20.616738,39.196381,37.918774,34.431839,18.029709,26.952759,25.573346,22.490765,21.402359,44.79449,65.067385,76.314197,46.927917,67.311098,74.67565,80.67963,44.522356,69.282678,81.684013,89.390341,39.105066,65.840043,79.069686,88.817594,32.673205,54.377993,67.48626,79.04117,25.23072,49.952064,69.244949,84.339111,60.311851,91.614784,102.464126,104.815178,48.685547,81.335151,92.822639,94.79203,33.672088,63.197136,76.359878,82.070251,17.78952,40.055294,51.472252,58.389564,-18.06491,-20.891992,-18.734137,-18.210802,8.274024,32.219142,45.86949,52.980285,26.648378,53.507534,65.046315,68.613637,41.888849,68.298796,77.504276,80.328789,52.61576,76.742584,84.647563,86.310749,-44.947638,359.565551,-59.948736,364.703272
20,2.823098,-0.025935,-0.029629,0.198997,-8.471112,-3.691166,-0.06395,-1.81033,9.753719,29.67041,30.354995,29.977775,16.318943,39.265915,40.913177,40.177414,22.183708,43.426231,40.058109,34.936248,25.875492,40.03775,40.405037,38.331482,31.167471,60.657269,85.401277,100.103346,53.188359,76.099232,84.233453,90.540578,44.569237,70.596097,83.510812,92.015956,34.441181,61.469151,74.033927,83.588803,25.045152,45.693736,58.427894,69.351566,25.076981,49.695339,68.950825,84.061123,60.144939,91.482868,102.380459,104.739338,48.581554,81.359173,92.894955,94.835735,33.602623,63.28854,76.450893,82.103725,17.739361,40.149181,51.52161,58.274998,-18.066096,-20.795526,-18.640733,-18.253052,8.309259,32.320079,45.979418,53.055818,26.575426,53.521601,65.036534,68.57277,41.776562,68.325348,77.490826,80.250835,52.493284,76.740275,84.544107,86.032143,-42.15695,359.556356,-60.010775,364.919009
21,-2.099385,0.216731,-0.234318,0.238023,-1.975033,6.156773,12.866421,14.567231,17.802361,39.717602,42.351597,43.726216,20.209969,45.377964,50.297482,51.679264,21.378079,42.687744,42.698239,39.785889,20.765637,32.093319,32.151638,29.633595,21.768713,45.466063,66.094801,78.143801,46.724117,67.871348,76.509885,83.153871,43.502511,68.524815,80.493256,87.997116,37.469459,63.851186,77.142616,86.885053,30.093557,51.427658,64.294035,75.375196,25.0635,49.639321,68.904373,84.093865,60.028771,91.144501,102.208466,104.870888,48.570397,81.328377,92.869812,94.857559,33.682102,63.469643,76.596291,82.194145,17.864044,40.409088,51.753823,58.358872,-18.138826,-20.888781,-18.776658,-18.598854,8.161243,32.045117,45.814903,53.050149,26.428966,53.429643,65.0218,68.644413,41.651517,68.245666,77.41123,80.171683,52.441982,76.703274,84.354385,85.66437,-44.269959,359.78863,-60.258717,365.172575
22,2.695851,-0.379814,-0.234981,0.09964,-7.196938,-1.747032,2.673797,1.116085,11.230888,31.333774,30.238254,28.635406,16.419708,42.511642,44.677345,43.95774,20.846683,44.284092,41.733673,36.874202,23.611175,38.273483,38.03215,35.010177,26.075606,53.063253,76.232057,90.217426,48.388685,71.419378,81.077266,88.174154,43.382678,70.09871,81.918936,89.570998,36.374179,64.118985,76.750377,85.450801,28.792859,51.073939,64.183181,74.271642,25.083172,49.695797,68.971538,84.124592,59.971744,91.047397,102.158741,104.917019,48.588375,81.376133,92.905002,94.853496,33.746463,63.551777,76.672496,82.242473,17.952667,40.498523,51.789516,58.285251,-18.104788,-20.741148,-18.560432,-18.404117,8.034643,31.785802,45.667406,53.014408,26.376886,53.387887,65.002485,68.60472,41.661793,68.293893,77.455913,80.164039,52.488246,76.781463,84.361128,85.565348,-41.577764,359.427326,-60.497354,365.290725
23,-2.900654,-0.53056,-0.407891,-0.022526,-0.8764,8.313297,16.451248,18.121708,19.787132,41.439537,41.991646,41.552639,21.475445,49.819393,54.744175,55.409649,21.676723,44.990993,44.977032,41.537876,20.356178,31.750053,30.991333,27.529713,16.766485,37.811408,57.309681,69.132341,42.884637,64.612112,74.876413,81.999966,43.301686,69.54061,80.259283,86.336709,40.23589,67.698854,81.016282,89.680321,34.335551,57.599315,70.83207,81.005623,25.140084,49.838185,69.166409,84.375904,59.966046,90.817807,102.091381,105.180943,48.704693,81.368855,92.870259,94.848347,33.93853,63.655278,76.707814,82.260647,18.135922,40.610482,51.837902,58.29665,-18.137899,-20.718783,-18.411935,-18.300291,8.008299,31.351289,45.343636,52.939628,26.473315,53.350503,65.118921,68.901517,41.819997,68.336809,77.570336,80.345128,52.668,76.92765,84.540562,85.789798,-44.464262,358.915263,-60.891089,365.286696
24,0.049827,-0.701756,-0.233711,-0.025689,-3.612453,4.71135,12.903843,14.70123,17.253823,37.531895,36.779286,35.574749,20.906903,50.414051,55.97247,57.106717,23.059227,48.121869,49.605641,47.323529,23.629349,36.597428,36.742012,33.936734,16.622754,38.011701,57.773723,69.743003,43.891427,66.546974,77.989017,85.557468,43.672892,70.817596,81.007439,86.404239,40.068941,67.979967,80.232039,87.794785,33.596917,57.286932,70.101575,79.951111,25.255177,49.969448,69.357845,84.596615,60.001499,90.729504,101.975498,105.199894,48.802403,81.384739,92.787129,94.781971,34.096459,63.751064,76.680187,82.207523,18.296276,40.72427,51.801052,58.173786,-18.06733,-20.658699,-18.318901,-18.249667,8.046203,31.311053,45.384046,53.059956,26.549948,53.358976,65.299332,69.243294,41.915291,68.347197,77.670261,80.537728,52.808286,77.021116,84.652516,86.003652,-44.387415,358.220071,-61.09778,365.267571
25,-4.334884,-1.001555,-0.269691,-0.014128,6.108444,19.176212,31.064735,36.769443,30.056946,53.480793,56.170086,57.309849,27.654785,57.177692,64.858555,67.13007,22.822471,44.801536,47.272075,45.71648,16.631469,23.690162,21.478122,16.92675,6.982712,21.633998,37.320393,46.388614,38.736281,59.536784,70.306846,77.203688,45.345193,71.63117,81.262258,85.344726,46.510682,74.395575,87.889918,96.019767,42.394808,67.241617,80.27004,90.528994,25.362419,50.280361,69.853443,85.164814,60.14336,90.720211,101.976024,105.37112,48.913524,81.301288,92.675686,94.75391,34.191925,63.704281,76.637706,82.201412,18.374324,40.630588,51.670543,58.052181,-18.048052,-20.726439,-18.444897,-18.438698,8.109546,31.137991,45.187395,52.9368,26.797382,53.430359,65.29228,69.230672,42.189512,68.399733,77.664222,80.553672,53.004763,77.023364,84.635806,86.094796,-48.690548,357.218068,-61.33572,365.252995
26,2.033317,-1.029107,-0.131825,-0.221449,-2.207702,7.199341,15.956944,17.756333,21.619,44.147107,45.698147,45.868,24.188015,53.056103,58.492207,59.152577,24.599282,47.689808,47.858815,44.769436,23.163071,33.514,32.362942,28.725243,16.29413,37.02388,57.020515,69.272835,45.888818,68.287706,78.177306,84.178853,47.028632,74.319856,84.226463,89.15622,44.125214,72.465837,84.891082,92.703942,38.052888,62.027659,74.87724,85.146852,25.461136,50.394562,70.066544,85.374367,60.387016,90.947342,102.071709,105.388046,49.054436,81.283539,92.646057,94.740555,34.249878,63.573784,76.495949,82.053887,18.393746,40.47971,51.440323,57.74794,-17.846388,-20.516167,-18.203021,-18.011595,8.565696,31.553645,45.49427,53.153235,27.331275,53.824487,65.617099,69.501768,42.699619,68.78161,78.010777,80.881122,53.403942,77.298992,84.904396,86.430433,-46.618172,356.183419,-61.428486,365.026004
27,-3.444408,0.563485,-0.10366,-0.073113,6.970779,20.248054,32.031738,38.088764,32.235924,56.966412,62.614689,66.392326,29.122227,57.356094,65.545189,68.670525,23.297848,44.030548,46.966873,46.455894,15.701088,22.020813,20.551849,17.316856,7.672674,22.424637,38.301162,47.317858,39.496712,59.593309,68.570214,74.711897,46.259963,71.36994,81.497848,86.697492,47.818506,74.445,87.515178,96.367223,44.653427,68.335253,81.393576,92.737596,25.394279,50.185409,69.810562,85.081489,60.544738,91.021499,102.080429,105.368728,49.156562,81.227737,92.569244,94.670379,34.271083,63.525123,76.372604,81.832534,18.35812,40.495182,51.413246,57.689827,-17.809535,-20.533099,-18.230525,-18.030935,8.960763,32.027913,45.823487,53.297744,27.662641,54.0356,65.857988,69.791897,42.95287,68.938049,78.195831,81.15627,53.588119,77.415862,85.061069,86.677658,-50.008221,356.741943,-61.477787,364.94793
28,3.005562,-0.992169,0.188919,0.070223,-0.235691,8.79134,16.464626,18.948349,24.85556,48.575214,52.338901,54.651993,25.225616,52.062172,57.74208,59.383415,23.045952,44.275898,45.38221,43.726284,18.764122,27.843281,27.105022,24.429199,16.359845,37.056422,56.303482,67.148472,47.094063,68.336328,76.022204,81.457352,48.956097,74.44889,84.027577,89.608505,46.977713,73.841513,85.222695,93.179742,42.526731,65.366331,77.865849,88.777925,25.257877,50.022033,69.605758,84.775543,60.563919,91.126716,102.023048,105.022453,49.116508,81.172302,92.486869,94.473541,34.181522,63.369735,76.194053,81.587402,18.25732,40.334472,51.162964,57.339706,-17.934765,-20.6051,-18.317865,-18.182582,9.117991,32.398872,46.114158,53.387689,27.784758,54.255208,65.996222,69.775878,43.022944,69.132933,78.391431,81.341446,53.621106,77.508709,85.088128,86.653278,-46.946588,355.744803,-61.232797,365.013182
29,-4.518917,0.273604,-0.100708,0.164478,10.749469,24.435321,35.399952,42.009784,37.299316,63.680637,70.74963,75.364505,31.299247,57.299549,65.02621,68.106411,22.188102,39.509937,41.204029,40.019016,11.210254,14.51746,11.932399,8.129963,7.085217,21.502481,36.913272,45.312217,40.416719,59.554024,66.701041,72.184502,48.451151,72.492723,82.518755,88.125989,51.290188,77.611388,91.140298,100.785033,49.66346,73.357217,86.528777,98.23999,25.137119,50.00711,69.589851,84.74572,60.701522,91.348434,102.152023,104.957176,49.145256,81.246162,92.566337,94.481872,34.082782,63.276283,76.138549,81.514824,18.099266,40.136615,51.009727,57.155456,-18.079038,-20.692909,-18.387321,-18.27827,8.982944,32.360489,46.064486,53.294817,27.695109,54.317824,65.940474,69.569842,42.953266,69.237378,78.430298,81.30084,53.493172,77.515045,85.071666,86.565581,-51.420141,356.012009,-61.288141,365.171262
30,3.511734,-1.533214,-0.126343,0.072273,4.266929,13.863292,20.74332,23.617893,30.998085,56.237995,61.965168,65.595073,27.648948,51.788326,57.394489,59.016208,21.153934,37.83387,37.703373,35.13208,12.418739,17.143467,15.01205,11.589809,14.208523,33.921996,52.587479,63.510497,47.707257,68.21221,74.171668,78.730615,51.745697,76.430066,85.625406,91.325328,51.54381,78.568347,90.711627,99.6335,48.607776,71.722808,84.45326,95.709187,25.16003,50.014458,69.449272,84.568039,60.733681,91.567406,102.29084,104.879402,49.143608,81.435081,92.712227,94.52568,34.060581,63.383423,76.174461,81.470672,18.103821,40.273327,51.118309,57.148247,-18.164291,-20.6473,-18.223535,-17.974458,8.812747,32.508023,46.274943,53.428161,27.507672,54.39164,66.013376,69.513624,42.846882,69.374044,78.545573,81.285328,53.484255,77.753056,85.263116,86.57882,-47.869428,354.471432,-61.375505,365.236172
31,-4.421608,0.229082,-0.121136,0.228526,13.218258,27.129272,37.560791,44.820144,41.885318,67.996914,75.001064,79.116657,33.948921,59.122638,67.034877,69.884685,22.574409,39.118423,42.24654,42.022293,9.009968,11.247562,9.025612,5.791008,5.178241,18.58081,33.13164,41.06621,41.349262,61.078061,67.728148,72.699464,50.865334,74.587878,83.290364,87.457529,55.020049,81.544717,93.437475,101.21783,54.403484,79.11385,92.353706,103.698801,25.178169,50.197598,69.587986,84.779881,60.595608,91.599713,102.372997,104.893124,49.049664,81.575421,92.825901,94.54517,34.02618,63.571163,76.299603,81.516804,18.135864,40.472077,51.311039,57.284718,-18.397856,-20.753313,-18.248853,-18.091834,8.335675,32.330762,46.224271,53.399904,27.039171,54.275574,65.877896,69.248085,42.467178,69.309947,78.425468,81.028816,53.222816,77.77573,85.221459,86.349936,-52.268062,354.687225,-61.473667,365.451409
32,3.037788,-2.456728,-0.147537,0.193896,5.789211,15.891644,22.546566,25.518665,36.013481,61.833904,66.776104,68.705921,31.644974,56.107372,61.45039,61.760845,23.587441,39.902962,40.040028,36.925232,13.006668,16.519341,13.754952,9.318112,12.335571,30.837724,48.610801,59.305158,49.786628,70.592886,76.474366,80.064905,55.474446,80.458416,87.86071,91.060937,56.125975,84.184201,95.521503,102.57156,53.232054,78.142825,91.224119,101.832617,25.332046,50.688869,70.246822,85.640819,60.513691,91.75082,102.573749,105.055584,48.977428,81.737514,92.996326,94.679867,34.049927,63.764934,76.501659,81.712818,18.287533,40.661854,51.505588,57.38364,-18.541734,-20.866304,-18.368623,-18.240417,7.762978,31.885282,45.957262,53.279898,26.625246,54.207957,65.687075,68.805014,42.221474,69.348541,78.33309,80.655807,53.118594,77.895317,85.209727,86.061512,-49.225462,352.214065,-61.616392,365.628873
33,-4.543991,0.973039,-0.556595,-0.036494,13.335194,27.181252,37.829201,45.315308,43.037315,69.747242,76.815319,80.642544,35.735973,61.043873,69.195454,71.813839,24.718174,40.072495,42.28743,40.903599,11.383965,12.487782,9.618782,5.315907,4.151381,16.870842,31.063026,39.478853,42.415913,62.212416,69.144406,73.673428,52.45595,76.618207,85.142727,88.773923,56.619619,84.13958,97.057445,105.042205,55.447868,81.229641,94.901787,106.015626,25.610825,51.292385,71.040127,86.672276,60.723827,92.193226,103.085621,105.58746,49.155911,82.1945,93.464092,95.147289,34.263485,64.268498,77.030972,82.210041,18.592403,41.198502,52.153233,58.002422,-18.443638,-20.722834,-18.197439,-18.00584,7.355388,31.587534,45.811432,53.283911,26.318778,54.120333,65.512778,68.500744,42.088475,69.384343,78.258137,80.400036,53.14312,78.08652,85.317543,85.980582,-53.782356,353.171941,-62.18589,365.577216
34,4.534561,-1.755021,-0.256611,-0.189093,3.583969,12.695789,19.008797,21.89938,34.223957,60.322437,65.750828,68.285168,31.568504,56.723705,62.62801,63.484692,25.312637,42.529713,43.763649,41.483895,16.408745,21.163605,19.601635,15.920162,12.863673,31.521918,48.963754,59.725826,50.895961,71.784286,77.451356,80.602109,55.874984,80.775195,87.868675,90.840154,55.810504,83.761951,94.689317,101.155338,52.268809,77.233624,90.328379,100.706178,25.851151,51.701225,71.594101,87.378891,60.807472,92.372658,103.320511,105.867279,49.279701,82.47448,93.744988,95.443863,34.47599,64.668274,77.413307,82.550286,18.889492,41.669552,52.591736,58.326004,-18.334314,-20.561602,-17.967678,-17.662544,7.368801,31.659214,45.939973,53.466471,26.390595,54.274364,65.628326,68.572981,42.244569,69.603039,78.40892,80.429393,53.410525,78.43756,85.528854,85.955018,-49.261122,351.411452,-62.455828,365.382655
35,-4.449222,1.874001,-0.162529,-0.011967,10.166553,22.97628,33.279796,40.827278,39.808845,67.181465,74.382888,78.304756,34.780014,61.929954,70.290618,73.071052,26.468994,44.684669,48.162151,47.617561,15.971031,19.978683,18.527973,14.998924,5.816012,19.614784,34.024453,42.302787,43.394806,63.46595,70.129807,74.476234,51.78523,76.00715,84.193068,87.55912,54.819694,81.934807,94.045927,101.141099,53.103626,78.569211,92.269948,103.216431,25.746357,51.665886,71.683388,87.572365,61.009369,92.56929,103.487457,106.018524,49.488625,82.703888,93.951096,95.655167,34.669464,64.917938,77.673775,82.837166,19.032269,41.866402,52.779396,58.517761,-18.307848,-20.566012,-18.051448,-17.879696,7.409729,31.795287,46.058768,53.540967,26.388829,54.2796,65.60659,68.540673,42.245655,69.608683,78.412526,80.447597,53.420492,78.425432,85.515688,85.960736,-53.723934,353.281517,-62.631947,365.366752
36,5.340534,-1.794701,-0.177681,-0.156772,-0.766617,6.391846,12.361805,15.637127,28.222641,53.876438,58.618114,60.821995,28.743015,54.523281,60.025371,60.984844,26.215748,44.623089,45.53968,42.910984,21.294639,28.548237,27.743625,24.190246,14.283562,34.489062,52.646363,63.566059,52.766937,74.182956,79.732638,83.07583,55.531367,80.738565,87.619302,90.53959,53.626923,81.404061,92.191759,98.369715,48.871474,73.42392,85.895712,95.213824,25.674958,51.609284,71.663521,87.579163,61.208313,92.654846,103.561569,106.132645,49.679238,82.784363,93.985085,95.699112,34.803715,65.014801,77.773705,82.982025,19.046608,41.870922,52.840416,58.643166,-18.195759,-20.506052,-18.118979,-18.063551,7.403269,31.677208,45.914,53.421443,26.298908,54.095844,65.402381,68.340441,42.151535,69.472412,78.360619,80.487377,53.356469,78.314108,85.46919,86.001182,-48.405155,351.489993,-62.831383,365.213157
37,-4.472111,1.543525,-0.199676,-0.239381,8.212326,20.166893,30.559902,38.686489,36.515442,63.489555,69.903763,73.447769,32.847599,59.79277,67.702835,70.551613,26.10973,44.029713,46.759884,45.793236,17.388702,22.112022,20.55019,16.775665,6.046391,20.580573,35.16812,43.116225,44.538646,64.300544,70.902836,75.485408,52.165464,76.37002,84.399994,87.7554,54.246712,81.293615,93.542056,100.559398,51.600188,76.942286,90.048737,99.896754,25.625988,51.684974,71.836075,87.67012,61.315407,92.738754,103.557678,105.999092,49.756416,82.825424,94.063064,95.846122,34.858612,65.037437,77.894256,83.210174,19.073753,41.823932,52.833069,58.681686,-18.135108,-20.421776,-18.19613,-18.367525,7.641267,31.878292,45.996535,53.444734,26.442045,54.06419,65.25413,68.199007,42.223449,69.428878,78.294533,80.508692,53.379946,78.220926,85.375193,86.020843,-52.907541,353.038881,-63.061334,364.979139
38,5.065281,-1.522024,0.012657,-0.352311,-2.555317,4.572475,10.668251,14.180031,26.655556,52.550961,56.576809,58.151447,28.238491,55.156849,60.606251,61.504429,26.968529,47.319283,49.251102,47.439892,23.307724,32.882561,32.996681,29.990467,15.131445,36.33167,54.928857,65.586459,52.595518,73.465898,79.164683,82.885701,54.543719,79.54898,86.332066,88.950888,52.128636,79.412142,89.668712,94.96134,46.99688,71.448784,83.976053,92.620925,25.724361,51.706306,71.865234,87.567924,61.324264,92.659424,103.394165,105.758766,49.717735,82.666489,93.971123,95.863953,34.779625,64.884064,77.851959,83.276024,18.941631,41.532886,52.596725,58.558662,-18.026304,-20.365521,-18.342515,-18.541982,8.15534,32.423968,46.274338,53.479339,26.808003,54.174698,65.203482,68.125179,42.434772,69.429631,78.263225,80.570974,53.463408,78.195584,85.378305,86.174342,-47.900316,351.521374,-63.106733,364.631345
39,-4.365749,1.450876,-0.056877,-0.328463,6.973697,18.868274,29.37157,37.611923,35.063644,61.900978,67.817504,70.960533,31.989704,59.539672,67.353607,70.141456,25.985229,45.429027,49.050041,48.767097,17.97789,24.299549,23.285156,19.857673,6.436788,21.460058,36.379501,44.263572,44.21122,63.761734,70.500692,75.67382,51.187497,75.321497,83.323696,86.472621,52.954584,79.537815,91.255092,97.539604,50.181373,75.329661,88.486734,97.882319,25.786239,51.584564,71.671875,87.222473,61.449463,92.675056,103.338798,105.681129,49.809288,82.638794,93.946289,95.89666,34.844764,64.861839,77.932686,83.441803,18.950855,41.410091,52.531837,58.591186,-17.941977,-20.403695,-18.588961,-18.808299,8.557174,32.869831,46.446387,53.408203,27.054239,54.069365,65.004338,68.000529,42.562632,69.210986,78.101106,80.629156,53.524924,77.995797,85.216322,86.225744,-52.341985,352.966779,-63.23953,364.297411
40,4.584457,-1.295018,0.141117,-0.460695,-2.206924,5.25,11.681362,14.999313,25.431988,51.360123,54.723679,55.636528,27.207756,54.639427,59.547455,59.954887,26.272957,47.417072,48.999847,47.0411,22.920868,33.134926,32.999405,30.001431,16.15954,37.755005,56.536973,66.772511,51.983226,72.585016,78.388752,82.716641,53.224533,78.051212,85.34044,88.619857,50.418804,77.337204,87.663874,93.149323,45.178565,69.391828,82.098482,90.889938,26.044247,51.674045,71.62952,86.956936,61.414203,92.485645,103.11755,105.490299,49.742946,82.352863,93.7103,95.752796,34.787166,64.574352,77.753803,83.38464,18.882248,41.129299,52.311115,58.504703,-17.789726,-20.311119,-18.514194,-18.531484,8.975472,33.10384,46.497035,53.383367,27.389939,54.001118,64.91107,68.065972,42.782093,69.045359,78.031958,80.802921,53.688167,77.871938,85.138096,86.358285,-47.84269,351.667941,-63.183575,363.832896
41,-4.758511,1.721849,0.296127,-0.116684,8.64798,21.3154,31.90598,39.465283,35.080548,63.062863,69.182362,72.364621,31.123043,59.797245,67.616375,70.226223,24.444981,44.823086,48.240658,47.839726,15.979924,22.238709,20.977364,17.68546,7.875573,23.38945,38.476138,46.139043,42.796098,61.969243,68.720218,74.310557,49.184808,73.393415,82.304012,86.566272,50.837521,77.306353,89.770254,97.074476,48.362589,73.157862,86.959054,97.301087,26.054043,51.482037,71.326138,86.461086,61.098736,92.312657,102.964428,105.329098,49.438648,82.194615,93.685467,95.772137,34.550881,64.410885,77.712261,83.371067,18.755448,40.966313,52.162228,58.388409,-17.82454,-20.465815,-18.709646,-18.612512,9.099899,33.28614,46.56296,53.318356,27.494025,53.914458,64.864918,68.181285,42.833112,68.869358,77.856451,80.750248,53.701913,77.681488,84.935481,86.253272,-52.674351,353.391467,-62.960598,363.717889
42,4.595982,-0.797087,0.521954,-0.040953,-0.991104,7.171062,14.46151,17.778294,24.658138,51.519173,56.038513,57.78772,25.597801,53.587051,58.562485,58.804344,24.037067,45.490025,45.997742,43.08213,20.317303,29.717022,28.575623,25.041676,15.862718,36.947025,55.851519,66.099531,48.98528,69.840198,76.096552,81.199606,50.799384,76.013868,84.693135,89.64316,49.061246,76.09649,87.668455,95.131215,45.273327,69.010124,82.400911,92.826257,25.942577,51.055526,70.684799,85.747856,60.994629,92.136703,102.806122,105.266624,49.374916,82.061577,93.521255,95.613647,34.492321,64.289406,77.53997,83.170944,18.669834,40.787613,51.9589,58.226509,-17.770669,-20.514092,-18.781511,-18.59768,9.13049,33.441652,46.660934,53.315911,27.472302,53.812706,64.792843,68.224461,42.788627,68.683971,77.717451,80.728352,53.636186,77.515107,84.804126,86.221631,-48.134171,352.594794,-62.494446,363.67735
43,0.082157,0.636363,0.710071,0.393499,-0.935257,7.40966,15.53191,19.259434,22.014622,46.953861,50.558144,51.620007,23.635048,51.548,56.383999,56.465115,23.083122,45.252274,45.229351,42.028942,20.464119,30.040444,28.30521,24.537392,14.904808,35.423815,54.154568,63.755225,47.170423,69.097253,77.052201,83.391634,49.508355,75.476059,85.340526,91.571057,48.165889,75.492213,87.561479,95.970613,44.603693,68.284322,81.781591,92.892293,25.590695,50.525837,69.942181,84.844586,60.803753,91.95805,102.561482,104.932515,49.169392,81.934445,93.336148,95.380703,34.259114,64.066944,77.276814,82.892109,18.456311,40.584492,51.719891,57.99709,-17.88045,-20.706297,-19.033095,-18.855538,8.788244,33.288017,46.543496,53.108367,27.135119,53.608361,64.584348,67.939915,42.486321,68.44097,77.466163,80.41398,53.341204,77.136688,84.431894,85.838791,-48.047671,353.208612,-61.780032,364.048304
44,1.843952,1.250804,0.556401,0.616936,-1.533897,6.618542,14.451851,17.608315,21.061089,45.76854,49.579502,50.810898,22.319767,50.493279,55.510002,55.480156,21.563645,43.864003,43.954308,40.792076,18.98861,28.291649,26.218575,22.369011,14.431306,34.237195,52.243355,61.710743,46.425602,67.527731,75.53776,81.796744,49.054329,74.733868,84.333871,90.54821,47.628463,74.46944,86.594245,95.410413,43.936455,66.975176,80.28397,91.479629,25.219184,50.202003,69.555175,84.338905,60.657692,91.89981,102.521804,104.806594,48.966659,81.800582,93.312835,95.375839,34.010307,63.979225,77.181839,82.694572,18.270378,40.649986,51.900604,58.177734,-18.082163,-20.952039,-19.420814,-19.464039,8.448926,33.06054,46.212921,52.581748,26.923204,53.55938,64.26763,67.211124,42.392806,68.387544,77.078556,79.621759,53.253839,76.97647,84.151917,85.352914,-46.151894,354.392753,-61.171806,364.598577
45,0.479405,0.626544,0.473682,0.719096,-3.136769,4.562931,12.930336,16.457199,17.731682,39.542118,42.160927,42.730625,20.334068,48.578441,54.0172,54.591213,21.2001,44.637337,45.211132,42.603435,20.260288,30.993839,29.504253,26.064182,13.529157,33.282311,51.38521,60.990931,45.653759,67.309542,76.820847,84.148188,48.178153,74.038312,84.007113,90.398256,46.686695,73.345126,85.078125,93.616873,42.650405,65.53533,78.392086,89.247315,24.811844,49.886982,69.299595,84.010151,60.541866,92.030422,102.679676,104.773602,48.792034,81.921902,93.567066,95.559917,33.827385,64.142544,77.353603,82.691242,18.186367,40.90147,52.277332,58.567646,-18.297141,-21.275598,-20.017199,-20.344427,8.267738,33.018315,45.970156,51.989944,26.900764,53.68566,64.044686,66.474726,42.458064,68.510365,76.789453,78.868923,53.291569,77.013014,84.018215,84.958291,-45.557865,354.895873,-60.5835,365.194249
46,1.447952,0.945436,0.218891,0.604388,-3.429302,4.438328,12.812027,15.691155,17.06559,39.202778,41.961182,42.427815,19.513081,48.141735,53.444241,53.532223,20.026325,43.321541,43.334988,39.972565,19.004391,29.160255,26.828545,22.673744,13.141179,32.405863,50.213175,60.053017,45.603852,66.70976,76.501289,83.751948,48.627536,74.188859,83.644663,89.781382,47.086801,73.486263,85.104084,93.693604,42.693469,65.20021,77.636014,88.329543,24.593731,49.762848,69.24353,83.855438,60.946083,92.423081,102.983528,104.879563,49.108406,82.163315,93.768288,95.697029,34.051838,64.337334,77.457802,82.661133,18.369003,41.19381,52.644974,59.000084,-18.467004,-21.506261,-20.36452,-20.792265,8.452236,33.074212,45.708235,51.355051,27.183248,53.844581,63.79566,65.696794,42.73441,68.579477,76.499325,78.205118,53.475289,77.066132,83.989144,84.821799,-43.890593,355.689515,-60.145289,365.646843
47,0.70126,1.290065,0.13147,0.447184,-5.114422,0.967975,8.030044,10.087223,13.384655,31.839328,32.387649,31.012413,17.952827,45.422744,49.948471,49.720848,20.780822,44.28194,44.4822,41.396267,21.785637,33.346676,31.320018,27.286571,12.497369,31.659671,48.567156,57.348386,45.695428,67.810758,78.182839,85.75192,48.198074,74.245509,83.226328,88.344857,45.934279,72.229086,82.454053,89.341385,40.584618,62.872009,74.10431,83.08529,24.519241,49.622429,69.103752,83.600487,61.153999,92.497536,103.11589,105.022682,49.308609,82.251045,93.947731,95.904831,34.255806,64.487915,77.621338,82.767517,18.578842,41.561291,53.116928,59.557022,-18.614822,-21.759832,-20.64231,-21.019865,8.73735,33.049488,45.376055,50.723814,27.575894,53.953299,63.618004,65.135916,43.108457,68.660333,76.301674,77.694554,53.760884,77.151249,83.957145,84.63856,-42.926593,356.787505,-59.751079,365.901952
48,-3.916981,0.518358,-0.098683,0.189463,5.417038,16.895393,27.88892,34.011166,25.783493,48.239593,52.415268,53.427967,23.859272,53.068142,60.18829,61.27367,19.757446,42.066421,43.777782,41.403946,14.656082,21.266121,17.641022,12.533283,4.633516,17.58028,30.598613,37.760315,40.303481,60.939456,70.442906,76.891304,48.4224,73.546222,81.153428,84.212778,50.275419,76.218125,86.78593,93.30008,46.837341,69.852881,81.255786,90.315238,24.514596,49.622189,69.249859,83.783215,61.2766,92.36839,103.180539,105.415867,49.555974,82.216336,93.991574,95.99088,34.574193,64.621342,77.758954,82.866635,18.839642,41.736214,53.345662,59.841076,-18.728629,-22.033387,-20.883323,-21.270337,9.141827,32.80971,44.854388,50.142977,28.162522,53.942294,63.393195,64.887913,43.660851,68.682933,76.125043,77.493062,54.206426,77.334376,84.042138,84.662964,-46.549461,357.109321,-59.555649,365.894873
49,2.810818,-1.110273,-0.132717,0.014857,-4.933834,1.439415,8.962165,11.283966,14.128704,34.074245,34.23619,31.800304,19.309662,48.593147,52.366333,51.114509,22.708706,47.550647,46.730323,42.318912,24.441547,36.433296,33.905868,29.157955,13.647928,33.76289,51.445479,61.069182,48.019689,72.046071,81.302581,87.1108,50.231824,77.325397,83.836571,86.023783,47.68068,74.961505,82.802066,86.846545,41.66535,64.628624,74.333182,81.241238,24.862404,49.819725,69.50219,84.046212,61.518357,92.386277,103.298241,105.859909,49.897339,82.345642,93.983643,96.018128,35.024243,64.756508,77.789154,82.932816,19.306904,41.805096,53.265587,59.807465,-18.554912,-21.986506,-20.825351,-21.112207,9.579774,32.74076,44.798022,50.301824,28.624132,53.96923,63.441138,65.192565,44.016064,68.693072,76.185546,77.761145,54.468519,77.433954,84.18635,84.946263,-43.403034,355.820793,-59.352757,365.731475
50,-4.443558,-0.077966,-0.175117,-0.100246,6.113102,18.083633,29.203846,35.149235,28.441372,52.516354,56.061333,55.659588,27.08432,57.256714,62.975052,62.391563,23.410767,46.842693,47.811653,44.492329,18.405601,25.778755,21.772957,16.190575,5.239856,18.497348,32.132815,39.416955,42.53067,65.160603,73.49823,77.974888,51.092575,77.660739,82.630721,82.557362,53.169859,80.383932,87.751102,90.716419,49.595165,73.838673,83.769942,90.605663,25.30529,50.197517,69.963409,84.545517,61.759369,92.309372,103.32209,106.291557,50.225098,82.334175,93.871948,96.043854,35.435451,64.844513,77.88073,83.176918,19.704025,41.778854,53.163574,59.802246,-18.357051,-21.861807,-20.608311,-20.734306,9.993563,32.62315,44.670656,50.450494,29.042602,53.880557,63.301015,65.347621,44.349677,68.612748,76.153078,78.013791,54.717806,77.488629,84.267873,85.195957,-47.534403,355.602601,-59.215685,365.491003
51,3.245453,-0.785836,-0.171627,0.021823,-4.525612,2.079025,9.326832,11.363273,16.340996,35.91093,34.879486,31.100887,21.943508,51.77568,54.550506,52.40007,25.910316,52.261368,51.584015,47.412803,27.69944,41.003975,38.572471,33.945534,14.752767,35.163254,53.458382,63.428739,49.498674,74.543875,82.959308,87.360618,51.701101,79.875603,84.45242,84.12103,49.201518,77.229462,82.179869,83.040262,43.060045,67.060812,75.625211,80.494404,25.697559,50.495968,70.330433,84.902881,61.815502,92.242664,103.279209,106.431873,50.318905,82.277744,93.846577,96.10104,35.597969,64.831478,77.909672,83.270725,19.921737,41.609093,52.857044,59.443577,-18.238886,-21.797068,-20.561208,-20.484551,10.25352,32.509838,44.554454,50.536451,29.389664,53.885324,63.268002,65.602514,44.670742,68.69243,76.239738,78.332448,54.953976,77.614043,84.371897,85.359533,-44.061023,354.692838,-59.159385,365.388899
52,-4.427479,-0.40943,-0.435139,0.180645,6.486328,19.742226,31.594791,37.656464,30.602715,55.155361,57.726997,56.49836,28.893196,61.551945,67.432812,66.799862,25.220066,51.804073,53.70702,51.181194,20.215141,29.247929,25.986511,20.921471,7.883441,22.495997,37.968032,46.97733,44.548316,67.992169,75.806659,79.0603,51.866098,79.222136,82.552323,80.668688,53.299584,80.971661,86.464175,87.257742,49.163406,74.285227,83.85622,89.665501,25.919209,50.846901,70.955933,85.726296,61.971703,92.428482,103.50824,106.859665,50.553841,82.50071,94.018227,96.246483,35.908333,65.095345,78.163719,83.535027,20.239002,41.692154,52.802399,59.259934,-18.198761,-21.861301,-20.686314,-20.580474,10.307131,32.294712,44.417145,50.629076,29.533764,53.895117,63.282785,65.807809,44.832194,68.758379,76.367203,78.673482,55.108389,77.727651,84.471735,85.474895,-48.295721,354.203923,-59.401743,365.490059
53,3.674686,1.431079,-0.488651,0.06196,-2.735572,5.109971,12.541512,14.132882,18.797585,40.562668,39.756134,36.307,23.22472,55.039788,58.39872,56.7613,26.336827,54.670029,54.786828,51.523728,27.455567,42.451287,41.239735,37.872048,16.797976,38.232718,57.745527,69.039307,49.25282,73.598414,81.137386,84.739287,49.794951,77.578154,81.564983,81.032533,46.494293,74.040003,78.912876,79.424108,39.964076,64.090382,73.197406,78.145566,26.021473,51.034115,71.312816,86.249325,62.272648,92.89983,103.946949,107.262783,50.840366,82.905041,94.397037,96.653721,36.20042,65.49345,78.611927,84.050823,20.563946,42.021149,53.089405,59.494709,-18.162204,-21.736355,-20.591774,-20.604692,10.486986,32.608515,44.749363,50.971976,29.662156,54.225976,63.598849,66.15003,44.945148,69.037763,76.659221,79.065499,55.196939,77.877582,84.612971,85.711251,-44.471146,355.589334,-59.740505,365.506351
54,-0.780223,0.09013,-0.521874,-0.032901,0.002288,9.02425,16.799423,18.384841,21.555347,45.877842,46.592857,44.093261,24.160732,56.656185,59.707065,57.520946,25.559875,53.863643,52.867343,48.566608,25.163852,39.666858,38.117523,34.35458,17.213903,38.938242,58.660286,70.566296,48.511075,72.456983,79.289172,82.357229,49.12517,76.819403,81.578272,82.083872,46.079121,73.796004,79.976763,81.897312,39.915306,64.127803,74.18077,80.123025,25.893059,51.040753,71.562962,86.784085,62.282078,92.960232,104.174549,107.653462,50.939999,83.079907,94.724316,97.043599,36.320721,65.744236,78.957997,84.469059,20.610512,42.14399,53.31728,59.819058,-18.331104,-21.892682,-20.642533,-20.68167,10.396818,32.436874,44.545253,50.765483,29.644916,54.187543,63.502148,65.988071,44.988263,69.068095,76.640511,79.025732,55.283884,78.04248,84.784094,85.87305,-45.14427,355.69844,-60.15528,365.492426
55,3.742332,0.812945,-0.877349,-0.2162,-8.637131,-4.591553,-0.522171,-2.544319,9.850353,32.362736,31.143036,27.58453,17.645348,48.937305,49.654438,46.325398,24.845181,53.53783,49.753498,43.511364,29.986382,48.270092,47.710304,44.491653,25.779401,54.471829,78.270178,92.72017,53.310835,78.715127,85.366103,88.695661,47.683421,76.093056,82.343347,84.960094,40.10935,68.289447,75.472823,78.672235,31.675553,55.007341,65.08255,70.892572,25.688243,50.997997,71.819606,87.420833,62.18787,93.154895,104.582736,108.255741,51.006191,83.542293,95.341106,97.702228,36.493824,66.332805,79.631481,85.169551,20.817695,42.714065,53.924915,60.367504,-18.325077,-21.8037,-20.465062,-20.537656,10.323681,32.396773,44.581488,50.860937,29.563084,54.17744,63.594242,66.109731,44.99545,69.159424,76.783648,79.184801,55.431826,78.313712,85.014744,86.013421,-41.313074,356.575149,-60.943765,365.33999
56,-1.139414,-0.011072,-1.020722,-0.519506,-3.249195,2.077732,6.05789,4.153942,14.982027,39.76866,40.748045,38.804718,18.981337,48.175318,48.607785,45.002884,22.291723,47.809862,43.084133,36.269039,23.875878,39.575827,38.239031,34.651022,25.827066,54.26641,78.008813,92.519543,52.951151,77.625708,83.462264,86.317054,48.090714,75.977941,83.379605,87.218134,41.249226,69.45154,78.555688,83.700077,33.553506,56.934238,68.222361,75.329587,25.642181,51.03645,72.066502,88.074818,62.069378,93.185703,104.98962,109.151218,50.997036,83.857212,95.91853,98.577496,36.575111,66.811627,80.428928,86.294964,20.91552,43.166187,54.574619,61.264172,-18.193858,-21.546918,-20.019743,-20.194472,10.231783,32.232764,44.662134,51.316,29.448067,54.159199,63.927373,66.728421,44.973491,69.207972,77.087398,79.717818,55.547978,78.441165,85.297079,86.511042,-42.368317,356.674434,-61.880316,364.930841
57,3.057724,0.188178,-0.912598,-0.697212,-5.966137,-4.853794,-5.413347,-11.111618,8.514856,30.936819,30.150656,27.260491,13.639063,38.272059,35.300377,30.185704,18.512175,40.410021,32.309807,23.700966,21.654969,38.046438,36.155508,32.545412,34.724869,69.650871,97.728474,115.153057,58.224995,82.949433,88.704442,92.276178,48.414114,76.52894,86.684623,93.386889,38.12116,66.990577,77.813534,85.166922,28.9058,51.855501,63.447708,70.982778,25.755856,51.212323,72.386502,88.594243,61.961781,93.301861,105.506413,110.178647,50.799557,83.957097,96.409985,99.606137,36.333516,66.914738,80.95641,87.380299,20.661713,43.124165,54.84747,62.127537,-17.925465,-21.066696,-19.314047,-19.622144,10.314023,32.283412,44.864021,51.840706,29.40173,53.976257,64.078748,67.300514,44.919349,69.057141,77.275429,80.308856,55.613187,78.432965,85.65207,87.44177,-39.223343,356.982692,-62.705664,364.353709
58,-1.742122,-1.028873,-0.982578,-0.455162,0.485149,3.715507,3.533323,-1.446751,14.886926,38.172426,38.9475,37.105957,15.412817,37.203809,33.656513,28.147075,15.47101,33.201318,23.957942,14.69054,14.194015,26.612577,22.449594,17.259458,33.845703,67.613008,95.586748,112.82004,58.174581,82.284431,88.134399,91.705531,50.707956,78.802121,90.489782,98.078846,42.166046,71.654598,83.939039,93.003209,34.338404,57.683814,69.667407,78.097957,25.877152,51.290566,72.564949,88.945519,61.860375,93.418739,106.187737,111.640549,50.622929,84.069191,97.11097,101.073921,36.12545,66.933266,81.432884,88.481598,20.431252,42.85841,54.798271,62.630081,-17.75827,-20.805184,-18.821909,-19.316011,10.156139,31.872969,44.613054,52.025747,29.163731,53.310477,63.717187,67.357485,44.676324,68.496842,77.051102,80.47736,55.447152,78.137193,85.790909,88.132448,-40.875869,356.07648,-63.598646,364.021208
59,-1.487595,0.347951,-0.999836,-0.457089,6.041588,10.513618,9.549585,4.268578,19.468088,40.233667,41.074041,39.69191,16.05261,32.942499,29.421227,24.695217,11.966452,24.806677,15.603241,7.199799,6.695915,15.860613,10.669973,5.383467,34.464616,67.61827,95.379044,112.599357,59.277444,82.1778,88.920124,93.411719,52.380096,79.881049,92.997417,101.282927,44.227831,73.407593,87.272512,97.668515,36.472115,59.658135,72.451845,81.785247,25.938709,51.474953,72.882031,89.460949,61.721638,93.651844,106.86533,112.922871,50.365322,84.184124,97.844914,102.649784,35.858448,66.983357,82.043919,89.800999,20.249817,42.673222,54.70348,62.904522,-17.680489,-20.51592,-18.344924,-19.129623,9.996823,31.639701,44.542276,52.302722,28.915174,52.901417,63.64011,67.721331,44.428124,68.258337,77.266487,81.20168,55.224196,77.920362,86.023424,88.984888,-42.253864,356.511199,-64.488882,363.650887
60,-0.94978,0.237492,-0.716926,-0.483765,12.829777,18.971947,18.192084,13.138138,23.760882,42.071577,42.219538,40.287507,15.254202,26.183482,21.458039,16.411847,6.078398,12.716132,3.010483,-5.260963,-3.776447,0.051116,-6.853677,-12.830572,34.179341,65.904535,92.980535,110.182681,61.306328,83.49343,91.337492,96.83268,56.334629,84.133874,98.380485,107.175028,49.440875,78.744509,93.45915,105.01548,42.249854,65.210893,78.121793,88.332804,25.959709,51.338344,72.697368,89.316959,61.770389,93.77885,107.456096,114.244754,50.259601,84.153865,98.49226,104.386608,35.654262,66.68716,82.228351,90.808811,20.02042,41.970279,54.049564,62.798297,-17.645724,-20.21459,-17.719182,-18.745993,10.146185,31.409828,44.353678,52.505313,29.073008,52.575634,63.512213,68.038728,44.511438,68.139406,77.46089,81.86078,55.123543,77.780325,86.48959,90.249301,-43.075053,356.809435,-65.077217,363.227866
61,-4.239091,-0.660698,-0.635456,-0.571821,12.80849,20.526351,22.433258,19.713169,26.216045,44.902244,46.362808,45.384979,19.192394,31.317787,29.608875,27.012874,10.508663,18.342052,12.007427,6.315845,0.567627,3.968891,-1.002617,-5.186875,31.022159,59.966862,84.573105,100.305479,61.778014,84.247186,92.019982,97.492501,56.979921,84.455779,98.601057,106.998915,49.339752,78.112505,93.112297,105.040773,40.967273,62.187345,74.57407,85.349579,25.845817,51.255226,72.650779,89.338691,61.98207,93.813377,107.958686,115.488967,50.37078,84.032981,98.926185,105.758697,35.708004,66.390289,82.193389,91.395034,19.991065,41.57262,53.626876,62.729187,-17.723048,-19.999847,-17.144027,-18.589863,10.479798,31.692682,44.610004,52.910148,29.349093,52.647549,63.669503,68.428558,44.71309,68.370673,77.954559,82.630227,55.269323,78.054892,87.154704,91.406726,-47.101123,356.167942,-65.499652,362.67525
62,-1.34887,0.652418,-0.693856,-0.539983,14.521099,23.363823,25.660504,22.765869,27.448277,45.583283,47.280739,46.446488,19.442436,30.808754,29.800736,27.89914,9.933071,17.123463,11.463204,6.422104,-0.848945,1.960396,-2.352779,-5.902691,30.752544,59.10721,83.038878,98.473456,62.423689,84.828702,93.112408,98.920319,58.019797,85.714425,99.964827,108.450099,50.578243,79.208784,94.158201,106.106338,42.174456,63.063423,75.470946,86.586365,25.705948,51.021389,72.477631,89.213745,62.248398,93.81752,108.300888,116.406739,50.616291,84.071434,99.464104,107.101319,35.968186,66.402054,82.418564,92.072502,20.204235,41.557366,53.519692,62.779953,-17.868136,-19.925734,-16.745773,-18.410997,10.776991,31.851986,44.71535,53.106762,29.633072,52.838555,63.941366,68.89465,44.967354,68.713067,78.469731,83.302096,55.427207,78.398632,87.819349,92.408689,-48.170426,356.821094,-65.913941,362.136001
63,-3.500839,-0.102494,-0.731769,-0.984462,16.900372,27.618118,32.991051,32.866917,31.853794,51.111053,54.698204,55.658775,23.201431,36.643478,39.42643,40.058292,12.393471,21.234238,19.641403,17.295639,0.190224,1.634171,-1.458561,-3.846279,23.924518,48.166841,68.69595,81.896385,58.483828,80.544743,88.933709,95.051384,56.657757,84.288979,97.791398,105.594044,50.646169,79.64641,94.478538,105.915789,42.517468,64.319612,77.013768,88.637517,25.885482,51.223022,72.702289,89.48608,62.526935,93.732822,108.450451,117.026905,50.835983,83.898159,99.626712,107.890239,36.273101,66.349422,82.428028,92.403934,20.564998,41.871826,53.807544,63.241069,-17.802965,-19.564272,-15.986638,-17.787095,11.301894,32.220513,45.146171,53.741741,30.194259,53.419392,64.79898,70.092695,45.561899,69.456505,79.441003,84.475045,56.048762,79.160681,88.815778,93.674189,-51.366125,356.697497,-66.34057,361.130436
64,-1.745327,0.200985,-0.531853,-1.041396,17.71019,29.783604,36.429337,37.190254,34.792488,55.798176,60.2234,61.920124,25.565014,41.057922,44.912201,46.3965,14.117214,24.446663,23.669987,21.86348,1.51173,3.807152,1.292519,-0.744267,22.512052,45.29452,64.833141,77.355013,56.252872,77.84399,86.322149,92.483321,55.616077,82.771377,96.417983,104.260569,50.584431,79.336559,94.242528,105.697563,43.398029,64.719545,77.435412,89.228802,25.946594,51.13884,72.584049,89.141132,62.838512,93.741222,108.634861,117.603023,51.066181,83.880215,99.963581,108.802219,36.467525,66.264805,82.503056,92.817203,20.642441,41.752132,53.789726,63.587322,-17.616812,-19.118051,-15.149007,-16.90462,12.115826,32.769906,45.60647,54.279131,30.990358,54.157717,65.765201,71.413079,46.23341,70.124237,80.300865,85.561642,56.544284,79.711606,89.677665,94.956474,-52.818392,356.869601,-66.579363,360.060159
65,-2.285362,-0.036,-0.907276,-1.225178,18.717659,32.304027,39.462433,40.631572,39.139629,63.263408,69.431476,72.519504,29.328071,48.358532,53.403637,55.589664,17.161628,29.590702,29.359691,27.946186,3.818722,7.615001,5.474224,3.381901,21.212539,43.27848,62.108935,74.629214,52.72328,73.704711,82.108757,88.393183,53.04148,79.844184,94.069713,102.618946,49.086996,77.863774,93.333031,105.344424,43.014497,64.297444,77.146284,89.19579,26.020855,51.317013,72.884331,89.450249,62.94738,93.689575,108.876983,118.298584,51.177852,83.757843,100.230102,109.561798,36.635055,66.254356,82.692489,93.251037,20.747532,41.936863,54.13995,64.196205,-17.521136,-18.758355,-14.425452,-16.274568,12.487761,33.004743,45.794019,54.590452,31.38088,54.861647,66.868422,72.932794,46.628428,70.75261,81.358539,86.989695,57.016996,80.345894,90.579617,96.192248,-54.799198,356.79736,-67.182083,358.79874
66,1.210121,2.051262,-0.840832,-1.437796,24.876709,40.504772,47.08707,47.562572,44.121151,68.97028,74.855381,77.789303,28.990196,45.946049,48.67329,49.106129,12.460934,21.215126,18.106487,14.818703,-4.31345,-2.765522,-7.518654,-11.775009,21.772751,43.493347,62.758055,76.049263,48.532354,67.790998,77.304723,84.991464,51.407206,77.867591,93.689701,103.836368,50.773671,79.498172,96.047678,108.991602,48.145858,70.243551,83.826753,96.059719,26.121037,51.27388,72.835819,89.237034,62.824825,93.601193,108.981823,118.707562,51.147057,83.748127,100.613148,110.551472,36.683029,66.048145,82.552906,93.288952,20.788433,41.723282,53.98962,64.317936,-17.300082,-18.360522,-13.72114,-15.497946,12.657438,32.700535,45.569222,54.679952,31.666414,55.228839,67.814166,74.640736,46.92473,71.231508,82.314633,88.509607,57.275866,80.817963,91.538971,97.753026,-53.29941,358.805789,-67.733248,357.318111
67,-2.135479,1.135121,-1.375912,-2.757638,23.30492,39.183346,45.840065,46.627201,47.117271,74.724815,81.126114,84.723564,32.946087,53.214935,56.648437,57.833816,16.660194,27.667969,25.821499,23.735367,-0.474712,2.182148,-2.006287,-5.660282,21.386699,42.555642,61.245355,74.420621,43.155609,60.567175,71.109378,80.026978,45.923151,70.43047,87.294124,98.428675,46.000969,73.136286,91.089478,104.955619,44.744237,66.034199,80.212451,92.561336,26.374375,51.637448,73.027222,89.30896,62.515663,93.231675,109.081536,119.469086,50.800736,83.086533,100.595124,111.510727,36.226433,64.761063,81.407616,92.651345,20.232148,40.29958,52.25409,62.542191,-17.001914,-17.43082,-12.218727,-13.784841,12.988149,32.768313,45.702233,55.174364,31.875353,55.784235,69.060413,76.865036,46.939304,72.01853,84.463659,92.066937,57.038201,81.214883,92.868631,99.99117,-55.164522,359.900414,-68.838793,354.519977
68,2.918632,-6.418844,-1.579788,-4.888879,25.270833,40.567864,43.556649,40.426037,49.360154,71.826783,74.149453,73.796196,33.438046,49.11596,48.043122,45.462834,15.832077,24.023324,19.61966,15.172371,-2.202941,1.315087,-2.29486,-5.985328,26.12366,51.11688,73.146821,88.957038,53.289926,73.495266,84.817389,93.342725,55.420562,81.78679,98.338297,108.743476,54.937378,83.02349,99.744255,112.382576,53.123163,74.775253,87.960498,99.14283,26.228165,51.555348,73.005707,89.394676,61.171715,91.575371,107.685082,118.381989,49.454006,81.195351,99.144219,110.825867,34.709232,62.184815,78.852173,90.518669,18.402683,35.955448,46.650135,56.026371,-16.804905,-16.158045,-10.174479,-11.085137,14.585188,34.700978,47.878763,57.666771,33.017316,57.811749,71.839207,80.692586,47.425045,74.017378,88.128447,97.496676,56.714604,82.142115,95.20376,103.894957,-51.982041,353.45218,-70.154732,349.601708
69,20.579968,-3.866021,-2.423756,-7.148425,14.0606,20.898857,18.582767,12.984341,31.048611,44.751995,43.465805,41.604618,20.037323,28.198002,23.879986,19.778938,7.259399,9.699612,3.581451,-1.355679,-6.059383,-6.709385,-11.755051,-16.152718,22.012194,45.946247,66.64291,82.132655,55.57773,76.961095,86.942357,93.466857,58.965938,86.113642,100.165813,108.534995,59.014696,86.579216,100.802274,111.094734,56.696536,78.52816,91.026307,101.359658,26.860692,51.91634,72.76672,88.891354,58.89909,89.030262,104.907658,115.510769,46.31971,76.462361,93.392292,104.381939,30.898671,56.066185,71.504609,82.634823,14.267464,29.581765,39.138875,47.883282,-16.463772,-14.953789,-8.19402,-7.467391,15.944265,36.63773,50.042707,60.237465,33.889552,61.256137,77.839963,89.230827,47.423847,76.189375,92.600115,104.155593,55.891965,82.000867,95.840888,105.157716,-31.178764,349.553601,-72.355179,342.420725
70,18.494419,-4.48471,-8.270633,-14.572505,3.203384,1.896481,-5.024677,-12.665359,14.233612,19.338856,15.894161,13.211609,10.954926,13.665482,8.210266,4.375935,5.734257,5.561829,-0.469322,-4.745361,-0.985313,-2.377155,-7.011669,-10.784237,15.981192,35.131526,51.104061,62.521774,49.719258,73.757681,83.930259,89.516399,54.325222,83.777896,97.847344,105.024002,55.543224,84.353101,98.738687,107.897866,53.966168,77.386913,90.335888,100.115276,28.293983,53.97805,74.56422,90.11055,58.79005,89.116218,103.467842,112.175583,44.823578,73.865616,89.095436,98.580013,28.117172,51.266315,65.236198,75.464641,10.934921,23.639923,31.691379,39.500725,-14.579877,-10.802184,-2.089436,1.655023,20.329595,43.341231,57.527759,67.705338,37.522206,68.352705,86.150211,97.660129,49.794038,81.436061,99.000262,110.802494,56.687286,84.445368,98.623732,107.859383,-12.407312,345.069691,-80.348779,327.84902
71,27.18005,-30.14597,-16.66721,-28.619747,-10.128468,-20.536285,-32.881989,-42.824764,-6.486179,-10.976143,-17.580437,-22.0425,-1.878674,-5.381893,-12.660175,-17.300926,0.902344,-2.24913,-8.763577,-13.247704,1.696392,-0.635159,-4.920078,-8.532108,12.758277,31.176473,47.232396,59.254979,50.206493,77.826106,90.216265,97.325318,55.795387,89.518152,105.119467,113.559267,57.50985,89.623819,105.400283,115.290983,55.88826,82.784689,96.979367,107.446729,30.345772,57.282612,78.310272,94.000168,58.833092,88.600468,101.638413,109.191502,43.083767,70.451317,84.020027,92.16061,25.07468,46.341007,58.924793,68.096718,7.400585,18.114498,24.799381,31.412682,-11.915644,-5.877948,4.912183,11.696318,25.762161,51.77919,67.222067,78.204587,41.914018,76.300575,95.63122,107.972411,52.915472,87.558824,106.446323,118.90332,58.484025,88.022298,102.75476,112.341734,15.137054,314.965442,-96.651673,299.270994
72,29.865097,-36.656156,-15.759968,-30.15159,-20.756321,-39.038349,-54.920483,-65.068199,-27.125278,-41.904099,-51.343575,-57.744198,-16.332882,-28.12936,-37.448925,-43.568275,-6.680946,-15.252216,-23.167786,-28.873364,1.299099,-3.504971,-8.279514,-12.88575,6.909994,22.67995,38.008255,50.519938,51.23255,83.842535,97.80728,105.695166,59.872989,99.428438,116.162985,125.312914,63.49554,100.131541,116.45341,126.378726,62.559898,93.038765,107.898409,118.723453,31.753533,58.86232,79.305439,94.445938,57.538971,86.479294,97.696656,103.068158,39.91721,65.484948,77.110497,83.249394,20.677334,39.935841,51.112072,58.934121,2.454861,11.317589,16.995839,22.957798,-11.026734,-3.955398,8.113806,17.814129,29.510621,58.43192,74.384596,85.011224,45.054521,82.524794,102.774175,114.945033,54.925225,91.48426,110.594247,122.619102,59.438489,90.122417,105.032844,114.470567,45.315914,278.457361,-112.097878,269.267479
73,32.082401,-41.666474,-23.352779,-43.107839,-35.061699,-62.485061,-82.253883,-92.020809,-50.713371,-70.281589,-80.035801,-85.786445,-31.703201,-48.046943,-57.884399,-63.079376,-13.481758,-25.786445,-34.864013,-40.270683,2.493164,-4.590934,-10.49311,-15.819603,2.399942,14.358811,27.141579,38.858287,40.43827,73.776416,89.654102,99.706563,49.847366,91.521113,111.401844,123.561537,55.050764,93.270095,112.719227,125.230663,56.221947,88.220171,105.216663,117.702646,34.430351,62.837677,83.392136,97.052124,58.227196,86.758598,96.819431,101.402847,39.292557,63.646637,73.825046,78.778027,19.417751,38.031429,48.068115,54.720932,1.270626,11.340271,17.171436,23.013885,-8.932765,-1.370229,11.932798,25.011658,30.812344,62.42338,79.882902,91.658952,46.171092,86.43735,108.433958,121.731032,55.945219,94.223039,113.933573,126.050325,60.831146,92.617899,107.700882,116.911055,78.077287,237.569612,-134.771685,226.938365
74,17.096535,-57.452466,-27.501995,-53.236593,-34.110718,-62.139793,-81.424107,-90.755745,-51.773483,-71.824299,-80.983978,-87.419655,-31.292862,-48.222794,-57.27372,-62.885147,-11.158882,-23.863632,-31.88974,-37.452644,6.648056,0.178894,-4.530647,-9.575157,-0.228495,8.867619,20.013408,29.96545,31.463484,66.363551,85.744813,99.477969,42.056631,86.151304,110.304915,126.496009,49.264176,90.122053,113.232206,129.11125,53.215635,87.248769,105.969925,120.107917,35.884563,66.10302,87.631805,101.210575,60.135715,87.671528,97.021671,101.437122,40.688118,64.735817,74.721279,79.952144,20.630894,39.85429,50.154636,57.002346,2.477669,14.099945,20.434948,26.104717,-7.356413,0.103914,13.019062,26.682631,30.908836,64.708152,83.562171,96.501167,45.764237,87.056997,108.877271,122.032999,55.483629,94.454338,113.964949,125.814903,60.60133,93.0097,107.936256,116.913803,96.035345,181.290015,-161.412157,174.874641
75,23.803802,-67.622864,-23.751,-56.851406,-34.326095,-63.802848,-84.147193,-93.808845,-54.778724,-76.343833,-86.552307,-94.336875,-34.692718,-54.377037,-64.663902,-71.641593,-14.631294,-29.850196,-39.150009,-46.082565,3.791153,-4.344955,-9.981422,-15.661766,-0.470087,8.040268,19.005672,29.194403,27.756051,62.125515,82.953942,98.870215,38.038872,81.404451,106.950145,125.679743,46.113992,86.911439,111.096408,128.558893,51.911818,86.34951,105.682891,120.524905,35.736924,66.100377,87.13947,100.081124,59.58878,84.848843,93.877556,98.521534,40.027302,62.161206,72.362469,78.542839,20.155163,38.479145,48.852299,56.231564,2.06868,14.37164,20.94056,26.699284,-7.342136,-1.754786,7.582846,16.710631,26.265236,59.331173,78.508739,92.393357,40.448428,80.3655,102.92631,117.7811,50.385564,88.536555,109.003075,122.52773,56.88235,88.761105,104.914432,115.635656,121.14739,115.072584,-183.854914,119.428668
76,18.416794,-49.976955,-19.237438,-51.943755,-33.34433,-63.427574,-84.609443,-95.552375,-54.203499,-76.043358,-86.246772,-93.97998,-34.31829,-54.82267,-65.921539,-73.901848,-14.215301,-30.153442,-40.485122,-48.404846,4.244706,-4.301834,-10.800087,-17.073028,-3.8625,0.245174,6.289552,11.477445,13.801131,45.095536,65.597204,81.653811,23.778442,63.18908,88.40215,107.199457,33.152926,70.275341,94.135064,111.467725,41.274272,72.94286,91.624403,105.768539,34.42725,64.550068,84.945191,97.288433,58.205693,82.544152,91.90559,97.162811,39.344822,60.548092,71.184586,77.960781,20.163906,38.095539,48.860962,56.720192,2.536114,15.473305,22.418564,28.399075,-9.354421,-6.696684,-1.490241,3.254383,17.002069,47.013183,65.478773,79.47383,30.792597,68.106808,90.662159,106.142049,41.539194,77.720106,98.728393,113.119617,50.000859,80.333402,97.10884,108.729082,141.020084,67.935506,-201.636452,70.32479
77,16.205956,-49.544492,-23.545898,-53.124497,-32.128693,-60.473076,-80.750267,-92.919068,-49.437859,-70.249237,-81.039665,-89.212189,-29.713234,-50.3218,-62.883728,-71.805748,-9.943085,-25.505013,-36.910034,-45.774353,8.094543,-0.150879,-7.119026,-13.467774,-7.119353,-8.989915,-9.195402,-10.233766,-2.769339,22.975797,42.538593,57.765547,5.864622,40.280251,63.642902,81.087955,15.89907,48.591752,70.560041,86.457913,25.896184,53.599444,70.453015,83.367533,35.677299,65.862041,87.003021,99.511196,58.343548,81.692917,91.374458,97.869976,40.160339,61.193481,72.132625,80.717273,21.388813,40.31282,51.143703,59.968036,4.245014,19.817802,27.882087,34.716007,-10.366072,-12.476905,-13.462688,-15.041153,1.248242,27.752593,45.749683,60.16933,12.655605,49.416601,72.082127,88.873021,23.920313,60.384697,81.163099,96.16656,34.613336,63.94249,80.507539,93.037018,158.631478,21.438767,-223.776912,20.248046
78,14.518295,-42.921921,-14.38797,-44.145912,-31.317078,-58.118202,-77.239059,-90.636635,-44.579361,-65.016357,-74.91774,-82.01017,-24.888794,-45.96508,-57.739288,-65.77652,-5.839737,-21.713859,-32.733238,-40.984314,11.306625,2.629074,-4.699882,-10.71524,-9.675202,-17.085443,-22.941327,-28.73887,-18.840909,3.240866,21.416204,34.157605,-11.232214,19.599933,39.869734,53.557825,-0.451222,28.986471,47.947831,60.223349,11.582723,36.154879,50.560558,60.685669,35.359325,62.91093,82.636219,96.337543,54.570831,77.388531,86.774059,93.010963,36.525352,57.924843,69.202057,78.480491,17.771725,37.422157,48.542496,58.272331,0.96278,17.090435,26.043949,33.934318,-13.072822,-20.621192,-28.449406,-36.797083,-15.333931,6.446724,23.136088,36.26664,-6.0011,28.089811,49.79376,65.897878,5.571807,40.164975,60.438271,75.294426,18.230691,45.309587,61.010018,73.280634,174.09062,-18.535081,-237.224035,-20.949793
79,13.287232,-32.515778,-10.332276,-38.041694,-31.639458,-56.556153,-74.540635,-88.715905,-41.761185,-61.842545,-71.500901,-77.79554,-22.598259,-43.957741,-55.512749,-62.567345,-4.277756,-20.735962,-30.748375,-37.20987,11.77256,1.735656,-5.423745,-10.244591,-11.897816,-23.823951,-33.945622,-43.231899,-33.128862,-15.999155,0.466722,11.656996,-27.051534,-0.575094,17.103617,28.038207,-15.994999,10.419919,26.325219,35.201433,-2.741935,19.531828,30.88679,37.60061,35.713303,60.779103,79.516594,93.89296,51.163685,73.827668,83.036946,89.116677,33.308762,54.896016,66.555108,76.501671,14.673912,34.553158,45.66766,56.004582,-1.599002,14.409623,23.790963,32.599835,-14.916781,-26.442443,-39.139856,-52.311028,-29.234306,-12.171895,3.251462,14.902221,-21.541964,8.901992,29.513326,44.467812,-9.269928,23.106134,42.643118,56.93367,5.867154,31.406099,46.932252,59.685966,188.235541,-48.033475,-246.698622,-55.974103
80,8.478584,-23.995618,-8.37046,-28.721351,-31.512108,-54.264244,-70.519478,-85.46386,-37.651222,-57.063904,-66.761879,-72.764351,-18.667626,-40.119278,-51.18631,-58.081467,-0.732216,-17.69236,-26.866219,-32.460823,14.593986,3.43444,-3.394707,-7.655914,-13.713556,-28.226928,-39.986482,-51.083565,-44.168624,-31.048057,-15.729917,-5.95122,-38.567294,-15.050316,0.516814,9.149071,-26.939345,-3.091244,9.910083,16.22389,-12.722412,6.662012,15.1408,19.593209,36.504021,60.035213,79.331291,95.268883,48.985153,71.861114,82.137188,89.660408,31.571926,53.967178,65.726566,76.373657,13.529503,34.624592,45.833622,56.346187,-1.942429,15.481361,25.749538,35.287125,-17.058336,-31.889213,-46.463687,-60.658288,-41.427777,-27.712227,-13.009333,-1.735601,-35.06638,-6.509253,13.104308,27.141436,-22.237556,8.861283,27.165685,40.57714,-5.522182,19.01402,33.332928,45.026992,197.179482,-69.151165,-254.603725,-81.817526
81,4.803222,-18.936683,-2.840035,-20.13639,-31.116004,-52.769805,-68.018737,-83.348007,-35.005668,-53.508316,-63.05413,-69.117851,-16.178054,-37.605995,-48.471405,-54.569458,1.345322,-15.895843,-24.554351,-29.556198,16.156426,4.895051,-1.544288,-5.454231,-13.123871,-29.230108,-42.017954,-53.67331,-46.70029,-34.075329,-19.774989,-11.773334,-41.317198,-18.938191,-5.307004,1.227826,-29.720026,-6.959013,4.392455,8.918624,-15.562907,2.569978,10.135231,13.79096,37.051838,59.817364,79.24609,96.482781,47.93232,70.285675,80.89555,88.737236,29.979195,52.744011,64.273007,75.39354,11.739087,33.20794,44.538449,55.825253,-3.698593,14.74783,25.956597,36.558518,-16.706447,-33.012202,-49.055373,-64.188701,-48.119984,-35.569617,-21.068944,-10.203206,-43.31482,-15.151189,3.986613,17.610322,-30.603115,0.634467,18.400635,31.341051,-13.396431,10.937134,24.652407,35.726133,202.375368,-86.635812,-257.051096,-100.50188
82,5.11892,-11.734894,1.898861,-15.327286,-30.567764,-53.298065,-69.652542,-86.121689,-36.208168,-55.129257,-64.412773,-70.344154,-17.717651,-39.389237,-49.649941,-55.130974,-0.773232,-19.185379,-27.324097,-31.298172,13.181808,1.035644,-5.266251,-8.501816,-12.084766,-26.883925,-39.117593,-49.731794,-44.094741,-29.65831,-15.388938,-7.24572,-38.681789,-15.058036,-1.029275,5.436247,-27.285967,-2.946705,9.12445,13.611124,-13.621752,6.276626,14.32026,18.040679,35.550557,58.961804,78.849964,97.18499,48.263386,70.338318,81.517628,89.418698,30.122429,52.370121,64.064553,74.163185,11.88089,32.139862,43.263646,53.978005,-3.463886,13.192887,24.171353,34.572716,-14.282129,-28.719348,-43.097233,-56.158297,-44.206505,-33.5316,-19.853396,-9.322299,-39.468702,-13.892857,6.008457,20.888448,-27.014351,1.634886,20.675693,34.760993,-10.565007,13.374145,27.813744,38.674691,208.036028,-97.098067,-254.610495,-114.556527
83,2.003654,2.04321,1.297531,-5.187059,-30.840339,-54.306129,-71.797073,-89.87796,-39.684631,-57.382827,-67.77024,-75.463394,-21.852401,-42.104484,-53.952255,-61.251869,-4.487754,-21.98648,-31.194923,-36.196701,10.238205,-1.340263,-7.707756,-11.18193,-11.129444,-23.655169,-34.890289,-45.618858,-40.054294,-27.513613,-13.9787,-4.356325,-35.116481,-11.297201,5.825941,16.827771,-23.833606,1.601632,16.837744,25.214286,-10.362843,11.055361,21.148849,27.186026,35.586548,61.093037,82.933274,101.84998,52.541474,73.230904,85.050179,93.960846,33.984364,53.463078,63.727616,73.47329,15.060059,32.534214,42.716069,52.907879,-1.26234,14.83659,25.118889,34.84821,-11.937096,-22.674452,-34.19371,-45.791975,-36.242431,-22.841616,-8.429465,3.758791,-32.173388,-3.340774,17.550134,34.073383,-21.078086,11.404424,31.245005,46.289609,-6.219384,20.572959,36.164814,48.633445,210.760906,-94.260447,-252.59174,-118.949176
84,-2.0037,5.681618,2.497296,2.68455,-29.931885,-54.899597,-73.764107,-92.055702,-41.768532,-58.584366,-68.563705,-76.909538,-23.562561,-41.85878,-53.293419,-61.241615,-5.409073,-20.711014,-31.282562,-38.012833,10.572212,1.138527,-5.757339,-10.370659,-9.362863,-18.694085,-28.238306,-38.948112,-31.379238,-14.774589,0.31405,12.040324,-25.975907,1.172875,20.374999,33.915815,-15.090575,12.330829,30.929522,42.685818,-2.332412,20.827049,33.325333,42.313642,35.305595,63.099655,86.610912,106.39238,56.798595,76.228763,88.077667,96.958591,37.974438,54.66275,63.447166,72.404548,18.622227,32.941509,41.488037,50.18803,1.289257,15.315857,24.024044,32.18074,-10.154145,-16.401638,-24.14539,-33.804133,-26.485743,-8.893761,7.787557,22.930626,-23.110709,9.381975,31.109814,49.419429,-13.984045,21.912411,43.063959,59.946139,-1.620084,28.191199,45.560726,60.212036,209.628776,-87.688163,-249.222874,-115.37396
85,-0.892982,8.793895,2.942081,5.187578,-30.167336,-57.36232,-77.999474,-96.320252,-46.586541,-62.624955,-72.072602,-80.576958,-28.194374,-44.635827,-55.609063,-63.387543,-9.38665,-22.85463,-33.821618,-40.927071,7.597023,-0.095902,-6.824616,-11.80362,-7.599883,-14.0663,-22.426762,-33.605488,-23.03785,-2.813584,13.467795,27.065773,-17.483076,12.965518,33.660841,49.40748,-7.484684,22.392971,43.89767,58.441164,3.954113,29.580621,44.352696,55.584497,35.572724,65.421788,90.263134,110.294998,60.543915,79.449337,90.329613,98.301052,41.11108,55.700112,63.196896,70.598568,20.897438,32.820156,39.667031,46.750958,2.515435,15.014935,21.759442,27.849976,-7.310749,-9.206962,-13.925793,-21.853545,-16.602713,4.686093,22.98338,39.950818,-14.033467,23.242494,46.825887,67.755454,-6.49108,33.819132,57.101989,76.001728,4.030057,36.911661,55.719144,72.241584,209.748173,-78.054169,-245.268414,-109.346283
86,-0.241906,10.366856,0.534108,5.772564,-30.211097,-59.080902,-81.311096,-99.702713,-49.841697,-67.025825,-77.546699,-87.428718,-31.874565,-48.684448,-60.349754,-69.397407,-13.375305,-26.790184,-38.349266,-46.167503,3.463692,-3.983734,-10.463218,-15.467605,-7.494777,-12.303516,-20.154945,-31.902387,-18.873701,2.307508,18.735563,33.21764,-13.541087,18.820674,40.652489,57.95953,-3.844092,28.672816,51.173475,67.031938,7.519935,35.885789,51.618701,63.961466,36.595664,67.952602,93.735466,113.621006,64.004459,82.982254,93.649635,101.644134,44.654777,57.957,65.109947,71.716598,24.179306,35.03881,41.194084,47.151695,5.372943,16.857971,22.16574,26.791843,-5.802578,-5.191854,-7.724683,-14.54195,-10.496369,13.499319,32.923964,51.190524,-8.018433,32.792655,57.456468,79.840597,-1.264948,41.431853,65.654014,85.777497,8.388954,43.373045,62.929246,80.672548,210.404588,-66.883258,-243.835985,-102.769664
87,-0.87593,8.633752,-0.888966,4.640735,-29.951363,-59.609986,-82.65223,-100.523392,-52.404442,-70.589585,-81.736588,-92.29065,-34.825676,-52.064095,-63.787926,-73.663697,-16.08133,-29.626488,-42.06308,-51.075966,1.427719,-6.198555,-13.252144,-19.316506,-8.105279,-12.766386,-20.92732,-34.509885,-18.23607,3.19362,19.054571,33.681076,-12.601197,19.73758,41.547301,59.730327,-2.561605,29.905971,52.48709,69.423438,9.428374,38.250286,54.192217,67.182361,37.655868,69.547462,95.340271,114.93853,65.59742,85.235161,96.195431,104.784153,46.451672,59.939964,67.007263,73.769417,26.254532,37.978878,44.523216,50.564747,7.520245,19.989841,24.748226,28.665905,-6.380664,-4.78704,-6.333517,-13.583988,-9.089908,16.680688,37.402126,57.073028,-6.089381,37.782712,62.147714,83.727371,0.800514,46.339102,70.360809,90.12322,10.897602,47.399375,66.721987,84.902852,210.322901,-57.674946,-243.930708,-97.554369
88,-0.647507,1.540969,-0.859978,0.702676,-28.359444,-58.222847,-81.334145,-98.329033,-51.33046,-71.795769,-83.523193,-94.483772,-34.348869,-53.843536,-65.796272,-76.106255,-16.464478,-31.811897,-45.18132,-55.11113,0.241104,-8.31942,-16.036469,-23.016312,-9.014159,-14.158314,-22.538005,-36.998908,-18.966899,4.476201,21.221542,36.612554,-12.421917,19.867071,40.106386,56.983156,-2.017287,29.492812,50.828178,66.989335,10.138516,38.599256,53.620445,66.157051,37.677223,69.682823,95.276276,114.459561,65.262177,86.086888,97.093483,105.47477,46.882931,62.060097,70.536942,77.97028,27.595162,41.032894,48.704807,55.387516,9.825588,22.71706,27.722111,31.857365,-6.934608,-6.320037,-8.162379,-15.717576,-10.967058,12.301788,32.557652,51.894201,-7.201042,34.437637,57.84242,78.516501,0.558928,43.248569,66.687716,85.923358,11.405987,46.30443,64.969739,82.418177,210.50905,-55.691801,-243.95703,-96.409517
89,-0.028862,1.31056,-0.775028,-0.054865,-28.648087,-58.134132,-80.870705,-97.85479,-51.015404,-72.962402,-85.761612,-97.984406,-34.450905,-56.19278,-69.752289,-81.716904,-17.25531,-34.9441,-49.509224,-60.568359,-1.41568,-11.901444,-20.733101,-28.946549,-10.875248,-17.777073,-27.289113,-42.219307,-22.917912,-1.398258,14.414917,29.106902,-15.941376,14.584434,33.937106,50.230619,-4.891664,25.900914,46.149195,61.661009,7.98397,36.243861,50.830228,62.92044,37.868923,69.618244,94.821567,113.111652,65.212795,86.854694,98.65646,107.44352,46.954651,64.22905,74.299221,82.727039,28.040691,44.153068,53.344231,61.116188,10.865032,25.803451,31.846859,36.821823,-7.81909,-8.936297,-12.275092,-21.059024,-15.25965,4.564745,23.202643,41.526745,-11.130018,29.413475,52.673664,72.919858,-2.442259,39.217613,62.242044,80.543946,9.461596,43.466856,61.149902,77.297208,211.154657,-54.487427,-244.057589,-96.570568
90,-1.567726,4.075181,0.246998,1.157802,-29.277832,-58.445481,-80.758003,-97.472832,-51.654328,-74.049156,-88.427902,-102.129891,-35.643975,-58.306435,-73.019028,-86.046433,-18.817108,-37.30909,-52.332413,-63.528992,-3.730179,-14.501404,-24.227761,-32.973381,-12.687542,-21.134819,-31.38193,-45.980184,-25.351119,-5.964392,8.947289,23.137188,-18.4174,9.446553,28.200135,44.114982,-7.359291,21.392461,41.037212,56.233964,5.324275,32.637785,47.19618,59.102147,38.274467,70.255554,95.179836,113.650497,66.012554,87.725498,100.600628,109.739033,47.416523,66.034126,77.604938,87.1096,28.45982,46.226051,56.822811,65.818085,11.337993,27.240909,34.579719,40.800545,-8.633029,-10.915312,-15.758267,-25.305254,-18.34028,0.776289,19.363336,37.881896,-13.840688,25.735281,48.639033,68.535282,-4.646218,35.905086,58.629497,76.838471,7.874221,41.046048,58.867409,75.416414,210.065495,-50.323572,-243.332027,-95.324092
91,-3.461472,8.381748,1.958839,3.953755,-30.681656,-60.511963,-82.506431,-98.985031,-53.937675,-74.561416,-88.769668,-102.174339,-37.420601,-57.506218,-70.358963,-82.016739,-19.412636,-35.806366,-48.734916,-57.658127,-3.551811,-13.16716,-22.449257,-30.351288,-13.306547,-21.556686,-31.524345,-45.066501,-24.445852,-5.37018,9.410688,23.58804,-17.615244,9.161439,26.398375,40.96145,-7.632147,19.026963,37.039632,50.810771,3.094572,27.713152,40.400509,50.814253,38.952542,71.343338,96.896931,116.087048,67.48613,89.131714,101.355366,109.452255,48.674114,67.345688,79.127392,88.870079,29.262051,47.34541,57.674607,66.272473,11.573651,27.681061,35.448155,41.645863,-9.309868,-10.622059,-15.153396,-23.534258,-16.879956,3.760434,23.649216,43.094847,-12.348267,27.898991,51.340688,71.612984,-3.700609,37.074491,60.129236,78.509363,7.942783,40.959944,58.994559,75.46584,207.125255,-41.709652,-240.851956,-91.138165
92,-7.42733,14.096334,7.34634,9.22692,-30.402031,-60.912506,-82.905258,-99.312012,-54.43856,-75.092789,-89.024597,-102.482277,-37.689468,-57.723656,-70.302521,-81.555908,-19.555321,-35.975853,-48.208053,-56.670296,-3.280838,-12.963707,-21.586601,-28.801277,-13.185238,-19.756253,-27.746189,-38.97158,-18.797646,1.427682,16.366848,30.671134,-10.622367,16.975973,34.825004,50.155568,-0.409862,26.732118,45.217468,59.86303,9.891046,34.884037,48.327602,59.768416,37.796036,70.023137,95.687977,114.539395,66.222084,87.823597,99.329625,106.983891,47.163529,65.607914,76.518711,85.867035,27.434658,44.699582,54.29139,62.643208,9.358635,24.46716,31.580841,37.541027,-8.252399,-7.93759,-10.781307,-17.449274,-11.288451,13.18982,34.137264,53.645016,-6.215469,35.763937,60.122578,80.149676,2.336413,44.466292,67.884617,85.937573,13.503796,47.303242,65.843958,82.358,200.663738,-27.252211,-232.539803,-81.550138
93,-4.716865,18.289509,6.576313,13.605289,-33.046418,-64.574227,-87.301827,-104.728432,-58.383751,-80.066094,-94.706498,-108.425927,-41.254486,-61.548615,-74.208367,-85.264664,-22.457062,-39.401894,-50.863816,-58.917206,-5.574166,-16.11644,-24.207779,-30.869889,-11.877,-16.60744,-22.217533,-30.609809,-11.849731,9.283761,25.299564,40.086793,-2.969287,25.308221,44.423092,60.925192,6.830701,34.803415,54.311352,70.079388,16.306938,40.450633,54.472126,66.663695,36.143086,68.683354,95.279457,115.371163,66.172715,87.419392,99.359562,107.343533,47.03032,65.591629,76.40157,84.81062,27.031151,43.861874,53.095814,60.578808,8.491974,23.547753,30.506745,35.695965,-7.430933,-4.080449,-4.012665,-9.118467,-4.789973,23.238144,45.014581,65.057258,1.258585,44.994197,70.819195,91.966124,9.810628,52.979834,76.847103,95.137964,19.966298,54.171438,72.782444,89.095983,197.079071,-8.582844,-224.831292,-67.564991
94,-9.184548,23.690453,6.581601,17.059422,-32.187584,-64.759048,-88.563652,-106.088516,-59.69149,-83.016289,-98.533287,-112.342186,-43.17913,-64.781593,-77.822479,-88.612472,-24.78994,-42.75531,-54.138038,-62.348785,-7.86113,-19.146858,-26.677757,-32.988395,-11.663696,-14.785401,-17.632108,-22.856514,-5.287799,16.324518,31.956196,46.016741,5.667002,34.497658,53.926085,70.606959,16.294619,44.285518,64.159413,80.528441,25.727364,50.298916,65.121534,78.117655,35.849224,68.459369,95.170131,116.506439,65.549697,87.065242,100.093299,109.554359,47.445545,66.593261,78.243644,86.759056,28.132061,45.233356,55.560676,63.586532,10.03656,24.926868,32.480117,38.117683,-6.572467,-1.615891,1.134262,-1.018944,0.376949,30.14142,51.889612,71.36589,8.188611,51.339552,77.524758,98.759231,17.656863,59.540982,83.766861,102.688484,27.776873,60.608604,79.145114,95.545072,188.776102,15.319953,-217.368112,-50.293225
95,-6.697265,25.49924,6.028381,20.64257,-32.987572,-66.388024,-91.009324,-109.686837,-61.574227,-87.666115,-104.275498,-118.874199,-45.984902,-69.770783,-84.93528,-97.545182,-28.735474,-49.264092,-62.869858,-72.996895,-12.126206,-25.976944,-34.452736,-41.801674,-11.633722,-14.235477,-15.253686,-18.228956,-1.151973,19.551662,34.640511,47.871105,12.848538,40.980216,60.24385,76.704855,25.265002,52.659479,72.053672,87.786281,35.828299,59.812425,74.814798,88.222894,35.342548,67.306023,93.456001,115.302212,63.3727,86.067398,100.462292,112.39674,47.26696,68.071735,81.533775,91.783264,29.865898,48.5816,61.017609,70.413425,13.412304,29.715752,38.760612,45.445553,-6.846589,-2.235822,2.20985,2.692287,1.430121,28.129344,47.338539,64.250445,11.612999,49.716739,74.118031,93.580619,22.782308,60.061427,82.771166,100.378104,33.621778,63.238541,80.818575,96.179996,182.626259,40.399108,-210.792309,-30.07074
96,-7.068238,27.697709,9.316097,22.784982,-32.45137,-65.279983,-90.259529,-110.828705,-61.755363,-89.977592,-108.886253,-125.906707,-48.823036,-75.526977,-94.791412,-111.344948,-34.396843,-58.250198,-76.078788,-90.102493,-19.41774,-36.899917,-47.882972,-57.577995,-14.043464,-17.659939,-17.800421,-19.680388,-0.935111,16.782533,29.979238,41.989162,15.996351,41.381267,59.602627,76.252891,30.955562,56.360496,75.642266,92.076298,43.671571,67.371996,83.555977,98.263412,34.088482,65.508557,90.520306,110.506737,63.849873,90.268192,106.894238,120.766285,51.340267,77.705692,93.108605,103.898678,36.692654,60.223606,74.812844,85.880619,22.01072,40.919403,51.090752,59.276516,-9.679618,-6.853363,-0.731897,1.675264,-2.283283,17.820205,32.413761,45.121001,11.273945,42.489248,63.270491,79.166405,25.426016,57.760854,77.369901,91.941627,38.758683,65.712528,81.529501,94.813348,175.877397,67.160851,-201.156836,-8.221724
97,-8.262428,26.139097,5.831223,21.690845,-31.861336,-64.42337,-90.354263,-111.668129,-64.921623,-96.173401,-116.349838,-134.039989,-55.275513,-86.041878,-107.118816,-125.100998,-43.370956,-71.39875,-91.469467,-107.512413,-30.087502,-51.418831,-64.478943,-76.23896,-17.322719,-23.956337,-24.614831,-24.952649,-3.61246,9.202263,19.436412,28.523109,15.162857,36.669223,51.988543,65.91804,31.153466,52.947471,69.163247,82.770012,44.274095,65.570602,79.824443,92.352774,33.295349,64.210453,89.309017,109.023594,66.163055,95.706333,114.74501,130.30244,57.796497,89.251178,108.523681,121.848415,46.671421,75.774662,93.929237,107.208023,34.458297,57.402946,70.126545,80.338497,-14.697092,-14.632396,-8.244174,-4.124885,-11.697578,-0.904428,8.461974,17.084844,4.156185,25.659031,41.315422,54.004187,20.654839,45.304832,61.222384,73.39352,35.738668,58.133122,71.655172,82.939979,167.514381,92.247477,-195.426201,12.41665
98,-12.15715,26.730148,8.66851,19.850923,-28.687477,-60.30661,-86.631729,-107.90387,-66.115357,-99.284935,-120.432621,-138.908169,-60.38134,-93.880097,-117.283562,-137.11805,-51.804886,-82.549645,-105.097435,-122.71669,-40.944741,-65.035012,-80.040917,-93.452797,-22.515818,-33.245483,-35.720588,-36.747534,-10.502497,-2.417911,3.684079,9.23898,10.711962,27.576931,39.228067,49.928512,28.376544,45.443197,57.974751,68.446769,42.400766,60.899016,72.995835,83.493492,32.447113,62.699982,87.450051,106.275376,67.253048,99.149311,119.574486,136.511067,63.196209,99.124237,121.726181,138.033188,56.323403,90.754646,112.149914,127.857559,47.417278,73.937336,88.809769,101.348202,-20.374332,-24.708099,-19.76417,-14.433337,-23.753241,-22.343936,-18.999749,-15.501792,-6.138516,5.781308,15.210868,23.158794,12.521897,29.068019,40.298461,49.019688,29.980609,47.551436,58.638648,67.812623,155.113077,117.993033,-187.001845,31.282981
99,-9.849518,21.714848,14.548714,14.185552,-27.314346,-57.715279,-83.973129,-105.988197,-67.885254,-102.502327,-125.346325,-145.559429,-65.926666,-101.020248,-126.696659,-148.653648,-60.607544,-93.369988,-118.164551,-137.22282,-52.510758,-79.09465,-96.003548,-110.879952,-27.361793,-42.65025,-47.577804,-48.648673,-18.800741,-15.279183,-12.228799,-9.268601,3.47346,15.186007,23.116377,30.919691,21.639054,33.319583,41.802855,48.923196,35.733246,48.715912,57.419867,65.024591,28.028675,56.873451,81.361805,98.486069,65.772571,99.524757,119.653107,135.970058,66.17252,106.144764,130.228844,147.306965,63.047207,101.596264,124.444954,140.900047,56.974468,86.837597,102.788818,116.164352,-25.763056,-34.27821,-31.070109,-25.368101,-34.54076,-41.994516,-44.447298,-45.709446,-15.803721,-12.627614,-8.671512,-4.588229,4.276846,13.533936,19.834671,24.6792,23.161573,37.152203,46.000901,52.841223,145.478279,138.89138,-172.238411,44.652032
100,-17.015831,13.815339,16.090954,8.418421,-22.119209,-50.784119,-77.468399,-98.911995,-66.097916,-103.073296,-126.28331,-145.447128,-67.413963,-106.28912,-132.497006,-153.901234,-64.938469,-100.320316,-124.739536,-143.186863,-59.386025,-88.272022,-105.723038,-120.454548,-31.322137,-50.621376,-57.650426,-57.386869,-25.800971,-25.954519,-25.844172,-25.432401,-2.954893,5.323089,9.939661,15.125955,15.262473,22.211012,26.436741,30.81114,28.962814,37.375727,42.410115,46.647428,23.286255,50.436744,75.004932,90.707496,65.02906,99.349342,119.244049,134.67334,69.650825,112.237461,137.388256,154.897991,69.758938,110.980774,134.903675,151.985355,65.676292,97.353424,113.737369,127.637523,-30.990129,-43.102454,-41.104155,-34.787051,-43.724423,-57.337184,-64.157066,-68.945502,-24.212392,-26.630217,-26.95826,-25.982066,-3.192978,0.780402,3.044036,4.773597,16.845895,28.186235,34.583831,38.884482,129.135584,152.178324,-155.474321,52.542058
101,-16.503822,7.343773,13.759918,2.456259,-17.224823,-44.351441,-71.292344,-90.934628,-64.772644,-105.515648,-128.820763,-146.859524,-68.870682,-112.960556,-139.664532,-159.655621,-68.828682,-108.106121,-130.757973,-146.403202,-65.356888,-96.594555,-113.543427,-126.96896,-35.128754,-57.286407,-65.425729,-63.925892,-32.865719,-35.269285,-37.243563,-39.324157,-9.795394,-3.212714,-0.660421,1.791774,8.395265,12.408325,12.579806,13.184972,21.799229,26.074902,27.204144,27.631469,18.808399,43.593738,68.392067,84.770611,60.503551,92.468822,112.372696,128.245651,67.531105,109.480476,136.11771,155.769779,70.292862,111.641647,137.21711,155.567928,68.597591,101.356682,118.652149,132.988644,-33.780958,-49.234654,-49.649061,-43.699038,-50.530504,-68.893651,-79.285035,-86.386585,-31.547489,-38.839602,-42.169406,-42.293969,-10.681766,-11.389654,-11.762929,-10.954295,9.392163,17.784402,22.671694,26.427706,113.507864,159.308675,-140.838301,54.784895
102,-11.249314,1.25667,13.961574,-2.857044,-14.379432,-40.408241,-67.027084,-86.11037,-61.954719,-103.878994,-128.361889,-146.749992,-68.011116,-113.208252,-141.239525,-161.605419,-70.007858,-109.846756,-131.868713,-145.714245,-68.349746,-99.814213,-116.410812,-128.395351,-38.212341,-62.220326,-71.103475,-69.78989,-41.59036,-45.416471,-47.974185,-50.695575,-18.702039,-15.556244,-15.175837,-14.557332,-0.324869,-0.103092,-2.735938,-4.307524,13.242783,12.554019,10.863725,9.081701,15.719571,39.192765,64.019497,80.83825,57.154427,86.835595,106.143643,121.950703,65.710236,106.836972,133.492241,153.587014,69.922863,110.743264,136.383591,154.809472,69.467995,102.406838,119.804467,133.91557,-35.517861,-53.062938,-55.120369,-50.045664,-53.73514,-74.466631,-86.480309,-94.370709,-35.001745,-45.016488,-49.733547,-50.00662,-14.515996,-18.29937,-20.674809,-20.534476,5.534356,12.069699,15.890876,19.265653,103.298561,160.381934,-125.836716,51.74444
103,-9.437919,-7.236166,12.297284,-7.154507,-12.07148,-37.682785,-64.27636,-82.374848,-59.228783,-101.475186,-125.753643,-142.952568,-66.42009,-112.766888,-140.661805,-160.343193,-69.874237,-110.318917,-131.16742,-143.408902,-69.395417,-100.765446,-116.401085,-126.805642,-39.859595,-64.023507,-72.544273,-69.952028,-46.666343,-52.368086,-55.326912,-58.562393,-24.183975,-23.923833,-25.148171,-26.190376,-5.678624,-8.282664,-13.587981,-17.460899,7.991701,4.360986,0.559341,-3.112425,13.288147,35.497512,59.869194,76.291065,54.797172,83.330967,102.001991,117.350738,64.054618,104.786499,130.887714,150.70689,68.655647,108.942363,134.245788,152.597316,68.366752,101.11845,118.190128,131.979766,-35.575098,-54.025158,-56.451727,-50.831853,-54.019983,-76.113595,-88.7625,-97.050443,-35.592117,-46.959336,-51.742962,-51.689121,-15.386906,-20.367201,-23.155812,-23.082243,4.603795,10.631593,14.164414,17.349896,94.766751,152.904095,-112.633323,44.34826
104,-7.293869,-11.705372,6.798809,-7.132772,-9.482117,-34.951516,-62.129105,-79.613835,-57.160218,-98.938065,-121.663445,-135.947937,-65.330704,-112.807583,-139.381073,-156.64,-69.636109,-110.488633,-128.769265,-137.977456,-69.507637,-100.345173,-113.99643,-121.66602,-40.410945,-63.465406,-70.782774,-67.706615,-50.490483,-58.55426,-61.922819,-65.585723,-28.564826,-30.858317,-33.24849,-35.664889,-9.868734,-14.298943,-21.450061,-27.099118,4.060726,-1.188967,-6.598161,-11.819257,13.526687,35.763714,60.524139,77.278999,55.784431,83.25428,101.739933,117.235153,64.661476,103.984634,130.300003,151.157341,68.736877,107.932354,133.358688,152.203354,67.775688,100.047535,116.795608,130.555618,-35.473006,-54.074793,-56.180463,-50.774042,-54.128244,-76.572833,-89.572758,-98.283679,-35.565304,-47.438309,-52.242769,-52.225936,-15.210701,-19.344521,-21.860381,-21.840633,4.865574,10.661295,13.966782,16.870367,88.081152,140.963868,-105.226244,36.980633
105,-1.898781,-11.401707,5.712009,-7.14803,-8.806847,-34.296341,-60.972817,-77.946327,-56.901146,-97.2388,-117.863434,-130.330479,-65.638115,-112.290848,-137.538792,-153.722729,-70.289292,-110.211891,-126.364094,-133.468632,-70.142418,-99.875233,-111.59198,-117.257504,-41.363482,-62.728971,-68.570961,-66.023942,-53.245373,-62.075546,-65.383862,-69.015502,-32.280262,-37.114968,-40.779274,-44.652272,-13.62784,-19.277336,-27.486516,-34.347431,0.673049,-5.856261,-12.345297,-18.142246,12.885178,35.110634,59.816025,76.301857,55.256985,82.83395,101.309578,116.8186,64.022907,103.723652,130.197064,151.154835,67.896938,107.296829,132.846211,151.791424,66.710941,98.921173,115.526447,129.26881,-34.999843,-53.344773,-55.402995,-49.999136,-53.597159,-76.495953,-89.5101,-98.256607,-35.098656,-47.035999,-51.292949,-50.750262,-14.807286,-18.721299,-21.113781,-21.099208,5.113589,10.502028,13.515547,15.968181,86.590496,129.475432,-99.10611,29.745874
106,-0.53096,-12.272277,4.431416,-6.91336,-9.08178,-35.155815,-61.728997,-79.026238,-57.670967,-96.957299,-115.141274,-125.173508,-66.16095,-111.915116,-134.356945,-148.383866,-70.504395,-109.385353,-123.456848,-129.223446,-70.07103,-98.783409,-108.491501,-112.219677,-40.615543,-60.538862,-65.732856,-63.988734,-53.131197,-62.285238,-65.807784,-69.433682,-32.891956,-39.906611,-44.808698,-49.626546,-14.610499,-21.364,-30.110989,-37.151048,-0.229822,-7.171248,-14.398047,-20.40375,12.767326,35.318081,60.22324,76.651359,55.48835,83.331001,101.362495,116.641548,63.88924,103.565128,129.961532,150.892273,67.15488,106.287208,131.732986,150.811432,65.4375,97.284095,113.59291,127.391739,-34.505797,-52.347757,-53.843432,-48.32457,-52.743843,-75.565616,-88.083974,-96.762747,-34.306942,-46.146558,-49.832984,-49.042924,-14.028619,-17.584239,-19.502762,-19.587441,5.712407,10.405049,12.951247,14.64537,86.310963,117.218766,-94.423267,22.848125
107,-0.150055,-11.058615,3.58937,-6.020313,-9.389237,-35.743172,-62.087448,-79.758202,-59.184242,-97.7085,-113.315197,-120.893887,-67.199044,-112.288079,-130.987198,-141.542336,-70.801644,-108.607189,-119.601814,-122.922123,-69.824387,-97.695191,-105.315457,-107.09206,-39.52379,-58.130727,-62.796316,-61.559949,-51.473711,-60.734859,-64.868197,-68.611334,-31.769655,-39.998984,-46.026689,-51.521957,-13.96995,-21.772158,-31.438327,-39.082664,0.168591,-7.240835,-15.559178,-22.345029,12.283516,34.455815,59.021874,74.99849,55.328637,83.376046,100.770024,115.258461,63.771538,103.500779,129.774811,150.335335,66.660359,105.567341,130.853852,149.975785,64.400929,95.850014,111.863846,125.631134,-33.861573,-51.217379,-52.484763,-46.382396,-51.941717,-74.063049,-86.083341,-94.605664,-33.66199,-44.929353,-48.133779,-47.175178,-13.470186,-16.459968,-17.892565,-18.066096,6.131106,10.268704,12.466784,13.619658,86.168518,106.278875,-90.826287,16.946536
108,-0.342316,-7.396292,2.976048,-3.985508,-9.555771,-36.17157,-62.287422,-80.210163,-59.721222,-98.184128,-111.429359,-116.929653,-67.30909,-111.76934,-126.604397,-133.545479,-70.254707,-107.517471,-115.409843,-116.1721,-68.955871,-96.338722,-102.405018,-102.628601,-38.927114,-57.075986,-61.538015,-60.715697,-50.044318,-59.34829,-64.446805,-68.349228,-30.640801,-40.256186,-48.002899,-54.152079,-13.316347,-22.576272,-33.236968,-41.169994,0.471644,-7.838295,-17.436068,-24.900261,11.323734,33.167919,57.534359,73.437504,54.478706,82.887199,99.809143,113.41531,63.214222,103.070537,129.199528,149.263195,66.098179,104.774025,129.59293,148.179989,63.826046,94.92358,110.485668,123.676151,-33.827598,-51.046379,-52.708743,-47.222398,-51.060557,-72.376064,-83.506613,-91.025572,-32.638026,-43.931305,-47.247494,-46.518116,-12.573958,-15.719666,-17.409275,-17.961361,6.569923,9.162317,10.324391,10.589887,85.805649,99.106086,-87.870792,13.184531
109,-0.488754,-4.963455,2.835743,-2.15386,-10.178787,-36.772568,-62.136452,-79.490009,-60.555863,-99.123757,-109.145634,-111.954907,-67.580498,-110.816368,-121.190357,-124.610722,-69.88504,-106.093037,-110.46587,-108.61583,-68.380371,-95.363938,-99.366486,-97.662243,-38.100547,-56.252297,-60.994352,-60.324601,-48.332652,-57.216011,-62.58495,-65.866175,-29.171864,-39.842878,-48.310583,-54.16664,-12.234621,-22.969764,-33.601968,-40.604971,1.368581,-7.877457,-18.004271,-25.198947,9.762783,30.690285,53.844738,69.0401,52.777725,81.888187,97.093529,108.46336,62.019321,102.040466,126.916923,145.593063,65.648838,103.708008,126.982727,144.00309,64.330593,94.869964,109.661156,121.613571,-33.723129,-50.88016,-53.585019,-49.166419,-51.043928,-70.604841,-79.863025,-85.336989,-32.871517,-44.081248,-47.996552,-48.040018,-13.288584,-18.10724,-21.076009,-22.424366,5.347487,5.255127,4.449839,3.436565,85.310429,94.410909,-85.041515,11.298949
110,-1.298813,-2.145234,3.020027,-0.848957,-10.37709,-36.607842,-61.500778,-78.26001,-60.133392,-98.195503,-104.038754,-103.623608,-67.123215,-108.158936,-112.282642,-110.999153,-69.31691,-104.086235,-104.138752,-99.546135,-67.86834,-94.457165,-95.333702,-91.191765,-37.906768,-56.434881,-61.375006,-60.511606,-48.31635,-57.742038,-63.07975,-65.41189,-28.825642,-40.586631,-48.628023,-53.010314,-11.640459,-23.968743,-33.614423,-38.647248,2.257984,-8.184801,-17.86424,-23.673539,8.833099,29.123085,51.825645,67.12413,51.380447,81.007885,91.890816,98.78088,61.028629,100.255234,122.636948,138.702484,65.053505,101.178017,118.300369,129.888748,64.474937,92.510433,102.929924,110.584328,-33.978671,-51.195353,-54.628076,-51.749155,-50.107465,-68.367864,-75.046091,-78.078314,-31.464287,-45.31005,-51.157055,-53.256476,-12.04109,-20.224403,-24.062209,-25.631707,5.998311,1.377732,-1.057791,-2.247752,83.945229,92.499156,-82.087875,10.683473
111,-1.752594,-0.439008,2.48774,1.766074,-10.703453,-36.283997,-60.501526,-76.23278,-58.819473,-96.099163,-97.576309,-93.616516,-65.90815,-105.120483,-103.800488,-98.52792,-68.266274,-102.099655,-98.807419,-92.19318,-67.092281,-93.811993,-92.130226,-86.101673,-37.880123,-56.656429,-61.506158,-59.87231,-48.655212,-58.499426,-62.95436,-63.837119,-28.532439,-40.942734,-47.749525,-50.404768,-10.683501,-24.223483,-32.523683,-35.604182,3.737122,-7.689606,-16.250066,-20.178658,7.460254,26.377121,47.903846,62.427257,49.816417,79.735874,85.671695,87.52391,59.962589,97.890129,114.089458,124.641346,64.584892,98.054763,107.916732,113.400604,64.80978,89.855472,95.488002,98.796123,-34.343017,-52.082539,-56.396003,-53.851262,-51.519561,-67.048029,-70.322302,-70.529388,-32.266029,-46.879437,-52.053868,-53.840086,-12.423522,-22.326874,-25.797976,-26.614323,5.955728,-1.727826,-4.644848,-5.083714,82.121069,92.273724,-79.671701,12.663123
112,-2.375496,1.814869,1.879085,3.568785,-10.74646,-35.283554,-58.915787,-73.773285,-56.892883,-92.690929,-89.778809,-82.498661,-64.454567,-101.78302,-96.094128,-88.013763,-67.255909,-99.828941,-93.26231,-84.848144,-66.623486,-93.127453,-88.749721,-80.846718,-38.121073,-57.520076,-62.580553,-60.138603,-49.073182,-59.875151,-63.670485,-63.080151,-28.50055,-41.71139,-47.291398,-48.024901,-10.046884,-24.721518,-31.389599,-32.105391,4.920026,-7.393871,-14.564532,-16.123162,6.582195,24.824822,46.207386,61.010834,48.956177,79.447792,80.350502,77.455662,59.110794,95.01519,103.998493,108.233437,63.887489,94.599095,97.506123,96.882248,64.776878,86.969708,87.920288,86.74625,-34.915956,-53.579931,-58.807202,-56.776559,-52.511952,-66.031951,-66.01899,-63.640759,-32.608497,-47.247229,-51.042644,-51.955284,-12.46132,-23.65667,-26.563657,-26.53427,6.033886,-4.22329,-7.598691,-7.555213,79.72661,94.220168,-77.811579,16.363483
113,-3.119522,3.104088,1.253552,4.176507,-10.202293,-33.635399,-56.973976,-71.068073,-54.900513,-89.48053,-82.683003,-72.658619,-63.049347,-98.611038,-88.920147,-78.488869,-66.298828,-97.33279,-87.546673,-77.544777,-66.090031,-92.091419,-84.83741,-75.085968,-38.271769,-58.126817,-63.051777,-59.62558,-49.035032,-60.876143,-63.755355,-61.504651,-28.193348,-42.228723,-46.197341,-44.801992,-9.327893,-25.153505,-29.980275,-28.133864,6.026538,-7.469589,-13.07329,-12.118672,5.903537,23.478252,44.400272,59.018085,48.549591,79.315921,75.204712,67.702571,58.810661,92.289402,94.109676,92.08255,63.480148,91.036159,87.234581,80.961147,64.489368,83.577827,80.000301,74.879562,-35.098045,-54.335373,-59.871532,-57.577115,-53.851929,-64.950787,-62.067574,-57.916884,-33.336052,-46.953191,-49.05554,-48.980636,-12.67019,-24.133821,-25.950055,-24.91689,6.183859,-5.411176,-8.460195,-7.57157,76.568373,97.339326,-76.596742,20.55506
114,-2.936165,4.094942,1.197595,4.922055,-9.901314,-32.727104,-56.31356,-70.183765,-52.683952,-87.120529,-77.482143,-65.82328,-61.156288,-95.919502,-83.510307,-71.693848,-64.909824,-95.135376,-83.445476,-72.858948,-65.327625,-91.040062,-82.030048,-71.502319,-38.566646,-58.826586,-63.093261,-58.822695,-48.495192,-60.557981,-62.275445,-58.717751,-27.269495,-41.656766,-44.250487,-41.254259,-8.036884,-24.735634,-28.291359,-24.743656,7.65061,-7.042702,-11.508579,-8.705221,5.23534,22.327131,43.73909,58.796957,47.713726,78.689289,70.92568,60.661566,57.936796,89.463204,85.05637,77.836464,62.5255,88.116955,78.557562,67.728178,63.567719,80.698443,72.99963,64.560379,-35.566817,-55.629924,-61.206268,-57.633707,-54.949278,-64.891399,-59.751233,-54.548283,-33.774753,-46.513387,-46.504742,-44.806757,-12.504459,-24.236475,-24.561433,-22.028024,7.078656,-5.171113,-7.268394,-4.925457,73.585476,101.302706,-75.445879,25.345553
