takenoko1/special-research/HandMotion_SimilarSearch_自分用/NewProject/handData_new/tgt/d3_feature/17.csv
,vel_0x_L,vel_0y_L,vel_0x_R,vel_0y_R,posFromWrist_1x_L,posFromWrist_2x_L,posFromWrist_3x_L,posFromWrist_4x_L,posFromWrist_5x_L,posFromWrist_6x_L,posFromWrist_7x_L,posFromWrist_8x_L,posFromWrist_9x_L,posFromWrist_10x_L,posFromWrist_11x_L,posFromWrist_12x_L,posFromWrist_13x_L,posFromWrist_14x_L,posFromWrist_15x_L,posFromWrist_16x_L,posFromWrist_17x_L,posFromWrist_18x_L,posFromWrist_19x_L,posFromWrist_20x_L,posFromWrist_1y_L,posFromWrist_2y_L,posFromWrist_3y_L,posFromWrist_4y_L,posFromWrist_5y_L,posFromWrist_6y_L,posFromWrist_7y_L,posFromWrist_8y_L,posFromWrist_9y_L,posFromWrist_10y_L,posFromWrist_11y_L,posFromWrist_12y_L,posFromWrist_13y_L,posFromWrist_14y_L,posFromWrist_15y_L,posFromWrist_16y_L,posFromWrist_17y_L,posFromWrist_18y_L,posFromWrist_19y_L,posFromWrist_20y_L,posFromWrist_1x_R,posFromWrist_2x_R,posFromWrist_3x_R,posFromWrist_4x_R,posFromWrist_5x_R,posFromWrist_6x_R,posFromWrist_7x_R,posFromWrist_8x_R,posFromWrist_9x_R,posFromWrist_10x_R,posFromWrist_11x_R,posFromWrist_12x_R,posFromWrist_13x_R,posFromWrist_14x_R,posFromWrist_15x_R,posFromWrist_16x_R,posFromWrist_17x_R,posFromWrist_18x_R,posFromWrist_19x_R,posFromWrist_20x_R,posFromWrist_1y_R,posFromWrist_2y_R,posFromWrist_3y_R,posFromWrist_4y_R,posFromWrist_5y_R,posFromWrist_6y_R,posFromWrist_7y_R,posFromWrist_8y_R,posFromWrist_9y_R,posFromWrist_10y_R,posFromWrist_11y_R,posFromWrist_12y_R,posFromWrist_13y_R,posFromWrist_14y_R,posFromWrist_15y_R,posFromWrist_16y_R,posFromWrist_17y_R,posFromWrist_18y_R,posFromWrist_19y_R,posFromWrist_20y_R,posFromBody_0x_L,posFromBody_0y_L,posFromBody_0x_R,posFromBody_0y_R
39,0.479256,-7.753159,-3.682766,-39.45776,-30.973068,-60.691269,-80.699318,-92.929905,-53.284057,-86.130352,-104.808037,-118.656029,-42.515945,-80.504505,-101.488563,-116.226929,-33.490448,-68.405216,-87.468784,-99.821171,-26.903114,-53.510902,-68.646595,-78.951004,-14.784346,-7.110659,6.798757,18.834172,32.864569,58.621617,65.707378,67.214952,49.662064,73.368443,76.898467,75.219918,58.697928,79.976552,81.218674,76.93222,61.545462,79.967981,81.982811,78.854745,23.767639,37.896148,44.415092,46.688896,47.966446,60.684643,57.271751,50.951214,40.133365,53.60741,49.700798,43.017769,30.022865,42.100513,40.216312,35.927902,19.152317,31.165844,33.000812,31.122196,18.088005,44.443822,65.960913,77.949052,63.84506,96.694365,106.679716,108.70797,67.453149,102.515021,110.338699,109.036037,67.199454,97.975106,101.499535,97.762129,63.706851,87.041998,89.880479,86.855042,54.621889,450.280145,-93.479902,365.763788
40,1.456741,-8.84939,-8.311569,-51.58391,-30.254104,-60.127292,-82.15155,-98.181873,-53.124298,-86.827583,-105.95478,-120.234981,-42.271522,-81.020404,-102.601947,-118.086376,-33.133804,-68.883476,-89.212429,-102.942684,-26.59362,-53.499229,-69.246093,-80.489616,-15.416509,-8.395092,5.383475,17.276456,29.594848,56.380201,64.654015,66.975077,46.829907,72.577223,77.469584,76.689034,56.895594,80.21523,83.134406,80.337323,61.027216,81.612407,85.115829,83.165171,24.540309,42.073642,53.185546,58.866725,54.186595,69.895854,66.844608,60.438583,46.854549,63.227645,59.197597,52.111038,36.722728,51.606308,49.911495,45.843967,25.314674,39.62257,42.277336,41.132274,13.60879,35.788229,55.367111,68.033084,53.263484,87.844283,100.070754,102.787982,58.07625,94.198215,103.869762,103.570792,59.798827,91.449346,96.702108,93.946237,58.635758,82.157033,86.047853,84.032072,56.091533,442.10813,-101.778568,314.857253
41,2.197678,-8.600425,-9.754166,-62.743384,-30.285278,-60.556892,-84.662979,-104.390716,-54.306976,-88.972103,-108.564892,-123.234146,-43.304031,-82.816727,-104.953228,-121.095497,-33.81459,-70.320259,-91.854732,-106.748497,-27.041885,-54.371956,-70.784214,-82.878033,-15.690483,-9.331895,4.09078,15.403678,26.867765,53.472831,62.260928,65.138645,44.311528,70.507695,76.10684,76.091982,55.2404,79.441028,83.517976,81.919851,60.543883,82.255427,86.677213,85.578649,32.832264,55.865959,70.159286,76.308277,68.719643,86.582588,81.015186,72.868526,57.777866,75.788372,70.071178,61.741333,43.49374,59.711334,56.547844,51.63937,27.726391,43.544987,45.248611,43.38874,1.55114,16.51006,34.624006,49.355734,31.030774,62.752869,74.6829,77.439648,41.953588,74.875005,83.214263,82.370258,50.377641,78.182938,81.990184,78.794119,55.87654,75.547134,77.589714,74.932223,58.438396,434.165282,-111.383549,252.771446
42,1.521103,-7.22218,-10.539571,-67.683705,-30.687469,-61.546417,-87.003456,-108.999367,-57.631554,-92.190216,-111.482849,-126.079662,-46.545158,-85.612415,-107.381001,-123.631393,-36.180222,-72.47438,-93.856007,-108.877911,-28.365257,-55.599083,-71.786545,-83.971825,-15.649184,-9.685984,3.136563,12.781422,26.461768,51.159858,59.757726,63.021409,43.834111,67.851094,73.811083,74.796521,55.021285,77.599681,82.295503,81.677307,60.865689,81.427749,86.236711,86.123633,35.924732,62.484936,80.030425,87.523421,76.894123,97.689408,91.339986,82.409824,66.497143,88.100018,81.66853,72.36636,52.759017,72.651401,68.115666,61.555922,37.428723,56.712193,56.54874,52.483604,-9.377806,-1.710877,13.652217,28.13149,11.451775,37.396849,46.58137,47.89567,26.528939,54.108337,60.426917,59.515773,39.576681,63.048693,65.463052,61.956441,49.856656,65.985016,66.005152,62.291551,60.304356,427.580462,-121.578263,185.725101
43,1.488533,-5.514818,-8.534105,-57.779832,-31.323509,-62.421707,-88.306034,-110.537235,-60.378937,-94.766499,-113.953629,-128.518467,-49.737053,-88.288971,-110.136566,-126.632149,-39.052826,-75.021389,-96.510349,-111.771263,-30.326912,-57.493057,-73.686687,-86.049774,-15.600859,-10.331239,2.363534,11.204588,25.58616,48.792298,57.080475,60.484356,43.271293,65.439888,71.705184,73.570058,54.897339,76.295339,81.417881,81.668464,61.254865,80.937352,85.854303,86.399991,34.584491,63.589966,85.511292,96.878468,75.690204,100.870425,97.151335,89.909417,67.383007,95.14238,91.301273,82.739444,56.650506,83.564652,79.648387,72.082266,44.827277,69.2574,68.43158,62.847779,-20.588131,-23.660632,-13.632685,-0.763658,-20.329625,-4.419363,-0.193528,-1.570659,-3.182362,16.250422,21.30733,20.687181,14.004059,33.496409,38.861755,38.262038,29.617952,43.443278,45.258606,43.527419,62.232405,422.719417,-129.672852,128.599042
44,0.704704,-3.88646,-4.290725,-48.278117,-31.658844,-62.875282,-89.20166,-111.636177,-62.54647,-96.782936,-115.946548,-130.527065,-52.171554,-90.48191,-112.35482,-128.922832,-41.33979,-77.193912,-98.635677,-113.95562,-31.942772,-58.947075,-75.035671,-87.453415,-15.307964,-10.448145,2.062649,10.254657,25.429166,47.409015,55.497541,59.133603,43.310504,63.835946,70.29189,72.963855,55.10939,75.324462,80.885914,82.016515,61.593665,80.53122,85.69064,87.033587,31.492779,59.980957,83.277128,96.301718,69.090111,96.14617,94.129709,87.933546,64.032337,96.472595,94.298813,86.231781,57.547983,89.689814,85.484362,76.664749,50.40766,78.195042,75.605089,67.813574,-25.805509,-37.441161,-33.87622,-24.262508,-46.482795,-41.538866,-41.219032,-44.048025,-29.425945,-17.668314,-12.321001,-11.523201,-9.908276,4.801657,12.79451,14.877246,9.723054,19.404101,22.102597,21.887789,63.378061,420.101613,-133.522625,81.589581
45,0.326111,-2.169143,-0.089916,-40.326557,-32.195457,-63.39949,-90.080326,-112.379425,-64.656761,-98.554355,-117.524998,-131.961387,-54.662155,-92.337673,-114.101601,-130.571583,-43.72982,-78.950157,-100.160751,-115.39238,-33.724548,-60.127693,-75.94059,-88.301937,-15.005709,-10.836753,1.278567,9.393373,25.447838,46.381537,54.268966,58.049833,43.409329,62.753843,69.426544,72.774935,55.288577,74.785862,80.818963,82.719048,61.864613,80.270892,85.778127,87.873837,29.143352,54.452305,75.422487,88.179674,60.211429,83.11778,83.205385,79.855299,56.451988,89.227066,89.579429,83.874149,52.598734,86.736059,82.807932,73.915386,49.103994,77.827663,74.147043,65.238218,-25.923595,-42.252117,-43.274071,-36.982599,-62.664781,-69.79084,-74.037308,-78.435558,-48.437224,-44.583967,-38.179338,-35.337074,-29.413311,-18.282352,-5.980018,-0.041573,-8.472002,-1.609385,3.959807,6.577237,63.843183,419.518779,-133.47353,42.849333
46,0.040718,-1.214014,-0.950787,-25.935272,-32.252517,-63.586075,-90.537185,-112.95932,-65.720855,-99.320537,-118.280903,-132.814201,-56.076118,-93.483993,-115.448936,-132.079078,-45.217804,-80.025924,-101.272007,-116.706676,-34.88974,-60.784836,-76.438087,-88.907009,-14.652088,-10.783536,1.188795,9.144001,25.654394,46.078146,53.808235,57.535638,43.677746,62.470867,69.278949,73.023049,55.467333,74.678318,81.035325,83.507973,61.838506,80.207882,86.190435,89.055654,29.291084,52.085541,71.203474,83.95114,53.766232,73.226755,78.072767,79.093146,49.632111,85.887875,89.248478,84.387943,47.476565,85.385542,83.104037,74.019585,46.750609,77.730446,75.605261,66.825056,-23.892617,-41.873148,-46.715001,-44.772062,-69.303407,-85.297227,-94.033969,-100.901723,-59.404671,-58.376002,-48.24476,-42.508594,-43.339492,-33.598868,-17.585014,-9.093455,-24.11193,-17.88759,-9.012509,-4.027241,63.765163,420.189944,-134.543055,18.79924
47,-0.275734,-0.615095,-0.816149,-20.178165,-32.16085,-63.704338,-90.851429,-113.415138,-66.182007,-99.549694,-118.501911,-133.106804,-56.757339,-94.048633,-116.195526,-132.987373,-46.088493,-80.570308,-101.950493,-117.744232,-35.67572,-61.209068,-76.800659,-89.466705,-14.480299,-10.644549,1.396078,9.329882,25.941348,45.988557,53.639433,57.315028,44.029291,62.487835,69.158621,72.966176,55.741454,74.953909,81.410755,84.175679,61.997734,80.568084,86.815077,90.068842,27.478362,47.577381,64.936709,77.510115,47.984802,65.808262,74.482964,79.116339,44.063701,83.149795,88.607505,84.218227,43.638178,84.177352,83.545174,74.513322,45.247097,77.696365,77.201468,68.881316,-23.868893,-42.889608,-50.622756,-52.003705,-74.152118,-96.22827,-108.293752,-116.985686,-67.386503,-67.913138,-54.79159,-46.734987,-53.680792,-45.399239,-26.99923,-16.75613,-35.945813,-31.085668,-19.976388,-13.053961,63.103288,421.609404,-135.745345,0.65563
48,-0.638992,-0.012993,-0.700236,-14.201881,-31.979095,-63.537483,-90.70134,-113.352058,-66.366074,-99.462662,-118.344475,-132.84613,-56.95594,-94.204605,-116.340008,-133.083973,-46.348183,-80.767342,-102.20454,-118.160717,-35.895584,-61.217331,-76.751724,-89.502285,-14.291861,-10.347813,1.705102,9.657654,26.512614,46.218603,53.640373,57.064025,44.630037,62.737814,69.15998,72.858064,56.221527,75.152882,81.503369,84.309604,62.317491,80.926546,87.423566,91.013537,24.463429,42.23489,58.358789,70.854776,42.436752,59.974082,71.695041,79.210141,39.311943,80.993935,87.079525,82.198002,40.680894,83.027673,83.07817,73.734438,44.272685,77.549389,77.856511,69.712541,-24.997895,-44.931945,-54.577592,-58.22929,-77.634255,-103.068092,-117.122126,-127.012854,-72.743503,-73.31881,-57.706515,-48.160737,-60.788009,-53.836396,-34.421596,-23.596745,-44.444745,-40.860009,-28.364879,-20.303155,61.951309,423.742942,-136.958568,-11.39972
49,-0.093361,0.086784,-0.722131,-8.573556,-32.209213,-63.835533,-90.86182,-113.467655,-66.536636,-99.649841,-118.459408,-132.893291,-57.050766,-94.237827,-116.319809,-133.140518,-46.353241,-80.65686,-102.169029,-118.365063,-35.721268,-60.761558,-76.235676,-89.132355,-14.269124,-10.238823,1.922488,9.909929,26.943619,46.409856,53.56936,56.862287,44.966737,62.783768,69.072838,72.703935,56.425798,75.236517,81.65877,84.583961,62.384737,81.1672,88.090001,92.10505,20.375382,36.205181,51.665005,64.231877,37.058934,55.488396,69.58152,79.523163,35.362519,79.463482,85.090302,79.079522,38.57935,81.921902,81.87053,72.029835,43.753704,77.321743,77.545441,69.290371,-27.176023,-47.824879,-58.394129,-63.102221,-79.730508,-105.866258,-120.303603,-130.335236,-75.381408,-74.612911,-57.08292,-46.660426,-64.380658,-58.240543,-39.114186,-28.824184,-49.087107,-46.358498,-33.324758,-24.993584,61.433836,425.385031,-138.104811,-18.417971
50,-0.105171,0.046128,-0.54245,-2.179604,-32.046456,-63.74144,-90.643456,-113.217156,-66.205216,-99.493183,-118.394406,-132.871319,-56.758347,-94.125343,-116.285751,-133.183777,-46.117333,-80.510582,-102.273399,-118.768376,-35.390419,-60.257973,-75.806694,-88.934544,-14.190689,-10.001974,2.276824,10.301747,27.491814,46.684015,53.523911,56.582927,45.417934,62.901106,68.860231,72.309572,56.696215,75.355053,81.743009,84.752786,62.450106,81.391328,88.619585,93.021475,15.249459,29.166264,44.223244,56.639866,31.737797,51.673897,67.264676,78.477196,31.971795,77.714734,81.626576,73.580578,37.07333,80.205883,79.081009,68.349701,43.639698,76.574902,75.702244,66.918126,-30.020796,-51.224023,-62.001631,-66.657408,-80.273096,-104.755906,-117.558724,-126.270534,-75.630941,-72.727993,-53.663436,-43.307324,-65.087645,-59.494811,-41.83173,-33.408393,-50.648207,-48.202353,-35.498601,-28.089775,61.04983,426.616226,-138.926096,-19.412508
51,-0.077454,-0.110089,0.469403,-2.019646,-31.949478,-63.672821,-90.481338,-112.912731,-65.74871,-99.2299,-118.190964,-132.657932,-56.323059,-93.860286,-116.027515,-132.96627,-45.728233,-80.188293,-102.183609,-118.950657,-34.932174,-59.633423,-75.285667,-88.663364,-14.0714,-9.845226,2.444625,10.727764,28.121237,47.081849,53.670692,56.585818,45.99188,63.148602,68.842212,72.176043,57.158182,75.600486,82.016552,85.143481,62.816261,81.791175,89.192703,93.825775,9.905307,21.212414,34.136867,43.985367,25.555641,50.224754,62.972683,70.080093,27.560428,72.924648,75.114704,66.302089,33.933471,76.250782,74.468124,63.933861,41.647991,74.005336,72.380493,63.666137,-32.208218,-55.206721,-68.408039,-75.166807,-81.538881,-103.582543,-110.380689,-114.879627,-76.049449,-75.503241,-58.021447,-48.967113,-64.984065,-62.050513,-45.685715,-38.209265,-50.372275,-49.936632,-38.179761,-31.154639,60.870071,427.440754,-138.558998,-20.497537
52,0.084755,-0.015623,-0.343918,-1.094625,-31.867721,-63.574081,-90.289226,-112.676513,-65.345009,-99.065758,-118.133308,-132.612133,-55.85083,-93.560463,-115.734695,-132.672409,-45.234237,-79.776295,-101.977352,-118.914104,-34.344703,-58.929176,-74.68483,-88.229358,-13.97019,-9.785402,2.412762,10.806224,28.659947,47.497615,53.794106,56.49996,46.424664,63.44104,68.930948,72.157913,57.438566,75.774845,82.225095,85.433116,62.958683,82.022789,89.645679,94.552293,6.01791,15.084228,25.666191,32.050655,19.578186,48.346184,57.655037,60.384178,23.371387,68.230625,68.43322,58.639904,30.984741,72.336971,69.381271,58.651588,39.813835,71.491241,68.617401,59.522209,-33.685708,-59.223943,-75.389559,-84.672751,-82.888868,-102.358718,-103.201494,-103.815231,-76.185398,-78.182326,-62.089854,-54.212045,-64.368518,-64.462848,-49.452737,-42.945818,-49.669067,-51.233761,-40.343304,-33.816909,61.006382,428.038862,-138.85136,-20.978431
53,0.15699,-0.127588,-0.807369,-0.643495,-31.736183,-63.492164,-90.235279,-112.642318,-64.604187,-98.913162,-118.207054,-132.704693,-55.027313,-93.327347,-115.563446,-132.450176,-44.474006,-79.492344,-101.932709,-118.987758,-33.73336,-58.591003,-74.519039,-88.177917,-14.031003,-9.777536,2.426161,10.991289,28.995251,47.869463,53.95194,56.474975,46.739788,63.772799,69.074727,72.08601,57.642527,76.003667,82.395328,85.517762,63.033598,82.255809,89.923556,94.867009,3.028198,10.073925,18.002277,20.185157,14.548381,47.65884,53.052887,50.967556,19.934784,64.296901,62.641811,52.002044,28.443557,68.704399,64.637054,53.717823,38.011688,68.895984,64.906437,55.416446,-34.594878,-62.511862,-81.816153,-93.897448,-83.720072,-100.616387,-95.802578,-93.103739,-75.596775,-79.997449,-65.263195,-58.546177,-62.769399,-65.580691,-51.802266,-46.311734,-47.755718,-51.410608,-41.400211,-35.36648,61.354774,428.365748,-139.467327,-21.167452
54,0.120186,-0.104544,-1.300747,1.030886,-31.67617,-63.409515,-90.25066,-112.611992,-64.160934,-98.815224,-118.151253,-132.589931,-54.588409,-93.210125,-115.346867,-132.083038,-44.125236,-79.364868,-101.776714,-118.73988,-33.617454,-58.759231,-74.76194,-88.411835,-14.108796,-9.831394,2.293287,11.112567,29.177255,48.10425,54.05988,56.480805,46.937192,64.068547,69.267043,72.142611,57.816726,76.224536,82.558387,85.596841,63.198558,82.381546,89.889593,94.706644,0.745777,6.068332,11.315128,9.144504,10.536026,47.599823,48.55814,41.378837,17.268848,60.895054,57.086849,45.632011,26.453647,65.482361,60.239868,49.148975,36.689918,66.587494,61.624775,51.860058,-35.090795,-65.449792,-88.055161,-103.015279,-83.177453,-98.487566,-88.714025,-83.266886,-73.570286,-80.7866,-67.507483,-61.968736,-59.827683,-66.026671,-53.593417,-48.87387,-44.710552,-51.324046,-42.19363,-36.376927,61.718216,428.771809,-140.524818,-19.625961
55,0.155731,-0.293512,-1.868065,2.103337,-31.717872,-63.496696,-90.398918,-112.720115,-63.952995,-98.78865,-118.160728,-132.576278,-54.402008,-93.194538,-115.28738,-132.002277,-44.016929,-79.43518,-101.785766,-118.67308,-33.719879,-59.057922,-75.060985,-88.635006,-14.184712,-9.85681,2.238638,11.257261,29.203586,48.244844,54.14743,56.474593,46.994163,64.221664,69.465064,72.267545,57.924418,76.324621,82.619507,85.520727,63.392763,82.53197,89.881825,94.443192,-0.414883,4.045875,7.026523,0.560177,7.765457,49.752193,45.788498,33.629894,15.057655,59.285133,53.040573,40.822208,24.311222,63.172771,56.778957,45.658985,34.709781,64.350563,58.814506,49.057297,-34.99746,-67.694742,-93.425274,-111.491573,-81.180463,-94.429515,-80.340077,-73.493,-69.386277,-78.283004,-66.321567,-61.744071,-54.288134,-63.390238,-52.254792,-48.124128,-38.898808,-48.700729,-40.481489,-34.646471,62.250177,428.986654,-142.016653,-17.014267
56,0.104325,-0.301712,-1.543488,2.952163,-31.703179,-63.536156,-90.514183,-112.781514,-64.070115,-99.033795,-118.366402,-132.688935,-54.471657,-93.402569,-115.409924,-131.988007,-44.057442,-79.680428,-101.962006,-118.718308,-33.81839,-59.336975,-75.314576,-88.76595,-14.312844,-9.969925,2.09655,11.214949,29.134499,48.22475,54.175316,56.514434,46.99231,64.242411,69.554713,72.32659,57.993727,76.338798,82.562993,85.326126,63.52455,82.606922,89.813121,94.161733,-0.70055,3.62312,5.788582,-2.647991,5.454518,48.482838,43.29546,30.78138,12.938267,57.410775,50.31902,38.279732,22.249695,61.158531,54.302845,43.288628,32.850643,62.52499,56.598198,46.775643,-33.655709,-67.255226,-93.832894,-112.456892,-77.190608,-90.056337,-76.501208,-70.712156,-63.65795,-73.974066,-62.838034,-58.747965,-47.60656,-58.695452,-48.337129,-44.565957,-32.120125,-43.962594,-36.34962,-30.763122,62.856669,429.004698,-143.057974,-13.742348
57,0.129135,-0.407689,-1.045715,3.533093,-31.745522,-63.585938,-90.649361,-112.863064,-64.059677,-99.209713,-118.545548,-132.738934,-54.485893,-93.611435,-115.619099,-132.112198,-44.097817,-79.966942,-102.249745,-118.938275,-33.946152,-59.622002,-75.588272,-88.936775,-14.341335,-9.973395,2.06502,11.343082,29.12783,48.175696,54.139526,56.449078,47.07434,64.29406,69.636372,72.337496,58.160663,76.421285,82.575294,85.207344,63.771639,82.73582,89.781802,93.896219,-0.434166,4.243195,6.254768,-2.88501,4.133205,48.033268,42.372494,29.63126,11.320518,56.666485,48.948738,36.912575,20.29937,59.900791,52.587788,41.559254,30.870083,61.175846,54.778885,44.788536,-31.688113,-65.528759,-92.417815,-111.518205,-73.332967,-85.622966,-72.694499,-68.002171,-58.415642,-69.032477,-58.363834,-54.836144,-41.496221,-53.079616,-43.189281,-39.933244,-25.723048,-38.269404,-31.128716,-26.079712,63.825852,428.960648,-143.263641,-9.845616
58,0.330528,-0.375603,-0.761421,3.97748,-31.869141,-63.719215,-90.78368,-112.827816,-64.348869,-99.272083,-118.537056,-132.738522,-54.84597,-93.683945,-115.747753,-132.308086,-44.464119,-80.093697,-102.357342,-119.048641,-34.251869,-59.7491,-75.669823,-88.997784,-14.161271,-9.805051,2.166908,11.488331,29.221962,48.167162,54.127373,56.455129,47.095755,64.334037,69.699925,72.439075,58.186611,76.480763,82.619606,85.23565,63.867192,82.722927,89.602194,93.509316,0.097332,5.504802,8.146683,-0.624562,3.931114,48.199322,42.206154,29.442249,10.435879,56.697361,48.509742,36.462879,18.892559,59.487602,51.900181,40.886261,29.425037,60.647632,54.00246,44.028351,-29.841059,-63.680408,-90.677133,-110.1579,-69.778953,-81.195653,-68.800425,-65.033366,-53.908146,-64.254379,-53.862945,-50.732619,-36.346656,-47.970715,-38.396801,-35.387827,-20.302047,-32.945178,-26.200953,-21.634701,65.362152,428.782504,-142.81929,-5.670677
59,0.594017,-0.537525,0.012428,3.455794,-32.033112,-63.903763,-90.798443,-112.779842,-64.788391,-98.941853,-118.004871,-132.355728,-55.328773,-93.37199,-115.485866,-132.335232,-44.899383,-79.823341,-102.002701,-118.815765,-34.418426,-59.351761,-75.102184,-88.429951,-13.611137,-9.113669,3.111813,12.23067,29.590131,48.340273,54.429172,56.962989,47.270262,64.423859,69.913915,72.959186,58.321387,76.614193,82.857864,85.660777,64.046539,82.805191,89.758176,93.736817,1.225159,7.690224,11.513214,3.681988,4.363358,49.351627,43.137611,30.243599,9.695171,57.175518,48.711685,36.601605,17.276035,59.134621,51.372528,40.361664,27.516518,59.976643,53.231758,43.270477,-28.200802,-61.511209,-88.209407,-108.070402,-67.054933,-76.169837,-64.162655,-61.579783,-50.56283,-59.263235,-48.903016,-46.290338,-32.550217,-42.865543,-33.396154,-30.939945,-16.159619,-27.537874,-21.255603,-17.554537,67.417025,428.050138,-141.346006,-2.409724
60,0.694428,-1.073543,0.753216,3.082044,-32.147484,-63.603997,-89.807911,-111.698307,-65.099534,-97.971589,-116.268265,-130.286614,-55.088837,-91.877358,-113.408226,-129.889046,-43.939179,-77.775582,-99.396527,-115.831833,-32.679245,-56.780114,-72.148041,-85.28024,-12.747175,-7.602637,5.618386,14.563155,30.301051,49.549358,56.186638,59.2594,47.914121,65.873153,71.898413,75.370688,58.931753,77.872605,84.543761,87.674704,64.524018,83.532993,90.773217,94.940764,2.810634,10.572452,15.867725,10.084087,5.361442,50.405731,44.62928,32.097393,9.36169,57.39862,49.337116,37.374103,15.93774,58.712917,51.22903,40.143379,25.634479,59.327225,52.701198,42.608723,-27.89118,-60.011984,-85.941927,-105.617819,-64.854192,-71.566814,-60.515731,-58.874424,-48.17188,-54.915587,-44.880465,-42.636696,-30.094379,-38.974952,-29.719646,-27.565854,-13.528651,-23.381794,-17.505353,-14.324898,69.856837,426.325459,-138.847406,0.021184
61,1.486839,-2.349937,0.452957,2.970614,-32.074219,-62.999199,-88.428829,-109.884922,-64.313873,-95.577862,-112.734284,-126.00927,-53.465561,-88.363964,-108.847252,-124.434277,-41.354508,-73.038551,-93.205101,-108.539097,-29.220543,-51.710266,-65.979515,-78.410832,-11.390184,-5.199619,9.081485,17.959576,31.085145,51.13501,58.912339,63.091298,48.398071,67.941743,75.155871,79.337263,59.350297,79.917272,87.584216,91.316287,64.910156,84.881388,92.898703,97.546175,5.360687,14.973965,22.188572,19.540993,6.976456,51.814636,46.839981,34.723412,9.333572,58.061863,50.79744,38.802258,14.630115,58.453033,51.279522,40.063831,23.226757,57.975529,51.536945,41.342159,-27.56865,-58.307555,-83.384347,-103.053175,-63.069969,-67.820199,-57.160683,-56.156596,-46.275734,-51.424656,-41.236758,-38.900215,-28.183129,-35.408347,-26.203676,-23.994598,-11.445513,-19.379743,-13.949751,-11.320511,73.204302,423.093056,-136.533823,2.109332
62,2.709892,-4.524008,-0.870003,2.742614,-31.747215,-62.436561,-87.01379,-108.090282,-63.376076,-92.719482,-108.600551,-121.245312,-51.361542,-83.850471,-102.86927,-117.624756,-37.982643,-66.976959,-85.615677,-100.170456,-24.574631,-44.582817,-57.30368,-68.976494,-10.949311,-3.973281,11.027957,19.756946,30.529132,52.232031,61.667753,67.208803,47.339743,69.012335,77.788155,83.065172,58.165196,80.501135,89.773626,94.804099,63.662106,85.068072,94.650389,100.838065,7.809448,19.754643,30.16333,31.533543,7.84536,52.154228,51.029824,41.497387,8.841259,57.474976,54.193749,44.253193,13.275604,57.102299,53.519531,44.246441,21.373055,56.077389,52.738461,44.610855,-27.734506,-56.405827,-79.226903,-97.52718,-60.613482,-65.366016,-54.947048,-53.120872,-43.882893,-49.319511,-39.381807,-36.153884,-25.711254,-33.081598,-24.788375,-22.143593,-8.381649,-16.055725,-12.177391,-10.186027,77.721365,417.372007,-135.596655,3.654905
63,2.571579,-7.272185,-3.299309,3.124886,-31.255806,-60.493584,-83.187515,-103.295505,-61.098175,-89.51588,-103.053417,-112.521744,-48.158455,-79.040394,-95.074837,-106.169437,-33.695091,-61.224426,-77.257187,-88.849377,-19.547264,-38.42157,-49.559715,-58.993389,-11.091844,-4.414587,10.320655,18.525901,27.672792,52.170082,61.842506,66.649146,44.712312,69.496038,78.168735,82.282535,56.081427,80.574691,89.265469,93.340218,62.260557,84.774115,93.584552,98.674404,9.99202,24.090111,37.745854,44.098813,7.936799,48.920208,53.250756,48.489144,7.966004,54.709019,57.53611,51.911614,12.007691,54.304642,56.218335,51.059189,19.797982,53.650979,54.678486,50.297562,-28.04185,-53.990368,-73.566137,-89.331543,-57.966718,-64.622498,-56.40781,-53.907974,-41.692489,-48.380287,-40.126875,-36.362527,-23.672064,-31.157616,-24.583772,-22.006408,-6.212796,-13.184609,-10.62837,-9.457175,82.096744,408.869806,-137.092164,5.549775
64,10.131729,-21.282749,-8.643253,9.497423,-32.168678,-60.662658,-82.148815,-99.969875,-62.418915,-88.979542,-98.190502,-103.262512,-50.102257,-78.830681,-89.654846,-95.379032,-36.075737,-61.812309,-72.987522,-79.609131,-22.085037,-40.266289,-48.480354,-54.212208,-8.267738,0.040965,14.212277,21.948999,30.926236,56.482941,63.704269,66.208989,46.187258,72.161754,78.126918,79.826005,56.207201,80.900536,86.640138,88.188888,61.34302,83.638438,90.10756,93.064268,14.733387,30.578442,46.657196,56.884586,10.141869,46.768994,56.628079,56.930374,8.39177,53.269066,62.418091,61.591953,11.656712,53.315987,61.469376,61.184693,19.15369,52.356503,58.362488,58.390423,-30.468808,-55.149633,-72.82152,-86.835066,-62.280169,-73.413737,-67.043021,-62.985253,-47.277221,-57.622113,-50.293265,-44.419708,-29.860079,-39.528742,-34.244327,-30.171078,-11.98163,-20.85467,-19.42316,-17.77761,94.042677,386.546053,-143.921213,14.006194
65,14.213631,-29.941034,-11.456898,8.573137,-31.750031,-60.089722,-81.329487,-97.095039,-64.212662,-90.880177,-95.564495,-95.593792,-53.911652,-80.061047,-84.991631,-85.441864,-41.262108,-64.204949,-69.518074,-70.962971,-28.131683,-45.195488,-48.99099,-50.158608,-10.502287,-3.885064,9.403847,18.257572,21.741419,45.599209,51.720132,52.93685,37.661923,61.944877,66.194491,65.948465,49.197282,71.753782,75.426708,75.13248,56.501652,76.615503,80.735317,81.671589,19.13205,36.428936,54.716607,68.264695,10.710308,43.536793,59.025193,63.268948,8.141625,50.553704,65.969365,68.703598,11.335843,51.448346,65.844922,69.393917,19.32359,51.022293,62.032769,65.970051,-31.478964,-55.196217,-70.716405,-83.047808,-66.861129,-83.204407,-76.792633,-69.877396,-53.282739,-69.090622,-61.379002,-53.195683,-36.482304,-50.351107,-45.379161,-39.417079,-18.596822,-30.611661,-30.545792,-28.710372,109.850538,355.972146,-153.783881,21.946458
66,15.294319,-40.250536,-11.927925,6.925179,-31.945015,-60.267425,-81.25066,-95.072731,-64.978271,-89.851513,-90.904976,-87.47945,-55.297371,-78.791199,-79.32312,-75.815037,-43.134933,-64.20504,-65.581856,-63.211121,-30.310089,-47.068634,-48.26477,-45.978722,-7.489115,-4.091842,3.707692,9.683206,10.777534,27.311824,32.989886,34.266514,20.944258,37.948716,41.969223,41.804621,28.557923,43.936727,47.343609,47.282859,33.778093,47.430109,51.110199,52.177493,22.608982,40.466515,60.312126,75.255993,9.995076,39.240704,59.660122,67.523129,6.866925,46.414055,67.423062,73.394039,10.138619,48.18544,68.320748,75.195935,19.038449,48.877373,64.697537,72.100651,-32.618358,-55.788002,-69.45004,-80.112743,-72.452444,-93.383555,-87.014976,-77.397664,-60.287742,-80.886253,-72.907038,-62.466297,-44.049366,-62.116981,-57.124213,-48.995142,-26.173801,-41.724895,-42.726623,-40.097951,126.617683,315.726686,-164.23898,28.876713
67,15.579048,-50.609538,-10.932346,5.675036,-31.008568,-58.321632,-79.287735,-91.214195,-59.521065,-84.359218,-84.103168,-78.004566,-51.654762,-75.659431,-74.338577,-67.131614,-42.135475,-64.786468,-64.225296,-57.936996,-32.127273,-51.710838,-52.627144,-47.846351,-9.633225,-10.543624,-4.875455,2.027303,-5.815697,4.074829,10.741447,12.752991,3.330632,15.088737,19.788277,20.045344,11.527344,22.644345,25.954463,25.548689,18.667754,28.328026,30.860768,30.627364,25.827393,43.132393,62.94651,77.757751,8.722378,35.565273,57.613472,66.617821,4.855865,42.843292,65.963436,72.822407,8.102817,45.261555,67.478073,75.145317,17.680218,46.479481,63.783977,72.069122,-33.283102,-56.634372,-70.105212,-80.450728,-78.594159,-102.019233,-95.542881,-84.757554,-68.010725,-91.63571,-82.974986,-71.166121,-52.807366,-73.679968,-67.635758,-57.679362,-35.825261,-53.718808,-54.042034,-49.856202,143.406812,265.832582,-173.961245,35.267183
68,16.032578,-55.376152,-7.883045,4.601468,-30.403382,-57.373787,-79.080002,-89.149796,-53.865624,-79.525864,-78.971443,-71.882904,-47.137528,-73.644699,-71.739693,-63.101464,-40.181282,-65.551255,-63.582413,-55.181008,-33.170174,-55.360199,-55.380524,-49.205429,-11.302419,-16.944622,-14.198828,-7.091652,-23.454764,-20.315219,-10.922209,-6.955437,-15.673348,-9.057637,-2.019072,-0.022625,-6.845348,0.132603,5.519381,6.633501,2.4472,8.334323,12.081184,13.172153,28.936077,45.147045,63.883678,77.197666,6.85025,34.366184,56.328117,64.418506,2.04594,40.229507,63.270149,69.156475,4.995941,42.409126,64.887142,71.635986,14.947082,43.350162,60.990623,68.743137,-33.712558,-57.966878,-72.52342,-83.585488,-84.693685,-108.686178,-100.696243,-88.855015,-75.443072,-100.913419,-90.477569,-77.157474,-61.302061,-84.752719,-77.324119,-65.475975,-44.900361,-65.386277,-65.750845,-60.473198,160.443478,211.548304,-180.840202,40.960525
69,8.533882,-43.319804,-1.496636,-1.639634,-29.176003,-54.792938,-76.298561,-87.924339,-43.771088,-70.864037,-73.890312,-69.505646,-36.828072,-65.855576,-67.61245,-62.181175,-31.232803,-59.116814,-60.281639,-54.747757,-27.083428,-50.459221,-52.602539,-49.012756,-17.488439,-30.2352,-31.941345,-27.726527,-46.525051,-49.661935,-38.584812,-32.29502,-38.652855,-37.834662,-28.749046,-24.894783,-27.980241,-26.463688,-19.515865,-16.448549,-15.645547,-14.924389,-11.207002,-9.370476,29.05196,44.032574,61.518654,73.307843,3.157288,32.296841,53.560295,60.044518,-1.432731,36.232773,58.683335,62.736077,1.691231,37.691883,59.673352,64.594941,11.755715,38.883671,56.715992,63.907162,-31.709028,-55.834927,-70.261904,-81.093093,-84.462831,-106.502727,-96.996658,-84.803045,-75.698361,-100.775598,-89.124759,-75.85044,-62.033415,-86.321513,-78.150507,-66.044271,-46.384137,-66.931451,-67.969006,-63.203313,170.026554,169.461507,-181.287644,40.553898
70,2.158333,-38.673554,1.706257,-0.96984,-29.2221,-53.67302,-75.318077,-87.535469,-32.82264,-62.887734,-68.921242,-65.23684,-25.046334,-61.179314,-65.800209,-60.018082,-21.12616,-56.092118,-60.32856,-54.988518,-20.169869,-47.370575,-54.174752,-53.451302,-18.12729,-35.76611,-42.35118,-41.466359,-61.309273,-69.68006,-54.68664,-45.880735,-55.249082,-59.255238,-45.894092,-39.402506,-44.839419,-48.526425,-37.627225,-31.909785,-31.487455,-35.840402,-31.232556,-28.231393,28.616707,42.889881,58.791928,69.361702,3.423283,33.083325,53.983074,61.117756,-1.029476,35.608235,58.126614,63.086323,2.01067,36.703331,58.584023,64.124577,11.465779,37.283467,54.752518,62.039829,-29.730576,-53.75495,-68.212389,-79.174723,-83.824289,-104.16803,-95.840703,-84.616478,-75.610842,-99.574244,-88.874003,-76.11633,-62.422466,-86.053441,-78.94834,-67.588117,-47.12742,-66.829217,-68.672374,-64.51738,173.025959,131.967676,-178.740315,40.763781
71,0.267311,-28.065605,2.591686,0.80215,-29.374512,-52.876602,-74.488999,-88.529618,-27.788155,-61.257134,-72.841324,-73.004563,-21.248726,-62.309715,-73.142281,-71.4581,-19.9842,-59.368904,-69.69278,-68.691399,-22.486153,-52.576973,-64.153885,-67.781983,-24.068804,-44.540715,-50.879215,-49.73779,-72.790614,-82.105312,-67.851588,-58.429525,-62.606699,-68.92807,-56.267069,-48.677418,-47.278154,-53.510728,-43.818951,-37.81289,-28.988991,-34.609093,-32.428952,-30.912349,26.499825,40.892235,55.573826,65.950745,9.480847,38.287217,58.245083,66.700974,5.930947,40.162228,62.36871,69.978447,8.768578,40.919987,62.553978,70.318943,16.779339,40.621926,57.341275,65.689259,-27.934985,-51.668348,-66.246515,-76.721515,-80.55277,-100.423781,-95.842629,-88.221918,-73.180092,-97.100337,-90.659404,-81.861774,-60.990104,-84.575593,-81.143956,-73.773785,-46.373324,-65.158368,-68.483158,-66.708587,173.939959,104.169055,-175.50194,41.832915
72,-5.730698,-18.551813,2.41285,0.83983,-30.376488,-53.465401,-74.082115,-89.572861,-31.003349,-64.884659,-78.979866,-82.560745,-24.725921,-65.969421,-80.074173,-82.799217,-23.461647,-62.965072,-76.369331,-79.657493,-26.376228,-56.583549,-70.295379,-77.236633,-23.045939,-44.132723,-53.109504,-55.387538,-73.705946,-86.26635,-78.151568,-72.900412,-64.700883,-76.275523,-69.33033,-65.284573,-49.366305,-59.849969,-54.643637,-51.489216,-30.021938,-36.84915,-36.897235,-37.150085,27.27626,44.389732,59.615124,71.800781,21.117874,48.835853,68.125454,78.740341,17.610512,49.694904,71.707638,82.451614,18.961853,49.159492,71.098354,81.876892,23.854511,46.667118,63.548,73.874954,-24.258859,-45.868749,-58.500098,-67.007002,-74.22184,-93.546983,-93.691528,-90.534903,-67.351631,-89.797609,-88.378152,-84.45379,-55.640369,-76.867548,-77.257231,-74.272104,-41.131832,-57.223569,-62.439812,-63.758634,168.763246,84.962246,-172.535105,42.017749
73,-7.469673,-10.4621,10.083206,0.75317,-31.567795,-55.106712,-75.370834,-93.08622,-35.819366,-68.007523,-84.725899,-92.763428,-30.142342,-69.035248,-86.649651,-94.905968,-28.816109,-66.349388,-83.491768,-91.887566,-31.354843,-60.505692,-77.560661,-89.206078,-21.591489,-41.725211,-51.315297,-55.940359,-71.103945,-87.921515,-86.39996,-84.688152,-63.554574,-81.409298,-80.132176,-79.111683,-48.926519,-64.388161,-63.971476,-63.800285,-29.555723,-37.837361,-39.844441,-41.53623,27.591053,47.362679,63.093578,75.736851,33.567123,61.054504,79.332424,89.991612,30.639862,61.672966,82.827393,94.155487,30.659431,60.636681,81.668392,92.93383,32.780159,55.578964,71.687439,82.158691,-24.74263,-46.917654,-59.579909,-67.592902,-69.216351,-88.521346,-92.460868,-92.958508,-61.388406,-83.447382,-86.2391,-86.090417,-48.816627,-68.201767,-72.001696,-72.910076,-33.103747,-46.110094,-52.446107,-56.293355,161.618362,73.510278,-162.12711,41.781051
74,-9.013321,-8.886169,6.564972,1.054327,-31.156563,-55.431267,-75.802025,-93.79731,-40.954811,-72.077728,-89.815201,-100.020676,-35.838364,-73.078628,-92.315071,-103.150268,-34.40728,-70.962822,-89.754982,-100.229828,-36.109863,-65.487785,-84.205788,-97.866051,-18.991944,-37.73186,-46.237714,-49.862994,-69.335814,-89.103331,-90.445346,-91.014358,-62.602382,-84.305497,-86.018997,-87.070909,-47.98501,-65.057832,-66.682411,-68.339749,-27.832491,-34.599595,-35.770692,-37.232355,28.328373,51.196827,68.020225,81.981399,43.924736,69.699154,88.110168,100.477226,40.950268,70.161621,91.483898,105.390598,39.727226,68.95031,89.737553,102.803375,39.711548,61.87936,77.105438,87.959438,-23.068565,-43.861904,-54.558169,-61.508388,-64.139079,-83.979813,-91.582123,-95.597209,-56.176579,-77.767228,-83.984994,-87.129029,-43.070097,-60.383715,-66.037305,-69.573214,-26.27611,-37.11921,-43.55017,-48.812775,152.563116,63.600173,-155.604063,41.811442
75,-7.695305,-4.532912,4.212948,1.049633,-32.245857,-56.911903,-76.806495,-95.955253,-46.017448,-72.605049,-93.219108,-109.046974,-40.658478,-72.242569,-95.780502,-113.557365,-38.015373,-70.001449,-92.373482,-108.4422,-38.309875,-65.770294,-85.284988,-101.248077,-15.860291,-32.575275,-39.968207,-44.036164,-64.309794,-86.118588,-93.523735,-96.417476,-59.292357,-83.637259,-90.973986,-93.962311,-45.762397,-63.535715,-70.338369,-74.320239,-26.161976,-30.824676,-32.46967,-33.789974,28.483211,53.405697,71.62635,87.169452,49.671341,74.315758,92.694328,105.711914,46.474823,75.352501,96.505211,111.979351,44.383964,73.877037,94.660126,108.987682,43.050636,65.662342,80.73056,92.290581,-22.392879,-41.703171,-50.968104,-56.647358,-61.213412,-81.257731,-90.811823,-97.043069,-53.023726,-73.382473,-81.189046,-86.21146,-39.618095,-54.850612,-61.161955,-66.067933,-22.194994,-30.887562,-36.947056,-42.795962,144.805464,58.173331,-151.453462,41.967145
76,-7.923111,-3.29499,4.23143,-0.748779,-32.559379,-56.756332,-75.967483,-95.419487,-45.195282,-69.122543,-89.671737,-106.425384,-39.337234,-68.014572,-91.808647,-110.352379,-35.926941,-65.680046,-87.973778,-104.435165,-35.87661,-61.874473,-81.019249,-96.859932,-14.137874,-30.210475,-37.590273,-41.99446,-61.999994,-85.296325,-94.256687,-98.237934,-58.1437,-83.616331,-92.205073,-95.805554,-45.734393,-64.103275,-71.715131,-75.810079,-26.833369,-31.317153,-32.778921,-33.637802,31.695179,57.523853,76.797306,93.332039,48.83052,73.331131,92.370781,104.726017,44.359405,74.107109,96.093075,111.135074,41.463306,72.105022,93.73938,107.837974,40.114666,63.956566,79.814621,91.355541,-21.80131,-39.906457,-47.907075,-52.887573,-61.772994,-81.303507,-88.289498,-91.443622,-52.981588,-72.332772,-77.248086,-79.250911,-38.663254,-52.648031,-56.769544,-59.244136,-20.071249,-28.216104,-33.429518,-38.178365,136.806867,54.460955,-147.297518,40.80098
77,-2.799843,-1.218107,4.037693,-0.313822,-33.47612,-56.901535,-75.819603,-94.619064,-41.142379,-62.993064,-83.791145,-100.072769,-34.943298,-62.620765,-86.975235,-104.748573,-31.914047,-60.969612,-83.814834,-99.691703,-32.980064,-58.478622,-77.771873,-93.133049,-14.041741,-30.556098,-38.297507,-43.377287,-64.489345,-88.267391,-94.290094,-94.514921,-60.976278,-86.833818,-91.775296,-91.446642,-49.026653,-68.720378,-73.54584,-74.282695,-30.883246,-38.137419,-39.086559,-38.463282,31.236534,55.03062,73.404682,88.946663,41.520847,64.549782,83.64949,94.821979,36.841301,65.655418,87.86055,101.617596,34.389221,64.712402,86.370289,99.562591,34.697456,58.179302,73.767048,84.615635,-23.268055,-42.398932,-51.329289,-57.760088,-65.411625,-85.407804,-89.623177,-88.886729,-56.8704,-77.643893,-79.669511,-77.762794,-42.602554,-58.282552,-60.642418,-60.386969,-23.554361,-32.787709,-37.622815,-41.622995,133.899141,53.442277,-143.367708,40.686587
78,-0.935875,-2.23857,-3.721836,-0.565664,-33.308189,-55.25315,-73.871337,-91.332687,-34.772872,-56.795173,-77.250869,-91.087486,-28.031547,-56.521659,-80.250755,-94.566925,-25.218589,-54.939079,-77.348213,-90.361587,-27.580284,-53.415733,-72.411918,-85.819931,-14.852042,-32.556052,-41.700232,-48.103595,-68.217063,-91.641563,-93.111587,-88.986308,-65.065828,-90.343242,-90.131648,-85.310793,-53.400595,-73.955405,-74.562418,-71.078978,-35.820753,-46.054445,-46.650108,-44.539899,30.978424,51.954094,69.009819,83.39946,30.889068,52.520611,72.501652,83.992229,25.256538,53.73056,76.622062,90.282406,23.35738,52.964206,75.686588,89.435818,26.037174,49.328487,65.833729,77.41991,-20.994307,-38.931381,-47.307275,-53.66955,-68.197785,-88.738263,-89.494891,-84.818693,-61.027111,-82.282764,-80.80441,-75.293358,-47.713463,-64.957321,-64.644592,-60.779579,-29.699151,-40.831602,-44.806396,-46.611113,132.84165,51.697077,-147.21116,40.614293
79,1.621926,-1.72995,-1.943424,-0.603833,-34.117607,-54.695069,-73.01754,-88.329346,-28.563698,-52.520439,-71.574051,-81.134972,-21.158043,-52.037201,-73.740189,-82.808281,-18.523659,-49.882187,-70.796608,-79.816063,-22.436943,-48.899643,-67.327469,-78.176949,-15.181888,-34.998256,-45.998085,-53.996209,-72.654701,-94.497322,-90.202,-82.002781,-69.504547,-93.150823,-86.887671,-77.928699,-58.222734,-79.526071,-75.361592,-67.898826,-41.337041,-54.589643,-54.68107,-51.318279,30.131927,48.005744,63.428924,76.23484,20.971229,43.793964,64.045131,74.374054,14.995433,45.284122,68.261409,80.05735,13.992736,44.558544,68.208366,81.445003,18.722339,43.429103,60.917598,72.45861,-21.070753,-39.772792,-49.55071,-56.129358,-71.205499,-91.78727,-89.304539,-81.015373,-64.468869,-87.044634,-82.663671,-73.805383,-51.812819,-71.374541,-69.98047,-63.890416,-34.799667,-47.611655,-51.225419,-51.495892,134.33519,50.53218,-149.28297,40.575513
80,2.823166,-1.207708,-0.881653,-0.369539,-33.288643,-52.99672,-71.261811,-87.211853,-24.61496,-50.282273,-68.971871,-76.413094,-17.422234,-49.565575,-70.760971,-77.139542,-15.498802,-47.088364,-68.034302,-75.578179,-20.496002,-46.537239,-64.435089,-73.956803,-15.94986,-37.10828,-49.119248,-57.728071,-74.927938,-95.933297,-88.868958,-78.318943,-71.959688,-95.509486,-86.130839,-74.373845,-60.955795,-83.599641,-76.797172,-66.834589,-44.631704,-59.978428,-60.21342,-56.968621,29.981518,46.635212,61.2919,73.632282,16.826076,40.140598,60.215297,70.413746,10.483726,40.26757,63.053272,74.235168,9.642276,38.725662,62.127182,74.940605,14.981918,38.55027,56.12154,67.44778,-20.172619,-40.386974,-52.404883,-60.833153,-71.781865,-92.803984,-89.607209,-80.385946,-66.09808,-90.197005,-85.789848,-76.592581,-54.721431,-76.648878,-75.661212,-69.28684,-39.512286,-54.70456,-58.824826,-58.73493,136.927317,49.775328,-150.395662,40.65683
81,3.005172,-0.651485,-1.069393,0.919643,-32.579338,-52.949501,-71.973838,-88.178283,-25.905532,-51.457832,-69.031906,-75.867118,-18.850158,-50.917831,-70.553901,-76.439323,-16.81929,-48.086837,-67.116691,-73.44271,-21.155456,-46.294967,-62.32917,-70.245849,-15.056233,-35.787236,-47.052011,-54.291432,-73.281758,-94.976574,-90.439524,-83.317775,-70.355907,-93.812789,-87.455769,-79.810543,-59.810017,-81.865566,-77.533318,-70.891289,-44.584286,-60.154306,-61.297455,-59.325832,29.060737,45.865459,60.682651,73.264034,19.472225,41.698219,60.502922,71.376308,13.410759,41.044223,62.031269,73.268199,12.360385,38.982147,60.101062,72.273456,16.742649,38.292057,54.091415,64.568813,-17.727611,-38.372028,-50.365353,-58.832959,-68.488574,-90.854956,-91.71488,-86.699339,-63.927047,-89.849357,-89.570393,-84.632454,-54.094936,-77.842323,-80.181064,-77.04594,-40.683586,-57.042425,-62.726316,-64.319069,139.348995,48.882358,-152.048549,41.334988
82,1.915993,1.814937,1.485923,1.629611,-32.830673,-54.315948,-74.096466,-91.530052,-29.639145,-55.614853,-72.084274,-78.997558,-22.33081,-53.314133,-71.468239,-77.906799,-19.555549,-49.669967,-67.179657,-73.569351,-22.862892,-46.771042,-62.056274,-69.914795,-13.680532,-33.564795,-43.509575,-49.460963,-70.567896,-91.446019,-90.935312,-88.937797,-67.482437,-90.871048,-89.214556,-86.995197,-57.032187,-78.854362,-78.706433,-76.633873,-41.7894,-56.324255,-59.087284,-59.009929,29.677105,48.10793,63.440941,76.592938,24.243176,47.009354,64.590912,75.357445,18.106694,44.552937,64.241536,76.13863,16.505127,41.860588,61.332161,72.80103,19.532261,41.168919,56.871289,67.377423,-16.121976,-36.080092,-46.790003,-53.64667,-65.235691,-87.988267,-92.574321,-92.110415,-60.219292,-86.449329,-90.126084,-90.059456,-49.930067,-73.304513,-77.963692,-77.569083,-36.353313,-51.442508,-57.2756,-59.340132,140.31665,49.947086,-151.510964,42.21439
83,0.605049,2.620341,1.816326,2.725275,-33.121284,-56.197586,-76.354934,-95.398155,-34.586677,-59.280761,-75.289512,-84.304847,-27.273925,-55.638313,-73.487388,-82.641678,-23.836052,-51.458084,-68.297699,-76.750419,-26.178474,-48.529083,-63.045707,-71.476249,-11.597246,-29.919433,-37.705474,-41.963227,-66.733627,-88.262284,-93.493939,-97.027107,-63.248199,-88.034592,-92.809708,-96.455353,-52.79817,-74.908832,-80.113496,-83.000019,-37.255579,-50.030986,-53.913401,-55.383462,30.94883,52.60619,69.764111,85.150086,31.99474,54.038659,70.522522,81.944069,25.887875,49.595398,68.634362,82.358037,23.353215,46.644986,64.888253,76.313015,24.092183,44.758782,59.858368,70.101471,-14.868302,-33.691099,-42.261266,-47.464973,-61.818443,-85.085195,-94.420085,-99.035774,-56.236835,-83.509251,-92.192007,-97.402352,-45.218987,-68.238145,-75.843548,-79.136753,-30.833778,-44.799356,-51.200762,-54.841029,139.602945,51.554014,-151.013392,43.926252
84,-0.644966,2.904079,2.264386,2.169681,-33.042892,-57.30233,-77.883751,-99.344925,-39.641487,-61.539367,-78.031929,-90.608528,-32.134895,-56.815773,-75.652496,-89.05426,-27.755676,-52.108429,-69.392486,-81.150581,-28.719108,-49.207878,-63.340782,-73.036194,-9.931677,-25.928238,-31.243275,-33.695242,-62.28007,-85.564631,-97.809621,-106.780091,-58.757746,-85.850931,-97.78392,-106.842452,-48.263047,-70.952551,-82.006535,-89.753761,-32.281732,-43.591586,-48.812219,-51.718051,32.657867,57.357399,76.61531,94.598373,41.052383,61.29554,76.78379,89.19136,34.759609,55.06937,73.313564,88.949066,30.757827,51.626495,68.12994,79.600593,29.016117,48.151863,62.030079,71.829448,-13.497449,-30.874891,-37.496178,-41.489973,-57.922183,-82.208769,-96.447796,-106.137306,-52.029138,-79.954397,-94.28613,-105.31757,-40.433423,-62.95951,-73.861675,-81.057278,-25.331823,-38.486346,-46.154802,-51.857144,137.302442,53.298673,-150.404543,44.936513
85,-0.458999,2.700179,2.250103,1.164822,-33.494202,-58.381852,-78.889046,-99.612717,-42.319382,-62.482087,-78.138543,-91.841813,-34.264641,-57.315903,-75.424714,-90.535012,-29.067032,-52.639229,-68.573388,-80.949715,-29.52871,-50.108254,-64.130585,-74.536377,-9.124896,-23.573288,-27.364695,-28.681121,-59.378801,-83.526707,-100.606779,-114.561297,-55.367118,-83.636135,-100.945202,-115.53005,-44.612369,-66.919632,-82.350356,-94.530489,-28.074948,-37.862061,-43.449424,-46.825146,33.964496,60.781276,81.519619,100.222355,46.439735,65.349025,79.44825,91.240791,40.115833,58.760822,75.860161,91.79647,35.325897,55.882221,71.22068,82.235859,32.204761,51.849025,65.182663,74.753769,-13.525365,-29.033691,-32.868311,-34.475323,-55.241739,-80.175043,-97.483955,-110.932157,-48.133186,-76.260579,-93.930243,-108.965549,-34.876589,-55.96023,-68.310769,-77.842143,-17.691801,-28.718721,-36.394353,-43.407866,134.916985,54.829806,-150.080898,44.932289
86,-0.225609,2.056313,2.868747,0.903915,-33.885132,-58.385239,-78.416748,-98.735092,-41.440224,-61.518952,-77.149521,-91.136833,-32.934929,-55.836869,-73.906426,-89.7052,-27.654305,-51.43705,-67.493134,-80.762947,-28.83181,-50.666886,-66.1306,-78.340142,-8.998078,-23.139108,-26.955357,-29.148862,-59.190851,-81.920369,-99.602544,-113.830172,-54.682534,-82.994894,-101.045638,-116.356134,-43.017072,-65.142837,-81.343144,-94.371339,-24.900304,-33.158088,-38.290022,-41.370195,34.658867,62.742302,83.94817,102.8951,46.684102,66.554146,80.347195,91.522431,39.851132,59.110028,76.325203,92.512951,34.717369,56.636456,72.470341,83.464348,31.398446,52.609532,67.073136,77.359715,-15.160782,-29.974261,-32.902453,-33.880185,-55.355224,-80.180057,-98.137225,-112.816829,-47.141759,-74.624496,-92.974254,-109.041249,-32.132339,-51.638893,-63.49399,-72.974568,-13.085499,-22.223139,-28.887176,-35.322557,132.614622,56.397352,-149.288905,45.347437
87,0.102012,1.317989,1.249215,0.562726,-31.072403,-54.389419,-73.807228,-93.307296,-38.299827,-59.468788,-75.476463,-89.801376,-30.50077,-55.326141,-73.736023,-90.064018,-26.073532,-51.494339,-67.956733,-81.818802,-27.86222,-51.278755,-67.391945,-80.610237,-11.615284,-26.720608,-31.800579,-35.371655,-59.181867,-82.09574,-99.26698,-112.9454,-53.875228,-81.51888,-99.045117,-113.893658,-41.502946,-62.885527,-78.674484,-91.632153,-22.874545,-30.318878,-34.648329,-37.515179,34.730747,63.254482,84.957115,104.36428,46.943767,67.061164,81.50053,93.327369,39.973709,59.498828,76.889156,93.306747,34.636711,56.900413,73.161666,84.727066,31.038356,51.922828,66.113205,76.181957,-15.836715,-30.796283,-33.840097,-35.008656,-55.563441,-80.756658,-98.682408,-113.600653,-46.996813,-74.372197,-92.600146,-108.868577,-31.407026,-50.725753,-62.400138,-72.15511,-11.880385,-21.282737,-27.71156,-34.014919,130.410289,57.577177,-150.346035,45.771999
88,0.368569,2.690675,1.140174,1.023154,-29.593872,-52.482376,-72.514298,-91.799401,-36.589577,-59.740219,-76.564156,-91.021179,-30.086151,-57.149025,-76.357361,-92.77723,-26.827812,-53.780091,-71.244461,-85.622795,-28.86042,-52.63179,-69.113983,-82.757103,-13.331852,-28.714547,-34.05655,-38.423156,-58.472805,-80.727795,-96.036352,-107.936713,-52.799412,-78.589193,-94.247468,-107.202741,-40.23739,-60.440389,-74.831113,-86.678497,-22.019783,-29.617825,-34.091686,-37.59244,35.09031,63.264828,84.989766,104.947438,47.106068,67.576939,82.417786,94.812287,40.123078,59.641457,77.002614,93.611664,34.974873,56.994793,73.166806,85.131661,31.688885,52.209527,66.264737,76.685292,-15.96521,-31.204656,-34.682656,-36.422078,-56.35534,-81.077895,-98.562765,-113.072365,-47.998125,-75.029331,-93.11255,-109.27201,-32.647831,-52.229437,-64.581192,-74.782465,-13.237232,-23.304926,-30.461144,-37.393264,128.53351,60.226832,-151.451209,46.754133
89,-1.579994,4.880043,1.983685,1.27443,-26.813874,-49.619065,-69.695939,-88.110558,-36.235245,-61.871682,-80.230133,-94.818695,-31.233925,-60.969567,-81.456734,-98.071267,-29.014206,-57.885224,-76.768021,-91.706109,-30.827477,-54.853867,-71.881531,-86.185845,-16.081747,-31.951985,-37.418941,-41.538471,-57.854807,-77.717852,-89.823261,-98.753766,-50.90712,-73.144463,-85.601719,-95.759754,-37.613405,-55.169208,-67.043868,-76.744481,-19.753581,-26.222054,-30.034962,-33.642156,35.997173,63.512512,84.788097,104.9809,45.924099,66.156303,81.286514,94.407188,38.828259,58.289772,76.072586,93.343174,33.822304,55.493797,72.329956,85.460403,30.979855,50.626659,64.920204,76.112961,-17.041057,-32.642706,-37.048549,-40.925629,-58.237838,-82.356469,-99.079116,-112.925837,-50.408164,-76.337804,-93.126926,-108.169135,-35.66663,-54.631071,-66.557428,-76.484406,-16.533315,-26.445861,-33.64922,-40.611177,124.777193,65.075576,-151.643847,47.997264
90,-4.909813,12.12536,4.123226,2.2196,-25.789742,-49.894043,-71.595108,-90.098008,-39.706009,-70.344017,-88.241787,-99.302857,-35.628525,-69.997994,-88.932839,-101.389149,-33.576989,-65.996155,-82.158394,-92.576729,-34.013146,-60.060562,-74.261353,-84.624161,-20.931247,-37.132647,-41.350466,-43.577284,-57.44387,-73.833646,-78.893475,-82.924264,-48.000491,-64.738595,-70.698201,-76.538012,-33.045894,-45.893326,-53.064414,-59.819088,-14.496471,-18.93293,-21.463363,-24.708606,36.404995,61.408276,81.204277,100.400986,41.691364,60.462479,75.332371,88.316609,33.425949,54.069294,73.389485,90.466324,27.737297,50.768841,68.499149,81.500176,25.08625,45.788475,60.329178,71.013897,-18.093074,-34.90237,-41.575854,-48.139429,-62.882766,-86.43039,-102.954622,-116.296737,-55.618361,-79.457577,-92.155271,-101.912744,-41.477295,-58.717831,-67.755837,-74.264985,-22.518918,-31.769833,-37.562708,-42.579015,117.727393,77.29242,-149.660608,50.308348
91,-6.026585,20.526139,4.00034,1.847628,-25.509888,-51.62011,-74.820042,-93.448443,-46.33992,-82.288982,-99.635462,-107.467375,-43.154961,-82.452026,-99.81514,-108.23513,-40.825687,-77.310442,-91.291449,-97.629673,-39.307102,-67.572716,-79.258604,-85.711693,-25.188678,-40.871131,-43.403197,-43.342728,-54.986284,-66.550086,-64.869119,-64.380849,-42.982578,-52.701991,-52.220643,-53.911882,-26.533207,-33.610897,-35.876933,-39.648803,-7.585099,-8.91566,-9.52513,-12.169944,34.329357,56.37807,74.024963,90.234569,35.075855,50.778064,64.203861,76.030025,25.724933,47.393703,67.658146,84.303577,19.424881,43.497883,62.408043,75.869957,16.789444,38.199772,53.488472,64.343662,-19.472356,-37.452403,-46.386366,-55.033332,-67.869026,-91.513061,-108.408054,-122.187325,-61.212232,-82.964896,-91.686184,-96.580608,-48.033336,-64.233804,-70.376531,-73.17191,-30.065714,-39.667396,-44.035188,-46.700503,109.871796,98.269176,-147.48928,52.606593
92,-6.823585,28.356741,3.763504,0.868909,-27.92688,-57.472619,-82.503239,-102.050635,-57.192513,-97.785336,-114.736697,-120.153643,-54.181595,-97.734788,-113.493279,-118.223454,-50.642315,-90.878409,-102.914698,-105.570042,-46.569272,-77.010567,-86.697436,-89.543267,-25.947968,-39.19638,-38.963967,-35.639087,-50.226075,-55.550424,-47.96442,-43.154344,-36.10462,-38.136817,-31.978279,-30.160217,-18.485419,-19.226831,-16.899532,-17.816168,0.604845,3.000724,4.485228,2.740396,32.200309,51.023437,66.162174,78.924751,25.863155,38.434467,48.963901,58.144924,15.467205,38.172352,59.027172,74.441631,8.904819,33.687515,53.39209,66.764499,6.883472,28.429733,44.793411,56.394584,-21.431833,-41.836121,-54.030067,-65.431219,-72.475557,-97.319983,-115.595796,-130.900876,-66.44529,-87.26575,-90.893643,-90.024314,-54.313075,-70.409802,-73.298412,-71.849211,-37.481463,-48.570275,-52.135089,-52.676554,101.703965,127.079499,-145.070022,53.929084
93,-5.686615,31.478723,4.323131,-1.008348,-30.243783,-62.667824,-88.922356,-108.571204,-69.15429,-112.064942,-129.523241,-134.842776,-65.447182,-111.324807,-127.2426,-131.183453,-60.035946,-102.732268,-114.786822,-116.727128,-53.368275,-85.818993,-95.859599,-98.841923,-27.018454,-38.385275,-36.979957,-31.602073,-42.822249,-41.321078,-28.96186,-20.555353,-26.578989,-21.399534,-10.211128,-4.772047,-7.810044,-2.509253,4.635974,7.469855,11.438677,18.355835,23.357186,24.461407,29.512745,45.393631,57.737171,65.453499,16.591587,25.139134,32.256157,38.430657,4.954285,28.335091,49.568127,63.620247,-2.357849,22.690911,43.275158,56.819504,-4.637809,16.519936,33.834503,46.187634,-23.576844,-46.033573,-61.293804,-75.028312,-76.595248,-103.392086,-123.411014,-140.577276,-70.841023,-90.432589,-88.466548,-81.865868,-59.361504,-74.590842,-72.942705,-66.908998,-43.440389,-54.885501,-56.806112,-54.803039,95.114405,158.925084,-141.649836,53.287598
94,-9.596535,39.459069,4.820114,-1.098175,-34.71373,-70.142464,-97.544712,-117.085734,-80.267578,-126.431729,-140.233996,-141.600695,-75.021504,-123.665314,-135.472767,-135.236721,-67.514923,-112.989229,-121.442087,-119.267018,-58.502232,-93.709133,-101.845087,-101.632061,-26.261369,-34.046389,-29.975941,-21.867861,-32.572354,-22.98706,-7.126266,2.455308,-14.485893,-1.141842,12.603704,18.475242,5.126322,17.446684,26.531942,29.312458,24.259953,36.207793,42.29471,43.293122,26.576786,40.148827,50.155587,53.314682,9.715508,14.401532,18.483822,21.443688,-3.170551,20.687565,41.220555,52.95155,-11.161148,14.432751,34.644745,46.687878,-13.895725,7.984967,26.096043,38.475987,-24.807191,-48.738699,-66.032136,-79.947172,-79.883958,-109.0339,-130.970802,-149.843241,-74.049519,-92.644335,-85.926347,-74.305074,-62.731002,-77.314986,-71.40373,-61.091066,-47.460928,-59.177359,-58.792314,-54.048573,84.920906,198.654601,-137.426686,52.459871
95,-6.752335,37.149752,4.51339,-1.002796,-37.718811,-74.167911,-101.183864,-120.094488,-89.390785,-133.893104,-147.154398,-149.956644,-83.930923,-131.549789,-143.806423,-145.314606,-75.178711,-119.891802,-130.388139,-131.039989,-64.090679,-98.302734,-108.225568,-110.658245,-23.042605,-27.043121,-21.578107,-12.95469,-19.458469,-5.39627,9.91326,19.322741,-0.804867,17.329071,30.836945,36.701271,18.355273,35.0322,44.942888,48.323631,36.011266,51.402346,58.892381,60.548002,25.634331,38.277626,46.416458,46.615803,7.496086,10.434162,12.66021,13.655376,-5.89286,18.701729,37.573036,47.386082,-14.158791,11.438416,30.945259,42.165447,-17.295158,4.462761,23.309784,36.382919,-25.419458,-49.667968,-67.528997,-81.076278,-81.090165,-112.207186,-135.2552,-155.580552,-75.59215,-93.774101,-84.933727,-72.230389,-64.67409,-79.738591,-72.213581,-60.957357,-50.28173,-62.765051,-61.530753,-55.962435,77.942493,235.955018,-133.139374,51.60774
96,-5.753551,34.700329,5.811207,-0.513671,-40.922264,-77.446335,-104.282147,-122.918003,-96.008869,-137.847897,-150.943257,-155.080902,-89.842564,-135.518898,-148.486599,-151.914082,-79.886959,-122.4222,-134.816723,-138.614479,-67.286854,-99.423455,-110.815682,-116.090893,-19.89602,-21.026682,-14.362578,-5.638084,-7.061691,10.408193,25.27106,34.767927,11.816905,33.238715,46.709877,53.366188,30.268718,50.008164,60.759466,65.292379,46.259889,63.880332,72.503777,75.355658,27.512008,39.631885,46.80257,46.855842,8.802074,11.606506,13.218864,13.400986,-5.000782,21.412365,39.458999,47.612812,-13.5271,13.221599,31.983433,41.940067,-16.95179,5.238144,24.353794,37.485248,-26.074154,-50.762123,-69.323908,-83.173914,-82.521583,-114.514243,-137.832687,-158.677625,-77.101737,-93.860002,-82.793007,-68.685539,-65.854535,-79.928047,-70.567444,-58.405787,-50.956291,-62.664781,-60.944291,-55.257899,72.26714,270.420918,-127.249969,50.85964
97,-4.673172,30.781345,6.721321,0.354324,-43.817917,-80.104111,-107.075432,-125.028328,-98.820008,-137.946041,-150.863835,-156.028061,-91.528359,-134.907669,-149.015454,-154.363449,-80.469361,-120.298577,-134.794121,-141.651936,-66.909313,-96.458691,-109.109356,-117.300316,-16.993972,-15.813354,-7.870139,0.928381,4.65424,24.393525,38.462443,47.729179,23.72115,46.758672,59.965085,67.280594,41.164394,62.636642,73.748715,79.196868,55.271041,74.110881,83.380359,87.407066,29.146511,41.670353,48.545574,48.499397,12.431408,15.163662,17.004993,17.372932,-2.187515,26.763245,43.748863,50.369591,-11.295651,17.530449,35.124264,43.512485,-15.370674,8.277935,27.502579,40.216106,-26.14999,-50.29555,-68.545186,-81.630031,-84.15033,-116.396093,-139.497867,-160.219669,-79.009269,-93.261814,-81.011767,-66.520162,-67.671671,-79.677322,-68.805612,-56.308663,-52.432948,-62.469569,-60.068997,-54.388176,67.686396,300.944804,-120.43622,50.956505
98,-5.70092,30.087938,4.466961,1.444262,-45.484978,-80.817181,-107.232296,-125.206055,-98.52578,-136.46093,-147.856396,-151.865227,-90.460522,-132.611779,-145.817585,-150.776253,-78.933804,-117.105206,-131.193936,-138.023816,-64.958233,-92.798195,-104.389378,-111.910389,-15.020961,-11.761761,-1.557629,8.396549,12.963696,34.237096,47.644062,56.237372,32.626114,57.287488,69.532718,76.090772,49.315633,72.8396,82.954627,87.33031,61.925388,82.29801,90.961531,94.361472,29.929001,43.047649,50.290672,51.393791,15.771744,18.609375,20.99493,21.775829,0.907505,31.271965,47.544136,53.377693,-8.466843,21.727444,38.689647,46.214218,-12.994354,11.702957,31.125744,43.559223,-25.841485,-49.540608,-67.150133,-79.661323,-85.221027,-118.213914,-141.031982,-161.424463,-80.325572,-93.335112,-81.305242,-67.313395,-69.326459,-80.481411,-69.59138,-57.074189,-54.274913,-64.049516,-61.480705,-55.407904,61.841235,330.834844,-116.1135,52.202869
99,-0.170517,22.8242,1.290527,0.696761,-45.518349,-79.774647,-106.461937,-125.558522,-95.853596,-131.408524,-144.997193,-152.10363,-87.698777,-128.072548,-144.594498,-153.22657,-76.246125,-112.329598,-129.311005,-139.839604,-62.332112,-88.035164,-100.708329,-110.802098,-13.613533,-9.820144,1.144124,10.508302,18.655231,38.201559,50.555741,59.33355,38.135436,61.711225,74.033853,82.092763,53.866897,77.035121,87.897981,94.091931,65.236741,85.490555,95.048247,100.241506,29.880684,43.521229,51.171295,52.466103,17.01376,20.123257,22.613331,23.408352,2.083168,33.671047,49.774338,55.118282,-7.314091,24.024433,40.878227,48.051556,-11.837654,13.311436,32.880432,45.318775,-26.205696,-50.085506,-67.801539,-79.859826,-86.099674,-119.609443,-142.328167,-162.485125,-81.205966,-93.56465,-81.637966,-68.021092,-70.384793,-81.104825,-70.64412,-58.193977,-55.523093,-65.623225,-63.749149,-57.759705,61.334004,353.609918,-115.159687,52.850504
100,-0.317002,19.578116,-0.655563,-0.012029,-44.280739,-78.070415,-105.101383,-125.295582,-91.077587,-126.301037,-141.092365,-149.822971,-82.017082,-121.774383,-139.586998,-150.165115,-70.366127,-105.420204,-123.704143,-136.094078,-56.971286,-81.854931,-95.225589,-106.628586,-12.511251,-8.599585,3.009962,11.989695,22.247994,42.363549,53.610139,61.463767,41.461882,65.335913,77.341341,85.790292,56.301654,79.819916,90.535144,97.192629,66.471564,87.199461,96.696613,102.515897,28.433029,42.233688,49.991157,50.357849,15.140281,17.560444,19.50404,19.819118,0.41423,31.004219,46.977539,52.243126,-8.854878,21.464332,38.184608,45.500484,-13.407681,10.413528,29.982193,42.826252,-27.021023,-51.693407,-69.916639,-81.423803,-86.336302,-120.577078,-143.255485,-163.075644,-81.00863,-93.767334,-82.062438,-68.973049,-70.222729,-81.534102,-71.786441,-59.544836,-55.454229,-66.665053,-66.015908,-60.405253,60.537689,373.345939,-116.294563,52.99638
101,-0.450164,14.917714,-2.662068,0.084024,-41.956078,-75.593857,-102.953488,-123.775177,-85.680623,-121.046528,-136.461285,-146.416443,-76.223008,-115.61015,-134.385659,-146.517678,-64.572854,-99.251496,-118.368691,-131.744351,-51.513314,-76.090497,-89.864308,-101.831086,-12.199733,-8.026207,4.334397,12.897364,24.695262,44.416157,54.387108,61.023301,43.944187,67.497226,78.622193,86.564803,58.040077,81.522499,91.49109,97.81758,67.19912,88.161347,97.29448,103.05688,26.652615,40.571354,48.34124,47.308777,12.245945,13.610253,14.8335,14.526616,-2.302162,25.954937,41.450604,46.78608,-11.510845,16.750832,33.214211,40.918408,-16.02444,6.456723,25.963017,39.287259,-27.490629,-52.922351,-71.549134,-83.158187,-86.158695,-121.462054,-144.318784,-163.874503,-80.703009,-94.825143,-83.103279,-70.175354,-70.259434,-82.618056,-73.251513,-61.173176,-55.988759,-67.991409,-67.858343,-62.388183,59.388966,388.468486,-119.65519,53.285237
102,-0.205262,11.066514,-3.443493,0.561589,-39.273239,-72.551811,-100.190975,-121.859001,-81.031208,-116.480667,-132.603,-143.631168,-71.539936,-110.50003,-129.942226,-143.383518,-60.093097,-94.256344,-113.504928,-127.269001,-47.418091,-71.697303,-85.476539,-97.299282,-12.295001,-8.221006,4.558094,12.512584,25.868581,44.701172,53.96135,59.817846,45.069575,68.010693,78.464964,86.077814,58.620604,81.841069,91.236666,97.265914,67.003457,87.955483,96.635097,102.141072,25.654004,39.141346,46.546807,44.483803,10.020253,9.953866,10.580258,9.832181,-4.299098,21.42128,37.232564,43.341294,-13.293376,13.081456,30.039437,38.695782,-17.543403,3.691853,23.048195,36.6503,-28.200302,-53.914847,-72.657832,-84.581466,-86.498242,-122.309196,-145.171551,-164.493156,-80.82727,-96.319219,-85.110593,-72.400197,-70.495703,-83.762909,-74.944586,-63.116566,-56.442649,-68.959149,-68.834376,-63.242376,58.609474,399.795698,-123.672913,54.107524
103,0.371109,7.171779,-1.287563,1.068152,-37.20005,-70.601726,-98.561027,-120.843452,-77.973301,-113.213688,-130.013923,-141.977749,-68.336563,-106.927997,-126.815929,-141.371544,-56.761825,-90.613071,-109.998344,-124.264721,-44.130523,-68.098583,-82.023422,-94.003029,-12.316354,-8.439293,4.24581,11.428136,27.033688,44.755785,53.136872,58.124218,46.024607,67.622888,77.485541,84.799358,59.11998,81.444421,90.371518,96.09031,66.866224,87.34991,95.742174,101.05303,25.881809,38.926815,45.747917,42.748341,8.776463,8.17107,8.479946,7.369778,-5.857544,19.45673,35.076645,40.858841,-14.835228,11.422852,28.4217,36.996277,-18.715828,2.378437,21.634163,35.132973,-28.875419,-54.913974,-74.105206,-85.847207,-87.296378,-122.942612,-145.899742,-165.356846,-81.403672,-97.050263,-85.493229,-72.49867,-70.66178,-84.030603,-74.925708,-63.19213,-56.263641,-68.546458,-68.228777,-62.904873,58.535316,407.151947,-125.405743,55.360146
104,0.496056,4.073835,1.274861,2.18544,-35.93914,-69.452831,-97.518974,-120.041428,-76.642708,-111.569573,-128.836247,-141.538605,-66.968491,-104.850678,-124.838024,-139.946022,-55.17247,-88.528175,-108.00745,-122.527313,-42.2146,-65.698792,-79.760834,-91.92057,-12.542435,-8.730817,3.55591,9.828764,28.206156,44.745176,52.500559,57.10483,47.137091,67.121179,76.303391,83.245484,59.764865,80.996966,89.399394,94.729912,66.835731,86.90611,95.280441,100.632127,26.597362,39.453437,45.902801,42.54562,8.547145,8.036739,8.383998,7.206779,-6.26548,19.400791,34.948528,40.314926,-15.164315,11.475746,28.475051,36.745124,-18.655838,2.948249,22.173282,35.368251,-29.180781,-55.51903,-75.101462,-87.495431,-88.112157,-123.319099,-146.287782,-165.976567,-82.243379,-97.938741,-85.826972,-72.522086,-71.276512,-84.648823,-74.684962,-62.775203,-56.581952,-68.267365,-67.282459,-61.826353,58.847912,411.217702,-124.314342,57.537506
105,0.5774,2.606139,1.765148,2.291521,-35.233269,-68.833374,-97.029579,-119.655098,-75.923115,-110.715053,-128.161457,-141.378845,-66.411884,-103.888,-123.938576,-139.599953,-54.660896,-87.77877,-107.357345,-122.214935,-41.59909,-64.60643,-78.646122,-90.876572,-13.018642,-9.366722,2.635915,8.461807,28.711299,44.20034,51.460348,55.866067,47.682693,66.122761,74.451052,80.869846,60.089116,80.205511,88.030721,92.909485,66.76399,86.458185,94.714042,100.039076,27.868961,40.591129,46.948597,44.378998,10.251571,10.08015,10.752365,9.987121,-4.754814,22.535362,38.192962,43.325741,-13.650044,14.353489,31.273098,39.134548,-16.955235,5.91521,25.277527,38.132251,-28.982173,-55.152869,-74.385294,-87.131419,-88.918803,-123.586219,-146.584882,-166.577535,-83.264256,-98.209986,-85.621288,-71.878826,-72.130607,-84.615318,-73.823427,-61.591479,-57.026685,-67.267225,-65.454715,-59.825566,59.40497,413.345828,-122.569536,59.351014
106,0.681015,1.362103,1.468391,2.132439,-34.855636,-68.591972,-96.869442,-119.57983,-75.376671,-110.516281,-128.300468,-141.988701,-65.856262,-103.399509,-123.637939,-139.752376,-54.14566,-87.366325,-107.21006,-122.439308,-41.096237,-63.796051,-77.820385,-90.084995,-13.348932,-9.932529,1.712438,7.345162,28.87695,43.832715,50.854219,55.180304,47.845961,65.057468,72.908687,79.017062,60.106863,79.320183,86.907975,91.594806,66.511505,86.026018,94.322445,99.825889,28.373154,41.403694,48.03495,46.481793,11.506794,11.695828,12.772808,12.398701,-3.518806,25.194946,40.473095,44.904659,-12.179958,17.114044,33.546272,40.599816,-15.291744,8.31617,27.452545,39.625042,-28.607836,-54.361327,-73.217865,-85.746134,-89.196025,-123.541178,-146.398513,-166.409845,-83.587105,-97.67687,-85.156541,-71.765236,-72.423119,-84.082164,-73.117446,-60.925865,-57.237976,-67.13414,-65.213604,-59.48529,60.414688,414.141411,-120.772442,60.916933
107,0.27388,0.826999,-0.024582,1.524611,-34.562965,-68.385223,-96.684769,-119.477817,-74.886783,-110.21355,-128.193249,-142.207054,-65.352219,-103.012539,-123.368763,-139.835426,-53.677826,-87.177074,-107.297951,-123.022453,-40.56221,-63.094643,-77.138191,-89.549709,-13.581398,-10.429879,0.868964,6.443692,28.849545,43.444971,50.232367,54.4783,47.796659,64.040031,71.427183,77.306576,60.019387,78.471201,85.809842,90.441666,66.388609,85.754316,94.218976,100.113497,27.805493,41.016758,47.947277,46.427914,11.5784,11.921139,13.033116,12.602486,-3.188656,26.069882,41.002419,44.974034,-11.718006,17.890995,33.824948,40.287998,-15.004818,8.685574,27.762898,39.68002,-28.257081,-53.593256,-72.21652,-83.912573,-88.781784,-123.633605,-146.505489,-166.231837,-83.143255,-96.894584,-84.380141,-71.315631,-72.106289,-83.901217,-73.138317,-60.956808,-57.213214,-67.807793,-66.195286,-60.357081,61.142343,414.446711,-120.343249,61.919845
108,-0.226547,0.70099,-2.601425,0.757715,-34.234726,-67.932701,-96.218845,-118.959068,-74.058117,-109.786011,-127.902729,-142.069325,-64.527763,-102.594143,-123.096233,-139.788941,-52.916268,-86.810188,-107.203457,-123.28783,-39.799439,-62.429947,-76.551121,-89.039795,-13.80791,-10.693269,0.446357,6.01328,28.82492,43.175259,49.776106,54.035291,47.728685,63.416426,70.496049,76.340886,59.876596,77.967404,85.148792,89.872353,66.134284,85.584577,94.200217,100.447815,26.788284,40.069256,47.221607,45.64896,10.190002,10.368599,11.258984,10.53709,-4.094227,24.567284,39.626553,43.716465,-12.290337,17.021164,32.791866,39.095512,-15.438721,7.864357,26.772297,38.549892,-28.734233,-54.204672,-73.032873,-84.502092,-88.45229,-123.593357,-146.403434,-165.922616,-82.665962,-96.634201,-84.169239,-71.490891,-71.809004,-83.785694,-73.275824,-61.225527,-57.211874,-68.581928,-67.27243,-61.354234,61.470635,414.737243,-122.389835,62.267102
109,0.100845,0.719998,-4.003693,-0.204085,-34.011658,-67.642731,-95.946007,-118.535316,-73.216152,-109.123947,-127.441841,-141.821308,-63.806099,-102.096222,-122.806721,-139.768192,-52.429413,-86.380485,-106.997177,-123.355144,-39.630432,-62.093239,-76.260532,-88.751644,-13.999893,-10.930762,0.229761,6.121392,28.990163,43.187793,49.467304,53.390826,47.875749,63.092026,69.788302,75.397105,59.943249,77.734407,84.690888,89.321045,66.062591,85.358298,93.953289,100.310284,25.633736,38.32647,45.225541,44.176701,7.718594,6.953934,7.20401,6.222886,-6.081859,21.069249,36.835476,42.204895,-13.997978,13.90511,30.129719,37.478737,-17.180442,4.868145,23.781372,36.127327,-29.07796,-54.76649,-73.365479,-84.879733,-87.991842,-123.512328,-146.309216,-165.676349,-81.79186,-96.798309,-85.025853,-72.458427,-70.951094,-83.701961,-73.947823,-61.94521,-56.453425,-68.753421,-68.033541,-62.276686,62.086303,415.356119,-125.878705,61.961895
110,-0.112884,0.661124,-3.752071,-0.335984,-33.809464,-67.388169,-95.641228,-118.03014,-72.445473,-108.454491,-126.888073,-141.344776,-63.005059,-101.492558,-122.345787,-139.406411,-51.707428,-85.763993,-106.520634,-123.048317,-39.073815,-61.478394,-75.656594,-88.090714,-14.163383,-10.989708,0.14378,6.281326,29.22957,43.371106,49.453349,53.145801,48.087504,63.08122,69.605781,75.105878,60.039568,77.654923,84.533906,89.172301,66.007659,85.258856,93.894342,100.381013,24.442818,36.602016,43.293411,41.936016,5.037312,3.437702,3.021709,1.550171,-8.683365,16.696781,32.95055,39.194286,-16.485249,9.865448,26.749546,35.119114,-19.408047,1.21209,20.202828,33.191746,-29.522366,-55.709289,-74.580023,-86.462853,-87.738468,-123.422913,-146.355985,-165.736624,-81.163525,-97.466801,-86.243935,-73.790649,-70.154359,-83.975083,-74.841567,-63.085888,-55.690066,-69.030891,-68.932331,-63.497109,62.570687,416.277959,-129.033508,61.886627
111,-0.101487,0.693359,-2.801388,-0.484642,-33.653205,-67.146514,-95.427852,-117.650196,-71.672756,-107.751663,-126.306404,-140.824928,-62.269638,-100.957592,-121.931854,-139.079601,-51.103477,-85.250255,-106.090484,-122.734851,-38.696136,-61.06723,-75.251552,-87.621597,-14.298518,-11.099624,0.013424,6.503405,29.476497,43.56473,49.416347,52.908852,48.278781,63.067091,69.355877,74.744489,60.133613,77.612154,84.380839,89.006945,65.98528,85.23586,93.879361,100.43991,24.189537,35.891007,42.326649,40.008408,3.751797,1.494347,0.625511,-1.152294,-10.09489,14.057957,31.02364,38.163037,-18.026218,7.050946,24.777638,34.217148,-20.870865,-1.366871,17.933739,31.775608,-30.239455,-56.845447,-76.207943,-88.206752,-87.950908,-123.627425,-146.761735,-166.288611,-81.119645,-98.293917,-87.118636,-74.321913,-69.871764,-84.457378,-75.411239,-63.64815,-55.249267,-69.039918,-69.115532,-63.986555,62.965101,417.33769,-131.338995,61.768357
112,-0.167312,0.558409,-0.78202,-0.168498,-33.547188,-66.928116,-95.168118,-117.269016,-71.13105,-107.298557,-125.941189,-140.535885,-61.696312,-100.562256,-121.61261,-138.845661,-50.582428,-84.71814,-105.597862,-122.301682,-38.339264,-60.622627,-74.7995,-87.097904,-14.542815,-11.218753,0.008521,6.805698,29.758968,43.761257,49.370368,52.681969,48.540047,63.12794,69.225719,74.544121,60.282543,77.681302,84.400216,89.065274,65.950662,85.223571,93.895416,100.562744,24.81657,36.427791,42.868068,40.455414,3.290142,1.058727,0.121055,-1.665047,-10.852066,13.613605,31.234176,38.801799,-18.876171,6.403541,24.956382,35.013691,-21.469929,-1.797043,17.840904,32.119686,-30.910077,-58.040577,-77.77026,-90.378978,-88.685775,-123.796609,-146.952569,-166.875234,-81.628129,-99.222829,-87.668289,-74.264745,-69.976771,-84.729284,-75.194551,-63.206339,-54.845438,-68.135874,-67.912702,-62.908399,63.277153,418.152702,-131.641651,61.856462
113,-0.004486,0.198774,0.957332,0.220523,-33.574768,-67.015755,-95.300331,-117.280209,-70.94339,-106.996514,-125.687771,-140.415951,-61.519364,-100.340504,-121.426506,-138.790158,-50.462929,-84.460339,-105.335507,-122.111927,-38.324845,-60.356529,-74.465653,-86.679749,-14.65436,-11.197066,0.07583,7.053034,30.118566,44.043482,49.457881,52.603126,48.851665,63.183788,69.088942,74.320055,60.499559,77.782487,84.476676,89.168633,66.020886,85.260869,94.01972,100.874671,25.908589,37.576927,44.123646,41.871186,4.149754,2.121849,1.365841,-0.086105,-10.287872,15.681862,33.801659,41.467427,-18.428718,7.809975,26.897976,37.153942,-20.917339,-0.407695,19.583268,33.953396,-31.120207,-58.357171,-78.007906,-91.041121,-89.376614,-124.099068,-147.314679,-167.543287,-82.312453,-99.920781,-87.804319,-73.64072,-70.380242,-85.261937,-74.993838,-62.599567,-54.80782,-67.47302,-66.761242,-61.718036,63.735861,418.615107,-130.221125,62.340616
114,-0.461037,0.021823,1.65374,0.692506,-33.49736,-66.936676,-95.141018,-117.053936,-70.736961,-106.817608,-125.526501,-140.261993,-61.204193,-100.163956,-121.224049,-138.585205,-50.069778,-84.177864,-105.013893,-121.780105,-37.889511,-59.984665,-74.03627,-86.195434,-14.746974,-11.142936,0.225562,7.186365,30.258529,44.357087,49.82973,53.053496,48.962704,63.309276,69.249839,74.555089,60.568793,77.850733,84.644834,89.464096,66.026813,85.400548,94.238032,101.207764,26.781613,38.746685,45.493538,42.989445,5.588562,4.017632,3.626564,2.469475,-9.060184,18.85175,36.837227,43.70913,-17.306579,10.435181,29.480267,39.111752,-19.677097,1.900852,22.097431,36.264782,-31.314931,-58.497505,-78.13828,-91.090503,-90.124436,-124.729478,-148.013212,-168.501492,-83.223791,-100.019112,-87.159132,-72.641789,-71.183195,-85.717661,-74.765837,-62.163072,-55.411825,-67.372003,-66.357252,-61.337141,63.762297,418.821978,-128.079912,63.21817
115,-0.269417,-0.041817,1.28627,0.947535,-33.527481,-66.999046,-95.14381,-116.963138,-70.818592,-106.806427,-125.480507,-140.204063,-61.230377,-100.102066,-121.106266,-138.43214,-50.008255,-84.045547,-104.851845,-121.605228,-37.731239,-59.79982,-73.835655,-85.994636,-14.814505,-11.161449,0.309048,7.359648,30.381783,44.662171,50.189919,53.51266,49.093615,63.447189,69.380243,74.7312,60.723873,77.996933,84.789231,89.617891,66.166505,85.545846,94.381528,101.345541,27.619584,39.858364,46.798737,44.622803,6.96167,5.744511,5.687817,4.775048,-7.639114,21.646923,39.509171,45.864075,-15.88488,13.034958,31.908703,41.024689,-18.353634,4.202111,24.453759,38.305859,-31.419739,-58.307944,-77.748603,-90.522078,-90.622712,-125.39519,-148.537053,-169.017571,-83.92015,-100.217318,-87.001971,-72.350642,-72.092235,-86.337098,-75.022872,-62.245866,-56.448725,-68.090641,-66.802151,-61.642003,63.911356,418.928377,-126.375166,64.313921
116,-0.188461,-0.169419,0.847859,0.791289,-33.579712,-67.13269,-95.170074,-116.883671,-70.980915,-106.762676,-125.394047,-140.151489,-61.380547,-100.021454,-120.988895,-138.33292,-50.101753,-83.974709,-104.750748,-121.499439,-37.691666,-59.659103,-73.677555,-85.894409,-14.803735,-11.100513,0.512652,7.609405,30.410201,44.846953,50.516604,53.995931,49.149487,63.563503,69.606794,75.087093,60.853846,78.136007,84.998553,89.873427,66.377519,85.758676,94.654453,101.65296,28.097397,40.370796,47.302357,45.439304,7.455974,6.602005,6.682995,5.803951,-6.900673,24.004589,41.882057,47.724861,-14.960289,15.338115,34.051781,42.500015,-17.346325,6.197262,26.414188,39.704361,-31.537467,-58.203753,-77.241732,-89.771323,-91.007165,-125.935137,-148.904215,-169.361515,-84.345147,-100.379043,-86.884114,-72.049165,-72.676141,-86.773526,-75.062708,-62.008998,-57.200179,-68.775368,-67.147855,-61.667241,64.143791,418.889493,-125.106411,65.235745
117,-0.209816,-0.172259,0.23069,0.543428,-33.574699,-67.121361,-95.074619,-116.730675,-70.974232,-106.699505,-125.333576,-140.115944,-61.344887,-99.938747,-120.884537,-138.242729,-50.030937,-83.926254,-104.704754,-121.476311,-37.546577,-59.549103,-73.557838,-85.821945,-14.735698,-11.021707,0.658457,7.780898,30.383475,44.985249,50.844598,54.502544,49.156885,63.602529,69.752574,75.367205,60.937345,78.197313,85.150101,90.122652,66.533735,85.938123,94.893242,101.937667,28.317192,40.486976,47.333301,46.050968,7.925514,7.042328,7.161403,6.382107,-6.224602,25.340515,43.115433,48.740845,-14.229424,16.561706,35.166881,43.364971,-16.662323,7.077678,27.297626,40.459373,-31.590554,-58.041942,-76.792071,-89.310436,-91.172094,-126.385587,-149.314793,-169.758014,-84.547324,-100.49485,-87.023911,-72.27619,-73.063291,-87.139946,-75.426517,-62.384583,-57.789055,-69.495013,-68.029311,-62.709754,64.346214,418.925385,-124.463482,65.987324
118,-0.157906,0.018797,-0.267712,0.364148,-33.497337,-66.941688,-94.795269,-116.383003,-70.764804,-106.620895,-125.330486,-140.126072,-61.131385,-99.873378,-120.831516,-138.176113,-49.839477,-83.915771,-104.716186,-121.50056,-37.370864,-59.49044,-73.497436,-85.778652,-14.757299,-11.092128,0.608983,7.87871,30.228,44.955226,50.936136,54.692402,49.042054,63.512139,69.699777,75.336651,60.880707,78.097364,85.094081,90.115167,66.5582,85.929601,94.863786,101.865962,28.387184,40.443215,47.303387,46.512863,8.259304,7.335663,7.349304,6.502716,-5.775318,26.01463,43.705868,49.31789,-13.759209,17.137139,35.739018,43.98539,-16.179645,7.47979,27.75317,41.068657,-31.673842,-57.868663,-76.278351,-88.806194,-91.335225,-126.848832,-149.709489,-170.089324,-84.737311,-100.711241,-87.421262,-72.776831,-73.394613,-87.44947,-75.941082,-62.975527,-58.307079,-70.089854,-68.883054,-63.782006,64.560007,419.145186,-124.359495,66.552476
119,-0.039276,0.155883,-0.058983,0.175798,-33.515693,-66.848739,-94.653133,-116.128544,-70.745384,-106.616935,-125.302288,-140.077823,-61.130333,-99.853557,-120.777145,-138.117439,-49.83126,-83.94025,-104.69506,-121.458183,-37.329071,-59.457206,-73.445217,-85.731159,-14.809268,-11.301734,0.339442,7.794124,29.851693,44.72239,50.76631,54.554772,48.700858,63.311746,69.553922,75.213953,60.610166,77.886832,84.94977,90.036287,66.388004,85.77646,94.728491,101.718279,28.486805,40.605435,47.659664,46.984337,8.503739,7.538269,7.528748,6.709053,-5.494033,26.449917,44.128922,49.703167,-13.493122,17.511292,36.078564,44.280842,-15.902298,7.717964,28.079281,41.500088,-31.987764,-58.111751,-76.56948,-89.277128,-91.541368,-127.267556,-150.148622,-170.493919,-84.961849,-101.076446,-87.739883,-73.023426,-73.689682,-87.847742,-76.259579,-63.237566,-58.734331,-70.865422,-69.748758,-64.70362,64.86066,419.459844,-124.078549,66.887049
120,-0.101692,0.156377,0.133702,0.12702,-33.443024,-66.664352,-94.451202,-115.927631,-70.618332,-106.606487,-125.351566,-140.160107,-61.003784,-99.851932,-120.79018,-138.119373,-49.71785,-84.026276,-104.792438,-121.522785,-37.238411,-59.51033,-73.491405,-85.727234,-14.901561,-11.509882,0.109644,7.616555,29.473842,44.47892,50.608822,54.427727,48.383868,63.077144,69.366917,75.017117,60.372908,77.661023,84.777696,89.894051,66.240333,85.658578,94.622404,101.586096,28.630691,40.795154,47.993534,47.319019,8.749797,7.901138,8.018119,7.290905,-5.217167,27.028873,44.640152,49.971038,-13.16391,18.169876,36.667751,44.613189,-15.414185,8.498371,28.915649,42.179557,-32.335467,-58.375962,-76.901042,-89.641066,-91.851064,-127.705372,-150.565721,-170.87569,-85.300784,-101.633255,-88.105185,-73.229443,-74.047827,-88.415252,-76.596643,-63.426775,-59.109693,-71.449802,-70.248034,-65.115167,65.075712,419.704268,-123.628103,67.102116
121,-0.141815,0.120252,0.33427,-0.038619,-33.40757,-66.474175,-94.250073,-115.82515,-70.600273,-106.655079,-125.417393,-140.182045,-60.927429,-99.873642,-120.843247,-138.130875,-49.579147,-84.072441,-104.902828,-121.604015,-37.072723,-59.521019,-73.566868,-85.826271,-15.003831,-11.627516,0.028603,7.523547,29.148998,44.325002,50.568475,54.467136,48.126703,62.891214,69.232673,74.900694,60.187028,77.503683,84.674178,89.863572,66.140867,85.579365,94.558999,101.578008,28.804585,40.848484,48.055058,47.432842,8.933819,8.289814,8.540154,7.938973,-5.059296,27.346321,44.936234,50.182388,-12.96183,18.554672,37.048691,44.854603,-15.079216,9.080429,29.52237,42.609821,-32.575818,-58.646471,-77.184822,-89.880799,-92.153931,-128.039164,-150.870378,-171.144119,-85.617471,-102.090455,-88.503907,-73.515798,-74.327945,-88.774602,-76.875286,-63.618633,-59.346172,-71.696501,-70.462777,-65.273155,65.171282,419.847646,-123.056448,67.086623
122,-0.051979,0.189735,0.43689,0.083888,-33.429726,-66.439797,-94.204182,-115.868054,-70.685234,-106.74004,-125.511315,-140.26807,-60.981102,-99.932476,-120.931492,-138.209152,-49.563812,-84.219738,-105.092869,-121.74931,-37.010513,-59.65931,-73.776581,-86.033135,-15.162036,-11.809359,-0.07646,7.368466,28.753943,44.126165,50.452025,54.373942,47.826138,62.666701,69.077197,74.739178,59.969369,77.250037,84.508081,89.751037,66.023614,85.432497,94.416972,101.422038,28.789146,40.926258,48.171306,47.287365,8.941108,8.442066,8.751674,8.21133,-5.13414,27.550701,45.089836,50.247379,-13.010548,18.812404,37.243847,44.952221,-15.003617,9.560714,29.997059,42.975025,-32.866459,-59.005853,-77.628141,-90.291483,-92.457156,-128.335134,-151.039216,-171.207691,-85.893933,-102.331479,-88.816494,-73.817331,-74.532537,-88.967214,-77.122998,-63.815691,-59.485721,-71.612638,-70.315188,-65.011883,65.287937,419.996749,-122.450924,67.129879
123,-0.221146,0.171147,0.178299,0.505421,-33.442268,-66.500656,-94.271049,-115.98175,-70.932106,-106.760879,-125.443439,-140.147461,-61.182495,-99.977497,-120.984764,-138.218456,-49.671638,-84.403267,-105.285553,-121.9044,-36.97657,-59.755417,-73.916553,-86.214088,-15.218673,-11.962636,-0.241691,7.077832,28.484465,44.135749,50.634992,54.645879,47.579965,62.531654,69.039097,74.696793,59.812561,77.102725,84.461707,89.732142,65.987478,85.361139,94.384825,101.43382,28.649963,40.599025,47.69474,47.057132,9.145843,8.680103,9.063503,8.539947,-4.995278,27.529392,44.794029,49.849136,-12.82766,19.036216,37.169574,44.637966,-14.850987,9.993908,30.235874,42.883506,-32.830057,-58.89669,-77.345274,-89.756014,-92.621653,-128.400577,-150.885112,-170.798039,-86.120187,-102.367906,-89.100355,-74.328335,-74.691791,-88.950165,-77.28571,-64.081082,-59.478688,-71.340967,-69.975838,-64.538301,65.191858,420.114893,-122.147558,67.582297
124,-0.335609,0.206073,-0.395256,1.161729,-33.434029,-66.502453,-94.263874,-116.08009,-71.139794,-106.690247,-125.333954,-139.990128,-61.363495,-99.945477,-120.962048,-138.103695,-49.79242,-84.531121,-105.400955,-121.935917,-37.002068,-59.966812,-74.209339,-86.542134,-15.249696,-12.095855,-0.414616,6.815616,28.470917,44.350554,50.986439,55.083529,47.519227,62.484575,69.013558,74.619347,59.772954,76.99244,84.342579,89.542544,66.023257,85.277678,94.265314,101.270997,28.74052,40.237266,46.913452,47.038776,9.540241,9.097343,9.601101,9.070827,-4.559407,28.004471,45.089733,50.085205,-12.215344,19.761188,37.649151,44.885662,-14.191498,10.935596,30.766456,42.797012,-32.444685,-58.238128,-76.250927,-88.352292,-92.586054,-128.167216,-150.308456,-169.908407,-86.209645,-102.216099,-89.242726,-74.765768,-74.866397,-88.743832,-77.269358,-64.236644,-59.627821,-70.993077,-69.30019,-63.700341,64.9529,420.255022,-122.446163,68.678082
125,-0.369232,0.315335,-0.3643,2.23949,-33.499833,-66.533009,-94.241387,-116.099991,-71.085022,-106.40165,-125.058014,-139.645775,-61.322365,-99.695469,-120.777031,-137.835217,-49.736435,-84.413224,-105.22086,-121.622784,-36.951828,-60.037217,-74.335865,-86.692475,-15.240434,-12.253208,-0.541156,6.730511,28.423221,44.811607,51.683057,55.859633,47.415696,62.622896,69.323816,75.009214,59.668905,76.984301,84.381345,89.549521,65.974684,85.155461,94.105504,101.049523,28.69471,39.84494,46.253563,46.830494,9.687607,9.106602,9.808514,9.323078,-4.26257,28.066406,44.43195,49.038677,-11.575733,20.479591,37.638027,44.386402,-13.26091,12.025188,31.243435,42.639736,-31.722094,-57.331336,-74.928351,-86.773821,-92.196811,-127.43682,-149.229849,-168.244326,-85.930484,-101.529811,-89.022413,-75.121457,-74.619303,-88.111712,-77.01244,-64.338007,-59.452068,-70.736937,-68.968411,-63.321429,64.651143,420.512383,-122.742988,70.859598
126,-0.760666,0.429388,-0.297558,4.251294,-33.372895,-66.412262,-94.051598,-115.801335,-70.751187,-105.846417,-124.502255,-139.039524,-60.99424,-99.163765,-120.296826,-137.277901,-49.421013,-84.000058,-104.719322,-121.004746,-36.670761,-59.949097,-74.310871,-86.720181,-15.031693,-12.211539,-0.685615,6.603972,28.768615,45.613831,52.669297,56.826323,47.588511,63.233694,70.128967,75.80935,59.698322,77.214185,84.633818,89.683062,65.921467,85.045928,93.908199,100.704054,28.648991,39.74667,45.56218,46.02079,10.415485,8.846008,9.702599,9.499374,-3.436672,27.150696,43.389771,48.406437,-10.493488,20.421867,36.978745,43.465668,-12.11943,12.813171,31.16819,41.670708,-29.598436,-55.273961,-72.656381,-84.079324,-90.876735,-125.850211,-147.063417,-165.174911,-84.77653,-100.152438,-88.757264,-75.894097,-73.586694,-86.346052,-75.791042,-63.718929,-58.643206,-69.129932,-66.873467,-61.087237,63.941592,420.88828,-122.989431,75.057401
127,-0.778244,0.501759,-0.756477,6.706984,-33.374085,-66.401676,-93.96024,-115.53067,-70.288113,-105.117119,-123.826229,-138.276524,-60.482621,-98.410172,-119.63847,-136.465885,-48.938599,-83.297001,-104.002911,-120.157597,-36.302788,-59.762581,-74.246979,-86.720593,-14.644172,-11.952644,-0.629051,6.849998,29.396617,46.82577,54.14638,58.357955,47.940377,64.256602,71.47504,77.22409,59.814969,77.728998,85.24385,90.16621,65.878612,84.922686,93.740867,100.408949,28.812275,40.0009,45.879478,46.600914,11.783111,10.160042,11.489467,11.762478,-1.699974,28.048038,42.877716,46.983364,-8.047692,22.797271,36.637092,40.825092,-9.149597,16.244785,32.048835,39.588649,-27.661777,-53.117933,-69.634989,-80.010812,-88.649145,-123.107919,-143.460354,-160.171177,-82.32142,-96.200794,-85.232655,-73.440716,-70.600228,-81.453697,-71.11204,-60.209066,-55.404773,-64.367518,-61.495747,-56.063743,63.221043,421.318683,-123.688213,81.693029
128,-0.900582,0.854095,1.886272,7.796014,-33.307228,-66.245716,-93.74374,-115.319824,-69.544956,-104.259258,-123.147091,-137.573158,-59.635643,-97.487262,-118.952202,-135.709087,-48.17221,-82.375076,-103.20346,-119.281734,-35.880638,-59.656356,-74.316444,-86.827343,-14.283081,-11.656107,-0.451223,7.367836,29.829944,48.175856,55.880578,60.14558,48.140077,65.55588,73.180005,78.97107,59.777103,78.413908,86.070367,90.880674,65.677997,84.854365,93.559099,99.971064,28.745453,41.191395,47.703461,48.070542,12.715611,10.490971,12.034939,12.787159,-0.860401,25.404019,39.256325,43.103886,-7.090347,22.838711,35.230602,37.689102,-8.002991,16.991684,30.708813,35.732632,-24.822499,-49.182703,-63.572988,-71.885279,-84.826504,-119.167168,-138.010602,-152.622639,-77.795719,-91.055385,-82.690292,-73.732937,-65.057159,-73.364467,-63.316489,-53.746293,-49.327606,-56.553084,-52.998267,-47.644667,62.327516,421.899495,-121.794886,89.21576
129,-0.804016,1.32998,1.253735,12.933136,-33.368683,-66.17958,-93.575775,-115.112171,-68.813324,-103.15329,-122.075134,-136.406856,-58.783127,-96.455303,-118.108578,-134.75663,-47.459198,-81.464367,-102.305546,-118.156849,-35.643791,-59.786567,-74.536663,-86.922008,-13.950678,-11.240712,0.142396,8.30769,30.169349,49.712972,57.999988,62.526244,48.266913,66.999518,75.221746,81.297134,59.725604,79.202733,87.166388,92.089773,65.500811,84.817674,93.445466,99.675514,27.686994,41.83251,49.180137,49.432726,17.343366,17.760606,19.052799,19.384208,4.447861,28.499153,39.915115,42.654018,-1.846911,27.048145,36.703851,37.190529,-3.353108,21.206005,31.946125,34.406971,-23.455261,-46.966823,-60.287177,-67.779722,-76.723745,-106.366616,-121.875908,-133.444459,-68.215143,-78.473053,-72.431446,-66.156965,-54.489579,-59.248708,-50.518627,-43.018462,-38.571611,-43.154881,-39.897278,-35.56582,61.435283,422.580343,-120.629368,101.499764
130,-0.894974,1.388841,0.363601,17.546626,-33.362686,-66.059932,-93.203132,-114.695182,-67.93143,-101.735115,-120.582595,-134.914203,-57.62368,-94.979118,-116.811687,-133.488361,-46.407508,-80.122776,-101.093112,-116.923027,-35.000106,-59.229286,-74.171539,-86.660636,-13.262247,-9.951277,1.794047,10.006284,31.214524,51.850376,60.898528,66.016612,48.926679,69.067416,78.092436,84.647798,60.042284,80.475026,89.076118,94.523443,65.496488,85.097255,93.837321,100.195193,25.717203,41.829489,50.095574,50.883768,25.692255,32.016684,32.51635,31.544621,14.27496,37.995907,46.113488,47.21069,7.687518,35.607766,41.640925,40.086377,4.655571,28.670826,35.60162,35.367863,-23.781581,-46.592819,-59.88546,-67.94357,-64.518547,-84.983319,-95.424656,-103.302316,-53.712107,-58.613966,-54.523128,-50.570413,-39.143113,-39.218745,-32.723034,-27.919609,-23.460963,-24.275816,-22.041312,-19.635831,60.403821,423.087101,-120.402255,118.164307
131,-0.568016,1.655948,-1.383556,24.54477,-33.55014,-66.072498,-92.91402,-114.366314,-66.79977,-99.82632,-118.663925,-133.018592,-56.145607,-93.001075,-115.034179,-131.842483,-45.068985,-78.333732,-99.472732,-115.358596,-34.189041,-58.358322,-73.38248,-85.809665,-12.550314,-8.389522,4.026535,12.50599,32.516038,54.602012,64.716025,70.760526,49.814848,71.605161,81.648359,89.003438,60.542846,82.146894,91.618234,97.811418,65.570367,85.666409,94.687946,101.352866,25.031874,44.21652,55.862995,58.905275,35.945395,50.205568,49.858349,46.685291,26.747795,52.675335,56.469635,53.971687,20.327494,49.343605,51.547148,46.868511,16.022404,40.998013,44.574097,41.487122,-24.667353,-44.389256,-54.910494,-60.554004,-49.930741,-61.00974,-67.74704,-72.906596,-36.643454,-36.196967,-34.211929,-32.359599,-21.15021,-17.446643,-13.482643,-10.976296,-5.666026,-4.187178,-3.49139,-2.512967,59.660156,423.724179,-121.96146,141.690207
132,-0.467697,1.897381,-1.537079,26.426818,-33.58374,-66.037891,-92.549309,-114.098419,-65.131851,-97.237461,-116.038913,-130.481815,-54.052528,-90.4449,-112.721569,-129.659225,-43.139831,-76.09489,-97.420681,-113.380428,-32.792198,-56.997551,-72.16547,-84.670932,-11.669877,-6.268223,7.113042,15.685864,34.235305,58.162033,69.726292,77.306415,51.061502,74.704018,85.943704,94.387159,61.378464,84.319533,94.981,102.32352,65.991837,86.749263,96.189407,103.497481,23.08742,44.991675,60.51186,67.197973,44.002688,65.56299,64.302269,59.303948,38.137436,65.356179,66.869431,63.035694,32.885828,62.142185,63.392641,58.218396,28.277161,53.457081,56.335533,53.095368,-11.63451,-20.80644,-25.688977,-29.123372,-23.975437,-22.745727,-23.590698,-25.867282,-16.765188,-7.949452,-5.230214,-4.580522,-7.595162,3.372971,8.122016,9.796258,2.012112,8.732496,11.220516,12.420221,58.88245,424.390025,-123.808548,166.88549
133,-0.291824,1.561433,0.171364,31.866238,-34.047043,-66.269611,-92.197712,-113.738125,-63.310158,-93.42334,-111.585331,-125.920029,-51.594498,-86.355984,-108.130062,-124.822632,-40.662277,-72.267609,-93.173813,-108.896736,-30.724754,-54.440186,-69.62558,-82.271576,-10.169811,-3.00874,11.798849,20.671802,36.82818,62.834082,75.793048,85.059883,52.979741,78.836454,91.294229,100.756159,62.784842,87.535692,99.299812,107.588829,67.013066,88.765241,98.589386,106.356155,21.843939,44.418325,60.479862,68.652391,53.088724,79.140821,77.106834,70.637569,49.180481,77.8675,76.52845,70.914368,43.367231,71.416248,70.684713,65.265049,36.248119,60.756054,63.070839,60.408806,-1.398532,-0.762386,-0.011112,-0.212329,3.559924,18.879003,23.86755,24.308096,7.621594,26.799593,32.820088,34.677105,12.597501,31.198664,37.127908,38.745346,17.871002,30.438705,34.60055,35.950815,58.14382,424.634903,-124.08399,197.435173
134,-0.381249,1.385321,-1.026947,27.055986,-34.206619,-66.301219,-91.657035,-113.28376,-60.82212,-88.787258,-106.102764,-120.12498,-48.317665,-80.977958,-102.019947,-118.250541,-37.260223,-66.970802,-87.369541,-102.858524,-27.607749,-50.367851,-65.521648,-78.339672,-8.477838,0.835014,16.972582,26.266303,40.313102,68.230809,82.448508,93.220991,55.583892,83.816119,97.368679,107.387375,64.585966,91.305048,104.00218,112.763526,68.109408,91.090651,101.265427,109.163354,23.389847,46.233501,62.196865,71.621727,58.437824,85.460541,84.962723,80.144474,54.702221,82.448032,81.997856,78.241734,48.248737,74.091099,74.575172,71.489033,39.701729,62.890858,66.591568,66.188942,8.363538,18.411157,25.815427,30.382914,25.755319,50.938113,61.474845,67.009139,27.268797,54.686375,66.267035,73.614346,29.270498,54.585067,65.357501,71.514659,31.513817,49.42729,57.212424,61.389345,57.355339,424.894992,-125.518169,223.365927
135,-0.136322,1.556752,1.741882,31.380102,-34.525177,-65.744842,-90.046405,-110.343727,-57.872634,-83.874927,-100.264835,-113.718441,-44.478172,-75.317138,-95.660865,-111.332267,-33.223159,-61.250026,-81.095249,-96.218891,-24.059623,-46.212684,-61.387435,-74.199176,-6.783097,4.236795,21.277019,31.699982,43.555431,73.690349,88.867118,100.27216,58.018242,88.842319,102.87095,112.27371,66.169717,94.941123,107.836066,115.843082,69.001257,93.358781,103.573855,110.734273,26.343739,48.794117,63.630215,73.182358,57.899838,83.536938,85.33358,82.368473,52.904675,79.039524,81.274224,79.535157,45.253682,69.444638,72.809784,72.141735,35.2603,57.700459,63.966191,65.776326,19.125943,40.004276,55.681335,66.805808,46.425776,78.972257,92.463771,99.198715,44.763924,80.220504,96.007244,104.549388,43.147767,76.119141,91.388894,99.686445,41.443654,65.453054,77.526852,84.563448,56.81294,425.465957,-124.182364,253.760242
136,0.111741,1.801964,2.582096,24.412939,-34.782532,-65.356144,-88.595398,-106.037316,-55.424378,-80.064801,-95.636147,-108.284752,-41.028626,-70.404053,-89.83635,-104.314156,-29.389344,-56.134198,-75.20953,-89.513558,-20.55819,-42.093293,-57.297329,-70.020607,-5.56612,6.851134,24.881291,37.521452,45.645102,78.324642,94.310169,105.966214,59.649095,93.275961,107.246424,115.105769,67.349766,98.292923,110.91299,117.450605,69.943605,95.77889,105.79272,111.509783,27.408097,47.579224,59.335362,67.183045,55.246285,75.896656,79.640282,79.298195,48.636567,69.924363,75.188496,76.953301,40.131913,60.388024,66.362618,69.042492,29.856389,49.429413,57.732823,62.526455,28.44345,57.222008,78.300906,92.437996,64.066621,102.247802,120.418837,130.580102,60.045533,102.403463,123.705947,136.022314,55.975378,95.855325,116.553483,128.609127,51.545008,81.566428,98.008056,108.073027,56.522141,426.301679,-122.002808,277.206939
137,0.030921,1.872297,5.310173,26.725356,-35.131668,-65.024642,-87.103294,-101.86956,-53.768325,-77.585746,-92.705989,-104.906707,-38.466224,-66.769672,-85.585887,-99.147262,-26.379753,-52.191581,-70.775951,-84.390655,-17.87677,-38.76931,-53.984241,-66.552337,-4.869464,8.635301,27.46872,42.098084,46.248107,81.278548,97.724646,108.970359,60.173319,96.660365,109.867543,115.42119,67.766495,101.115349,112.499111,116.613665,70.363248,97.916146,107.29412,110.951238,25.303872,42.603848,50.734704,56.838479,48.065335,65.590359,71.959786,73.945576,41.390854,59.215256,66.897446,71.100461,33.506619,49.872529,57.972222,63.214966,24.313282,40.875538,49.883835,56.370827,25.682799,54.688055,77.019857,92.900902,69.65817,110.862701,130.012171,141.887615,69.996204,115.746405,138.140007,151.891762,68.580033,111.601372,133.587902,147.294419,65.174213,98.068176,115.492389,127.203811,56.222391,427.434839,-117.023306,303.193158
138,-0.03337,1.416937,0.669388,21.690351,-35.28875,-64.585442,-85.170834,-96.823632,-52.694642,-76.652596,-91.931202,-103.901608,-36.677193,-64.839695,-83.625939,-96.581028,-24.137742,-49.943184,-68.465184,-81.497498,-15.739655,-36.358201,-51.598801,-63.842309,-4.490082,9.703917,28.757044,44.458185,46.355961,82.750073,99.446853,110.030096,60.519714,98.769303,111.022178,114.417524,68.13254,102.970319,112.971478,114.767031,70.625478,99.427056,108.238049,110.143766,28.603913,45.299881,51.718781,56.624829,48.354355,64.673264,72.115322,75.229168,39.012188,55.657254,65.08199,70.980171,29.056824,44.536206,54.253338,61.123696,18.639359,34.50087,44.15633,51.799301,21.935784,50.360783,73.231098,88.9746,70.121002,111.770333,131.628512,144.349122,73.842576,119.996192,143.868555,159.253251,74.351053,117.58164,140.543382,155.322405,71.811432,105.285354,122.843429,135.168305,56.050444,428.362327,-116.492495,324.39406
139,0.079216,0.86668,2.721657,23.420326,-35.670273,-64.342644,-83.42347,-91.568768,-52.88617,-77.450364,-93.0248,-104.909855,-36.336594,-65.064469,-83.906926,-96.456517,-23.23407,-49.786858,-68.320118,-80.910531,-14.641411,-35.343659,-50.619301,-62.66177,-4.314193,10.040567,29.24255,45.902798,45.350873,82.665029,99.608441,109.636411,60.131106,99.314694,110.788229,112.621673,68.163674,103.844556,112.919273,113.018691,70.941751,100.588037,109.23512,110.216816,30.642483,47.555615,53.329125,56.76091,49.265957,65.423733,71.983028,73.542687,37.778549,54.885681,63.751591,68.412769,25.806015,42.195168,51.691338,57.82156,14.042851,30.504822,40.037521,47.115784,19.654835,48.078155,71.622129,87.562825,71.035031,112.849668,130.406583,139.017443,76.812276,122.827263,143.60025,154.033253,78.240477,121.196249,140.980649,151.51622,75.761766,108.896382,124.201234,133.843536,56.058026,428.919186,-113.842472,347.504565
140,-0.504685,0.955526,0.717671,15.36596,-35.98494,-64.510963,-82.298012,-88.2365,-54.375,-79.767895,-95.796696,-107.695175,-37.504074,-66.694015,-85.364307,-97.244511,-23.807808,-51.01197,-69.484817,-81.526039,-14.591721,-35.369682,-50.542557,-62.300629,-4.504434,9.931541,29.35948,46.193235,43.834159,81.125085,97.975624,107.766275,59.344579,98.5635,109.194229,110.244542,68.053634,103.870442,112.143577,111.329966,71.305275,101.269255,109.603511,110.0564,23.5051,39.597129,47.7957,53.782619,43.530635,60.750022,67.168167,68.202758,37.837669,55.852352,63.2929,66.177612,31.882244,49.126075,56.49163,59.838649,26.196235,42.642642,49.676765,53.879207,23.050429,50.620432,72.266125,85.789885,73.133557,111.721056,127.227659,134.952179,77.051436,119.909754,137.660836,147.007959,77.000911,117.159884,133.829408,141.966112,73.349042,104.53053,117.665719,124.767856,55.568304,429.632401,-113.109838,362.628214
141,-1.093346,0.423756,1.644447,14.181723,-35.928039,-63.842903,-80.299816,-85.854927,-55.58385,-82.205371,-99.053775,-111.630786,-38.977363,-69.167369,-88.263553,-100.584526,-25.102272,-53.330257,-72.335266,-84.714294,-15.413223,-36.768539,-52.164859,-64.125457,-4.778111,9.367426,28.409067,43.480021,41.937903,77.929625,94.480588,103.976825,58.111238,96.534159,107.195615,108.671647,67.471291,103.027215,111.294459,110.592814,71.297112,101.210654,109.508489,110.267377,25.748989,42.27998,50.005096,55.124782,47.187275,65.315403,69.706089,68.563785,41.037208,60.154518,65.025226,65.284344,34.200188,52.440742,57.732136,58.297119,27.501926,44.513306,50.430279,52.507484,22.26547,49.685889,71.300114,84.026009,71.238314,107.048958,119.569361,124.628572,75.920032,114.995397,128.905937,134.601091,76.495114,113.341017,126.118511,130.372435,73.420252,102.136392,112.25169,116.180227,54.608167,429.872217,-111.332182,376.625997
142,-1.386039,0.306578,-0.893017,8.121019,-35.73452,-63.11277,-78.758744,-83.574406,-56.430542,-84.696396,-102.236836,-115.584046,-40.628609,-72.132672,-92.010876,-105.341687,-26.965622,-56.306053,-76.155922,-89.483094,-16.918671,-38.784897,-54.284088,-66.451973,-5.572555,7.801374,26.002172,39.573369,40.26033,74.071534,89.688917,98.648704,56.991246,93.936765,105.08364,107.681196,66.81733,101.364685,110.564459,111.136724,70.953212,100.142459,108.767657,110.541673,31.53614,49.59177,56.465378,59.469589,56.164364,72.405899,73.566238,69.887054,47.935844,65.530312,67.490238,65.306042,38.789063,56.243042,58.67086,56.401245,29.608555,46.077015,50.174171,49.989063,20.770974,47.700539,69.337266,81.689657,71.576978,101.538413,110.798826,113.365087,78.099612,109.12502,118.332562,120.953459,79.826302,108.617456,116.028543,116.450446,77.768407,100.292389,105.349711,105.016728,53.514616,429.975587,-111.932711,384.543808
143,-0.818161,0.709253,0.035969,6.932065,-35.839165,-63.108673,-78.325402,-82.625668,-58.396386,-88.649746,-106.615311,-120.541993,-43.596932,-76.860249,-97.285286,-111.594166,-30.242775,-60.983952,-81.475846,-95.875729,-19.824189,-42.309311,-57.866433,-70.219838,-6.633748,5.914627,23.833177,36.701357,37.701121,68.80347,83.267701,91.622322,55.050801,89.773601,101.314716,105.196742,65.507579,98.143993,108.363118,110.499238,70.206649,97.628575,106.093877,108.561917,27.223194,45.653961,53.752819,57.950878,56.75172,70.850944,69.359058,63.215915,53.374706,66.942398,65.018921,59.158939,48.6786,61.533485,59.104397,52.316345,43.194053,55.306446,54.685421,50.226242,25.104271,51.612933,71.24802,82.316362,71.766699,98.576011,107.073324,109.960934,76.307404,104.218504,112.024831,113.946787,76.785315,103.284628,109.744635,109.676178,73.992616,94.758489,98.627004,97.285612,53.117546,430.420342,-111.475651,391.211375
144,-1.117012,1.146545,0.925289,4.786916,-35.441071,-62.578389,-77.973999,-82.979382,-59.327889,-91.906449,-110.609986,-125.213311,-45.616425,-81.017212,-102.204895,-117.539063,-32.873268,-65.309704,-86.565434,-102.12053,-22.517739,-46.221291,-62.017525,-74.724347,-7.422128,4.327851,21.73097,33.736732,35.533126,63.965374,77.014953,84.599917,53.632159,85.870518,97.271299,101.928552,64.708442,95.255098,105.812999,109.034345,69.854165,95.467186,103.284813,105.867919,25.133045,42.959816,50.710201,54.558849,57.968914,68.67889,64.566753,56.397079,57.949963,66.628109,61.051437,52.313965,55.824955,63.564949,57.033062,46.951252,51.880142,59.51873,55.065594,47.658806,26.642499,52.78282,71.111491,81.062335,70.958806,95.384207,104.888978,109.605413,74.515692,99.91707,108.104335,111.029884,74.503465,98.512804,104.600233,104.724944,71.718188,90.599019,94.007951,92.746538,52.497918,431.263445,-110.052978,395.694849
