takenoko1/special-research/HandMotion_SimilarSearch_自分用/NewProject/handData/key/d4_feature_d2/102.csv
,vel_0x_L,vel_0y_L,vel_0x_R,vel_0y_R,posFromWrist_1x_L,posFromWrist_2x_L,posFromWrist_3x_L,posFromWrist_4x_L,posFromWrist_5x_L,posFromWrist_6x_L,posFromWrist_7x_L,posFromWrist_8x_L,posFromWrist_9x_L,posFromWrist_10x_L,posFromWrist_11x_L,posFromWrist_12x_L,posFromWrist_13x_L,posFromWrist_14x_L,posFromWrist_15x_L,posFromWrist_16x_L,posFromWrist_17x_L,posFromWrist_18x_L,posFromWrist_19x_L,posFromWrist_20x_L,posFromWrist_1y_L,posFromWrist_2y_L,posFromWrist_3y_L,posFromWrist_4y_L,posFromWrist_5y_L,posFromWrist_6y_L,posFromWrist_7y_L,posFromWrist_8y_L,posFromWrist_9y_L,posFromWrist_10y_L,posFromWrist_11y_L,posFromWrist_12y_L,posFromWrist_13y_L,posFromWrist_14y_L,posFromWrist_15y_L,posFromWrist_16y_L,posFromWrist_17y_L,posFromWrist_18y_L,posFromWrist_19y_L,posFromWrist_20y_L,posFromWrist_1x_R,posFromWrist_2x_R,posFromWrist_3x_R,posFromWrist_4x_R,posFromWrist_5x_R,posFromWrist_6x_R,posFromWrist_7x_R,posFromWrist_8x_R,posFromWrist_9x_R,posFromWrist_10x_R,posFromWrist_11x_R,posFromWrist_12x_R,posFromWrist_13x_R,posFromWrist_14x_R,posFromWrist_15x_R,posFromWrist_16x_R,posFromWrist_17x_R,posFromWrist_18x_R,posFromWrist_19x_R,posFromWrist_20x_R,posFromWrist_1y_R,posFromWrist_2y_R,posFromWrist_3y_R,posFromWrist_4y_R,posFromWrist_5y_R,posFromWrist_6y_R,posFromWrist_7y_R,posFromWrist_8y_R,posFromWrist_9y_R,posFromWrist_10y_R,posFromWrist_11y_R,posFromWrist_12y_R,posFromWrist_13y_R,posFromWrist_14y_R,posFromWrist_15y_R,posFromWrist_16y_R,posFromWrist_17y_R,posFromWrist_18y_R,posFromWrist_19y_R,posFromWrist_20y_R,posFromBody_0x_L,posFromBody_0y_L,posFromBody_0x_R,posFromBody_0y_R
2,1.917229,-7.852368,0.721951,-0.828011,3.529129,1.557198,-5.713463,-11.461372,-13.063717,7.030907,20.90641,26.302185,-21.372356,1.077461,14.120636,23.647728,-28.852901,-11.114159,2.683983,11.286964,-35.408993,-32.63483,-27.283974,-23.549938,-26.043236,-33.146263,-32.357833,-27.33277,-4.205388,10.262363,11.771481,11.562147,16.294699,29.70343,29.099202,27.821648,30.944799,41.080326,37.657748,35.913978,41.358573,52.482231,48.246647,43.498966,25.353127,49.442711,72.377186,92.617207,50.013657,83.549938,101.667881,115.099926,42.823219,79.617405,100.061359,114.11871,35.907383,69.475136,89.189472,102.853146,29.870453,55.998116,71.706219,84.462605,-15.212461,-16.850761,-11.094944,-6.31682,15.745058,27.055696,30.407755,32.220006,32.635834,42.835643,44.827218,44.728046,43.733186,56.153293,57.799312,56.255799,49.866422,62.745026,64.543074,63.215996,-2.131548,312.764849,-79.150457,302.526013
3,-16.648064,5.028521,1.045647,-0.167591,4.541245,9.600563,18.409538,25.164871,-11.487236,16.104584,36.013069,47.321548,-18.364792,10.586014,34.228477,50.443268,-19.493694,5.991726,26.31031,40.377617,-17.553234,-1.717758,13.198242,24.502258,-21.619622,-30.846492,-25.83489,-19.883694,-6.18418,2.58234,7.897384,11.728194,13.773553,22.583669,25.137049,23.530735,29.349539,35.897799,35.440105,32.163196,41.111695,46.73018,43.333599,38.033993,25.228157,48.801613,71.461544,91.860752,49.207478,83.043079,100.834751,113.742542,41.926746,78.739986,98.947735,112.731113,34.831123,68.147278,87.835293,101.44083,28.593693,54.366875,70.165501,83.051891,-15.354055,-17.354398,-11.59012,-6.5553,15.595622,26.197304,29.367076,31.109302,32.622866,42.341516,44.201809,43.894848,43.852055,56.130569,58.008461,56.310756,50.063344,63.277808,65.470689,64.093223,-18.587294,317.904119,-77.912493,302.469172
4,-6.446571,12.586154,-0.949059,0.595891,7.317982,14.267921,22.999191,30.523567,2.891006,29.980774,47.819252,58.667908,-4.11747,22.790337,44.52198,61.501236,-7.937336,15.631313,33.181915,46.964149,-9.925804,4.337425,16.201057,25.401993,-22.384401,-33.145954,-32.928778,-29.964202,-15.356895,-11.541523,-6.394317,-1.307009,2.93685,9.975347,13.048171,13.508705,18.639053,23.730683,23.934583,22.741627,31.247684,35.55669,32.772549,28.778409,25.607414,49.535007,72.068996,92.226849,49.680405,82.992268,100.805454,114.003468,42.297935,78.357067,98.575115,112.794857,35.096283,67.617531,87.539577,101.698666,28.735485,54.113102,69.86269,82.960796,-15.695905,-18.009322,-12.238993,-6.977858,14.190986,25.412703,29.028251,31.12616,31.268927,41.545739,43.831924,43.876879,42.642303,55.202028,57.440665,56.042451,49.086329,62.204154,64.744257,63.703763,-24.787188,330.564297,-78.614874,303.139086
5,27.215538,-19.827378,0.241299,-1.003938,3.481064,0.910034,-4.355278,-7.100716,-22.389965,-4.094238,13.67981,24.147148,-30.977211,-10.842247,8.703232,24.386215,-37.163029,-20.120144,0.185509,14.951248,-41.809731,-35.546379,-23.021793,-12.823734,-25.215101,-33.726408,-34.49872,-30.861497,-2.714672,10.518318,13.481844,14.727165,18.587121,31.149131,31.788433,31.17414,34.357188,43.3767,40.885504,39.895644,46.277858,55.782296,50.925133,45.830785,25.668411,49.572716,71.937447,92.307129,48.218136,81.316109,99.644852,113.614311,41.003609,77.262154,97.983742,112.781982,34.190769,66.898556,87.132797,101.716919,28.347816,53.898354,69.719925,83.215714,-14.842082,-16.377383,-10.215185,-5.304669,14.420759,26.382184,30.086036,32.242113,31.414596,42.502006,45.030068,45.276205,42.955995,56.013119,58.06842,56.682556,49.551865,63.102067,65.510456,64.312375,2.624216,310.801062,-78.17771,302.199291
6,-22.007961,11.066538,0.564194,0.096331,7.723904,13.964138,22.470188,31.046391,-7.213326,15.502796,33.028393,43.638783,-14.790916,10.065823,33.132076,50.560627,-17.021027,6.530628,26.931324,41.727047,-16.380787,-1.145782,13.623104,24.839916,-22.507222,-33.763335,-29.243698,-20.659218,-14.112995,-10.051547,-4.257382,0.152462,5.845788,14.236496,20.260063,20.957596,22.981589,29.279452,31.737303,29.793709,35.878224,41.283238,39.993025,35.062995,25.707893,49.434128,71.86409,92.448006,48.691692,81.845856,99.8172,113.106995,41.344585,77.293396,97.518997,111.718254,34.200096,66.752415,86.553154,100.560837,28.025208,53.507309,69.184227,82.284851,-14.849801,-16.519717,-10.583218,-5.625154,15.063828,26.504327,30.170449,32.377408,32.036546,42.210235,44.593184,44.964859,43.390347,55.92846,57.923368,56.633217,49.849317,63.190432,65.509654,64.320958,-19.203558,321.962202,-77.433329,302.390224
7,14.40897,-10.149236,0.070896,0.695495,5.994415,6.346436,4.030266,3.297615,-14.486904,5.208778,22.972183,32.328987,-23.99128,-2.380142,17.129288,32.571945,-31.608009,-13.604221,6.378593,21.151657,-37.582283,-33.174019,-23.576431,-14.897003,-26.47518,-35.559716,-36.654551,-32.752048,-5.174932,9.362227,12.074367,12.792154,16.459696,30.657721,30.989259,29.343858,32.490844,42.573698,40.546,39.409051,44.641164,55.048516,51.128847,46.172265,25.360508,49.0868,71.492443,91.669178,48.532963,81.757793,99.60474,112.779064,41.258583,77.369785,97.49754,111.78709,34.0555,66.643982,86.384869,100.533085,27.799473,53.19397,68.830318,82.067928,-15.026037,-17.276716,-11.66385,-6.511828,14.315166,25.674401,29.267287,31.332777,31.249228,41.429895,43.833653,44.13691,42.614639,55.06099,57.204902,56.005401,49.166357,62.434236,64.908884,63.866352,-4.682379,311.854941,-77.250223,303.127693
8,-13.96265,4.814124,0.638294,0.024824,2.323322,5.138798,9.930267,12.32626,-14.09523,12.810917,31.697445,42.928791,-19.225788,9.829159,33.887959,51.603413,-19.569054,6.624069,28.595181,43.561649,-17.200756,-3.868847,11.525745,23.64069,-20.502434,-26.062132,-15.760619,-2.863552,-9.119671,-3.157175,3.090855,8.502167,11.274514,20.913136,26.795789,27.329436,28.134784,35.579846,35.803012,32.258539,40.256452,46.298298,42.852007,36.401003,24.99115,48.68248,71.093102,91.736755,48.233128,81.416931,99.422836,112.679443,40.976772,77.175636,97.281761,111.184158,33.873653,66.678658,86.417542,100.343513,27.841988,53.417873,69.08844,82.189064,-15.350967,-17.230094,-11.309958,-6.362145,14.192159,25.848352,29.477362,31.445903,31.354204,41.763471,44.240095,44.467274,42.911658,55.549374,57.45036,55.972055,49.457263,62.902057,65.009846,63.576001,-18.490677,316.716983,-76.457577,303.200435
9,7.847786,-2.103096,0.31477,0.249472,8.050976,11.111126,9.596615,8.309612,-6.542015,14.02216,31.146641,40.217571,-15.983047,7.422924,26.54108,41.754169,-23.98922,-4.416275,15.02203,29.389973,-31.106243,-24.480801,-13.635635,-4.142017,-27.540004,-37.728637,-39.655127,-36.265029,-7.735165,5.333815,7.65841,8.260291,14.133002,26.651478,26.702484,25.158662,30.658339,39.687299,37.287739,35.79375,43.295869,52.798517,48.075845,42.299094,24.640102,48.332291,70.795269,91.2533,48.495827,81.726665,99.46661,112.346935,41.134014,77.431583,97.376232,111.177578,33.787766,66.538639,86.230373,100.145473,27.481098,53.146477,68.860874,82.004414,-15.611801,-17.499943,-11.726527,-6.86115,14.611753,25.958268,29.410671,31.204274,31.583668,41.591002,43.85786,43.919363,42.948214,55.312191,57.245349,55.850592,49.358463,62.598307,64.805699,63.502703,-10.495234,314.624416,-75.99515,303.460436
10,1.498375,-5.555191,-0.394421,-0.039459,-9.153557,-12.497349,-13.039341,-18.393745,-22.305336,-0.512695,20.531788,35.584431,-24.860916,-1.777611,23.493977,42.686062,-24.204941,-6.92173,15.627537,32.973804,-20.678043,-18.702335,-8.983612,1.159115,-8.936828,-5.508198,9.539574,23.959716,7.490387,16.784812,22.670923,27.667025,22.597563,30.680075,35.671484,36.566371,33.951488,40.597191,41.605822,39.941834,42.84577,48.352178,45.328631,41.37963,24.95882,48.687515,71.048813,91.377068,48.344536,81.223297,98.942757,111.988449,40.972023,76.990013,97.049217,111.189079,33.697586,66.190453,85.993652,100.144844,27.490139,53.017616,68.746605,81.78772,-15.423647,-17.466722,-11.852868,-7.010586,14.607245,26.064849,29.548869,31.396318,31.634798,41.714071,44.042432,44.183717,43.003481,55.256306,57.350263,56.165458,49.331478,62.429049,64.812306,63.699255,-8.834953,309.074598,-76.227665,303.426349
11,-0.301609,7.486867,-0.12188,0.338022,7.161484,9.732742,7.780609,5.872307,-4.975891,14.845276,31.045189,39.13456,-14.587612,8.054924,25.602722,39.506035,-22.852993,-4.068775,14.454346,27.922783,-30.800056,-23.99271,-13.258438,-3.802242,-28.754882,-40.124924,-43.37985,-40.01402,-8.833211,4.309623,5.921988,5.695611,13.387428,25.582331,25.357189,23.33227,30.118763,38.268151,35.649686,33.806992,42.836446,51.385173,46.153987,39.884962,25.048084,48.759384,71.190376,91.739616,48.82925,81.859474,99.497223,112.367363,41.407528,77.359886,97.236214,111.083679,33.985405,66.575317,86.248169,100.203667,27.560749,53.282375,69.049187,82.216644,-15.703068,-17.843955,-12.194101,-7.430489,14.105894,25.493658,28.981938,30.840749,31.156109,41.336035,43.756465,43.922574,42.595372,55.090877,57.223922,56.005833,49.136532,62.363717,64.661079,63.480659,-8.994627,316.582985,-76.207609,303.785891
12,4.441566,-10.87962,0.120678,-0.372849,-11.47316,-16.829052,-19.874096,-27.386513,-25.275593,-4.26384,15.854874,30.667992,-27.176056,-5.081177,19.316483,39.059258,-27.041359,-11.222706,10.627213,28.611374,-24.452705,-25.609989,-19.586678,-11.901398,-1.403834,6.464218,23.082675,37.99824,12.943319,22.94386,29.060485,34.376146,24.190353,33.593212,39.203114,40.636341,32.787122,41.535365,43.676807,43.122227,39.556202,47.022568,45.728588,43.833345,25.01873,48.729515,71.097279,91.558971,48.84264,82.142429,99.873791,112.867641,41.326618,77.424259,97.352085,110.991497,33.814316,66.598377,86.229916,99.997845,27.398472,53.201752,69.012051,82.019176,-15.833979,-17.879647,-11.99934,-6.906043,13.756263,25.67755,29.388627,31.407371,30.989259,41.619037,44.269858,44.478822,42.54307,55.229198,57.416583,56.229678,49.052798,62.347971,64.51683,63.187591,-4.53043,305.713708,-76.064301,303.423385
13,-0.803146,3.735035,0.747128,0.518333,2.45121,2.320633,-2.735596,-7.187004,-13.692226,4.934578,22.838173,32.408066,-22.819633,-1.369972,18.126755,34.079018,-30.214348,-12.117004,9.023552,24.454651,-36.526566,-31.728172,-19.161072,-7.918968,-26.225956,-32.437183,-30.187183,-23.7623,-2.437165,13.06015,17.268194,18.711919,19.145159,33.680712,36.428112,35.479625,35.04021,45.81226,44.420468,43.197624,46.958039,57.642898,53.130363,47.146872,24.293404,48.217278,71.231918,92.258835,48.917542,82.748337,100.229187,112.742844,41.557674,78.499489,97.905235,110.536766,34.071407,68.078384,87.161636,100.042534,27.48785,54.342155,70.073433,82.92057,-16.302479,-18.698457,-13.276771,-8.349458,13.446708,25.563374,29.490824,31.663821,30.851247,41.165048,43.762393,43.83847,42.506081,54.972687,56.941475,55.513065,49.02112,62.205636,64.215735,62.932685,-5.297155,309.510478,-75.280752,304.003453
14,-15.349674,1.624098,0.317974,0.108989,-0.131207,3.117828,7.197704,7.262592,-9.866924,17.256832,37.789593,50.81892,-15.596409,13.856106,38.377361,55.788746,-16.4007,8.794098,31.025333,46.179714,-14.714985,-2.952061,12.920551,26.111355,-18.284914,-19.505782,-5.762981,8.581208,-4.45486,6.523808,14.919332,21.117159,16.415544,27.712288,34.301613,34.575229,33.123477,40.579036,41.32918,38.072278,45.732293,50.561484,46.50899,39.924482,23.900986,48.36422,71.534672,92.711849,48.251438,82.515049,100.37344,113.053265,40.937462,78.988552,98.731785,111.132488,33.910275,68.871746,87.932796,100.303173,28.039913,55.406857,71.15839,83.509541,-16.323104,-18.244468,-12.730835,-8.110423,14.438049,25.879845,29.622784,31.754285,31.959358,41.768905,43.980372,43.795121,43.482479,55.158185,56.487486,54.735318,49.56508,62.296965,63.59323,61.66779,-20.603943,311.16576,-74.919891,304.143627
15,-8.376446,4.812086,-0.97681,-0.172963,12.606468,22.614555,26.861343,28.266563,11.790905,35.952301,51.10096,58.785553,4.274368,29.438553,47.584534,60.999641,-4.010639,19.350929,38.851891,52.236328,-13.006325,3.346825,18.282623,28.87722,-28.054941,-39.629747,-43.252767,-41.183264,-12.199473,1.925934,5.69277,6.849479,9.065207,24.806067,26.002049,24.717023,26.676672,38.846875,36.390753,34.945361,41.193391,52.19892,47.094569,41.343753,24.709225,49.145966,72.369804,93.166237,49.704437,83.693848,101.202164,113.768349,42.154999,79.181671,98.737335,111.35685,34.817276,68.594284,87.943497,100.772095,28.450127,55.01255,70.82016,83.295708,-16.511937,-18.632322,-13.283378,-8.330501,14.375002,25.44858,29.124829,31.407803,31.689694,41.632004,43.898244,43.734235,43.057327,55.014986,56.897571,55.432295,49.141534,62.220641,64.288848,62.916939,-28.90995,315.998286,-75.826263,303.991103
16,2.701778,1.141765,1.039524,-0.578725,12.913055,22.253208,24.862576,24.904346,12.576027,37.265568,51.670589,58.535213,4.49913,29.668293,46.342449,58.403378,-4.794559,18.20034,36.18227,48.605175,-14.8102,0.508175,14.109592,23.904476,-28.787857,-40.37668,-44.494506,-43.48075,-13.251515,1.594643,5.375744,6.687755,7.998469,24.332503,25.218251,24.024183,25.601412,38.098646,35.448256,34.116732,40.143264,51.074075,45.570507,40.079969,24.21175,48.71521,71.875477,92.843342,48.438492,82.464352,100.365314,113.330441,41.086807,79.005489,99.01022,112.007618,34.114151,68.951168,88.230114,101.093731,28.28413,55.47369,71.295834,83.920383,-15.966681,-17.788318,-11.965686,-7.054491,15.043327,26.572993,30.241647,32.439406,32.595881,42.671449,44.831417,44.860872,44.137157,56.143104,57.543665,55.935993,50.28756,63.093607,64.352142,62.51976,-26.101913,317.211218,-74.680481,303.483546
17,26.619015,-6.440197,-0.214233,0.426263,2.128029,0.974808,-4.364548,-7.987747,-18.183174,-0.097733,16.005478,25.529022,-25.12064,-5.697441,13.156357,28.324814,-30.885029,-13.940048,6.817017,21.753159,-35.978622,-27.924843,-13.886776,-3.056717,-24.549247,-30.327542,-28.54104,-23.218031,-0.052611,13.365753,15.796743,15.826754,18.942618,31.840797,32.868324,32.225132,33.216843,43.478774,40.301221,38.359418,44.26603,54.519006,49.671599,44.743052,24.356461,48.911648,72.282085,93.012371,49.606419,83.29874,100.787945,113.483906,42.290668,79.03307,98.46262,111.049633,35.255013,69.04398,88.105602,100.814152,29.216537,55.895748,71.541767,83.891659,-16.607959,-18.815536,-13.413795,-8.374961,14.898584,25.992848,29.662181,32.027098,32.275952,42.542823,44.616155,44.266462,43.705336,55.974093,57.502416,55.713383,49.873029,62.983629,64.661326,63.0962,0.550375,310.804258,-74.861441,303.943046
18,-18.096428,8.345506,0.502396,-0.154129,7.00407,13.911209,23.18058,30.8004,-8.101673,15.807838,34.210281,45.901222,-16.166496,9.56789,33.090591,51.739883,-18.448792,5.879574,26.17321,42.135201,-17.326412,-1.786938,13.282585,25.92453,-22.569343,-29.880901,-22.366987,-14.207288,-14.253045,-4.996102,3.583191,9.686911,6.68689,19.185853,25.736522,25.873052,24.752406,33.745921,36.021609,33.672376,38.809887,44.168588,42.170962,37.723203,24.154644,49.025803,72.301655,93.454685,48.915825,82.683277,100.661945,113.464794,41.666508,79.287357,99.239445,111.514034,34.791813,69.361324,88.50111,100.580921,28.997097,56.031361,71.880283,84.004841,-16.361389,-18.279974,-12.464568,-7.72121,14.799474,26.156178,30.089494,32.365737,32.670229,42.763272,44.620045,43.908742,44.327101,56.059494,56.968151,54.677582,50.510108,63.160112,64.299654,62.230336,-17.528515,319.151015,-74.341507,303.790167
19,30.205536,-11.718561,0.088577,0.047239,-1.10939,-6.890945,-14.401474,-18.799782,-33.812828,-17.314682,1.79615,13.981476,-41.872444,-22.264652,-0.353165,17.798882,-46.29221,-29.818783,-5.652351,12.434921,-48.789539,-42.344398,-27.926502,-15.610199,-22.637207,-28.744508,-27.531606,-21.568554,4.196126,18.19161,20.380476,20.298534,23.705613,36.992572,37.464098,36.387604,37.707889,47.809021,44.102638,42.315273,47.860398,58.548283,53.34544,47.997237,24.863834,49.621468,72.956371,93.830853,49.442196,83.370838,101.00584,113.62833,41.92749,79.379139,99.01228,111.333561,34.876614,69.269428,88.331509,100.707722,28.921051,55.967331,71.652203,83.8064,-16.416409,-18.59274,-13.045763,-8.219659,14.248167,25.582146,29.62933,32.320968,32.117624,42.338923,44.585218,44.403425,43.911212,55.950505,57.339271,55.462059,50.36166,63.40804,64.872266,62.970785,12.704086,307.41592,-74.225864,303.820873
20,-26.521797,15.172014,0.5373,0.610156,7.323074,12.295074,19.790154,28.163681,-12.762909,11.317177,30.189629,41.503029,-20.337238,7.364159,31.227608,49.980469,-21.482849,5.005703,26.211205,42.191162,-18.932648,-1.212502,14.350548,26.409874,-22.375756,-33.632979,-27.681166,-16.976547,-18.762863,-13.480053,-5.909514,-0.921131,2.316073,12.347736,19.190423,19.758959,20.64977,28.620884,31.302025,29.391591,34.53046,39.695573,38.804762,34.851809,24.803123,49.361286,72.512455,93.397923,49.320145,83.324833,101.266766,114.118938,41.884117,79.900761,99.802151,112.432652,34.851036,69.820118,89.058208,101.595554,28.972549,56.244278,72.040615,84.310513,-16.213003,-18.588171,-13.197977,-8.461103,14.05248,25.140507,28.935502,31.187848,31.973561,41.678996,43.557691,43.063564,43.786106,55.137807,56.206645,54.01994,50.233404,62.64956,63.882777,61.847051,-13.820658,322.573763,-73.691511,304.416857
21,-27.212734,3.920348,0.362663,-0.24095,10.960636,26.886406,41.989117,54.79105,22.925835,50.821095,65.677013,76.598797,17.826633,48.076916,64.694881,78.696499,13.340778,42.132511,58.118649,70.089283,10.996227,26.14975,35.599422,43.834934,-22.511607,-34.086968,-34.957093,-31.67827,-10.241121,2.559184,6.367826,7.216832,7.447779,20.418268,23.025,24.725359,20.669098,32.021973,31.736377,30.468024,29.544855,41.042967,38.56764,33.368502,24.867096,49.320545,72.504787,93.332348,50.228405,84.052792,101.649456,114.125347,42.545757,79.857159,99.297695,111.485996,34.972057,69.248371,88.06612,100.101871,28.362522,55.307865,70.973797,83.096294,-16.450619,-18.697592,-13.119246,-8.50581,14.050071,25.306801,29.056348,31.314869,31.772254,41.480901,43.522617,43.159401,43.475686,54.952988,56.303346,54.38859,49.949785,62.590403,64.081552,62.233362,-41.02355,326.474891,-73.319006,304.156687
22,15.48975,-12.226767,0.515614,-0.436514,11.90712,20.985832,25.34935,27.902412,8.673649,31.385307,47.579384,55.793839,1.089249,24.826469,44.7052,59.129333,-6.625786,15.274773,37.134247,51.636543,-14.814835,1.043701,17.99366,29.387627,-27.700062,-37.867576,-39.070659,-34.974569,-10.391051,1.516652,5.565132,7.107596,10.777546,23.808489,26.396325,25.713304,28.319727,38.645013,36.83443,35.209776,42.263773,52.358668,47.830202,42.390917,24.564056,49.112949,72.133255,93.278732,49.573631,82.980537,100.417099,112.790222,42.021961,79.481392,99.124832,111.28212,34.694366,69.461174,88.294945,100.204926,28.450241,55.642605,71.350021,83.485565,-16.367749,-18.007038,-12.077578,-7.969879,14.500787,26.169454,30.010947,32.218277,32.322821,42.307924,44.193288,43.515021,44.133822,55.677938,56.669465,54.502087,50.571982,63.157642,64.441742,62.529455,-25.526276,314.240051,-72.795868,303.712099
23,56.36364,-10.979347,0.465546,-0.131281,-8.527794,-19.587021,-33.561859,-42.542439,-50.642109,-39.068184,-16.436806,-0.569344,-58.84203,-44.344597,-19.515381,0.529289,-62.025719,-51.714649,-26.697578,-7.714233,-62.699833,-62.800026,-49.220352,-36.86142,-16.232331,-20.303659,-16.90998,-10.715611,7.001817,25.103704,28.997499,29.920174,25.932518,40.329194,43.289138,44.165624,39.617088,50.617183,49.243854,48.448076,49.718529,60.32725,56.714728,53.048173,24.372768,48.768997,71.860313,92.902908,50.28677,83.731384,101.065178,113.339653,42.553768,79.479218,98.706436,110.517311,34.946537,69.362984,87.748375,99.195557,28.290195,55.517578,71.004982,82.6791,-16.320202,-18.370748,-12.634937,-7.964321,14.098298,25.674525,29.695341,32.203457,31.94355,41.835101,43.920289,43.523852,43.897689,55.253466,56.345522,54.301336,50.657197,63.179131,64.350845,62.284924,30.832472,303.226371,-72.335215,303.546485
24,-48.001213,18.649365,-0.222244,0.334934,8.480072,15.816994,23.46405,31.063957,-5.379295,19.012642,36.382828,46.388626,-12.139835,14.853172,36.312103,52.607002,-13.907719,10.082245,30.227509,43.770905,-13.434277,4.49501,18.858376,28.550262,-22.396133,-35.021067,-35.9317,-30.423749,-13.01779,-4.380327,-0.034086,2.489962,6.555918,17.472588,20.397026,19.51066,22.866178,32.032285,31.963187,29.753386,34.644451,43.98982,41.508442,35.616588,24.433937,48.912849,71.932869,92.767525,49.277802,82.985573,100.711098,113.439674,41.866722,79.626274,99.455223,112.00779,34.800053,69.649315,88.543854,100.730209,28.809357,56.009789,71.592751,83.649101,-16.26512,-18.276949,-12.465617,-7.818528,14.086627,25.280557,29.222641,31.655114,31.989801,41.585383,43.715772,43.468832,43.85965,55.006896,56.240361,54.304918,50.435513,62.886496,64.043637,61.885892,-17.182188,321.869098,-72.570906,303.874781
25,48.033714,-19.13707,-0.758228,0.699879,-5.045586,-15.599556,-30.071754,-40.075951,-48.841496,-36.541672,-13.646736,1.863098,-59.074974,-43.166027,-17.959099,1.701736,-63.521347,-52.123661,-26.939049,-8.318138,-64.985275,-66.269188,-53.220177,-41.039085,-16.754184,-20.892881,-17.036136,-10.626505,6.924568,25.298341,29.222147,30.414733,26.579971,40.594968,43.576586,44.932255,40.724335,51.79359,50.530918,49.888281,51.035913,61.970614,58.418792,54.741184,24.598103,49.343548,72.67416,93.285656,48.785248,83.909626,102.091656,115.04488,41.242332,80.277958,100.428371,113.370609,34.402771,70.315762,89.903812,102.95351,28.849812,56.701469,72.55949,85.026226,-16.809265,-19.27113,-13.832339,-8.701745,13.004822,24.398576,28.261558,30.669824,31.139992,40.911747,42.894491,42.667806,43.256225,54.667454,55.911478,54.12473,49.924405,62.574656,64.046416,62.242995,30.810099,302.727273,-73.370562,304.569905
26,-34.825745,12.215405,0.583878,-0.766261,1.655388,3.301392,4.816818,5.574532,-19.299202,4.252281,22.720985,32.578125,-25.378647,0.44632,21.837387,37.793655,-26.73048,-4.905796,15.147858,28.653831,-26.04887,-10.289898,4.677315,14.867935,-18.694073,-25.828221,-22.138202,-15.11434,0.82443,12.20713,14.534256,16.637228,17.851241,28.527702,31.130297,31.618063,30.767452,40.255341,38.23215,36.529506,39.711999,48.418066,44.537732,39.947391,24.548721,49.464111,72.718792,93.288631,48.196678,83.616314,101.896763,114.717579,40.576286,80.075741,100.291271,113.102016,33.76379,70.195026,89.68626,102.508335,28.306904,56.483803,72.412891,84.76656,-16.415297,-18.510242,-13.03014,-7.916094,13.437939,25.124637,29.184665,31.640973,31.68216,41.805832,43.811362,43.464015,43.796294,55.559624,56.692806,54.683942,50.300095,63.071747,64.479842,62.560886,-4.078274,314.935576,-72.849312,303.796543
27,38.122101,-14.007402,-0.2421,0.652208,-8.317337,-20.330086,-35.047874,-45.522881,-52.617416,-42.43578,-18.588409,-2.15332,-61.302567,-47.697544,-21.504936,-0.738258,-64.478817,-54.25478,-27.783966,-8.013153,-64.799938,-63.678188,-47.867603,-34.209251,-14.754829,-18.127389,-14.018579,-7.80871,8.43134,26.81067,30.981849,32.039448,27.138442,41.265269,45.315169,46.494108,40.628437,51.900295,51.38011,50.390065,50.347272,61.506992,58.391931,54.575261,24.323101,48.88401,72.083015,92.699661,48.984032,83.951683,101.962967,114.592552,41.392593,80.364876,100.279655,112.984657,34.421883,70.249329,89.704742,102.500267,28.70018,56.416855,72.233047,84.50592,-16.868051,-19.381478,-13.83166,-8.507169,13.612693,25.047943,28.776001,30.764241,31.513088,41.167456,42.918018,42.41642,43.340268,54.641149,55.864671,54.037786,49.750825,62.480178,63.973365,62.185691,33.955879,300.92677,-73.179359,304.447346
28,-45.382633,22.696981,1.160145,-0.577613,7.33057,12.877522,17.490177,22.612896,-7.21138,14.303226,31.497173,41.813335,-13.055763,10.067539,30.157986,46.023388,-15.083542,5.790539,24.846783,38.10545,-15.216866,0.741234,14.608898,24.222507,-23.985836,-36.919213,-37.965512,-32.36302,-11.228386,-4.108564,-1.649354,0.31715,7.412087,16.731768,19.021473,18.655849,22.54878,30.37793,29.14391,27.184631,33.239197,41.013265,37.829105,32.582358,24.252663,48.925209,72.010288,92.795391,48.448219,83.519039,101.489582,113.934689,40.817814,80.031681,99.990749,112.297955,33.826733,69.963856,89.194622,101.47562,28.163052,56.047783,71.865406,83.991108,-16.540959,-18.814363,-13.147774,-7.907881,13.805107,25.115745,28.909196,31.186119,32.039387,41.720863,43.551948,43.223312,44.106158,55.447671,56.543247,54.639667,50.533141,63.166411,64.582533,62.633628,-11.519651,323.615832,-72.112112,303.861813
29,23.604641,-17.758924,-0.182648,-0.498141,1.663284,-3.823929,-12.962265,-19.495125,-28.428497,-12.412033,6.294708,18.100777,-38.203526,-19.495697,1.67347,19.10305,-44.758015,-29.075203,-5.874939,11.726761,-49.673824,-44.336014,-29.089737,-15.961418,-21.257579,-26.848276,-25.216336,-19.816078,2.432657,18.610771,22.099361,22.476409,22.652768,36.855054,39.033856,38.619634,37.229879,48.141856,46.081739,44.867788,47.908193,59.199379,54.930758,50.064949,23.953857,48.421783,71.188717,91.616535,49.168682,83.592625,101.351795,113.584385,41.372337,79.929714,99.734058,112.41766,33.960857,69.514904,88.755054,101.328106,27.696476,55.218029,71.069584,83.300457,-16.600116,-19.240811,-13.643754,-8.575156,14.016109,25.38862,29.156198,31.386129,31.960469,41.372838,43.363548,43.375651,43.850388,54.624414,56.028434,54.721239,50.315224,62.670493,64.191221,62.493455,11.965771,305.846672,-72.413979,303.353438
30,-22.613297,13.394405,1.262398,-1.871037,3.889275,7.185631,13.729134,18.687286,-14.090939,10.654221,28.422775,38.771782,-21.497326,5.706024,28.177757,45.363693,-23.329525,1.516685,21.741257,36.610107,-22.119427,-6.573944,8.823166,21.001053,-20.70479,-29.971674,-23.161839,-13.509138,-11.276613,-2.885597,4.062189,9.21452,8.57071,17.755652,24.145399,25.463276,24.787974,31.986528,34.169837,32.072793,36.935268,43.238565,41.517519,36.713399,24.134789,48.455086,71.099339,91.943035,47.506084,82.379665,100.482731,112.978191,39.575329,78.846531,99.118137,111.798077,32.295971,68.668385,88.235607,100.722141,26.370735,53.972168,69.807415,81.877499,-15.883132,-17.517419,-11.677373,-7.019046,15.527203,26.79338,30.877861,33.579874,33.258957,42.695655,44.880446,45.322024,44.907246,55.795573,57.15507,55.842009,51.064812,63.664181,65.450003,63.835847,-10.81461,319.218817,-71.318665,301.460139
31,27.677078,-20.740296,-0.969372,-3.849644,-2.515068,-9.990234,-21.194916,-30.527573,-39.320698,-26.684818,-2.638206,13.82206,-47.437305,-29.721909,-4.22287,16.21994,-50.71352,-36.50465,-10.592194,8.613052,-50.985374,-51.350784,-37.88332,-24.725189,-10.935504,-9.127761,-0.985104,7.623644,12.074923,29.150702,33.840461,35.744535,27.40366,39.696623,45.679373,48.475247,37.236239,46.823114,50.082733,52.199599,44.170255,54.653437,57.047995,58.641402,23.801308,48.062382,70.588875,90.797768,48.837261,83.783112,101.847153,114.890671,41.002407,78.392487,98.76709,112.654037,33.453369,68.042107,88.418541,103.169632,26.758862,52.745018,68.480072,82.058258,-16.868237,-18.362905,-12.446166,-7.697868,14.252119,26.543044,31.160369,34.240789,31.834499,42.517135,45.849743,46.580621,43.83989,56.321686,59.965949,59.673128,50.566857,65.743379,69.590862,69.121188,16.714697,298.487551,-72.435808,297.619526
32,-9.640388,-5.140598,-1.659336,-8.377678,-9.406128,-21.392155,-34.897671,-49.508228,-43.926716,-23.027,-2.509003,12.393608,-43.012962,-15.149689,10.523415,31.151962,-38.68578,-13.531036,10.826912,30.669365,-33.291893,-24.713688,-12.581406,-0.35511,26.107951,44.01205,55.439643,66.142163,39.586213,55.57815,59.887032,63.913776,30.462404,42.967172,49.870929,54.055076,20.451736,33.901594,41.010548,45.436818,10.991512,25.566585,33.126317,39.983762,26.150551,49.98436,70.826511,89.163151,46.703224,80.627232,99.29163,113.944073,38.288841,73.379116,94.526081,111.221066,29.934883,61.047935,80.99184,96.769924,21.990051,45.879078,60.670052,74.062214,-17.337231,-18.564767,-13.841046,-11.13891,7.332429,22.986591,30.761709,36.472202,25.181386,41.632622,49.972015,55.005414,38.56233,56.300321,64.871772,69.15441,47.420426,64.542519,71.144255,72.389823,6.909742,293.323087,-74.25971,289.217981
33,34.013329,-20.486378,-0.664673,-9.228661,-12.949562,-34.650078,-55.46814,-70.55912,-42.645721,-63.03154,-61.563721,-54.931297,-46.784706,-68.656883,-62.793732,-50.992527,-49.318886,-69.720268,-64.46806,-53.884907,-50.377178,-70.162926,-66.964531,-58.727531,39.671984,63.236436,78.042208,82.894926,53.10486,65.329589,65.676071,61.305871,35.120609,45.383404,47.217144,40.810847,14.158937,22.07392,24.838547,21.520636,-7.672797,-3.346872,1.165971,2.629518,24.567776,50.398922,71.153927,89.005566,47.067833,76.166553,92.920933,106.517773,40.554714,72.333241,90.415478,102.942638,33.531704,60.08091,75.684872,85.152569,26.071987,44.067936,53.165016,56.586628,-20.676323,-21.092212,-14.667884,-11.736036,-1.472994,9.054092,16.306184,21.646236,16.284263,28.673804,35.147408,39.192184,30.958507,45.830909,50.55216,53.039158,42.159662,58.198281,61.323778,60.832677,40.876751,272.910484,-74.970703,280.063096
34,-5.187607,1.271811,-13.121881,-32.364595,-22.919884,-42.292442,-58.263073,-71.448212,-40.827255,-63.272324,-72.57597,-79.722805,-29.036179,-49.400253,-61.516628,-70.008659,-15.750389,-29.081726,-40.67688,-51.054039,-3.056831,-10.086365,-18.106155,-26.525574,-13.09331,-17.93022,-19.886473,-22.706244,3.232325,17.570215,23.109968,27.730196,15.804462,35.848893,45.658378,53.805295,25.403996,45.873702,58.957997,70.545029,31.409841,48.893482,60.169231,70.415539,26.092758,53.344831,73.448982,84.312973,56.039199,81.865224,85.629758,87.075977,48.497486,75.17292,79.421053,80.579481,39.873504,63.745479,67.642536,66.799249,30.393591,49.080963,52.160024,50.810995,-17.89351,-18.240516,-11.248579,-4.996442,-2.222644,8.382526,9.950708,10.90256,13.157345,22.006519,22.071604,22.743294,26.185293,34.681625,33.668887,33.591761,35.980761,44.275076,42.762438,41.12281,35.720186,274.181648,-88.061542,247.697853
35,67.229347,-64.649594,-13.121882,-32.364595,-41.35334,-73.13118,-89.82811,-98.584328,-88.380089,-120.526028,-128.928852,-129.146061,-77.858162,-110.132675,-121.129875,-122.537155,-63.437805,-91.637306,-102.477379,-105.85247,-47.051125,-68.275108,-78.423958,-84.697495,-9.508637,4.134808,20.284455,36.786017,20.371955,50.560867,65.938448,73.48262,36.201426,70.399669,84.106593,88.363111,48.504887,78.945802,90.678319,94.155052,56.568009,81.074586,91.360476,95.435447,27.617741,56.290741,75.744038,79.62038,65.010567,87.563896,78.338585,67.634182,56.440258,78.0126,68.426628,58.216324,46.215305,67.410049,59.600201,48.44593,34.715195,54.09399,51.155033,45.035362,-15.110696,-15.38882,-7.829273,1.743152,-2.972294,7.710959,3.595232,0.158884,10.030428,15.339235,8.9958,6.294405,21.412079,23.532341,16.785614,14.144364,29.80186,30.351871,24.201098,21.412943,102.893858,209.508249,-101.2391,215.309453
36,3.255043,-6.472308,-16.057892,-11.933699,-39.249115,-69.598846,-91.820526,-108.399353,-93.134193,-118.243389,-115.55151,-108.297615,-84.74556,-111.038704,-108.538628,-100.939407,-73.441429,-96.297569,-96.598663,-91.218567,-60.435104,-77.325325,-81.546249,-79.946365,-11.170279,-2.016521,10.960204,21.289875,29.369237,42.173432,39.713234,35.600965,39.970362,54.03828,49.355375,42.795753,45.565135,56.833721,53.103996,48.270729,47.619015,56.946353,54.220258,49.992825,25.777187,43.855362,53.608303,59.322968,37.81065,48.001957,49.382515,46.196823,28.260498,40.131283,41.819,37.28199,18.823071,31.124725,34.131432,31.585636,9.616871,19.314423,21.553116,19.42915,-3.53799,-15.742774,-28.106009,-36.810903,-49.626151,-72.785458,-64.372273,-54.664676,-53.262633,-76.289546,-67.186301,-58.08077,-51.76395,-69.184482,-59.745932,-50.770262,-45.941257,-59.574142,-53.691366,-46.707826,105.819111,203.595971,-117.626781,203.935784
37,18.114281,-33.451618,-26.792564,-42.175964,-22.408218,-50.756149,-76.383934,-93.217964,-48.426018,-92.823257,-102.037239,-98.938751,-51.119957,-97.237244,-105.783806,-101.874619,-53.819046,-96.913147,-103.588486,-97.7528,-54.785843,-88.98468,-97.209892,-95.593987,-25.334095,-31.196246,-22.442323,-12.566332,-39.394972,-38.46711,-26.99376,-19.017274,-24.571724,-24.193626,-13.864944,-8.19218,-8.423621,-9.553653,-3.623885,-0.140976,7.533612,6.386166,8.207618,9.627013,-2.898445,2.505398,15.097504,27.356987,-4.254055,21.386776,27.586098,23.960953,3.973389,35.661621,38.656254,33.195648,14.677334,45.17292,44.788914,39.208202,26.452332,49.658375,47.313881,40.665092,-34.041397,-63.851902,-82.475394,-87.727452,-54.139025,-86.487689,-82.796404,-75.845715,-36.486713,-67.232799,-61.440765,-54.296026,-19.662443,-48.117928,-42.03684,-34.728185,-5.171906,-27.081816,-25.53608,-20.422035,123.503408,170.612838,-144.849329,162.228305
38,19.35173,-27.821525,-9.066639,-32.238161,-13.18325,-40.195084,-73.337173,-92.822914,-24.355316,-65.199509,-71.106949,-64.058876,-28.05233,-70.624123,-75.996094,-65.543747,-33.694153,-72.791061,-72.263718,-58.671227,-38.696823,-67.437172,-64.959869,-54.39846,-31.919004,-51.973809,-48.754606,-33.514882,-65.892105,-89.373502,-70.654698,-58.485946,-47.216341,-65.324835,-50.384137,-41.933809,-27.679499,-40.605095,-30.411924,-24.85275,-9.523828,-20.299398,-15.143054,-11.039677,-14.537544,-18.477974,-15.760002,-11.15839,-11.88509,-10.06422,-7.844868,-7.79583,0.239353,4.124451,7.016659,7.218933,12.452087,20.078373,20.360756,18.452797,24.925861,34.217663,33.511219,29.776783,-30.331401,-60.267568,-81.031268,-92.598726,-73.804216,-101.111421,-99.338845,-92.890496,-64.193258,-88.954649,-83.023305,-74.3508,-52.928872,-71.961614,-65.272408,-57.07288,-39.69193,-54.557662,-51.285909,-45.781323,142.41766,143.346943,-154.353447,130.545774
39,16.961116,-26.616959,-21.273594,-34.333908,-3.421669,-19.588851,-42.084674,-57.165527,-9.039173,-30.889263,-34.6138,-29.518261,-14.361476,-44.963493,-50.886097,-44.769744,-21.53881,-51.039218,-52.20005,-43.41814,-28.257579,-50.862579,-50.304679,-42.965698,-30.671106,-52.781273,-58.58646,-55.381737,-70.635432,-97.641342,-94.74287,-92.419928,-58.989011,-82.949329,-74.022797,-66.442379,-43.839258,-59.713976,-49.857839,-42.778432,-27.339378,-38.270173,-32.223712,-26.274863,5.175419,8.374271,15.08543,19.307156,-18.743076,-21.404114,-21.295738,-25.796299,-17.396622,-13.640213,-5.897999,-5.23304,-10.584583,7.720127,21.238289,24.139366,1.368427,17.787666,26.56826,28.184166,-33.876091,-58.197664,-73.081551,-82.479346,-61.079,-86.234821,-100.850588,-111.257909,-50.637314,-75.331612,-83.235171,-87.048969,-40.706366,-60.953369,-60.635045,-58.093676,-30.816265,-45.516013,-46.165256,-44.27449,159.628572,116.088521,-175.377245,95.570403
40,16.961117,-26.61696,-14.64901,-0.626118,6.339912,1.01738,-10.832176,-21.508141,6.27697,3.420982,1.879349,5.022354,-0.670624,-19.302864,-25.7761,-23.995743,-9.383469,-29.287376,-32.136383,-28.165054,-17.818336,-34.287987,-35.64949,-31.532936,-29.423207,-53.588737,-68.418314,-77.248592,-75.378759,-105.909181,-118.831042,-126.353909,-70.76168,-100.573822,-97.661457,-90.950947,-59.999016,-78.822857,-69.303753,-60.704113,-45.154927,-56.240948,-49.304369,-41.510047,4.237289,8.057442,16.412487,23.637257,-23.445854,-24.935131,-26.087608,-27.861786,-21.699371,-27.242546,-32.3592,-38.044739,-12.315216,-0.841713,9.739151,16.378956,1.171303,9.613152,15.134525,16.979027,-35.487715,-61.237853,-80.344573,-93.66003,-59.590537,-83.776012,-102.334543,-114.347591,-51.401444,-80.375911,-102.516706,-118.508921,-42.811067,-75.130183,-91.971033,-99.619748,-35.829997,-62.762285,-72.971018,-76.35142,172.314863,89.175808,-194.301081,94.648531
41,13.487206,0.214984,-24.978733,-38.356608,-11.480026,-19.008064,-26.951408,-31.907845,4.492836,6.714478,6.095352,6.342316,6.063538,15.387611,22.698898,31.225777,2.326355,7.821922,11.837082,16.137886,-6.586304,-8.476181,-10.905762,-12.558403,-36.397267,-59.619868,-75.871218,-85.309398,-71.218911,-101.323009,-116.315855,-126.014745,-64.66923,-100.207117,-120.002169,-135.938376,-56.984824,-90.145444,-108.351842,-122.700817,-50.521964,-75.715453,-84.537734,-88.663989,-0.278835,2.586594,9.509468,13.079109,-31.033459,-36.341171,-36.585617,-40.139236,-27.893257,-33.501263,-30.30962,-31.296329,-17.271938,4.865627,18.019066,19.703121,0.548115,20.759811,25.890713,23.548965,-40.638286,-69.093462,-86.356284,-96.677001,-62.098592,-90.709287,-104.424177,-112.121551,-51.551313,-80.30743,-96.609446,-106.837722,-41.689556,-66.721938,-70.710119,-71.676266,-33.411851,-52.616106,-55.617207,-54.359011,185.956564,88.60474,-219.125319,55.505871
42,21.779709,-17.594113,-11.375713,0.959972,-3.494453,-4.699287,-11.175499,-19.835358,24.299355,30.329247,34.813614,40.542526,21.242409,29.888077,34.626503,40.788345,10.393295,12.10968,13.378487,17.926369,-5.308571,-13.066406,-18.15731,-17.880249,-34.438791,-64.094643,-81.562229,-92.204573,-74.890406,-109.977021,-128.527956,-142.242414,-70.376049,-107.643905,-126.916394,-140.383757,-63.976545,-97.928682,-113.74889,-126.357089,-56.525957,-81.025402,-85.340737,-86.995524,-0.262299,-0.254631,5.964947,13.894272,-34.514694,-35.716152,-36.755848,-38.152485,-30.244732,-34.419594,-40.404854,-46.628551,-18.088188,-3.061466,9.66671,15.534725,-1.706657,7.399349,13.561249,16.343021,-36.28059,-61.811885,-80.907304,-93.505376,-63.203337,-91.021528,-109.599726,-123.580142,-54.82816,-86.666518,-108.511405,-124.388363,-46.075132,-81.422673,-88.565498,-87.850088,-39.682173,-68.853408,-77.120151,-79.15174,207.485876,71.402063,-230.751429,56.857278
43,7.039261,-6.847966,-10.740967,-4.7466,3.046188,0.758629,-5.174103,-13.722153,26.998215,34.926682,41.647797,49.182358,24.170151,34.320831,42.95002,53.99826,14.396553,16.856346,20.944061,27.509422,-0.538788,-7.5634,-13.224564,-16.576881,-32.488065,-59.651083,-78.750517,-90.941746,-74.657452,-105.909521,-124.501706,-140.483762,-72.013145,-108.612954,-129.261427,-146.597053,-67.133936,-101.278641,-122.590932,-139.353884,-60.269483,-85.518825,-90.542406,-89.231692,0.821114,-0.669937,2.425518,6.821594,-34.462852,-40.853348,-44.700737,-48.679962,-30.333881,-36.461506,-43.469467,-51.08654,-18.255901,-8.136749,3.337269,9.27372,-2.567024,2.569885,8.53672,12.59491,-35.795201,-60.423025,-79.523693,-93.286625,-62.211379,-89.384154,-108.850199,-124.82182,-55.145001,-86.601834,-110.388433,-127.416294,-48.615358,-84.537395,-93.151515,-92.23656,-43.784871,-73.368783,-82.457919,-83.144676,214.570799,65.093224,-241.446733,52.649806
44,2.130089,-8.197522,-6.079445,-7.566803,5.260735,4.32518,-1.891937,-11.063118,30.159416,40.415726,49.034843,58.103828,26.922684,37.507668,46.09417,57.416382,17.594261,20.186577,24.720039,32.104454,2.613831,-4.457359,-9.841919,-13.078423,-30.828646,-58.622105,-77.497446,-90.534132,-72.485381,-105.091513,-124.107275,-140.603187,-69.799022,-106.306051,-127.962137,-146.757048,-65.336567,-99.597085,-120.878315,-137.305653,-58.272752,-83.700152,-89.462484,-88.84217,-4.724236,-8.241062,-5.455284,0.418739,-36.414471,-45.492039,-50.488243,-55.454807,-30.365868,-37.70462,-45.343094,-53.229446,-17.184734,-9.271603,1.715584,7.159481,-1.625748,1.895828,7.446899,10.973511,-30.218212,-54.211582,-72.89383,-85.54794,-56.173609,-85.130415,-105.648595,-122.283415,-50.507206,-84.791343,-109.820823,-127.528587,-45.956571,-83.74594,-89.266828,-85.878922,-42.66373,-73.562587,-81.856099,-81.53617,217.002926,58.070659,-247.22414,46.257959
45,-1.093369,-7.064155,-2.064743,-6.333555,7.669945,5.75901,-3.699074,-13.925858,30.942993,41.573067,50.250778,59.08493,24.860687,36.887512,45.669708,57.060699,13.209,17.14325,20.743675,28.108749,-2.908287,-7.468185,-11.858253,-13.175697,-31.865189,-59.51304,-77.150625,-88.322139,-67.226994,-103.648808,-123.262282,-138.294061,-63.507582,-102.056789,-123.564674,-139.442681,-59.402353,-96.48789,-120.175564,-137.184931,-54.252831,-81.748653,-85.745572,-83.200961,-0.1898,-4.893093,-4.526539,0.621872,-36.326981,-44.434776,-49.353447,-54.618816,-30.955067,-41.051617,-49.701977,-58.272343,-18.021297,-8.63657,3.895397,10.065136,-2.217293,3.366451,10.008087,14.03801,-30.442428,-55.746265,-74.984791,-89.228882,-55.640764,-84.872607,-106.001066,-122.411886,-48.42881,-82.298757,-106.708448,-123.630315,-42.907984,-80.791584,-88.053834,-86.050002,-38.983869,-70.897315,-81.407513,-83.620432,216.221838,52.271106,-248.976603,41.189007
46,-13.603821,-1.802062,7.119198,-5.541266,1.896172,4.46949,-2.411613,-8.415527,32.894096,43.496132,52.821465,62.089005,27.440529,39.312973,48.894653,58.542709,16.399269,20.111275,22.475052,27.604408,-0.02243,-5.850449,-9.869728,-11.332169,-28.961314,-56.698673,-75.092577,-88.804502,-69.931662,-101.908372,-121.259994,-137.159799,-67.193093,-102.639435,-123.806118,-140.592227,-62.495091,-97.388427,-119.706107,-136.163919,-55.607605,-79.753683,-85.528334,-86.338469,-2.898102,-6.579494,-4.123821,2.634602,-35.550613,-45.443459,-52.214069,-59.680424,-28.560047,-42.357731,-51.202011,-59.11417,-14.86845,-6.030121,7.209091,13.675175,0.861454,6.163445,12.650528,15.936699,-28.294625,-53.078925,-71.340467,-84.58698,-52.444131,-83.386336,-103.421535,-118.903197,-46.606309,-81.559481,-105.148571,-121.291363,-41.625057,-79.944121,-91.264485,-94.564982,-37.137964,-68.013756,-75.974928,-77.095605,202.615814,50.957166,-241.859608,36.135863
47,-16.934166,-4.216596,15.046806,-5.581218,5.413971,7.952499,-1.278191,-9.073792,34.677658,43.410645,52.600708,63.11554,27.652817,39.271317,48.772316,59.203606,14.598999,18.143692,20.392799,26.096649,-2.760429,-7.149582,-10.24395,-10.393524,-30.718051,-58.382298,-75.403799,-86.272489,-66.432143,-101.180242,-120.537792,-135.87678,-64.259918,-101.469913,-123.389519,-140.126351,-60.652335,-96.677865,-119.15307,-134.90983,-55.392713,-80.040977,-83.072953,-81.340699,-15.437794,-17.887688,-9.234581,0.194492,-39.324703,-47.544365,-54.043751,-60.594234,-28.016167,-40.213051,-47.691193,-54.010963,-11.453075,-2.561302,6.749439,10.929966,5.914421,8.727093,10.872917,11.543198,-24.734745,-49.208595,-68.151552,-80.975322,-45.529351,-79.586061,-99.825006,-115.116477,-42.857441,-79.055625,-101.436815,-117.518691,-40.501169,-76.670207,-83.262557,-84.251089,-37.682757,-66.226421,-72.993927,-74.273025,185.068789,48.125307,-227.425661,31.939382
48,-18.834915,-0.26494,17.449093,-4.595744,13.732452,17.471123,7.535934,-1.927414,31.283455,41.896362,50.280876,59.301682,20.738297,33.981171,42.422104,51.430779,5.824585,9.529152,10.163155,14.202805,-11.235695,-14.313583,-14.756126,-12.079239,-24.099642,-50.188913,-65.930143,-74.399274,-64.238089,-100.71733,-120.295082,-135.35539,-65.02198,-103.8729,-126.350914,-143.383129,-62.244878,-96.730291,-118.008897,-133.308858,-56.41002,-78.998105,-82.636408,-81.599495,-18.409195,-19.12262,-8.348007,3.385792,-36.618233,-44.743423,-49.565105,-55.12104,-24.777431,-36.375961,-42.234707,-47.601929,-7.636757,1.502609,9.42215,12.675934,10.951195,12.298279,12.189617,11.515846,-22.053758,-45.727971,-62.983074,-72.204911,-44.444242,-79.337331,-98.863336,-114.13131,-42.421082,-79.162886,-100.339449,-115.803789,-39.265451,-74.117877,-83.831464,-89.594506,-34.849926,-60.734803,-67.373003,-69.719148,166.399212,48.335938,-209.81123,27.819209
49,-21.961899,-1.966689,20.794487,-6.964798,8.607101,11.873474,2.45945,-6.806602,28.530464,37.854881,44.312553,51.813354,18.452454,29.796982,35.881004,43.135757,4.260979,7.989464,8.269501,12.144127,-12.30011,-16.778984,-17.256317,-14.24778,-21.529466,-45.304394,-60.208875,-70.131548,-67.372663,-99.048278,-117.661983,-132.952095,-69.303661,-103.716826,-123.596383,-139.688633,-65.832022,-96.071723,-114.643901,-129.863185,-57.91318,-74.572545,-76.658876,-76.554548,-17.926025,-22.846184,-18.66045,-8.975544,-32.408638,-42.039814,-44.689579,-48.467445,-21.673908,-29.767685,-34.328671,-39.855366,-5.979195,4.706211,12.221832,15.00515,11.629944,11.918049,11.941967,12.318077,-15.602878,-33.833884,-48.85214,-57.857573,-44.11999,-76.227549,-93.717612,-108.318158,-44.013563,-77.691312,-96.222085,-110.536479,-41.489639,-66.135772,-66.776216,-66.940966,-36.593479,-61.465588,-76.513268,-87.729181,144.068127,46.333696,-189.385929,20.818858
50,-17.279205,3.71367,29.051371,-3.644525,20.400696,22.380638,8.830833,-2.997665,22.626343,30.306129,37.055283,43.524742,6.689758,16.015549,22.7005,28.961678,-10.100327,-7.318611,-8.503189,-7.176018,-26.830788,-28.651314,-26.855621,-22.860603,-24.445043,-48.357334,-61.601964,-66.38194,-67.275005,-103.58082,-123.398689,-137.931648,-68.648921,-107.913507,-129.870873,-146.757727,-65.030007,-99.796354,-120.785319,-137.618265,-57.523782,-81.48995,-84.049134,-82.88659,-12.316504,-14.69862,-8.561697,-0.895357,-29.362078,-38.246441,-39.725161,-42.247782,-20.45414,-28.583536,-30.66905,-34.135008,-6.292935,-0.177183,5.232096,6.597318,11.10549,9.913044,8.319883,7.05142,-23.79373,-46.469284,-60.41509,-67.378607,-48.595644,-76.415795,-90.7156,-101.696244,-45.155359,-73.672518,-90.80889,-102.899898,-40.673792,-65.245948,-71.440935,-75.321037,-35.273518,-53.538626,-59.481887,-62.603509,128.322401,52.37971,-158.801079,19.506677
51,-24.439659,2.39641,29.05137,-3.644525,21.555061,24.29615,11.906548,-0.792618,22.255669,29.206467,35.463982,40.868225,4.271049,9.233665,14.522896,18.407135,-12.784996,-13.928032,-15.906029,-16.919289,-28.57132,-29.801674,-26.114845,-22.401924,-27.536207,-50.954093,-64.667038,-69.433275,-69.640633,-106.438815,-127.205478,-142.510503,-70.255975,-109.562614,-131.78563,-148.014194,-65.723835,-101.084436,-122.048701,-138.683151,-57.937478,-81.499213,-84.612144,-84.239634,-6.706982,-6.551056,1.537056,7.18483,-26.315517,-34.453068,-34.760742,-36.028118,-19.234371,-27.399387,-27.00943,-28.41465,-6.606674,-5.060577,-1.757641,-1.810513,10.581036,7.908039,4.6978,1.784763,-31.984583,-59.104685,-71.97804,-76.899641,-53.071299,-76.604041,-87.713589,-95.074331,-46.297155,-69.653724,-85.395694,-95.263318,-39.857946,-64.356125,-76.105654,-83.701109,-33.953557,-45.611664,-42.450506,-37.477838,104.066763,56.410792,-129.565687,17.496825
52,-21.570511,1.29679,16.049252,-3.081099,20.064812,21.399536,8.769836,-4.066887,20.762558,28.120422,34.22493,38.857613,2.803459,6.483765,11.121483,13.853416,-13.67878,-16.528244,-19.907799,-22.462006,-28.776169,-29.00528,-24.462662,-20.672836,-28.760718,-52.965212,-67.559366,-73.0106,-71.155648,-107.6695,-127.906407,-143.455717,-71.340097,-110.935943,-132.682462,-148.082274,-66.865878,-102.607726,-124.067106,-140.76309,-58.504687,-81.61765,-80.479682,-75.637771,-18.20343,-22.071476,-16.505527,-10.578003,-23.328552,-32.917385,-36.924076,-40.820503,-10.953541,-17.67025,-21.551628,-24.814281,3.64603,0.199986,0.002632,0.948086,18.400955,19.114208,20.310745,22.39603,-11.630844,-28.713262,-42.773152,-50.777024,-39.544439,-68.15041,-83.636271,-97.530453,-42.197607,-69.96896,-86.435726,-100.104674,-41.868107,-66.995986,-72.293091,-75.506922,-38.9458,-61.052138,-75.098721,-86.315992,83.819933,59.553178,-112.192755,16.261323
53,-18.34156,2.415892,21.665697,5.305209,17.850609,17.432327,3.787422,-10.322456,18.857002,24.63089,30.004578,34.758682,0.30407,1.965408,5.572243,7.1101,-16.006851,-17.838707,-19.2239,-20.847931,-29.720879,-28.414764,-22.883835,-18.787079,-29.959756,-56.12214,-72.310751,-79.261779,-72.475347,-108.489422,-129.168833,-145.186087,-72.29695,-110.982966,-133.133919,-148.671897,-67.975872,-103.392636,-125.095343,-140.869486,-60.593858,-85.086726,-88.15143,-86.342853,-15.027208,-15.621757,-5.905352,1.649895,-22.091904,-28.412504,-31.025848,-34.03696,-8.62072,-11.447468,-12.15889,-13.056221,7.259216,8.21537,7.42095,6.563501,23.588419,25.753899,24.255266,23.693676,-18.251553,-39.20969,-53.481769,-59.518999,-48.258765,-79.279316,-94.414095,-105.167528,-48.095697,-80.242777,-95.851027,-105.680782,-44.984665,-74.604671,-82.411065,-86.002531,-39.585734,-64.020619,-73.021066,-78.338903,68.789377,63.597012,-87.216053,23.194473
54,-31.316643,-65.86478,21.665697,5.30521,-34.973831,-62.064342,-84.216156,-94.63829,-37.974129,-52.024727,-56.605968,-60.112152,-16.258965,-19.264984,-18.15239,-16.946297,5.464783,9.662018,11.772079,13.066406,26.507378,35.429993,41.590462,44.124298,-19.591337,-36.623675,-50.830994,-59.7141,-38.759622,-50.792616,-63.260364,-74.114851,-38.529571,-56.723002,-67.008367,-74.470812,-36.991955,-59.107772,-70.621507,-81.36824,-35.422784,-55.627149,-66.699522,-78.816157,-11.850986,-9.172039,4.694824,13.877792,-20.855255,-23.907623,-25.127621,-27.253418,-6.287899,-5.224686,-2.766151,-1.298161,10.872402,16.230755,14.839268,12.178917,28.775883,32.393589,28.199787,24.991322,-24.872263,-49.706118,-64.190387,-68.260974,-56.973091,-90.408222,-105.191919,-112.804603,-53.993788,-90.516594,-105.266329,-111.256891,-48.101224,-82.213356,-92.52904,-96.498141,-40.22567,-66.989101,-70.943412,-70.361816,38.884649,-2.261115,-64.138441,28.506337
55,-7.745819,29.50268,3.469849,7.588879,-26.238441,-39.078884,-42.500095,-43.551636,-40.581322,-56.24897,-64.312763,-71.209717,-24.465408,-29.870796,-31.866875,-31.326256,-3.571701,-0.772934,0.355568,1.817207,18.681335,26.54892,32.311592,38.047714,-30.097367,-59.034413,-84.063954,-102.60538,-58.789665,-86.354092,-104.148307,-116.03063,-54.263576,-85.666069,-106.258997,-118.985603,-50.235998,-82.597691,-101.691042,-114.379547,-46.865877,-74.787962,-92.953111,-110.098823,-15.451183,-11.594296,4.013786,14.000015,-13.56142,-18.35495,-21.215801,-24.857197,4.351215,6.371155,5.773659,4.472179,22.578278,30.6007,32.92345,33.99456,38.489056,40.614796,35.831394,32.309132,-22.325645,-48.187027,-65.172774,-72.320693,-53.021003,-89.51457,-109.179174,-125.3249,-49.31956,-88.672233,-111.336826,-127.156047,-43.052789,-82.148426,-105.313105,-121.433358,-36.238445,-66.020237,-72.536171,-73.425933,31.987896,25.54349,-59.819527,34.397141
56,-6.006546,8.038854,59.64941,-34.941656,-24.522171,-32.734737,-33.580112,-34.476128,-30.315971,-42.471542,-50.035,-53.417702,-15.693283,-19.488602,-22.398949,-21.782913,1.959915,3.213043,1.423302,0.639267,19.816132,27.168961,29.870224,33.045158,-19.296633,-43.283149,-64.189677,-80.753638,-51.82252,-87.328729,-107.783028,-123.4379,-53.068891,-90.547315,-111.858062,-127.095315,-52.938505,-89.035789,-108.160725,-123.121182,-50.852483,-80.700409,-98.785129,-115.804036,-31.374607,-53.080959,-66.870575,-70.005569,-37.581196,-44.389286,-39.49419,-35.651836,-12.928276,-13.375225,-11.052876,-8.564472,13.882484,19.497757,22.867012,24.063606,41.314087,54.716034,59.573593,59.153824,-27.693732,-52.243936,-74.955676,-91.68766,-42.54872,-72.138776,-86.827316,-93.901628,-38.457292,-65.63865,-82.977178,-88.128829,-33.166332,-62.183437,-80.160001,-89.460817,-26.762752,-51.292794,-68.747814,-80.678673,27.078753,32.178448,0.927286,-1.948411
57,1.957741,8.051605,7.853737,-14.879441,16.710777,17.731476,7.993355,-0.818481,19.27803,26.983452,31.906242,36.517181,1.44619,2.113152,2.24659,2.50145,-14.775467,-17.284927,-17.660751,-17.552032,-28.621445,-31.777725,-29.347687,-27.28054,-21.946652,-43.620368,-58.836379,-68.953536,-54.81581,-91.31407,-110.261073,-125.244594,-56.248574,-95.969248,-117.275086,-132.450836,-53.484193,-88.605141,-109.366865,-124.942017,-47.990074,-73.265721,-82.797145,-88.990958,-29.871998,-51.096153,-62.405148,-65.24929,-37.389908,-45.553894,-46.706371,-49.681835,-14.521122,-14.712009,-14.882641,-16.773491,7.218246,11.701584,15.152893,15.634003,26.82518,36.46328,43.834534,46.272812,-16.256753,-34.232452,-52.673009,-65.552138,-9.623277,-31.541339,-51.186244,-68.52718,-7.162739,-30.344708,-55.038358,-73.820024,-9.191333,-34.422335,-58.692285,-77.557993,-14.398097,-36.49931,-56.253298,-73.497131,29.313383,39.325534,9.057913,-17.732372
58,3.400841,3.9377,-14.158344,5.978829,13.544998,12.655106,2.555695,-6.646614,12.766914,20.715866,26.434822,32.09198,-2.05616,-0.466461,1.007423,2.662239,-15.957298,-19.887314,-19.646645,-18.115311,-27.902641,-32.699661,-30.28553,-26.870956,-24.187822,-45.713583,-62.398236,-71.738109,-58.372634,-92.887532,-113.279371,-130.545095,-57.607855,-95.874523,-120.778217,-139.096755,-53.988416,-89.540104,-112.844586,-130.10784,-48.243806,-75.7157,-87.773363,-95.117988,-30.703526,-51.759281,-64.272308,-67.593727,-36.578465,-49.611969,-48.489418,-45.996552,-10.353985,-14.096317,-12.546501,-10.2075,17.187023,22.129269,26.837711,30.246563,44.57468,57.939663,65.857143,69.02338,-27.321377,-49.24441,-69.594104,-87.251634,-31.008865,-52.047045,-69.992764,-83.8239,-27.000429,-43.378584,-65.914242,-81.454814,-23.635835,-43.901672,-67.115103,-85.122974,-20.90378,-41.046765,-59.73562,-75.7471,32.870922,42.899771,-4.943733,-12.117005
59,-19.127541,-47.885252,-7.381439,-1.796813,-31.068592,-49.999695,-62.679749,-68.072491,-39.773369,-49.503593,-48.89019,-48.702164,-17.263756,-23.496838,-21.081791,-18.769913,5.999565,6.941528,10.089226,11.887436,28.014908,37.389336,42.964211,44.344597,-22.450783,-43.9503,-65.258453,-77.031725,-45.722846,-68.141796,-80.183064,-90.302073,-43.714352,-67.162619,-80.762314,-88.314112,-38.370687,-62.14651,-78.630134,-91.611398,-30.703447,-51.726962,-67.346018,-83.492362,-11.120167,-17.967796,-19.494381,-20.091076,-8.541698,-3.685741,-0.236835,-0.087147,2.405491,11.139278,13.323727,12.72234,12.07655,23.397503,29.423618,31.901379,20.28677,35.557766,44.805508,49.445171,-21.782921,-42.505742,-62.738264,-75.703319,-22.589134,-44.971683,-61.264158,-73.998606,-17.24902,-41.673902,-65.387511,-81.832727,-15.603032,-43.464787,-68.128056,-84.998331,-16.494647,-41.674458,-64.431399,-82.37471,13.484945,-5.622576,-12.583609,-14.550913
60,4.812469,-6.905518,5.723305,24.571817,-25.305004,-42.230644,-53.790951,-62.000999,-32.356052,-47.422943,-54.142628,-56.954842,-13.518791,-18.517685,-22.647629,-22.445984,6.856041,8.450432,7.277069,8.804054,26.25206,34.219093,39.100342,44.331779,-14.532867,-34.199786,-50.57087,-62.122582,-30.409484,-50.374411,-68.145995,-84.895454,-29.119426,-47.959353,-66.833397,-84.296815,-27.522776,-47.466276,-66.00023,-83.439256,-25.616757,-43.15866,-58.35982,-76.195995,-35.741901,-53.917923,-63.560543,-69.988174,-28.851013,-31.932106,-31.440411,-30.367184,-0.303669,1.913681,-0.949059,-2.003345,26.034565,31.262798,29.2309,27.292385,48.44862,62.53973,66.84557,67.42384,-23.150723,-52.656491,-84.756238,-109.483419,-69.484404,-104.69489,-105.744987,-98.516113,-70.071187,-102.481941,-104.230033,-94.649272,-62.844598,-94.184198,-100.164417,-96.779414,-50.536846,-77.556449,-91.127399,-97.640153,18.1287,-12.875424,-7.029018,9.673573
61,-0.222473,0.260556,-4.455242,-5.681223,-4.334106,-10.770149,-18.766708,-22.250061,-2.064629,-1.847076,-0.454674,0.514297,-4.409409,-2.833786,-3.18409,-1.66317,-6.786804,-4.242668,-2.732277,-1.664886,-9.477081,-4.166336,-1.130791,1.441956,-13.145767,-30.111261,-44.031286,-54.239154,-28.250011,-49.257377,-64.368444,-77.275515,-26.390027,-50.479233,-68.694678,-83.490602,-22.429417,-46.026627,-62.542114,-76.155023,-17.276685,-34.822107,-44.295608,-52.660196,-23.42926,-36.29528,-43.502083,-46.883011,-25.375671,-30.885544,-28.043575,-27.89938,-5.908928,-4.322662,-0.11776,1.601772,15.817337,23.14064,28.307533,29.514999,36.461906,52.833939,61.063728,62.865829,-22.662772,-45.925171,-68.305373,-82.138268,-28.465798,-62.506515,-80.54276,-95.026042,-25.319336,-62.87535,-87.57428,-100.667992,-25.45704,-61.073998,-86.477253,-102.80681,-25.689993,-56.361886,-77.522054,-95.596245,17.846346,-13.076591,-11.544142,3.530626
62,-3.049507,10.041481,2.092896,5.67548,-31.416435,-52.503948,-67.674408,-74.052773,-41.386871,-53.287239,-55.404797,-58.396454,-17.954636,-25.600204,-25.000648,-24.404068,5.880775,6.265182,8.515663,9.194298,28.329391,36.637917,41.930351,43.105202,-23.868634,-45.022658,-66.214349,-77.839204,-39.573709,-61.680449,-77.07143,-91.479839,-38.160859,-61.887714,-80.073087,-93.387248,-34.516319,-58.50796,-78.409562,-95.812958,-28.465211,-51.14799,-67.629175,-85.506938,-35.297527,-51.823769,-61.371231,-68.931942,-26.827011,-26.904373,-26.454163,-25.473404,0.962963,4.638405,0.428581,-0.999584,27.565727,33.398323,27.635651,23.746376,52.07428,63.936882,60.647278,55.069656,-24.192453,-54.30041,-85.708831,-108.031759,-74.8461,-109.974983,-106.05448,-95.555768,-78.296713,-110.211888,-102.503368,-86.249054,-72.949034,-103.688729,-98.195567,-86.443692,-61.367251,-89.585923,-92.413752,-87.094942,15.056734,-3.231708,-9.191351,9.009509
63,5.001068,-9.977909,1.820469,-15.598216,-27.248211,-45.532207,-57.168503,-65.170727,-36.573544,-51.433239,-58.567371,-61.52092,-16.977539,-22.059059,-26.214123,-26.195011,3.967209,5.016403,4.523163,6.395073,23.737907,31.166153,36.477699,41.361465,-11.853763,-29.573476,-44.448811,-53.958869,-25.613361,-46.710173,-65.572021,-82.969089,-25.862709,-45.760266,-64.659474,-81.448979,-25.653406,-46.58167,-65.127357,-82.303296,-24.604205,-42.753145,-57.927104,-75.243186,-28.378086,-44.707203,-54.575214,-58.149719,-30.702152,-37.620163,-36.045799,-35.836601,-8.272018,-8.783112,-5.37077,-3.316898,15.20422,20.848217,25.793209,27.704716,36.826344,51.354961,58.849354,60.185566,-21.990927,-41.49004,-61.450953,-74.808247,-17.549467,-48.531007,-67.037112,-82.692725,-13.980509,-47.298253,-73.471165,-89.063422,-14.696845,-47.654769,-73.784795,-91.112486,-15.805728,-44.621897,-66.247509,-84.537827,20.382242,-13.548751,-7.046442,-6.92784
64,-0.93132,13.689758,-5.799122,12.027375,-34.430637,-58.838139,-77.882252,-88.716202,-44.847736,-58.726501,-63.927441,-69.416714,-21.481705,-29.725056,-31.680851,-33.006535,2.485428,2.60994,2.590485,2.041168,25.451889,33.535423,37.89093,38.892517,-21.828493,-41.184159,-61.802035,-73.788006,-36.875555,-62.322807,-78.968742,-93.14852,-37.253962,-64.272237,-83.769065,-96.171172,-35.648111,-61.982748,-81.95138,-98.242405,-31.570639,-55.994656,-72.96898,-90.08533,-30.964222,-45.063171,-54.729767,-61.639538,-21.140213,-22.697811,-20.451221,-18.901405,4.049778,7.525749,6.641064,7.031536,28.629799,35.66288,32.136841,28.174782,50.646057,63.60157,65.253296,62.953606,-26.205208,-53.996752,-80.784174,-99.257952,-71.838855,-97.401364,-99.675446,-94.930699,-71.962849,-94.78787,-94.309089,-85.355032,-63.804478,-88.682792,-89.362572,-84.109588,-50.067265,-75.441528,-84.839045,-87.867316,19.687099,-0.089229,-12.609386,4.869298
65,2.67025,-8.553266,6.894264,-6.690997,-30.671825,-50.443897,-62.43576,-70.845165,-39.962311,-57.962036,-67.055283,-71.752968,-20.914078,-27.59285,-32.495384,-32.979641,0.635033,0.714912,-0.401802,1.38588,21.715965,28.128891,33.070564,38.22567,-11.972911,-29.73128,-45.515457,-57.52125,-25.266293,-49.619513,-70.071033,-88.970271,-26.585992,-48.461538,-68.88138,-87.669931,-27.460995,-50.070044,-69.386036,-88.041329,-27.800252,-47.548774,-63.578471,-81.517244,-27.592678,-43.592606,-54.108639,-58.613434,-30.015907,-37.879887,-36.922302,-38.148022,-9.815254,-11.100712,-8.814125,-9.170609,11.098022,16.454201,20.22789,19.138298,29.793663,43.617783,51.139755,51.758308,-18.712505,-38.982109,-58.712384,-72.169991,-17.126384,-49.74746,-69.047613,-85.274509,-14.408779,-50.575656,-77.262609,-92.728834,-16.434687,-51.527168,-79.210773,-97.796227,-18.39869,-48.718235,-71.314254,-90.407327,22.470274,-8.971084,-5.602198,-2.150288
66,-6.221581,2.672311,-12.381134,4.957694,-34.036331,-57.431145,-76.32288,-87.215023,-43.69978,-57.94035,-63.461666,-69.162025,-20.185032,-29.590988,-31.7486,-32.562561,4.083138,4.180412,4.712791,4.904366,27.472229,35.701904,40.854149,42.942238,-20.460443,-38.041804,-56.453585,-67.726339,-34.676747,-55.585961,-70.752418,-85.288897,-35.494106,-56.632661,-74.661003,-87.946542,-33.683182,-55.697266,-74.901212,-92.132479,-29.525095,-52.081285,-67.722294,-84.415221,29.498291,39.331741,42.161636,35.610352,27.8825,23.103218,21.888885,22.329712,8.558865,3.497944,4.543247,9.815483,-7.510929,-10.987873,-9.252892,-3.970585,-19.332447,-28.937931,-32.130432,-31.868706,-28.837844,-53.603649,-75.403335,-88.807775,-67.779197,-92.941533,-96.538803,-94.015465,-64.157042,-91.63014,-94.702562,-90.009624,-55.235003,-84.505995,-91.210793,-91.78362,-42.851945,-66.991139,-79.090483,-87.440745,16.404648,-6.938956,-17.827377,2.167223
67,2.471466,-3.953508,16.057663,-20.823999,-30.694771,-50.515079,-63.327541,-73.056965,-38.564701,-54.374199,-60.413132,-62.394333,-18.692436,-24.120598,-28.020401,-27.892284,2.970886,2.84111,2.144394,4.331932,23.908195,30.441284,35.375175,40.204239,-13.998294,-33.646873,-52.034016,-64.98107,-25.838781,-48.961624,-68.102615,-85.757336,-25.850513,-46.944948,-67.197076,-83.939959,-26.751174,-48.99043,-68.914942,-85.962841,-27.965125,-47.7155,-64.676424,-82.935249,-5.856972,-13.513012,-18.879719,-23.541813,-11.801434,-16.421299,-14.686546,-14.303627,-8.579521,-11.318092,-10.483875,-9.765759,-2.267075,-5.191841,-4.481735,-5.383759,5.431137,8.197632,9.759178,8.254967,-13.320706,-27.440679,-44.501484,-56.688638,-13.421792,-33.183467,-47.590703,-62.733324,-11.477179,-33.107576,-55.540852,-74.503138,-13.32753,-36.518113,-60.734556,-80.673857,-14.308342,-36.531297,-58.515339,-81.47408,18.91614,-11.299353,-1.729689,-19.063664
68,-0.158043,0.663601,-6.1203,20.780774,-25.216312,-39.585514,-45.828323,-48.102722,-37.193069,-52.794571,-59.571648,-60.327358,-19.508743,-23.993282,-25.491543,-22.794743,0.950546,2.534409,3.658447,6.513748,20.815773,29.187355,35.092163,40.562553,-13.318514,-34.252151,-51.621955,-65.076073,-29.70414,-51.898257,-73.123973,-91.524608,-28.985921,-52.709442,-71.205141,-84.86742,-28.244299,-51.750859,-71.013468,-87.443987,-26.979897,-47.066473,-63.13745,-80.918049,-31.713982,-47.770729,-58.277264,-64.462967,-29.307747,-28.119793,-24.361897,-22.126293,-4.905052,1.257534,2.129059,3.180714,20.234528,29.539375,28.461914,25.969963,44.32457,55.303802,56.085091,53.092804,-27.402455,-55.230773,-81.77286,-98.055239,-65.100403,-94.75224,-99.728521,-97.349586,-64.217557,-90.031761,-93.412287,-86.951064,-57.103045,-84.272393,-89.60275,-87.81733,-45.873578,-72.082645,-83.64189,-88.501678,18.858376,-10.901711,-7.74971,1.45115
69,-3.990211,4.816748,-2.945995,-12.92007,-31.986065,-53.79221,-69.044266,-75.798283,-42.593193,-54.60125,-57.140808,-60.133209,-19.314709,-28.065434,-28.499165,-29.009628,4.257088,3.843727,4.545135,3.325424,26.210861,33.274612,37.682533,37.711029,-23.061772,-42.53742,-62.142342,-73.285759,-37.843894,-58.614603,-74.254222,-89.139498,-37.631349,-58.526392,-75.994225,-89.056105,-35.177079,-58.060763,-77.564229,-94.824427,-30.96249,-53.508615,-70.047475,-87.922799,9.615498,6.929455,0.964336,-7.323875,6.226559,6.337566,7.896595,6.550083,-0.895958,0.268192,1.111679,0.945969,-5.74379,-2.768211,-0.628567,0.051842,-7.896309,-2.854214,-0.198727,-0.263271,-22.933053,-39.948842,-57.557374,-67.956761,-21.672233,-42.082721,-57.267425,-71.805695,-13.615163,-40.838234,-65.590361,-83.404367,-11.90375,-41.965209,-69.900941,-89.903783,-12.764798,-42.734249,-66.613689,-88.640771,15.019941,-6.301707,-10.543928,-11.685663
70,4.261093,-8.946801,0.856247,8.405404,-27.023449,-44.416752,-53.630047,-59.735584,-37.117195,-53.138008,-60.751419,-63.825932,-18.521004,-24.54071,-28.531322,-28.179016,2.044945,2.157898,1.245689,2.803345,21.886826,27.7034,31.853714,36.239319,-11.371277,-29.380074,-45.842981,-57.507202,-24.428031,-45.64575,-64.397343,-81.805927,-25.231434,-46.061763,-65.6376,-83.592644,-25.614658,-47.276085,-65.951323,-83.397173,-24.99703,-44.063797,-59.277431,-75.859424,-13.902397,-28.365669,-41.415253,-51.937752,-9.285679,-11.404781,-11.359406,-12.001648,1.987782,4.277287,2.044888,2.130661,13.112011,20.384045,18.232212,16.873226,25.775127,32.298946,29.419727,25.684719,-28.237475,-55.428837,-78.922306,-96.349662,-60.323175,-90.969441,-94.885837,-92.857892,-58.027017,-84.663582,-88.129972,-80.364765,-52.451356,-79.798822,-85.042143,-81.545618,-44.474592,-71.838083,-79.815186,-80.520685,19.366179,-15.357528,-9.602537,-3.389279
71,-14.082527,13.639524,-14.286118,-22.738416,-34.767494,-54.541283,-67.622852,-73.848724,-34.416561,-38.886452,-37.410965,-37.020321,-10.133171,-11.975784,-12.217541,-13.259296,13.045349,16.260109,14.825706,11.4291,34.589996,43.16391,45.171661,42.822533,-24.831817,-48.759299,-74.138934,-91.79597,-62.829809,-82.130611,-87.418576,-88.245476,-61.665474,-80.355533,-84.729902,-81.39081,-54.737479,-74.894419,-81.14705,-83.325141,-43.602583,-65.412644,-78.242465,-87.471064,30.884914,44.373264,50.39732,52.924862,31.964321,36.652508,40.074291,42.486477,8.243294,11.531811,13.547916,16.189728,-13.196812,-14.216194,-12.635078,-10.444908,-31.081409,-38.766975,-44.458752,-49.213943,-12.202808,-27.362225,-44.167878,-56.880342,-5.36148,-24.313422,-43.092803,-61.606997,-3.832014,-25.911986,-49.398076,-70.637408,-6.074512,-30.17897,-54.802503,-75.939113,-9.477052,-34.345579,-55.066486,-75.535265,5.315609,-1.81202,-23.856697,-26.22171
72,-0.03273,-6.367733,7.821636,26.097669,-31.30537,-54.466839,-68.562527,-74.117088,-38.252449,-47.304153,-49.643955,-52.365589,-14.560204,-16.507015,-16.689034,-16.795578,8.482361,12.322884,14.277878,14.944382,29.191704,38.967133,44.410057,45.333023,-17.947201,-38.769934,-58.573168,-73.821784,-18.816616,-46.424546,-65.960215,-83.399798,-16.79639,-45.347094,-69.677436,-87.96587,-17.821725,-47.798617,-71.621895,-90.858537,-20.000248,-47.656282,-68.050621,-87.337344,36.541557,52.085953,59.115257,56.509438,31.103439,30.445518,30.2742,30.521507,4.623299,3.358383,6.147766,10.753155,-17.722549,-18.887901,-14.608498,-9.175186,-33.517857,-46.463928,-51.129341,-52.786217,-29.614448,-54.132078,-76.447411,-92.733836,-61.276354,-87.378253,-92.990717,-93.066145,-58.662891,-83.867372,-90.874778,-90.080112,-52.871722,-79.356412,-90.006443,-94.052886,-44.394069,-68.314512,-82.356741,-92.03056,5.378351,-8.317425,-15.939589,-0.261714
73,-3.916397,7.330114,18.98632,-11.090189,-35.743732,-55.929222,-69.207516,-75.130978,-36.483879,-41.817799,-39.721127,-38.696423,-11.648026,-14.456348,-13.54105,-13.338261,13.123627,16.074142,17.224617,16.103897,36.702461,46.801529,50.176163,48.3815,-24.458813,-48.336185,-73.252229,-90.99905,-53.932625,-79.811265,-90.18413,-95.252264,-53.069107,-79.103698,-90.166192,-91.736103,-47.470413,-73.663425,-86.74877,-94.289143,-37.795853,-61.510697,-76.347839,-88.023236,-26.791019,-46.200943,-59.982891,-68.692188,-33.778381,-41.56208,-40.691185,-40.257683,-15.959644,-20.805244,-19.660263,-18.742733,2.793961,2.782288,3.086929,1.754494,19.836044,28.777084,33.795433,33.92292,-17.793103,-34.627562,-52.515514,-65.596506,-11.730942,-40.710163,-59.137412,-76.060329,-8.678218,-41.199504,-67.056285,-85.04242,-10.850999,-42.729062,-69.877816,-89.599632,-13.183713,-41.388615,-64.456963,-84.03595,1.556768,-1.125648,3.141546,-11.490239
74,0.835304,-4.093064,-8.802853,9.103524,-32.020397,-56.110554,-70.89077,-76.894226,-39.785328,-44.50098,-43.524685,-44.903526,-15.649624,-14.975452,-14.094715,-15.286846,8.188248,12.964096,15.91301,15.471725,30.076904,41.235466,47.438507,48.131218,-21.37367,-44.052096,-65.794632,-83.475442,-18.844064,-46.229724,-67.139123,-84.65858,-14.80886,-43.89951,-70.542683,-89.470851,-16.06684,-47.735662,-72.760912,-91.82842,-20.064098,-50.424892,-71.927899,-90.48893,-6.711788,-17.789154,-28.465118,-39.677296,-11.465149,-14.561749,-12.234535,-11.518192,-6.379166,-6.696453,-5.161514,-2.4753,0.679893,4.936237,6.001225,7.402325,10.155087,14.089222,13.095531,11.307163,-30.47812,-56.153386,-78.964945,-93.933306,-57.501798,-84.448567,-93.229661,-96.159718,-51.191555,-76.642697,-87.473194,-87.934563,-43.482633,-70.710798,-83.905904,-88.817285,-35.077908,-61.311799,-74.358364,-81.905407,2.5068,-5.365509,-5.546579,-2.533511
75,1.560059,-1.726789,-2.536182,-0.838756,-31.884212,-50.49448,-61.386108,-64.068375,-37.14489,-46.34943,-44.977341,-44.122066,-14.365597,-20.884037,-19.037361,-17.004776,9.665794,10.035095,11.870728,11.786613,33.092766,41.239929,44.912796,43.686676,-24.098037,-47.00642,-69.401875,-85.124054,-47.909304,-67.585116,-79.28333,-88.120123,-46.285855,-64.13864,-78.257656,-85.139986,-41.356814,-61.697862,-76.992945,-88.211544,-33.078708,-53.26112,-68.290985,-81.423445,-2.153721,-11.709137,-22.237015,-32.992344,-6.889744,-12.257938,-9.609547,-8.319397,-4.670906,-5.864468,-3.476601,-0.168686,0.039139,3.643456,5.921402,8.706894,7.634583,10.618172,10.235367,8.790436,-31.988442,-56.46433,-78.444296,-93.217434,-51.601361,-78.212362,-89.637824,-95.856955,-44.49852,-70.455337,-85.36695,-89.713376,-37.480555,-65.722445,-83.148226,-91.52467,-30.699619,-57.156181,-72.148533,-81.811855,4.156666,-7.231436,-7.992954,-3.511406
76,7.741127,-15.66787,-12.19574,2.881984,-28.718262,-49.317513,-62.934666,-71.162453,-35.021381,-47.886086,-52.716637,-55.688267,-14.209557,-19.277058,-21.406174,-21.194973,7.657242,6.777534,7.048073,8.999176,28.407898,32.995033,38.687325,43.385811,-11.830638,-29.876023,-47.77827,-61.733616,-15.383201,-33.494041,-52.06097,-70.381607,-16.314304,-32.198764,-52.485596,-71.275537,-17.702299,-35.773681,-55.473699,-74.272037,-18.568133,-35.964119,-51.768396,-69.105565,33.907585,46.998138,52.910957,50.045357,30.871696,28.110809,28.111382,28.920479,7.546005,5.374146,7.409878,12.62804,-11.75354,-12.72171,-8.946991,-2.436447,-25.737247,-35.191212,-38.919525,-39.716206,-30.559723,-54.665509,-78.462482,-93.181001,-58.234621,-87.990292,-95.893635,-96.331106,-54.753071,-85.317117,-94.6104,-93.146544,-48.362274,-79.024133,-92.316619,-97.082948,-40.022387,-64.94331,-79.370954,-89.421729,11.971235,-22.981852,-20.115252,-0.711967
77,-10.882416,13.865098,1.054802,-21.453853,-35.828304,-55.624409,-68.649845,-74.029026,-35.156364,-44.008999,-43.326416,-44.055519,-9.859142,-15.407925,-15.322323,-16.294041,14.733925,16.135941,16.64463,14.549904,36.893463,47.554665,52.160454,50.905151,-21.72963,-43.501591,-66.244977,-83.247182,-47.689287,-63.850019,-74.351849,-82.886467,-46.956526,-61.163135,-74.08447,-80.530719,-41.675075,-59.286571,-72.593846,-83.154062,-32.048433,-51.620905,-66.229077,-79.585629,24.369278,34.658318,40.278053,41.319695,21.59523,22.63195,24.13044,23.98613,2.993832,3.643112,5.966034,7.950382,-12.366142,-14.144096,-13.061314,-12.762852,-23.759937,-28.927517,-34.410152,-40.01627,-10.215587,-24.56277,-40.516607,-52.609746,-11.872165,-30.884252,-47.770211,-65.682308,-11.616735,-31.894489,-52.758626,-71.901902,-14.133681,-36.551798,-58.08886,-77.423469,-16.539045,-39.221762,-58.123255,-78.296281,1.19545,-9.196304,-18.953819,-22.24537
78,-8.830719,-4.980109,-4.812183,26.204806,-25.677166,-43.879681,-53.590908,-57.019901,-25.901756,-27.052746,-23.807716,-23.283749,-5.003815,-0.78558,1.928101,1.984062,15.470695,22.967606,27.10453,27.613106,33.750229,46.312294,53.737335,55.348091,-18.95293,-39.612611,-60.05385,-76.444725,-14.594031,-39.028483,-57.830496,-74.496376,-10.621133,-35.174331,-60.719489,-80.101152,-11.745114,-39.142753,-63.683941,-83.010554,-14.866412,-42.290264,-63.670541,-82.599698,39.494534,55.710697,62.092953,57.875347,38.172398,35.447445,33.562603,34.037533,11.381664,7.37669,8.200378,13.571548,-11.066036,-13.88134,-10.898438,-4.584045,-27.977085,-39.968376,-42.908077,-41.577301,-29.104606,-54.467383,-80.239659,-96.4459,-65.219334,-98.053634,-101.971358,-98.345065,-64.035054,-97.595631,-101.714785,-96.580083,-57.981352,-91.697231,-99.346996,-99.744422,-48.33918,-75.884711,-89.420895,-98.496724,-7.577677,-14.219098,-23.70841,3.916751
79,13.181763,-10.299783,24.458256,-22.863985,-23.913059,-41.066093,-51.056614,-57.856178,-32.688503,-43.501911,-46.820927,-47.794533,-14.123211,-15.763607,-15.169315,-12.142754,5.508614,8.700256,12.805367,18.233643,23.640289,32.055359,39.550209,46.782417,-13.914097,-32.568063,-49.978962,-63.803459,-25.198799,-41.197405,-57.042869,-72.070974,-22.922864,-37.010171,-54.939187,-72.869129,-20.81205,-36.851596,-54.64791,-72.3675,-18.548064,-31.040635,-44.739594,-61.021479,-24.363556,-41.94231,-52.029247,-58.236179,-28.773365,-32.397881,-30.428696,-29.571934,-13.415108,-16.5065,-15.479794,-13.960304,3.330917,0.944366,1.478806,0.696831,19.157524,26.170692,29.631958,28.625793,-17.542675,-33.377672,-50.474725,-63.26518,-12.402632,-35.448966,-52.085114,-68.678252,-9.105036,-34.123278,-57.771648,-77.359465,-9.499097,-34.734421,-60.188065,-81.2804,-9.30273,-33.30774,-56.126215,-77.516836,5.653067,-24.544307,0.798826,-18.97266
80,-1.114197,20.011857,-21.811867,25.115375,-36.665154,-56.806583,-69.10429,-74.475918,-36.695938,-45.45639,-44.083786,-43.887119,-11.818943,-16.82682,-16.662712,-17.501335,12.807655,13.764496,13.399887,10.790863,35.41008,44.76963,47.943535,45.780029,-23.40285,-46.381105,-70.367003,-87.900291,-53.28724,-69.991529,-79.656889,-86.930408,-52.954313,-67.982665,-79.313495,-83.732324,-47.833691,-66.015914,-77.752228,-86.094246,-38.064745,-58.290907,-72.183484,-83.579862,-18.236275,-27.984295,-34.72023,-40.280285,-7.93539,-6.257,-4.06517,-3.15588,8.494949,10.628357,10.839558,12.685261,25.335388,31.589928,30.440025,28.713799,41.909637,50.941429,51.274567,49.28936,-29.274882,-57.480031,-84.690968,-102.642615,-72.800833,-101.938753,-104.415285,-100.298415,-70.390931,-96.554025,-98.556282,-91.33065,-61.732844,-88.894318,-93.13123,-90.626572,-48.851523,-77.153774,-88.851587,-93.072691,4.577951,-4.559789,-20.973959,6.115375
81,-7.466927,-12.933099,18.346424,-23.795707,-28.761806,-49.083595,-59.936543,-65.407906,-25.174255,-28.03854,-26.694374,-28.187943,-4.631252,-3.852882,-3.31913,-5.068302,14.610214,18.579826,21.851807,22.00779,31.889191,42.433548,48.85128,50.078888,-17.556599,-37.107058,-57.170384,-74.8842,-11.166296,-30.947608,-50.981696,-69.698246,-7.406622,-27.550718,-53.352757,-73.510562,-9.51472,-33.125021,-58.020409,-77.453696,-14.183915,-38.774164,-60.230055,-79.399606,-12.019615,-24.813652,-33.568554,-41.138821,-18.534164,-20.897026,-19.354019,-19.066601,-11.432648,-14.165611,-13.341579,-12.328434,-1.92049,-4.036217,-3.307858,-4.01104,8.399792,14.655476,17.924023,17.505398,-16.082493,-31.896403,-48.340723,-60.474401,-10.474939,-34.560872,-51.105073,-68.055314,-6.53906,-32.949773,-56.228412,-74.662825,-8.195576,-34.797592,-60.117824,-79.724537,-10.138244,-35.84525,-58.012351,-78.112851,-2.834473,-17.542258,-2.573032,-17.729701
82,5.606117,-6.937288,-8.958378,28.224106,-24.133015,-38.685436,-45.138016,-50.292091,-35.232353,-45.814362,-49.247818,-49.656143,-18.415432,-19.880962,-18.697701,-15.948315,-0.165367,5.623856,9.745903,13.532524,17.368584,24.073563,29.393806,34.246559,-15.11684,-33.146571,-48.842507,-61.563957,-31.072684,-46.884247,-61.433601,-75.506984,-29.953056,-43.125284,-57.156922,-70.1422,-28.423499,-43.369445,-57.923492,-71.375974,-26.27619,-38.602622,-50.466481,-63.361542,-32.056561,-49.011841,-59.188271,-63.258533,-28.276062,-28.443031,-27.861443,-27.73819,-2.341404,-0.042915,-1.982517,-3.144321,23.525047,29.487076,26.698952,22.654266,47.315254,60.159874,62.718544,60.333939,-25.081875,-53.664782,-85.02371,-108.477412,-69.13397,-98.270316,-101.871662,-97.336989,-68.613168,-95.083007,-98.910421,-91.418583,-61.674644,-89.885505,-95.95168,-93.277826,-50.690574,-79.014561,-93.903018,-101.64655,2.777338,-24.513725,-11.525717,10.460226
83,-8.426514,23.917046,9.866524,-8.09832,34.42028,46.165581,49.818535,49.980354,19.06414,18.245773,19.567337,20.382042,-5.676384,-8.181095,-3.246517,0.480194,-25.671444,-28.050156,-20.693607,-15.785522,-39.948921,-51.296024,-53.946476,-53.959522,-27.255212,-51.058915,-76.125013,-92.255054,-77.469875,-92.195959,-87.590057,-84.150837,-71.741351,-92.316001,-90.016076,-83.369447,-59.949585,-83.022781,-84.992063,-83.963301,-45.530524,-66.818793,-78.035756,-86.7802,-32.666817,-55.026169,-67.566433,-72.904072,-38.474178,-45.040283,-43.0093,-44.452457,-13.817139,-17.237663,-16.36837,-17.556725,11.464577,12.852631,14.237366,12.945557,34.686699,45.854073,50.865784,50.08976,-20.312088,-41.212132,-63.047202,-79.692643,-16.139736,-52.598507,-74.741001,-91.377364,-14.575166,-53.147653,-79.327574,-93.853401,-17.337138,-54.947987,-80.041471,-95.906078,-20.859227,-53.991843,-75.976781,-93.685564,-5.676641,-0.610573,-1.686659,2.348013
84,17.623444,-18.309985,8.601837,-2.513149,-33.071823,-56.259155,-71.475163,-79.193516,-36.939297,-49.562016,-53.444767,-56.148376,-14.382763,-22.820892,-26.229115,-26.908779,7.881432,4.831352,1.30394,-0.188026,28.157616,32.779198,35.149841,35.142059,-12.252918,-26.484042,-42.74379,-53.43893,-7.126522,-31.398973,-48.879496,-64.925649,-7.100556,-29.453773,-50.414704,-65.896427,-9.631613,-33.213571,-53.355629,-69.256144,-12.563183,-32.843068,-50.529559,-66.406671,-35.754719,-59.950161,-73.317432,-79.069576,-43.828869,-49.11581,-49.893494,-48.132935,-18.225288,-14.388027,-15.995121,-15.376053,6.200066,12.608414,12.265778,12.390175,25.942268,38.186531,43.526344,45.53318,-15.170656,-35.224967,-58.576009,-78.688982,-19.729565,-45.804912,-71.380358,-91.073398,-18.263611,-45.705679,-74.424869,-93.034745,-20.464982,-47.053413,-73.764819,-91.379773,-25.832791,-50.241679,-71.798007,-89.572925,11.914444,-18.859101,6.88282,-0.103679
85,12.695045,36.481742,-4.291763,3.407789,-37.647285,-66.245556,-85.159435,-96.89827,-50.139771,-61.05978,-64.817505,-68.542385,-25.820045,-36.411953,-40.30077,-42.615738,-1.373749,-6.265984,-12.710953,-17.682037,21.30455,24.782181,24.424553,21.447029,-27.677584,-52.792033,-78.698523,-98.024271,-36.143566,-70.788974,-89.909897,-102.717303,-34.818865,-73.186712,-92.240419,-98.800968,-33.904249,-71.73428,-94.012872,-105.906526,-32.86817,-64.518282,-86.135681,-101.804045,-14.909649,-31.338215,-42.925072,-51.015244,-25.707092,-31.319103,-29.166355,-28.186398,-15.019169,-20.51754,-19.892521,-20.444527,-0.703354,-1.491623,-1.022186,-2.123451,15.033302,23.10791,24.491844,20.398979,-28.274526,-45.505206,-63.29797,-76.091883,-17.91506,-56.872006,-75.033944,-85.620898,-11.439912,-57.638205,-79.796136,-85.796918,-11.623959,-56.480663,-78.821283,-88.197619,-14.633767,-48.734012,-69.680585,-83.322918,24.420748,18.103924,2.402315,3.785393
86,-1.768456,-5.833932,-29.054317,17.315804,-33.57542,-50.625858,-56.12114,-56.915188,-36.305237,-48.090534,-49.314766,-48.814316,-19.744492,-27.508049,-29.039154,-26.754227,-0.86174,-4.096642,-7.042122,-8.416557,18.570557,25.989418,29.268951,31.16993,-17.515998,-37.434304,-58.500858,-71.941082,-35.89817,-67.05681,-80.067128,-82.473325,-32.876321,-71.099146,-81.449504,-77.726633,-32.345638,-70.482723,-80.045114,-78.004047,-33.274426,-64.520968,-81.799289,-91.764663,18.524151,28.874989,33.427563,26.668568,5.614529,7.456284,14.162521,16.730347,-6.70269,-0.179844,8.661404,12.603207,-11.199932,-0.591488,8.27877,13.544312,-10.090714,0.997639,7.303734,8.627415,-24.574009,-50.821762,-76.867561,-91.123107,-26.915523,-84.466567,-93.21941,-88.587203,-20.984426,-88.537895,-95.132438,-85.267068,-18.423328,-81.593073,-91.830767,-88.743092,-17.580713,-61.287963,-79.895246,-89.408977,21.933289,13.893133,-27.371006,22.724337
87,18.016148,32.283733,-26.848726,24.366558,-12.820616,-22.555075,-29.81083,-36.107798,-16.156826,-25.332842,-30.255833,-31.959973,-13.838482,-28.110752,-36.459103,-39.816971,-10.431977,-22.408791,-31.819439,-37.370854,-6.28212,-10.206299,-12.46748,-12.825108,-24.418676,-47.605153,-66.011592,-76.707937,-48.16969,-82.423107,-98.329102,-105.64032,-40.876287,-80.187264,-96.44431,-100.568728,-34.157071,-71.19858,-87.810445,-95.650385,-27.826017,-57.43148,-73.98956,-85.491964,4.587908,12.374067,20.072937,20.590496,3.373146,8.31502,14.053259,15.883598,6.172714,18.732205,26.108895,28.620386,12.588473,28.102884,34.449349,36.430521,21.505852,34.111433,36.386776,35.008392,-28.120937,-55.503771,-78.226116,-91.317342,-45.615616,-95.798848,-109.010441,-110.422194,-39.452585,-97.374672,-109.378504,-105.830156,-33.38979,-87.177533,-100.349266,-101.504262,-28.307654,-68.250028,-83.951244,-91.811083,39.516793,47.529045,-54.652376,48.443074
88,18.016147,32.283733,-26.848726,24.366559,7.934189,5.515709,-3.500519,-15.300407,3.991585,-2.57515,-11.196899,-15.105629,-7.932472,-28.713455,-43.879051,-52.879715,-20.002213,-40.72094,-56.596756,-66.32515,-31.134796,-46.402016,-54.203911,-56.820145,-31.321353,-57.776001,-73.522325,-81.47479,-60.441211,-97.789404,-116.591076,-128.807315,-48.876254,-89.27538,-111.439116,-123.410823,-35.968503,-71.914437,-95.575775,-113.296723,-22.377608,-50.341992,-66.179831,-79.219264,-9.348335,-4.126854,6.718311,14.512424,1.131763,9.173756,13.943996,15.03685,19.048119,37.644253,43.556385,44.637566,36.376877,56.797256,60.619926,59.31673,53.102417,67.225227,65.469818,61.38937,-31.667865,-60.18578,-79.584672,-91.511579,-64.315709,-107.131129,-124.801473,-132.257187,-57.920744,-106.21145,-123.624572,-126.393244,-48.356254,-92.761994,-108.867767,-114.265432,-39.034597,-75.212094,-88.007243,-94.21319,58.02618,80.07426,-81.007862,73.071115
89,0.625763,9.738318,-1.863327,12.004434,5.515137,2.497215,-7.558823,-17.899361,7.645798,-2.157097,-11.239471,-16.39286,-4.019279,-23.359795,-37.964973,-47.658005,-16.337013,-34.973831,-48.011856,-55.448341,-28.561249,-44.946671,-51.998863,-54.737434,-33.474281,-59.245815,-73.326391,-79.880734,-49.560418,-80.127612,-96.909429,-109.411696,-36.66653,-69.122423,-88.150874,-100.238888,-24.199029,-55.649996,-75.390121,-88.266317,-13.197761,-39.074487,-53.031964,-62.375203,-12.905502,-9.206371,6.596146,19.838276,-4.035988,6.221409,12.19986,16.490593,13.485088,28.742065,37.2365,43.335571,29.260769,46.228352,50.433483,52.304821,43.610516,48.468418,42.347317,38.780766,-27.90038,-55.5302,-66.485866,-70.238778,-61.195029,-100.41182,-119.131735,-130.884938,-52.706231,-96.345092,-116.670673,-126.909107,-42.984431,-84.469346,-103.616883,-113.906971,-31.979797,-66.316639,-71.959916,-71.010411,58.596582,89.964052,-82.92655,85.227023
90,-3.779984,2.793465,-6.423855,9.414221,7.72419,4.304352,-4.72641,-12.927017,7.260017,-7.397919,-18.315811,-25.866737,-4.111404,-25.21843,-38.016014,-44.563637,-16.010628,-34.677315,-46.256676,-51.25042,-26.889839,-42.297935,-49.924393,-51.829033,-32.373858,-56.474796,-73.21805,-82.443438,-39.446009,-61.453454,-72.938506,-82.447174,-24.540324,-44.927099,-60.980076,-70.93736,-11.396378,-30.851957,-48.438413,-59.154919,-1.983825,-19.546877,-31.847837,-39.330752,-10.993767,-3.339386,16.263142,30.113239,0.815907,13.98468,21.013012,26.602421,18.169155,37.800465,47.082481,54.903717,33.833885,54.324875,57.048454,58.025436,47.071095,56.116562,49.455814,45.006866,-29.236566,-56.275435,-69.685309,-73.286964,-52.990746,-89.915732,-108.507145,-122.908452,-41.523632,-81.398004,-102.275664,-115.075443,-30.355144,-69.582464,-87.365872,-96.331847,-19.976258,-51.984306,-59.483369,-60.296993,54.816284,93.219734,-89.350719,95.103461
91,11.212864,33.788544,-2.58625,9.199484,1.811714,-8.208905,-24.319668,-37.322846,-14.732724,-38.888741,-42.334328,-41.677437,-25.385743,-52.831192,-57.547417,-57.252102,-34.137669,-58.036967,-63.121319,-62.937069,-40.307351,-59.204922,-64.007035,-64.165593,-35.89641,-60.458408,-74.209067,-80.228544,-47.763928,-71.726778,-78.426945,-80.822629,-31.71319,-55.757226,-66.114267,-69.362586,-17.050138,-40.319855,-52.567369,-57.231641,-5.151142,-23.866272,-34.557198,-39.706472,-7.796917,-0.137386,17.623558,30.812874,-0.304813,18.168468,28.710022,36.472206,14.696331,38.611107,51.722832,61.063728,29.040756,54.748707,62.596607,65.440464,41.876221,57.659225,56.901112,53.854408,-26.634249,-52.835258,-67.018401,-72.425638,-44.957264,-81.764585,-99.271166,-112.068661,-31.410767,-69.666383,-88.387131,-100.486384,-18.751871,-55.244049,-73.424605,-83.909547,-8.74497,-38.800964,-51.363313,-56.37334,65.710059,127.005917,-92.25606,104.300583
92,11.212864,33.788544,0.716457,8.548789,-4.100761,-20.72216,-43.912926,-61.718674,-36.725464,-70.379562,-66.352844,-57.488136,-46.66008,-80.443954,-77.078819,-69.940567,-52.264709,-81.396618,-79.985962,-74.623718,-53.724861,-76.111908,-78.089676,-76.502151,-39.418962,-64.44202,-75.200084,-78.013649,-56.081848,-82.000101,-83.915383,-79.198084,-38.886056,-66.587353,-71.248459,-67.787812,-22.703897,-49.787752,-56.696326,-55.308362,-8.31846,-28.185667,-37.266559,-40.082192,-7.49794,0.719318,16.494999,30.270824,-1.114197,20.28986,33.210697,42.923698,12.896118,38.886795,54.796143,65.183372,26.597672,52.605457,62.843971,68.313904,38.947964,56.826725,59.873714,60.04715,-24.238056,-48.793138,-64.261184,-70.64877,-37.147844,-68.364931,-84.580805,-96.821744,-23.25962,-56.98714,-73.62338,-84.080905,-11.771018,-43.574518,-59.608136,-69.681758,-3.721883,-28.739197,-40.836041,-47.596971,76.864386,160.537795,-91.598139,112.592706
93,5.744018,21.795827,4.870148,2.829342,-12.654419,-35.702877,-61.321335,-78.814144,-42.235966,-81.770439,-86.134815,-81.741629,-46.082325,-86.883717,-91.619797,-88.477621,-47.960701,-84.355459,-90.404949,-88.183823,-47.649879,-77.030525,-84.741783,-85.613022,-35.253727,-54.106776,-57.500718,-54.793997,-41.05998,-54.269041,-57.518765,-56.713632,-23.361586,-39.534605,-45.785631,-45.906152,-8.154019,-26.013288,-33.538038,-35.008841,4.458318,-9.986215,-18.727233,-22.453006,-2.776451,6.357536,20.839806,36.287956,-2.975693,19.24387,34.473209,47.459793,5.029793,29.964638,48.525581,61.956425,14.303226,39.32785,55.682602,67.374744,23.02145,41.845436,52.825356,59.7785,-24.133389,-45.344099,-60.898349,-69.055084,-27.515798,-50.088847,-62.450013,-72.802068,-11.968187,-32.859061,-47.355279,-59.412819,1.681495,-16.900439,-31.421049,-44.613592,12.518013,-0.988778,-12.483432,-23.00703,82.403269,181.551476,-86.933126,114.639902
94,5.744019,21.795826,-8.645296,27.744259,-21.208076,-50.683594,-78.729744,-95.909615,-47.746468,-93.161316,-105.916786,-105.995121,-45.50457,-93.323479,-106.160774,-107.014675,-43.656693,-87.314301,-100.823936,-101.743927,-41.574898,-77.949142,-91.39389,-94.723892,-31.088492,-43.771533,-39.801352,-31.574344,-26.038111,-26.537981,-31.122146,-34.22918,-7.837115,-12.481858,-20.322802,-24.024492,6.395861,-2.238823,-10.37975,-14.709319,17.235096,8.213237,-0.187907,-4.823819,10.270528,28.620329,47.410555,58.727102,17.70564,49.624872,60.547113,65.126409,19.849863,54.306822,67.679987,72.527561,23.515463,57.759304,68.687954,72.240572,27.642317,53.773584,61.471252,63.777609,-25.45582,-45.130891,-56.174442,-60.222954,-33.477708,-52.609159,-57.816556,-60.743309,-18.739413,-39.128581,-46.839324,-50.960624,-5.43399,-25.554034,-34.532174,-39.997919,6.401372,-10.822516,-19.148077,-24.056602,87.957888,202.558225,-95.767822,141.595084
95,7.168121,16.086538,-8.645296,27.744259,-29.465218,-61.819267,-85.26226,-100.959549,-53.541069,-90.411186,-110.594158,-124.519787,-46.9804,-86.559105,-106.856232,-115.369263,-40.155945,-79.759712,-90.065231,-89.625893,-33.83194,-66.281433,-72.917862,-69.638329,13.617201,14.827385,6.528624,1.322694,8.099616,5.393898,5.361171,5.249341,-8.881006,-9.585084,-6.323242,-3.528604,-23.534935,-28.337882,-21.299446,-15.793409,-36.302017,-39.481731,-32.759026,-29.049123,23.317509,50.883121,73.981304,81.166248,38.386974,80.005875,86.621017,82.793026,34.669933,78.649006,86.834393,83.098698,32.727699,76.190758,81.693306,77.1064,32.263184,65.701733,70.117149,67.776718,-26.778251,-44.917682,-51.450536,-51.390823,-39.439618,-55.129471,-53.183098,-48.68455,-25.510639,-45.3981,-46.323368,-42.508428,-12.549474,-34.207629,-37.643298,-35.382245,0.284731,-20.656254,-25.812722,-25.106174,94.913034,217.637382,-104.626093,168.331963
96,3.191185,11.923758,4.338455,12.443387,-18.806877,-42.786713,-62.787209,-74.579086,-51.132545,-82.301445,-97.099686,-107.92654,-49.02935,-84.648972,-106.280479,-122.992916,-45.79216,-79.849091,-100.397301,-115.765228,-42.641945,-68.880386,-85.265121,-100.649414,-26.010262,-34.498411,-35.685872,-30.790793,-23.454844,-16.631362,-10.608659,-7.826,-7.934619,0.833569,7.908684,11.902021,6.61773,12.922941,18.306774,21.254924,18.717908,23.287377,26.725331,27.299857,29.581718,57.768288,80.823956,89.149761,31.063385,75.235748,89.143353,91.671925,20.033855,68.715477,86.248283,89.25499,14.93391,63.088417,82.315235,87.261658,15.584335,51.772499,65.991325,70.344601,-21.449561,-35.94862,-41.031914,-39.149946,-28.917533,-41.878327,-36.093239,-31.021554,-15.346892,-32.469972,-30.661241,-28.06408,-2.727639,-22.767562,-25.681132,-26.125611,8.931086,-11.201092,-16.991058,-20.526763,97.330198,228.647172,-101.061659,179.861382
97,0.600014,10.164488,9.382496,9.705436,-26.118507,-52.547951,-72.84977,-86.271744,-59.458237,-87.125587,-105.451813,-121.863842,-55.810547,-85.962524,-108.481865,-126.834126,-48.687057,-77.874069,-96.539268,-110.298672,-39.70253,-60.724411,-72.695274,-83.010063,-19.425568,-22.354822,-17.9422,-10.310775,-3.822598,9.321966,16.053563,20.948704,9.899209,23.222724,29.941169,36.084532,20.470509,27.587491,31.651409,35.608252,27.980347,32.070015,34.157981,36.517218,16.010857,34.65786,52.781067,65.301418,23.317566,57.849026,76.013031,89.692612,17.489319,55.080643,79.040508,96.788979,14.221745,51.442451,74.811172,92.01004,14.079437,42.770863,60.133667,72.408142,-27.162215,-41.481333,-47.856508,-44.457086,-23.292749,-28.043394,-25.251843,-22.891372,-7.996987,-11.973899,-9.533214,-9.319866,5.977255,2.958524,3.490133,1.238466,17.830925,15.439641,14.998928,11.560912,96.97669,237.753844,-92.632685,188.509002
98,-1.959801,12.498654,14.653759,0.462943,-27.077408,-52.799377,-74.610786,-90.23037,-57.238312,-85.670471,-107.267075,-125.128326,-53.958435,-85.569077,-109.330044,-129.180107,-49.596062,-80.427818,-103.55587,-121.479721,-44.715729,-70.076981,-86.267738,-101.172752,-21.129694,-23.962927,-16.486372,-8.226328,-0.289054,14.502517,24.297614,33.191526,15.458104,29.553377,37.157878,44.473511,29.139464,40.306593,45.624415,49.041498,39.130248,46.539186,48.833584,51.329289,11.401348,25.116291,36.618347,46.975021,10.166988,18.307056,29.311466,40.608215,6.529026,22.533474,42.206154,60.276031,6.302261,26.217613,47.40366,66.043911,8.941555,22.366562,37.121143,49.851551,-16.821677,-22.549707,-21.795919,-19.089522,-11.295015,-9.986771,-6.996569,-4.32679,1.074395,7.447408,9.824552,9.473254,10.444959,16.36565,19.420319,18.900504,16.924368,22.421389,23.592239,20.388936,94.203644,249.773192,-78.792171,188.492639
99,-5.627403,8.394907,-11.382122,56.521696,-24.707336,-47.899475,-66.57383,-76.746597,-55.578575,-87.383537,-108.667946,-126.014957,-51.916809,-86.203766,-111.41367,-130.613937,-47.088203,-78.21682,-103.068752,-121.082897,-42.430801,-68.384285,-85.926132,-101.310539,-18.497521,-21.5998,-13.848271,-5.446139,3.140502,19.003442,27.509994,34.090426,21.019037,35.365078,41.038089,45.215751,34.691875,48.349399,54.480351,58.281336,43.450245,53.709953,55.934326,56.886826,8.972054,27.118206,52.426014,71.701183,33.909702,81.047802,92.017136,91.508904,46.857948,94.984245,96.041565,83.854523,57.682343,97.339668,95.884323,81.711903,66.158466,94.776535,94.682579,80.902634,-30.641295,-46.952914,-48.233,-42.300452,-20.062647,-15.87035,-10.756119,-5.359936,6.703686,15.431057,21.014591,26.164391,28.946802,39.630797,45.717288,50.165973,45.279478,54.3671,57.411334,58.775277,87.888994,257.794894,-90.86154,244.64113
100,-2.807465,5.81022,-9.046955,2.977358,-25.690155,-47.878075,-64.919586,-74.470482,-57.641716,-87.346573,-109.656315,-128.759937,-54.174156,-85.827141,-110.855026,-131.359406,-49.247932,-78.062897,-101.556129,-119.810658,-43.528633,-66.978035,-83.693848,-99.529724,-14.554943,-17.241024,-11.299461,-5.410695,8.700077,22.10251,28.415008,33.431982,24.045549,38.810134,44.285111,48.654693,36.763602,52.448453,59.914881,65.265245,46.048641,59.117621,65.409988,70.112962,19.617977,46.553593,71.216812,89.019871,45.904198,87.887478,108.943577,123.314953,43.359432,90.184593,113.478184,126.393299,40.626297,83.520069,105.129032,116.93121,37.911129,71.281471,87.287235,95.113163,-25.547998,-33.423337,-33.561225,-32.536416,-8.69594,0.276704,3.940973,7.985996,13.895448,20.17318,22.144686,25.001445,31.767191,37.911048,37.654784,37.127497,43.888858,46.721967,44.875939,42.249632,84.685364,263.109613,-100.304661,247.122988
101,-0.112038,5.886173,-3.297501,6.876464,-27.480469,-49.33857,-64.609451,-74.918747,-62.741776,-89.889565,-109.169769,-126.066284,-60.557556,-89.343338,-111.189022,-129.837799,-55.409546,-82.390938,-102.096634,-117.545071,-46.862755,-67.976418,-83.638573,-99.034367,-13.1487,-13.6482,-6.992431,-4.486353,8.859393,10.457556,8.36749,5.085887,22.318884,26.116349,25.047017,22.351117,34.208431,43.705645,47.137362,48.249734,43.51181,55.744135,61.796169,65.858358,27.035236,53.696308,78.199825,97.851276,52.101402,88.316689,108.878345,124.214802,46.257362,86.786842,108.832455,122.786007,41.475163,78.640594,99.564342,113.197231,36.887627,66.095181,82.047958,92.500706,-19.214011,-25.315755,-25.309518,-24.724618,1.063095,11.54109,16.27957,19.809594,20.396285,29.732638,32.031729,33.844969,34.630372,44.586144,46.902031,47.298593,43.429312,51.838174,52.391767,50.410999,84.121685,268.496025,-104.053802,253.49969
102,-2.976837,7.98896,2.485771,9.598731,-29.190445,-55.86216,-76.053543,-88.769302,-57.469711,-90.324669,-109.937153,-126.988506,-55.614967,-87.82196,-111.148109,-132.879753,-52.805557,-82.743645,-104.640884,-123.533707,-48.290062,-70.02594,-86.12915,-102.366543,-15.521398,-18.903715,-11.54461,-1.198946,8.362858,8.857603,5.776134,1.706905,25.575662,26.274492,23.142819,19.760255,38.60926,44.906196,46.720362,46.849667,47.212698,59.020797,65.554237,69.901405,28.203564,56.35025,80.371799,101.178646,57.130051,88.470268,108.620052,124.356365,50.374317,85.986385,107.922535,122.879162,43.840256,77.109661,97.833881,112.997189,37.449017,64.772816,80.166435,91.928959,-17.528966,-21.868106,-21.131547,-22.409163,6.651137,18.046187,24.43507,29.586598,25.350211,35.608931,40.063173,43.69842,39.252823,49.077251,52.061464,53.359951,47.976983,57.462834,59.293857,59.245074,80.589352,276.331272,-102.123528,262.944709
103,-5.641251,3.470003,4.951057,8.469872,-28.448524,-56.450844,-78.297157,-97.24371,-56.162567,-81.276054,-98.434753,-114.129066,-53.799706,-79.60865,-99.613037,-118.976669,-50.659904,-76.087074,-96.172256,-114.186916,-45.675659,-65.240822,-81.479073,-97.98317,-14.552411,-19.930439,-20.84731,-19.451195,13.188159,18.88624,13.906625,7.013241,28.025918,33.778649,29.179416,23.840537,39.559784,48.764177,46.59717,41.623853,47.532318,60.963588,66.133333,68.290645,30.641384,58.695717,82.168808,102.272015,56.938534,87.853889,107.710819,123.109646,49.31591,85.012264,107.665386,122.960072,42.287292,75.302238,96.503391,112.076397,35.952301,61.776066,76.845245,88.633633,-14.415942,-17.883722,-17.502537,-20.504965,9.209703,21.455304,28.841641,34.979632,27.491469,41.235505,47.91233,53.093128,40.953058,54.748903,59.508008,61.800862,49.277693,61.589799,64.875168,66.114931,74.413576,279.729629,-97.706995,271.342935
104,-2.940559,0.018772,5.862007,5.562539,-30.36747,-59.007111,-80.131874,-99.872875,-61.363335,-81.666527,-94.787636,-104.826164,-54.404068,-75.222015,-88.904114,-99.117393,-46.176682,-65.459976,-78.742676,-89.069195,-36.808891,-51.820679,-61.544952,-70.480614,-12.077763,-15.115636,-14.504678,-13.933116,15.085564,27.129179,31.149378,31.324255,27.842088,40.871733,41.235443,38.189913,36.564704,50.393955,51.12224,48.181809,40.643627,53.135489,55.580743,54.658315,31.026134,59.265747,82.894192,103.237438,58.790531,88.94537,108.162403,123.706684,49.866714,84.616413,107.340717,123.312206,41.4925,73.790131,94.944363,111.223927,33.440666,58.937359,74.303112,87.405567,-12.044974,-13.3413,-12.092892,-15.269086,13.371064,26.452086,33.491386,38.85867,30.536875,45.569519,52.897008,57.904411,43.330882,58.906188,64.466257,67.042793,51.474896,66.016439,70.033612,71.781334,70.879726,279.682096,-92.438278,276.839169
105,-2.351761,2.515897,6.165447,5.853569,-28.209457,-53.666496,-71.85688,-86.072102,-63.59745,-76.155281,-71.23661,-62.401199,-58.333397,-69.484406,-57.371292,-42.985039,-50.775146,-59.749031,-48.082237,-34.99157,-42.465134,-49.729958,-43.951836,-36.177406,-7.639205,-9.389274,-8.060714,-8.581764,13.3279,25.003977,33.395364,39.013169,21.156617,36.082433,44.932687,50.137506,26.883474,39.528662,46.943281,51.114768,30.857484,40.971337,45.694564,48.371382,29.211445,56.540337,80.496826,100.668526,59.359474,90.812187,109.885368,124.45507,49.794159,85.781021,108.171501,123.258362,40.923443,73.927917,94.623299,110.575447,32.847118,59.672241,75.833702,89.700394,-12.331743,-13.435099,-12.711075,-16.0979,16.172989,29.972847,36.774223,41.629534,32.733276,47.121184,53.823882,58.326475,44.812459,59.902778,65.29223,68.078285,52.678968,66.179275,69.357692,70.687611,68.208275,282.099054,-86.592522,282.593798
106,-3.288345,2.601113,6.248074,6.452795,-25.140495,-46.919403,-61.511421,-73.724442,-54.918022,-67.342873,-62.689476,-54.209404,-48.765678,-59.998398,-49.122849,-36.06205,-40.782623,-50.56469,-40.69828,-29.267235,-32.075043,-40.097809,-39.523773,-36.912804,-6.654657,-7.992541,-5.76471,-3.928932,8.071088,20.576534,30.22306,36.66548,15.920121,29.710346,41.054823,48.698413,21.777518,32.504429,43.188115,50.517024,25.170271,33.843795,41.501896,47.273151,28.924198,55.487823,79.862309,98.956547,60.713024,91.723537,109.247417,122.346897,51.755047,87.344913,108.489132,123.120632,42.57843,76.202488,96.233425,111.206646,33.706741,61.757526,78.079891,91.836491,-14.151033,-16.628892,-15.431428,-18.560198,13.90786,28.379254,35.357977,39.991666,30.271534,44.378045,50.771436,53.802455,42.71313,57.447211,62.569531,64.348314,51.55122,64.746912,67.736559,68.145346,64.698315,284.499153,-80.566063,288.84558
107,-0.203362,5.376238,4.888229,4.525255,-19.847946,-42.66861,-61.299133,-74.544983,-33.730545,-57.308922,-66.779823,-69.717407,-31.171074,-52.620621,-58.51078,-57.343025,-28.645477,-45.987053,-45.75943,-40.557632,-26.556358,-37.121658,-37.376976,-33.38562,-14.302816,-18.077248,-13.963497,-9.576501,-3.739173,5.324553,8.039718,9.222671,10.923586,21.796969,23.724261,24.208323,21.874404,31.517349,34.724418,36.238168,28.673557,37.156767,40.903288,42.647119,27.458038,53.465824,77.247791,95.815144,58.470669,89.798756,107.270107,120.175495,49.86763,85.540066,106.305943,120.294514,40.871143,75.142536,94.373646,107.894154,32.475128,60.008183,75.748844,88.018055,-15.175719,-18.040198,-17.185201,-21.546077,14.780517,29.887446,36.393593,39.975488,31.926816,45.809975,50.660841,51.670028,43.915658,57.753802,60.473722,59.099096,51.421235,63.950147,65.513914,63.76681,64.366865,289.809766,-75.805922,293.30521
108,-91.317215,18.750327,0.685158,2.576906,13.43771,25.631332,30.106201,28.371964,12.533684,43.868637,56.603279,60.38681,5.807304,41.126518,55.260086,62.274857,-1.843472,32.24041,46.821671,53.35144,-9.165401,14.400387,25.999718,30.848694,-23.997075,-34.343665,-36.945642,-36.67746,-2.712078,13.347352,14.445768,13.730266,16.921589,32.119909,31.179327,28.017212,30.372311,43.406464,39.031633,34.297661,39.672725,52.714289,47.112847,39.561822,26.011448,52.123375,75.76292,94.806232,56.243706,88.836079,106.767139,119.8316,47.54385,84.816799,105.768642,119.407368,38.75576,73.507977,92.220211,104.314098,31.203918,57.497807,72.519894,83.104992,-15.028136,-18.131279,-16.97173,-20.498605,16.278952,30.074921,35.860934,39.311918,34.06023,46.106563,49.848082,50.987933,45.822017,58.184449,60.061415,58.607995,52.683784,63.628057,64.095569,61.77857,-27.075033,308.578603,-75.245447,295.900626
