takenoko1/special-research/HandMotion_SimilarSearch_自分用/NewProject/handData/key/d4_feature_d2/103.csv
,vel_0x_L,vel_0y_L,vel_0x_R,vel_0y_R,posFromWrist_1x_L,posFromWrist_2x_L,posFromWrist_3x_L,posFromWrist_4x_L,posFromWrist_5x_L,posFromWrist_6x_L,posFromWrist_7x_L,posFromWrist_8x_L,posFromWrist_9x_L,posFromWrist_10x_L,posFromWrist_11x_L,posFromWrist_12x_L,posFromWrist_13x_L,posFromWrist_14x_L,posFromWrist_15x_L,posFromWrist_16x_L,posFromWrist_17x_L,posFromWrist_18x_L,posFromWrist_19x_L,posFromWrist_20x_L,posFromWrist_1y_L,posFromWrist_2y_L,posFromWrist_3y_L,posFromWrist_4y_L,posFromWrist_5y_L,posFromWrist_6y_L,posFromWrist_7y_L,posFromWrist_8y_L,posFromWrist_9y_L,posFromWrist_10y_L,posFromWrist_11y_L,posFromWrist_12y_L,posFromWrist_13y_L,posFromWrist_14y_L,posFromWrist_15y_L,posFromWrist_16y_L,posFromWrist_17y_L,posFromWrist_18y_L,posFromWrist_19y_L,posFromWrist_20y_L,posFromWrist_1x_R,posFromWrist_2x_R,posFromWrist_3x_R,posFromWrist_4x_R,posFromWrist_5x_R,posFromWrist_6x_R,posFromWrist_7x_R,posFromWrist_8x_R,posFromWrist_9x_R,posFromWrist_10x_R,posFromWrist_11x_R,posFromWrist_12x_R,posFromWrist_13x_R,posFromWrist_14x_R,posFromWrist_15x_R,posFromWrist_16x_R,posFromWrist_17x_R,posFromWrist_18x_R,posFromWrist_19x_R,posFromWrist_20x_R,posFromWrist_1y_R,posFromWrist_2y_R,posFromWrist_3y_R,posFromWrist_4y_R,posFromWrist_5y_R,posFromWrist_6y_R,posFromWrist_7y_R,posFromWrist_8y_R,posFromWrist_9y_R,posFromWrist_10y_R,posFromWrist_11y_R,posFromWrist_12y_R,posFromWrist_13y_R,posFromWrist_14y_R,posFromWrist_15y_R,posFromWrist_16y_R,posFromWrist_17y_R,posFromWrist_18y_R,posFromWrist_19y_R,posFromWrist_20y_R,posFromBody_0x_L,posFromBody_0y_L,posFromBody_0x_R,posFromBody_0y_R
2,-0.212917,2.199303,0.57106,-0.788491,18.318672,37.429504,48.350945,49.444199,30.835419,65.586205,79.261208,83.250275,22.388134,58.47496,71.696434,77.954178,12.362709,45.372963,58.683357,64.223785,3.605919,23.420792,30.237694,32.37505,-23.467874,-33.82774,-37.498432,-40.896804,-5.248785,12.437706,13.719521,13.144378,15.257971,32.433663,32.744947,31.558968,29.443276,43.473278,41.334553,39.962582,39.953937,51.78229,48.38824,43.063749,26.436653,51.48159,74.736042,94.346409,53.370953,84.880657,102.581806,115.539951,44.952221,80.602741,100.996914,114.020977,36.184387,70.51672,88.444004,99.043522,28.536301,54.977703,69.309254,78.42905,-14.567416,-17.837595,-15.699795,-16.326747,12.759673,27.66968,34.803891,39.001622,30.243685,43.563125,48.88916,50.903335,43.145383,56.434628,59.481949,58.526423,51.835334,64.910613,65.838598,62.737369,-45.970373,306.90174,-75.027895,294.00072
3,-2.577496,-1.494236,0.073929,0.690061,17.705441,37.767162,50.141201,52.510357,31.442699,66.519756,81.164875,86.589146,23.383198,60.284557,75.069523,83.202381,13.698635,47.755909,63.517857,71.489582,5.174446,26.383266,36.097012,41.242733,-22.898905,-33.065061,-35.931021,-38.278586,-6.25507,11.588453,13.674814,13.896127,14.65152,32.70839,34.237331,33.501945,29.756968,44.216506,43.24511,42.15256,41.389696,53.628442,51.090562,46.087358,25.946617,50.410023,73.481197,93.004589,53.084679,83.704433,101.109753,114.441662,45.328102,80.034199,100.280972,113.818188,36.901817,70.441189,87.873516,98.413525,28.965511,55.151939,68.975315,77.666416,-14.673997,-18.433671,-16.554915,-17.445294,11.888807,26.034838,32.989725,37.117308,29.531455,42.144841,47.573876,49.533525,42.765063,55.698686,58.894826,57.986107,52.023302,64.617545,65.341754,62.010443,-48.066044,305.105081,-74.472141,294.388358
4,0.649624,0.258117,0.461597,0.11041,17.665043,37.297668,50.050049,53.071861,30.796852,65.962143,81.107712,86.927376,22.914448,58.680725,74.057007,83.189621,13.330193,46.076202,62.035904,70.537262,5.055313,23.327923,31.436176,35.85331,-23.348387,-33.170592,-35.719773,-37.539434,-6.556412,10.052535,12.327729,13.158334,14.121455,31.244473,33.046597,32.857641,28.874987,42.713501,42.214558,41.871719,40.444976,52.366696,50.142384,45.582487,25.526218,49.894466,72.931252,92.671738,53.041134,83.131714,100.310211,113.709412,45.323353,79.567566,99.624252,113.203011,36.810379,69.645309,87.050285,97.91153,28.663101,54.221935,67.816315,76.561432,-14.554757,-18.287755,-16.178731,-16.74455,12.022188,26.01761,33.102049,37.352515,29.462665,41.792555,47.370532,49.50969,42.454026,55.213452,58.675612,57.984934,51.495027,64.073586,65.033126,61.963019,-46.850195,305.053195,-73.444319,294.188766
5,0.125542,0.648997,0.450096,0.654307,17.505112,37.473335,50.906181,54.200363,30.630741,66.129341,81.703606,88.305588,22.351513,57.781334,74.339447,84.981766,12.57019,44.643631,61.455116,71.526375,3.684311,23.859673,34.971485,42.336388,-22.666044,-33.094578,-35.24837,-35.787575,-8.823208,7.550038,10.58612,12.36342,11.983779,28.449341,30.732871,31.148946,27.231623,40.240891,40.418794,41.114474,39.467899,51.244073,49.355561,45.503508,25.202808,49.284954,72.144928,91.65802,53.083477,82.68528,99.665909,112.879715,45.420227,79.19323,99.053993,112.631264,36.754303,69.165344,86.513557,97.433395,28.324699,53.631821,67.341499,76.489105,-14.777306,-18.806088,-16.734423,-17.166862,11.307921,25.186017,32.201914,36.365991,28.825154,41.181659,46.658241,48.751703,41.899075,54.823683,58.172964,57.384534,51.124463,63.674308,64.620015,61.484515,-46.22057,305.491067,-72.490139,294.631948
6,11.967487,-1.936925,-0.01997,0.459114,14.619026,29.531078,35.870533,34.231167,20.782356,52.639103,68.622723,75.1478,12.437782,45.573635,62.186451,74.384251,2.555408,32.076817,48.211269,58.375568,-6.014843,2.075443,2.830582,3.004818,-19.910494,-29.150332,-29.858424,-32.785023,-3.055534,14.369444,16.743686,17.284249,16.687123,33.214559,33.433587,31.916565,29.558872,43.165082,40.74002,39.221762,39.758682,52.092339,51.700285,48.715826,24.897881,49.16914,71.974468,91.347713,53.086281,82.629375,99.6385,112.940197,45.497589,78.951244,98.952427,112.643566,36.949711,69.147549,86.356373,97.059689,28.689651,53.974171,67.260876,75.839367,-15.00677,-19.031415,-17.049042,-17.713106,10.544994,24.687876,32.00882,36.453059,27.966082,40.665857,46.409325,48.899348,41.081623,53.956584,57.377865,56.777219,50.461016,62.941886,63.909206,61.010827,-33.783817,303.343372,-72.040844,294.880293
7,1.521206,0.636029,0.440311,0.308011,14.863186,28.390961,33.459549,30.991402,16.455917,48.665657,66.163559,74.488678,7.936878,41.942024,60.510063,74.800873,-1.596508,28.577156,46.396751,58.849525,-9.890842,1.761246,8.085136,13.584251,-19.886411,-29.057274,-30.332049,-33.525842,-3.188977,13.880752,16.41326,17.0659,16.499216,32.765016,33.479221,31.843391,30.060101,42.748081,40.499069,39.133583,41.048648,53.336177,51.021895,46.659846,24.487038,48.516541,71.314888,90.699692,53.020592,82.38842,99.556046,112.900772,45.428467,78.621254,98.729095,112.63504,36.753387,68.722,86.158791,97.252235,28.356457,53.643208,67.325478,76.605949,-15.229381,-19.162141,-17.117646,-17.605289,10.515539,24.86967,32.113672,36.350368,27.77762,40.707971,46.335286,48.708601,40.70229,53.82382,57.006066,56.117972,49.930333,62.564776,63.631391,60.739866,-31.850653,303.771735,-71.188574,294.980637
8,12.603092,-1.470895,0.591545,-0.232182,12.691669,20.338154,21.834583,17.78635,2.073212,31.524639,50.142117,58.761806,-7.724304,24.090099,43.281956,59.073086,-16.905727,10.203609,27.902241,40.697536,-24.489784,-15.598526,-10.739937,-6.361828,-18.361176,-27.303068,-29.457911,-32.528882,0.032048,18.581563,20.969143,20.896031,19.395496,36.380626,35.93979,32.942919,32.931433,45.741988,42.935988,41.616381,43.436228,56.126431,53.267264,48.803944,24.582024,48.31953,71.014595,90.744896,51.867828,81.497383,98.763885,112.255669,44.330349,77.856445,98.254051,112.2472,35.958023,68.096123,85.86216,97.159653,27.998142,53.368263,67.341614,76.874199,-14.959223,-18.821711,-16.602092,-16.963456,10.92019,25.164034,32.421128,36.919583,28.491084,41.216115,46.709432,49.077931,41.592422,54.565505,57.54879,56.426353,50.816081,63.34277,64.229568,61.014409,-18.973274,302.034896,-70.322742,294.482512
9,-8.322086,2.827304,0.209427,0.980103,15.060196,26.263847,30.783806,28.980904,11.521111,41.630173,59.658623,68.094749,2.176208,33.889847,52.9739,67.731514,-7.633095,19.847946,37.727737,49.976349,-16.390743,-3.808136,4.029465,10.366173,-19.865725,-30.457835,-34.280926,-36.729207,-3.568927,13.87717,16.914364,17.362919,16.154031,33.100382,33.181399,30.279562,30.677172,43.916028,41.452002,40.246202,41.957552,55.23667,52.123832,47.517745,24.811821,48.266659,70.890541,90.546684,51.292934,81.083679,98.237,111.53183,43.972378,77.683067,97.903748,111.737709,35.773945,67.86129,85.505676,96.585159,27.857952,52.843151,66.661377,75.961533,-15.28298,-19.604891,-17.689702,-17.754849,10.059142,23.782368,30.711814,34.988154,27.557789,40.261516,45.551488,47.682742,40.556436,53.725946,56.819024,55.759881,49.695682,62.328458,63.346537,60.111741,-27.125216,304.637908,-69.943171,295.238322
10,-2.851753,1.741856,0.396423,0.067431,16.473541,29.133797,34.68853,32.835045,16.034603,46.361618,63.457031,71.016541,6.514664,38.023338,56.286278,69.894562,-3.515968,23.421364,40.342026,51.588364,-12.904816,1.454945,10.83189,17.870121,-20.577769,-31.93404,-36.644362,-39.330196,-5.465405,11.478784,14.557474,14.757978,14.186231,30.8644,31.508086,28.906047,28.75303,41.911548,39.844577,38.737639,40.205261,53.095412,49.551556,44.554281,24.190063,47.586479,70.116463,89.785995,50.79031,80.763588,98.090973,111.277885,43.345928,77.304955,97.800751,111.550255,35.192299,67.82753,85.607071,96.494637,27.513657,53.136749,67.137794,76.365852,-15.605502,-19.803357,-17.675129,-17.638449,10.294226,24.18881,31.062865,35.275355,27.872839,40.58657,45.620834,47.594995,40.941696,54.032722,56.627351,55.200608,49.993442,62.589106,63.450771,60.107542,-29.833546,306.21401,-69.403324,295.14
11,16.724052,-5.266754,-0.196667,0.088797,11.071587,17.417336,18.545265,14.378815,-5.083981,21.33625,41.559906,52.282791,-14.84808,13.162193,34.974632,52.32193,-22.993984,0.905571,21.855011,36.832008,-29.29636,-18.020554,-6.862621,2.546654,-17.564596,-27.218841,-29.967166,-32.239149,-0.748291,17.121043,21.045034,21.821669,18.836099,35.267513,36.870924,35.042494,32.899446,45.499556,44.527419,44.165438,43.881819,56.503912,53.635605,49.098061,24.536877,48.421211,71.175213,90.735111,51.040478,80.972385,98.164043,111.466427,43.555012,77.366238,97.70319,111.572056,35.265198,67.502918,85.377216,96.617947,27.37072,52.575703,66.416645,75.722752,-15.245065,-19.555861,-17.625358,-17.440045,10.091129,23.700734,30.413066,34.63241,27.520183,40.115723,45.268733,47.289083,40.471776,53.615968,56.652236,55.570616,49.44868,62.443066,63.703454,60.648661,-12.977743,300.755906,-69.468241,295.037448
12,-9.447327,8.583246,0.573406,-0.156599,4.324379,14.647179,31.083755,41.289368,2.139301,33.320732,50.70282,61.664543,-7.420692,27.221031,48.322792,62.953606,-12.115459,15.110321,34.261665,47.216721,-13.397026,-0.936356,9.89296,18.929787,-21.017617,-31.270779,-31.335061,-29.06277,-8.796655,1.282927,6.865473,11.776606,11.604817,21.244179,26.776769,26.584293,27.055758,33.244014,36.098426,35.323459,39.522487,45.603359,44.427939,40.529821,24.666595,47.976151,70.48027,90.324211,50.524807,80.637016,97.985687,111.294594,42.811718,76.894112,97.426186,111.198692,34.407063,67.10289,84.977303,95.948296,26.587887,52.282677,66.010323,74.77066,-15.284956,-19.650401,-17.371008,-16.97735,10.089091,24.051724,30.94202,35.335191,27.67283,40.687964,45.890189,48.048922,40.781639,54.213527,57.05596,55.815518,49.769968,62.731873,63.663687,60.247345,-22.191267,309.149038,-68.661032,294.690735
13,20.027733,-6.652434,0.340519,0.240641,8.399162,11.661758,8.862648,2.832298,-11.852474,14.987755,32.044258,39.437256,-21.034069,9.454651,26.674004,40.228157,-28.458023,-4.378281,11.227798,21.909599,-33.561001,-33.828506,-36.863823,-38.085938,-18.556369,-28.888263,-31.379769,-34.400167,2.4137,19.162697,20.635197,19.562716,21.611409,36.346169,35.520504,32.349188,34.467783,46.611187,43.521135,41.594522,44.165685,55.846023,55.464529,54.133313,23.614254,47.624016,70.658169,90.163708,49.273682,80.536594,98.461246,111.922131,41.390247,76.676731,98.140011,112.105579,33.340073,67.133045,85.772839,97.146549,26.169605,52.607117,67.076626,76.484699,-15.948155,-19.743953,-17.390707,-17.122278,10.512699,24.639464,31.421018,35.505561,28.426864,41.015859,45.895747,47.5966,41.344247,54.631145,57.085107,55.180539,49.829865,62.474312,63.372163,59.849549,-1.804676,302.302106,-67.961655,294.736878
14,-14.218483,12.530949,0.092297,-0.540254,6.51598,14.88533,26.537247,32.294769,1.798439,29.898376,47.811241,59.33876,-9.022465,22.12635,40.776787,53.595085,-15.698719,6.07069,22.021179,34.233971,-18.642483,-17.922764,-15.419083,-10.845051,-20.047333,-31.850368,-35.801592,-37.334299,-8.587753,-0.116955,5.22038,10.006593,9.375997,16.845018,21.412573,21.217442,22.304249,26.76127,29.504409,30.311239,33.56314,37.476881,37.272857,35.776768,23.930912,48.175106,71.206856,90.495186,49.08514,80.714836,98.800163,112.394371,40.812778,76.43898,97.864609,111.88179,32.570972,66.746407,85.478096,96.992569,25.214767,52.065067,66.779366,76.571045,-15.608281,-19.322815,-17.059169,-16.594682,11.224372,25.297724,31.942006,36.108862,29.126928,42.133973,46.967363,48.748369,41.896914,55.717026,58.204889,56.476309,50.177335,63.445276,64.232223,60.591974,-15.705757,314.679945,-67.551956,294.043513
15,-4.200096,0.652578,-0.643272,1.141518,7.080402,16.559486,30.624733,39.224854,5.17931,34.344635,52.341042,64.100876,-3.73518,28.113098,46.702766,59.280624,-9.282074,15.536957,31.863785,43.957214,-11.73008,-4.474182,1.597309,6.993198,-20.929561,-32.562845,-37.70017,-40.892852,-12.222691,-2.040975,3.976356,9.981892,5.922853,17.206999,22.486598,24.544677,19.98231,27.232364,29.68719,30.969684,31.938054,37.047901,35.314073,33.619703,24.443893,48.890877,72.11174,91.258278,50.167351,81.57692,99.428902,112.853279,41.846581,77.362518,98.6063,112.430534,33.6026,67.783699,86.107864,97.126579,26.157703,53.193455,67.454338,76.618195,-16.342926,-20.45575,-18.03569,-17.6466,9.44559,23.408408,30.354465,34.720651,27.808434,41.078165,46.12163,47.986616,41.092861,54.711483,57.235284,55.618411,49.861235,62.602074,63.027102,59.228093,-19.665298,315.212265,-67.954674,295.064772
16,13.309822,-12.86681,-0.511723,-0.261575,8.07518,13.100395,14.303398,11.484489,-8.08857,18.903809,37.158623,45.68264,-16.97834,13.41774,31.622772,46.161232,-24.330425,-0.096016,16.594276,27.965927,-29.613705,-28.187885,-29.327545,-29.362679,-19.104157,-29.38097,-33.131504,-37.885669,1.118856,18.246382,20.189729,19.262115,21.416587,36.149123,35.356125,31.534886,34.977471,46.824473,43.405414,40.738167,44.796219,55.761919,54.945331,52.84872,24.562912,49.002056,72.084446,91.922779,49.044628,80.884953,99.065723,112.615643,41.011734,77.427349,99.351711,113.447285,33.239708,68.201694,87.277279,98.619976,26.447239,53.757763,68.392353,77.638149,-16.114573,-19.925685,-17.491977,-17.22009,9.797012,24.253895,30.920716,35.075469,27.995908,41.230009,46.03734,47.696327,41.15702,54.787374,57.160813,55.279216,49.700004,62.665553,63.23378,59.289473,-6.197319,302.268745,-68.308239,294.726488
17,-5.612583,10.77557,0.51218,-0.582306,7.201023,15.177441,22.61404,24.859371,-0.723324,29.625149,45.413189,54.669628,-12.720051,21.351185,38.287983,49.274769,-19.657173,4.087372,19.957066,32.139988,-22.409763,-18.622742,-14.348831,-8.545589,-20.282108,-32.668067,-36.645473,-37.438102,-10.043211,-3.229732,1.054388,4.860992,10.495285,15.77371,19.649475,18.50419,25.119697,29.131745,30.605851,29.697687,36.713522,40.776514,39.994322,36.275835,24.270573,48.755379,71.967316,91.597252,50.008163,81.546593,99.492073,112.864609,41.690826,77.428665,98.837242,112.68528,33.206348,67.528267,86.347733,97.779236,25.56078,52.575874,67.29847,77.006493,-15.836511,-19.629283,-17.176001,-16.707685,10.322878,24.756234,31.590955,35.837593,28.268042,41.57328,46.717212,48.544284,41.197899,55.032029,57.844698,56.30699,49.698461,63.118245,64.113971,60.663975,-11.721725,312.980358,-67.707882,294.080224
18,-7.091904,6.403765,-0.126801,-0.222734,7.604599,14.958401,28.24522,39.836712,4.777107,32.524166,49.385891,60.966396,-3.056087,27.204609,46.773891,61.448193,-8.204556,17.747555,34.747524,46.946468,-11.278381,2.885513,14.07835,21.750011,-21.957767,-35.40324,-42.278408,-45.869441,-15.682567,-4.843517,2.205539,8.719343,2.385295,15.17362,19.62601,20.7637,16.660508,25.199911,26.633632,26.842534,28.838369,33.990885,30.992655,27.965033,24.332199,48.930073,72.065735,92.068176,50.007648,81.700745,99.709625,113.135033,41.537304,77.437706,98.966103,112.7948,32.919445,67.4049,86.377487,97.957077,25.248356,52.185345,66.893005,76.609383,-15.775316,-19.3138,-16.552074,-16.05202,10.201847,25.160885,31.9538,36.037417,28.251678,42.230181,47.27204,48.828274,41.276198,55.758152,58.454051,56.761781,49.755703,63.648681,64.578704,60.904864,-18.727112,319.300234,-67.748165,293.773602
19,-11.80315,11.775927,-0.498333,0.631768,13.303299,26.873016,40.262947,50.634613,24.805984,53.099098,68.653336,80.237389,16.867676,43.477707,60.05825,74.843445,8.770008,33.205376,47.427979,58.961334,1.303883,16.12318,24.889641,31.320305,-24.333676,-41.225378,-53.694021,-64.892335,-26.72527,-20.353306,-13.871551,-7.298652,-9.222177,2.52553,5.423971,6.788038,6.041352,15.794829,15.43328,15.218451,18.325114,24.30311,21.525453,17.874151,24.429302,48.826332,72.057781,92.004604,50.954876,82.587948,100.408001,113.654766,42.626781,78.335094,99.405842,113.081989,34.019394,68.113804,86.752567,98.192081,26.275063,52.880802,67.437916,77.172947,-15.871832,-19.86165,-17.229229,-16.34379,10.351777,24.500032,31.127271,35.22157,28.170229,41.594398,46.704368,48.557189,40.988009,54.940885,57.901941,56.618706,49.385695,62.952507,63.980343,60.496817,-30.444145,331.019753,-68.160381,294.348962
20,38.307724,-28.883014,-0.535183,0.370441,6.245728,5.568008,-0.020485,-7.680359,-16.406136,7.393456,23.182983,31.181717,-25.537033,-0.979271,14.779015,30.362434,-32.851868,-12.000046,4.917526,18.776207,-38.391438,-41.323872,-43.967972,-43.604965,-18.900628,-26.639992,-26.797332,-29.655512,0.542107,18.579279,19.070009,16.50181,20.245305,37.238339,35.21731,31.024457,33.31762,45.715312,41.587482,38.906465,43.422828,53.741816,52.230104,48.968941,24.499969,49.261837,72.642746,92.798538,50.88026,82.778664,100.60421,113.739166,42.625866,78.873596,100.147133,113.670387,34.182014,69.064064,87.543755,98.532829,26.679268,53.804455,68.089027,77.141418,-16.20232,-20.278094,-17.574538,-16.768386,9.483381,24.310705,31.151848,35.308762,27.725997,41.405504,46.472249,48.27641,40.96899,54.764897,57.473023,55.999658,49.591632,62.910023,63.629848,59.883635,7.887869,302.096709,-68.671274,294.679373
21,-25.535774,16.191637,-0.300522,0.071877,8.670845,15.82901,25.951309,32.654686,4.556293,34.534607,52.116737,62.544937,-4.285641,28.260727,47.136497,60.33989,-10.629902,16.720047,32.683983,44.063187,-14.529705,0.087433,10.988274,19.058418,-22.341546,-35.470054,-41.482136,-45.159373,-14.020616,-2.987361,3.51965,10.015052,5.535554,16.517556,19.401918,19.403338,20.522502,27.884942,28.054138,27.851165,32.935323,37.479289,33.182078,28.92519,24.945087,49.598408,72.890511,93.187637,51.323719,82.915993,100.691185,113.923187,43.096848,79.123077,100.304146,113.994598,34.544048,69.329109,87.793808,98.828888,26.848755,53.952541,68.198891,77.293282,-16.023985,-20.112418,-17.441342,-16.830198,9.066195,24.119711,31.124369,35.392372,27.209393,41.031605,46.374745,48.396824,40.529574,54.390257,57.346805,56.0343,49.383842,62.800786,63.705307,60.120139,-17.60047,318.256668,-68.92436,294.719572
22,-2.219009,-5.813801,0.222988,0.166973,7.897739,18.396606,32.119446,40.740967,6.586075,36.721573,53.334389,64.567337,-3.800125,31.41346,50.89817,64.117355,-9.655609,18.896484,36.234398,48.151817,-12.166901,3.58469,13.285332,19.93309,-18.905074,-29.378376,-34.404242,-36.184074,-10.100638,-0.419656,5.461947,11.509783,8.352299,19.217531,24.35745,25.478035,22.842712,29.5288,31.542049,31.9065,34.311308,39.494205,37.734071,36.024264,24.922085,49.467773,72.658138,92.969112,51.337738,82.95187,100.769978,113.841076,43.120193,79.003315,100.04797,113.505421,34.595089,69.150295,87.499866,98.315563,26.987057,53.90379,68.072948,76.974392,-15.712825,-19.813237,-17.33686,-17.093255,9.058724,24.077041,31.233605,35.592814,27.169502,41.253536,46.492564,48.355883,40.52871,54.599035,57.214597,55.441558,49.362785,62.760155,63.604159,59.838002,-19.794559,312.40259,-68.676453,294.846269
23,2.992001,-4.309005,0.296745,-0.224895,14.326801,21.175404,22.663822,18.484783,6.572056,38.412838,53.368664,58.369617,-1.993675,30.108891,45.606594,57.466335,-10.128136,17.482166,32.695713,43.293171,-17.600956,-4.94276,1.336269,6.027431,-21.497912,-31.350005,-34.468648,-37.610509,-6.949021,9.923723,11.256421,10.720674,12.335633,29.362815,28.69801,26.616218,26.478083,39.580223,36.119792,34.773633,37.567222,49.557608,45.415699,39.926952,24.530468,49.021053,72.38142,92.700863,51.439419,82.996845,100.752468,113.657627,43.160419,79.05344,99.934101,113.197918,34.396763,68.997059,87.093945,97.719898,26.478939,53.413353,67.518368,76.412373,-15.599883,-19.619156,-16.952958,-16.772894,9.242678,24.524917,31.686483,36.101576,27.272069,41.500846,46.875664,49.031062,40.635847,54.696354,57.330256,55.76865,49.560942,63.074032,63.931807,60.323175,-16.785107,308.041652,-68.362255,294.569441
24,-14.089909,-0.245767,-0.284729,0.242185,16.48035,30.585823,37.779236,35.797119,21.29797,55.489082,70.060043,74.999313,13.406754,47.864227,62.889862,72.417068,4.749184,35.275383,49.858017,58.578186,-3.522263,15.534668,24.960594,31.029053,-22.235891,-32.116822,-34.758628,-38.536456,-8.850378,8.436835,10.310034,9.758418,11.056041,28.452429,29.144465,27.288063,25.885279,39.777825,37.848927,36.443055,37.40346,49.790716,46.312809,41.103174,25.084248,49.386292,72.628384,92.997265,51.113548,82.876797,100.686779,113.762798,42.908478,79.094868,100.083561,113.496609,34.401169,69.284992,87.465649,97.937222,26.836796,54.14566,68.208218,76.833286,-15.720605,-19.781559,-17.10789,-16.923565,8.95628,24.133481,31.314807,35.985855,27.09429,41.269653,46.741295,49.238976,40.629178,54.505607,57.315065,56.244066,49.741007,63.03093,63.835662,60.402833,-30.833244,307.773964,-68.605213,294.789705
25,2.504368,-3.35348,-0.599556,0.152153,16.050625,28.693027,34.719028,33.384075,17.750187,47.957096,64.218578,71.276379,8.465996,39.607487,58.462429,72.766857,-1.722279,25.40617,43.470325,56.32021,-11.221333,3.409023,13.913269,22.343159,-20.397952,-28.053027,-29.213379,-31.764412,-5.461639,11.277169,14.980279,16.743624,13.131225,30.256837,32.670105,32.694867,27.243417,40.896495,40.547111,40.915699,38.616546,50.987871,48.539282,44.3447,24.776402,49.599266,73.103771,93.588238,51.088886,83.569965,101.963367,115.229473,42.779846,79.39642,100.640087,113.912487,34.432354,69.713116,87.963238,98.229847,27.147732,54.815826,69.015141,77.314968,-15.737463,-19.481699,-17.251274,-17.17773,10.508376,25.418199,32.194133,36.278861,28.436867,42.239567,47.142302,48.981044,41.543392,55.389255,57.602266,55.671084,50.098541,63.287256,63.741863,59.688689,-28.319321,304.339082,-69.195213,294.860456
26,-8.026314,2.190349,-0.906773,-0.129985,17.849121,34.049664,43.43359,44.233646,25.362225,57.442303,73.504772,80.549412,16.37661,49.583759,67.838345,81.396046,6.497784,35.712032,52.827816,64.499645,-2.987137,15.176239,26.595268,35.002155,-20.969822,-29.886088,-31.87513,-33.620815,-7.964321,8.454064,11.995759,13.544706,10.843866,27.490666,29.952655,29.86287,25.401402,38.814642,38.437161,38.303163,37.001835,48.848528,46.293666,41.782984,24.936619,49.925823,73.77388,94.146767,51.679173,84.224396,102.582893,116.164627,43.505344,80.328484,101.451988,115.144501,35.16283,70.389175,88.65612,99.468842,27.661228,55.282745,69.513474,78.439178,-15.516273,-19.724811,-17.593804,-16.944498,10.336957,25.182374,31.783802,35.881188,28.140157,41.694496,46.856213,48.954739,41.19512,54.940206,57.882798,56.730906,49.948797,63.114108,63.994854,60.561408,-36.338797,306.468113,-70.095148,294.669153
27,7.260761,-1.533201,-0.290737,-0.351607,16.363392,29.580688,35.500488,33.363762,18.743877,49.013901,64.566078,70.950966,9.712658,40.519524,58.966713,72.518692,-0.054131,27.378044,45.46875,57.783508,-9.248657,8.119011,20.282249,29.092255,-20.820201,-28.905121,-29.797044,-32.455152,-6.500528,10.879126,14.304483,15.236173,11.935737,29.523242,32.24872,32.035558,26.280728,40.453436,40.472949,40.296343,37.931734,50.762667,48.351128,43.696876,25.085049,50.274982,74.281712,94.830837,52.422523,84.651432,102.784595,115.998974,44.298649,80.939655,101.975269,115.39896,35.748596,70.972767,89.127331,99.590206,27.944927,55.610447,69.839344,78.52747,-15.371468,-19.255631,-17.011497,-16.972533,10.381603,25.197379,32.036546,36.199018,28.321641,41.889997,47.171387,49.281584,41.523138,55.141945,57.95554,56.685458,50.344926,63.42286,64.208758,60.77315,-29.095545,304.886855,-70.403395,294.269489
28,-1.638451,0.367168,-0.014648,-0.161848,16.472683,30.443001,37.620506,36.520157,20.442638,50.283737,66.221008,73.132095,11.769047,42.11071,60.677948,74.686775,2.181644,28.818054,46.805878,59.430428,-6.868401,8.665981,19.969082,28.745728,-20.971243,-29.70096,-31.357724,-34.289263,-7.482915,9.594717,13.02168,13.990914,11.285011,28.707026,31.338705,31.191059,25.710216,39.512607,39.595784,39.593808,37.442856,49.866236,47.781357,43.523605,25.499382,50.694294,74.703312,95.25816,52.64122,84.773655,102.943211,116.272488,44.570274,81.155033,102.109852,115.580921,36.008148,71.374454,89.32291,99.566059,28.095245,55.972652,70.036869,78.414173,-15.184612,-19.080445,-16.787838,-16.662299,10.376292,25.271233,32.131333,36.244898,28.35159,41.988304,47.270681,49.287759,41.752603,55.296444,57.953564,56.511507,50.882648,64.039315,64.64206,61.031452,-30.736456,305.230341,-70.420504,294.08396
29,-0.121536,0.188154,0.10603,-0.068481,15.802689,30.042229,37.497711,37.555733,21.979637,51.730843,67.101746,73.468781,13.186913,43.677979,61.151619,74.502869,3.218994,29.698448,46.207123,57.832489,-6.167107,7.183628,16.071682,23.071117,-21.027497,-29.741962,-31.605158,-34.53435,-5.558278,11.404622,14.291083,15.322747,12.950482,29.853298,31.563538,31.397738,26.608438,40.071016,39.128581,38.985443,37.539804,49.384954,46.507817,41.856776,25.721741,50.645828,74.469337,94.94957,52.701874,85.131454,103.318176,116.463089,44.447136,81.336479,102.22538,115.428314,35.758266,71.374283,89.335213,99.458771,27.754841,55.572796,69.553299,77.563477,-15.128789,-19.207651,-17.249237,-17.237257,10.420814,25.633461,32.524806,36.620341,28.256001,42.126563,47.329591,49.247312,41.490534,55.141451,57.888541,56.614013,50.463795,63.642198,64.390427,60.893131,-30.852499,305.403258,-70.308981,294.000242
30,-4.6558,-3.107466,-0.249939,-1.200119,17.849922,34.957695,43.549118,43.302841,26.662388,59.100609,72.114716,76.242599,17.136726,50.936966,66.282234,76.355209,6.759682,37.348938,53.275108,62.586937,-2.658463,17.243385,29.005165,36.376419,-20.361766,-29.224123,-29.644582,-31.813195,-6.362083,10.790761,13.900388,15.003745,12.928437,30.493835,32.042474,31.586385,27.598606,42.186091,41.160108,40.027976,39.627215,53.059412,50.274654,44.727738,25.785542,50.229092,73.422203,93.59127,53.279972,84.561768,102.580147,116.522141,45.425777,80.81852,101.323013,115.327263,36.837616,70.698624,89.037323,100.538521,28.594494,55.308781,69.797745,79.230194,-14.705552,-18.927428,-17.385211,-17.233181,11.601853,25.660013,31.774168,35.336241,28.905553,41.530487,46.444893,48.314263,41.652197,54.76218,58.035445,57.399293,50.507576,63.221122,64.232038,61.050286,-35.46381,302.279582,-70.514431,292.783913
31,-3.165722,-0.681848,0.847721,-2.364362,13.984852,31.483669,43.594494,46.844158,27.905388,60.279293,72.709408,77.176037,21.028748,55.848255,70.422421,80.152531,10.961437,42.849712,58.120136,67.115078,2.161503,16.594563,21.641293,24.667053,-23.683568,-33.130455,-35.394904,-39.291355,-5.322206,9.322274,11.289149,12.29321,15.820888,31.181241,31.727115,30.424428,30.499269,42.950129,39.91843,37.464469,41.818305,54.138068,51.695407,46.359986,25.603294,50.208263,73.508091,93.561687,53.149567,84.531384,102.350178,116.279697,45.357914,80.818119,101.465321,115.995884,36.559181,70.32114,89.288349,101.933727,27.699337,54.550095,69.819546,80.754032,-15.01381,-19.226176,-17.484691,-16.984945,11.550291,25.27432,31.321661,34.746586,28.655526,41.318683,46.434766,48.198543,41.196726,54.009072,57.657471,57.227935,49.936261,62.217245,63.615892,60.879731,-38.528509,301.581185,-69.565687,290.403002
32,3.574677,-9.074964,-0.18837,-4.715447,16.248436,32.385006,42.304516,45.362034,23.672504,52.451649,69.762554,78.389111,15.314026,46.640797,66.068287,81.225414,4.334507,34.546795,55.268955,68.525677,-5.604687,0.897217,2.897987,4.053783,-22.508766,-31.786827,-33.293414,-33.442603,-1.148064,15.62551,19.445081,20.888497,18.630779,38.911652,41.887342,40.444112,31.494254,48.623695,49.26028,47.245858,41.845969,56.183304,59.980275,59.95576,24.339809,47.525997,69.968319,88.285275,53.394756,85.258198,103.511066,117.889309,46.677303,81.853352,103.018627,119.156857,38.024712,70.238285,90.642071,105.99638,28.653946,54.508209,70.375271,82.708683,-18.276022,-22.395269,-20.596294,-20.789511,8.597448,20.543498,26.876558,31.098866,25.894665,38.646619,45.313132,48.78758,38.870094,52.432028,58.56724,61.111727,48.019158,61.012495,64.25118,62.983938,-34.64118,292.513122,-69.441404,285.694456
33,86.588345,-20.230176,-0.096302,-9.250026,-19.083481,-45.71949,-69.113331,-91.994991,-75.384579,-77.12677,-51.635513,-30.567284,-75.291195,-69.04644,-41.240616,-14.761391,-71.083431,-61.253414,-33.727455,-9.879913,-63.924637,-66.013584,-53.235168,-38.65963,41.753467,62.139563,69.466558,76.86611,45.943603,61.571521,68.4344,71.003896,30.432085,46.209192,55.850654,57.568983,13.503518,28.713015,39.375644,44.021313,-2.901405,7.930976,16.86484,22.790286,23.414383,46.884212,67.754974,85.446053,53.622723,84.026413,100.514832,114.177475,46.646118,79.381027,98.490944,114.284821,36.574516,65.024757,81.726608,93.898544,25.195084,42.742081,52.37709,58.568115,-21.867673,-26.95282,-25.323288,-25.9968,2.696517,15.305581,22.953431,28.810951,20.676631,35.627209,44.358408,50.452618,34.838409,51.693308,60.089696,64.588214,44.752932,62.676298,69.562086,70.404917,52.128382,272.270241,-69.356489,276.431724
34,-4.781799,-4.943676,-6.131344,-11.046531,-21.909142,-40.872002,-52.413483,-56.451588,-62.665672,-77.082138,-65.983772,-51.839104,-56.358662,-70.863647,-56.37188,-38.714104,-46.640511,-58.784809,-47.375679,-31.693611,-33.332863,-42.329979,-40.652618,-33.681107,22.077563,38.265928,51.599077,58.93873,31.460909,44.437264,49.527906,48.425414,26.429176,37.912777,44.229659,41.343692,21.301052,31.607813,37.510411,35.156053,15.484657,26.239232,32.463921,33.903817,21.432781,44.025478,63.030624,80.55994,49.707928,82.531643,101.312656,115.750751,46.374779,79.715137,98.901501,111.56599,41.358604,69.100685,82.748394,89.844418,35.341702,57.763081,68.035583,71.730595,-21.329333,-26.912929,-27.995476,-29.991125,-2.395854,8.267145,15.846823,22.474186,14.619595,29.342376,38.471865,45.903219,28.459345,45.994918,54.587117,60.948645,40.728843,55.936178,61.052015,62.49364,47.722292,267.254934,-75.112123,265.313563
35,34.596805,-52.448577,-8.787088,-23.220409,-30.105686,-55.183124,-69.349193,-74.760275,-70.62561,-90.065803,-87.53334,-80.547466,-60.74481,-81.437645,-78.329601,-70.649929,-48.343849,-68.420133,-67.814712,-61.763076,-34.303951,-51.061821,-55.877208,-55.568332,7.251135,21.954989,38.236164,51.186245,24.892209,49.602439,61.115248,64.547058,29.433581,55.153863,67.160736,69.40592,33.38218,56.017936,66.631782,68.375058,35.721626,54.13671,63.559391,67.417958,16.197796,35.96981,51.689243,67.737894,62.578583,92.76269,109.449835,120.154982,62.667303,96.867056,115.908537,126.492662,58.099251,88.558331,103.552351,110.195875,50.416431,74.850855,85.665894,88.397284,-24.999932,-35.947385,-40.579067,-44.326113,-11.85506,-3.975769,1.539253,5.270244,6.311047,18.395788,24.345316,27.318506,21.666491,36.015002,41.37151,43.637133,35.754631,48.103448,50.110151,48.306113,83.276853,214.848964,-82.941456,242.135761
36,34.596806,-52.448577,-8.787088,-23.220408,-38.302231,-69.494247,-86.284904,-93.068962,-78.585548,-103.049469,-109.082909,-109.255829,-65.130959,-92.011642,-100.287323,-102.585754,-50.047188,-78.055458,-88.253746,-91.832542,-35.27504,-59.793663,-71.101799,-77.455559,-7.575294,5.644049,24.873251,43.433758,18.323509,54.767614,72.702589,80.6687,32.437985,72.394948,90.091813,97.468147,45.463309,80.428059,95.753153,101.594063,55.958594,82.034187,94.65486,100.932098,10.962811,27.914143,40.347862,54.915848,75.449238,102.993736,117.587013,124.559212,78.959827,114.018974,132.915573,141.419334,74.839897,108.015976,124.356308,130.547333,65.491161,91.938629,103.296204,105.063972,-28.670531,-44.981841,-53.162659,-58.661101,-21.314266,-16.218684,-12.768318,-11.933699,-1.997502,7.449199,10.218767,8.733793,14.873636,26.035085,28.155903,26.325621,30.780419,40.270716,39.168286,34.118585,117.794752,162.935239,-91.807451,219.450204
37,-0.069122,-14.377225,-9.426155,-23.143005,-33.82885,-57.240028,-71.382751,-78.066673,-83.310356,-101.469383,-92.02858,-84.580078,-75.274773,-91.521835,-80.734177,-73.332367,-63.187294,-79.068489,-69.620132,-61.025047,-49.66198,-60.982819,-56.250229,-49.544907,-3.617833,7.864532,26.60183,40.47579,21.227075,50.559447,50.900247,44.485676,30.316303,60.461002,57.894655,49.627695,37.697083,64.742343,59.391855,49.845982,42.429511,61.627096,57.005572,48.507604,4.184704,17.02652,30.396881,35.841694,35.648746,71.275864,63.057346,51.213455,47.979698,88.06612,77.709618,63.620739,56.167889,93.607864,82.019691,68.771381,60.144424,90.302525,82.193871,70.447254,-33.810141,-56.607961,-70.164647,-78.805999,-37.599702,-48.571701,-49.655235,-46.368137,-17.672597,-32.615271,-36.185,-31.183464,1.014251,-13.205696,-17.930467,-13.914776,19.016101,7.83835,1.750007,3.296916,117.820015,148.9976,-101.139221,196.746785
38,13.623161,-52.08391,-2.23629,-19.789093,-30.475502,-55.287437,-70.989532,-74.403534,-74.79126,-101.829872,-95.059204,-85.155373,-68.921013,-94.136925,-85.864792,-75.940132,-59.219856,-81.42746,-73.241844,-63.973274,-46.566696,-66.049004,-60.520592,-53.302917,-20.761569,-32.262244,-40.97041,-47.302761,-20.621334,0.223382,4.618252,0.959324,-4.786552,17.306387,18.940302,14.016757,9.887816,28.799559,27.432219,21.019933,22.152559,36.141189,34.067795,28.334825,26.425724,49.541588,66.337337,71.153126,34.455013,63.141804,70.562897,70.022907,23.645954,50.756893,58.077736,57.176743,12.970734,37.873592,44.946842,45.746098,4.995403,22.59304,27.978573,30.363121,9.926317,10.041852,2.884732,-7.891579,10.775447,-1.8669,-15.47206,-21.889348,-5.404643,-27.587923,-43.238132,-49.390326,-20.078332,-41.41526,-55.704182,-61.5609,-31.940339,-50.795518,-62.706123,-67.467667,130.391779,97.143263,-104.426908,177.187265
39,12.075806,-16.799755,-14.361877,-25.868297,-23.5746,-46.788826,-61.228981,-69.024925,-69.913673,-96.69651,-92.86274,-84.596786,-67.102432,-94.287987,-88.968658,-80.192184,-58.868065,-81.954346,-79.199295,-72.802505,-44.832115,-61.376724,-63.82061,-62.55146,-29.206648,-44.738637,-56.767771,-69.879823,-35.373693,-49.6561,-56.390723,-57.001126,-27.339316,-42.42772,-48.094864,-47.432128,-20.831872,-36.565259,-41.556761,-41.012185,-15.617636,-26.711931,-31.642887,-31.777071,-7.325935,-5.964088,-6.518784,-13.968487,7.965031,33.737354,27.830315,21.301689,22.811108,50.265026,40.691986,32.092781,35.824013,62.71637,53.338566,45.873127,46.555367,73.397141,83.171425,89.762878,-30.36595,-56.591597,-78.202235,-91.014889,-40.45674,-72.96333,-72.497299,-67.728593,-27.136898,-61.786906,-62.526923,-55.10122,-13.834068,-44.530877,-47.765179,-43.838408,-1.003444,-19.297374,-29.354849,-35.675992,142.404499,82.370017,-118.851871,153.345477
40,-7.634926,-29.864475,-8.761654,-7.997111,-19.600639,-38.200035,-47.360687,-51.546936,-62.219582,-82.042465,-83.274422,-80.979195,-55.308495,-75.923309,-79.055099,-79.645042,-44.006882,-60.035934,-64.603729,-66.46431,-28.465576,-38.437386,-44.52919,-48.748283,-30.814413,-50.902069,-66.542923,-81.394083,-37.589143,-55.070654,-68.142105,-75.089304,-31.286587,-49.69139,-62.550327,-70.132475,-27.729887,-45.646059,-57.481328,-64.391477,-25.584709,-38.315204,-47.745882,-52.865701,-8.510113,-8.677311,-8.970795,-14.653301,6.277485,26.637669,25.928879,21.163158,24.119568,45.399055,38.89698,31.66008,40.288696,61.083527,51.689129,42.293644,53.556862,76.973476,87.543697,95.073166,-28.805023,-55.073155,-78.158114,-95.620451,-45.302109,-84.617732,-87.207606,-80.373348,-34.175426,-76.43324,-75.33754,-68.10737,-25.675327,-61.089374,-64.904623,-62.134345,-19.165475,-38.036154,-52.694714,-67.245797,135.71291,55.327906,-126.670189,148.170731
41,11.697693,-7.408166,2.224102,-11.068761,-19.359856,-40.900612,-51.380539,-58.216095,-56.65741,-76.604805,-87.842674,-96.510887,-52.316895,-73.777084,-85.251846,-95.069046,-44.302025,-63.444214,-73.569489,-81.173859,-32.388153,-46.359787,-56.005554,-64.619751,-30.623017,-51.261302,-69.070923,-86.281967,-43.09941,-60.715135,-75.500314,-89.157499,-37.185481,-56.529693,-74.523546,-90.503843,-31.912582,-51.220639,-68.390341,-82.987953,-27.335395,-42.023718,-54.552413,-65.655045,-9.995785,-13.252201,-16.571274,-26.284504,6.864452,21.854324,18.566895,13.634491,24.39909,39.531841,33.744278,29.492683,39.789162,55.321941,47.977581,41.591492,52.514992,75.250053,86.982422,96.128254,-31.325212,-58.015809,-80.237312,-96.25506,-52.550897,-89.552609,-84.483795,-72.845417,-42.165281,-80.825763,-75.38938,-67.351946,-33.860005,-67.631398,-66.719035,-60.758731,-27.708274,-48.14658,-62.216103,-76.175987,147.98192,50.754223,-123.874769,139.936453
42,-11.176643,-24.547363,3.883781,-10.405006,-25.592308,-44.870224,-54.360237,-60.516129,-60.381203,-77.324295,-88.796654,-94.657631,-54.636612,-77.02858,-88.373909,-94.625931,-45.092125,-64.043083,-76.416321,-83.988075,-31.250038,-44.283142,-54.337463,-61.633415,-30.603195,-52.542746,-67.633528,-79.788201,-58.905725,-84.483641,-95.867175,-99.197189,-55.108383,-83.170271,-96.416383,-101.674554,-47.964787,-74.557324,-88.68625,-96.992113,-38.467882,-56.841964,-70.466761,-80.714211,-11.563683,-15.930977,-21.646214,-34.4454,6.394043,22.625198,17.631054,11.808357,24.13084,38.670616,32.19738,28.444977,38.919468,52.743473,44.692097,39.316006,51.095581,73.376598,84.033623,93.689289,-30.909354,-57.199499,-78.862007,-92.19142,-49.8085,-88.870452,-82.762657,-70.794377,-39.772174,-81.389729,-75.997127,-66.760377,-31.809243,-69.817393,-67.941971,-60.040111,-26.4967,-49.870806,-61.716727,-72.503598,137.318687,27.889064,-119.477577,131.213651
43,10.093002,2.708867,0.381432,-10.374471,-18.492393,-39.415054,-50.458145,-59.55677,-60.886002,-80.807533,-92.78389,-100.384369,-58.3564,-80.957451,-90.838737,-97.896309,-50.182686,-69.999504,-80.093422,-87.832947,-36.471291,-51.886024,-60.98774,-69.493561,-25.852767,-45.212324,-60.133076,-73.632704,-47.479182,-72.10716,-88.320009,-103.026981,-44.315029,-73.257107,-93.39932,-111.255162,-41.889009,-70.394574,-89.877169,-105.993471,-39.693782,-60.808656,-76.399153,-90.825377,-12.115402,-18.020611,-26.890812,-40.598888,2.261581,21.057072,16.121635,9.641018,20.441551,36.809349,31.188126,26.783695,36.068344,50.076828,43.085232,37.167606,48.941345,68.88073,79.806805,89.088764,-28.732251,-53.828236,-75.006002,-88.801106,-44.060988,-82.488856,-75.318737,-62.282608,-34.035252,-73.896193,-67.969543,-58.021891,-25.550561,-61.851065,-59.744635,-52.151187,-18.923352,-42.036161,-53.430532,-63.5488,148.542967,32.708946,-117.964869,122.950196
44,-31.334839,-34.885309,-4.155865,-7.276607,-17.482681,-32.818909,-39.633064,-43.783607,-48.159714,-62.010269,-71.252518,-77.514381,-43.926773,-62.018623,-69.982567,-76.206207,-35.601883,-51.15715,-60.357628,-67.765732,-22.339668,-33.073997,-40.248871,-46.651726,-34.950486,-54.452656,-66.621902,-74.754215,-54.673166,-76.815845,-90.284722,-97.915745,-48.595536,-71.224315,-84.872082,-92.274752,-42.245896,-64.135985,-77.445885,-85.780153,-35.153058,-49.108343,-59.633392,-66.948901,-11.946774,-18.330517,-30.211143,-45.608425,-5.467358,14.931793,9.665108,3.073368,10.526218,31.350231,26.00956,20.845757,26.360092,45.070839,38.263264,32.122135,39.94669,60.275116,71.81963,80.511818,-28.408401,-54.931839,-76.573444,-89.329906,-42.248984,-77.637157,-65.855024,-52.2356,-30.780079,-67.37711,-57.738148,-46.259457,-20.059868,-53.626034,-46.983233,-37.239327,-10.748184,-32.376235,-43.779807,-54.128003,117.061501,0.040308,-122.267361,117.890259
45,3.226776,-2.377638,-9.582081,-9.569924,-16.903381,-30.682411,-38.822937,-44.184952,-40.558434,-56.246796,-64.559326,-69.278641,-39.678268,-57.429314,-66.716423,-73.558388,-37.303734,-53.670616,-63.01712,-69.80999,-32.453957,-45.355568,-52.866096,-58.59684,-28.174644,-45.057238,-57.251864,-68.236459,-52.690978,-67.230514,-77.909599,-86.678683,-49.5418,-65.962315,-76.92996,-85.908007,-44.596858,-60.415986,-72.156561,-81.811917,-38.373867,-49.069378,-58.192415,-66.310309,-13.276634,-20.433598,-27.501583,-40.513573,-7.755604,6.993942,-0.151291,-7.964001,7.313519,22.219334,14.869652,9.025612,22.480431,36.739712,29.406738,23.421535,37.057285,49.765434,44.520664,39.782524,-27.276515,-56.544544,-78.712355,-91.430624,-48.319759,-67.323263,-57.6973,-50.472409,-38.529015,-58.388503,-49.143664,-41.798638,-27.472882,-47.08929,-38.691264,-32.82655,-16.722382,-33.283225,-29.083302,-24.35356,119.98209,0.093475,-132.155628,110.751139
46,1.071854,1.040278,-6.095009,6.590467,-15.998383,-30.150375,-37.79686,-43.418427,-37.790337,-55.71785,-66.004715,-73.503914,-34.687958,-53.075638,-62.577896,-70.454979,-27.608185,-44.015236,-53.002052,-60.153008,-17.353706,-28.883057,-36.33728,-42.607384,-29.402335,-47.966794,-63.201145,-79.929641,-46.107242,-62.119587,-77.838617,-92.901241,-39.825372,-57.056084,-74.491529,-90.007987,-32.182864,-47.038994,-62.954761,-76.426015,-22.726498,-30.822379,-41.07094,-50.624748,-2.086029,-6.71339,-11.38916,-20.240879,-21.868057,-4.794502,7.106495,10.012951,-17.900562,6.648788,17.272911,18.283367,-10.294704,13.175468,22.952614,22.845612,1.117458,22.115479,29.999657,30.256634,-34.842608,-64.752933,-88.072822,-108.382254,-59.794684,-82.49889,-75.691432,-67.355373,-48.732437,-74.201796,-66.389443,-57.846088,-38.022106,-61.433447,-55.831975,-47.768297,-28.458171,-47.633836,-48.311577,-44.172509,121.114197,1.100855,-138.190384,117.308709
47,0.808067,-2.109857,9.301357,-4.633535,-13.847008,-28.114929,-37.678185,-44.55574,-32.548141,-51.931,-64.12571,-73.36647,-30.239182,-51.196518,-63.027191,-72.447052,-25.24601,-43.805809,-55.541039,-63.906441,-18.060036,-31.51577,-40.467567,-47.051582,-29.0716,-47.301526,-62.182788,-79.781378,-45.839955,-60.72517,-77.549317,-93.96094,-39.204812,-54.610057,-72.625524,-89.478817,-30.953166,-44.661726,-60.502313,-74.5099,-20.190347,-27.973122,-37.746267,-46.829783,9.879742,3.219509,-0.229568,0.097961,-30.094299,-18.569813,-0.813332,8.394642,-35.93914,-21.497726,-2.023373,7.710629,-37.188835,-26.030102,-4.828091,8.398876,-35.095654,-43.755398,-49.200726,-56.359234,-32.59971,-68.314326,-92.710772,-113.228334,-67.799235,-83.641087,-75.41232,-67.744926,-54.444937,-70.748373,-62.104057,-53.913513,-38.877041,-54.947863,-50.26959,-43.177741,-22.385728,-35.586392,-47.769964,-58.941293,121.390915,-2.135129,-129.420376,111.549047
48,3.252678,8.345193,2.291622,-4.481011,-15.412903,-30.204888,-39.782028,-46.788864,-35.745983,-54.719219,-66.71938,-75.769978,-33.245487,-54.080944,-65.945492,-75.206719,-28.145123,-46.668759,-58.387852,-66.72451,-20.735321,-34.398861,-43.472233,-50.224133,-28.632344,-47.656189,-62.642268,-79.451538,-48.309241,-65.053668,-82.241303,-98.741389,-42.321582,-59.966623,-78.775016,-96.023486,-34.507139,-50.50295,-67.160803,-81.577034,-24.170655,-33.764405,-44.465726,-54.241691,15.87101,18.487301,20.73103,28.949032,-8.780537,-5.268402,5.798264,13.754082,-21.498585,-16.637421,-3.214359,5.937595,-32.858906,-28.770447,-13.620186,-3.506699,-44.002132,-57.189732,-63.464355,-68.111629,-24.358963,-55.779703,-77.202279,-95.642897,-68.845843,-82.45091,-69.131284,-57.331059,-59.815802,-72.242918,-57.685629,-44.41244,-48.312534,-61.401954,-50.939736,-40.968558,-35.534213,-55.751205,-70.570563,-84.564287,123.058758,3.294318,-128.713589,104.15229
49,3.252678,8.345192,5.284309,0.522439,-16.978798,-32.294846,-41.885872,-49.021988,-38.943825,-57.507439,-69.31305,-78.173485,-36.251793,-56.965371,-68.863793,-77.966385,-31.044236,-49.531708,-61.234665,-69.54258,-23.410607,-37.281952,-46.476899,-53.396683,-28.193087,-48.010852,-63.101747,-79.121698,-50.778526,-69.382166,-86.93329,-103.521838,-45.438351,-65.323188,-84.924508,-102.568154,-38.061111,-56.344173,-73.819293,-88.644167,-28.150963,-39.555687,-51.185184,-61.653597,21.55735,27.588215,30.398312,37.046871,4.967709,11.04126,19.306011,23.082161,-9.100914,-0.814819,11.007099,15.595093,-22.801323,-14.64941,-0.18465,7.420006,-37.896194,-49.510117,-51.933231,-52.726421,-18.406316,-44.99947,-63.170517,-76.700835,-66.115302,-82.883595,-68.715735,-56.673046,-61.408438,-75.542644,-59.909416,-47.182965,-54.102129,-67.789695,-53.742711,-42.182818,-45.885928,-69.751814,-86.553021,-101.908125,125.742407,10.404177,-123.998308,103.439396
50,3.252678,8.345193,16.413803,4.099486,-18.544693,-34.384804,-43.989716,-51.255112,-42.141667,-60.295659,-71.90672,-80.576992,-39.258099,-59.849797,-71.782093,-80.726052,-33.943348,-52.394658,-64.081479,-72.36065,-26.085892,-40.165043,-49.481564,-56.569233,-27.753831,-48.365516,-63.561227,-78.791859,-53.247813,-73.710664,-91.625277,-108.302288,-48.555121,-70.679753,-91.074,-109.112824,-41.615085,-62.185397,-80.477784,-95.711302,-32.131271,-45.346971,-57.904643,-69.065505,16.545639,16.252213,13.813934,11.507893,2.290077,8.782539,19.844284,27.761478,-8.111801,-1.183891,13.212891,21.882133,-18.448048,-13.415852,2.939014,13.568916,-30.00103,-42.11792,-44.983749,-46.97073,-24.719369,-49.464859,-65.27389,-77.062291,-62.974923,-77.501275,-67.236874,-58.307271,-59.389416,-73.541746,-59.383982,-45.03791,-53.686024,-69.052151,-57.591553,-45.556459,-46.892923,-72.501684,-90.973609,-105.6456,128.797389,19.056718,-107.782202,107.84623
51,3.252677,8.345192,14.522552,4.001735,-20.110588,-36.474761,-46.093559,-53.488235,-45.339508,-63.083877,-74.500389,-82.980499,-42.264404,-62.734222,-74.700393,-83.485717,-36.84246,-55.257606,-66.928291,-75.178718,-28.761177,-43.048133,-52.486228,-59.741783,-27.314574,-48.720179,-64.020707,-78.462018,-55.717098,-78.039162,-96.317263,-113.082737,-51.67189,-76.036318,-97.223491,-115.657492,-45.169057,-68.02662,-87.136273,-102.778435,-36.111579,-51.138253,-64.624101,-76.477411,0.331364,-4.037476,-5.615902,-3.885269,-16.638737,-15.530949,-10.934544,-6.073837,-17.153206,-6.020908,8.246441,19.248734,-16.849823,-6.052666,6.227531,14.357128,-16.667175,-21.288414,-19.964046,-18.428535,-15.713998,-31.122424,-44.23923,-50.986729,-49.696021,-65.812416,-71.568141,-75.412475,-51.700656,-61.888949,-48.792242,-35.715759,-52.613945,-63.797346,-52.509216,-41.399977,-52.166131,-73.484102,-86.836301,-94.976024,132.793531,27.765357,-92.516184,112.211413
52,3.252678,8.345193,14.310837,1.436376,-21.676483,-38.56472,-48.197403,-55.721359,-48.537349,-65.872097,-77.094059,-85.384006,-45.27071,-65.618648,-77.618694,-86.245384,-39.741573,-58.120555,-69.775104,-77.996788,-31.436462,-45.931224,-55.490894,-62.914333,-26.875318,-49.074843,-64.480187,-78.132179,-58.186384,-82.36766,-101.00925,-117.863186,-54.78866,-81.392884,-103.372984,-122.202161,-48.723031,-73.867845,-93.794764,-109.845569,-40.091887,-56.929537,-71.34356,-83.889319,-1.601543,-3.5182,-2.582188,3.064728,-11.712513,-5.925064,1.048107,5.782871,-14.129162,0.064716,14.242287,24.352512,-14.780273,-0.568829,13.474503,22.225285,-14.333038,-17.065029,-12.52676,-7.289143,-9.198403,-19.745497,-27.568718,-30.747753,-42.154721,-51.838174,-47.917332,-45.267652,-44.303142,-50.835749,-38.526329,-27.73316,-46.477436,-53.722673,-42.935741,-33.938551,-48.31803,-69.710009,-82.366466,-90.877526,136.191635,36.496274,-78.059921,114.033513
53,3.252678,8.345193,3.726826,1.176716,-23.242378,-40.654678,-50.301247,-57.954483,-51.735191,-68.660316,-79.687729,-87.787514,-48.277016,-68.503075,-80.536995,-89.005051,-42.640686,-60.983505,-72.621918,-80.814857,-34.111748,-48.814316,-58.49556,-66.086884,-26.436062,-49.429507,-64.939666,-77.802339,-60.65567,-86.696158,-105.701237,-122.643636,-57.90543,-86.749449,-109.522476,-128.74683,-52.277003,-79.709068,-100.453255,-116.912703,-44.072195,-62.72082,-78.063018,-91.301226,2.196064,5.297298,11.131382,18.903522,0.052986,4.988365,10.809002,14.530735,-2.428951,12.659111,27.303257,36.735649,-3.697586,11.187344,25.708179,34.851265,-4.819393,-0.248737,6.914978,13.317032,-7.819084,-16.123774,-21.685294,-23.099162,-36.927889,-48.407074,-48.489141,-50.628731,-39.204225,-45.060171,-31.835178,-20.609941,-41.120896,-47.39094,-38.148571,-31.091024,-41.861469,-60.268958,-68.073006,-72.409737,139.453325,45.051433,-74.324083,115.420196
54,-4.632568,-0.15805,27.632046,26.336427,-23.532028,-39.208946,-47.064056,-54.783325,-48.13282,-62.72747,-74.350319,-83.226471,-43.025551,-59.984093,-72.409286,-82.564545,-35.445328,-50.667114,-62.849808,-72.39212,-25.13855,-37.750168,-47.767181,-56.051445,-22.33392,-43.925723,-60.20696,-74.50144,-50.179404,-73.619644,-92.683818,-110.231093,-46.756455,-73.318302,-95.785325,-115.893976,-41.527739,-67.578385,-87.015037,-102.939234,-34.779962,-53.219623,-67.527719,-79.229329,26.624165,40.213795,52.313576,66.715965,12.42445,24.842148,32.098446,33.36525,-3.154106,11.801662,20.761814,24.17284,-18.047276,-3.582058,10.079956,16.358299,-31.427364,-36.612225,-37.735634,-37.555962,-18.593883,-50.483679,-70.657044,-83.148257,-71.957446,-82.723785,-60.876242,-42.749007,-67.401254,-75.853589,-51.811405,-33.755986,-58.556557,-67.18732,-46.053025,-28.971317,-49.020966,-75.598714,-92.329093,-106.970733,134.795723,44.47419,-46.717072,141.33743
55,-0.516586,1.472253,1.969414,4.490984,-22.416458,-38.17646,-45.755997,-53.214684,-46.221085,-60.644073,-72.062988,-80.214157,-40.95623,-57.236595,-70.331612,-81.122818,-33.569183,-49.160156,-61.049538,-70.736732,-23.946762,-37.412224,-47.459564,-55.616684,-17.975854,-37.55586,-52.946162,-64.985115,-47.58391,-69.504504,-88.344184,-106.260078,-45.462166,-70.375926,-91.696645,-111.070126,-41.132876,-65.871789,-84.081769,-99.11642,-34.96015,-52.808335,-66.336275,-77.626783,23.044338,37.325592,48.772545,65.026474,11.946545,23.636284,31.062183,34.646645,-2.780628,11.632118,21.137409,25.621319,-17.328072,-4.911118,8.359051,16.145382,-30.61861,-34.867516,-35.548382,-34.093208,-18.415702,-50.421527,-70.626478,-84.432326,-72.756188,-82.775439,-63.233688,-46.368199,-69.223817,-75.967642,-53.564314,-35.793503,-62.215146,-70.665535,-51.852562,-36.877747,-53.585865,-78.77392,-94.978988,-110.383616,134.100351,45.406298,-44.926443,145.288268
56,0.065231,0.955433,1.209641,-2.822611,-20.163345,-35.286369,-42.952652,-50.775261,-43.112297,-57.554169,-69.04747,-77.449837,-39.163284,-55.282974,-68.447456,-79.229622,-33.105812,-47.733994,-58.984451,-68.502617,-24.849472,-36.737938,-46.109505,-54.162483,-16.409246,-35.100663,-49.52204,-60.251791,-46.372367,-67.053568,-84.621283,-101.660105,-44.297862,-67.369298,-87.602345,-106.291355,-39.674269,-62.714089,-80.350624,-95.464748,-32.787462,-49.743693,-62.90357,-74.05236,23.846569,37.052536,47.383461,64.054298,10.429173,23.175716,31.318645,34.595776,-3.966465,11.845837,21.564503,25.847683,-18.063183,-3.567696,9.693489,17.185535,-30.873814,-35.351772,-35.662022,-33.815689,-18.868456,-50.201294,-69.299369,-82.526276,-72.844707,-80.209401,-62.155711,-45.685054,-69.078179,-74.81649,-53.764262,-36.342649,-61.875364,-69.028717,-50.259494,-36.429532,-52.711418,-77.364652,-94.267037,-111.021374,133.799515,46.063075,-44.08287,142.167001
57,-0.424232,0.136499,0.817738,-2.270933,-22.596703,-37.388763,-44.699249,-52.827988,-43.868523,-57.238197,-68.403854,-76.355324,-38.904076,-53.873062,-67.111015,-78.027534,-31.708603,-45.2845,-56.919365,-66.956863,-22.064095,-33.353806,-43.275604,-51.662178,-14.544754,-33.566289,-48.697919,-60.120108,-43.832542,-63.953759,-81.40211,-98.127271,-42.528126,-64.639776,-84.269676,-103.082587,-38.748661,-61.274069,-78.56789,-94.110839,-33.090656,-49.879389,-62.50176,-73.605966,24.05714,37.257156,48.009853,64.705753,10.620804,23.096581,31.378727,35.079803,-4.084797,11.448956,21.462193,26.251202,-18.277588,-3.337841,9.776173,17.19183,-31.025562,-35.512104,-35.853653,-34.109173,-19.307903,-50.353108,-68.9364,-81.856748,-72.570782,-79.343104,-61.539442,-45.454633,-68.770199,-74.19312,-53.495987,-36.039733,-61.251839,-68.051362,-49.236043,-35.437265,-51.849938,-76.295598,-92.855885,-109.369397,133.242388,46.425056,-43.398027,140.121549
58,-1.568413,-0.877782,-0.499134,-0.667398,-22.143745,-36.780739,-44.09832,-52.159081,-42.17411,-54.659615,-65.371513,-72.922783,-37.117653,-51.110344,-63.572044,-74.06353,-30.04921,-42.771378,-53.509598,-62.824745,-20.485725,-30.398827,-39.526978,-47.159271,-15.347108,-34.335915,-49.732454,-61.684493,-44.061698,-63.876911,-81.264685,-98.481101,-42.445257,-64.143611,-83.7188,-102.790662,-38.114793,-59.760968,-77.262826,-93.332104,-31.868369,-47.491717,-60.079322,-71.374214,24.151669,37.059002,47.497101,63.713608,10.425682,23.162041,31.823273,35.52309,-3.926697,11.934013,22.334747,27.203865,-18.072968,-3.214417,10.431461,18.275299,-30.55624,-35.064068,-35.237331,-33.167267,-19.354926,-50.145348,-68.816141,-82.097945,-71.503179,-79.721017,-61.867985,-45.64257,-67.771015,-74.480259,-53.841728,-36.775612,-60.468535,-68.397134,-49.94784,-36.294175,-51.446306,-76.554024,-93.598619,-110.438451,131.59358,46.044241,-43.977556,139.951118
59,0.315742,-0.713156,0.844688,-1.417975,-22.655525,-36.791725,-43.602905,-51.760597,-41.820145,-54.632149,-65.733147,-73.359833,-36.305122,-50.375748,-62.92717,-73.263245,-28.888893,-41.534271,-52.350883,-61.809082,-19.053497,-29.164925,-38.320084,-45.876389,-14.017097,-33.333089,-48.891784,-61.055967,-42.548597,-62.412562,-79.845598,-96.526669,-40.971614,-62.935186,-82.636933,-101.465745,-36.789012,-58.889824,-76.307732,-92.303157,-30.608846,-46.730273,-59.405564,-70.892066,23.880844,36.951485,47.732391,64.383087,10.000935,22.460804,30.826435,34.518414,-4.560299,11.221676,21.517639,26.658039,-18.621769,-3.277359,10.069771,17.929916,-31.090565,-35.987148,-36.56496,-34.686356,-19.739878,-50.446783,-68.95511,-82.078092,-71.705659,-79.561423,-61.915069,-45.797811,-67.753972,-73.737772,-53.41389,-36.160763,-60.107913,-67.211865,-48.888882,-35.163247,-50.64105,-75.682077,-92.707098,-109.370199,131.88941,45.80502,-43.152781,139.007078
60,-0.371361,-0.725722,-0.883999,0.307826,-21.849976,-36.211853,-43.567657,-52.678299,-41.280327,-54.096222,-65.212898,-72.793465,-35.783958,-49.710388,-61.720963,-71.54892,-28.290825,-40.559921,-50.778694,-59.508018,-18.304367,-27.866936,-36.643867,-43.747787,-15.183006,-35.103071,-50.901297,-63.83736,-42.991131,-61.613727,-78.880501,-95.873721,-40.777718,-61.387906,-80.769755,-99.755321,-35.832807,-56.502121,-73.937319,-90.290928,-28.952576,-43.821983,-56.258546,-67.737547,23.665752,36.984158,48.087559,64.744663,10.506706,23.659229,32.021313,35.500374,-4.110088,12.218971,22.473507,27.447853,-18.025303,-2.997322,10.872574,19.277973,-30.265617,-34.521446,-35.188465,-33.390942,-19.233895,-50.399853,-69.411755,-82.340593,-72.334988,-80.645019,-62.861981,-46.68609,-68.398029,-74.221587,-53.563728,-36.451083,-60.677746,-68.40618,-50.427362,-36.930266,-50.981789,-75.507416,-91.764817,-107.980228,131.485291,45.419188,-44.069538,139.654794
61,-0.449066,-0.516079,1.768398,-0.578725,-19.936752,-33.157654,-39.762611,-46.304054,-38.242378,-51.840706,-62.576637,-69.5858,-34.090233,-49.33239,-62.079048,-72.336617,-28.240356,-42.709351,-54.255753,-63.744965,-20.275383,-32.402573,-41.900482,-49.350014,-13.070524,-31.6804,-46.433099,-57.767202,-41.462839,-61.04022,-78.189421,-94.746065,-40.354604,-61.539256,-80.89977,-99.420633,-37.315959,-59.353446,-76.486067,-91.779637,-32.694003,-49.941634,-62.939879,-74.250085,22.595673,35.107841,45.885658,63.632469,8.80125,21.137066,29.975109,33.864784,-5.71804,10.340767,20.94017,26.022434,-19.517326,-4.684296,9.294205,17.575893,-31.661854,-36.070518,-36.72123,-35.223942,-18.580452,-50.20679,-69.232956,-82.037151,-71.523897,-81.083046,-63.670356,-47.471308,-67.444232,-73.926142,-53.176151,-35.966929,-59.719595,-68.055438,-50.138926,-36.667333,-49.998351,-74.798892,-91.149876,-107.615932,130.969219,45.181511,-42.368145,139.35447
62,-0.169373,-0.943114,-0.173779,-1.016103,-16.348228,-28.817596,-35.699387,-41.437912,-32.718773,-47.326126,-58.794365,-67.009964,-31.17897,-47.757454,-61.387367,-72.255707,-28.755684,-44.455605,-56.447182,-66.088142,-25.087509,-38.08548,-47.238579,-54.556274,-12.589674,-30.280889,-42.956242,-51.544273,-42.535567,-60.852777,-76.675764,-92.068043,-41.130066,-61.374167,-79.636542,-97.082516,-37.630207,-59.159643,-75.598961,-90.020059,-32.59125,-50.529961,-63.663625,-75.079887,22.984486,35.194359,45.668278,62.7281,9.130096,21.605415,30.453987,34.362144,-5.340958,10.605011,21.418419,26.53616,-19.224072,-4.188251,9.905262,17.907829,-31.26955,-36.381912,-37.030621,-35.684338,-18.449541,-49.677959,-68.511897,-81.93304,-70.563678,-79.750163,-61.991362,-46.043083,-66.68109,-73.67735,-52.700055,-35.343095,-58.939101,-67.756164,-49.494036,-35.972764,-49.299738,-74.535588,-91.138174,-107.775557,130.762367,44.361511,-42.579403,138.461482
63,-1.285515,-0.519074,0.733452,-0.407491,-18.376579,-30.53627,-36.291275,-41.63681,-34.426346,-47.560616,-58.058395,-65.462837,-31.940804,-46.371117,-58.522339,-68.109856,-28.225708,-41.817055,-52.85408,-61.789513,-22.961884,-34.713707,-43.483315,-50.700302,-10.886999,-28.536841,-41.357524,-49.985415,-39.767945,-58.156785,-74.239248,-89.839007,-39.505721,-59.406582,-77.613352,-94.990659,-37.358413,-58.732885,-75.129102,-89.682779,-33.74802,-51.490921,-64.766827,-76.248421,22.705193,35.114079,45.372677,62.223072,9.583969,21.450634,30.167999,34.376621,-5.083466,10.187531,20.832195,26.238899,-19.155807,-5.024357,8.806744,16.986408,-31.673012,-36.609364,-37.198734,-35.728912,-18.253731,-49.784078,-68.811263,-81.898213,-71.116159,-79.515728,-61.433663,-45.126676,-67.058045,-73.582069,-52.674676,-35.138578,-59.085635,-67.508298,-49.339567,-35.906938,-49.118346,-73.811996,-90.076499,-106.554257,129.448786,43.923979,-41.874018,138.135533
64,-1.0952,-1.351686,-0.551033,-0.129429,-16.703568,-28.304787,-34.056244,-38.915634,-31.270752,-44.865189,-56.099167,-64.94854,-29.078178,-44.456635,-57.531281,-68.201866,-26.113014,-40.518036,-52.075081,-61.618996,-22.013741,-34.169998,-42.986755,-50.695038,-9.984733,-26.119158,-37.871034,-45.343235,-39.734229,-57.815182,-73.019183,-87.552945,-39.043767,-58.942312,-76.781419,-93.582626,-36.404708,-57.864489,-74.218283,-88.385866,-32.506034,-50.712371,-63.314673,-74.043036,23.03421,35.320244,45.575123,62.591572,9.294147,21.821766,30.483799,33.889618,-5.191898,10.768147,21.664238,26.409817,-19.149113,-4.245701,9.992237,17.68919,-31.405506,-36.56662,-37.031078,-35.660534,-18.615217,-49.969051,-68.811016,-82.029494,-70.794624,-80.260036,-62.339387,-46.374158,-66.885453,-74.135661,-53.013408,-35.955196,-59.227784,-68.122561,-49.696515,-36.467447,-49.741964,-74.763941,-91.40154,-108.344278,128.317652,42.709534,-42.460985,138.143344
65,39.051704,40.010006,-0.595951,-0.471897,-15.275803,-34.264641,-46.855888,-55.493431,-53.774643,-77.857819,-92.368698,-104.111824,-52.52758,-78.747253,-94.501648,-108.624229,-48.963203,-72.025795,-88.481827,-102.23568,-42.190018,-62.092438,-75.57312,-87.687378,-33.057929,-57.717863,-70.997999,-82.845649,-69.662678,-93.323089,-114.786421,-136.480915,-65.284018,-91.904126,-117.439465,-143.564027,-59.872366,-86.712429,-111.021405,-132.689007,-53.682628,-73.188626,-92.110836,-110.000208,22.939796,35.203342,45.787354,62.752647,9.361897,21.855583,30.690708,34.415874,-4.973373,11.03857,22.10638,27.242947,-18.729515,-3.527412,11.046696,19.364433,-30.76767,-35.967865,-36.585846,-35.104866,-18.785618,-49.978962,-68.642283,-81.824514,-70.732874,-80.228111,-62.744655,-46.825955,-66.766058,-74.169223,-53.462951,-36.428513,-59.098448,-67.760271,-49.758852,-36.633031,-49.74749,-74.972318,-91.651196,-108.53484,167.345724,82.852519,-43.080568,137.804427
66,-6.729355,-10.957394,-0.492954,-0.69037,-21.226845,-40.947418,-55.342598,-66.679573,-54.787102,-74.512711,-86.833305,-97.698441,-53.277168,-75.57724,-88.869896,-102.026367,-49.984818,-70.153542,-83.35247,-95.365448,-44.345055,-60.299149,-71.231117,-81.146851,-33.203073,-55.418864,-68.507543,-82.073708,-64.001678,-85.554084,-104.524644,-124.185729,-61.025678,-87.045202,-109.747587,-133.227687,-56.408693,-82.767288,-103.443426,-121.961263,-50.79274,-70.036669,-86.910741,-102.521924,22.768364,35.081806,45.899334,62.876759,8.701401,21.364174,30.473156,34.545593,-5.453625,10.591507,21.914749,27.328606,-19.185219,-4.295769,10.535889,19.157295,-31.218052,-36.18576,-36.534748,-34.771557,-18.400666,-49.36189,-67.872471,-81.072209,-70.249986,-79.439682,-62.233115,-46.554315,-66.455917,-74.078666,-53.435256,-36.411717,-58.867501,-67.933265,-50.06322,-36.950675,-49.387393,-74.422307,-91.071514,-107.960129,160.577574,72.008313,-43.612318,137.227246
67,-8.39859,-9.338113,-0.61718,-0.067802,-26.211433,-43.360062,-55.449715,-64.997978,-52.609749,-69.667511,-81.46843,-91.135483,-50.248718,-71.026382,-85.464249,-98.508453,-46.901779,-66.005745,-80.139084,-92.132378,-42.565498,-57.735214,-69.092331,-79.505081,-26.155591,-47.233477,-60.651563,-73.251148,-62.372764,-84.71397,-102.879614,-120.464711,-60.289027,-86.724532,-107.69065,-128.058498,-55.712395,-82.427754,-101.736058,-117.780575,-49.148419,-68.835006,-84.244883,-98.100286,22.833595,35.230064,46.170559,63.375378,8.522816,21.468143,30.568829,34.728584,-5.619564,10.438156,21.556892,27.065849,-19.41782,-4.749012,9.921284,18.564034,-31.52441,-36.280804,-36.795673,-35.306225,-18.29958,-49.839591,-68.786038,-82.135767,-70.19793,-79.333379,-61.976758,-45.913438,-66.3749,-74.327705,-53.487682,-36.192966,-58.889114,-68.29117,-50.1782,-36.862989,-49.548901,-74.415205,-91.074077,-108.187926,152.150917,62.737461,-44.257565,137.226706
68,-7.430077,-6.87455,-1.232471,0.139124,-28.576241,-45.63858,-56.429672,-65.453796,-52.478256,-68.5326,-78.949242,-86.344757,-48.182487,-67.135849,-80.1614,-91.725197,-42.525444,-59.820786,-72.984123,-84.181366,-34.996834,-47.968254,-58.76049,-68.945847,-22.897609,-44.499477,-59.819785,-73.053825,-58.323943,-80.171517,-98.490826,-116.259816,-56.669742,-82.125084,-102.383881,-122.603899,-52.760972,-78.067341,-96.380012,-112.508139,-46.933462,-64.979032,-79.101104,-92.215904,23.20467,35.950356,46.438866,62.733536,9.183941,21.588135,30.445404,34.235516,-5.205231,9.927177,21.118698,26.5765,-19.172745,-5.604229,9.298382,18.015175,-31.329803,-36.093121,-36.325035,-34.753819,-18.683544,-49.929098,-68.952239,-82.569996,-70.904447,-80.09473,-62.412531,-46.655802,-67.00494,-74.458801,-53.859389,-37.07257,-59.497819,-68.698414,-50.921736,-37.690012,-50.095022,-74.729546,-91.391845,-108.210928,144.729538,55.873471,-45.481339,137.376389
69,-6.262093,-5.70262,0.131378,-0.019698,-26.535645,-42.075806,-51.083565,-59.097633,-47.248878,-62.888718,-74.210243,-82.380867,-43.585396,-62.773933,-76.861382,-89.254303,-38.704033,-56.493759,-70.10273,-81.639862,-32.059021,-45.046806,-56.210976,-66.748695,-19.44082,-41.102834,-56.533892,-68.668033,-57.656576,-77.996513,-95.557991,-113.049937,-55.804712,-79.315749,-98.898781,-118.230797,-51.534702,-75.673586,-93.414634,-108.854089,-44.827804,-62.048265,-76.112971,-88.980121,22.848129,35.11116,45.821915,62.685928,8.455639,20.801582,29.750175,33.606606,-5.796947,9.271717,20.549755,25.968246,-19.651623,-6.009979,8.972511,17.637863,-31.904068,-36.966019,-37.491131,-36.163445,-18.731123,-50.329612,-69.275317,-82.554867,-70.399916,-79.876628,-62.334509,-46.420841,-66.524089,-74.933106,-54.082616,-36.882904,-59.00255,-68.756583,-50.65198,-37.02036,-49.588174,-74.436355,-91.299528,-108.440423,138.455715,50.191491,-45.361691,137.37733
70,-3.57708,-2.236353,-0.949345,0.082931,-22.729111,-38.223381,-45.330505,-50.783386,-47.655373,-62.514381,-74.114342,-81.975746,-43.429642,-60.415649,-73.83007,-84.569321,-36.292076,-51.968422,-64.443741,-74.283829,-26.435165,-39.632149,-49.777222,-58.23967,-18.198495,-37.40596,-52.474111,-63.141711,-49.304833,-72.430454,-90.824791,-108.098635,-48.032465,-74.100464,-95.317041,-114.895287,-45.279632,-71.505341,-89.787569,-104.874183,-41.142694,-60.642301,-74.815286,-86.911821,23.028374,35.408077,45.885258,62.58379,8.593655,21.130028,30.176754,34.0555,-5.847645,9.263077,20.698128,26.249943,-19.762573,-6.246357,8.98201,17.937698,-31.859493,-36.510658,-36.769924,-35.262909,-18.605708,-49.979518,-68.892187,-81.921925,-70.56553,-79.960701,-62.281095,-46.231885,-66.620667,-75.056947,-54.133097,-36.786635,-59.01808,-68.887092,-51.010657,-37.393487,-49.644799,-74.326624,-90.876599,-107.694972,134.868793,48.005974,-46.320877,137.511097
71,-0.928459,-3.080234,-0.142422,-0.488631,-21.906395,-36.896553,-45.224876,-52.927208,-40.959663,-56.383781,-68.248901,-77.0224,-38.112373,-56.13224,-70.698853,-83.131599,-34.398308,-51.477242,-64.633369,-75.579529,-29.759903,-43.378258,-53.563499,-62.437134,-18.221095,-37.425751,-51.340558,-61.076097,-51.475236,-71.656135,-88.384167,-104.857819,-48.528043,-71.33281,-90.360551,-108.558922,-43.037938,-66.332323,-83.308098,-97.552869,-35.267945,-52.839025,-66.329298,-77.830528,23.13343,35.29644,45.860596,62.679749,8.361626,20.90023,30.031757,34.146023,-6.074982,9.187603,20.586777,26.077194,-19.93372,-5.907211,8.91243,17.470036,-31.935711,-36.741428,-37.122688,-35.71106,-18.669774,-49.952286,-68.72086,-81.734821,-70.034847,-79.326247,-61.639724,-45.579554,-66.350879,-74.605767,-53.885139,-36.588385,-58.739863,-68.380832,-50.539347,-37.052254,-49.339135,-74.141558,-90.792403,-107.678547,133.925772,44.932981,-46.477861,137.029706
72,-1.11248,-0.372448,-1.256847,0.384643,-18.657761,-32.983475,-40.59391,-46.871452,-40.066681,-55.866165,-67.575188,-75.904884,-37.840233,-55.820847,-69.748192,-80.887299,-34.002914,-49.817734,-61.877861,-71.397972,-28.515587,-41.572838,-50.635414,-57.997742,-17.475212,-35.052807,-47.628124,-56.338884,-47.996743,-67.787688,-84.8438,-100.849816,-45.622285,-68.48695,-88.383612,-106.684365,-41.023022,-64.669292,-82.34402,-97.16097,-34.730562,-53.145369,-66.913981,-78.380446,23.398476,35.755405,46.124325,62.514439,9.595642,21.763687,30.47842,34.469604,-4.903164,9.85611,20.83128,26.339436,-18.90501,-5.367908,9.234352,17.830238,-30.99575,-35.644226,-36.22982,-35.178795,-18.860521,-50.077052,-68.96039,-82.453349,-70.34008,-79.355454,-61.730961,-45.549636,-66.568457,-74.309087,-53.654285,-36.137483,-58.988748,-68.511094,-50.638147,-36.971454,-49.786548,-74.825166,-91.463506,-108.242421,132.829742,44.518373,-47.718258,137.37219
73,-1.605377,-0.620345,-0.118847,-0.462387,-19.560585,-33.093338,-40.138206,-46.168671,-38.785629,-52.989464,-63.934937,-71.82312,-36.41613,-52.788734,-66.316566,-77.187309,-32.861595,-48.324051,-60.694084,-70.55706,-27.945786,-40.893745,-50.655212,-58.742752,-14.932948,-33.314409,-46.479288,-55.128298,-47.558438,-66.51847,-83.125688,-99.202191,-45.818559,-67.839867,-86.998735,-104.968723,-41.836522,-64.566879,-81.511779,-96.046375,-36.066347,-53.595467,-66.793414,-78.136717,23.048458,35.753632,46.7062,63.781586,7.792568,20.603828,29.614277,33.817062,-6.292877,9.177589,20.202026,26.152382,-19.589481,-5.398064,9.016514,17.852325,-31.107502,-35.869446,-36.362114,-34.726868,-18.991401,-50.220221,-69.187107,-82.292273,-71.579966,-79.310006,-62.585061,-46.533134,-67.328481,-73.722921,-53.568143,-35.943742,-59.548639,-67.546182,-49.872967,-36.338234,-49.897853,-74.394087,-91.105415,-107.733813,131.207342,43.885354,-47.854128,136.897128
74,-1.271782,0.666781,-2.081108,0.645354,-20.453224,-33.678818,-39.975128,-45.139618,-38.521843,-52.535706,-63.594818,-71.548805,-35.55851,-51.561127,-64.880905,-75.259552,-31.006966,-45.739632,-57.688866,-67.218132,-24.714088,-36.756248,-46.285744,-54.097366,-11.500613,-29.69213,-43.002308,-51.828418,-44.874302,-64.319167,-80.932344,-96.741808,-44.441772,-66.296446,-85.135324,-102.764912,-41.519526,-64.116256,-80.639894,-95.200579,-36.592152,-53.654285,-66.405837,-77.573554,23.967476,36.800251,47.081223,63.434944,8.77739,22.52964,31.523037,35.140686,-5.403328,10.662746,21.900787,27.359219,-18.938599,-4.492035,10.2911,18.770485,-30.386581,-34.72641,-34.648132,-32.755566,-19.06615,-50.356041,-69.66524,-83.186419,-71.954235,-79.97441,-62.664565,-46.975453,-67.774937,-74.439165,-53.779638,-36.590546,-59.968604,-68.120615,-50.079152,-36.705742,-50.444838,-74.968798,-91.815206,-108.624316,129.905577,44.562277,-49.965219,137.552624
75,0.401459,-0.742147,1.238079,-0.468994,-19.480476,-32.757111,-39.759407,-46.681137,-37.35775,-51.674995,-63.162804,-71.517448,-34.722061,-50.881462,-63.753891,-74.122009,-30.802345,-45.507088,-56.888237,-66.4151,-25.119553,-36.552887,-45.552864,-53.020935,-12.930783,-31.130173,-44.433003,-54.0778,-45.348607,-63.977965,-80.546188,-96.502741,-43.458087,-64.359398,-82.850343,-100.30141,-38.744617,-60.148575,-76.511169,-91.105292,-31.511297,-47.617719,-60.049775,-70.821918,23.222923,35.893879,46.518688,64.033184,9.061203,21.036301,30.143681,34.479504,-5.424957,9.435139,20.685654,26.491928,-19.201469,-5.474281,9.055824,17.672138,-31.310005,-35.90538,-35.819378,-33.71973,-18.442347,-50.285182,-69.713591,-82.527851,-71.352539,-79.139235,-62.055922,-46.140093,-67.249502,-73.819684,-53.28653,-35.547273,-59.403804,-67.287818,-49.262256,-35.607974,-49.628528,-73.947816,-90.506961,-107.015131,130.192051,43.823727,-48.842125,137.087227
76,-1.472855,-1.172301,-0.967941,0.608921,-16.519661,-28.950348,-35.950584,-41.747017,-33.722076,-48.893051,-60.272827,-68.461418,-32.655258,-49.719772,-62.472725,-72.377014,-30.618896,-46.095657,-57.290382,-66.116524,-27.285805,-39.725075,-48.295555,-55.179062,-12.187802,-29.274975,-41.166159,-49.740266,-44.916447,-62.839195,-78.520867,-93.722645,-43.328535,-63.783915,-81.597519,-98.418949,-39.072882,-60.252378,-76.237213,-90.36475,-32.45086,-48.598655,-61.03278,-72.034727,23.398304,36.449146,47.004147,62.977467,9.365902,21.859531,31.038723,35.39217,-4.899845,10.194626,21.418819,27.274246,-18.526955,-4.838161,9.711056,18.540459,-30.396423,-34.580269,-34.602528,-32.491436,-18.788427,-50.621506,-70.230349,-83.941719,-72.252243,-80.16775,-63.105895,-47.231161,-68.004123,-74.409524,-53.965476,-36.435398,-60.130359,-68.2079,-50.496801,-36.880372,-50.283144,-73.817153,-90.028674,-106.035646,128.653679,42.615272,-49.875584,137.659993
77,0.164909,-0.018247,0.197353,-0.563843,-17.667503,-30.270882,-37.512817,-43.679924,-32.541962,-47.530632,-58.639069,-66.662636,-31.584549,-48.487701,-61.725998,-71.922226,-29.897003,-45.540619,-57.207756,-66.505966,-27.141724,-39.699898,-48.522606,-55.613365,-11.223446,-28.436435,-40.034212,-47.854099,-44.655768,-62.119247,-77.468516,-92.547071,-43.236558,-62.819312,-80.119894,-96.388842,-38.882351,-59.352705,-74.676193,-88.470742,-32.283887,-47.969789,-59.760752,-70.416156,23.190193,36.036701,46.210785,61.717415,7.470245,20.330315,29.820614,33.952446,-6.284409,9.180622,20.836029,26.557446,-19.439278,-5.664768,9.096165,17.656002,-30.703754,-34.649734,-34.505424,-32.612514,-18.534448,-50.457589,-70.123089,-84.145218,-71.723381,-80.343646,-63.482912,-47.714667,-67.429443,-74.428111,-53.834935,-36.34302,-59.561144,-68.128427,-50.258444,-36.624138,-49.70692,-73.008778,-89.428398,-105.843849,128.810835,42.497869,-49.685984,136.996994
78,-0.923996,1.103387,-2.18502,-1.375737,-19.381142,-31.699333,-38.312988,-44.347572,-35.175819,-48.514366,-59.471512,-67.754745,-32.754822,-48.10936,-61.146812,-71.243019,-29.175453,-43.371506,-55.038986,-64.543076,-24.398003,-35.885582,-44.797783,-52.25544,-9.584683,-26.52739,-38.637109,-47.075859,-42.166207,-59.80867,-74.963086,-89.233452,-41.636172,-61.732072,-79.26076,-95.322969,-38.75956,-59.742566,-75.165288,-88.631169,-33.920798,-50.295834,-62.320121,-72.854186,23.990135,36.232224,46.059036,60.645332,6.240578,20.91814,31.229038,35.400295,-6.835442,10.555744,22.790623,28.393021,-19.300346,-3.420696,12.131596,20.748367,-29.810314,-33.141747,-32.050552,-29.119434,-19.932755,-51.728474,-71.448808,-85.803124,-71.794641,-80.488636,-64.214624,-49.138878,-67.279019,-75.292493,-55.072475,-38.028899,-59.286756,-68.014466,-50.179342,-36.681752,-49.245213,-72.199724,-88.492015,-104.578028,127.932014,43.415881,-51.825829,135.435882
79,-1.238022,1.360794,-0.409641,-2.221656,-16.796036,-28.713913,-35.992928,-42.875633,-30.175552,-44.555397,-56.142998,-65.163574,-29.358788,-45.239754,-59.153137,-70.269928,-28.272171,-43.811531,-56.477394,-66.799736,-26.67572,-39.431305,-48.950958,-56.821175,-11.724489,-28.448044,-39.375212,-47.413973,-45.243323,-62.280786,-76.755731,-90.893704,-43.54142,-62.978412,-79.618326,-95.508621,-39.150224,-59.057168,-73.954393,-87.198714,-32.490103,-48.294287,-59.760999,-70.026974,23.564587,34.976692,43.120422,56.168919,7.470932,21.200466,30.977497,35.258389,-5.837116,10.42305,21.841335,27.430401,-18.654041,-3.828449,10.76334,19.163876,-29.742851,-32.030354,-29.296818,-24.303989,-19.999631,-52.033923,-72.109321,-86.607639,-71.04354,-78.485237,-62.51621,-47.878213,-66.479475,-73.373476,-54.042571,-37.383638,-58.60886,-66.692452,-49.824648,-36.75542,-48.780386,-70.462747,-85.575975,-99.676959,126.71339,44.671545,-52.216072,133.109095
80,-0.251999,1.477039,-1.510735,-2.281492,-19.850349,-33.007965,-42.242546,-50.995903,-30.306358,-45.279121,-57.853775,-68.407974,-28.093414,-45.763092,-60.588112,-72.91008,-25.592651,-42.604179,-56.456909,-67.660675,-22.798119,-35.772858,-46.867676,-55.969162,-15.191281,-33.391968,-45.620463,-56.001325,-45.142052,-62.429296,-77.033485,-90.674367,-41.52249,-60.015195,-76.299735,-90.804351,-34.952987,-53.108689,-67.607686,-79.91269,-26.017672,-40.251728,-51.460015,-60.689169,22.081661,32.458534,40.271473,51.053295,4.639206,20.885468,30.515327,33.269749,-7.46212,11.618557,22.594013,27.00079,-19.184303,-1.971703,12.352982,20.192356,-29.359646,-29.866505,-24.916534,-17.515411,-20.3245,-52.436011,-72.446139,-89.17201,-70.047506,-79.280798,-63.64581,-50.16906,-64.299345,-71.854725,-53.049563,-38.528768,-55.782821,-65.157429,-48.873413,-36.526388,-45.328569,-66.441282,-80.350655,-93.09983,126.251907,45.906553,-53.936291,130.585572
81,-1.150017,2.723502,-1.479435,-1.243468,-15.225449,-27.778702,-36.584244,-43.700867,-33.701935,-50.944405,-63.902893,-74.928818,-32.797165,-52.116966,-67.494507,-80.306625,-30.609627,-49.342918,-64.511833,-76.226807,-28.026352,-43.95607,-56.255379,-66.309586,-17.384655,-33.255252,-43.703051,-53.228052,-41.355609,-58.725599,-71.49438,-83.193706,-37.508188,-56.975345,-72.006939,-85.774348,-32.186939,-51.043724,-64.597229,-75.952791,-25.486556,-39.68983,-48.870326,-56.746591,21.609535,30.587769,36.994171,46.225262,-0.890579,20.614243,31.688862,35.101662,-13.348675,12.14613,22.903175,26.63166,-23.078156,1.191559,15.283756,22.38287,-29.953766,-24.175301,-15.68922,-5.4352,-23.133927,-54.625155,-76.145421,-93.147224,-73.804463,-79.939582,-63.774899,-50.171561,-67.340831,-69.955591,-51.091951,-36.710249,-55.696185,-61.020399,-44.665555,-32.25894,-40.488109,-57.064235,-67.839929,-76.750328,124.737167,46.947125,-55.780449,127.659174
82,-3.659134,2.836104,-5.662937,-1.182767,-13.753853,-29.70623,-43.526688,-54.651375,-33.333778,-53.682632,-67.240562,-78.649063,-32.650681,-56.174927,-72.140694,-85.591049,-31.250381,-53.878098,-69.959793,-83.099213,-28.804665,-46.719475,-59.506531,-70.878067,-26.022334,-45.290068,-57.869059,-66.763187,-47.202849,-55.828208,-63.554234,-71.999004,-39.849424,-49.268492,-57.598469,-66.330625,-30.557438,-40.154718,-47.070487,-54.245915,-19.992005,-25.629045,-29.586876,-34.236806,21.903362,30.849094,35.751572,40.27462,-1.938629,23.006859,34.156609,37.923603,-13.776627,15.040112,26.221561,31.184006,-21.861019,6.395187,19.67886,26.896591,-25.431118,-13.382492,-1.430798,11.272774,-24.577374,-54.87367,-77.42174,-96.685708,-72.599651,-81.023518,-66.326334,-54.112596,-65.765115,-69.06058,-52.596531,-39.021722,-53.650487,-58.982542,-44.971127,-32.37923,-37.848804,-49.960498,-57.962827,-63.753101,120.671797,48.621518,-61.849623,125.314696
83,-5.243683,2.846293,-5.301247,-0.495609,-16.319847,-34.719086,-50.208778,-61.175308,-35.933533,-59.716187,-77.647591,-93.205833,-35.841293,-61.63353,-80.905151,-97.814941,-34.134979,-58.582077,-77.206421,-93.033829,-30.958786,-50.378609,-65.240593,-78.70491,-24.487373,-40.588144,-50.581924,-61.602952,-39.723423,-43.137109,-46.619925,-51.769137,-30.792893,-34.499276,-38.240425,-41.353819,-20.429939,-23.117162,-27.203372,-30.219046,-9.710685,-8.392375,-9.285502,-11.162591,22.221451,30.0951,32.496586,34.634743,-0.89035,26.272373,36.973171,40.924244,-11.41737,21.745033,31.454945,36.078529,-17.307873,18.395863,29.689808,35.583057,-17.294083,1.204433,16.449852,30.906487,-26.250347,-55.904439,-79.007738,-98.622787,-72.678413,-76.767803,-62.455077,-51.487277,-66.808573,-65.684006,-50.43996,-37.131078,-54.879969,-55.821045,-41.820714,-29.592125,-39.409391,-46.877547,-48.555337,-47.611575,114.106951,50.70578,-68.472033,124.057056
84,-3.774777,23.392615,-7.840519,4.264607,-25.907364,-52.213039,-72.878609,-88.670912,-54.691086,-87.126102,-106.494398,-119.1257,-49.156036,-83.840732,-104.116974,-118.301382,-41.617184,-72.683258,-92.129402,-105.157699,-32.221928,-54.676151,-71.558247,-85.029259,-20.936925,-33.131674,-37.617718,-41.774262,-39.348273,-39.243622,-40.219371,-44.140661,-30.740606,-29.145886,-28.351791,-29.344182,-20.574743,-19.527055,-18.095248,-18.118837,-9.309569,-5.422304,-3.495753,-3.655902,21.259747,29.866333,35.168152,39.087124,1.617565,33.738441,48.062553,54.031048,-6.462193,32.133579,45.070095,51.076183,-9.919167,29.280968,44.594364,52.008705,-7.754288,13.72221,28.327789,40.075722,-27.351511,-55.794955,-79.229237,-101.485166,-71.399253,-73.064045,-60.091117,-50.291851,-64.204682,-64.096619,-48.720087,-37.381847,-51.698464,-54.018983,-41.571242,-31.744281,-36.840049,-43.87586,-43.385963,-40.882385,108.102093,73.433744,-78.542633,127.657013
85,-3.774776,23.392615,-11.027069,3.862488,-35.494881,-69.706993,-95.548439,-116.166515,-73.448639,-114.536018,-135.341206,-145.045567,-62.470779,-106.047935,-127.328796,-138.787823,-49.099388,-86.784439,-107.052383,-117.28157,-33.485069,-58.973694,-77.8759,-91.353607,-17.386477,-25.675204,-24.653512,-21.945572,-38.973124,-35.350135,-33.818817,-36.512185,-30.688318,-23.792495,-18.463157,-17.334545,-20.719548,-15.936948,-8.987124,-6.018627,-8.908454,-2.452232,2.293997,3.850787,20.049248,34.039593,45.831928,49.659519,22.298126,51.970539,64.470634,70.077724,15.922108,52.932243,64.096642,67.66777,13.016052,51.553001,63.029652,65.910759,13.722668,46.058979,58.463573,64.493866,-32.470003,-58.799205,-79.178694,-94.325607,-71.452884,-74.970836,-62.842622,-53.148086,-62.489256,-63.925045,-51.494564,-37.731539,-48.548575,-49.93762,-40.360718,-29.583387,-31.406537,-35.664938,-33.018964,-28.74386,102.865076,95.183582,-91.031942,129.876724
86,2.895012,12.694063,-2.877388,3.399669,-28.690109,-59.721222,-83.238373,-100.14164,-69.246712,-108.389511,-131.710567,-147.88456,-62.112579,-102.869225,-125.497398,-141.671734,-53.304634,-89.367142,-110.790939,-125.79792,-44.193764,-68.083992,-86.142654,-103.541794,-19.660343,-28.631597,-27.790927,-24.47422,-33.218418,-33.830303,-35.647988,-40.986095,-21.227908,-15.78322,-13.506297,-14.706293,-8.432297,-1.632033,4.663576,8.823455,4.250497,14.076253,22.402802,28.293174,16.226292,29.368687,38.392296,43.381004,11.925373,46.823044,62.887001,70.661201,7.618332,46.285858,63.274612,72.512798,6.158867,41.483803,61.167011,72.419243,8.57729,34.680119,50.316811,60.812988,-31.014299,-54.555408,-73.680283,-91.06111,-57.154792,-57.690415,-52.333536,-47.851413,-42.481443,-44.713844,-39.739879,-35.020542,-23.948601,-29.077096,-26.979959,-24.886342,-4.378722,-12.077393,-15.070126,-17.842133,105.024977,106.903178,-94.644442,132.301925
87,-4.818364,28.395464,-4.958267,7.812971,-27.968788,-58.890152,-81.122131,-96.449833,-68.484478,-108.207378,-127.571153,-138.235788,-62.291336,-104.119606,-124.235887,-135.856218,-53.638687,-91.395321,-111.451234,-123.918113,-44.013233,-71.413421,-88.22525,-102.513542,-19.224262,-23.727086,-17.76249,-9.644735,-24.05143,-15.018271,-9.948068,-8.821849,-9.542029,3.250974,9.988963,12.581122,4.84063,16.348839,24.767288,30.116294,18.003595,28.055219,35.7186,41.155878,12.323112,31.080036,46.125298,49.163475,49.966507,83.916721,83.458443,77.272911,50.8671,87.789574,85.880013,78.058376,48.986893,82.792568,81.833668,75.384636,46.286201,73.843288,76.952877,75.633888,-31.437258,-53.451712,-71.438033,-88.350112,-53.202272,-44.34507,-37.01789,-34.080238,-38.780031,-29.504717,-23.82371,-20.242217,-22.48598,-16.643589,-12.319886,-9.81708,-4.940218,-4.741073,-3.903491,-3.761279,99.805383,134.974282,-100.003939,139.790536
88,-4.818363,28.395464,-0.006752,12.744421,-27.247467,-58.059082,-79.00589,-92.758026,-67.722244,-108.025246,-123.43174,-128.587017,-62.470093,-105.369987,-122.974377,-130.040703,-53.97274,-93.4235,-112.11153,-122.038307,-43.832703,-74.742851,-90.307846,-101.485291,-18.78818,-18.822575,-7.734054,5.18475,-14.884443,3.79376,15.751851,23.342397,2.143851,22.285168,33.484223,39.868536,18.113557,34.329709,44.870999,51.409132,31.756693,42.034185,49.034397,54.018581,14.660912,33.6553,47.157612,50.616646,42.554455,77.600269,82.046642,80.958767,36.159325,72.929077,82.916508,83.40065,29.652157,64.734135,75.975323,78.525066,23.857098,50.519028,60.537987,64.104939,-28.682264,-50.713761,-68.27036,-83.419774,-43.098607,-39.808669,-35.824471,-33.886156,-26.590777,-22.849875,-21.461047,-21.085419,-9.050511,-8.271344,-9.163391,-10.547835,8.32976,6.777972,4.396074,0.482394,94.971399,163.190083,-100.026312,152.355294
89,5.748825,17.213792,-0.326385,12.122409,-33.43689,-65.506897,-86.601334,-97.233238,-73.903427,-105.932465,-122.352333,-134.983749,-65.832939,-101.876335,-121.476288,-134.64529,-56.443291,-91.278877,-110.367737,-123.895683,-46.665573,-73.366699,-88.208771,-102.465935,-22.347165,-22.652336,-11.475141,0.586752,-10.263042,12.620981,28.390369,40.749406,7.123836,29.277352,45.675298,57.363107,22.981774,40.849688,53.842222,62.93744,36.736864,48.945476,57.555027,63.880801,15.927086,35.160027,49.677143,56.856594,37.483521,68.789577,83.516579,94.82563,28.762608,60.173378,81.106911,95.411568,20.404701,50.658875,71.356945,86.562653,13.753223,37.762299,52.587433,64.525967,-26.073,-45.489923,-63.118091,-75.15513,-35.183409,-34.959996,-31.640664,-28.088225,-18.353766,-17.373725,-14.447744,-12.739048,-0.813438,-0.197601,0.099912,-0.785465,15.941857,16.937459,15.534242,11.699171,100.946732,180.257434,-100.12619,164.331262
90,-21.183014,25.466302,0.619698,7.842673,-33.323135,-65.3088,-86.654549,-99.004841,-69.664536,-102.845592,-115.795326,-122.871323,-60.776939,-95.626888,-111.623039,-118.937302,-49.944649,-82.328339,-98.896809,-107.893353,-38.143387,-64.396935,-77.592087,-86.703873,-15.472492,-14.064336,-7.070669,2.347071,3.922263,28.829291,41.859678,50.273542,20.016767,46.537704,58.614603,65.244312,33.340282,53.894401,65.187872,72.857335,43.308343,60.146075,68.111445,73.177511,16.045074,35.253067,50.054169,60.829697,39.758835,64.319458,80.971127,96.884995,30.893898,55.691643,74.914284,92.50351,20.367851,44.195766,63.133907,79.067459,10.625439,27.826996,41.80481,54.521141,-23.131396,-38.237584,-51.79112,-62.723969,-21.846555,-20.370102,-17.132837,-14.314548,-9.099355,-2.974023,1.227228,3.254308,2.752278,9.564954,12.634937,13.037488,12.70947,20.835639,24.434947,24.007387,80.224714,205.446091,-99.045496,171.896289
91,1.80954,14.106511,7.911987,8.998702,-32.790413,-60.525284,-79.710045,-88.498878,-67.072449,-99.522972,-115.455437,-127.925262,-59.524841,-94.443283,-113.590622,-127.566204,-50.262794,-82.375946,-101.800976,-116.403866,-40.284348,-66.527138,-81.360626,-94.764977,-16.748194,-16.678292,-6.147871,6.849541,2.549551,24.675835,37.69875,47.298716,20.572829,42.158859,55.370421,63.549695,36.843445,55.465702,66.621037,72.994853,49.666227,62.76071,71.611027,76.826713,15.669651,31.207523,42.868824,56.164684,29.451542,45.006981,62.09547,78.096771,23.114204,42.504044,62.385178,78.852882,17.561474,37.112103,55.172825,68.730183,12.839355,25.820217,37.253437,45.956783,-19.716598,-31.209955,-40.519694,-50.655098,-16.135259,-12.027992,-8.690382,-5.334989,-5.301952,3.01836,5.033585,5.971635,3.347613,11.341636,12.707679,11.736345,9.177161,15.917651,17.301045,15.807982,82.423325,218.662902,-90.744438,180.005291
92,-3.762817,15.656632,-10.406513,35.303884,-30.09407,-56.115417,-76.623573,-87.499924,-63.877945,-96.782341,-114.524632,-129.208374,-59.31942,-93.884525,-115.643692,-132.456379,-52.688713,-84.749336,-106.660366,-123.380985,-44.691696,-70.112,-86.21521,-100.92905,-14.945082,-15.832929,-9.438921,0.188277,2.642671,20.725167,32.617926,41.452002,20.155767,38.370595,49.256019,55.533319,36.085582,52.804259,63.017901,68.846646,48.320315,62.795352,71.982394,77.714252,19.522076,40.301228,60.829639,74.839439,49.523907,94.124165,102.282658,98.613453,51.145935,98.98756,106.261997,99.722042,52.161884,96.741886,104.363995,99.098225,51.940956,87.071514,95.420895,91.780987,-28.831885,-43.154399,-51.287916,-58.864506,-19.792736,-9.3006,-7.254994,-4.920582,6.988294,14.579149,13.1261,14.601132,29.515647,36.278182,35.656232,38.028127,45.955398,52.484454,51.775436,51.81193,79.189939,233.545986,-100.621519,214.535628
93,-3.385735,14.549262,-3.215504,7.125195,-33.286514,-63.217049,-89.549789,-109.848919,-62.852211,-96.799049,-118.198814,-136.878948,-57.769432,-92.831097,-118.115845,-137.222557,-51.814384,-84.659729,-109.292793,-127.759666,-45.089607,-71.391106,-89.242573,-104.75132,-14.713147,-19.887152,-19.59884,-17.179953,0.988748,9.842398,16.446852,20.792043,19.752969,30.968387,37.714064,41.044387,35.599421,48.821296,57.992652,62.667653,47.030411,60.383381,69.08914,73.831263,22.541313,49.361286,71.503487,87.261944,43.952065,78.619652,98.980179,115.763283,38.458958,76.632671,99.724617,115.43644,34.250908,70.294933,91.764107,106.125755,30.068035,58.423634,74.46619,85.349751,-24.073151,-34.932949,-41.104162,-47.149589,-9.68864,-0.823503,3.617895,7.138965,11.963834,19.593159,23.018207,24.685962,29.531702,38.033376,40.439666,40.211807,41.850786,49.338517,50.118116,48.515076,76.312265,247.907758,-103.328962,221.473333
94,-4.665184,12.899908,-4.18539,10.674114,-25.548592,-53.844109,-80.988007,-101.888981,-54.194984,-87.421417,-110.473824,-130.205154,-54.147377,-91.383076,-115.326805,-133.818741,-53.537064,-90.13195,-113.377934,-130.809631,-52.838631,-83.827,-101.606369,-116.083374,32.193083,48.671304,57.364157,67.396993,37.424455,38.287602,42.42241,45.923349,18.105344,12.911764,10.550428,7.574491,-1.187769,-9.258239,-12.110059,-14.212907,-19.072417,-25.277037,-28.429951,-30.665687,27.532196,54.512672,76.78339,96.311245,55.397701,88.324642,110.631695,128.199635,48.094711,85.337906,109.481564,126.666813,42.019043,75.827065,98.909283,116.36713,36.432838,64.276428,81.571598,95.734177,-21.064239,-29.486995,-34.967221,-41.449347,-0.1277,10.492507,15.840401,20.090744,17.878288,29.852743,34.226154,37.945628,31.673577,43.640869,48.7932,51.898134,40.631648,50.526472,54.441942,55.866647,71.790733,260.506417,-107.370701,231.846198
95,-3.828163,9.503574,3.744793,11.523183,-27.870941,-57.782822,-83.323288,-102.057724,-50.399094,-88.054161,-111.019306,-127.486267,-46.784019,-87.107449,-110.709,-127.353287,-44.948845,-83.524761,-105.199585,-119.025135,-44.894371,-75.868034,-92.780571,-103.997955,27.208343,42.260315,48.590596,56.537689,39.8066,31.620225,27.826341,24.134963,22.189702,13.872045,5.768415,-1.785884,2.84515,-5.373953,-12.530826,-18.263919,-17.236454,-24.480642,-28.839171,-32.456325,28.123569,56.136017,78.587666,98.783684,55.498581,87.415524,110.897484,130.315704,48.828278,84.881573,110.465813,129.667511,42.711926,75.284214,98.59623,117.025566,36.637173,63.334522,80.306396,95.069962,-20.122298,-27.104479,-30.558859,-35.079545,2.866084,13.108007,19.363324,24.684789,20.08358,31.69945,37.106193,42.185103,33.313051,45.251381,51.251422,55.646384,41.926307,52.447712,57.348657,60.128723,67.915392,269.730076,-103.673086,243.089466
96,-7.882004,7.648036,4.272537,10.216173,-31.87397,-61.237221,-83.496265,-98.84016,-40.923843,-72.895947,-94.970512,-112.568207,-34.672279,-69.344673,-94.527454,-113.252621,-31.133537,-64.964333,-89.613991,-106.997681,-31.173706,-57.406425,-75.667477,-89.151134,-5.062484,-0.92675,5.690486,10.111321,16.685579,11.864786,2.62853,-4.655858,22.512101,18.60225,8.728853,-1.208641,23.698203,21.693908,14.74501,6.616927,20.753758,23.83251,23.407543,20.453836,29.282227,57.593937,80.562572,101.056595,56.428185,87.332439,109.308243,127.06089,49.667988,85.41378,109.554405,126.846199,43.482685,76.493855,98.508568,115.487366,37.586231,64.368553,80.190697,93.723679,-18.4982,-24.589693,-26.922994,-30.574914,6.072165,16.89658,23.861285,29.58561,23.570318,35.442884,41.765817,47.824644,36.516415,48.447397,53.535816,57.557806,44.568422,54.618239,58.520557,61.319085,60.264158,277.076059,-99.169779,253.003587
97,-8.771324,3.092769,5.275497,6.10304,-22.977905,-43.363152,-58.421402,-70.156918,-35.965118,-55.026512,-69.29821,-82.4576,-33.046646,-49.934692,-64.983273,-78.228035,-29.673958,-44.971848,-58.550949,-69.077568,-25.409889,-37.881889,-48.394547,-56.967316,-16.824764,-24.361032,-29.152369,-34.845696,1.716538,1.423162,-1.875731,-5.417425,16.30075,19.297004,15.665647,11.852559,27.285655,34.890341,31.679011,28.070996,35.022364,42.792356,42.482801,40.820295,30.819683,58.923454,81.959724,101.094704,60.672626,90.123367,110.729141,126.840935,52.982368,86.900826,109.655342,125.760498,45.160103,76.746655,98.477554,116.026497,37.343845,62.31102,78.092594,92.152863,-14.756064,-18.368092,-19.9862,-24.647306,12.269869,23.342458,31.183711,37.30824,29.811864,43.586899,50.127255,55.527576,41.992874,56.777343,61.816547,65.442901,49.230331,62.095412,66.744477,69.855277,51.435785,279.875807,-93.95133,258.813606
98,-45.128288,8.737066,3.86404,9.536054,-5.003185,-7.044182,-8.88113,-12.352381,-4.227247,2.804718,0.192604,-5.971213,-5.818005,4.118099,-1.503954,-8.659687,-8.780537,-2.072354,-7.115307,-13.13633,-11.226197,-17.997065,-29.14321,-39.05345,-21.508163,-32.471948,-37.239296,-42.818662,-2.404469,5.563156,3.39124,0.859164,15.36696,25.207321,20.651993,16.162367,27.731492,39.287372,33.192513,28.624681,36.431662,45.56248,44.433497,43.407143,30.813274,58.244076,82.193813,102.206211,63.843212,93.93671,112.062092,125.587406,55.604725,89.675846,110.280361,125.153217,47.492123,78.080921,96.906452,111.476841,39.351311,63.060894,77.375336,89.61256,-14.04297,-17.731816,-18.285594,-22.347598,13.114058,23.104225,29.07691,33.841881,30.744604,42.697075,47.71195,51.382765,43.418197,57.063123,61.186322,63.382352,51.291621,63.868081,67.061935,68.479107,6.26195,288.26298,-90.132837,267.999767
99,-45.128288,8.737066,5.860806,5.858756,12.971535,29.274788,40.659142,45.452156,27.510624,60.635948,69.683418,70.515175,21.410637,58.170891,61.975365,60.908661,12.112885,40.827141,44.320335,42.804909,2.957497,1.88776,-9.891872,-21.139584,-26.191561,-40.582865,-45.326223,-50.791628,-6.525475,9.703151,8.658211,7.135754,14.433171,31.117638,25.638339,20.472176,28.17733,43.684403,34.706016,29.178366,37.840961,48.332603,46.384192,45.993992,28.855133,56.226711,80.95665,100.98484,63.168926,94.122963,112.180939,125.42038,54.308453,89.183235,109.676399,124.282379,45.54697,77.880707,96.902733,111.425171,37.187061,63.523293,78.62915,91.108475,-13.753978,-17.179644,-17.396944,-21.503346,15.787296,26.85371,32.617494,36.351665,33.604574,45.68419,50.38142,53.616154,46.368693,59.492879,63.141278,64.587473,54.800156,66.399539,67.865864,67.173271,-38.882647,296.881099,-84.28834,273.739576
100,37.412682,4.918235,4.052238,4.620536,4.454727,5.708084,6.106339,6.481476,-9.763241,20.812912,31.193504,33.525467,-14.772892,17.728043,22.668571,24.239273,-20.120544,4.6138,8.184471,6.057243,-23.849716,-31.846561,-45.445976,-58.948059,-26.727987,-39.546446,-44.138824,-45.752795,-2.82891,10.678437,7.837177,4.694946,16.095924,27.689502,21.387687,16.78722,28.044011,39.142783,30.267026,25.199355,36.633679,44.99876,43.215779,42.795753,27.976627,55.490398,80.548096,100.10685,62.433643,95.580025,113.371582,126.124649,54.644337,91.227837,112.083092,126.798019,46.343079,80.654526,100.132484,114.746017,38.174114,65.698185,81.653709,95.495567,-16.305876,-19.319728,-17.217744,-20.393753,13.268743,25.027195,31.41651,36.123188,30.39769,41.542898,46.587043,49.721987,43.000579,55.12342,59.38111,60.961489,51.737953,63.519314,65.861137,65.953083,-1.369314,301.643368,-80.13545,278.204147
101,-5.24025,4.336917,3.99662,1.823922,-0.69603,1.266861,12.539291,18.818436,-4.499702,20.532532,36.76815,46.710777,-10.26432,15.589828,34.882164,46.595078,-13.776512,5.224342,23.741341,35.302963,-14.090824,-15.212002,-15.738544,-16.125813,-20.299769,-31.307582,-36.61855,-39.047256,-8.042682,-0.936445,3.487849,7.840203,9.258301,15.835029,20.501199,21.712124,21.3846,25.761654,28.789895,30.061212,31.391007,35.107456,36.495173,36.800961,27.874317,54.491158,79.456215,100.083046,61.037865,94.077072,111.348495,122.945938,52.882633,89.75647,109.945908,123.309975,44.221287,78.466072,97.387848,110.214729,36.254082,63.580112,78.965607,91.234589,-15.84003,-18.984485,-16.481123,-18.881979,14.705675,27.83264,34.378801,39.258751,31.942253,43.747203,48.50501,51.445318,43.964873,56.081662,59.749452,60.677499,51.475082,63.193334,65.114883,64.6089,-6.608791,305.909719,-76.138058,279.957503
102,-6.924706,-3.036268,0.452442,1.113977,7.185402,13.426895,23.686523,32.472496,1.638393,27.462158,45.953865,57.611504,-4.862194,20.528526,42.769661,59.928246,-8.724461,13.417969,32.482224,47.095184,-11.262589,0.370159,11.200676,20.109673,-17.837533,-26.630668,-31.062804,-34.736521,-5.861596,2.394557,9.008706,14.925013,9.249285,18.48196,24.164233,26.908236,21.563738,28.979715,32.266505,33.342011,31.333765,36.784906,36.424345,34.905964,27.150536,53.852806,78.254986,98.587589,61.000328,93.968067,110.485783,121.702938,53.3638,90.698147,110.179996,123.725567,44.497547,79.61729,98.234768,110.954533,36.083336,63.438778,78.893223,91.004505,-17.198231,-20.295693,-16.901273,-17.953253,12.241278,25.428449,32.069953,36.781818,30.044478,42.000592,46.631873,49.030692,42.790257,54.836589,58.094541,58.246138,51.100257,62.530628,64.084084,62.734281,-13.482256,302.838208,-75.634375,281.036237
103,-20.135136,-1.358818,0.946426,-1.026477,12.481041,26.608028,33.42001,34.99712,29.77747,65.451679,72.076893,71.311855,23.63245,63.905811,62.445316,57.886791,14.277191,44.866848,42.700367,35.445385,5.649834,9.441433,-0.858364,-12.679024,-25.869965,-38.780555,-41.789591,-42.02838,-4.970167,11.061166,10.313986,7.870461,14.934522,30.779246,26.246148,21.599491,27.156596,40.859321,32.986576,27.626764,35.088128,44.906443,42.754256,40.113315,26.494331,52.990379,77.340374,97.921658,60.21841,92.986736,109.299259,120.40987,52.652206,89.368458,108.390942,121.577168,44.006195,78.400097,96.639004,108.843441,35.964947,63.449993,78.869419,90.805149,-16.984327,-19.688254,-15.908573,-16.104075,14.426872,26.874335,33.305949,38.019049,32.009623,42.796,46.954643,49.306098,44.148025,55.03808,58.12202,58.322708,51.932899,62.489873,63.973983,62.774728,-33.630724,301.47059,-74.701281,280.00096
104,7.637043,-1.581984,0.815792,0.121093,11.537247,21.766891,25.413666,25.966187,21.559181,54.41494,62.443657,63.396263,15.341949,51.615944,52.743645,51.910172,6.107025,31.850739,32.034187,27.513428,-2.5597,-5.344563,-16.273327,-28.327389,-24.255624,-36.087991,-38.634269,-38.354107,-3.118025,12.457528,12.178849,10.460211,15.54826,30.771033,27.487455,24.304653,27.203526,40.776514,33.833359,29.410486,35.210702,44.654563,43.706324,42.491323,26.986084,53.218918,77.113152,97.221909,59.909363,92.378769,108.549385,119.575768,52.049847,88.516617,107.293854,120.377884,43.174725,77.204361,95.389709,107.756996,34.924049,61.414032,76.663284,88.623962,-17.009583,-19.714251,-15.669599,-14.997693,14.289292,26.965664,33.160897,37.544374,31.694078,42.96217,47.120134,49.302085,43.612155,55.370483,58.62473,58.802633,51.155091,62.700751,64.565984,63.49554,-26.006041,299.861776,-73.897848,280.095222
105,2.553577,-1.606746,-0.151806,0.245767,11.407413,20.681591,24.153042,24.987888,17.273998,48.311176,58.371563,61.480808,10.755787,45.556126,50.24477,53.174229,1.769199,26.687679,30.707417,29.868793,-6.533661,-10.687637,-20.584202,-31.035004,-23.488745,-34.662915,-36.321592,-35.801716,-0.875683,13.187418,12.9109,11.54708,17.112768,31.541616,29.107724,26.832654,28.33183,41.73241,35.485554,31.647704,36.306957,46.12941,46.142687,45.756994,26.952496,53.151741,77.114468,97.29269,59.551334,92.052097,108.486156,119.74966,51.816616,88.252888,107.104855,120.136929,43.013878,77.050495,95.368481,107.872295,34.711704,61.370373,76.87254,89.033375,-17.160069,-19.81262,-15.332442,-14.002276,13.654251,26.71471,32.901608,37.236548,31.088924,42.552518,46.948344,49.297886,42.949326,55.060434,58.509874,58.979362,50.401057,62.016556,63.714199,62.545634,-23.462677,298.175171,-74.059868,280.26113
106,5.726967,6.218019,0.724125,-0.998813,8.376675,14.205265,12.731266,9.448299,13.261242,44.512081,53.757305,55.276051,7.391682,44.33733,47.787838,48.509502,-0.649338,27.823162,32.4436,31.007938,-7.815113,-9.328308,-17.951145,-27.334213,-24.995085,-36.405511,-39.067077,-38.950122,-5.543643,7.387758,7.271111,4.382241,12.436903,24.407591,21.656919,17.751761,24.040053,33.905175,27.978124,23.015737,32.241249,40.119984,39.21287,37.035365,26.396141,52.66119,77.096901,97.68322,58.133812,91.244659,108.050766,119.684486,50.526066,87.484016,107.061424,120.583305,42.115574,76.747627,95.3722,108.222427,34.315853,61.695557,77.400742,89.853401,-16.930296,-18.857835,-13.731007,-12.962029,14.61589,27.642819,33.859665,38.126619,32.282004,43.526322,48.057876,50.231367,44.076209,55.835031,59.240319,59.537895,51.279271,62.465111,64.155899,63.03587,-17.731075,304.321792,-73.331108,279.190918
107,28.354397,0.993873,-0.398312,-0.38347,2.885971,-2.202301,-11.984711,-20.651093,-17.847748,10.024681,21.982613,26.129723,-24.071789,6.338425,7.512932,7.185059,-29.722195,-9.773712,-12.561951,-19.998894,-32.118301,-41.486492,-54.277554,-67.617588,-25.139889,-37.537767,-42.492249,-42.945744,-5.394022,9.490853,7.282967,2.180037,12.481858,25.093391,18.855859,12.575904,23.523511,33.965011,25.852366,19.928402,31.306533,39.089925,37.022954,34.480072,26.522369,53.3008,77.651768,97.649975,58.621159,91.547413,108.640194,120.938358,50.777321,87.255077,106.777439,120.310078,41.974926,76.341763,95.004444,107.884083,33.692322,60.954723,76.750202,89.074345,-16.709414,-19.009,-14.509494,-13.457082,13.647644,26.963256,33.475516,37.94112,31.485485,43.460866,48.688594,51.224437,43.791046,56.336259,60.122054,60.70436,51.452852,63.020618,64.466504,63.093977,10.69808,305.163049,-73.654661,278.654832
108,-32.116814,7.840697,0.591545,-0.280594,4.891376,11.046638,19.044113,24.805183,11.000862,34.958267,51.114693,62.131004,6.584988,32.156525,50.417519,64.248734,2.553635,25.59906,42.885818,55.456581,-0.241985,14.076233,26.420517,36.355362,-21.306609,-32.589397,-41.604031,-49.560078,-15.145585,-6.672873,0.746315,6.696462,-1.01493,8.785972,13.444238,16.563375,10.61823,18.987387,20.408696,20.459394,19.822376,25.356139,24.935804,23.450151,26.113873,52.618961,77.047176,97.180309,58.300095,91.229153,108.382931,120.730076,50.5299,87.06419,107.015133,120.852528,41.687565,76.040783,95.122433,108.418865,33.284054,60.426636,76.284084,88.702641,-16.751096,-19.14201,-14.823248,-14.489425,12.940972,26.500498,33.010288,37.325407,30.806663,43.080669,48.322538,50.776561,43.209542,56.048379,59.821082,60.442538,50.980523,62.790412,64.32102,63.045318,-21.375446,312.855359,-73.019829,278.225852
