takenoko1/special-research/HandMotion_SimilarSearch_自分用/NewProject/handData/key/d4_feature_d2/104.csv
,vel_0x_L,vel_0y_L,vel_0x_R,vel_0y_R,posFromWrist_1x_L,posFromWrist_2x_L,posFromWrist_3x_L,posFromWrist_4x_L,posFromWrist_5x_L,posFromWrist_6x_L,posFromWrist_7x_L,posFromWrist_8x_L,posFromWrist_9x_L,posFromWrist_10x_L,posFromWrist_11x_L,posFromWrist_12x_L,posFromWrist_13x_L,posFromWrist_14x_L,posFromWrist_15x_L,posFromWrist_16x_L,posFromWrist_17x_L,posFromWrist_18x_L,posFromWrist_19x_L,posFromWrist_20x_L,posFromWrist_1y_L,posFromWrist_2y_L,posFromWrist_3y_L,posFromWrist_4y_L,posFromWrist_5y_L,posFromWrist_6y_L,posFromWrist_7y_L,posFromWrist_8y_L,posFromWrist_9y_L,posFromWrist_10y_L,posFromWrist_11y_L,posFromWrist_12y_L,posFromWrist_13y_L,posFromWrist_14y_L,posFromWrist_15y_L,posFromWrist_16y_L,posFromWrist_17y_L,posFromWrist_18y_L,posFromWrist_19y_L,posFromWrist_20y_L,posFromWrist_1x_R,posFromWrist_2x_R,posFromWrist_3x_R,posFromWrist_4x_R,posFromWrist_5x_R,posFromWrist_6x_R,posFromWrist_7x_R,posFromWrist_8x_R,posFromWrist_9x_R,posFromWrist_10x_R,posFromWrist_11x_R,posFromWrist_12x_R,posFromWrist_13x_R,posFromWrist_14x_R,posFromWrist_15x_R,posFromWrist_16x_R,posFromWrist_17x_R,posFromWrist_18x_R,posFromWrist_19x_R,posFromWrist_20x_R,posFromWrist_1y_R,posFromWrist_2y_R,posFromWrist_3y_R,posFromWrist_4y_R,posFromWrist_5y_R,posFromWrist_6y_R,posFromWrist_7y_R,posFromWrist_8y_R,posFromWrist_9y_R,posFromWrist_10y_R,posFromWrist_11y_R,posFromWrist_12y_R,posFromWrist_13y_R,posFromWrist_14y_R,posFromWrist_15y_R,posFromWrist_16y_R,posFromWrist_17y_R,posFromWrist_18y_R,posFromWrist_19y_R,posFromWrist_20y_R,posFromBody_0x_L,posFromBody_0y_L,posFromBody_0x_R,posFromBody_0y_R
2,12.517433,0.17111,-0.13504,-0.626643,4.174118,3.447647,-2.599182,-10.574455,-15.024948,7.896881,21.885223,27.993164,-20.490646,3.861008,13.435936,21.919556,-26.490498,-8.61557,1.620827,7.313232,-30.991058,-42.021389,-53.502846,-64.672337,-24.790629,-34.720034,-36.545191,-37.278724,0.567054,14.670786,12.968822,10.160475,17.62894,30.285366,26.165255,22.306966,27.093611,39.621349,33.373875,28.380428,34.07221,42.014733,42.496387,41.955329,25.178146,51.264668,75.286388,95.153103,55.13998,88.461971,105.765781,118.250141,47.367496,85.223179,105.792561,119.918003,38.681145,74.435291,93.887386,107.35445,30.510979,59.260197,75.75491,88.240643,-16.682615,-19.638422,-15.223144,-14.035375,12.910467,25.854218,30.891693,33.958528,31.319253,42.387027,46.384625,48.11166,43.90973,55.605443,58.447876,58.318262,51.68034,62.406819,63.170733,61.083075,11.776657,299.584949,-67.554646,280.144808
3,-13.666763,7.807228,0.311165,0.246693,-0.425148,-3.106041,-0.94265,-1.917801,-6.248474,17.823944,34.413757,44.174652,-10.318909,17.910004,38.932228,51.095352,-12.06974,11.077995,30.642014,42.640228,-11.607227,-3.230782,7.47242,15.444603,-15.684296,-20.494776,-19.334671,-15.343248,-8.626718,-1.264463,5.323256,11.213381,2.406537,11.662924,17.071519,19.514921,11.910172,19.631382,22.492958,24.08865,21.246032,26.525507,24.92543,23.943043,25.206814,50.896854,74.635334,94.37273,55.139294,88.10297,105.34235,117.87775,47.453842,84.639645,105.134754,119.224262,38.708668,74.120121,93.5396,106.957455,30.269394,58.895016,75.256176,87.692814,-16.942028,-19.940999,-15.438344,-14.019752,12.255172,25.318842,30.495317,33.439021,30.515016,42.021588,46.329729,47.843602,43.245172,55.175166,58.442751,58.211311,51.361523,62.431272,63.412239,61.251469,-1.312723,307.357041,-66.666098,280.356365
4,11.9244,-6.88301,0.814247,-0.375381,4.72023,4.821396,-0.95993,-9.171066,-10.735016,12.418671,25.247383,30.952263,-16.107445,8.596573,15.97332,22.726822,-22.149124,-4.491806,3.576622,7.198105,-26.874275,-36.68066,-47.908573,-59.461212,-24.71727,-35.900269,-37.969217,-37.498061,0.046251,14.191356,12.123088,8.939731,16.995998,29.756103,25.313285,21.398185,26.644006,38.642543,32.132321,27.375625,33.689234,41.912907,41.812254,40.951885,25.103474,50.249119,73.835621,93.718357,54.04192,87.253819,104.692097,117.297077,46.145039,83.71645,104.352322,118.410473,37.294407,73.19521,92.79974,106.230984,28.924026,57.889194,74.511738,87.055721,-16.585173,-19.580006,-14.985405,-13.442447,12.50594,25.697372,30.868228,33.849476,30.83124,42.43476,46.715113,48.364528,43.558864,55.606061,58.842029,58.733904,51.548626,62.614547,63.597737,61.470497,10.992279,300.356582,-65.471249,279.863535
5,-12.863846,5.93582,0.556011,0.317953,3.355522,5.922546,16.679535,24.452591,-2.82383,20.407906,38.694763,50.429649,-10.073147,16.92215,37.589149,50.538368,-14.150276,4.163475,20.830078,31.928558,-14.525414,-14.831772,-13.46386,-11.200218,-20.53652,-31.435961,-35.3849,-36.433052,-9.398289,-2.218322,2.898194,7.66088,6.958407,14.173572,16.445864,16.525151,19.238403,24.348496,25.776227,26.285668,29.874232,33.679539,34.010089,34.559977,24.495964,49.541817,73.26622,92.902107,54.366646,87.19162,104.514427,117.034607,46.282539,83.562012,104.064331,117.792435,37.010422,72.792892,92.252312,105.489922,28.117046,57.051315,73.627281,86.051331,-16.720653,-19.634099,-15.004671,-13.362666,12.622278,25.743006,30.924421,33.900297,30.994261,42.449456,46.680409,48.148031,43.787464,55.877886,58.858084,58.435218,51.772595,62.837713,63.708394,61.502916,-1.566639,306.231362,-64.61031,280.120447
6,-0.874672,-11.143788,0.362663,0.147336,8.950768,13.715401,12.698021,7.204628,0.947685,28.185997,40.889969,44.852028,-4.86145,23.338737,31.015434,36.783943,-12.218513,8.636627,17.535896,21.008606,-17.985649,-26.056938,-37.193184,-49.532375,-22.99715,-31.103065,-31.305236,-30.936462,1.792553,18.125907,17.024403,14.099595,18.95151,34.911089,31.34667,27.397855,28.721105,43.988276,38.211772,33.671326,35.983632,45.587612,46.227408,45.725995,24.793739,49.798965,73.341637,93.328514,53.956375,86.962852,104.216995,116.745529,45.780945,83.192024,103.591461,117.355042,36.56496,72.32975,91.71833,105.137329,27.767544,56.525059,72.982635,85.497665,-16.712008,-19.567779,-14.941562,-13.821965,12.195953,25.422459,30.838526,34.123895,30.587881,42.040854,46.510781,48.107893,43.455864,55.378202,58.61627,58.360191,51.490581,62.583857,63.520364,61.229671,-2.252941,295.015526,-64.059277,280.195736
7,11.83445,-1.111569,0.113125,0.15734,4.716339,5.181885,1.193733,-5.945549,-12.090569,12.177315,26.453934,32.30381,-18.45211,7.191353,16.969299,24.927979,-24.802208,-7.018089,3.481064,8.373184,-28.920708,-39.385872,-50.356121,-62.207737,-22.2249,-29.839281,-29.509843,-28.560924,3.966785,19.267425,18.330054,15.966989,20.45291,34.828406,31.85006,28.47225,29.640507,43.940111,38.825448,34.707313,36.641645,45.940084,47.180402,47.187998,24.828529,49.725437,73.153553,93.015461,53.640575,86.495762,103.79797,116.415539,45.311966,82.74004,103.253918,117.063046,36.002827,71.582394,91.062641,104.501781,27.143784,55.586071,71.992207,84.384785,-16.530277,-19.4034,-14.848072,-13.60763,12.410104,25.471921,30.844084,34.254683,30.71731,42.21499,46.51109,48.216018,43.449998,55.547089,58.540132,58.226007,51.328116,62.285294,63.133559,60.807668,9.648342,293.909824,-63.879318,280.358943
8,-7.921371,11.88961,0.452557,0.652331,1.288261,2.513237,10.27256,13.422203,-4.339714,17.4963,34.408722,45.483284,-11.368732,13.820457,33.353233,45.241585,-15.496273,2.015419,18.544922,29.269409,-16.299362,-19.071293,-19.687672,-18.960171,-19.73537,-29.134832,-32.440394,-32.777304,-7.485385,-1.502511,3.522676,8.191686,8.386879,14.972252,17.366562,17.425534,19.962735,25.095738,26.317285,26.756824,29.590118,34.367871,35.598495,36.116087,24.970551,49.805946,73.142853,92.825432,53.680115,86.743011,103.884773,116.413078,45.584393,82.666969,102.892914,116.640701,36.601582,71.647911,90.836105,104.285316,28.008041,56.078453,72.016869,84.167404,-17.182484,-19.983051,-15.219995,-14.071437,12.167116,24.608157,29.970624,33.628039,30.525266,41.381112,45.553155,47.201768,43.186694,54.803676,57.83488,57.599302,50.885983,61.421282,62.252381,59.996206,1.745968,305.796685,-63.407764,281.008526
9,-0.387383,-11.02813,0.333195,0.028405,7.285652,10.734673,8.634109,2.324753,-2.890091,25.100212,37.665138,41.141052,-8.779392,20.501747,27.258224,32.052498,-15.791245,5.707397,14.195137,17.145538,-21.057472,-29.225693,-40.760536,-53.386345,-23.229826,-31.248302,-31.395824,-31.899645,2.407402,18.38143,16.869472,14.056432,19.647376,34.91924,30.943378,26.799926,29.605124,44.116223,38.051407,33.46119,37.160286,46.287306,46.629403,45.889325,24.682446,49.49152,72.957058,92.647991,53.315849,86.294117,103.549976,116.187115,45.334053,82.274723,102.605267,116.320782,36.475868,71.444263,90.768757,104.1889,28.002777,56.071415,72.148418,84.379864,-17.474811,-20.248022,-15.399688,-13.788002,11.824895,24.328983,29.69355,33.408825,30.098818,41.1422,45.406869,47.180464,42.773399,54.609039,57.678405,57.4419,50.517889,61.315936,62.242686,60.038752,1.339645,294.767629,-63.09351,281.036005
10,8.827515,0.89711,0.715256,0.478133,4.757996,5.11425,-0.496445,-9.202995,-10.8601,14.517746,27.62249,31.990242,-16.391716,10.295448,18.54332,24.98085,-22.490673,-2.763176,7.2575,11.904144,-26.68047,-36.123447,-47.407036,-59.243031,-23.196481,-30.896078,-31.072252,-31.235211,2.198623,16.745847,15.136817,12.486304,19.38117,32.568402,28.521095,24.39697,29.356455,42.063763,36.357408,31.801153,36.646029,45.201857,45.696355,45.139922,24.073448,48.766479,72.582951,92.89381,53.028145,86.050129,103.314114,115.768833,45.192833,82.398663,102.658138,116.122913,36.406803,71.723499,90.877132,103.982906,28.094959,56.460857,72.606525,84.832134,-17.45962,-20.588822,-15.903819,-14.552534,11.505954,23.828805,28.972058,32.578776,29.918322,40.49061,44.498335,46.153122,42.716588,54.246749,57.092764,56.845206,50.590198,61.454257,62.27035,60.049744,10.150509,295.673199,-62.394905,281.522598
11,-10.460129,9.935394,-0.342064,0.362598,3.655586,7.563629,17.760201,22.973671,-1.209641,22.288284,39.897652,51.562843,-9.108467,16.796837,36.392326,48.617363,-13.781319,3.1493,18.498344,28.49762,-14.51746,-18.607235,-21.030407,-22.292404,-20.191397,-30.508841,-34.534659,-35.018226,-9.52389,-2.903443,2.101181,7.292662,7.363613,13.703219,16.703239,17.102765,19.655156,24.215424,26.447701,27.589775,29.779321,33.71943,35.615415,37.18511,24.043579,49.107113,72.794209,92.558041,53.251133,86.46143,103.605938,116.052876,45.407925,82.519512,102.811031,116.428585,36.708527,71.498852,90.837536,104.2943,28.336945,55.918179,71.801548,83.794727,-17.693901,-20.72986,-16.228441,-15.022146,11.075924,23.10157,28.239143,31.872599,29.533308,40.33259,44.454122,46.105266,42.187264,53.960598,56.807477,56.33169,49.686296,60.677128,61.636729,59.251249,-0.354624,305.609798,-62.781973,281.886401
12,-5.535851,1.995588,0.076275,-0.215447,4.651337,9.022179,22.077713,33.984947,1.229324,26.446381,43.01136,53.460617,-3.928242,23.193855,43.635864,58.881111,-6.39307,17.25769,35.845871,49.552231,-7.165432,6.812668,19.944305,30.11776,-21.401026,-34.153782,-40.683518,-45.369077,-10.768407,-4.583795,1.389693,6.502689,5.90513,13.067313,17.454495,19.072788,18.751624,24.08124,25.387632,25.092403,27.971146,31.425587,30.112033,28.29373,24.018631,48.946667,72.737389,92.697716,53.096867,86.419373,103.508835,115.831833,45.262699,82.547379,102.723656,116.174698,36.577778,71.383667,90.587654,103.842773,28.287048,55.679398,71.475677,83.319626,-17.549776,-20.61556,-15.953651,-14.779282,11.280257,23.512396,28.529061,31.979674,29.79161,40.630783,44.839074,46.611002,42.454829,54.353762,57.221637,56.77512,49.941448,61.120002,62.07806,59.678933,-5.960398,307.613398,-62.775621,281.678966
13,9.132614,-12.379105,-0.765839,0.184387,6.786118,9.011536,6.889114,0.29686,-9.204597,19.75605,36.124878,43.099937,-14.852314,15.081711,29.569931,40.872688,-20.749168,2.857246,19.088631,28.997726,-24.58437,-33.616104,-43.342266,-53.11306,-23.750443,-32.237976,-32.480284,-33.300947,1.226919,15.988911,14.783666,12.032253,18.553158,33.562646,31.916441,29.015839,28.338684,42.25414,38.528861,34.866938,35.856179,44.853153,46.981566,47.609074,24.476395,49.396362,73.299751,93.81958,53.183212,87.014923,104.523811,117.401047,45.851612,83.246841,103.630257,117.271614,37.808475,72.826996,92.097244,105.288391,30.078392,58.078194,73.879509,86.081314,-17.599485,-21.201263,-16.925603,-15.456499,10.411799,22.358342,27.737606,31.627573,28.734443,39.492723,44.029649,45.901304,41.48473,53.009765,56.255737,56.018059,49.248177,60.272725,61.604496,59.458916,3.128414,295.201102,-63.585262,281.830162
14,-15.208969,0.874262,0.860195,-0.097751,10.624695,19.902763,23.058815,20.674324,7.258072,38.161812,54.686165,62.072639,1.554451,32.263756,47.693596,59.801216,-5.794315,19.418449,37.074623,47.754364,-11.628399,-19.024658,-27.692642,-36.881332,-25.130133,-34.799568,-35.50167,-36.3889,-0.404589,11.969885,11.267042,9.735138,16.840758,30.879467,30.371755,28.913395,26.904778,40.034089,37.450266,35.063798,35.086214,43.974753,47.358861,48.862422,24.235153,48.958855,72.944355,93.679676,53.482704,86.618557,103.847294,116.379719,46.071796,83.170567,103.185139,116.457081,37.756233,72.827282,91.555767,104.170475,29.94072,57.812405,73.584881,85.730267,-17.407194,-21.028485,-16.940608,-16.084439,11.134402,22.990481,28.091127,31.48919,29.374671,39.548792,43.758009,45.424159,42.053142,53.09004,55.975884,55.581175,49.97856,60.489036,61.465372,59.265143,-12.114487,296.059525,-62.758999,281.716572
15,-8.63863,-0.107137,-0.270424,0.317768,12.422848,24.69183,30.60236,29.61462,13.501682,47.773762,64.684467,72.181377,7.87714,43.275433,59.057178,70.752697,0.312023,30.117817,47.590771,58.23698,-5.594959,-9.334717,-17.433929,-25.95171,-24.554496,-34.288831,-35.030638,-36.57798,-2.936603,10.206849,10.367091,9.398104,15.274273,30.753928,30.719163,28.813854,26.353285,40.22076,38.047949,35.157041,35.175443,44.203971,47.742208,49.127763,24.224796,48.970699,72.771435,93.253613,53.357906,86.715717,103.943424,116.41222,46.029568,83.295193,103.39262,116.725788,37.86993,72.817326,91.65041,104.361134,30.096416,57.604008,73.301067,85.339909,-17.733483,-21.602023,-17.489693,-16.300874,10.235625,22.273497,27.40755,30.866067,28.515043,38.947282,43.354223,45.24286,41.263169,52.502176,55.555302,55.377214,49.243298,60.12582,61.30303,59.156895,-20.80267,295.891996,-63.078976,281.973947
16,0.284214,1.57161,0.217781,-0.048351,12.039413,24.522285,30.142365,28.847466,14.715271,47.462883,63.705597,71.29921,9.184341,43.130493,58.38398,70.214424,1.348171,29.455833,46.32843,56.764412,-5.226173,-9.772224,-18.289032,-27.27253,-25.402143,-35.697604,-36.814546,-38.477052,-3.96308,8.256833,8.519704,7.763818,14.398961,28.798601,29.008738,27.617563,25.622654,38.679347,36.531729,33.976003,34.656925,43.193919,46.505656,47.62377,24.129124,48.928413,72.80817,93.407764,52.991695,86.573009,103.999729,116.631031,45.688362,83.139668,103.388958,116.746159,37.613811,72.780704,91.721821,104.472485,30.042171,57.656651,73.379116,85.427685,-17.807028,-21.495689,-17.296476,-16.428141,10.485837,22.400703,27.298807,30.566639,28.830773,39.073376,43.258201,44.994499,41.485718,52.736087,55.554561,55.230556,49.262194,60.15651,61.281541,59.133121,-20.569468,297.38756,-62.912207,281.849551
17,14.410286,-1.814845,0.00761,-0.168949,8.651962,15.016594,15.695915,11.86924,-0.396194,29.161148,47.161789,56.306419,-5.443497,24.30542,41.373253,55.171852,-11.719322,12.862015,31.834259,43.886147,-16.381073,-25.025826,-33.494453,-42.075233,-24.659286,-33.742957,-33.906287,-35.209591,-0.520494,12.80543,12.978208,11.99403,16.555162,31.044896,31.132643,29.885223,26.445602,40.103064,38.025471,35.775225,34.599991,43.63599,47.63223,49.548222,23.850174,48.427048,72.257309,92.69371,53.028946,86.475449,103.957558,116.688652,45.718231,83.056412,103.409042,116.97258,37.443581,72.52018,91.597595,104.510765,29.537601,57.244492,73.057022,85.210533,-17.808387,-21.561391,-17.373293,-16.225106,10.769889,22.199829,27.056314,30.350821,29.016642,39.259121,43.555838,45.407671,41.59588,52.898058,55.82299,55.554684,49.383657,60.304897,61.571953,59.571487,-6.20204,295.543184,-62.947454,281.65107
18,10.327606,0.074841,-0.020485,-0.052858,4.773102,7.556877,6.37928,1.595993,-11.930981,14.628868,33.224716,43.567314,-17.00861,9.226227,26.689453,41.682701,-22.12326,-1.305313,17.710876,29.832344,-25.066109,-36.607761,-45.848351,-54.953442,-25.183424,-34.140074,-34.722751,-35.766271,0.152462,13.719892,14.015182,13.08942,17.084672,31.066879,31.015503,29.8964,26.574846,39.998027,37.687079,35.408674,34.358176,43.038308,46.617794,48.747257,23.967476,48.570786,72.391663,92.789268,52.667427,86.325531,103.958931,116.703987,45.538616,83.052979,103.45665,116.955528,37.584572,72.672157,91.813316,104.761848,29.971504,57.529106,73.353996,85.565186,-17.595471,-21.346685,-17.26665,-16.038496,11.023437,22.264914,27.057734,30.309016,29.114084,39.431837,43.685885,45.445833,41.493807,52.925475,55.807429,55.40778,49.103928,60.232772,61.553366,59.519678,4.064655,295.615092,-63.028851,281.595279
19,-6.262665,3.383552,0.404778,0.160551,0.701065,4.974747,16.247978,22.996559,-6.454525,19.528542,38.87352,51.084366,-13.448868,16.29158,37.724533,51.390266,-16.625748,5.595016,25.251617,38.906364,-16.536312,-17.396622,-16.535912,-13.827724,-18.225758,-25.371021,-25.877251,-23.657633,-3.040961,6.429144,11.542325,15.425253,12.801354,21.022002,24.517075,24.716714,24.608404,31.269421,33.306937,32.901669,34.181632,40.51284,41.517889,40.778552,24.077339,48.876743,72.722969,93.192787,52.646084,86.189346,103.60611,116.214523,45.365982,82.862206,103.058395,116.37085,37.39706,72.43412,91.33873,104.03492,29.927731,57.47303,73.130493,85.09449,-17.713476,-21.382006,-17.380147,-16.509158,10.704125,22.298383,27.448737,31.000189,28.894315,39.404605,43.821303,45.738777,41.37574,52.918621,55.875663,55.565552,49.036681,60.170404,61.331435,59.23186,-2.22187,298.992438,-62.647934,281.749624
20,-7.569122,2.90122,-0.322723,-0.055761,7.223167,15.360031,29.085388,37.364159,3.956223,31.364708,50.3302,61.915855,-3.681049,24.48864,46.444244,62.670593,-6.943989,17.69371,37.186317,52.140427,-8.422279,6.056328,19.686584,31.529617,-18.744708,-26.81561,-28.233215,-29.744185,-9.994922,-1.595631,5.685978,12.199041,6.355044,16.211274,22.795782,25.7167,19.676275,27.467324,30.440792,31.220514,30.55855,35.723046,34.106173,32.05328,24.286652,49.124737,72.977943,93.333893,52.539196,86.051788,103.579788,116.498108,45.285645,82.847786,103.300323,116.943855,37.386017,72.44957,91.627007,104.580574,29.894428,57.505875,73.317947,85.461159,-17.569104,-21.370089,-17.44869,-16.320078,10.443415,21.962522,27.147087,30.827411,28.704123,39.115428,43.514651,45.463432,41.275457,52.802098,55.780506,55.445757,49.056997,60.18541,61.420665,59.237911,-9.816713,301.883037,-62.996378,281.683242
21,5.827904,-5.619658,-0.422401,0.540934,7.31781,12.802277,14.175224,11.538506,-3.267975,24.706993,43.174782,53.491974,-7.69598,19.891548,37.226372,52.419434,-13.298893,8.778419,27.287178,39.87545,-17.650852,-27.44997,-36.559696,-45.396767,-25.386521,-34.982041,-35.569349,-35.8308,-1.663062,10.931367,11.316751,10.646944,15.669229,29.101302,29.593761,28.941368,25.626359,38.489402,36.748288,34.81445,33.608588,42.23438,45.867465,47.398937,24.31675,49.347839,73.444519,94.081078,52.955704,86.279984,103.732796,116.592407,45.707073,83.046684,103.468895,117.063103,37.791653,72.894516,91.96106,104.684486,30.29171,57.947159,73.618355,85.582123,-17.871804,-21.776283,-17.882425,-17.06343,9.250273,20.926535,26.303699,29.991743,27.598853,38.245179,42.889984,44.848954,40.428983,51.945373,54.899821,54.452872,48.555337,59.48658,60.605868,58.354942,-4.0242,296.234958,-63.45417,282.195755
22,2.843285,-1.640647,0.468922,-0.338022,6.331215,10.849571,11.469383,8.310928,-7.007332,21.228676,40.193939,50.519142,-11.36404,16.399612,34.261436,49.794502,-16.202259,6.048546,24.994125,37.714233,-19.313164,-29.409599,-38.852692,-48.101864,-24.741414,-33.750799,-33.858368,-33.578269,-0.449667,13.206808,13.3907,12.27098,16.934248,30.911268,31.052985,29.511448,26.852599,40.166173,37.827191,34.795307,34.702311,43.549231,47.506815,49.34426,23.982525,48.686771,72.608814,93.011684,52.761269,85.955029,103.341007,116.137104,45.690422,82.789707,103.009701,116.508465,37.797604,72.919865,91.860981,104.543667,30.255318,58.162479,73.770618,85.679569,-17.577811,-21.423503,-17.727802,-17.290424,9.518332,21.205091,26.585652,30.209969,27.807322,38.266977,42.918018,44.892488,40.687532,51.856637,54.865179,54.570136,48.921208,59.363018,60.427533,58.378098,-1.227236,294.546254,-63.031569,281.809676
23,1.243057,0.662458,-0.306301,-0.063603,5.875053,9.82235,9.2173,4.843712,-7.768593,19.491463,39.143486,50.320587,-12.35321,14.597511,33.069992,49.297142,-17.176666,4.374733,24.043236,37.518654,-20.305882,-30.907688,-39.839115,-48.456345,-24.616369,-33.595744,-33.630201,-33.773832,-1.175357,11.801183,12.035217,10.934454,15.732152,29.305017,29.650387,28.089707,25.628582,38.217392,36.480723,34.052697,33.817304,42.172012,46.857818,49.477394,24.084778,48.808136,72.762794,93.476372,52.623825,85.595627,103.126717,116.221161,45.591602,82.727737,103.274803,117.088852,37.812138,72.967644,92.241325,105.146942,30.416107,58.57933,74.419556,86.525688,-17.760653,-21.649077,-17.863715,-17.087759,9.736126,21.38744,26.700878,30.226888,28.044011,38.321441,42.83447,44.66574,40.869448,52.026328,54.889571,54.350737,49.065889,59.477997,60.576166,58.464981,-0.063944,295.189508,-63.417635,281.726869
24,-2.862625,-0.760209,0.221272,-0.074965,7.59819,12.259712,12.024765,7.812538,-4.485855,23.355217,42.474747,52.271004,-9.590034,19.009094,37.495995,53.106995,-15.268993,8.007431,27.733841,41.225624,-19.453297,-28.227081,-36.862049,-45.28513,-24.283411,-32.800152,-32.483681,-32.675725,-1.751427,11.585921,12.204537,11.318233,15.599513,29.797476,30.118455,28.481266,25.967592,39.175141,37.410561,35.008408,34.490878,43.50156,48.404975,50.970643,23.999233,48.606548,72.509022,92.844028,52.350712,85.48708,102.930164,115.922642,45.329762,82.503262,102.996197,116.754169,37.558079,72.706776,91.974735,104.915257,30.129147,58.099079,73.801632,85.821476,-17.838089,-21.729414,-17.753243,-16.568377,9.532782,21.365581,26.766642,30.469321,27.859501,38.392516,43.03942,45.022658,40.73193,52.223188,55.175413,54.694995,48.930471,59.624098,60.814893,58.714638,-2.977037,294.415312,-63.246832,281.637917
25,26.258011,-0.044769,-0.555725,-1.189313,0.410843,-2.978783,-10.209732,-19.430122,-26.701469,-8.167763,8.455582,17.592201,-34.542217,-14.067879,2.10125,16.112709,-40.600777,-27.519379,-11.833649,-1.527214,-43.845119,-59.139404,-69.092388,-78.451538,-22.132459,-30.676493,-31.226319,-31.773674,1.23013,16.384484,17.052376,16.530956,17.264612,31.451337,30.701379,29.446487,26.308701,40.644245,36.935947,33.839226,33.846821,42.394992,45.458616,47.777961,24.089642,49.269505,73.053417,93.278904,53.294964,86.027126,103.539219,116.743298,46.087303,82.440891,102.899151,117.171078,38.028889,72.101841,91.413975,104.869137,30.288506,57.548161,73.057194,85.255337,-17.660741,-20.925609,-16.631732,-15.857321,10.666581,22.499936,27.744831,31.263863,28.548821,38.83187,43.504524,45.703085,40.939103,52.210035,55.738145,56.047391,48.77029,59.783476,61.323964,59.592235,23.241978,294.373291,-63.841553,280.451352
26,-40.98587,11.733072,0.059681,-0.519691,8.970108,16.237793,23.904991,29.711266,13.621216,43.059883,61.175079,70.225983,7.296696,39.469414,59.540291,72.124214,1.261539,30.458221,50.701103,62.792931,-2.707672,10.895233,21.610107,28.798599,-21.35144,-33.979831,-39.316179,-39.016813,-11.507313,-4.856546,0.587555,5.857212,4.681175,14.243227,17.02959,18.211802,17.542119,24.773586,23.988677,22.814925,27.471832,33.962356,32.56093,29.19331,24.154587,49.10574,72.795181,92.837677,53.42514,85.744286,103.405037,116.759148,46.069794,82.218361,102.63279,116.772881,37.915821,71.950264,91.054688,104.266319,30.202045,57.526474,73.103027,85.193138,-16.843969,-19.94668,-16.154464,-15.555917,11.620193,23.480285,28.786128,32.211423,29.413697,39.820618,44.549155,46.601245,41.817194,53.28616,56.703921,56.902943,49.786702,60.705842,62.100784,60.467053,-17.793159,306.102828,-63.831139,279.928125
27,45.050812,-10.578093,-0.403862,-0.188586,-0.447807,-5.26989,-13.671112,-23.344917,-29.801216,-12.084045,4.847832,14.212189,-38.441563,-17.307129,-1.020355,13.053818,-44.514256,-31.414948,-15.39917,-4.967422,-47.912235,-63.857174,-73.571148,-82.626171,-21.964189,-31.614667,-33.109892,-33.871768,0.989921,15.923579,16.431105,15.635266,17.311234,30.90534,29.498666,27.206861,26.586516,39.568738,35.623689,31.852098,33.747835,41.985772,44.871987,46.514609,24.470787,49.647102,73.52211,93.980026,53.49329,85.918121,103.472672,116.737747,46.260223,82.555161,102.925186,117.162781,38.215084,72.313042,91.449051,104.784279,30.604019,57.947159,73.440857,85.525818,-16.93258,-19.9996,-15.910549,-15.180104,11.940307,23.588719,28.643917,31.938363,29.755548,40.042919,44.610721,46.723696,42.148793,53.487589,56.811614,57.04466,50.03358,60.898997,62.195138,60.47434,27.237139,295.600179,-64.255514,279.814983
28,-48.40559,6.254637,-0.600357,0.004755,10.85083,20.671062,30.196095,37.905178,14.118519,45.620556,65.082493,75.173321,5.567837,39.844265,60.2738,74.833775,-1.527901,29.255505,49.762745,63.811626,-5.798092,4.75462,11.498337,17.323551,-20.832057,-34.296982,-40.357538,-40.741872,-10.223522,-0.296155,6.445693,12.163411,7.530586,20.15836,22.788804,23.293676,20.937465,29.753448,29.334101,28.076739,30.697735,38.527502,37.610262,33.716219,24.749107,50.015316,73.856163,94.0242,53.839417,86.16909,103.646965,116.724358,46.801186,82.934532,103.282928,117.539406,38.872318,72.834206,91.821213,105.066948,31.241741,58.509521,73.993721,85.967903,-16.744859,-19.983977,-16.201826,-15.325588,11.790253,23.324304,28.448477,31.765709,29.384798,39.650742,44.292644,46.356714,41.700609,52.937331,56.326256,56.480817,49.69315,60.637608,61.962833,60.172504,-21.195459,301.868525,-64.882879,279.833447
29,48.094654,-8.894962,-0.658035,-0.488693,-0.675545,-6.063194,-13.968658,-22.531242,-28.842545,-12.494202,3.954163,13.568916,-36.520042,-17.666588,-1.494713,13.850098,-42.50742,-31.479263,-15.270538,-3.934708,-46.58432,-63.863754,-74.534912,-84.74453,-20.947963,-30.382067,-31.47752,-32.208521,0.244593,15.266431,17.197243,17.671733,16.7456,30.486302,30.245475,28.814039,26.643759,40.183957,36.573534,33.439207,34.529101,42.674228,45.379946,46.860103,24.973183,50.412025,73.844604,93.72654,54.466038,87.217484,104.733696,117.875061,47.429924,83.526306,103.841171,118.346672,39.421749,73.117332,91.918831,104.911308,31.524181,58.208084,73.503113,85.297852,-16.556088,-20.105317,-16.203864,-14.977562,10.630086,21.542002,26.936579,30.643518,28.276378,38.39091,43.155387,45.547968,40.750764,51.575241,55.085752,55.35591,48.92127,60.114273,61.579549,59.596928,26.866922,293.017515,-65.573187,279.388705
30,-27.846909,4.06892,0.422058,-1.213149,2.297173,3.891678,8.820763,14.517746,-9.0271,20.05703,41.076164,52.772484,-15.610828,16.899948,38.711929,54.372368,-19.694138,6.664352,29.535255,44.802589,-20.053539,-29.807854,-36.758995,-42.889881,-20.611176,-32.121576,-36.85067,-37.274216,-6.059321,3.954373,9.956266,14.25675,11.013001,22.246203,24.481939,23.758162,23.412916,30.553425,31.095902,29.551524,33.365724,40.800597,44.623132,45.369571,23.434181,48.558998,72.082901,91.458092,52.548695,85.655022,102.993851,115.986328,46.941662,83.621979,104.434433,119.409142,39.862804,74.004593,93.623772,107.430496,32.251225,58.734856,73.569031,83.880043,-18.749833,-22.805724,-18.42058,-16.534784,9.036926,19.849485,24.07451,27.114915,26.603312,36.430767,40.529821,42.633905,39.20262,49.629424,52.887375,53.465483,47.627846,58.006979,59.005297,56.564242,-0.989971,297.12242,-65.161114,278.211541
31,24.763412,-9.761505,-1.516857,-8.206815,-11.664963,-29.538574,-42.749691,-53.328209,-48.409367,-51.007462,-54.29266,-58.809814,-45.708561,-29.474144,-7.633553,8.093834,-38.545189,-18.984261,2.576523,18.170128,-28.539162,-26.723785,-19.869003,-13.186798,22.447263,34.893861,42.524174,48.454622,23.735994,30.79351,34.025836,36.959906,14.507765,23.087862,23.162456,23.24267,6.430811,14.954097,16.327365,17.3192,-0.222672,8.545701,12.710643,16.161688,21.914349,46.272812,68.158436,85.508823,51.986847,84.968662,102.301998,116.203251,45.97229,82.582684,102.61694,117.964268,37.973785,71.471958,90.207424,104.064388,29.260254,53.240261,65.015888,72.213764,-19.71419,-23.96163,-22.851481,-23.058098,6.76414,17.522729,22.234841,25.595793,24.015106,35.03354,39.393984,41.577046,37.101747,49.113314,52.714165,53.379341,45.307451,57.121972,58.711489,56.626178,23.778505,287.442302,-66.672907,270.086113
32,18.263397,-25.730841,1.266632,-14.631081,-35.126495,-61.652355,-76.208782,-78.330517,-70.408802,-82.10043,-74.954224,-69.284878,-57.231102,-73.166599,-75.726814,-72.546329,-43.352509,-60.889893,-63.527241,-61.344395,-31.077003,-45.67337,-52.113762,-54.33403,-16.165949,-15.606799,-10.420197,-0.930208,21.778938,21.871378,12.215528,5.502517,38.79871,41.364872,37.223395,30.854458,48.222317,52.522801,49.044462,43.474019,52.028921,60.272107,59.6023,57.093011,18.374577,39.088669,56.336117,71.11742,55.388203,86.408329,101.896992,112.543774,49.262753,79.110775,91.848278,97.876568,38.885021,59.236507,64.659061,64.311161,26.164455,34.620838,34.527855,30.13773,-21.214169,-27.961575,-31.043908,-34.188548,2.486627,13.083245,21.397815,27.499681,20.662058,36.711423,46.309227,52.67977,34.634201,54.009566,63.842516,69.205724,43.447158,61.457715,66.804313,66.689395,42.215481,261.662415,-65.232697,255.405987
33,-10.811806,1.530793,12.41993,-27.581624,-19.490776,-36.249161,-48.143349,-56.043262,-34.3713,-52.59407,-60.31105,-63.935452,-27.694588,-46.949444,-54.589691,-58.182907,-19.764862,-37.003212,-44.625607,-49.093723,-10.726089,-23.36895,-30.338058,-33.499718,-4.475423,-2.690033,2.359915,7.763447,-0.309555,6.950009,12.696008,16.712379,7.724853,17.525755,24.702758,28.149975,15.712516,26.583799,30.071524,31.486473,22.903166,30.675135,33.026529,34.224734,28.816738,47.502079,54.770336,54.276981,68.817043,70.806141,61.807423,53.620777,55.806026,57.36517,47.443256,38.077812,40.997543,41.433163,31.856346,23.36174,25.469913,26.443462,22.040977,18.202229,23.578839,41.96453,57.732807,69.593579,27.230573,51.422717,67.741375,75.49735,22.418364,49.756321,67.064838,72.782123,20.63637,46.353564,62.037675,65.778762,20.639766,42.12786,54.294791,59.044756,31.245375,263.366758,-52.971067,227.997912
34,46.91597,-61.019966,-12.426567,-24.543628,-42.884445,-83.339081,-108.440495,-112.245197,-76.804848,-121.466618,-131.214523,-127.197132,-63.41011,-109.227047,-111.632881,-99.797459,-51.414413,-94.64653,-97.734432,-89.289722,-40.856438,-76.91906,-82.990837,-78.685112,-11.206341,-8.103198,-1.497941,4.116344,-13.031683,-6.840402,-8.804929,-17.61307,7.795496,31.15228,36.78719,31.191245,29.500889,52.638706,55.901166,47.484523,45.455837,66.260168,68.164242,61.773939,-2.912407,1.366367,5.675125,9.263992,42.996941,60.956326,66.69405,63.936939,49.644928,71.383038,74.842815,70.001507,50.850391,70.181522,68.942585,59.83057,48.615475,60.793819,60.215092,53.48053,-28.843556,-48.638144,-63.069216,-79.2837,-22.03477,-8.175755,4.228483,14.085578,-1.043026,14.270088,31.657213,45.150296,16.531944,34.499091,50.209754,61.535644,31.452511,47.152923,62.081703,74.766287,77.285957,203.229359,-66.273022,204.336853
35,20.611267,-35.622084,-24.205112,-44.962945,-23.836555,-54.95739,-77.614059,-90.192375,-62.969055,-105.099335,-116.510353,-115.764198,-60.058365,-106.623116,-118.737946,-119.21133,-55.249672,-98.542099,-109.24427,-109.906654,-48.330688,-83.631706,-93.374634,-93.90358,-22.084664,-27.529692,-24.472553,-19.639595,-9.040137,7.16064,5.925755,3.274377,9.806027,28.390987,28.440758,28.680288,25.980127,41.040991,41.159305,40.017601,38.666996,51.34979,50.583776,47.701514,0.890751,7.055511,9.176388,5.130215,46.342106,67.037258,64.751587,58.577099,51.958065,74.000072,72.260113,65.685196,51.506939,70.780792,65.839748,56.854534,46.825619,62.936668,59.732265,53.013611,-24.617296,-47.496719,-64.811936,-81.728585,-39.406272,-37.9665,-34.467227,-32.347027,-20.068019,-19.510722,-17.599794,-15.076487,-0.661779,-1.347517,-1.746425,-0.467451,17.120672,15.26674,11.810137,8.827654,96.866112,168.542794,-91.509247,160.309426
36,7.357178,-30.679519,-10.93071,-34.09691,-17.112923,-33.93528,-45.064659,-47.658691,-68.33313,-101.053391,-101.745872,-93.471794,-70.823135,-104.54567,-102.015724,-92.486229,-67.954903,-98.896751,-94.26487,-84.183311,-60.105743,-86.40667,-84.231606,-76.77681,-34.52481,-53.593615,-66.529029,-77.340168,-34.308128,-30.127038,-25.233472,-21.409918,-14.50406,-7.960678,-6.645888,-4.551499,3.840629,9.727172,8.88996,9.32777,20.372758,26.738361,24.840462,22.08627,-4.109344,-6.328983,-11.250229,-18.605232,32.20768,50.412655,43.559704,35.663853,43.43914,64.010181,57.339993,49.169197,49.71777,69.36945,61.879921,52.844639,52.033367,67.290115,60.91238,52.441292,-27.569953,-54.98303,-76.532164,-93.388081,-60.68707,-70.683103,-63.495818,-57.331553,-45.724976,-56.127172,-50.594459,-43.603324,-28.164919,-37.133672,-34.058285,-29.434198,-9.284113,-15.998976,-16.182066,-14.530736,106.019726,139.612896,-100.64352,127.962137
37,7.866096,-30.726357,-3.074112,-31.329133,-3.106842,-10.84671,-18.980141,-19.550743,-51.339684,-77.694855,-69.31469,-58.243561,-59.010544,-84.67186,-74.242516,-63.518944,-61.318932,-84.091072,-73.420143,-63.324394,-58.18222,-77.073097,-70.540466,-62.718773,-34.893336,-58.904583,-75.355139,-88.373577,-55.423588,-65.954843,-64.072598,-59.583467,-40.316196,-48.813886,-48.507079,-43.347029,-24.115975,-32.2988,-33.348526,-29.959478,-7.497519,-15.072318,-17.570709,-16.622686,-15.46669,-22.780323,-28.836651,-40.300827,13.733768,28.461742,24.291973,18.410969,30.093212,46.680794,40.924644,33.429222,41.369362,57.137146,50.271721,42.057953,49.053726,60.285873,53.181725,44.187813,-26.348283,-54.013332,-75.733175,-90.923499,-76.973556,-94.317672,-84.101406,-74.158046,-66.116475,-81.810682,-71.575489,-61.281541,-51.433832,-64.873779,-57.554441,-49.630906,-34.605425,-44.284586,-39.690726,-33.474404,114.913044,111.272081,-102.690411,99.018546
38,8.689842,1.629254,-17.742577,-2.383566,-24.698982,-42.968559,-53.593597,-59.855347,-49.093552,-65.448647,-68.888741,-69.822922,-40.190163,-57.229729,-60.959358,-63.678246,-27.487793,-41.780548,-45.290794,-49.306412,-12.367172,-17.369614,-19.342918,-21.924248,-22.167163,-43.364505,-60.753915,-74.686259,-47.078946,-76.693456,-95.011283,-108.946344,-44.370388,-77.332357,-99.588965,-116.464303,-42.456403,-73.349826,-96.049987,-114.121554,-40.808038,-63.393127,-81.116669,-96.010806,0.47224,1.293526,-0.402374,-5.749912,2.078247,21.334591,29.920006,34.575863,10.76786,30.81007,39.925518,44.121323,19.828148,38.420849,44.42934,46.735096,28.724213,38.587646,38.740139,37.13768,-30.366506,-60.872229,-85.164408,-102.253001,-56.446052,-90.504553,-105.912948,-116.511665,-48.5131,-84.520475,-102.963131,-114.777961,-40.055763,-72.720002,-90.345237,-101.280803,-30.744357,-57.582136,-72.846652,-82.954361,124.356422,113.141513,-119.679451,96.875158
39,8.641205,-50.272276,1.332264,-38.318385,7.227974,5.886269,4.848289,10.198631,-20.492592,-43.113899,-48.603859,-48.595505,-26.549263,-51.430779,-55.796242,-55.476494,-29.785881,-53.676682,-60.097275,-62.065086,-30.033073,-51.423912,-57.578087,-59.826393,-33.424201,-63.252367,-82.778187,-99.105644,-66.060961,-94.733005,-110.767488,-121.94811,-54.013981,-80.955377,-99.082828,-110.523512,-40.118903,-63.758258,-82.540201,-97.023637,-24.609145,-42.830703,-58.219616,-71.778092,-20.077744,-29.859009,-39.043694,-53.139553,-0.207882,18.914852,16.687088,11.21624,17.616234,32.885628,28.292427,23.309269,30.545254,41.675606,37.500229,33.146095,40.224667,45.227394,39.731369,35.630264,-26.384315,-53.703129,-76.891304,-91.577405,-80.816809,-105.002562,-102.092852,-95.500872,-74.285962,-100.520501,-100.087229,-94.010031,-63.915134,-89.296005,-88.570685,-82.419603,-51.827183,-75.004273,-77.497662,-73.333863,135.050497,64.580835,-116.294317,60.268371
40,6.741943,-4.95723,-12.512512,0.227581,9.379234,8.807831,9.466324,16.872711,-3.717957,-24.226341,-33.550758,-39.832993,-14.194679,-33.535423,-44.146729,-51.099129,-25.09346,-43.299408,-53.204613,-58.715286,-35.946236,-49.836502,-56.695061,-61.73687,-32.951903,-62.824128,-86.651451,-104.642989,-72.810775,-100.941361,-119.20528,-135.146303,-64.816073,-94.876544,-115.748554,-133.804189,-53.515223,-81.285,-101.530151,-119.070294,-39.057136,-62.60899,-77.694492,-92.118863,-12.369862,-22.659931,-31.38588,-44.520149,-12.288437,4.231052,14.271069,20.340843,1.988411,19.192944,29.522038,34.766293,16.848221,31.853542,40.221691,43.295689,31.297073,41.415424,45.780659,47.733593,-31.298351,-61.989911,-86.470646,-101.850018,-65.326224,-100.074694,-116.03063,-127.846015,-56.831961,-95.327631,-113.965881,-128.672236,-46.494448,-84.138209,-102.641751,-115.963877,-35.67945,-66.910678,-82.65836,-95.244206,144.35277,63.893012,-126.2465,64.76536
41,-1.758156,-21.829635,-0.834618,-9.821774,13.919792,17.56073,18.948898,25.900612,0.121994,-16.19339,-25.004311,-31.059494,-9.646225,-27.267151,-36.824226,-43.650513,-19.869576,-37.325592,-45.787239,-51.208305,-30.857277,-45.78495,-50.831909,-52.905693,-26.974062,-58.560571,-83.015185,-99.719845,-71.590062,-107.19572,-124.709033,-138.883129,-63.359165,-98.191121,-118.863121,-133.549345,-51.822273,-83.657204,-104.49096,-121.000365,-38.038655,-63.228995,-79.292901,-93.411948,-14.892311,-25.782681,-35.857086,-50.723476,-14.359131,-0.079823,10.106335,18.398895,1.969872,16.363506,26.467953,33.767223,18.043785,30.339603,38.099785,42.584324,32.516785,41.490097,44.946728,46.479206,-32.557534,-61.960333,-85.452814,-99.996703,-65.392081,-96.862622,-115.67152,-131.041692,-56.522807,-95.469101,-116.618123,-133.302158,-47.499868,-85.597186,-105.391744,-120.260595,-38.802508,-70.352955,-85.15459,-98.376588,143.904305,50.482274,-125.771427,63.362484
42,-4.637489,-2.518861,-0.566483,-8.254826,13.558617,19.896927,24.04335,32.901077,7.501259,-8.370667,-15.605392,-21.027603,-5.331459,-20.065498,-28.417854,-35.793457,-18.276329,-32.229424,-39.001923,-43.841858,-31.248093,-42.916603,-47.723923,-51.863022,-28.422356,-57.154823,-81.8205,-98.291126,-71.582251,-105.75709,-125.037051,-140.54437,-65.989393,-102.582718,-125.95389,-143.902234,-56.512896,-91.581264,-113.969432,-131.520937,-44.537608,-72.783142,-89.291497,-104.551846,-16.188068,-27.323742,-37.657871,-53.361683,-15.603333,-2.557526,6.752415,14.944382,0.649338,13.764324,23.614368,31.031971,16.723137,28.39222,35.567551,39.737492,31.301594,39.22039,42.206726,43.412762,-28.930531,-58.223475,-81.352185,-94.990381,-62.905268,-95.496642,-115.558702,-131.893322,-54.250176,-93.811936,-116.188927,-133.560059,-45.199264,-83.79852,-105.267934,-121.693112,-36.101452,-68.339088,-84.253899,-98.579562,136.95817,50.250092,-128.646555,57.394337
43,-6.623154,-4.578515,1.345425,-6.200143,15.890694,24.813538,30.504112,40.235939,11.859856,-1.729088,-8.321915,-13.673515,-2.294998,-14.883041,-21.660118,-28.36132,-16.362648,-27.803078,-33.054199,-37.255211,-29.822273,-38.720398,-41.991119,-45.051384,-26.077786,-53.665925,-77.861712,-94.072029,-68.342083,-104.165072,-124.107151,-139.211179,-63.608605,-102.495742,-126.113947,-143.492983,-55.499572,-92.578657,-115.13599,-131.6918,-45.519687,-75.232009,-91.784948,-105.95392,-17.686329,-30.537014,-41.930981,-58.844204,-19.122791,-7.25956,1.211357,7.938309,-2.707729,9.776516,18.664284,24.964771,13.921452,24.208031,30.147572,33.470192,29.659023,36.185474,38.532772,39.596672,-24.974615,-52.117873,-74.336721,-86.813453,-56.755205,-91.857906,-112.188118,-128.382935,-48.786283,-90.814231,-113.162416,-130.185522,-40.653137,-80.866827,-102.33022,-118.57345,-32.872677,-66.413525,-82.417503,-95.931056,128.920269,48.448679,-128.715878,53.971296
44,-5.042038,2.350468,2.119389,2.55588,18.094368,27.656364,34.618149,45.884514,13.092842,0.508003,-4.621582,-8.863106,-1.059494,-13.692398,-19.288788,-24.657326,-15.310822,-26.211205,-30.733452,-34.182014,-28.505287,-37.588234,-41.078568,-43.388443,-24.263435,-51.088925,-73.895823,-88.179125,-66.587044,-102.246301,-121.572204,-137.058034,-62.537699,-100.469124,-123.512742,-141.323506,-54.827419,-90.68613,-113.054723,-129.94414,-44.253093,-73.829009,-90.633488,-105.079812,-18.482723,-33.545151,-46.171474,-62.774963,-20.761414,-9.909668,-1.611328,4.879704,-3.856888,7.471962,15.085659,20.174789,13.414879,22.06152,26.968861,29.943581,29.893112,34.995003,37.2262,38.992252,-20.8646,-47.868703,-68.662413,-79.636789,-54.322733,-90.266536,-109.916814,-125.376122,-47.298747,-88.940384,-111.488146,-127.939289,-39.591493,-79.692735,-101.458273,-116.767899,-31.879638,-65.157275,-81.689682,-95.187457,123.612242,54.924645,-126.862478,60.652675
45,-7.589722,7.144121,2.904167,6.23815,20.057373,31.390457,38.738251,49.800911,14.947701,3.136253,-2.096329,-5.997505,-0.100479,-10.837097,-15.904999,-20.668373,-14.838066,-24.108696,-28.052902,-31.178169,-27.871628,-36.282692,-39.442635,-40.949249,-21.287003,-46.865043,-68.595692,-81.917603,-64.398301,-99.957615,-118.787168,-133.364248,-59.692086,-98.058635,-120.010197,-137.145936,-51.634583,-87.253548,-108.852916,-125.347408,-41.4491,-70.846927,-87.357783,-100.812704,-17.7285,-34.454727,-49.274368,-65.812969,-21.827831,-11.329994,-3.645058,1.347713,-4.635944,6.709213,13.793678,16.98349,12.488308,21.177235,25.624065,27.491856,28.413105,33.432598,35.212212,35.716953,-18.718927,-43.994606,-62.993293,-72.428602,-48.099928,-85.101577,-104.703566,-119.050781,-41.615363,-83.552568,-105.790435,-121.868483,-34.090828,-74.700554,-96.223938,-111.092387,-26.749105,-59.826887,-76.619819,-90.108856,115.912485,62.558432,-124.068346,67.38049
46,-9.416656,13.054994,6.44165,5.995595,22.755547,35.505409,43.958931,55.690842,18.58017,6.507111,0.638924,-2.326355,1.80542,-8.422165,-12.856293,-14.806938,-14.095001,-21.126022,-23.323174,-23.666611,-27.511711,-34.534378,-36.418076,-35.956764,-16.416718,-42.351891,-63.757856,-76.90069,-57.509641,-94.670575,-113.216478,-127.061167,-52.616415,-93.343683,-114.132731,-128.617309,-46.03203,-82.682937,-104.350354,-120.40154,-38.7645,-69.388351,-84.883475,-97.189035,-20.045986,-38.302059,-53.648701,-69.503059,-26.531982,-14.183979,-7.802868,-3.886127,-8.435955,4.085369,9.424381,11.659698,9.658527,19.392986,21.35479,21.456814,26.623707,31.996708,31.437206,29.872913,-13.360782,-34.501252,-50.589673,-59.756553,-35.778467,-74.821894,-93.653423,-105.719638,-28.788382,-72.68993,-93.770501,-106.432979,-22.896651,-64.306817,-84.637152,-97.02941,-18.792596,-52.145043,-67.252343,-77.596864,105.603132,73.870613,-118.519392,71.633272
47,-7.292633,7.991738,5.932388,1.1137,22.21447,37.541313,47.592888,57.741051,18.009109,6.70372,1.193733,-0.673027,2.889633,-7.091331,-12.552567,-15.78907,-11.318665,-18.146095,-22.961769,-25.758018,-23.253136,-31.534538,-33.993874,-34.17984,-15.419603,-33.947629,-48.141455,-60.569003,-40.996932,-76.059001,-94.293682,-106.970486,-35.459124,-71.828419,-93.13438,-104.566326,-30.122252,-62.327377,-84.201905,-98.437659,-25.568129,-53.120638,-68.030985,-77.526037,-23.91901,-41.155014,-55.247784,-71.812935,-27.556973,-16.417007,-12.375526,-9.923515,-8.481102,2.983932,5.912876,6.985416,9.063778,18.623486,18.680935,17.037449,23.961296,29.538002,27.809143,25.27874,-11.328823,-22.129804,-30.794591,-38.569709,-16.723555,-49.874418,-65.386708,-73.993975,-11.641527,-48.754266,-68.960081,-77.551324,-9.105531,-42.108594,-61.232079,-71.164756,-8.560336,-34.844584,-48.417201,-55.392065,96.369638,78.339429,-114.527864,69.224049
48,-0.411072,3.470651,0.666103,-8.597819,18.328857,31.255875,42.690582,55.808029,13.190117,2.201958,-2.880478,-3.426247,0.536613,-11.360321,-16.015205,-17.666473,-10.483818,-21.739769,-26.41674,-27.894859,-19.101677,-30.429611,-35.743675,-36.114922,-9.784847,-16.728619,-22.036345,-29.749342,-32.991331,-58.617134,-72.263667,-81.28781,-27.793737,-52.896514,-67.186517,-75.794833,-21.01277,-40.929532,-55.903605,-67.238295,-14.327084,-26.411516,-35.412812,-43.21442,-22.022953,-39.337807,-50.109501,-60.838108,-16.158543,-12.773151,-11.681385,-9.498138,1.858406,8.51778,8.825912,13.111954,17.007465,22.732315,22.841434,26.18391,27.850227,34.549255,35.541515,36.917038,0.065178,-1.403957,-3.183697,-3.959128,-2.888623,-8.205765,-14.165514,-20.641557,-1.15217,-5.85644,-13.506513,-19.772358,-0.030999,-0.190871,-8.577287,-16.991027,0.549671,3.287623,-0.451581,-5.412084,96.261034,79.802882,-113.559294,58.619033
49,0.586967,1.839113,-5.200996,24.951242,16.435318,29.574394,41.448097,53.792267,12.672501,5.984001,1.552277,0.670509,-1.016006,-9.759979,-14.547157,-16.742592,-12.529449,-22.227859,-26.889038,-28.298721,-20.938683,-31.241455,-36.385117,-36.944733,-4.177817,-4.859788,-4.985697,-7.044703,-19.963383,-37.718881,-48.90009,-55.992217,-17.992959,-37.397717,-48.38435,-53.418151,-14.699222,-28.892647,-38.778332,-45.655105,-10.695048,-18.629111,-24.623841,-29.659124,-12.539234,-21.586761,-22.933788,-23.113003,-6.58699,-5.447159,-3.728886,-1.508961,6.50013,8.78746,8.235455,7.64082,17.154408,21.309471,19.940643,17.79047,26.206055,29.108105,28.280811,25.962582,-6.967669,-13.269176,-18.01701,-18.227517,-26.96412,-35.424945,-30.831054,-25.66307,-26.208882,-34.94428,-27.271699,-19.75936,-20.397273,-27.946662,-20.905633,-14.477075,-11.147895,-15.107362,-11.314991,-9.105932,97.152901,81.214528,-118.455391,83.142808
50,-5.251579,20.087594,9.10326,50.908985,19.873695,35.703163,47.174606,59.960518,18.779182,11.868095,6.700516,3.411484,5.202827,-1.464272,-7.004242,-11.034164,-7.388878,-14.351234,-19.276199,-22.036285,-18.32119,-26.940765,-31.695442,-32.690964,-7.586656,-14.402512,-18.959785,-26.559007,-21.414456,-45.679003,-59.853378,-71.490675,-16.993559,-43.587177,-59.649756,-70.333596,-12.709377,-35.284988,-50.803762,-63.287318,-8.477745,-25.403996,-36.062889,-45.450279,-20.388393,-40.913029,-58.797455,-76.993618,-27.68034,-13.167686,-6.97546,-5.851021,-9.289227,4.057961,7.631378,7.202282,9.77829,18.633671,18.878059,16.998138,28.578186,32.33448,28.575382,24.840603,-19.600847,-38.99909,-49.868336,-54.651214,-39.781067,-75.259673,-83.160638,-81.241127,-31.957752,-74.233196,-84.12694,-81.95067,-25.090798,-67.257283,-76.367445,-74.608916,-19.054263,-54.373893,-62.128355,-60.558876,92.361031,100.712205,-108.892422,133.461876
51,-0.872154,20.083148,-4.219551,-0.462974,20.798836,37.319984,49.612427,64.973488,21.131859,12.377243,8.111916,4.263153,5.369682,-2.723579,-7.620049,-11.107635,-9.533501,-16.561661,-20.438805,-22.020721,-22.747765,-29.394836,-33.27198,-34.63028,-9.597465,-24.634833,-37.991354,-45.520829,-26.053271,-58.873985,-77.014157,-91.087971,-19.66763,-57.454621,-79.063591,-95.43872,-14.349962,-49.606205,-69.988257,-85.606819,-10.413281,-39.740373,-54.858541,-66.218487,-17.362862,-35.753403,-53.071747,-70.34483,-25.854092,-15.775566,-8.460903,-3.447247,-6.832523,4.424515,9.666138,12.337875,12.303314,19.436131,21.331387,22.607975,30.020943,32.520504,32.175179,31.467762,-18.199668,-39.178599,-52.103763,-59.326955,-26.544094,-58.045264,-75.84905,-89.112761,-18.905321,-56.849652,-79.570562,-94.012007,-14.329245,-51.53004,-72.545372,-85.25972,-12.494208,-43.647599,-58.294488,-68.427237,91.94953,120.32747,-112.65132,132.531019
52,3.561859,16.836497,-1.088905,-1.937821,19.174232,34.432068,47.934265,63.183746,18.88298,9.653435,4.857674,1.28849,2.118187,-6.325264,-11.083832,-13.739662,-14.017067,-20.269432,-23.174057,-24.935074,-29.765396,-33.65284,-34.958153,-35.851936,-15.886127,-37.188383,-53.539151,-63.324893,-41.335664,-75.291073,-94.742638,-110.473525,-35.299901,-74.939374,-97.038827,-114.617379,-28.647961,-65.873827,-87.32521,-103.76885,-22.638874,-54.164034,-71.292611,-84.993298,-16.422558,-34.131374,-52.271633,-71.24588,-23.878841,-14.814491,-9.525547,-4.891319,-5.844326,3.716125,9.296093,13.801804,11.84967,18.262253,21.755848,24.237728,28.412819,30.538044,31.790428,32.243786,-18.894916,-39.925871,-52.257614,-58.489157,-29.023774,-57.61332,-74.945888,-91.178404,-20.578016,-55.858527,-77.396855,-93.881899,-14.515021,-48.463298,-69.905388,-85.344318,-11.17772,-38.975594,-54.055076,-66.79928,95.355835,136.647641,-113.895779,130.076872
53,1.053429,1.986696,-0.196266,-1.252391,19.113693,34.401512,48.86158,62.979126,20.195045,12.445335,6.552658,0.982819,2.681923,-4.367867,-8.489227,-12.367287,-14.019585,-19.445457,-21.948051,-24.219246,-28.766441,-32.982903,-33.72036,-34.452553,-19.308181,-39.576055,-54.951105,-66.079116,-42.518925,-78.953274,-98.335956,-113.518963,-37.093102,-77.829911,-100.753701,-117.554692,-31.447324,-68.862917,-91.048852,-106.480126,-25.66344,-56.392854,-74.042542,-87.331724,-17.526398,-34.617462,-52.199821,-71.260529,-23.760567,-14.872227,-9.820576,-4.585247,-5.067673,5.093536,11.03508,15.780087,12.246037,19.765263,23.397045,25.501099,28.124084,30.511608,31.761761,32.061481,-19.167606,-40.209676,-52.63179,-59.80688,-30.684335,-59.408126,-77.644968,-94.273181,-21.904014,-59.001685,-80.34238,-96.000278,-15.242997,-50.761494,-71.841417,-86.812372,-10.968571,-39.143864,-54.476183,-66.919971,96.190681,138.314933,-114.310627,128.505077
54,0.053673,-0.08503,-0.51178,-0.1658,19.488029,34.566879,49.434814,63.558769,20.462723,13.616638,8.065681,2.695656,2.588997,-3.327255,-7.073021,-10.893059,-14.410172,-18.919487,-20.652466,-22.452164,-29.259109,-32.743721,-32.941475,-33.052254,-19.012859,-39.710887,-54.886236,-65.905474,-42.405984,-78.843142,-98.371092,-113.604394,-37.144355,-78.204859,-101.339651,-118.247377,-31.650637,-69.824587,-92.121827,-107.407956,-25.961355,-58.007071,-75.977553,-89.013589,-17.048149,-33.61845,-51.051464,-70.916176,-22.782154,-13.871326,-8.490715,-2.986622,-4.24736,5.857258,11.487236,15.931778,13.129234,20.872765,24.40218,26.64957,28.894672,31.74139,32.945709,33.439751,-19.80382,-40.910049,-52.619101,-59.163625,-32.397724,-60.582341,-78.82403,-95.709526,-23.726886,-59.610482,-80.423984,-95.689951,-17.276067,-51.783525,-72.881788,-87.979239,-12.879592,-40.8734,-56.240917,-68.88382,96.219063,137.984337,-114.847698,128.093712
55,-0.220528,0.672647,0.051613,-1.286354,19.780312,34.950027,49.322205,63.259964,20.785789,13.921967,8.526077,3.413887,2.92202,-2.974663,-6.882362,-10.820274,-14.121208,-18.559341,-20.562859,-22.60334,-28.987999,-32.429924,-32.754593,-32.90966,-19.224138,-40.002102,-55.268193,-66.474195,-42.326882,-78.381589,-97.86196,-113.192519,-37.277365,-77.852017,-100.873713,-117.89543,-31.983502,-69.72696,-91.826537,-107.129616,-26.421056,-58.438923,-76.358645,-89.334753,-17.141361,-33.518085,-50.601654,-70.320454,-21.656399,-12.714443,-7.166462,-1.354866,-2.871265,6.724663,12.410316,17.115898,14.63356,21.798134,25.342312,28.129177,30.475903,32.740459,33.716927,34.210396,-19.482842,-40.513087,-51.960965,-58.115628,-31.383535,-59.23964,-77.220341,-93.539987,-22.973747,-58.147399,-78.861636,-93.471784,-16.799045,-50.558829,-72.135812,-87.198621,-12.441658,-40.38196,-55.790231,-68.147724,96.098185,137.977992,-114.696436,126.128366
56,-0.289993,0.381124,1.548157,-0.04233,19.680061,34.419136,48.527298,62.73262,19.707642,13.206711,8.192253,3.546524,1.839981,-3.5186,-7.040863,-10.335159,-15.153236,-19.266014,-20.89325,-22.226143,-29.758644,-33.150673,-33.429909,-33.244743,-19.209627,-39.63972,-54.982629,-65.924709,-42.75651,-78.17031,-97.397566,-112.528486,-38.024236,-77.841767,-100.673889,-117.575625,-32.719413,-69.918232,-91.931358,-107.446612,-26.959612,-58.572921,-76.38316,-89.395176,-17.40984,-34.30584,-51.623383,-71.092987,-22.68219,-14.293671,-8.834896,-3.27055,-4.041252,5.523205,10.914745,14.845963,14.044189,21.400337,24.568691,26.783066,30.382118,33.408165,34.315453,34.402542,-19.384164,-40.5058,-52.104133,-58.890812,-30.084554,-57.896631,-75.737992,-91.465451,-21.812561,-57.067075,-78.088459,-92.914703,-16.26864,-50.221826,-72.015399,-86.973016,-12.629596,-40.956177,-56.843786,-69.276768,95.763845,137.875208,-113.192625,125.602129
57,-0.504227,0.345988,0.339088,1.068653,20.390167,35.15728,48.826561,62.520218,20.131416,12.96524,7.331085,2.214088,2.016563,-3.871307,-7.670517,-11.099854,-15.114899,-19.733505,-21.689758,-23.363457,-29.899521,-33.411942,-33.790283,-33.783417,-19.108449,-39.57374,-55.032554,-66.498648,-42.316477,-77.682451,-96.883494,-111.896409,-37.262113,-77.223398,-99.874715,-116.420645,-31.842681,-69.023345,-90.808303,-105.943298,-26.042341,-57.562653,-75.307715,-88.305868,-17.607479,-34.472408,-51.766491,-71.756458,-22.594414,-13.133068,-7.822094,-2.935982,-3.577824,6.395817,11.73317,15.229168,14.716473,21.738453,24.682846,26.476707,31.075115,34.089432,35.360126,35.798092,-19.660096,-40.934533,-52.714104,-59.02055,-30.158623,-58.317274,-75.734626,-90.774588,-21.970333,-57.589021,-78.49558,-93.468079,-16.341475,-50.885056,-72.41301,-87.216714,-12.899383,-41.349928,-56.665482,-68.781777,95.247288,137.683427,-112.865868,126.133012
58,-0.258179,1.833431,0.64373,1.328869,20.105553,34.939613,48.969269,63.230553,20.252609,13.017769,7.612953,2.719574,2.197151,-3.687286,-7.623596,-11.184654,-14.85157,-19.724121,-22.147751,-24.196472,-29.662971,-33.408508,-33.988838,-34.029579,-19.677942,-40.819678,-56.419406,-67.683793,-43.207473,-78.525838,-97.816265,-113.021038,-37.760068,-77.72052,-100.518185,-117.681218,-31.946483,-69.049372,-90.937948,-106.526006,-25.825443,-57.516217,-75.534802,-88.903087,-17.608166,-34.512234,-51.729641,-71.589375,-22.660446,-13.568745,-8.329811,-3.144264,-3.380871,6.69651,12.159004,16.125813,15.215149,22.703018,25.432434,27.269154,31.912022,34.579067,35.201397,35.392971,-19.925036,-41.451353,-53.313391,-59.725585,-29.444665,-57.942326,-75.626378,-91.099673,-21.244179,-57.093289,-78.607503,-94.081199,-16.062208,-50.650652,-72.591592,-87.569463,-13.141414,-42.167195,-57.833151,-69.87127,94.999723,139.299868,-112.211523,127.24489
59,-0.387955,0.40959,-0.635605,0.113127,20.160027,35.055084,48.942375,62.781487,20.465469,13.681297,8.497124,3.735695,2.565994,-2.930145,-6.948967,-10.568047,-14.397011,-19.023399,-21.517754,-23.563499,-29.139519,-32.994576,-33.555336,-33.447533,-19.789247,-40.419628,-55.755682,-67.006298,-42.648787,-77.448293,-96.504347,-111.647863,-37.417971,-76.965528,-99.616691,-116.600092,-31.790841,-68.568429,-90.369351,-106.041111,-25.773727,-57.123114,-75.136913,-88.527984,-17.82526,-34.476185,-51.212997,-71.004009,-22.923717,-13.886433,-8.382339,-2.9492,-3.153191,6.850891,12.236137,16.249409,15.719376,23.062763,25.547733,27.43578,32.524052,34.73568,35.199051,35.624714,-20.254475,-41.229978,-53.158182,-59.920994,-29.766354,-57.811816,-75.294439,-90.476951,-21.990865,-57.223644,-78.440931,-93.765839,-17.018197,-51.164014,-72.577544,-87.241136,-14.058006,-42.897702,-58.315051,-70.259032,94.613028,139.535754,-112.845869,127.184313
60,-0.728531,0.279853,-0.243931,0.61664,20.033226,35.129814,49.274483,63.492622,20.632782,14.021759,8.662033,3.71418,2.598381,-3.07354,-7.039146,-10.497894,-14.356842,-18.859978,-20.898972,-22.463493,-28.976898,-32.760201,-33.461609,-33.486328,-19.58439,-40.510802,-56.062705,-67.497368,-42.281341,-77.473117,-96.716861,-111.814651,-37.168036,-77.123918,-99.828495,-116.677126,-31.718377,-68.95298,-90.960889,-106.487474,-25.870613,-57.482501,-75.515042,-88.770632,-17.731876,-34.079018,-50.640049,-70.483932,-23.128109,-13.58654,-7.881031,-2.250767,-3.576679,6.919041,12.46542,16.553993,15.26722,23.105278,25.856781,27.902069,32.113781,34.836731,35.583744,36.051235,-20.401688,-41.786874,-53.919966,-60.720014,-30.357367,-58.595213,-76.235083,-91.676545,-22.351581,-57.849515,-79.197343,-94.634205,-17.219473,-51.563755,-73.265042,-88.110891,-14.210252,-43.332641,-59.082238,-71.292333,93.8659,139.646781,-113.108397,127.632127
61,0.117302,-1.119041,-0.478249,0.278587,20.348511,35.379524,49.192314,62.950974,19.764175,13.526802,8.353043,3.639793,1.479149,-3.21064,-6.945419,-10.3125,-15.649452,-19.133263,-20.997162,-22.543945,-30.387955,-33.256531,-33.271179,-32.934151,-20.102414,-40.181271,-54.99572,-66.381569,-41.054947,-76.242616,-95.487997,-110.48535,-35.760652,-75.722523,-98.727639,-115.494266,-30.44144,-67.94827,-90.069799,-105.308226,-24.871028,-56.700155,-74.60376,-87.296125,-17.626133,-33.295841,-49.768238,-70.255222,-22.100773,-11.801376,-6.596375,-1.46656,-2.812901,8.568993,13.495731,16.946983,15.576954,24.023094,26.657009,28.409729,32.008724,35.539284,36.273079,36.537666,-20.658261,-42.97029,-55.182175,-62.031376,-31.188744,-59.471143,-76.958705,-92.315291,-22.734927,-59.112712,-80.080837,-95.175447,-17.152782,-52.688477,-74.14795,-88.858658,-13.946825,-43.848504,-59.151522,-70.950019,93.926582,138.4307,-113.643265,127.813673
62,0.321693,0.398722,-0.078163,-0.07583,20.414429,35.397263,49.013443,62.844658,19.97715,12.993164,7.628632,2.906914,1.697617,-3.840637,-7.705994,-10.93277,-15.547142,-19.685211,-21.752129,-23.252792,-30.453758,-33.669662,-33.912277,-33.623314,-20.07864,-40.132149,-55.001771,-66.378729,-41.169278,-76.400018,-95.672692,-110.761251,-35.815085,-75.618844,-98.764782,-115.592757,-30.495348,-67.583696,-89.706306,-104.990119,-25.035068,-56.70352,-74.563808,-87.308599,-17.725296,-33.347626,-49.746094,-70.323143,-22.1418,-11.576099,-5.830078,-0.101681,-2.76741,8.652821,14.278049,18.560772,15.710278,24.045582,27.006397,29.10244,32.248535,35.889874,37.025642,37.620964,-20.802448,-43.355211,-55.704584,-62.3677,-31.567181,-60.09757,-77.971751,-93.826231,-23.200525,-59.492261,-80.700409,-96.099727,-17.807738,-52.912106,-74.443672,-89.213692,-14.446231,-43.842916,-59.294413,-71.35152,94.144192,138.644896,-113.825512,127.553318
63,0.084229,0.600399,0.177383,0.25222,20.091476,35.068016,48.848419,62.679291,19.605331,12.895889,7.652321,2.855072,1.458893,-3.893166,-7.765846,-11.086807,-15.567169,-19.602242,-21.626587,-23.126221,-30.271454,-33.620911,-33.912849,-33.673668,-20.145732,-40.443216,-55.609272,-67.085308,-42.009207,-77.314233,-96.568845,-111.660275,-36.675762,-76.400944,-99.528511,-116.357073,-31.205385,-68.330937,-90.564883,-105.893528,-25.532221,-57.031199,-74.987817,-87.879605,-17.418423,-32.936497,-49.513264,-70.185528,-21.848373,-11.639099,-5.760155,0.108147,-2.6758,8.421078,14.566784,19.310703,15.688763,23.898411,27.222233,29.618111,32.225418,35.766506,36.913834,37.609863,-21.36237,-44.29391,-56.789847,-63.014566,-32.247455,-60.574592,-78.342285,-94.017781,-23.762547,-59.897653,-81.026976,-96.198806,-18.18352,-53.180999,-74.718184,-89.415585,-14.59718,-44.055276,-59.425015,-71.316137,94.107771,139.105771,-113.768778,127.666013
64,0.239182,-0.042917,0.505028,-0.604567,20.033226,34.842453,48.48278,62.203789,20.108414,13.069153,7.698097,2.856331,2.150002,-3.558655,-7.517166,-10.88562,-14.891052,-19.32827,-21.646843,-23.357506,-29.739532,-33.562431,-33.965034,-33.617134,-19.551755,-40.097476,-55.601615,-67.130293,-42.374738,-77.57059,-96.58067,-111.602569,-37.144293,-76.585207,-99.552656,-116.478197,-31.511637,-68.348721,-90.405382,-105.899147,-25.561707,-56.703613,-74.429315,-87.48715,-17.55867,-33.088474,-49.437847,-69.9119,-22.736607,-12.23568,-6.07338,0.084171,-3.42556,7.648087,13.901138,18.9394,15.088406,23.433666,26.743069,29.222088,31.831913,35.251751,36.294937,36.966591,-21.224327,-43.672176,-56.256323,-62.9639,-31.815788,-60.419968,-78.26874,-94.009445,-23.467071,-59.664607,-81.04016,-96.544454,-17.943929,-52.776842,-74.460036,-89.322619,-14.33332,-43.702341,-59.206604,-71.275043,94.213285,138.96606,-113.397417,126.964652
65,-0.16983,-0.404218,1.179371,-0.764069,20.370255,35.526123,49.201241,62.768326,20.367851,13.497734,8.155861,3.309517,2.05513,-3.236504,-6.94622,-10.250015,-15.099106,-19.273796,-21.174545,-22.756462,-29.935226,-33.377953,-33.514709,-33.14518,-19.804129,-40.309681,-55.556228,-67.240487,-41.903119,-76.82696,-95.945722,-111.057529,-36.461889,-75.99333,-98.865404,-115.920837,-30.868506,-67.78281,-89.797017,-105.2332,-25.001816,-56.4513,-74.478469,-87.69741,-17.625847,-33.349514,-49.447632,-69.826012,-22.472305,-12.427483,-6.741257,-1.060352,-3.490734,7.430878,13.240128,17.83659,14.727688,23.056927,26.435909,28.985081,31.465988,34.775677,35.513821,35.708656,-20.300355,-42.513306,-55.492409,-62.630633,-31.513983,-59.887587,-77.536102,-92.955581,-22.792139,-59.119258,-80.482893,-95.743643,-16.827759,-52.00629,-73.827125,-88.799346,-13.058483,-42.637116,-58.253208,-70.377778,93.981485,138.544799,-112.280016,126.18354
66,0.276947,0.854811,0.839195,-0.454668,20.203056,35.132103,48.842926,62.745209,20.326424,13.453217,8.001251,3.044701,2.198067,-3.331604,-7.272148,-10.701256,-14.927788,-19.355965,-21.632195,-23.439102,-29.872627,-33.41423,-33.797493,-33.56163,-19.622922,-40.279145,-55.863961,-67.558069,-42.632423,-78.053077,-97.294289,-112.562294,-37.133981,-77.079952,-100.019551,-117.141921,-31.314529,-68.574975,-90.54994,-106.096223,-25.240481,-56.834122,-74.821894,-88.199842,-17.572918,-33.551102,-50.161457,-70.818844,-23.743858,-13.011074,-7.111988,-1.564693,-4.735737,7.277527,13.004665,17.082481,13.604794,22.4473,25.793381,28.04266,30.372448,33.494625,34.365749,34.747353,-20.089076,-42.218294,-54.79043,-61.871288,-30.760752,-59.020828,-76.696173,-92.254282,-21.95576,-57.946494,-79.263755,-94.537472,-16.048315,-50.92575,-72.864961,-88.036358,-12.613479,-41.636172,-57.408463,-69.72943,94.218893,139.379757,-111.48036,125.709019
67,0.287933,0.063541,0.154438,0.47449,20.014458,34.908142,48.362045,62.098732,20.271721,13.514442,7.892418,2.646446,2.136497,-3.346939,-7.380981,-10.980492,-15.038338,-19.489517,-21.731758,-23.562355,-30.136757,-33.678474,-33.943291,-33.609009,-19.271933,-40.416509,-56.452474,-68.463732,-42.434235,-77.874216,-97.240751,-112.549543,-36.964198,-77.117434,-100.071297,-117.262272,-31.188836,-68.631168,-90.580012,-106.169398,-25.246594,-56.788921,-74.806178,-88.23081,-17.453442,-33.863525,-50.943375,-71.01305,-23.53117,-13.370018,-7.154732,-1.320305,-5.032482,6.225643,12.741966,17.466373,12.719994,20.703278,24.811306,27.295074,29.241714,32.325439,34.318314,35.349197,-19.153311,-41.21241,-54.357591,-61.394853,-31.230178,-59.636881,-77.377589,-93.678432,-22.41648,-58.605093,-80.026651,-96.220079,-15.98641,-50.757388,-72.516627,-88.083042,-11.955497,-40.226997,-55.877608,-69.134465,94.51458,139.421207,-111.318169,126.161418
68,0.967026,1.071184,0.595722,0.335613,19.390411,33.990669,47.8965,61.609612,19.776535,12.297363,6.800652,1.682854,1.977196,-4.495583,-8.45993,-12.199974,-15.055618,-20.191383,-22.437515,-24.561539,-30.153465,-33.922577,-34.296455,-34.431152,-19.529741,-41.146677,-57.320931,-69.344725,-43.394114,-78.58623,-97.795671,-112.959596,-37.883723,-77.791409,-100.516549,-117.66189,-32.089219,-69.415244,-91.335467,-106.846429,-26.115206,-57.623755,-75.594237,-89.178154,-17.664242,-34.120045,-51.261234,-71.115646,-23.499699,-13.228912,-7.037315,-1.205807,-5.175476,6.066799,12.685318,17.637863,12.22887,20.39463,24.664536,27.19614,28.485889,31.571331,33.630524,34.62553,-19.208948,-41.189686,-54.494986,-61.588225,-31.204675,-59.364469,-77.228215,-93.74083,-22.18822,-58.452508,-79.944121,-96.215046,-15.551563,-50.389849,-72.228129,-87.991929,-11.307643,-39.42066,-54.978924,-68.225344,95.481806,140.467136,-110.722246,126.471775
69,0.641441,0.422188,0.291538,0.520803,19.190941,33.816833,47.853012,61.836662,18.655586,11.857452,6.395531,1.0849,0.773392,-4.712219,-8.334045,-11.78627,-16.153221,-20.310287,-22.244797,-24.015999,-30.951233,-34.40918,-34.772301,-34.785805,-19.717308,-41.594491,-57.701314,-69.416046,-43.587424,-78.838511,-98.187786,-113.416241,-38.164873,-77.609369,-100.472891,-117.767298,-32.381916,-69.152681,-91.531864,-107.331262,-26.327226,-57.468608,-75.636289,-89.230333,-17.710133,-34.103966,-51.302834,-71.251659,-23.68206,-12.909508,-6.798706,-0.931492,-5.212383,6.77702,13.265877,18.118172,11.994839,20.765247,24.978046,27.425079,27.918892,31.194992,33.305111,34.308357,-18.867375,-41.015365,-54.596689,-61.659762,-31.81372,-60.318235,-78.69562,-95.624928,-22.757466,-59.441163,-81.088264,-97.446751,-15.899126,-51.098342,-72.899541,-88.678099,-11.352721,-39.534991,-55.443194,-69.137058,96.141272,140.843535,-110.412683,126.94679
70,0.644875,0.110163,0.425949,0.27871,19.304924,33.75206,47.687645,61.710663,19.438705,11.857109,6.34861,1.278191,1.441498,-4.545708,-8.098412,-11.3451,-15.704956,-20.475426,-22.604141,-24.434509,-30.712624,-34.531174,-34.836617,-34.90448,-20.083426,-41.636913,-57.675811,-69.319623,-43.216396,-79.02509,-98.294954,-113.127681,-37.406516,-77.499947,-100.588828,-117.473119,-31.650112,-68.942915,-91.345779,-106.803883,-25.952463,-57.432453,-75.419915,-88.639197,-17.391586,-33.812084,-51.2146,-71.168461,-23.772354,-13.066235,-6.667213,-0.440712,-5.55748,6.601868,13.610287,18.83646,11.472416,20.558796,25.122185,27.643089,27.267265,30.588799,32.821598,33.915539,-19.389259,-41.269128,-54.653283,-61.966755,-32.410568,-61.05362,-79.535364,-96.675797,-23.133433,-59.594118,-81.154491,-97.583775,-15.94127,-50.56979,-72.319798,-88.378857,-11.038967,-38.687467,-54.593076,-68.417697,96.814985,140.925123,-109.957895,127.196926
71,0.55069,0.052611,-0.260124,-0.7038,19.142303,33.774147,47.663383,61.594391,19.755249,12.387085,6.983757,1.887245,2.067833,-4.06311,-7.916222,-11.412392,-14.876404,-19.616318,-21.952629,-24.153099,-30.00412,-33.801384,-34.259491,-34.534378,-19.366133,-40.72946,-57.042128,-69.044031,-43.385901,-79.227384,-98.479032,-113.683033,-37.713138,-77.81438,-100.824776,-117.952951,-31.826286,-69.109517,-91.27983,-107.039337,-25.726241,-56.957376,-74.818528,-88.470062,-17.091293,-33.248119,-50.220337,-69.71529,-22.180939,-12.166157,-6.246185,-0.432186,-4.032955,7.377777,14.023819,19.026375,12.671356,21.445255,25.956573,28.468323,28.079224,31.556911,33.735638,34.64653,-18.851783,-40.772439,-54.115437,-61.44697,-31.785778,-59.586091,-77.752815,-94.84712,-22.627975,-58.637358,-80.174882,-96.893621,-15.409105,-49.666721,-71.113195,-87.284207,-10.426897,-37.94816,-53.674909,-67.43957,97.268801,140.837484,-110.314894,126.352875
72,1.215248,0.160304,-0.408096,0.879604,19.251366,33.733177,47.220726,60.599442,19.58622,11.630516,5.753746,0.240898,1.535568,-5.429192,-9.498253,-13.05645,-15.506744,-20.92186,-23.182983,-25.085907,-30.596466,-34.616203,-35.15831,-35.375977,-19.228337,-40.846446,-57.286289,-69.613277,-43.126549,-78.303073,-97.726511,-113.139691,-37.338529,-77.212437,-100.009423,-117.181441,-31.360472,-68.409175,-90.487819,-106.076278,-25.320201,-56.87179,-74.956787,-88.656178,-16.889477,-32.685814,-49.516468,-68.854465,-21.33625,-10.928707,-4.918156,1.058865,-3.087273,8.73745,15.448608,20.674782,13.857937,22.836742,26.890297,29.367886,29.357357,33.070564,34.770241,35.552216,-19.744324,-41.815496,-54.883674,-62.676174,-32.587545,-60.672806,-78.859197,-95.73296,-23.148531,-59.212408,-80.587375,-96.3182,-16.080795,-50.668004,-72.442959,-88.036852,-11.151075,-39.640183,-55.642586,-68.948874,98.353186,140.823636,-110.853853,127.058327
73,0.581245,0.751997,0.56654,-1.23155,18.766365,32.658348,46.075172,59.127159,18.804817,11.208916,5.584373,0.280724,1.036835,-5.163918,-8.874092,-12.340622,-15.885658,-20.671463,-22.854309,-24.835052,-30.7687,-34.978638,-35.670891,-35.848846,-19.874988,-41.941744,-58.987421,-70.997505,-43.611784,-79.514863,-99.130221,-114.400758,-38.149775,-78.022448,-101.339342,-118.74385,-32.210157,-69.47156,-92.298094,-108.327451,-26.009706,-57.388054,-75.753985,-89.541154,-17.091351,-32.914753,-49.45713,-68.44265,-20.278301,-9.810562,-3.904266,2.269993,-1.905098,9.360409,15.817051,20.943718,15.184994,23.602352,27.531109,30.114613,30.633144,34.271622,35.880947,36.491432,-19.986324,-41.777056,-54.423818,-62.469928,-32.187742,-60.030231,-78.389122,-94.987818,-22.935801,-58.344445,-79.744266,-95.336585,-16.196052,-49.937836,-72.046552,-87.712354,-11.728657,-40.051533,-56.167218,-69.229159,98.921785,141.500915,-110.299959,125.752059
74,0.338058,0.186795,-0.098991,1.217564,18.846474,32.207565,44.188843,55.979576,18.57914,10.388489,4.165077,-1.345139,0.736198,-6.2146,-10.333786,-13.77903,-16.159515,-21.865997,-24.575615,-26.665306,-31.06041,-35.909271,-36.907082,-37.187233,-19.5244,-43.010428,-61.629072,-74.443394,-44.284215,-80.660333,-100.533468,-116.01899,-38.393442,-78.546678,-102.174516,-120.084421,-32.122163,-69.642547,-93.127772,-109.812394,-25.614966,-57.143461,-75.729717,-89.758176,-16.864185,-31.808453,-47.644272,-65.774174,-19.123878,-8.131828,-1.894512,4.131031,-0.907516,11.310253,18.041725,22.720985,16.376896,25.980892,30.345669,32.970829,32.017765,36.921101,38.617229,38.788719,-21.383952,-43.754242,-57.029099,-65.829552,-33.675834,-61.897995,-80.182231,-96.251201,-24.296379,-60.463595,-82.008561,-97.391083,-17.5365,-52.404796,-75.049969,-90.776131,-12.847173,-42.37727,-58.760735,-71.698465,99.02976,141.633061,-110.629034,126.914973
75,0.685043,0.131343,0.169144,0.976336,19.223557,31.591415,40.518379,49.037361,18.468361,8.66169,0.864601,-6.091461,0.518761,-8.279686,-14.411774,-19.271965,-16.420212,-23.371696,-27.57637,-30.371361,-31.641884,-37.443123,-39.706078,-40.777473,-20.505243,-45.408104,-66.288326,-81.972406,-45.316929,-81.582699,-101.451728,-116.735078,-38.633898,-78.73758,-102.253063,-119.854956,-31.990542,-69.694139,-93.241208,-109.878652,-25.351354,-57.02209,-75.878875,-90.431132,-16.478691,-30.516186,-45.604935,-63.330059,-18.161259,-6.433868,0.896645,8.016129,-0.12022,12.522869,20.196018,25.890942,17.248077,27.303429,32.109318,35.177135,33.199139,39.003639,41.05957,41.528721,-22.921876,-46.294654,-60.621923,-69.813102,-36.452287,-64.520628,-82.244571,-97.562069,-26.305429,-62.084945,-83.494554,-98.371154,-18.862682,-53.427228,-76.000925,-91.494227,-13.471933,-43.146989,-59.748865,-73.263869,99.394484,141.64626,-110.78021,127.773165
76,2.320175,-0.511479,0.68121,1.015794,18.235016,27.041016,32.104111,37.399864,15.527916,1.560631,-8.157463,-16.063385,-2.084084,-15.729332,-24.967461,-31.861496,-18.778038,-30.57209,-37.309685,-41.716919,-33.794174,-42.767258,-47.508316,-51.075096,-22.256547,-48.040987,-70.638025,-88.760413,-47.689627,-82.881619,-101.725622,-116.07049,-39.500473,-78.993566,-101.71673,-118.488111,-31.406043,-68.810614,-91.036193,-106.87644,-23.535984,-54.863327,-72.76156,-87.577954,-15.537243,-27.993393,-41.162739,-57.084904,-15.26865,-2.611427,5.185547,12.418842,2.080021,16.161175,24.307022,29.949417,18.748398,30.216579,36.213856,39.8386,34.022942,41.25103,44.021473,44.873772,-23.640528,-48.386295,-65.110283,-76.817111,-39.774243,-67.314433,-84.763062,-99.752048,-29.212237,-64.139628,-84.570678,-98.955931,-20.901094,-55.021346,-76.731155,-91.921663,-14.555159,-44.190663,-59.946374,-73.147253,101.794596,140.459108,-110.019064,128.113286
77,1.687202,0.103185,-1.683998,0.452569,16.341705,20.762444,20.474968,21.986504,8.798103,-8.722343,-20.382156,-29.996109,-7.31884,-25.581894,-37.964058,-48.016777,-22.554588,-39.164429,-48.371429,-55.14576,-36.329041,-49.133263,-56.322784,-62.407265,-25.579769,-51.787878,-74.587304,-93.31185,-49.072898,-82.499785,-100.845864,-114.869413,-39.077513,-76.757738,-98.787167,-115.470337,-29.687622,-66.056021,-87.816125,-103.533303,-20.559923,-51.103406,-68.904568,-83.552105,-13.735886,-23.284378,-32.644043,-44.410114,-9.948177,4.937439,14.167728,23.163757,6.532631,22.98357,32.914238,40.427055,21.953888,36.15984,43.732109,48.559399,36.205444,46.162949,50.499687,52.670002,-25.092959,-50.532863,-69.43204,-84.288787,-39.891507,-67.159192,-84.94998,-100.183436,-27.983681,-62.027795,-83.714169,-99.657261,-18.215507,-51.618404,-74.147919,-90.216704,-10.697456,-40.201556,-57.441221,-71.783681,103.328905,140.238165,-111.855955,128.241727
78,-0.050011,-1.4252,-0.996666,2.937961,14.189758,14.342308,9.704018,7.971611,2.208252,-21.233482,-35.33535,-46.158142,-12.287636,-36.236801,-51.217346,-62.491379,-26.074791,-48.090363,-60.312309,-68.557549,-38.491402,-56.024208,-66.264725,-74.940948,-25.378833,-52.32168,-75.788905,-95.191811,-50.091378,-81.789347,-99.053681,-112.248973,-38.218133,-74.175027,-94.91696,-110.295467,-26.859361,-61.873388,-82.777107,-98.082162,-15.98289,-45.35083,-62.127553,-76.36763,-10.971565,-16.97216,-22.982826,-31.406078,-6.178093,11.42189,23.101101,34.257717,8.428402,28.404636,40.673733,49.805145,22.774143,40.861588,51.247044,58.031216,36.424541,50.255642,56.5975,59.965324,-27.758045,-54.899204,-75.304195,-91.899063,-44.45514,-70.592731,-87.145516,-100.31799,-30.283267,-62.947258,-83.410666,-98.276213,-18.033714,-50.451352,-72.120066,-87.689043,-8.36749,-37.255104,-54.463863,-68.880207,102.55311,138.609853,-113.578405,130.976576
79,-0.262871,-0.429598,-0.814762,3.692922,11.255493,9.040375,1.217651,-3.224831,-8.449631,-35.331802,-51.77124,-64.253082,-21.870117,-50.710487,-68.451118,-81.375275,-33.597336,-59.850998,-74.707947,-84.608803,-43.326416,-65.105324,-77.519073,-87.40448,-27.55467,-53.005658,-75.159174,-94.017596,-49.650141,-77.698629,-92.606475,-103.029544,-36.348392,-68.849054,-86.719315,-99.215221,-23.759552,-55.581361,-73.525073,-86.310681,-11.741779,-37.515104,-51.647057,-63.822879,-9.119511,-11.698151,-11.606541,-13.501339,-3.062096,19.653053,34.411526,47.890606,10.011635,35.505581,51.012325,62.21632,23.62009,46.427021,59.491253,67.825928,36.742115,54.412937,63.083553,67.854538,-26.569936,-54.104569,-76.235175,-94.198185,-45.995968,-72.864591,-88.493188,-100.834841,-31.377793,-63.015246,-82.721994,-97.23788,-17.70372,-49.095437,-70.095085,-85.490759,-6.134101,-34.24999,-51.307275,-66.456071,101.366215,137.770341,-115.317192,134.259583
80,-3.539085,1.00752,0.86729,3.089064,10.508766,5.483322,-6.929626,-13.679237,-13.822403,-43.668251,-62.462769,-76.826248,-26.798058,-59.158173,-79.207191,-93.449249,-37.432823,-67.620277,-84.957275,-96.219521,-45.666847,-69.95121,-83.950768,-94.765663,-28.23482,-53.268993,-73.181648,-90.998031,-49.064346,-72.323009,-84.878164,-94.068077,-35.50482,-61.309174,-75.803077,-86.159331,-22.399221,-47.130724,-61.822907,-72.72979,-9.956389,-29.428919,-40.281708,-50.245322,-6.443939,-5.331345,-1.99625,-1.358185,1.685314,26.401119,43.903828,59.3783,13.590775,41.993866,60.114326,73.60405,25.555973,50.962772,66.677113,77.085857,36.713505,57.560177,69.039516,76.675529,-27.386493,-55.122709,-77.506678,-95.486422,-43.498812,-66.876375,-81.874995,-94.170181,-27.898867,-56.051559,-75.292154,-90.623978,-13.636405,-41.587328,-61.666895,-77.529186,-1.790947,-27.412613,-43.223467,-57.550643,97.765188,137.955314,-114.511843,136.526101
81,-3.248634,4.056508,-0.271111,4.487896,7.97081,-1.174278,-17.265015,-25.666008,-21.88179,-53.262863,-72.59388,-87.453804,-33.339958,-67.061005,-87.677078,-102.426453,-41.71051,-72.849426,-90.697861,-102.312241,-47.575836,-72.385139,-86.396484,-97.177277,-29.950864,-54.499895,-72.232791,-88.243284,-48.410254,-65.171663,-75.405528,-83.51737,-32.968082,-51.95763,-63.774251,-72.808552,-18.117262,-37.629404,-50.132689,-59.960484,-4.316971,-20.373746,-29.994336,-39.564477,-3.539486,1.226692,7.710171,11.12114,9.740753,36.944447,55.452576,72.198315,18.834,50.285397,70.144901,85.300598,28.185997,56.690483,74.567299,87.04668,36.652508,59.894943,72.563152,81.300201,-27.450621,-55.062811,-76.650879,-95.221111,-42.991162,-62.763674,-75.814192,-86.489943,-25.806454,-50.003044,-67.226037,-80.740794,-9.948671,-33.891899,-52.035158,-66.426338,3.58844,-18.323014,-32.682918,-46.016901,94.700918,139.640282,-114.598589,138.642457
82,-1.744652,5.001351,0.134182,6.53412,4.472237,-8.647156,-27.418442,-38.709984,-32.326012,-62.921562,-81.885223,-97.278328,-41.278267,-73.309708,-93.288918,-109.036674,-45.706673,-75.97435,-94.571915,-107.903767,-46.913681,-71.722298,-85.75573,-97.11319,-29.053476,-52.644696,-67.55563,-82.328366,-43.849863,-54.730378,-63.228562,-70.89926,-28.112122,-40.76651,-49.972046,-58.018835,-12.331496,-24.990731,-34.246717,-42.854724,2.801863,-7.796916,-14.867029,-22.798777,-1.396351,7.624283,18.563747,26.662846,16.778812,46.690407,65.237103,81.515694,23.634338,57.123013,77.604332,92.818222,30.934124,62.187138,81.408749,94.487629,37.196445,63.47002,77.500191,86.875992,-27.551027,-53.542763,-73.509018,-90.342767,-40.407988,-57.478241,-68.699958,-77.190145,-22.132058,-43.379881,-57.882428,-68.874063,-5.847147,-27.268457,-42.87927,-54.79889,7.802967,-12.020891,-24.206903,-35.59479,93.026562,142.790186,-114.394112,143.32513
83,-4.86866,10.735556,2.665844,8.243618,0.586166,-15.991859,-35.553589,-48.754349,-41.374054,-68.665123,-84.097939,-94.227791,-49.092751,-77.908287,-91.596222,-100.328178,-52.097397,-79.442825,-91.832542,-98.35001,-51.184044,-74.019356,-84.28791,-91.087761,-30.841058,-52.366727,-65.202013,-78.123101,-41.691007,-48.900429,-55.534893,-61.626417,-26.028725,-34.490693,-42.157006,-47.776633,-10.626258,-19.822253,-26.80326,-32.203704,3.448637,-3.847915,-9.572796,-15.401541,1.021385,12.485847,25.954056,36.293335,21.657257,53.886337,73.126488,90.423832,26.852188,63.352375,86.084347,103.824234,32.667904,65.949669,86.672974,101.396942,37.045326,64.471092,79.537582,90.630512,-28.176898,-52.492821,-70.409178,-86.269154,-36.968119,-49.52911,-58.446611,-65.565846,-19.064946,-34.089716,-45.775766,-55.27795,-3.419244,-18.642017,-31.180438,-41.692211,8.87409,-4.105538,-13.459923,-23.426563,87.752409,151.659351,-112.13376,149.702357
84,10.269585,18.10837,0.337257,8.251584,-16.007423,-41.745071,-59.527245,-71.90815,-89.501152,-135.97126,-157.085781,-169.161358,-88.646164,-137.590485,-159.317093,-169.108887,-83.278542,-124.851379,-144.352226,-152.655201,-73.25386,-105.641098,-121.461868,-129.744301,-34.528113,-56.331752,-66.525818,-75.357764,-52.15588,-52.562476,-59.700514,-69.880101,-36.460346,-33.344914,-39.617706,-46.345228,-19.855042,-18.234773,-23.199815,-28.137007,-2.176085,-2.943766,-10.673867,-18.068232,4.52282,18.790798,34.3717,46.38485,29.456806,62.075214,81.994286,99.55101,33.116798,69.046154,92.982903,111.601295,36.692104,69.257355,90.661812,105.735283,38.485279,64.191227,79.182415,90.643902,-28.128671,-50.533975,-66.032834,-80.485857,-32.73871,-41.712434,-48.924419,-54.714724,-15.240125,-26.403241,-35.330807,-42.258462,0.24447,-12.072267,-22.237064,-30.522179,12.813087,2.785685,-5.004006,-13.067684,97.333975,168.253015,-112.484522,156.439235
85,-2.929001,6.360354,13.981819,18.258918,-22.955589,-53.005028,-74.352264,-89.723511,-92.866745,-138.914165,-156.133347,-158.33416,-89.88945,-138.604031,-151.939716,-148.334312,-81.7313,-122.889061,-137.634029,-138.795834,-69.41288,-99.741669,-113.681946,-117.789631,-32.83362,-53.773432,-58.199362,-54.599591,-45.649548,-40.082131,-51.4221,-66.410993,-26.581885,-16.989638,-27.103614,-39.055407,-8.335071,-2.982607,-9.556741,-17.481171,10.058648,11.177504,3.628269,-5.45145,3.141117,18.647232,35.362644,47.692852,41.604996,83.426914,100.676537,109.909515,50.968094,97.505722,113.837471,118.760376,56.592693,99.63192,113.852234,118.55175,57.802849,90.872841,101.577644,105.080795,-33.166393,-53.119866,-64.902524,-75.423404,-37.189494,-44.918608,-48.862051,-50.840658,-16.481617,-29.417032,-39.478644,-44.234846,0.334255,-13.415215,-22.967448,-27.552416,15.196962,0.992391,-8.275728,-13.508335,93.719988,174.205369,-99.187689,174.290152
86,-5.734634,15.089886,-3.64769,8.526065,-22.18792,-52.100143,-74.361191,-89.608383,-93.426819,-140.134735,-146.633492,-134.54361,-88.787384,-134.579201,-133.553925,-117.694988,-79.152145,-118.200645,-118.283844,-107.845345,-65.41523,-92.390099,-98.374443,-97.300186,-30.443694,-48.692855,-51.416789,-45.4475,-39.879219,-33.96742,-48.058802,-62.601147,-20.371831,-8.770288,-18.945644,-28.961746,-3.164091,5.679926,-3.626972,-11.979271,12.718918,14.822939,5.664921,-3.528974,8.741512,28.731194,48.634243,62.362518,40.68924,80.301247,100.194626,115.259171,44.861698,87.626266,108.697586,122.461624,47.768154,86.515045,106.883354,120.386124,48.578911,78.627548,92.475815,101.816368,-29.159965,-46.496146,-58.609663,-68.63194,-22.63202,-30.36169,-35.321668,-38.167497,-2.961488,-15.287179,-22.837217,-26.141728,12.730712,0.849871,-8.176866,-13.24534,24.84534,14.594586,7.197134,1.072605,87.35467,188.68936,-103.466063,182.210321
87,-1.053886,17.838274,-3.815575,12.145256,-22.537193,-50.444756,-73.521652,-88.570061,-95.245285,-140.881805,-141.07933,-124.507027,-92.75219,-133.700409,-124.972687,-105.080166,-85.703888,-122.435589,-113.156319,-95.428391,-74.823761,-103.244133,-103.228455,-95.292664,-31.565514,-49.410827,-49.58978,-39.000881,-35.792947,-34.957402,-49.304493,-60.607412,-15.415743,-10.248716,-20.911962,-28.297806,2.954695,7.771722,-2.68923,-9.555629,19.609399,20.639828,11.74394,4.611274,16.983833,39.297466,59.25642,74.558487,50.73698,84.241161,104.052086,121.815834,47.492123,84.067268,106.348801,125.817947,43.687305,76.189098,99.000893,117.987328,38.823051,63.255272,78.621769,91.801701,-26.991908,-41.265886,-50.518877,-58.746007,-17.128206,-18.332524,-19.174367,-18.952622,-1.500226,0.185251,0.512652,0.809363,11.456369,15.067286,16.531882,16.537995,21.802835,27.120102,28.005726,25.752268,85.658112,205.823818,-107.924309,193.651762
88,-0.590515,15.373691,1.937485,13.904834,-35.879402,-72.011032,-99.690742,-116.273689,-83.497124,-139.768982,-138.209267,-120.958214,-78.41011,-131.039772,-124.855614,-106.419983,-73.837738,-122.241726,-119.156284,-103.517876,-68.774757,-105.923538,-110.778008,-105.538273,-32.119786,-47.861942,-45.455281,-34.716514,-32.252981,-31.442198,-42.914684,-50.275333,-8.063925,-7.552261,-15.914007,-21.282341,14.261628,13.389218,4.476967,-1.190486,33.205975,31.64369,22.727918,15.776736,20.253525,43.08197,62.223759,79.574547,54.09565,82.983055,104.189415,123.25058,49.951401,82.776718,106.846962,127.405472,44.624805,73.220901,96.284409,115.351524,37.752743,57.717361,73.558502,87.561378,-25.995318,-38.010157,-45.682029,-53.8337,-12.091842,-8.743426,-7.255612,-6.307064,2.582649,7.836683,9.72075,10.605942,14.213772,18.748784,20.087533,19.756797,22.15611,26.835618,27.573041,26.121104,84.659472,220.607716,-106.394949,206.966803
89,-0.407753,13.865005,2.807236,12.424183,-39.411392,-72.492142,-97.930069,-111.109314,-82.551155,-134.785023,-130.165443,-113.033524,-79.515839,-129.649658,-125.984745,-108.841724,-76.105042,-123.208237,-124.264755,-111.453609,-71.382179,-108.865128,-118.120251,-116.348763,-28.757229,-38.457539,-30.313895,-15.556226,-23.169866,-22.658511,-31.782814,-37.934822,-0.115659,0.004817,-8.381198,-15.365726,21.262952,22.023223,14.398591,7.720901,38.917765,41.174125,35.888722,30.752878,23.610077,47.411556,66.827087,85.800304,56.201649,80.53196,98.063965,113.053093,52.574158,80.090446,99.551353,114.88163,47.706184,71.022835,87.180347,99.605598,41.739807,57.543869,67.076511,75.057621,-23.800461,-32.805771,-39.183353,-45.776877,-5.91359,-3.49884,-1.245568,0.73026,6.016466,11.44019,14.568466,17.652652,14.33437,19.057783,21.01101,22.38965,18.656034,21.443139,22.44436,22.426638,84.049072,234.133372,-103.790359,219.051636
90,-1.305084,10.526654,13.304272,25.777586,-43.664246,-81.243553,-107.681637,-121.664772,-81.524048,-127.785244,-116.747475,-99.729652,-74.359818,-121.058979,-110.629807,-92.711334,-68.316879,-115.264835,-110.02739,-94.860535,-62.52079,-98.696938,-106.186352,-106.019268,-19.557096,-18.897664,-4.445103,10.798665,-11.607287,-7.473344,-11.245923,-14.316463,7.920911,8.77072,5.683508,2.626986,26.484196,28.007887,23.314115,18.577241,41.574762,46.763834,44.603866,41.492016,20.557537,46.560402,68.072147,86.986256,59.717045,105.197124,118.947773,122.275257,58.486004,107.731876,119.581203,117.799587,56.10981,101.292286,111.880474,111.04929,51.47541,86.597729,97.024784,97.943401,-33.496511,-42.881277,-45.514623,-48.794188,-10.379009,1.717711,-1.967183,-5.37173,16.671314,26.584602,15.483669,7.453275,36.205687,45.142268,35.029218,27.387604,49.300417,56.15848,47.954444,41.49251,83.110571,243.908601,-90.119505,244.077797
91,-0.28553,7.91455,-9.172268,1.524432,-46.228294,-83.934746,-112.00098,-128.9538,-71.905289,-120.025692,-119.476662,-109.244328,-62.584419,-113.82803,-118.61475,-111.492691,-55.259628,-104.346027,-117.839699,-117.621059,-50.031052,-86.269798,-105.141964,-116.486492,-14.081687,-6.412533,12.436533,29.922953,1.831023,7.707748,-1.033331,-5.722164,18.695431,22.49444,14.10435,7.277533,33.693124,40.176732,34.640376,27.255767,44.512414,54.28911,55.96446,55.223208,26.386757,56.529922,81.769581,101.011162,62.444,101.438484,120.86174,133.937988,56.654549,99.571495,121.428108,134.891853,50.313606,88.601532,109.591942,122.17495,43.753109,71.765728,87.416153,97.016373,-21.995497,-28.527764,-28.92025,-32.452929,0.713588,12.431902,18.169873,22.861114,22.053851,33.117734,37.941059,41.760322,38.904489,50.551851,54.019137,54.408473,50.264341,61.97117,65.335764,65.087034,83.371954,251.539423,-98.74486,245.318502
92,-3.759041,14.431071,2.754993,6.320587,-38.542328,-69.103546,-91.567211,-105.489349,-67.480202,-99.873905,-109.489517,-112.391739,-63.580971,-98.236313,-112.911129,-116.612091,-60.334396,-95.202427,-113.230076,-120.291023,-56.421204,-82.830276,-100.218487,-112.233696,-17.196316,-22.664068,-24.661077,-24.907523,10.928464,14.949651,3.208737,-7.595548,27.472017,31.765276,17.665805,3.82655,38.852927,46.999412,37.163868,24.294403,44.358655,58.212484,58.866359,54.62602,31.227436,59.061985,84.077168,104.182949,66.663265,98.469143,116.577702,129.895992,59.478207,95.944691,117.094173,132.346516,51.808605,84.642048,104.613132,119.310322,43.718777,69.258671,83.774128,95.611439,-16.529412,-20.553316,-20.368867,-25.788392,10.412787,23.062297,30.677913,37.010418,29.01516,41.892962,47.738997,52.378861,42.634893,56.4894,60.561346,62.661972,51.052215,63.851779,67.566066,69.098094,79.666014,265.86328,-95.936766,251.531874
93,-2.611885,2.515959,4.173717,8.629373,-37.416458,-66.903305,-85.862961,-99.562225,-71.994209,-90.821285,-99.887352,-105.793304,-62.515182,-83.163872,-95.610981,-103.412876,-52.994041,-74.587555,-88.087807,-96.394444,-42.741051,-60.298805,-72.896919,-84.68708,-10.276318,-14.317512,-16.729236,-16.072027,21.640555,37.296323,36.223718,29.937155,30.275918,45.331163,41.393154,33.098838,35.112581,49.600771,46.370422,37.731478,35.263684,49.352967,52.547254,50.678934,32.074642,60.518818,85.335846,105.194321,68.138123,99.325333,117.466278,130.475121,58.764153,94.010582,114.323387,128.579063,49.461422,81.328926,100.630417,115.246353,40.430832,65.635071,80.439606,92.617149,-14.810219,-17.167603,-16.061714,-20.503854,15.057406,29.157865,37.724191,44.441463,33.057774,48.52829,55.527452,61.005146,45.882903,61.690885,66.448075,69.467546,53.459493,66.684517,70.835318,72.900375,76.995764,268.358954,-91.821413,260.140962
94,-4.549255,4.971773,4.63623,8.182547,-29.357986,-55.398331,-72.767029,-86.628342,-73.055534,-84.615498,-68.028603,-49.800682,-69.919052,-81.403313,-60.888748,-39.059029,-63.874512,-72.013664,-54.109383,-34.675484,-57.283859,-63.051453,-51.643295,-39.030876,4.404039,4.964239,5.791386,9.066936,17.033048,33.202517,42.71276,49.102384,20.643842,36.682276,48.976722,56.48162,23.190738,36.134674,47.519042,54.022533,24.719184,37.258161,43.985992,48.458821,31.93285,60.520821,84.913445,104.368401,68.883877,98.726692,115.638771,128.250046,59.520721,93.346367,112.872276,127.614899,49.640865,79.437561,97.503319,111.71093,39.658699,62.574348,76.539116,88.451157,-13.357046,-15.511518,-13.895386,-17.116535,15.791803,30.091532,38.210229,44.416454,32.611998,48.964866,57.091467,63.137573,45.199881,61.88052,68.895305,72.758102,53.846298,67.831593,73.133051,75.642711,72.350922,273.391304,-87.280769,268.384087
95,-4.571571,8.251337,4.408836,7.744119,-22.92572,-48.14415,-66.371384,-78.234329,-72.024536,-75.234489,-57.897949,-42.049599,-71.441345,-73.185768,-51.12133,-29.473915,-68.41404,-69.212723,-47.199097,-26.876907,-63.519402,-64.806976,-50.082893,-35.642738,17.055402,23.460772,26.669632,35.623442,25.985314,43.926032,53.177294,56.541765,23.337395,40.578233,51.984029,58.478813,20.206773,35.197797,45.609966,51.74808,16.529906,31.513026,39.314635,44.280232,32.512894,60.644989,84.986687,105.598183,67.486954,97.789764,114.802322,127.215385,58.021889,92.324066,112.081718,126.494751,48.136425,78.455772,96.7836,110.847359,38.353901,61.736584,75.873184,87.853775,-12.704592,-14.687521,-12.248441,-14.279042,16.292414,31.766141,40.250709,46.733947,33.291623,49.817207,57.970608,63.765513,45.907294,62.466285,69.319036,73.069942,54.411499,68.614032,72.830103,74.244188,67.678099,281.650931,-82.973185,276.136496
96,-6.84391,6.272236,4.353447,6.553571,-17.734222,-38.961411,-54.8909,-66.632309,-66.584244,-64.852982,-49.29451,-34.394073,-66.867599,-63.015862,-40.653648,-19.28524,-64.461365,-58.803864,-36.33522,-17.103882,-59.458694,-55.814323,-39.596672,-25.393982,13.354082,18.947743,20.966179,26.012361,30.53527,47.007439,55.950072,59.792862,27.745078,43.051152,54.044269,60.680833,23.063594,36.081939,45.996029,52.481799,17.491236,29.762711,36.267128,40.783801,31.366196,58.717403,82.600021,102.709465,66.209793,96.424942,112.761154,124.302177,56.901798,90.228882,109.052124,122.555122,46.68932,76.905556,94.768639,108.048477,36.571198,59.697247,74.012604,85.978889,-12.406461,-14.185181,-10.660529,-11.102909,17.00489,32.946562,41.608416,48.033237,33.810944,50.20043,58.495486,64.032522,46.240746,62.553476,69.510401,72.787557,54.783113,68.410009,72.648063,73.374248,60.54677,287.957423,-78.907156,282.724323
97,-3.506241,4.124248,1.262798,4.278871,-15.118561,-34.358597,-48.964119,-61.324654,-58.383408,-58.116989,-42.60704,-27.239456,-57.64595,-56.381721,-35.362244,-14.842758,-53.773155,-49.856758,-29.269638,-11.456108,-47.3592,-44.004478,-30.485458,-18.663025,8.065715,13.968684,18.318321,24.571045,25.538118,43.150632,51.404563,54.501716,25.429869,41.925195,53.173156,59.640277,24.190724,37.115703,47.101362,53.066328,21.784002,33.441862,39.828398,44.290236,31.100521,58.366013,81.765118,101.303959,63.774605,94.436588,110.983486,122.72192,54.404125,88.43462,107.870693,121.68211,44.143867,75.497646,94.040852,107.388096,34.051323,57.386055,72.031689,83.72057,-13.305855,-13.3815,-8.537427,-9.932863,16.546517,33.552766,41.555743,47.263704,33.80267,50.922848,57.773562,61.713176,46.314785,63.801081,69.471869,71.716064,54.396617,69.197018,72.504617,72.26626,56.978188,292.103362,-77.706699,287.024884
98,-54.551811,9.079657,1.31052,4.835181,5.459976,4.893608,-3.686256,-15.486431,-20.228291,4.890289,23.285065,30.316315,-31.940289,-0.409012,19.039078,32.456017,-40.703716,-13.76358,8.408089,20.453682,-45.567284,-54.131927,-59.187012,-63.787594,-19.292681,-26.20706,-24.176089,-22.343646,7.510826,26.50587,28.723081,30.593501,24.176768,40.225947,41.55988,39.941463,34.41264,49.138817,47.259875,45.578967,43.322422,54.25348,60.715599,66.701684,28.40229,54.735603,78.313751,97.657356,60.72258,93.32119,109.405861,119.985809,51.435356,88.31955,107.040596,118.92952,41.73666,75.963821,94.10305,106.045418,32.934895,59.106617,74.491653,85.999489,-15.461192,-16.962776,-12.659328,-13.677408,15.814219,32.035434,39.382252,44.487776,34.250854,48.660992,53.877173,56.272903,46.899808,61.699715,65.195529,65.530463,54.335052,67.275839,69.155892,68.07773,2.324667,301.129574,-76.497889,291.80662
99,-11.036224,15.198691,-0.198154,-0.444479,-0.560417,3.792343,8.648529,8.602066,-12.489853,15.192719,36.477585,50.154762,-21.826801,9.0168,28.278809,40.702972,-27.221947,-4.499016,12.866135,23.851318,-28.101768,-35.100803,-35.649204,-34.722576,-21.888545,-29.872009,-28.970515,-25.629076,-7.583074,4.539026,11.545598,16.780674,10.286878,17.759789,24.064506,27.883954,23.811268,30.507729,32.874561,35.267204,36.131648,42.19029,45.81368,48.258873,27.48436,53.915863,77.515583,96.091976,59.787197,91.959858,107.925968,119.268322,50.944633,87.152882,105.689678,118.353481,41.109123,75.102024,93.623486,106.420498,31.549301,57.995968,73.471012,85.028744,-15.526709,-16.814267,-12.566085,-14.088171,15.531093,30.970302,38.189728,43.277467,33.142249,47.205041,53.052002,55.982306,45.270524,60.122795,64.674911,65.674218,52.609869,65.370468,67.916808,67.451457,-8.755188,316.20853,-76.739674,291.242406
100,35.356064,-7.458215,0.585022,-1.265575,-4.509544,-14.242172,-29.929047,-46.051826,-45.260525,-24.479599,-6.276627,2.110176,-51.997147,-25.890656,-10.721397,-0.971832,-54.848442,-34.801826,-18.046761,-8.759651,-55.011005,-68.122444,-75.806408,-81.696053,-21.154209,-28.847816,-25.999146,-20.591725,2.965687,20.505089,21.178415,19.856895,20.041961,32.762854,33.950191,31.590461,30.743554,41.612244,39.09258,35.912249,39.359342,46.999412,49.278867,51.214927,26.96703,53.306808,77.223988,95.896053,58.311424,90.735455,107.188854,118.810329,49.476185,86.25555,105.686817,118.919163,39.570065,74.203091,93.148212,106.21542,30.150604,56.963654,72.514057,83.85458,-15.450632,-16.616542,-11.991251,-13.140796,15.187761,31.218909,38.792103,44.161486,33.050982,47.640443,54.270585,58.029456,45.495481,60.605745,65.481866,67.1143,53.07028,66.08739,68.619775,68.26366,26.595526,308.717325,-76.160002,289.943842
101,-34.243584,5.361418,0.302753,-0.751503,6.043396,8.259087,7.694664,5.480461,-9.161053,21.204529,40.728378,50.504608,-18.166237,15.580559,35.977592,50.169182,-23.614254,5.816917,26.672287,40.969391,-25.313244,-20.49654,-18.679676,-16.77784,-20.583759,-29.02399,-30.20188,-29.172068,-5.157765,8.169271,15.453041,20.989953,11.712448,26.22293,30.0622,32.988058,23.547161,33.777846,34.746092,35.508031,31.720384,40.05848,41.470095,41.538391,26.992836,53.451004,77.657547,96.644897,58.044605,90.281296,106.876373,118.730965,49.324722,85.488396,105.076447,118.534698,39.373684,73.534698,92.554779,106.047249,29.790802,56.491528,72.168617,84.120598,-15.295886,-16.15823,-11.263707,-12.207007,15.517446,31.927001,39.433381,44.54119,33.337257,47.970252,54.573162,58.108496,45.893585,61.184408,66.032988,67.434537,53.65907,67.029887,69.55233,69.063946,-7.624054,314.04546,-75.833244,289.159056
102,26.481514,-10.606127,-0.057106,0.740511,-1.733093,-9.419518,-23.467598,-37.405472,-38.716621,-13.791962,4.629364,11.945229,-46.625004,-13.643417,1.996078,11.033707,-50.368309,-23.48465,-6.761627,1.763878,-50.835857,-54.449158,-58.107719,-61.009827,-17.556815,-21.648768,-16.526942,-8.363599,6.737834,27.521171,29.462727,27.439969,23.4688,41.263416,42.820267,39.692609,33.891343,49.01019,46.10576,42.138481,41.669425,53.554095,55.911231,57.0383,27.20747,53.312416,77.104454,96.27903,56.2813,88.909149,106.243515,118.956528,47.463684,84.172211,104.590187,118.471527,38.111057,72.665291,92.573662,106.561432,29.252014,56.32576,72.577858,84.690971,-15.14892,-15.97372,-11.264078,-12.121359,15.44773,32.000237,39.063187,43.87694,33.629583,48.695449,54.567481,57.497229,46.319355,62.056571,66.308272,67.258672,54.026115,67.261636,69.265067,68.356533,18.89102,303.283984,-75.856791,289.744218
103,-27.517891,13.872045,-0.057621,0.486408,6.780281,10.222435,14.933052,17.326012,-8.697567,20.69355,39.418488,50.623055,-16.083241,14.462242,36.686096,52.509613,-20.035172,6.554718,27.182922,41.990204,-21.193371,-9.551353,1.063728,9.944916,-20.85157,-31.171361,-35.465114,-39.531687,-5.569517,4.631528,10.608227,15.89116,10.63762,21.871687,24.737524,26.674449,22.792201,31.87124,32.095765,32.578715,32.10194,39.826669,39.551571,38.961299,27.063274,53.158264,77.280979,96.359653,56.593494,88.75082,105.758228,118.213863,48.002071,84.278126,104.32497,117.987499,38.704605,72.976971,92.226048,105.76395,29.710693,56.866493,72.777271,84.849415,-14.853321,-16.014537,-11.596542,-12.698972,15.628782,31.598983,38.689165,43.433511,33.61464,48.189836,54.196916,57.057195,46.363753,61.530519,65.985008,66.883785,54.34308,67.208778,69.286926,68.380121,-8.606586,317.060053,-75.894127,290.13465
104,34.773903,-12.552377,0.11261,0.400513,-5.306969,-16.643715,-32.993317,-49.126396,-48.459091,-25.601578,-5.538368,3.466187,-56.178303,-26.731796,-10.289955,0.056992,-58.189888,-35.851822,-18.993645,-9.279785,-56.834564,-66.480732,-71.624393,-75.425549,-16.301677,-19.051237,-11.986125,-1.761492,4.948616,24.444703,26.457705,24.836571,21.374596,37.479536,39.414053,36.7205,32.448977,46.367582,43.840014,40.214215,40.933051,50.715181,52.173294,52.78913,26.936817,52.748165,76.784191,95.801067,56.355515,88.251514,105.380573,118.006382,47.992001,84.248028,104.253559,118.037167,38.740997,73.301296,92.529545,106.107273,29.7369,57.378788,73.38129,85.603695,-14.832078,-16.460252,-12.511189,-13.427195,14.980279,31.343459,38.303225,42.740239,32.818677,47.524599,53.547611,56.38214,45.782496,60.82113,65.317486,66.336306,54.236992,67.165861,69.293595,68.448788,26.216927,304.301507,-75.731907,290.328994
105,-34.243469,14.587732,-0.053902,-0.345061,7.914734,12.399559,12.74334,11.650887,-8.187733,19.851151,38.897781,48.858261,-17.508202,13.63781,33.210754,48.211098,-22.55167,3.91777,23.090286,37.705879,-24.225368,-21.176662,-20.774517,-19.290905,-23.018207,-34.52447,-38.73486,-41.553211,-9.900629,2.894489,9.668447,15.094456,8.381136,22.272571,25.762828,28.114283,21.183726,30.618571,31.441643,32.305901,30.254923,37.580436,38.747025,38.637603,27.130966,52.556877,76.389141,95.502491,56.350021,87.650471,104.25951,116.538448,47.923794,83.780079,103.478336,116.975613,38.496094,72.751751,91.884212,105.36684,29.189129,56.317692,72.235279,84.489155,-14.680913,-16.198553,-12.208427,-13.166423,14.921493,31.193282,38.08611,42.465017,32.769709,47.430738,53.58287,56.455499,45.81189,60.875038,65.496315,66.553483,54.30782,67.50308,69.902763,69.121126,-7.940397,318.776483,-75.699663,289.871177
106,29.878464,-13.780407,-0.238953,0.736497,-1.142693,-9.028587,-22.94735,-39.029961,-43.794079,-24.29512,-1.289864,11.508293,-53.415012,-26.942368,-4.388008,12.562065,-57.2612,-38.13652,-15.634804,-0.051041,-57.467422,-68.746891,-73.775482,-76.460953,-18.201675,-25.866877,-24.979956,-21.13482,3.567445,22.454611,25.66131,25.608946,21.851495,35.202181,37.211972,34.921772,33.990453,46.107674,44.452516,41.426128,43.563372,52.551762,55.568763,57.30642,26.902943,52.036171,75.751247,94.893551,55.600834,87.218571,103.912182,116.115246,47.417622,83.726292,103.642445,117.171764,38.42205,73.129063,92.478848,106.110821,29.539833,57.22847,73.139706,85.347462,-15.355228,-17.155932,-12.967216,-13.546867,13.869081,30.359652,37.509485,42.130145,31.960531,46.709864,52.820376,55.663242,45.22205,60.146877,64.626437,65.620187,53.891128,66.665436,68.979965,68.272305,22.015371,304.89993,-75.861311,290.511529
107,-42.419529,8.294933,-0.395908,0.470168,10.155087,14.753895,14.58189,10.718937,-0.766468,32.320118,51.465282,59.480724,-9.896622,26.910839,47.042713,60.47739,-16.425819,17.162647,37.68671,51.188908,-20.091877,-9.924545,-4.20433,0.453186,-22.488697,-31.632945,-32.810217,-31.328639,-9.21841,5.588351,12.820188,17.476849,10.160536,25.845944,29.202387,29.835576,24.285511,35.24238,35.700568,34.878547,34.281853,44.754414,45.011049,42.492064,26.939678,52.136993,75.895729,95.543289,55.537491,87.308578,104.087791,116.385155,47.443771,83.507538,103.531723,117.153397,38.512402,72.881927,92.129288,105.634804,29.777985,57.43927,73.168831,85.178261,-15.257045,-17.033172,-12.783509,-13.629489,13.494318,30.063682,37.663738,42.515467,31.581878,46.076181,52.416034,55.163743,44.832219,59.295401,63.965832,64.991074,53.638569,65.993839,68.209876,67.374948,-20.266485,313.049842,-76.119547,290.836675
108,18.610439,-12.281478,0.245934,-0.08361,5.236473,6.080818,0.645905,-8.26149,-20.454941,2.67746,22.771454,33.268204,-31.185265,-2.314911,18.557396,34.109001,-38.67033,-13.791103,8.195915,20.900917,-42.845821,-50.243511,-55.117035,-59.162922,-20.399002,-26.733421,-24.367886,-20.982975,8.749786,26.014893,28.096623,29.304523,25.639697,40.401936,40.770154,38.21276,35.981039,49.357413,46.992619,44.679758,44.248678,54.260087,59.906977,64.966065,26.883945,51.690216,75.255661,95.106125,54.295635,86.425438,103.274918,115.33802,46.18618,82.814369,103.008499,116.345901,37.49691,72.461014,92.007294,105.330276,29.321709,57.462673,73.452072,85.292702,-15.617297,-16.831372,-11.902454,-12.436533,14.084775,30.841923,38.069067,42.927219,32.233221,46.640889,52.788822,55.741418,45.224396,59.79138,64.261369,65.500823,53.543412,65.79315,67.978744,67.555383,-1.594076,300.662463,-75.811644,290.647163
