takenoko1/special-research/HandMotion_SimilarSearch_自分用/NewProject/handData/key/d4_feature_d2/106.csv
,vel_0x_L,vel_0y_L,vel_0x_R,vel_0y_R,posFromWrist_1x_L,posFromWrist_2x_L,posFromWrist_3x_L,posFromWrist_4x_L,posFromWrist_5x_L,posFromWrist_6x_L,posFromWrist_7x_L,posFromWrist_8x_L,posFromWrist_9x_L,posFromWrist_10x_L,posFromWrist_11x_L,posFromWrist_12x_L,posFromWrist_13x_L,posFromWrist_14x_L,posFromWrist_15x_L,posFromWrist_16x_L,posFromWrist_17x_L,posFromWrist_18x_L,posFromWrist_19x_L,posFromWrist_20x_L,posFromWrist_1y_L,posFromWrist_2y_L,posFromWrist_3y_L,posFromWrist_4y_L,posFromWrist_5y_L,posFromWrist_6y_L,posFromWrist_7y_L,posFromWrist_8y_L,posFromWrist_9y_L,posFromWrist_10y_L,posFromWrist_11y_L,posFromWrist_12y_L,posFromWrist_13y_L,posFromWrist_14y_L,posFromWrist_15y_L,posFromWrist_16y_L,posFromWrist_17y_L,posFromWrist_18y_L,posFromWrist_19y_L,posFromWrist_20y_L,posFromWrist_1x_R,posFromWrist_2x_R,posFromWrist_3x_R,posFromWrist_4x_R,posFromWrist_5x_R,posFromWrist_6x_R,posFromWrist_7x_R,posFromWrist_8x_R,posFromWrist_9x_R,posFromWrist_10x_R,posFromWrist_11x_R,posFromWrist_12x_R,posFromWrist_13x_R,posFromWrist_14x_R,posFromWrist_15x_R,posFromWrist_16x_R,posFromWrist_17x_R,posFromWrist_18x_R,posFromWrist_19x_R,posFromWrist_20x_R,posFromWrist_1y_R,posFromWrist_2y_R,posFromWrist_3y_R,posFromWrist_4y_R,posFromWrist_5y_R,posFromWrist_6y_R,posFromWrist_7y_R,posFromWrist_8y_R,posFromWrist_9y_R,posFromWrist_10y_R,posFromWrist_11y_R,posFromWrist_12y_R,posFromWrist_13y_R,posFromWrist_14y_R,posFromWrist_15y_R,posFromWrist_16y_R,posFromWrist_17y_R,posFromWrist_18y_R,posFromWrist_19y_R,posFromWrist_20y_R,posFromBody_0x_L,posFromBody_0y_L,posFromBody_0x_R,posFromBody_0y_R
2,-38.279343,-7.691261,2.06337,-2.379614,15.419827,28.70739,34.871864,34.541473,17.957039,51.493607,66.378708,70.390663,9.556789,47.891693,62.240982,68.535347,0.267735,33.818207,48.848648,54.81205,-7.07737,8.276882,16.257477,20.055084,-24.16343,-29.285503,-25.205839,-19.358384,-4.789053,10.595074,13.995793,14.485659,15.790136,32.124973,33.326265,31.291713,30.755781,45.890251,43.876261,39.685014,41.576799,55.200114,51.112607,44.439363,25.312672,51.009865,74.437695,94.690533,54.98188,87.32523,104.86536,117.251072,46.948471,82.991924,102.967815,116.299381,38.064766,72.218342,90.828266,103.158703,29.680252,57.420788,72.470226,83.425198,-15.577159,-15.535786,-7.969138,-3.662417,14.720125,29.010097,34.357126,37.557527,32.253413,45.111084,49.055886,50.557779,44.163277,57.699461,60.180902,59.403032,51.257411,63.572914,64.260813,62.047987,-32.367325,295.905936,-73.697605,286.155423
3,8.182354,2.508919,-0.574551,1.145038,15.236607,27.291126,31.111164,28.942623,9.959908,40.485363,57.846279,64.813671,0.371304,34.723835,52.633839,63.16309,-8.923073,20.95911,38.743458,48.571529,-16.419067,-0.049725,11.930695,19.214115,-23.714443,-32.217228,-31.874945,-26.763864,-7.33953,7.365342,11.914557,13.824003,13.180811,27.76564,30.085295,29.542694,28.432113,41.759148,40.439913,38.300446,39.966657,52.12976,47.944378,41.7899,25.98135,52.363415,75.894928,96.083107,55.032177,88.230972,105.807724,118.516502,47.010498,83.457413,103.500824,117.278366,38.528824,72.675133,91.357613,104.019127,30.630283,58.074417,73.054161,84.239616,-15.854418,-16.213312,-8.914783,-4.554587,14.242115,27.469239,32.696102,35.976531,31.672651,44.132278,48.155256,49.745638,43.46593,56.584187,59.208024,58.510306,50.293735,62.411512,63.093545,60.938579,-22.704592,298.20759,-72.791777,287.093196
4,18.133793,-0.802014,0.252113,-0.152647,9.766502,14.935112,13.854218,10.474663,-9.794827,16.637077,36.65062,45.790901,-18.796463,12.327118,31.709862,44.162865,-26.14912,-0.751534,18.094711,28.962936,-31.175766,-25.840816,-21.101818,-18.612041,-23.056307,-31.614297,-32.369134,-30.418685,-3.571829,12.523107,15.550236,15.493672,16.636364,31.537541,32.225626,30.288207,30.663279,43.722194,41.465093,38.996805,40.863026,52.608819,50.102555,45.983432,25.798874,51.760254,75.311394,95.578651,54.800777,88.037682,105.695572,118.324471,46.782932,83.372498,103.332024,116.964226,38.216343,72.421875,91.043129,103.55072,30.262184,57.530308,72.514114,83.7854,-15.55604,-16.154278,-9.083115,-4.602752,14.044081,27.553343,33.020107,36.623428,31.418918,44.103009,48.449682,50.694309,43.234242,56.549669,59.465214,59.31479,50.171469,62.460542,63.425577,61.61277,-3.609409,297.261204,-71.578274,286.796176
5,1.014175,13.868957,-0.653801,0.224092,1.084099,5.882835,14.918976,17.405548,-5.120487,15.289078,28.521996,37.231293,-13.645935,7.644081,23.103333,33.988953,-18.772259,-4.988136,8.14682,17.431641,-20.86853,-23.228931,-19.939041,-16.177998,-23.78138,-32.35314,-28.568334,-22.601762,-8.804991,-3.998771,0.928047,5.107871,8.265848,15.527141,19.096994,19.842075,21.501246,26.467029,27.026612,26.721503,32.880674,35.947508,34.298896,33.568944,26.396999,52.411137,75.93544,96.717796,55.381451,88.218842,105.757256,118.525543,47.353821,83.533401,103.299522,117.041016,38.784256,72.578773,91.240082,104.148102,30.735683,57.734184,72.839813,84.581566,-15.476506,-16.334157,-9.507958,-5.081194,13.915888,27.714141,33.134777,36.534384,31.09584,43.858662,48.138336,50.143002,42.802422,56.174041,59.296759,59.136332,49.785405,62.268004,63.397542,61.618637,-1.846189,311.007679,-71.48303,286.897786
6,25.052261,-12.706815,0.403347,-0.329253,4.339485,0.047379,-9.220161,-16.42765,-38.185387,-15.265961,8.008347,20.972099,-49.376621,-20.642395,2.486687,17.562332,-54.603424,-32.839622,-11.20285,2.116356,-55.780106,-55.480499,-50.096912,-45.708046,-19.460581,-29.488045,-31.706181,-29.35207,-3.634382,15.047032,17.506859,16.24888,17.152597,31.482336,31.492587,28.683437,31.44473,42.006582,39.735217,36.872159,41.999049,50.55568,47.89998,44.074295,26.254349,52.116566,75.665531,96.418362,54.879627,87.708836,105.452213,118.359318,46.832314,83.186703,103.157787,116.805325,38.35865,72.179203,90.835133,103.595066,30.535927,57.383194,72.395725,83.980122,-15.567464,-16.26333,-9.076693,-4.759845,14.431257,28.311329,33.835706,37.435138,31.709392,44.309193,48.436591,50.389201,43.394299,56.56875,59.499115,59.224079,50.22797,62.509572,63.595761,61.746892,23.670216,298.126311,-70.61554,286.39398
7,-39.015884,14.923346,0.775623,0.739091,9.112759,17.353477,29.367714,41.826668,1.173935,25.535545,44.510422,55.64003,-5.059376,23.640633,46.323166,63.839836,-8.926105,17.711105,39.141541,54.488297,-9.157104,-5.35326,-6.366005,-7.494221,-25.365834,-41.112622,-41.401243,-31.500429,-22.450659,-17.236948,-9.583726,-3.984075,-1.511094,8.936828,14.575011,17.348161,15.676392,22.100225,25.224241,26.382061,28.40519,34.692802,35.849634,33.356338,25.624466,51.696453,75.468407,96.086197,54.571724,88.071671,105.967026,118.802834,46.264458,83.501129,103.655548,117.065163,37.663536,72.791977,91.602287,104.371719,29.783363,58.136158,73.344498,84.620132,-16.316991,-16.903434,-9.59762,-5.351661,13.970043,27.859563,33.045671,36.306772,31.700253,44.331979,47.946354,49.201123,43.594062,56.895101,58.969297,57.806969,50.275086,62.423059,62.803442,60.344232,-15.064373,312.83986,-69.55862,286.923274
8,1.337929,-14.679246,-0.485916,-0.402119,15.211143,24.173355,25.329781,22.125893,2.869892,35.097084,52.192268,57.365913,-7.23999,29.106445,45.26207,52.959023,-16.021442,14.952736,31.209297,39.037743,-22.404041,-6.518383,2.953949,8.359222,-22.482584,-30.313154,-30.364777,-25.334218,-7.14514,10.470276,14.119232,14.460835,13.315488,28.901292,30.502048,29.218442,28.500903,41.389943,39.175264,36.586502,39.563365,51.162501,46.580806,40.685741,26.254005,52.308483,75.67234,95.695152,55.134258,88.07785,105.171661,117.549133,47.065201,83.273849,102.619171,115.879097,38.496838,72.418442,91.041756,103.877449,30.494156,57.789745,72.880783,84.370537,-16.104137,-16.72689,-9.647946,-5.107068,13.778184,27.736803,33.141384,36.552292,31.18933,44.025018,48.190145,49.749528,42.929319,56.406717,59.36592,59.030306,49.816095,62.1839,63.225506,61.552378,-13.51965,298.209397,-69.837742,286.569938
9,15.078278,-2.759749,0.469952,-0.754096,10.551338,14.265862,11.732826,6.129913,-16.341419,13.268623,33.096313,41.182022,-27.200375,7.308998,26.886177,37.928467,-34.028778,-5.316467,14.149818,24.925919,-37.393456,-24.662075,-13.991146,-6.671219,-21.203301,-28.44014,-27.890623,-22.534146,-3.408746,13.641284,17.181743,17.816229,16.905534,31.901868,32.990528,31.484436,31.775403,44.169637,42.296192,40.179017,42.884982,53.788437,49.133877,43.339527,26.449585,52.148609,75.305386,95.903378,54.638214,87.350292,104.776211,117.377758,46.522751,82.817516,102.491398,115.743198,37.986832,72.121639,90.739117,103.335285,30.119362,57.598972,72.71719,84.132328,-15.365479,-15.693744,-8.131047,-3.958881,14.473617,28.786498,34.430301,38.15558,32.000051,44.734901,48.689706,50.345173,43.941964,57.142411,59.880857,59.501832,50.944522,62.930709,63.720744,61.832046,1.618023,295.523408,-69.308395,285.889603
10,-8.601665,17.345444,0.483055,0.229032,5.383129,10.728321,20.308399,27.226124,-7.633152,17.267933,35.024128,46.353893,-15.184536,11.451015,34.815388,51.476841,-18.616562,3.359356,22.775288,36.298656,-19.22739,-8.86076,2.669792,11.415882,-24.466625,-36.501533,-33.62384,-26.68507,-13.314686,-5.949096,0.496659,6.173374,4.17581,13.11764,16.989638,17.971161,18.251137,24.077968,24.876586,24.793902,29.774937,33.469588,30.896819,28.226916,26.245193,52.003498,75.26968,95.508671,53.833752,87.37112,105.112209,117.968388,45.277863,82.624912,102.659969,116.073818,36.457844,71.669712,90.756054,103.717403,28.477764,56.570663,71.81036,83.233967,-15.675033,-16.176817,-8.533351,-3.893919,14.13646,28.912099,34.245049,37.758154,31.72977,45.023893,48.970114,50.604463,43.613019,57.620544,60.321569,59.867395,50.31121,62.907923,63.957495,62.266954,-6.953974,312.801806,-68.795671,286.05159
11,22.679386,-17.414419,0.22665,0.154438,4.828377,3.075256,-3.399239,-10.58773,-31.126442,-4.864998,16.880608,27.381706,-41.358891,-8.852577,12.622833,25.59494,-46.426392,-20.801239,-0.309448,11.592636,-47.441139,-42.160492,-34.609566,-28.948689,-21.084184,-28.432854,-26.977211,-21.616102,-2.058697,14.561797,17.851859,17.885575,18.501288,32.558831,33.820392,32.019441,33.106681,44.345194,42.623345,40.176053,44.134254,53.738234,50.1761,45.531728,26.103115,51.951427,75.276489,95.560226,53.838215,87.0718,104.826736,117.696877,45.57375,82.595444,102.747917,116.422577,37.019234,71.910782,90.910492,103.953323,29.23439,57.084274,72.414436,84.108696,-15.323365,-16.054613,-8.760099,-4.460047,14.781381,28.75235,33.920119,37.13855,32.213646,45.052483,49.012475,50.549567,44.037924,57.519336,60.262968,59.681403,50.8259,63.20766,64.307682,62.648078,15.745926,295.35466,-68.548508,286.1733
12,-21.220436,16.766225,-0.426464,-0.03952,7.628288,11.617241,20.002098,29.565582,-9.578533,14.366341,32.788124,44.997711,-17.039795,10.040131,34.369926,52.98317,-19.988708,5.088272,27.115631,43.406754,-19.365921,-5.561543,9.421921,21.557922,-22.786334,-37.458664,-35.942074,-27.934837,-14.066929,-8.385891,-1.357089,4.53563,3.375525,12.435236,17.608315,19.758526,17.830802,24.92543,26.868839,26.276776,29.134277,34.949992,34.105123,30.822409,26.351051,52.338982,75.709248,96.056957,54.057255,87.21056,105.017681,118.134212,45.856304,82.555218,102.683773,116.619587,37.30854,71.793308,90.811558,103.996525,29.480095,57.012234,72.451572,84.310284,-15.122058,-15.918824,-8.975052,-4.634368,15.102422,28.747534,33.743821,36.915446,32.39828,45.167895,49.057738,50.660532,44.078123,57.637094,60.429138,59.815401,50.831951,63.302941,64.434579,62.666665,-5.469961,312.051168,-68.970423,286.064063
13,9.270172,5.808676,-0.785007,0.731804,7.320099,8.980522,7.898712,6.431122,-14.425335,7.428474,26.311569,38.343773,-21.713562,3.942375,26.113243,43.018456,-24.435825,0.214806,21.474152,36.335678,-23.029289,-23.80291,-26.489983,-28.707218,-20.661997,-34.546885,-40.738476,-43.742386,-15.741292,-7.744119,-0.630101,3.152235,0.402057,9.396313,13.709024,15.302123,12.996115,18.538894,21.351996,22.485857,22.580829,27.783116,30.508347,30.540951,25.600777,51.339684,74.916,95.507698,55.138321,88.168373,106.076202,119.334412,46.995621,83.480415,103.70842,117.917519,38.148823,72.450829,91.504784,104.623718,29.736328,57.410774,72.807999,84.378433,-15.587162,-16.666189,-10.045248,-5.654053,13.733909,26.757195,31.876118,35.048175,31.155615,43.787896,47.928138,49.841042,43.048312,56.735105,59.779895,59.456261,50.211607,62.725945,63.756621,61.933008,3.802443,317.861944,-69.753199,286.797967
14,0.510979,-2.043753,0.927544,0.292573,5.48378,5.771713,6.47644,5.446014,-15.124969,10.201378,28.283958,38.438873,-21.706352,5.908356,26.350594,42.05143,-24.170094,3.177567,23.021164,37.146034,-22.003098,-22.812252,-25.029144,-26.186829,-16.555841,-30.033424,-36.361421,-35.300426,-14.943353,-4.034278,3.639569,5.334989,0.963492,13.152714,17.44585,16.779563,13.085406,23.096074,24.747466,22.993383,22.671726,29.861388,32.897347,33.137494,25.485306,50.604744,74.31736,94.628677,54.895077,88.198357,106.090279,118.601303,46.93325,83.804054,103.77388,117.206841,38.147621,72.949104,91.790543,104.332581,29.952564,57.922955,73.292885,84.688911,-15.658978,-16.689778,-9.940334,-5.898338,14.423908,27.720254,32.827322,36.165487,31.501232,43.760109,47.935116,49.857221,43.145939,56.431911,59.458545,59.26502,50.142817,62.137649,63.375374,61.858228,4.285898,315.821355,-68.853178,287.093705
15,21.73748,-18.263055,-0.041943,-0.568907,3.571129,-1.170959,-11.710052,-20.262909,-42.614136,-18.500175,5.259018,18.523407,-53.729553,-23.752556,-0.009499,16.172791,-57.925644,-36.167221,-13.662643,1.363792,-57.924728,-62.067719,-62.76329,-62.545967,-19.057968,-26.570214,-25.228131,-20.243391,-3.349775,14.626141,17.938556,17.861368,17.153832,30.520141,32.033952,30.515016,31.603676,41.81954,40.089664,37.747348,42.394004,50.569574,49.074102,46.66985,25.282574,50.885925,74.556141,94.883022,54.792652,87.755413,105.208683,117.720737,46.848221,83.403568,103.118305,116.585827,38.101902,72.728977,91.459522,103.990688,29.858723,57.64183,73.092442,84.600506,-15.453102,-16.329341,-9.704448,-5.569702,14.788915,27.950336,32.701907,35.538782,32.1217,44.460605,48.325378,49.939966,43.859342,57.199654,60.013126,59.436501,50.869681,63.062546,64.186157,62.421701,25.960693,297.57752,-68.957806,286.544018
16,-32.034359,13.494688,0.444489,0.663014,7.862949,11.8503,16.288548,19.494267,-11.531067,15.327587,34.366665,44.248295,-17.93644,13.310909,36.694279,54.327106,-19.88142,10.194454,32.958469,49.060879,-18.703995,-0.582561,16.2113,29.274845,-23.063717,-37.517945,-37.48849,-28.929142,-16.210348,-9.458002,-3.041146,1.748031,2.584749,12.897191,18.099602,21.062201,17.499882,24.74197,25.999332,26.374898,29.003613,34.324769,31.860743,28.283171,25.062389,50.595703,74.211216,94.364605,54.516792,87.829914,105.478306,118.023548,46.649551,83.573513,103.433819,116.806355,38.079357,72.912655,91.634274,104.054546,30.078907,57.959862,73.303585,84.670086,-15.617482,-16.848106,-10.294473,-5.747975,14.443483,27.309614,32.0836,34.939742,31.775959,43.90269,47.668292,49.180128,43.483899,56.694103,59.438662,58.796952,50.378888,62.454799,63.480906,61.67872,-6.107626,311.078291,-68.547277,287.213115
17,3.153248,4.828141,-0.244217,-0.101826,6.901474,10.8918,14.097977,16.754608,-6.918812,16.540947,35.159569,46.546211,-13.725357,12.464333,33.432541,48.718529,-17.629852,8.422852,27.942009,40.309753,-17.282181,-17.905426,-21.158237,-24.512787,-19.399262,-33.209557,-38.676136,-38.202819,-16.235048,-5.123617,3.146492,6.95464,0.426016,13.305732,17.439798,18.509501,13.028411,22.112576,24.274951,24.103718,22.784358,29.692871,33.386348,33.919563,25.415783,51.471977,75.266247,95.544262,54.703159,88.039455,105.602818,118.1991,46.811142,83.502789,103.209515,116.614437,38.303661,72.805996,91.449108,103.99435,30.404835,58.058338,73.324757,84.737606,-15.719308,-16.717998,-10.247481,-6.131816,14.712777,27.462631,32.127072,34.957402,32.007832,43.950732,47.651743,49.058418,43.563742,56.626178,59.3892,58.805905,50.261007,62.376499,63.406929,61.656551,-2.999582,315.931456,-68.836699,287.136313
18,0.818253,-2.548563,0.173435,0.094663,7.06707,11.555214,16.008797,18.279076,-6.427689,18.9394,37.057114,47.392502,-13.591061,14.207726,33.951988,49.410553,-16.981201,10.297623,29.497147,43.224792,-16.002388,-16.315784,-18.068733,-18.887672,-16.972718,-29.284454,-34.280062,-31.035572,-12.29673,-1.089092,6.168928,7.507553,3.522058,16.02133,19.761058,18.723713,15.345286,26.523531,27.419468,24.97693,24.556472,32.684431,35.407563,35.32068,25.341454,51.155376,74.901695,95.383987,54.39045,87.799988,105.49221,118.017654,46.532421,83.526192,103.429298,116.832161,38.119755,72.969589,91.649323,104.07486,30.433388,58.206425,73.494186,84.794083,-15.637983,-16.74029,-10.301883,-6.154664,14.898151,27.483812,31.997705,34.718799,32.314485,44.06565,47.56943,48.931212,43.901208,56.849282,59.353693,58.664497,50.578466,62.477153,63.323627,61.491122,-2.250538,313.403471,-68.732471,287.251554
19,29.016838,-15.761113,-0.010643,0.041126,3.330116,-1.684799,-11.638641,-19.526711,-43.136787,-19.890175,4.967308,19.683723,-54.645653,-25.658798,-0.556412,17.377968,-58.743038,-38.479843,-14.840355,1.28334,-58.492641,-65.488186,-69.34885,-72.082214,-19.411057,-27.281147,-26.690875,-22.570825,-3.61703,14.553769,17.803632,17.710883,16.746835,30.546323,31.846663,29.912702,30.944737,41.863383,40.152217,37.463913,41.681528,49.311594,48.526685,46.715175,25.333042,51.326923,75.148544,95.437546,54.483032,88.039627,105.875359,118.598557,46.496086,83.561325,103.66642,117.286034,37.855625,72.728806,91.669464,104.249611,29.878979,57.814064,73.190002,84.447098,-15.755494,-16.908436,-10.484047,-6.167693,14.629475,27.741928,32.564697,35.350629,31.89804,44.321667,48.213487,49.781206,43.420358,56.838228,59.632435,58.964295,50.031975,62.338399,63.436445,61.566211,26.744957,297.646341,-68.764458,287.296663
20,-56.008301,14.46559,0.290279,0.460226,13.803062,24.914017,36.860046,47.063713,12.884274,42.562866,60.007324,68.374901,7.167778,41.570549,63.976593,80.45208,3.239136,36.759567,59.385223,75.83725,1.557541,24.093189,40.838242,53.544044,-24.746972,-39.397566,-39.103387,-28.617734,-19.697579,-14.65152,-7.50039,-1.833184,-0.122204,9.729148,15.518249,19.961685,15.995703,23.035127,24.518001,25.683355,28.089274,34.508847,32.411618,28.922967,25.289726,51.005745,74.896259,95.478115,54.264679,87.799473,105.719662,118.314114,46.410313,83.753071,103.945599,117.453518,38.010349,73.354397,92.272625,104.638996,30.365524,58.81176,74.207668,85.287724,-15.993048,-17.288139,-10.704187,-6.330158,14.294665,27.300969,32.08644,34.952339,31.846972,44.075345,47.918443,49.676601,43.637411,56.667674,59.118856,58.42225,50.548517,62.355504,63.030436,61.027685,-29.274302,312.098809,-68.485136,287.743767
21,62.94445,-13.99252,0.30756,-0.300478,2.320175,-5.065155,-18.042984,-27.830544,-44.735928,-26.589088,-2.981186,11.371536,-56.531868,-33.581314,-9.298325,7.997475,-61.630154,-47.276287,-24.141312,-8.841362,-62.772446,-74.034233,-78.702621,-82.688656,-17.22114,-25.008299,-24.046351,-20.662305,-1.122067,17.498832,19.746485,18.702533,17.241888,30.101226,31.716,30.282958,30.09925,40.668883,39.869833,37.880111,40.107757,47.724794,47.638282,46.906539,25.228844,50.934563,74.7472,95.32299,54.303761,87.800789,105.528488,117.917862,46.319046,83.447571,103.420258,116.64093,37.749767,72.979431,91.832085,104.070969,29.808769,58.123169,73.53138,84.5858,-15.985576,-17.113077,-10.495532,-6.149785,14.57248,27.870554,32.702709,35.531434,32.096012,44.47172,48.243189,49.665239,43.834888,56.951232,59.356719,58.498574,50.645341,62.617511,63.362159,61.374969,33.640938,298.108404,-68.206787,287.445404
22,-68.932972,6.534799,0.188198,-0.054093,15.872784,29.834747,40.703716,45.71291,19.052811,51.945362,70.113201,77.643299,12.54055,50.106869,72.706203,86.790447,7.391911,41.671658,63.891392,77.532177,3.492565,27.682686,44.038067,54.177647,-21.554414,-28.991139,-26.138764,-18.733346,-11.29131,-2.833171,3.746397,8.181189,5.793424,18.074099,23.52067,27.057981,20.18621,31.14629,31.548224,32.04093,31.643443,40.980229,38.687992,35.492161,25.040302,50.550728,74.266949,94.732533,54.304848,87.670612,105.348415,117.77029,46.148071,83.205471,103.072987,116.211033,37.41909,72.631474,91.481266,103.794308,29.314442,57.496662,72.963924,84.220219,-15.692694,-16.898741,-10.336957,-5.798981,14.680481,28.179307,33.030789,35.861552,32.174496,44.576079,48.276287,49.625163,43.886882,56.943636,59.297377,58.481222,50.722468,62.729156,63.461022,61.591899,-35.360098,304.650814,-68.086653,287.398922
23,46.329403,-8.201257,0.129032,-0.22403,9.044495,9.700699,6.469116,2.042656,-25.338478,2.553291,25.075951,36.20327,-36.951714,-3.945122,18.017921,32.011414,-43.106747,-17.483654,3.121147,15.102654,-45.184822,-39.941769,-34.583645,-31.023102,-20.838603,-28.702085,-29.228137,-25.871076,-4.239413,14.587732,17.472835,17.083251,16.516321,31.888592,32.593102,30.331988,31.185749,43.13538,41.170914,38.777962,42.008188,51.941297,48.371568,43.598323,25.163441,50.805244,74.519463,94.986076,54.670029,87.854805,105.44529,117.820244,46.370773,83.056183,102.783966,115.886536,37.327137,72.248154,91.028595,103.319893,28.881454,56.805038,72.305832,83.690529,-15.800387,-16.785059,-10.150286,-5.715865,14.526723,28.281812,33.333799,36.159868,31.893779,44.642646,48.509518,49.811896,43.565533,56.982416,59.564077,58.728964,50.439774,62.896994,63.812073,61.899169,10.95686,296.451841,-67.970066,287.177176
24,-19.577522,15.812984,0.043201,0.442071,8.045769,12.833977,22.738724,34.099388,-7.501488,17.164536,35.505638,47.116013,-14.443359,14.552765,39.707565,59.964294,-16.702595,11.05854,34.306984,51.852608,-15.637093,1.007195,17.764091,31.163864,-24.518989,-41.413284,-39.239052,-29.48928,-18.389026,-14.356477,-6.842069,-0.601634,0.458682,10.631321,16.433637,18.490914,16.660508,24.498056,26.658209,25.777215,29.94296,35.338773,33.827555,29.724796,25.119038,50.560055,74.235706,94.79353,54.481087,87.689152,105.19701,117.365284,46.336899,83.363056,103.171406,116.166859,37.548008,72.77956,91.373234,103.23,29.435749,57.657509,72.949619,83.792095,-15.931792,-17.177483,-10.536596,-6.087788,14.542963,27.930514,32.879933,35.83716,32.03247,44.212492,48.016626,49.684567,43.739546,56.598699,58.978559,58.376555,50.60965,62.561751,63.102437,61.097278,-8.660889,312.261675,-67.967091,287.616098
25,-18.967323,-5.511471,-0.227623,-0.354756,13.08363,27.694016,39.063263,45.75325,17.416248,47.104912,65.000496,75.879478,10.912514,41.817398,62.186737,77.533035,5.407848,36.421509,56.621475,70.047798,3.151302,6.837387,5.796604,4.283581,-20.453774,-31.134805,-32.844735,-27.618119,-8.397377,5.67758,13.493391,16.411407,9.56199,24.540046,29.376462,30.995496,21.776468,34.089809,35.316481,34.700027,30.198977,40.093554,42.340775,41.65868,24.687653,50.536194,74.293613,94.80669,54.322357,87.421589,104.810085,116.973438,46.335354,83.13715,102.914829,116.138363,37.717838,72.885303,91.525784,103.727474,29.67144,57.917747,73.278637,84.674664,-16.028616,-16.941534,-9.976891,-5.815222,14.617311,28.419145,33.303479,36.144307,32.084711,44.34013,48.073745,49.632388,43.978335,56.59345,59.044879,58.556063,51.135022,62.958868,63.740813,62.14475,-27.656107,306.751563,-68.222609,287.2627
26,44.584923,-8.868038,0.532436,0.0,5.943718,3.772888,-2.748299,-8.774071,-30.179043,-5.519028,16.942635,28.953094,-40.516891,-11.32576,10.485077,25.598831,-45.737858,-23.546963,-3.052025,9.980392,-47.121849,-45.57478,-40.685863,-36.702976,-20.419317,-28.379563,-28.382774,-24.517939,-2.437351,15.491326,18.093982,17.787577,17.371688,31.354389,32.287994,31.390266,30.579669,41.560868,39.625672,38.221035,40.100409,49.751566,46.976626,43.680204,24.582596,50.318813,73.982277,94.459763,53.617859,86.7342,104.301224,116.579247,45.602074,82.623825,102.586098,115.785141,37.153873,72.602005,91.19957,103.278351,29.362164,57.766171,73.143311,84.344788,-16.126923,-16.981425,-10.02098,-5.894139,14.658745,28.300399,33.203258,35.995735,32.29386,44.683339,48.250352,49.450903,44.259114,57.058924,59.276999,58.373035,51.254941,63.015678,63.609779,61.671618,16.900291,297.881178,-67.718697,287.260354
27,-18.686256,13.809553,-0.263386,0.117882,6.826057,10.484276,18.612099,27.846222,-12.173767,11.473045,30.331879,43.574982,-20.261192,6.60862,31.16684,50.838089,-23.191795,2.033157,24.440231,41.868553,-22.142887,-10.868053,1.166725,12.091484,-22.535998,-36.938355,-35.480737,-26.969122,-15.734746,-8.233182,-0.752429,4.46227,2.475821,13.666107,19.165228,20.536767,17.710759,26.01304,28.972491,28.189742,29.54325,36.895192,36.620588,32.556917,24.8493,50.546494,74.239483,94.796276,53.960037,87.007313,104.619198,117.065907,45.874386,82.618046,102.509022,115.800533,37.325535,72.372608,90.99329,103.172665,29.334412,57.466679,72.688923,83.80125,-16.013673,-16.896395,-9.879942,-5.88747,14.766253,28.112616,33.022638,35.869085,32.254031,44.531557,48.307347,49.696052,44.102515,56.799573,59.191784,58.447012,51.158549,62.920274,63.578965,61.771037,-1.822128,311.689743,-68.018246,287.377247
28,3.162918,4.816841,0.481911,-0.094355,5.579681,8.91758,12.383766,15.105515,-11.39328,11.937332,30.974922,43.106003,-18.028908,8.774529,30.571175,47.987709,-20.572071,5.384674,25.759735,40.198975,-19.37376,-23.002625,-28.462944,-32.590714,-19.776743,-33.379062,-39.174955,-38.584745,-14.845849,-4.928424,1.730247,4.165559,1.856279,13.989741,17.061639,17.403921,14.262184,23.111697,24.492375,24.024307,23.419585,30.427269,32.837572,32.53234,24.781322,50.393257,73.911953,94.27248,53.705463,86.715832,104.233189,116.690998,45.638924,82.423954,102.321568,115.717564,37.065182,72.060642,90.749302,103.201389,29.074631,57.12038,72.453747,83.960094,-16.218128,-17.173345,-9.974606,-5.885494,14.533639,27.889635,32.72494,35.559777,32.175793,44.469312,48.155133,49.452632,44.141788,56.944316,59.422421,58.631275,51.198749,63.144675,64.037524,62.281713,1.291323,316.50592,-67.585802,287.282229
29,1.692009,0.693148,-0.692081,0.411875,5.113678,6.700058,7.981224,7.253494,-12.426395,12.483101,30.632286,41.90197,-19.240208,7.450447,28.093529,44.377899,-22.227058,2.843056,22.233009,35.961456,-20.783043,-23.193626,-27.896576,-31.299648,-17.635485,-30.85631,-37.614831,-37.232781,-14.431874,-3.439436,5.302014,8.951216,0.899518,13.91138,18.292695,18.668693,12.620426,22.683767,24.860901,23.936312,21.209538,28.735554,31.756755,31.458253,24.85136,50.495853,73.980217,94.498901,53.95546,87.261772,104.800301,117.265205,45.859795,82.712402,102.65419,116.055222,37.300301,72.403908,91.037178,103.201332,29.339561,57.51091,72.802849,84.069443,-16.198862,-17.362363,-10.261189,-6.063396,14.073475,27.558283,32.512456,35.457581,31.643319,43.937703,47.715346,49.243607,43.569176,56.225603,58.704017,58.056441,50.654727,62.439361,63.191852,61.374167,2.974377,317.200196,-68.286839,287.695231
30,-18.556137,-19.373019,0.163536,0.239715,15.64888,26.259613,30.779915,29.674187,3.407993,33.927612,55.407028,65.765648,-7.493019,25.605812,47.921677,62.890091,-16.984406,11.533985,32.561874,46.239281,-24.016743,-9.708538,2.201729,11.067352,-21.944491,-29.893189,-30.390095,-25.786972,-9.862467,9.353644,14.667637,15.983291,10.744325,28.405745,31.765647,30.766772,26.73021,41.987501,41.79978,40.227738,39.072017,51.703249,48.35471,42.841263,24.882603,50.621967,74.209671,94.634972,52.933445,86.486435,104.170647,117.045593,45.079823,82.561111,103.012505,116.884346,37.004642,72.570419,91.39389,103.748589,29.50676,57.912083,73.310165,84.637184,-16.359351,-18.044397,-11.103033,-6.634526,13.441397,26.885265,31.778985,34.816179,31.264851,43.626913,47.318291,48.752877,43.484393,56.196148,58.564955,57.589299,50.725493,62.4238,63.158507,60.972419,-15.648422,297.82165,-68.189964,287.92942
31,-28.167114,-1.268168,1.646748,0.389769,24.312286,47.338142,61.846161,65.14492,39.02504,74.667892,89.562149,95.081291,28.073387,68.4161,82.923431,90.22728,16.946354,52.808647,67.380524,74.621658,7.06295,29.585667,38.952713,44.494171,-23.6346,-32.955454,-33.528868,-27.365436,-10.117743,6.71616,10.339736,12.218616,12.147232,31.224837,33.545479,32.133062,28.864427,45.718461,45.648622,43.653527,40.967385,54.91705,51.418642,45.252184,25.564041,50.766449,74.183178,94.921703,54.688282,86.867466,103.801289,115.313816,47.056961,82.831478,102.591419,116.229343,38.50605,71.779346,90.194263,102.68755,30.188484,55.9128,70.516491,82.81168,-16.315756,-18.295906,-11.476623,-7.518483,13.770651,26.336674,31.726497,35.34044,30.698168,42.876646,47.754681,50.39766,42.275691,55.200855,59.123549,59.475712,49.747799,63.121148,66.411395,66.608379,-43.866663,296.54354,-66.594343,288.309246
32,14.34597,-3.626478,0.909691,-1.781314,21.257458,41.428413,54.492416,58.503227,25.725174,51.446342,71.222763,83.741684,14.568844,39.832764,60.252457,77.126427,3.321247,24.366932,43.675461,59.397697,-6.186848,-0.652943,7.640419,18.088245,-18.599409,-26.353779,-28.268659,-25.350891,-5.599219,10.630272,17.806287,22.23762,14.062051,32.296515,38.747334,41.213707,28.688747,44.188163,49.987391,54.130288,40.159874,53.818263,58.294241,60.10007,25.942955,50.888557,74.191189,93.685627,51.963959,83.450832,100.782108,113.171139,44.809341,80.515423,101.108723,115.980663,37.291489,70.81152,90.644131,104.781361,29.569588,54.840145,69.879284,83.367977,-14.66597,-15.92926,-9.161662,-5.298247,13.029213,26.347048,32.430081,36.340611,29.820447,42.774943,48.810551,52.115433,42.159847,55.189678,60.69343,62.332657,50.771621,65.830015,71.493145,73.779763,-29.574137,292.916985,-65.738096,286.527855
33,50.44899,4.035451,12.25256,-15.895915,-42.33284,-83.581524,-118.131638,-151.428566,-56.66502,-58.204765,-57.318535,-61.785507,-40.262661,-36.261177,-35.286083,-37.558937,-30.96674,-36.125793,-42.853947,-48.364391,-25.593681,-43.675575,-59.263916,-72.367401,-24.216474,-31.296282,-32.593041,-37.300275,-6.810947,1.013633,1.854859,0.089909,15.205977,26.256337,27.578598,22.748481,30.708233,40.437072,39.549286,32.00598,40.775094,49.719456,51.924933,51.416851,14.763279,31.435204,46.301479,55.764771,28.435192,48.401756,50.385818,47.02137,30.916042,50.407104,57.755013,57.93354,32.409496,50.890388,59.727974,61.210442,33.720531,51.488113,62.687759,69.780579,32.437121,54.488749,68.615576,81.347708,40.474493,60.883683,65.910846,64.43816,22.797882,45.595948,52.544784,52.425976,4.727673,27.723774,37.668616,40.53297,-12.495813,3.097401,13.648817,21.236275,20.820408,297.077836,-53.539982,270.75734
34,-9.603882,4.432568,34.985504,-13.370384,-20.18034,-35.788422,-46.004562,-54.085522,-42.879353,-65.65361,-74.10902,-79.584217,-38.651848,-65.051365,-76.929474,-80.572758,-32.369156,-55.631847,-66.82394,-72.743168,-24.787216,-41.039886,-50.947495,-57.141151,-23.550125,-38.199052,-49.399465,-54.756375,-8.946708,1.183755,6.586052,7.693793,8.740586,23.341717,27.558777,26.912003,22.568417,36.179937,39.131421,39.679888,32.307754,44.221076,47.053814,47.09247,5.205517,17.102051,29.88224,34.754906,8.375874,35.18074,37.34539,31.943665,12.889023,42.36042,38.765945,29.532967,19.457474,47.373276,42.542725,32.220268,26.425552,47.103424,43.520851,35.841293,8.353966,10.277368,11.955189,11.81273,5.993618,9.696729,11.388814,13.610223,0.430153,3.934242,4.527293,6.487931,-4.861301,-0.913474,0.836656,2.91746,-8.41794,-5.813863,-2.850152,-0.950277,11.873674,301.644047,-17.897329,257.520599
35,26.145058,-10.413651,-30.293884,-39.144945,-20.352173,-40.632706,-60.172348,-75.307674,-54.191208,-85.233536,-100.06628,-108.965435,-48.215961,-81.005402,-98.628273,-108.659935,-39.874077,-69.507408,-87.253304,-99.473076,-31.173706,-55.079269,-67.887726,-77.716541,-20.262965,-21.374226,-10.732098,-1.101195,2.111494,14.82683,20.377512,23.443112,18.595087,31.441025,36.266264,39.349586,31.655546,42.623531,47.747456,51.207641,40.650975,51.233638,55.184676,57.853405,24.423294,52.363014,74.732552,81.238861,39.524689,78.065758,71.758804,59.315643,35.853424,75.346298,67.483521,54.637642,33.609638,71.312256,62.024117,47.236061,32.460365,61.158714,54.577332,41.094589,-26.2141,-35.887981,-28.337943,-13.520006,-27.290286,-13.750705,-13.620597,-15.580617,-5.466023,5.249094,4.736442,3.826303,16.134456,25.448333,23.312448,22.962693,35.694146,44.110975,43.269193,43.778325,38.556061,291.463689,-47.653885,218.608947
36,8.009605,0.356176,-8.099957,-43.401154,-19.920044,-42.607155,-64.491692,-79.777336,-53.226357,-85.476093,-102.365055,-114.801865,-48.637733,-83.687496,-103.323669,-118.313828,-40.969963,-73.579273,-91.93594,-105.556641,-31.694412,-58.959389,-73.267193,-84.801464,-20.603025,-22.565021,-10.795886,-0.068358,1.771496,13.618374,19.24643,23.137509,19.463298,28.941183,34.184534,38.321441,33.172383,41.515358,46.681644,50.308308,43.336748,51.640696,55.223208,57.52656,13.942909,36.587791,58.600788,70.136204,25.227757,62.882595,52.526894,41.995068,31.818981,66.679058,54.542255,43.613091,41.474991,73.236408,59.70274,47.658806,50.65258,76.467762,69.272976,59.659023,-21.767761,-40.085774,-54.69586,-58.594719,-19.611622,-43.740657,-43.746338,-37.371288,-11.158917,-35.547674,-32.213461,-24.72116,-5.879998,-30.687732,-27.472264,-19.320037,-2.819647,-21.69539,-19.684796,-11.808655,46.652098,292.631451,-55.66741,176.01938
37,4.387321,-0.948795,-10.462303,-57.463451,-22.720528,-46.39801,-67.87508,-82.744274,-56.616154,-88.166199,-105.19558,-117.956715,-51.646385,-85.973797,-105.838795,-121.534195,-43.497963,-75.700951,-94.3297,-108.804989,-33.39077,-60.229797,-74.84396,-86.570835,-20.581042,-21.79666,-9.405329,2.564371,6.343126,16.863297,21.636418,25.277778,23.509555,31.797819,36.211553,40.015996,35.940407,44.204403,49.055701,52.610919,44.444427,53.038726,56.668477,59.28762,6.17094,21.491146,36.286411,46.055317,25.372868,50.816059,41.905975,32.415676,33.672466,57.053146,49.286785,42.53437,42.313271,67.327366,59.568214,51.655655,49.755764,75.497646,78.222599,74.473057,-34.476089,-60.84654,-79.035464,-82.337166,-48.495069,-70.396272,-65.284079,-57.994536,-32.023393,-53.632024,-49.515988,-42.126502,-16.408289,-37.602203,-34.995564,-27.149958,-1.039198,-16.244094,-20.699819,-18.81464,50.973873,292.308404,-66.195259,119.181676
38,0.272827,-1.193327,1.214046,-42.618838,-23.566933,-47.09095,-68.825054,-84.353542,-57.255306,-89.501152,-106.281738,-118.948917,-52.505493,-88.057365,-107.567368,-122.771816,-45.055275,-78.673897,-97.417889,-111.881104,-36.063652,-63.310547,-78.497257,-91.061554,-20.716646,-21.835007,-9.828566,1.896911,7.521571,18.055512,23.084589,26.744906,25.182868,33.618283,37.210119,40.258243,37.690722,45.898958,49.902299,52.856624,45.698516,54.328692,57.653828,60.268773,30.146542,46.802559,53.108826,53.064194,41.082058,49.839592,56.282215,60.196095,24.845066,35.898743,40.994568,40.869541,9.196587,23.294964,27.499752,24.926548,-5.434113,7.719612,13.546371,12.349606,-19.896446,-43.155202,-60.425248,-71.01214,-65.827668,-101.529472,-120.523435,-134.251632,-61.800522,-95.316824,-86.260355,-75.954828,-54.732539,-82.175287,-68.913583,-55.919043,-44.856858,-70.255574,-60.989863,-50.753837,52.005816,292.299064,-64.222097,77.746825
39,0.820084,-1.16523,5.588264,-49.44019,-24.55204,-48.377609,-70.165215,-85.252819,-58.572521,-90.78867,-106.973877,-119.328861,-53.717308,-89.203548,-108.263855,-123.284683,-46.183777,-79.928284,-98.355675,-112.721157,-37.220993,-64.137897,-78.868275,-91.254559,-19.614957,-20.291247,-8.283941,3.440362,8.534154,19.282245,24.328366,27.877532,26.100911,33.972977,37.520168,40.321661,38.611545,46.114467,50.060318,52.908864,46.716965,54.791573,57.603625,59.710858,32.514238,49.382515,57.159691,55.756245,32.90514,36.383658,42.781849,45.51919,11.527376,17.919045,24.95101,24.805126,-7.153215,2.557783,10.059071,9.447241,-22.335806,-12.863588,-4.774132,-3.544922,-19.346326,-37.935686,-51.644154,-59.399805,-45.651662,-79.254369,-88.431653,-91.433788,-42.05924,-78.283451,-73.356757,-62.702927,-38.242508,-68.120816,-59.418253,-47.243773,-34.075621,-61.255991,-54.058626,-44.058563,53.003254,292.362652,-58.456478,29.535453
40,0.759544,-1.075877,5.588265,-49.440189,-25.68306,-49.726067,-71.759605,-86.591377,-60.100708,-92.41396,-108.575306,-120.921421,-54.027443,-89.928703,-108.685684,-123.437347,-45.604248,-79.639549,-97.972698,-112.131157,-36.231995,-63.441811,-77.969627,-90.082455,-19.020979,-19.29935,-6.963162,4.992953,9.254905,20.481562,25.674648,29.497184,26.635608,35.130242,39.089678,42.361524,38.95957,47.497367,51.64681,54.748348,46.684855,55.432666,58.168826,60.289829,34.881935,51.962471,61.210556,58.448296,24.728222,22.927723,29.281483,30.842285,-1.790314,-0.060654,8.907452,8.740711,-23.503017,-18.179398,-7.381611,-6.032066,-39.237499,-33.446789,-23.094635,-19.439449,-18.796208,-32.716171,-42.86306,-47.787471,-25.475657,-56.979266,-56.339872,-48.615945,-22.317957,-61.250079,-60.453159,-49.451027,-21.752478,-54.066345,-49.922923,-38.568505,-23.294386,-52.25641,-47.12739,-37.363291,52.216415,294.813664,-54.414597,-16.377846
41,1.14315,-0.764285,-24.376373,18.617564,-26.248627,-50.565147,-72.781162,-87.213821,-60.763378,-92.698116,-108.262882,-119.986725,-54.612465,-89.946442,-107.867947,-121.715298,-46.151962,-79.768181,-97.48415,-110.902634,-37.100143,-64.184818,-78.275642,-89.727345,-18.468128,-18.669434,-6.172942,6.792175,10.05976,21.737627,26.893292,30.379227,27.31653,36.776631,40.991035,44.032243,39.427082,49.064963,53.129499,55.680902,46.89209,56.191269,58.419718,59.724998,22.719212,44.378471,67.554302,89.520149,7.593327,12.424221,14.383621,17.559471,-0.581131,10.439072,13.178329,13.090038,-3.486156,13.239727,14.61834,10.5653,-2.161331,13.033791,22.399864,26.441059,-19.529679,-40.695559,-56.014972,-66.098629,-50.915654,-84.093965,-79.780112,-69.722205,-53.914223,-83.568654,-74.273179,-64.392619,-54.465253,-83.179472,-74.364663,-65.604193,-54.086013,-82.113073,-93.174919,-99.117964,53.609505,297.319295,-78.541031,5.509634
42,0.515099,-0.125539,2.98605,-10.891661,-26.014137,-50.488586,-73.053131,-88.363781,-61.093769,-92.903309,-108.266659,-119.174881,-55.148392,-90.233974,-107.262039,-119.78817,-47.124939,-80.89262,-97.805843,-110.028419,-38.689842,-65.817146,-79.743233,-90.786724,-19.206539,-19.566668,-6.976994,6.06599,9.7578,21.325999,26.524704,30.032745,27.276207,37.248775,41.673562,44.490925,39.658091,48.93152,52.698851,54.882593,47.584312,56.318228,58.19717,59.300835,22.1842,36.913204,45.902309,54.060631,24.999275,33.184261,39.611835,45.623131,13.488407,19.283981,20.648403,20.128384,3.017063,10.373669,9.512215,7.163773,-6.122532,-2.940102,-2.745781,-4.24696,-10.508747,-25.856843,-42.212458,-52.839272,-42.962263,-72.410756,-90.438696,-102.962637,-51.804952,-76.380999,-73.925772,-68.812251,-57.165012,-78.323574,-74.034298,-68.385617,-60.183063,-79.7924,-82.65234,-82.302277,55.179234,298.165801,-74.500351,-4.409983
43,1.271782,-0.526484,-12.289581,-8.835372,-26.406555,-50.759125,-73.247395,-86.986771,-61.08696,-93.388996,-108.765507,-119.964752,-54.995499,-90.558643,-107.858391,-121.094856,-46.586723,-80.29295,-97.501945,-110.324249,-37.63504,-64.304523,-78.243141,-89.527588,-18.363461,-18.803741,-6.102917,7.585297,10.246431,21.708481,26.820365,30.31266,27.653502,37.027029,41.776315,45.381983,39.757262,48.632278,52.851622,55.758523,47.302545,56.160456,58.459053,59.963602,-5.593357,-2.415733,4.232426,12.666264,4.018078,20.197048,25.67997,29.996853,11.370792,24.175701,22.652893,20.660477,18.938198,32.324753,28.315544,23.75473,27.606525,38.307552,40.548077,41.575012,-19.046174,-38.578076,-54.684251,-65.057394,-49.908443,-75.274431,-82.381719,-86.536935,-51.752094,-72.039235,-66.60455,-60.967756,-49.662985,-70.995097,-66.240408,-60.717358,-45.701511,-67.737454,-77.397658,-83.917359,57.166471,298.196645,-86.074476,-12.688027
44,1.956024,0.257684,-1.230698,0.778734,-26.224823,-50.710144,-73.407726,-88.265076,-60.354195,-93.852539,-110.391827,-122.77668,-54.683647,-91.64669,-110.23138,-124.631653,-46.832542,-81.717739,-99.656067,-112.973728,-38.500328,-65.995045,-79.962559,-90.945511,-19.222471,-19.854919,-6.999965,5.985591,9.012843,20.449205,25.517061,28.955262,26.519949,35.791403,40.093431,43.425236,38.891706,47.818778,51.962601,54.861104,46.894374,55.73481,57.990121,59.517888,-17.658863,-18.349342,-9.834366,0.813732,-14.088478,-3.195133,-2.529659,-3.256245,0.634861,11.264877,10.192394,8.49575,15.977898,25.848255,23.963013,21.320114,30.890293,41.174583,48.276443,54.823322,-20.836596,-40.666475,-55.618349,-61.943938,-58.743167,-78.041344,-68.629501,-60.19424,-55.974155,-74.473467,-64.822032,-57.03796,-50.665935,-69.994061,-60.322588,-51.099824,-44.678461,-70.5927,-86.246368,-99.05223,59.614305,299.262226,-86.813364,-11.101396
45,1.107788,-0.962936,-3.735924,1.964898,-25.844994,-50.696754,-73.805866,-88.684559,-60.773849,-94.164505,-110.771313,-123.123035,-55.009003,-92.298088,-111.178207,-125.735836,-46.876831,-81.881332,-100.212994,-113.975258,-38.270073,-66.023827,-80.389023,-91.947727,-18.809731,-18.999614,-6.244757,6.611246,10.013385,21.191445,26.353964,29.99835,27.562543,36.394149,40.688396,44.036504,39.832103,48.530081,52.554726,55.127557,47.626179,56.646679,59.044324,60.456679,-18.600826,-18.943462,-9.725418,0.592518,-17.476273,-1.495686,-0.156212,-2.512321,-1.431828,12.931023,11.843433,8.471832,15.356026,26.898365,26.633606,24.161453,31.588326,41.595554,48.193188,54.405613,-18.210999,-39.375027,-54.474824,-61.621786,-55.960168,-78.159195,-68.431837,-60.2969,-52.667853,-73.091554,-62.984401,-55.366871,-47.126741,-67.40854,-56.660696,-47.211864,-41.650838,-69.496075,-85.333543,-99.101631,60.844746,298.533525,-90.426636,-8.902264
46,0.866203,-0.282323,-2.161674,3.308031,-26.622162,-50.874023,-73.631344,-88.190804,-60.667076,-94.101849,-110.697441,-123.362675,-54.885063,-92.232056,-110.755577,-125.310574,-46.960831,-81.952457,-99.924145,-113.304977,-38.701973,-66.247959,-80.381355,-91.670208,-18.535683,-18.662457,-5.92489,7.034175,10.201971,21.630181,26.783068,30.281846,27.653255,36.850979,41.120032,44.449182,39.875823,48.985305,53.192978,56.002807,47.624388,56.620682,58.934593,60.392212,-17.564163,-17.290936,-5.239906,5.813942,-19.591599,-0.500278,1.703911,-1.786766,-3.420181,14.441185,14.539089,10.190105,13.470554,28.399487,29.560776,26.745358,29.662857,37.999992,44.283657,50.011883,-18.554177,-40.520744,-56.448645,-63.483623,-54.716206,-78.370597,-68.541043,-61.436411,-49.977912,-73.132001,-63.27327,-55.588832,-43.94749,-64.896071,-54.367347,-45.623242,-38.403075,-66.787578,-83.386305,-97.211111,62.060566,298.30653,-92.238693,-5.538904
47,1.427422,0.046745,-2.724495,7.034761,-26.193008,-50.804329,-73.781605,-87.807083,-61.081581,-94.831123,-111.764145,-124.382,-55.608215,-93.004818,-111.772156,-126.215286,-47.750587,-82.712746,-100.816097,-114.211006,-39.385185,-66.97443,-81.308155,-92.650681,-18.891427,-19.087423,-6.456129,7.299084,9.883956,20.718807,25.777833,29.273524,27.393471,36.525369,40.785838,43.729666,39.745035,48.815121,52.893489,55.259456,47.766043,56.584558,58.84839,60.001146,-16.471138,-17.393532,-7.62125,2.58316,-20.716839,-3.452396,0.737228,-1.695728,-4.730301,12.772236,14.845219,11.084003,11.970177,26.393051,28.630486,26.283188,27.621403,34.183331,38.455696,41.591377,-16.898185,-37.074855,-52.539196,-60.533744,-51.312863,-78.976214,-70.813211,-63.063226,-47.301587,-74.667765,-65.394088,-56.975654,-42.152745,-66.138582,-56.872994,-48.1434,-36.961141,-64.506148,-79.600542,-91.706525,64.267988,297.939655,-94.183187,1.082238
48,2.019196,-1.524,1.906986,4.809307,-27.520981,-52.690887,-75.45948,-89.720707,-61.70517,-94.425774,-110.38044,-122.463913,-55.983696,-92.338257,-110.041866,-124.055958,-48.117599,-82.841034,-100.630989,-113.97171,-39.603424,-66.963272,-81.210308,-92.803574,-18.125598,-17.965294,-5.041551,7.809636,11.819708,22.356613,27.478254,31.138757,28.864921,37.292432,41.823616,45.351046,40.706366,48.9435,53.120236,55.979033,48.206509,56.835697,59.183015,60.787229,-17.501278,-19.009953,-8.053436,1.889133,-23.301144,-5.311432,-0.446491,-3.738499,-7.025757,10.452232,12.992363,8.22773,10.217628,23.975887,27.164555,24.858627,26.652031,34.514809,39.558048,42.717533,-16.842394,-38.954661,-56.398226,-64.397313,-50.595941,-79.720739,-70.096289,-61.979537,-46.523841,-75.702918,-66.130986,-57.32158,-41.72815,-66.894283,-57.527116,-49.045975,-37.655679,-65.936071,-81.969535,-94.940209,67.002897,295.364061,-91.560488,4.839951
49,-0.472641,0.160922,1.640167,2.584255,-28.056107,-52.866325,-75.265217,-91.606064,-61.961403,-94.423714,-109.499187,-120.036736,-56.132927,-91.810455,-108.712635,-121.355267,-48.437462,-82.223167,-99.326305,-112.126637,-40.141068,-66.973286,-81.181812,-92.758942,-18.258732,-18.198093,-5.77249,6.205669,10.717957,21.733613,27.066194,30.779369,28.328372,37.739505,41.823245,44.609918,40.912303,50.209877,53.589231,55.577038,49.009635,58.492769,60.516021,61.611288,-17.025318,-18.508244,-8.463478,2.150688,-22.014141,-5.886726,-1.381588,-4.852524,-6.024399,10.550594,12.758217,7.601624,10.902271,25.144043,28.417339,25.610962,27.514458,35.772228,41.392479,45.088749,-16.836528,-38.351514,-55.403489,-64.467029,-52.907352,-80.766606,-70.840906,-62.227156,-49.21937,-76.518332,-66.377833,-57.334362,-44.241669,-67.315822,-57.231548,-48.575745,-39.661981,-67.782069,-84.531312,-98.462329,67.692919,294.699411,-88.757658,6.598634
50,0.975609,0.113559,2.675228,-0.683731,-28.102684,-53.137321,-75.356998,-90.529919,-62.796021,-93.908615,-107.345238,-116.04887,-56.60099,-91.488934,-106.395092,-116.577473,-48.517227,-81.787491,-97.525349,-108.36731,-40.101013,-67.217102,-81.248131,-91.872997,-17.70304,-17.282952,-4.891559,7.352189,11.517069,22.639986,27.522961,31.071325,28.890239,38.752644,42.216657,44.840494,41.210372,50.828246,53.994437,55.895732,48.96042,58.163207,59.646822,60.31879,-19.444771,-21.699486,-13.172379,-2.742805,-19.496441,-6.71814,-4.869747,-7.655811,-2.566738,7.715435,7.592926,4.516239,14.384136,22.387676,22.400093,20.173588,30.663528,41.367531,48.999081,55.713215,-17.878412,-38.008089,-53.867077,-62.58148,-56.79488,-80.398419,-70.791321,-61.812965,-54.656803,-76.951017,-67.460689,-58.396377,-49.446303,-70.54222,-61.25153,-51.636683,-43.444749,-69.83314,-85.909736,-99.27413,69.221792,293.74444,-85.529165,4.846373
51,0.822945,-0.058107,0.178585,-1.003321,-28.092957,-53.293419,-75.39505,-91.525497,-62.802773,-94.717083,-108.237991,-116.743412,-56.873589,-91.722507,-106.541862,-116.92131,-49.037476,-82.020035,-97.898827,-109.166851,-40.817757,-67.513905,-81.566162,-92.596893,-18.397362,-18.213161,-5.554264,5.792991,10.815646,22.158147,26.604548,29.449945,28.773407,38.225234,41.060319,42.926787,41.496092,50.880487,53.890511,55.576482,49.404776,58.163763,59.730247,60.575796,-20.118542,-21.150227,-9.935474,1.506901,-20.099888,-6.356049,-5.646343,-8.626328,-2.914238,6.907482,5.524578,2.410297,14.404907,21.689873,20.417461,17.937813,30.943336,40.525589,47.602673,54.347649,-18.93033,-40.755612,-56.597247,-63.783699,-55.988728,-79.196077,-69.096611,-60.618712,-52.956628,-75.402193,-65.51836,-56.673633,-47.821495,-68.354927,-58.881241,-49.252036,-42.766792,-68.672942,-84.594421,-97.821514,70.338306,292.938675,-85.057011,3.095394
52,0.497131,-0.278988,-2.367268,0.064838,-28.118134,-53.54599,-75.666103,-92.508545,-62.398682,-94.719486,-108.534336,-117.141438,-56.018257,-91.784477,-106.765652,-116.832619,-47.816162,-81.638718,-97.779465,-108.923607,-39.383354,-66.562386,-81.011353,-92.304039,-18.66468,-17.844264,-4.846172,5.61021,11.885472,23.079216,27.46541,30.591525,29.926658,39.153034,41.743217,43.620491,42.588209,51.741658,54.41613,55.854359,50.204876,59.151769,60.403512,60.782536,-19.148998,-20.03294,-10.153999,1.254673,-18.871651,-5.809822,-4.922676,-6.781197,-2.310734,7.274323,6.391468,4.084568,14.872513,22.552128,21.785717,19.627819,31.168671,41.902142,49.456444,56.327591,-19.829941,-40.376402,-55.547521,-61.668006,-55.060094,-77.088226,-67.264292,-58.368743,-52.605546,-74.915939,-65.658256,-56.665667,-47.970159,-68.531132,-59.545305,-49.833601,-42.84117,-67.691512,-82.899588,-95.598406,71.038656,292.173989,-87.22106,2.674534
53,1.322365,-0.187351,-0.594578,-1.059946,-28.142166,-53.817215,-76.247234,-92.704067,-62.927628,-94.873924,-108.88258,-118.468552,-56.851387,-91.966953,-106.960831,-118.09227,-48.971786,-82.418575,-98.936234,-111.145992,-40.866623,-67.909126,-82.440948,-94.24221,-17.861739,-17.277148,-4.89619,6.097915,12.55849,22.894397,26.775596,29.710346,29.97013,38.335397,40.275348,42.02449,42.424509,51.20233,53.86439,55.641135,50.291326,59.156401,60.847868,61.981791,-19.608765,-21.552658,-12.347603,-0.737801,-18.360558,-6.226215,-5.351315,-7.149868,-1.827621,6.317883,5.519772,3.966866,15.301838,21.731129,20.641937,18.942261,31.562977,41.55962,48.570557,55.473404,-19.427822,-40.126591,-56.340551,-63.161749,-53.883224,-76.112107,-66.635487,-57.881996,-51.435314,-74.157428,-64.905858,-55.672844,-46.930066,-67.678328,-58.741747,-48.850751,-41.951871,-67.060639,-82.635822,-95.614739,72.534199,291.560606,-87.64246,1.188556
54,-0.739975,0.152832,-0.610085,-0.77364,-27.373352,-52.866554,-75.358372,-91.829166,-61.872826,-94.724579,-108.959827,-118.11367,-55.676079,-91.778927,-106.848907,-117.592392,-47.851868,-82.273922,-98.957863,-111.214771,-39.974442,-67.867928,-82.770195,-95.102577,-18.310356,-17.877856,-5.477385,5.562909,12.263261,23.12942,26.688219,28.914692,29.889978,38.213378,39.745961,40.788432,42.438032,50.689369,53.168895,54.550561,50.50313,59.433722,61.394236,62.620537,-19.459133,-21.555977,-11.946774,-0.186138,-16.299362,-1.00256,1.080208,1.447563,-1.057148,6.81427,5.649204,4.957581,15.245762,20.481834,18.517056,16.8009,30.763721,40.130253,46.382504,52.647915,-18.61179,-39.572258,-57.188816,-64.798412,-49.417959,-73.868375,-70.632252,-66.869583,-49.128782,-73.982922,-64.803044,-55.246025,-46.870292,-68.514953,-59.9586,-50.547961,-43.533824,-66.227101,-79.496585,-90.375896,71.927862,291.620381,-88.118906,0.321859
55,-0.036964,0.799606,0.67503,-1.600694,-27.40345,-52.880058,-75.343494,-91.541233,-62.138901,-94.836845,-109.294624,-118.82143,-55.933914,-91.821041,-107.133923,-118.308792,-48.18203,-82.496052,-99.412193,-111.913548,-40.362167,-68.355446,-83.293018,-95.568924,-18.681352,-18.627753,-6.466812,4.433803,11.931415,21.860263,25.097776,27.250025,29.625007,37.497752,38.84422,39.77202,42.178742,50.395931,52.556208,53.679263,50.187092,59.110891,60.813596,61.757081,-20.545006,-23.368835,-14.121723,-1.959515,-17.077332,-3.638134,-2.752018,-2.93272,-1.449051,5.519085,3.864326,3.108959,15.000114,19.498901,17.128601,15.826378,30.431156,39.522057,45.344296,51.860447,-17.480585,-38.466462,-56.203403,-63.911028,-49.982358,-73.517385,-68.259893,-63.205036,-49.207514,-72.306213,-63.067517,-54.563529,-46.468945,-66.831761,-57.536564,-47.91057,-42.938921,-66.183628,-79.850446,-91.135457,72.021532,292.41006,-87.313242,-1.288762
56,-0.132751,-0.15981,-0.269051,-0.54961,-27.319679,-52.547264,-74.983177,-91.569901,-61.970901,-94.423084,-108.466473,-117.70586,-55.916519,-91.409855,-106.250095,-116.868839,-48.122864,-82.1101,-98.52562,-110.475597,-40.274849,-68.107681,-82.773571,-94.692764,-18.675548,-18.525741,-6.411051,4.238054,11.372697,21.753806,25.468957,28.070626,29.301188,37.657501,39.411212,40.686297,42.161267,50.897592,53.364521,54.729267,50.37506,59.592667,61.409488,62.48129,-20.68491,-23.203526,-13.20694,-1.716328,-19.159241,-7.392426,-6.849346,-8.825684,-2.730045,4.713192,3.793774,2.366009,14.36903,19.662781,18.567982,17.627506,30.774937,40.881443,47.558384,54.56171,-17.107581,-37.218147,-53.033878,-60.138201,-51.995638,-72.92452,-63.62006,-54.942954,-50.080233,-71.667713,-62.554588,-53.495524,-45.668845,-65.134767,-55.835865,-45.981889,-40.5527,-65.659151,-81.061587,-94.029421,71.976728,292.284892,-87.494345,-1.80373
57,-0.004463,-0.009942,-0.67028,-1.572382,-27.381477,-52.537308,-74.918232,-91.725197,-62.283669,-94.175205,-107.853699,-116.554012,-56.165886,-91.154766,-105.571918,-115.557632,-48.29258,-81.716709,-97.600479,-108.873711,-40.256195,-67.491188,-81.886654,-93.309975,-18.594778,-18.371921,-6.279399,4.20508,11.440931,21.488279,25.486433,28.42532,29.203437,37.624958,39.709405,41.381298,41.958911,50.920439,53.5938,55.330901,50.177644,59.60545,61.361631,62.328211,-20.589809,-23.329296,-13.435707,-0.493011,-17.657719,-6.159039,-6.054268,-8.82391,-0.960274,6.572742,5.082664,3.023357,16.166782,21.650848,20.403786,19.368896,32.649021,42.965298,49.505939,56.391449,-17.870291,-38.352996,-54.696724,-60.904771,-52.039882,-72.950733,-63.308313,-54.724882,-49.574219,-70.86891,-61.779404,-52.985775,-44.660121,-64.615538,-55.201163,-45.316744,-39.29611,-65.018213,-80.544119,-93.70835,72.086535,292.371976,-88.050356,-3.279086
58,0.107002,-0.027849,0.891552,-0.777438,-27.410202,-52.371254,-74.602776,-91.376839,-61.472626,-93.293381,-106.984978,-115.776215,-55.589676,-90.596008,-105.048122,-115.110283,-47.826462,-81.166992,-97.021465,-108.289719,-39.858284,-67.133446,-81.575432,-92.954636,-18.376552,-18.06391,-5.771502,4.922249,11.916162,22.081268,25.72905,28.270512,29.76376,37.886533,39.756397,41.155229,42.41148,51.22808,53.82876,55.294653,50.459843,59.879683,61.635988,62.442943,-20.604286,-23.407402,-12.983665,-0.559559,-18.816433,-6.537838,-6.567364,-9.246483,-2.10022,5.720787,4.160728,2.09507,15.025291,20.295238,18.666916,17.546082,31.39761,41.541138,48.351402,55.657539,-17.735737,-38.333297,-54.259161,-59.844671,-51.710196,-72.544816,-62.825147,-54.298774,-49.344229,-70.781749,-61.607707,-52.836864,-44.631407,-64.854945,-55.411856,-45.43583,-39.48414,-65.113988,-80.648601,-93.767074,72.249327,292.413827,-87.103014,-3.986823
59,0.018311,-0.027294,0.253658,-0.0783,-26.841774,-51.829948,-74.039383,-90.877876,-61.66729,-93.251209,-107.355595,-116.801605,-55.793266,-90.528088,-105.489693,-116.35231,-47.99366,-81.173573,-97.508583,-109.705982,-39.938507,-67.171097,-81.793156,-93.567123,-18.740015,-18.527964,-6.70171,4.094855,12.559725,22.332901,25.22634,27.07595,30.136671,38.153665,39.570961,40.585829,42.494719,51.463658,53.86544,55.286008,50.315903,59.839298,61.719475,62.828265,-20.719814,-23.964844,-15.034676,-3.949413,-18.039722,-5.879459,-6.069946,-9.001808,-1.532021,6.219234,4.397278,2.547798,15.390415,20.519943,19.011841,18.234901,31.577969,41.667023,48.566895,56.195183,-17.571296,-37.094831,-52.782276,-59.874187,-51.620072,-72.21899,-62.712761,-54.185616,-49.348397,-70.676743,-61.882681,-53.00785,-44.534644,-64.47061,-55.378387,-45.366052,-39.152571,-64.937289,-80.296685,-93.155529,72.277536,292.410678,-86.839457,-4.040978
60,-0.527229,0.078361,0.004234,-0.382606,-26.772652,-51.672821,-73.819427,-90.840969,-61.223259,-93.296413,-107.356052,-116.492043,-55.309296,-90.245934,-105.263386,-115.926704,-47.488174,-80.71312,-96.951656,-108.97522,-39.427986,-66.372414,-80.812054,-92.552948,-18.267069,-17.736447,-5.246068,5.098238,11.75981,22.996841,27.16166,29.844406,29.318849,38.56659,40.990664,42.577341,41.79941,51.45174,54.5597,56.458649,49.737425,59.615268,61.951595,63.441077,-20.45351,-23.878269,-14.534512,-2.749615,-16.871109,-4.201984,-4.389954,-6.406288,-0.978699,6.322861,4.56934,3.113022,15.656204,20.09594,18.437634,17.770958,31.36116,41.231174,47.531376,54.422035,-17.920803,-38.084597,-55.088438,-62.034464,-49.776019,-71.252936,-63.916369,-56.740169,-48.315992,-70.658743,-61.748405,-52.910902,-44.750153,-64.654132,-55.773744,-46.171586,-40.460043,-64.516707,-79.07415,-91.16837,71.747475,292.551006,-86.838055,-4.361617
61,0.082626,1.019808,0.53421,-0.117048,-26.630287,-51.903191,-74.316845,-91.578999,-61.860237,-94.863338,-108.983459,-117.08725,-55.510254,-91.654873,-107.063713,-116.977615,-47.165794,-80.960197,-97.473679,-108.81752,-38.513145,-65.403214,-80.084438,-91.584549,-18.643931,-18.465843,-6.804154,3.453762,11.369177,22.033967,26.633879,29.80044,28.94779,37.565493,40.512222,42.67571,41.452187,50.205431,53.501174,55.526526,49.429538,58.613862,60.790934,61.925166,-19.106541,-21.766376,-13.704529,-3.929787,-13.975697,0.736027,3.344936,5.44035,0.439453,6.770668,4.541988,3.812599,15.76973,19.614887,16.645889,15.377026,29.778957,38.967876,44.081726,49.472637,-14.511625,-33.684911,-50.833773,-59.65732,-46.797889,-69.604601,-68.538913,-67.109082,-47.920388,-70.165048,-61.879285,-53.209651,-45.926035,-66.369806,-57.766522,-48.641788,-42.199583,-64.694486,-76.494434,-86.285055,71.831589,293.712948,-86.302357,-4.336531
62,-0.114098,-0.091885,-0.623875,-1.189961,-26.766243,-51.91555,-74.321594,-91.602802,-62.222557,-95.607147,-109.954262,-118.25901,-55.797043,-92.42672,-108.063526,-118.346901,-47.348328,-81.820908,-98.505821,-110.064297,-38.680801,-65.773315,-80.439034,-91.670208,-18.775954,-18.165057,-5.842947,4.559156,11.347873,22.319378,26.729098,29.711149,28.979283,37.978109,40.818813,43.052078,41.518322,50.353077,53.503521,55.793905,49.501415,58.550876,60.528927,61.81772,-17.617321,-19.800739,-11.291084,-0.882339,-10.939865,4.083252,6.025314,7.641563,2.834473,9.59713,6.889801,5.642967,17.052498,21.483879,17.962646,16.119232,29.930248,39.193611,43.778744,48.58429,-14.691195,-33.639803,-50.51125,-58.857992,-46.486204,-69.126097,-67.32916,-65.312454,-47.127976,-69.289674,-60.9693,-52.505295,-44.941795,-65.361298,-56.636459,-47.591907,-41.155168,-63.309795,-73.819746,-82.531309,71.632233,293.687893,-87.01149,-5.459663
63,1.237335,-0.249163,1.914997,-0.143909,-27.627182,-53.055382,-75.673428,-92.754993,-63.044128,-95.926323,-110.055141,-118.955441,-56.623764,-92.820339,-108.606606,-119.394836,-48.057518,-82.244511,-99.136505,-110.935707,-38.996658,-65.964775,-80.422096,-91.597881,-18.193894,-17.631039,-5.379696,5.12195,11.236475,22.32969,27.690799,31.834375,28.814533,38.216465,42.345407,45.90186,41.381174,50.45867,54.30288,57.257329,49.46844,58.582184,60.931355,62.782323,-20.467815,-24.110813,-14.192333,-2.091637,-15.749416,-4.032383,-5.255699,-8.04697,0.455818,7.228489,4.492207,2.469063,16.655045,21.052322,18.564548,17.817879,31.587639,42.171364,48.433514,55.348892,-16.664491,-37.360667,-53.892672,-59.580286,-49.452848,-70.110831,-61.595943,-54.026547,-47.274819,-68.42733,-59.349247,-50.968759,-42.868433,-63.278889,-54.008454,-44.258527,-38.006761,-63.112225,-77.901634,-89.97211,72.848425,293.492838,-85.117636,-5.549463
64,0.101624,0.296217,0.582848,2.255496,-27.313499,-52.504463,-75.267506,-92.180099,-62.706985,-96.362228,-110.835514,-119.678822,-56.389961,-93.391457,-109.450951,-120.130291,-47.865601,-82.859173,-99.619789,-111.039562,-38.907967,-66.267242,-80.766048,-91.937714,-18.362411,-17.826294,-5.483992,5.275276,10.921487,22.228419,27.496223,31.356797,28.448168,38.282477,42.577403,46.090631,40.962939,50.276938,54.272005,57.327909,48.969744,58.195873,60.476995,62.274179,-21.523247,-25.360222,-15.469551,-3.135681,-16.147957,-3.185863,-3.913479,-5.742016,-0.155239,6.954918,4.290733,2.840939,16.215935,20.729828,18.273525,17.848549,31.488876,41.539135,48.041039,55.294018,-16.673846,-37.170907,-53.876617,-60.751661,-48.112864,-69.313386,-62.302245,-55.395492,-46.025731,-68.70885,-60.076605,-51.219373,-42.203967,-63.200775,-54.375437,-44.3761,-37.740648,-62.452422,-76.588449,-87.75774,72.705774,293.847332,-84.779062,-3.235691
65,1.183777,0.175371,1.283855,0.646589,-27.642288,-53.060989,-76.153736,-92.851925,-63.454514,-96.445713,-111.116238,-120.761547,-57.32872,-93.427277,-109.848633,-121.097889,-48.78994,-83.112259,-100.1124,-111.847343,-39.650116,-66.448059,-80.651436,-91.77372,-18.013645,-17.98314,-5.866845,4.774542,10.283234,22.343337,28.090015,32.131518,27.740199,37.902341,42.596607,46.14633,40.337469,50.067852,54.41187,57.498958,48.430107,58.031432,60.496014,62.193162,-21.798534,-26.159477,-16.473598,-4.690876,-15.661469,-5.603085,-7.367935,-9.778233,0.840454,6.27737,3.113937,1.60675,17.14365,21.081734,18.066044,17.70195,32.08271,41.873474,48.130074,55.61657,-16.534692,-37.298299,-54.298218,-61.034354,-48.7576,-69.864972,-60.893347,-52.617588,-45.98405,-67.799421,-59.567473,-51.253583,-41.504181,-62.361432,-53.389344,-43.347709,-36.592893,-62.308574,-77.195147,-89.244783,73.789959,293.974692,-83.594799,-2.637113
66,0.65712,-0.457324,3.655472,8.167727,-27.884789,-52.960968,-75.767784,-92.451954,-62.522964,-95.488186,-110.897884,-121.75478,-56.522255,-92.379341,-109.46497,-122.044544,-48.377724,-82.384701,-99.851074,-112.608032,-39.557076,-65.620995,-79.86208,-91.700306,-17.938803,-18.084534,-5.884938,4.648571,10.90043,22.964608,28.250628,31.602873,28.695108,38.358121,42.310209,45.021176,41.348076,50.954526,54.900068,57.395464,49.18587,59.121512,61.949681,63.682088,14.921379,24.529896,26.948433,25.448341,26.422577,37.600765,41.043892,41.957359,15.862083,19.242496,16.554623,14.638939,6.077957,11.709709,9.493446,6.710358,-1.892052,8.302746,17.543564,24.014797,-15.067842,-35.837346,-49.515803,-55.366006,-47.907699,-79.558305,-85.485541,-82.094517,-49.5552,-79.355701,-68.662784,-55.644778,-50.257827,-77.840223,-68.44039,-57.785603,-50.516407,-78.592343,-83.123866,-83.771103,74.304228,293.527897,-80.082178,5.541142
67,-0.506859,0.053785,-0.202961,8.721566,-27.805252,-52.484665,-75.231342,-91.965752,-61.188927,-94.705753,-110.419121,-121.652641,-55.495491,-92.168255,-109.436359,-122.225189,-47.958298,-82.679329,-100.151424,-113.358936,-39.8386,-66.218033,-80.560856,-92.573662,-17.89669,-17.959366,-5.777122,5.335915,10.588652,22.347289,27.771322,31.498638,28.766368,38.218688,41.596498,44.013656,41.744699,51.166021,54.654857,57.092331,49.87272,59.987993,62.673272,64.595871,-20.413399,-23.722858,-13.537617,-0.859509,-18.437748,-5.2771,-7.480545,-9.662991,-1.276932,9.995956,7.525406,5.337467,15.668449,24.096909,21.759567,19.883194,31.635475,41.595669,48.517342,55.341396,-21.393245,-45.942708,-64.428342,-70.231152,-59.170665,-82.158244,-72.209759,-62.038786,-55.140802,-81.405352,-72.68113,-62.541404,-50.015827,-74.879198,-65.010525,-53.776674,-44.672996,-71.480116,-86.945815,-98.953183,73.689623,293.351399,-80.392885,14.032426
68,0.327072,0.737053,-0.481968,4.659748,-27.073288,-51.998062,-74.949131,-91.758041,-61.049995,-94.488373,-110.521774,-122.006092,-55.611992,-92.277946,-109.693451,-122.732906,-48.383217,-83.091545,-100.514889,-113.695049,-40.626869,-67.123375,-81.387291,-93.210869,-18.523148,-18.815165,-6.945872,4.350934,9.674005,21.20435,26.426151,30.150133,27.975654,37.330656,40.385881,42.665397,41.194811,50.735806,53.964426,56.339717,49.611084,60.077223,62.717856,64.560488,-19.563904,-21.062222,-7.732143,7.055626,-12.756042,1.435432,-0.350819,-5.450993,4.546795,15.089149,11.781635,7.664738,21.241379,28.433647,26.580334,24.880428,36.225071,46.213474,53.391895,59.87566,-23.450306,-48.220989,-67.37044,-72.883085,-58.775709,-81.82578,-72.232668,-64.631377,-52.887653,-77.112463,-68.947546,-59.809041,-45.910382,-68.475742,-60.166637,-50.359036,-39.224572,-67.244593,-84.255844,-96.82304,74.042645,293.236543,-80.848904,17.840265
69,-0.219269,-0.23496,6.245956,6.936115,-26.946716,-51.649361,-74.511909,-91.229439,-60.869179,-94.04274,-110.210037,-122.184162,-55.364914,-91.643143,-109.155979,-122.574749,-48.027649,-82.399464,-100.139523,-113.705177,-39.915276,-66.221123,-80.834999,-93.172588,-18.466522,-18.824922,-6.83293,4.12431,10.11867,21.298273,26.368846,30.08091,28.159546,36.90958,39.719594,41.884008,41.18771,50.529436,53.772876,56.03572,49.424536,60.028996,63.358578,65.775551,-20.700302,-25.245724,-15.619354,-2.847347,-15.942364,-4.227791,-4.295425,-6.876812,1.064186,10.765572,9.015198,5.845013,17.38678,24.76862,24.188576,22.800407,31.768913,42.519608,50.536079,57.043648,-20.260125,-44.100847,-64.376348,-72.08774,-54.515394,-80.703342,-71.96958,-63.110341,-50.925534,-76.827887,-68.944119,-59.565158,-45.604624,-69.147864,-60.749345,-50.421218,-39.982126,-66.456133,-81.564236,-92.657728,74.059296,292.146679,-74.367027,23.921477
70,-0.633202,0.175989,-0.058594,5.595668,-26.61335,-50.96283,-73.637581,-90.563049,-60.178299,-93.326569,-109.516926,-121.820068,-54.824753,-91.103153,-108.990154,-122.75568,-47.498474,-81.645355,-99.803123,-114.176846,-39.088211,-64.994545,-79.888458,-92.987595,-18.141098,-18.94657,-7.433885,3.319208,10.030552,21.003044,26.060218,29.483105,28.322753,36.781015,39.441532,41.177645,41.385867,50.580256,53.996536,55.97928,49.602871,60.510772,64.174239,66.496796,-19.790955,-23.104362,-11.936646,0.972519,-15.145798,-1.48962,-1.773777,-5.619106,2.226906,13.248882,10.930653,7.347908,18.736839,26.079941,25.184784,23.703175,33.053627,43.269482,50.741787,57.078724,-21.096071,-44.697387,-65.061593,-72.777214,-54.564547,-79.917846,-71.077657,-62.701924,-49.973837,-76.42444,-69.174911,-59.842787,-44.015231,-67.150609,-59.403773,-49.774846,-38.222641,-64.464312,-78.933699,-89.447849,73.530149,291.834469,-74.321566,29.028946
71,-0.604706,1.602732,2.068405,7.902663,-25.913315,-50.418549,-73.347988,-90.495644,-59.842072,-93.92189,-110.832195,-123.505154,-54.19384,-91.778984,-110.404072,-124.578381,-46.731148,-81.85564,-100.290756,-114.521885,-38.367348,-65.386734,-80.327911,-92.95063,-19.315899,-20.498729,-9.137455,1.785266,8.41794,19.827872,25.275061,29.131313,27.091017,36.035009,39.047317,41.326401,40.510987,49.96374,53.559961,56.005956,48.993888,59.5148,62.789795,65.14582,-18.214645,-22.939339,-14.426365,-4.475327,-12.139435,3.137798,0.414677,-4.055214,4.979095,17.769756,11.846695,7.318726,21.423454,29.910564,25.967503,24.352913,35.681591,47.07653,53.849258,60.861111,-18.916529,-44.08612,-66.68708,-77.278232,-48.887431,-77.897743,-67.66746,-60.467949,-42.417964,-71.883963,-63.044824,-54.968951,-35.904437,-62.370757,-53.354054,-44.701586,-30.728734,-58.141965,-73.401881,-85.52889,72.693214,292.751031,-72.48539,36.245439
72,-0.176468,0.082375,5.393772,7.858697,-25.802536,-50.070076,-73.021832,-89.647465,-59.866791,-93.710403,-110.462093,-123.117428,-54.349937,-91.32803,-109.828205,-124.201126,-46.925011,-81.489086,-99.813309,-114.048557,-38.419647,-64.948654,-79.597149,-92.136898,-19.291878,-20.703246,-9.257992,1.645093,8.602203,19.679795,24.948834,28.787548,26.937197,35.522851,39.062446,41.90772,40.122207,49.224773,53.32179,56.312238,48.650433,58.783737,62.264237,64.840217,-19.359112,-21.697369,-8.530998,4.793015,-10.328865,0.052929,-4.155464,-8.229446,7.728195,16.341476,10.261402,7.42281,24.243793,30.700321,24.620075,23.298454,37.578735,45.318775,46.590385,50.384502,-20.839869,-46.533999,-66.74284,-72.758102,-38.012596,-70.690513,-59.192864,-50.96243,-31.70825,-64.704459,-55.164144,-46.281316,-25.177094,-56.884974,-49.045759,-40.255094,-19.972152,-45.577578,-48.128703,-47.846319,72.389431,291.812085,-67.218933,43.082815
73,-0.31105,0.503081,7.408504,2.238422,-25.769463,-49.9086,-73.20488,-90.29789,-59.578056,-93.066559,-110.022354,-123.063755,-54.273376,-91.397038,-110.078545,-124.657803,-47.073097,-81.833324,-100.173454,-114.407616,-38.889656,-65.857773,-80.764503,-93.54538,-19.617488,-21.326061,-10.714252,0.481097,8.684331,19.404202,24.708563,28.706223,27.097933,35.432819,38.662797,41.047228,40.299924,49.223106,52.747943,54.971452,48.691188,59.039816,62.354455,64.548879,-17.003746,-20.729542,-10.921211,-0.488605,-13.342667,0.74192,-1.572075,-5.397663,1.730633,17.039623,13.01857,9.318237,15.461197,29.825878,24.979534,21.095753,26.819687,38.657055,34.135952,29.85878,-17.266094,-36.746373,-52.246344,-58.630071,-25.637351,-55.252231,-48.228616,-38.777808,-18.933819,-48.139849,-40.179974,-28.903824,-13.092291,-36.453306,-28.828056,-19.451936,-8.618443,-23.978117,-18.289391,-11.093709,71.345186,292.08445,-60.543623,45.090521
74,-0.447922,0.730446,-7.069302,51.859293,-25.537033,-49.747696,-72.992992,-90.422974,-60.535698,-93.50172,-110.131817,-122.996292,-55.451202,-91.841068,-110.316925,-124.807091,-48.392601,-82.633839,-100.727749,-114.865322,-40.137863,-66.40789,-80.928955,-93.326797,-20.280009,-22.251082,-11.623465,-1.008446,7.728435,18.812819,24.122366,28.151581,26.138579,34.517678,37.183566,39.130433,39.412941,48.211881,51.306133,53.406758,47.904055,58.006546,61.225595,63.613175,-11.147404,-7.007675,6.987591,20.483665,0.538216,16.524696,10.235882,5.286598,15.703697,32.534294,25.099812,19.881706,31.303139,46.645546,38.525677,32.689362,46.875916,64.929314,71.633091,76.091595,-32.609806,-64.619491,-88.972217,-93.592259,-54.401588,-91.385299,-77.172022,-65.403721,-41.103174,-77.096624,-67.132393,-55.555796,-28.121477,-63.416623,-57.574262,-47.062428,-16.289759,-46.816384,-59.529466,-63.497331,69.237442,292.473524,-69.272747,96.608442
75,-0.198097,-0.868458,-2.693853,25.995596,-25.595512,-49.803314,-72.969475,-90.744267,-60.435791,-93.649406,-110.459003,-123.249149,-55.375214,-91.779442,-110.523605,-125.135651,-48.30162,-82.424526,-100.552025,-114.443779,-40.31044,-66.987076,-81.350613,-93.400726,-20.236969,-22.058729,-11.624824,-1.194685,7.481803,18.289422,23.451448,27.224522,25.716083,34.208493,37.326951,39.540333,39.006068,48.005511,51.417592,53.606891,47.564428,57.591089,60.592221,62.61535,-5.326939,1.286917,15.373907,29.250498,9.809818,29.717502,23.295822,17.064943,23.096466,44.713526,36.824426,29.918403,36.340771,56.603365,47.401714,40.430689,49.1399,70.440388,79.81719,86.401548,-33.010366,-62.60845,-86.230128,-91.081704,-50.968868,-86.532782,-76.06831,-65.543478,-37.140048,-71.977932,-64.264025,-53.504803,-23.72826,-56.346248,-52.149813,-43.095443,-11.265838,-37.335226,-51.108964,-58.614171,67.909412,291.039309,-73.096533,122.038281
76,-0.55069,0.5066,-2.693854,25.995596,-25.372353,-49.534836,-72.762566,-90.660152,-61.188927,-93.583145,-109.794788,-122.203903,-56.307449,-91.793976,-109.957237,-124.083652,-49.282722,-82.365704,-99.954872,-113.526134,-41.317177,-67.40799,-81.566849,-93.629322,-20.229003,-21.909108,-11.21511,-1.641388,6.657374,17.455051,22.657585,26.602942,24.913451,33.341703,36.023091,38.15311,38.25895,47.382882,50.453236,52.602768,46.803107,56.972536,60.04289,62.292951,0.493526,9.581509,23.760223,38.01733,19.081421,42.910309,36.355762,28.843288,30.489235,56.892757,48.549042,39.955101,41.378403,66.561184,56.277752,48.172016,51.403885,75.951462,88.001289,96.711502,-33.410925,-60.597408,-83.488039,-88.571148,-47.536146,-81.680265,-74.964599,-65.683234,-33.176922,-66.85924,-61.395656,-51.453809,-19.335042,-49.275872,-46.725363,-39.128457,-6.241917,-27.854067,-42.688461,-53.731009,66.162243,291.349991,-76.986866,147.837958
77,-0.146255,-0.329315,11.955414,7.720901,-25.730896,-49.891319,-72.718563,-90.521736,-61.396065,-93.468246,-109.436131,-121.535282,-56.345673,-91.25679,-109.23769,-123.429909,-49.143791,-81.714764,-98.954716,-112.336063,-41.010475,-66.800766,-80.791912,-92.741032,-19.958165,-21.469136,-10.498435,-0.89816,6.649037,17.757257,22.673578,26.037061,24.814712,33.22765,35.993142,38.105191,38.159223,47.299828,50.668313,52.954992,46.790016,56.628586,60.050547,62.437138,-0.686817,8.085022,24.663849,36.236629,6.475124,32.184448,27.265091,21.066685,15.609341,43.895073,40.053978,34.202042,26.411304,53.616085,51.861649,48.048363,37.119026,62.057934,74.832802,84.72187,-28.952607,-51.971648,-66.837905,-65.517959,-33.269393,-57.321858,-55.018598,-50.932018,-15.649839,-40.055856,-42.267509,-40.217765,-0.666719,-23.464539,-28.901725,-29.473533,10.938653,-4.499567,-13.759783,-21.523168,64.959841,292.413719,-66.087599,156.951902
78,0.694885,0.513578,-8.256912,50.924145,-25.078239,-49.280891,-72.406483,-90.408268,-60.414963,-92.994175,-109.974747,-122.882767,-55.649986,-90.782204,-109.602013,-124.286499,-48.59127,-81.653824,-100.047398,-114.194813,-40.32383,-66.8367,-81.615086,-94.165821,-20.078826,-22.171177,-11.969082,-2.329164,5.699748,16.219116,21.258753,25.300996,23.943228,32.166654,35.474685,38.177748,37.425875,46.118295,49.944536,52.808891,46.312871,56.17824,59.751489,62.315799,8.462849,26.898594,49.741402,63.543148,36.917267,67.638187,55.911598,44.371433,44.570904,76.228409,62.668762,51.29179,49.82254,81.042137,66.227818,55.276108,53.184357,83.118782,95.870247,104.857864,-31.089665,-50.689061,-57.170384,-51.509971,-31.584224,-42.345716,-42.989525,-41.493807,-13.050517,-25.782279,-27.454295,-24.080314,4.012912,-7.85033,-9.276023,-4.976898,19.053398,9.264414,0.220449,-6.982984,64.548883,291.422826,-75.450354,206.371575
79,-2.230797,-0.227921,-0.297775,9.063725,-23.622665,-47.120705,-69.998474,-88.693485,-59.700394,-92.542191,-109.166965,-121.772518,-54.941025,-90.775681,-109.325638,-123.663998,-47.797966,-81.165276,-99.26136,-113.357048,-39.459572,-66.257572,-81.104507,-93.596478,-20.002934,-22.17093,-12.313156,-2.999526,6.461378,16.665325,21.53348,25.347309,24.816811,32.969903,36.0862,38.681508,38.245241,47.014973,50.781254,53.610287,46.909997,56.799758,60.204243,62.536433,7.323303,27.23402,50.012054,65.140171,39.230232,74.022675,65.091305,54.444923,41.898823,75.61821,66.843109,58.5359,43.146458,74.537773,67.71183,60.050926,43.532925,75.160789,91.274872,104.782219,-27.217359,-44.480489,-50.456262,-44.160313,-21.726018,-32.171038,-34.60067,-35.405154,-2.043506,-13.375077,-18.301278,-20.923818,14.677579,2.985818,-2.939381,-4.547918,27.510982,21.419365,15.546716,8.346988,61.504555,290.302627,-76.561661,214.543022
80,2.360458,3.666184,12.608185,49.818195,-23.961983,-44.304314,-63.324509,-77.938099,-59.056664,-91.363678,-108.525467,-121.745739,-56.492958,-91.101837,-111.13369,-126.734848,-51.338997,-83.529797,-102.135544,-117.004967,-44.323997,-69.685822,-83.884964,-96.613541,-19.346651,-24.06253,-22.246512,-18.764962,3.573311,12.633085,16.973953,19.294719,19.59674,28.469472,31.700253,33.37443,32.398156,41.535303,45.03686,46.637307,42.000469,52.096167,55.853001,58.320671,17.386894,43.306732,64.17675,74.614449,36.902332,83.32386,83.901558,75.563164,34.008007,87.65213,89.386597,81.182098,32.580929,77.797966,72.981949,55.59288,31.181545,66.138268,63.370399,48.991642,11.259508,11.783955,5.455587,1.953968,18.782561,15.851331,13.344449,14.17456,13.516795,12.096041,9.33092,12.057138,5.034511,2.5033,3.98284,10.636076,-5.227419,-7.762768,-3.438633,3.856931,62.38698,293.930417,-65.431509,264.322824
81,0.598068,-0.085648,-2.884197,6.091987,-26.369476,-55.256767,-79.106827,-93.629665,-53.448029,-87.666893,-100.148907,-106.459064,-49.617462,-89.02977,-107.721977,-119.789143,-46.114426,-80.961914,-100.558319,-114.59198,-41.480598,-68.459358,-83.335133,-95.529327,-10.047965,-15.253031,-19.24396,-20.691699,4.519698,7.970373,5.277561,2.392273,17.886377,21.931647,22.760831,22.680865,28.228336,34.569486,35.633693,35.260473,34.985807,43.765913,47.963768,51.371588,10.615597,31.625462,53.851719,74.292583,24.265366,67.795086,90.703526,103.512783,24.639187,71.928577,98.280888,110.824871,27.375298,70.348492,94.103794,104.436436,31.40974,63.140202,80.112362,86.944714,-28.130894,-37.219505,-38.413758,-34.198737,-14.471333,-12.551759,-15.52782,-16.462413,6.981502,7.199048,4.563602,5.066807,22.462762,24.214127,19.997192,19.100267,32.472319,36.563839,33.586296,30.749853,61.942606,293.577853,-69.358149,270.147895
82,-4.248161,-2.898873,-7.517281,12.77616,-29.276733,-57.819901,-78.502007,-92.631569,-52.559624,-80.521603,-92.838993,-99.192181,-50.029793,-80.954647,-97.847099,-108.192444,-45.539932,-75.136757,-93.835545,-106.536255,-39.231148,-61.804619,-77.331676,-90.279579,-13.265841,-12.66186,-5.984912,1.719502,5.450956,6.965879,0.106705,-7.582086,19.051793,24.151821,20.448958,14.456759,30.339336,37.977121,36.306834,30.670195,38.343857,47.860089,51.460632,51.649218,21.039677,43.538246,65.703678,86.188259,43.646336,85.286236,96.796932,97.638645,42.440186,86.179447,98.787518,97.144947,43.684101,82.920971,93.702679,91.820126,44.867477,72.851658,83.287296,83.274593,-27.008704,-33.663237,-32.053836,-27.162339,6.102176,12.614004,3.29809,-2.144592,30.58714,35.32457,20.392765,11.50404,46.623599,53.541127,40.943364,32.314793,54.909516,64.319908,56.495452,48.805673,56.599932,290.63858,-77.969942,282.883655
83,-1.38073,-0.907669,-9.536991,1.342886,-23.968849,-48.755836,-68.763084,-86.956215,-50.774117,-72.805481,-87.402306,-97.786674,-47.125282,-69.314919,-84.418259,-93.450336,-42.292099,-63.794003,-77.732849,-87.313728,-35.451736,-53.495865,-64.418964,-73.175812,-16.736832,-21.383427,-16.465686,-14.091506,7.562202,18.45374,20.643842,19.563827,24.576417,35.840804,36.895068,34.645377,37.085877,50.623111,51.699915,47.905105,45.565876,57.462278,59.443046,56.987788,27.067966,54.358692,77.512207,97.386246,50.11282,86.797829,105.455132,117.849312,42.393036,82.585716,104.199944,117.865448,36.828117,72.527161,93.625031,107.72438,32.823143,59.212074,75.537415,88.668022,-16.426165,-16.765731,-13.135362,-10.456753,13.85037,27.876853,31.567181,34.022501,32.167889,45.720005,48.612765,49.333083,44.550576,59.95471,62.760031,61.774248,52.132538,68.002024,71.919779,71.795537,53.718338,289.503407,-89.007797,283.999037
84,-1.134682,0.617628,-0.00967,9.335736,-20.962715,-42.580261,-59.358559,-69.181881,-46.41758,-65.51302,-73.231544,-73.83831,-43.09124,-61.497917,-67.392883,-66.125336,-38.681145,-55.657425,-60.34996,-60.26207,-33.381271,-47.444687,-51.662865,-52.695236,-16.490818,-21.349649,-14.526846,-5.752977,4.748607,17.756393,25.761469,29.539112,21.44882,35.057808,43.407761,46.728328,34.549479,48.439123,56.597587,59.264958,43.857674,56.086849,62.512165,64.925495,26.774311,52.05019,75.803204,96.04929,51.751671,85.408344,104.496861,118.011761,43.587399,81.502934,103.896847,118.906689,36.787548,71.502914,92.55106,107.357769,31.685371,57.475204,73.664932,87.546215,-14.591684,-16.391894,-12.793697,-12.68866,17.397191,31.333641,36.870245,40.427562,34.651985,48.870758,52.21479,53.952014,46.118727,61.889844,64.682692,64.806069,52.283086,68.19135,72.223282,73.679542,51.651249,289.667617,-89.949875,292.881355
85,0.621872,3.677608,3.187122,6.250685,-23.336105,-45.180817,-59.764938,-66.958466,-44.385796,-63.536282,-66.695938,-64.076843,-39.18354,-55.707779,-52.276497,-44.806137,-33.531189,-48.47065,-41.686134,-31.332779,-27.574425,-36.952858,-34.607735,-28.410873,-17.964739,-21.604987,-13.133819,-3.221704,-9.429967,0.096269,5.833006,7.529598,7.143658,20.82545,27.922425,30.351871,22.320736,36.588786,43.741954,46.961003,34.273393,46.594823,53.221322,56.183242,25.691986,50.526638,74.609756,94.198494,54.038143,87.393723,106.461182,120.050926,45.128918,82.21138,104.481697,119.454689,36.971798,70.592022,91.238136,105.475044,29.832687,56.522312,72.639313,86.089897,-15.631746,-18.740694,-17.381938,-19.830466,17.702608,33.188747,40.112944,44.466286,34.051832,48.816047,54.501284,57.825185,44.785968,60.315271,66.070347,68.351161,51.503487,66.062011,70.799441,73.118539,51.872492,293.191095,-87.163382,298.977911
86,3.171959,-2.316937,1.276932,-0.249842,-22.967491,-43.968887,-60.122337,-70.081673,-38.430862,-64.012413,-76.056118,-81.854782,-33.818207,-57.947502,-62.574463,-60.775566,-28.893013,-49.114494,-47.767639,-41.847496,-23.973541,-39.502144,-41.252975,-38.367462,-15.629585,-19.033576,-11.972293,-4.116159,-9.031183,0.837891,4.181306,2.777101,6.200853,18.7917,20.765861,18.861293,20.384614,31.317956,34.263142,34.688664,31.90582,40.829558,43.296363,43.158474,25.58979,49.951229,73.289623,92.085686,53.508167,87.329521,105.646477,119.853058,45.133324,82.461891,104.393234,120.49324,37.246628,71.529751,91.974106,106.904984,30.173206,57.73098,73.98056,87.421989,-15.416176,-18.389149,-16.062949,-17.589975,15.817183,30.354835,37.036168,41.288487,32.85159,47.573011,53.548167,55.975513,43.932084,59.739819,64.908822,65.670946,50.682947,64.707701,68.489358,68.650835,54.829473,290.890414,-86.101427,298.744325
87,-87.682915,17.970358,1.622372,0.390757,15.835991,27.044106,32.627563,34.014473,17.400112,44.295387,59.582748,67.355232,10.406113,39.599648,57.980347,71.01162,1.870251,31.003876,50.656128,63.441696,-7.283649,15.521965,32.655144,43.251114,-28.137254,-39.551818,-41.40007,-36.105281,-15.923764,-0.809548,4.279304,6.721224,5.387353,21.667232,26.303267,28.037589,22.667218,35.123387,36.333263,36.626763,36.788858,47.953332,45.404584,41.684677,25.057411,49.726582,72.646065,92.032299,55.844536,90.066776,108.677845,122.109203,48.001099,85.303631,106.443501,121.536312,39.883575,73.571949,93.457088,107.515011,31.867905,58.787842,74.731808,88.014164,-16.435428,-19.153928,-15.861396,-18.45621,15.393575,26.939605,31.869017,34.928874,32.01833,42.913696,46.267608,47.451548,42.819218,55.146514,58.444604,58.404219,49.189143,61.18768,64.097607,64.175906,-32.836018,308.939086,-84.461632,299.213397
88,-1.993847,1.418222,0.557728,-1.204936,15.805435,27.540836,32.546253,31.440296,17.964249,48.448048,63.181973,69.025555,11.191063,45.339718,62.3176,73.190174,3.055,36.732273,54.396343,64.437962,-5.804958,20.376492,36.203556,44.629498,-28.453972,-39.487412,-40.720445,-36.415391,-17.337046,-1.343812,2.888499,3.931525,4.425961,21.448141,24.529548,23.76761,22.273991,34.811733,34.565287,33.298045,36.897106,48.546445,44.738359,39.96357,24.039116,48.335438,71.308193,90.56694,53.491116,88.046265,106.956367,120.469322,46.202602,84.722328,106.679077,121.82785,38.862133,74.169273,94.224586,107.527542,31.913452,59.13208,75.126228,87.817383,-16.300565,-18.945582,-14.771254,-14.435517,16.19596,28.665715,34.154029,37.808975,33.155093,43.901455,47.465998,48.995741,43.92455,55.785013,58.509874,58.095405,50.096071,62.061449,64.797116,64.329727,-34.824286,310.327884,-83.898325,297.979037
89,13.920937,1.572721,-1.49231,-0.316162,9.92403,16.627979,16.403103,13.05685,4.312534,27.841358,43.639469,52.669659,-1.825619,24.264965,44.229984,60.279865,-9.65229,16.573734,37.508755,53.077068,-18.229122,0.982819,18.512478,30.8951,-26.794121,-38.023742,-39.646667,-37.842381,-13.546867,0.622382,4.686609,5.5915,6.684235,22.358095,25.083635,24.98329,22.422069,34.486432,33.734374,32.483372,35.519578,47.436296,43.462101,38.511694,25.028973,49.893894,72.932224,92.091637,53.870487,88.275948,107.255287,121.091423,46.303024,84.393997,106.322823,121.773148,38.831177,73.409615,93.637848,107.188797,31.839066,58.977242,75.003662,87.645149,-17.050153,-19.227349,-14.05143,-13.466715,15.688124,27.915323,33.623779,38.029423,32.814169,43.954129,47.971796,50.242605,43.741769,56.071597,59.32041,59.57476,49.9609,62.277143,65.185093,65.006635,-20.810452,311.852564,-85.297737,297.614833
90,-0.195293,-0.041435,1.112022,-0.720874,12.601662,20.24437,20.924835,17.980156,3.728714,28.009644,45.161705,55.078125,-3.796005,22.28611,43.35125,59.757843,-12.39212,13.409386,35.020409,50.747108,-21.547737,-2.205105,15.336914,27.938004,-25.427523,-37.125891,-39.667106,-38.258888,-13.985419,2.730356,7.051959,7.705957,6.302988,24.169235,26.693777,25.897691,22.271336,36.164191,35.350876,33.770251,35.546748,49.123996,45.441572,40.313201,24.510784,49.052296,72.114143,91.169128,52.650375,87.062187,105.871696,119.429398,45.247078,83.767891,105.556755,120.869293,37.914848,72.936516,92.928085,106.707001,31.111164,58.211803,74.068565,87.002792,-16.128961,-18.062675,-12.720029,-10.549255,17.805299,30.20435,35.508092,39.320872,34.414863,45.550624,49.389091,51.175901,44.88588,57.397378,60.499843,60.419444,50.681836,62.940466,65.697498,65.372135,-20.920687,311.746229,-84.100657,296.829059
91,6.159668,1.473148,-1.052971,1.459224,10.109253,15.430641,14.033889,11.166229,-2.253027,19.189624,35.29129,45.534954,-8.980236,13.550376,34.296112,51.56044,-16.476832,5.673637,26.531124,42.595195,-24.317809,-7.879343,8.769607,20.99327,-25.504062,-37.109311,-38.888371,-35.982057,-13.579409,1.010114,5.363425,6.217896,6.272329,21.783045,24.567988,24.647091,21.838034,33.873004,33.221784,32.182741,34.646798,46.902155,43.245049,38.453711,24.453964,49.336109,72.652645,92.444,52.732944,86.93058,105.951805,119.827766,45.632629,84.265594,105.962105,121.014175,38.854923,73.91922,93.946381,107.279205,32.626991,60.007782,75.979156,88.574524,-16.988959,-19.381231,-14.32097,-12.515574,16.185771,28.162757,33.292982,36.843569,33.42241,44.162042,47.672738,49.010252,44.487158,56.506258,59.08125,58.432007,50.668127,62.639618,65.182994,64.699673,-14.707031,313.087479,-85.09964,298.156384
92,6.159668,1.473149,-0.282326,0.324931,7.616844,10.616913,7.142944,4.352303,-8.234768,10.369606,25.420876,35.991783,-14.164467,4.814644,25.240974,43.363037,-20.561543,-2.062111,18.04184,34.443283,-27.087879,-13.553581,2.202301,14.048538,-25.580602,-37.092731,-38.109637,-33.705227,-13.173401,-0.71013,3.674891,4.729835,6.24167,19.396854,22.442199,23.39649,21.404731,31.581816,31.092691,30.59523,33.746847,44.680313,41.048525,36.59422,24.26199,49.170055,72.647152,92.39502,52.139282,86.21727,105.161934,119.020157,45.301094,83.914375,105.815849,121.238251,38.776588,73.922367,93.831367,107.195435,32.79253,60.05722,75.929146,88.506203,-16.52052,-18.662642,-13.494318,-10.934392,16.889602,28.774951,33.841325,37.266435,34.020834,44.596024,48.005944,49.281645,44.963192,56.743503,59.135591,58.359018,51.160957,62.952569,65.101916,64.170225,-8.366575,314.427108,-85.201178,298.347795
93,-13.178101,13.182107,-0.500736,0.499067,8.489513,16.840096,21.416016,25.180321,-1.712494,17.869949,34.670219,47.139359,-8.167248,15.592575,38.270187,56.626968,-11.141052,11.727791,31.771088,47.640038,-11.551151,3.684139,18.227692,30.319519,-24.33664,-37.067846,-38.34293,-36.75718,-14.680049,-10.204811,-5.553215,-1.814165,0.98813,6.029866,10.14127,13.507162,13.683459,18.337896,19.014866,19.361162,24.133173,26.838643,25.800495,24.465204,24.524632,49.417706,72.847652,92.953434,52.300014,86.585255,105.569973,119.626637,45.252056,83.734303,105.394192,120.544682,38.697109,73.794193,93.827534,107.382145,32.780113,60.327644,76.234531,88.726788,-17.068864,-19.350603,-14.452869,-12.685696,16.522558,28.563332,33.350163,36.618982,33.739561,44.366436,47.387204,48.130309,44.815609,56.691756,58.938422,57.934113,50.913894,62.770529,64.934942,64.078279,-21.434441,327.473488,-85.591679,298.711134
94,-9.520226,1.009928,1.396523,-0.044646,9.329967,18.917313,23.822937,26.397171,8.48299,29.125214,44.466476,55.872459,4.298801,30.214119,49.01207,65.32196,1.877632,27.778358,44.331207,57.820129,0.073299,17.031212,30.77179,41.993637,-19.434028,-31.472271,-37.493368,-41.480407,-13.596206,-7.506442,-2.391902,-0.776141,1.882894,9.516726,13.053852,13.511175,13.92373,21.130373,21.382439,19.344058,22.778986,28.891474,28.113728,25.180521,23.707352,47.847519,70.85741,90.437222,51.002369,85.291157,103.872013,117.646351,43.938732,83.116207,104.588642,119.694386,37.32399,73.369503,93.417149,107.502422,31.511135,59.844074,75.69746,88.475018,-16.823344,-19.279652,-14.094655,-11.717388,16.160886,28.850039,33.421855,36.207786,33.818663,44.778373,47.725844,48.273632,45.166721,57.250351,59.487506,58.615776,51.368562,63.201176,65.060543,64.208696,-30.658064,328.406182,-83.898554,298.589254
95,25.449486,-15.688124,-0.963821,0.317397,6.941414,8.603096,2.810898,-2.675743,-14.446106,3.512878,20.433197,32.548714,-20.769711,-1.73481,20.865898,40.35656,-26.362553,-8.218803,13.924255,31.61087,-31.422558,-18.219566,-1.38382,11.420975,-23.309052,-34.562014,-35.152966,-31.286093,-11.951916,0.408788,6.038635,8.172791,7.25555,20.519971,24.87356,26.359213,22.59392,32.690853,33.55011,33.739561,35.485677,45.770208,42.983536,39.244733,23.588848,48.010712,70.998802,90.866718,51.94519,86.52998,105.523281,119.594593,44.654617,83.340282,105.036793,120.105114,38.008289,73.356228,93.658962,107.478046,32.1912,59.818783,75.758915,88.256779,-17.645118,-19.772111,-14.718643,-13.592254,15.636069,27.993623,32.956627,36.268363,33.47743,44.135675,47.315821,48.384041,45.018335,56.828781,59.116263,58.252004,51.348123,63.338386,65.560412,64.799462,-4.877071,312.661617,-84.530869,298.850212
96,-4.257317,11.293718,-0.602131,0.526793,5.366364,7.451706,6.542587,5.984917,-16.982403,1.859436,20.740929,34.369812,-23.847656,0.926399,24.459801,43.683128,-25.544186,-2.578926,18.62709,35.498314,-23.958607,-9.490471,6.18576,19.662666,-23.889691,-37.253591,-38.424935,-36.126646,-13.330555,-6.024123,-0.632695,2.632482,4.115912,11.855215,16.260365,18.087745,17.635979,24.149598,25.137975,24.526337,28.288605,31.566008,30.038488,27.387975,23.494091,47.679749,70.770264,90.693398,51.165047,86.13018,105.226479,119.539146,44.261799,83.160439,104.926529,120.315285,38.091717,73.646564,94.045372,108.127785,32.711735,60.54903,76.446762,89.149704,-17.770101,-20.322925,-15.433774,-14.26558,15.56944,27.788859,32.484545,35.663827,33.376592,43.784685,46.583832,47.283587,44.774915,56.295442,58.364205,57.399725,50.973545,62.695132,64.766487,63.992384,-8.817902,323.814128,-84.816513,299.235797
97,-18.168011,3.351504,0.080051,0.583294,8.391266,17.188797,23.469944,29.334126,2.484169,22.409077,40.17374,53.639889,-4.73711,20.051022,41.745243,61.379871,-7.948494,14.107933,33.445415,50.274181,-8.65448,5.612755,20.259075,33.778896,-21.446783,-34.975001,-39.601095,-43.149027,-16.347989,-8.680317,-2.341884,0.641525,-0.232429,8.363291,14.281388,16.936779,12.954434,20.646497,23.726423,24.450693,23.641948,28.899255,28.799528,26.871803,24.316463,48.689861,72.21096,92.379971,51.635914,86.438885,105.649395,119.802532,44.627151,83.501759,105.217037,120.17252,38.086567,73.706303,93.990612,107.528973,32.106113,60.09161,76.027164,88.753223,-17.531498,-20.553378,-16.252955,-15.186588,14.744331,26.86112,32.105953,35.830738,32.074275,42.846203,46.249391,47.360899,43.44796,55.334359,57.807525,56.98291,49.99511,61.77079,64.210548,63.606074,-26.747761,327.105085,-84.49831,299.758545
98,-10.889397,-12.232448,-0.457363,-0.20742,14.205666,29.273357,39.932041,44.416752,13.956127,37.069645,55.495205,69.669628,8.209305,36.253681,58.296719,75.779972,4.344807,32.448063,51.940212,66.082706,3.341503,21.654854,36.328297,47.232571,-18.549824,-26.702484,-27.234278,-24.093714,-7.66582,4.88032,11.627294,14.436999,9.813499,24.811995,30.345449,32.388215,23.722162,38.212699,38.434506,36.092004,33.918822,45.349132,44.426581,41.307568,24.314919,48.991013,72.483158,92.436218,51.336994,86.351738,105.788498,119.839325,43.96986,83.46508,105.667877,120.850525,37.044239,73.588371,94.458733,108.512993,30.870495,59.290752,75.720749,89.003334,-17.15377,-19.855351,-15.832435,-15.626065,14.714012,28.080135,33.213262,36.163388,32.168939,43.765357,46.796747,46.973909,43.728616,56.15107,58.358524,57.071275,50.317076,62.533531,65.012933,64.337013,-37.395544,314.869735,-84.71406,299.548223
99,21.250591,-0.281952,0.271568,0.913227,10.26226,15.64167,14.132996,11.083374,0.474415,24.707565,39.878197,48.567924,-5.411224,18.832512,38.546448,53.807945,-12.419186,10.853691,31.289749,46.193848,-19.232311,-2.0961,13.456879,24.32476,-25.095985,-36.634049,-38.728747,-36.961203,-15.256551,-2.967787,1.047225,2.352011,4.209587,17.949486,20.894425,21.229915,20.182011,30.603134,30.375028,29.917828,33.473046,43.790181,40.290044,36.30245,23.985214,48.468018,72.036953,92.441025,51.139469,86.384468,105.67955,119.692268,44.089737,83.91758,105.808525,120.537643,37.615242,74.413891,94.8349,108.297386,32.024975,60.815105,76.932335,89.523125,-17.512232,-20.75561,-16.792469,-16.295316,15.125949,27.741126,32.575627,35.579291,32.732967,43.429868,46.140772,46.260012,44.167291,55.692203,57.589175,56.212573,50.490595,61.766899,63.825411,62.950593,-15.930376,314.584711,-84.227915,300.458378
100,-0.571976,8.54706,-0.123367,0.323016,6.336308,8.848228,10.426483,13.287277,-8.268242,15.877304,33.743134,47.560158,-15.510349,10.355301,34.823112,57.244835,-17.530918,5.900288,26.470413,43.339348,-16.742134,-2.58791,10.615196,22.191696,-22.545693,-34.539784,-35.628444,-34.627038,-17.335502,-15.660584,-12.126237,-9.177655,0.503451,8.168653,13.421329,15.388388,15.752283,22.669997,24.907955,24.557707,28.518934,32.84418,31.388661,28.36499,23.754959,48.450508,72.339306,92.858276,50.842094,86.618843,106.188011,120.321465,43.965912,84.56749,106.700478,121.226006,37.734604,75.183792,95.705681,108.93013,32.344894,61.432343,77.699432,90.190544,-17.334329,-20.723068,-17.226574,-16.988465,13.949233,26.374342,31.327713,34.588258,32.044635,42.875411,45.669617,45.795835,44.027982,55.653053,57.441036,55.934449,50.689308,62.132338,64.193567,63.233533,-16.224604,323.126537,-84.073534,300.776161
101,-11.126976,2.215605,-0.307217,-0.218596,7.089844,14.528675,17.094784,15.258007,0.816822,24.586487,42.682114,54.903831,-3.657703,25.540352,45.457878,62.302437,-5.097485,22.256241,39.582024,53.733673,-4.856701,11.81797,25.578346,37.264252,-20.712014,-32.822876,-37.460702,-40.400763,-12.31544,-4.276525,1.518257,3.012556,4.04669,13.259481,17.062936,17.451346,17.067382,25.84724,26.226758,24.019428,26.685132,34.735471,34.209296,31.378225,24.020119,48.85746,72.704659,93.480892,51.666069,86.949978,106.389713,120.518246,44.670181,84.693775,106.59296,121.208324,38.146362,75.018082,95.338039,108.496227,32.372761,61.031971,77.170429,89.748402,-17.493151,-20.657983,-16.606724,-16.328908,14.744084,27.099354,31.867473,34.876633,32.693015,42.979707,45.67925,45.834984,44.428001,55.601985,57.420164,55.922779,50.997195,62.305301,64.273657,63.063596,-27.104816,325.328232,-84.133987,300.543655
102,5.825672,-9.36692,-0.346012,0.587864,11.041031,17.479877,16.931248,13.82658,2.908859,29.283199,47.289791,57.327747,-2.938786,25.17271,46.638279,62.473011,-9.621964,17.306271,38.81979,54.300556,-16.879921,4.559784,21.533947,32.946224,-26.224844,-38.251478,-40.327095,-37.773221,-17.489013,-3.627157,0.397549,1.099775,3.144331,18.644796,20.491998,18.908161,20.280379,32.198085,30.93251,28.974961,34.523112,45.594219,41.519433,36.533643,24.435768,49.544621,73.79488,94.485626,50.75386,86.286392,105.93132,120.43602,43.931122,84.447098,106.687889,121.939774,37.993412,75.33102,95.917511,109.779854,32.877903,61.744709,77.860336,90.609283,-17.019834,-20.374919,-17.028973,-16.657853,14.232729,26.502474,31.045761,33.769324,32.184932,42.767656,45.301275,45.278798,44.045704,55.556969,57.2267,55.626253,50.712896,62.164881,64.110574,63.038958,-21.011896,315.878366,-84.212751,301.048573
103,6.110916,7.504466,0.351562,0.380506,4.69511,7.202969,8.525791,10.026569,-10.628242,14.26981,32.861652,46.633587,-17.116013,10.865993,34.445286,54.435368,-17.882366,7.67767,27.140408,43.348217,-16.124439,0.656662,14.096775,25.989361,-21.98926,-34.049362,-36.574213,-36.888029,-13.277265,-6.711097,-0.719639,2.996624,5.805527,14.094161,17.146978,16.041337,20.62649,27.023339,27.298807,25.028368,32.81528,37.400557,34.191388,29.043133,23.740768,48.723507,72.827969,93.411026,51.14399,86.596985,106.341934,120.785294,44.301796,84.69017,106.840897,121.747055,38.165531,75.198097,95.539055,109.048004,33.019695,61.59708,77.747726,90.409584,-17.143643,-20.679101,-17.238863,-16.616974,14.734142,26.879275,31.42287,34.06233,32.699992,43.33613,45.781879,45.584154,44.382429,55.892336,57.256896,55.313055,50.787491,62.18143,63.886791,62.510807,-14.674673,323.297416,-83.634882,301.343662
104,-20.245457,14.011601,-0.548515,0.182596,11.277237,23.744202,30.153694,33.358841,13.255005,37.748337,54.113159,65.040665,7.875595,36.859589,55.70755,72.531967,4.600067,32.653542,48.544922,62.559013,2.575264,21.325951,34.268875,45.388412,-21.56769,-38.825572,-48.064483,-53.238241,-21.674333,-16.417397,-10.853376,-7.790864,-5.856224,0.87525,4.324505,5.305657,7.133469,12.680015,13.544335,12.473027,18.129921,22.529576,20.95352,17.577317,23.554573,48.907127,73.344498,94.344292,51.04866,87.042732,106.954422,121.572075,44.263916,85.220833,107.464828,122.336426,38.355789,76.081982,96.665268,110.338669,33.498917,62.605305,78.914909,91.711235,-17.437452,-20.91116,-17.35094,-16.383928,14.272126,26.434116,30.811171,33.421855,32.518076,42.994404,45.170673,44.713967,44.475672,55.912837,57.020516,54.802688,50.987994,62.513832,64.246549,62.688154,-34.735451,337.309881,-83.998718,301.527123
105,4.114323,-21.724783,0.207825,0.308443,13.094616,22.760067,26.025295,23.336277,9.568405,41.823978,59.884701,67.719097,4.695053,38.314991,58.434162,71.724758,-0.982018,31.430798,51.815128,64.496899,-7.382298,18.446217,34.589024,43.739376,-26.911694,-39.309016,-42.073458,-41.236493,-15.872882,-1.315407,0.7352,0.510614,5.339805,20.263089,21.151801,18.62837,22.442199,33.121192,31.007228,28.415131,36.496099,46.291258,41.088786,35.499077,23.892059,48.926926,73.14846,94.250908,51.364975,87.015839,106.55777,120.963707,44.540176,85.183754,107.124825,121.879463,38.513031,75.980644,96.313362,109.958153,33.56638,62.492809,78.610497,91.298218,-17.545515,-21.159026,-17.513405,-16.541206,14.558154,26.533288,30.757386,33.310395,32.89148,42.976496,44.70347,44.065279,44.908234,55.914936,56.626178,54.284911,51.416295,62.688154,64.169793,62.533531,-30.464144,315.560506,-83.633909,301.810974
106,-0.887718,-1.916795,0.595379,0.79127,12.931366,23.574371,27.593021,25.528736,8.655567,39.423122,58.575611,68.076839,3.398895,34.829807,57.356586,73.046436,-2.883797,27.355442,49.819736,64.838963,-9.91848,13.991318,31.589184,43.21043,-25.084067,-37.080381,-40.731745,-41.033458,-17.677723,-0.93978,3.144578,3.899662,3.454195,20.768454,23.181352,20.588761,21.288331,34.449382,33.959392,31.512779,36.655909,48.605725,44.677596,38.991804,23.518753,48.423328,72.472973,93.465557,51.106796,86.915646,106.734524,121.186008,44.176197,85.362339,107.281895,121.453686,38.309898,76.601315,96.771297,109.831524,33.738556,63.663254,79.911633,92.192173,-17.902679,-21.677297,-18.470845,-17.867852,13.982702,26.084671,30.423131,33.030542,32.58526,42.97841,44.177294,43.041272,44.772198,55.646569,55.607234,52.745843,51.323114,62.113196,62.797081,60.633594,-31.181087,313.606569,-82.867756,302.565101
107,-3.70388,0.077065,-0.04097,-0.346173,14.237652,26.714001,33.999653,35.028934,14.070854,45.819225,63.702908,72.013378,9.379749,42.367344,63.021526,76.918545,3.294754,34.708843,55.421963,68.870487,-3.580227,21.225929,37.300587,47.594891,-26.821909,-39.267704,-43.100985,-42.222523,-18.488197,-4.163954,-1.301205,-1.182088,3.464198,19.471943,21.184096,18.193586,21.97796,34.249866,32.923158,29.894424,37.569939,48.739724,44.317715,38.24413,23.542957,48.534336,72.526245,93.537769,51.607075,87.802448,107.722836,122.002888,44.390717,85.702,107.432728,121.067677,38.319912,76.522579,96.520786,108.970127,33.695011,63.625031,79.869518,91.862125,-18.041494,-21.338843,-17.906014,-17.125057,13.99042,26.238244,30.862794,33.731286,32.600327,43.290126,44.465298,43.177741,44.733419,55.914998,55.801254,52.728677,51.120449,62.146726,62.869885,60.530656,-34.810495,313.671777,-82.834253,302.207072
108,9.139824,0.715996,-0.181389,-0.246322,11.278439,19.710217,22.413082,20.60915,5.788937,35.322247,53.175373,62.238407,0.148773,30.590115,51.682606,66.800823,-6.547909,22.420864,43.8204,58.190289,-14.226036,8.414841,25.081615,35.487385,-26.019586,-38.444571,-41.817441,-40.767375,-17.260228,-1.925687,1.67745,1.887216,3.876938,20.560788,22.443681,20.462234,21.525823,34.261784,32.833065,30.564107,36.35821,48.043858,43.636237,38.12421,23.877468,48.889904,72.799244,93.633442,51.907883,88.151493,107.962132,122.110577,44.572392,85.974827,107.651539,121.373806,38.318424,76.312008,96.182499,108.519344,33.521404,62.898617,79.128056,91.155224,-17.781587,-21.200398,-17.833828,-16.830322,14.635959,26.675746,30.994384,33.47354,33.216905,43.462348,44.466039,43.110803,45.180245,55.969524,55.81064,52.723799,51.389496,62.275105,63.129299,60.78692,-25.590563,314.359723,-82.935534,301.9327
109,1.117516,1.481578,-0.616093,0.385508,12.977371,22.754459,26.68745,26.055737,7.221909,31.579227,48.216991,58.057308,1.827793,26.847095,47.155895,61.999912,-4.607334,18.943806,39.56995,54.427586,-12.127991,6.750412,22.469501,33.155651,-26.260042,-42.435254,-47.788829,-46.987679,-19.386912,-8.44548,-4.31586,-2.709114,2.006518,16.424004,19.041234,18.481281,20.189174,31.742676,30.990741,29.948888,35.803506,46.911479,42.991748,37.979529,23.581295,48.986149,72.923241,93.584175,54.201279,89.24263,108.574677,122.706871,47.164822,86.361694,107.207909,120.76252,40.613708,76.110592,94.953918,106.776237,35.176163,63.21373,79.025459,90.75325,-17.720207,-20.999895,-18.271762,-18.338699,15.653791,26.46141,30.950541,33.687937,33.695594,43.506438,44.74688,43.578068,45.033958,55.672813,55.685719,52.741027,50.933469,61.664888,62.538965,60.137862,-24.44006,315.824242,-83.518639,302.301149
110,-3.257217,-0.161354,-0.321636,-0.251571,13.28001,24.238758,29.48988,29.671154,10.888367,35.510387,51.430492,61.001415,5.606403,30.775509,50.634556,65.218105,-1.05526,22.991009,43.309193,58.193951,-8.900013,10.641232,26.142254,36.969051,-26.424545,-42.148917,-47.835636,-47.202571,-20.550228,-10.390371,-6.079452,-4.403051,1.017956,15.053515,18.062366,17.532918,19.798973,31.046687,30.261345,29.049864,35.976408,46.753769,42.83799,37.633295,23.938751,49.422741,73.464603,94.073353,54.459057,89.511509,108.570843,122.44978,47.365952,86.76939,107.671337,121.261082,40.748348,76.674099,95.609035,107.508259,35.217876,63.493423,79.382687,91.23167,-17.540452,-20.619018,-17.778129,-18.060946,15.871955,26.824441,31.078241,33.732521,33.918452,43.407576,44.716252,43.672053,45.266016,56.025099,56.237026,53.461778,51.18856,61.895711,62.92157,60.706583,-27.640858,315.645891,-83.783855,302.032581
