takenoko1/special-research/HandMotion_SimilarSearch_自分用/NewProject/handData/key/d4_feature_d2/110.csv
,vel_0x_L,vel_0y_L,vel_0x_R,vel_0y_R,posFromWrist_1x_L,posFromWrist_2x_L,posFromWrist_3x_L,posFromWrist_4x_L,posFromWrist_5x_L,posFromWrist_6x_L,posFromWrist_7x_L,posFromWrist_8x_L,posFromWrist_9x_L,posFromWrist_10x_L,posFromWrist_11x_L,posFromWrist_12x_L,posFromWrist_13x_L,posFromWrist_14x_L,posFromWrist_15x_L,posFromWrist_16x_L,posFromWrist_17x_L,posFromWrist_18x_L,posFromWrist_19x_L,posFromWrist_20x_L,posFromWrist_1y_L,posFromWrist_2y_L,posFromWrist_3y_L,posFromWrist_4y_L,posFromWrist_5y_L,posFromWrist_6y_L,posFromWrist_7y_L,posFromWrist_8y_L,posFromWrist_9y_L,posFromWrist_10y_L,posFromWrist_11y_L,posFromWrist_12y_L,posFromWrist_13y_L,posFromWrist_14y_L,posFromWrist_15y_L,posFromWrist_16y_L,posFromWrist_17y_L,posFromWrist_18y_L,posFromWrist_19y_L,posFromWrist_20y_L,posFromWrist_1x_R,posFromWrist_2x_R,posFromWrist_3x_R,posFromWrist_4x_R,posFromWrist_5x_R,posFromWrist_6x_R,posFromWrist_7x_R,posFromWrist_8x_R,posFromWrist_9x_R,posFromWrist_10x_R,posFromWrist_11x_R,posFromWrist_12x_R,posFromWrist_13x_R,posFromWrist_14x_R,posFromWrist_15x_R,posFromWrist_16x_R,posFromWrist_17x_R,posFromWrist_18x_R,posFromWrist_19x_R,posFromWrist_20x_R,posFromWrist_1y_R,posFromWrist_2y_R,posFromWrist_3y_R,posFromWrist_4y_R,posFromWrist_5y_R,posFromWrist_6y_R,posFromWrist_7y_R,posFromWrist_8y_R,posFromWrist_9y_R,posFromWrist_10y_R,posFromWrist_11y_R,posFromWrist_12y_R,posFromWrist_13y_R,posFromWrist_14y_R,posFromWrist_15y_R,posFromWrist_16y_R,posFromWrist_17y_R,posFromWrist_18y_R,posFromWrist_19y_R,posFromWrist_20y_R,posFromBody_0x_L,posFromBody_0y_L,posFromBody_0x_R,posFromBody_0y_R
2,-14.702911,12.269189,2.957039,1.086622,1.504097,-6.348038,-19.776535,-32.412872,-38.517437,-23.25737,-2.303352,13.09124,-44.517174,-25.451546,-1.930161,16.582947,-44.271927,-29.38076,-8.267899,8.086052,-41.580906,-32.950172,-19.570999,-8.009605,-19.596678,-28.641323,-27.894514,-27.54655,-3.695206,11.314096,15.864669,16.950426,14.030496,24.048883,28.493369,29.631491,26.376133,33.319905,36.469052,38.068635,35.738977,41.696225,41.764397,40.49345,25.675392,50.316582,72.721252,90.451126,53.064308,86.819,104.097404,116.649742,44.550762,82.923088,103.087578,116.879883,36.181984,71.84864,91.169014,105.391846,28.749561,57.03558,73.098335,85.831146,-14.913404,-16.015957,-11.066353,-10.817314,14.902227,29.115937,34.639017,37.862759,32.924393,47.155764,51.087968,51.521518,44.96912,59.737657,62.671605,61.893179,51.489902,63.277747,65.183797,64.157443,31.912622,305.180817,-70.213537,287.176003
3,1.232529,-6.736229,0.147171,-0.522717,-3.186951,-13.491211,-27.966957,-40.372524,-48.416748,-34.496841,-10.741539,5.855713,-57.265663,-37.94363,-10.842476,10.515976,-59.973621,-43.007584,-17.2332,2.193375,-59.74062,-51.219521,-33.647919,-19.030266,-15.527388,-24.367948,-24.486817,-19.582846,1.336217,17.809375,23.137447,24.855344,19.693874,32.088787,37.173439,38.090062,33.148794,43.842546,44.258682,43.109939,43.83248,53.915149,50.961257,46.733947,26.084862,50.860405,72.854462,90.185738,52.805386,86.285477,103.88443,117.210045,44.066505,82.147522,102.396698,116.883774,35.930614,70.9869,90.392647,104.815865,28.849869,56.122513,71.794739,84.228745,-14.731919,-15.576665,-11.047951,-11.412402,15.777169,30.089247,35.200761,38.21344,33.617048,47.516016,51.647489,52.766715,45.420454,59.905186,63.125161,62.925893,51.784328,63.40946,65.389364,64.640393,31.931963,297.965575,-71.279554,286.174272
4,-16.983604,10.041481,0.246792,0.883525,4.437332,1.650925,-5.148697,-10.324287,-27.456837,-7.3106,11.989059,26.202164,-34.493008,-9.228172,13.536186,31.472282,-35.002327,-14.544983,6.274567,23.169937,-32.617149,-23.165646,-10.298767,1.66729,-19.55827,-29.613707,-31.675491,-32.078042,-4.223975,8.507663,12.703974,14.125962,11.739556,22.559031,25.919056,26.87063,23.431564,32.514124,34.230847,33.63934,32.072485,40.498822,40.737426,37.743519,25.861359,50.546665,72.60355,89.952679,52.617188,85.880871,103.396397,116.58102,43.976154,81.996174,102.116146,116.493473,35.872822,70.916805,90.237064,104.614048,28.886089,56.355171,72.057095,84.445553,-15.114154,-16.35083,-11.969885,-12.285306,14.686656,29.126743,34.451049,37.733021,32.491338,46.719497,50.876411,52.083323,44.436029,59.090822,62.400335,62.371683,51.060675,62.618252,64.533503,63.841219,14.404449,307.530637,-71.576672,286.581377
5,0.428925,0.533524,-0.043774,-0.154994,4.32415,2.398224,-4.889717,-9.796257,-28.810902,-8.658943,10.404167,24.160309,-33.912392,-11.06266,11.198387,28.71151,-33.227921,-14.699936,6.214142,23.113976,-30.343895,-22.143631,-11.864777,-2.670021,-16.66903,-25.269812,-27.890068,-30.845195,-4.033475,8.667226,13.001117,14.307941,10.408279,20.669901,24.121131,25.341381,21.193853,30.387748,32.329675,32.247856,29.457293,37.051791,37.896598,36.49789,25.821819,50.589466,72.744026,90.274887,52.292233,85.790405,103.452644,116.59687,43.558102,81.802483,102.169991,116.481514,35.351143,70.848083,90.330505,104.610329,28.34444,56.056252,71.808701,84.0905,-15.015662,-15.949576,-11.658416,-12.072761,14.719199,29.64767,35.076951,38.289578,32.456387,46.991817,51.228142,52.298832,44.392186,59.265205,62.445845,62.090657,50.986945,62.899525,64.7902,63.886544,14.500551,307.694708,-71.953268,286.056931
6,21.293449,-7.065173,-0.215778,-0.412369,-2.735023,-13.025436,-28.782692,-43.108349,-49.940815,-37.422523,-13.720436,2.882423,-60.007153,-41.589546,-14.634819,7.331886,-63.260422,-48.288174,-23.11409,-2.6548,-63.461552,-60.78146,-47.28653,-33.843269,-16.63624,-26.55138,-27.645412,-24.865409,-2.409316,14.623486,20.238512,22.705935,16.49125,28.172699,33.40864,35.260597,30.204905,39.279808,40.914588,40.691484,41.228342,50.600387,48.305865,44.024956,26.239586,51.068859,73.180332,90.632,52.32296,85.599117,103.224163,116.531811,43.590889,81.652279,102.029514,116.543941,35.350628,70.741024,90.327244,104.674702,28.218613,55.958004,71.798229,84.070072,-14.661833,-15.560116,-11.371894,-11.958894,14.767982,29.670332,35.094303,38.336694,32.397848,46.999597,51.352445,52.627097,44.471041,59.293487,62.620167,62.573051,51.269206,63.159865,65.134088,64.425502,35.551586,300.398233,-72.411461,285.41326
7,-18.804245,9.564768,0.724239,0.205999,4.666557,0.023575,-7.549438,-13.491554,-30.781574,-9.707794,10.262718,23.782082,-37.835197,-12.518578,10.621605,28.689194,-37.833824,-17.204475,3.805389,20.19104,-35.381413,-26.011105,-12.750664,-1.014404,-19.998365,-30.902006,-33.449272,-34.834025,-8.087204,4.59738,8.637277,9.850549,8.580899,19.456196,22.646037,23.282993,20.796427,29.82866,31.342718,30.815432,29.847309,37.726352,36.777804,32.949773,25.811577,50.36047,72.287521,89.755783,51.979523,85.305862,102.839355,115.895233,43.35434,81.381798,101.717262,115.983582,35.106297,70.756531,90.284271,104.517975,28.020401,56.143456,72.13932,84.572754,-14.779591,-15.715109,-11.322,-11.671631,14.726547,29.663848,35.096958,38.112354,32.376359,47.054493,51.284396,52.174158,44.469806,59.348753,62.544152,62.131659,51.305947,63.214638,65.166692,64.250192,16.679335,309.709793,-71.755228,285.366052
8,-3.779411,1.125093,-0.135727,0.373158,3.624001,1.912193,-4.02523,-10.036583,-26.688595,-6.011238,12.914543,26.396255,-32.003803,-6.973572,14.723969,32.03968,-31.430969,-9.984398,10.349922,26.810875,-28.513699,-17.665443,-3.928299,7.847786,-16.768016,-27.601631,-31.284796,-34.875953,-7.890591,3.894475,8.382989,9.059897,6.926667,16.967284,20.952409,21.854582,18.457692,27.356976,29.589068,28.971503,27.746374,34.832605,34.243938,31.11523,25.833778,50.466156,72.454262,89.902153,52.052135,85.132256,102.725945,115.929337,43.389759,81.309471,101.61335,115.902901,35.304909,70.710526,90.085945,104.104729,28.466091,56.448498,72.197456,84.31881,-15.067409,-16.051834,-11.680276,-12.20676,14.876848,29.660143,35.082323,38.228877,32.549939,46.807059,50.91871,52.10438,44.579351,58.955341,62.028845,61.806914,51.364178,62.939293,64.667254,63.804292,12.827139,310.578066,-71.963739,285.48239
9,-5.592041,3.287962,-0.255203,-0.222116,3.78067,3.812599,1.812057,-0.312653,-21.645412,-1.319847,16.737556,29.350204,-26.52729,-2.766495,18.296585,35.418892,-26.252403,-5.861893,14.725914,31.177597,-23.498325,-15.016594,-5.832138,1.66832,-15.547148,-26.340009,-32.783602,-39.797647,-8.763186,1.065874,6.413954,7.892999,4.863648,13.834809,18.703582,20.496938,15.57049,23.821333,26.563175,26.976779,24.146696,30.145625,30.558612,28.775013,25.660744,50.482922,72.670441,90.142708,52.049274,85.062218,102.636681,115.916634,43.377686,81.134262,101.432762,115.839157,35.225201,70.346603,89.752579,103.91098,28.230286,55.920181,71.582794,83.766518,-14.79367,-15.641812,-11.406907,-12.003416,15.543628,30.090605,35.48049,38.798587,33.063394,47.133287,51.265748,52.639447,44.917497,59.244704,62.350749,62.25553,51.535782,63.064152,64.818666,64.057407,7.185802,313.760373,-72.268238,285.154619
10,30.774193,-15.501453,-0.394993,0.338763,-3.643227,-15.593605,-31.222687,-43.814278,-52.038345,-39.25209,-16.299248,0.139847,-61.254845,-43.528976,-16.363792,5.766335,-64.048634,-49.487572,-23.874092,-3.457146,-63.882866,-58.267479,-41.771164,-27.019386,-16.152796,-25.714477,-26.865381,-23.83992,0.041126,17.056822,22.126531,23.963544,18.354569,31.33185,36.086941,37.721165,31.958802,42.0679,43.263203,42.859973,42.321818,52.584984,50.291141,46.095818,25.7654,50.797691,73.1777,90.717602,52.141857,85.288868,103.004665,116.364727,43.598042,81.459904,101.952496,116.48695,35.616932,70.73473,90.209141,104.450397,28.78315,56.52483,72.183781,84.293575,-15.088713,-16.075547,-11.985693,-12.59023,15.175102,29.763205,35.058117,38.160767,32.653124,46.697699,50.857639,52.167613,44.516798,58.921502,62.026622,61.803517,51.209555,62.804368,64.526402,63.634788,37.942886,298.161,-72.68034,285.395461
11,-15.637894,7.038559,0.436535,-0.16123,3.452568,-2.713737,-13.889465,-21.600494,-36.013584,-17.013588,3.040581,17.301178,-43.366241,-20.601196,3.186951,22.160912,-43.73291,-25.960808,-3.667946,14.038696,-41.429558,-35.645084,-26.070786,-17.077332,-18.652206,-27.490419,-28.50399,-27.316715,-2.585366,12.081468,16.694841,18.282197,13.697291,25.167862,28.776186,29.941046,24.789641,33.704919,35.315493,35.339637,32.497513,41.221673,41.504675,38.929991,25.404396,50.300045,72.729492,90.282097,51.926823,84.908867,102.524529,115.796814,43.658295,81.337051,101.748848,116.237183,35.87059,70.922241,90.248108,104.425507,29.134541,56.998444,72.571106,84.652977,-14.763165,-15.72289,-11.553255,-12.539286,15.682011,29.864043,35.053733,38.135325,33.111929,46.826511,50.890738,52.148285,44.933428,59.099467,62.118197,61.803209,51.603646,63.05384,64.762659,63.838317,22.300043,305.085012,-72.248755,285.119683
12,-14.160919,4.35149,-0.624104,0.465413,4.562302,5.275841,4.174919,4.638863,-23.110657,-3.863182,14.370003,28.442574,-28.03299,-5.732117,15.790787,33.689117,-27.376842,-8.652306,11.734314,28.517303,-24.253578,-14.539146,-3.47168,5.890846,-14.623918,-23.606009,-28.321147,-31.795534,-6.665463,3.808518,8.351805,9.782192,6.491327,16.017933,20.769442,22.262259,17.413431,26.526865,30.31198,31.208782,25.764742,33.068457,34.131614,32.413347,25.575428,50.649719,73.180676,90.92989,52.379265,85.304432,102.97514,116.604366,44.212475,81.560612,101.892529,116.580448,36.564045,71.223507,90.510464,104.84396,29.832745,57.477608,72.990818,85.249615,-15.225182,-16.517741,-12.372251,-13.283193,14.755631,28.840098,33.926726,36.947433,32.365367,45.774778,49.858024,51.230303,44.389345,58.262563,61.354407,61.102959,51.280877,62.628441,64.273163,63.322577,8.14682,309.336852,-72.865162,285.485446
13,44.272156,-15.899126,0.707703,0.095157,-11.923714,-30.516014,-48.263741,-64.263153,-65.494537,-60.948887,-35.789566,-17.836075,-71.647568,-62.031269,-34.545822,-12.093887,-71.466866,-64.469891,-37.937851,-16.119919,-68.570023,-67.689972,-51.862793,-37.017059,-6.345719,-11.617043,-11.077221,-5.415882,6.505282,23.658497,32.129913,37.104773,18.448924,31.89415,40.622138,45.636457,27.528457,38.394986,43.800061,46.201226,34.778264,45.425826,46.29768,46.120827,25.690384,50.499172,72.720852,90.23901,52.968979,85.955715,103.385525,116.449642,44.352951,81.465054,101.539478,115.565472,35.804958,70.866108,90.11301,104.061298,28.265762,56.683731,72.571392,84.895763,-15.402282,-16.343296,-11.488541,-12.020335,13.369643,28.577844,34.161192,37.03728,31.177721,45.643682,50.252177,51.429078,43.565595,57.919849,61.15168,60.796183,50.958478,62.749534,64.475705,63.50153,52.41437,293.39572,-72.162066,285.538598
14,-3.365593,0.752429,0.176182,0.329191,-5.312347,-20.175133,-39.2593,-56.090298,-58.09742,-50.052452,-27.770348,-10.873718,-63.267059,-52.267342,-27.616653,-6.460991,-61.938858,-52.426643,-29.176826,-10.616913,-57.408714,-52.1735,-38.323631,-26.391106,-14.603355,-21.519895,-18.684007,-16.043869,2.270871,20.106613,26.503153,28.817497,17.833457,32.257859,37.706716,39.806724,29.867316,40.651346,44.791094,46.432049,38.855582,49.138014,51.050548,50.59378,25.713844,50.258675,72.314529,90.131721,52.700214,85.84156,103.432159,116.394882,44.102497,81.517868,101.732597,115.583839,35.637989,71.11702,90.415192,104.201202,28.257122,56.663189,72.466507,84.759865,-15.710663,-16.615616,-11.711089,-12.292284,12.700763,27.889018,33.606921,36.567668,30.634009,45.245947,49.882292,50.919698,43.077643,57.442518,60.621429,60.114335,50.418038,62.323765,64.057716,62.953681,49.083252,294.137914,-71.951408,285.857554
15,-10.000191,0.294673,-0.029297,-0.277012,-1.58123,-11.877823,-27.391777,-42.040558,-46.875172,-34.863968,-14.99176,-0.536842,-51.44434,-36.202126,-13.643074,3.821754,-49.944019,-37.378693,-15.596237,-0.655289,-45.165596,-40.270157,-30.855331,-24.309654,-15.43433,-20.394741,-17.213483,-15.646196,5.090951,21.832352,25.281236,25.503167,19.177393,31.972326,34.956785,35.604794,29.358801,39.072697,41.412296,42.656814,36.66616,44.707978,47.654892,48.875142,26.161194,50.546837,72.421188,90.149117,52.339096,85.573883,103.287506,116.36261,43.724499,81.213799,101.549606,115.474892,35.306168,70.85392,90.35614,104.233246,28.015079,56.4291,72.477379,84.919624,-15.555608,-16.26265,-11.331695,-11.98557,12.992781,28.3096,33.776611,36.550625,30.894657,45.45701,50.058342,51.259696,43.347369,57.675996,61.01657,60.830578,50.678563,62.549277,64.408273,63.454291,39.089613,294.389161,-71.974154,285.537116
16,9.791451,1.685045,0.172634,0.132022,-8.270073,-24.481087,-43.01651,-59.517059,-61.3167,-54.85096,-30.027924,-12.324829,-70.354099,-57.835808,-29.539719,-6.802597,-72.296619,-63.00333,-36.591454,-15.730247,-71.339321,-71.239872,-55.887794,-41.559448,-13.673764,-22.682285,-23.21482,-18.836099,-2.160709,16.634202,25.275061,29.242155,15.361773,29.184418,37.229694,40.941511,29.035723,39.686619,43.877558,44.984002,40.177659,50.291759,49.411568,46.825029,25.615597,50.387192,72.332897,89.77644,53.34486,86.052532,103.447094,116.297092,44.604492,81.505108,101.515102,115.316563,35.806503,70.753613,89.887104,103.55135,28.025494,56.272774,72.101841,84.438457,-15.837128,-16.5057,-11.4878,-11.982173,12.840504,28.081309,33.776611,36.719882,30.712926,45.227978,50.046054,51.469709,43.153781,57.317103,60.647735,60.44612,50.574575,62.290111,63.962806,62.939725,48.903551,296.036523,-71.779032,285.631455
17,-9.725533,6.452362,-0.180073,-0.363216,1.075974,-10.80677,-28.78727,-44.025421,-50.027962,-37.206001,-15.113297,1.803932,-58.578873,-40.84877,-15.544624,5.973701,-59.689236,-46.076145,-21.897926,-2.133751,-57.715988,-52.419949,-39.009933,-26.397057,-18.445651,-28.179615,-27.00364,-24.641687,-5.221306,11.279886,18.116336,21.23362,11.293224,23.876476,31.000312,34.836742,24.229194,33.305517,37.601617,39.711752,34.414493,43.081657,43.613081,41.931679,25.788345,50.378666,72.287178,89.984665,52.327023,85.43644,102.925529,115.897408,43.861084,81.241951,101.492615,115.52845,35.519428,70.918465,90.299721,104.152565,28.169689,56.59544,72.601204,85.067368,-15.361897,-16.200406,-11.154656,-11.666876,13.675246,28.590997,33.736164,36.378835,31.58515,45.5505,49.971644,51.251792,43.899912,57.727126,60.94883,60.727393,51.077347,62.477153,64.235063,63.235386,39.251633,302.428988,-71.88549,285.208341
18,-12.435722,0.208469,-0.191002,0.850303,3.879318,-2.760773,-15.330276,-27.210732,-39.3437,-20.843811,0.342178,16.166611,-45.688133,-23.447456,0.671654,19.655342,-45.029755,-27.479439,-4.544449,12.658882,-41.735058,-34.946766,-24.077911,-14.993134,-16.600857,-24.373567,-24.710292,-24.700844,-2.274515,12.395222,17.435229,19.026599,12.497728,24.144349,28.914013,31.291033,23.675787,32.660719,35.857044,37.749571,31.775095,39.774861,41.001224,40.344693,25.309353,50.117569,72.332153,89.933624,52.501087,85.726204,103.345757,116.378746,44.110336,81.573601,101.837425,115.856094,35.943546,71.293716,90.686989,104.541779,28.851128,57.47303,73.424263,85.776672,-15.848984,-17.092452,-12.32532,-12.712557,12.539841,27.499002,33.070433,36.172095,30.580965,44.836604,49.380631,50.725493,43.13291,57.192614,60.376589,60.087103,50.539069,61.876321,63.52444,62.572619,26.929293,302.612973,-71.96311,286.034161
19,21.449776,-6.742157,-0.706444,-0.243605,-7.68425,-23.401222,-42.206268,-58.562565,-60.783577,-54.30027,-29.440613,-11.694603,-69.618187,-57.54324,-29.687119,-6.686554,-71.479855,-62.422028,-36.345634,-15.358429,-70.296478,-71.559105,-57.836208,-44.429626,-13.293258,-22.676172,-23.626696,-19.613042,-0.009942,18.301217,26.224288,29.922953,17.032431,29.86639,37.377463,41.342086,29.722449,39.027928,43.120066,44.997278,40.116402,49.698955,49.116895,47.535097,26.07851,50.866699,72.90081,90.623589,52.541599,85.655136,103.145485,116.081886,44.319191,81.647987,102.015839,116.156387,36.302261,71.401863,90.86792,104.746857,29.263573,57.32151,73.173752,85.493202,-15.669291,-16.897568,-12.133153,-12.455367,12.648893,27.399831,32.904201,35.954363,30.474569,44.742434,49.433366,50.859183,42.868989,57.066211,60.43414,60.184545,50.220437,61.911828,63.789596,62.788189,48.487587,295.879986,-72.561035,285.799725
20,-10.2285,4.475732,-0.243301,-0.453433,1.136169,-10.494576,-28.697433,-43.12706,-51.699829,-36.470947,-14.5261,1.547699,-60.204849,-40.713959,-14.588242,6.83876,-61.324654,-46.12524,-20.808449,-0.645676,-59.09935,-54.264221,-42.230072,-31.031914,-17.47938,-26.130737,-24.885725,-22.198594,-1.709992,16.802966,22.822026,25.249373,14.389884,28.221667,34.233193,37.576422,26.624678,36.644856,40.042116,41.448544,35.92534,45.662701,46.233521,44.575646,26.11124,50.960941,73.148689,91.005249,52.480545,85.587044,103.244362,116.426697,44.283428,81.443253,101.885033,116.171608,36.227074,71.236954,90.731735,104.782104,29.086189,56.954956,72.890053,85.398445,-14.949651,-16.185524,-11.634519,-11.858426,13.422811,27.97269,33.397649,36.39736,30.997781,45.254963,49.957689,51.301995,43.263882,57.559782,61.01305,60.776299,50.587605,62.416575,64.43637,63.455464,38.366833,300.350608,-72.69659,285.341182
21,-14.178543,5.404087,0.105171,0.627322,4.675369,-1.758842,-13.611603,-23.833694,-36.498756,-18.0233,3.417549,18.981514,-43.843861,-20.776405,3.548012,22.606544,-44.005394,-25.904617,-3.458977,13.299294,-41.558247,-34.820194,-23.508453,-13.551979,-18.445157,-28.149358,-28.945506,-29.405917,-5.113305,8.173038,12.238252,13.42491,11.030414,21.047196,24.699239,26.085659,22.943983,30.439619,32.793359,33.977917,31.578111,38.590117,38.451179,36.551551,25.776901,50.457573,72.726746,90.644188,52.700958,85.830688,103.329735,116.279411,44.585266,81.885109,102.197685,116.265335,36.60759,71.780777,91.173248,104.989128,29.60392,58.022976,74.031029,86.511612,-15.417349,-16.990255,-12.506187,-12.848964,12.335756,26.738052,32.396119,35.619799,30.243623,44.404042,49.080895,50.316335,42.860714,57.031075,60.277973,59.823861,50.429462,61.869652,63.625093,62.557428,24.243822,305.752256,-72.535887,285.966065
22,24.976044,-11.848731,0.091152,0.283434,-9.091187,-26.9347,-45.321465,-61.043472,-64.08823,-55.964584,-30.760231,-12.598228,-71.69466,-58.501511,-30.451241,-7.224312,-72.379417,-60.78043,-33.699875,-12.419014,-70.098267,-64.453411,-45.601273,-29.469681,-9.941446,-17.819502,-18.794541,-14.253909,3.985186,21.536382,29.72634,33.856639,18.939901,32.179622,40.70334,45.159435,30.160754,40.610529,44.619057,46.16362,38.741838,49.365749,48.593005,46.741172,25.646839,50.356808,72.804279,90.982761,52.599621,85.964985,103.411503,116.246052,44.557743,82.187977,102.515545,116.515675,36.631508,72.114773,91.485157,105.260983,29.711838,58.292313,74.246006,86.517849,-15.679788,-17.342171,-12.914852,-13.058051,12.315687,26.481726,31.896867,34.934369,30.470494,44.246455,48.810243,50.00499,43.10716,56.951973,60.139714,59.646514,50.59662,61.86465,63.59749,62.455231,49.26281,293.883008,-72.401791,286.228983
23,-9.237099,5.531725,0.014648,-0.154808,0.221558,-12.245293,-29.723854,-44.304886,-51.134834,-38.429146,-16.574593,-0.284843,-58.705902,-42.214394,-16.597939,4.722176,-59.12899,-45.605278,-21.051178,-1.264229,-56.363239,-51.473465,-38.842506,-27.140236,-17.125118,-26.347419,-24.247905,-21.074057,-3.325383,14.361108,21.277895,24.66083,13.069351,26.347357,32.743588,36.2252,25.913313,35.391569,39.964928,42.40092,36.22378,45.06755,46.27687,45.537347,25.679798,50.454369,72.826824,90.798168,52.648144,86.069469,103.410931,116.037998,44.566154,82.296581,102.640057,116.616611,36.619606,72.275677,91.66048,105.384808,29.719105,58.402863,74.404736,86.733112,-15.811378,-17.427387,-12.853472,-12.655623,12.40152,26.814561,32.21766,35.126351,30.598132,44.498582,48.973078,50.034198,43.222386,57.169149,60.346949,59.763284,50.573649,62.010628,63.783483,62.584722,40.135088,299.398849,-72.277765,286.05829
24,-11.132355,0.52457,-0.328388,-0.027479,2.761345,-4.986649,-18.237648,-30.425262,-41.338463,-23.338509,-2.416878,12.888336,-46.737499,-25.593452,-1.6325,16.845245,-45.337257,-28.457909,-5.721016,10.919838,-41.199646,-33.107185,-21.46534,-12.411461,-16.422707,-23.347584,-23.285216,-23.595573,0.006299,15.497439,19.972121,21.037007,14.447312,26.220522,30.747136,32.729509,25.35509,34.556148,38.178489,40.524449,33.406047,41.310532,42.70288,42.608031,25.984325,50.83334,73.194466,91.162033,52.698612,86.097908,103.389015,115.903358,44.511852,82.357292,102.785797,116.799202,36.525249,72.159004,91.522636,105.043831,29.60083,58.074303,73.980331,86.068153,-15.675651,-17.343591,-12.91374,-12.758808,12.692982,27.273675,32.587977,35.355384,30.764796,44.904159,49.391191,50.508441,43.17348,57.345385,60.483417,59.866716,50.32566,61.847545,63.690857,62.578423,29.082756,299.916456,-72.526131,286.023848
25,11.073303,-1.647995,0.598354,-0.743475,-3.443642,-17.204018,-34.944763,-49.95163,-56.633148,-42.434921,-18.336182,-1.872711,-65.958252,-46.331177,-19.012299,3.477173,-67.843552,-51.247616,-24.720612,-3.969841,-66.604042,-57.858181,-39.538193,-23.93383,-15.250808,-25.799507,-27.988992,-26.21694,-1.064948,16.624137,22.087258,23.824112,17.610353,30.028052,35.823884,37.810889,31.388722,40.818937,42.265502,41.909696,41.896481,51.928268,49.201061,44.659195,26.400547,50.604858,72.522526,90.564251,51.788635,84.963741,102.173252,114.687824,43.566628,81.323376,101.760235,115.933514,35.596333,71.142139,90.611858,104.385509,28.671627,56.818829,72.784939,85.138607,-14.731672,-16.123094,-11.713559,-11.685524,14.74501,28.879494,33.536711,35.835308,32.361971,46.156086,50.108669,50.81003,44.307958,58.346112,61.381083,60.645388,51.186028,62.796526,64.847998,63.801946,40.183039,298.245073,-71.900797,285.256985
26,-20.151901,10.895428,0.557785,-0.474799,4.399109,-2.059708,-12.707062,-22.158051,-33.73764,-14.216652,6.598663,21.015472,-40.739079,-16.012688,7.308769,25.626183,-40.604897,-20.154991,1.046219,17.85656,-37.787189,-28.367615,-14.553337,-2.077789,-20.179664,-31.364887,-32.948908,-35.085226,-7.500823,5.348759,8.675748,9.483814,9.12634,19.189126,22.210141,22.669811,21.162175,28.986508,30.204658,29.702133,30.418068,38.508051,37.238462,33.192575,25.47718,49.711933,71.573353,89.17654,52.062263,84.567318,101.630688,114.271832,43.49968,80.797749,100.990391,114.968548,35.109959,70.011005,89.446735,103.376026,27.657738,55.872517,71.938305,84.61195,-15.50275,-16.432032,-11.208009,-11.281183,14.561179,29.423269,34.84761,37.828673,32.257242,46.65009,51.073581,52.110617,44.281591,58.98776,62.262693,61.800986,51.170529,63.042354,65.050231,64.185786,20.079346,309.10271,-71.294804,284.744395
27,-6.19297,2.374859,0.336399,-3.130005,6.598549,6.56147,0.793419,-4.800568,-24.083633,-5.899544,14.14959,29.060211,-31.961632,-11.597099,10.866966,29.314156,-33.96389,-19.14814,1.158485,17.987022,-32.576923,-37.835999,-41.528721,-44.120464,-18.429781,-28.538447,-32.40674,-36.142084,-9.749711,4.463382,11.841074,15.722272,5.550004,17.051388,22.158394,25.157921,16.911709,24.158922,27.263548,29.736837,26.490062,30.868784,32.356845,32.799966,25.951366,50.258446,71.125488,87.40345,52.140541,83.920784,100.901642,113.543587,42.924156,78.701477,99.443665,113.939552,33.860607,66.887054,86.378632,99.91951,25.758705,52.322044,67.918854,80.274467,-14.952368,-14.354686,-8.261217,-8.709772,15.733634,31.734401,39.299197,44.45301,33.324413,49.934841,56.985688,60.528371,44.927253,61.18626,66.395216,67.907175,51.584997,64.98317,68.094649,68.318989,13.925343,311.382473,-70.919437,281.519295
28,-43.93816,-22.506358,0.048866,-6.143919,16.896286,30.015049,35.521832,33.379498,12.018356,36.944332,53.430805,62.522678,-1.247406,29.707203,49.539585,66.336422,-12.577572,16.755466,37.443867,52.66119,-22.912216,-3.160973,13.305817,25.906048,-16.929493,-19.932168,-12.579547,-4.172784,-1.43051,20.594689,32.683752,41.583468,16.527992,36.417429,50.062479,58.234467,29.533061,46.256925,55.280327,62.150184,39.851122,55.851642,58.461153,58.756937,28.743038,52.205486,70.981636,86.220818,50.229206,79.116325,94.119759,105.543022,39.003811,71.393852,89.640312,103.098106,28.520908,58.268394,76.091652,88.778229,19.121304,42.887192,56.347618,65.37014,-13.402124,-12.01558,-6.446249,-7.433144,16.497672,37.137192,47.714914,55.753891,33.169543,56.005771,67.928355,76.538648,44.286593,65.576529,75.946029,82.457672,51.014609,67.450469,73.028754,75.145497,-30.055361,288.816958,-70.913115,275.316219
29,80.736523,9.356299,0.827465,-6.188565,-20.261879,-43.001976,-66.114235,-83.05069,-43.909721,-79.913521,-85.792065,-84.752598,-48.813515,-89.552765,-95.951214,-90.016308,-51.667786,-90.54966,-99.679356,-99.171638,-53.647842,-84.396572,-94.531689,-97.005501,-20.157187,-30.88311,-34.303218,-35.499015,11.802727,-10.696406,-29.861017,-41.537094,31.651841,7.18923,-15.054133,-29.812358,40.16537,23.06452,3.074862,-10.680969,41.278977,38.782717,28.440511,20.103402,25.748405,48.83503,65.384045,79.390697,43.83173,69.377117,81.575832,88.674488,31.469307,61.210384,75.636578,83.101101,20.911446,46.936569,58.912754,65.270176,12.393093,30.436535,36.862679,38.725777,-17.587197,-20.374919,-19.690354,-20.303659,5.48214,32.557472,45.351355,53.304499,23.238718,50.000297,63.229828,69.043136,37.185357,61.316677,71.027794,74.027999,45.892968,64.793966,71.03718,70.392814,50.595303,298.357351,-70.171509,269.311748
30,4.276772,-9.914337,-0.881367,-3.92992,-21.187019,-44.745369,-65.018978,-78.913708,-56.054306,-86.621819,-100.321255,-108.429737,-52.804298,-85.825768,-102.798901,-112.561512,-47.105141,-76.125641,-93.185177,-105.085773,-40.030975,-65.513592,-78.799839,-88.403606,-20.763576,-23.623855,-13.998139,-3.886386,6.641813,15.014983,15.951305,16.869719,24.368071,33.808845,34.866135,35.790786,37.718016,47.07308,49.995233,51.415678,46.084826,54.576558,56.176141,56.916219,15.760803,31.855488,47.950001,64.536839,21.233425,41.545773,53.944473,60.588226,19.469891,42.735958,52.371712,52.516308,19.936695,39.732571,45.022545,41.021118,21.810436,36.886368,40.477524,36.137238,-25.482419,-35.123079,-36.974479,-41.338381,-7.388313,4.467025,8.591952,11.050545,16.264626,36.380996,44.579475,47.325207,34.893614,55.279154,62.790351,65.070608,48.355574,64.869055,71.84327,74.160948,54.589491,288.481345,-71.335459,265.420159
31,-0.015564,-1.218953,-24.402351,-32.28009,-25.560951,-50.194473,-72.8615,-89.95348,-58.210487,-88.617954,-104.452286,-116.430016,-52.302589,-86.435566,-104.058552,-117.791748,-44.606781,-76.298733,-93.728256,-107.247906,-36.649017,-63.431625,-78.269749,-90.469151,-19.00511,-19.453294,-6.966311,4.740703,8.700263,20.278712,26.03138,30.472285,26.265599,36.14548,40.061815,42.895726,38.575729,49.000619,52.31958,53.779607,46.067413,55.666885,57.537243,57.880884,19.807491,40.557289,55.592251,68.488255,29.481411,33.186378,32.757683,30.951977,22.643452,29.41103,28.057995,25.291214,16.432228,24.104347,22.158222,20.430393,12.236366,20.374832,18.134251,15.449982,-14.226986,-23.603045,-35.030638,-50.678995,-5.631391,4.956582,0.806213,-4.696366,10.499731,27.560382,20.617289,13.694945,24.125948,41.795087,34.312234,27.017843,35.374526,51.120202,44.792699,38.254689,53.963842,288.383748,-96.347895,234.261426
32,-0.014763,-0.333452,-20.353374,-20.60673,-26.245308,-50.714951,-73.479481,-91.330891,-59.166527,-89.898605,-105.177612,-116.798172,-53.524475,-87.569103,-104.962578,-118.741722,-45.849953,-77.569885,-94.753017,-108.367882,-37.727051,-64.188652,-78.707657,-90.850239,-18.941939,-19.317196,-7.144276,4.019087,9.349815,20.694354,26.091402,30.111045,26.756454,36.200253,39.519646,41.752973,39.089863,49.007597,51.99959,53.274303,46.669603,56.315573,58.226192,58.872164,22.932014,37.554932,43.57069,44.339046,37.064724,37.278099,35.168724,33.025589,22.517738,15.365925,10.022278,6.802139,6.609707,-3.73724,-7.751083,-9.125862,-7.579021,-15.601673,-18.375492,-20.654354,-21.215342,-39.387377,-53.248554,-65.304889,-21.449685,-28.038639,-35.865874,-46.344055,-9.121524,-16.883427,-20.336942,-24.287425,0.834866,-7.568007,-11.906406,-15.17115,8.444678,1.146458,-2.533681,-4.795475,52.862206,288.846907,-117.788143,214.451308
33,0.035248,-1.085387,-13.718376,-11.255495,-26.971779,-51.481361,-74.074345,-91.942635,-59.168129,-90.251827,-105.447063,-116.827698,-53.372498,-87.771893,-105.026493,-118.850956,-45.831528,-78.26746,-95.497971,-108.989639,-38.090744,-65.043526,-79.652996,-91.779671,-18.914151,-18.990845,-6.304717,4.764353,9.001913,21.519833,26.998268,30.722127,26.541624,36.870183,40.178029,42.053513,39.151367,49.454485,52.275305,53.175626,47.223257,56.846441,58.496165,58.851477,24.605198,38.293018,43.2728,44.461384,16.514397,0.987339,-6.374817,-13.955555,2.575321,-12.492771,-21.686268,-31.109505,-8.014297,-19.891663,-29.85815,-38.810005,-15.540733,-24.90612,-32.858791,-39.271717,-23.753469,-48.888666,-69.830515,-88.810925,-42.654344,-55.923026,-65.523053,-73.800202,-29.520958,-41.797619,-54.140168,-64.31398,-16.581838,-27.391989,-40.065149,-50.280335,-3.979444,-9.463683,-15.621681,-20.639519,52.378864,288.049493,-132.025108,203.483786
34,1.262398,-0.665484,0.673313,-21.167979,-26.857567,-51.523819,-74.54092,-92.027206,-58.260727,-90.118504,-106.134796,-118.269653,-52.595673,-87.86602,-105.673943,-119.740448,-45.579529,-78.902321,-96.594086,-110.134735,-38.56945,-65.796776,-80.499516,-92.416706,-18.771631,-18.89013,-6.372396,4.733046,9.168639,21.891756,27.402486,30.980429,27.00963,37.458788,40.594412,42.030974,39.467776,49.930086,52.287655,52.4106,47.124456,56.334098,57.556942,57.398675,17.022915,22.363014,23.607273,26.163654,-12.104588,-35.469933,-45.380459,-50.322304,-23.426685,-48.586864,-57.055893,-61.416378,-31.447105,-53.363914,-62.12534,-67.149696,-36.662407,-54.169178,-60.569916,-64.029465,-25.91461,-53.329632,-73.99308,-92.930202,-57.042931,-75.7651,-83.955768,-89.148761,-43.385592,-62.837404,-71.381871,-76.723127,-28.276996,-44.602878,-53.757933,-59.810585,-11.80495,-24.29959,-29.813902,-33.717763,52.521887,288.450284,-132.47117,183.382082
35,1.051369,-0.16333,-5.497742,-6.50448,-26.930923,-51.709442,-75.048466,-93.507442,-59.276848,-90.860825,-106.720104,-118.953094,-53.683662,-88.388901,-105.793991,-119.649868,-46.532593,-78.850136,-96.02457,-109.434185,-39.24511,-65.675297,-79.927998,-91.502094,-18.848325,-19.066119,-6.87245,3.553736,9.002901,20.63532,25.977534,29.729304,26.873779,37.219937,40.437196,42.091242,39.431775,50.195675,52.744855,53.192052,47.328603,56.983157,57.999939,57.677417,13.832531,15.60751,14.456577,14.93494,-18.538799,-33.253727,-44.383907,-55.730495,-30.484886,-47.30587,-58.324585,-70.066109,-37.263966,-53.992023,-63.623142,-73.071384,-39.978046,-55.09655,-63.716698,-70.97477,-31.912798,-61.738278,-83.475226,-102.3983,-65.535218,-80.988321,-89.870531,-98.645203,-54.425022,-70.100766,-80.610902,-90.427396,-40.262689,-53.110974,-62.76247,-71.839472,-23.487448,-31.908105,-38.103153,-44.194029,51.35891,289.652549,-140.183258,178.243197
36,0.8741,0.068172,-6.128998,-11.961487,-26.815109,-51.713448,-75.135155,-93.334808,-59.353065,-91.735725,-107.621613,-119.444733,-53.437386,-89.222317,-106.730347,-120.290623,-46.020012,-79.379597,-96.602612,-109.735966,-38.599548,-66.076584,-80.512962,-92.068291,-19.225744,-19.236303,-6.633415,4.197299,8.788627,20.917211,26.337353,30.202374,26.965479,37.387775,40.575949,42.291807,39.706873,50.343444,52.820129,53.286407,47.573567,56.833227,57.746083,57.430538,11.194153,10.433292,9.258556,9.677753,-22.798061,-34.60825,-46.632786,-59.510651,-34.482136,-47.116814,-57.32317,-68.567677,-42.099495,-56.763897,-67.290058,-77.309647,-46.252441,-60.319233,-70.681171,-80.510902,-31.887233,-61.096321,-82.476351,-102.352419,-62.833082,-76.895071,-87.060455,-97.267273,-52.669551,-69.001794,-80.88495,-92.531912,-39.342669,-53.062376,-64.569071,-74.153013,-23.9775,-32.76341,-39.891445,-46.51004,51.111259,290.446814,-147.434006,167.007802
37,1.755867,-0.201924,-8.814583,-11.238513,-26.702499,-51.604958,-74.856434,-92.919044,-60.406837,-91.805248,-107.528915,-119.558945,-54.919167,-89.410744,-106.803589,-120.482254,-47.608566,-80.099659,-97.540684,-110.871048,-40.075722,-66.800823,-81.346436,-93.047562,-18.5744,-18.847214,-6.578457,4.180256,9.055513,21.79419,27.068972,30.644321,26.801593,37.524923,40.885565,42.616306,39.370828,49.936447,52.6907,53.287456,47.433147,56.950429,58.438614,58.424967,11.187744,10.841045,9.464607,11.319866,-21.751099,-33.157539,-45.391445,-58.327217,-34.234142,-46.484413,-57.059784,-68.40374,-42.764854,-56.298008,-66.705437,-76.360931,-48.199196,-61.554279,-71.69569,-81.486225,-29.918816,-58.086359,-79.299601,-99.285987,-59.675166,-72.632934,-82.242688,-91.711527,-49.265992,-64.009335,-74.961326,-86.244454,-36.407518,-49.224835,-60.341515,-69.998816,-21.898055,-31.051195,-38.193433,-45.272098,51.552114,290.824649,-157.563601,156.349048
38,0.852013,0.455224,-3.953133,-5.867524,-26.464691,-51.189308,-74.69696,-92.799053,-60.271683,-92.492981,-108.395348,-120.129547,-54.759636,-90.296402,-107.950401,-121.506729,-47.37442,-80.608578,-98.143215,-111.557236,-39.842148,-67.249146,-81.826229,-93.611584,-18.903345,-19.227164,-6.911353,4.631096,8.545207,21.306547,26.575957,30.129446,26.341923,36.93675,40.363466,42.132244,38.893991,49.335183,52.163043,52.701939,46.722029,55.973846,57.479506,57.568118,11.067181,10.284004,7.05328,8.690014,-24.637699,-39.54689,-52.71143,-66.316566,-37.430992,-52.717552,-64.331589,-76.707802,-45.401859,-61.581745,-72.834778,-84.143372,-49.799995,-64.15123,-74.138775,-84.65538,-28.681893,-57.668339,-78.606329,-98.396379,-61.003386,-76.138134,-85.980347,-94.761349,-50.480591,-66.910801,-78.089664,-89.203719,-36.904424,-51.070709,-61.999266,-71.976126,-20.675026,-30.185763,-37.677045,-45.206272,50.63241,291.403282,-163.28845,150.604932
39,1.184464,-0.129799,-2.525253,-7.758137,-26.380005,-51.332474,-74.992733,-93.499203,-60.361748,-92.563248,-108.617649,-120.714169,-54.912758,-90.213146,-107.882767,-121.698132,-47.609253,-80.855312,-98.523674,-112.137508,-40.197716,-67.588234,-82.154388,-93.989525,-18.843262,-19.109097,-6.617853,4.151171,8.581887,21.378487,26.610105,30.131299,26.398178,37.011406,40.347596,42.095935,39.122776,49.439109,52.13402,52.66989,47.181514,56.318352,57.610788,57.441159,11.324158,9.707279,5.354004,6.221695,-27.220688,-45.991573,-59.630814,-73.374023,-39.847126,-59.346027,-72.771378,-86.760693,-47.305756,-66.431122,-79.136467,-91.581459,-50.892735,-67.24102,-77.516212,-87.92347,-26.32383,-55.57957,-76.783303,-96.774196,-58.669313,-74.743748,-84.673925,-93.365975,-47.263179,-64.600008,-76.643037,-88.081313,-32.606255,-48.101441,-59.661859,-70.212009,-15.189305,-25.528454,-33.066913,-40.542171,50.50415,291.319224,-167.126427,142.892537
40,0.79834,-0.014141,-0.301437,-3.177676,-26.458511,-51.239777,-75.15192,-93.898945,-60.223618,-92.569485,-108.726826,-121.141434,-54.981194,-90.172119,-107.853241,-121.87088,-47.913208,-80.99905,-98.837357,-112.705879,-40.596199,-68.009949,-82.887211,-94.991055,-18.977445,-19.582291,-7.288339,3.556391,8.40349,20.886645,26.317408,30.199286,26.319878,36.614475,39.909353,41.793173,39.080971,49.085032,51.650515,52.106171,47.170399,56.408878,57.700388,57.502601,10.753384,9.335175,5.940399,7.246628,-28.554897,-48.982601,-61.870079,-74.132767,-40.248528,-62.229252,-76.708832,-90.043602,-46.692753,-67.749538,-81.11824,-92.989311,-49.057503,-67.011452,-78.133278,-88.562393,-25.576496,-55.223949,-76.63504,-95.537428,-57.545857,-74.540373,-84.174148,-92.381488,-46.047097,-64.095662,-75.862326,-85.135478,-31.429231,-47.312703,-58.799391,-68.591092,-14.089592,-24.848922,-32.180795,-39.224448,50.673065,291.394621,-168.057289,139.804399
41,0.476532,-0.209519,7.020378,-1.422853,-26.598129,-51.531029,-75.638752,-94.636745,-59.564896,-92.344551,-108.641624,-121.218109,-54.442863,-89.990845,-107.731476,-122.103939,-47.691765,-80.82962,-98.730125,-112.900429,-40.830002,-68.005028,-82.870903,-95.317898,-19.097612,-19.841519,-7.586903,2.929069,7.712565,20.282787,25.945053,29.957039,25.568129,35.970788,39.384722,41.487508,38.390169,48.247882,50.887835,51.430868,46.719806,55.945935,57.426401,57.495685,10.330353,7.923317,3.708572,4.290047,-31.100807,-52.348595,-65.77549,-78.676929,-42.73819,-65.568295,-80.528927,-94.569454,-48.717613,-70.564327,-84.040718,-96.455154,-50.204773,-69.693661,-81.04517,-91.808109,-26.078897,-54.922144,-76.956204,-97.35465,-56.468374,-72.541821,-82.467181,-90.776317,-44.206317,-61.327947,-73.069849,-82.375111,-29.364822,-44.746695,-56.449448,-66.713293,-11.886399,-22.617169,-30.058649,-37.259982,50.017548,291.26036,-162.168961,138.456805
42,0.176582,-0.267379,12.73098,-0.329191,-26.230087,-50.657043,-74.217796,-92.764606,-58.612175,-91.721535,-108.305283,-120.881996,-53.487968,-89.630527,-107.825546,-122.372246,-46.811028,-80.432053,-98.67445,-112.932415,-40.042648,-67.383385,-82.52552,-95.10664,-18.805594,-19.595443,-7.46334,2.922462,7.977597,20.661379,26.227932,30.153467,25.810067,36.133377,39.526253,41.766497,38.470136,48.539714,51.325522,52.210159,46.531652,55.95106,57.523349,57.752196,9.567947,5.060692,-0.492496,-0.762634,-33.967381,-57.725658,-72.313499,-85.481586,-44.726486,-69.747334,-85.441704,-99.532242,-50.247746,-73.842773,-87.738934,-100.01627,-50.962429,-71.916904,-83.36729,-93.951302,-26.762474,-54.955458,-77.424797,-98.085528,-54.188889,-69.611239,-79.208797,-86.974745,-41.634351,-58.54362,-69.852653,-78.558071,-27.166909,-41.905713,-52.50548,-61.529531,-10.762418,-21.555309,-28.502138,-34.722751,48.192444,291.245525,-151.439667,138.380157
43,0.36232,-0.172592,16.279793,-2.197821,-26.302185,-50.931587,-74.423618,-92.964821,-58.797798,-91.478405,-107.861252,-120.365982,-53.703575,-89.430771,-107.485371,-121.973591,-47.011642,-80.294266,-98.373299,-112.466068,-40.237083,-67.231178,-82.216244,-94.675713,-18.715253,-19.620946,-7.895222,2.371463,7.452348,20.480697,26.222559,29.994954,25.29408,36.053596,39.713295,41.727532,38.160643,48.422759,51.333117,51.898319,46.49664,56.204422,57.858963,57.980179,8.900928,3.757782,-3.323078,-6.099758,-34.479961,-57.790833,-71.439114,-83.149166,-43.961563,-69.648743,-84.297295,-97.831364,-48.879375,-72.542953,-85.57188,-97.533588,-49.780998,-69.991837,-80.226746,-88.889351,-26.509946,-52.611969,-73.017207,-93.3062,-50.703696,-65.762058,-73.733419,-80.511762,-36.726552,-53.347756,-63.906798,-72.17771,-21.806571,-36.292168,-47.195439,-56.252094,-5.415511,-15.054503,-22.148236,-27.94237,47.851696,291.818291,-135.862942,136.927695
44,-0.638924,-0.019884,14.742565,-3.439004,-26.568375,-51.461449,-75.111809,-94.039364,-59.019814,-92.000027,-108.398666,-120.660725,-53.510284,-89.750862,-107.668076,-121.745453,-46.434631,-80.326996,-98.341885,-112.500858,-39.291458,-67.30442,-82.397518,-94.772129,-19.265882,-19.737222,-7.570168,2.776484,7.804449,20.862377,26.476601,30.451413,25.471921,36.656341,40.169693,42.493299,38.220603,49.044647,51.827244,52.699963,46.283601,56.220045,57.842414,58.133629,10.306835,5.913677,-2.049294,-8.32037,-21.103992,-53.143959,-66.638718,-73.942394,-31.266174,-62.539444,-74.544983,-80.631237,-37.464409,-64.862537,-76.884041,-84.3116,-40.202522,-62.346039,-71.533642,-76.927814,-26.794245,-50.201912,-67.166448,-83.968642,-46.966159,-63.89204,-70.351936,-74.678849,-31.808193,-49.909338,-57.225651,-60.818629,-15.824099,-31.949015,-39.94946,-45.712595,-1.479787,-12.300065,-18.101547,-23.2268,47.41519,292.260393,-120.917959,133.950676
45,-0.016479,0.08077,30.512295,6.488733,-26.745071,-51.910172,-75.87862,-94.988594,-59.495087,-92.213402,-108.414688,-120.435219,-53.968277,-90.021629,-107.768612,-121.612701,-46.979141,-80.764103,-98.595085,-112.298355,-40.086937,-67.799721,-82.476025,-94.46949,-19.174367,-19.74877,-7.514963,2.733752,7.160578,20.476684,26.213976,30.28938,25.031394,36.323939,39.86656,42.163984,38.043009,48.735895,51.537635,52.48396,46.423157,56.216278,57.807216,58.155921,14.792404,15.568485,12.498837,9.14566,0.665131,-24.334145,-29.481983,-32.460251,-6.722088,-34.546108,-39.725018,-41.788673,-12.964783,-37.755489,-42.442074,-42.514915,-17.552204,-36.667213,-41.435509,-41.743069,-28.313737,-56.137855,-79.403373,-99.49708,-44.024925,-56.012008,-60.183403,-61.849491,-29.898592,-43.078137,-48.686958,-49.995634,-16.962159,-30.158469,-34.662853,-35.734963,-5.825966,-15.847502,-19.249641,-19.270852,47.888432,293.113629,-89.915943,141.211876
46,-1.228065,-0.093058,10.977859,-4.983814,-26.980133,-51.743317,-75.312366,-94.11787,-59.464417,-92.084026,-108.233986,-120.100479,-53.891602,-89.880352,-107.426834,-121.131878,-46.972733,-80.446758,-97.952385,-111.44062,-40.131569,-67.655239,-82.185631,-94.182072,-19.070318,-19.760688,-7.859963,2.607226,7.295688,20.618401,26.305614,30.202991,25.115128,36.385072,39.866189,42.110138,38.067276,48.898484,51.738571,52.833097,46.260074,56.179105,58.03915,58.730199,10.765228,23.971596,26.833305,20.743504,44.56295,80.849419,77.27829,67.911186,49.356136,89.523811,86.350136,75.338631,52.163773,89.27845,85.748062,75.059738,53.80949,82.556534,80.24025,71.742668,-32.504738,-57.773068,-79.150628,-97.005081,-41.828957,-38.478195,-34.619164,-32.138033,-22.318482,-23.068904,-20.302424,-16.912759,-4.138451,-8.279495,-7.560597,-5.675913,11.867935,4.471533,2.132983,2.814522,46.804104,293.21544,-78.794346,136.422931
47,-0.640068,0.3542,6.521416,-1.774275,-26.705017,-51.981468,-75.661182,-94.125195,-59.954567,-92.791386,-108.879662,-120.385094,-54.065552,-90.603676,-108.358498,-121.492195,-46.803818,-81.01078,-98.776875,-111.841679,-39.670486,-67.68465,-82.429104,-94.222355,-19.468361,-20.381464,-8.47191,2.405611,7.069187,20.463099,25.932024,29.243945,25.292104,36.580697,39.71311,41.090268,38.47273,49.45504,52.008543,52.426841,46.669171,56.706453,58.14215,58.118315,13.912354,32.071152,42.412777,45.710392,53.11409,81.0569,101.255035,119.350777,56.804466,89.191475,112.594643,132.129707,58.440514,89.472542,112.38842,130.426483,57.987099,84.023209,100.608788,114.535904,-33.63934,-57.545734,-75.265262,-91.663639,-39.910372,-42.161391,-42.458009,-41.098635,-21.792523,-24.062067,-25.497363,-25.216182,-6.157936,-8.429425,-11.368807,-12.774339,7.157799,4.23404,1.355669,0.040076,46.394663,293.416299,-72.042303,134.495315
48,0.130234,0.047918,34.408035,-13.762129,-26.915245,-52.230721,-76.155567,-94.259777,-60.019798,-93.505039,-108.950615,-119.599228,-54.04541,-91.074486,-107.64061,-119.40485,-47.076645,-81.967506,-99.060173,-111.06308,-40.653763,-69.046669,-83.376904,-94.313221,-19.450515,-20.232646,-8.26801,2.924994,6.666513,20.082531,25.410295,28.571607,25.136123,36.884262,39.835747,40.879514,38.472359,49.448618,51.848301,52.271785,46.735305,56.542753,57.717987,57.730584,6.67345,26.652489,41.020317,46.051712,58.253746,102.058983,121.846504,134.74411,64.397049,112.522888,134.500237,146.9347,65.87368,110.764046,131.346817,141.916351,64.078903,99.865036,116.74015,126.832809,-33.792573,-56.672182,-74.115932,-92.701324,-38.704448,-44.603156,-45.439102,-45.125071,-18.229123,-28.920373,-33.694545,-35.831171,-0.262532,-8.975669,-16.272129,-21.483802,14.164927,4.319997,-4.203165,-9.987172,46.936455,293.011247,-37.22271,120.280216
49,1.185722,-0.036927,6.472721,-5.553616,-26.735344,-52.408218,-76.123981,-93.650551,-60.514297,-93.789883,-108.580914,-118.201847,-54.871445,-91.727772,-107.819653,-118.652859,-48.191299,-82.89917,-99.672604,-110.902405,-42.068024,-70.375729,-84.782124,-95.65567,-19.567532,-19.949953,-8.075842,2.160585,6.155158,19.22809,24.9681,28.761798,24.834904,36.232733,39.44851,40.9764,38.46532,49.165802,51.724245,52.428138,47.014294,56.690398,58.067309,58.303566,13.312283,33.284512,49.842167,54.194927,63.027821,99.819431,120.057278,136.176052,68.942814,109.905109,134.181461,152.889233,71.624851,109.402714,131.440487,147.574024,71.318035,101.195812,117.154484,130.633793,-32.676435,-55.670158,-72.853043,-92.364692,-40.336944,-48.550397,-50.575594,-50.656086,-21.028053,-31.594784,-35.429886,-37.209069,-4.288381,-14.175116,-19.425846,-22.384987,9.982108,1.607981,-3.925752,-7.922609,48.893452,292.488993,-29.978714,114.241273
50,0.056419,-0.263798,9.505978,-5.320632,-26.59893,-52.392426,-75.839653,-93.622227,-60.005379,-93.905582,-107.658577,-115.132027,-54.359779,-91.953506,-106.96558,-115.298882,-47.8339,-82.928352,-99.133072,-108.993473,-41.986542,-70.768833,-85.423222,-95.767422,-19.361471,-19.558331,-7.738068,2.612536,6.663363,19.876037,24.965383,27.853573,25.413073,37.080381,39.265296,39.593314,39.135991,49.822888,51.485703,51.150645,47.61599,57.277089,58.234652,57.646974,15.12085,35.770111,51.795959,56.560822,64.459648,98.586388,118.868179,135.231743,69.614182,108.880463,133.141136,152.683182,71.958618,108.405533,130.460587,147.354698,71.078682,100.703316,116.645393,130.55912,-33.38252,-56.784722,-74.158231,-94.328139,-41.187401,-49.390264,-52.377379,-53.152038,-22.194673,-32.926246,-37.468606,-40.133044,-5.209512,-14.375311,-20.608582,-24.769603,9.794325,1.812498,-4.177909,-8.643452,49.733849,292.13311,-19.688759,108.828556
51,1.198082,1.08551,7.066612,-3.536137,-26.317749,-52.879486,-76.57465,-94.739799,-59.953766,-95.187092,-108.258934,-113.782139,-54.227715,-93.146782,-107.51627,-114.460487,-47.878075,-84.003811,-99.792366,-108.858891,-42.389832,-71.796227,-86.834221,-97.144032,-19.638051,-20.306561,-8.692605,1.068838,5.711728,19.454467,23.195616,24.474405,24.871522,36.458863,37.43946,37.031043,38.874972,48.772822,49.583358,48.646542,47.522376,56.573875,57.205149,56.423451,14.201317,33.46344,49.642296,54.255753,62.708359,98.518066,118.668251,134.131851,68.210564,109.171028,133.256264,151.742134,70.652962,108.7817,130.47123,146.271057,69.994583,100.361252,116.224365,129.322472,-32.598104,-55.231977,-72.331129,-91.766021,-40.199117,-48.075722,-50.825035,-51.679723,-20.194731,-31.545507,-36.490788,-39.479045,-2.661535,-12.818552,-19.00264,-23.155169,12.409641,3.340666,-2.974332,-7.448366,51.843882,292.964687,-11.710196,105.038485
52,2.443314,-0.126588,3.772774,-2.707817,-26.825066,-53.414383,-77.082138,-95.065384,-60.291939,-96.190739,-108.916569,-113.618145,-54.794083,-93.821125,-107.611942,-113.799076,-48.769226,-84.881687,-100.206757,-108.584747,-43.47908,-72.675705,-87.462502,-97.327881,-19.041172,-19.984286,-8.71039,1.478305,5.948108,19.642621,22.74527,23.309731,25.16249,36.954534,37.31565,36.554577,39.329331,49.21724,49.480852,48.314263,48.090295,56.803586,57.057134,55.970388,12.675362,32.175751,49.219551,53.648987,59.945869,97.739639,118.375626,134.457779,66.037102,107.820625,132.357788,150.793991,68.463364,107.492638,129.648399,145.388718,67.682076,99.30336,115.663033,128.955803,-32.25789,-54.847611,-71.826103,-90.873635,-39.250877,-47.265186,-49.852898,-50.563491,-19.600044,-30.703941,-35.364801,-37.983203,-2.179944,-12.573681,-18.490636,-22.583145,13.126964,4.404441,-1.622214,-6.298326,54.673548,292.381115,-7.551069,101.873684
53,1.474571,0.689011,2.157784,-1.040433,-27.289467,-53.719826,-77.448521,-95.700359,-60.492554,-97.301559,-109.088516,-111.403942,-54.707565,-94.346123,-107.362862,-112.309399,-48.405762,-84.911385,-99.686394,-107.407722,-42.935715,-72.552795,-87.001247,-96.071262,-18.695678,-19.873567,-8.942139,1.591308,6.513927,20.258766,22.658079,22.115601,25.742944,37.753646,37.966623,36.639977,39.775849,49.67129,49.729089,48.141918,48.476729,57.308767,57.145375,55.517758,11.041489,30.052872,47.862511,53.475952,58.079567,96.444511,117.519379,133.752823,65.026817,106.869736,131.578674,149.643517,67.983856,107.047119,129.302559,144.86721,67.636299,99.078484,115.413437,128.552513,-32.052972,-54.406991,-71.548936,-90.602551,-38.276888,-47.248266,-49.920268,-50.52499,-18.577272,-30.701039,-35.854173,-38.552604,-1.351747,-12.945449,-19.403153,-23.457006,13.610038,3.761341,-2.587311,-7.256167,56.543598,292.827817,-4.997807,100.590943
54,1.000328,-0.130108,1.25061,-0.568907,-26.36776,-52.957191,-76.916542,-96.135979,-59.034348,-97.146378,-107.243156,-106.639023,-54.645767,-94.891891,-106.33255,-108.416004,-49.590111,-86.617069,-99.599018,-104.802818,-44.790802,-74.142494,-88.137646,-96.154518,-18.231871,-20.094696,-9.588295,0.744586,6.573578,19.065625,19.605509,17.134998,25.998899,37.102735,34.978274,31.625659,40.211004,49.150611,46.683064,43.404982,49.094048,57.020701,55.912652,53.540201,10.015869,28.964996,46.352692,51.070175,57.544327,95.185776,116.237411,132.532768,64.40918,105.363579,130.348892,148.796883,66.998405,105.236664,127.719498,143.569221,66.272163,97.446327,113.885078,127.299843,-31.799301,-54.593076,-72.729635,-92.25774,-38.204702,-47.992328,-51.050455,-51.909558,-19.180975,-31.885782,-37.341061,-40.053448,-2.487831,-14.912107,-21.76279,-25.938415,12.472286,1.900616,-4.551191,-9.033097,57.861185,292.536726,-3.429937,99.861053
55,0.220528,0.691728,0.58136,-1.253996,-26.327133,-52.779121,-76.863842,-95.791283,-57.653732,-97.132988,-105.666733,-102.817383,-53.669586,-94.609051,-104.162922,-103.969688,-49.167366,-86.968346,-97.484894,-100.128479,-44.998283,-74.405937,-87.388058,-93.840694,-18.504993,-20.481191,-10.02308,1.238528,6.780998,18.800839,17.845684,14.548459,26.194957,36.46615,32.712466,28.25952,40.455906,48.793447,45.043962,41.094282,49.173953,56.393502,54.33499,51.471006,10.385628,28.622932,45.011559,49.477615,56.658211,94.211082,115.129395,131.064148,63.502007,104.517632,129.189606,147.214165,66.083679,104.509506,126.833496,142.367477,65.299988,96.72718,113.102646,126.103363,-31.687872,-54.342462,-72.488315,-91.767627,-37.960788,-47.65517,-51.187448,-52.705829,-18.511477,-31.209368,-36.989423,-40.10893,-1.463824,-13.942193,-21.016598,-25.241222,13.474249,3.032624,-3.664825,-8.276346,58.470268,293.353946,-2.460022,98.732548
56,-0.726357,0.196613,-0.037537,0.235207,-26.301155,-53.028946,-77.188225,-95.604286,-56.566315,-96.006832,-102.740707,-98.35928,-52.734261,-93.512993,-101.314602,-99.406357,-48.207092,-86.0709,-94.604645,-95.206146,-44.097404,-72.952995,-84.723415,-89.302368,-19.313862,-21.184158,-10.6609,1.697581,6.513557,18.374761,16.55757,12.822411,25.77314,36.172342,31.718284,26.371007,39.897559,48.622213,44.169082,39.607147,48.469566,55.857261,53.1098,49.636216,9.496651,27.408371,44.093056,49.217491,56.799889,93.837662,114.860344,131.02684,63.656502,104.07589,128.628387,146.562424,66.234169,104.038239,126.307526,142.028503,65.459404,96.409264,112.861061,125.997047,-31.966336,-54.735133,-72.743375,-91.609608,-38.216002,-47.753384,-51.402401,-53.047463,-18.643005,-31.208627,-37.057842,-40.194763,-1.638053,-13.975816,-20.779816,-24.744131,13.252626,2.648383,-4.075743,-8.675995,58.035307,293.627856,-2.206163,99.045052
57,1.387711,-0.319744,-0.473328,0.33373,-26.616783,-53.428001,-78.139572,-97.479744,-58.0196,-95.152988,-99.448242,-94.230194,-54.455452,-92.695198,-98.16164,-95.066872,-50.107613,-86.016312,-91.963463,-91.410885,-46.034431,-73.602104,-83.581924,-87.003479,-19.061796,-20.516513,-9.632756,2.880965,6.804587,16.746341,14.324058,11.804826,25.84971,34.972284,30.398184,26.288385,39.923556,48.109869,43.125685,39.380708,48.495069,56.065669,53.0717,49.831903,10.102386,27.818642,43.948746,48.642426,57.246552,94.084969,115.047455,130.912399,63.499374,103.921165,128.496895,146.543198,65.644455,103.566399,125.939827,141.975174,64.436302,95.259132,111.514778,124.635429,-31.74916,-54.461517,-72.479793,-91.412778,-37.920187,-46.367643,-49.879451,-51.828356,-18.480046,-30.305775,-36.139151,-39.658461,-1.490562,-13.195415,-19.982896,-24.199462,13.386779,3.409796,-2.833202,-7.034206,59.688263,293.387847,-2.414246,99.458517
58,-1.508331,-0.13653,-1.28437,1.10842,-26.176643,-52.630463,-77.066689,-96.589279,-58.027611,-94.060192,-97.884636,-92.177696,-53.83564,-91.57299,-97.121887,-93.865471,-48.947639,-84.869843,-91.481323,-91.19339,-44.28978,-72.226067,-83.460732,-87.871571,-19.015298,-20.67447,-10.25205,1.353569,5.792003,15.837931,12.168042,8.837534,25.357004,33.87572,28.243897,23.682395,39.712801,47.976489,42.541835,38.409436,48.564476,56.573937,53.699949,50.644168,10.326233,28.341637,44.423218,49.18396,56.138649,94.084511,115.669212,132.070885,62.406807,103.727188,128.627472,146.798401,64.711075,103.526115,126.059761,141.995201,63.775749,95.149269,111.778793,125.02018,-31.67015,-54.624106,-72.88185,-92.174037,-37.614862,-45.379699,-48.183599,-49.365811,-17.815488,-29.557298,-35.33445,-38.660574,-0.783242,-12.38704,-19.323618,-23.337642,13.745796,3.680942,-2.663017,-6.702081,58.247309,293.394177,-3.631239,100.709797
59,-0.443687,-0.072124,-0.323181,0.395944,-25.7341,-51.97197,-76.583462,-95.710773,-57.450027,-93.42144,-96.069603,-89.378471,-53.884392,-91.112366,-94.69099,-89.870968,-49.348869,-84.721012,-89.460297,-87.716846,-44.866104,-72.362251,-82.355747,-85.403938,-19.198944,-20.899056,-10.498249,1.639659,6.027458,15.093221,10.988301,7.827235,25.334897,32.596252,26.377059,22.088061,39.457772,46.713631,40.69136,36.781509,48.270235,55.945565,52.614253,49.598363,10.43644,29.028969,45.426865,49.67514,55.609245,93.093796,114.431076,130.919037,61.922493,102.824707,127.441292,145.640945,64.389954,102.788086,125.281334,141.288185,63.60157,94.841766,111.348381,124.686813,-31.828818,-54.791542,-72.812288,-91.910332,-37.448846,-45.952063,-49.039244,-50.351317,-17.745339,-29.870465,-35.3782,-38.457354,-0.808282,-12.743124,-19.502663,-23.543116,13.870501,3.559788,-2.900818,-7.366948,57.802134,293.388665,-3.955908,101.172354
60,-0.618668,0.824368,-0.627022,0.51046,-25.171509,-51.222267,-75.748615,-94.505768,-57.534828,-93.341331,-93.774548,-85.993423,-53.809319,-90.905342,-92.739601,-86.722126,-49.169197,-84.467583,-87.784538,-84.978161,-44.563408,-72.120667,-80.870533,-82.56918,-19.869492,-21.565961,-11.185223,1.196723,5.752668,14.809293,9.923415,6.612358,24.757531,32.138805,25.851192,21.758499,38.790312,45.961511,39.7057,35.818326,47.623894,54.971637,51.043632,47.634762,10.318222,28.55896,45.025635,49.817505,55.535774,92.975922,114.266281,130.804825,61.696815,102.33387,126.825714,144.902802,64.056244,102.345314,124.702835,140.635986,63.28022,94.713478,111.353531,124.723778,-31.68673,-54.5216,-72.290127,-91.154229,-37.480617,-45.728959,-48.701377,-49.969298,-17.836051,-29.528738,-34.943447,-38.079843,-0.865247,-12.460307,-19.021443,-23.050688,13.939445,3.95391,-2.436393,-7.018984,57.169218,294.252415,-4.597178,101.722195
61,-0.487633,-0.217547,-0.139046,-0.459022,-25.228615,-51.821823,-76.312294,-95.108185,-57.672501,-92.877445,-95.430508,-89.2939,-53.048401,-90.016994,-94.080849,-90.359917,-47.806549,-83.11409,-88.914013,-88.523655,-42.871742,-70.779305,-82.157021,-87.028656,-19.826637,-21.111478,-10.330288,0.827517,7.028864,15.748949,11.4723,8.319077,25.947894,33.289771,27.765023,24.126812,39.696993,47.113033,41.811513,38.300508,48.210461,56.092098,53.672532,51.432783,9.988976,27.963066,44.369545,49.166794,55.510597,93.247719,114.647484,131.041374,61.4217,102.394753,127.033539,145.08728,63.369827,101.849899,124.173775,140.341072,62.082596,93.580856,110.117226,123.686142,-30.787181,-53.211503,-70.890492,-89.817209,-37.840189,-45.329032,-47.931133,-48.914786,-18.357502,-29.104142,-34.167213,-37.118914,-1.18181,-11.882941,-17.847258,-21.566856,13.991902,4.599572,-1.356626,-5.64547,56.562052,294.038836,-4.855757,101.26714
62,-0.067406,-0.295043,-0.357056,0.016364,-25.353584,-51.881218,-75.8634,-94.41473,-58.86692,-92.969055,-96.621323,-91.487961,-54.168892,-89.857521,-95.162487,-92.672081,-48.274384,-82.660847,-89.731522,-90.616493,-42.496147,-69.684334,-81.834812,-88.078938,-19.518688,-21.059422,-10.713882,0.160057,7.662115,15.7931,11.614882,8.224537,26.629433,33.060183,27.604225,23.664919,40.267876,47.153479,42.428276,38.925422,48.564229,56.50138,54.747607,52.700272,10.185585,28.185196,44.474716,49.200325,56.078224,93.241425,114.254951,130.425568,61.944008,102.59491,126.953545,144.943199,63.702736,102.04937,124.27002,140.393944,61.958199,93.320389,109.906082,123.381157,-31.173893,-53.246732,-70.534624,-89.316105,-36.991523,-44.532421,-47.332617,-48.484077,-17.700323,-28.661732,-33.933611,-37.139291,-0.768577,-11.492678,-17.47549,-21.181626,14.263759,4.835181,-1.0421,-5.087894,56.339636,293.748068,-5.367823,101.287781
63,-0.875359,0.479862,-0.811157,0.466864,-25.140839,-51.527939,-75.11713,-93.790798,-58.273087,-92.705441,-98.698368,-95.300388,-53.033066,-89.427967,-97.150784,-96.912117,-46.739502,-81.177979,-90.517273,-93.696671,-40.841675,-68.226585,-81.087399,-88.69297,-19.769703,-21.592699,-11.407339,-0.608427,6.224071,16.044733,13.87328,10.915497,25.114819,33.707018,30.485376,27.631889,39.043489,47.110377,44.380639,41.841647,47.734303,55.611804,54.915506,53.567494,10.284805,28.315887,44.649353,49.986191,56.247597,93.628464,114.696465,130.727463,61.850853,103.013878,127.442093,145.289955,63.460808,102.328835,124.852638,141.149597,61.735039,93.46035,110.281334,123.888245,-31.038104,-53.20292,-70.546789,-89.001363,-37.109373,-44.275323,-47.047608,-48.384227,-17.889434,-28.361161,-33.600375,-36.991584,-0.791332,-11.29486,-17.471384,-21.585258,14.539906,5.203645,-0.686325,-4.809184,55.301714,294.234152,-6.341543,101.760866
64,-0.750961,0.152524,-0.344696,0.676105,-25.057411,-50.948067,-74.078636,-92.753963,-58.51181,-92.895985,-99.380894,-96.207676,-53.340912,-89.999828,-98.262577,-98.300056,-47.133522,-81.688671,-91.803703,-95.513992,-41.160965,-68.996086,-82.30711,-90.261269,-19.971936,-21.416031,-10.728331,-0.72106,6.290082,16.450125,14.278116,11.281739,25.051216,34.222078,30.888112,27.937368,38.797166,47.382017,44.884398,42.346951,47.476557,55.890051,54.952309,53.179949,10.426369,28.819771,45.309677,50.166321,56.630058,93.918228,115.155602,131.453362,62.606506,103.641129,128.287239,146.17321,64.565392,103.206825,125.401611,141.261177,63.164291,94.428062,110.975533,124.333076,-30.931399,-53.350534,-70.926122,-90.133495,-37.570556,-44.149044,-46.60319,-47.637016,-17.919692,-28.146764,-33.170592,-36.266665,-0.612163,-10.806446,-16.930635,-20.936508,14.625091,5.4885,-0.599936,-5.043588,54.397917,294.414247,-6.839075,102.464543
65,0.056877,0.045016,-0.323868,1.298889,-25.348091,-51.139297,-74.311924,-92.854729,-57.765656,-93.096828,-102.618084,-101.894188,-52.75795,-91.076775,-101.854477,-103.409672,-46.973534,-82.943344,-95.744476,-100.740967,-41.498337,-70.823879,-85.233135,-93.43689,-20.232955,-21.702306,-11.121558,-1.235317,6.59834,17.16785,15.271,11.984829,25.630188,35.081212,31.893779,28.286629,39.272027,47.856569,45.228657,41.7137,47.747889,56.288588,55.165533,52.600853,10.452003,28.745041,45.43911,50.41832,55.859184,93.347626,114.669113,131.128464,62.316513,103.488235,128.237,146.348763,64.853439,103.574638,125.954704,141.839218,64.013329,95.244255,111.785431,125.073738,-31.207763,-53.6185,-71.284861,-90.390716,-36.970095,-44.563945,-47.064713,-48.015669,-17.260784,-28.530265,-33.740147,-36.882626,-0.213718,-11.258428,-17.710914,-21.76665,14.639201,4.661446,-1.555616,-5.839428,54.439802,294.43268,-7.177935,103.736848
66,1.222229,-0.371861,-0.042801,0.75388,-25.178604,-51.281662,-74.768658,-93.9715,-57.920723,-94.367867,-104.575424,-104.475861,-53.292046,-92.176666,-103.336201,-105.457306,-47.691193,-83.945274,-96.861534,-102.171593,-42.366714,-71.437798,-85.779991,-94.348183,-19.665592,-21.426714,-11.084816,-1.083843,6.433467,17.188227,16.211027,13.405582,25.598201,35.451653,33.09044,30.061644,39.343966,48.13,46.085197,43.045101,47.897448,56.321686,55.69177,53.597752,10.467453,29.090996,46.14315,51.571083,55.392723,93.158684,114.537735,130.933228,61.728287,103.225708,128.167534,146.245079,64.292336,103.4095,125.994644,141.983299,63.706856,95.481606,112.312546,125.912018,-31.031836,-53.462858,-71.140303,-89.882541,-37.214905,-44.721841,-47.356731,-48.437857,-17.834723,-28.507603,-33.507256,-36.582704,-0.917055,-11.514476,-17.776616,-22.060242,13.905915,4.474435,-1.482319,-5.879998,55.598202,294.070961,-7.284565,104.500871
67,0.516357,-0.870125,-0.691109,0.663138,-25.501328,-51.772728,-75.432644,-94.925251,-58.344383,-94.6665,-106.181717,-108.091965,-53.53775,-92.799683,-105.409641,-109.152203,-47.724152,-84.131584,-98.313961,-104.880238,-42.209473,-71.712456,-86.443233,-95.53751,-19.201599,-20.624576,-9.782624,0.50376,6.883071,18.647266,19.962426,18.730382,25.866939,36.666592,36.130166,34.25635,39.604244,48.895767,48.505196,46.585252,48.173164,56.690027,56.907327,55.619214,10.8918,29.49646,46.261711,52.169609,57.133484,94.263153,115.429001,131.679039,62.674713,103.67363,128.390579,146.268196,64.234772,103.103027,125.405846,141.204643,62.481766,94.073982,110.86132,124.334335,-31.107264,-53.362082,-70.658434,-88.863629,-37.25285,-43.610179,-46.149942,-47.351389,-17.801131,-27.692405,-32.723828,-36.095617,-0.532072,-10.154546,-16.27392,-20.544146,14.698852,6.175813,0.400328,-3.838097,56.102142,293.169066,-7.988091,105.132238
68,0.326042,1.029441,0.09201,2.688706,-25.990906,-52.580223,-76.327744,-95.715752,-59.019127,-95.692062,-107.884197,-110.50993,-53.808517,-93.70388,-106.801987,-111.179008,-47.912865,-84.702759,-99.455738,-106.591187,-42.557259,-72.520752,-87.470226,-96.742058,-19.892463,-20.975071,-9.582799,0.369329,6.268964,18.784661,20.715596,19.798232,25.34558,36.773667,36.339129,34.151004,38.950616,48.528723,48.106967,45.707223,47.360158,56.109388,55.90802,53.925647,10.343513,28.92643,45.988541,52.017059,57.425423,93.683395,114.562569,130.718651,63.613586,103.894386,128.054581,145.697365,65.93502,104.115829,125.702133,141.040649,64.89109,95.592728,111.75602,124.670219,-31.598025,-54.103581,-71.548782,-89.794856,-36.769036,-44.572405,-47.530373,-48.796472,-17.331704,-28.483551,-33.967111,-37.209872,-0.630842,-11.108374,-17.778345,-22.024766,13.843146,4.842869,-1.217131,-5.432245,56.404238,294.161518,-7.920027,107.783955
69,0.361748,-0.478998,-1.348343,3.345977,-25.978775,-53.015671,-77.089405,-95.673351,-59.550819,-96.755333,-109.718285,-112.943001,-53.845024,-94.647045,-108.572273,-113.65099,-47.669678,-85.195827,-100.662117,-108.213043,-42.292557,-72.712555,-87.947502,-97.513561,-19.531717,-20.528677,-8.935408,1.530854,6.178746,19.989782,22.868524,22.430405,25.422645,37.169611,37.404077,35.612698,39.32575,48.856247,49.004386,46.913826,47.928262,56.645938,56.844712,55.316019,10.499039,28.857994,45.829926,52.209663,57.15683,94.574432,115.443535,130.995598,63.292809,103.990173,128.379593,145.983696,65.503349,103.877449,126.036072,141.489029,64.442482,95.456657,111.883621,124.662437,-31.986127,-54.616294,-72.195556,-90.299758,-37.65219,-45.240328,-48.073375,-49.276335,-18.38637,-29.653721,-35.506086,-39.03543,-1.70039,-12.530671,-19.393211,-23.554849,12.650097,3.412791,-2.957042,-7.182283,56.703186,293.689683,-9.331169,111.137095
70,1.113167,-0.142396,-1.697731,3.394945,-26.603165,-53.571625,-78.037033,-96.615486,-59.428253,-97.061291,-110.938282,-115.740395,-53.556061,-95.065155,-109.722061,-115.6394,-47.495041,-85.633564,-101.815453,-109.925766,-42.486076,-73.227997,-88.648853,-98.197689,-19.259892,-20.182011,-8.5365,2.050669,6.845404,20.200598,23.706045,24.540478,26.195204,37.658612,38.359294,37.300028,40.020257,49.845735,50.214571,48.460674,48.39565,57.688902,57.846551,56.273583,11.203651,30.009499,46.888733,52.932129,58.656349,95.171585,115.815582,131.254807,64.400482,104.6735,128.548622,145.578003,66.27903,104.292984,126.006432,141.081734,64.866486,95.414886,111.72924,124.516182,-32.270333,-54.632812,-71.69828,-89.645852,-37.726723,-45.190403,-48.275947,-49.772129,-18.550843,-29.550351,-35.425192,-39.130588,-1.838896,-12.271011,-19.248406,-23.686933,12.509337,3.613912,-2.577956,-6.842687,57.788372,293.436028,-11.056881,114.420781
71,1.868248,-0.718466,-3.359756,4.325184,-27.989616,-54.518967,-78.802986,-97.81374,-61.622772,-97.817688,-111.643238,-118.167973,-55.766945,-95.181141,-110.025101,-117.783279,-49.209709,-85.812035,-102.427254,-112.00367,-43.460541,-73.232231,-88.479652,-98.59726,-19.007147,-19.785573,-8.543911,1.787304,6.796991,19.773346,24.18177,26.040581,25.697928,37.480956,39.439988,39.574975,39.639998,50.444406,52.111667,51.727147,48.480187,58.564461,59.809905,59.392102,12.406769,31.782532,48.680077,55.038414,58.576355,95.550613,116.165657,131.60408,64.29451,105.299377,128.82534,145.175743,66.308212,104.971733,126.581383,140.877914,65.256844,96.315651,112.871017,125.419693,-31.899676,-54.06511,-70.934829,-88.845042,-35.591332,-43.507148,-46.776215,-48.522918,-16.234276,-27.086324,-33.07633,-36.857401,0.094386,-9.750668,-16.934001,-21.735219,13.436149,5.676221,-0.170833,-4.45029,59.668007,292.384897,-14.405251,118.4133
72,0.159874,-0.897727,-4.03616,8.475615,-28.15361,-54.781952,-79.05859,-97.82856,-62.155838,-97.204685,-111.610909,-119.554882,-55.866966,-94.669361,-110.447674,-120.095329,-48.934364,-85.056725,-102.159176,-112.955818,-43.139076,-72.404823,-87.441502,-98.114548,-18.518702,-18.465226,-6.403703,4.666108,8.553173,22.70575,27.540992,29.51009,27.147581,39.742874,42.485457,42.595681,40.297084,52.186693,54.638926,54.445709,48.209535,59.064825,60.916843,60.833851,12.235279,32.858219,49.797192,55.751553,59.656849,96.469631,117.229214,132.755413,64.817677,104.95348,128.452435,144.58334,66.387234,104.593449,126.844425,141.547565,65.00845,96.705151,114.030933,126.870861,-31.077933,-53.284091,-70.3842,-88.068283,-36.455405,-43.382875,-46.317348,-47.970777,-17.756115,-26.904963,-32.412791,-36.501039,-1.396053,-9.370347,-16.125317,-21.39661,12.449439,5.529255,0.05292,-4.425837,59.70005,291.100936,-18.569241,126.502681
73,0.488319,-1.668928,-3.734322,7.515087,-29.401474,-56.023178,-79.695911,-98.448257,-63.9394,-96.687813,-110.921059,-119.951649,-56.921654,-93.201828,-109.067802,-120.172691,-48.986549,-83.064709,-100.033951,-111.81427,-42.051773,-69.442635,-84.137478,-95.548553,-17.883352,-16.991305,-4.09609,6.983292,10.209751,25.556952,30.886815,33.020415,28.39568,42.673981,46.069142,46.293666,41.168814,54.956755,57.984748,57.856678,48.753556,60.633471,62.915025,62.894524,14.078808,35.42284,53.418446,60.295544,58.327618,95.878658,116.609516,131.905689,62.183933,103.57584,127.0994,143.584385,62.984791,102.353153,124.833813,139.900646,61.301365,93.906269,111.289616,124.096928,-31.304279,-51.165002,-66.116845,-82.806994,-35.031163,-40.042518,-42.367668,-43.580168,-16.385009,-23.149488,-27.650692,-31.199519,0.949351,-4.805726,-10.607362,-15.463353,16.001631,11.189607,6.548014,2.02035,59.965267,289.010839,-22.526665,133.5966
74,0.111008,1.020179,-4.157124,9.015128,-29.003334,-55.735474,-79.720058,-98.5326,-62.666359,-97.325993,-112.905121,-122.862625,-55.504761,-93.996449,-110.593872,-122.214375,-47.930946,-83.683662,-101.325531,-113.543072,-41.86615,-70.472717,-85.617886,-97.268257,-18.652885,-18.334685,-5.610334,5.738836,8.441652,23.433664,28.732405,30.739293,27.215197,41.131702,44.11505,44.334017,40.480112,53.866984,56.382757,56.029483,48.463638,60.053943,61.802221,61.452281,14.723282,38.118896,56.493759,63.995934,58.926659,95.183258,114.937706,130.067825,61.063499,101.490669,124.245758,141.346664,60.794907,99.624596,122.247047,138.651123,58.301697,90.519676,107.849464,121.128502,-29.949845,-48.211572,-61.242515,-77.25486,-30.887865,-33.766638,-35.680191,-35.964304,-12.278143,-16.877808,-21.230903,-24.248924,4.975354,1.661271,-3.129079,-6.897089,20.064253,16.925417,12.939367,9.271392,59.742365,289.845211,-27.017698,142.42592
75,-0.207138,0.08466,-5.310516,8.89774,-28.379631,-55.117493,-79.38858,-98.550396,-62.137527,-97.626972,-113.784428,-124.257545,-55.209503,-94.553947,-111.882191,-124.021168,-47.844887,-84.395485,-102.47406,-114.840832,-41.923714,-70.797615,-85.941925,-97.377892,-18.717847,-18.328757,-5.285218,5.833129,8.864704,23.082242,28.29583,30.578187,27.470165,40.124244,42.990452,43.701075,40.433738,52.826922,55.604702,55.890854,48.150069,59.33628,61.264992,61.584303,17.303352,42.44854,61.94252,72.012177,60.427666,96.115837,115.459328,131.301727,59.114571,98.834267,121.00708,139.808922,56.397743,94.680748,118.436279,137.245216,52.048073,84.156418,102.308121,117.386971,-27.113803,-42.73888,-53.298448,-66.074145,-21.601467,-22.717236,-23.745442,-22.884517,-4.290357,-5.310659,-7.882193,-9.122635,11.595986,12.299015,9.566621,7.386152,25.512615,26.583614,24.555175,21.507113,59.136801,289.702197,-32.726641,151.095987
76,-0.444145,-0.452075,-5.743561,16.215905,-28.89576,-55.116463,-79.335823,-98.340855,-62.107201,-97.12532,-113.309097,-124.452839,-55.249329,-94.22121,-111.779709,-124.674625,-47.909317,-84.069786,-102.076492,-114.699039,-41.832275,-70.431061,-85.177975,-96.384029,-18.16765,-17.936766,-5.338076,5.629415,9.084041,22.54489,27.852462,30.64957,27.732542,39.494576,42.384063,43.34706,40.854134,52.783635,55.299717,55.352267,48.762571,59.831024,61.281665,61.042197,20.432167,46.131592,66.244011,77.984962,60.143852,94.994774,114.454308,130.150566,57.027168,96.579552,119.322624,138.932762,53.226013,90.602875,114.357719,133.34198,48.77243,80.312576,98.782883,114.69326,-25.898802,-39.698599,-49.261515,-60.390452,-18.28195,-15.983415,-14.197716,-11.045234,-2.292361,0.3676,1.009743,2.271427,12.327667,17.168838,17.197119,16.353856,25.3985,31.009081,30.860448,27.540684,58.713284,288.708293,-38.449574,166.770063
77,0.062828,-0.258919,-5.859032,17.807584,-28.793793,-54.412079,-78.60918,-98.153973,-62.369156,-95.899601,-111.892433,-123.688545,-55.919151,-92.793846,-109.851379,-123.004017,-48.68763,-83.109512,-100.646782,-113.576546,-42.176285,-69.667053,-84.044724,-95.319614,-17.542242,-17.637894,-5.888025,4.794919,9.933171,22.835549,27.892785,31.096581,28.1706,39.327541,41.938039,42.996874,41.018452,52.71361,55.204066,55.379498,48.722495,59.654912,61.129388,60.851882,21.003799,46.437721,67.346306,81.009407,58.664131,93.420296,113.050804,129.741211,54.651947,94.129257,117.537804,137.892494,50.485497,86.76693,111.099243,130.412636,45.751991,75.924797,94.773216,111.069031,-26.635361,-38.486871,-44.266956,-51.932405,-14.452499,-10.034751,-7.096913,-2.870591,1.829171,6.858248,9.809176,13.45276,15.650271,22.20199,24.452854,25.786293,27.41601,34.758689,36.341352,35.177419,58.975582,288.02308,-44.109135,184.151353
78,-1.115456,0.67555,-5.847073,14.527525,-28.157387,-53.467369,-77.157211,-96.678257,-62.014618,-95.669861,-111.876411,-123.500977,-55.601234,-92.686672,-110.225086,-123.32428,-47.966995,-82.47076,-99.936848,-112.569065,-40.816612,-68.700714,-83.2267,-94.397621,-18.267007,-18.074284,-6.793904,2.739125,9.781018,21.74689,26.297216,29.140205,27.792255,38.26037,40.784356,41.762112,40.544518,52.215407,54.666281,54.907725,48.258009,59.207221,60.527754,60.33781,21.70269,47.278576,68.158779,82.814198,61.531963,91.426792,109.910717,127.220707,56.382122,91.025448,113.34486,134.610386,50.602055,82.21796,105.180874,125.511761,43.824978,69.18314,87.299938,104.546757,-23.62225,-31.715753,-35.68334,-41.721481,-6.485831,0.116338,4.777012,9.785464,7.97945,16.1515,21.036883,26.0349,20.227459,30.193543,35.01341,38.10408,29.878307,40.767622,44.952262,45.991645,58.72673,288.232537,-49.089603,198.212786
79,0.969086,4.401755,-6.01799,14.498811,-30.220528,-54.788246,-78.573589,-96.686096,-59.722824,-95.581799,-112.347393,-124.071465,-55.239029,-93.753147,-111.972713,-125.087929,-49.654884,-85.025082,-102.523842,-114.694633,-44.114342,-72.069969,-86.590805,-97.62394,-13.481535,-14.216427,-8.636907,-0.589284,7.215474,16.947648,21.426775,24.054008,24.106126,33.806869,36.739951,37.236795,36.643065,47.646371,50.240814,49.669253,44.782757,54.400075,56.596229,56.864905,24.714546,50.313091,70.764256,85.203152,62.141933,90.172176,107.703724,123.677616,55.435123,88.213749,109.575863,128.830204,47.784176,76.084042,96.788464,114.880543,39.160137,58.885517,73.924427,88.19212,-20.597838,-26.326362,-28.678559,-35.045335,-0.676846,9.086079,16.957219,24.659163,13.047245,25.22387,33.512134,40.823691,24.020725,36.745385,44.20817,49.09448,31.811033,43.690701,48.792829,51.04851,60.766411,292.515746,-54.036999,212.593053
80,0.868492,0.185004,-7.630978,15.59025,-29.297676,-54.159737,-74.559402,-84.070129,-57.41272,-91.67181,-108.903465,-120.980473,-54.479713,-89.172249,-108.733807,-122.670937,-50.402184,-81.991711,-99.213181,-110.647202,-44.403419,-69.980621,-83.625011,-93.23679,-6.632921,-1.569634,8.339887,18.918968,4.147281,12.269622,17.831111,21.254615,14.55803,25.234923,30.249242,32.093233,23.846342,35.954733,37.834354,37.464778,31.516484,42.694297,46.567653,50.022835,26.412621,52.24411,72.829514,87.978401,60.691795,88.379631,105.491409,120.006752,52.693863,84.846039,105.669365,122.828979,45.069065,72.510681,92.901192,109.103165,37.529297,57.330437,72.435608,86.014595,-19.24606,-23.269717,-24.999222,-30.205585,5.59786,16.549234,25.533363,33.541774,18.954042,33.115696,42.511948,50.222289,28.669358,43.316988,51.308541,56.286489,34.561273,46.932536,52.182865,54.536111,62.363176,292.178527,-60.939703,227.661079
81,-5.197105,2.713004,-7.008991,15.247659,-22.180595,-50.132561,-72.915745,-87.640629,-61.937027,-84.214153,-101.277466,-117.353039,-59.048424,-74.909134,-82.81208,-91.667404,-51.46431,-63.346367,-58.574867,-53.975029,-40.753326,-55.349464,-57.211418,-56.313858,26.000134,41.793296,49.017848,57.079673,25.608452,27.322273,29.474892,30.713482,8.744414,13.229655,17.242568,20.450069,-6.906475,-2.557085,1.550738,4.163275,-21.626909,-20.280009,-16.955119,-14.186354,27.563267,53.612652,74.204578,90.049953,61.201344,88.669224,105.701809,119.748402,52.607403,83.975086,103.865376,119.620914,44.81987,71.559048,91.418095,106.750889,37.547779,57.313442,72.023106,85.573139,-18.723342,-21.983702,-23.531353,-28.813668,9.529756,22.358713,31.565761,39.728857,22.100966,38.553437,47.767772,55.788904,31.029644,47.677061,56.483102,62.855497,36.819115,49.495857,56.083824,60.648044,57.871656,293.727536,-67.243109,241.744743
82,-3.290062,-2.14064,-8.41959,12.910961,-21.142387,-50.368309,-71.861744,-86.989517,-65.366592,-82.627773,-96.68129,-111.101761,-63.064499,-67.529755,-50.042038,-36.362686,-57.220001,-61.449051,-45.363693,-31.423073,-48.606148,-65.272179,-72.359962,-76.396923,11.216592,22.010255,29.807912,38.381401,19.078593,25.929368,27.131093,27.173825,16.136494,19.920251,19.95057,19.618538,13.934721,19.622675,18.777127,17.275419,11.795687,19.20481,23.641454,26.703719,27.954941,53.977146,76.066933,92.977982,60.416164,89.968643,108.240051,122.592773,52.979279,86.006584,107.107201,122.168655,46.100349,74.589729,94.907799,109.79702,39.062004,61.4328,75.999985,88.695488,-18.057858,-20.362013,-20.062462,-23.714258,10.144605,21.600912,30.421093,39.423501,24.304468,39.782826,48.91386,57.163159,34.408071,50.71407,59.484234,66.280916,40.913353,54.098857,61.383491,66.655247,55.120325,290.775403,-75.123968,253.844211
83,-10.250587,9.684008,-5.442867,7.827173,-17.529144,-39.677238,-54.750366,-65.344505,-61.843929,-49.155235,-28.643646,-15.277061,-61.640739,-48.648949,-30.263443,-14.170189,-56.11187,-51.913261,-36.649933,-24.400864,-46.946983,-65.965633,-78.843498,-90.102482,-7.354351,-8.461659,-6.280202,-5.277684,-1.524185,10.348258,13.826102,14.120096,8.354151,21.024039,23.096383,21.568987,17.428313,28.500532,28.699183,27.527716,25.765236,32.928284,36.053349,39.603627,29.085674,54.809818,76.847019,93.59087,59.877548,88.790188,106.972332,120.923252,51.338768,83.937206,105.099277,120.325527,43.086834,72.097492,92.205334,107.509632,34.705582,57.778931,72.923756,85.861301,-16.262589,-16.983154,-14.748592,-18.654429,15.387338,28.903268,37.399075,45.713398,30.824077,47.722818,55.94081,63.36957,41.989848,59.649539,68.22908,74.999148,48.997223,63.990346,71.159693,75.99722,45.443544,299.651516,-79.993029,260.863488
84,-22.386475,11.704852,-3.171616,8.249855,0.742493,-6.950111,-15.736313,-21.978149,-39.408875,-21.367035,-0.748901,12.801132,-44.554939,-25.299683,-4.093437,13.17421,-44.213619,-29.671783,-9.979019,4.570427,-39.833279,-39.483891,-36.537037,-34.549026,-18.548342,-27.666902,-32.798052,-38.053877,-13.859077,-4.094052,2.829219,6.856333,-0.4057,9.171109,16.700152,21.188481,11.630196,19.883571,24.806993,28.586736,21.639691,30.147663,34.179594,37.844975,28.382263,53.868198,75.766582,93.154964,59.389915,89.907246,107.329159,119.571362,50.360184,84.52795,105.41399,120.188198,41.166,72.153111,91.864758,106.285229,32.119789,56.220989,71.138592,83.966618,-14.753594,-16.148535,-12.949988,-14.659733,16.312483,31.654434,39.681309,46.017889,33.212089,50.441442,57.913488,62.982333,45.157212,63.189197,70.130313,73.850343,52.309083,68.432671,74.469515,77.070566,23.583698,310.833466,-82.638016,268.590441
85,-1.003761,-19.656823,-3.841381,4.961152,-8.41507,-21.319313,-34.574203,-44.65107,-56.087494,-37.558708,-14.245262,1.651039,-64.819508,-41.386471,-13.810158,9.262047,-65.845413,-44.273243,-17.516327,3.441124,-63.867702,-48.847561,-27.962036,-11.3974,-20.272228,-20.957411,-4.692043,12.414179,-6.60186,10.84683,19.684549,24.437973,14.972561,28.522021,37.425134,40.356055,32.155477,43.940296,47.335272,48.511865,45.982383,55.271003,53.987582,52.452344,27.879696,53.688698,75.869293,93.540115,58.431816,90.330391,107.472153,119.88121,49.138355,84.779892,105.900421,120.677719,39.570065,71.66296,91.338844,105.105629,30.522308,55.083961,69.915447,82.082977,-13.781025,-14.221429,-8.989748,-9.09318,15.830027,33.205234,41.817564,48.04003,33.181646,51.523432,60.50503,66.466291,45.274352,63.632318,71.902735,76.552418,52.803395,69.61303,75.440478,78.098401,22.880116,291.196433,-86.179218,273.571384
86,-32.424431,16.833965,-1.636963,4.358838,11.097565,14.199142,13.490067,12.128334,-17.279205,6.107826,27.952766,44.715958,-29.099236,-1.105843,24.358292,46.344681,-32.9496,-9.135075,14.498749,34.973946,-32.578011,-19.603844,-3.294411,13.086319,-20.731898,-31.387673,-34.648033,-34.403872,-13.576013,-0.116955,10.259275,16.521137,2.56468,16.326747,27.651587,33.2894,16.157119,29.506261,38.199052,41.754455,27.745757,37.425319,42.129774,43.323904,26.983566,52.320671,74.975166,93.144951,57.074089,89.765739,107.59758,120.889206,48.31152,84.598846,106.137886,121.370773,39.498596,72.255764,92.221298,106.377182,31.409168,56.214809,71.24897,83.761368,-13.626155,-14.149675,-8.571451,-9.884388,17.62258,33.162627,40.887974,46.941613,35.272762,52.160326,60.218631,65.63618,46.999165,63.847147,71.349637,75.423188,54.141403,69.622416,74.866446,77.556047,-9.361181,308.226672,-87.633047,278.126495
87,-22.949066,10.576734,-0.62645,2.733444,10.172939,21.035042,26.777687,28.782005,6.950054,31.081123,50.028877,64.995461,-2.201328,26.9244,47.821198,67.282448,-7.436428,19.675312,38.622322,55.954857,-10.631847,5.281277,19.203529,33.038292,-21.654017,-35.446033,-43.024291,-48.178598,-18.088178,-8.371318,-0.091761,4.719831,-3.029475,9.334007,17.423558,21.131732,9.687528,20.845642,26.04373,27.846534,20.276674,28.431927,32.944771,34.186387,26.187801,51.554947,74.473915,92.475471,57.464962,90.258179,107.376938,119.579773,49.221325,85.717506,106.895142,121.701851,40.245667,73.807354,93.346024,106.817093,31.54604,57.503815,72.517033,85.02182,-14.710492,-15.300764,-9.151596,-10.640275,16.932519,32.516902,40.678701,47.003055,34.29976,50.405132,58.076509,63.064461,45.850731,62.079295,69.184112,72.863078,53.371746,68.051239,72.919271,75.354089,-31.791487,318.989198,-87.740736,281.045731
88,49.268188,-20.834713,-0.51899,1.837137,-3.860664,-15.651741,-27.042961,-34.580555,-48.143463,-31.149673,-9.366074,7.750511,-55.935974,-36.309013,-9.477882,15.503311,-57.612133,-38.806572,-12.353439,10.099525,-56.901283,-44.532681,-25.009804,-8.487511,-23.360551,-31.135793,-27.654366,-20.41234,-7.039115,7.322673,15.890357,20.45717,14.066806,25.998035,36.009753,40.377977,31.028038,40.142955,45.990472,49.011796,44.95677,54.506533,54.026917,51.533806,26.687622,51.863651,74.814835,92.80632,56.577702,89.898491,107.341118,120.193405,48.716183,86.01265,107.716827,123.041039,40.279655,74.648037,94.822769,108.656845,32.126713,58.633461,74.049225,86.632118,-14.290836,-15.249943,-10.329547,-13.075279,16.79463,31.132026,38.555105,44.440104,34.090303,48.969373,55.968597,60.464274,45.656773,61.074924,67.362475,70.337795,53.189026,67.268305,71.722424,73.642306,17.873297,298.296897,-87.863131,283.025279
89,-34.404488,13.794548,0.33411,0.713711,7.634468,11.022606,12.83844,12.057381,-12.785969,12.667236,33.642082,48.812141,-21.853981,9.118538,33.670006,54.913445,-23.610821,3.816891,27.146301,46.145782,-22.262135,-4.912491,11.659355,26.653519,-22.458501,-35.740336,-38.77543,-37.27119,-14.715617,-4.384773,4.05305,8.819811,2.91005,13.949233,22.856668,26.5415,17.144693,27.33487,33.067099,34.570165,28.879309,37.123607,39.570714,38.262778,25.880527,50.809193,73.685303,91.542492,57.103043,90.597439,108.423901,121.572704,48.876915,85.709553,107.017879,122.229481,40.098782,74.198284,93.926182,107.891407,31.713352,58.530865,74.124584,87.117634,-14.445891,-15.510962,-10.945755,-13.511361,17.662594,31.173769,37.905182,43.110494,34.914918,49.233356,55.644593,59.774522,46.303114,61.421715,67.152832,69.744435,53.471164,66.98024,70.965364,72.476582,-16.164665,312.245775,-87.162495,283.89332
90,-18.797951,6.621805,1.64835,1.140901,8.727493,18.471909,26.317863,30.551949,7.066269,35.187378,56.205482,71.686592,0.799198,33.907471,56.269341,76.394348,-1.991158,28.176956,48.878403,66.078644,-3.12521,14.235821,29.788971,44.355354,-23.213153,-38.954074,-46.216602,-50.360178,-16.546764,-9.153634,-2.181457,2.180778,0.231996,8.902372,15.0445,18.342342,13.65845,21.92788,24.756852,25.176137,24.330527,31.641652,32.283362,30.799315,25.571537,50.190926,72.715816,90.430183,57.915401,91.359558,109.512062,122.915497,49.947109,86.768532,108.033257,123.386765,41.095047,75.222244,94.875526,109.063911,32.268562,59.367886,75.102882,88.528519,-14.979168,-16.343729,-12.228125,-15.777786,16.390659,28.361223,34.383062,38.555352,33.662558,46.248403,51.99959,55.378819,45.394272,58.543466,63.514992,65.085737,53.09214,65.630623,69.257965,70.314824,-34.61257,319.019116,-85.164099,285.185756
91,10.425911,-12.391332,2.583275,1.727036,10.001278,16.845016,20.201225,20.060692,8.694019,34.414215,48.060379,55.419617,4.983959,32.549057,49.388924,62.814903,-0.007095,26.848869,44.363022,58.074646,-6.213169,15.958099,31.715012,42.821846,-28.851213,-41.236802,-41.467872,-36.058844,-14.52981,-4.772936,-2.842433,-1.576241,5.059644,15.936361,18.234897,20.112974,20.998413,29.592341,29.073391,29.714607,34.497176,42.775313,38.583263,34.838286,24.712429,48.915024,71.377659,89.136658,57.803764,91.315269,109.120445,122.546539,50.593529,87.637825,108.463211,123.708344,42.455807,77.223244,96.511345,110.822411,34.393501,62.588997,78.623314,92.209511,-15.900114,-18.125907,-14.601935,-18.090092,14.894138,26.555271,32.166345,35.867665,32.635401,43.436475,48.009896,49.950279,45.155236,56.76172,60.52763,60.926229,53.499816,64.214686,65.959938,65.091356,-23.90748,306.830264,-82.301645,287.115271
92,8.735561,1.006346,2.167511,0.748106,6.58041,10.520611,10.123844,8.139553,-2.591915,20.136738,34.54874,43.022861,-4.958611,20.274982,38.139553,53.344402,-8.140926,17.630711,35.352917,50.126896,-12.274132,8.352642,23.393841,34.429951,-28.772419,-40.951206,-42.378999,-38.055297,-10.587849,-1.107123,-0.673079,-1.13559,8.795914,18.082497,17.910275,18.075704,23.272866,30.485993,27.323446,26.128328,34.882808,42.470266,36.581747,31.743355,23.959694,48.196793,70.553398,88.213348,55.576916,89.426193,107.583275,120.984993,48.189297,86.664963,107.744637,122.597237,40.409546,76.314125,95.889587,110.043869,33.195992,61.83363,77.971573,90.668793,-16.198368,-18.101454,-14.361787,-16.884909,15.121626,27.341971,32.239396,35.214346,33.025479,44.42868,47.876823,49.028036,45.014013,57.255044,59.963973,59.586369,52.099749,62.571322,63.626637,62.118012,-15.046549,307.953874,-80.008764,287.980642
93,-9.114361,-3.330817,-0.254803,-0.414778,9.314404,16.864815,18.623428,16.418381,3.871136,31.162605,47.379456,55.425682,0.220928,30.041771,49.209251,63.617935,-4.470806,25.8498,45.03067,58.662872,-9.799576,13.738632,29.626808,40.221062,-25.830877,-36.013211,-37.022151,-35.027304,-8.048363,4.960164,6.121195,6.039005,11.38764,23.385684,23.726731,23.352647,26.055278,35.334203,32.840351,31.114798,37.61619,46.430197,41.383706,36.277935,24.213753,49.227562,71.63126,88.82246,55.798016,89.33424,107.625561,121.565266,48.128071,85.525074,106.097546,121.245403,40.284004,74.871883,94.06271,108.486271,33.045444,60.422802,75.894527,88.348446,-15.652556,-17.082819,-13.132831,-15.0692,16.525028,28.19777,32.848749,35.820611,34.190956,45.304548,49.065457,50.831704,45.618981,57.82216,60.836938,60.916226,52.153163,63.251318,64.47941,63.258975,-24.014082,304.672426,-80.116739,287.615234
94,4.248619,-0.199022,0.70879,1.062292,7.868786,13.730164,13.103485,9.098854,-2.054329,22.056084,39.717293,49.858589,-5.355663,20.765877,42.887878,60.68058,-9.931812,16.958199,38.488426,54.967575,-15.415421,5.696583,22.766991,35.234184,-24.070928,-34.387569,-34.955488,-33.7219,-6.172324,7.163604,9.468438,9.616577,12.670073,24.907523,26.16612,25.158847,26.53409,36.557726,34.718058,33.00578,37.698133,47.967103,43.439007,38.486562,24.209919,48.977966,71.262245,88.322182,54.534473,87.775269,106.192589,120.051956,47.00758,84.719696,105.764923,120.93338,39.343357,74.207611,93.606606,108.063354,32.253342,59.799042,75.463028,87.928619,-15.315584,-16.610861,-12.08153,-13.090717,17.052809,28.961499,33.311692,35.728541,34.46908,45.972996,49.480111,50.608044,45.600827,57.95764,60.59747,60.143666,51.986684,62.609978,63.646767,62.224285,-19.644957,304.439488,-79.287443,288.643609
95,26.618042,-3.231646,0.527687,0.266577,1.866989,-0.873985,-7.99324,-15.063629,-30.680923,-11.813049,8.806229,22.324677,-36.512718,-13.615379,12.764626,33.797722,-39.59198,-17.562447,6.984901,25.285492,-41.645222,-25.994396,-8.034897,5.376549,-21.72503,-31.929409,-31.334197,-27.216865,-3.443018,10.902406,15.246671,16.131122,16.249189,28.683746,31.633625,30.582756,30.538481,41.331774,40.59892,38.613582,42.091613,53.246269,49.398786,43.921463,24.46661,49.28793,71.505203,88.737946,54.61235,88.085289,106.534424,120.361176,46.755695,84.515076,105.641899,121.018066,38.797874,73.783607,93.504753,108.034401,31.470451,59.509506,75.352821,87.66655,-15.948711,-16.707377,-11.989583,-13.12221,16.191143,28.884743,33.737276,36.436448,33.690963,45.738901,49.560448,51.0792,44.962883,57.645986,60.747091,60.62464,51.38752,61.928685,63.01506,61.714967,7.217932,301.183343,-78.51491,288.885687
96,-12.404022,13.500246,0.604591,0.10584,4.044571,5.337753,5.571327,6.346893,-16.880035,6.401596,25.43026,39.995499,-23.440132,5.509415,28.7257,48.474541,-24.469414,1.629295,22.972069,40.849113,-22.726936,-7.956219,7.625885,22.054825,-21.782828,-35.274367,-38.690894,-38.59938,-8.915154,-1.705979,3.363792,6.412163,7.201086,15.185661,18.656775,19.299906,19.159239,26.520567,27.343762,25.954995,28.858746,34.042076,32.922603,29.546831,24.045582,48.90461,70.868683,88.125687,54.688454,87.696991,105.829124,119.394836,46.788197,84.223595,105.07164,120.052528,38.741798,73.645706,93.050194,107.345352,31.306,59.494572,75.273514,87.781677,-16.076658,-16.616974,-11.420492,-12.585413,16.027134,29.093336,34.007187,36.861785,33.806498,45.944468,49.718591,51.194364,45.319492,57.969743,60.918943,60.749376,51.900666,62.232312,63.309857,62.049222,-4.928827,314.655538,-77.653055,288.963477
97,-2.709618,0.726617,-0.374451,-0.227427,3.590355,6.315193,9.46701,14.103241,-13.92334,9.650688,28.41465,42.459526,-18.638763,10.330925,32.694855,50.805473,-18.892937,8.423767,29.850426,46.410599,-16.495857,-1.595879,13.928146,27.662201,-19.771,-31.597501,-36.057733,-39.212006,-7.993097,0.753973,4.849322,6.728201,6.848059,15.857938,18.510921,20.23808,17.836483,25.739239,26.657035,26.847535,26.769236,32.106509,31.964422,30.593377,23.922672,48.962231,71.131554,88.701553,54.140511,87.756844,106.203804,119.977913,45.798168,84.23584,105.613403,120.742149,37.637215,73.372192,93.386192,107.900963,30.355167,58.809757,74.881325,87.355843,-16.123712,-16.173606,-11.230053,-12.923126,16.262156,29.545658,34.799136,37.850533,34.152609,46.613225,50.525484,51.916597,45.775951,58.869879,61.646795,61.130623,52.111049,62.87007,63.920383,62.485921,-7.511559,315.306928,-77.90062,288.660822
98,22.004814,-15.274458,-0.64436,-0.08503,2.735367,-3.547897,-13.886375,-22.845154,-38.176289,-17.886086,4.711647,19.459877,-46.705456,-22.053108,5.405273,26.772194,-50.492992,-28.19046,-2.374763,16.534767,-52.21962,-37.297211,-18.482666,-4.113693,-20.897883,-30.35675,-29.720165,-25.997109,-3.749794,10.937665,16.772647,19.398213,15.533934,28.217962,33.480579,34.913868,30.047689,40.759718,42.553197,43.4148,42.03968,52.116236,49.964173,46.713446,24.225712,49.585133,72.031689,89.74062,54.107323,88.151493,106.699848,120.732365,45.765152,84.548321,105.951405,121.323109,37.86581,73.725986,93.877087,108.682766,31.054058,59.788971,75.861797,88.168888,-16.298774,-16.425548,-11.816312,-13.549399,16.254623,29.6184,34.927577,38.101795,34.355089,46.905366,50.883389,52.352864,45.990781,58.786022,61.789129,61.525949,52.130377,62.270844,63.289294,61.826797,14.596739,299.932526,-78.441496,288.475849
99,-20.894051,12.758067,0.208397,-0.071816,2.770386,4.572144,7.004929,10.896492,-16.332836,7.799034,26.686707,40.547218,-21.531372,9.014168,31.464272,50.271721,-22.005615,6.106682,27.298622,44.321136,-19.703693,-3.2024,12.505531,26.260757,-20.225421,-32.906548,-36.806827,-36.890993,-5.862522,2.452541,7.207076,10.103294,10.000109,18.197476,20.638099,21.807281,21.207747,28.593096,28.767356,28.157817,29.538248,34.803582,33.702016,31.245832,24.323616,49.585705,71.850758,89.192791,55.119152,88.200932,106.26955,119.939976,46.735153,84.361782,105.373249,120.607738,38.370724,73.24522,92.750759,107.074986,30.806408,58.69566,74.359989,86.322269,-15.801375,-16.082957,-11.51602,-12.845259,16.859344,29.934685,35.379775,38.537691,34.588073,47.260369,51.268033,52.67199,45.973923,58.980412,61.796848,61.241589,52.299079,62.753424,63.62571,61.940356,-6.142387,312.574333,-78.078175,288.287773
100,-1.044273,-10.113297,-0.065346,-0.459053,8.930054,12.095833,7.338982,0.992775,-10.655766,9.771194,29.122238,41.683044,-18.332863,3.708229,28.081055,47.954521,-25.133858,-3.741589,19.633255,37.37011,-31.715069,-16.644402,1.06739,14.673729,-22.988505,-33.534055,-33.136568,-29.624328,-8.564659,5.961385,11.738383,14.542901,10.505783,24.596548,29.249009,30.671985,25.482666,37.341092,38.329222,39.074734,38.606172,49.468749,46.569258,42.728692,24.430332,49.522877,71.754169,89.480953,55.39959,88.186054,106.050282,119.423847,46.981487,84.317608,104.960117,119.788113,38.581123,73.265476,92.516384,106.515484,31.055775,58.55072,73.969059,85.793095,-15.903078,-15.961061,-10.955326,-12.047444,16.396402,29.762649,35.274985,38.58987,34.171752,47.402025,51.647551,53.333399,45.720931,59.206295,62.04175,61.621168,52.163043,63.029634,64.054135,62.544337,-7.080832,302.257522,-78.037691,287.625206
101,-6.619492,12.124879,-0.459309,-0.057181,4.679203,7.280731,10.672302,15.036964,-7.857399,17.947769,35.883293,49.467316,-14.860954,14.336243,38.046227,57.439842,-17.044315,8.7537,29.692726,46.5802,-17.055016,-1.619339,13.789787,26.543312,-23.169249,-36.171724,-40.19007,-40.940708,-10.337945,-3.125682,1.963354,5.955951,6.272422,15.806068,18.133564,18.141839,18.984979,27.055079,27.520985,26.812399,29.543311,34.792714,33.269825,30.286601,24.692402,50.096741,72.451515,90.261726,56.23106,88.692398,106.334152,119.45652,47.821312,84.746819,105.132866,119.630127,39.259586,73.595467,92.479935,106.122894,31.508102,58.657093,73.891411,85.612907,-15.835399,-15.919071,-10.978359,-12.192557,16.02806,29.283527,35.046076,38.657178,33.810697,47.113959,51.657801,53.697973,45.49159,58.824986,61.590849,61.350331,52.182988,62.8563,63.663502,62.136476,-13.524857,314.315803,-78.321533,287.501428
102,-9.159164,9.204022,0.248966,0.33796,8.251076,16.142578,23.718224,31.205177,5.457516,31.81675,50.161972,63.662682,-1.606979,27.722855,48.925209,67.165146,-5.496826,21.472778,39.726334,54.591522,-7.655239,8.500042,22.694893,34.804916,-20.438954,-36.52611,-46.163126,-53.412748,-19.082483,-14.045069,-8.451347,-4.181923,-3.587699,4.633936,8.160132,9.875435,9.540994,16.44469,17.70619,17.717181,20.87448,24.488423,23.768166,21.378981,24.574642,49.763203,72.286549,90.367756,55.541725,88.654461,106.574764,119.626522,47.213058,85.182896,105.884914,120.212574,38.817959,74.181347,93.388538,107.023373,31.289349,59.306431,74.883213,86.676922,-15.967854,-16.521137,-11.487985,-12.377253,15.895606,29.308104,34.940174,38.485636,33.929443,47.088209,51.451555,53.302276,45.713398,58.983314,61.670692,61.364719,52.344033,62.935958,63.863388,62.503211,-22.619333,323.499077,-78.007879,287.818639
103,36.003685,-21.839577,-0.770245,-0.417742,3.548126,-1.334038,-11.67984,-20.742073,-34.37067,-16.148071,5.166893,19.832268,-42.522869,-20.97908,6.002083,28.152809,-46.736584,-26.3134,-0.977097,18.325424,-49.16811,-35.46627,-17.345123,-3.227463,-20.647362,-31.787013,-31.963001,-27.709571,-6.563451,7.574923,13.228976,15.534366,12.594861,25.414926,30.517795,31.794731,27.525925,38.1817,39.174029,39.530638,40.484867,50.717342,47.774071,43.820871,24.596729,50.078201,72.425995,90.226479,56.303215,89.122353,107.129402,120.447922,47.910233,85.241089,105.843887,120.511436,39.376774,73.995781,93.067474,106.798325,31.630554,58.919621,74.108162,85.781593,-16.007683,-16.114696,-10.840779,-11.200043,16.298712,29.75104,35.207244,38.527194,33.977423,47.233137,51.573141,53.507782,45.467878,58.774104,61.557627,61.402942,51.99959,62.878283,63.879319,62.547178,13.456907,301.561765,-78.705568,287.303162
104,-22.52449,12.340573,-0.097218,0.730754,4.099388,6.647415,11.86409,17.69165,-12.882843,11.110382,29.828453,42.888336,-17.823544,12.89978,35.219536,54.264336,-18.108902,10.443306,31.199341,47.927513,-16.024876,1.051941,16.858063,30.382004,-20.838294,-34.867185,-39.920468,-39.630673,-8.530264,-0.593298,3.787523,6.339421,7.861692,16.509837,20.046098,21.124322,19.534681,27.006913,28.405684,28.102551,28.512697,33.939632,32.750751,29.381587,24.839802,50.056744,72.501011,90.649738,55.697365,88.781261,106.677761,119.765682,47.374363,85.36211,106.060925,120.493298,39.004154,74.388371,93.526897,107.065372,31.512852,59.39661,74.85014,86.640186,-16.001076,-16.704104,-11.490764,-11.997735,15.625262,28.904318,34.412578,37.841887,33.573143,46.890916,51.234687,53.121965,45.35895,58.587679,61.253012,60.916596,52.15483,62.68204,63.566245,62.137649,-8.759651,313.885927,-78.494854,288.017507
105,-0.292339,6.065311,0.290222,0.09454,4.378796,6.968365,10.487652,14.389515,-10.865135,12.511082,30.235233,43.311939,-15.475159,12.749691,34.855671,53.96719,-15.41811,10.018444,29.876347,46.618595,-13.279381,0.438194,14.591274,27.555027,-19.864861,-33.859109,-41.646886,-48.697857,-14.345856,-9.041063,-5.46874,-3.548426,1.066183,7.569798,10.454036,11.139095,13.420958,18.406378,19.97033,19.527765,23.357587,26.999935,26.687725,24.36239,24.602509,49.612885,72.064419,90.185337,55.790806,88.740177,106.65247,119.784451,47.606049,85.236683,105.856304,120.484142,39.253635,74.328175,93.422413,107.0014,31.682568,59.570904,75.055561,87.006168,-15.832559,-16.597831,-11.828538,-12.74899,16.220845,29.391714,34.720836,37.916358,33.850341,46.611804,50.769892,52.592949,45.450526,58.306159,60.962106,60.649649,52.200711,62.723907,63.550931,62.129004,-8.920298,319.93807,-78.072939,288.098878
106,-13.253574,-6.336889,-0.084286,-0.08077,7.718239,16.120033,24.033165,29.589844,3.473282,27.493401,44.491196,56.468353,-0.128574,28.554726,48.386078,65.30365,-1.313896,26.057625,44.189987,58.585167,-1.163864,16.356468,30.01442,41.17115,-19.743891,-31.315672,-36.184074,-38.073081,-9.018956,0.392671,5.062669,6.079328,6.684914,17.939359,21.632219,22.465541,18.139122,28.760378,29.642421,28.583278,26.79832,36.051681,34.896146,31.866053,24.585972,49.72681,72.310867,90.477905,54.62923,87.860756,105.904083,119.087334,46.451683,84.511414,105.25898,119.794579,38.513031,74.01741,93.147011,106.516342,31.57917,59.561691,74.973564,86.724129,-15.539306,-16.438454,-11.737765,-12.60011,16.336133,29.546893,34.736212,38.006823,34.030961,47.139647,51.389557,53.348466,45.695367,58.585271,61.066897,60.672744,52.498718,62.92157,63.711605,62.266831,-21.928911,313.595206,-77.912264,288.012134
107,52.093506,-13.182601,-0.593491,-0.897542,-1.794777,-13.934212,-29.248009,-41.893845,-52.684708,-37.955132,-14.058151,2.679863,-60.526371,-40.439243,-12.393494,9.712486,-62.340145,-43.503284,-16.883011,2.947998,-61.319447,-49.343662,-30.278206,-15.645561,-18.302946,-29.221221,-29.842677,-26.349642,-4.039588,10.421679,16.641798,19.162758,15.343001,27.58854,32.93273,34.151868,30.179279,39.883109,40.997766,40.882293,42.328487,51.505772,48.587138,44.644992,24.715691,49.786263,72.100525,90.160217,54.306908,88.001518,106.410942,120.156555,46.087761,84.169235,104.999886,119.818382,38.329811,73.879852,93.322334,107.298088,31.723194,60.111694,75.957413,88.196411,-15.913513,-16.135444,-10.865726,-11.339228,16.650752,30.172548,34.993032,37.857016,34.764247,47.309769,51.073766,52.604558,46.546164,59.364808,61.934243,61.528666,53.059412,63.791387,64.749444,63.456823,30.466747,300.400054,-78.203602,287.102041
108,-20.606918,12.020644,0.523167,1.141271,2.687645,-0.695457,-6.893234,-12.685318,-28.356857,-9.979362,9.718666,23.28495,-34.550343,-9.786301,13.474274,31.627235,-34.265213,-12.427483,8.690643,24.984283,-31.773777,-17.356968,-1.714096,10.717735,-21.798822,-34.115127,-35.638139,-34.698977,-10.163562,-1.236428,3.764552,6.207337,7.436911,14.287008,18.979792,20.600493,20.426542,26.141234,28.038577,27.857031,30.619745,35.020202,33.293784,29.597713,24.186115,48.681908,70.893459,89.28503,53.997173,87.495632,105.510464,119.093685,46.034489,83.98756,104.414005,118.970089,38.4165,74.016094,93.121662,106.918087,31.862812,60.587997,76.250095,88.49081,-16.531018,-17.449617,-12.027313,-12.162361,15.000287,28.769764,33.731348,36.68839,33.329044,46.28181,49.997394,51.271799,45.554143,58.293439,60.735729,60.201526,52.597457,62.694329,63.466271,62.171673,10.193052,312.396863,-77.347212,288.219477
109,-10.096436,6.309225,-0.028954,-0.025441,3.464012,4.151344,5.172615,4.98024,-18.664112,5.045471,23.723488,35.699844,-24.287968,5.789108,27.199974,44.126587,-23.82185,3.494682,23.448143,38.699226,-20.801525,-5.473938,9.393539,21.600952,-20.284578,-34.050906,-40.323884,-44.054535,-13.393232,-7.01108,-2.525962,-0.701299,2.342193,10.06155,13.556809,13.988074,14.424711,21.198484,22.422563,21.486179,24.081734,28.535853,27.289792,24.247164,23.970165,48.841782,71.739635,90.069752,52.516651,86.307049,104.375095,117.96484,44.880924,83.488255,104.341335,118.974552,37.738495,73.613949,93.13139,107.017078,31.734066,60.570374,76.407108,88.439999,-16.409493,-17.319756,-12.355887,-13.138512,16.587025,29.162311,33.847871,36.819548,35.022117,47.475137,51.081176,52.251161,46.80638,59.349432,61.44308,60.638225,53.071639,62.709581,63.452871,62.099178,0.314569,318.635445,-77.158213,288.123393
