takenoko1/special-research/HandMotion_SimilarSearch_自分用/NewProject/handData/key/d4_feature_d2/112.csv
,vel_0x_L,vel_0y_L,vel_0x_R,vel_0y_R,posFromWrist_1x_L,posFromWrist_2x_L,posFromWrist_3x_L,posFromWrist_4x_L,posFromWrist_5x_L,posFromWrist_6x_L,posFromWrist_7x_L,posFromWrist_8x_L,posFromWrist_9x_L,posFromWrist_10x_L,posFromWrist_11x_L,posFromWrist_12x_L,posFromWrist_13x_L,posFromWrist_14x_L,posFromWrist_15x_L,posFromWrist_16x_L,posFromWrist_17x_L,posFromWrist_18x_L,posFromWrist_19x_L,posFromWrist_20x_L,posFromWrist_1y_L,posFromWrist_2y_L,posFromWrist_3y_L,posFromWrist_4y_L,posFromWrist_5y_L,posFromWrist_6y_L,posFromWrist_7y_L,posFromWrist_8y_L,posFromWrist_9y_L,posFromWrist_10y_L,posFromWrist_11y_L,posFromWrist_12y_L,posFromWrist_13y_L,posFromWrist_14y_L,posFromWrist_15y_L,posFromWrist_16y_L,posFromWrist_17y_L,posFromWrist_18y_L,posFromWrist_19y_L,posFromWrist_20y_L,posFromWrist_1x_R,posFromWrist_2x_R,posFromWrist_3x_R,posFromWrist_4x_R,posFromWrist_5x_R,posFromWrist_6x_R,posFromWrist_7x_R,posFromWrist_8x_R,posFromWrist_9x_R,posFromWrist_10x_R,posFromWrist_11x_R,posFromWrist_12x_R,posFromWrist_13x_R,posFromWrist_14x_R,posFromWrist_15x_R,posFromWrist_16x_R,posFromWrist_17x_R,posFromWrist_18x_R,posFromWrist_19x_R,posFromWrist_20x_R,posFromWrist_1y_R,posFromWrist_2y_R,posFromWrist_3y_R,posFromWrist_4y_R,posFromWrist_5y_R,posFromWrist_6y_R,posFromWrist_7y_R,posFromWrist_8y_R,posFromWrist_9y_R,posFromWrist_10y_R,posFromWrist_11y_R,posFromWrist_12y_R,posFromWrist_13y_R,posFromWrist_14y_R,posFromWrist_15y_R,posFromWrist_16y_R,posFromWrist_17y_R,posFromWrist_18y_R,posFromWrist_19y_R,posFromWrist_20y_R,posFromBody_0x_L,posFromBody_0y_L,posFromBody_0x_R,posFromBody_0y_R
2,-22.487755,-16.227823,-0.387783,1.212716,14.952221,29.060211,36.375847,36.054268,18.698044,51.228447,66.90834,72.174683,12.474861,48.754463,63.600311,71.019745,5.582943,39.456482,54.079399,60.448036,-0.902882,24.715919,37.133789,42.28775,-22.228913,-30.056272,-29.789263,-28.324667,-1.727777,15.650086,16.834212,15.440197,16.704351,32.190799,31.699574,29.358678,29.601171,42.588271,39.518905,36.731739,39.000449,50.770571,46.131695,40.435714,25.34277,51.064053,74.860497,94.649277,56.721668,90.429497,108.595276,121.996765,49.414902,87.051888,107.732849,122.150002,41.544971,76.425934,95.614357,108.925552,34.207363,61.736813,77.160416,88.706017,-16.451545,-18.886055,-15.030853,-14.736612,15.660151,27.734827,32.294848,35.122152,32.733585,43.767272,46.898326,48.004338,44.041444,56.168113,58.426943,57.958196,50.583406,61.904109,62.805665,61.18731,-27.615395,291.593504,-72.983551,280.391979
3,-3.558998,2.18757,-0.024834,-0.710747,16.381702,31.207466,39.232178,38.808289,21.024055,54.121399,70.943184,78.15937,14.408684,50.892105,67.300987,76.651726,7.406445,41.841202,57.634048,65.474167,0.628681,27.412949,41.320496,48.013344,-23.401986,-32.564142,-32.903645,-31.028224,-5.198705,10.580316,11.906406,10.891538,13.691178,28.297497,28.052101,26.046633,27.527469,39.411953,37.163621,35.330807,38.078392,48.984132,44.830058,39.856803,25.962181,51.369667,74.870911,94.61895,56.621475,90.153008,108.288116,121.770172,49.313221,86.576729,107.291565,121.991501,41.323528,75.992432,95.218964,108.602257,33.700447,61.132221,76.556625,88.204651,-15.915551,-18.088178,-14.566428,-14.659239,16.261909,28.521713,32.880798,35.254607,32.96237,44.076394,47.216526,48.074733,44.121966,56.213376,58.670981,58.250213,50.768904,62.292272,63.485969,62.04033,-30.991287,293.638122,-72.825279,279.53828
4,-3.006821,-0.061071,0.305901,0.103926,15.208626,30.632973,41.188087,43.020287,20.497456,55.414925,72.357101,79.763489,15.558243,53.133087,69.915504,80.168839,9.91333,45.711823,61.872597,70.126419,4.681606,31.992645,45.245361,51.665611,-24.012883,-33.148424,-33.826443,-32.14393,-3.416342,10.65386,11.605064,10.521776,15.833361,29.221159,28.441437,25.893059,29.374053,40.229899,37.148739,34.573438,39.05942,49.405517,44.099057,38.095064,25.626125,51.288357,75.028725,94.917297,56.852531,90.120163,108.167381,121.457176,49.503593,86.634636,107.147827,121.567726,41.410389,76.011887,95.022125,108.35701,33.690434,61.05875,76.426735,88.155098,-15.85096,-18.118929,-14.370371,-14.448547,16.001014,28.294533,32.976881,35.637274,32.849305,44.122707,47.467542,48.413064,44.174763,56.470505,58.974916,58.422188,50.97972,62.554649,63.709012,62.136043,-33.842268,293.49943,-72.363539,279.564585
5,0.379601,-1.255942,0.118961,-0.369885,15.288734,30.668106,40.915146,41.962166,20.288429,56.396942,71.954842,77.648849,15.59618,54.484177,69.528694,77.252541,10.109539,46.978226,61.324539,67.240105,5.271435,33.338356,45.33268,50.184402,-23.876847,-32.203087,-32.299788,-31.163951,-2.306625,12.89503,13.642333,12.229299,17.255412,31.371,29.906527,26.953623,30.872551,42.631929,39.059914,35.765653,40.359884,51.34979,45.605273,39.242819,25.725403,51.438904,74.895802,94.674625,56.729851,89.916973,107.911892,121.330891,49.280148,86.471157,107.117786,121.719875,41.169605,75.799656,94.999409,108.607464,33.436546,60.883598,76.299648,88.094387,-16.042263,-17.969432,-13.917987,-14.178697,16.188179,28.567037,33.008683,35.479996,33.157625,44.720081,47.91585,48.689212,44.360631,56.952899,59.419951,58.867347,50.870113,62.51235,63.779222,62.430346,-33.335724,292.153843,-72.117634,279.105054
6,0.866833,0.851353,0.109177,0.637758,15.266304,30.150661,39.684963,40.388775,19.868774,55.647869,71.184597,77.018337,15.008011,53.460217,68.408947,76.303082,9.374313,45.903339,60.467434,66.599064,4.363003,31.585636,43.271999,48.090305,-24.272111,-32.921306,-33.50176,-33.00152,-2.853363,12.031759,12.744421,11.401781,16.601475,30.68557,29.265435,26.248618,30.133522,41.679737,38.055667,34.694222,39.671243,50.590816,44.888536,38.316933,25.802479,51.335907,74.540348,94.126339,56.676922,90.14986,108.206577,121.537457,49.136009,86.648998,107.296543,121.762562,41.001263,75.810413,95.034885,108.530102,33.329086,60.717144,76.232586,88.01302,-16.109571,-18.42447,-14.747172,-14.915812,15.728262,28.129536,32.438232,34.83384,32.828001,44.32426,47.337187,48.07955,44.200883,56.657856,58.937063,58.320115,50.877152,62.352479,63.30961,61.679276,-32.401686,292.872556,-71.941252,279.610173
7,-0.634346,0.287263,-0.123711,-0.107693,15.786495,30.963535,41.224194,42.542553,20.791683,56.665707,72.776585,78.91428,15.846806,53.84325,69.351482,77.608967,10.200462,45.896015,60.326557,66.297626,5.138741,31.983547,43.739147,48.507442,-24.225181,-33.205481,-33.830828,-32.375124,-3.62938,11.491566,12.120803,10.707398,15.725545,29.834156,28.464655,25.71281,29.37288,40.891246,37.342265,34.279444,38.950987,49.715442,43.845757,37.373078,25.894489,51.325493,74.739132,94.456158,56.489468,90.068264,108.180943,121.535854,48.993816,86.512814,107.18153,121.670094,40.902672,75.756054,95.058689,108.4659,33.265686,60.80349,76.283283,87.944355,-16.162306,-18.41916,-14.858199,-15.123046,15.843735,28.258903,32.635957,35.014213,32.802189,44.355197,47.467727,48.213116,44.046692,56.590609,58.995541,58.457386,50.653739,62.229966,63.36395,61.800306,-32.951632,293.072009,-71.980562,279.414671
8,0.601215,0.427189,-0.056248,-0.514257,16.539574,31.435204,40.552711,40.199318,20.689774,57.212105,73.118134,78.828163,15.494442,54.73114,69.835052,76.821442,9.969749,46.612358,60.4842,65.332603,4.866085,32.970772,44.748688,48.901176,-24.351584,-33.53177,-34.004964,-32.673748,-3.779557,11.455381,11.783769,10.029193,15.492129,29.69108,27.717166,24.832681,29.149899,40.842402,36.852337,33.575552,38.655696,49.383348,43.126673,36.752734,26.284275,51.778393,74.967613,94.476128,56.149521,89.726486,107.964478,121.685257,48.567066,86.106491,106.850166,121.533623,40.56221,75.251312,94.640121,108.287201,33.015461,60.265846,75.720062,87.405167,-15.682629,-17.867482,-14.181167,-13.980726,15.539553,28.330719,32.730621,35.118756,32.542467,44.559406,47.88553,48.764424,44.009766,57.043734,59.56914,58.974546,50.809659,62.661231,63.84653,62.222741,-32.309332,293.490276,-71.995726,278.89149
9,-4.730186,0.183954,0.252285,0.481468,17.147255,33.933449,45.236664,46.469994,25.536175,63.908043,78.701477,83.100128,20.363846,62.265472,75.82489,81.150398,14.751148,53.892517,66.648102,70.375671,9.731598,38.834381,49.402542,52.894707,-24.870287,-34.167367,-34.732384,-33.359178,-4.185566,11.359853,11.426728,9.552233,15.786061,30.667848,28.262731,25.108644,29.772652,41.758593,37.457121,33.766731,39.069794,50.23254,43.71219,36.907604,26.224937,51.78194,75.065174,94.693966,56.352711,89.870968,107.996922,121.494198,48.833313,86.271458,107.049809,121.595936,40.801048,75.453014,94.715366,108.24297,33.1604,60.151863,75.413647,86.94231,-15.941363,-18.194388,-14.61694,-14.665723,15.099334,27.480168,32.170853,34.860639,32.227231,44.303698,47.898868,48.908364,43.745474,56.749308,59.244951,58.508762,50.600758,62.341549,63.450463,61.732998,-36.905165,293.645594,-71.609087,279.344322
10,2.859192,0.052056,-0.020714,0.172037,16.641769,32.392616,42.476578,43.546486,23.293419,60.356598,75.578728,80.325737,17.847061,58.208427,72.357559,78.416405,11.657295,49.246445,62.469177,66.645355,6.22467,33.389969,43.850555,47.521706,-24.651444,-33.739993,-34.216336,-32.898705,-3.497852,12.136055,12.119074,10.283358,15.913452,31.144685,28.981506,25.751713,29.453773,41.935508,37.487625,33.631436,38.641061,50.084771,43.846189,36.99424,26.39082,51.837788,74.951763,94.421825,55.925274,89.542866,107.703953,121.315556,48.526955,86.185513,106.986179,121.652241,40.647697,75.563221,94.95821,108.547039,33.240166,60.583191,76.156712,87.864933,-15.694546,-18.185249,-14.787556,-14.992568,14.889136,27.471894,31.95732,34.410849,32.158071,44.056449,47.488599,48.354586,43.902814,56.702872,59.155783,58.371615,50.939706,62.419045,63.411869,61.529778,-33.944664,293.683956,-71.528492,279.502665
11,4.582901,-0.224339,0.031013,0.057984,14.195137,28.073959,36.454582,37.197304,17.235374,50.456085,68.126221,75.803719,11.663303,48.252754,66.051521,77.34684,5.664139,39.782181,56.73008,65.834656,0.013561,24.295406,37.753716,45.018883,-22.953184,-31.631772,-32.43533,-31.990604,-3.577325,10.713635,12.181442,11.202883,15.202704,28.28385,28.411303,26.378109,28.623971,39.320995,36.924709,34.247952,38.23073,48.472097,43.925723,37.944023,26.206169,51.692734,74.842815,94.308529,56.168633,89.767284,107.907772,121.41798,48.635387,86.154728,106.848049,121.365108,40.588074,75.362835,94.672794,108.240337,32.876816,60.083828,75.472927,87.156773,-15.928704,-18.372662,-14.763783,-14.910007,14.644295,27.366918,31.972449,34.522556,31.762436,43.912076,47.543309,48.641911,43.380097,56.427835,59.02796,58.402552,50.326833,62.192977,63.40452,61.732072,-29.240742,293.437062,-71.376457,279.538094
12,1.035175,-0.827517,-0.018024,0.712291,14.180088,27.801876,35.420208,35.490704,15.789356,48.818378,65.957851,73.183308,10.374527,46.572933,63.926067,74.741879,4.39579,38.577633,55.810032,64.815159,-0.879364,23.227158,36.390667,43.299122,-23.145907,-31.279054,-31.675244,-31.485918,-2.720785,11.685401,13.196557,12.361877,16.14551,29.575298,29.80785,27.81819,29.35664,40.53649,38.29353,35.598927,38.928942,49.569217,45.032414,38.785496,26.352882,51.630478,74.830284,94.540787,55.255508,89.263,107.648163,121.260338,47.986336,86.110725,107.133064,121.777039,40.434952,75.880623,95.249176,108.613129,33.399982,61.135769,76.603432,88.085518,-16.100494,-18.89013,-15.364244,-15.440938,14.006167,26.279679,30.834759,33.419508,31.407062,43.252397,46.777172,47.807786,43.27049,55.810393,58.160614,57.354215,50.444344,61.551082,62.496974,60.636558,-28.096504,292.603,-71.285419,280.24384
13,2.868977,-0.389707,1.78894,0.087994,15.031242,27.447853,33.862381,32.592201,15.212002,45.711823,63.639793,71.928635,8.685493,41.949692,60.481339,72.429428,1.620255,33.162918,52.057228,63.0867,-5.249119,18.760242,34.131432,42.853088,-21.596774,-30.582077,-30.909786,-30.168226,-3.769739,12.959065,14.868449,14.271138,14.758595,30.062262,31.227924,30.070413,27.891673,40.309125,38.534665,36.672396,38.021766,49.937064,46.170721,40.894087,25.265808,50.318642,73.812561,93.382759,55.647526,89.345055,107.290764,120.382462,48.289833,85.862961,106.351433,120.465889,40.253849,75.292969,94.07856,106.880379,32.765465,60.415764,75.673599,87.188644,-16.213065,-19.010729,-15.368566,-15.43044,14.41409,26.994378,31.918356,34.794134,31.758731,43.553554,47.398011,48.63975,43.688478,56.011143,58.510244,57.640737,51.099269,62.206871,63.082245,61.133896,-25.165844,292.185937,-69.434795,280.304479
14,6.567822,1.406366,0.172749,0.289115,13.101482,23.562298,27.099209,24.320698,9.941082,35.965176,54.318523,63.96452,2.919388,32.393703,52.163486,66.436214,-4.511089,23.053379,43.193607,55.995884,-11.945972,8.374615,24.44109,34.329586,-21.998152,-31.345497,-32.025184,-31.232679,-5.591315,10.2397,13.228297,13.258122,12.854275,27.803308,29.851569,29.145021,26.537672,39.177981,37.741481,36.194325,37.745248,49.347286,45.752424,40.437628,25.224895,50.316696,73.702412,93.212872,56.024494,89.45097,107.095356,119.831371,48.695984,86.054707,106.393147,120.357914,40.608215,75.604992,94.36655,106.909275,33.024673,60.936413,76.201,87.320881,-16.600549,-19.409636,-16.003546,-16.061961,14.232544,26.743424,31.659374,34.543427,31.481163,42.992613,46.772973,48.097025,43.443761,55.45928,57.963938,57.231208,51.032022,61.907752,62.713101,60.72622,-18.516912,293.564639,-69.180937,280.56593
15,0.111465,0.044337,0.131264,-0.091823,13.479767,24.298267,27.491856,24.156132,9.505005,36.93861,55.747662,65.063038,2.500877,32.81496,52.452564,65.85989,-4.853439,23.479099,43.632603,55.959835,-12.023563,8.013897,23.768978,33.365536,-22.4761,-32.001966,-32.352585,-31.360008,-6.0085,10.330844,13.086827,13.04286,12.715274,28.182024,29.692809,28.400496,26.579415,39.485066,37.921422,36.244466,37.924016,49.481902,45.643002,40.190132,25.211105,50.170612,73.566914,93.089733,55.087852,88.967228,106.962833,119.939404,47.798538,85.846996,106.489277,120.589428,39.896908,75.445347,94.463825,107.097759,32.569084,60.716457,76.132107,87.334156,-16.339036,-19.259521,-16.070915,-16.071039,14.636515,27.231932,31.839747,34.461485,31.897422,43.253138,46.762969,47.986677,43.720959,55.542026,57.925838,57.215215,51.066294,61.798639,62.650856,60.770865,-18.338127,293.595653,-68.982353,280.460784
16,4.141102,-0.401192,0.264759,0.595397,12.539635,21.48674,22.869301,18.230667,4.357853,30.615692,50.226517,60.274086,-2.848034,25.927048,46.710777,61.317673,-10.04631,17.044258,38.177948,51.262894,-16.785336,2.362976,18.746681,28.962135,-21.634751,-31.112698,-31.357909,-30.45697,-5.952493,10.572659,13.722918,13.768181,12.670382,28.445266,30.324701,29.001019,26.580033,39.974623,38.85373,37.322752,38.216465,50.642501,47.346017,42.138111,24.857883,49.920101,73.573036,93.159027,55.351467,89.015007,106.691322,119.459839,48.187294,85.992393,106.544266,120.590858,40.328636,75.758514,94.687271,107.193947,33.067989,61.357899,76.725197,87.71656,-16.847612,-19.91494,-16.854219,-16.85953,14.41514,26.672041,31.257379,33.940805,31.79504,42.866148,46.183195,47.129458,43.787711,55.45329,57.6211,56.626116,51.293165,61.792279,62.331916,60.20023,-14.16501,293.180567,-68.685579,281.042288
17,-1.541691,-1.223584,-0.155067,-0.522408,13.062229,23.399105,25.408802,21.381512,7.250404,33.833714,52.934132,62.37608,0.182648,28.978901,49.10574,62.631512,-7.263851,19.982815,40.578518,52.793941,-14.296875,5.297413,21.644268,31.417522,-20.991003,-30.291418,-30.214291,-29.236288,-4.824127,11.977666,14.875365,14.634477,13.679384,29.819706,31.340495,29.82125,27.494,41.404886,39.923926,38.013245,39.048058,52.026019,48.540764,43.148471,24.983654,50.092335,73.693886,93.331947,55.276566,89.051056,107.009697,120.02243,47.957096,85.801277,106.484756,120.6633,39.968777,75.457878,94.544792,107.229195,32.554035,60.828323,76.207924,87.338905,-16.576157,-19.22383,-16.050785,-16.328785,14.630155,26.96801,31.575085,34.210469,31.880132,43.296795,46.793104,47.936598,43.672176,55.647619,57.929296,57.105731,50.989106,61.836616,62.60158,60.693739,-15.683899,291.934845,-68.817844,280.497742
18,0.636463,0.274851,-0.095959,0.167652,12.868881,23.277855,25.118294,21.127052,6.318054,31.79306,51.291275,61.734009,-0.745525,27.278137,48.187523,62.764435,-8.215313,18.122749,39.428787,52.612038,-15.31889,3.368454,19.756851,30.00412,-20.768763,-30.415227,-30.550769,-29.916963,-4.849507,11.301005,14.778356,15.077722,13.596267,29.289455,31.450473,30.533911,27.269291,40.7746,39.713357,38.19016,38.775862,51.214927,48.112463,43.175703,25.447884,50.453682,73.954525,93.603458,55.286121,89.004993,107.0331,120.071354,47.964764,85.880756,106.60738,120.885487,40.040016,75.538387,94.659519,107.328587,32.678547,60.986767,76.500607,87.703228,-16.372381,-19.257854,-16.08166,-16.364909,14.504678,26.872483,31.46554,34.129391,31.734463,42.975261,46.373324,47.553128,43.647661,55.48787,57.744725,56.952837,51.161081,61.805432,62.455478,60.490518,-15.024805,292.139084,-68.891172,280.594783
19,-1.844387,1.828553,0.574493,0.157402,13.530521,24.393139,27.016468,23.14024,7.336292,34.96336,54.803066,65.262623,0.460911,31.170673,51.792469,65.807133,-6.570625,21.839504,42.545185,55.357075,-13.483257,6.941872,22.787075,32.689533,-22.2496,-32.67628,-33.320646,-32.148005,-6.629524,9.231316,11.973652,11.741779,12.327111,27.74304,29.19331,27.896922,26.490556,39.490562,37.751423,36.00506,38.221653,49.809303,45.852274,40.572614,25.074577,50.167866,73.47868,92.939587,55.692043,89.210529,106.981945,119.742565,48.310719,85.801449,106.327343,120.318432,40.112972,75.192432,94.283237,107.064228,32.405949,60.396652,75.858021,87.13686,-16.771535,-19.430385,-16.019909,-16.3399,14.486955,26.821291,31.393477,34.012744,31.856791,43.102529,46.355293,47.210475,43.755477,55.787236,57.899718,56.855766,51.15083,62.003095,62.614856,60.533188,-16.847448,293.932579,-68.294935,280.717126
20,2.501793,0.142396,0.296917,0.001606,12.861042,22.9846,24.417515,19.491291,5.687313,33.603115,52.874966,62.238407,-1.119576,29.967327,49.725666,62.839336,-8.220577,20.369625,39.845982,51.568851,-14.998684,3.943291,18.42001,27.284718,-22.530626,-32.53339,-33.001087,-32.168939,-5.616817,11.160708,13.431394,12.664454,13.239659,28.89592,29.628033,27.635965,26.987585,40.182352,37.8254,35.723107,38.20251,50.285707,45.860919,40.100779,25.021076,50.102234,73.493156,92.949944,55.161381,88.891754,106.679535,119.495316,47.704983,85.575256,106.134338,120.08091,39.571438,74.978027,94.165421,107.000542,31.953335,60.189114,75.68264,86.871986,-16.537069,-19.370363,-16.164652,-16.733374,14.647753,26.997342,31.388043,33.922589,32.157392,43.263327,46.291999,46.995028,44.005567,55.834167,57.840993,56.816554,51.192512,61.831614,62.474621,60.526272,-14.256678,294.067395,-67.90904,280.711152
21,-4.592171,-0.232676,-0.433559,0.46708,14.528732,26.922169,30.883541,27.868595,11.098194,38.913403,58.159161,67.675953,3.957939,34.709187,54.510098,67.547665,-3.584118,24.604969,44.013577,55.570164,-10.92556,8.32655,22.686024,31.660366,-22.156665,-32.674551,-33.663916,-33.117055,-6.635144,9.571499,11.981124,11.585489,12.376079,28.083099,29.138846,27.606942,26.456223,40.076944,37.947357,36.292384,38.142859,50.6714,46.716039,41.584456,25.049286,50.264511,73.648167,92.959499,55.59866,89.1152,106.736584,119.658451,48.188095,85.724316,106.231327,120.336971,40.030861,75.146427,94.250851,107.022915,32.315083,60.444603,75.777912,86.67841,-16.913808,-19.84615,-16.495635,-16.84119,14.064027,26.084794,30.538296,33.250374,31.63523,42.669349,45.813063,46.735058,43.569917,55.423712,57.526684,56.55146,50.863073,61.487355,62.015445,59.954772,-18.817835,293.801652,-68.311586,281.145164
22,10.305347,1.264648,0.43087,-0.438181,11.233864,18.782387,19.580498,15.80555,2.011356,25.884476,44.376411,53.921013,-5.007591,22.880745,42.074432,55.724945,-11.989002,13.364182,32.207909,44.33567,-18.512764,-3.40559,9.39045,17.498932,-22.879022,-33.178805,-34.662606,-34.071222,-5.738589,8.478455,10.62175,9.99591,13.27251,27.219088,27.71587,26.224474,27.282382,39.215896,36.586008,34.687121,38.537444,49.94855,45.861907,40.437813,25.008545,50.056229,73.593464,93.245258,55.198631,88.877964,106.694698,119.4734,47.576923,85.377331,105.742664,119.530392,39.269485,74.727688,93.779125,106.611156,31.562805,59.775581,75.359287,86.78587,-16.446666,-19.243219,-15.62551,-15.399688,14.761559,27.037974,31.307459,33.76704,32.218401,43.379603,46.44477,47.411349,43.907507,56.058877,58.157464,57.247942,50.813303,61.816794,62.67179,60.833912,-8.494349,295.059431,-67.862577,280.700114
23,-9.107494,0.512096,-0.301323,0.546182,13.378372,25.030918,29.57056,27.19202,11.212807,38.696308,56.659756,65.692005,4.833241,34.720516,53.497295,67.143688,-1.996479,25.57085,44.545269,56.990719,-8.867798,10.078812,24.403667,33.723164,-23.27478,-34.091908,-35.048052,-33.377086,-8.57281,6.598834,8.978016,9.121339,10.808545,25.850513,27.207849,26.211815,25.222079,37.668369,35.67136,34.074495,37.101871,48.126666,43.942149,38.637542,25.187645,49.836788,73.295803,93.249722,54.931526,88.607426,106.366482,119.404392,47.416077,85.30592,105.560131,119.32085,39.387817,74.878292,94.081707,106.970158,31.885643,60.201302,75.917759,87.332325,-16.979634,-20.130079,-16.491127,-16.444999,14.005426,26.155005,30.344276,32.679183,31.741317,42.931295,45.805468,46.328802,43.762887,56.129642,58.088736,56.809329,50.899383,61.92813,62.624304,60.486752,-17.598753,295.566525,-68.16081,281.241294
24,-13.3988,-3.358358,-0.456333,-1.129292,17.923679,34.218979,43.912582,43.225365,24.286766,58.601074,76.52916,83.652763,17.429409,54.941025,72.007027,81.364861,10.204868,44.52713,60.834274,69.108925,3.294754,27.476921,40.793839,48.20034,-22.488203,-31.95874,-32.012957,-29.280687,-4.175563,14.194444,16.270801,15.839413,14.929274,32.375556,33.348063,31.885072,28.715794,42.608525,41.13374,39.502912,38.994644,51.241789,46.849173,41.025986,25.802765,50.666084,73.544197,92.987022,54.25581,87.531738,105.591774,119.262657,47.277946,84.262276,104.870453,119.665718,40.169621,74.174194,93.122063,106.189957,33.571072,60.842285,76.166153,87.89566,-16.425671,-19.600507,-16.04109,-15.30027,14.001844,26.334636,32.23106,36.609411,31.435282,43.486369,48.357983,51.007693,43.552874,56.274077,59.6404,59.669547,51.19208,62.658143,64.17461,62.379402,-30.992718,292.202193,-68.612309,280.106028
25,1.507931,-3.651055,-0.96096,-4.496727,18.188267,33.27364,39.358578,36.069889,23.312588,52.536106,67.996845,74.926014,13.131065,46.814861,64.211826,75.924511,3.516026,35.137539,52.838802,63.681507,-5.301476,16.963634,31.394863,41.146488,-20.734183,-28.950693,-28.615882,-26.429485,-2.211715,18.045446,23.415139,25.565782,16.611664,36.733282,41.99627,42.79038,29.825881,46.535728,49.192169,49.40669,40.124244,54.896981,54.458738,50.224636,27.528648,53.130054,75.888405,93.921089,56.080341,87.631187,103.692741,115.891571,47.433872,82.083664,101.629944,116.120567,37.960396,70.578461,89.271584,102.786255,28.449497,55.199089,70.3442,82.660904,-15.326885,-17.39645,-13.397863,-13.364333,7.878612,23.88648,32.987502,39.982836,25.333971,42.531708,51.872693,57.861309,38.572518,55.632366,63.986827,68.668619,48.406333,63.057236,68.497571,70.920039,-29.548359,288.503343,-69.636841,275.561507
26,18.292522,-17.497226,3.438663,-14.951627,-3.190784,-9.295921,-18.342075,-27.16753,-15.686474,-1.815948,2.011013,2.846718,-14.478149,1.995506,6.696625,8.919983,-12.012634,5.734863,11.869926,15.180016,-10.134602,4.885197,12.820358,18.030624,37.29095,55.225369,66.325068,68.063465,42.647799,56.438086,56.478903,54.629725,23.280832,38.088519,41.209076,40.982822,3.514463,16.24888,21.46469,23.983675,-14.716976,-6.301815,-1.174678,1.440761,34.050465,64.157352,84.45219,98.403568,57.339306,82.964115,95.403957,101.800861,43.085232,69.8493,82.235355,88.449383,29.360847,50.089302,58.236809,61.146412,17.292595,30.983505,32.943478,30.643272,-9.830913,-5.704071,4.785719,13.508644,5.979786,30.583188,44.380021,51.951795,20.51077,46.271374,59.584949,65.798337,33.738758,58.343024,67.156784,69.708558,43.522308,63.126952,65.991801,63.805774,-11.308622,271.011968,-66.250963,260.61573
27,55.28389,11.919806,18.344479,-22.075093,-35.107498,-63.083038,-82.069702,-89.728603,-57.080097,-96.065197,-110.932102,-117.159176,-46.919575,-88.983536,-108.0019,-115.226154,-39.442863,-79.069805,-96.799908,-103.669052,-34.210854,-64.831581,-80.039978,-87.749176,-26.103875,-43.013114,-54.250145,-59.325226,-9.154252,2.730912,-0.533956,-3.062697,13.233237,27.233105,25.729482,24.079697,30.6358,44.366868,44.379157,42.379061,42.527385,55.296629,57.730151,57.940844,12.187214,27.100239,35.381584,40.449257,57.6408,48.800354,29.357014,11.193638,55.138779,41.319923,17.230568,-5.008507,46.685829,31.126728,6.146507,-14.703712,34.315739,24.017887,7.8899,-7.127724,35.351308,59.519493,77.442303,93.747993,49.408789,81.659486,92.069741,92.297847,39.122406,73.25581,82.812551,82.214499,30.645,61.831367,70.549784,69.785808,22.086764,47.962595,57.35934,59.776869,43.951206,282.922696,-47.930546,238.53156
28,18.858261,-4.3187,-50.184116,-56.924062,-27.109451,-55.954971,-79.976864,-93.861637,-69.597073,-103.003521,-118.552094,-127.688255,-63.678818,-100.364857,-118.533669,-128.634739,-54.890671,-88.493443,-106.151733,-117.056065,-45.795822,-72.559948,-87.173367,-98.58593,-20.925733,-25.71917,-16.216584,-1.206665,4.450105,16.377691,22.289737,26.4046,23.338506,35.885079,39.731574,41.37537,37.582597,48.903054,52.508537,54.105526,48.078562,57.717554,60.699296,62.373597,28.415508,63.488789,92.502995,105.770702,53.441963,103.48978,101.000118,90.418625,47.110119,98.536434,93.617363,82.171841,42.61219,93.148556,89.493198,78.584347,40.341911,79.927711,78.377552,69.914074,-24.177509,-30.684829,-18.226313,0.679749,-31.401258,-22.277326,-10.911668,-9.190067,-9.177037,1.337884,7.484459,5.721793,13.230705,22.953369,24.878562,23.388277,33.968469,38.088025,35.850745,33.345902,62.545938,278.431079,-98.378191,181.434582
29,3.178253,0.021736,-11.465034,-53.750584,-28.481598,-54.61441,-79.031353,-94.189796,-68.020363,-100.03973,-115.767746,-126.598549,-63.285942,-98.619347,-117.105331,-130.492229,-56.019402,-88.437939,-105.775051,-118.539333,-47.643814,-72.884846,-86.804352,-98.286552,-17.69563,-20.364421,-9.954475,2.13323,8.208729,19.217222,23.469109,25.743809,26.139258,35.842409,39.011317,40.589719,39.005327,49.661904,52.943692,53.865502,47.162001,58.129862,61.444994,62.410339,18.489418,46.198311,74.401932,91.387424,39.526119,87.790489,82.799263,70.151539,38.569164,87.193966,79.715996,67.002182,38.794041,85.084248,76.710606,64.913406,39.97776,75.676689,68.820019,58.240871,-34.920012,-56.42095,-60.227091,-51.756046,-48.947761,-49.694941,-45.061715,-45.396834,-23.557998,-24.746972,-23.08922,-23.93165,0.461152,-4.608248,-4.589352,-3.411772,20.966426,13.822953,11.785498,11.828415,65.432825,278.787858,-110.134592,128.01904
30,-0.835533,1.153004,-7.625484,-67.280594,-28.605309,-54.519997,-79.013329,-94.598293,-65.902176,-99.439945,-115.397129,-126.514149,-61.188354,-97.925777,-115.866337,-129.132156,-54.467697,-88.443146,-105.304184,-117.658882,-47.16053,-73.504944,-87.081184,-97.914276,-19.28348,-21.914418,-11.73227,1.215989,6.236977,17.122895,21.403619,23.412977,24.962666,34.04893,36.621946,37.561602,38.675395,47.668354,50.049079,50.40612,47.645877,56.954196,58.359141,57.953688,17.762089,39.870872,62.36515,75.958271,28.563366,62.745152,69.070415,66.123848,27.706318,62.401772,64.341602,57.905102,29.05386,61.625233,60.53587,54.322071,31.396465,56.733971,55.260944,49.56522,-35.618193,-57.171495,-63.110187,-61.067946,-56.617347,-66.740123,-60.628592,-55.26418,-37.598251,-43.874038,-38.239715,-33.676791,-17.943867,-23.143313,-18.476588,-14.702279,1.050838,-3.773938,-3.3997,-2.421882,64.314795,280.009806,-118.042574,60.807391
31,-1.205521,-0.357967,-10.482731,-35.094195,-27.985268,-53.464737,-77.548084,-93.002872,-64.908371,-98.438702,-114.552555,-125.940742,-60.216866,-97.163773,-115.139351,-128.474808,-53.412437,-87.744884,-104.59219,-116.936131,-46.015205,-72.875862,-86.486206,-97.305336,-19.924203,-21.870205,-10.958475,1.950881,5.72414,16.580912,21.151554,23.443235,24.504725,33.315582,36.356234,37.685968,38.216836,46.721041,49.605094,50.463239,47.293467,56.159097,57.872363,57.805363,15.70324,33.642741,51.31651,61.549502,19.613829,48.264914,58.087378,60.933209,19.018307,51.340943,52.359667,45.457163,21.607218,53.405142,51.394358,43.837023,25.859099,50.685397,49.098816,42.357216,-32.194689,-55.252308,-65.234139,-66.495576,-64.890174,-81.649467,-84.358133,-84.976873,-50.761803,-61.102897,-52.109228,-44.356371,-34.72749,-43.401524,-35.549496,-29.010529,-18.70102,-26.847783,-23.02148,-18.600336,60.631943,280.494716,-131.002636,26.556074
32,-0.573921,-1.121634,-10.482731,-35.094195,-28.309822,-53.906708,-77.90617,-92.555981,-64.41925,-97.7635,-113.73682,-125.327797,-59.321823,-96.069717,-113.802166,-127.101631,-52.289085,-86.495247,-103.413162,-116.082687,-44.805794,-71.819458,-85.545216,-96.729527,-19.386542,-21.132473,-10.164735,2.816622,5.749396,16.488966,21.281415,24.05722,24.353127,33.630077,36.7452,38.317674,38.040971,47.392144,50.204876,51.042026,47.120504,56.237891,57.77313,57.837165,13.64439,27.414608,40.267868,47.140732,10.664291,33.784676,47.10434,55.742569,10.330296,40.280113,40.377731,33.009224,14.160576,45.185051,42.252846,33.351974,20.321732,44.636822,42.936687,35.149212,-28.771184,-53.333121,-67.35809,-71.923206,-73.163,-96.55881,-108.087674,-114.689565,-63.925354,-78.331756,-65.978741,-55.03595,-51.511113,-63.659735,-52.622404,-43.318779,-38.452877,-49.921627,-42.64326,-34.778789,56.536989,285.679157,-145.006399,-2.232046
33,-1.252213,-1.165292,-3.784733,-26.150219,-27.079468,-52.215157,-76.181145,-90.904312,-64.021797,-96.64175,-112.413368,-123.673496,-59.29081,-95.361099,-113.095837,-126.234512,-52.160568,-85.883102,-102.769489,-115.410919,-44.226608,-70.656681,-84.494934,-95.974274,-19.475956,-21.460491,-11.002627,1.878262,6.292984,16.725223,21.426714,24.1165,24.659657,33.038076,36.177467,37.580745,38.176883,46.694797,49.607626,50.527275,47.182872,56.089134,58.111645,58.498018,24.438229,34.901848,42.088337,45.926685,8.44717,28.219814,41.834793,50.641823,-0.547829,32.687416,36.602497,29.514542,-2.089405,33.854713,34.843769,26.167946,2.317371,30.856876,32.507629,24.579506,-23.253384,-47.780153,-65.433299,-78.568353,-72.859126,-95.534155,-109.895356,-121.058317,-68.310529,-76.122975,-57.618507,-48.110147,-59.650342,-63.665045,-46.276314,-37.589452,-48.480001,-50.837848,-38.692191,-31.250741,52.719212,287.156474,-151.356697,-25.739656
34,-0.837135,-0.311901,-7.319298,-10.232167,-26.649857,-51.497383,-75.472355,-90.300522,-62.474098,-95.531731,-111.307812,-122.63752,-58.013878,-94.696312,-112.463036,-125.656528,-51.214714,-85.542927,-102.52985,-115.293217,-43.791046,-70.786514,-84.659958,-95.978279,-19.691033,-21.809566,-11.548994,1.191906,5.428849,16.078634,20.697441,23.207904,23.816949,32.271012,35.126228,36.418726,37.408523,45.829427,48.554287,49.464982,46.691339,55.508001,57.181746,57.34841,28.062744,38.028145,45.262299,49.89727,10.362453,29.405251,43.178329,53.104935,4.588509,38.630733,45.952492,41.428814,4.284668,39.683533,42.581291,35.932789,8.16679,37.25069,39.681759,32.4543,-27.857494,-53.183469,-70.327235,-87.128843,-78.848422,-97.667292,-111.639203,-123.735661,-75.677693,-86.039288,-66.474257,-54.627687,-67.655666,-75.010881,-55.980237,-44.172725,-56.166754,-64.206658,-51.80168,-42.998232,49.561243,286.320358,-160.996828,-36.496037
35,0.544395,0.071013,3.582745,-10.483028,-26.497192,-50.975075,-74.732609,-88.87373,-62.225189,-95.083122,-111.145535,-122.554607,-57.685776,-94.310474,-112.539539,-126.123791,-50.643539,-84.937992,-102.08662,-114.855652,-42.923012,-69.792023,-83.661461,-94.969654,-19.573584,-22.174202,-12.071773,0.885933,4.940156,15.148982,19.680536,22.135485,23.440024,31.594228,35.005568,36.750696,37.082851,45.264596,48.359465,49.611269,46.365173,55.055741,56.963829,57.215462,28.026237,35.648975,41.119595,43.810844,10.023537,30.02449,44.208755,54.872818,3.762989,41.698437,47.326069,39.561939,3.582687,41.057682,43.83934,35.837059,7.209206,37.72934,41.616955,34.205074,-27.968367,-52.986608,-70.537804,-86.42776,-80.844195,-100.441584,-114.569214,-125.988578,-78.446056,-86.375149,-66.92732,-56.488165,-71.113596,-78.655483,-59.227692,-48.75405,-60.843175,-70.796539,-57.687328,-48.000077,48.938684,286.5342,-158.581038,-46.836236
36,0.62336,0.443244,5.519657,-9.254256,-26.062202,-50.436172,-74.465733,-89.229698,-61.959229,-95.343647,-111.737766,-123.567696,-57.297478,-94.445057,-113.091545,-126.867142,-50.090446,-84.913788,-102.462616,-115.326633,-42.24369,-69.77457,-83.947735,-95.231953,-19.676892,-22.211006,-12.407263,0.210816,4.667158,14.626573,19.177764,21.870329,23.122751,31.20662,34.75202,36.823006,36.652575,44.943555,48.089986,49.643441,45.627009,54.267374,56.017565,56.416535,29.637508,37.274094,41.794624,45.018196,10.274734,31.811199,44.901466,54.282703,2.483997,44.776554,49.04932,39.940739,1.551704,43.169174,44.381447,34.764977,3.991241,37.177277,41.00853,32.979584,-25.693667,-49.385355,-65.946136,-80.702879,-78.312737,-99.481288,-113.206536,-124.574062,-76.5179,-82.354317,-61.0074,-48.665685,-70.266103,-75.035334,-53.893814,-42.280908,-61.557411,-68.70956,-53.968378,-43.684619,45.987568,287.09704,-156.635857,-55.970898
37,0.037079,-0.246199,5.809593,-3.731145,-25.870743,-50.207405,-74.044991,-89.620113,-62.154922,-95.297699,-111.628189,-123.150158,-57.655106,-94.270821,-112.930584,-126.509571,-50.414886,-84.522343,-102.034664,-114.732113,-42.379189,-69.234867,-83.304291,-94.59486,-20.177194,-22.307398,-12.024102,0.322708,4.423182,14.833252,19.506152,22.298197,22.862967,31.420709,34.897998,36.763664,36.544511,45.338079,48.483583,49.767806,45.571619,54.662082,56.578383,56.773576,29.172306,38.298111,42.418041,45.653858,14.034348,32.963219,44.977856,53.862648,3.955364,43.807755,47.534981,39.465981,0.171146,40.753784,41.207943,31.568756,0.212402,32.26078,34.895096,26.163654,-23.074246,-47.756317,-65.805901,-81.727874,-74.693329,-96.435588,-109.334044,-120.090534,-74.253512,-79.469152,-57.068496,-43.804754,-69.541431,-71.148485,-49.225699,-37.86915,-61.842266,-65.819023,-50.357862,-40.221501,44.924326,286.742175,-151.926584,-59.810708
38,1.127243,0.168949,5.916996,1.244857,-25.715332,-50.18692,-74.083786,-89.125271,-61.86161,-95.279102,-111.854839,-123.665886,-57.40139,-94.396648,-113.354988,-127.460861,-50.202484,-84.690456,-102.4613,-115.566959,-42.214622,-69.317265,-83.493233,-95.006676,-20.006269,-22.337841,-12.057324,0.308505,4.543472,14.481089,18.632446,20.9789,23.042722,30.998213,34.200157,35.943927,36.542782,45.163634,48.194344,49.476653,45.222173,54.467692,56.482855,56.782591,26.915932,37.088242,38.924446,41.367531,17.402287,32.911148,44.061184,53.218689,6.86285,38.045483,42.860813,39.03717,0.358143,34.023399,35.832081,29.244175,-3.543491,22.54612,26.320496,20.812111,-21.343752,-46.929479,-65.853387,-83.508957,-71.092076,-92.583936,-106.186749,-118.003802,-71.160032,-79.737581,-58.368898,-43.000795,-67.567332,-72.749766,-51.473878,-38.034672,-61.337672,-68.729258,-54.514591,-43.467288,45.425034,286.592955,-146.636124,-58.88402
39,0.44323,0.268738,3.383789,1.338903,-25.673561,-49.960899,-73.806896,-88.924084,-61.743736,-95.249233,-111.922359,-123.910904,-57.22229,-94.376678,-113.454781,-127.620564,-50.048103,-84.717407,-102.5877,-115.696964,-42.167587,-69.392853,-83.606014,-95.052795,-20.018619,-22.349759,-12.211453,0.034457,4.451525,14.408656,18.75996,21.208797,22.933424,30.878726,34.231279,36.124115,36.405449,44.762441,47.879479,49.300973,45.165795,54.139797,55.99725,56.176882,25.580578,36.760941,39.403667,41.612206,18.128185,33.116627,43.525429,51.997032,7.625771,34.60001,40.873547,39.254265,-0.016422,29.47403,33.072681,28.678265,-5.377235,18.160801,23.764973,20.870247,-19.010821,-44.475611,-63.328814,-80.87683,-68.608876,-89.309636,-103.485169,-115.668386,-68.896448,-78.362323,-59.075292,-43.535646,-65.582735,-70.799163,-50.592854,-36.205316,-59.474724,-66.74108,-53.541189,-41.875486,45.002604,286.462014,-144.117994,-57.944796
40,0.766296,0.310358,2.744293,0.887045,-25.54985,-49.806061,-73.703613,-88.998013,-61.38588,-95.020466,-111.858101,-123.818264,-57.153511,-94.47979,-113.772984,-127.999592,-50.272751,-84.977589,-102.988186,-116.159706,-42.526474,-69.525833,-83.642635,-94.956322,-19.897094,-22.485301,-12.481302,-0.130108,4.040453,13.782939,18.346603,21.081652,22.432319,30.165323,33.624828,35.517355,36.017348,43.920228,47.083763,48.535515,45.102563,53.827649,55.772663,56.00645,23.408489,34.603729,37.472477,39.906521,14.166012,30.720062,41.305676,49.146194,4.083309,34.198895,39.435825,35.783329,-2.776623,28.548603,30.826378,24.949665,-6.967793,17.502594,21.596489,16.913738,-17.781155,-43.216952,-61.802622,-79.717219,-67.303904,-87.756845,-101.981346,-114.406532,-67.634485,-75.916914,-55.158648,-40.241385,-64.366221,-68.795671,-48.309972,-35.100725,-58.350558,-64.68544,-50.818057,-39.658523,45.041685,286.537488,-142.100916,-57.292634
41,0.577126,-0.416013,1.26091,1.312505,-25.779533,-49.820251,-73.748474,-89.353924,-61.002159,-94.620495,-111.417561,-123.378925,-56.768303,-94.123421,-113.421249,-127.9006,-49.866371,-84.762096,-102.668438,-115.822277,-42.15992,-69.651146,-83.823853,-95.127697,-19.831886,-22.241881,-12.262026,0.070889,4.397617,14.057481,18.327461,20.687253,22.880936,30.536258,33.852008,35.553108,36.522034,44.503707,47.495021,48.660868,45.567482,54.237054,55.912343,55.772108,23.196087,33.54063,35.624714,37.381954,11.599903,28.937645,40.379333,49.555092,1.968899,34.135551,38.89183,35.307198,-3.61702,29.836349,31.427307,25.52845,-6.141529,19.308701,22.770138,17.999554,-18.170614,-43.713148,-62.177046,-79.137043,-66.924047,-87.054496,-101.092788,-112.854821,-67.062337,-74.270617,-54.454539,-40.355531,-63.372719,-66.592354,-47.232921,-34.773942,-56.492148,-61.720185,-48.664728,-38.300662,44.842501,285.98033,-141.616316,-56.121275
42,-0.274315,0.310666,0.089893,0.403292,-25.075951,-49.398193,-73.209171,-89.211044,-60.311279,-94.877129,-111.962471,-124.03038,-55.750809,-94.116096,-113.558178,-128.024883,-48.819809,-84.504948,-102.75198,-116.137733,-41.285133,-68.938179,-83.373814,-94.980927,-20.1026,-22.337532,-12.223185,-0.4438,4.603617,14.989666,19.274712,21.545274,23.241497,31.009945,33.905546,35.372118,36.71414,44.366127,47.181761,48.473147,45.401188,53.757315,55.536962,55.936981,24.21381,33.505611,37.59676,38.622494,7.184544,29.394264,41.862259,50.317783,-2.399826,36.257801,40.992393,34.905052,-5.418663,33.466415,35.580025,28.193951,-3.688545,26.770878,31.255302,25.86731,-19.526036,-45.541423,-64.168929,-78.939596,-68.428873,-86.115272,-99.108331,-110.497222,-67.047578,-73.019739,-53.955781,-40.50895,-60.163951,-63.394702,-44.551996,-33.01072,-49.896741,-53.88591,-40.847774,-31.358804,44.154997,286.453585,-141.939611,-55.555395
43,0.039711,0.289486,-7.391281,2.645758,-25.384254,-49.599953,-73.304329,-89.235363,-60.676117,-94.746952,-111.622753,-123.616276,-56.165314,-94.209995,-113.19643,-127.303791,-49.339828,-84.823093,-102.859097,-116.136761,-41.989288,-69.853592,-84.190922,-95.599022,-20.047271,-22.259356,-12.163843,-0.067184,4.86655,14.574332,18.839371,21.27382,23.363454,30.745962,33.221969,34.3717,36.784226,44.622577,47.126309,48.01039,45.564826,54.036983,55.534986,55.613965,10.347061,20.665512,32.363033,40.103588,5.829277,31.519604,45.370216,53.656769,7.426071,44.374752,41.657124,31.818752,13.358803,48.2967,44.652386,35.266743,20.833054,46.841011,44.628983,36.516838,-20.141564,-39.908828,-50.909788,-56.577703,-64.759108,-85.210227,-97.687021,-108.335108,-59.779586,-66.517451,-52.622312,-46.540915,-52.238934,-59.691592,-46.375115,-40.548439,-42.884889,-47.243789,-37.159453,-31.937004,43.754482,286.677307,-149.771118,-52.975401
44,-0.115471,0.318632,-5.004845,-0.705992,-24.893532,-49.348984,-73.083572,-88.562622,-60.576897,-95.042381,-111.965446,-123.88607,-56.173439,-94.676971,-113.753586,-127.734833,-49.444199,-85.555916,-103.787727,-117.137604,-42.127419,-70.407658,-84.906349,-96.309929,-20.180343,-22.272386,-11.925116,0.658321,4.934969,14.546792,18.715315,21.181009,23.384881,30.392874,32.564821,33.480394,36.832639,44.128635,46.380117,47.077403,45.595331,53.921571,55.439582,55.632428,1.33913,11.383381,25.288582,38.639889,11.109009,36.762028,52.395687,62.838421,19.035015,52.50555,48.567238,38.540039,28.837166,57.590504,52.676868,43.261986,38.649673,59.030342,54.669342,46.809082,-25.148071,-44.827372,-52.962279,-55.252509,-62.767318,-84.744567,-97.915992,-108.86718,-55.692172,-60.125913,-50.637839,-48.094586,-46.259241,-50.572044,-42.16877,-38.571345,-35.758923,-39.763066,-32.334245,-28.539157,43.5779,286.984345,-154.837074,-53.692987
45,0.655174,-0.207358,1.993618,2.445193,-25.818787,-50.05497,-73.870411,-89.377441,-61.273956,-95.156078,-111.716309,-123.491135,-57.022362,-94.727268,-113.532486,-127.46933,-50.370827,-85.51466,-103.272858,-116.38916,-43.013077,-70.597572,-84.743385,-95.768681,-19.639719,-22.192975,-12.484019,0.695433,5.697155,14.482139,18.542105,21.059608,24.106682,30.827658,33.052711,33.983907,37.492998,45.263484,47.437222,47.841749,46.206351,54.898401,56.247895,55.933955,0.497932,9.394798,20.939426,31.487732,11.289711,34.218407,48.609753,58.758831,17.984333,51.527596,48.011742,38.144131,26.655464,55.973282,51.077785,42.063961,35.835457,58.214035,53.992882,46.004219,-24.337103,-43.508785,-51.964917,-54.489984,-63.427893,-85.586426,-98.621058,-109.96978,-57.304815,-60.859508,-50.408683,-47.415949,-47.755422,-51.261117,-40.986157,-36.878643,-36.053102,-40.414039,-31.678147,-26.888569,44.186182,286.802552,-152.890348,-51.222229
46,-0.63549,-0.300848,2.203503,2.951824,-25.636368,-49.97715,-74.039383,-89.747429,-60.629883,-94.946365,-111.512775,-123.075714,-56.171608,-94.67823,-113.538723,-127.376404,-49.427261,-85.232792,-103.111382,-116.265736,-42.264748,-70.488796,-84.702415,-95.806217,-19.562407,-21.841059,-12.06813,0.967011,5.644482,14.837389,19.031045,21.52959,24.089206,31.226566,33.697076,34.664026,37.538199,45.510115,47.809083,48.277769,46.393023,54.981702,56.176511,55.931424,1.501236,9.670372,20.208492,29.385109,10.374527,33.350487,47.263813,56.846237,14.577312,51.173286,47.601528,37.355118,21.980209,55.260658,49.527855,39.964771,30.729733,56.233406,51.360626,42.408428,-23.027686,-41.44419,-50.366507,-54.03195,-64.611648,-85.646463,-98.526271,-109.93679,-58.800317,-61.95953,-50.21738,-46.837471,-49.714176,-52.627313,-40.800628,-37.131109,-38.315421,-41.733028,-31.516175,-27.022042,43.398085,286.788334,-150.839453,-47.983775
47,0.811844,0.336293,5.087013,4.592131,-25.805511,-49.997063,-73.970947,-89.48101,-60.713081,-94.776878,-111.536808,-123.392029,-56.648483,-94.755363,-113.744946,-127.639904,-50.105095,-85.652733,-103.632259,-116.654377,-43.059769,-70.876293,-85.128021,-96.085224,-19.460334,-21.938439,-12.072082,0.796642,5.56223,14.255885,18.326473,20.707383,23.8004,30.881196,33.404626,34.360893,37.034624,44.967453,47.423946,47.945675,45.808555,54.506348,55.788224,55.335594,15.555668,25.219231,34.308872,41.001263,8.6796,30.595608,43.4515,51.470661,6.700745,45.707531,44.508476,34.640579,10.444393,48.458576,44.676933,34.774361,16.956882,47.14159,44.584179,35.638046,-19.235778,-40.542079,-53.891993,-63.34561,-66.365422,-85.402919,-98.68199,-111.12757,-61.358142,-65.685025,-50.26817,-44.457333,-52.709225,-55.783933,-40.535564,-35.500559,-41.880457,-44.452022,-32.382904,-26.75281,43.903542,287.387483,-146.058826,-43.128788
48,-0.131836,-0.19155,7.731285,2.515743,-25.422592,-49.904823,-73.974495,-89.694557,-60.8004,-95.175648,-112.060661,-123.908272,-56.474304,-94.796791,-113.848972,-127.676353,-49.799194,-85.608959,-103.708076,-116.83382,-42.587242,-70.758533,-85.123558,-96.193714,-19.691959,-21.779,-11.69207,1.140715,5.800154,14.969103,19.051669,21.36731,24.198196,31.278683,33.61007,34.417271,37.514857,45.472386,47.771786,48.18891,46.224135,54.860795,56.101299,55.763339,24.820805,34.290447,39.22102,41.372738,6.573086,25.441189,37.091389,43.599358,-1.568356,37.44936,42.108479,34.664211,-2.920818,36.614628,38.596802,30.636806,0.708733,31.882896,35.620022,29.127789,-17.020822,-41.707402,-60.687904,-75.180725,-65.40721,-85.241257,-100.360397,-113.539278,-63.124884,-67.301867,-48.348103,-36.751499,-55.561693,-58.742395,-39.851153,-29.607655,-44.588645,-47.297697,-33.682812,-24.984433,43.496847,287.071027,-138.6024,-40.737951
49,-0.320091,0.476404,4.462681,4.051383,-25.223007,-49.336052,-73.340149,-88.949947,-60.328903,-94.596634,-111.37579,-123.38871,-56.301956,-94.522934,-113.612709,-127.78204,-49.943161,-85.467625,-103.559704,-116.888466,-42.910652,-70.579834,-84.980965,-96.381283,-19.630579,-21.902315,-11.864971,0.822886,6.24908,14.949589,18.98714,21.282712,24.597103,31.388043,33.732645,34.580848,37.656574,45.1448,47.26568,47.653472,46.152196,54.787991,56.049861,55.834352,22.203312,32.554035,36.27142,38.161354,5.79958,24.28894,34.733219,41.006584,-4.502048,29.63522,36.4781,33.777523,-9.687023,26.877937,30.80143,26.530609,-9.932041,19.072437,24.040089,20.768623,-15.168803,-41.563338,-60.520128,-75.946338,-64.814159,-85.080582,-100.944479,-115.109699,-64.169608,-69.820635,-49.816095,-35.13231,-57.947605,-59.378208,-39.714345,-26.807799,-48.214073,-49.146165,-35.633662,-25.036365,43.227596,286.867374,-134.088879,-37.366625
50,-0.194893,0.441762,-2.633572,2.877477,-25.117607,-49.220009,-73.253117,-88.526745,-60.53627,-94.747238,-111.220322,-122.994232,-56.5242,-94.580269,-113.424339,-127.514191,-50.124092,-85.466652,-103.378773,-116.767387,-42.999802,-70.667095,-85.011234,-96.378593,-19.629715,-22.153454,-12.451847,0.674438,6.023382,14.41656,18.270835,20.519724,24.338122,31.162469,33.500093,34.372811,37.393271,45.022411,47.075612,47.479583,45.948976,54.706234,55.979342,55.793535,21.690388,32.718315,34.901562,34.264984,9.108868,26.783695,36.891632,44.642315,-1.369286,29.961777,37.653179,36.547108,-8.488884,23.466053,28.482399,25.66761,-12.006912,13.159046,20.111732,19.004173,-14.364072,-41.983488,-61.176843,-78.123287,-65.610338,-86.450083,-102.457874,-116.758374,-65.484058,-75.525725,-54.598078,-38.566961,-60.117577,-64.788872,-44.652371,-29.891831,-51.087258,-56.605646,-43.932454,-32.452003,43.019915,287.416351,-136.735239,-34.381935
51,0.172806,-0.523273,0.026779,1.354742,-25.513458,-49.950142,-73.649712,-88.350506,-60.501137,-94.880161,-111.34243,-123.103752,-56.259499,-94.459934,-113.257999,-127.352257,-49.691277,-85.232391,-103.086262,-116.398201,-42.485962,-70.160122,-84.322529,-95.503521,-19.293052,-21.264557,-10.753711,2.085188,6.574505,15.150031,19.028019,21.321059,24.94871,31.731499,34.024354,34.901642,37.957052,45.668073,47.745172,48.181068,46.427974,55.045429,56.204175,55.955383,21.727524,31.884041,34.553604,35.619907,6.486168,24.414654,35.176449,43.419514,-4.083138,28.78315,36.937523,35.492191,-10.447426,23.23597,27.930965,24.105091,-12.800503,13.698578,19.2766,15.998669,-16.066191,-43.488098,-62.296903,-78.256328,-66.869027,-87.417804,-103.597122,-117.954834,-66.522484,-76.133997,-54.92307,-37.823918,-61.092986,-66.377586,-45.626237,-30.81645,-52.116885,-57.967798,-44.318734,-33.088804,43.148861,286.883553,-136.752319,-33.036717
52,0.232544,0.261389,-1.517429,0.566684,-25.69828,-49.951057,-73.514099,-88.177643,-60.791473,-95.141144,-111.448574,-122.966251,-56.469383,-94.351673,-112.89093,-126.765175,-49.775047,-84.958019,-102.502613,-115.561352,-42.423134,-69.743328,-83.714333,-94.785576,-19.540547,-21.655622,-11.008308,1.838804,6.299962,14.84943,18.563471,20.611732,24.795507,31.570824,33.839535,34.611476,37.896845,45.401373,47.487858,47.905908,46.494726,54.96892,56.043995,55.657684,22.306767,31.488705,34.310989,35.390053,4.754734,24.943142,36.372871,44.740849,-4.75771,31.260052,38.263664,35.948982,-8.635311,28.157101,31.746254,27.188988,-7.731628,20.229092,25.339394,21.9627,-17.56685,-45.195713,-64.059229,-79.453699,-67.602746,-87.732546,-103.219333,-117.20557,-66.957238,-75.220029,-55.64836,-40.245461,-60.890352,-65.473344,-46.696557,-33.179453,-51.292455,-55.958409,-43.853722,-33.76142,43.271227,287.134939,-138.379927,-32.480037
53,0.891838,0.273925,-4.05653,0.034426,-25.559692,-49.895096,-73.364639,-88.064346,-60.890236,-94.905224,-111.251793,-122.852154,-56.84063,-94.354706,-113.064709,-127.236786,-50.312347,-85.146904,-102.893887,-116.131554,-42.994766,-70.167732,-84.213295,-95.257874,-19.496705,-21.821484,-11.304771,1.58044,6.183316,14.577173,18.317395,20.420491,24.666017,31.030817,33.211409,34.048498,37.791808,45.096264,47.182255,47.606233,46.403891,54.835045,56.093765,55.745678,22.555676,32.18565,37.265568,38.191853,2.509632,25.944901,39.515648,48.013744,-4.337425,36.032352,40.90107,33.098545,-3.829651,34.923992,37.18071,29.084015,1.430454,31.129818,34.374161,27.762165,-19.436158,-45.071224,-63.625309,-77.243498,-67.902575,-87.937094,-102.400955,-114.726677,-64.512601,-74.811242,-56.87778,-45.367595,-56.689904,-65.863483,-48.554997,-38.56236,-46.034623,-54.393931,-42.161668,-33.55715,44.16152,287.211849,-142.438002,-32.642626
54,-0.230942,-0.426695,2.050037,0.227736,-25.481529,-49.577751,-73.084087,-88.489151,-60.232773,-94.384689,-110.696125,-122.458878,-56.12606,-93.925438,-112.477798,-126.676426,-49.668274,-84.806213,-102.706604,-116.3027,-42.542839,-69.983883,-84.266396,-95.726109,-19.631506,-21.596466,-11.01226,1.488555,6.512137,15.085873,18.858514,21.077762,24.84676,31.491043,33.647058,34.660753,37.862265,45.477573,47.514225,48.133582,46.341523,54.825906,56.038931,56.039734,22.810993,32.058563,35.996933,36.52153,1.476917,24.603195,37.653751,45.698147,-6.245327,33.2131,37.988434,30.419426,-6.417961,32.0854,34.21526,25.856895,-1.518002,28.596039,31.643143,24.484406,-19.007116,-45.874011,-64.973753,-79.199535,-68.289595,-87.967877,-102.431213,-115.082483,-65.423573,-75.2183,-56.653348,-45.111424,-58.067741,-66.549901,-48.523906,-38.529664,-47.744091,-54.610397,-41.719566,-33.11301,43.918362,286.757289,-140.400181,-32.442756
55,0.636978,0.307394,1.264915,-0.832859,-25.436211,-49.641609,-72.918777,-88.041687,-60.233917,-94.235573,-110.778694,-122.545166,-56.173897,-93.936481,-112.597103,-126.756763,-49.729042,-84.766617,-102.59943,-115.936317,-42.627869,-70.092945,-84.242306,-95.399895,-19.472745,-21.632713,-10.912533,1.785513,6.228702,14.934152,18.717847,20.881396,24.570242,31.305606,33.411604,34.33854,37.666887,45.293618,47.347437,47.880652,46.312315,54.871046,56.080304,55.852013,21.984158,30.94986,34.395676,34.179726,0.89819,23.938923,36.605129,44.853401,-7.10638,31.894226,37.580624,31.557655,-7.909355,30.29932,32.946682,25.362968,-3.602943,26.050587,29.675331,23.235912,-19.394106,-46.339856,-65.013026,-79.146862,-68.717032,-88.457002,-102.426859,-114.753785,-66.351898,-75.728729,-57.043209,-44.474684,-59.050437,-66.784028,-48.905369,-38.365037,-48.621842,-55.46033,-42.9396,-34.215811,44.440184,287.156474,-139.250422,-33.183822
56,-0.017281,-0.314804,-1.223717,-0.316471,-25.626411,-49.457359,-72.572994,-87.741508,-60.112267,-94.039078,-110.607777,-122.502537,-56.025467,-93.541546,-112.270546,-126.389008,-49.551544,-84.391823,-102.316761,-115.77713,-42.370033,-69.566917,-83.792953,-95.134449,-18.983435,-21.213119,-11.187013,1.319112,6.77013,15.749072,19.63799,21.71904,25.085858,31.981835,34.145755,35.000195,38.13267,45.926251,48.126974,48.551755,46.59365,55.358503,56.823223,56.688545,21.602669,31.224575,35.414715,35.858116,1.336784,24.178505,36.830864,45.262184,-5.964146,33.588753,38.441563,31.988411,-6.127453,32.421799,34.690247,27.521553,-1.372032,28.34341,31.842499,26.048298,-19.793354,-46.371009,-65.13736,-78.808006,-68.401703,-88.602517,-103.057887,-115.423145,-65.957529,-74.696355,-56.296801,-44.123726,-58.810166,-66.061949,-48.406179,-37.877301,-48.477346,-55.327536,-43.141586,-34.471087,44.354868,286.84164,-140.542173,-33.500324
57,0.514069,0.242926,0.111809,-0.304121,-25.583954,-49.698715,-72.96175,-88.521767,-60.530205,-94.284668,-110.694122,-122.320404,-56.256294,-93.732033,-112.261391,-126.252022,-49.628792,-84.349823,-102.080097,-115.372581,-42.42382,-69.72908,-83.818645,-94.991512,-19.40834,-21.379722,-10.955573,1.524309,6.563266,15.644467,19.492814,21.711568,24.807117,31.770093,33.844413,34.824083,37.94606,45.849866,47.976427,48.578617,46.51288,55.241857,56.489586,56.341508,22.49548,31.922379,36.20018,36.665211,1.692123,23.994312,36.822281,44.701881,-5.883236,33.553791,38.746033,31.231728,-6.033897,32.375679,34.873123,26.981792,-0.89613,28.733425,32.209625,25.765972,-19.376044,-45.964166,-65.222885,-78.849225,-68.427947,-88.759548,-103.509823,-116.073253,-65.8256,-75.435137,-56.803864,-45.026239,-58.420892,-66.788196,-48.758866,-38.379301,-47.815783,-55.248186,-42.929411,-34.278487,44.660139,287.168377,-140.639162,-33.720634
58,0.115814,-0.140173,0.17664,-0.534789,-25.582237,-49.60762,-73.175354,-89.353523,-60.391273,-94.429951,-110.9935,-122.72049,-56.073303,-93.896999,-112.589779,-126.518154,-49.374962,-84.434738,-102.411804,-115.669899,-42.130508,-69.664764,-83.863792,-95.055656,-19.521405,-21.335508,-10.859551,1.447738,6.831942,16.06369,19.842939,22.019888,25.215287,31.993629,33.936297,34.780796,38.332371,46.011776,48.025024,48.536009,46.694488,55.199187,56.413818,56.322736,22.307796,31.876144,36.334705,37.474136,1.149445,24.140396,37.107868,44.954109,-6.247272,33.276443,38.514462,31.0956,-6.165276,32.496243,35.075054,27.24575,-0.894699,28.866405,32.574234,26.374454,-19.345725,-46.109588,-65.515705,-79.348693,-68.268353,-88.44669,-103.115685,-115.850874,-65.584711,-75.843431,-57.247757,-45.008486,-58.000248,-66.945567,-49.010623,-38.318662,-47.253515,-55.430628,-43.256596,-34.176537,44.473343,287.20677,-140.765133,-34.076857
59,0.501251,0.159254,0.935555,-0.826838,-25.660286,-49.703293,-73.268681,-88.696632,-60.267563,-94.493351,-111.253052,-123.245087,-55.949593,-93.972416,-112.761726,-126.888828,-49.290962,-84.600563,-102.525444,-115.699997,-42.178345,-69.806442,-84.056396,-95.166264,-19.783412,-21.797463,-11.039739,1.736483,6.622114,15.540973,19.269648,21.399667,25.077954,31.810292,33.870533,34.773695,38.300199,45.836899,47.815382,48.196197,46.906169,55.290022,56.300691,55.968844,21.713333,30.897446,35.189152,36.729813,0.388699,23.279572,36.175461,44.081726,-7.07943,32.807751,37.829132,30.37611,-7.108212,31.816692,34.147797,26.386185,-1.985664,28.019714,31.594505,25.355415,-19.555367,-46.452211,-65.591349,-79.474293,-68.381881,-88.594582,-103.104277,-115.769734,-65.73742,-75.389905,-56.401746,-44.257941,-58.15873,-66.608317,-48.537491,-37.899593,-47.417369,-55.503154,-43.511193,-34.709382,44.716129,287.571993,-140.088043,-34.697726
60,0.564423,0.217794,-0.648594,-0.405453,-25.700111,-49.922905,-73.442287,-89.063015,-60.774422,-94.875698,-111.595287,-123.469906,-56.246109,-94.357567,-113.123531,-127.263966,-49.378395,-84.832077,-102.865505,-116.271172,-42.059212,-69.958649,-84.41843,-95.698471,-19.989535,-21.819385,-10.818549,1.980274,6.621497,15.37048,19.016842,21.130003,25.203431,31.855617,33.765743,34.597397,38.430616,46.114961,47.897757,48.161122,46.948715,55.389934,56.184539,55.630514,21.831036,31.260738,36.051865,37.935791,0.406551,23.496094,36.458416,44.307003,-6.545677,33.142605,37.879429,30.144482,-6.065025,32.276344,34.671421,26.991005,-0.613918,28.803234,32.048721,25.778503,-19.808946,-46.309073,-65.420455,-78.945555,-68.097891,-88.527552,-103.018753,-115.576147,-64.979465,-75.071983,-56.274725,-44.188965,-57.365392,-66.300028,-48.469504,-37.762569,-46.861245,-55.6893,-43.637442,-34.534134,45.162792,287.899116,-140.854397,-34.99385
61,0.22728,0.788059,-0.32959,-0.726741,-25.829659,-50.258675,-74.044933,-89.143581,-61.722908,-95.656757,-112.154446,-123.928757,-57.303085,-95.066013,-113.597775,-127.242908,-50.533447,-85.655308,-103.450298,-116.601048,-43.11779,-70.871658,-85.214024,-96.441193,-20.046407,-22.170065,-12.01521,0.765396,5.903957,14.601749,18.7268,21.412511,24.044869,31.104053,33.532141,34.63136,37.104526,44.821475,46.795512,47.217761,45.701418,54.225322,55.275511,55.115577,21.879787,30.976982,35.53093,36.417503,0.348587,23.591595,36.869144,45.035706,-6.657944,32.774391,39.046497,32.707443,-6.206703,32.216377,35.623512,28.495731,-0.70982,28.531494,32.473755,26.562424,-20.059313,-46.507477,-65.401405,-78.779508,-67.378777,-88.19941,-103.076767,-115.88053,-64.005599,-75.315403,-56.641183,-43.771563,-56.349752,-66.215708,-48.235161,-37.097548,-45.890313,-55.002203,-42.511052,-33.061912,45.131035,288.78616,-141.443024,-35.621605
62,0.736313,-0.907299,-0.081711,-0.076787,-26.026154,-50.512619,-74.410114,-89.50098,-61.890106,-95.353546,-111.70784,-123.421612,-57.93251,-95.129929,-113.638,-127.407932,-51.354332,-85.996284,-103.744011,-116.879711,-44.017754,-71.379547,-85.583553,-96.782684,-19.736543,-21.837169,-11.529234,1.141333,6.114155,14.572171,18.589776,21.184343,24.194985,30.992779,33.337257,34.49094,37.425751,45.377908,47.492798,47.967844,46.229508,55.187331,56.482423,56.301803,21.619549,30.777569,35.430679,36.110115,0.312023,23.136292,36.439419,44.638138,-6.366863,33.688374,38.723259,30.957298,-5.712719,32.918358,35.382557,27.503529,-0.26865,29.339905,32.948112,26.680183,-19.798047,-45.805282,-64.993513,-78.868614,-67.490916,-88.305096,-102.759632,-114.960804,-64.165718,-75.140557,-56.879663,-45.410759,-56.422432,-66.395216,-48.488461,-38.074563,-45.89022,-54.750262,-42.302953,-33.291098,45.837221,287.949411,-141.554861,-35.627842
63,0.246162,0.118067,0.321007,-0.399772,-26.119537,-50.590439,-74.59877,-90.247364,-61.605606,-95.383873,-111.964703,-123.72282,-57.282944,-94.887371,-113.599548,-127.427559,-50.592155,-85.658741,-103.402576,-116.257668,-43.350563,-71.281815,-85.517464,-96.468887,-19.84825,-21.548362,-11.098772,1.348814,6.297554,15.247659,19.314294,21.740097,24.818602,31.753853,34.092217,35.136725,38.040353,46.043454,48.193171,48.5759,46.365853,55.31818,56.670947,56.414868,21.831837,30.908146,35.732117,36.935349,-0.746212,22.21859,35.655441,43.667107,-7.425041,32.832756,38.280888,30.424404,-6.622295,32.044601,34.805889,26.817684,-0.747871,28.918304,32.464828,25.91114,-19.347145,-45.413167,-64.437975,-78.422498,-67.916252,-88.273264,-102.905719,-115.400019,-64.889556,-75.894035,-57.449002,-45.902076,-57.250135,-67.349445,-49.351053,-39.083133,-46.628878,-55.315803,-42.596021,-33.685776,46.064873,288.133474,-141.252365,-35.961618
64,0.004005,-0.08077,-0.434132,-0.79232,-26.168518,-50.787048,-74.885445,-90.616264,-61.437149,-95.50272,-112.123547,-123.856659,-56.972466,-94.786491,-113.522186,-127.288113,-50.282936,-85.439072,-103.520794,-116.768131,-43.084831,-71.087379,-85.569706,-96.868286,-19.616006,-21.403557,-11.049989,1.769705,6.642183,16.247645,20.467606,23.012835,24.919935,32.285709,34.576402,35.458939,38.086481,46.450265,48.414978,48.526747,46.624772,55.669478,56.929002,56.649704,21.511917,31.143894,35.946865,37.726021,0.114613,23.06282,36.253166,44.412746,-6.949539,33.252182,38.117237,30.566483,-6.450634,32.673969,34.870605,27.085476,-0.781345,29.441471,32.64782,26.226482,-19.188786,-45.243323,-64.055678,-77.946928,-68.235039,-88.526965,-103.124948,-115.774489,-65.449447,-75.024929,-56.465379,-44.958067,-57.837381,-66.041942,-48.405994,-38.458589,-46.969772,-54.352064,-42.5025,-34.367037,46.031227,288.161339,-141.724148,-36.645303
65,0.234032,-0.410331,-1.181145,-1.172023,-26.073074,-50.775032,-74.950333,-90.8111,-61.502495,-95.458145,-112.044182,-123.692551,-57.164841,-94.911118,-113.66787,-127.39151,-50.420036,-85.465679,-103.412418,-116.519508,-43.127518,-70.81707,-85.162411,-96.333504,-19.405746,-21.106538,-10.570436,2.404314,6.952047,16.329032,20.584315,23.165482,25.107471,32.727842,35.2861,36.176479,38.275622,46.809529,49.049093,49.186364,46.954458,56.133162,57.527301,57.205952,21.184502,30.95541,36.139812,37.775745,0.641956,22.598076,35.786877,44.13826,-6.125679,34.983158,40.132198,32.725811,-5.320587,34.094582,36.547108,29.143639,0.195236,29.960632,33.824329,28.097019,-18.855766,-44.69041,-63.37698,-76.862992,-67.084937,-88.861807,-103.882425,-117.198453,-64.034529,-73.532792,-54.771226,-43.07789,-56.352592,-65.182006,-47.410515,-37.140897,-45.537347,-54.728032,-42.641531,-33.756264,46.210814,287.945907,-142.959738,-37.622427
66,-0.058823,0.356362,0.47945,0.560076,-25.984383,-50.859489,-75.086803,-90.37817,-61.570473,-95.628204,-112.255211,-124.007263,-57.183952,-95.220623,-113.979149,-127.681217,-50.534134,-85.792923,-103.561764,-116.374283,-43.346443,-71.174583,-85.471172,-96.433353,-19.325779,-21.030461,-10.627555,2.800319,7.512926,16.27216,20.094943,22.540815,25.758443,33.034371,35.291163,36.181481,38.74789,47.018801,48.849701,48.809996,47.112539,56.364665,57.543418,57.040832,20.679131,28.463287,31.735439,31.828251,-0.550175,19.763088,32.635288,40.8391,-7.258129,34.381313,37.769737,28.915215,-6.073093,33.582802,34.235058,25.68861,-0.336342,29.767227,32.417564,25.558605,-19.539405,-45.217789,-64.036783,-77.727714,-67.866111,-90.163382,-105.452614,-118.828927,-63.984727,-72.276171,-53.768554,-43.594185,-55.76374,-63.902012,-46.68748,-38.191117,-44.772383,-53.636778,-41.835873,-34.054488,46.243858,288.509704,-142.38842,-36.854915
67,-0.610313,0.403848,-0.162163,2.324347,-26.082001,-50.43457,-74.163094,-89.137802,-61.346512,-95.325966,-111.810093,-123.642769,-57.170105,-94.878044,-113.35247,-127.245712,-50.809135,-85.725861,-103.214035,-116.169262,-43.909378,-71.440659,-85.676708,-96.935234,-19.110023,-20.918508,-10.46157,2.802419,7.273396,16.678292,20.665887,22.975785,25.429314,33.334601,35.614365,36.371178,38.423576,46.861029,48.916206,49.040819,46.974218,56.157245,57.481791,57.143523,21.410694,29.627209,33.376579,34.182987,-1.893425,17.888203,30.673542,38.889256,-9.213409,32.342892,36.223412,27.066021,-8.12748,31.557426,33.235874,24.369564,-1.964378,28.327503,32.373562,25.953999,-20.496722,-46.360635,-65.143782,-77.437641,-68.529527,-91.239229,-106.717124,-120.153427,-63.542502,-73.804494,-55.832376,-45.818065,-54.384174,-64.78174,-48.315437,-39.60233,-42.875318,-53.89718,-43.232174,-35.036011,46.010113,289.261685,-142.174015,-34.182435
68,-0.667191,1.507822,-4.2342,4.169295,-26.022148,-50.452652,-74.470997,-90.301838,-60.971146,-95.009651,-111.484623,-123.010883,-56.435852,-94.323177,-112.635727,-125.905838,-49.928627,-84.899712,-102.163353,-114.593525,-43.278809,-70.669441,-84.599876,-95.315323,-19.866528,-21.850939,-11.688982,0.873954,6.216784,16.564733,20.626799,22.690127,25.116177,33.777167,35.793997,36.204514,38.607037,47.783704,49.525436,49.401318,47.164038,56.609814,57.592942,56.823161,21.972942,31.704712,38.074722,39.46558,0.655918,21.456127,34.713879,43.495159,-6.179066,35.03191,39.034767,30.541592,-4.42503,35.13279,36.494064,27.713413,2.638206,33.55854,36.218662,28.996754,-20.643965,-46.140494,-64.658826,-76.276301,-69.050083,-91.851669,-107.215419,-119.858476,-63.935327,-73.868807,-55.479843,-45.597708,-55.23562,-65.640935,-48.315869,-39.4478,-44.229998,-51.294554,-38.397302,-30.426311,45.932751,290.999264,-145.818386,-29.783382
69,1.144409,-0.448864,0.625534,5.164218,-26.335945,-50.816574,-74.586525,-89.450684,-61.424332,-94.855213,-111.387119,-123.591957,-57.276192,-94.05756,-112.577362,-126.690845,-50.830536,-84.894733,-102.523155,-115.658112,-43.892097,-70.289268,-84.178791,-95.206261,-19.198388,-21.317168,-10.68418,2.527444,7.438208,16.744365,20.720042,22.890878,26.044595,33.307863,35.534398,36.473869,39.285303,47.443891,49.819924,50.344308,47.784568,56.783579,58.194144,57.701314,22.228489,31.766739,37.835369,39.331799,1.459007,23.132744,37.023811,45.680122,-4.80732,35.09428,38.830032,29.579544,-3.058662,35.309658,36.429577,27.406197,3.385792,33.707314,36.364861,29.122982,-21.539933,-46.385736,-64.49741,-75.673216,-70.104378,-91.766979,-106.342422,-118.418101,-63.958699,-73.471011,-54.98269,-44.834782,-54.266169,-63.108705,-45.981487,-37.316731,-42.854292,-48.831392,-36.219426,-28.18755,47.609253,290.747508,-144.660759,-24.422056
70,-1.101036,0.487705,1.660595,5.671467,-25.882874,-49.873352,-73.573952,-89.374752,-60.180931,-94.638634,-111.418648,-123.467789,-55.649986,-93.742905,-112.557335,-126.449432,-49.026833,-84.085293,-102.089424,-115.342655,-42.045479,-69.261703,-83.344231,-94.61277,-19.127067,-21.085728,-10.743213,1.915868,7.776476,17.781402,21.760783,23.711294,26.355632,33.917217,36.101884,36.82035,39.297962,47.41246,49.782318,50.215003,47.350339,56.31125,57.696621,57.554471,21.558037,31.299133,38.250732,40.996513,2.50391,23.785057,37.537937,46.280365,-4.299831,36.550541,40.154343,30.578213,-3.199768,35.741444,36.866398,28.051472,2.472382,33.16618,35.858517,28.894672,-21.347642,-45.79003,-63.861381,-76.04554,-69.255897,-91.581017,-106.958537,-119.031607,-63.24224,-70.167333,-51.423458,-41.83717,-53.214745,-59.758189,-42.412776,-33.756048,-41.272277,-45.157953,-32.492079,-24.824561,47.746868,291.673501,-141.761513,-18.312301
71,-0.760231,0.465845,1.785221,8.260538,-25.932083,-50.311203,-73.991661,-89.713955,-60.68264,-94.438934,-110.965748,-122.656288,-56.059914,-93.529701,-111.967049,-125.562401,-49.487572,-84.189548,-101.740837,-114.471359,-42.677994,-69.706879,-83.512516,-94.25766,-19.142072,-20.763885,-9.95077,2.711461,7.92653,17.923983,22.055395,24.316139,26.153955,33.778216,36.059277,36.995351,39.08128,47.097163,49.342469,49.884823,47.367753,56.120009,57.326612,57.268197,21.140842,32.073383,39.379292,39.861603,3.887901,24.119339,38.601837,48.246975,-2.533836,35.53339,39.545631,30.465717,-0.870323,36.662464,37.657356,28.386841,5.099888,35.254097,37.656898,30.291138,-20.819275,-43.61305,-61.142634,-72.252305,-68.569788,-91.049284,-106.336247,-117.254677,-61.686716,-70.003385,-52.318561,-42.70819,-50.761772,-59.504364,-42.341084,-33.124681,-38.174691,-43.851962,-30.60017,-22.158672,48.107901,292.169573,-138.855028,-10.021536
72,-0.369415,-0.284669,2.801399,8.989501,-25.770264,-50.14492,-73.791161,-89.1049,-60.205078,-94.343719,-110.990009,-122.45985,-55.439415,-93.226948,-111.721344,-125.215244,-48.75927,-83.705235,-101.460285,-114.279213,-41.904716,-69.429245,-83.69894,-94.973087,-18.78923,-19.991325,-8.990242,4.165374,8.983635,19.036911,22.943551,25.084129,27.249407,34.822416,37.016531,37.867946,40.091517,48.45419,50.711476,51.128168,48.163469,57.252882,58.781514,58.8784,20.526066,32.322865,41.015053,42.124329,5.74688,27.131138,42.103214,52.292919,-0.456161,38.00108,40.108738,30.265388,0.94883,38.918495,38.360081,28.558788,6.296368,37.457829,38.545761,30.758629,-22.171238,-43.579674,-58.895382,-67.987173,-68.699556,-90.614623,-104.60844,-114.730166,-60.524358,-67.150362,-50.267058,-42.127304,-48.779151,-55.926391,-39.545427,-31.702384,-35.686242,-40.296868,-27.889512,-20.904583,51.266441,291.996564,-132.525673,-0.920374
73,0.371475,0.513269,0.577126,9.840546,-26.221733,-50.86956,-74.78714,-89.907646,-60.606308,-94.628105,-111.076927,-122.826805,-55.846939,-93.640881,-112.228489,-126.130829,-49.067574,-84.276123,-101.881542,-114.708538,-42.075119,-69.998474,-84.43388,-95.351028,-19.018756,-20.552204,-9.875311,3.76412,8.437823,17.446406,21.332483,23.728707,26.902123,34.504463,36.601692,37.211601,39.904969,48.653705,50.443418,50.431438,48.215833,57.731016,58.47023,57.534217,19.671021,33.274784,45.446377,49.489231,8.188877,32.91544,48.679333,59.276333,3.081436,43.74939,43.763752,33.121433,4.93927,44.243202,41.753941,31.350288,10.276165,42.851086,42.615051,34.442539,-23.117872,-43.189566,-56.165303,-63.163508,-67.190901,-88.895986,-101.676067,-110.819636,-58.352318,-62.47283,-46.643081,-39.170324,-46.764421,-51.266057,-36.075857,-28.788999,-33.86161,-37.981227,-26.469901,-19.956313,52.947206,292.518,-130.639257,8.928338
74,0.106201,0.103061,0.669365,9.283094,-26.092644,-50.983315,-74.88327,-89.668522,-61.227837,-94.598007,-110.972729,-122.942448,-56.531067,-93.461151,-111.828346,-125.771141,-49.730873,-84.027672,-101.528606,-114.669228,-42.628899,-70.044365,-84.484634,-95.742416,-18.729332,-20.358246,-9.747488,4.103932,8.215151,17.993823,22.135608,24.498858,26.458384,34.759924,37.324481,38.232397,39.266037,48.548421,50.926985,51.329598,47.622226,57.342174,58.63393,58.213287,18.681278,35.085926,48.690548,51.970024,12.197514,38.571224,55.020847,65.389252,7.005558,47.233772,47.393475,37.095566,7.645283,48.049736,43.953953,32.816963,11.728477,44.661369,42.404194,33.851967,-23.331004,-43.315382,-55.413832,-60.102849,-63.434624,-84.197459,-96.266546,-104.186561,-52.14072,-56.676381,-42.862196,-35.819592,-38.441669,-42.095071,-30.218953,-24.75256,-24.592904,-26.418617,-18.403321,-13.718472,54.957819,291.159429,-128.065481,16.749799
75,-0.567627,0.763359,2.21941,8.98876,-25.471001,-50.18074,-74.185238,-90.074844,-60.814362,-95.355549,-111.888256,-123.12212,-55.985756,-93.949413,-112.51442,-125.874882,-49.136353,-84.076309,-101.913414,-114.869385,-42.095375,-70.005226,-84.499569,-95.589237,-19.172515,-21.058434,-10.931428,2.790933,7.704105,17.950104,22.022358,24.285387,26.221757,35.026748,37.378574,38.0272,39.003042,48.7417,51.085066,51.381653,46.901352,56.833968,58.307456,58.143941,14.332924,32.14983,48.810081,55.373383,12.881527,41.454163,58.623276,69.079227,10.256939,44.616966,46.925125,40.924301,12.553196,50.201397,45.49593,34.973888,18.222599,47.879963,43.363667,34.659119,-23.222632,-39.908674,-48.2556,-49.270561,-57.667289,-77.666859,-87.725568,-93.989808,-45.571279,-55.736292,-45.571989,-38.265094,-31.666908,-36.690644,-26.587751,-21.791659,-17.553543,-21.332915,-15.658978,-11.168427,57.02754,289.150735,-123.208723,22.966507
76,1.189613,-0.190994,5.916309,11.330892,-26.514359,-51.820679,-76.126385,-91.628151,-62.266617,-95.824242,-112.132187,-123.772659,-57.367859,-94.433441,-112.761612,-126.312675,-50.396576,-84.89296,-102.42485,-115.235767,-43.214607,-70.684204,-84.844265,-95.619164,-18.906062,-20.365224,-9.90915,3.533173,7.922763,17.715761,21.721572,24.031778,26.198662,34.406342,36.903775,37.756178,39.123147,48.549347,51.073704,51.583886,47.337248,57.057381,58.61627,58.587679,5.841465,26.094933,48.703079,58.825092,10.060444,42.176857,59.559231,70.161781,11.108208,48.512135,46.725426,36.584015,15.86277,52.148552,46.733894,36.385689,22.612095,48.078461,43.761234,36.239834,-25.251071,-42.219405,-47.999058,-48.594116,-50.765292,-67.239962,-75.003038,-80.111094,-37.211354,-47.244407,-37.554069,-32.007431,-21.957767,-29.843418,-22.244907,-19.191905,-6.928736,-14.098638,-11.201185,-8.420996,62.238636,287.358877,-113.270931,32.696534
77,-0.768585,-0.669374,7.624969,12.05226,-25.874519,-51.130142,-75.33268,-91.763477,-61.40934,-96.058388,-112.711201,-123.962059,-56.319809,-94.469547,-112.93911,-126.051464,-49.218864,-84.474335,-102.395554,-115.297165,-42.071114,-70.01873,-84.66568,-95.887184,-19.116013,-19.995833,-9.338762,3.308896,8.374159,19.001343,23.16258,25.446974,27.017534,35.776768,38.001389,38.650818,39.978822,49.750331,52.094191,52.520948,47.93666,57.825988,59.464844,59.610143,7.82238,26.982422,47.493839,57.337132,10.328636,44.841499,61.817837,70.42408,8.926392,47.735367,46.402245,35.492935,12.029686,47.271652,43.473015,33.773632,17.290764,40.240803,38.14579,31.861439,-23.441259,-37.970575,-44.537516,-50.163132,-43.216057,-56.664957,-62.002138,-65.616266,-30.402599,-38.687621,-30.783568,-26.893972,-16.346662,-23.477136,-17.185171,-15.081674,-2.840642,-8.126817,-4.977948,-2.642671,63.699474,286.197614,-103.416538,44.256906
78,0.424576,0.130602,-1.807079,28.423992,-26.502113,-51.858788,-76.326199,-92.875385,-62.141075,-96.053982,-112.23793,-123.728657,-57.294731,-94.682522,-112.888927,-126.318455,-50.321274,-84.898109,-102.339363,-114.944572,-43.242645,-70.684776,-84.975243,-95.894222,-19.074147,-20.208255,-9.562792,3.05115,8.24967,18.562544,22.760029,25.241098,26.705077,35.185755,37.600629,38.580978,39.66019,49.221871,51.719737,52.359409,47.846442,57.877735,59.409207,59.360856,12.157688,33.987264,57.481241,70.666351,17.237634,56.145515,73.552522,81.52482,16.880579,57.516145,53.864593,42.793064,20.111389,56.716346,50.268402,40.187301,25.29665,50.690145,46.105385,38.460159,-27.186128,-44.394702,-50.571873,-54.778157,-50.311024,-61.910669,-64.462536,-65.441126,-34.681331,-41.872537,-33.762531,-30.866545,-18.003008,-24.916955,-17.888106,-14.919146,-2.216376,-7.579075,-4.466855,-2.413916,65.782843,285.387927,-103.564825,71.740609
79,-0.148315,-0.985166,-1.80708,28.423993,-26.695976,-52.021408,-76.233387,-92.819309,-62.146683,-95.695038,-111.952343,-123.460064,-57.084045,-94.291592,-112.514591,-125.914192,-49.92691,-84.209347,-101.833649,-114.822006,-42.617569,-69.642563,-84.034996,-95.359554,-18.6887,-19.64824,-9.26707,2.776731,8.977892,19.387653,23.601007,25.839398,27.388839,36.108986,38.499468,39.203175,40.336048,50.151276,52.58344,52.906086,48.446718,58.640044,60.374922,60.186398,16.492996,40.992107,67.468643,83.995571,24.146633,67.449532,85.287209,92.625561,24.834766,67.296925,61.326942,50.093193,28.193092,66.161041,57.063789,46.600971,33.302536,61.139488,54.06498,45.05888,-30.930997,-50.818829,-56.606232,-59.393183,-57.405993,-67.156383,-66.922935,-65.265986,-38.960064,-45.057454,-36.741495,-34.839119,-19.659355,-26.356774,-18.591042,-14.756619,-1.592111,-7.031334,-3.955762,-2.185162,66.064453,284.356,-104.941978,100.117842
80,-0.040855,0.122513,2.701378,15.14716,-27.200203,-52.232094,-76.236191,-92.93644,-62.196121,-95.633297,-112.136765,-124.237061,-57.136002,-94.043941,-112.406559,-126.153545,-50.145836,-84.142113,-101.763725,-114.845867,-43.020172,-69.730682,-83.979206,-95.386906,-18.518702,-19.668,-9.617071,2.064378,8.761704,18.916745,23.118243,25.353916,27.036553,35.951707,38.433827,39.163902,39.96956,50.010856,52.528914,52.947212,48.083934,58.43812,60.166884,60.040296,13.909264,42.555428,69.64119,84.615154,25.841503,66.373158,86.375828,98.191452,23.950481,70.49612,67.666283,55.631504,25.964184,67.438602,60.824203,50.25032,30.452785,58.124714,52.321987,44.324112,-29.967784,-45.575015,-49.66317,-51.849382,-49.950742,-56.81359,-57.80135,-58.17673,-32.452867,-37.220555,-29.398352,-25.669121,-13.761234,-17.882981,-12.458856,-10.974407,3.997259,0.298779,1.148403,0.824708,65.698643,284.54931,-102.565556,115.335799
81,-0.747643,0.160304,5.081806,16.388899,-26.950836,-51.955261,-75.905743,-91.912251,-61.831169,-95.276356,-111.640377,-123.515396,-56.752052,-93.689861,-112.256012,-126.090717,-49.729156,-83.82328,-101.640472,-114.877396,-42.500725,-69.076195,-83.456669,-94.967995,-18.699013,-20.104082,-10.183322,1.745746,7.942029,18.392175,22.489685,24.39518,26.505623,35.597631,38.056902,38.767156,39.646976,49.492646,51.961366,52.394854,47.89609,58.255956,60.17732,60.170713,16.391373,44.065762,69.478168,84.747448,28.5882,67.316322,87.070312,99.490414,24.954872,68.869057,68.945446,59.039211,24.714432,64.159126,61.169586,51.807804,27.338448,53.37307,50.969582,44.689236,-27.007747,-39.851246,-44.668241,-47.061533,-39.971937,-44.855901,-46.13222,-46.419174,-24.318022,-26.657498,-19.025981,-15.070373,-7.427648,-10.51202,-5.879195,-4.922187,8.311791,5.403161,6.15312,5.693882,64.786777,284.646567,-97.647972,131.66165
82,-0.46463,0.05996,9.364586,13.528342,-26.779747,-51.90136,-75.959759,-92.638264,-61.62735,-95.071449,-111.670933,-123.674927,-56.454849,-93.408165,-112.107468,-125.77755,-49.361458,-83.634281,-101.436939,-114.391823,-41.988487,-68.859215,-83.203926,-94.463539,-18.861478,-19.992931,-10.007766,1.333871,7.93042,18.339193,22.538839,24.66966,26.503092,35.492717,38.040971,38.893065,39.609802,49.562548,52.30723,53.094363,47.731216,58.034581,59.979842,60.089017,13.149891,34.130402,55.072517,69.314518,22.271461,55.981407,75.330791,90.349331,22.472477,59.443474,60.340462,54.847584,24.626484,58.756485,55.804367,48.203373,28.256321,51.953831,49.256115,42.577686,-26.794646,-34.971327,-33.584289,-31.490641,-30.728178,-34.657172,-32.964284,-30.92649,-17.354459,-16.925356,-11.56332,-9.207666,-3.157916,-3.00002,-1.582972,-1.757293,9.620899,8.783564,7.678355,5.813801,64.245243,284.702081,-88.360291,145.185546
83,-0.248337,-0.65227,-9.858971,33.575613,-26.860313,-51.824341,-75.348473,-92.33551,-61.655273,-94.916039,-111.583157,-123.714294,-56.604996,-93.177853,-111.845798,-125.562172,-49.488602,-83.46817,-101.316547,-114.311829,-41.861916,-68.195114,-82.563229,-93.933907,-18.7423,-19.549131,-9.037667,1.882153,8.361006,18.726862,23.017837,25.363179,27.007654,35.757564,38.216342,39.06998,40.176115,49.779045,52.712622,53.668703,48.291416,58.524509,60.904555,61.387443,24.014912,59.168816,89.174538,109.639034,39.386845,81.54705,74.774094,63.937168,32.951374,79.68092,69.920712,58.007698,29.345856,75.280895,64.153805,49.915466,28.82658,64.947681,57.086678,45.518131,-21.730649,-33.415186,-30.596773,-23.91896,-33.147868,-28.068403,-23.014996,-23.835474,-12.348045,-7.354598,-6.305582,-7.97309,8.862975,10.195055,9.470908,10.057351,27.49505,25.199108,22.225641,22.112082,63.941059,283.953604,-98.275108,178.664952
84,-0.853958,0.349199,0.006466,19.60378,-26.01162,-51.002312,-74.961777,-92.215862,-60.897446,-95.067959,-112.07159,-124.521961,-55.755959,-93.346825,-112.281647,-126.226501,-48.67836,-83.471146,-101.763153,-115.265694,-41.179047,-68.34034,-82.901173,-94.44746,-19.360977,-20.533803,-10.171528,1.127316,8.286164,18.830973,23.01197,25.572081,26.880448,35.640918,38.072896,39.21182,39.920221,49.462636,52.307909,53.453935,47.878614,58.160614,60.426174,61.22436,30.287418,67.982368,98.795128,115.34214,44.40279,86.522026,84.831562,77.764721,34.916325,83.391495,78.944836,66.419907,29.793949,77.748642,70.844822,58.504772,27.646523,62.167683,57.257881,47.826748,-23.610085,-30.925594,-20.221222,-9.864381,-31.12369,-24.620569,-22.218848,-23.526969,-10.594024,-5.617126,-4.995979,-6.408211,11.088274,12.886817,11.749004,10.920993,31.73082,25.83347,21.83192,20.437287,63.009167,284.272869,-98.346577,198.238799
85,-1.431656,0.495424,-3.230152,15.123911,-26.077423,-50.962715,-74.742279,-91.103439,-60.605736,-94.843826,-111.485882,-123.615475,-55.461159,-93.260422,-111.926994,-125.614185,-48.319244,-83.313503,-101.21664,-114.394913,-40.69622,-68.250675,-83.080559,-95.052052,-18.877595,-20.231349,-9.689442,1.957118,7.974325,18.193894,22.216007,24.686147,26.495002,35.222991,37.651079,38.893065,39.566206,48.975363,51.888624,53.218975,47.85058,57.807339,60.265438,61.345823,31.586323,64.668961,90.249195,103.733082,52.425728,88.829041,102.50124,108.718472,44.944382,88.520222,104.459324,110.743847,39.558563,83.727379,93.165722,93.519573,35.805531,70.288124,76.468163,75.318947,-23.814602,-32.230134,-29.943145,-23.311275,-24.003064,-18.711733,-14.134484,-10.576858,-3.002429,3.418194,5.083664,5.451265,17.773498,23.203088,18.517652,13.834501,36.500236,36.724082,28.324111,20.22678,61.529074,284.702297,-101.625166,213.296714
86,-0.171432,0.905755,2.371559,16.514407,-26.634064,-47.684555,-65.409393,-76.219311,-61.710091,-94.432411,-110.716095,-122.861824,-57.824249,-92.872581,-112.132988,-126.671391,-50.835915,-83.576546,-101.774254,-115.100613,-43.051758,-69.103947,-83.43298,-95.278015,-19.440018,-23.591313,-23.125221,-20.849224,6.824223,16.475133,21.095731,23.620582,24.496882,33.596547,36.933786,38.107661,37.401545,47.107846,50.335169,50.727531,46.227902,56.261974,58.778241,59.181163,30.570259,59.88842,82.02404,99.423809,55.419159,86.905861,106.391773,121.155338,47.759228,82.824326,103.111324,116.975269,40.911255,74.162922,92.992744,104.145298,34.199352,60.639267,73.028297,79.792728,-21.230286,-28.541226,-27.781325,-24.879117,-9.397548,1.592543,7.475196,12.796908,7.631733,18.288496,19.517391,20.532506,21.857793,30.271719,28.890115,27.110407,34.198181,40.35902,37.232843,33.425004,61.348515,285.609488,-99.262733,229.812556
87,1.930389,-2.345651,68.90007,36.510363,-23.838272,-49.506111,-72.462502,-91.758957,-58.057823,-90.575752,-108.113136,-121.606293,-55.254478,-89.25293,-109.496841,-124.932518,-50.003815,-79.980812,-97.967663,-109.8032,-44.353409,-67.46109,-79.805832,-88.211689,16.695644,31.237804,42.546651,52.253137,21.596219,28.527455,31.754038,33.8094,19.301326,29.441979,33.915858,36.535743,17.258314,27.63615,31.950589,33.856022,14.207411,23.484608,29.139587,32.510666,-1.199684,3.236275,13.231258,28.105831,20.066128,19.511662,15.660267,10.965843,24.628716,20.24065,8.773327,-9.025841,26.991291,19.223843,4.234543,-16.550217,27.640171,24.732227,10.820389,-9.253407,-27.433609,-38.436729,-41.227107,-43.628333,-22.916751,4.242747,15.85096,23.593165,2.78482,36.464668,45.459542,48.039659,27.598359,57.272457,66.362427,67.673018,48.011933,70.016384,77.285889,79.096164,63.54063,283.221615,-30.100937,266.280698
88,0.178986,6.821815,-42.969074,4.811098,-25.697937,-52.835884,-78.370285,-98.879414,-53.104935,-83.680458,-104.923153,-122.04237,-48.546982,-82.818604,-104.368,-120.537701,-42.378273,-75.286045,-94.17057,-107.720947,-35.651779,-61.518517,-75.584908,-85.866394,29.057459,44.412934,51.227895,59.691468,38.296309,41.752788,42.242284,41.1556,21.58004,22.396133,18.960279,13.344696,3.215714,0.253177,-4.788127,-10.699,-15.210917,-18.565138,-21.937204,-25.768879,13.552666,36.533146,59.786968,79.584618,40.562153,73.712883,87.19471,91.154823,39.417114,77.157898,90.230713,88.945427,37.165489,71.70948,82.129898,79.634056,33.981285,59.085331,67.726707,66.430779,-27.592431,-36.982877,-35.229042,-35.593925,-9.732235,1.107,4.790597,7.469392,17.696248,27.257126,24.831199,22.362356,38.42969,45.337646,43.75838,42.862258,51.686947,61.199475,61.01126,59.679241,64.008894,289.823197,-72.780733,270.871563
89,-5.569725,-0.459732,-11.247883,-2.170712,-19.830093,-42.478523,-64.334564,-81.622753,-31.244774,-64.356995,-84.804611,-98.774986,-34.476357,-70.752525,-95.964718,-115.033951,-37.209435,-71.397285,-96.235027,-116.56374,-39.165459,-65.14452,-83.871746,-100.760994,-18.307947,-27.706175,-31.197543,-32.100087,0.979053,-3.613819,-10.823118,-18.236626,18.603917,16.548431,9.092007,1.827627,31.907982,37.454774,35.092759,31.147464,40.640663,52.554541,56.470999,57.272704,23.78746,50.124435,73.071899,92.79974,48.004589,82.979221,101.230946,114.273319,40.427456,79.480762,99.841518,112.309513,33.226261,68.901272,88.213978,99.692631,27.224579,53.773899,68.826942,78.182831,-18.100775,-20.659156,-17.753182,-18.463744,4.590958,17.138765,22.812949,27.612376,23.87555,36.784288,41.11608,43.788884,38.217577,52.391087,55.825336,56.071597,46.742098,59.397783,62.414105,61.827785,58.986855,289.147122,-83.48093,268.484508
90,-4.905167,-0.317582,0.897102,3.783695,-22.609062,-45.990028,-64.697571,-77.714539,-38.119354,-59.108505,-77.29002,-93.073826,-37.734261,-61.534595,-82.360554,-97.873878,-37.237473,-60.734825,-80.742817,-95.941257,-36.114693,-55.919037,-71.158619,-84.949207,-15.510345,-20.599443,-21.809566,-18.267007,8.906632,11.005776,7.61185,2.977481,22.597069,25.88392,20.610806,14.327022,31.504813,40.00661,35.884708,29.747026,36.062611,46.292802,48.491549,47.277474,25.05827,50.764275,73.74876,92.830753,51.121845,83.377819,102.342396,116.436024,41.955528,77.753735,99.474621,113.283749,33.487129,67.03228,86.611691,100.017643,26.147175,52.898655,67.168179,77.396278,-15.974646,-17.687912,-15.087663,-17.543416,11.196585,25.912511,33.001396,37.996634,29.488786,45.22699,50.888082,54.133746,42.426547,58.272197,61.74788,62.643261,49.677836,63.41545,65.483657,65.270494,54.218874,288.726772,-82.446642,272.165435
91,-4.703636,2.624887,2.105999,4.071266,-16.775665,-37.055969,-53.051605,-63.746567,-48.519516,-52.789993,-43.617783,-33.410339,-48.249893,-54.148693,-39.852333,-23.719826,-45.226364,-51.876183,-38.522758,-24.757805,-40.80162,-48.697243,-43.276634,-36.405029,-17.721133,-23.830225,-24.87393,-24.387028,-0.291832,6.737896,9.541735,10.269588,13.564466,20.471373,24.00751,24.837559,24.779205,30.352551,32.477629,32.628424,33.494103,39.410286,39.60622,38.419439,25.163383,51.414585,74.733295,92.848663,53.771439,86.432648,104.912567,118.627281,44.054775,79.968796,101.159935,114.948463,34.791355,68.077412,87.2509,100.560837,26.88858,52.458744,66.757107,76.982803,-15.132247,-16.068013,-13.297087,-15.399812,14.553708,27.601199,33.96495,38.392701,32.028765,45.45948,50.35814,52.501127,43.817907,57.986848,61.76622,62.114801,50.594027,62.853089,64.358626,63.075761,49.790869,291.231754,-80.065012,276.116797
92,-5.69664,2.769135,2.91441,4.241512,-12.926216,-29.864159,-47.082138,-60.275688,-58.636665,-51.778507,-30.472069,-15.441399,-64.596119,-52.778091,-31.300621,-13.2304,-66.101704,-59.899292,-40.336075,-24.460258,-64.627247,-77.478104,-78.767109,-77.178841,-16.554236,-22.261209,-17.182484,-9.168701,2.447725,19.493185,21.624562,18.94515,20.149406,32.760817,33.336701,30.301606,33.199492,43.23665,41.002397,37.449402,43.801234,52.876569,51.668422,50.000914,25.368519,50.77446,73.946629,92.862568,52.63607,86.074276,105.508175,120.323925,44.194794,81.139698,103.405552,118.486576,36.371727,70.574455,91.305828,106.437664,29.675446,56.991863,73.735371,87.23917,-15.51053,-16.660014,-13.375263,-14.153874,15.901287,28.702826,33.717948,36.411624,33.442665,46.134844,49.903966,50.379815,45.416255,59.976446,63.192902,62.546375,52.391643,65.574368,66.883168,65.000583,44.356041,293.963037,-76.88879,280.320457
93,-25.757332,7.256476,3.240166,4.086334,-0.38887,-7.912331,-16.37867,-24.291286,-36.65205,-17.481194,4.089546,18.41423,-45.465317,-21.571541,3.543892,23.450203,-48.087387,-27.96381,-3.659363,13.847694,-48.069534,-36.349812,-19.685783,-6.881218,-19.816325,-25.816056,-22.278931,-15.971065,-1.476885,13.269423,18.827268,21.718546,15.430934,26.067381,31.880441,35.21169,27.76737,36.214641,38.196397,39.712801,37.174427,45.91069,44.026191,41.00462,25.232735,50.673981,74.340191,93.400555,52.887383,86.456509,105.306988,119.364681,44.833031,81.826115,103.387356,117.992649,37.111645,71.759777,91.64835,106.051426,30.419827,58.189144,74.872913,88.813419,-15.496945,-17.299193,-13.569344,-13.98054,15.839969,28.899008,34.407206,37.550549,33.210051,45.827266,50.519371,51.958587,45.352281,59.379999,63.090705,63.108736,52.918436,66.050587,67.888403,67.005434,18.747826,301.232187,-73.499508,284.419464
94,-0.989227,-1.91204,1.650696,4.507965,3.011742,-1.654243,-10.661545,-20.881462,-32.459965,-14.072227,6.671333,18.96904,-41.550407,-18.921432,5.101318,24.692574,-46.454544,-25.843964,-1.533394,15.788383,-48.891277,-36.151257,-19.484711,-7.230949,-18.452135,-25.546701,-23.277497,-18.72254,1.761863,18.037666,22.121406,23.181166,20.18022,33.964641,37.518007,37.767663,33.409258,44.36446,43.648958,43.33224,43.764184,55.253836,51.794949,47.035845,24.951267,50.087528,73.554211,93.286114,52.311172,85.742054,104.257336,117.705173,44.379501,82.146091,103.686733,117.988644,36.852036,71.955585,91.875401,105.531292,30.370388,57.52533,74.0098,87.404194,-15.054318,-17.143396,-13.771639,-14.112254,15.975079,29.512436,35.221756,38.428084,33.269949,46.558514,50.716478,51.451431,44.989868,59.691097,62.791462,62.005009,52.000701,65.509715,67.590457,66.607452,17.818594,299.329719,-71.788816,288.937001
95,-8.16021,11.750115,0.258636,0.531548,4.288445,3.928299,1.566124,1.751404,-22.701874,-0.368042,18.427849,31.648865,-30.03273,-6.790581,16.725197,34.210052,-31.192589,-11.319122,9.553986,25.16304,-29.849339,-20.480576,-7.322502,3.935852,-21.141859,-29.162188,-29.356949,-27.949657,-0.472699,9.116028,12.717683,14.572788,14.832819,24.198196,26.52878,27.105158,25.879165,34.288028,35.094179,34.390595,34.435549,42.034555,41.284473,38.944132,25.599289,50.870762,74.407597,94.348011,52.285595,85.533543,103.97398,117.755756,44.1786,81.421795,102.17577,116.720409,36.395702,70.946789,90.795536,105.139446,29.674702,57.075005,73.084774,86.017513,-14.56791,-15.842809,-12.145009,-12.714657,17.938248,32.438726,37.826141,40.615901,34.473403,48.830744,53.211565,54.014814,45.442807,61.000021,64.449955,63.989173,51.86059,65.449262,67.728222,66.959306,9.772854,311.086704,-71.41571,289.475418
96,31.717644,-10.75649,-0.489292,-0.819428,-8.411522,-23.789864,-39.80999,-53.745632,-51.794071,-43.531723,-23.306923,-10.348892,-57.91254,-45.029755,-22.622452,-4.88903,-59.424591,-49.111519,-25.924988,-9.623451,-58.448868,-57.776756,-43.330193,-32.200928,-11.692255,-15.518249,-12.054051,-6.08964,5.550498,22.46023,26.158771,26.91015,19.546784,33.569623,37.928462,38.231347,29.36263,41.129171,42.688616,41.799533,36.519996,49.122638,47.48372,43.592518,25.93626,51.764374,75.238609,94.620209,53.690815,86.859398,104.953308,118.516273,45.302124,82.230492,102.696877,117.596283,36.895638,70.491943,90.265961,104.914856,29.119148,55.569935,71.487579,84.792824,-14.666773,-15.59377,-11.220853,-11.273155,17.887427,32.196788,37.554192,40.608368,33.981375,48.2958,53.385392,55.659845,44.386999,59.991328,64.305706,65.000151,50.443665,64.861151,67.930331,67.890255,41.572065,300.297147,-71.823435,288.622923
97,-10.627098,7.039362,0.136356,-0.756998,-0.1157,-7.086296,-17.204819,-24.294891,-39.221935,-23.137321,-3.635559,10.635223,-45.256805,-27.773781,-5.011711,13.313599,-45.702553,-34.890862,-14.332809,1.428337,-43.63615,-49.841366,-52.729969,-54.888554,-17.158155,-23.257243,-23.261936,-24.586668,2.660764,17.94646,21.437026,22.61331,16.169839,26.931639,29.804516,31.950466,25.841498,34.144149,36.817757,39.937017,33.788096,39.41288,43.145569,46.819965,26.649799,52.765789,76.282253,96.387463,52.891216,86.443462,104.581318,117.872829,44.239655,82.064953,102.587986,116.872044,35.951042,70.758991,90.376682,104.252415,28.673344,55.676537,71.547375,84.412022,-14.532589,-15.648357,-10.027032,-8.344024,18.093982,33.030728,38.678482,42.021217,34.744487,49.071138,53.753425,55.624092,45.523515,60.778275,64.560797,64.694239,51.539426,65.482422,68.295832,67.883031,30.918875,307.346451,-71.713171,287.875867
98,-12.367401,1.038395,-0.543537,0.084536,4.757423,4.750671,4.561615,6.856384,-27.614536,-11.268654,6.492691,19.291992,-34.193745,-17.571487,4.649734,21.138725,-34.973488,-23.167191,-3.077545,11.920738,-33.517799,-32.200527,-26.16354,-20.992241,-14.582298,-18.701051,-17.023477,-15.354116,-0.353768,13.502222,18.423235,21.293024,11.987484,23.266999,27.894205,30.726079,22.302582,31.228974,36.11621,39.428564,30.873292,36.952373,38.423762,38.597095,26.901627,52.93808,76.301422,96.344147,53.506279,87.009315,104.896202,117.824135,44.763565,82.400665,102.581635,116.565056,36.343975,70.812035,90.037651,103.589287,28.896503,55.458412,71.194725,83.95031,-14.735748,-15.686087,-9.483937,-7.024912,18.120597,32.318931,37.828364,41.292068,34.721824,48.803574,53.458011,55.713012,45.371177,60.546526,64.265815,64.540543,51.319594,65.417831,68.002456,67.465598,18.537197,308.445979,-72.270985,288.021536
99,30.318375,-2.075493,-0.315456,-0.445714,-5.104523,-19.597321,-38.705177,-55.874805,-57.481441,-54.347477,-29.7789,-12.616653,-65.785847,-57.386112,-30.147285,-8.704376,-68.007889,-64.499073,-39.785728,-20.161285,-66.711845,-77.67168,-75.168228,-71.378231,-13.48876,-23.733956,-24.973657,-22.633317,-2.9739,13.821903,19.962117,22.97492,13.350871,24.438775,29.286738,32.728953,25.912078,33.753146,36.413662,37.674235,36.391,43.250544,43.394114,43.576957,26.441803,52.334061,75.711422,95.768909,53.242321,86.768017,104.865589,118.129292,44.565582,82.188206,102.408199,116.514416,36.188049,70.750523,90.130863,104.001675,28.851414,55.746346,71.583767,84.360294,-14.444162,-14.6995,-7.976301,-4.915086,19.154916,32.944771,38.202325,41.539873,35.742065,49.722358,54.22279,56.445496,46.258407,61.52033,65.011945,65.165704,51.965936,65.921344,68.3067,67.725505,48.849821,306.407212,-72.592192,287.612547
100,-16.947212,4.676544,-0.073242,0.279174,2.321777,-5.412827,-18.292007,-30.029984,-41.493073,-29.149818,-7.50206,7.02507,-51.610165,-35.258217,-10.872116,7.566605,-54.81411,-43.431587,-21.632881,-5.776634,-54.604168,-53.636456,-45.076962,-38.127308,-20.048074,-29.721894,-30.320934,-27.244467,-6.849294,6.54258,11.996314,15.530105,9.401068,19.278479,25.189043,29.039675,21.523044,28.264769,31.719396,34.376022,30.829881,36.327273,36.263362,35.981471,26.592865,52.699871,76.163464,96.115322,53.235741,87.08662,104.959431,117.961063,44.19651,82.352772,102.29845,116.231632,35.561428,70.72031,89.897289,103.783321,28.166714,55.689583,71.476765,83.978519,-14.402851,-14.734822,-8.269368,-4.894708,18.97195,32.809476,38.034858,41.331712,35.912928,49.662028,53.914902,55.799031,46.69455,61.99445,65.297664,65.236161,52.405846,65.995691,68.072604,67.206987,31.920862,311.119926,-72.647181,287.927891
101,-20.920029,2.320704,-0.220013,-0.139247,9.10881,11.613464,10.976372,12.594452,-19.77951,-4.358482,13.560562,27.250099,-28.410473,-10.426025,11.617928,28.868408,-30.778484,-15.018883,6.11824,22.406044,-29.746456,-21.761055,-10.989876,-1.698189,-17.809313,-25.817415,-27.204206,-25.816797,-10.917041,1.137813,8.028356,11.248393,3.175391,14.489981,21.674518,24.656507,15.460451,25.032012,30.937389,33.342567,25.587209,32.434466,34.467351,33.441368,26.760864,52.74971,76.051712,95.878487,53.069515,87.10865,105.043373,118.225136,43.885803,82.084808,101.984825,116.045952,35.228806,70.46814,89.730835,103.814964,27.876949,55.358448,71.208344,83.81321,-14.253971,-14.469912,-8.046387,-4.246514,19.254458,33.054563,38.040539,40.948551,36.211553,50.10095,54.06971,55.608099,46.93161,62.339079,65.544913,65.41252,52.566952,66.203975,68.172455,67.259722,11.046038,313.455357,-72.821989,287.803372
102,16.603203,-8.771831,-0.182762,0.241321,2.673798,-3.978539,-14.666405,-24.215469,-33.048477,-18.510132,0.298004,11.308022,-43.879452,-26.20903,-5.992355,8.811722,-50.763531,-36.915436,-18.015404,-5.554161,-54.358578,-52.818546,-42.369175,-34.583416,-17.945781,-25.899852,-26.6085,-24.323426,-3.62759,11.201154,14.646951,14.818926,14.522524,26.169701,28.841086,28.703815,27.511414,36.567729,36.51376,35.257077,36.531852,46.673678,44.242071,39.775293,26.722012,52.864723,76.187096,96.227417,52.998619,87.507477,105.553322,118.795967,43.886318,82.509041,102.465477,116.572151,35.344849,70.927505,90.193062,104.371147,28.175011,55.729694,71.562996,84.405899,-14.557227,-15.057961,-8.287523,-3.99167,18.300476,32.233159,37.096807,39.974191,35.51507,49.034952,53.003157,54.90013,46.514733,61.592331,64.967423,65.219118,52.280492,66.155686,68.223275,67.523829,27.704973,304.616496,-72.949018,287.977662
103,-20.500145,10.655095,0.253601,-0.469365,7.220535,8.522644,9.331284,11.03508,-19.679203,0.736084,19.153862,32.05616,-29.026451,-6.349068,15.81974,33.007965,-31.937084,-12.873631,7.925262,23.548622,-31.778069,-22.699471,-11.203537,-0.844002,-21.63012,-33.261674,-36.114111,-35.73626,-12.53169,-1.917165,4.925028,9.94194,4.703529,15.031532,20.743075,23.577604,17.978385,26.334513,30.34761,32.406554,28.517267,34.296673,34.235787,32.383892,26.597958,52.583084,75.862656,95.623741,53.163757,86.917305,104.756813,117.920494,43.974438,81.866684,101.742668,115.825195,35.147209,70.132713,89.274902,103.336945,27.611675,54.849014,70.6073,83.287582,-14.063533,-14.005734,-7.32434,-3.606286,19.449836,33.27316,38.144464,41.097801,36.313256,50.020736,54.095399,55.890607,47.023062,62.330619,65.671193,65.62031,52.64661,66.546072,68.758096,68.008013,7.234039,315.252449,-72.666206,287.489155
104,-6.175804,2.888067,-0.256176,0.121525,8.245583,12.567101,14.200974,17.071381,-14.419327,6.217003,23.888168,36.61068,-23.205585,2.595291,23.752327,39.742355,-25.825825,-2.225189,17.184219,31.55056,-25.008087,-12.123241,1.391945,12.504616,-17.676858,-28.042962,-32.629659,-35.28295,-12.605914,-1.276072,5.137326,7.84644,1.614032,12.673716,18.095341,20.470756,13.583238,23.788235,27.70599,28.986199,23.652878,30.039229,31.585953,31.098248,26.342068,52.295036,75.725498,95.61121,52.603397,87.082043,105.327358,118.774509,43.553123,82.157192,102.149448,116.250515,35.030766,70.710697,89.987583,104.088192,27.821617,55.55975,71.540508,84.347134,-14.269717,-14.514126,-7.61784,-3.043678,18.909149,32.418719,37.167079,39.944551,36.136403,49.563351,53.474931,55.221479,47.06462,62.17439,65.461797,65.457598,52.782091,66.635796,68.711289,67.914894,1.063671,318.116958,-72.916946,287.587122
105,-9.69286,-12.679706,0.247307,0.118623,14.710407,22.088642,19.947567,12.954082,5.570698,29.593334,45.498219,51.864338,-4.781113,22.165203,37.719212,47.826862,-14.963837,9.248371,24.475422,33.365078,-23.9538,-10.830746,-0.702438,5.310574,-20.306808,-29.7193,-31.938548,-32.662448,-7.292106,10.471388,13.227432,12.459751,11.230115,28.699862,29.36547,27.308379,25.057329,39.684149,37.723821,35.509266,35.562001,49.372357,44.810854,38.593328,26.549377,52.408047,75.688534,95.39217,52.381153,86.522999,104.798183,118.238468,43.414936,81.755733,101.789532,115.883045,34.966278,70.380535,89.613705,103.623905,27.82053,55.354271,71.263561,84.022121,-14.343633,-14.508877,-7.722939,-3.487108,18.744523,32.394945,37.281996,40.157775,35.893971,49.484434,53.582561,55.446374,46.977429,62.04527,65.38535,65.351758,52.948817,66.835805,68.889439,67.912671,-8.61351,305.422694,-72.653961,287.691187
106,30.518246,-2.718932,-0.158272,-0.591631,4.646873,0.246849,-9.38324,-19.547539,-29.287434,-13.768959,6.016502,17.915497,-40.804596,-20.337982,0.960503,16.275673,-48.208466,-31.323566,-10.995026,2.700233,-52.385674,-46.647663,-33.525181,-23.865509,-17.813635,-24.790197,-24.274828,-21.682237,-3.722191,11.163054,15.927099,17.199342,14.85684,28.121817,31.784481,31.948058,28.857758,39.872673,40.107695,39.132224,39.013849,50.156957,47.690214,43.431658,26.330795,52.232208,75.543995,95.392284,51.978893,86.17979,104.477177,118.104229,43.090897,81.414585,101.490269,115.678082,34.724007,70.170536,89.506474,103.601475,27.664146,55.278797,71.125431,83.78191,-14.282747,-14.162333,-7.078944,-2.56573,18.858452,32.406307,37.339671,40.475357,36.051558,49.718468,53.986594,56.071165,47.124827,62.29573,65.790433,65.858976,53.003281,67.081819,69.22709,68.334117,21.914349,302.705243,-72.80262,287.101038
107,-17.690849,12.362247,0.365925,0.565387,7.462463,9.200134,10.970764,12.881699,-17.564964,3.387451,21.385345,33.84613,-26.60717,-3.435059,18.347626,35.061836,-29.515743,-10.69725,9.545403,25.147133,-28.844147,-20.11837,-8.886909,1.360016,-21.138463,-33.373381,-35.610228,-35.019091,-10.450393,-1.662939,4.354948,8.808573,6.388574,14.922111,19.528444,21.970673,19.334054,27.179567,29.995201,31.145673,29.449265,35.464373,34.877929,32.792742,26.43734,52.277126,75.494614,95.632439,51.576576,85.683746,103.914986,117.346916,42.803078,81.264381,101.395454,115.341454,34.680748,70.418816,89.725227,103.675804,27.885761,56.031761,71.85791,84.317436,-14.648309,-14.64022,-7.259193,-2.587898,18.092871,31.962075,36.997883,40.167223,35.57009,49.314373,53.434916,55.30688,47.028805,61.958511,65.158849,65.025839,53.170069,66.882983,68.574882,67.365315,4.230537,315.023957,-72.429657,287.622891
108,-7.274666,6.677134,-0.408268,0.130973,7.538338,12.356758,17.113495,22.727051,-11.458626,10.847969,28.557243,41.167831,-20.157852,7.321243,28.188629,45.449524,-22.395,1.891594,21.025772,36.355133,-21.629162,-8.941727,4.086685,15.503197,-18.203713,-30.842478,-36.652513,-41.030246,-17.073248,-8.291969,-2.169601,0.784724,-1.792985,7.325945,12.533666,14.686162,11.183679,19.669235,23.471517,24.370726,21.835872,27.266944,28.065068,26.571758,26.430874,52.345104,75.546169,95.790768,51.819134,86.38979,104.743595,118.11842,42.713299,81.517696,101.813335,115.697308,34.300117,70.332584,89.894543,103.839283,27.236824,55.540867,71.5872,84.180393,-14.920814,-14.733401,-7.131802,-2.442105,16.877561,31.034275,36.377476,39.736081,34.58233,48.655496,53.164696,55.201534,46.317811,61.488652,64.832931,64.616372,52.735037,66.811785,68.691097,67.486161,-3.044071,321.634354,-72.837868,287.687126
109,2.516785,-6.158924,-0.300922,0.22755,6.840134,9.152527,9.379463,7.243423,-14.718361,5.165749,24.40979,37.565918,-22.462463,1.910477,22.981224,39.31057,-25.153027,-2.645874,18.041153,33.11451,-24.463634,-11.832619,3.172989,15.532722,-16.445925,-26.441094,-30.821483,-32.498254,-12.836182,-2.406167,4.950531,6.845095,1.570375,14.865053,21.042811,21.51829,14.386364,27.729764,31.174695,29.954075,25.057638,35.492346,36.07632,33.574255,26.291828,51.57629,74.671211,94.330673,52.39151,86.299095,104.571419,118.162651,43.396225,81.127281,101.246796,115.233307,34.844627,69.618988,88.817368,102.665176,27.444305,54.508896,69.985542,82.086983,-14.237669,-14.149304,-7.360155,-2.627357,17.798074,31.180624,36.533581,39.967398,34.929738,49.141163,53.772382,55.760313,46.034315,61.527925,64.841144,64.475458,51.967726,65.954998,67.870928,66.579726,-0.532064,315.402209,-73.143568,287.841456
