takenoko1/special-research/HandMotion_SimilarSearch_自分用/NewProject/handData/key/d4_feature_d2/113.csv
,vel_0x_L,vel_0y_L,vel_0x_R,vel_0y_R,posFromWrist_1x_L,posFromWrist_2x_L,posFromWrist_3x_L,posFromWrist_4x_L,posFromWrist_5x_L,posFromWrist_6x_L,posFromWrist_7x_L,posFromWrist_8x_L,posFromWrist_9x_L,posFromWrist_10x_L,posFromWrist_11x_L,posFromWrist_12x_L,posFromWrist_13x_L,posFromWrist_14x_L,posFromWrist_15x_L,posFromWrist_16x_L,posFromWrist_17x_L,posFromWrist_18x_L,posFromWrist_19x_L,posFromWrist_20x_L,posFromWrist_1y_L,posFromWrist_2y_L,posFromWrist_3y_L,posFromWrist_4y_L,posFromWrist_5y_L,posFromWrist_6y_L,posFromWrist_7y_L,posFromWrist_8y_L,posFromWrist_9y_L,posFromWrist_10y_L,posFromWrist_11y_L,posFromWrist_12y_L,posFromWrist_13y_L,posFromWrist_14y_L,posFromWrist_15y_L,posFromWrist_16y_L,posFromWrist_17y_L,posFromWrist_18y_L,posFromWrist_19y_L,posFromWrist_20y_L,posFromWrist_1x_R,posFromWrist_2x_R,posFromWrist_3x_R,posFromWrist_4x_R,posFromWrist_5x_R,posFromWrist_6x_R,posFromWrist_7x_R,posFromWrist_8x_R,posFromWrist_9x_R,posFromWrist_10x_R,posFromWrist_11x_R,posFromWrist_12x_R,posFromWrist_13x_R,posFromWrist_14x_R,posFromWrist_15x_R,posFromWrist_16x_R,posFromWrist_17x_R,posFromWrist_18x_R,posFromWrist_19x_R,posFromWrist_20x_R,posFromWrist_1y_R,posFromWrist_2y_R,posFromWrist_3y_R,posFromWrist_4y_R,posFromWrist_5y_R,posFromWrist_6y_R,posFromWrist_7y_R,posFromWrist_8y_R,posFromWrist_9y_R,posFromWrist_10y_R,posFromWrist_11y_R,posFromWrist_12y_R,posFromWrist_13y_R,posFromWrist_14y_R,posFromWrist_15y_R,posFromWrist_16y_R,posFromWrist_17y_R,posFromWrist_18y_R,posFromWrist_19y_R,posFromWrist_20y_R,posFromBody_0x_L,posFromBody_0y_L,posFromBody_0x_R,posFromBody_0y_R
2,-4.757824,-1.556975,1.566982,-0.656592,6.927738,10.744343,13.023891,11.431103,-8.342285,15.66988,33.705654,44.278965,-14.799442,14.743137,33.497028,47.335339,-17.153549,10.66824,30.384579,43.221989,-16.10218,-2.512436,11.776142,22.817745,-18.897973,-32.19191,-37.39043,-36.248295,-14.779899,-5.020247,1.302934,3.089497,1.829418,12.637531,17.699829,18.781882,15.147623,25.413753,27.020004,25.114881,25.585172,35.341613,34.452901,30.132349,26.3657,50.291176,72.199802,91.296444,50.441322,85.015812,102.848339,115.160236,41.974068,80.511761,100.526562,113.293934,33.839664,69.886494,88.779316,101.067524,26.916962,54.756031,70.256824,81.775646,-14.366233,-14.292812,-6.557832,-1.230562,14.166718,28.122126,33.285263,36.152705,32.112808,45.857461,49.707353,50.16375,44.433991,58.858517,61.631728,60.62606,51.317927,64.753582,66.373665,64.486881,-5.998735,316.881949,-66.80829,286.3481
3,0.534725,0.898962,0.010872,-0.374701,7.593498,11.584167,13.540421,11.82003,-8.24564,15.780716,33.795547,43.6306,-14.459496,14.947128,34.102707,48.037376,-16.853142,9.805183,29.463959,42.596397,-16.651897,-1.222229,14.001274,25.728607,-19.483675,-33.369367,-38.117233,-36.951694,-15.470886,-8.127774,-2.200661,0.216559,1.014004,9.737793,14.457562,16.272592,14.362652,22.675739,23.982131,22.800784,24.865656,32.531537,30.79104,26.514824,25.998974,50.086212,71.736431,90.867062,50.384789,84.487324,102.589245,115.586185,41.933842,79.873753,100.077152,113.703632,33.709831,69.032536,88.205738,101.247654,26.475163,53.69751,69.147778,80.951786,-14.438852,-14.139054,-6.018504,-0.084228,14.673503,28.731602,33.64854,36.269537,32.044018,45.921188,50.017587,51.218509,43.898059,58.626953,61.75844,61.103947,50.744142,64.875786,66.718356,65.031952,-5.330629,317.633406,-66.664038,285.825892
4,6.123276,-3.124756,0.040398,0.477084,6.096382,9.020691,10.647926,8.400421,-15.142307,7.356834,25.720482,36.793213,-21.698399,6.600494,26.733398,41.790161,-23.312244,3.041153,23.794098,38.456383,-21.763458,-6.972313,8.771896,21.375275,-18.09392,-30.983454,-34.238813,-30.684829,-14.344621,-5.345486,1.598039,4.334941,2.169601,12.588686,17.723727,19.429397,15.648295,25.703177,27.955523,26.982892,26.778128,35.65512,34.518295,30.695759,26.379204,50.457802,71.830616,90.756626,50.499802,84.667339,102.627583,115.422878,41.838112,79.576893,99.784298,113.393154,33.420238,68.430462,87.692928,100.824451,26.177788,53.385715,68.892918,80.828075,-14.365492,-14.090641,-5.999361,-0.232367,14.198951,28.447612,33.432846,36.144739,31.486844,45.543461,49.813934,51.176148,43.386704,58.259044,61.561023,61.062821,50.179805,64.447732,66.393549,64.844293,0.922852,314.29734,-66.493435,286.091666
5,1.428337,3.141058,0.04961,0.266268,6.532516,9.259644,10.091515,8.339767,-15.381088,6.533432,24.339066,35.819893,-21.967049,5.626488,25.576401,40.750237,-23.463764,1.622658,21.681862,36.429176,-22.176132,-7.734833,7.521515,20.101891,-18.635225,-31.959296,-36.281146,-34.903803,-15.269518,-8.092762,-1.772546,1.138307,0.52741,9.135479,13.718904,15.396292,13.767748,22.188158,24.160651,23.395502,24.83898,32.026419,30.884777,27.322149,26.410275,50.798149,72.102127,90.338516,50.722218,84.617729,102.489395,115.313072,41.942654,79.564705,99.918594,113.569221,33.449306,68.706894,87.874603,100.898666,26.062088,53.718567,69.225769,81.029434,-14.854432,-14.396553,-6.326947,-1.043273,13.159569,27.607127,33.117857,36.269351,30.688658,44.848768,49.450656,51.114768,42.962232,57.70082,61.182308,60.806866,50.087612,64.155529,66.024405,64.260072,2.370071,317.23564,-66.424942,286.155176
6,-5.264969,0.116214,0.789986,-0.214521,7.275352,12.16198,15.411415,15.159302,-8.467884,13.641701,31.075516,41.550064,-15.671082,11.705475,30.846176,45.405579,-18.362389,7.35054,26.574783,40.281944,-18.214016,-2.954464,11.964111,23.782654,-18.014942,-31.018096,-36.016298,-34.691073,-15.462303,-7.411408,-0.672647,1.980891,0.28541,10.426248,15.229566,16.181572,13.468321,23.688137,25.659087,24.26538,24.30348,32.775637,32.082982,28.388393,25.899982,50.215988,71.560364,90.015793,49.880619,83.886108,101.769905,114.36161,41.193981,78.993073,99.426727,112.65667,32.755566,68.428001,87.581863,100.108566,25.482616,53.491859,69.064865,80.758781,-14.905067,-14.109352,-5.679,-0.520062,13.889397,28.312626,33.638846,36.823191,31.440902,45.558528,49.945956,51.60766,43.620059,58.314125,61.438017,60.896219,50.543947,64.48225,66.310001,64.560364,-2.8547,317.173103,-65.594759,285.761903
7,-2.915611,-0.413357,0.300236,0.431203,6.936493,12.40036,17.218094,18.061409,-6.020451,16.422958,33.753777,44.002419,-12.476578,15.174751,33.729286,47.787094,-14.934082,11.166573,30.080681,43.436852,-14.659195,1.066132,15.766068,27.461357,-18.362782,-31.471838,-36.524319,-34.478096,-14.79404,-7.156626,-0.609415,2.120077,1.056117,10.89549,15.669785,16.611725,14.249525,23.990653,25.573871,24.089515,24.976251,33.710044,32.444222,28.190545,25.622635,49.916611,70.984325,89.088879,50.417747,84.291172,102.000675,114.409504,41.550007,79.111691,99.078426,112.185917,32.847748,67.927608,86.893444,99.587002,25.266438,52.805214,68.169422,79.727039,-15.358068,-14.967374,-6.635823,-1.202404,13.76182,28.162696,33.346828,36.416997,31.204397,44.943185,49.184203,50.905125,43.234489,57.756087,60.912953,60.609388,50.059639,64.152627,65.834955,64.224319,-5.758123,316.626534,-65.282335,286.059895
8,5.813599,-0.204703,0.585194,-0.121463,6.152916,9.500771,12.423592,12.650185,-13.738289,7.864609,25.690613,36.562157,-19.899845,7.383156,26.84864,41.732941,-20.976791,4.023285,23.873749,38.339653,-19.111748,-4.392242,10.98381,23.502045,-18.770396,-32.601068,-36.734209,-33.212953,-15.789148,-8.390522,-1.496089,2.05209,0.585888,9.462139,14.139486,16.276359,14.195432,22.87791,24.597844,24.218573,25.38084,33.434699,32.0074,28.395124,25.187645,49.564419,70.721169,89.015694,50.16449,83.946877,101.599045,113.910027,41.286564,78.971901,98.992996,112.029991,32.577324,68.223724,87.08107,99.482002,25.011292,53.08176,68.436127,79.903107,-15.763769,-15.137496,-6.534737,-1.087425,13.252565,28.274093,33.716651,36.699999,30.967646,45.143688,49.343025,50.604524,43.28037,57.969434,60.973654,60.288162,50.303244,64.50763,66.088131,64.275263,0.057793,316.259629,-64.694824,285.776229
9,-2.229195,-1.419024,0.124512,-0.35136,5.785561,9.754028,14.387283,16.175652,-11.444492,9.163857,27.609444,39.069214,-17.340431,9.150352,29.055405,44.137344,-18.588295,5.797005,25.814323,40.430832,-16.867218,-2.174263,13.228683,25.849113,-18.538153,-31.328207,-35.214284,-31.565514,-14.966571,-6.819715,-0.210322,2.716833,1.462867,11.666382,15.705106,16.403873,15.125763,25.048746,26.140925,24.778526,26.034591,34.974384,33.434699,29.374856,25.231361,49.790668,71.020088,89.248466,50.190411,83.916206,101.573067,113.978233,41.270542,78.901291,99.0065,112.169609,32.367439,67.932701,86.97361,99.667397,24.499168,52.608776,67.967148,79.40094,-15.695349,-14.87518,-6.092543,-0.549764,13.388107,28.515229,33.959454,36.991214,31.105782,45.483871,49.751751,50.94693,43.37775,58.365934,61.433262,60.644462,50.313371,64.688064,66.346186,64.540604,-2.173147,314.701728,-64.572058,285.285993
10,3.572159,0.163145,0.005093,0.170246,6.092033,8.930054,11.426353,12.081528,-15.012875,6.173286,24.574242,36.228333,-21.206074,5.090218,25.562897,41.123657,-22.209778,1.620483,22.226486,37.171097,-20.036488,-6.015186,9.158707,21.735878,-18.100157,-30.976785,-35.330313,-32.581802,-14.569516,-7.154156,-0.306591,3.213368,1.762974,11.049804,14.965645,16.440738,15.331639,24.341086,25.38578,24.501081,26.280296,34.147113,32.515235,28.822375,24.835854,49.191628,70.482159,88.603992,50.430679,84.183369,101.810818,114.080601,41.504974,79.271679,99.158421,112.20068,32.488346,68.090916,87.054462,99.730396,24.504261,52.537479,67.904377,79.503307,-15.889369,-15.378323,-6.496576,-0.470044,13.2651,28.592849,34.136431,37.236486,30.926829,45.176169,49.541615,50.913585,43.121609,57.957269,61.153903,60.580983,50.045745,64.56444,66.345445,64.648421,1.33667,314.70341,-64.629307,285.294777
11,-1.628265,0.797074,0.035019,-0.66005,6.179581,9.279442,13.816452,17.40303,-13.564167,8.349152,26.166916,37.43866,-19.81596,7.782555,28.288994,44.356728,-20.78722,4.313622,24.756546,39.858856,-18.844471,-3.872681,11.353798,23.475266,-18.247802,-31.74459,-35.606523,-32.909265,-15.420189,-8.482284,-1.691529,1.859552,0.866914,10.296511,14.509247,16.339097,14.428046,23.512025,24.810081,24.333491,25.569919,33.361833,31.543592,27.908593,25.213966,49.708099,70.844479,88.899479,49.997864,83.937778,101.650486,113.989162,41.019745,79.065914,99.19138,112.318783,32.116127,68.019733,87.100697,99.760838,24.366188,52.748222,68.149052,79.58868,-15.578147,-14.757113,-5.822385,-0.008583,13.818631,28.894006,34.416283,37.72592,31.734339,46.089396,50.393153,51.74913,44.069911,58.905385,61.901762,61.132167,50.992502,65.25166,66.979313,65.145758,-0.364122,315.486205,-64.666815,284.620447
12,-0.953522,-0.670239,-0.264359,-0.287078,4.469948,6.930084,10.639114,12.244034,-12.155972,9.587402,27.101784,37.818146,-17.645302,9.500542,28.821259,43.647079,-18.577309,6.016388,25.874863,40.641861,-16.322651,-2.674828,12.276764,24.841576,-17.177544,-29.50305,-34.188424,-31.08948,-13.859448,-5.305966,1.858873,4.913295,2.223138,12.597887,17.200022,18.480169,15.392278,25.395104,27.220755,26.141234,26.019462,34.720898,33.989897,30.570962,25.487938,49.959927,70.893116,88.566227,50.363903,84.255238,102.10207,114.723072,41.349506,78.99313,99.128895,112.582684,32.459106,67.849674,86.953182,99.898396,24.686852,52.555046,67.917309,79.553661,-15.412471,-14.735563,-5.777863,0.28257,13.820483,28.883446,34.413628,37.65114,31.48672,45.680053,50.216732,51.956179,43.809756,58.619481,62.066512,61.669457,50.900309,65.475567,67.383964,65.662733,-1.401072,314.804496,-65.014601,284.321899
13,-1.071739,4.361864,0.450783,0.999122,7.160797,11.42189,14.901123,16.152763,-9.335747,13.410645,31.170616,41.916504,-16.819611,12.0298,31.9701,47.164536,-19.516182,6.388435,26.552696,41.291199,-19.526081,-4.74226,10.336876,22.915535,-18.759405,-33.31021,-39.074487,-38.343918,-17.590099,-12.678101,-5.656029,-1.446195,-2.14663,4.72545,10.618169,13.62424,11.718993,18.782376,21.751953,21.93739,23.774897,29.265743,28.280268,24.976313,24.88203,49.147854,70.535717,88.360806,50.535564,83.883076,101.648655,114.427929,42.33284,79.017162,99.09914,112.680416,33.980198,68.298969,86.93121,99.541683,26.474876,53.737221,68.680515,80.228748,-15.481137,-15.471813,-6.865596,-0.679069,14.13115,28.024683,33.333613,36.483811,31.661042,44.919287,49.608428,51.636436,43.763073,57.672415,61.117223,60.667495,51.067097,64.933893,66.672229,64.780566,-2.546968,319.157915,-64.637976,285.312576
14,-12.174397,-8.259612,0.596752,-0.366365,9.173813,17.246418,23.97028,27.38039,3.112564,27.848911,45.269108,56.133785,-3.326683,25.140324,43.82658,57.600918,-6.076927,20.209866,39.252033,52.43082,-5.870705,7.711315,21.751499,33.188953,-16.989823,-27.558468,-30.63969,-28.124349,-11.591911,-1.185546,5.393528,7.379051,4.109675,15.940313,21.304633,22.81264,17.266341,29.271671,31.322155,30.405656,28.120891,38.918815,38.01553,34.238133,24.556904,48.576279,69.799576,87.627525,50.536366,83.637886,101.358604,113.989792,42.339535,79.053726,99.024467,112.517509,33.705826,68.165359,86.856422,99.479485,25.782394,53.110657,68.176804,79.843941,-15.534304,-15.302925,-6.455141,-0.211063,14.099348,28.125337,33.511578,36.712719,31.526364,44.627764,49.307457,51.476934,43.6208,57.496858,61.044543,60.888994,50.952303,64.998175,66.886997,65.138101,-14.93906,310.844874,-64.258919,284.892781
15,55.661945,-8.956527,-0.234261,0.238665,-0.826035,-8.366547,-20.208893,-29.711266,-45.158501,-34.745979,-12.345772,2.345352,-55.691757,-42.107849,-17.898102,-0.406151,-60.301895,-50.880833,-28.320694,-12.048912,-61.023273,-59.779358,-44.941864,-33.354378,-17.742622,-25.358795,-24.535662,-21.825313,-5.596502,5.464788,10.554689,12.975244,12.938934,21.248811,26.233304,28.412908,27.381923,34.46167,35.763863,35.756206,38.044491,45.200993,44.039035,42.396783,24.734001,48.803616,70.148392,88.147545,49.966221,83.489113,101.377716,114.152412,41.562252,78.968697,99.07711,112.500801,33.016663,68.199348,87.085419,99.60022,25.264492,53.1007,68.328552,79.909744,-15.467799,-15.515964,-6.969831,-0.905138,13.529083,27.697653,33.104952,36.38464,31.051627,44.69538,49.475542,51.737027,43.204973,57.408,60.807483,60.607659,50.547652,64.49565,66.398921,64.814159,40.569477,301.90133,-64.646587,285.14443
16,-35.572472,15.422104,0.283985,0.192167,8.420448,11.262589,11.60305,10.1437,-11.418686,7.191696,24.021034,36.021767,-19.766121,2.935638,23.060188,39.976387,-22.695637,-4.008408,14.535942,29.771118,-23.349438,-12.164841,0.926056,12.906418,-21.483833,-35.870073,-39.18113,-38.687189,-20.647053,-14.142882,-7.521818,-2.747461,-4.080529,4.145984,9.85376,12.88058,10.436375,17.671301,21.516993,23.735129,22.883653,28.956497,28.44508,26.209221,24.410362,48.505783,69.909954,87.764683,49.282894,83.299198,101.358089,114.323444,40.781078,78.722134,98.936863,112.299213,32.25832,67.911243,87.119122,99.855251,24.598103,52.805729,68.533688,80.538425,-16.098456,-15.985514,-7.025283,-0.676599,13.639678,27.643436,32.684246,35.858526,31.302766,45.008455,49.450841,51.720787,43.393064,57.683715,60.765061,60.475698,50.413469,64.237904,66.086464,64.573579,4.774446,317.386265,-64.585161,285.399428
17,-7.651863,-10.693504,0.448322,-0.267565,8.230019,13.358002,15.186424,12.928505,-7.327938,16.445274,35.192299,47.541618,-15.386639,12.334328,32.465401,47.505226,-18.370571,7.083893,27.400017,41.666336,-18.014259,-3.459206,12.350922,25.048599,-16.016204,-24.182758,-25.733743,-21.988087,-10.72827,2.408884,10.514428,13.379894,3.917693,18.668385,25.186079,26.944731,16.906275,31.492957,34.719972,33.965258,28.639347,40.123318,40.413422,37.879493,24.181824,48.060951,69.272919,86.916161,49.343719,83.420105,101.465836,114.32579,40.804081,78.601227,98.626556,111.929512,32.269249,67.571068,86.607513,99.457169,24.660931,52.471848,67.991982,79.890976,-15.808167,-15.712948,-7.018428,-0.664867,14.32344,28.198943,33.303603,36.453491,31.748048,45.229028,49.680491,51.82144,43.614192,57.970237,61.211393,61.015644,50.440515,64.551534,66.453509,64.944143,-3.03257,306.730552,-64.291992,285.169655
18,-16.999569,17.927503,0.248566,0.614293,10.469055,23.138981,31.632671,37.992725,14.570103,38.064365,53.463879,64.011898,6.692047,33.921833,52.181797,67.895679,1.293697,26.427898,43.15115,57.325115,-2.836304,12.357731,24.466038,35.680103,-17.997343,-33.037335,-41.495968,-49.087193,-23.172213,-16.687555,-9.664125,-4.566319,-8.379531,0.368712,6.302741,9.773176,5.248909,12.870083,16.173483,17.56861,17.078064,21.840009,22.165002,20.276736,24.236183,47.988338,69.227943,87.086334,49.185333,83.450317,101.594124,114.47216,40.544357,78.582802,98.619919,111.799393,32.010841,67.653809,86.707306,99.362068,24.472504,52.230434,67.836227,79.806747,-15.928519,-16.164529,-7.687926,-1.269527,13.547608,27.588726,32.759211,35.957759,31.041685,44.614549,48.962951,51.184237,43.015831,57.404418,60.485146,60.345034,49.971644,64.258405,66.104804,64.727029,-20.274811,324.753058,-64.286098,285.878951
19,61.793346,-21.344153,0.290565,-0.494065,-0.684013,-9.107552,-22.470131,-32.818222,-46.745338,-35.783501,-12.53849,2.668991,-57.029686,-42.90081,-17.709846,0.379257,-61.058178,-50.393658,-26.565971,-9.892502,-61.86058,-57.816525,-41.385612,-29.3153,-18.313443,-27.461211,-27.452813,-24.990268,-6.958963,5.173882,10.669051,12.966413,11.617846,21.14402,26.549466,28.329854,25.935914,33.495338,35.088498,34.864838,36.29751,43.939308,42.368007,39.739231,24.219933,48.268032,69.702072,87.718163,48.849449,82.961311,101.017685,114.007072,40.10994,78.426361,98.598289,111.928825,31.57362,67.674637,86.839828,99.644852,23.975773,52.417488,68.076439,79.868317,-15.905362,-15.885787,-7.170334,-0.789726,13.232187,27.387481,32.532587,35.819438,30.998089,44.782634,49.123935,51.224622,43.228314,57.916638,60.839038,60.430497,50.257425,64.398331,66.136544,64.545421,41.192322,303.535817,-64.321747,285.511798
20,-32.184563,12.300312,0.628223,-0.12276,8.270874,9.950523,9.4907,7.505951,-13.828011,4.077644,20.581169,32.226791,-23.148308,-0.709991,18.734093,34.379654,-26.452904,-7.74971,10.468369,24.740524,-27.36763,-16.2006,-3.434143,7.640991,-21.052321,-34.573376,-37.313921,-36.14301,-18.998996,-12.541323,-6.356279,-2.418825,-2.369857,6.27588,11.593208,14.10188,12.113517,19.817745,23.228529,24.721345,24.083587,30.379968,30.142476,27.70352,24.198875,48.208523,69.67226,87.751408,48.867931,82.998676,100.933514,113.713932,40.166187,78.11079,98.181896,111.406231,31.71032,67.498226,86.401119,98.989735,24.295979,52.386131,67.841206,79.675884,-15.635143,-15.813972,-7.292477,-0.891429,13.400457,27.714511,33.033074,36.501348,31.069905,44.954238,49.492214,51.728444,43.247951,57.928555,61.020399,60.69306,50.324178,64.65898,66.540206,65.026642,8.639975,315.94518,-64.061308,285.49809
21,-18.0443,-4.408485,0.455132,-0.485235,8.406773,15.293484,21.153545,24.298038,0.411129,24.647541,40.572109,49.89378,-6.180267,22.37978,40.08585,53.30389,-9.398289,18.009281,35.554447,47.683353,-10.3335,4.870205,18.646603,29.250126,-17.812277,-28.719005,-31.4493,-27.428298,-11.627911,-0.70451,5.865795,7.482668,4.044405,17.345505,22.858953,23.915132,16.789381,29.68225,32.206421,31.212363,27.144802,37.988977,37.720548,34.22214,24.261475,48.559799,70.035152,88.143711,48.987522,82.766933,100.60976,113.443623,40.070171,77.787838,97.980824,111.249332,31.330318,66.8363,85.842304,98.604298,23.614826,51.530571,67.102261,79.175777,-15.598339,-15.35177,-6.412904,-0.163268,13.46301,28.169673,33.622173,37.237227,31.214154,45.606878,50.348507,52.726886,43.363609,58.609354,61.845631,61.644757,50.32004,64.877144,66.881068,65.553682,-9.63418,311.605778,-63.836031,285.081938
22,57.540035,-8.830803,0.221272,0.855799,-5.264511,-15.368385,-29.450111,-40.656166,-52.081718,-45.051384,-20.915565,-3.958626,-60.074272,-49.859848,-23.778648,-2.899361,-62.305984,-57.783508,-34.319801,-14.777069,-60.958958,-70.130539,-66.845055,-62.145424,-16.554915,-24.779205,-24.40932,-21.963201,-3.508164,7.996678,12.561269,14.885678,14.226986,21.721078,25.051278,27.355371,27.580945,32.479976,33.745489,34.823898,37.299163,43.672608,42.534116,41.355486,24.119225,48.429966,70.167847,88.356972,49.515667,83.132286,101.135101,114.184914,40.917606,78.506813,98.819733,112.437057,32.358685,67.79995,86.964111,99.982109,24.749279,52.859745,68.637886,80.95459,-16.283769,-16.241099,-7.425611,-0.938853,13.337471,27.561679,33.045795,36.616821,31.097816,44.719772,49.328452,51.666755,43.317482,57.804437,60.809521,60.298104,50.449778,64.450016,66.099185,64.274645,47.703838,302.825441,-63.816776,285.988203
23,-32.690392,6.906413,0.84938,-0.906928,7.136765,6.84906,2.877045,-1.029396,-21.832294,1.724052,20.987206,32.33242,-30.689449,-3.487701,17.275772,33.424072,-32.751789,-10.980377,7.921257,22.595444,-31.895599,-23.676796,-16.379242,-9.524002,-21.189716,-32.106571,-33.534179,-34.522803,-10.426742,0.369453,5.738651,8.76368,7.011204,17.376319,20.726958,22.861361,19.950447,27.826588,29.163917,30.673035,29.545287,37.5989,36.6443,34.384605,24.740238,48.557796,70.417786,89.095917,48.901119,82.677269,100.529366,113.835526,40.964584,78.512878,99.080658,113.680458,33.201027,68.075752,88.03791,102.965012,26.171951,53.574028,69.400291,82.679787,-16.345519,-16.748194,-8.185696,-2.569558,12.920162,26.205022,31.555943,35.24201,30.645433,44.184211,49.589039,52.375526,42.803471,57.233555,61.512426,62.410647,50.00783,64.089579,66.779983,65.985996,14.744968,309.765168,-63.235874,285.114589
24,5.445671,-1.878633,0.691395,-7.627102,3.404274,1.51783,-2.459106,-4.056931,-29.760132,-11.498451,8.913345,22.0467,-34.435501,-18.211441,1.743279,16.90567,-34.056759,-20.776062,-2.215919,9.6595,-30.621986,-41.851959,-49.029808,-56.349964,-17.71045,-25.604994,-28.239081,-29.916531,-6.890481,1.807496,6.138979,9.157833,7.789567,15.813972,18.565014,21.261099,18.86049,25.139457,25.812043,27.721427,27.863577,35.542673,40.63986,46.242105,27.767143,52.311115,73.261814,90.652256,50.571499,80.67049,97.319927,110.800381,41.691742,74.794292,94.288387,110.381527,31.703167,61.396351,80.179424,94.692364,21.788921,42.88393,56.109867,66.318455,-15.447236,-14.772242,-6.399566,-1.233711,6.132063,20.954014,29.086976,34.97142,23.615828,41.93452,51.905297,58.385941,36.817386,56.334901,65.614135,70.477906,45.377228,62.092695,67.959539,68.589641,20.055714,308.022525,-62.679405,277.623477
25,6.415672,-20.365718,10.02903,-10.978976,-26.888123,-44.762821,-54.822006,-57.606926,-38.778648,-38.994827,-40.469284,-41.840286,-27.186928,-34.806633,-44.236164,-48.5289,-18.321533,-29.880409,-37.879658,-43.000488,-11.427841,-20.982628,-29.293671,-36.198406,-20.712261,-19.016286,-6.840587,8.20595,3.094684,13.930831,13.882728,12.929487,21.28759,34.657542,35.960291,34.243938,34.904606,48.197185,46.529429,41.321585,43.406032,53.69785,55.225616,54.373831,22.040176,43.763409,56.787701,67.506008,38.969994,63.603687,79.652309,90.151806,32.001057,57.477093,70.496006,75.538044,25.090885,43.328705,51.260433,54.332256,18.594475,29.862499,34.33857,35.479031,4.929721,14.349499,28.937416,41.895123,10.353259,30.242882,41.596066,49.950341,14.141647,36.761873,50.533573,58.059343,17.814685,40.40984,53.477215,61.477352,20.546956,39.817839,48.930903,55.272547,26.384068,287.692097,-52.737694,266.679791
26,17.688904,6.583952,13.688278,-48.675318,-19.044914,-33.660049,-47.279434,-58.467751,-33.670921,-56.315174,-70.016499,-81.177063,-27.060127,-50.858688,-67.718182,-79.982414,-19.939156,-40.057297,-54.574356,-66.983013,-13.410072,-28.430328,-38.439445,-48.150215,-17.009027,-23.336963,-19.922906,-11.734987,-3.113456,8.72768,16.396216,22.527044,12.591033,24.838794,32.102125,39.173103,24.922343,36.58045,43.522061,50.512578,32.946068,44.005011,50.088167,54.77984,21.990452,43.056965,55.436039,60.102367,63.622799,74.757557,73.978443,66.342716,57.357159,69.323559,60.867863,47.225018,45.434132,56.343899,48.382015,36.040134,30.215263,40.153599,37.057514,30.15564,-8.199034,0.633003,16.462783,29.408263,14.316339,41.282559,58.969791,68.958785,27.151656,54.726364,75.138951,89.673331,37.157384,61.097834,77.327324,88.661736,42.795197,59.340293,69.648784,78.110443,44.146414,294.570692,-38.975973,218.299115
27,45.248108,-31.666661,-16.616364,-32.285277,-28.469925,-57.428169,-80.245285,-95.80204,-60.763092,-96.696396,-113.1847,-122.982445,-51.95858,-92.812614,-111.100502,-120.166283,-43.843918,-81.580811,-100.082588,-109.362946,-36.660461,-66.745262,-82.136765,-91.425934,-15.920676,-12.527491,0.005372,14.80497,14.759213,39.270113,49.690186,55.21691,32.879748,57.895519,65.718061,68.059266,45.629294,67.935024,72.758226,73.233766,53.074479,71.652832,74.689161,74.769869,20.066757,48.106556,74.315701,87.495518,29.423447,77.153721,77.935925,70.105762,23.679314,72.045422,68.10339,57.622547,20.598049,68.511944,62.355366,50.777149,19.767437,56.241817,53.529339,44.916458,-23.624534,-36.068971,-38.599318,-33.68238,-28.810581,-24.083402,-23.764399,-25.305813,-9.646032,-5.373953,-8.347853,-11.255803,8.345198,11.499347,6.44489,4.241512,24.870534,25.127539,19.7195,17.579848,89.137402,263.194011,-55.849457,186.303818
28,3.468361,-13.384649,-17.790184,-49.135173,-27.278709,-51.50013,-68.777161,-82.314949,-56.323586,-89.633789,-104.385796,-111.843853,-50.115395,-84.359093,-100.405655,-108.598595,-44.008141,-74.738159,-91.314583,-100.680599,-38.27282,-63.792229,-77.141647,-85.271645,-18.296771,-19.355234,-11.853486,-0.519383,14.276139,38.365222,47.059001,50.294167,30.695265,53.912988,60.820142,64.367703,42.170036,62.506175,67.894022,71.136228,48.943068,66.827099,70.89571,72.482757,17.005177,40.539665,64.678116,81.201038,37.087498,70.566158,82.500286,84.673519,38.598461,73.919048,66.130314,55.783482,40.240288,73.725414,62.121162,51.576576,42.374382,69.183826,60.470066,51.111546,-30.22976,-49.816157,-56.724608,-57.063494,-47.10343,-56.628061,-54.182158,-51.415832,-29.03739,-32.301888,-25.830599,-24.736258,-10.046175,-12.737998,-7.874968,-5.860546,7.85879,4.567184,5.215934,4.94979,92.203875,250.283003,-74.041529,137.642286
29,-9.023438,-10.678746,-1.739159,-35.272762,-25.568161,-42.178688,-53.383484,-59.437408,-40.731468,-61.075287,-65.061836,-64.074669,-39.053879,-58.252487,-63.071709,-63.910103,-38.796158,-57.805939,-64.477386,-66.032295,-38.638916,-56.294746,-62.545967,-62.965622,0.017846,5.527712,13.526922,19.217716,20.823474,29.575669,29.838231,28.2066,27.524258,37.048333,35.379652,31.16216,30.875391,39.794497,37.1128,34.441663,31.316536,37.17486,35.632705,34.089068,8.934746,28.123226,48.357182,61.625462,37.074223,65.351601,65.662823,60.218754,45.012302,68.00663,59.044132,50.996819,51.463165,71.942654,59.715614,50.488701,57.275848,72.614651,62.317486,54.258442,-38.839064,-64.525445,-78.602161,-80.544644,-58.252066,-82.591948,-84.098565,-80.907242,-40.883126,-65.043839,-60.831905,-53.750893,-23.931712,-46.536623,-42.829345,-34.040254,-7.503293,-29.886211,-29.20248,-22.264173,83.221779,239.585408,-75.739346,102.350675
30,10.626183,-30.299198,3.668747,-43.893088,-1.852913,-6.249161,-15.906601,-26.409645,-13.436966,-25.729179,-36.244469,-44.771461,-19.3293,-35.764961,-48.083839,-57.097321,-25.151024,-41.993752,-54.529839,-64.505882,-30.283813,-45.927773,-55.141068,-61.875,-22.688707,-34.036765,-40.782751,-44.788438,-8.318707,1.026292,8.538476,15.405987,5.771502,17.460238,23.183451,29.423392,15.850837,25.36744,30.909848,36.43509,22.285353,30.65661,36.592924,42.208136,15.107174,31.849594,42.729092,49.095268,49.210396,66.965847,74.458637,79.255772,47.09547,64.409008,70.978031,74.531879,42.078094,57.869511,59.317989,57.936916,35.98629,48.29504,48.733234,47.196579,-24.738604,-49.565358,-68.421926,-82.944049,-58.851168,-86.60767,-106.472129,-123.702593,-52.592764,-84.003933,-104.696033,-121.548554,-44.692787,-72.75344,-88.259586,-98.172194,-34.363672,-55.264396,-66.401731,-74.026548,94.207277,209.714974,-71.711283,58.886351
31,11.861572,-18.861416,-12.899609,-11.157188,-21.639519,-39.168663,-52.244339,-64.240608,-29.425049,-29.941635,-31.829109,-33.923836,-20.301361,-22.011909,-26.655693,-29.192162,-11.812706,-13.921394,-17.776222,-19.665527,-3.749657,-3.271751,-5.957108,-8.184814,2.573942,5.320786,10.068219,14.981082,-11.825204,-8.626347,-4.651412,-1.602547,-17.837471,-16.58542,-14.059766,-11.43735,-23.655718,-32.143127,-34.365031,-34.324214,-29.259383,-42.953772,-52.18305,-57.904288,6.905251,21.756306,39.485664,53.81813,27.010632,49.878674,60.903454,67.365074,38.237343,61.973877,72.315445,78.130417,48.348141,74.15451,72.922211,67.824612,57.133198,77.430267,75.092983,69.979763,-37.463296,-62.015784,-75.665281,-82.366682,-71.572155,-97.04244,-112.735906,-126.223894,-60.244443,-85.840853,-102.77294,-116.416909,-45.648313,-65.769376,-68.402629,-68.341836,-30.316797,-47.121925,-51.018592,-50.579515,106.265745,192.377542,-84.413996,49.253147
32,-3.252983,-26.612266,7.535934,-34.985715,7.712517,6.683235,4.33651,0.776939,-4.974747,-5.650063,-10.564728,-15.254173,-17.332306,-17.962418,-22.955246,-26.082458,-27.493286,-32.582016,-38.783226,-42.134399,-34.104538,-45.023003,-51.636658,-54.829903,-23.477445,-38.393751,-49.64165,-59.901234,-22.292269,-15.619767,-14.40069,-14.348079,-11.204921,-3.9377,-4.251948,-5.47757,-3.133648,-0.216003,0.07725,1.064021,1.544501,2.63489,2.897515,4.446153,0.069752,16.834717,36.431808,50.429707,26.152954,53.181839,66.135635,72.691154,37.379322,72.112999,88.620758,97.327881,47.456131,76.710205,77.980042,73.824463,56.573124,74.155083,71.563683,67.034683,-38.535592,-70.023362,-87.466989,-94.366918,-76.831005,-107.631555,-121.466735,-129.769942,-60.510433,-90.582204,-104.382526,-111.167414,-41.492942,-68.588313,-74.051465,-73.284494,-22.116034,-46.125582,-52.020245,-52.120096,103.265562,169.307666,-76.625261,17.809822
33,6.964302,3.878358,-0.355911,0.791887,1.515541,-4.799538,-12.64904,-19.178238,-10.314217,-10.972939,-12.908592,-13.832932,-16.841698,-23.667526,-28.862801,-32.214775,-21.998062,-33.97728,-37.159767,-37.640762,-25.411148,-38.46199,-44.875832,-47.973404,-25.327919,-42.142495,-51.158549,-54.981239,-31.766635,-38.639271,-47.210042,-53.858895,-22.600713,-26.469314,-33.345778,-38.380722,-14.817938,-20.328483,-26.217249,-29.527627,-8.388361,-11.091177,-13.762191,-15.132679,-0.19495,10.396328,25.058899,37.33366,22.626972,45.884514,57.354927,64.696827,37.710285,58.271084,54.016571,47.850666,50.586605,67.240849,61.35973,54.474277,61.303711,72.270012,66.154518,60.466461,-39.537029,-65.774686,-80.014887,-85.766475,-75.122464,-105.033097,-120.484038,-130.427954,-63.213403,-90.822846,-91.201653,-88.387348,-50.182893,-75.98277,-75.290363,-70.287623,-37.406115,-61.050749,-62.556347,-58.290722,110.414486,177.935973,-76.796551,23.351659
34,0.771103,-32.721914,2.462654,-7.933322,8.218689,13.834648,17.238922,19.179611,-8.891029,-9.113045,-7.301903,-5.460091,-23.865623,-30.434875,-30.739403,-28.222618,-35.694351,-45.001602,-45.732193,-42.54673,-42.994766,-56.792221,-57.776184,-53.653221,-30.92933,-54.061529,-73.385178,-90.087738,-36.371857,-38.35951,-41.55,-44.184211,-23.770698,-18.754032,-25.146404,-30.640585,-13.970784,-9.763728,-13.409719,-16.785367,-6.966496,-5.508013,-8.037557,-9.6548,-1.020355,9.033051,24.154186,37.319183,23.551025,44.659195,55.62933,64.20908,38.477497,55.333099,49.072323,42.40345,50.463295,63.51202,56.763554,49.537125,59.876518,68.914833,61.835804,55.621548,-37.88008,-62.490799,-75.716317,-81.034541,-76.352933,-104.282058,-118.942409,-129.470422,-66.176558,-87.492337,-83.577762,-79.253535,-53.444611,-71.808072,-68.18746,-62.47919,-40.285691,-56.91378,-54.805312,-48.952361,110.529013,149.19409,-74.990473,19.398367
35,-2.816277,2.554985,4.044342,-4.547022,11.079369,13.774796,19.21669,28.486519,-5.944862,-2.989082,-3.275414,-1.841583,-21.875954,-20.056572,-20.073395,-19.239006,-32.672081,-34.755707,-33.047104,-32.373276,-38.512573,-44.904785,-47.353821,-48.72345,-34.490137,-61.648524,-82.652124,-101.235663,-55.336767,-56.207016,-59.33347,-62.473509,-43.427058,-44.843489,-49.764225,-53.317035,-32.376791,-36.017008,-37.905521,-38.255584,-21.305004,-25.943108,-28.644071,-28.628417,-2.457104,6.76569,21.247959,33.662281,22.998505,43.398972,53.371983,60.227337,39.161739,51.766491,45.36953,39.189262,51.68129,60.271626,53.535862,46.517487,61.308289,66.668472,59.577999,53.481331,-37.598838,-62.298169,-75.981103,-80.628161,-76.330487,-102.233642,-115.052719,-123.675948,-67.009695,-83.14588,-77.795546,-72.396461,-54.420916,-68.134262,-64.015294,-58.181578,-40.945865,-53.963438,-51.386439,-45.995134,107.731876,153.689458,-70.926991,16.791728
36,1.894112,-11.755241,1.866417,-5.212383,10.74337,13.435707,18.172073,26.166229,-5.483894,-1.767197,0.006981,1.768112,-21.017532,-18.995132,-16.49128,-15.050468,-33.119659,-34.476929,-31.498032,-29.879837,-42.360649,-47.63855,-48.880119,-49.334335,-31.755859,-57.886689,-80.566781,-99.539997,-58.044801,-59.636201,-58.848606,-58.931629,-49.465569,-52.401523,-52.352246,-52.6794,-40.333702,-45.622903,-44.329386,-42.869174,-30.754669,-35.807829,-37.216387,-36.851009,-2.188225,8.841248,24.00404,35.766163,25.577545,45.186939,54.361725,60.337257,41.675549,52.377319,45.409756,39.252892,52.950611,58.601933,51.060047,44.144211,60.844231,63.015175,55.289555,49.716969,-35.348622,-60.12335,-72.513447,-76.177747,-72.065046,-98.019949,-110.289385,-118.182631,-61.988429,-76.732853,-72.721237,-67.51895,-48.90682,-60.049867,-57.078993,-51.534022,-35.32457,-46.049413,-43.979693,-38.872347,109.000254,143.451873,-69.686308,13.097
37,-2.763977,-15.407623,-2.249908,-3.155137,12.647781,17.394562,23.9851,32.590256,-1.542778,-0.618896,0.724525,2.71328,-16.122093,-16.97834,-15.979958,-15.579643,-28.143196,-31.353264,-30.155411,-29.034462,-38.078613,-44.794693,-47.926826,-49.088974,-28.238896,-52.489332,-73.386104,-90.702185,-49.904707,-48.929328,-51.625444,-55.237226,-42.031993,-42.810573,-46.898357,-51.355162,-33.943584,-37.305801,-39.123054,-40.873925,-25.478529,-29.189204,-33.186709,-35.814313,-0.091209,10.587788,25.513229,38.231678,22.994442,43.708076,54.76244,61.336842,37.150383,54.558792,49.683495,42.424793,48.278103,60.979843,55.393295,47.340088,56.334858,65.591354,59.262543,52.044296,-35.449646,-58.765521,-70.067791,-73.99064,-69.549149,-94.251105,-105.848018,-113.557587,-58.91366,-72.882653,-69.656688,-66.482346,-45.453953,-55.777727,-52.807933,-48.322106,-31.606454,-42.040205,-40.043166,-35.468603,105.965796,128.68369,-72.206697,10.581304
38,-2.38781,-7.781663,-6.408119,-9.491594,14.029884,21.036186,29.340248,41.67057,-1.537056,-1.703339,1.801643,4.780083,-17.607422,-16.460495,-12.791061,-10.683746,-30.474586,-30.931892,-27.469025,-24.862175,-40.829887,-44.523811,-43.615379,-41.882858,-27.896922,-51.144501,-71.498023,-87.414099,-54.57594,-56.210536,-52.778386,-51.903383,-47.99029,-51.217613,-48.590257,-47.857897,-40.263739,-44.79557,-41.195305,-38.523859,-32.528512,-37.411827,-37.255475,-35.284772,3.990612,17.320461,33.060665,45.885143,22.727795,44.209385,58.267708,69.131298,31.538544,55.129623,54.357605,49.494553,40.263348,60.95089,55.908852,47.681751,48.193359,64.024143,59.27187,52.706623,-32.330262,-53.541652,-62.392925,-63.40662,-70.67912,-92.561089,-105.152986,-114.841101,-60.513088,-67.629885,-64.478422,-62.153889,-47.203404,-51.602411,-45.582116,-40.497618,-33.504075,-39.291046,-35.952232,-31.21295,103.324213,121.133545,-78.868589,1.321227
39,-1.750603,-9.072772,3.979354,-0.050678,15.330734,23.655739,33.394661,46.240997,0.492439,3.773918,6.942558,8.611107,-15.873642,-11.913872,-8.55938,-7.495422,-28.814392,-27.142639,-23.797302,-21.95755,-38.611107,-41.000519,-42.203178,-42.677193,-26.007205,-48.000201,-67.112077,-81.595914,-51.325831,-49.397427,-47.600645,-48.624065,-45.677583,-43.797684,-42.799828,-44.447236,-38.521698,-38.430338,-36.784566,-37.05951,-30.802433,-32.576399,-34.185244,-35.111037,6.831923,20.738447,35.378688,46.127551,24.159894,43.393715,56.804166,67.376898,29.643646,51.164332,52.346857,49.564018,35.373631,56.816161,53.196216,45.951226,41.0605,58.020044,54.451804,48.38228,-30.252218,-51.451412,-60.963808,-62.85109,-71.275853,-93.977666,-106.524138,-115.708891,-61.859907,-71.337665,-69.31366,-67.230402,-48.794751,-51.413783,-44.139596,-38.579751,-34.572103,-38.378086,-34.100642,-29.106697,100.280342,112.626453,-76.182504,1.83623
40,-1.293411,-6.715975,3.979354,-0.050678,15.953522,25.258255,35.982628,49.373932,3.284912,6.838875,9.195557,10.956001,-14.070168,-11.34304,-8.280144,-6.006088,-27.465591,-25.800591,-22.077599,-19.538727,-37.28714,-39.211807,-39.201622,-38.731613,-24.363532,-45.158848,-63.234676,-76.580113,-51.662865,-49.284239,-47.09071,-47.151719,-46.435507,-44.278658,-42.51661,-42.489748,-39.17193,-38.615558,-35.791372,-34.795956,-30.988889,-32.070478,-31.587991,-30.767853,9.673233,24.156432,37.69671,46.369958,25.591993,42.578044,55.340624,65.622497,27.748747,47.19904,50.336108,49.633484,30.483914,52.681432,50.48358,44.2207,33.927641,52.015944,49.631739,44.057937,-28.174173,-49.361172,-59.534691,-62.29556,-71.872586,-95.394244,-107.895291,-116.576681,-63.206726,-75.045445,-74.148899,-72.306915,-50.386098,-51.225154,-42.697075,-36.661883,-35.64013,-37.465125,-32.249052,-27.000445,99.927607,105.87667,-71.262474,1.751743
41,-1.93531,-7.33388,3.979354,-0.050678,17.243729,27.539864,39.011078,52.743416,5.837059,10.523758,12.223663,12.772408,-11.690826,-7.757721,-5.179939,-3.923264,-25.474892,-23.383255,-19.945564,-18.041725,-35.894623,-38.056412,-38.960037,-39.511871,-23.30794,-42.647027,-59.056396,-71.093805,-46.359091,-44.445662,-43.436784,-44.61177,-41.797773,-40.497217,-40.532075,-41.593379,-35.666606,-35.785444,-34.269595,-34.225505,-28.65744,-30.701162,-31.298505,-31.468535,12.514544,27.574418,40.014732,46.612365,27.024093,41.762374,53.877082,63.868096,25.853849,43.233748,48.32536,49.70295,25.594196,48.546703,47.770944,42.490175,26.794782,46.011844,44.811673,39.733594,-26.096129,-47.270932,-58.105574,-61.74003,-72.469318,-96.810821,-109.266443,-117.44447,-64.553544,-78.753225,-78.984137,-77.383428,-51.977444,-51.036526,-41.254554,-34.744016,-36.708157,-36.552164,-30.397462,-24.894192,98.33559,98.350267,-66.939826,1.508543
42,-1.246719,-5.794072,3.979354,-0.050677,18.024788,28.951607,40.905304,54.029846,6.546936,10.971336,13.230171,14.693184,-10.956688,-7.446899,-4.816017,-3.19931,-24.799919,-23.463135,-19.745178,-17.482681,-35.106239,-37.883606,-38.822021,-39.247284,-22.954789,-41.608045,-57.077388,-68.80552,-45.49477,-43.597335,-43.222571,-44.199679,-40.569959,-40.298875,-40.172688,-40.205137,-33.931635,-35.221941,-32.951286,-32.047538,-26.144692,-28.789956,-29.884544,-30.311363,15.355854,30.992403,42.332754,46.854773,28.456192,40.946703,52.41354,62.113695,23.95895,39.268455,46.314611,49.772415,20.704479,44.411974,45.058308,40.759649,19.661922,40.007744,39.991608,35.40925,-24.018086,-45.180693,-56.676458,-61.184501,-73.066052,-98.2274,-110.637596,-118.312261,-65.900364,-82.461007,-83.819377,-82.459941,-53.568792,-50.847899,-39.812035,-32.826149,-37.776185,-35.639204,-28.545873,-22.78794,97.563858,92.398546,-62.485485,1.300217
43,-0.915985,-6.584786,3.979354,-0.050678,17.87693,29.149246,42.025795,55.548134,9.729424,14.440727,15.253372,15.857735,-8.098412,-5.13176,-3.614273,-1.735268,-22.412453,-21.87973,-18.918571,-16.352463,-33.468018,-37.785988,-40.040703,-40.575256,-21.772146,-39.937233,-54.239864,-64.688219,-41.063746,-40.643102,-40.755334,-41.932605,-35.662993,-36.73742,-37.569568,-37.805825,-28.930562,-31.558721,-29.993287,-29.042763,-21.313927,-26.090537,-28.955478,-30.343535,18.197164,34.410388,44.650776,47.09718,29.888291,40.131032,50.949998,60.359294,22.064051,35.303163,44.303863,49.841881,15.814762,40.277245,42.345672,39.029124,12.529063,34.003644,35.171542,31.084907,-21.940041,-43.090453,-55.247341,-60.628971,-73.662784,-99.643977,-112.008748,-119.180051,-67.247183,-86.168787,-88.654615,-87.536454,-55.160138,-50.65927,-38.369514,-30.908281,-38.844213,-34.726244,-26.694283,-20.681687,96.976318,85.757614,-58.177686,1.193392
44,-1.184235,-3.61737,3.979354,-0.050678,18.044128,30.20874,42.6717,55.703773,9.756775,11.438484,12.057152,13.094902,-8.601036,-6.857185,-5.583572,-3.519745,-23.595428,-23.597717,-20.499344,-17.377853,-34.956436,-39.34433,-39.901886,-38.356934,-20.109176,-37.341493,-52.026451,-61.920627,-42.188345,-43.430701,-41.854028,-41.765478,-37.313705,-39.862423,-38.894639,-36.969354,-30.800334,-34.291115,-31.265839,-28.248868,-23.196017,-28.104125,-30.37194,-30.697087,21.038475,37.828374,46.968798,47.339587,31.32039,39.315362,49.486456,58.604893,20.169153,31.337871,42.293114,49.911346,10.925045,36.142516,39.633035,37.298598,5.396204,27.999544,30.351476,26.760564,-19.861997,-41.000213,-53.818224,-60.073441,-74.259517,-101.060554,-113.379901,-120.047841,-68.594002,-89.876567,-93.489854,-92.612967,-56.751485,-50.470642,-36.926993,-28.990414,-39.91224,-33.813283,-24.842692,-18.575435,95.3193,82.060369,-54.671116,1.06284
45,-1.204491,-3.000113,3.979354,-0.050678,18.325768,31.494484,44.392204,56.370506,11.900826,11.600189,11.900368,13.452988,-6.706352,-7.62394,-7.014656,-4.57798,-21.834068,-23.761024,-20.660248,-17.136497,-32.938499,-37.940712,-39.545174,-39.160309,-18.71902,-35.245746,-48.811756,-59.186566,-39.932139,-37.930191,-37.110577,-37.728668,-34.149028,-33.067747,-33.94769,-33.539428,-26.492285,-26.801099,-25.510423,-24.642922,-17.804126,-21.340232,-25.306554,-27.719883,23.879785,41.246359,49.286821,47.581994,32.75249,38.499691,48.022914,56.850493,18.274254,27.372579,40.282366,49.980812,6.035328,32.007787,36.920399,35.568072,-1.736656,21.995444,25.531411,22.43622,-17.783952,-38.909973,-52.389107,-59.51791,-74.85625,-102.477132,-114.751053,-120.915631,-69.94082,-93.584347,-98.325092,-97.68948,-58.342831,-50.282013,-35.484473,-27.072546,-40.980267,-32.900322,-22.991102,-16.469182,93.94701,78.752045,-50.859561,0.703951
46,-0.788841,0.7708,3.979354,-0.050678,18.483124,31.838379,44.435806,55.478096,12.743111,11.574097,11.822891,12.835007,-5.423012,-6.444855,-5.532074,-3.185234,-20.486298,-22.790222,-19.971886,-16.446533,-32.048378,-37.562141,-38.800964,-37.646713,-18.280685,-34.42428,-47.378992,-57.222038,-37.603593,-41.08224,-39.773656,-38.957625,-31.891124,-34.882499,-35.483053,-33.862259,-24.510992,-27.683543,-26.642215,-24.598554,-16.592737,-22.167657,-26.468079,-28.347268,26.721096,44.664345,51.604843,47.824402,34.184589,37.684021,46.559372,55.096092,16.379356,23.407288,38.271618,50.050278,1.145611,27.873058,34.207764,33.837547,-8.869514,15.991344,20.711346,18.111877,-15.705909,-36.819733,-50.959991,-58.962381,-75.452983,-103.89371,-116.122205,-121.783422,-71.28764,-97.292127,-103.160331,-102.765993,-59.934178,-50.093385,-34.041952,-25.154679,-42.048295,-31.987362,-21.139513,-14.36293,93.23101,78.24969,-46.807365,-0.619882
47,0.314827,1.909199,-1.49683,20.574106,17.908401,30.877533,43.638268,54.082603,10.85701,10.068855,11.868095,13.139305,-6.434669,-6.970482,-5.209694,-3.949585,-21.231194,-23.335533,-19.805946,-17.298889,-32.537842,-38.170509,-37.692032,-36.162415,-18.011885,-34.138623,-47.016517,-56.676288,-32.997599,-35.126413,-35.587442,-37.295705,-27.675763,-27.262128,-29.7147,-31.436733,-21.187369,-21.49467,-22.661907,-23.456419,-14.800339,-18.923167,-23.2314,-25.993095,28.728065,50.474681,61.291599,61.496028,44.94791,57.133541,69.437732,79.835834,27.926426,41.177005,47.928104,52.823619,12.946662,39.352893,39.930057,37.119159,2.075862,25.785274,27.129917,23.648815,-10.840419,-22.759916,-28.780478,-31.671354,-57.397935,-73.311561,-78.787567,-80.570363,-53.85872,-59.625786,-61.223733,-62.497664,-43.200486,-24.568791,-13.395816,-10.494442,-27.22482,-11.032771,-3.612441,-1.439042,93.316698,78.890968,-48.533334,18.686303
48,0.687103,3.03565,-1.49683,20.574105,17.500877,30.803947,43.879166,53.82122,12.149963,10.779877,10.458755,11.097794,-5.546494,-7.542343,-7.792397,-6.003113,-21.097641,-23.718452,-22.554817,-19.958382,-33.528671,-39.375687,-38.815727,-35.78167,-17.487655,-33.21709,-45.902447,-55.341059,-28.945475,-35.691893,-36.431817,-36.329589,-24.613869,-28.557312,-30.363449,-28.778502,-19.333529,-22.759874,-22.849412,-20.273216,-14.250667,-19.54558,-21.355423,-20.575855,30.735035,56.285019,70.978355,75.167656,55.711231,76.583061,92.316093,104.575576,39.473495,58.946724,57.584591,55.596962,24.747715,50.832729,45.652351,40.400772,13.02124,35.579204,33.548488,29.185752,-5.974929,-8.700098,-6.600965,-4.380327,-39.342886,-42.729412,-41.452928,-39.357304,-36.4298,-21.959445,-19.287134,-22.229335,-26.466793,0.955804,7.250322,4.165796,-12.401346,9.921819,13.914632,11.484846,93.667774,80.879424,-50.366191,38.213213
49,-0.690994,5.882221,-1.49683,20.574105,18.56575,32.146111,44.693642,54.76799,12.809143,12.829628,12.660713,13.713684,-5.308342,-7.408562,-7.934875,-5.880775,-21.085167,-23.747177,-23.091545,-21.029892,-33.052597,-39.610748,-41.910095,-42.483788,-17.451037,-33.539767,-46.468513,-56.362195,-29.069964,-34.895312,-36.888276,-37.702054,-24.873498,-27.374946,-30.209567,-30.241585,-20.095807,-22.255466,-22.504197,-20.660885,-15.712053,-20.031618,-22.707603,-23.615982,32.742004,62.095356,80.665112,88.839283,66.474552,96.032581,115.194454,129.315319,51.020565,76.716442,67.241077,58.370304,36.548767,62.312565,51.374645,43.682384,23.966618,45.373135,39.96706,34.722691,-1.109439,5.35972,15.578548,22.9107,-21.287837,-12.147263,-4.118289,1.855754,-19.00088,15.706897,22.649464,18.038993,-9.7331,26.480398,27.896459,18.826033,2.422129,30.87641,31.441704,24.408734,93.636961,86.56798,-51.202841,58.593654
50,4.582443,1.50884,4.516125,18.221034,15.656891,30.413475,41.546516,50.49305,10.350952,8.985558,7.942085,7.55619,-6.868744,-13.878822,-15.283585,-14.338303,-21.645927,-30.911293,-32.918358,-32.839737,-32.418709,-44.606094,-47.436447,-47.9916,-17.783779,-28.842537,-37.340165,-46.496794,-16.227669,-13.511731,-17.210334,-21.013974,-11.158793,-6.100941,-9.588974,-13.084079,-7.797904,-4.36597,-4.986346,-6.220335,-6.317376,-6.011804,-7.904825,-8.609304,32.837448,62.931404,83.377304,92.282753,62.957039,94.054298,115.872803,132.544212,48.626633,75.630684,64.07032,53.985786,34.23254,59.585953,48.358955,39.456024,21.633682,42.890625,37.091274,30.702381,-7.312947,-4.015815,6.396139,10.599427,-29.794574,-15.131722,-6.386783,-1.338718,-25.898895,9.890841,16.386151,10.232815,-14.705799,20.293563,21.325042,12.320473,-0.253269,25.985963,26.149293,19.112895,98.34898,87.879095,-46.55714,76.616963
51,-20.893078,-4.83711,0.517902,1.717433,20.794487,36.585445,48.227291,57.451687,18.052769,19.374275,19.017849,17.988338,1.065445,-4.223156,-5.246144,-5.869389,-14.165211,-22.770825,-26.297608,-28.594208,-26.084175,-37.107582,-41.994267,-44.953938,-8.179012,-14.040191,-19.341742,-25.513356,-3.315766,1.487336,0.192136,-3.302042,0.06155,5.95169,2.772177,-1.461648,0.392887,3.80963,1.806771,-1.306685,-1.233217,-1.412325,-4.041889,-6.153336,31.183605,60.889149,81.343861,88.71603,63.605175,93.495998,113.999233,128.760624,49.657803,75.071011,64.463024,55.368633,35.210552,58.095531,47.761517,40.042706,21.755733,41.767216,36.732101,30.662556,-8.995924,-5.045317,6.052528,13.343492,-27.601878,-10.249797,0.116616,7.670914,-23.809199,10.256466,18.156937,13.934907,-12.951809,22.880257,23.953571,15.472183,1.340447,29.190315,28.345878,21.002087,77.605877,82.589694,-45.889263,77.882105
52,-20.893078,-4.83711,-0.36787,-2.248302,25.932083,42.757416,54.908066,64.410324,25.754585,29.762993,30.093613,28.420486,8.999634,5.43251,4.791298,2.599525,-6.684494,-14.630356,-19.676857,-24.348679,-19.749641,-29.60907,-36.552086,-41.916275,1.425755,0.762154,-1.343318,-4.529918,9.596138,16.486403,17.594607,14.409891,11.281893,18.004321,15.133328,10.160783,8.583678,11.98523,8.599887,3.606965,3.850941,3.187155,-0.178953,-3.697368,32.961159,62.952232,84.23893,95.974617,63.040237,91.657562,107.12986,117.220573,48.666801,75.101967,63.789597,55.947533,33.899345,59.587326,48.289032,40.986786,20.971298,43.679123,38.349495,32.27663,-7.10457,-3.906887,7.932489,13.350686,-28.664665,-6.340162,7.555688,17.382988,-24.673056,11.243669,17.105605,10.12398,-13.581046,21.948844,22.849659,13.697322,0.526669,28.413217,28.700449,21.631416,56.131325,77.566854,-46.838608,75.448074
53,-1.348137,-1.022025,0.634117,-2.045699,26.398384,43.284668,55.228134,64.54953,25.052399,29.426422,30.155502,28.62648,8.275772,5.003586,4.453079,2.29969,-7.361114,-15.602028,-20.77391,-25.453651,-20.228027,-30.660484,-38.003334,-43.538361,1.259233,0.628162,-1.409947,-4.669851,9.622894,16.924478,17.464461,13.843398,11.439696,18.346251,14.742509,9.15083,8.928319,12.598572,8.578904,3.121755,4.387132,4.057477,0.401779,-3.257335,32.513866,60.979958,80.756493,89.652443,61.547127,88.522339,103.948288,114.157333,47.220154,73.258095,62.74807,54.046555,32.043056,57.569618,47.74704,40.548248,18.525867,41.328049,37.64082,32.58728,-8.003996,-4.661415,8.502445,16.013827,-28.688778,-6.523221,8.1463,19.133211,-24.734189,11.070737,18.598545,13.871088,-13.209741,21.81818,23.900929,16.292599,1.499269,28.821109,29.794883,23.804568,54.585463,76.472519,-46.402216,73.330065
54,-1.348137,-1.022025,1.191559,-3.170544,26.864685,43.81192,55.548203,64.688736,24.350212,29.089852,30.217392,28.832474,7.551911,4.574661,4.114861,1.999855,-8.037735,-16.5737,-21.870964,-26.558624,-20.706413,-31.711899,-39.454582,-45.160446,1.09271,0.49417,-1.476576,-4.809783,9.64965,17.362555,17.334316,13.276906,11.597499,18.688182,14.351691,8.140878,9.27296,13.211914,8.557921,2.636545,4.923323,4.9278,0.982511,-2.817301,31.533222,59.354668,79.048347,87.618256,60.32238,86.253777,101.942253,112.738266,45.436249,71.444206,60.85659,52.281189,29.873829,55.610847,45.940704,39.068985,15.795193,38.293304,34.528999,30.085487,-7.671068,-4.787756,7.177991,16.282349,-26.325714,-4.030388,9.876731,20.459301,-21.877059,14.538517,20.171606,15.09177,-10.283111,25.115344,25.474638,17.590871,4.280384,31.289891,31.271181,25.110188,53.384325,75.441726,-45.063658,70.150753
55,-1.348137,-1.022025,1.706772,-3.528913,27.330986,44.339173,55.868271,64.827942,23.648026,28.753281,30.279282,29.038468,6.828049,4.145737,3.776642,1.70002,-8.714355,-17.545372,-22.968017,-27.663597,-21.184799,-32.763313,-40.90583,-46.782531,0.926188,0.360178,-1.543205,-4.949716,9.676407,17.800631,17.204171,12.710414,11.755302,19.030112,13.960873,7.130925,9.617602,13.825256,8.536939,2.151335,5.459514,5.798123,1.563242,-2.377267,32.547169,61.207695,80.129471,85.800018,58.489151,83.506737,99.543686,110.499573,42.363853,68.365288,59.752922,50.974617,25.778389,52.329369,44.09111,36.834068,11.207428,35.277214,32.969398,28.426552,-7.67005,-3.229547,11.635815,21.220066,-24.599234,-2.464088,12.156865,23.424957,-20.063295,16.255086,23.50866,19.261343,-8.147041,27.108153,28.089367,20.204488,6.935189,33.851576,33.686826,27.10065,52.192629,74.450576,-43.200445,66.652715
56,-1.348137,-1.022025,2.372475,-1.002981,27.797287,44.866425,56.18834,64.967148,22.945839,28.41671,30.341172,29.244461,6.104187,3.716812,3.438423,1.400185,-9.390976,-18.517044,-24.065071,-28.76857,-21.663185,-33.814727,-42.357078,-48.404617,0.759666,0.226186,-1.609833,-5.089648,9.703163,18.238707,17.074026,12.143922,11.913106,19.372043,13.570054,6.120973,9.962243,14.438599,8.515956,1.666125,5.995706,6.668446,2.143974,-1.937234,31.050453,58.986511,77.473412,83.758278,56.806183,82.484894,98.261833,108.889961,39.839058,66.61377,57.373695,48.184891,23.166332,50.046844,41.115303,33.928185,8.725319,33.379211,29.621429,24.26548,-7.290686,-3.063129,11.155521,20.165585,-25.620956,-2.411508,12.645095,24.602754,-21.274653,15.716221,22.103807,17.55558,-9.495577,25.753256,26.545823,18.857742,5.603788,33.030203,32.558584,25.452377,50.911468,73.622031,-40.760994,65.843214
57,-1.348137,-1.022025,0.742378,-3.183079,28.263588,45.393677,56.508408,65.106354,22.243652,28.080139,30.403061,29.450455,5.380325,3.287888,3.100204,1.100349,-10.067596,-19.488716,-25.162125,-29.873543,-22.141571,-34.866142,-43.808327,-50.026703,0.593144,0.092193,-1.676462,-5.229581,9.72992,18.676783,16.943881,11.57743,12.070909,19.713973,13.179236,5.11102,10.306885,15.051941,8.494973,1.180915,6.531897,7.538768,2.724706,-1.4972,30.007381,57.896233,76.409798,82.98111,55.153542,80.172501,95.627403,105.64579,38.869514,64.420509,56.161537,47.201958,22.643509,48.824272,41.049728,34.402199,8.642578,32.636719,30.155239,25.905018,-8.157446,-3.859555,10.902159,22.337038,-23.659269,-1.049911,13.710043,25.804633,-18.588788,17.47938,23.967712,21.024749,-6.511828,28.001002,28.430291,21.492231,8.718078,35.40818,34.235756,27.630716,49.56645,72.639125,-40.015497,62.699253
58,-2.956467,-5.467412,1.834717,-1.897683,27.455635,44.854889,58.089294,68.492088,25.449142,33.17688,36.955032,37.560081,8.296165,8.772926,11.701813,11.919022,-7.748566,-13.612518,-15.588913,-17.188911,-20.30365,-29.409943,-35.751114,-39.425812,0.719516,0.110811,-1.14019,-4.291499,11.615623,20.790129,20.574558,17.09378,14.516163,21.974502,19.317721,14.84026,12.855787,17.874151,15.44455,12.554692,8.864951,11.825574,9.922581,8.602326,29.865074,57.339478,75.245132,80.625687,53.978806,78.487244,93.424301,103.212547,36.94313,62.420654,53.632507,44.93557,20.230064,46.724625,38.705635,32.266502,5.843353,30.124111,26.913586,22.368336,-7.054954,-3.123459,10.625857,20.905911,-23.494519,-0.041435,14.416714,26.236237,-18.645166,17.810733,22.908075,18.647235,-6.755526,27.838012,27.17966,19.448848,8.375455,34.966881,33.233207,26.020574,46.597052,67.262269,-38.193712,60.892128
59,7.9319,4.809616,0.937443,-0.738257,23.942184,39.125404,49.727898,56.458168,22.509956,27.573738,29.885902,30.668106,6.05484,5.929642,8.898468,9.848213,-9.491272,-15.124969,-18.3078,-20.730743,-21.74881,-31.630669,-38.835869,-43.583107,-0.007564,-2.541462,-6.222651,-10.262239,6.425902,14.192529,15.959023,13.022915,9.216465,15.850682,15.286222,10.70783,7.448366,10.462403,8.723882,4.999128,3.622063,3.748744,1.61536,-0.763451,27.95145,55.569248,74.135799,81.885853,52.596416,77.949314,92.775364,102.056179,35.59679,60.862942,51.565762,43.186626,19.418449,45.733395,37.275753,31.337757,5.738297,29.729519,25.596714,21.112576,-6.638385,-2.935275,9.958582,19.405623,-23.636329,0.141532,14.285587,25.769651,-18.736681,18.669928,22.59849,17.734564,-6.657127,28.584173,26.968165,18.599656,8.492843,35.52495,32.759396,24.741846,54.536734,72.146248,-37.248487,60.228233
60,10.053406,6.427292,2.176495,0.93839,25.940094,42.462387,54.95327,66.036301,16.483727,17.150574,17.758713,16.845131,-0.928345,-6.069946,-6.748695,-8.220406,-15.560532,-26.158791,-32.653885,-38.128052,-26.722298,-38.60321,-47.567596,-54.708481,-2.17698,-6.267574,-11.576967,-17.608192,-1.256837,7.943944,9.525372,5.673937,2.169662,8.980733,5.735039,-2.01507,1.347209,3.73062,-0.479708,-7.518483,-0.907052,-3.138959,-7.520799,-12.869619,28.380089,55.422363,73.188629,80.932732,51.136208,76.841698,91.028023,99.056511,33.339958,59.878235,51.069374,42.268524,17.154579,44.161263,35.828018,29.659653,3.882294,28.337288,24.339981,19.84766,-7.092714,-3.458054,9.29424,18.128933,-25.102469,-1.314697,13.31413,25.126644,-20.158731,17.327258,22.044033,17.511614,-7.949007,27.019912,25.949962,17.718818,7.167833,34.011756,31.42781,23.320691,64.594088,78.61411,-35.068045,61.207194
61,-5.824242,-8.549345,0.408382,0.488508,26.850014,44.603004,57.986412,70.342255,20.198135,22.662506,24.906578,25.171394,3.180656,-0.995636,1.127586,1.218567,-11.378517,-19.769096,-22.839088,-25.952454,-22.660904,-32.998695,-39.716034,-45.381317,0.885655,0.1859,-1.699124,-5.145785,7.843939,16.529072,18.519443,15.69714,10.994908,17.202584,16.01957,10.136114,9.37152,12.54472,10.579605,5.581805,5.562014,5.316803,2.703495,-1.39312,28.50626,55.633221,72.863102,79.419193,52.141857,77.6544,93.379498,104.114513,35.567036,60.845318,51.207333,41.70702,19.50943,45.737972,37.941685,31.962605,5.658646,29.088993,26.063404,22.160969,-5.769557,-0.131343,13.803965,22.233699,-25.926219,-1.002271,12.58884,22.854599,-21.834359,16.896426,23.286636,19.408679,-9.375472,26.520968,27.464144,20.090003,6.278535,33.205389,32.317016,24.944635,58.782663,70.074383,-34.646845,61.705319
62,7.007904,5.510144,1.512909,0.737856,23.418503,37.522888,46.247177,51.053581,15.432243,16.006393,17.562904,18.327713,0.306358,-6.47049,-6.383286,-6.801453,-12.955399,-23.726234,-27.285347,-29.772263,-23.044281,-34.337425,-39.86721,-43.118248,-1.187677,-3.581925,-5.615243,-8.94325,4.922743,11.72736,12.521316,9.443861,8.875109,13.188252,9.902759,4.198596,8.909596,10.359373,7.582333,2.750981,6.670434,6.694177,4.282978,1.17863,28.182049,54.557133,71.147633,76.697903,50.770168,76.461239,92.119846,103.507519,34.12714,59.401646,50.726566,42.110996,18.268948,44.630985,37.198048,31.353207,4.75462,28.285847,25.561695,21.915836,-6.693837,-1.556821,12.669857,22.379399,-27.169039,-2.051596,12.253134,22.561686,-23.191664,15.460698,23.298245,20.82829,-10.495748,25.478436,26.790509,19.371413,5.582978,32.546635,31.929903,24.626219,65.89345,75.576113,-33.031054,62.434761
63,2.005119,1.809627,-0.348358,-2.351764,22.352943,35.69458,43.487663,47.585907,14.118919,13.256721,13.888893,14.565468,-1.294556,-9.254837,-9.284248,-9.322472,-14.657478,-25.98896,-29.633675,-31.970901,-24.650917,-36.796417,-42.665062,-46.099319,-1.533263,-4.51837,-7.631209,-11.301344,4.473416,10.990462,10.264524,6.06775,7.913778,11.547914,7.231622,0.720102,7.344903,7.919182,4.553136,-1.060841,4.359425,3.477721,0.182349,-3.777026,27.947903,54.807987,71.77248,77.823315,50.102749,75.524998,90.780087,100.880527,33.863125,59.733982,51.587963,42.993107,17.952747,44.462643,38.254337,32.861309,4.243126,27.497692,25.810833,22.810764,-7.535773,-1.083534,14.59437,25.458552,-25.547535,1.405069,15.672779,25.302911,-20.697194,18.51512,26.680778,24.22058,-7.516445,29.161478,30.340386,23.055813,8.9531,36.009351,35.076673,27.845237,68.009634,77.375304,-33.268347,60.072561
64,-2.813988,0.071136,0.296345,0.483506,21.679916,34.5298,41.969261,45.639839,15.716858,16.448936,17.251282,18.411942,0.601273,-5.014114,-4.256973,-3.227005,-12.810631,-22.166748,-25.143013,-26.584854,-23.009148,-34.19117,-40.027199,-42.964783,-1.23226,-2.831442,-5.336656,-8.871373,5.849678,10.851956,9.223937,4.306319,8.039626,11.425802,7.354598,1.439032,6.363133,7.38924,5.268483,0.843017,2.285537,2.283468,-0.025503,-2.869974,26.85688,53.558578,70.196228,75.357513,48.991127,74.261971,90.33371,101.56414,33.190727,58.159904,49.928627,41.396713,17.809753,44.323082,37.443008,31.766739,4.848862,27.847595,25.393753,21.876583,-7.792748,-1.474476,14.597767,24.281682,-25.427986,-0.925515,12.310408,21.640525,-20.521422,17.727586,25.824208,23.727287,-7.368275,28.824073,29.939224,22.608987,8.852879,35.362855,33.928764,26.205856,65.379725,77.399371,-32.787924,60.508997
65,-0.829697,0.538711,-0.814133,-1.725492,22.248116,35.651321,42.71244,45.555611,15.389442,15.890236,16.450768,17.103767,0.025177,-5.449677,-5.262337,-5.131302,-13.30616,-22.25956,-25.625267,-27.853088,-23.450661,-34.161644,-39.558449,-42.422905,-1.206974,-2.850986,-4.926077,-8.052748,5.077366,8.183226,6.938709,3.111109,7.058381,8.934852,5.993341,1.760597,5.809201,6.05716,5.321527,2.731282,2.477457,2.546433,1.453728,0.127453,26.254005,53.349724,70.153427,75.08091,48.868103,75.151634,92.073441,104.148445,33.083038,60.594521,54.323387,47.054443,18.002701,46.086273,39.547234,33.617706,5.000324,28.53344,26.067352,22.605228,-8.196317,-0.014326,16.821491,27.855487,-23.639879,3.338104,16.780366,25.635498,-18.490667,18.179136,26.168713,25.575817,-4.910671,31.560265,30.889223,22.877169,11.619544,38.250119,35.123696,26.608901,64.687986,77.9255,-33.464098,58.770924
66,1.381416,-0.804083,0.055218,2.20026,22.041206,36.95549,45.904999,51.5205,17.820854,18.112907,18.848419,19.985962,1.509361,-4.413528,-4.07547,-3.276558,-12.700081,-22.561913,-26.613808,-28.880653,-23.555031,-35.359154,-41.286507,-44.267807,-2.055332,-4.873867,-8.318923,-12.945665,5.429343,10.409298,9.048504,4.073767,8.741049,12.597856,8.48534,2.075894,8.018075,9.262253,6.86081,2.278281,4.809431,4.319657,1.652997,-1.360207,26.279583,53.308353,69.898396,74.643688,48.137112,73.185825,89.395466,100.344372,32.344608,57.762394,49.787235,41.957989,17.274685,44.038296,37.608776,32.420139,4.598637,27.629642,25.291386,21.921215,-7.885126,-0.684596,16.198461,25.197009,-23.483342,0.239067,12.929764,22.579038,-18.477267,18.87037,24.438621,20.581196,-5.627192,29.626829,28.9908,21.009713,10.19629,36.539263,34.180706,26.617546,66.148338,77.067524,-33.329945,60.917291
67,1.414948,2.084879,0.642471,1.320687,22.399063,37.022667,45.90992,51.622467,16.820068,16.399498,17.37133,18.474312,0.428925,-6.424255,-5.941887,-5.702591,-13.818626,-24.861717,-28.705215,-31.254501,-24.555702,-37.124634,-43.758087,-47.958069,-3.227509,-7.160269,-11.300356,-16.431476,2.85855,7.591225,6.734222,2.269019,6.657868,9.651651,6.318765,-0.026367,6.60998,6.5641,4.48166,-0.013091,4.200541,2.534638,-0.309555,-3.478864,26.491756,53.696194,71.941395,79.714222,46.378269,72.064991,89.119549,101.518764,30.8634,57.655735,50.829792,42.429256,16.44556,44.585552,38.926449,33.16309,4.669132,28.597126,26.913471,23.19088,-8.230929,-1.70567,14.415047,23.420882,-22.957167,0.175186,12.776654,22.505277,-17.547985,17.799618,25.91637,25.260457,-4.761204,28.478734,29.944349,23.818153,10.853438,35.356773,34.111607,27.460593,67.635241,79.119506,-32.615519,62.20508
68,-5.027161,-0.034982,0.140247,0.87383,22.220535,36.736336,45.619469,50.313034,18.063583,19.508171,20.876999,21.845169,2.713165,-2.641296,-1.608467,-0.850067,-11.167488,-20.483437,-22.569122,-23.36277,-22.101974,-33.157997,-38.225441,-40.449371,-2.390173,-5.309547,-8.830803,-12.938873,5.325911,9.402859,8.028542,3.463889,8.781526,11.739463,8.411888,2.957814,8.640704,10.063804,8.739906,5.165051,5.931158,6.87245,5.627037,3.764892,26.271515,52.416458,69.178047,74.229126,45.864258,71.865692,89.357071,101.683388,30.68985,56.482544,49.842567,42.0718,16.131477,43.740578,37.799721,32.110634,4.00732,27.46273,25.151596,21.402912,-8.36116,-0.820231,16.074404,25.683911,-22.287576,0.324344,12.068778,20.348799,-17.10684,19.463359,26.782203,24.678954,-4.059781,30.138925,30.671306,23.751061,11.765244,36.844124,34.848783,27.306063,62.620497,79.074521,-32.462854,63.068907
69,-0.76561,1.620887,-0.704441,3.882804,22.46624,37.17762,47.981987,56.202965,20.978508,21.31897,21.374588,20.601311,5.070877,-0.968513,-0.865173,-1.457176,-9.49585,-18.407707,-21.468658,-23.301315,-21.198235,-31.761017,-37.61673,-40.946732,-3.409209,-6.311787,-11.19748,-16.986427,7.125812,13.301286,11.030106,4.588673,9.837952,15.09106,11.06731,3.926431,8.278476,11.704729,10.60869,6.676177,4.036871,5.393281,4.58963,2.972233,26.505489,52.385159,69.73177,74.910221,45.537357,72.861042,90.523167,102.747288,30.132923,56.16457,49.368839,41.465092,15.752907,43.21764,36.77702,30.702267,3.934822,27.272472,24.118023,19.712963,-8.136234,-0.74931,15.281529,24.156051,-22.560791,-0.855089,10.276133,17.762074,-17.844233,19.604212,25.789226,21.799408,-5.081843,29.9433,29.377882,21.000296,10.571887,36.439875,33.86726,25.554945,61.867218,80.747015,-33.154964,67.003319
70,-11.536331,0.681694,-1.125011,4.903508,23.730583,39.470901,54.793396,67.871132,30.908432,38.176346,37.167206,33.560486,15.728874,17.750473,14.204407,10.443764,0.477562,-3.44902,-10.106964,-14.41967,-12.74826,-18.191872,-23.238029,-25.039902,-5.507149,-9.136467,-15.347417,-24.094362,7.132203,16.265553,8.820491,-0.678483,11.604878,20.976862,11.387054,0.366797,10.832844,17.672165,11.699048,5.267588,6.523931,8.623322,6.560487,5.273331,27.493057,52.987976,70.528679,77.065887,41.912842,68.917351,84.807587,93.392143,26.398487,55.43026,51.702347,42.978516,12.915974,43.113327,38.681374,32.153206,2.067204,27.001534,25.894947,21.465511,-8.768188,-3.136303,12.508225,21.377066,-24.005257,-4.254511,7.693484,15.973936,-18.651897,15.58565,22.941297,20.453033,-5.725992,26.690535,27.329806,20.323388,10.091993,33.90993,31.766789,24.16059,50.210152,81.348495,-34.400711,71.826613
71,10.813637,3.4378,-3.344135,3.019101,23.254166,40.389175,52.94735,66.49807,27.563438,31.30909,30.870209,28.615837,9.985771,7.926979,6.459732,4.773788,-6.629677,-11.362381,-13.353767,-14.796753,-20.532188,-27.643776,-30.253258,-31.789627,-3.489269,-8.2405,-15.241144,-23.774156,4.508027,11.775742,4.789732,-5.516072,11.063883,17.097886,6.721254,-4.696767,12.523508,17.70866,9.815784,0.727914,10.673219,12.971878,8.458294,2.220051,26.812534,53.328037,71.043491,79.325581,44.317303,69.120655,83.468227,90.924511,28.860111,56.328106,52.439289,44.603405,15.002003,44.150219,39.394169,33.261738,3.528442,28.042088,26.821918,22.642651,-8.403984,-2.698061,12.761958,21.867303,-22.152528,-3.840382,6.662622,14.476118,-16.605334,18.347838,24.648665,22.102665,-3.883576,28.882922,28.927474,22.082688,11.595338,35.649007,33.42309,26.185293,60.652199,84.633108,-38.116436,74.692526
72,-10.988617,2.416263,0.678291,8.738023,26.810532,48.319473,62.750015,72.547188,33.979111,42.183838,39.573669,33.96595,15.212059,15.13195,10.587959,4.924965,-3.763046,-6.626701,-12.001762,-17.569427,-20.594215,-28.131065,-32.104454,-35.75386,-2.523616,-7.648962,-17.538846,-27.291305,9.426787,11.116217,0.03915,-10.554905,13.571135,16.916124,5.446355,-4.250929,13.304528,18.037604,7.776693,-0.653937,9.315945,10.734198,4.949697,-0.199546,25.505791,51.782742,71.206684,82.05534,38.762226,64.135494,78.92252,86.374569,24.03265,52.969151,48.240452,40.847912,11.391735,40.432262,34.906483,29.250755,1.745224,26.333656,23.985443,19.399052,-10.654817,-9.349939,1.308399,7.261385,-27.705156,-10.023914,-0.432438,6.247752,-21.092335,10.741083,16.26441,12.446814,-7.908684,23.047508,22.350778,13.94068,8.029406,30.813147,27.874753,19.495902,49.637489,86.209982,-37.464237,82.591161
73,9.88678,15.205082,-1.92009,2.490363,24.284134,40.550537,46.852455,50.715866,24.290543,27.403564,22.351112,15.775108,6.293106,2.231827,-4.284782,-10.328636,-11.292,-20.279961,-27.806854,-34.226189,-25.562325,-39.315491,-46.729317,-54.134789,-7.254253,-15.941579,-27.086448,-35.723107,-9.31823,-5.315939,-9.266452,-15.274335,-1.565126,2.676479,-3.933779,-10.805025,3.441875,6.376965,-2.19992,-11.438307,6.852567,5.73439,-1.234699,-9.252713,20.675583,45.070324,63.334408,73.994694,35.296383,62.35136,79.360828,92.32481,22.279873,52.964344,48.794804,42.611217,11.188488,42.584095,38.178005,32.895184,2.883511,29.107704,27.522697,22.870445,-13.25559,-13.919315,-4.243797,2.327836,-32.134976,-14.265735,-7.669926,-3.674613,-23.317326,6.119836,14.910501,16.175675,-7.929864,19.666395,22.053542,18.103584,10.063773,29.259568,27.196857,21.023669,59.043074,100.883362,-39.865522,84.549822
74,3.983002,6.172571,-5.751114,2.415244,13.826637,23.202553,23.402824,17.437134,22.098541,9.670029,-4.875183,-19.386749,11.999588,-8.77533,-29.985352,-50.433884,-0.421944,-21.218262,-42.901154,-61.38279,-12.955399,-30.423775,-41.831589,-51.064339,-16.506132,-28.493585,-39.939271,-46.057718,-1.517115,-8.396543,-18.582798,-27.797504,13.240307,3.664825,-12.592391,-25.92906,22.299926,14.030064,-6.618718,-22.936233,26.715266,20.23067,7.009629,-3.668345,18.454514,42.372265,60.875187,72.201405,33.105869,58.783321,76.56641,90.668964,21.168995,55.22501,69.917965,78.857632,11.595554,46.0956,42.891712,36.883564,4.613628,32.733479,31.267776,26.055679,-15.56663,-17.9288,-8.219011,-0.45825,-35.865936,-22.687256,-17.164021,-13.728722,-25.404058,1.092087,11.710348,19.549903,-7.813897,17.070315,18.842058,15.972022,11.689631,28.570588,25.589432,20.081141,62.59635,105.626611,-46.046362,85.535744
75,20.076714,35.991104,-5.480118,3.548487,7.279701,5.387306,-1.969299,-12.300224,-31.100922,-63.673668,-64.22905,-56.79245,-40.657768,-75.149117,-86.323357,-93.069134,-43.000145,-70.025826,-81.62075,-89.561462,-41.606712,-61.183319,-67.154617,-71.621933,-29.106612,-51.300205,-63.381395,-67.288343,-43.78555,-62.133697,-71.648386,-76.30662,-26.340348,-41.011629,-54.108768,-63.543366,-9.101825,-22.992025,-37.080351,-47.588264,6.052281,-4.303633,-14.104906,-21.080047,19.218578,41.03508,57.719364,68.7953,33.878689,59.097118,79.242954,96.822224,21.525135,56.651173,66.146679,71.601048,11.968689,46.128559,40.335903,33.30265,5.412655,35.264111,31.721306,24.969463,-13.268836,-13.27038,0.439972,12.822627,-38.424719,-31.451739,-27.552632,-23.199939,-29.569,-2.631401,9.463467,16.277656,-13.18714,13.966276,17.072507,12.994942,5.354008,24.012142,23.832572,19.071399,82.450905,139.863927,-51.748638,87.330443
76,-0.910721,4.695934,-1.227608,3.744823,-0.026207,-4.822311,-16.065903,-27.711983,-17.460823,-44.425621,-59.662743,-68.873978,-24.047928,-53.851891,-72.324028,-84.084663,-28.054047,-55.851059,-74.391861,-87.253876,-30.692253,-53.423195,-67.542801,-77.431068,-28.707797,-46.628076,-57.138243,-62.899958,-31.03903,-35.245406,-42.808967,-50.986173,-15.718073,-21.166961,-31.719519,-40.469985,-3.011753,-8.847167,-17.104247,-24.887269,6.647123,6.623905,4.020693,-1.133305,19.191914,42.194195,59.497662,66.944447,26.546059,53.549366,74.338131,90.030155,14.64529,49.470806,54.82893,51.796703,7.076626,44.171734,50.488987,49.009838,2.983074,34.17057,39.294834,37.763729,-15.150155,-16.475874,-5.306059,5.454507,-38.768236,-37.854145,-36.519441,-34.393405,-29.098554,-7.192194,3.672174,8.79261,-11.905819,9.527625,15.010877,14.863262,7.125534,21.095978,21.961441,20.001452,81.311874,142.749261,-53.204556,89.264667
77,0.704155,19.592881,-4.677944,8.25532,-5.196819,-15.466289,-30.566883,-43.882713,-39.004555,-68.791752,-79.672594,-82.690716,-44.266205,-77.134638,-89.103813,-92.25028,-45.038509,-75.209369,-87.608042,-92.624388,-42.982807,-67.588863,-78.076401,-82.59367,-29.76992,-47.251894,-54.516212,-56.06502,-28.230034,-30.051177,-34.166287,-38.751363,-11.237834,-13.420572,-20.308444,-25.339189,3.150692,0.048567,-5.650409,-10.744232,14.93372,15.086892,11.524325,6.970788,19.562473,42.505074,58.888779,66.695938,28.137932,53.845825,72.936745,87.494202,16.679077,53.205986,53.466911,45.644531,9.268112,44.771919,42.105846,33.426647,4.567051,35.580368,34.083824,25.366974,-12.460214,-17.156981,-12.024349,-4.453563,-39.0961,-40.878927,-40.342347,-39.382035,-29.589809,-9.62797,1.822718,5.182125,-14.21266,6.121565,11.632049,10.210091,2.200538,15.6608,17.426831,14.790212,81.900186,161.15746,-57.998343,96.335305
78,0.704155,19.592881,-3.479862,2.476408,-10.367432,-26.110268,-45.067863,-60.053444,-60.548286,-93.157883,-99.682446,-96.507454,-64.484482,-100.417385,-105.883598,-100.415897,-62.022972,-94.56768,-100.824223,-97.9949,-55.273361,-81.754532,-88.610001,-87.756271,-30.832042,-47.875712,-51.894182,-49.230084,-25.421039,-24.856949,-25.523607,-26.516553,-6.757595,-5.674184,-8.89737,-10.208393,9.313135,8.9443,5.803427,3.398804,23.220316,23.549878,19.027957,15.074881,15.401001,37.522316,56.610546,68.235569,24.87093,51.817245,70.693531,85.471401,17.350101,50.90086,57.221432,56.540966,12.524529,44.827938,47.53973,44.923954,9.762096,36.110229,39.114761,36.12196,-13.646656,-17.24053,-11.11705,-3.221951,-30.794282,-34.626235,-33.53316,-32.178726,-21.909231,-9.815166,3.962277,12.669425,-8.270819,5.526878,15.469188,20.586198,5.778881,14.813028,18.220478,19.713572,82.302675,179.8687,-61.779871,97.930071
79,4.059219,2.06975,-17.427292,41.406337,-20.457687,-40.644722,-61.237106,-77.717285,-44.135056,-77.978554,-97.822437,-113.55875,-41.934013,-77.777824,-99.697037,-114.867382,-38.868713,-71.533928,-94.518013,-112.329826,-35.464783,-63.195076,-80.574303,-94.455299,-24.800139,-36.400201,-37.302806,-32.214078,-17.029467,-8.464746,-2.556158,1.541414,0.384767,9.689628,13.840552,16.889232,16.803152,22.703897,25.930295,28.614215,30.83797,37.901477,40.59997,41.353819,32.795219,57.248096,76.455975,83.093319,40.942783,67.113934,83.294506,89.420986,29.626007,69.794025,75.439739,70.473347,23.266754,63.727856,64.13126,56.394367,19.437561,52.055569,53.729038,46.604118,-16.926097,-31.655052,-36.107411,-37.904286,-56.155022,-61.324087,-57.589484,-53.633259,-48.77239,-38.258085,-24.112332,-19.427297,-35.461625,-20.45504,-9.707474,-9.636646,-19.112988,-8.087822,-2.15651,-4.057311,86.22817,181.213917,-79.340887,138.611875
80,1.576424,17.634374,-0.959644,9.322583,-18.228951,-42.739906,-63.797264,-77.15229,-46.520576,-72.650642,-91.627121,-107.528114,-45.137672,-76.958771,-101.820145,-122.282238,-41.671486,-71.889839,-93.639793,-110.020752,-37.744446,-60.980415,-74.935455,-87.817841,-24.743637,-33.161885,-32.368887,-28.322567,-20.448896,-12.417082,-6.327379,-1.251743,-3.211639,9.027293,15.58673,22.414412,10.736482,22.021,28.131573,33.301627,20.845519,27.427619,31.319068,34.647168,28.396168,52.728367,74.312439,88.168602,34.425888,66.729126,82.411308,86.535416,23.07724,61.93903,77.55867,80.457001,16.941204,52.928123,67.216702,70.431919,14.382706,41.932869,52.443466,55.373898,-22.417129,-35.885449,-40.177751,-40.622694,-49.941263,-53.190446,-42.544953,-33.592471,-37.815983,-32.84208,-17.47055,-7.044919,-21.799439,-14.669057,-2.131315,5.468308,-3.967711,2.151817,7.480013,10.224571,87.532682,197.902645,-80.572443,146.988813
81,-0.624619,9.526174,2.234974,5.055321,-21.276741,-46.214333,-66.230965,-78.632812,-47.544594,-71.716805,-87.605553,-100.89489,-44.899521,-72.742882,-94.336739,-112.803726,-40.080414,-66.476898,-85.550194,-99.92157,-34.653282,-52.817001,-65.226746,-76.079407,-20.386528,-25.310197,-19.687328,-12.461295,-18.21032,-9.074532,-2.123535,2.312615,-1.604955,11.216901,19.739013,26.248803,12.239302,21.620857,27.073912,30.710394,22.421328,27.737544,31.111895,33.20474,20.081177,45.429039,68.130569,80.746365,28.298378,57.902699,76.006336,87.971134,16.423931,50.67421,71.690426,82.865696,10.142841,42.806797,64.213314,76.600399,9.296494,34.299946,50.280647,60.955467,-24.555422,-32.437491,-29.088334,-26.173468,-37.23096,-32.468892,-24.043634,-16.424745,-25.306616,-15.447792,-4.698157,4.170499,-9.912176,-0.95003,8.381877,13.117517,6.970448,12.49359,16.487051,17.810918,86.649513,206.829068,-78.59602,151.444383
82,1.249695,20.61519,-10.879612,23.075573,-32.968369,-63.283653,-87.748032,-104.252872,-70.761108,-112.882175,-126.77742,-128.485565,-64.458275,-109.65374,-125.75592,-127.847271,-57.01046,-97.536507,-113.226929,-117.919693,-48.818092,-79.824257,-93.298302,-99.838085,-20.912642,-23.956072,-17.425287,-7.200036,2.490641,22.583052,26.556259,25.894171,21.801847,44.349393,45.050137,42.823417,36.320172,54.404521,56.980687,58.004261,44.724712,61.084187,62.721808,62.238549,27.538948,58.769531,83.54084,96.997604,48.748627,94.692192,92.866287,83.510742,39.045753,87.155685,86.858139,77.945366,31.650925,76.811543,78.136082,70.617199,26.422691,59.967613,63.808994,60.284557,-22.720755,-30.459687,-23.186971,-13.203597,-29.505952,-15.738451,-9.962564,-9.367537,-11.739186,3.770357,6.808168,5.715803,6.139288,17.587073,17.676179,15.48089,22.185565,26.953437,24.428586,21.445856,87.652302,226.561675,-89.722538,173.637373
83,4.943848,6.287674,-2.137985,13.505865,-33.548126,-63.619881,-89.425964,-105.936298,-69.442978,-105.714912,-123.593674,-137.319088,-63.129044,-100.762711,-122.889061,-139.400024,-55.67688,-88.343582,-110.101547,-126.780624,-47.022285,-73.321838,-88.971519,-102.710037,-17.056205,-21.554908,-19.149544,-14.738959,8.088563,25.705647,35.462274,43.578315,26.307775,43.928008,53.037058,59.148867,40.387301,56.310139,64.887518,70.208366,49.816651,64.566231,72.139301,75.956835,28.631573,59.523067,84.443893,99.641762,46.587181,87.757072,100.345116,102.035294,33.865929,77.473011,97.516251,106.23127,24.621048,65.325451,87.085991,99.353371,19.043941,50.481434,68.845253,82.267799,-17.846116,-24.825703,-18.819056,-10.175048,-26.657715,-15.388203,-4.279489,0.942126,-11.054991,3.784003,16.015896,19.357951,7.675885,19.66553,27.921499,30.043057,27.274601,33.05586,37.419082,36.962994,92.29022,232.197172,-92.166452,186.491061
84,-5.07534,9.621146,-0.382462,10.594086,-30.987282,-60.54657,-85.384827,-101.407757,-65.912361,-97.976418,-115.9655,-131.458511,-59.103813,-91.667175,-113.257027,-130.925732,-51.174889,-81.103477,-102.314644,-119.427166,-42.857323,-67.843552,-84.00032,-99.186058,-14.152886,-22.006365,-28.934576,-38.477237,11.710348,30.67285,41.483618,49.904645,29.222765,47.091543,58.445653,65.955306,42.997923,59.857453,70.097215,75.747872,52.766159,67.147892,75.781835,81.301148,33.794003,64.541817,87.637711,102.24781,47.444515,76.813145,94.234657,108.869133,31.952591,62.805004,86.271172,104.918175,18.673668,49.321346,71.182308,88.81382,8.538551,31.289349,46.887589,59.89769,-14.786877,-16.914117,-14.534194,-9.606141,-13.546126,-3.319887,8.041262,17.85155,1.226054,17.841608,31.738168,40.271581,17.207864,34.313222,44.361805,49.007288,32.958788,45.727847,51.664408,53.538657,87.062645,241.151121,-92.701149,196.417949
85,-5.165863,8.831544,-1.070023,18.401376,-32.283554,-61.299591,-82.146492,-94.431152,-68.258972,-93.558712,-113.688183,-133.255405,-60.305328,-87.374611,-108.21991,-128.465195,-50.714722,-75.379028,-93.293495,-108.631668,-41.094475,-57.8825,-70.667953,-83.4478,-7.335208,-3.495012,3.91442,10.395991,20.91789,31.51142,38.187072,44.162227,29.486686,39.751272,46.648299,52.008111,35.974432,46.404385,53.499013,57.069113,39.732809,50.352891,59.135097,65.709293,30.317001,60.734138,84.405556,101.025124,51.452579,75.703125,93.088989,108.774834,37.807045,64.361801,86.854477,106.171303,25.649414,50.529499,71.778431,89.716644,14.706516,34.503021,48.972301,62.407379,-13.133572,-14.347399,-12.607582,-13.317897,-6.108042,7.391833,18.435956,29.852743,7.457412,25.897197,37.363631,47.465133,20.945493,39.622028,49.279669,56.764437,33.877202,48.126233,53.873776,58.525003,81.574888,249.247155,-94.093065,214.083816
86,-4.978981,9.880189,6.217918,28.043826,-20.665512,-44.326057,-68.87455,-88.292828,-53.50914,-83.912659,-105.300751,-123.182201,-56.773567,-90.026779,-110.978622,-127.259617,-57.327919,-88.322182,-100.517063,-108.309631,-56.519737,-83.314247,-91.859837,-96.004257,32.8322,54.164744,69.916163,83.462166,47.591598,50.694803,55.120332,59.012152,29.966363,25.46871,22.07886,17.909842,10.85529,4.575088,-1.640708,-7.241656,-7.411531,-12.506434,-16.429438,-20.290074,29.980659,58.9254,81.576347,95.626717,63.630981,101.690826,109.075584,105.959473,56.457253,97.314491,103.332825,95.973587,46.906013,81.419792,85.269699,79.308128,35.231838,60.604706,64.099102,58.464031,-19.120398,-21.573618,-17.851241,-12.967031,1.477749,24.513679,33.963344,38.043317,21.48692,48.623324,59.408034,61.976048,38.483907,63.776134,74.416718,78.280318,51.324781,72.453981,80.773244,83.045844,76.467476,258.559179,-88.003578,241.559476
87,-4.734535,4.615411,-5.90189,3.670815,-32.527771,-60.246048,-80.237045,-92.579384,-55.560379,-84.131241,-97.39048,-108.177395,-51.088371,-87.194653,-107.988338,-125.416031,-45.964851,-78.90461,-99.936047,-116.300354,-40.603752,-62.288933,-77.000542,-91.191216,-7.964692,-0.462881,10.111012,16.894974,23.497946,17.032184,9.11714,3.583315,33.814773,29.651375,24.117797,16.807289,41.593287,45.36,46.165349,43.301797,45.86833,59.334674,67.220016,71.870811,32.476387,63.094597,87.010403,103.015079,55.40102,87.585468,103.661327,113.784084,44.339905,80.835915,100.191135,111.285954,34.554119,69.872532,87.736759,97.598705,25.624695,53.234997,66.523304,73.302727,-12.675075,-13.189147,-9.412245,-7.331935,7.760421,27.758354,36.759773,42.92938,26.231452,46.645088,54.129917,56.278584,41.704561,59.454655,64.699118,64.133237,52.609313,67.759406,71.183281,70.272216,71.565285,262.873341,-94.073124,244.929042
88,-4.016304,6.489907,0.106773,9.892292,-25.287666,-49.420624,-70.400963,-86.863346,-46.7173,-75.336571,-94.472122,-110.561943,-47.172546,-76.521263,-97.108898,-114.11293,-45.493698,-71.965942,-90.850983,-106.090851,-42.027054,-59.421844,-74.012489,-88.960533,-13.902117,-17.225771,-16.986489,-17.559224,19.374315,16.589372,10.158005,3.847853,34.948572,34.299081,30.000326,24.692137,46.064881,52.468214,51.590555,48.095111,52.775731,69.102416,76.780524,81.120466,32.559586,60.470467,83.266811,102.684231,56.357174,85.82262,102.461758,114.74802,45.693398,79.759426,100.019245,114.477024,35.51548,66.590881,85.757961,99.778347,25.39856,49.568138,63.794632,75.260811,-10.96323,-10.672509,-7.013612,-9.01062,10.923833,26.991599,35.594481,42.657679,27.458864,46.717459,56.361207,63.411622,40.48851,59.801013,68.77588,74.436972,49.195565,66.080227,72.251934,75.839509,67.369595,268.846582,-94.145737,254.304668
89,-4.546509,2.35868,1.564007,9.429658,-25.075951,-51.262436,-71.88961,-89.536572,-49.893494,-72.705803,-91.348629,-109.088058,-46.236992,-70.267639,-90.158443,-108.804646,-41.530952,-64.751816,-83.385372,-99.662762,-36.428032,-54.568062,-68.524246,-83.314934,-13.036315,-14.96126,-13.122889,-13.479312,22.911502,29.040848,28.899687,26.190573,38.779197,46.340658,46.706221,43.918375,49.748849,60.329103,62.09041,60.03795,55.381536,69.483848,76.330981,79.809876,31.588097,58.75288,81.426086,101.214867,55.436096,84.025612,100.59494,113.119812,44.549561,77.371788,97.303162,111.44783,34.539871,63.81752,82.258987,95.865898,25.046997,48.02948,62.271767,74.005337,-10.298363,-10.485652,-7.225477,-8.60245,15.145215,30.417327,39.357057,47.081169,31.250525,49.302023,59.205616,66.862111,43.300315,61.771469,70.877802,77.176962,50.62237,67.432253,74.977041,80.485116,62.760029,271.043368,-92.644787,263.572433
90,2.509804,2.128722,2.974205,7.545159,-30.195351,-57.464905,-76.562462,-88.616982,-61.547241,-78.984547,-87.124329,-90.021172,-55.596771,-73.288422,-79.73505,-79.96645,-47.981987,-64.87278,-69.832191,-68.819504,-39.971466,-53.165474,-57.155914,-57.468452,-9.888896,-7.282967,-4.668763,-3.47661,25.211211,36.422554,44.705878,50.903335,34.085363,46.424824,53.235339,57.454436,39.180945,50.798421,55.827745,58.261143,40.988194,50.736485,53.997401,55.634219,29.973049,56.869926,80.183945,100.015755,54.894047,84.205399,101.561394,114.892044,44.295273,77.884598,98.479958,113.792496,34.613571,64.950085,84.113045,99.067039,25.363998,49.327068,63.850479,76.489449,-10.327262,-11.289025,-8.644934,-10.728455,14.716667,30.026323,38.968153,46.327259,31.120664,49.227675,59.580441,67.573476,43.657603,62.109305,71.063177,77.202712,52.118706,68.944273,75.589544,80.402433,65.390997,272.979876,-89.549417,270.925379
91,-1.432686,1.44039,3.162231,6.598217,-27.600517,-54.247513,-73.528061,-88.67775,-67.376175,-77.089806,-73.418541,-64.851494,-60.151634,-69.633293,-62.455444,-50.088158,-50.499573,-58.863602,-51.763,-40.97374,-40.047798,-46.608467,-43.209,-37.512703,-6.77754,-5.163261,-2.635816,-1.818179,17.21515,34.826244,48.194529,56.854901,25.734546,46.137994,59.835408,66.81444,31.150304,50.049141,61.88157,68.222658,33.954823,48.595166,57.389536,63.102684,28.335686,54.079399,77.573318,96.850319,54.389763,84.677925,101.810188,114.43325,43.701782,78.038635,98.131142,112.56443,33.690205,65.105553,83.808975,98.000107,24.253235,49.340973,64.14957,77.027893,-12.029598,-13.5565,-11.372141,-14.145723,15.97761,31.740762,39.861126,45.962375,32.403714,50.200121,59.809844,66.30185,44.200389,62.329569,70.687117,75.872731,51.899986,68.503746,74.841993,79.0572,64.03204,274.541452,-86.313457,277.64478
92,-0.139847,3.084618,2.511292,6.339112,-27.346687,-51.607819,-67.730713,-80.572987,-64.347954,-74.560204,-68.671074,-58.899422,-57.790833,-68.239403,-57.89978,-44.149132,-48.681335,-57.639198,-48.751259,-37.296638,-38.26046,-44.876404,-41.347618,-35.914307,-5.912664,-4.23404,-0.8516,2.031527,16.74029,33.470144,43.773323,49.207421,23.350239,42.823602,54.950704,61.111727,27.864318,44.809433,56.360898,62.412809,29.91474,43.20559,51.742214,56.672058,27.140007,52.488728,76.18927,95.183487,54.91785,84.985199,102.356186,115.15686,45.494442,79.364662,100.202179,114.591637,36.316795,67.605572,86.768074,100.896606,27.734699,52.463665,67.280216,80.251579,-13.80344,-15.103472,-12.886199,-15.893506,17.532856,33.019427,40.761262,46.104154,33.770436,50.155352,58.377172,63.121642,45.135229,61.966971,69.039801,72.639047,52.33403,67.697224,72.985652,76.080521,63.984404,277.35389,-83.709955,283.711712
93,-0.340919,6.174115,1.758957,4.010319,-24.655495,-47.225189,-65.329857,-79.207706,-57.415581,-69.130554,-64.649391,-55.860786,-51.729584,-62.601128,-55.117836,-44.294243,-44.484673,-53.518295,-46.119232,-36.127853,-36.402855,-43.570862,-38.980408,-31.542206,-10.671706,-12.343599,-9.775152,-7.127541,13.034894,27.686538,35.562433,39.495317,24.138051,39.475618,48.028729,52.327917,32.607614,46.234386,54.390195,58.597683,37.899315,49.527227,56.034053,59.306207,27.027512,51.927853,75.245361,94.133377,55.128536,85.036812,101.972237,114.369507,46.059093,79.547424,100.027771,114.263191,36.897697,67.857456,86.967316,101.091499,28.165855,52.218304,67.203999,80.459175,-13.855743,-15.134347,-12.094621,-15.391105,19.046235,35.718229,43.581527,48.813948,34.863912,51.230241,59.185176,63.465036,45.939034,62.922003,69.481811,72.334865,52.858414,68.392533,73.583952,75.909658,63.559227,283.429976,-82.035255,287.624002
94,-11.22591,8.644563,-0.367355,2.408451,-15.268936,-34.040966,-53.610306,-68.942785,-59.143724,-59.374008,-45.803203,-34.466114,-61.212358,-58.673916,-43.111439,-28.917904,-59.143238,-57.946901,-42.921753,-30.067348,-54.668569,-61.967869,-57.359676,-51.367864,-12.308771,-16.749984,-14.511285,-10.798727,10.380677,26.844448,32.376544,34.783513,24.438035,37.978263,43.982163,47.203775,34.547688,45.800929,50.042843,52.372779,41.781749,52.15977,54.994331,56.593388,26.883717,51.764545,75.14843,94.437447,54.804211,86.027412,103.00621,115.200233,45.633659,81.007919,101.457367,115.106163,36.577148,68.950825,88.435364,101.836739,28.415337,52.919655,68.139782,80.801582,-14.365122,-15.776366,-12.473768,-15.001954,18.464052,35.071085,42.731717,47.999213,34.717131,50.103482,57.249486,61.290186,45.582549,61.815867,67.681169,69.774199,52.231154,67.064035,71.920767,73.86998,52.351713,292.030789,-82.384214,289.988703
95,-11.22591,8.644564,-0.664158,-1.49436,-5.882378,-20.856743,-41.890755,-58.677864,-60.871868,-49.617462,-26.957016,-13.071442,-70.695133,-54.746704,-31.105042,-13.541565,-73.801804,-62.375507,-39.724274,-24.006844,-72.934284,-80.364876,-75.738945,-71.193523,-13.945837,-21.15637,-19.247418,-14.469912,7.726459,26.002357,29.190655,30.07171,24.738018,36.480908,39.935597,42.079633,36.487763,45.367472,45.69549,46.147874,45.664183,54.792314,53.954608,53.880569,27.257767,52.706451,75.920963,95.108585,54.469643,86.293888,103.361835,115.87492,45.511436,81.112347,101.288738,115.467052,36.613197,69.02813,88.668194,102.673473,28.3675,53.274021,68.628101,81.547794,-14.66597,-15.731782,-11.358927,-12.565777,19.134971,34.621295,41.430945,46.064881,35.283877,50.273604,56.731586,59.997503,45.750818,61.835195,67.479306,69.041715,51.986437,67.174136,71.973748,73.200853,41.160908,300.77738,-83.013268,288.59637
96,-23.609276,6.079328,0.277405,-0.952562,2.425232,-3.826218,-14.129906,-23.6269,-41.763153,-22.163315,-0.211029,14.002075,-52.257729,-31.134224,-6.153603,13.265648,-55.693188,-38.343716,-14.533768,2.647591,-55.575371,-46.023617,-31.300793,-19.030495,-21.72046,-30.957272,-29.779815,-25.454446,-3.660441,10.847818,17.148954,21.560774,16.231466,26.813758,32.783602,36.394643,30.554474,38.559736,40.871177,43.081719,41.275766,49.265528,47.299581,45.096202,27.719593,53.708897,77.284985,96.697598,54.310226,86.65266,103.966541,116.725216,45.037193,81.418133,101.619358,115.602665,36.240807,69.002666,87.97205,101.308651,28.404579,53.467484,68.61414,81.225414,-14.063224,-15.072782,-10.224139,-10.415689,19.546043,34.996367,42.153857,47.089197,36.070021,50.580627,57.011809,60.507438,46.6554,62.238734,67.558409,68.741361,52.86144,67.660482,71.891559,72.542408,17.596292,306.940349,-82.691202,287.727449
97,-19.321175,15.607046,1.509075,0.19297,6.113663,7.127037,4.78363,3.361359,-20.848789,2.840652,21.415215,33.843613,-29.539776,-2.827835,18.475914,36.86451,-31.591816,-8.829231,10.644379,26.207085,-30.685616,-20.39978,-9.455566,1.026535,-21.344771,-35.571448,-43.806422,-49.487027,-13.214712,-3.345082,3.254926,6.899806,3.891943,12.626786,18.50067,21.002921,16.591718,23.962803,27.27281,28.313243,25.602956,33.514604,34.866012,33.04703,26.796513,52.915592,77.295341,97.86644,54.375401,87.183037,104.342651,116.724701,45.631027,82.019806,101.940422,115.578117,36.882706,70.23674,88.796997,101.82106,28.910751,54.839973,69.980736,82.874565,-14.63034,-15.577035,-10.169861,-9.806706,18.643623,34.421162,41.324055,45.594775,35.462274,49.972756,56.072276,58.785836,46.665466,61.921831,66.593435,66.95449,53.588798,68.444774,72.187281,72.331283,-1.533308,322.677473,-80.990553,288.050497
98,-11.36158,-1.918771,0.037251,-0.09491,7.037544,10.310211,9.259186,6.624298,-10.736217,17.344551,35.28717,46.684341,-17.678547,12.240486,31.183434,48.132133,-20.118542,7.254982,26.368332,41.237755,-19.593773,-12.517776,-4.473267,4.584618,-21.547374,-34.163107,-40.722174,-44.304315,-10.054079,3.242144,9.328079,10.607856,6.142313,19.377773,24.586174,25.996615,18.176604,28.948161,31.390451,30.430727,26.528718,36.921374,38.894114,36.217605,27.222462,53.139496,77.31245,97.592754,54.06292,86.650486,103.955326,116.352024,45.284157,81.823025,101.956501,115.699711,36.599178,70.077953,89.010029,102.089367,28.677063,54.126835,69.326305,82.111874,-14.487573,-15.361959,-9.919401,-9.456335,19.11731,34.643031,41.264836,45.219518,35.863651,50.313989,55.956124,58.41095,46.935315,62.173773,66.618753,66.884341,53.705939,68.596865,72.601812,72.936314,-12.744255,320.769447,-80.80267,287.966331
99,57.114143,-19.506955,0.716858,0.487767,-5.300102,-19.831009,-40.991364,-60.697689,-60.630054,-50.841751,-27.214165,-12.302628,-71.577473,-56.146545,-31.316071,-11.141853,-75.010471,-65.399265,-40.862846,-22.074165,-74.877892,-87.24638,-87.67725,-85.854607,-13.80307,-22.12085,-21.207994,-19.611252,6.06846,26.214841,30.451042,31.466404,24.059628,36.879569,40.314127,41.243224,36.700678,46.630638,47.307238,46.77075,46.859424,55.171523,55.043453,54.22316,26.852417,52.534904,76.658535,96.892719,54.329109,86.733227,103.876476,116.173267,45.81665,82.027416,101.925602,115.685978,37.099457,70.600376,89.311924,102.338734,28.994522,54.645252,69.90572,82.82793,-14.597674,-15.652803,-10.271502,-9.928108,18.697963,34.180829,40.623991,44.360384,35.29987,49.57533,54.9922,57.057689,46.513436,61.64099,66.108818,66.253376,53.525566,68.416369,72.333506,72.54778,44.550762,301.279982,-79.904938,288.471588
100,-22.834396,3.558553,0.686359,-0.146842,3.191071,-4.704094,-18.433228,-32.162132,-41.109066,-21.157036,-1.121635,10.131912,-53.123131,-28.783493,-6.861763,9.277153,-58.166256,-39.611206,-18.543549,-3.722191,-59.345627,-55.81953,-47.146683,-39.410248,-18.67635,-26.36403,-24.459709,-20.540101,0.686479,17.151115,21.135869,22.717421,19.587663,32.470404,34.903618,35.648513,32.861593,42.428461,42.201652,42.27248,42.813907,53.077937,50.197033,47.103276,26.528206,52.13522,76.127243,96.543388,54.006443,86.184425,103.183823,115.308495,45.613976,81.954575,101.949577,115.650902,36.964989,70.597229,89.359245,102.242203,28.923912,54.415627,69.6381,82.364159,-14.666217,-15.840277,-10.438537,-9.586134,18.489247,33.974768,40.16889,43.496496,35.296597,49.425709,54.403101,55.774022,46.631935,61.545215,65.679158,65.293342,53.723908,68.403834,72.215934,72.137696,21.82045,304.901875,-79.114494,288.388086
101,-15.197868,8.739783,-0.111694,0.135419,5.351486,2.042084,-5.420265,-13.185425,-29.125214,-3.191986,16.239738,27.427025,-37.329082,-8.679428,13.539734,30.358543,-38.91449,-14.687233,5.586433,19.719543,-37.59367,-23.438873,-9.911385,0.992432,-21.560218,-32.657879,-36.266202,-39.787087,-4.516363,7.773574,13.40163,16.668474,13.214773,23.418967,27.83406,29.099635,26.056821,34.667175,36.242861,36.494802,35.305428,45.216183,44.072628,40.769969,26.27037,51.895237,75.85659,95.905495,54.554958,86.553955,103.455276,115.464249,46.235962,82.328453,102.171707,115.818787,37.472305,70.816154,89.627953,102.599487,29.244518,54.625111,69.790077,82.553673,-14.928903,-16.278705,-10.767358,-9.679995,17.693716,33.238703,39.448695,42.778709,34.616231,48.536997,53.52995,54.947493,46.166522,60.865899,65.139213,64.824409,53.50809,68.334426,72.278425,72.219021,6.705523,313.643928,-79.143248,288.525774
102,-9.832764,10.220743,-0.26453,0.471773,4.595833,5.681992,3.853912,1.575165,-17.726154,8.590164,26.975784,37.583427,-25.151482,1.228752,20.386276,35.429535,-26.555214,-4.466629,12.462845,24.689369,-25.075607,-15.872154,-8.097954,-1.581573,-20.227397,-33.958281,-43.60283,-51.163674,-12.533358,-2.77951,2.522628,5.87586,4.183467,13.021742,16.973768,18.472883,16.41011,24.049254,25.637721,26.031751,24.909993,32.675786,32.642997,30.772392,26.398659,52.116508,76.255016,96.450863,54.024582,86.020832,103.184109,115.662975,45.721149,81.997433,102.021847,115.554943,37.303391,70.867023,89.797268,102.810688,29.573021,55.071487,70.378017,83.149166,-15.213017,-16.694841,-11.196585,-9.425398,17.257079,32.980525,39.43511,42.974458,34.489458,48.572936,53.703345,55.140957,46.277611,61.045161,65.126739,64.582409,53.548722,68.126266,71.918729,71.741629,-3.080292,323.876882,-79.360828,289.009759
103,-14.262199,0.684503,0.000744,-0.202294,5.721016,10.162239,15.789528,21.774101,-5.138397,21.036186,37.802696,47.491837,-11.19833,16.318703,34.639893,50.374603,-13.710079,11.31855,29.382019,42.920837,-13.501854,-7.429104,-2.444057,3.064671,-20.6967,-34.941162,-44.056387,-49.092442,-13.176673,-0.989365,4.790041,6.906475,3.453145,15.987984,20.390542,22.000499,15.501762,25.619814,27.264412,26.835247,23.665104,33.094825,34.386273,32.251067,26.640301,52.487698,76.562691,96.854095,53.054981,85.236168,102.743568,115.483475,44.673271,81.362801,101.668396,115.274963,36.510429,70.709038,89.847908,102.727547,29.196167,55.113945,70.769234,83.455353,-14.654484,-15.845156,-10.468794,-9.046065,17.161057,33.27211,40.017663,43.756404,34.506871,49.19044,54.492701,55.822805,46.396543,61.764491,65.732017,64.979959,53.603001,68.471265,72.247488,71.8161,-17.311535,324.567437,-79.329128,288.813516
104,1.463928,0.735818,-0.027695,0.119734,5.911789,10.540581,17.433586,25.143242,-3.608208,21.88076,38.424225,47.936783,-11.213608,14.128876,31.316872,45.488663,-15.470009,6.354446,23.257599,35.739441,-16.494656,-12.833748,-10.705204,-8.011036,-19.168933,-32.448359,-43.097712,-50.149239,-13.634306,-0.50413,6.125826,9.579527,2.395484,15.664536,20.01936,21.814939,14.079588,24.601302,26.414541,26.331549,22.154628,30.12815,31.633748,30.563799,26.40358,52.21384,76.400185,96.781311,52.937164,84.987946,102.385826,114.93084,44.548473,81.233139,101.554298,115.181923,36.241608,70.230217,89.517174,102.567787,28.56863,54.08392,69.742126,82.699814,-14.501837,-15.860038,-10.795331,-9.557544,17.619245,33.351089,39.976784,43.785488,34.672239,49.114363,54.183578,55.43001,46.260136,61.662665,65.624077,64.833981,53.316664,68.456013,72.679741,72.616941,-15.821285,325.314956,-79.330502,288.944951
105,-5.990639,1.088351,-0.420685,0.273925,7.23444,13.835678,22.504692,31.706085,2.873783,27.832489,43.653259,54.195328,-4.440422,20.820236,37.886353,53.831635,-9.323215,12.9673,30.234032,44.072342,-11.300411,-9.510727,-9.402809,-7.465439,-20.280935,-34.782649,-44.761083,-51.018993,-14.696907,-2.504164,5.015677,9.004507,1.311579,14.496588,19.562284,21.600294,12.833403,23.780269,26.187609,26.289806,20.255617,29.310204,31.865559,30.823459,26.755142,52.433796,76.480179,96.617088,53.222523,85.543213,102.977142,115.601578,44.628696,81.398506,101.855965,115.757332,36.059246,70.044136,89.619026,102.965126,28.02578,53.560925,69.321785,82.546234,-14.446571,-15.894927,-11.027512,-10.05235,17.169579,32.760878,39.144883,42.88103,34.092402,48.406333,53.573299,55.322935,45.628429,61.009778,65.140324,64.721163,52.822599,67.985969,72.32233,72.515979,-21.778307,326.412956,-79.717569,289.228525
106,1.61087,-3.097277,0.220699,0.848451,6.722488,12.609558,20.076485,28.274918,-0.831356,22.385445,38.059731,48.305054,-7.94363,17.447433,34.934464,51.49086,-11.713428,12.170334,30.318604,45.429611,-12.377644,-8.583813,-4.931316,1.066132,-20.579498,-34.36818,-42.636992,-49.467761,-12.205586,1.511094,7.976424,9.431758,3.911703,17.801224,22.481534,23.036053,15.92821,28.025548,30.373854,29.23246,24.089638,34.891268,37.714496,36.133562,26.80418,52.326164,76.464214,96.84351,52.590694,85.36314,102.733898,115.328693,44.159374,81.362743,101.825352,115.645466,35.855885,70.187588,89.610615,102.825108,28.213062,53.757191,69.271603,82.274723,-14.498194,-16.300936,-11.521268,-10.709991,16.598819,31.763609,38.026151,41.643181,33.784391,47.591413,52.667914,54.297817,45.534136,60.385481,64.362331,63.900747,52.699098,67.463684,71.711803,71.740949,-20.154247,323.304671,-79.483681,290.065968
107,42.122841,-25.465993,-0.144539,0.188956,2.468719,-6.319199,-20.221939,-32.600327,-41.105118,-22.651062,-1.569672,10.97065,-52.397461,-31.239853,-8.293762,10.060501,-58.278809,-40.457783,-16.158485,1.592445,-60.324497,-58.96019,-46.423416,-34.143276,-14.852394,-22.780715,-23.445149,-22.117083,4.621463,26.438933,29.639333,28.885361,23.555868,42.682502,43.887994,41.737103,36.718956,51.536462,50.726358,49.067557,46.991014,60.775682,58.571254,54.387663,26.566944,51.97649,75.790386,95.732174,52.524834,85.336246,102.748775,115.447025,43.871326,81.085567,101.697178,115.645695,35.239506,69.657497,89.496975,103.052502,27.143784,53.011951,68.918839,82.350483,-14.818493,-16.663657,-11.811187,-10.389136,16.183795,31.573603,37.552463,40.935151,33.487372,47.257158,52.103577,53.550575,45.263361,60.146198,64.048207,63.561366,52.494766,67.428486,71.662094,71.660859,21.993628,297.840206,-79.603186,290.256453
108,-29.28257,13.476348,0.078964,0.534697,7.022552,9.738235,13.878593,17.830467,-19.01762,8.368149,27.281685,37.342758,-28.420258,0.685387,22.310028,38.467941,-31.188183,-5.488129,15.104942,29.591904,-31.436977,-12.091999,3.148842,14.044304,-22.302952,-34.162613,-34.756713,-30.625055,-9.862961,3.215776,10.040987,14.960149,11.699295,22.994124,28.210552,30.150997,27.553528,36.01284,37.89382,38.60185,38.772219,47.234125,45.135043,41.594151,26.510067,51.88345,75.999241,96.376934,52.642536,85.59763,102.987843,115.668011,43.703556,81.298542,101.802006,115.363941,34.908714,69.691944,89.27393,102.408085,26.837025,53.226585,69.054279,82.067013,-15.023319,-16.934371,-12.154951,-11.008122,15.419016,31.3082,37.797489,41.686159,32.993245,47.142673,52.387012,54.184628,44.969676,59.925193,63.988803,63.805095,52.105924,66.68958,70.713546,70.710829,-7.257557,311.345006,-79.492836,290.819601
109,-12.03392,12.790116,0.004234,0.876362,6.883907,13.290825,21.258087,29.02771,-1.270695,26.102715,43.45871,53.42926,-8.964443,16.563721,35.415344,51.530342,-13.918877,8.05006,25.693359,40.265236,-15.877476,-6.123104,3.204861,12.763138,-19.453788,-32.716295,-42.934691,-50.545491,-14.798548,-4.503581,2.284765,7.39313,1.864245,13.776146,19.482502,22.350068,15.245621,24.961307,28.016285,29.357813,24.833978,33.387151,35.270477,34.679093,26.483974,51.310215,74.802189,94.450207,51.972198,85.354671,102.549992,114.772167,43.530064,81.56496,102.293415,116.052876,35.232353,70.292873,89.924641,103.007183,27.699051,53.975716,69.72971,82.604084,-15.305395,-17.623321,-12.798884,-11.368807,14.6522,30.213489,36.723341,40.735697,32.212658,45.818373,51.185719,53.374524,44.196931,58.68049,62.8069,62.867847,51.516454,65.95191,69.980322,69.963587,-19.245701,324.117894,-79.442825,291.678735
110,-4.909687,-1.694123,0.634346,0.310234,8.441162,16.583462,23.71233,30.166912,3.403301,28.628254,45.182247,56.264591,-3.997536,22.643795,40.778103,57.709408,-9.020634,15.591145,33.63905,49.082165,-11.19381,-4.59383,2.107487,11.149635,-21.02478,-34.426596,-42.49052,-45.394333,-10.705731,2.657552,10.097489,13.833019,5.441693,19.244331,24.567895,27.206429,17.222622,28.677818,31.188095,31.664562,24.847193,35.840371,38.190036,36.486713,26.180477,50.608521,73.85416,93.396091,51.700745,84.902515,102.155514,114.446697,43.300724,81.100788,101.863003,115.404453,34.974461,69.675121,89.201603,102.080326,27.42342,53.503761,69.036427,81.714306,-15.39765,-17.905767,-12.807406,-11.49311,14.299296,30.132225,36.823747,41.064765,32.000484,45.579399,51.073087,53.481414,44.099736,58.209952,62.395642,62.499444,51.531954,65.688545,69.770308,69.840025,-24.064035,322.425608,-78.717127,291.990806
111,2.8335,-14.995408,0.751534,-0.09843,7.685108,18.110046,28.30822,33.806419,-1.442757,25.605125,42.219429,52.75898,-11.120796,19.410095,41.166687,57.80674,-15.806065,7.793541,27.693443,43.530693,-17.125397,-8.132572,-0.135612,8.069973,-17.093687,-23.001226,-21.537432,-16.67996,-7.265615,3.664516,11.587897,18.64035,12.986173,24.451805,32.921368,35.411021,28.94779,37.045678,41.616196,42.389435,41.825901,49.673452,49.030259,47.024235,25.708408,50.049248,73.303814,93.067188,51.451321,84.616871,101.847553,114.134274,42.991848,80.615101,101.271458,114.798603,34.540672,69.177532,88.69669,101.600475,26.713028,52.762527,68.246441,80.984173,-15.150958,-17.603499,-12.616288,-11.29168,14.403531,29.979516,36.525739,40.690743,32.014748,45.493628,50.991885,53.400151,44.029402,58.141286,62.375697,62.602012,51.416542,65.723804,69.861143,69.9986,-21.138697,307.387299,-77.873755,291.849475
