takenoko1/special-research/HandMotion_SimilarSearch_自分用/NewProject/handData/key/d4_feature_d2/115.csv
,vel_0x_L,vel_0y_L,vel_0x_R,vel_0y_R,posFromWrist_1x_L,posFromWrist_2x_L,posFromWrist_3x_L,posFromWrist_4x_L,posFromWrist_5x_L,posFromWrist_6x_L,posFromWrist_7x_L,posFromWrist_8x_L,posFromWrist_9x_L,posFromWrist_10x_L,posFromWrist_11x_L,posFromWrist_12x_L,posFromWrist_13x_L,posFromWrist_14x_L,posFromWrist_15x_L,posFromWrist_16x_L,posFromWrist_17x_L,posFromWrist_18x_L,posFromWrist_19x_L,posFromWrist_20x_L,posFromWrist_1y_L,posFromWrist_2y_L,posFromWrist_3y_L,posFromWrist_4y_L,posFromWrist_5y_L,posFromWrist_6y_L,posFromWrist_7y_L,posFromWrist_8y_L,posFromWrist_9y_L,posFromWrist_10y_L,posFromWrist_11y_L,posFromWrist_12y_L,posFromWrist_13y_L,posFromWrist_14y_L,posFromWrist_15y_L,posFromWrist_16y_L,posFromWrist_17y_L,posFromWrist_18y_L,posFromWrist_19y_L,posFromWrist_20y_L,posFromWrist_1x_R,posFromWrist_2x_R,posFromWrist_3x_R,posFromWrist_4x_R,posFromWrist_5x_R,posFromWrist_6x_R,posFromWrist_7x_R,posFromWrist_8x_R,posFromWrist_9x_R,posFromWrist_10x_R,posFromWrist_11x_R,posFromWrist_12x_R,posFromWrist_13x_R,posFromWrist_14x_R,posFromWrist_15x_R,posFromWrist_16x_R,posFromWrist_17x_R,posFromWrist_18x_R,posFromWrist_19x_R,posFromWrist_20x_R,posFromWrist_1y_R,posFromWrist_2y_R,posFromWrist_3y_R,posFromWrist_4y_R,posFromWrist_5y_R,posFromWrist_6y_R,posFromWrist_7y_R,posFromWrist_8y_R,posFromWrist_9y_R,posFromWrist_10y_R,posFromWrist_11y_R,posFromWrist_12y_R,posFromWrist_13y_R,posFromWrist_14y_R,posFromWrist_15y_R,posFromWrist_16y_R,posFromWrist_17y_R,posFromWrist_18y_R,posFromWrist_19y_R,posFromWrist_20y_R,posFromBody_0x_L,posFromBody_0y_L,posFromBody_0x_R,posFromBody_0y_R
2,20.114708,-19.530235,0.105171,0.316471,-1.730461,-7.055969,-15.583649,-23.261719,-34.451866,-19.206047,3.099861,17.69783,-45.538559,-24.870872,-1.648979,18.244514,-51.444626,-37.319584,-13.48732,5.238991,-53.717995,-60.402031,-60.049839,-57.245178,-18.684193,-23.542715,-20.093708,-15.313732,-1.436623,17.612761,24.224748,26.955228,17.095293,31.509136,37.364989,39.857977,30.465245,40.915082,44.203106,47.377263,42.120265,51.570424,55.177636,59.326091,25.612049,49.560928,72.275505,90.533752,53.106365,83.409805,99.910469,112.88063,44.540005,79.091263,99.358864,113.011665,35.227432,68.372841,87.495575,100.675392,26.315918,52.869644,68.114548,80.317268,-15.624892,-20.260619,-20.370349,-25.899111,8.472342,24.562214,32.747725,38.382945,26.421705,41.55494,48.785234,52.858229,39.962952,54.604778,60.249198,62.836849,49.217919,62.195138,65.571219,65.989207,18.144064,295.769329,-71.423006,286.050864
3,-45.722179,12.843715,-0.236492,0.285657,4.718628,13.103714,25.128078,36.187649,9.946289,41.928806,61.478291,72.018185,3.601799,37.379322,55.816097,70.524845,-2.501392,26.067638,44.613476,59.338474,-5.977192,-2.516899,-3.700218,-4.162273,-22.818506,-33.406479,-41.561424,-50.546602,-6.98922,3.865144,11.617476,18.545254,10.700852,24.06006,28.41013,31.204768,22.83839,33.546776,34.498844,34.458027,30.543853,40.75731,44.332412,44.376007,25.308437,49.168968,72.125416,90.888691,52.659588,83.389034,100.132198,113.475094,44.375668,79.256001,99.75832,113.642292,35.236588,68.664608,87.897205,100.997715,26.322556,52.919655,68.095951,80.221653,-15.040918,-19.988361,-20.425369,-26.224597,7.960307,23.654607,31.681605,37.292926,26.050893,40.648999,47.794387,51.915918,39.833585,54.006478,59.401241,61.693169,49.420028,62.274796,65.426291,65.414187,-27.214479,308.866067,-71.295862,286.589544
4,39.430332,-8.390584,0.29932,-0.536488,0.697174,-4.480476,-10.618515,-16.839867,-29.015179,-3.851395,15.746498,26.286621,-38.831978,-8.37204,11.926231,28.963737,-43.787842,-21.394386,-0.833817,14.228554,-45.932293,-51.611252,-56.92297,-60.701981,-22.099361,-31.226628,-33.55326,-34.699347,-0.762247,18.034887,20.766293,21.303954,18.82696,33.221598,34.178915,33.019427,31.093061,42.149843,40.142708,38.649706,40.475357,49.068359,50.740561,52.402696,25.542698,49.284153,72.342567,91.248779,52.06192,82.626343,99.37912,112.889557,43.864918,78.570557,99.099655,113.2061,34.891434,68.218346,87.579575,101.009216,26.052361,52.650661,67.949867,80.210037,-14.765388,-19.468114,-20.155334,-26.160192,8.964554,24.283535,31.888469,37.2271,26.837902,41.023948,47.899177,51.789144,40.464304,54.486032,59.767298,61.913989,49.92033,62.838639,66.009647,65.909179,12.379417,300.557533,-70.832977,286.135107
5,-29.085331,9.479676,-0.990086,0.522779,3.894596,8.616314,18.6759,27.547245,-0.396137,30.581532,51.596317,63.90089,-7.620907,23.507481,42.972393,58.770161,-12.762909,11.883717,31.270123,46.382504,-14.397469,-15.810413,-18.034229,-19.908028,-20.772715,-31.833881,-42.192945,-53.61498,-6.249142,4.76318,12.001007,18.1955,11.565111,23.504368,26.921327,28.807926,23.93872,32.942054,33.373566,33.147312,32.06174,39.474074,43.557012,45.2859,25.30529,49.388866,72.496548,91.164951,52.851734,83.429317,100.337391,113.824139,44.426022,78.94495,99.560452,113.651447,35.398178,68.230305,87.585812,101.102772,26.626225,53.058872,68.227444,80.53339,-15.243336,-20.098895,-20.820695,-26.809065,7.960184,23.558091,31.44862,36.907233,25.91214,40.398293,47.492304,51.427534,39.572381,53.860624,59.443911,61.79586,49.067433,62.203845,65.545407,65.704476,-16.44805,310.147928,-71.565199,286.768605
6,25.725918,-9.665915,1.325054,-0.678205,-0.092468,-4.557266,-8.59623,-12.73922,-26.271572,-2.15229,18.192673,29.553337,-35.675068,-6.19194,14.583664,32.385864,-40.736332,-18.96904,1.610413,16.836777,-43.170261,-48.19519,-52.136707,-54.631004,-21.375584,-30.507112,-33.689172,-35.034467,-0.48752,17.505995,20.889176,21.796166,19.226547,33.38993,34.782834,33.609514,31.526117,42.180595,40.840117,39.999756,40.528092,49.076387,51.442724,53.900638,25.310841,48.768768,71.525459,90.271797,52.069302,82.402382,99.213638,112.606544,43.750477,78.241425,98.925247,113.027229,34.666443,67.781525,87.192993,100.629959,25.719967,52.193584,67.575417,79.959641,-14.750877,-19.442858,-19.696961,-25.142606,8.72169,24.335467,32.097185,37.54777,26.589913,40.981587,47.94092,51.99218,40.316597,54.381921,59.694432,62.002477,49.961209,62.957941,66.188785,66.339641,9.405069,300.534068,-70.112944,286.142455
7,-24.765644,10.279035,-0.366211,0.441824,4.813557,8.263493,15.408497,22.652264,-2.114124,28.053989,48.843441,60.429783,-8.970623,21.133747,41.064777,56.673603,-13.33849,9.796886,29.532681,44.655819,-14.486904,-18.469162,-21.920471,-25.689068,-21.302595,-31.757125,-41.418965,-51.343862,-6.182575,5.378461,13.549337,20.805196,10.645154,22.585028,27.470474,30.461849,23.148068,32.755815,34.405107,35.354766,31.643072,38.71652,43.471487,46.232039,25.001106,48.719501,71.601448,90.461311,52.258186,82.55825,99.347878,112.802811,43.918705,78.335838,98.742943,112.879715,34.875698,67.571068,86.788559,100.31765,25.868053,51.989079,67.10495,79.516983,-15.012451,-19.993981,-20.638223,-26.626222,8.764606,23.986948,31.536368,36.80022,26.439674,40.498822,47.336137,51.292609,39.812096,53.709212,59.125649,61.567816,49.182536,62.196682,65.623274,65.938448,-15.182676,310.970196,-70.301256,286.741373
8,7.613697,-10.48769,-0.198612,-0.203344,-2.834473,-3.602829,1.605835,-0.140762,-13.86097,11.792107,29.959488,41.192894,-17.228107,10.97683,34.345207,48.903923,-17.7178,5.313148,26.915703,40.722198,-15.911121,-8.287926,1.539116,10.9338,-6.763893,-8.023046,-10.036727,-9.761011,3.772888,16.391091,23.618545,28.036046,15.067039,25.808585,33.442418,36.488195,22.756385,31.175313,37.11033,40.256637,29.304399,36.969972,39.487474,41.1175,24.957561,48.808994,71.817341,90.64333,51.4674,82.296925,99.375286,113.160839,43.227482,78.044071,98.867512,113.259258,34.437389,67.62949,87.303944,101.153126,25.80328,52.546062,68.061047,80.727596,-15.015724,-19.716721,-20.218382,-26.107271,8.108138,23.748776,31.446027,36.888276,26.032924,40.343705,47.292232,51.137492,39.718174,53.801652,59.221794,61.575844,49.340432,62.239537,65.615926,65.871634,-7.38719,300.506157,-70.318079,286.561679
9,-0.51281,-1.441069,0.321579,-0.291956,4.271965,6.1726,8.311386,8.470116,-8.345432,19.515724,38.630791,47.800026,-16.114426,17.294998,36.195488,51.748123,-21.873379,5.247002,23.902359,36.50322,-25.621147,-26.575241,-30.196609,-33.377151,-22.110229,-31.460353,-34.425608,-35.154201,0.13301,16.918995,19.350541,19.155348,20.029981,36.316591,36.558714,33.896345,32.523633,45.758476,43.258695,41.07798,41.42477,52.054115,54.69092,55.791003,25.000534,48.913422,71.749706,90.488491,51.265526,81.977406,99.177303,112.948437,42.864132,77.483196,98.477154,112.911587,34.000683,66.958065,86.710567,100.554371,25.412178,51.871662,67.278385,79.770069,-14.941377,-19.508252,-19.878013,-25.810993,8.378605,24.022084,31.696548,37.055249,26.237318,40.791396,47.817667,51.740608,39.83939,54.050383,59.595137,62.024954,49.218351,62.254419,65.764065,66.084859,-7.768164,299.065921,-69.864664,286.270557
10,8.13343,-3.171501,-0.443287,0.225698,-11.32473,-18.118114,-17.044945,-21.918411,-25.212593,-1.002045,18.447075,31.137314,-24.99012,2.785721,26.313629,40.523186,-22.014256,2.87075,24.947777,38.284149,-16.624775,-4.570084,8.276711,18.958511,0.891305,5.255639,8.690815,13.827585,15.07871,27.813744,33.347075,35.909841,21.018605,32.88228,38.771108,40.205261,23.65331,32.454411,36.178517,37.637432,26.129934,33.676019,34.099689,33.369799,24.610004,48.560944,71.643791,90.288048,51.877441,82.543259,99.722099,113.459244,43.669167,77.976837,98.828888,113.237801,34.764404,67.357063,86.93985,100.820045,25.927448,52.221565,67.576561,80.231895,-15.166395,-19.792921,-20.09062,-26.067628,8.388608,23.918405,31.449176,36.653254,26.018721,40.294182,47.19689,50.965579,39.530144,53.618932,59.084523,61.430854,48.869832,61.931279,65.512803,65.922332,0.443888,295.904763,-70.22933,286.506598
11,-19.52076,3.823092,-0.30407,-0.55211,9.470673,16.110535,21.142044,22.52758,5.481777,35.626831,52.128067,58.427467,-2.633114,32.773018,48.904152,61.450768,-10.38929,18.958511,35.445213,45.986938,-16.671638,-15.283127,-19.622841,-23.796787,-23.235445,-33.444394,-36.518514,-39.053739,-2.060179,14.983614,16.708118,16.176632,18.077618,35.902307,35.12067,31.94145,31.05385,45.942677,42.450321,39.696252,40.417621,52.094562,53.868466,54.110713,24.736862,49.079647,72.319794,91.031799,51.69096,82.133904,99.112701,112.864494,43.555756,77.972946,98.781509,113.168449,34.743176,67.764244,87.387199,101.266594,26.091614,52.755318,68.210335,80.794945,-14.910563,-19.300956,-19.540177,-25.574242,8.134135,23.771871,31.394712,36.617747,25.967345,40.412125,47.298469,50.774153,39.692918,53.999686,59.378949,61.453516,49.285042,62.389652,65.81643,66.033112,-18.945265,299.824648,-70.401793,286.051281
12,-0.625534,-0.600399,0.026722,-0.296587,9.498482,16.576881,21.224785,21.825943,6.088657,35.482178,52.621307,59.475403,-2.161503,32.949028,49.928856,62.879333,-9.899597,19.098129,36.32618,47.001572,-16.139145,-13.950005,-17.216091,-20.954247,-22.440408,-32.091072,-34.532127,-36.152767,-2.271489,14.73124,16.671623,16.423881,17.82827,35.494013,35.035146,32.056244,31.022728,45.977319,42.981127,40.253365,40.749282,52.782461,54.629046,54.50326,24.887638,49.044628,72.198658,90.616779,52.154102,82.381954,99.236584,112.80138,43.940105,78.023586,98.724804,112.978649,34.965706,67.739811,87.239056,101.067638,26.086349,52.666283,68.008404,80.509586,-14.895002,-19.405314,-19.669297,-25.354534,8.095417,23.897224,31.709948,37.193817,25.868668,40.317647,47.534109,51.518616,39.570961,53.859142,59.461201,61.923684,49.246386,62.438991,65.934867,66.295428,-19.489174,299.23538,-70.293446,285.765824
13,-11.857681,0.797815,-0.377712,0.389522,13.759747,25.862732,34.54216,37.523918,17.956066,51.319771,66.910858,73.058167,8.870201,50.174789,65.127411,75.543251,0.250225,34.279289,48.849449,57.100182,-6.914177,-1.007023,-4.565964,-8.472805,-22.331913,-33.433834,-37.69486,-41.518445,-4.295914,13.38576,15.328861,14.347091,16.731027,35.793194,34.728617,30.556327,30.801291,46.6709,42.934012,39.436345,40.745577,54.095584,54.969043,54.129485,25.082073,48.814945,71.557274,90.067062,51.800423,82.338638,99.301414,112.849159,43.602104,78.052483,98.73127,113.096809,34.620037,67.756462,87.464447,101.29509,25.712013,52.713432,68.302231,80.881348,-15.141695,-19.947174,-19.817868,-24.758889,7.299207,23.074956,30.878602,36.318752,25.164034,39.539592,46.869304,51.162316,39.039228,53.146295,58.970655,61.69249,49.094048,61.858599,65.491252,65.973646,-31.226921,300.016615,-70.551224,286.138766
14,-4.111004,-0.635412,0.706272,-0.526608,15.259151,29.082127,38.131657,41.420574,22.009678,57.28838,72.24226,77.484226,12.590561,56.075993,70.089054,78.32468,3.411655,39.81348,53.433323,59.575138,-3.841152,5.839634,3.887501,0.639324,-22.426823,-32.80114,-36.209392,-39.158653,-3.753684,14.326281,16.084006,14.828806,17.42504,36.68697,35.747499,31.596821,31.367542,47.259258,43.275368,39.206201,41.202715,54.939527,54.438607,51.628964,24.872704,48.178654,71.052647,89.723339,52.087841,81.911488,98.722172,112.266827,43.977013,77.587566,98.096523,112.515392,34.87318,67.312145,86.849728,100.814953,25.519581,52.167549,67.711544,80.427647,-14.762486,-19.389197,-19.522825,-24.51232,8.6127,24.004546,31.517102,36.677275,26.035764,39.926705,47.115564,51.334846,39.598687,53.205575,59.029257,61.82902,49.427809,62.169883,65.96142,66.693841,-35.222769,299.353956,-69.729795,285.584911
15,3.189754,0.922304,-0.458736,1.155041,13.865204,26.193466,34.326324,36.717453,18.398266,53.434525,68.582039,73.810387,9.58334,52.404785,66.458817,75.242729,1.167526,36.735649,50.449677,57.166672,-5.488014,2.2756,-0.349617,-3.671837,-23.255205,-33.93463,-37.972428,-41.790888,-4.236819,13.687782,15.375914,13.810294,16.80099,35.780906,34.693419,30.331555,30.741887,46.262482,42.112114,38.015962,40.523029,54.1787,53.817522,51.278407,24.633865,48.013,70.758934,89.146156,51.96619,82.479057,99.437027,112.845726,43.744469,78.144608,98.577118,112.589378,34.837017,67.783699,87.241058,100.811462,26.02478,53.038216,68.497009,80.977707,-15.630017,-20.422714,-20.398631,-25.668844,7.329218,22.681235,30.288268,35.673522,24.976189,38.879788,46.18832,50.648985,38.708555,52.24406,57.924974,60.733815,48.625238,60.984522,64.50306,65.078389,-31.963577,300.288687,-70.119095,286.75238
16,1.545525,-1.20086,0.708275,-0.488816,12.890568,24.315605,32.685013,35.440178,15.556469,49.7089,66.094322,72.773666,6.698341,48.474655,64.293823,75.647049,-1.409969,33.22998,48.947754,57.915916,-7.868671,-1.554852,-3.930187,-6.694279,-22.665736,-32.985094,-36.693577,-40.27967,-3.297101,14.828929,17.209346,16.295625,17.63882,36.531173,36.057301,32.258106,31.271397,47.139894,43.609438,40.038103,40.891308,54.448117,54.98516,53.117643,24.365044,47.50906,70.228615,88.901367,51.143589,81.695023,98.71685,112.327652,43.145142,77.634888,98.301888,112.459488,34.298229,67.556877,87.090111,100.54882,25.421276,52.533188,68.140755,80.580254,-15.312805,-20.316935,-20.33262,-25.121858,7.666252,23.24866,30.973513,36.406437,25.354163,39.261653,46.544188,51.045114,39.131977,52.49841,58.04971,60.766604,49.050143,61.513043,64.939203,65.321932,-30.376282,299.086808,-69.369049,286.262544
17,-0.976925,-1.608042,-0.337086,-0.112756,13.289738,25.743198,34.818478,37.927151,18.010769,49.691792,66.034641,73.110523,8.587875,47.469921,63.416576,75.366611,-0.606308,31.352062,47.040768,56.589718,-8.300972,-2.828522,-5.235558,-7.770596,-22.060088,-32.246744,-35.584107,-38.733872,-3.566272,14.954715,18.159067,18.462447,17.276777,36.576683,36.716918,33.590619,31.048972,47.35812,44.831108,42.367081,41.001347,54.576558,56.366455,56.038252,24.140053,47.250366,70.203266,89.117947,51.848602,82.037144,99.113445,112.73798,43.707905,77.678547,98.236141,112.515621,34.574661,67.068386,86.488323,100.005741,25.383797,51.813583,67.109928,79.452152,-15.387029,-20.368806,-20.476622,-26.197798,8.018909,23.031175,30.675567,35.997526,25.562015,39.464256,46.72382,51.136998,39.13136,52.681561,58.397179,61.232326,48.848219,61.498347,65.039424,65.479705,-31.330805,297.492721,-69.683733,286.163744
18,5.205059,-0.026367,-0.120277,-0.366056,11.989803,21.449203,28.25798,29.614105,12.483845,44.112167,59.590187,65.202942,3.146496,42.472687,57.622375,68.06694,-5.747623,26.392708,41.794281,50.382729,-12.962208,-8.057842,-10.770493,-14.354725,-21.454625,-31.048539,-34.204109,-36.964785,-2.645882,16.287289,19.16881,18.602126,17.578058,37.381538,37.148245,33.464401,31.366122,48.558795,45.422862,42.465882,41.319362,55.518622,57.426154,57.187921,24.282017,47.363491,70.102329,88.741207,51.490231,81.689243,98.805943,112.519741,43.356628,77.567883,98.342113,112.643795,34.44191,67.514706,87.024937,100.528164,25.564041,52.576389,68.020878,80.298786,-15.264146,-20.036774,-19.98725,-25.551271,8.231268,23.417609,31.0168,36.335733,25.955304,39.911453,47.118405,51.443527,39.668773,53.229843,58.741438,61.339648,49.500921,62.042244,65.276546,65.338914,-26.112614,297.434923,-69.790878,285.766256
19,-8.149967,1.540179,-0.24931,0.094849,14.044189,27.491512,37.255268,40.645123,21.42786,55.0704,70.008717,75.667248,12.465134,53.173656,67.166119,76.463299,3.492451,36.856327,49.850178,56.470814,-4.072495,2.813301,-0.537872,-4.388695,-23.007463,-34.190462,-38.21838,-41.894011,-3.999204,14.238842,16.052575,14.810651,17.239418,36.702531,35.641906,31.512717,31.13604,47.297975,43.194784,39.454623,40.702537,54.376981,54.381303,52.333165,24.422493,47.716541,70.644035,89.569244,52.434711,82.230263,99.019775,112.453766,44.348202,77.867661,98.150482,112.426529,35.222282,67.4366,86.460686,99.916306,25.958748,52.489414,67.471046,79.650192,-15.153428,-20.43809,-20.953459,-26.385025,7.894728,23.413965,31.24293,36.56847,25.311741,39.580656,46.925126,51.12329,38.89572,52.751957,58.662336,61.460926,48.787148,61.291792,64.838365,65.318536,-34.247761,298.96956,-70.025368,285.855563
20,2.778854,0.754467,0.589485,-0.201306,13.261871,25.253391,34.364834,38.120556,18.844986,53.003139,67.370739,71.850414,10.126019,50.89365,63.774433,72.29044,1.535454,35.0564,47.156467,52.934818,-5.628319,-0.885544,-6.254768,-11.929951,-22.946947,-34.546577,-39.216081,-43.596161,-3.076653,16.029789,16.15823,13.521796,17.789059,37.895919,35.073061,29.984148,31.301531,47.593513,41.74402,37.333188,40.468256,52.897564,52.209912,50.472996,24.710312,48.103695,70.691528,89.321823,51.197376,81.739082,98.882675,112.324448,43.07539,77.849236,98.782654,112.936935,34.407177,68.138123,87.642632,100.970764,26.035767,53.614769,68.976059,80.967064,-15.623966,-20.515525,-20.219802,-24.817552,7.424808,23.334987,31.094914,36.48554,25.611848,40.199086,47.224554,51.227216,39.695388,53.710817,58.938916,61.105738,49.634487,62.062499,65.11513,65.06468,-31.447992,299.738399,-69.414968,285.668629
21,-1.741447,-0.344073,-0.175896,-0.309184,13.220673,26.759548,36.285496,40.601406,19.720345,53.341312,68.69276,74.822445,11.512642,51.391354,65.867901,75.703068,3.305798,36.979694,50.526409,57.068195,-3.541203,3.802643,0.639725,-3.444328,-23.797003,-35.483022,-39.501306,-41.744081,-3.601778,13.881184,15.239755,13.932004,17.953624,36.87784,35.324261,31.060148,31.606146,47.195161,42.644773,38.690647,40.758792,53.574287,52.695455,49.967137,24.855251,48.167152,70.797043,89.740562,51.687355,81.749496,98.549194,111.980553,43.458138,77.943306,98.435555,112.542,34.492321,67.688599,86.986084,100.19577,25.78022,52.941914,68.21125,80.216675,-15.267419,-20.316009,-20.647979,-26.006248,7.742761,23.338939,31.06373,36.513327,25.572389,39.858224,46.91574,50.93032,39.365764,53.45517,59.02055,61.477043,49.250461,61.804567,64.985454,64.899251,-33.152332,299.384661,-69.553757,285.349781
22,-1.305599,0.156599,0.2742,0.450902,14.626808,28.830872,37.573242,41.216011,21.557293,56.66748,70.839615,75.288277,13.158016,55.338593,67.893562,74.565811,4.814529,40.93689,53.070831,57.054977,-1.629696,7.538052,3.958282,-1.338387,-24.093096,-35.531866,-39.529341,-42.083091,-4.008096,14.130409,14.687212,12.448883,17.574044,37.328803,35.045335,29.947221,31.301901,47.482794,42.056477,37.093411,40.565081,53.726996,52.202502,48.875513,24.640503,47.767982,70.430832,89.097404,51.768036,81.758537,98.530769,111.745377,43.689823,78.100204,98.557549,112.590408,34.868488,68.072433,87.254562,100.385513,26.326618,53.491745,68.550797,80.360298,-15.693744,-20.703369,-20.800132,-26.065219,7.357623,22.495428,30.121974,35.439982,25.240666,39.155874,46.192272,50.253412,39.129445,52.799999,58.273185,60.762714,49.168333,61.379724,64.483485,64.530169,-34.430122,299.533542,-69.251747,285.792963
23,2.614632,-0.43639,-0.27071,-0.375072,13.723354,27.056351,35.344734,39.266052,19.247303,53.140411,67.633324,72.501411,11.257782,51.02314,63.859863,71.783524,3.159828,36.731529,49.064369,53.844566,-3.392773,1.580887,-4.080276,-10.917377,-24.098778,-35.556752,-39.420352,-41.907658,-2.823476,15.086984,15.548321,13.391194,18.590764,37.885175,35.747993,31.082317,31.784049,47.428577,42.281619,37.73895,40.650975,52.895588,52.694097,50.994231,24.858398,48.089447,70.483303,88.905659,51.159439,81.584301,98.495693,111.832981,42.784252,77.587795,98.293247,112.403698,33.913307,67.42178,87.03558,100.369434,25.578117,52.608433,67.927608,79.760342,-15.754383,-20.457911,-20.398693,-25.376023,7.764188,23.025741,30.632774,36.032662,25.619258,39.863966,47.019481,51.236108,39.435542,53.267881,58.898284,61.537435,49.295292,61.675262,64.902832,64.9045,-31.79738,299.102493,-69.504347,285.423233
24,-6.928139,0.163145,0.173092,0.195687,15.968342,32.657089,43.061371,46.959229,28.775139,63.954277,76.412315,79.549828,19.50983,62.544823,72.773552,76.682739,10.037498,47.116241,56.77494,58.588371,1.999569,15.437222,13.574924,9.499283,-23.713023,-35.58281,-39.359404,-41.785886,-4.892423,14.473432,14.730561,12.367558,16.859591,37.718263,35.486418,30.636541,30.64006,47.715593,42.466993,37.544374,39.85952,53.834627,50.892343,45.804603,24.592094,47.650566,70.312271,88.979416,51.905594,82.09877,98.937721,112.061577,43.571949,77.886772,98.204727,112.057343,34.608021,67.513504,86.514702,99.532585,25.98175,52.573357,67.502518,79.30172,-15.453967,-20.22326,-20.521329,-26.066146,8.501982,23.477939,31.156356,36.48696,26.02045,40.028593,47.001758,51.002568,39.509581,53.201438,58.649059,61.141676,49.047488,61.417269,64.628352,64.798906,-38.715076,299.260574,-69.320812,285.613856
25,-1.656532,-1.34443,0.299034,-0.013956,16.352577,34.15638,44.929733,49.0979,29.753838,65.417519,78.570328,82.28302,20.814342,62.104912,73.294258,79.105339,10.414867,45.851555,55.993309,58.672714,1.515541,9.88163,4.549999,-2.185593,-23.574825,-34.631916,-36.678201,-37.929511,-3.457838,17.191932,18.434783,17.521494,18.272194,39.56318,38.199299,34.911583,31.245955,48.621966,43.336871,39.324206,39.809997,52.659455,51.333241,48.922628,24.069901,47.040253,69.87957,88.325272,52.683735,82.733459,99.696236,112.912331,44.350948,78.243484,98.472176,112.434311,35.03746,67.118111,86.190262,99.461746,25.757275,51.593857,66.53904,78.864784,-16.050291,-20.8491,-20.749929,-25.933444,8.508281,23.576678,31.514261,37.338992,25.857553,40.355747,47.699847,52.47692,39.048491,53.276156,59.067418,62.092448,48.268568,60.996378,64.617298,65.422894,-40.402651,297.886596,-69.05282,285.570353
26,-7.288914,-2.308971,-0.979156,-1.502326,18.423328,39.688396,55.449772,63.243084,36.474667,71.768589,85.255451,90.796909,26.800518,66.652851,80.361385,89.165668,15.617123,49.476871,61.128902,65.884495,5.531445,14.035435,10.526562,5.848789,-22.585337,-34.296611,-36.890128,-38.968709,-1.683625,20.060671,22.946453,23.016293,19.502509,42.773769,43.625987,41.319609,32.076437,51.574932,48.33637,45.071379,40.480236,54.839429,54.861907,52.709102,23.946877,47.69474,70.872116,89.353867,53.799419,82.761383,99.10675,112.413826,46.168041,79.086571,98.995056,113.370552,36.998405,68.136635,87.027626,100.334587,27.276535,52.303963,66.899757,78.999596,-16.908868,-21.395221,-20.954508,-26.445664,9.189758,23.659053,32.352893,38.964942,26.779363,40.577122,48.630117,53.917619,40.008462,53.355011,59.680415,63.133251,49.484125,62.134994,66.315929,67.693395,-47.729101,295.495698,-70.069513,283.9861
27,26.124172,-6.157442,-0.671425,-8.991416,9.809418,18.619995,28.99601,33.608665,-2.891521,24.085121,43.067322,53.692703,-15.578613,17.175407,37.841492,55.786972,-23.181782,2.781944,21.344604,34.471436,-27.304974,-28.675804,-32.696915,-35.609608,-21.369101,-30.839391,-34.117288,-36.299609,-0.88334,24.234011,33.239197,37.240191,18.66116,42.445998,48.38083,47.910724,31.263369,50.330106,52.58875,52.554911,40.56576,52.132106,56.273459,58.985167,24.336033,49.515209,71.426125,89.044876,51.992226,81.253738,97.35157,110.406761,42.04565,74.072685,92.632599,106.724396,30.039597,60.278778,79.06826,93.510132,17.922077,43.471642,58.727932,71.652489,-15.733264,-18.850981,-18.549577,-23.434343,7.868423,27.940765,38.758511,47.391156,23.646888,44.791896,56.192381,63.838934,36.22557,56.17577,65.794632,71.514449,45.803553,62.988137,69.658911,72.716915,-21.623955,289.246031,-70.759964,274.90246
28,49.392014,1.666211,5.392399,-7.27037,-18.485298,-35.513763,-44.046535,-44.953995,-56.856651,-73.425865,-78.068676,-78.541203,-56.046066,-75.408096,-82.18792,-80.25341,-50.563889,-68.459129,-71.936989,-70.850201,-44.264202,-57.192764,-63.129387,-65.103951,-14.250204,-11.874789,-5.333815,-0.18062,14.895249,19.100082,17.170196,17.763865,27.238539,28.918335,26.865011,25.635869,33.987489,36.274353,32.712651,29.959633,38.006082,40.828323,39.991481,40.098001,18.746223,42.158318,61.293812,80.486698,41.749077,66.30724,81.106281,89.909878,34.386806,60.423832,71.062145,73.799458,25.984211,44.103756,46.888332,42.713127,16.864128,26.015453,24.275093,16.989269,-23.465527,-28.851213,-26.677722,-28.842753,-7.523855,11.919188,25.295007,36.323877,13.594971,35.924969,48.891197,57.66871,31.790532,53.843889,63.627192,69.157436,44.519021,64.779023,72.26836,74.902632,27.536087,290.786858,-65.599537,267.506706
29,9.133301,5.531417,1.198769,-38.164595,-19.958611,-40.076065,-58.58923,-71.989574,-49.028893,-79.31694,-94.318027,-104.742107,-43.972549,-75.940475,-94.000511,-107.374134,-36.318626,-65.941086,-82.731972,-95.371227,-28.206253,-50.801067,-62.574863,-72.270126,-19.050558,-25.077151,-25.491435,-22.289305,-1.744079,9.320051,15.59766,19.396237,14.183637,25.346198,31.060087,35.577315,26.600781,36.847582,41.997505,45.690674,35.080347,44.550823,48.543481,51.190659,17.077103,35.000839,42.096119,47.47982,62.408237,55.944958,36.707611,16.966381,58.884487,52.979336,29.250698,3.184376,50.243912,43.860798,20.503864,-3.305283,37.17144,38.228016,26.230259,10.607643,24.932717,48.838216,70.375895,88.073131,40.736747,82.641935,97.464751,101.025588,38.448524,83.118772,96.141069,97.747321,39.095483,78.555416,92.000333,94.109974,38.847369,69.709299,83.607464,89.341916,36.312904,297.042515,-64.757252,230.06635
30,3.793488,-7.22628,-30.432873,-55.256862,-18.216934,-39.174156,-59.038239,-75.300922,-50.29232,-78.679619,-95.40184,-108.340015,-45.878448,-76.678333,-96.437531,-111.51535,-37.946091,-66.621666,-84.996758,-98.83152,-28.083916,-51.931572,-66.077614,-77.975006,-21.559354,-23.792866,-13.044466,-4.207241,1.937913,14.086751,20.640384,26.923365,19.2489,29.190964,34.371947,39.212129,32.763966,42.612292,48.469566,53.418244,42.533746,51.735236,55.647989,58.298564,32.212601,61.615849,81.944618,89.692841,71.836395,99.482689,87.655907,75.168114,66.426258,95.005188,86.481743,72.187328,58.387356,86.075821,79.913635,67.758522,48.136024,71.854534,74.75853,70.450745,23.591745,29.213255,21.595539,9.841842,23.908525,33.045054,31.344818,29.23635,8.601709,17.615972,17.395585,17.697545,-6.05963,1.451443,3.377624,4.57762,-19.158436,-23.862212,-23.490474,-22.421081,38.950167,291.5207,-96.34635,176.513954
31,3.720818,-1.403649,-16.526642,-52.784684,-20.276871,-42.549019,-63.530216,-79.791012,-52.988091,-82.26963,-99.356346,-112.587891,-47.893295,-79.698544,-99.765358,-115.243549,-39.547234,-69.484291,-88.319836,-102.934055,-29.280739,-54.663162,-69.486122,-81.609364,-22.233236,-24.887269,-14.601317,-4.41077,3.605298,15.229936,21.369595,26.564657,20.864661,30.875268,35.858526,40.175991,33.83231,43.612896,48.991418,53.126905,42.801742,52.300438,56.092777,58.619913,32.522907,61.561947,78.421955,84.186058,69.410419,93.708858,96.111546,90.386925,62.355366,85.442963,82.301273,72.891083,52.509441,74.467621,71.732426,63.983746,41.419201,59.925556,59.74062,54.273319,-4.589352,-12.629441,-17.007453,-18.860706,-33.941978,-44.464959,-41.550278,-38.363555,-29.656191,-30.882184,-24.544554,-20.557885,-20.867378,-18.538832,-13.225425,-9.683854,-8.742932,-8.476572,-7.382046,-6.936362,39.645567,292.670925,-115.898409,126.283143
32,2.168312,-0.947684,1.02808,-68.55398,-21.282349,-44.573593,-66.288757,-82.593155,-55.753326,-85.714188,-102.602177,-115.707836,-50.708427,-83.201065,-102.821503,-117.867794,-42.583809,-72.930794,-91.690521,-106.326542,-32.637291,-58.042374,-73.027554,-85.401478,-22.284674,-24.799521,-14.161284,-4.789547,4.991286,15.792174,21.619004,26.377244,22.377053,31.388908,36.326903,40.747491,35.056512,44.345132,49.434972,53.350565,43.375033,52.927328,56.633402,59.151275,13.549004,30.345154,37.624512,37.939854,55.79258,74.467278,81.25042,81.501503,56.229286,73.347759,75.125141,73.121796,53.410206,65.722961,62.221584,58.07951,49.285355,58.161507,55.217743,51.494007,-32.044172,-55.903605,-74.180307,-87.18729,-39.723423,-48.32615,-51.00794,-52.349313,-22.513367,-24.251085,-21.23467,-18.716951,-6.037307,-1.179711,2.751104,4.490953,9.216558,14.650872,16.399273,16.512616,39.711142,292.577373,-116.973066,58.583295
33,0.666618,-1.431004,-6.359882,-46.60722,-22.520943,-46.192017,-68.132057,-84.044552,-57.074661,-88.177471,-105.006924,-117.524872,-51.880875,-85.393867,-104.797955,-119.650383,-43.836823,-74.923668,-93.259163,-107.282295,-34.278603,-59.425449,-73.77737,-85.516033,-21.553487,-23.906487,-13.076699,-3.500199,5.692338,16.848229,22.844256,27.373587,23.628857,32.796323,37.703814,41.807375,36.675113,45.872096,50.686035,54.367533,44.980729,54.316589,57.730522,60.037579,22.869987,42.752895,52.787132,55.48007,45.506315,52.655725,56.192951,56.541853,37.933416,55.528478,60.027981,58.758144,30.645275,46.854229,47.247076,43.725529,23.867368,36.666269,37.926492,35.31621,-24.228299,-48.252852,-65.145496,-77.652918,-55.083421,-77.26731,-87.668156,-94.693917,-45.468743,-45.130597,-33.866473,-26.396186,-33.578624,-27.70849,-17.168205,-9.981846,-21.004526,-17.372676,-10.869338,-5.809417,39.208717,290.964993,-124.501991,11.794699
34,0.073814,-0.058663,-6.359883,-46.607219,-23.011322,-46.564865,-68.638287,-84.444351,-58.056221,-89.431286,-106.065388,-118.185768,-53.052406,-87.242374,-106.444187,-121.193733,-45.243416,-76.834145,-94.719315,-108.371429,-36.131859,-61.173878,-75.142193,-86.649456,-21.190827,-23.969163,-13.081516,-3.029907,5.483313,17.111039,23.23773,27.743102,23.598908,33.169851,38.150948,42.246483,36.743409,46.004551,50.513875,54.014073,45.151407,54.197472,57.166308,59.17579,32.190971,55.160637,67.949753,73.020287,35.220051,30.844173,31.135483,31.582203,19.637547,37.709198,44.93082,44.394493,7.880344,27.985497,32.272568,29.371548,-1.550617,15.171032,20.635242,19.138412,-16.412426,-40.6021,-56.110685,-68.118547,-70.443419,-106.20847,-124.328372,-137.038521,-68.424119,-66.01011,-46.498276,-34.075421,-61.11994,-54.23727,-37.087514,-24.454645,-51.22561,-49.396223,-38.13795,-28.13145,35.131702,293.216505,-135.012703,-32.502345
35,0.410042,-0.941262,-6.667042,-45.010091,-23.499069,-47.165794,-69.396286,-85.487709,-59.192162,-90.513268,-106.875858,-118.752251,-54.484749,-88.303642,-107.219467,-121.362362,-46.899948,-78.307743,-95.889874,-108.931847,-37.833023,-62.235088,-75.777912,-86.617699,-20.967846,-23.440086,-12.414241,-2.757403,5.466764,17.30932,23.461143,28.113419,23.374939,33.611799,38.681755,42.6281,36.5928,46.580435,51.42315,54.905317,45.203339,54.773974,57.861248,59.713081,31.903267,56.32021,73.039112,82.537537,36.693707,33.684483,34.147511,34.782543,21.200066,39.396744,45.800056,44.305115,9.27063,26.93058,31.405792,28.861542,-2.443085,12.573395,20.234585,20.890274,-15.765127,-37.014988,-49.972725,-58.393382,-73.811858,-111.287488,-132.341353,-148.932978,-72.106635,-74.856705,-52.307076,-37.627428,-65.441188,-65.736833,-47.197445,-33.972545,-56.10874,-60.48757,-47.353736,-36.57304,35.114336,292.281079,-142.107153,-77.506601
36,0.627365,-1.890859,-9.016342,-18.343979,-24.186172,-48.141747,-70.560036,-87.239285,-59.351463,-91.242714,-107.478733,-119.375038,-54.279099,-89.225521,-108.46756,-123.27055,-46.221886,-79.087372,-97.167263,-110.660763,-36.623039,-62.847061,-77.182846,-89.02256,-19.995092,-21.160446,-9.256757,0.015314,6.332752,18.604164,24.647368,29.101919,23.988985,34.158661,39.331122,43.414924,37.168252,47.236163,51.992056,55.362147,45.9202,55.556413,58.751812,60.594259,38.131256,62.239323,76.406193,90.587425,43.190632,42.850113,44.957428,45.017338,30.880966,39.72044,52.854023,55.751266,19.103451,29.042816,39.241047,38.772125,6.759052,14.437466,24.629517,27.116089,-25.562972,-44.909377,-58.316379,-67.597311,-79.585645,-106.907192,-124.569955,-137.640649,-78.592574,-102.933753,-83.310908,-65.36454,-73.880786,-93.541685,-75.267021,-58.745637,-65.1936,-82.727259,-73.348019,-59.615515,31.423788,290.094435,-155.441408,-96.146364
37,1.215363,-0.343209,9.353085,-54.178793,-24.385185,-48.910332,-71.608372,-87.71822,-60.687447,-92.326241,-108.574848,-120.665703,-55.64827,-89.992561,-109.069691,-123.756008,-47.743378,-80.092621,-98.238258,-111.955605,-38.489685,-64.3396,-78.803158,-90.802574,-20.036712,-21.487661,-10.019251,-0.433303,7.057887,19.163438,25.131491,29.713063,24.927715,34.771101,39.504579,43.3273,38.08963,47.895596,52.515391,55.962175,46.646446,56.093827,58.976707,60.721959,29.5364,52.212181,70.024853,83.775215,38.462505,38.716679,39.81617,39.88615,24.828529,43.906517,45.784206,39.814281,12.562351,29.466991,31.851311,26.804123,-0.46114,14.621773,21.674652,20.353374,-12.628145,-31.135129,-42.91666,-48.51029,-73.262572,-112.629633,-132.838629,-148.750683,-73.104445,-78.205461,-54.049009,-40.393137,-68.021614,-72.583611,-50.405364,-38.670856,-60.179435,-67.863193,-52.92052,-43.527989,29.09277,289.206681,-149.634705,-150.869703
38,1.362305,0.528769,-0.154095,-15.591624,-24.152985,-48.965721,-72.238369,-88.756771,-60.71537,-93.395691,-109.998322,-122.327728,-55.83046,-91.468334,-110.939827,-125.930157,-48.332977,-81.636715,-100.13689,-113.859558,-39.72702,-66.17609,-80.643253,-92.376022,-20.398137,-21.698477,-10.366783,-1.274776,6.280264,17.554407,23.28713,27.980532,24.202456,33.386595,37.63243,41.406183,37.264459,46.514301,50.805707,54.362778,45.818497,54.582733,57.161554,59.066554,32.369385,54.345875,70.32217,84.785271,39.721069,43.027954,44.429569,44.345627,26.748905,46.046562,51.481819,47.907314,14.823532,34.070835,37.778778,33.69421,1.913795,17.234459,23.392296,21.925106,-19.905631,-34.366157,-45.076658,-53.093066,-74.076551,-107.946945,-127.920641,-145.147531,-72.914871,-87.929978,-64.628491,-48.275083,-69.801925,-78.818581,-57.691079,-44.16178,-63.609439,-75.899392,-61.698943,-48.56108,28.843317,289.784773,-151.400557,-166.412003
39,0.794334,-0.284484,2.729702,-17.107627,-23.995056,-48.689461,-72.255592,-89.265633,-60.634346,-94.109116,-110.719872,-123.095455,-56.203194,-92.511406,-111.801281,-126.434441,-49.013329,-82.767334,-101.082802,-114.556961,-40.700798,-67.543316,-81.947937,-93.503723,-20.636679,-21.727685,-10.57587,-1.858255,6.021715,16.711576,22.366802,27.071195,23.904696,32.751492,37.103229,40.793557,37.032216,45.951075,49.97325,53.083556,45.636642,54.311772,56.588633,58.145917,32.392731,55.14101,73.504658,88.502369,39.517479,43.191376,45.017624,45.814705,25.704231,47.280064,52.432251,48.315697,13.775024,35.56778,38.177948,33.39592,1.418896,19.749584,24.079914,20.397778,-20.008523,-33.653527,-41.433847,-44.640994,-73.285296,-104.309213,-124.254202,-141.642678,-73.507706,-84.826726,-61.72017,-45.774068,-70.529483,-74.004303,-53.082877,-41.052152,-64.010137,-73.155991,-58.408017,-45.85635,29.826794,291.152081,-148.481712,-181.867838
40,0.673027,0.002779,5.373516,-14.717516,-24.725189,-49.466972,-73.055763,-90.19455,-61.732063,-94.544563,-111.218948,-123.812027,-57.147331,-93.155422,-112.300358,-127.105865,-50.028763,-83.59045,-101.954842,-115.654449,-42.00428,-68.82843,-83.44883,-95.417805,-20.666751,-21.857176,-10.713696,-1.978545,6.208325,16.697497,22.051257,26.35063,24.402281,32.755568,36.388592,39.564724,37.631072,46.264644,49.610157,52.084929,46.236547,54.643063,56.497304,57.513716,30.539589,52.491245,69.875736,85.325603,38.111343,41.974239,42.779903,43.125916,23.893776,46.656532,49.016247,42.806625,11.659184,33.976307,34.411983,28.015366,-0.936356,17.51421,21.158066,16.662083,-16.785259,-29.355559,-35.732077,-37.027168,-70.255018,-100.677903,-119.424926,-135.805821,-70.478833,-77.328351,-54.377722,-39.408218,-67.906758,-68.191273,-47.6303,-36.682709,-61.93591,-68.351793,-52.940388,-41.295758,30.433445,294.376579,-143.174572,-193.363635
41,0.898476,-0.634794,5.876083,-8.387281,-24.830246,-49.769554,-73.338776,-90.55378,-61.900063,-95.453281,-112.094421,-124.53907,-57.338905,-93.495369,-112.675438,-127.32193,-50.101547,-83.546219,-101.921654,-115.376472,-41.702385,-68.11718,-82.499027,-94.149914,-20.250862,-21.047257,-9.78108,-1.224943,6.282796,16.721641,22.249167,26.787329,24.314348,32.813798,36.892043,40.375692,37.437916,46.084888,49.919157,52.652847,45.987508,54.592489,56.904178,58.079844,26.460743,47.425461,62.974548,76.409798,34.067059,36.845627,37.079029,36.9627,20.335579,43.184681,44.324055,37.385445,8.589764,29.974022,29.269066,22.076626,-3.340073,13.201389,16.689663,12.469025,-11.92385,-25.55178,-32.506714,-33.548814,-65.890291,-98.875308,-118.347505,-134.545781,-65.548726,-72.893837,-50.607751,-35.648405,-63.441771,-64.864686,-44.607062,-33.696521,-58.721246,-64.747785,-50.201541,-40.028315,30.653772,294.697682,-137.976637,-200.795019
42,0.375366,0.340245,3.574562,-6.092342,-24.494019,-49.566422,-73.413448,-91.140232,-62.001343,-96.221409,-112.943802,-125.22131,-57.145615,-94.255257,-113.619633,-128.188934,-49.756393,-84.143543,-102.626209,-116.030674,-41.420174,-68.637314,-83.061047,-94.452152,-20.808469,-21.614867,-10.495471,-1.972926,5.653003,16.42314,21.954927,26.260783,23.905684,32.596375,36.646585,39.926458,37.137315,45.888892,49.776451,52.562321,45.656587,54.301707,56.420116,57.505936,25.260029,46.270809,62.158298,76.320877,32.266903,34.660778,34.680061,34.944477,19.343147,41.459999,42.487793,35.977306,7.578392,28.277779,27.398815,20.067043,-4.851151,11.878796,16.05217,11.834621,-10.076139,-22.842326,-28.692792,-27.677955,-63.042161,-94.860358,-114.239744,-129.999908,-63.143455,-71.538339,-49.718066,-33.506623,-60.930976,-63.294149,-42.568434,-30.073439,-56.387821,-62.89633,-48.533848,-37.862775,30.285845,295.693886,-135.145369,-206.231402
43,0.6744,-0.137148,1.74036,-2.043012,-25.273705,-50.138969,-74.009972,-91.722565,-63.065186,-97.073421,-113.69442,-125.750999,-58.129692,-94.754505,-113.897667,-128.175316,-50.66803,-84.700184,-102.786427,-115.663033,-42.249069,-69.151955,-83.160553,-94.014359,-20.667986,-21.810863,-11.180097,-2.718932,5.599589,16.180584,21.910899,26.512848,23.794842,32.228528,36.477265,39.892372,37.14806,45.70994,49.659496,52.375032,45.828748,54.576558,56.636613,57.578925,24.81411,46.238537,61.752262,74.537945,31.419296,33.001099,33.057747,33.158913,18.989697,42.297249,43.285961,35.933189,7.587547,29.796638,28.796597,20.139141,-4.050922,14.78714,18.501949,12.667236,-6.840479,-20.944891,-27.020637,-25.796482,-61.636876,-93.00776,-113.067582,-129.597465,-61.901338,-69.770772,-47.503558,-32.393494,-59.842872,-62.542585,-41.240167,-29.32101,-55.51741,-61.746043,-46.244714,-35.94246,30.510406,295.574754,-133.854847,-208.256398
44,0.245247,-0.320114,1.214905,-0.499036,-25.358276,-50.269547,-74.097919,-91.678505,-63.068848,-97.223167,-113.96553,-126.143417,-58.018112,-95.029221,-114.388218,-129.027786,-50.40596,-84.811707,-103.116074,-116.318321,-41.981392,-69.34639,-83.642235,-94.904366,-20.737888,-21.692364,-10.891476,-2.089819,5.481028,16.436292,22.147526,26.400215,23.755754,32.498007,36.898959,40.260589,37.162386,45.980962,49.84697,52.360706,45.871664,54.741864,56.842057,57.709897,24.508495,45.202675,60.147629,72.697277,30.514984,31.85297,31.759701,31.709919,18.603115,41.142311,42.405796,35.522346,7.496681,29.473686,29.077034,20.52515,-3.792343,14.805908,18.848591,12.981892,-7.144245,-21.694896,-27.403937,-25.238474,-60.922215,-91.993834,-111.99771,-128.579301,-60.94653,-69.963541,-47.424996,-32.09209,-58.918646,-63.398523,-41.887821,-29.630565,-54.834821,-61.833891,-46.074885,-35.48455,30.134096,295.180431,-133.261499,-208.829643
45,0.649223,0.333761,-0.304756,-0.861557,-25.602264,-50.867729,-74.825764,-92.497616,-63.636475,-97.425499,-114.172554,-126.396675,-58.574066,-95.364246,-114.722843,-129.505291,-51.023712,-85.442619,-103.757515,-117.038898,-42.68177,-70.16161,-84.471359,-95.719929,-20.886953,-22.003648,-11.275934,-2.540597,5.489735,16.057701,21.755102,26.052869,23.973177,32.380311,36.6824,40.026679,37.477684,45.950643,49.475603,51.793282,46.276994,54.770639,56.623028,57.376383,24.266796,45.387783,60.816479,73.385239,31.19276,32.753792,32.59758,32.655659,19.487286,41.977158,43.104115,36.552086,8.295135,30.619011,29.878006,21.36549,-2.924194,16.055832,19.63623,13.629398,-6.029218,-20.23436,-25.997834,-24.726702,-59.213875,-90.250435,-110.516495,-127.106438,-59.582154,-70.412243,-48.267904,-32.911472,-58.005373,-63.867255,-42.322281,-30.053076,-54.420183,-61.289885,-45.405263,-34.93281,30.500851,295.425781,-133.848724,-209.779611
46,0.307045,-0.376554,0.874729,-0.434723,-25.506821,-50.833397,-74.974251,-92.116013,-63.739815,-97.647114,-114.509525,-126.890316,-58.559532,-95.483551,-114.95985,-129.929352,-50.812225,-85.425282,-103.879051,-117.393951,-42.229271,-69.781895,-84.279385,-95.901833,-20.783892,-22.233359,-12.011567,-2.578635,5.033091,16.088391,22.000128,26.381937,23.630956,32.424339,37.099895,40.638687,37.343376,45.829489,49.714824,52.307909,46.404755,54.855546,57.039844,58.123316,23.744202,45.095387,60.631485,73.137245,31.012745,32.645187,32.487316,32.556324,19.077873,41.294403,43.32756,37.420807,7.770882,29.463387,29.216995,21.342316,-3.448219,15.029297,18.701191,13.217411,-5.136693,-19.254689,-24.46258,-22.573419,-58.476876,-89.877069,-110.270644,-126.995666,-58.67606,-69.013804,-47.515923,-32.665459,-57.020068,-62.157309,-41.287159,-29.354494,-53.53726,-60.38467,-44.774699,-34.246578,30.671368,294.938678,-133.110523,-210.324883
47,-0.129433,-0.208716,1.504726,-0.150084,-25.379105,-50.648346,-74.741879,-91.916599,-63.470764,-97.647514,-114.518967,-126.70475,-58.086433,-95.56509,-114.984798,-129.848957,-50.171471,-85.23262,-103.629913,-117.131882,-41.560936,-69.658985,-84.399834,-96.367321,-20.733318,-22.214711,-11.624515,-1.826083,5.641332,16.890528,22.613124,26.779054,24.333738,33.100753,37.517945,40.903041,37.956002,46.593526,50.238715,52.616847,46.804466,55.105018,57.101594,58.043905,23.415356,45.089207,60.983677,73.918819,31.006165,32.43021,32.290363,32.66201,18.96595,41.009903,43.021946,37.422409,7.651348,29.182949,28.892612,21.294136,-3.617249,14.828453,18.566723,13.449841,-5.000286,-19.09139,-24.018579,-21.630428,-58.274203,-89.767423,-110.320152,-127.047235,-58.410363,-67.850025,-46.253899,-30.942174,-56.518732,-61.193794,-40.501493,-28.154529,-52.824529,-59.20137,-43.760433,-32.836939,30.376225,294.542873,-131.771507,-210.662055
48,0.006752,0.070334,1.584663,0.849037,-25.43129,-50.67318,-75.076218,-92.687359,-63.543434,-97.659302,-114.439716,-126.702976,-58.392105,-95.742302,-115.169735,-130.057468,-50.627975,-85.743141,-104.275761,-117.852516,-42.05246,-70.139809,-84.873447,-96.810493,-20.788461,-22.377608,-11.96581,-2.329411,5.447992,16.667609,22.530626,26.83216,23.931557,32.984353,37.593095,40.953429,37.538816,46.317502,50.159551,52.682981,46.62187,55.148675,57.217005,58.297267,23.08445,44.799042,60.975266,74.267349,29.979172,31.261482,31.118889,31.358585,18.325539,40.867939,43.257751,37.5844,7.275867,29.554482,29.375038,21.496696,-3.68494,15.405979,18.929157,13.276405,-4.261272,-18.660172,-24.173048,-22.695005,-57.956444,-89.94636,-111.012096,-127.976903,-58.263883,-68.936755,-47.763002,-32.50216,-56.52872,-61.871497,-41.290617,-29.121664,-52.807941,-58.539684,-42.815698,-31.985571,30.289907,294.585558,-130.279913,-209.840667
49,0.057449,0.21131,0.483112,1.683826,-24.974785,-50.397034,-74.815292,-92.945824,-64.253998,-98.412495,-115.131626,-127.188721,-59.225922,-96.425457,-115.486279,-129.937363,-51.529884,-86.232319,-104.548817,-117.787056,-42.987099,-70.720482,-85.292873,-96.804199,-21.213675,-22.368407,-11.370227,-2.077284,5.790089,16.967963,22.512348,26.508464,24.371653,33.443714,37.546906,40.584841,37.692884,46.567097,50.067481,52.309144,46.156889,54.993373,57.054664,57.956837,23.804398,45.290737,61.358128,75.467548,30.728359,31.436005,31.060867,31.10733,19.029694,40.626354,42.600632,36.815643,7.789536,29.27084,29.280624,21.26873,-3.539429,14.656963,18.597965,13.094387,-4.5226,-19.930563,-25.039792,-21.550106,-58.639357,-90.036022,-110.486238,-127.085412,-58.824021,-69.373917,-47.046388,-31.684816,-57.049755,-62.740433,-41.289274,-29.102136,-53.565109,-59.883242,-43.735887,-33.033043,30.226336,294.796451,-129.917822,-208.157258
50,0.948143,-0.095898,0.47533,1.555308,-25.560036,-51.235542,-75.713825,-93.222427,-65.180855,-98.898125,-115.691071,-127.883835,-60.044632,-96.918926,-116.000462,-130.664864,-52.302589,-86.896191,-105.26207,-118.649368,-43.825493,-71.375256,-85.903187,-97.420692,-20.956237,-22.42528,-11.622724,-2.093092,5.811455,16.966914,22.618188,26.752254,24.251486,33.336392,37.777667,41.134605,37.557589,46.343684,49.978252,52.403931,46.119407,54.867402,57.026629,58.015006,23.150711,45.099392,61.255646,74.552593,31.42725,32.977924,33.333721,34.273338,19.40752,39.768276,41.216354,35.701504,7.792397,28.635864,28.245335,20.50312,-3.745079,14.290352,17.567081,12.077808,-3.972265,-19.230221,-24.720897,-22.77244,-57.46914,-89.144608,-109.653796,-126.179719,-57.763288,-69.073007,-46.938449,-31.146028,-56.223102,-62.722209,-41.640804,-29.04585,-52.880753,-58.323411,-42.225518,-31.640927,31.045074,294.808369,-129.571896,-206.494134
51,0.62027,0.223536,-1.407795,1.487938,-25.575714,-51.570969,-76.088676,-93.973389,-66.110458,-99.563942,-116.124916,-128.128281,-60.651627,-97.516365,-116.497822,-130.989017,-52.65873,-87.491627,-105.771446,-119.070225,-43.747559,-71.389332,-86.061287,-97.676411,-20.751102,-22.475483,-11.910852,-2.773149,5.950393,17.195761,22.72446,26.553789,24.328551,33.595867,38.02541,41.264713,37.608286,46.625451,50.114658,52.429126,46.171215,55.090013,57.287771,58.221191,23.14579,44.498749,60.774765,74.613075,33.067532,40.397987,45.624561,50.787106,20.903034,42.245178,40.543785,33.522205,9.16769,29.911652,27.823505,20.276012,-2.794991,15.462856,18.188896,13.201389,-3.338505,-17.93408,-23.076561,-21.784496,-56.675377,-86.099804,-105.5965,-121.228417,-57.532735,-63.919241,-42.445288,-27.647219,-56.122333,-58.44394,-38.098121,-25.90703,-53.227311,-57.393025,-42.302043,-32.089126,31.661053,294.859421,-130.983982,-205.178681
52,0.862427,-0.279668,-4.319572,5.493733,-26.121368,-51.940842,-76.652355,-94.342175,-66.184158,-99.68462,-116.237812,-128.274822,-60.949059,-97.656956,-116.490784,-131.010704,-53.202324,-87.707005,-105.965137,-119.334469,-44.613419,-71.984539,-86.47213,-98.054981,-20.469953,-22.196186,-11.694849,-2.001393,5.704627,17.182361,22.868154,26.712055,24.34652,33.701893,38.283094,41.576799,37.865353,46.921174,50.490657,52.704285,46.596058,55.551412,57.707304,58.513949,25.082188,47.378483,65.261936,79.49707,37.645054,55.215912,68.47578,79.983101,26.389847,48.11245,43.433762,34.764462,14.48101,35.812569,32.425804,24.159565,1.770744,20.308571,22.384357,17.889175,-6.710371,-20.212531,-25.380238,-24.95663,-55.185988,-76.108487,-85.111565,-90.870023,-58.201847,-64.0643,-41.934458,-29.413666,-58.412849,-60.627573,-39.005312,-28.098599,-56.648361,-62.162789,-45.939698,-36.296475,32.186394,293.789626,-135.64064,-200.475074
53,0.842171,0.171975,-0.183048,4.798733,-26.314087,-52.406387,-77.09919,-95.049477,-66.657143,-99.860687,-116.431961,-128.713303,-61.467361,-98.103218,-117.303257,-132.20438,-53.710442,-88.070698,-106.491623,-120.041084,-45.019341,-72.20747,-86.919651,-98.723316,-20.493047,-22.29054,-11.855956,-2.663542,6.221354,17.973939,23.553892,27.32394,24.654963,34.030282,38.252404,41.453484,37.924571,47.074192,50.401057,52.496495,46.477559,55.426738,57.607392,58.520927,25.727978,48.120289,65.480232,80.604401,38.307037,55.982552,70.830746,84.393711,27.345829,48.003502,42.155685,33.143692,15.223045,35.696068,30.91856,22.1105,1.789513,20.325394,22.131214,17.153378,-8.014246,-21.667571,-26.631872,-24.516782,-53.384018,-68.270754,-70.770171,-70.026634,-57.78585,-63.557152,-42.144548,-29.923524,-59.378532,-60.653941,-39.328421,-28.840854,-59.128891,-64.467075,-48.511077,-38.52338,32.980785,293.095011,-135.871468,-196.542932
54,0.587425,0.025873,0.70919,-0.259228,-26.462631,-52.60334,-77.281551,-95.463524,-66.731758,-100.20092,-116.812534,-129.159794,-61.747513,-98.360138,-117.522869,-132.582207,-54.092331,-88.529091,-106.975822,-120.723896,-45.381546,-72.706318,-87.516747,-99.604855,-20.578757,-22.457946,-12.039478,-3.184716,6.130643,17.868964,23.419399,27.1913,24.5737,33.810944,38.013245,41.2452,37.836886,46.736108,50.204382,52.521751,46.336706,54.920261,57.147228,58.223599,25.646095,47.408009,64.026947,78.003101,37.915134,54.009762,68.400135,82.119255,26.997414,47.331676,41.305904,32.799454,15.252171,34.819794,29.578056,21.637516,2.186623,20.463524,21.650562,16.764336,-7.273982,-20.317476,-25.796343,-25.858278,-51.244428,-64.375237,-65.314214,-62.804476,-55.619059,-60.29903,-40.531303,-29.284346,-57.297374,-59.013726,-38.967103,-28.722973,-56.428808,-60.484776,-45.539107,-35.877329,33.376551,292.703684,-135.353937,-197.219361
55,-0.073357,-0.154438,0.314083,-0.707058,-26.543427,-52.636414,-77.365723,-95.666771,-66.548767,-100.201664,-116.856422,-129.267998,-61.420555,-98.490429,-117.791176,-132.797012,-53.704948,-88.574181,-107.074757,-120.802517,-45.022202,-72.781277,-87.64801,-99.656582,-20.605865,-22.258801,-12.004033,-3.333905,6.550175,18.276331,23.901608,27.747795,24.882946,34.168479,38.320577,41.4985,38.000524,47.057087,50.402168,52.647475,46.333866,55.117368,57.237568,58.175063,25.251045,46.867104,63.18758,77.566338,37.474651,53.993969,68.772469,82.814026,26.617355,47.182102,42.335072,34.42091,14.744511,35.062981,30.457592,22.618275,1.608524,20.340557,21.904049,16.937428,-5.49977,-18.862343,-25.036442,-25.119234,-49.270252,-61.360659,-62.802083,-61.653201,-53.764941,-60.259124,-40.089757,-28.597681,-55.504697,-58.510075,-38.116893,-27.807307,-54.440321,-59.364916,-44.45159,-34.811054,33.263569,292.216689,-135.079479,-198.258976
56,0.11673,-0.040694,0.492096,-1.164119,-26.504288,-52.6791,-77.417793,-95.69252,-66.396217,-100.212021,-116.947231,-129.210205,-61.369629,-98.404713,-117.600689,-132.549763,-53.822365,-88.564968,-106.947613,-120.561962,-45.36644,-72.853889,-87.546215,-99.421978,-20.66317,-22.536369,-11.959017,-2.927155,6.330343,18.011237,23.804907,27.759959,24.895049,34.119634,38.331074,41.61527,38.224431,47.103338,50.549134,52.883979,46.721844,55.369001,57.476728,58.486656,24.594841,45.889263,62.342663,77.016048,36.924362,52.828674,67.373428,81.325836,26.456852,46.564808,41.174355,32.999725,14.658108,34.856014,29.887791,21.922073,1.245975,20.233841,22.151184,17.349186,-4.785364,-17.886084,-23.777166,-23.681468,-47.512712,-59.398385,-61.606503,-61.060212,-51.792294,-58.423253,-38.968462,-27.200732,-53.606104,-57.456304,-37.684393,-26.81967,-52.788142,-58.710269,-44.371916,-34.266199,33.369455,291.812702,-134.598227,-199.786388
57,-0.826607,-0.202109,0.420341,-1.706426,-26.32782,-52.425041,-76.945667,-94.671879,-66.163101,-100.000877,-116.594925,-128.718338,-61.038437,-98.183498,-117.418842,-132.287979,-53.369751,-88.152866,-106.483669,-119.997253,-44.703026,-72.08971,-86.673088,-98.574486,-20.437287,-22.077934,-11.684598,-2.621243,6.184366,18.378837,24.348373,28.279898,24.613035,34.356694,38.84527,42.2224,37.967982,47.174906,50.849674,53.308637,46.438348,55.390984,57.783133,58.983376,24.267082,45.118275,61.640282,76.347084,35.747395,51.8466,66.864109,81.220551,25.54842,45.33165,39.721527,31.13451,13.875675,33.692608,28.780861,20.711517,0.469379,19.156265,20.854683,15.707932,-4.179731,-16.396386,-22.007816,-22.457853,-45.808941,-57.89061,-60.428042,-60.322928,-50.286819,-56.751994,-37.513175,-26.126507,-52.170175,-56.629311,-36.927302,-26.25061,-51.436272,-58.208239,-43.690161,-33.435764,32.504625,291.431347,-134.216108,-201.67206
58,-0.411758,0.326598,0.523396,-1.626799,-26.449585,-52.641678,-77.34621,-95.486984,-66.257515,-100.076981,-116.62468,-128.733845,-60.998154,-98.283062,-117.369518,-132.015724,-53.290443,-88.314629,-106.610069,-119.964466,-44.728088,-72.53809,-87.209702,-98.959293,-20.706395,-22.302829,-11.753573,-2.773149,6.34893,18.003888,23.821642,27.851844,24.868249,34.180212,38.451611,41.839424,38.223814,47.08685,50.478554,52.818832,46.767292,55.445448,57.464748,58.324561,23.780022,43.917732,60.161705,75.341949,35.057602,50.797691,65.799351,80.102577,25.001221,44.798012,39.450588,30.972862,13.279037,33.65118,28.516331,20.303307,-0.335541,19.11375,20.501461,15.056877,-3.595418,-15.564624,-21.371432,-22.022821,-44.702852,-56.523734,-59.644368,-60.118441,-49.286199,-56.921298,-37.600829,-26.071147,-51.209061,-56.435029,-36.297695,-25.655938,-50.355423,-56.902603,-41.729554,-31.531304,32.162075,291.563323,-133.623505,-203.493481
59,-0.180016,0.183152,0.847206,-1.499578,-26.397629,-52.401695,-77.19429,-95.263309,-65.62912,-100.071659,-116.820717,-128.856754,-60.634003,-98.297768,-117.461586,-132.083759,-53.185043,-88.540192,-106.851311,-120.112267,-44.868393,-72.742481,-87.476578,-99.178505,-20.764811,-22.576815,-12.003601,-2.833109,6.471628,17.807769,23.614963,27.871728,25.018365,33.747712,37.946678,41.549259,38.441052,46.870971,50.219017,52.763134,47.040414,55.447918,57.407938,58.422744,23.810406,43.992062,59.87566,75.622616,34.529686,49.467545,64.593372,79.17469,24.437141,44.26878,39.248829,30.673828,12.619114,33.376579,28.244476,19.708958,-1.005077,18.98798,20.307598,14.434834,-3.136813,-15.742635,-21.583421,-21.332529,-44.131954,-55.216091,-58.958089,-60.08928,-48.925114,-55.884941,-36.686923,-25.041197,-50.999542,-55.564009,-35.483516,-25.01557,-50.29497,-55.924183,-40.758359,-30.944567,32.045374,291.658234,-132.712984,-205.0813
60,-0.284615,0.296217,0.485401,-1.647331,-26.540565,-52.429161,-77.074814,-95.046101,-66.116295,-100.448055,-117.16135,-129.366817,-60.861397,-98.340225,-117.658424,-132.575626,-53.130684,-88.247108,-106.64669,-120.11776,-44.491997,-72.234306,-86.855793,-98.624268,-20.729181,-22.676789,-12.472163,-3.492727,5.961755,17.457212,23.192961,27.427125,24.372949,33.418088,37.737653,41.419398,37.805208,46.702639,50.234516,52.933935,46.425195,55.274585,57.426339,58.69741,23.875465,44.21751,60.299206,76.06081,33.736095,48.641338,63.801613,78.211784,23.620892,43.762436,38.480186,29.576111,11.825123,33.20755,28.036594,19.424858,-1.63599,18.912106,20.295982,14.283886,-2.841028,-15.574874,-20.986665,-20.387763,-43.730808,-54.206349,-57.94522,-59.102246,-48.739384,-54.434084,-35.110389,-23.451479,-50.846401,-54.536019,-34.378986,-24.096107,-50.120556,-54.65688,-39.265821,-29.860168,31.745911,291.889612,-132.242432,-206.793469
61,-1.13308,-0.204517,0.669079,-1.140299,-26.328964,-51.949997,-76.569672,-95.148754,-64.551888,-99.412251,-116.224766,-128.333931,-59.311066,-97.811966,-117.279224,-132.213993,-51.898499,-87.925587,-106.417179,-119.951134,-43.836594,-71.990318,-86.56517,-98.331356,-20.72103,-21.998831,-11.484218,-2.904431,6.120022,17.748736,23.534873,27.431571,24.601241,33.847377,38.376337,41.729879,37.982802,46.889064,50.466821,53.065834,46.590254,55.36826,57.422326,58.58311,23.960552,44.791203,60.962791,76.61602,34.202843,48.894825,63.784733,78.104267,24.114647,43.404636,37.984314,29.220085,12.243519,32.514496,27.441616,19.157467,-1.606979,18.033199,19.973946,14.650211,-2.666753,-15.29022,-20.387393,-20.045419,-42.783572,-53.057683,-56.520855,-57.189905,-47.713139,-53.520657,-34.567726,-22.393941,-49.889732,-54.051865,-34.301227,-23.136737,-49.390588,-54.632905,-40.027713,-30.096626,30.906973,291.668098,-131.279211,-207.950765
62,0.244217,0.660297,0.317516,-1.464025,-26.533928,-52.123489,-76.993961,-95.453281,-64.929199,-99.737892,-116.769791,-129.074249,-59.635849,-97.827015,-117.214451,-132.157345,-52.014656,-87.786655,-106.281624,-119.783993,-43.755684,-71.795025,-86.380978,-98.128853,-21.031017,-22.689633,-12.306363,-3.670568,5.784346,16.887935,22.660796,26.846239,24.309285,32.988861,37.482685,41.14924,37.746051,46.358813,49.98597,52.679523,46.38728,55.228766,57.314942,58.50481,23.407059,43.85891,60.124512,75.658379,34.016647,48.196907,63.515625,78.013515,24.233665,42.862701,37.526035,28.759975,12.509594,32.419167,27.452888,19.263268,-1.31052,18.151245,19.733162,13.91161,-2.892297,-14.936977,-19.771432,-19.405345,-41.884533,-52.51871,-56.449402,-57.477994,-46.776879,-53.379727,-34.693774,-23.00351,-48.99395,-54.253156,-34.486633,-23.853242,-48.516156,-54.279122,-39.325688,-29.654308,31.427794,292.319689,-130.685091,-209.423496
63,-0.611687,-0.037915,0.622101,-0.793215,-26.199989,-51.863251,-76.538887,-95.231037,-64.339027,-99.273777,-116.512527,-129.117851,-59.084244,-97.608261,-117.233849,-132.410889,-51.523247,-87.603607,-106.330776,-120.136871,-43.314743,-71.682415,-86.470356,-98.651791,-21.200645,-22.649495,-11.987916,-4.05694,5.662698,17.101777,22.972327,27.221928,24.228453,32.982068,37.39395,41.001533,37.731663,46.316514,49.966766,52.692306,46.424577,54.957064,56.924556,58.131159,22.932873,43.271027,59.329605,75.274029,33.586636,47.336998,62.715797,77.13192,23.738308,42.342396,37.274609,28.611603,11.865692,32.033787,27.098179,18.890305,-1.906986,17.959499,18.941402,12.558918,-2.308524,-14.943847,-19.96661,-19.323711,-41.54313,-52.212289,-56.295581,-57.511061,-46.696248,-53.828822,-34.908033,-23.440055,-49.047055,-54.661017,-34.457502,-24.391845,-48.520309,-53.6677,-38.218272,-29.385678,31.236334,292.254094,-129.642763,-210.244391
64,-1.391487,0.191488,0.493069,-0.50078,-25.771294,-51.038017,-75.677261,-94.264469,-63.735809,-98.715019,-115.794525,-128.152771,-58.582191,-97.227116,-116.768818,-131.740837,-51.056328,-87.127132,-105.730133,-119.500751,-42.918892,-71.192951,-85.887852,-97.994041,-21.017926,-22.635849,-12.245539,-4.002415,5.254404,16.778266,22.605838,26.712117,23.679554,32.810093,37.274339,40.709268,37.195361,45.941072,49.618247,52.28642,46.052716,54.777494,56.791236,57.922936,21.710701,41.90649,58.105316,74.367199,32.352619,46.517487,62.16259,77.013588,22.713375,41.887836,37.021694,28.609886,11.084576,31.755638,26.865349,18.831139,-2.359715,18.12664,18.823528,12.254276,-1.609648,-14.017097,-19.116538,-18.958982,-42.01762,-52.170793,-56.318599,-57.805533,-47.429473,-53.753255,-34.741832,-23.327469,-49.910867,-54.508092,-34.223174,-24.186726,-49.386374,-53.539491,-37.872191,-29.112479,30.474615,292.417872,-128.519926,-210.772882
65,-0.192947,-0.203406,-0.915413,-0.487581,-26.195755,-51.491661,-76.051769,-94.370842,-63.739128,-98.444538,-115.556831,-128.038216,-58.563309,-96.682663,-116.22551,-131.294289,-50.970268,-86.70084,-105.374451,-119.188213,-42.772293,-70.813351,-85.634823,-97.641792,-20.754437,-22.49901,-12.454626,-4.083184,5.392602,16.876264,22.590462,26.427324,23.985527,33.182695,37.749385,41.187031,37.627799,46.618103,50.123365,52.548304,46.591427,55.515226,57.351189,58.030752,22.646027,43.30164,59.169502,75.299149,33.482552,47.661381,62.97781,77.634659,23.799019,43.097591,37.931271,29.442387,12.230358,32.803059,27.827911,19.63131,-1.140461,19.132805,20.308971,14.016724,-1.471651,-14.197855,-19.179184,-18.722015,-41.650993,-51.765926,-56.029838,-57.413557,-46.971068,-53.22234,-34.66415,-23.273931,-49.499979,-54.049117,-34.083711,-23.83958,-49.185562,-54.002788,-38.668957,-29.514798,30.884485,292.183761,-128.832521,-211.291169
66,-0.754852,0.023897,0.464115,-0.579883,-25.816154,-51.127968,-75.867634,-94.455471,-63.288231,-98.434525,-115.580978,-128.137836,-57.838211,-96.491089,-115.990677,-130.926991,-49.978867,-86.128578,-104.878578,-118.879051,-41.592636,-70.130424,-85.13958,-97.427559,-20.801861,-22.582558,-12.571025,-4.121902,5.848629,17.193846,22.713778,26.573919,24.425931,33.408393,37.759883,41.169432,37.934575,46.819903,50.253473,52.706879,46.712458,55.393207,57.002423,57.679393,22.352085,43.262329,59.47546,75.424461,33.233242,47.507458,62.685928,77.135067,23.672504,42.57019,37.164917,28.424492,12.117405,32.399826,27.361107,19.160614,-1.38834,18.399239,19.597778,13.553066,-1.520897,-14.071421,-18.541457,-17.563484,-41.021663,-51.084912,-55.844356,-57.95182,-46.419097,-52.423167,-33.817104,-22.292794,-49.029071,-53.847332,-34.09092,-23.774048,-48.780186,-53.760696,-38.686278,-29.569154,30.564165,292.119,-127.933874,-211.959709
67,-0.587883,0.450408,-0.541191,-0.148479,-25.529137,-50.521202,-75.382977,-93.712349,-62.660751,-98.178406,-115.568161,-128.235283,-57.53746,-96.502991,-116.37188,-131.525288,-49.889832,-86.103973,-105.128517,-119.229641,-41.60923,-70.245781,-85.316963,-97.672234,-20.882322,-22.976464,-13.310548,-4.728538,4.989495,16.460252,22.327529,26.638387,23.3524,32.572848,37.249331,41.036854,37.017087,46.057718,49.943177,52.859402,46.197583,55.075625,56.969448,58.007843,22.399693,43.246593,59.370461,75.664272,33.819294,48.012943,63.431168,78.111649,24.344959,43.449726,38.209248,29.559002,12.77401,33.206177,28.271313,20.101948,-0.835819,19.106255,20.553017,14.531422,-1.333284,-13.919762,-18.690229,-17.873703,-41.212719,-51.221241,-55.635014,-57.221266,-46.596521,-53.00738,-34.253586,-22.738107,-49.137134,-54.202628,-34.205606,-23.964795,-48.837181,-54.290592,-39.20705,-30.069101,30.609655,292.483559,-127.841692,-212.194037
68,0.583305,-0.379333,0.419769,-0.21926,-25.992508,-51.11412,-75.826836,-94.150715,-62.984962,-97.614498,-114.950924,-127.751656,-57.896805,-95.780697,-115.469055,-130.691757,-50.341415,-85.889626,-104.672298,-118.584137,-42.229729,-70.472145,-85.317478,-97.339211,-20.529542,-22.58509,-12.956039,-4.5607,5.156345,16.832174,22.666168,26.669262,23.526722,32.898705,37.621994,41.182338,37.189186,46.344055,50.063467,52.641485,46.361839,55.17282,56.915293,57.666487,22.322674,43.306904,59.330063,75.408096,33.228722,47.495155,62.851124,77.355824,23.684177,43.115273,37.842064,29.042244,12.153225,33.053684,28.015766,19.688301,-1.30394,18.918629,20.245571,14.117317,-1.253858,-14.125685,-18.624187,-17.334452,-41.439667,-51.154983,-55.687309,-57.599086,-46.8683,-52.463559,-33.48572,-22.101893,-49.31181,-53.417117,-33.341919,-23.354037,-48.783613,-53.213294,-37.887027,-28.899008,31.630125,292.088773,-126.984758,-212.42875
69,-0.960846,0.465845,-0.406437,0.235763,-25.622177,-50.562057,-75.070839,-93.392029,-62.895927,-97.504864,-114.546432,-127.097626,-57.651443,-95.729942,-115.255508,-130.177288,-50.053596,-85.627556,-104.189243,-117.966843,-41.859283,-70.211506,-84.996872,-97.002182,-21.016073,-22.910947,-13.001611,-4.699268,5.037413,16.544788,22.428985,26.545452,23.433787,32.739574,37.388022,40.94324,36.992696,46.059262,49.734708,52.407822,45.997079,54.519562,56.130569,56.978649,22.31163,43.618755,59.74577,75.909748,33.495827,48.033428,63.371429,77.961845,23.955002,43.568287,38.246899,29.489136,12.406139,33.313408,28.351307,20.104866,-1.124439,19.083881,20.518112,14.409485,-1.209922,-14.321804,-19.07938,-18.096823,-41.442647,-51.287993,-55.910506,-57.821557,-46.896181,-52.612679,-33.791323,-22.344541,-49.381233,-53.749758,-33.849353,-23.713378,-48.917194,-53.371097,-38.209997,-29.12168,31.298389,292.522925,-126.762085,-212.22468
70,0.156441,-0.435464,0.186939,-0.139386,-25.840759,-50.791283,-75.135956,-93.255501,-63.048706,-97.387905,-114.465981,-127.068901,-57.901611,-95.430565,-114.943428,-130.058212,-50.290489,-85.470886,-104.026165,-117.757587,-41.993294,-69.692173,-84.380608,-96.198978,-20.607718,-22.612013,-12.652659,-4.281156,5.207289,16.867557,22.769168,26.903172,23.475778,32.957492,37.668863,41.326216,37.079826,46.250688,50.008015,52.809879,46.18548,55.001833,56.732265,57.573305,22.385387,43.59684,59.633961,75.600185,33.384876,47.98336,63.225861,77.732391,23.669758,43.107605,37.930813,29.238567,11.938076,32.825718,27.961407,19.862423,-1.660824,18.580742,20.061378,14.157543,-1.351732,-14.402218,-18.977955,-17.683882,-41.899893,-51.414103,-55.983757,-57.999792,-47.479799,-52.62939,-33.617279,-21.847296,-49.852991,-53.61072,-33.612077,-23.292271,-49.051008,-52.96461,-37.78287,-28.702734,32.053099,291.985573,-125.976877,-212.465955
71,-0.226364,0.575823,0.320663,0.333699,-25.353355,-50.288544,-74.706745,-93.227406,-62.995605,-97.686996,-114.724045,-127.201309,-57.706604,-95.812912,-115.357647,-130.412807,-49.889603,-85.63139,-104.331207,-118.263931,-41.293373,-69.747391,-84.667282,-96.663094,-20.973033,-22.96294,-12.789004,-4.379092,4.937686,16.306061,22.272139,26.550392,23.375495,32.476518,37.129164,40.806093,36.99319,45.943171,49.612442,52.411094,45.995906,54.669677,56.385289,57.260601,22.359581,43.397827,59.405308,75.141563,32.437248,47.324409,62.512665,77.120075,22.632236,42.815552,37.581196,28.792591,10.998287,32.463341,27.447739,19.134521,-2.33036,18.316956,19.589367,13.476906,-1.629424,-14.828759,-19.615883,-18.541379,-42.935139,-52.215886,-56.199436,-57.812117,-48.444896,-52.948176,-33.717346,-22.015241,-50.759873,-53.485027,-33.276062,-23.144965,-49.850289,-52.725744,-37.219351,-28.373635,32.30484,292.497947,-125.178108,-212.195704
72,0.417595,-0.419779,-0.39156,0.580778,-25.935516,-50.8675,-75.16222,-93.506012,-63.221626,-97.334633,-114.376488,-127.083035,-58.082657,-95.478973,-115.047855,-130.309811,-50.469246,-85.644836,-104.307804,-118.212318,-42.030029,-69.882488,-84.643822,-96.706867,-20.573447,-22.788434,-13.110353,-4.98122,5.303311,16.640254,22.289923,26.172603,23.598599,32.537651,36.994919,40.384769,37.204129,45.965092,49.594164,52.31285,46.442732,55.060928,56.749061,57.588805,22.265511,43.123684,59.154167,74.840355,32.737026,47.775021,62.903423,77.469921,22.767391,43.571663,38.427944,29.75853,11.166859,32.885799,27.947044,19.611511,-2.048893,18.728371,19.886971,13.710651,-2.012245,-14.977763,-19.747982,-18.770319,-43.335853,-53.045781,-56.25136,-56.70291,-48.563997,-53.239893,-33.824313,-21.894427,-50.797417,-53.499438,-33.248737,-22.810031,-49.9385,-53.190971,-37.688376,-28.533152,32.894783,291.865978,-125.39732,-211.827116
73,-0.577927,0.658074,-0.079594,0.814488,-25.483818,-50.215645,-74.673843,-93.260994,-62.897072,-97.006073,-113.768635,-126.207733,-57.952881,-95.692177,-115.007915,-129.777546,-50.492134,-85.818157,-104.147415,-117.62043,-42.146301,-70.178432,-84.705334,-96.385746,-21.198175,-23.11639,-12.837664,-4.666664,5.120838,16.554791,22.31734,26.403365,23.604774,32.789592,37.058336,40.429909,37.075318,45.912666,49.468749,52.196759,45.76817,54.16882,55.93377,57.010697,21.176949,42.200203,58.612576,74.765682,32.025547,46.664944,61.89085,76.333408,22.150784,41.984367,36.817245,28.281555,10.396042,31.63662,26.5872,18.129158,-2.818108,18.28331,19.145107,12.481327,-0.73747,-13.858244,-19.577459,-20.441903,-41.484591,-52.989125,-56.331242,-56.516154,-46.909364,-54.23409,-35.104013,-23.749672,-49.635089,-54.635036,-33.970569,-23.714011,-49.34372,-54.167361,-38.308674,-29.188987,32.448006,292.428354,-125.345764,-211.108326
74,0.458794,-0.361919,-0.547657,0.438829,-25.921211,-50.936279,-75.472584,-94.030037,-63.373032,-97.459717,-114.479485,-127.124062,-58.14846,-95.515079,-114.645653,-129.256268,-50.47554,-85.744228,-104.133682,-117.345543,-42.149048,-70.00391,-84.508324,-95.974731,-20.784509,-22.794547,-12.537371,-4.101401,5.597675,17.19397,22.835117,26.82796,23.924456,33.290759,37.773098,41.415137,37.422602,46.268534,49.919589,52.794132,46.320034,54.928412,56.803278,57.899903,21.566677,42.705917,58.901138,75.224133,33.153362,47.441254,62.541046,77.136211,23.370438,42.762966,37.858257,29.606781,11.527405,32.395935,27.41787,19.236202,-1.979828,19.043312,19.804344,13.333168,-0.389444,-13.689866,-19.627986,-20.175851,-41.688645,-52.634013,-56.69479,-57.869715,-47.041927,-54.242998,-35.364168,-23.930955,-49.694262,-54.81899,-34.382074,-24.150401,-49.290954,-53.512876,-37.632013,-28.632493,32.99818,291.983627,-125.80204,-210.752304
75,0.165367,0.058663,-0.659924,0.107152,-25.706863,-50.877457,-75.287476,-93.534508,-63.503265,-97.560997,-114.505749,-127.045326,-58.307076,-95.645542,-114.990463,-129.770622,-50.615959,-85.708294,-104.210186,-117.592335,-42.17308,-69.686394,-84.19487,-95.792141,-20.796489,-22.730388,-12.52039,-4.392554,5.263667,17.199775,23.036979,27.115409,23.483929,33.027949,37.426554,41.018884,36.978123,45.906183,49.645479,52.590479,45.903095,54.507644,56.563933,57.885577,21.807747,42.326488,58.164425,74.605637,33.729172,48.261166,63.655472,78.421097,24.144859,43.231373,38.485794,30.199699,12.419872,32.731705,28.097992,20.000954,-1.142921,19.191685,20.416546,14.157887,-0.758295,-13.93872,-20.213951,-20.610234,-41.286511,-51.808055,-56.124764,-57.693518,-46.575233,-53.871152,-35.206226,-23.917694,-49.052428,-54.807072,-34.612017,-24.486153,-48.579759,-53.476536,-38.055806,-28.995755,33.215275,291.9733,-126.410236,-210.714142
76,-0.029297,-0.260031,0.059509,0.149575,-25.960464,-50.986748,-75.244217,-93.593616,-63.605804,-97.462177,-114.389935,-127.097454,-58.358116,-95.524406,-115.126019,-130.296879,-50.587807,-85.648041,-104.200516,-117.750893,-41.953239,-69.465008,-84.041691,-95.697899,-20.500952,-22.364455,-12.184221,-4.194273,5.678877,18.043285,23.745256,27.355186,23.840229,33.748267,38.148417,41.471947,37.26341,46.400062,50.095392,52.812472,46.105698,54.935081,57.052564,58.227674,21.641636,42.794895,59.007225,75.974064,32.991257,47.372074,62.990913,77.801399,23.556404,43.077164,38.418102,29.877663,11.986084,32.842941,28.187027,19.989853,-1.459751,19.003716,20.216389,14.015751,-0.339396,-13.886464,-19.968215,-19.996667,-41.170667,-51.6664,-55.985131,-57.458272,-46.368631,-53.230908,-34.073584,-22.331573,-48.764254,-54.186681,-33.681947,-23.125668,-48.279575,-52.716003,-37.317225,-28.065315,33.340445,291.662819,-126.19626,-210.615017
77,-0.316772,0.293623,1.423759,0.957286,-25.772896,-50.590553,-74.948444,-92.945652,-63.429337,-97.610092,-114.596615,-127.273178,-58.023491,-95.670319,-115.210476,-129.891014,-50.225487,-85.733585,-104.16441,-117.310295,-41.759033,-69.711971,-84.134216,-95.410995,-20.703555,-22.612816,-12.367064,-3.590601,5.486401,17.763062,23.529192,27.318444,23.650284,33.919007,38.471742,41.831211,37.022027,46.572037,50.275456,53.069601,45.747669,54.955891,56.977043,58.165245,21.134605,42.134743,58.226681,74.488964,30.98299,45.644703,61.249123,76.01778,21.509857,41.323528,36.944618,28.570347,10.058041,31.256618,26.799545,18.755779,-3.067074,17.590771,18.935394,12.96175,-0.900553,-14.537529,-20.100901,-19.713634,-42.6145,-52.325153,-56.361847,-57.507665,-47.853358,-53.173465,-33.775005,-21.841074,-49.844022,-53.962589,-33.24108,-22.610577,-48.694121,-52.111234,-36.408707,-27.067753,33.244829,291.889489,-124.551344,-209.724684
78,1.484528,0.339072,0.417023,1.940723,-26.292458,-51.444626,-75.905056,-93.235245,-64.075813,-97.824326,-114.77663,-127.328281,-58.906746,-95.605431,-114.91436,-129.748421,-51.328583,-85.864277,-104.068336,-117.195568,-43.007355,-70.151367,-84.211807,-95.398693,-20.111245,-22.575271,-12.667418,-3.428877,4.828635,16.789134,22.519449,26.249668,23.016663,33.304467,38.129027,41.592731,36.515674,46.227099,50.000358,52.584243,45.454664,54.887533,57.335628,58.658322,21.489143,42.161407,57.921524,72.987099,30.412617,45.002632,60.234318,74.507332,20.664082,41.490955,36.934319,28.387012,9.234982,31.020126,26.608715,18.296986,-3.758354,17.527199,18.596878,12.169762,-1.51463,-14.704116,-20.665377,-21.380632,-42.795691,-54.201532,-57.511509,-57.335458,-47.188708,-53.055985,-33.917155,-22.584627,-48.857389,-52.915966,-32.7828,-22.746598,-47.737329,-52.048712,-36.603606,-27.403984,35.103464,292.226199,-123.760214,-207.786323
79,-0.264359,-0.365933,-0.983047,3.453191,-26.315804,-51.035042,-75.185452,-93.06324,-63.076286,-96.633511,-113.700371,-126.344604,-58.187027,-95.217934,-114.92054,-130.008831,-50.992355,-85.614853,-103.928261,-117.193394,-42.77298,-69.694748,-83.911343,-95.230522,-19.829416,-21.575162,-11.32694,-2.631556,6.05117,17.856861,23.602675,27.165241,24.416854,34.178606,38.625438,41.666955,37.673556,47.365592,51.004605,53.379773,46.081677,55.677815,58.212978,59.353076,20.658302,41.612034,57.660255,71.138763,30.107517,45.699749,60.744495,74.545956,20.230408,41.85236,37.109871,29.013519,8.76503,30.622101,26.991405,19.271336,-3.916626,17.463398,19.923992,14.67144,-2.152897,-14.746894,-20.46279,-23.349591,-44.062856,-54.852536,-57.197755,-55.826896,-48.209041,-51.202593,-32.410429,-21.841646,-49.221346,-51.851636,-32.430205,-22.443403,-47.366935,-51.784745,-36.897677,-27.006821,34.985876,291.351288,-124.596491,-204.84211
80,0.636978,0.274481,-2.284412,5.694577,-26.503944,-51.409607,-75.814247,-94.078674,-63.515282,-96.909199,-114.063606,-126.761742,-58.65612,-94.920158,-114.009819,-128.586845,-51.561127,-85.279026,-103.318405,-116.49313,-43.736572,-70.020905,-83.958778,-95.300102,-20.109269,-22.359268,-12.590168,-4.12184,5.991272,17.268564,22.62251,25.958329,24.503057,34.012621,38.147552,40.966952,37.790635,47.497676,50.956687,53.196683,46.250873,56.047823,58.450161,59.722405,20.330887,42.235909,58.462772,72.666378,30.148773,46.267548,61.017494,75.157814,20.174103,41.872044,36.669903,28.491554,8.92004,30.658836,26.360722,18.462925,-3.156738,17.47982,18.646889,12.810516,-1.19572,-14.339387,-21.564896,-25.335715,-44.752098,-54.623164,-56.353874,-54.957759,-49.048754,-49.325596,-29.890889,-19.99324,-49.315747,-48.517422,-29.437502,-20.519461,-46.648299,-47.970391,-33.544738,-24.818185,35.971498,291.132228,-126.532259,-199.641073
81,-0.986023,0.738905,-11.663132,24.824237,-25.406227,-50.041466,-74.400387,-93.00293,-62.863197,-96.034184,-113.052177,-125.663853,-58.396225,-94.797707,-113.958778,-128.470974,-51.545563,-85.166245,-102.903557,-115.849571,-43.759804,-69.82481,-83.555889,-94.655628,-20.414254,-22.821285,-13.217984,-4.73039,5.326529,16.746773,22.177413,25.235664,24.275816,34.287163,38.03813,40.099421,37.92099,48.113019,51.25383,52.818091,46.509916,56.539295,58.931012,59.900987,29.505959,53.221378,69.349995,78.865185,58.07642,84.577961,99.817829,110.540142,44.502811,68.511372,71.972809,71.973324,28.016911,48.448906,43.007183,36.591511,10.842648,30.67297,29.750061,25.493031,-9.361332,-22.931849,-34.725143,-43.808104,-59.787073,-73.276065,-69.241262,-62.529517,-63.856719,-76.159407,-58.618925,-42.874808,-63.344067,-63.835029,-42.768088,-28.631474,-60.178339,-62.606334,-45.722336,-34.219238,35.125666,290.557425,-138.055201,-176.130546
82,0.652542,-0.316162,2.778683,12.681559,-26.046066,-50.660019,-75.001488,-93.348026,-62.899704,-96.336479,-113.635426,-126.397991,-58.311882,-94.771328,-114.000435,-128.606129,-51.483536,-85.170135,-103.101425,-115.959663,-43.86898,-69.936447,-83.617458,-94.488888,-20.171266,-22.616891,-13.126964,-4.374708,6.049997,16.817354,21.976972,24.984711,24.740364,34.40134,38.601973,41.15171,38.105068,48.087639,51.54239,53.373598,46.571667,56.860829,59.454593,60.420617,26.469097,47.562332,59.764652,74.144726,48.759098,68.114548,82.187347,91.395779,34.688129,55.243378,57.569733,55.767803,19.814415,40.372982,36.808205,30.251255,5.44733,25.100555,25.026054,19.559212,-8.933278,-25.164142,-37.465457,-41.948444,-59.488741,-76.684054,-73.854604,-67.59586,-64.110976,-73.3939,-54.853647,-40.549597,-62.975401,-60.416325,-39.468239,-27.671116,-58.422837,-55.511876,-39.917658,-30.122067,35.760756,289.422452,-135.29397,-164.267798
83,0.559731,-0.24484,5.510445,12.156587,-26.188431,-50.886497,-75.348358,-93.885098,-62.752075,-96.041565,-113.214226,-126.031952,-57.961235,-94.289932,-113.569221,-128.514118,-51.066055,-84.54752,-102.666836,-115.969448,-43.369217,-69.080372,-82.951355,-94.317627,-19.796688,-22.248612,-13.044404,-4.790597,6.029989,17.035271,22.285291,25.390781,24.733942,34.367315,38.460318,41.195738,38.339534,48.452831,51.910237,53.951891,47.016764,57.562684,60.57524,62.048419,23.780251,42.682571,53.452892,59.408913,40.823822,60.792503,74.224262,83.677769,26.50732,46.790314,46.568699,41.110554,12.27562,33.72282,31.809654,25.26535,-1.606464,19.009495,20.639763,15.698776,-7.304997,-22.542127,-36.652497,-47.43997,-54.934386,-78.063003,-87.769458,-92.894788,-56.884186,-64.333648,-45.517031,-34.440412,-54.048299,-53.212152,-35.545513,-26.864424,-48.91403,-48.352163,-33.941438,-25.19582,36.553459,288.634208,-129.550552,-152.654614
84,0.440369,-0.148016,1.070309,10.64239,-26.265564,-50.744591,-74.888477,-93.76339,-62.082253,-95.324707,-112.572041,-125.493908,-57.144241,-93.358269,-112.865639,-128.175316,-50.038719,-83.548794,-101.851501,-115.482559,-42.079582,-67.83783,-81.739655,-93.398895,-19.833924,-22.266087,-13.082998,-5.56081,5.397048,16.877129,22.319501,25.668473,23.955455,33.683059,37.784521,40.654804,37.704184,48.045155,51.708498,54.086445,46.689734,57.604428,60.973715,62.931018,25.955944,45.334854,56.676064,62.838764,39.111156,53.064423,62.392616,69.054737,24.715347,42.753525,43.94062,38.891258,11.450615,29.927273,28.265991,22.550125,-0.610256,15.979042,17.146282,13.265133,-6.177341,-22.558228,-36.309103,-46.698471,-52.14302,-76.256634,-75.48588,-70.023562,-53.164125,-53.063086,-31.318728,-18.591521,-48.132733,-41.324703,-21.327126,-10.770862,-41.334275,-35.2166,-20.132055,-10.582153,38.174887,289.200521,-127.299185,-141.297895
85,-0.703697,-0.212792,-1.821928,40.645811,-25.921783,-50.096397,-74.012032,-92.762318,-61.196136,-94.364834,-111.741943,-124.901104,-56.084061,-92.413158,-112.106323,-127.377892,-48.946152,-82.495766,-100.991879,-114.838371,-40.64003,-66.395073,-80.633068,-92.605534,-19.507264,-22.217304,-13.528095,-5.606443,6.298295,17.368724,22.649742,26.025082,24.837189,34.247705,38.28649,40.971522,38.438396,48.608936,52.467287,54.988927,47.18633,58.30196,62.159138,64.651261,28.851328,48.978167,60.696717,68.005886,44.602662,59.501496,70.468226,78.501177,30.419112,49.794131,54.079457,52.631121,16.470681,35.507985,34.294167,29.937344,3.753319,20.56572,21.589423,18.624602,-10.79063,-29.061781,-43.736697,-54.675111,-59.803028,-84.596659,-83.872574,-78.511434,-61.868486,-67.437432,-48.468685,-33.9058,-57.853227,-50.193868,-29.556796,-15.636833,-51.150737,-44.729667,-29.478782,-18.368192,39.161482,290.027807,-127.430821,-99.612006
86,-0.006294,0.239159,-1.821928,40.645812,-25.746918,-50.018692,-74.000874,-92.295341,-61.281967,-94.179497,-111.353931,-124.386749,-55.830803,-91.773148,-111.065254,-125.930672,-48.480148,-81.498642,-99.740982,-113.364944,-40.316734,-66.104164,-80.209064,-92.106514,-19.693565,-22.703959,-14.331468,-5.847517,6.070436,17.253559,22.443805,25.817168,24.759569,34.389607,38.388687,41.16585,38.398073,48.917935,52.685452,55.118788,47.107228,58.341233,61.955362,64.146328,31.746712,52.621479,64.717369,73.173008,50.094166,65.938568,78.543835,87.947617,36.122875,56.834736,64.218292,66.370983,21.490746,41.088696,40.322342,37.324562,8.116894,25.152397,26.032562,23.98407,-15.403918,-35.565335,-51.164292,-62.651752,-67.463035,-92.936686,-92.259268,-86.999306,-70.572848,-81.811778,-65.618643,-49.22008,-67.573723,-59.063034,-37.786466,-20.502804,-60.967201,-54.242735,-38.82551,-26.154233,40.363398,292.012897,-128.044538,-57.220263
87,0.848236,0.173519,6.456871,30.237864,-25.526619,-49.884109,-73.891296,-92.511177,-60.941505,-93.554249,-110.930672,-124.322605,-55.756416,-91.549873,-111.188965,-126.618176,-48.554649,-81.533031,-100.086937,-114.059086,-40.457382,-66.280861,-80.574417,-92.655087,-19.976258,-23.064026,-14.451758,-6.204496,6.028754,17.291844,22.509013,25.761716,24.693434,34.336131,38.338176,41.022404,38.303904,48.647283,52.434745,54.841899,46.995769,58.121958,61.855326,64.061236,30.731049,49.34764,60.26084,67.866354,46.622601,62.793417,73.480282,79.417477,34.486399,55.795727,63.090392,63.892937,22.523375,42.366343,43.875246,41.009589,11.839514,28.286133,31.204119,29.554453,-16.460776,-37.254316,-51.228697,-60.413716,-66.017689,-88.174663,-85.464353,-79.757364,-66.589699,-79.230726,-65.789753,-51.856143,-61.684678,-61.368593,-44.207397,-28.950878,-54.277732,-53.388989,-40.941032,-29.51398,42.657394,292.551654,-120.141907,-26.61716
88,1.04702,-0.018402,6.456871,30.237865,-25.794983,-50.276871,-74.303112,-92.870235,-60.343895,-93.054199,-110.522289,-123.897572,-55.247726,-91.02602,-110.854568,-126.556206,-48.108559,-81.328125,-100.051346,-114.29369,-40.033035,-65.984344,-80.392742,-92.619953,-19.627677,-22.608802,-13.968684,-5.498318,6.190355,17.547862,22.66308,25.834458,24.62909,34.054488,38.220479,41.127627,38.120073,48.192986,52.117718,54.707345,46.746606,57.803943,61.815867,64.411484,29.715385,46.073799,55.80431,62.5597,43.151035,59.648266,68.416729,70.887337,32.849922,54.756718,61.96249,61.41489,23.556004,43.64399,47.42815,44.694614,15.562134,31.419868,36.375675,35.124836,-17.517635,-38.943299,-51.293103,-58.175681,-64.572344,-83.412642,-78.669438,-72.515423,-62.606551,-76.649675,-65.960864,-54.492207,-55.795635,-63.674153,-50.628329,-37.398952,-47.588264,-52.535244,-43.056555,-32.873727,46.30703,292.024846,-111.08242,3.112298
89,0.957069,0.673265,-4.990053,38.876068,-25.490227,-50.227203,-74.494228,-93.167038,-60.764351,-93.328686,-110.700016,-123.896313,-55.508308,-91.329975,-110.823441,-126.139126,-48.156967,-81.271591,-99.906006,-114.05302,-39.693604,-65.974159,-80.589867,-92.866058,-20.080431,-23.352647,-14.686718,-5.803304,6.74648,17.570215,22.75972,26.263191,25.206456,33.948956,38.267224,41.570933,38.575729,48.186687,52.277961,55.168436,47.00534,57.606898,61.687921,64.62088,26.868983,47.303667,63.432942,73.406496,39.973126,64.23666,73.997469,76.084786,31.130963,61.901121,63.351918,58.242903,24.370966,53.579693,51.745234,45.468378,19.795218,43.847809,43.986225,39.159365,-21.298921,-40.704976,-51.090655,-56.738162,-61.929288,-72.00873,-64.319862,-56.97885,-54.188194,-54.373523,-43.970168,-38.045741,-42.450259,-39.220558,-29.155812,-23.260223,-29.263906,-26.51504,-19.405391,-14.632347,52.709684,291.093078,-110.626889,40.383334
90,0.018539,-0.556989,-4.990053,38.876068,-25.838127,-50.474167,-74.59362,-93.416119,-60.218124,-93.114395,-110.310688,-123.362446,-54.741783,-90.886688,-110.292149,-125.484467,-47.274628,-80.683479,-99.331741,-113.531628,-38.820648,-65.114594,-79.743977,-92.073669,-19.413342,-22.118071,-12.865328,-4.057681,7.603266,18.975469,24.106929,27.409402,25.857553,35.129254,39.369654,42.683799,39.14408,49.224526,53.292582,56.187935,47.681754,58.454854,62.47283,65.424129,24.022579,48.533535,71.061573,84.253292,36.795216,68.825054,79.578209,81.282234,29.412003,69.045525,64.741344,55.070915,25.185928,63.515396,56.062317,46.242142,24.028301,56.275749,51.596775,43.193893,-25.080208,-42.466654,-50.888206,-55.300643,-59.286231,-60.604818,-49.970286,-41.442276,-45.769838,-32.09737,-21.979473,-21.599275,-29.104883,-14.766963,-7.683295,-9.121493,-10.939549,-0.494837,4.245773,3.609034,57.32892,290.990511,-111.016245,79.713823
91,-0.077934,0.75354,3.883724,33.583795,-24.928551,-49.831581,-74.1465,-92.168255,-60.364494,-93.408794,-110.56921,-123.530788,-54.972839,-91.237049,-110.663109,-125.462265,-47.444916,-80.836773,-99.572811,-113.646984,-39.102516,-65.672379,-80.507469,-93.02021,-19.940999,-22.764969,-14.209079,-5.102313,6.652989,18.782993,24.063395,27.399955,25.285188,35.402499,39.437271,42.366834,38.857249,49.496907,53.448934,55.972796,47.517066,58.486903,61.843655,63.917728,20.494252,46.441756,69.961367,82.568436,49.931946,79.595003,88.124285,88.604193,46.25742,79.019881,74.611874,65.687542,41.229487,69.908896,62.317715,53.195343,35.826559,58.86632,52.870331,45.091982,-25.251766,-41.281169,-49.863597,-58.686619,-46.034376,-43.339094,-34.446047,-28.129551,-30.201787,-18.902697,-11.73389,-10.808221,-13.039588,-2.451816,1.505629,0.706934,4.710491,11.868321,12.712496,10.724456,58.194408,291.435006,-106.189099,112.988573
92,1.406937,-0.457138,3.883725,33.583795,-25.294991,-50.1828,-74.431629,-92.928886,-60.457764,-93.178368,-110.247002,-123.447018,-55.428314,-91.095486,-110.584373,-126.043854,-48.192329,-81.144047,-99.813766,-114.068699,-39.937019,-65.666542,-80.038662,-92.315254,-19.202649,-21.927263,-13.14586,-4.624056,7.391586,19.259645,24.383076,27.46047,25.617899,35.168403,39.226455,42.282236,39.056395,49.421633,53.628566,56.459143,47.689843,58.862654,63.129916,66.09548,16.965923,44.349976,68.86116,80.883579,63.068676,90.364952,96.670361,95.926151,63.102837,88.994236,84.482403,76.304169,57.273045,76.302395,68.573112,60.148544,47.624817,61.45689,54.143887,46.99007,-25.423324,-40.095685,-48.838987,-62.072595,-32.782522,-26.07337,-18.921808,-14.816826,-14.633736,-5.708023,-1.488308,-0.017167,3.025708,9.863332,10.694554,10.535361,20.360531,24.231479,21.179218,17.839879,59.647665,290.474941,-102.259054,146.069442
93,-0.048637,0.123563,2.270908,19.938714,-25.198059,-49.873009,-74.206924,-93.202572,-60.194206,-93.279762,-110.480976,-123.633842,-54.855766,-91.431599,-110.836258,-126.075039,-47.583046,-81.3624,-100.268326,-114.781151,-39.508781,-66.352959,-81.557064,-94.390182,-19.29089,-22.026434,-13.424478,-4.734281,8.042868,19.424024,24.808722,28.439152,26.550084,35.787019,39.799684,42.91703,39.9858,49.877475,53.693712,56.411842,48.547742,59.274406,62.753609,65.170212,31.497002,57.218113,75.451813,85.232849,56.53965,81.027145,92.279778,100.198975,46.086788,71.394768,81.790695,87.216911,34.786091,59.844532,69.387932,71.576328,24.117908,40.598145,48.071194,49.249249,-20.900291,-30.94486,-40.592992,-51.363746,-20.099265,-15.261985,-7.455374,-1.955883,-7.933816,-3.325074,2.708805,4.481413,3.527986,7.828161,10.888018,10.013879,14.208152,16.671253,16.33391,12.318404,60.531492,290.592622,-99.055681,166.002274
94,0.552292,0.124736,1.584091,32.144115,-25.213509,-49.770355,-73.856678,-91.828022,-60.651855,-93.258247,-110.27544,-123.600769,-55.421104,-91.19442,-110.382671,-125.778236,-48.152046,-81.359196,-99.990063,-114.347019,-39.954185,-66.482735,-81.523647,-94.337254,-19.082853,-21.872119,-13.314439,-3.773197,8.749539,19.987003,24.843488,28.081185,26.910212,35.901381,39.663463,42.576724,39.810923,49.401132,53.502656,56.471246,47.980379,58.383533,61.97753,64.517386,25.760765,52.354832,73.587112,84.5854,58.254375,92.439308,100.717621,100.316849,51.743546,87.067051,92.281494,89.508476,43.734112,75.773506,77.482796,73.029785,34.620781,60.413761,62.312679,58.80621,-19.397719,-29.291925,-37.163436,-49.009017,-11.001453,1.828985,1.51375,-1.518566,6.861706,18.358644,14.543704,9.631521,22.489562,29.72387,22.723534,16.865581,35.493766,37.350169,30.689029,26.049288,61.420441,289.803653,-97.134933,197.232684
95,-0.655632,-1.10348,-2.077503,16.240729,-24.936333,-49.738541,-73.736229,-93.39283,-60.440369,-92.774792,-109.222469,-122.045174,-55.503273,-91.103497,-109.988365,-125.02161,-48.310661,-81.313019,-99.61504,-113.664722,-39.828873,-66.141129,-81.111374,-93.665085,-18.695431,-20.018743,-9.823688,-1.120399,10.953782,22.013096,27.029329,30.794436,28.627923,37.360852,40.826408,43.922636,40.960469,50.871842,55.173376,58.563226,48.46197,58.917859,62.797822,65.749801,29.998398,56.683159,77.083969,93.267803,55.714531,85.246639,100.914173,112.093449,46.573048,79.382973,97.523174,108.868847,38.75267,69.360695,86.029644,95.953503,31.512794,53.775101,65.154305,71.847839,-18.282012,-25.432031,-30.597144,-36.357284,-9.530003,2.061661,9.125044,13.887112,4.719646,18.117818,23.640219,25.532622,16.863791,29.115566,32.069212,31.11171,27.444415,35.783067,35.694085,32.45262,60.761147,288.401949,-99.216099,213.175189
96,-0.8955,3.036453,2.606163,17.74429,-23.478127,-43.236237,-62.368584,-76.885357,-60.272255,-91.95631,-108.215218,-120.796509,-56.555672,-90.579529,-109.8032,-124.813385,-49.30378,-80.751114,-99.080601,-113.125591,-40.93586,-65.395775,-80.038433,-93.05912,-20.13576,-28.910925,-35.007482,-38.082344,7.906832,18.344874,23.826211,27.61781,25.094318,35.093624,39.21003,41.641205,37.853188,48.437949,52.673904,54.410326,46.38271,57.858037,61.969935,63.924706,30.27935,53.855152,72.37936,91.842327,51.858673,76.678333,93.384647,108.11388,42.745113,71.047268,91.459866,108.638935,34.069977,58.715286,77.920189,92.772388,25.83395,43.117332,56.51865,67.102833,-17.353718,-22.102078,-26.368599,-32.020367,-1.994106,10.079334,17.871989,24.072657,7.632227,21.668714,28.392037,33.192452,15.140645,28.731232,33.961862,36.11621,20.587526,30.526995,33.347445,33.767595,60.061712,290.960531,-96.41387,230.441608
97,0.936356,-1.048398,66.629734,49.15518,-21.236687,-48.163147,-72.519379,-90.94162,-54.53064,-86.390877,-105.854015,-120.795765,-53.921356,-86.506062,-106.911564,-122.845802,-51.388779,-82.148037,-99.894905,-113.60487,-47.443085,-75.178471,-87.445507,-96.673851,30.806169,48.115304,58.850983,66.940164,33.358561,39.042748,43.256719,45.51098,16.280187,21.627217,24.850589,25.015092,-1.154794,-4.91101,-7.210904,-10.741237,-16.725531,-21.827289,-22.996903,-24.821813,-4.871693,-0.939388,8.840904,23.57975,7.950668,17.102909,21.478157,22.765617,13.362808,20.475883,17.365265,7.247772,18.154049,20.651093,11.631546,-4.126167,21.624641,22.235527,13.183365,-3.194904,-32.84665,-47.72288,-53.614919,-58.844623,-25.704844,-7.155946,1.300217,8.306542,1.218089,22.720014,31.540875,36.184877,27.568657,47.115009,55.635145,58.736251,50.172642,66.182301,71.246884,72.239399,61.004791,289.62081,-29.777412,279.305465
98,-2.053185,0.010127,-50.293751,-4.584165,-26.396713,-53.463478,-75.113297,-93.511162,-54.369621,-81.253567,-100.302429,-116.41634,-51.257057,-79.608879,-99.953098,-117.011433,-46.700592,-72.889194,-90.307045,-103.870583,-40.847054,-63.017235,-76.391315,-87.247295,25.697681,42.554185,52.520887,59.901852,37.543077,42.96995,45.581993,46.308239,24.837374,29.140266,28.703074,25.531264,11.811557,14.914145,14.116144,12.161991,-1.824045,0.865309,3.617277,5.586745,14.048767,37.175789,59.890308,79.599323,40.025139,75.302868,92.341633,100.483532,39.922371,80.326252,96.518269,98.304691,38.743973,75.964451,89.016781,89.492283,36.139355,64.357395,75.032558,76.087818,-25.86805,-35.611277,-35.942754,-39.533108,-7.20547,5.668194,11.908629,15.555917,20.17528,31.954418,32.16968,29.650881,40.534823,49.039769,48.187922,45.967007,53.296163,63.792745,63.474977,60.599199,58.761005,289.29909,-80.261765,274.389453
99,-3.893509,4.204524,-6.191025,-4.318639,-25.741425,-49.489288,-69.562283,-84.798203,-40.695419,-63.383904,-78.968182,-91.952763,-41.236725,-69.004784,-91.007366,-109.767609,-40.416298,-68.905621,-90.611115,-109.917183,-37.713203,-59.107475,-75.812473,-92.28241,-13.437137,-13.806342,-7.523794,-1.21389,5.434901,4.803503,1.204318,-3.817904,19.577474,20.932093,16.167987,9.156351,31.001362,37.600135,36.636952,32.211238,38.805256,49.717665,54.919705,56.794694,23.703461,49.105225,70.951195,88.688335,47.140846,82.070675,100.507793,113.813839,39.973011,79.042797,99.132099,111.007404,33.59808,69.811649,88.4519,98.766804,28.491383,56.1133,70.838013,79.315853,-17.282829,-20.035353,-18.719452,-22.572369,8.479567,22.045947,29.187135,35.00353,28.241798,40.907116,44.646289,46.319478,42.433278,54.901859,56.74233,55.872205,50.528201,61.697801,62.778186,60.179543,54.783726,293.093205,-86.53656,269.660406
100,-2.542992,3.924733,3.166637,4.089483,-18.082809,-38.25325,-54.774628,-66.739483,-38.778992,-56.138649,-67.366161,-77.69846,-40.800247,-62.287159,-80.247517,-95.247002,-41.260529,-63.855858,-82.281761,-97.515564,-39.392853,-57.538033,-72.749348,-88.048496,-20.65119,-28.566976,-29.684349,-30.322849,-1.946188,-0.032357,-2.366708,-6.731721,15.98854,20.525158,16.921033,11.506325,29.560478,37.39852,35.388173,31.209584,39.297221,49.545752,53.91484,55.892706,25.406628,50.197105,72.319508,90.436592,49.253769,81.347466,101.321182,115.90519,41.079884,77.877731,100.078812,114.188232,34.165249,67.46664,87.34417,100.71991,28.838539,54.675064,69.691257,80.454369,-14.658189,-16.566462,-16.55121,-21.31865,14.075389,26.615292,33.105693,38.276302,31.917985,45.326346,49.58132,52.084867,44.128203,58.018835,61.397076,62.02761,50.936989,62.497839,63.905687,62.700133,52.004871,297.012936,-83.605785,273.744887
101,-5.161514,-2.212517,2.138386,3.222445,-16.389427,-35.580597,-49.441109,-59.555054,-41.945343,-50.672493,-52.845955,-54.647484,-41.008987,-54.126205,-64.784088,-70.789089,-38.338737,-55.482903,-66.48674,-72.468796,-33.679962,-51.33831,-65.545464,-78.486958,-19.89518,-26.532361,-26.215767,-26.053672,1.654355,5.514991,1.976631,-3.355641,17.435846,23.207472,20.249133,14.565996,30.284996,39.609678,38.649459,35.455913,40.530006,50.751552,55.393948,57.29407,25.987988,50.511589,72.918949,90.984821,50.54163,83.592739,103.175411,117.748775,42.30566,79.640064,102.097378,116.78484,35.563145,69.534645,90.241642,104.527531,30.188999,56.306648,72.245007,84.583111,-14.878577,-16.743254,-16.595794,-22.071944,13.257566,25.743747,32.285956,37.608965,30.701132,43.592703,48.259305,50.550616,43.175641,56.853234,60.824032,61.751029,50.560682,63.035809,65.375964,64.75389,46.714268,294.804062,-81.596489,276.970975
102,-5.518456,1.119535,3.041782,1.690232,-14.693413,-33.087502,-45.835419,-54.956417,-38.662148,-37.755432,-30.370445,-25.871429,-36.206245,-39.041176,-35.785446,-32.130432,-31.397552,-37.832565,-34.151115,-31.136513,-24.646225,-37.260933,-44.447594,-50.909958,-15.209188,-18.220324,-18.84567,-17.931579,4.552981,9.83752,8.095356,4.696675,14.778417,21.659945,21.382377,18.588294,23.050441,31.943179,33.559188,33.627237,29.34818,38.004476,41.415446,43.695888,25.110569,49.481335,71.992607,89.723625,51.231766,85.09346,104.282684,118.505402,42.914257,80.310745,102.189445,116.236038,35.587463,69.474335,89.584808,103.302498,29.417381,55.231647,70.626526,82.287483,-15.123664,-17.945472,-17.748303,-22.074784,12.411709,25.683664,32.091936,37.135525,30.105178,43.402389,47.629513,49.122453,42.38431,56.447225,59.885117,59.985523,49.605341,61.963636,64.43532,63.651337,41.011162,296.074839,-78.739357,278.81245
103,-8.440361,-2.511636,4.007092,0.405824,-16.291695,-37.545776,-55.467682,-72.558632,-62.569027,-48.620796,-23.112946,-4.313049,-63.591785,-43.826923,-17.820396,6.143188,-60.445118,-44.878693,-19.221039,1.904526,-55.292702,-67.330284,-72.827625,-75.86895,9.370625,21.533233,35.177357,45.666282,18.428608,29.780865,30.719718,30.391515,18.618675,29.126681,31.982638,30.757757,17.425658,29.589933,30.910218,30.764796,17.575588,30.458391,39.107277,49.086514,24.170666,48.476315,70.966816,88.89719,51.58144,84.899426,103.952236,118.397999,43.918419,80.738239,102.847996,117.601833,36.908627,70.564327,90.622387,104.719219,30.544109,56.496964,72.006283,84.311543,-14.851159,-17.426646,-16.613084,-21.087086,13.74453,26.230587,32.284721,36.89124,31.005808,43.23418,47.640566,49.472269,43.064923,56.246783,60.037826,60.602842,50.374134,62.672099,64.924074,64.127371,32.533808,293.628427,-74.769258,279.283497
104,-17.307472,14.800833,3.357639,0.930393,-6.758652,-14.992676,-18.583717,-21.090775,-33.559456,-16.557541,1.070595,11.193695,-36.748352,-12.700195,7.207947,24.120827,-34.372959,-14.471855,5.597534,21.366348,-29.667549,-38.829575,-48.496628,-55.584011,-3.429124,-1.564138,-0.706301,-0.282446,5.470716,12.354837,15.264887,17.982461,10.739323,17.295426,20.641372,22.469431,14.823372,22.898967,24.584321,26.220522,19.192584,26.124376,31.77917,37.172143,24.507351,48.385849,70.999146,88.32058,52.921085,85.778275,104.042587,117.854233,45.086002,81.224327,102.632904,117.050972,37.122974,70.184212,89.973793,103.981361,29.368858,54.62019,70.528793,83.578491,-14.780393,-17.889835,-16.898926,-21.31618,12.267769,24.990824,30.967338,34.909113,29.641742,42.193624,47.582521,49.535933,42.233145,55.982677,60.739558,61.529469,50.188141,63.44472,66.684949,66.174088,15.477476,308.504302,-71.160479,280.288933
105,12.13131,-10.586244,3.134708,0.562485,-2.533836,-10.581779,-18.767853,-25.853119,-42.186356,-26.722641,-4.364548,11.55407,-48.651123,-31.134453,-8.273849,12.849312,-50.374031,-38.815842,-17.467003,-0.031242,-48.979454,-62.786808,-69.775314,-74.50367,-18.597372,-28.049198,-30.93214,-29.867378,0.341603,15.531772,19.075258,19.444772,17.230464,30.500381,31.849998,29.85052,28.759205,40.751382,39.33211,37.572409,38.763142,49.077251,54.856411,60.614143,25.235767,49.469604,71.452389,89.089565,52.039776,84.776287,102.540035,115.973682,43.278522,79.481792,100.83498,115.111942,34.416103,67.377033,87.10516,100.956287,26.138935,50.378151,65.606174,77.483196,-13.763117,-16.117784,-14.815653,-19.639101,13.511546,27.462446,33.408023,37.256123,31.498576,44.970726,50.610205,52.759552,44.099612,58.65684,63.467814,64.443841,51.582342,65.366948,68.332882,67.427313,28.083544,297.737515,-67.551012,280.670875
106,-32.584419,9.861788,0.654316,2.064255,2.987938,4.207191,12.091026,21.548996,-10.878124,16.716957,37.177849,49.97921,-17.396164,9.547119,30.489922,47.549629,-20.559196,1.688461,23.381882,37.798347,-18.371487,-28.659153,-36.272678,-44.73484,-24.335961,-36.51129,-40.295787,-40.434046,-8.024775,3.369349,12.15316,17.766149,10.701223,22.070338,27.366918,28.466137,23.374569,32.70592,33.684356,32.724631,33.131381,40.969731,45.828933,48.265975,24.114361,48.275986,70.416641,87.702026,51.903534,84.197273,101.712685,115.075493,43.285847,79.989624,101.129837,115.444107,34.514866,68.347321,88.552666,102.775841,26.340523,51.774902,67.734718,80.097084,-14.912477,-16.851687,-14.436752,-18.384518,13.455353,26.920216,32.890184,36.817572,31.492093,44.713226,50.011412,52.130624,43.984757,58.159132,62.271832,63.047047,51.223449,64.039932,66.51106,65.546642,-4.147282,307.433735,-66.543102,282.569561
107,-4.736481,2.835208,-0.558643,0.891367,3.892136,6.094093,16.34182,26.942253,-1.077518,29.157028,50.831451,64.611511,-8.174686,19.62925,40.140152,55.872345,-13.212032,6.741486,25.243378,37.17453,-14.480553,-25.267353,-34.051323,-43.20322,-19.925623,-31.56292,-40.747738,-49.211003,-6.586793,5.830906,12.565962,17.730643,10.165168,21.466604,23.64553,23.768166,22.506543,32.202161,33.152993,33.519914,32.163134,38.330704,41.198887,43.275059,24.148693,48.369312,70.210705,87.076664,50.631924,83.93034,101.862659,115.523014,42.092972,80.144978,101.461315,116.075191,33.970013,68.980808,89.509792,104.105015,26.728992,53.493004,70.005627,82.927036,-15.048081,-16.423942,-13.720324,-18.299549,12.388553,26.126908,32.318992,36.69333,31.137522,44.003591,49.124861,51.484468,44.217124,57.696868,61.617216,62.651474,51.84262,63.675852,66.101593,65.384177,-8.68784,310.046997,-66.905823,283.238982
108,28.755455,-13.381561,0.107632,0.167899,-1.950188,-6.819763,-11.962967,-18.11245,-36.054955,-18.335381,4.712334,20.770798,-42.275333,-20.722847,2.409096,23.71273,-44.290066,-27.941895,-5.364876,11.636009,-43.840199,-55.898495,-62.366409,-67.228203,-19.91636,-26.764913,-26.568177,-23.17283,2.700593,19.357581,23.030619,23.353265,19.746732,34.159155,36.269351,34.000086,30.484696,44.228177,43.626851,41.197899,38.798093,48.834449,54.520674,58.518642,23.166332,47.643185,69.976387,86.816826,50.780926,83.916779,101.738548,115.167847,42.538319,80.397491,101.414223,115.87635,34.294968,69.454308,89.903526,104.591446,26.605225,53.850174,70.529938,83.810806,-15.41704,-16.73535,-13.625352,-17.53298,12.657846,25.770423,31.786766,36.036676,30.707492,43.247272,48.330133,50.590569,43.450863,56.712752,60.625319,61.533359,50.940755,62.871923,65.494772,64.878317,20.137939,296.456843,-66.727867,283.198288
109,-29.281654,14.799289,0.551147,0.027417,3.862152,6.383743,15.969887,27.507362,-4.936409,25.190048,48.017235,62.579956,-11.400032,18.896255,40.178375,56.756516,-14.784451,8.953056,29.314041,43.006096,-13.415108,-23.095779,-32.389069,-42.075462,-21.555957,-35.191251,-43.688787,-50.883636,-10.765443,0.103679,8.599301,14.559574,7.676564,19.126264,22.068856,22.112143,21.125063,29.517932,29.4258,29.006824,31.158579,37.779643,40.893531,42.321139,24.582081,48.98489,70.783081,87.542839,52.447929,84.297295,101.736717,115.43232,43.78624,79.764061,100.376701,114.839172,34.687042,67.9953,87.875175,102.194138,25.834465,51.878128,67.884178,80.512962,-14.680666,-15.715295,-13.205017,-18.56557,11.896834,25.675142,31.981279,36.206984,29.557884,43.175641,48.885393,51.398017,42.342443,56.211956,60.559679,61.488343,50.295649,62.653327,65.097099,64.158184,-9.143801,311.106742,-66.176805,283.076316
