takenoko1/special-research/HandMotion_SimilarSearch_自分用/NewProject/handData/key/d4_feature_d2/117.csv
,vel_0x_L,vel_0y_L,vel_0x_R,vel_0y_R,posFromWrist_1x_L,posFromWrist_2x_L,posFromWrist_3x_L,posFromWrist_4x_L,posFromWrist_5x_L,posFromWrist_6x_L,posFromWrist_7x_L,posFromWrist_8x_L,posFromWrist_9x_L,posFromWrist_10x_L,posFromWrist_11x_L,posFromWrist_12x_L,posFromWrist_13x_L,posFromWrist_14x_L,posFromWrist_15x_L,posFromWrist_16x_L,posFromWrist_17x_L,posFromWrist_18x_L,posFromWrist_19x_L,posFromWrist_20x_L,posFromWrist_1y_L,posFromWrist_2y_L,posFromWrist_3y_L,posFromWrist_4y_L,posFromWrist_5y_L,posFromWrist_6y_L,posFromWrist_7y_L,posFromWrist_8y_L,posFromWrist_9y_L,posFromWrist_10y_L,posFromWrist_11y_L,posFromWrist_12y_L,posFromWrist_13y_L,posFromWrist_14y_L,posFromWrist_15y_L,posFromWrist_16y_L,posFromWrist_17y_L,posFromWrist_18y_L,posFromWrist_19y_L,posFromWrist_20y_L,posFromWrist_1x_R,posFromWrist_2x_R,posFromWrist_3x_R,posFromWrist_4x_R,posFromWrist_5x_R,posFromWrist_6x_R,posFromWrist_7x_R,posFromWrist_8x_R,posFromWrist_9x_R,posFromWrist_10x_R,posFromWrist_11x_R,posFromWrist_12x_R,posFromWrist_13x_R,posFromWrist_14x_R,posFromWrist_15x_R,posFromWrist_16x_R,posFromWrist_17x_R,posFromWrist_18x_R,posFromWrist_19x_R,posFromWrist_20x_R,posFromWrist_1y_R,posFromWrist_2y_R,posFromWrist_3y_R,posFromWrist_4y_R,posFromWrist_5y_R,posFromWrist_6y_R,posFromWrist_7y_R,posFromWrist_8y_R,posFromWrist_9y_R,posFromWrist_10y_R,posFromWrist_11y_R,posFromWrist_12y_R,posFromWrist_13y_R,posFromWrist_14y_R,posFromWrist_15y_R,posFromWrist_16y_R,posFromWrist_17y_R,posFromWrist_18y_R,posFromWrist_19y_R,posFromWrist_20y_R,posFromBody_0x_L,posFromBody_0y_L,posFromBody_0x_R,posFromBody_0y_R
2,1.747913,-15.023628,-0.392761,-1.617676,13.159218,17.843742,18.836288,13.868065,-9.188633,18.648491,40.442276,55.270958,-16.706371,15.586739,36.754417,53.136292,-18.394432,9.734173,30.270767,45.498161,-15.910149,-0.247879,16.317787,30.722008,-15.494043,-22.652768,-23.376051,-19.769456,-2.941296,11.60951,17.384593,20.763453,9.128996,24.816688,30.023668,33.136815,18.820785,34.242456,37.404015,37.913456,27.138812,40.925024,42.610872,41.908399,24.423523,48.535309,71.735916,91.454887,50.270863,82.671089,100.52021,114.249573,42.14613,77.928543,98.732758,113.157578,33.543606,67.090359,86.648483,100.462303,25.531712,51.612282,67.231522,80.075569,-14.305409,-16.01534,-11.559862,-10.570806,12.583375,26.998886,33.216967,37.043208,29.570482,42.294401,48.082699,50.42798,42.01992,56.076352,60.43025,60.854722,50.101753,64.496206,67.446146,65.989269,-12.971735,303.143224,-71.6504,285.155143
3,25.830231,-0.167467,0.362263,0.329377,4.79393,1.35807,-6.501389,-15.708218,-22.605629,-1.444473,16.141663,24.191666,-32.923679,-7.022438,9.44355,21.47049,-39.360695,-19.847088,-3.526039,7.85511,-43.748531,-48.175564,-49.525166,-49.395275,-22.720385,-31.577246,-32.643367,-34.136492,-4.930276,9.43429,10.89975,10.503745,14.709257,26.794368,25.532684,23.89037,28.226854,36.823191,34.219608,32.971077,38.381771,46.772232,44.749042,41.262428,24.928265,48.555565,71.608372,91.332493,50.907383,83.196316,100.82777,114.162312,42.675076,78.100147,98.638287,112.806988,33.930531,67.210522,86.702328,100.378132,25.647354,52.033195,67.831764,80.736408,-14.509062,-16.333046,-11.866083,-10.642684,12.886323,26.777078,33.000223,36.761935,29.700775,42.19523,47.909304,49.986403,42.08377,56.293405,60.680277,60.738076,50.198824,64.655645,67.583232,65.951046,13.143053,303.101851,-71.00358,285.610614
4,-25.237312,8.1957,-0.196381,0.008213,10.848541,16.295471,18.303909,18.93013,-5.263081,23.5326,42.565269,54.031105,-15.138474,15.413933,37.260704,55.069199,-20.043011,7.169323,27.489624,44.235306,-21.899929,-8.217373,6.231823,19.636345,-22.071079,-34.983461,-39.797708,-42.351335,-13.416821,-3.301054,3.549167,8.585901,4.711989,16.794568,21.037995,22.6419,19.545734,28.661145,29.735046,29.063264,30.886136,39.213488,38.169412,33.553815,24.764729,48.669491,71.777515,91.419811,50.564747,83.171711,101.035938,114.524059,42.241058,78.189526,98.959064,113.226986,33.510475,67.311344,86.821117,100.37447,25.39753,51.769924,67.40221,79.887142,-14.88858,-16.582209,-11.908382,-10.665284,12.217381,26.56793,32.850849,36.77589,29.062646,42.070494,48.163716,50.70703,41.4964,55.869488,60.434449,60.918263,49.630906,64.209931,67.157031,65.643281,-11.826525,311.385777,-70.932226,285.707053
5,-0.518417,9.331475,-0.003376,-0.296217,8.541355,13.914986,17.137756,21.307526,-1.769657,24.203568,42.305946,53.871574,-10.723801,18.204918,37.773514,54.460373,-16.13039,8.743458,26.886406,42.044678,-18.174706,-12.647896,-8.874092,-3.571587,-21.405533,-36.086817,-46.275635,-51.992118,-16.625496,-7.572885,-0.137271,5.493625,-0.247434,10.653058,15.582284,18.528705,12.70984,21.052691,22.561439,22.737366,21.661736,28.964895,29.683608,26.57324,24.877796,48.605003,71.45771,91.013374,50.238304,82.484322,100.162697,113.582382,42.073917,77.774162,98.483849,112.686768,33.491707,66.893692,86.556358,100.323029,25.439358,51.821594,67.533531,80.047989,-14.777306,-16.404614,-11.662059,-10.199995,12.355516,26.829257,33.16874,37.078961,29.213811,42.438773,48.636847,51.16565,41.640773,56.294887,61.099871,61.750103,49.871115,64.460514,67.53729,66.206198,-12.036839,320.802684,-70.627499,285.496268
6,10.491943,-9.931813,0.309277,0.413728,6.437988,8.5112,7.626114,2.417793,-18.172131,7.015114,26.925774,39.998817,-26.440601,3.327484,23.654137,40.230217,-28.824635,-1.598053,19.640121,35.285912,-26.287422,-17.896557,-6.055241,5.220795,-18.34648,-30.674147,-35.543167,-35.078186,-11.282171,0.688702,7.959505,10.215062,4.925583,17.236207,22.578915,23.334184,17.729778,29.366088,31.714456,30.259554,28.041912,40.276706,41.750195,39.667106,24.802895,48.259506,70.928593,90.204105,50.273895,82.458057,100.033207,113.310757,42.04422,77.602215,98.209248,112.307911,33.388424,66.780739,86.299839,99.930439,25.203209,51.524563,67.254066,79.787121,-15.067718,-17.031196,-12.148467,-10.471635,12.034414,26.207184,32.451447,36.307945,29.132424,42.038322,48.008846,50.415198,41.758963,55.902277,60.496076,60.923697,50.137321,64.285575,67.192414,65.622286,-1.428623,310.895895,-70.20195,285.93502
7,0.628338,8.158588,-0.011272,0.834186,7.359638,8.510227,6.417446,3.490162,-14.670639,9.898853,28.314342,39.342098,-23.390923,4.080677,24.12077,40.272274,-27.058353,-2.483311,17.39027,33.144665,-26.876392,-21.307182,-15.351906,-8.189564,-20.592219,-35.215334,-43.838717,-48.500379,-16.875091,-7.044178,0.612688,5.539506,-0.399834,10.851585,16.329835,19.616192,12.424739,21.551326,23.554386,24.019614,21.962399,30.476051,31.057184,29.066598,24.646797,48.188438,71.154671,90.587425,50.732574,83.157921,100.824738,114.141083,42.422676,78.022614,98.582954,112.593269,33.523693,67.108784,86.609001,100.207558,25.112057,51.828976,67.58749,80.250435,-15.299344,-17.325066,-12.665874,-11.396718,11.337931,25.35898,31.502775,35.256645,28.250875,41.119105,47.126,49.548098,40.848762,54.951877,59.545552,60.025476,49.253858,63.499863,66.407258,64.879429,-0.691795,319.089002,-70.104733,286.803725
8,0.589943,-6.661758,0.147343,-0.267873,6.272678,8.07375,6.590824,2.330647,-18.024673,6.096668,25.734043,37.969151,-26.213036,2.447376,22.56815,39.039974,-28.7887,-2.383289,18.782444,34.959011,-26.559505,-20.90601,-11.46492,-1.419811,-17.839694,-30.390898,-36.257125,-36.828501,-11.117915,0.96238,7.649085,9.987573,4.217985,16.430056,21.280489,22.670738,16.532623,28.095388,29.849655,28.574941,26.217805,37.885545,39.748184,38.749619,24.481087,47.890892,70.768948,90.305157,50.552044,82.463436,100.073605,113.420162,42.576885,77.956753,98.7533,112.951756,33.855457,67.237358,86.743526,100.362682,25.53257,51.902275,67.49691,79.881878,-15.32392,-17.248063,-12.56979,-11.225731,11.637112,25.875152,32.010487,35.814621,28.609089,41.232232,47.209672,49.669994,41.178509,55.140401,59.693629,60.260622,49.528832,63.802193,66.706685,65.17614,0.00824,312.475116,-69.847298,286.583724
9,-1.935425,6.729066,-0.1581,-0.340368,7.649746,9.791851,7.429447,3.474255,-13.953381,10.078526,28.635349,40.663548,-23.090744,3.656788,23.613453,39.900112,-26.985626,-3.268833,16.580257,32.625446,-26.922512,-19.591084,-12.423935,-3.949757,-19.310342,-33.500463,-42.811252,-47.634824,-16.054551,-6.815825,1.516467,6.502627,-0.278433,9.843448,16.536019,19.714375,12.154704,20.861512,24.264207,24.847501,21.135869,29.942528,31.775156,30.250909,24.528065,48.028908,71.02375,90.378227,50.85062,82.562141,100.119667,113.538208,42.926559,78.032455,98.772125,113.125534,34.026604,67.156219,86.677322,100.4702,25.357761,51.712475,67.334003,79.955406,-15.017515,-16.869595,-12.203796,-10.924327,11.48712,25.816674,32.027345,35.825057,28.263843,41.105767,47.326319,49.910264,40.877476,55.005723,59.882462,60.620132,49.392796,63.84795,67.046621,65.76351,-1.845274,319.268248,-69.923487,286.307422
10,-3.496742,-5.004747,0.224304,0.21273,6.692905,10.007229,9.886837,6.622639,-13.574638,10.288982,29.869251,42.186069,-21.996746,7.092762,27.174397,43.547459,-25.113659,2.044716,23.054752,38.975544,-23.599262,-12.823391,0.150719,12.902355,-16.921651,-29.977849,-36.971454,-38.35491,-12.796908,-1.506648,5.885864,8.573118,2.215914,14.064027,19.895859,21.820126,14.647815,26.409107,28.832132,27.801209,24.532327,36.28905,37.818546,36.080889,24.266224,47.653484,70.742455,90.144081,51.576347,82.696953,100.070915,113.368835,43.844547,78.125267,98.522301,112.60746,34.801598,67.291603,86.419945,99.79454,25.755157,51.607075,66.918697,79.166451,-14.797189,-16.91739,-12.534407,-11.401473,11.599691,25.713983,32.047229,35.898232,28.173625,41.066864,47.255429,49.738845,40.65888,54.780952,59.626383,60.232587,49.242804,63.58514,66.807215,65.684778,-5.234327,314.311125,-69.591494,286.567777
11,-1.57774,6.018133,0.147457,1.031541,6.498814,9.866982,11.156387,10.434265,-10.200863,15.265388,34.432182,45.262527,-19.09235,10.855064,31.310692,47.499619,-23.034782,4.598923,25.408859,40.987129,-23.020649,-14.548988,-4.929943,5.447559,-18.071073,-33.619827,-42.999282,-47.77086,-17.771275,-8.104742,0.315051,5.26941,-1.610574,9.973618,16.479456,20.298101,11.277354,21.190024,23.650964,23.809292,20.958831,30.84149,31.891927,29.832797,24.435196,47.71265,70.782337,90.122395,51.537094,83.088856,100.553226,113.753643,43.955441,78.577595,98.991222,112.884464,35.16346,67.919998,86.837482,99.706707,26.475277,52.267513,67.320728,79.10059,-15.268345,-17.738979,-13.471346,-12.331434,10.70147,24.437293,30.8644,34.988401,27.602743,39.895027,45.94385,48.635983,40.465971,53.812026,58.266824,58.709822,49.338703,62.940404,65.676441,64.189183,-6.634054,320.425651,-69.266024,287.69571
12,-4.515896,-7.638958,0.845146,-0.467821,7.268944,12.757359,17.97781,20.226116,-7.973843,16.074772,35.802441,49.487743,-16.416435,13.037052,33.931103,51.615887,-19.617634,7.752914,29.601803,46.338329,-18.277702,-6.489716,6.944561,19.951344,-17.226389,-30.03151,-35.444428,-37.557033,-12.25863,-0.099233,7.716702,10.924265,3.43888,17.219041,23.134915,24.831384,16.230664,30.197186,32.203457,31.089727,26.490865,40.528895,41.643119,39.613013,24.06086,47.063999,69.926319,89.492626,51.259575,82.534161,100.090656,113.446827,43.650799,78.059063,98.532658,112.38493,34.756336,67.436543,86.252804,98.926105,25.864334,51.469631,66.590252,78.399181,-14.799721,-17.217867,-13.225703,-12.096165,11.545104,25.323844,31.777441,35.934973,28.363508,40.647332,46.470581,49.085835,41.123366,54.498382,58.704943,59.083288,49.90588,63.790646,66.459807,64.91827,-10.98753,312.835121,-68.258457,287.276316
13,-11.308136,9.530435,-0.359459,-0.08114,10.524101,21.09375,28.656292,34.457417,10.500011,38.79427,57.276821,68.076038,1.623001,32.293568,52.124691,67.655582,-4.843197,22.796116,41.897678,56.041889,-8.826141,0.24353,5.449677,11.223679,-20.764255,-36.106083,-46.528565,-54.018581,-19.50535,-12.638272,-6.351092,-2.097785,-2.511081,8.25992,13.735206,17.815179,11.054744,20.022942,21.380092,22.629859,20.979023,28.639471,28.61545,25.893306,23.796158,47.331734,70.244236,89.974079,49.575806,82.385044,100.564899,114.280758,41.470528,77.886829,99.14011,113.327694,32.797451,67.179108,86.441402,99.163113,24.578419,50.919857,66.219349,78.149929,-15.410186,-17.798383,-12.871379,-11.24827,11.076542,24.867323,31.177598,35.453752,28.747472,41.233467,46.924879,49.519261,41.781502,55.42328,59.355175,59.525977,50.336898,64.245931,66.805795,65.040536,-22.165718,322.370172,-68.487968,287.199792
14,-2.978554,-20.252468,0.154209,-0.618801,18.465729,30.02512,33.642941,29.474201,16.796036,49.571285,65.715237,69.685192,6.100216,43.62093,58.216152,65.05434,-3.446274,28.153324,42.335758,48.708172,-11.754856,4.103966,11.768246,16.000443,-22.318081,-32.394884,-34.328413,-34.949498,-8.190451,9.410331,10.464966,9.273739,11.651315,28.982988,28.039936,25.212446,26.413059,40.044401,38.022878,36.785523,37.297125,49.960962,46.217775,40.566563,23.903732,47.934208,71.015739,91.273041,49.874554,83.010635,101.151924,114.690742,41.029015,77.721748,98.660202,112.538452,31.894569,66.729355,86.126518,98.936119,23.504505,50.884895,66.784058,79.202385,-15.128913,-17.000197,-11.985323,-10.264586,12.592391,26.256522,32.552841,36.90217,29.96025,43.110494,48.712368,51.249507,42.364055,56.738502,60.693615,60.762591,50.131701,64.177018,66.636537,64.98354,-25.060472,302.135086,-68.24996,286.598374
15,4.556694,0.346482,-0.126915,-0.048968,16.833401,26.267567,28.260098,23.148479,12.447224,44.232502,60.430241,64.42297,1.785393,37.838573,52.707539,60.191174,-7.453537,22.621021,37.176304,44.286404,-15.384865,-2.043514,4.850979,9.035282,-22.081206,-31.953739,-33.915858,-35.099613,-7.618395,9.726184,10.250939,8.90373,11.920238,29.268584,27.74693,24.745057,26.39614,39.846306,37.295211,36.206304,37.246552,49.875931,46.132313,40.824185,23.781509,47.671738,70.652275,90.109062,50.094738,83.495865,101.653404,114.942856,41.455879,78.319817,98.990707,112.742729,32.427521,67.083893,86.175842,98.931427,23.949738,50.940399,66.744747,79.062996,-15.366528,-17.317039,-12.464568,-10.499978,13.00297,26.236639,32.294107,36.284851,30.283143,42.961244,48.064977,50.2544,42.490088,56.579865,60.296807,60.174294,50.043151,64.324416,66.765842,64.939203,-20.463552,302.486554,-68.336649,286.554392
16,8.599377,0.415025,-0.357513,0.192291,14.65004,21.047974,20.767822,14.299622,3.513622,32.525253,50.168266,56.581421,-7.66119,24.745445,42.529564,54.004097,-16.695442,10.099869,27.017212,37.896309,-24.55862,-12.917633,-3.938599,3.301277,-22.021741,-31.647086,-33.45026,-34.349902,-7.759804,8.059787,9.472143,9.65338,11.261546,26.71366,27.001356,26.141358,25.723925,37.580621,36.402238,36.891178,37.145899,49.405023,46.275203,41.715553,24.345932,48.402557,71.480026,91.051598,50.63673,84.053535,102.219315,115.354385,42.000961,78.906212,99.56543,113.282776,32.986622,67.721729,86.811905,99.45694,24.635124,51.733761,67.519512,79.682465,-15.657311,-17.561014,-12.496493,-10.364004,12.744853,26.072568,32.164061,36.179196,30.055716,42.732211,47.899362,50.207901,42.316816,56.327182,60.118534,60.102787,49.913846,64.112118,66.46839,64.589696,-11.827784,302.87092,-68.65777,286.716024
17,-5.564117,-0.182102,-0.078335,-0.043349,16.314926,25.756989,27.751579,22.889442,9.459629,38.753242,56.553955,63.800354,-1.637135,30.57003,48.934364,61.4217,-11.115475,15.708447,33.251038,45.084114,-19.414272,-7.596703,1.569443,9.291515,-21.628761,-31.368592,-33.153364,-34.171134,-7.686012,7.74696,9.581503,10.142382,11.059931,26.646044,27.252803,26.454741,25.45599,37.643792,36.777804,37.278971,37.085321,49.541244,46.736417,42.176334,24.905205,49.248791,72.571392,92.650051,51.082649,84.424381,102.543926,115.867596,42.429256,79.207592,99.760036,113.360195,33.363762,68.17297,87.241688,99.800663,24.942455,52.168064,68.028603,80.258732,-15.047649,-17.162292,-12.32779,-10.263536,12.497481,26.27338,32.556237,36.73884,29.806492,42.818415,48.214475,50.539131,42.228637,56.40931,60.439389,60.473722,50.038397,64.214068,66.600166,64.680654,-17.358627,302.6501,-68.702831,286.633958
18,12.352753,-0.364142,-0.25034,-0.130417,11.124458,15.951347,14.496346,8.593712,-1.378384,24.55204,42.009201,49.273567,-11.947918,17.656975,34.927025,47.745438,-20.610523,2.933578,18.860435,30.425835,-27.695675,-23.374901,-19.820309,-15.64167,-21.467716,-31.224405,-32.861593,-34.304206,-4.376869,10.109963,11.115321,11.451614,14.525611,28.390678,27.613673,26.792207,28.152198,38.898808,36.507091,36.649611,38.931597,50.164182,47.412028,43.595976,25.016613,49.483109,72.95826,93.041496,51.548824,84.851074,102.863045,116.129036,42.905331,79.6772,100.181808,113.846741,33.682823,68.646812,87.794952,100.495491,24.993896,52.529182,68.419304,80.684853,-15.133914,-17.164515,-12.179466,-10.32646,12.209971,26.393423,32.609837,36.662702,29.471187,42.633781,48.373111,50.979411,41.996764,56.146871,60.408082,60.795504,50.095639,64.277115,66.777513,65.07598,-4.983759,302.23997,-68.931055,286.457552
19,7.555389,0.844066,-0.126743,0.25188,4.988594,6.810722,6.520386,0.648079,-13.911324,11.152725,27.305603,37.532158,-23.885193,5.845299,27.044563,41.947632,-27.926445,-5.118084,15.222588,31.127586,-28.789158,-21.277428,-10.407486,0.478363,-19.326212,-28.228213,-27.313751,-24.742217,-5.804045,0.951512,6.657868,12.046456,13.922804,20.534544,25.841004,26.627766,28.488244,33.1102,35.286038,35.673831,41.207408,45.925757,44.051077,41.376172,25.328922,49.590397,72.978687,92.860508,51.835098,84.939137,102.79398,115.923786,43.344841,80.061665,100.518551,114.189892,34.22081,69.116535,88.178158,100.731182,25.624638,53.073063,68.917751,81.122646,-15.098408,-17.349828,-12.547251,-10.70783,11.713868,25.598448,31.888098,35.983818,29.115752,42.177816,48.078253,50.759518,41.743093,55.757473,59.997256,60.258275,49.948982,63.831524,66.303826,64.626129,2.585707,303.05032,-69.043722,286.675716
20,-18.526039,16.808956,0.191917,0.05749,8.849602,16.328545,26.036797,35.3302,5.414486,33.976135,52.836342,66.221008,-3.389969,25.239143,47.394905,66.264954,-8.898582,16.442528,35.587006,51.039047,-12.064476,0.981216,13.002434,23.964272,-20.561961,-33.614269,-42.826195,-49.48184,-20.596418,-16.266664,-11.497556,-6.447793,-4.019458,5.854433,11.115074,14.064336,10.996575,19.808235,22.357725,23.448978,23.119169,29.605371,30.289133,28.49763,25.379219,49.557095,72.840214,92.765293,51.914577,84.956074,102.921352,116.154728,43.54002,80.089703,100.565357,114.292889,34.552746,69.362411,88.27383,100.689297,26.084232,53.46405,69.068127,80.998363,-14.994667,-17.26134,-12.572322,-10.838432,11.776853,25.672981,31.998508,36.130043,29.10371,42.000778,47.910292,50.72537,41.816082,55.465702,59.634287,59.991699,50.157698,63.78867,66.129998,64.41241,-15.941763,319.773906,-68.853235,286.647836
21,38.309326,-18.353766,-0.227394,-0.256449,2.201614,-2.940903,-13.238297,-24.476852,-33.32222,-12.849426,8.500328,20.52578,-43.474045,-17.903938,3.347855,19.924736,-48.416691,-29.136543,-8.978004,6.448975,-50.490017,-53.504505,-52.049274,-48.790512,-19.61403,-28.461568,-29.264632,-30.246463,-1.451258,12.870021,14.21019,14.730067,17.868408,29.105871,29.152184,29.132054,31.036128,38.770984,36.432126,36.129302,41.457436,49.665918,47.348857,44.461223,25.223236,49.46434,72.559032,92.143536,52.160568,84.88203,102.807598,116.210232,43.681812,79.846516,100.290012,114.129696,34.468975,68.912544,88.007412,100.615482,25.751266,53.074722,68.918724,81.040707,-14.988925,-17.141544,-12.395716,-10.481021,11.935799,25.846746,32.235938,36.439227,29.297545,42.14972,48.166371,51.143358,42.060429,55.687386,60.002567,60.447355,50.496523,63.983122,66.340073,64.621003,22.364702,301.406061,-69.08349,286.377308
22,-32.669563,11.385047,0.008812,-0.636214,10.486107,15.104942,17.152405,17.540932,-2.686615,25.809975,44.824677,56.949692,-12.245121,19.241524,41.302185,59.866447,-17.514782,11.127777,31.565895,48.498802,-20.042496,-5.666428,8.439388,21.804085,-23.607985,-37.491886,-42.510033,-46.2765,-14.518942,-5.63491,0.729828,5.778727,3.931463,14.763597,19.290458,22.249044,18.553282,26.714587,28.054324,28.569384,30.059545,38.136746,36.775211,32.379137,24.777145,48.865471,72.132397,91.612415,52.011051,84.798603,102.66489,116.024265,43.533554,79.575176,100.110111,114.054737,34.062653,68.197746,87.541866,100.538349,24.988976,52.069302,68.028316,80.41872,-14.680481,-16.59073,-11.931415,-10.22346,12.308339,26.179952,32.550248,36.566865,29.329778,42.507749,48.811416,51.708745,41.87314,56.063014,60.721094,61.236463,50.226674,64.366283,67.132454,65.592646,-10.283804,312.787573,-69.053621,285.737558
23,-11.084175,5.728833,-0.427094,-1.435265,12.284603,21.040249,25.833321,29.88018,9.597588,39.311829,57.210388,67.337723,-0.010414,30.907402,49.739456,66.224098,-7.398777,20.286541,37.218704,51.367035,-12.088509,-0.704327,8.00045,17.411385,-22.084047,-36.729577,-45.291828,-51.077224,-17.788812,-7.453522,-0.142335,5.498936,-0.337095,12.353108,17.883166,21.48161,13.477583,23.101323,24.912463,25.615553,23.613049,31.839377,31.987393,28.673619,24.209232,48.138027,70.591106,89.087734,52.316608,83.469028,100.700512,113.82082,44.365597,79.093037,99.567318,113.903332,35.109673,67.942257,86.844006,99.684162,25.904331,51.781368,66.98679,79.011784,-15.159603,-16.669771,-11.735481,-11.309588,12.96981,27.454048,34.652232,39.23121,29.888743,43.130934,49.665795,52.631729,42.198379,56.272348,61.224422,62.165869,50.509552,64.520474,67.596509,66.728174,-21.343317,318.465724,-69.456053,284.251611
24,24.2593,-29.846506,-4.525852,-3.850015,3.747253,3.531761,-1.954765,-11.87582,-22.410164,-1.330948,18.752632,29.954338,-33.434029,-6.484852,14.459267,32.38472,-40.431004,-16.946869,3.370285,18.046303,-44.178143,-43.268738,-41.72636,-38.923702,-18.291645,-23.261689,-21.128644,-20.948827,4.473756,29.697996,34.900901,35.219224,23.859989,44.716499,48.096099,46.948097,35.722675,51.663914,52.526876,52.42221,44.419665,57.911204,60.614143,61.268018,23.258629,47.572575,68.773212,86.189575,51.761398,82.976074,100.340309,114.069672,43.105774,77.055244,97.731285,112.869415,33.821411,64.452095,83.983727,98.275795,24.801521,49.367008,63.76379,75.808868,-17.568857,-17.66068,-10.555307,-9.400018,11.374549,27.403536,35.986411,42.616985,28.558454,44.756452,53.692107,59.73562,40.682592,56.896953,64.315709,68.05834,48.86835,64.964644,70.300621,71.706369,3.109217,288.557005,-73.788671,280.339383
25,13.937645,14.842638,-6.553574,-7.844525,-15.249596,-31.948929,-50.490017,-72.240429,-39.84827,-27.351208,-16.23373,-10.804367,-41.740437,-25.943069,-17.1908,-14.2836,-39.508095,-29.769974,-22.972527,-20.709229,-35.044956,-39.671745,-43.476448,-47.792873,0.840423,1.966504,5.651336,12.626292,-2.008741,6.997495,11.417775,11.729367,5.200928,18.492581,21.593255,18.003888,12.069921,25.334095,25.908126,22.62813,17.608809,28.410253,30.246834,29.879048,23.595428,44.814548,64.136009,81.2887,47.774105,76.672668,92.357368,104.631729,39.626026,70.743084,88.782692,102.368546,31.095829,58.396854,75.424976,88.039284,22.948322,43.92849,56.040745,65.86853,-21.207994,-24.407838,-22.30147,-21.814136,7.237025,25.298959,36.152767,44.653575,24.330836,45.868206,57.787209,66.752134,37.191409,58.199516,69.169477,76.485666,46.036661,63.153073,71.99604,76.208221,17.091351,303.358053,-80.297756,272.453269
26,40.057182,-14.630587,-32.17741,-34.26413,-25.089798,-53.793182,-80.098972,-103.502655,-67.088127,-100.341911,-116.108723,-125.8675,-65.297356,-102.873802,-118.547344,-128.45232,-60.398998,-92.738571,-106.855373,-117.435207,-54.724045,-78.642883,-90.146427,-99.117622,30.405224,44.662714,51.553999,56.627351,44.560888,38.963645,28.70505,20.093275,29.863549,18.395201,4.23756,-8.177854,11.725971,-0.720998,-16.016575,-27.89297,-7.946969,-16.384731,-24.849601,-31.440902,33.00602,61.45792,82.453308,97.168293,71.673889,111.189365,118.805408,114.436054,65.093479,106.638737,111.22261,102.519779,58.768673,94.563789,97.297726,88.304386,52.583599,78.524437,83.670788,78.021355,-19.891043,-23.047415,-20.139218,-14.568157,24.247102,57.487905,62.918051,62.272079,43.902443,81.122875,85.539758,83.303097,56.629883,91.001953,98.695436,98.900077,63.872774,93.061144,101.017128,101.252398,57.321568,288.722619,-112.302132,238.184291
27,4.088516,-7.759433,-19.639206,-50.614096,-27.820015,-54.766273,-78.320789,-92.294426,-66.626587,-98.718224,-113.699799,-123.266945,-59.318275,-94.808865,-113.935833,-125.631065,-49.926682,-82.494106,-100.443935,-111.919613,-39.855652,-66.355648,-80.659618,-90.629883,-16.155946,-15.811996,-1.922352,13.672961,14.475902,30.073377,36.558714,40.638811,31.672651,47.732883,54.101574,57.608688,43.697556,59.738522,64.871834,66.991046,51.877139,65.779688,69.284456,70.65161,27.534428,55.539608,76.359386,88.355141,62.239437,87.955399,92.750645,91.040497,53.144016,79.107056,89.317017,93.054085,41.693001,66.59523,77.118416,83.278999,29.248867,49.529915,60.617695,68.744602,-18.310973,-24.958714,-28.915618,-31.540381,4.477584,24.474714,31.704391,33.458781,21.515079,45.757488,57.75831,63.400321,35.827651,60.458655,72.955889,80.234039,47.178612,69.527815,81.267062,88.69681,61.033974,281.877617,-132.317448,188.484626
28,3.155479,-0.490792,-25.952282,-53.829069,-29.262085,-54.440804,-77.15601,-91.750145,-66.008606,-97.07222,-112.230606,-122.941303,-59.479065,-94.145279,-112.387276,-125.790424,-50.5093,-82.160397,-99.040375,-111.161785,-40.560951,-65.364704,-78.785076,-89.415092,-14.591622,-14.486461,-0.895319,12.769676,15.29675,30.362986,37.565554,42.433401,32.323994,46.388391,53.077875,57.344952,44.615167,59.179372,65.053195,67.968246,52.540832,66.178349,70.070354,71.407374,22.499485,46.261768,62.291565,68.977547,49.546223,76.163864,70.070801,60.791931,44.856319,71.792336,67.744503,59.439869,38.440762,66.369152,65.333176,59.854088,30.755768,53.928852,58.855076,58.794708,-22.012756,-27.119422,-24.221939,-21.953043,-20.299645,-2.775125,3.098697,4.469989,-2.462915,16.214485,20.731157,21.289566,16.187809,35.130303,39.447151,39.649569,33.254882,49.096394,53.642212,54.282873,64.017935,282.255869,-158.441248,135.524602
29,0.763893,0.633806,-37.955818,-53.241421,-30.33989,-55.112114,-77.604332,-92.715511,-65.119858,-97.012482,-112.481403,-123.631382,-57.911911,-93.393974,-111.408863,-125.025845,-48.626518,-81.04248,-97.84996,-110.114193,-38.754501,-63.798351,-77.091751,-87.788086,-15.152378,-14.185181,-0.084475,13.75089,15.672069,30.372311,37.059016,41.421312,33.244075,46.763463,52.885523,57.025023,45.414279,59.793665,65.018244,67.593359,52.522739,66.356931,70.043678,71.243488,8.63348,27.824078,43.604164,48.953476,28.36956,55.431061,51.962299,44.597912,36.421108,62.640152,56.77248,48.373489,41.970291,67.597332,61.914597,55.103416,45.981045,68.952713,67.417946,61.17754,-29.551401,-53.450817,-72.556271,-86.266591,-35.509173,-40.443247,-42.90116,-43.719076,-15.291285,-17.179119,-16.650535,-13.77062,4.217955,2.249197,2.2345,3.763657,21.284595,21.929794,21.959651,22.773645,65.882807,283.725621,-195.296087,83.119127
30,2.288704,-0.529572,-43.094444,-30.725585,-30.508575,-55.399704,-77.922134,-93.363247,-64.033585,-95.483036,-111.473007,-123.668232,-56.818085,-91.607208,-109.819736,-124.027061,-47.843285,-79.770069,-96.896152,-109.726696,-38.565674,-63.603516,-77.27005,-88.326817,-14.406371,-13.067375,1.369809,14.716914,16.737511,31.798375,38.493046,42.940742,34.411343,48.30463,54.169684,57.848712,46.686584,61.82513,67.007842,69.32305,53.861982,68.326522,72.049393,73.036967,35.187206,53.789978,64.232311,65.641823,45.747356,55.619259,60.17561,60.628567,39.363556,49.394302,54.287853,57.093086,34.879131,48.256359,54.419575,57.700596,32.62167,45.718803,50.55685,52.774773,-26.102239,-52.985559,-73.906228,-92.928349,-87.208501,-113.688035,-125.604444,-132.309335,-77.534651,-101.451728,-110.052634,-115.302778,-65.562944,-80.963157,-86.946433,-92.775116,-53.909808,-64.407285,-69.521238,-74.366052,71.230831,284.01733,-235.331211,53.214822
31,1.289749,0.303936,-5.719059,-40.295935,-30.415192,-55.080757,-77.756424,-92.525368,-63.474197,-95.090675,-111.054497,-123.154278,-56.1446,-91.531734,-109.900761,-124.397678,-46.865044,-78.900948,-95.999737,-108.973675,-37.196159,-62.012329,-75.460625,-86.700497,-15.110264,-13.724647,0.703893,14.935757,16.096912,30.636417,37.675408,42.913017,33.530041,46.957607,53.732553,58.871855,45.71136,60.19424,66.309877,70.122039,53.019645,66.958503,71.182355,73.470331,30.653046,46.868054,56.047898,57.335415,40.267914,48.958043,52.811818,53.358754,35.105622,44.27789,48.403256,50.508992,31.375351,43.446614,48.494786,50.981243,29.566658,41.042553,45.453495,47.583104,-25.193069,-50.320352,-69.689817,-86.925959,-82.771036,-109.420137,-122.20112,-129.986711,-75.501287,-101.600478,-112.245453,-119.177042,-65.652025,-84.005322,-92.62668,-100.395762,-55.240338,-68.007748,-74.971194,-81.3229,73.134499,284.673274,-240.436352,13.270895
32,0.902138,-0.413234,-5.719059,-40.295935,-30.212059,-55.260773,-77.948971,-92.741146,-62.964592,-94.142017,-110.398064,-122.788868,-55.022163,-89.790916,-108.071308,-122.314453,-45.535927,-77.099075,-94.245014,-107.124138,-35.929413,-60.54348,-74.025135,-85.289268,-14.41551,-12.754918,1.511527,15.726286,17.617084,32.94051,40.171175,45.601135,34.535894,48.31945,55.065498,60.342935,46.253529,61.10759,67.019451,70.612461,53.063796,67.331538,71.779235,74.153414,26.118885,39.946129,47.863484,49.029007,34.788472,42.296826,45.448025,46.08894,30.847687,39.161477,42.518658,43.924897,27.871571,38.636868,42.569996,44.261891,26.511647,36.366303,40.35014,42.391434,-24.283899,-47.655146,-65.473406,-80.923569,-78.333572,-105.152239,-118.797796,-127.664086,-73.467923,-101.749229,-114.438272,-123.051306,-65.741107,-87.047487,-98.306928,-108.016408,-56.570868,-71.608211,-80.421149,-88.279748,74.966412,284.939804,-245.225636,-26.345276
33,0.49015,0.036865,-5.719059,-40.295936,-30.092926,-54.835167,-77.168541,-91.493912,-61.614761,-92.729931,-108.984375,-121.572475,-54.184456,-88.946514,-107.828579,-122.764378,-45.124512,-76.243973,-93.601627,-106.998024,-35.828934,-59.647179,-73.082943,-84.757919,-14.36154,-12.857486,1.509921,15.631685,16.918687,33.017328,40.232308,44.973134,33.827246,48.278263,55.137005,59.944953,45.597369,60.790255,67.288127,70.994202,52.606226,66.809006,71.307956,73.712764,21.584725,33.024205,39.67907,40.722599,29.309029,35.635609,38.084233,38.819127,26.589753,34.045063,36.63406,37.340802,24.367791,33.827122,36.645207,37.542538,23.456635,31.690052,35.246785,37.199765,-23.374729,-44.989939,-61.256995,-74.921179,-73.896106,-100.88434,-115.39447,-125.341461,-71.434559,-101.897979,-116.63109,-126.925569,-65.830187,-90.089652,-103.987175,-115.637054,-57.901397,-75.208673,-85.871104,-95.236595,76.378555,285.72439,-250.022702,-65.893491
34,-0.18322,0.155858,-5.719059,-40.295935,-29.733925,-54.368591,-76.530018,-91.055717,-60.746841,-91.893482,-108.068447,-120.514069,-53.345833,-88.357944,-107.401085,-122.545052,-44.398499,-75.885658,-93.287487,-106.711006,-35.126038,-59.177742,-72.656422,-84.404526,-14.095705,-12.813149,1.337514,15.161208,16.99643,32.83183,40.107695,44.876865,33.962047,48.056888,54.731798,59.555926,45.727971,60.350715,66.59609,70.294261,52.718797,66.294007,70.647041,73.00109,17.050564,26.10228,31.494656,32.416191,23.829586,28.974392,30.72044,31.549313,22.331818,28.92865,30.749463,30.756707,20.86401,29.017376,30.720417,30.823185,20.401623,27.013802,30.143429,32.008095,-22.465559,-42.324733,-57.040584,-68.918789,-69.458642,-96.616442,-111.991146,-123.018837,-69.401195,-102.04673,-118.823909,-130.799834,-65.919269,-93.131817,-109.667422,-123.2577,-59.231927,-78.809136,-91.32106,-102.193443,77.999411,286.854438,-253.937685,-105.215237
35,0.085716,-0.630472,-5.719059,-40.295935,-29.438782,-54.042091,-75.631428,-89.815063,-60.39711,-91.090336,-107.437935,-120.221443,-52.941513,-87.254391,-106.418438,-121.667805,-43.793564,-74.535656,-92.102737,-105.783806,-34.129257,-57.93766,-71.686935,-83.656139,-13.647212,-11.956609,2.394804,15.756914,17.469747,33.738573,41.083475,46.011837,34.147299,48.825248,55.695537,60.75376,45.851472,61.038677,67.734768,71.801774,53.029278,66.972397,71.54341,74.033001,12.516403,19.180355,23.310242,24.109783,18.350143,22.313175,23.356647,24.279499,18.073883,23.812237,24.864864,24.172611,17.360229,24.20763,24.795628,24.103832,17.346611,22.337551,25.040073,26.816425,-21.55639,-39.659526,-52.824174,-62.916399,-65.021177,-92.348544,-108.587822,-120.696213,-67.367832,-102.195481,-121.016728,-134.674098,-66.00835,-96.173982,-115.34767,-130.878346,-60.562458,-82.409599,-96.771016,-109.150291,79.098644,286.130399,-258.643227,-145.604739
36,0.214348,0.843264,2.592717,5.196621,-29.029999,-53.547935,-75.203133,-89.686375,-60.200043,-90.894585,-106.95282,-119.488392,-53.002853,-87.358189,-106.427364,-121.629925,-44.061241,-75.427265,-93.100891,-106.983604,-34.525795,-58.921165,-73.028297,-85.259743,-14.271879,-12.71441,1.366043,14.832634,16.952279,33.164047,40.478013,45.198523,33.854046,47.93104,54.329186,58.789788,45.533766,59.796938,66.231392,70.149703,52.666741,65.927457,70.412081,72.985158,12.819471,23.53755,30.323896,30.507087,38.635826,50.134248,55.594682,58.776855,41.618099,55.511083,62.723693,66.873178,42.548647,57.84542,65.021095,69.607257,42.627439,55.668153,63.965721,70.665378,-19.904813,-35.114225,-48.231672,-58.884205,-41.876003,-53.928834,-61.882318,-67.694313,-41.065691,-56.11483,-65.733259,-72.596818,-38.786553,-51.8367,-61.968954,-70.229315,-34.957749,-44.172022,-51.873711,-58.689899,80.679474,287.722401,-254.684028,-139.659379
37,-0.652199,0.569586,2.592716,5.196622,-28.738632,-53.466682,-75.615349,-90.873528,-59.199142,-91.287746,-107.399597,-119.37252,-51.832924,-87.884445,-106.656761,-121.102581,-42.866821,-75.544739,-93.247261,-106.701107,-33.635559,-59.202232,-73.493385,-85.6917,-15.272791,-12.89608,2.074382,15.856703,16.578071,32.561857,40.161418,45.339869,34.128959,47.872316,54.03828,58.22471,46.18233,59.892651,65.804697,69.191831,53.39095,66.364156,70.444005,72.655905,13.12254,27.894745,37.337551,36.904392,58.921509,77.955322,87.832718,93.274212,65.162315,87.20993,100.582523,109.573746,67.737064,91.483212,105.246563,115.110683,67.908268,88.998756,102.891369,114.514332,-18.253237,-30.568924,-43.639171,-54.852011,-18.73083,-15.509125,-15.176816,-14.692414,-14.763551,-10.03418,-10.449791,-10.519538,-11.564756,-7.499418,-8.590239,-9.580283,-9.353042,-5.934446,-6.976407,-8.229508,81.052608,288.694955,-251.065979,-134.059789
38,-0.197067,-0.313507,-2.476559,2.00519,-29.081612,-53.761253,-75.463829,-90.796738,-59.449997,-91.235447,-107.212257,-119.323769,-51.718369,-87.175884,-105.603619,-119.750862,-42.664032,-75.038567,-92.61549,-105.891037,-33.748283,-58.672714,-72.569904,-84.098053,-15.057344,-11.946111,3.197807,16.317299,17.049721,33.685097,41.188513,46.080998,34.449937,49.021244,55.177822,59.181348,46.488983,60.953338,66.973632,70.331187,53.712052,67.091082,71.273746,73.528994,14.069395,30.199413,40.476895,42.482586,60.138159,79.449864,90.798454,98.309584,65.189495,86.436224,100.04571,109.681263,66.020909,89.099779,101.933556,111.159954,64.214173,83.990336,97.13891,108.518858,-16.237665,-26.151022,-35.696285,-45.537988,-14.699709,-5.64855,-2.06241,0.831755,-10.269904,0.859419,3.236208,6.029148,-6.716075,2.893477,5.873197,8.642904,-4.359618,3.891179,6.632473,8.407643,81.383944,288.582291,-253.014136,-131.853756
39,0.222359,-0.58984,-2.476559,2.00519,-29.575996,-54.209518,-75.629253,-90.517845,-60.303497,-91.259251,-106.842327,-118.835735,-52.528496,-86.808872,-104.818382,-118.892212,-43.340378,-74.654446,-91.669979,-104.507332,-34.141617,-58.238068,-71.621761,-82.568092,-14.934522,-11.620748,3.62549,16.972162,17.612576,33.847809,41.357771,46.359863,34.857181,49.38835,55.793041,60.103961,46.820397,61.198981,67.461275,71.11974,53.995239,67.434599,71.913974,74.306123,15.016251,32.504082,43.616238,48.06078,61.354809,80.944405,93.764191,103.344955,65.216675,85.662518,99.508896,109.78878,64.304752,86.716347,98.620548,107.209225,60.520077,78.981915,91.386452,102.523384,-14.222092,-21.733119,-27.753398,-36.223965,-10.668588,4.212026,11.051996,16.355924,-5.776257,11.753018,16.922206,22.577834,-1.867394,13.286373,20.336634,26.866091,0.633806,13.716804,20.241353,25.044794,82.196102,288.281551,-254.900894,-129.559466
40,-0.306015,-0.881919,-7.457428,-3.240075,-29.317589,-53.591194,-74.849796,-88.55278,-59.735298,-90.542336,-105.934696,-117.855492,-51.964188,-86.334,-104.513569,-118.969173,-42.698708,-74.042015,-91.25988,-104.617596,-33.288002,-57.608757,-71.235294,-82.743587,-14.32906,-11.280257,3.645003,17.428498,18.226622,34.470191,41.900989,46.763216,35.41133,49.896679,56.436727,60.930614,47.092655,61.598012,68.039197,71.819743,53.99456,67.508947,72.210438,74.824518,16.241684,33.324623,42.975368,47.927685,57.629929,81.619434,97.563057,111.56147,58.030243,84.971237,101.515217,115.530338,54.550781,80.729027,96.48325,109.080048,48.106327,66.764774,79.554462,91.226463,-17.248712,-27.339995,-36.308501,-49.48749,-22.197066,-26.026919,-29.151088,-32.723458,-17.703936,-21.336126,-25.127786,-28.264939,-14.133295,-15.87387,-20.445314,-24.912988,-10.476714,-12.207238,-15.467274,-18.726677,82.56506,288.010946,-261.68335,-132.188227
41,0.321693,0.17815,-6.851749,-2.7834,-29.733925,-53.834953,-75.139675,-88.57584,-59.849739,-90.402203,-105.819225,-117.754154,-51.724663,-86.012478,-103.992405,-118.315945,-42.222176,-73.59026,-90.492096,-103.544655,-32.76123,-56.984367,-70.24086,-81.315079,-14.44725,-11.781793,3.166932,17.381568,17.438749,33.962665,41.63114,46.541409,34.675326,49.773611,56.756347,61.501805,46.435878,61.547932,68.093167,71.871984,53.439856,67.376122,71.957446,74.351819,12.055779,27.79089,35.212269,33.956966,50.370312,70.910969,84.208374,96.915779,50.184517,70.322914,84.192524,95.998306,47.190628,66.856327,79.201527,89.4734,42.270412,54.959679,64.183788,72.592735,-21.025382,-37.826542,-51.283655,-66.600999,-43.308096,-58.556712,-71.365692,-82.198011,-38.354447,-56.134227,-68.782101,-78.910604,-33.094006,-48.087238,-60.249923,-69.955791,-26.298991,-36.159914,-44.976993,-53.043141,83.064222,288.098045,-268.35763,-135.062678
42,0.089607,-1.010175,-0.898705,-22.74896,-29.543037,-53.523788,-74.558773,-87.929649,-59.148216,-89.221802,-104.703255,-116.735001,-51.492233,-85.40657,-103.714828,-118.463516,-42.231331,-72.811947,-89.84705,-103.139076,-32.73159,-56.319809,-69.63541,-81.27285,-13.318514,-10.604892,4.213478,18.115101,17.923922,34.178236,41.82658,46.930437,34.731828,49.749466,56.931842,61.967465,46.469223,61.811483,68.603102,72.61904,53.658329,67.975965,72.771193,75.298329,-4.994831,-4.999924,-6.457043,-12.136116,19.289932,36.922588,45.54245,50.598221,25.891571,46.731377,54.795685,58.380489,29.786453,49.686184,56.521683,60.221558,31.671009,44.619427,50.752773,55.924015,-30.351887,-55.915801,-73.173729,-86.273369,-70.404948,-98.221193,-111.196946,-118.515837,-62.362775,-90.53248,-105.556247,-113.422045,-50.532508,-75.71289,-88.726157,-97.910203,-35.800604,-56.128577,-67.316069,-74.871989,83.316336,285.360016,-269.093828,-159.539491
43,0.0951,-0.096331,-3.441181,9.548605,-29.574051,-53.451004,-74.212761,-87.370205,-58.722153,-88.477306,-104.014492,-116.06266,-50.92598,-84.449959,-102.758331,-117.512398,-41.664619,-71.887665,-88.928776,-102.272358,-31.992302,-55.113029,-68.475494,-80.244827,-13.145675,-10.609894,4.376066,18.45232,18.988807,35.11641,42.558199,47.326442,35.779918,50.289227,57.298084,62.393913,47.16373,61.861377,68.63972,72.863201,53.8224,67.825232,72.973179,75.906262,-6.849232,-6.631107,-7.258472,-10.763741,2.425575,12.598057,18.12149,22.80035,6.774788,18.221684,24.784927,30.854073,12.623348,24.039116,29.484959,34.821453,20.118771,26.911297,30.174007,33.631382,-29.838293,-55.211645,-74.599993,-89.163072,-72.910163,-102.896688,-122.713846,-138.602721,-69.408513,-103.00086,-125.435264,-144.733317,-60.866594,-91.74058,-112.772215,-130.382568,-48.659819,-73.195264,-88.246726,-101.325757,83.785315,284.186341,-272.161131,-151.06823
44,0.050468,0.511911,1.932392,7.012439,-29.407082,-53.11512,-73.472614,-87.245407,-57.779617,-87.644405,-103.134327,-115.337334,-50.16861,-83.972397,-102.411461,-117.405968,-41.100769,-71.95673,-89.24778,-102.814178,-31.584206,-54.883804,-68.466339,-80.412254,-13.646532,-10.945384,4.086395,17.552987,18.407983,35.019523,42.593458,47.389489,35.2706,49.983747,56.95117,62.00365,46.747717,61.212442,68.185299,72.64831,53.589169,67.517406,72.755817,75.87656,0.053444,1.890564,1.040897,-4.859047,11.882858,22.379608,28.960934,34.7085,15.981503,27.292786,35.447502,42.236595,20.255585,31.651669,39.244995,44.682484,25.139065,33.705368,38.634796,42.850857,-31.514122,-57.001111,-76.768683,-91.85136,-70.887173,-98.631787,-117.039523,-131.944869,-65.303268,-95.847971,-116.066707,-133.824914,-56.234572,-84.837795,-103.258869,-118.490164,-44.546747,-65.615756,-79.340202,-91.942242,84.20723,283.561273,-269.857292,-145.192771
45,0.074615,0.389398,-3.557682,4.617649,-28.639641,-52.361984,-72.777557,-85.944958,-57.558975,-86.918678,-102.472229,-114.771137,-50.212784,-83.287067,-101.868095,-116.897507,-41.217499,-71.095276,-88.258553,-101.770477,-31.501007,-53.974686,-67.286682,-79.118156,-13.500431,-11.204859,3.4671,16.943078,18.109358,35.338835,43.037444,47.932584,34.595792,50.092119,57.41825,62.778309,46.013443,61.315504,68.821452,73.701154,52.974196,67.278556,72.843441,76.346295,3.374748,11.278553,12.097607,10.233879,35.434971,57.551651,71.745186,82.579994,38.794441,63.809967,79.794903,90.633202,40.536804,65.246887,80.523949,91.084499,40.388603,58.640728,69.821148,79.102535,-30.33966,-53.65464,-73.517663,-85.66735,-58.841288,-75.299518,-85.609227,-93.175274,-51.557287,-70.895108,-81.384172,-90.113673,-42.211578,-60.099329,-72.366435,-82.827526,-31.490117,-44.690996,-54.416918,-65.613471,84.499083,283.501545,-273.197737,-141.024248
46,0.36644,0.49036,8.346711,17.837126,-28.766441,-52.200737,-72.353611,-84.859428,-57.329979,-86.075191,-101.758575,-114.211121,-50.111618,-82.408447,-101.11187,-116.206627,-41.252975,-70.456524,-87.298908,-100.461102,-31.652069,-53.58284,-66.518669,-78.073082,-12.89009,-11.188434,2.9965,16.850329,18.203095,35.137775,42.925675,47.858978,34.495633,50.012585,57.537058,62.950593,45.815718,61.236834,68.891415,73.853678,52.676251,67.127144,72.854495,76.318507,7.696228,17.905922,22.024707,22.584571,37.821865,59.458999,72.83432,82.997722,38.337535,61.756611,75.737266,85.896587,36.899223,60.94696,74.850559,84.895591,34.265403,52.694873,64.32003,73.645153,-25.428686,-43.773735,-59.272842,-69.94708,-49.445397,-57.272746,-62.35817,-65.506875,-44.428722,-53.829707,-58.874675,-61.491009,-36.763489,-45.681689,-50.938821,-54.890003,-28.152826,-34.882767,-38.390056,-42.568748,85.152798,284.239308,-264.563751,-122.939718
47,0.256462,1.067541,8.34671,17.837126,-28.479881,-51.863594,-72.132339,-85.21431,-56.918793,-86.314888,-102.249069,-114.684734,-49.691391,-82.61364,-101.653233,-116.951122,-40.79258,-70.526619,-87.689381,-101.0923,-31.073799,-53.609161,-66.869202,-78.482151,-13.237992,-11.769073,2.132365,15.892765,18.070949,34.39819,42.166886,47.203373,34.598818,49.40669,56.997792,62.774666,45.855424,60.568324,68.182644,73.277917,52.439561,66.436589,72.014751,75.405281,12.017708,24.533291,31.951809,34.935264,40.208759,61.366348,73.923454,83.415451,37.88063,59.703255,71.67963,81.159973,33.261642,56.647034,69.17717,78.706684,28.142204,46.749019,58.818912,68.187771,-20.517712,-33.89283,-45.02802,-54.226809,-40.049506,-39.245973,-39.107112,-37.838476,-37.300156,-36.764307,-36.365178,-32.868345,-31.315399,-31.264048,-29.511206,-26.95248,-24.815535,-25.074537,-22.363195,-19.524024,85.654192,285.446111,-255.972109,-104.96333
48,-1.392174,1.638918,8.34671,17.837126,-27.371407,-50.712662,-71.090984,-84.642277,-56.931267,-86.721268,-102.452717,-114.461002,-49.67411,-83.070431,-101.551666,-116.130753,-40.613708,-70.697536,-87.809944,-101.126118,-30.851555,-54.090271,-67.533646,-79.340286,-14.066559,-12.705086,1.133367,14.651706,17.673462,33.594015,41.223464,46.17208,34.464572,48.778812,55.926669,61.256964,45.862216,59.912102,67.096083,71.746013,52.5002,65.89158,71.148269,74.446235,16.339188,31.16066,41.87891,47.285957,42.595654,63.273697,75.012589,83.833179,37.423725,57.649899,67.621994,76.423359,29.624062,52.347107,63.50378,72.517776,22.019005,40.803165,53.317795,62.730389,-15.606737,-24.011926,-30.783198,-38.506538,-30.653615,-21.219201,-15.856055,-10.170077,-30.171591,-19.698906,-13.855681,-4.24568,-25.867309,-16.846408,-8.083592,0.985043,-21.478244,-15.266307,-6.336333,3.5207,84.338779,287.297389,-247.548637,-86.913844
49,0.208969,1.082732,2.691135,-3.285307,-27.24884,-51.448174,-72.432747,-86.195755,-57.208099,-87.511711,-103.458595,-115.769119,-50.147438,-83.869457,-102.453804,-116.851273,-41.366501,-71.92852,-89.437695,-102.868366,-31.849823,-55.31662,-69.109383,-80.753632,-14.9951,-13.701922,-0.093675,13.590833,17.274925,32.280645,39.805304,44.940036,34.580786,48.540887,54.974601,59.585196,46.349365,60.347319,66.933927,71.092817,53.309872,66.52835,71.399593,74.463093,16.824989,31.164093,41.251774,43.88958,45.222988,64.651279,74.694672,80.757751,44.324112,64.866943,78.033028,86.453018,42.251701,64.100304,76.243801,83.367176,40.029087,59.954453,71.836567,79.980011,-19.023419,-30.812931,-41.081407,-51.572833,-24.520749,-17.868995,-13.51593,-8.779797,-18.392329,-14.224578,-10.371074,-6.289928,-11.46665,-8.659199,-4.962541,-1.120893,-3.29988,-1.23402,1.598842,4.248058,84.597445,288.512174,-244.807806,-90.067098
50,-0.089951,0.330365,4.310703,-6.461409,-27.611046,-51.702805,-72.803135,-86.92234,-57.850685,-88.596611,-104.440556,-116.408386,-50.449333,-84.876595,-103.511009,-117.849998,-41.331253,-72.801876,-90.534153,-104.146442,-31.708832,-55.869484,-69.83242,-81.656742,-15.35035,-13.978379,-0.202109,13.482708,16.623705,31.74564,39.202681,44.146543,34.225228,48.098137,54.440522,58.804053,46.16856,60.105319,66.460919,70.350948,53.163832,66.198541,70.722562,73.473975,15.446434,28.752079,37.644024,39.830589,51.307011,65.188808,66.238003,65.682907,56.054249,68.398418,72.179661,75.508347,58.105545,74.022675,78.334808,81.570168,58.202763,75.601501,86.980705,95.786705,-19.21713,-28.711225,-37.512943,-48.305603,-23.959376,-11.147617,-3.030618,1.22766,-15.383602,-6.347479,0.576749,4.849507,-5.418012,2.260189,8.346,14.092957,5.168726,11.03026,15.298232,20.32311,84.50861,288.887678,-240.495987,-96.483367
51,-0.234146,-1.025798,0.199508,3.427591,-28.122253,-52.312202,-73.599815,-87.763653,-58.097878,-89.044704,-104.84333,-116.866951,-50.40287,-84.913788,-103.381977,-117.671299,-40.914116,-72.368832,-89.911308,-103.317089,-31.157227,-55.718307,-69.608917,-81.146107,-14.829608,-12.654944,1.335723,15.013995,17.711624,32.858444,40.218846,45.223161,34.97179,49.252314,55.921358,60.388383,46.730736,61.405721,67.780154,71.525811,53.557676,67.28646,71.636344,73.973412,15.875302,29.341851,38.598385,42.241269,49.932995,65.676041,71.010037,74.176064,51.87027,65.351353,70.820408,75.950375,50.946179,68.129292,74.501782,79.435826,48.254166,66.76384,79.189377,88.532353,-18.004753,-28.086527,-37.413309,-49.033594,-26.469644,-13.331873,-7.227711,-3.667913,-21.781305,-11.386714,-6.584817,-1.916568,-15.440392,-7.439206,-1.536536,4.431456,-9.158276,-3.141419,2.358999,8.445779,84.254379,287.983698,-240.316563,-92.933958
52,-0.727501,0.348334,0.199509,3.42759,-28.215637,-52.111015,-73.229256,-87.075062,-58.224335,-88.671741,-104.131622,-115.957489,-50.836029,-84.988232,-103.393307,-117.681313,-41.679497,-72.849541,-90.280209,-103.801861,-32.068405,-56.045265,-69.743443,-81.382027,-14.371112,-12.369534,1.482874,15.035299,17.624185,32.982933,40.132704,44.717734,34.820872,49.119427,55.660154,60.084262,46.640889,61.069737,67.499067,71.345438,53.673273,67.288251,71.738356,74.103458,16.304169,29.931622,39.552746,44.651947,48.558979,66.163273,75.78207,82.66922,47.686291,62.304287,69.461155,76.392403,43.786812,62.235909,70.668755,77.301483,38.305569,57.926178,71.398048,81.278,-16.792376,-27.461828,-37.313674,-49.761585,-28.979911,-15.516129,-11.424804,-8.563485,-28.179008,-16.425949,-13.746383,-8.682643,-25.462772,-17.1386,-11.419071,-5.230044,-23.485277,-17.313097,-10.580233,-3.431553,83.526335,288.375211,-240.117598,-89.463189
53,0.052986,-0.487581,0.199509,3.427591,-28.71563,-52.623253,-73.66991,-87.607441,-58.738174,-88.776169,-104.114056,-115.967789,-51.178322,-84.88266,-103.225651,-117.708435,-41.708908,-72.254791,-89.737644,-103.431759,-31.701736,-55.498581,-69.549465,-81.646156,-14.030558,-11.896217,2.118348,15.668488,18.376182,33.267973,40.246572,44.911322,35.425532,49.361242,55.926978,60.655577,47.106672,61.634506,68.154547,72.083849,54.116147,67.912053,72.516226,74.869411,16.733036,30.521393,40.507107,47.062626,47.184963,66.650505,80.554104,91.162376,43.502312,59.257221,68.101902,76.834431,36.627445,56.342525,66.835728,75.167141,28.356972,49.088516,63.60672,74.023647,-15.579999,-26.83713,-37.21404,-50.489576,-31.490178,-17.700385,-15.621897,-13.459058,-34.576711,-21.465184,-20.907948,-15.448718,-35.485152,-26.837995,-21.301607,-14.891544,-37.812278,-31.484775,-23.519466,-15.308884,83.483305,287.916035,-240.014105,-86.007193
54,-0.398712,0.279606,0.7372,-0.758203,-28.231888,-52.34951,-73.587799,-87.583523,-58.812447,-88.796768,-104.184952,-116.02272,-51.173973,-85.005398,-103.517876,-117.910652,-41.718063,-72.598858,-90.070496,-103.513699,-31.804047,-55.544128,-69.355602,-81.028175,-14.455957,-12.22899,1.697642,15.59167,18.116706,33.56561,40.721247,45.387047,35.240281,50.071742,56.837858,61.495259,46.952482,62.071514,68.716291,72.750198,53.853646,67.92286,72.511656,74.807784,18.024902,31.732692,41.287393,47.289161,46.958112,67.987775,82.532329,93.619565,42.149591,59.806795,70.212249,80.331373,35.135908,56.135044,67.349424,76.415548,27.89051,48.422126,61.817407,71.453475,-16.686351,-28.622659,-39.401703,-53.062399,-32.050563,-19.069747,-16.483855,-14.504708,-33.696181,-22.007908,-22.153377,-17.385365,-33.572556,-26.096125,-21.243994,-15.193395,-35.373029,-30.634487,-23.594199,-15.751187,82.882347,288.327509,-239.47915,-86.633528
55,0.588341,0.300169,0.737199,-0.758202,-28.558846,-52.562828,-73.904629,-88.28373,-59.074974,-89.082756,-104.430771,-116.302185,-51.594315,-85.461559,-104.008884,-118.654575,-42.277222,-72.983837,-90.514297,-104.052715,-32.458191,-55.951195,-69.843292,-81.72884,-14.395071,-12.147232,2.223756,15.735302,17.915771,33.217214,40.209522,44.888474,34.960304,49.308198,55.748704,60.40555,46.625884,61.560406,67.988747,71.990977,53.616771,67.758233,72.576309,75.168159,19.316769,32.943993,42.06768,47.515697,46.731262,69.325047,84.510555,96.076756,40.796871,60.356369,72.322598,83.828316,33.644371,55.927563,67.863121,77.663956,27.424049,47.755737,60.028095,68.883305,-17.792702,-30.408188,-41.589366,-55.635222,-32.610948,-20.439108,-17.345814,-15.550359,-32.815651,-22.550633,-23.398806,-19.322013,-31.659961,-25.354256,-21.186381,-15.495247,-32.933779,-29.7842,-23.668933,-16.19349,83.101072,288.695186,-239.111567,-87.324222
56,-0.019798,0.395388,-1.47068,2.2031,-28.565025,-52.642021,-74.02153,-88.207169,-58.890953,-88.812847,-104.18129,-115.982895,-51.419449,-85.179234,-103.707333,-118.138332,-42.191505,-72.672901,-90.152721,-103.605366,-32.470551,-55.697136,-69.481773,-81.342087,-14.547965,-12.783138,1.14652,14.826027,17.512911,32.660719,39.869215,44.651414,34.920722,49.19538,55.789706,60.452665,46.859671,61.642225,67.973619,71.693278,53.905948,68.015485,72.871908,75.356807,16.151562,28.516159,38.668327,44.234734,40.049057,68.116264,86.894703,102.301025,38.967648,66.319199,83.706207,100.281487,36.557922,66.341286,82.992611,97.399864,34.20639,60.352535,76.763248,89.96109,-18.984979,-33.211162,-48.408062,-66.368355,-35.810731,-22.491198,-18.658257,-16.938015,-36.937831,-23.104472,-21.311951,-15.575245,-35.482898,-24.715942,-17.819841,-10.272274,-35.549712,-27.342897,-18.747734,-9.697655,82.609434,289.163826,-241.054087,-85.04787
57,-0.00927,0.505118,2.455044,-0.909985,-28.540306,-52.597847,-73.8097,-87.836552,-58.998184,-89.127045,-104.601917,-116.569462,-51.439819,-85.231419,-103.777885,-118.289852,-42.141724,-72.599888,-90.207081,-103.866405,-32.308273,-55.717506,-69.745274,-82.000351,-14.854309,-13.47184,0.102012,13.557735,17.155191,32.213831,39.615483,44.634433,34.686194,48.895335,55.766303,60.855093,46.716533,61.297473,67.885439,72.021235,53.923115,67.79516,72.791139,75.588494,15.007954,26.646194,36.361828,41.914101,39.24963,63.265057,81.476154,96.115952,39.197617,62.730331,80.758724,97.74107,37.974186,65.939999,84.115963,99.756718,36.824055,63.531189,82.373028,97.750797,-22.541834,-36.815503,-49.077962,-66.036215,-38.742085,-26.156579,-23.374167,-21.992749,-36.246751,-22.253922,-21.454965,-16.466118,-31.743664,-20.424319,-14.280246,-7.12504,-29.03032,-18.503202,-9.667428,-0.588883,82.030334,289.695049,-239.168873,-85.93175
58,0.513382,0.270837,-0.142422,-4.375696,-28.51387,-52.782555,-74.097404,-88.630943,-58.778572,-89.026794,-104.810886,-117.021046,-51.191826,-84.883175,-103.390331,-117.860985,-42.051773,-72.270699,-89.743423,-103.087406,-32.560501,-55.693245,-69.336548,-80.967064,-14.80639,-13.144687,0.874139,14.091012,16.955366,32.092183,39.542803,44.730022,34.429436,49.171977,56.14897,61.37781,46.38024,61.534347,68.214383,72.629661,53.523219,67.792381,72.925075,75.935223,8.089027,21.76363,33.310375,39.608459,48.116055,66.555691,79.196262,89.238567,56.078281,74.174252,86.752567,98.467941,60.492268,84.371853,98.3325,111.033726,62.51358,87.761135,103.748589,117.543468,-26.477002,-40.471004,-50.410937,-65.995938,-43.140073,-30.571641,-27.113433,-24.914284,-36.465872,-21.501246,-20.318788,-16.143101,-27.786697,-14.46244,-8.384193,-1.676184,-20.504873,-6.352388,2.333795,10.651977,82.029219,289.928435,-239.825792,-90.344897
59,0.325928,0.112262,0.961761,-9.919648,-28.639641,-52.704849,-74.046249,-88.586426,-59.057465,-89.327202,-105.104771,-117.472286,-51.451721,-85.051346,-103.599815,-118.095474,-42.216225,-72.353611,-89.94976,-103.50563,-32.533493,-55.779533,-69.56789,-81.490288,-14.572356,-13.065337,0.472576,13.438495,16.63377,31.61936,39.059667,44.340563,34.109013,48.782887,55.672566,60.719798,46.115269,61.390901,68.168997,72.669676,53.218913,67.617195,72.757546,75.817588,17.095642,33.455887,46.343822,51.494064,62.026119,81.287613,87.063332,91.015148,66.935406,85.691814,94.905338,103.468494,69.834995,92.675686,103.023376,112.964401,71.422005,93.840466,107.451782,118.836136,-23.771346,-35.365295,-44.586545,-55.474625,-34.871847,-18.088209,-7.21356,-0.787935,-27.319772,-12.010826,-2.863089,3.791321,-17.141914,-4.036038,3.852577,11.43559,-4.510868,5.154647,10.055869,15.955442,81.749926,290.033364,-239.469252,-100.271878
60,0.007668,0.087439,5.930614,-4.738325,-28.387756,-52.658501,-74.262257,-88.921738,-58.842659,-89.311237,-105.218754,-117.534084,-51.221352,-85.091686,-103.581676,-117.979774,-42.04422,-72.325287,-89.846249,-103.285275,-32.439995,-55.647583,-69.505062,-81.421108,-14.819852,-13.479003,-0.00389,13.30956,16.726272,31.419536,38.851754,44.192856,34.499399,48.761151,55.493181,60.347196,46.630206,61.567754,68.128365,72.356292,53.744039,68.201972,73.409013,76.409589,14.93288,30.861053,41.886406,43.357544,61.79409,84.017143,92.308044,97.729511,66.208763,89.575081,100.621319,108.151531,68.905735,94.446316,106.647835,116.426411,69.828758,92.9179,106.12421,116.631088,-19.602792,-31.568941,-41.132968,-52.7556,-31.720106,-14.630463,-1.821051,6.455604,-24.90743,-7.609719,3.767516,11.168056,-13.783587,2.784079,13.469803,21.724474,0.19192,11.718746,18.064188,23.324736,80.844383,289.974763,-234.451847,-105.156243
61,0.425262,0.368959,4.886169,1.597885,-28.898735,-53.608475,-75.214176,-90.119934,-59.61319,-89.55122,-105.529919,-118.204765,-51.596947,-84.862862,-103.139362,-117.475033,-42.201118,-72.174911,-89.474258,-102.852802,-32.582245,-55.562325,-69.152584,-81.121674,-15.543999,-14.174437,-0.301342,13.260716,16.396587,31.824063,39.391946,44.808816,34.313531,48.746084,55.429208,60.104393,46.494849,61.271414,67.768237,71.742864,53.580153,68.067726,73.380114,76.516109,13.851357,29.489937,40.547676,41.38607,59.820843,83.636456,91.469078,96.875896,63.895226,88.592834,98.852406,104.866962,66.244469,92.383175,103.241558,110.445042,66.985016,90.273571,103.847637,114.543629,-19.281844,-31.602471,-41.668067,-53.271339,-29.803064,-14.201946,-2.306718,4.817952,-22.433956,-7.359846,4.299342,11.242002,-11.556898,2.714672,13.185782,20.543745,1.623758,11.454948,17.977521,23.943197,80.480146,290.188697,-230.355177,-103.713383
62,-0.108376,0.155302,2.805405,2.778738,-28.851585,-53.144417,-74.579601,-89.877548,-59.09626,-89.430256,-105.745583,-118.53075,-51.05999,-84.698868,-103.259125,-117.706947,-41.666222,-72.039013,-89.595222,-102.949219,-32.06852,-55.246582,-68.948021,-80.83889,-15.940869,-14.769772,-0.9546,12.274129,16.107718,31.418301,38.989519,44.273255,34.258079,49.016057,55.698439,60.214062,46.605382,61.775977,68.097552,71.862165,53.775593,68.639164,73.871153,76.684749,12.718391,28.823833,40.468082,41.95816,58.077621,83.486824,93.776264,100.758877,61.064529,89.05323,101.91576,109.712048,62.572174,91.440754,104.067593,112.487526,62.698002,87.759476,101.773968,112.702789,-18.767031,-30.759084,-41.082302,-53.219932,-28.61511,-13.858089,-2.137305,5.712222,-21.079769,-6.216815,6.109617,14.807564,-10.150872,3.765725,14.683044,22.632267,3.288456,12.16443,18.97445,25.363025,79.506512,290.231954,-228.415031,-101.046691
63,0.372391,0.517715,3.090305,6.464218,-28.893356,-53.221893,-74.84539,-90.313797,-59.109535,-89.665375,-105.95129,-118.755512,-50.935707,-84.583511,-103.102512,-117.570362,-41.364212,-71.502514,-88.882198,-102.107162,-31.576195,-54.755287,-68.231964,-79.875469,-15.734499,-14.750074,-1.097675,11.489714,15.554867,31.202421,38.856941,44.396879,33.284769,48.372309,55.387156,60.399375,45.608793,61.332423,68.087116,72.433913,52.880336,67.920143,73.095692,76.11751,12.605495,28.769245,39.865208,41.089039,56.6395,81.226673,91.797066,98.866997,59.57674,87.141895,99.949665,107.332306,61.099205,88.699207,101.669083,110.283165,61.342678,85.258312,98.971939,110.165691,-20.183894,-32.694775,-43.475717,-54.797146,-30.203423,-16.89939,-6.708133,0.244223,-21.839947,-8.548202,2.247653,9.819705,-10.288638,1.796381,11.935552,19.167822,3.364471,10.660838,17.049783,22.73045,78.318701,290.469693,-226.884928,-94.862449
64,0.483055,0.676599,3.449421,10.356625,-28.414421,-52.899971,-74.732151,-90.494385,-59.164581,-89.678307,-106.024647,-118.841114,-51.087799,-84.94503,-103.640842,-118.311596,-41.615753,-72.298508,-90.015736,-103.621674,-31.785164,-55.514488,-69.188919,-81.085682,-16.11729,-15.454399,-2.372389,9.976891,14.719569,30.255602,37.761674,43.218125,32.705056,47.395788,54.15048,59.027651,45.424715,60.518615,66.850996,71.019705,53.231016,67.978806,73.316511,76.712784,13.093357,29.253273,40.194626,41.792679,55.750294,80.558796,92.535152,100.950336,57.97039,85.420074,99.347649,107.861595,58.788242,86.068439,100.235195,110.072193,58.264904,82.075596,95.983944,107.82938,-21.8933,-34.688109,-45.880587,-57.005279,-31.833819,-21.96916,-13.410862,-6.914688,-22.479002,-11.571317,-2.518213,4.199213,-9.963707,0.256419,8.946832,14.791045,4.397988,10.389352,16.103118,20.460876,77.285671,290.844549,-224.951591,-84.807568
65,0.836678,0.677279,4.521675,11.076635,-28.501854,-53.098984,-74.997368,-90.429783,-59.081383,-89.434204,-105.78289,-118.611832,-51.272507,-84.854565,-103.652573,-118.694286,-42.070885,-72.511826,-90.144424,-103.861942,-32.366524,-55.68512,-69.291115,-81.295338,-16.334157,-16.226588,-3.508041,9.224153,14.480904,29.474768,37.012888,42.457299,32.544505,46.433531,53.241946,58.352596,45.185493,59.52221,65.999211,70.433323,52.866318,67.261142,73.007944,76.855983,13.566341,31.10178,43.94165,47.845345,54.333115,80.819378,94.868774,105.066891,55.551968,83.635197,98.174629,107.468948,55.150108,82.653751,96.950169,106.498604,53.590393,77.113266,90.778713,102.18298,-21.301175,-33.166486,-43.076563,-51.96538,-30.05374,-22.431084,-15.548939,-8.789461,-20.326167,-9.878337,-0.740202,7.12572,-7.863483,2.240089,10.997687,17.801779,6.194616,11.472733,16.435953,20.299336,76.890965,291.397045,-221.661301,-73.855716
66,-0.147629,0.619295,-13.611031,52.515761,-28.082886,-52.444496,-74.429569,-89.969616,-58.189087,-89.36039,-105.965309,-118.920879,-50.534706,-84.887352,-103.80827,-118.679352,-41.537704,-72.559605,-90.479393,-104.39867,-32.011528,-55.714417,-69.617043,-81.856384,-16.58227,-17.00736,-4.822831,7.648777,13.955531,28.856029,36.435028,41.834854,32.162023,45.682461,52.350579,57.259737,44.919473,58.823566,65.479272,70.162918,52.628888,66.751701,72.603726,76.647081,10.303402,31.3274,51.257057,62.271137,62.413902,103.268166,111.823483,112.861691,69.340038,111.223469,115.703259,111.50671,72.754555,110.539055,116.03754,113.156033,72.87323,105.266018,114.133587,114.433594,-38.454575,-57.011377,-66.535081,-73.997402,-71.996596,-58.684905,-50.858874,-47.183552,-62.666171,-46.990458,-38.439137,-33.786707,-49.023096,-36.321839,-28.426339,-25.710988,-34.328567,-25.332613,-18.869567,-15.961339,76.03303,292.461035,-235.982637,-20.895259
67,-0.233116,0.586382,1.879807,-3.869466,-27.917747,-52.158394,-74.300709,-90.144596,-58.071327,-89.316616,-105.907917,-118.917332,-50.420151,-85.008373,-103.922195,-118.905945,-41.369019,-72.607555,-90.776138,-105.014763,-31.75312,-55.79052,-69.991379,-82.490902,-16.733991,-17.347728,-5.524068,6.792607,13.622264,28.347762,35.647463,40.756013,31.768117,45.187222,51.695407,56.448151,44.532977,58.365069,64.960445,69.585366,52.268451,66.416458,72.392725,76.543773,23.274593,48.955765,70.081787,80.72279,77.033615,113.963184,126.727982,133.104801,77.516327,117.831345,131.376629,136.139088,75.502853,114.838715,127.567806,133.604908,72.321854,103.137417,116.945057,126.577492,-28.935749,-42.094515,-50.946375,-59.255757,-45.742235,-37.415655,-29.197849,-21.858256,-33.843425,-25.512677,-16.590946,-9.949751,-19.854085,-12.674241,-3.501001,2.815387,-5.36361,-0.035259,3.796786,5.912756,75.001345,293.170656,-234.9014,-24.641486
68,-0.8321,0.817699,13.33437,16.794784,-27.27562,-51.432037,-73.806667,-89.452171,-58.047523,-89.6208,-106.048565,-118.645363,-50.498199,-85.397415,-104.32457,-118.935356,-41.348305,-72.586613,-90.868149,-105.053272,-31.478119,-55.921555,-70.404739,-82.968636,-17.126786,-18.236193,-6.549187,6.101126,13.140179,27.623923,34.717687,39.747382,31.371247,44.489011,50.723023,55.441249,44.196561,57.892987,64.32102,68.86585,52.035467,65.826804,71.43757,75.258438,22.505894,45.626392,66.257172,78.142319,72.049541,111.096096,124.251595,130.633507,71.598759,113.526592,125.415745,129.174957,69.117393,108.987522,119.974194,123.616562,66.6045,98.777103,110.209579,115.862045,-29.915605,-42.626896,-50.347704,-56.812046,-42.811345,-37.519427,-29.93839,-23.444964,-30.516961,-22.016986,-12.04695,-4.548628,-15.299869,-6.311757,3.103576,8.5633,1.029688,5.753903,10.819969,13.41046,73.393536,293.80616,-222.342739,-8.028897
69,0.184479,0.550567,9.152355,18.15036,-27.340164,-51.411552,-73.787899,-89.52816,-58.463173,-89.59465,-106.113625,-118.96471,-51.17363,-85.48605,-104.46722,-119.289207,-42.18647,-73.324928,-91.453972,-105.39957,-32.444229,-56.913071,-71.149635,-83.411465,-17.43881,-18.536362,-6.856766,5.628674,12.372066,26.977705,34.154894,39.401209,30.627093,43.874964,50.141273,54.9273,43.659517,57.2895,63.530923,67.931011,51.81829,65.466243,70.843037,74.434873,24.463634,48.939857,69.589806,80.652523,73.129749,111.353989,121.725368,124.301205,71.780148,112.21487,124.127769,126.570911,68.00972,106.475945,118.034649,121.081581,63.821297,94.585705,106.486874,112.336006,-28.152105,-40.083921,-47.863856,-55.204807,-38.534696,-30.707337,-23.37179,-17.476169,-24.761884,-15.24664,-6.399751,0.054896,-9.135294,-0.153975,7.78049,12.129973,7.422955,11.650481,15.711559,17.295179,72.852859,293.999778,-213.915539,9.764515
70,-0.109062,0.293685,7.499027,23.200402,-27.175941,-51.092377,-73.588772,-89.803848,-58.24379,-90.015163,-106.702023,-119.67659,-51.157951,-85.946331,-105.133438,-120.203533,-42.347603,-73.911839,-92.466145,-106.862411,-32.593231,-57.232475,-71.756573,-84.288368,-17.276098,-18.638312,-7.330453,4.798501,12.584981,26.179334,33.026776,38.12526,30.773688,43.279876,49.367046,54.153753,43.625925,56.749123,63.026731,67.655851,51.473847,64.866894,70.444438,74.390351,23.037014,48.1287,70.335674,81.988964,70.31353,109.625645,121.917572,126.199722,69.622879,110.612297,124.134808,128.985729,66.16087,105.322723,118.750534,123.846073,61.536713,92.738285,105.099964,111.509228,-27.738903,-41.149579,-49.626305,-56.640596,-35.627981,-29.824214,-25.056002,-21.066956,-20.567055,-14.1996,-9.37186,-5.090086,-4.125298,1.591833,5.819698,8.674049,12.824202,14.741274,16.610552,17.250935,71.477423,293.274813,-207.682886,31.946267
71,0.085144,0.555568,3.76236,20.279885,-27.030258,-51.229134,-73.829784,-90.306988,-58.527374,-90.141735,-106.867962,-119.999485,-51.6362,-86.361294,-105.593891,-120.726185,-42.954025,-74.189014,-92.75528,-107.236176,-33.373375,-58.124771,-72.935829,-85.885334,-17.631286,-19.3406,-8.395401,3.292038,11.986311,25.663286,32.356537,37.091867,30.423749,42.582714,48.462279,52.954189,43.459816,56.38566,62.541126,66.791036,51.527878,64.75142,70.132104,73.584014,28.150063,56.966686,80.727081,92.747269,70.757275,106.224976,122.124138,133.864803,67.350769,104.182262,122.974262,137.820168,62.372417,97.737122,117.691154,132.823849,55.774212,84.254093,99.988861,113.189907,-28.761057,-42.325431,-50.627063,-57.685938,-31.443032,-26.14602,-21.78746,-16.081351,-15.817924,-8.753985,-4.238579,1.637374,0.546893,7.646337,11.492122,15.449027,17.358967,21.341838,23.436535,25.871786,68.762856,293.081195,-206.720238,51.476965
72,-0.038795,0.689196,4.783058,27.110191,-26.54789,-51.257973,-74.372807,-91.190071,-59.182205,-91.063671,-108.034687,-120.997982,-52.538338,-87.365627,-106.645432,-121.607265,-43.916702,-75.055275,-93.781185,-108.328171,-34.194946,-58.956642,-73.784924,-86.760464,-17.662285,-19.754945,-9.109421,2.352382,11.518984,25.099196,31.957135,37.00165,29.956483,41.910746,47.914182,52.705953,43.079249,55.785322,61.980432,66.346001,51.186707,64.150403,69.514415,73.039067,28.721352,56.394081,78.426991,92.843513,71.541996,103.000145,120.183563,135.209312,67.652321,100.821419,121.026707,139.630108,61.192474,92.713566,112.843094,130.863819,52.271404,77.942619,94.41988,109.96336,-30.074921,-44.141016,-52.87873,-60.363559,-30.551603,-25.65495,-20.361797,-13.930831,-16.050476,-9.03671,-3.68335,1.75084,-0.636184,6.872759,11.657274,15.968255,14.279628,20.834095,24.257939,27.321007,65.086298,293.400506,-205.574942,78.217271
73,-0.31414,0.856293,6.854095,22.132644,-26.900024,-51.411781,-74.682426,-92.187996,-59.975853,-91.477432,-108.326111,-121.312237,-53.156433,-87.886505,-106.984749,-121.922092,-44.517517,-76.032028,-94.5928,-108.897228,-35.001411,-60.032845,-74.62738,-87.329407,-17.947201,-19.904134,-9.667459,1.014868,10.761183,24.587162,31.371679,36.231498,28.980518,41.179003,47.132546,51.763333,42.127675,54.869502,60.795133,64.969523,50.500969,63.536049,68.865233,72.455155,30.051842,58.70018,81.387978,100.200405,74.454288,104.575768,123.552246,139.741459,68.659058,100.738392,122.053585,141.188393,59.667034,88.591576,107.775021,124.201984,47.842426,67.245426,79.88142,90.621986,-26.246488,-36.967378,-44.046013,-52.73621,-24.238333,-18.185651,-11.636958,-5.556889,-12.482537,-3.348293,3.868849,10.524215,-1.069023,8.670931,15.691243,21.361536,9.023402,18.369543,23.601285,27.645999,62.913809,294.091956,-200.579195,100.185073
74,-1.453857,1.083287,7.698326,23.531693,-26.385384,-51.005745,-74.587154,-92.55312,-59.994965,-92.217407,-108.847218,-121.335983,-53.052292,-88.632088,-107.527485,-122.090721,-44.287376,-76.414719,-94.756565,-108.810883,-34.640808,-60.037308,-74.331779,-86.571693,-18.414529,-20.050606,-9.629915,0.954785,10.31553,23.984416,30.539407,35.115483,28.377278,40.545135,46.453847,51.05876,41.405318,54.191976,59.985276,64.209128,49.679318,62.690624,68.023019,71.923484,33.451538,62.54591,85.324173,102.892513,73.212891,103.437996,123.401756,139.093208,65.667744,99.563599,121.93943,140.459747,55.62624,84.804726,103.434105,118.333626,43.365326,61.018925,70.843048,78.443184,-23.431317,-32.975214,-41.556638,-52.096106,-21.741023,-11.930087,-3.822042,2.236785,-11.394464,1.585812,10.703631,17.123821,-1.851277,9.639239,17.387311,22.277202,5.118924,13.566442,17.826788,19.835529,59.78219,294.722104,-194.55863,123.263625
75,-1.277618,0.484864,28.60651,32.647937,-26.47419,-50.660591,-73.840942,-91.684284,-59.856606,-92.236347,-108.780613,-121.130447,-53.339195,-88.949947,-107.878132,-122.460136,-44.915085,-77.141361,-95.27132,-109.035816,-35.527382,-60.452728,-74.33321,-86.313057,-18.279542,-20.494406,-10.94032,-0.87278,9.897603,23.226491,29.675951,34.230168,27.940147,39.792398,45.427555,49.659249,41.052415,53.552983,59.341961,63.475533,49.440776,62.289617,67.625778,71.509632,24.897823,55.796986,80.398064,93.623314,66.848946,118.154697,127.651062,123.910332,63.638191,118.900681,126.344662,120.540104,56.513443,107.126083,115.872631,113.753014,47.02795,85.779076,97.167377,98.391438,-22.678395,-31.932744,-39.56281,-51.514324,-15.357019,-1.970085,4.702047,6.989344,4.967018,18.725071,20.817422,19.458358,24.581851,35.868221,34.915659,32.306889,41.81213,49.412556,46.107612,42.047646,57.249584,294.727137,-167.207108,155.43173
76,-0.346069,-0.004693,-2.556381,19.24112,-26.507263,-51.348839,-74.750748,-93.338814,-60.820312,-92.780685,-109.461651,-122.147427,-54.212151,-89.286919,-108.287029,-122.956352,-45.543823,-77.659664,-96.051407,-109.930401,-35.840378,-60.995407,-75.142879,-87.11792,-19.157016,-20.593701,-9.510798,0.585703,9.096144,22.597934,29.1972,33.969149,27.373649,39.570529,45.137822,49.392055,40.703957,53.413365,59.163193,63.307263,49.29029,62.019706,67.312766,71.16278,33.377781,65.639877,90.344238,106.718674,74.289722,112.488213,128.965816,139.184132,66.972656,108.758869,128.807259,141.171513,60.090523,99.420948,120.508461,133.597012,52.890816,84.335976,100.100899,111.165562,-22.343399,-31.125666,-34.606907,-43.203984,-6.602601,3.383182,8.966654,14.271508,10.674547,22.000499,25.671375,28.082173,25.542132,38.30588,41.130159,41.842511,38.441484,50.386484,52.318407,51.866826,55.422907,294.71775,-171.244097,174.668157
77,-1.8013,-0.13264,2.932262,20.882137,-26.495247,-50.698471,-73.886433,-92.764721,-59.807396,-92.199154,-108.528671,-120.900707,-53.361855,-88.902798,-107.523479,-122.063656,-45.039368,-77.344723,-95.482349,-109.438992,-35.749741,-60.64888,-74.689178,-86.943455,-18.533707,-19.532088,-8.600597,0.900136,9.84598,22.962323,29.224679,33.808104,27.705681,39.395898,44.853647,49.116957,40.704451,53.35322,59.151769,63.453488,49.014822,61.737877,66.846612,70.691563,36.459274,68.197689,92.839279,113.019962,75.430298,106.601486,124.913235,139.093437,68.732243,103.671169,125.784817,142.658272,61.319275,93.805161,114.932327,130.596542,52.789421,79.195118,96.261463,111.291504,-21.947146,-28.401052,-31.429725,-40.094049,0.688579,9.972321,15.499477,21.413005,15.036843,27.182902,31.616705,35.955598,26.859638,40.676231,45.012531,46.889311,36.938602,50.105396,53.694947,53.978258,51.814528,293.982473,-170.118914,194.947656
78,-2.269821,-0.605586,24.650631,22.21292,-26.475105,-49.900131,-72.369576,-90.291824,-59.53846,-90.560417,-106.488476,-118.903141,-54.201736,-88.14394,-106.799641,-121.217422,-46.678848,-77.359371,-95.526524,-109.459534,-37.741241,-61.636505,-76.198826,-89.109306,-17.390398,-18.695493,-9.801705,-1.918215,11.491505,23.45997,29.36899,33.6951,28.853251,39.826422,44.813632,48.350387,41.589458,53.577621,58.880809,62.097511,49.893592,62.575768,67.459299,70.257519,27.39069,58.392105,83.512516,103.104229,64.275455,110.504951,124.553661,126.015987,57.549477,108.499546,122.6758,123.395519,49.793072,96.685467,109.760227,111.312389,41.72739,78.515053,93.059464,98.092346,-22.126469,-24.487435,-24.475579,-31.049774,6.600131,24.282362,25.470439,23.331714,29.057953,45.022781,41.149301,35.398732,44.257941,58.031926,52.101478,45.943171,52.330387,63.661958,59.533757,53.869022,47.840853,293.403733,-147.172136,217.187422
79,0.471497,1.057538,-2.814331,7.648406,-25.631447,-47.331848,-65.529213,-77.312622,-60.357513,-88.421173,-105.432987,-118.792248,-56.671829,-87.55949,-107.189827,-122.251282,-50.157967,-78.036861,-96.730728,-111.436329,-41.600304,-63.301449,-77.444,-90.668278,-17.394412,-23.322575,-25.540897,-31.212363,9.227858,20.963894,27.445094,31.980415,24.535662,38.290381,44.530013,48.109499,36.729577,50.755195,56.923197,60.221842,45.850237,59.34758,65.197443,68.765382,34.483337,66.651592,91.95631,110.830307,69.243793,102.764168,119.787426,133.393593,61.886158,98.852177,119.583893,134.811687,54.516392,88.020229,107.038078,120.383492,47.302608,72.373352,87.27602,98.856983,-14.968238,-16.972348,-15.968657,-21.633763,14.452252,29.030906,35.328275,39.674084,33.159724,47.364974,51.609574,53.142281,46.476201,62.440164,66.872547,67.154685,54.17129,69.391161,72.897658,73.185477,47.387323,294.317623,-150.911493,224.692181
80,-1.033974,-2.486813,29.793205,29.705838,-28.846779,-51.665268,-71.900997,-88.373394,-59.50882,-87.263088,-104.630871,-119.132423,-56.056709,-84.729195,-104.765568,-121.553593,-50.196075,-75.724754,-94.52322,-111.279087,-42.537918,-62.561703,-76.861897,-91.120262,-14.179191,-17.021501,-16.216893,-16.368676,12.84458,20.021089,23.596067,25.703918,26.280358,36.882718,41.384076,44.234167,37.485341,50.410937,56.063817,59.050622,46.179366,57.764732,64.376657,68.886598,21.545277,48.151302,72.790546,92.927628,51.562786,95.742531,112.141972,115.332355,49.929485,98.192997,110.855885,106.933308,48.25819,91.576653,103.318691,100.353355,46.294556,81.004887,92.510719,91.278419,-27.825724,-31.348152,-29.159533,-30.576766,7.484459,21.548053,24.02795,26.301847,33.214929,46.366655,46.16961,44.340254,51.066541,64.403765,65.810008,65.355463,61.217691,74.654149,76.354014,74.096481,45.600243,291.555234,-121.871395,254.122443
81,-2.726898,3.105181,-5.363503,-2.850955,-22.573013,-48.072968,-71.228085,-89.624462,-46.348915,-76.376438,-97.685909,-116.352196,-43.787498,-76.421413,-98.29113,-117.280254,-41.195297,-72.639828,-92.44257,-109.33342,-39.051132,-64.719658,-78.119946,-89.842243,30.270052,47.464207,57.824012,65.492425,41.964036,46.084024,47.461799,47.753693,25.320695,23.061494,16.105619,7.574429,7.325328,4.97875,-0.524076,-6.228826,-11.180777,-12.007738,-12.75041,-13.832092,28.876019,58.791618,83.660145,101.561451,60.102253,95.221539,113.131313,126.359768,52.076969,90.861912,112.123318,126.040707,44.819527,79.413242,99.55965,112.615871,37.823811,63.98243,79.877987,90.372105,-15.03499,-15.606676,-14.1054,-17.069543,19.608473,33.793716,39.782579,44.198722,38.130138,53.042678,58.105717,59.588715,50.057169,66.485928,71.791955,72.140845,56.616544,72.371174,76.978743,77.124103,42.011719,294.36497,-128.096523,250.976043
82,-0.311394,0.50623,4.766865,7.332676,-26.722755,-52.268257,-72.141609,-86.528149,-46.20369,-76.189613,-95.352631,-111.191025,-45.307846,-77.765293,-99.342785,-118.487606,-43.268623,-73.828926,-95.311546,-114.460716,-39.776802,-61.613274,-76.401157,-91.546268,-17.405342,-19.082174,-12.100919,-4.748113,6.284092,2.935429,-2.410489,-7.192564,22.577433,20.193311,12.388368,5.057791,34.453148,37.216232,35.956153,32.755074,41.854614,52.566891,58.227551,61.168723,30.845833,59.597626,85.206699,104.843674,59.997082,92.485027,110.653152,124.260635,51.175747,89.057693,111.072578,126.261635,43.679924,77.922134,98.419189,113.445854,37.440434,63.660564,79.028492,91.382618,-12.794253,-13.587499,-12.229237,-15.895976,20.679966,34.392509,41.080264,46.061361,38.238016,53.985298,60.58549,64.426613,49.53791,65.941165,72.098484,74.896395,55.595687,70.275242,74.454262,76.116769,41.249943,294.735318,-123.780041,258.172838
83,-5.668831,2.181766,6.810493,6.087911,-21.996574,-41.691055,-58.738232,-72.061844,-27.888565,-51.152,-70.840988,-87.257652,-29.124298,-57.22744,-81.495953,-101.307793,-31.545639,-58.535328,-81.030407,-99.6385,-33.47374,-54.761009,-71.985455,-88.543396,-19.234636,-26.940531,-28.229757,-25.510021,5.72309,1.905371,-1.890365,-5.755447,22.880133,23.309669,18.10343,12.694526,35.498151,41.759642,39.454067,36.012223,43.770051,56.074993,61.428569,63.744024,31.340561,59.686146,84.664707,104.249725,60.452843,92.251797,110.728569,124.312935,50.220966,87.711239,110.143547,125.363045,41.467781,74.893799,95.352116,110.298271,34.186821,60.101223,75.454731,87.683887,-12.347736,-12.566147,-11.056844,-14.748962,21.43962,37.78341,46.262421,52.912261,38.560786,56.746406,64.531959,69.553132,50.008262,68.020734,74.857863,78.60988,56.314955,72.294048,77.144851,79.732194,35.072908,297.069808,-117.477751,264.413473
84,-11.498565,3.128183,5.81646,5.004871,-16.144238,-32.658348,-47.023573,-58.970518,-42.277136,-48.001557,-45.062142,-43.783493,-45.276203,-50.673609,-49.645415,-47.272511,-45.786953,-53.286553,-51.64012,-49.553061,-44.96109,-61.184521,-71.784411,-80.08996,-14.538085,-19.010204,-17.239048,-12.533975,1.976507,9.06178,10.119503,9.999954,17.030424,23.254526,24.103779,23.707712,27.814084,35.869178,36.567575,36.751838,36.067736,46.359801,51.761449,56.558808,30.829983,58.850727,83.962555,103.34713,60.594864,93.664742,111.81118,125.448875,50.364647,87.604752,109.561501,124.89109,41.405411,75.396366,95.377579,110.11013,33.922234,60.176926,75.276146,87.665005,-12.322665,-12.540397,-10.665099,-16.146065,20.149345,37.674297,46.443411,53.299312,37.428036,55.744814,63.984542,68.482812,49.375135,67.34395,74.651493,78.14527,56.39943,72.232174,77.244764,79.757141,23.298168,300.204938,-111.937466,269.425291
85,-11.498566,3.128183,4.758339,2.846632,-10.291901,-23.625641,-35.308914,-45.879192,-56.665707,-44.851112,-19.283295,-0.309334,-61.428108,-44.119778,-17.794876,6.762772,-60.028267,-48.037777,-22.249832,0.532379,-56.448441,-67.608032,-71.583366,-71.636524,-9.841534,-11.079876,-6.248339,0.442071,-1.770076,16.21819,22.129372,25.755356,11.180715,23.199383,30.104129,34.720898,20.130017,29.978714,33.681083,37.491454,28.365422,36.644609,42.09433,49.373592,31.208725,58.599987,83.399048,102.722397,61.759357,94.271507,112.145004,125.301361,52.141113,88.05479,109.840622,125.764732,42.756214,75.206566,94.829407,109.73568,33.892994,58.344555,72.975426,85.95377,-11.820634,-11.631369,-9.851228,-16.009844,19.981816,36.181728,44.4096,50.712711,36.54871,54.09367,62.255839,66.91639,48.047625,66.006559,73.864546,77.965144,55.27514,71.629243,77.24569,80.233113,11.723413,303.321667,-107.255316,272.260469
86,-29.766884,13.772812,6.442051,2.553441,2.458305,2.488632,5.615501,9.746246,-16.48613,3.693008,22.074394,35.128555,-22.780838,0.507946,18.562202,35.146523,-24.9543,-7.182198,12.572594,28.586426,-23.792267,-32.872238,-42.857037,-50.988979,-16.156254,-27.254594,-38.754991,-48.979809,-11.312552,2.456617,12.005206,17.899654,2.738693,13.838823,22.247994,26.375083,12.815125,23.921554,29.623772,32.562289,21.576582,27.217853,32.772981,37.519612,30.363178,57.41066,81.665325,100.529995,62.284069,93.754292,111.002598,123.475056,52.519569,87.184811,108.239193,123.255901,42.448254,74.133396,93.152103,107.414761,32.538414,56.966057,71.468124,84.232464,-12.89046,-13.186059,-10.672015,-15.699733,20.116802,36.486219,44.90879,51.346826,36.519996,53.459863,61.617957,66.68779,47.959754,64.703996,72.376917,76.628186,55.420316,70.974442,76.143445,78.793032,-18.130245,316.920512,-100.90004,274.639944
87,4.757309,-20.242279,5.598907,2.986867,3.637733,4.232941,4.403801,1.801758,-21.87664,-0.572205,22.146263,38.279114,-29.238052,-3.622742,19.343147,41.284561,-33.528957,-12.441845,9.207458,27.036095,-35.58918,-39.315662,-43.091125,-44.55162,-19.662998,-27.17895,-29.285874,-29.156569,1.293856,19.48806,25.511071,28.114654,20.65471,36.729207,40.453621,40.872042,32.355425,45.131832,46.410189,47.401098,41.365057,51.866456,58.19365,64.189368,30.066719,56.540108,80.240536,98.635998,61.660194,92.795162,109.786549,121.893024,52.252522,87.177143,108.111591,122.692165,42.578831,74.513683,93.449306,107.329273,32.940617,57.757587,72.447681,84.901714,-12.674643,-13.180811,-11.497433,-17.926515,19.186285,34.262587,42.48064,48.68773,35.766641,51.861331,59.808238,64.490463,47.25722,63.550313,71.016247,74.824641,54.815841,69.444637,73.868992,75.559039,-13.37883,296.497783,-95.307026,277.446361
88,-10.75716,4.202733,5.719872,1.595754,0.747643,3.922691,9.181767,9.138966,-10.187988,23.371639,45.967197,58.852558,-16.817322,17.106915,42.085476,59.625835,-19.744377,2.994919,26.23415,43.792591,-18.721962,-24.085922,-28.665447,-32.866402,-14.373952,-16.146498,-14.241992,-12.712743,4.750397,20.994399,30.996916,38.691203,20.180652,30.166744,38.037389,42.051043,30.965979,40.059221,45.809975,48.990986,39.496305,48.305618,55.066053,60.898256,29.05632,55.331841,78.753376,96.841335,59.778843,91.477146,108.707485,121.316013,50.529499,85.693302,106.975651,121.637821,41.057224,73.120365,92.178097,105.99123,31.709976,56.776199,71.779861,84.242535,-12.762328,-13.344696,-10.666704,-15.608899,19.314294,34.965553,43.241096,49.50407,36.45769,52.803395,60.579007,64.772477,48.286723,64.775071,71.730575,74.881328,55.760128,70.448328,74.438578,75.554655,-24.140024,300.575642,-89.591188,278.91724
89,10.540066,-1.073593,1.530247,2.920671,6.504822,8.026657,8.95237,8.831291,-17.112064,5.544319,24.655838,36.95137,-24.769993,0.938644,21.967278,41.629028,-30.222301,-10.168362,10.01873,25.160408,-33.576164,-41.54686,-48.41114,-54.087067,-20.039861,-28.051977,-29.110626,-28.071614,1.265451,18.503696,24.275569,27.298375,19.06334,36.080086,39.766524,41.316213,29.707444,44.918485,46.158371,47.211154,38.128348,48.295738,55.898078,63.546917,28.710308,54.90406,78.365479,97.159081,60.145283,91.849022,108.651466,120.70015,50.928326,86.650658,106.720047,120.299721,41.396027,73.748131,92.181702,104.975166,32.478619,56.946144,71.729851,83.651733,-13.237065,-13.630107,-10.342515,-14.425452,17.96727,33.938273,42.536092,48.815985,35.187237,51.040915,58.353584,62.084173,47.114329,63.438236,69.042642,70.69712,54.383094,69.169045,72.910873,73.356031,-13.49988,299.538914,-87.960863,281.874776
90,-5.330944,8.562559,1.04393,1.340293,0.77528,5.332432,11.404209,11.460972,-12.535458,16.678219,38.908024,52.280216,-20.01646,10.670071,34.737682,51.036701,-22.962055,-2.457676,19.751186,35.571156,-21.73748,-29.396782,-33.25058,-36.752129,-18.203651,-24.090194,-24.277051,-23.678195,-3.493159,8.876313,18.231068,25.576403,14.737909,23.547285,29.931783,31.890877,27.757551,35.226264,38.659031,39.934115,38.600183,45.746496,49.185994,51.400796,28.272057,54.478912,77.066574,95.684509,57.944298,89.956512,106.992188,119.114685,48.195648,84.205284,104.513512,118.209343,38.4058,71.079941,89.498177,101.687508,29.686718,53.802853,68.691044,80.049477,-12.558305,-13.232125,-9.167775,-10.743707,19.032094,35.725886,43.692801,49.131901,36.576066,52.639509,59.476885,62.921879,48.46796,64.514546,69.563445,70.387195,55.409262,70.089064,73.243584,72.467319,-18.738184,308.058479,-86.824293,283.172075
91,-5.903378,5.151219,-0.242043,1.228154,-1.297016,-0.302868,7.379436,9.69223,-4.085941,28.514671,49.059563,60.50972,-9.764442,21.877441,43.619156,58.431702,-12.819214,10.316963,31.187553,46.073456,-12.353382,-19.632111,-25.826511,-31.548328,-16.372504,-20.785436,-21.589673,-21.637036,-1.380122,8.669017,16.723926,25.244803,12.058682,20.801985,27.495915,32.090084,22.330987,30.40226,35.606708,39.701131,30.500381,37.440633,43.085424,48.316486,28.053646,53.939724,76.526642,94.236259,57.941093,89.837151,106.479492,118.88649,48.743763,84.338264,104.053116,118.367615,38.887138,71.146889,89.224777,102.129707,29.252186,53.931198,68.707638,80.504265,-12.108638,-13.157901,-9.285595,-10.930255,17.98524,33.653234,41.27521,46.24618,34.847363,49.847526,57.158404,60.764443,46.596305,62.037798,67.956884,69.463903,54.051247,68.910002,72.616879,72.430516,-24.477539,313.302926,-86.902313,284.493457
92,-9.639759,-0.330303,0.756454,0.951512,8.864994,17.526226,24.404469,26.758518,4.724293,36.904163,55.77467,68.17606,-1.626263,30.614262,51.357365,66.024685,-4.336109,18.980198,36.381969,49.379253,-4.353447,-1.920033,-4.431667,-5.918427,-1.386235,4.661909,14.30578,25.895653,-0.014635,10.368079,17.80215,23.657633,10.372772,20.21832,27.440154,30.048985,19.919757,30.667231,37.123668,40.809551,29.203561,40.995543,47.423514,53.022362,27.924614,53.642578,76.387711,94.761658,56.769962,88.680496,105.326042,117.572479,47.507343,83.43956,103.26107,117.192421,37.869244,70.678368,88.971176,101.706505,28.77039,53.792267,68.647842,80.328026,-13.304065,-14.574147,-10.336834,-11.924252,16.470502,32.365614,40.097692,45.106329,33.965691,49.149746,56.27772,59.575995,46.097115,61.49069,67.109977,68.375058,53.663763,67.946325,71.381253,70.90948,-33.923779,313.081489,-85.952339,285.553835
93,47.315426,-5.126272,0.461369,0.14289,-0.878563,-9.198189,-21.158524,-33.956966,-42.493744,-25.292473,-2.951775,11.680183,-52.756691,-30.964737,-7.008133,13.325729,-57.03289,-44.264832,-21.545448,-4.195862,-58.106918,-71.784554,-78.762932,-84.339237,-18.619602,-26.536807,-26.302032,-22.725757,-0.879696,14.028891,19.450701,23.053961,15.488238,24.82101,29.517253,31.495736,26.4427,35.286532,36.727354,37.461196,36.261139,43.422149,47.36306,51.414443,27.824821,53.217316,75.723782,94.095669,55.876465,87.784481,104.734211,117.283459,46.480808,82.475224,102.5564,116.701069,36.792183,69.503002,88.101711,101.192837,27.746029,52.38802,67.419033,79.30624,-13.289862,-14.572603,-10.516342,-11.97007,16.854219,32.385312,40.024024,45.039207,34.193303,49.017539,56.010835,59.39451,46.090569,61.462532,66.997221,68.280271,53.3786,67.826714,71.266459,70.572755,13.55896,307.986741,-85.323658,285.728249
94,-47.70298,3.33619,0.573349,0.302515,8.33107,15.107574,22.164917,27.918205,4.016361,35.478973,54.106979,63.95668,-5.050793,29.77375,49.535522,66.591339,-12.253933,17.54179,39.287567,55.828514,-15.94717,-18.568726,-22.189407,-23.889084,-25.660507,-33.032271,-32.004745,-27.533027,-9.891428,4.641655,14.918529,22.003216,8.975361,25.257771,32.403282,36.261571,22.181983,35.229289,38.000833,39.087949,31.955653,42.348803,47.226036,49.092689,27.719765,53.217258,76.065731,94.517727,55.173683,87.287693,104.279881,116.96085,45.920048,81.70435,101.723843,115.912113,36.368122,69.334202,87.956371,101.155758,27.427197,52.70319,67.861691,80.17931,-12.885397,-13.99783,-9.959415,-11.863366,16.196392,31.673207,39.283636,44.274366,33.206161,48.100669,55.116503,58.368342,45.141157,60.330091,66.015575,67.39582,52.604126,66.910029,70.58103,70.269622,-33.8976,311.289292,-84.503889,285.997126
95,20.412025,-8.918674,0.73946,0.365068,4.700661,5.823441,3.386307,-2.876358,-17.218437,7.95433,28.492241,39.015999,-26.059513,5.794601,27.276421,44.868736,-31.70826,-5.979538,15.08297,29.426651,-34.439564,-38.06076,-41.053905,-43.554211,-21.710642,-27.342156,-25.7188,-23.64485,2.674472,19.698814,22.789237,22.845244,20.572026,36.007036,37.985828,36.668753,31.790718,45.20655,44.397064,43.094748,40.452139,51.610686,55.974402,58.698336,26.647224,52.110214,75.30407,93.739357,54.573383,86.66851,103.661385,116.253891,45.805264,81.473236,101.720581,115.782051,36.598434,69.890442,88.596611,101.702728,27.876778,53.708668,68.908768,81.226273,-13.335063,-14.527834,-10.565866,-12.275611,16.023491,31.023654,38.605864,43.564175,33.109212,47.487858,54.506842,57.706501,45.108676,59.782179,65.257033,66.444678,52.652477,66.299812,69.759873,69.516823,-13.348331,302.351074,-83.627186,286.34265
96,-6.040707,6.789767,0.378914,-0.070704,-4.329071,-4.8139,-0.748844,-2.439823,-13.226337,19.853382,41.506863,54.959621,-18.72488,16.61974,40.109196,55.988445,-20.547466,4.126797,25.734501,41.47562,-17.784576,-23.437328,-27.586498,-29.790058,-13.950715,-16.22665,-13.264791,-8.024157,-0.57113,12.418749,21.566455,29.153666,14.005117,23.239644,30.175512,33.810141,24.678552,32.756432,38.428887,42.143977,33.693989,40.550816,45.264102,50.274407,26.685219,52.069588,75.22728,93.609467,54.341297,86.233521,103.31234,116.046295,45.301094,80.803528,101.054764,114.931183,35.840607,69.119911,87.937546,101.016197,27.009945,52.818432,68.133316,80.361099,-13.321663,-14.266198,-10.310837,-12.076405,15.556287,31.151786,39.143895,44.490925,32.818924,47.687003,54.986581,58.533401,45.050692,60.125512,65.514285,66.804436,52.763442,66.649381,69.843668,69.370042,-19.229021,309.117962,-83.088255,286.249067
97,-17.15126,-10.274651,0.457191,0.865864,14.93866,26.692829,29.945583,27.281513,10.547791,36.425457,56.516705,66.979465,-0.499306,32.451496,53.761539,70.383739,-10.138779,17.917786,38.528423,52.410908,-17.842197,-11.115303,-5.767593,-1.594791,-18.141036,-21.979874,-17.643945,-14.407977,0.102197,18.213655,23.738526,25.99186,17.94399,35.153398,39.474877,39.976352,30.289318,45.246194,46.805763,47.448584,40.000497,54.357159,57.242447,57.529771,25.514431,50.573101,74.257278,92.658463,54.464893,86.328278,103.324814,115.94799,45.809441,81.191025,101.292572,114.928665,36.418591,69.767532,88.392448,101.090012,27.420158,53.440189,68.891602,81.309242,-14.397047,-16.043189,-12.161929,-13.522599,15.084267,30.153838,37.718201,42.629212,32.35524,46.657253,53.665307,57.137471,44.620045,59.323065,64.366468,65.438455,52.484763,66.200023,69.344725,69.001639,-36.107626,298.760535,-82.358408,287.032155
98,21.803799,-1.118176,0.088692,0.022045,8.357506,10.324974,6.132545,0.284615,-13.367786,9.317436,30.634117,41.457024,-24.920483,6.66378,28.88031,46.390114,-32.380428,-6.287785,15.418053,30.167427,-36.88139,-33.10461,-27.197571,-22.091103,-16.661311,-18.313937,-11.81026,-5.64726,5.929151,23.380373,27.535064,28.639409,21.992533,36.716671,41.105335,42.201961,32.490535,45.287258,46.935315,48.039165,40.633006,53.431273,56.198679,57.565587,26.096134,50.818233,74.001961,92.297173,54.6068,86.110954,102.979317,115.957489,45.904026,80.831566,100.826111,114.770393,36.418877,69.010048,87.687378,100.62561,27.20993,52.439919,67.769852,80.107269,-13.919469,-15.699733,-12.138278,-13.445164,14.526476,29.772158,37.52517,42.733817,31.663882,46.006959,53.261459,57.026567,43.945483,58.695372,64.222651,65.668537,51.92339,66.069483,69.59432,69.214555,-13.957815,297.549655,-81.923704,286.961497
99,-6.496181,8.805053,0.716057,0.225019,-2.9702,-3.698387,-2.001343,-8.202267,-8.741684,24.087696,42.831974,53.802395,-14.30191,20.291462,42.68343,57.124729,-16.466618,9.367504,29.575367,43.806896,-15.253601,-10.917206,-6.439419,-1.018467,-9.077187,-9.123006,-5.299482,-0.375196,0.408788,13.003772,20.529357,27.358767,12.549721,22.732117,30.29537,35.132094,21.733984,30.913491,37.575126,42.500339,29.879234,37.564196,39.212561,42.261797,25.796185,49.667873,72.514458,90.806465,53.908138,85.396385,102.428741,115.421104,45.329189,80.054855,100.139351,113.855782,35.739613,68.413582,87.020416,99.659157,26.355171,51.478214,66.776848,79.125481,-13.987148,-16.146189,-12.49427,-13.325492,13.814679,28.880544,36.782127,42.255313,31.106894,45.410635,53.052064,57.229417,43.746153,58.294612,63.881357,65.477729,52.172614,66.465118,69.99965,69.581537,-20.105295,306.316546,-80.858946,287.148354
100,-23.713589,-7.361761,0.541191,0.438243,16.559887,29.261169,33.968353,30.165939,18.063641,45.214806,64.770699,74.19239,8.081818,42.841873,64.476814,78.68557,-1.19173,29.937744,52.297897,66.255684,-9.04192,9.935017,26.167259,37.176247,-15.604329,-18.935085,-13.429974,-7.714911,1.537647,18.154745,23.840352,27.226004,16.596473,32.361353,38.250181,40.498946,27.837703,42.47533,45.282442,46.20913,37.172451,51.972852,52.704965,50.56661,25.287609,48.766479,71.541824,90.136757,53.159409,84.838715,101.966286,115.076752,44.642601,79.633369,100.017242,113.900414,35.007877,67.905922,86.746902,99.437027,25.550251,50.551815,65.950928,78.549042,-13.847159,-16.295995,-12.920347,-14.025124,13.424354,28.467681,36.21285,41.703141,30.731019,44.748795,52.28216,56.499774,43.426595,57.803387,63.414586,65.139398,51.892144,66.407072,70.147851,69.847064,-43.448181,298.907948,-79.947052,287.539759
101,0.727386,0.406441,0.713654,0.583109,17.089405,30.15358,35.382042,32.078247,17.99263,45.120964,64.679031,73.914413,6.090603,40.123329,62.203331,76.988297,-4.420395,25.604839,47.74704,61.593018,-12.887878,3.272038,17.93232,28.278351,-17.096281,-21.406954,-16.608329,-11.914124,-1.840348,15.451065,22.333086,26.239973,15.087725,32.136273,38.102351,39.765042,28.3858,43.377071,46.232286,47.126371,39.124197,54.472447,55.539617,53.258063,25.138779,48.591385,71.197929,89.474144,52.795658,84.438629,101.49765,114.50901,44.211788,79.317627,99.668198,113.48053,34.633083,67.439804,86.149864,98.658943,25.260029,50.284996,65.587349,78.1287,-14.150971,-16.60308,-13.004699,-14.176968,12.929795,27.783795,35.537856,41.083846,30.26221,43.993155,51.353186,55.441311,42.86621,56.882318,62.402002,64.04481,51.213445,65.413632,69.137799,68.875916,-42.138033,299.307705,-78.650637,288.116184
102,8.437214,2.026031,0.303154,0.497276,14.411373,23.581409,25.425396,20.552731,9.569721,33.883953,54.269199,64.241123,-1.480122,28.938503,51.797733,68.230305,-11.083031,15.867577,38.365574,53.025341,-18.624573,-5.150528,9.397659,19.995632,-18.539944,-23.939585,-20.51361,-16.090367,-2.863799,13.640604,20.098524,23.476395,14.298678,30.1137,36.043715,37.93933,27.743904,41.332391,43.80389,44.818758,38.879109,52.782461,52.564668,49.392487,25.265465,48.722878,71.44352,89.89769,52.122345,84.003868,101.226196,114.225197,43.554096,78.939514,99.322929,112.948723,34.143276,67.497139,86.102715,98.297768,25.023766,50.702648,65.997162,78.177452,-14.211981,-16.71454,-13.347105,-14.853259,12.644879,27.747486,35.516676,41.072731,30.129138,43.727751,51.008002,55.073772,43.01898,56.63754,61.688291,63.038464,51.687997,65.355463,68.476143,67.619109,-33.147469,301.290557,-77.794132,288.570281
103,9.033966,-3.585229,0.106773,0.208963,11.118336,15.685101,14.708691,7.668629,-2.184563,19.696598,42.002048,54.199963,-12.808456,16.200085,40.493259,58.238697,-20.765705,5.032654,29.391918,45.991802,-26.292515,-13.070698,3.88567,16.803417,-16.092281,-19.384689,-14.285773,-8.99191,0.606574,17.973075,25.269874,29.28643,17.029961,32.346224,39.616965,42.162811,29.641001,42.676265,46.441682,48.259182,40.211868,54.17376,54.597985,52.161808,24.695663,48.229637,71.005898,89.42688,51.996689,83.838043,101.140137,114.318008,43.674488,78.881493,99.393768,113.249702,34.298515,67.57576,86.314774,98.640633,25.062447,50.861492,66.218948,78.471565,-14.505048,-17.137715,-13.824929,-14.840353,12.253999,27.097131,34.675697,39.903301,29.717077,43.199662,50.389262,54.215627,42.569684,56.261665,61.357803,62.581264,51.24185,65.02516,68.234576,67.40428,-23.535461,297.652701,-77.109318,288.726617
104,-6.215343,5.192839,0.305958,-0.220819,6.815529,17.196007,28.867493,32.106056,7.317009,37.542915,56.059685,67.601967,-2.288418,31.578026,55.345116,71.484489,-7.363071,18.210411,40.177689,56.512756,-8.624382,-2.325497,4.722004,12.007313,-16.033,-18.801024,-17.945349,-13.50463,-7.665634,2.949879,10.407167,17.662656,8.985302,19.88919,29.293901,35.191807,22.332592,33.208631,41.383088,46.119221,33.975694,44.772568,47.82131,51.173863,24.678211,48.059635,70.723629,89.171505,51.0886,83.083248,100.661602,114.110584,42.932224,78.393917,99.272404,113.402767,33.872337,67.529926,86.469097,98.863049,25.019817,51.085453,66.459103,78.634472,-14.282315,-16.793086,-13.607691,-14.658498,12.058435,26.968751,34.61302,39.97135,29.521205,43.091784,50.328068,54.1766,42.541403,56.262776,61.225163,62.276649,51.469277,65.247955,68.276504,67.160551,-29.155655,302.741491,-76.20821,288.401749
105,1.747227,-6.095754,0.441113,0.086512,10.408058,14.511395,13.402576,6.163559,1.054344,24.841518,46.840153,58.350048,-8.493633,23.991222,47.282352,63.73106,-16.002159,12.088451,35.239506,50.950756,-21.518097,-7.510471,7.679329,18.909359,-12.437397,-12.759796,-4.559342,2.384616,5.330296,22.62992,27.752735,30.872551,19.446501,33.851946,39.791101,41.891294,29.565542,42.48947,45.523083,47.17713,38.167744,52.230042,53.767998,52.913372,24.574013,47.955036,70.546303,88.741493,51.419449,82.811966,100.161324,113.718796,43.193607,77.92305,98.446884,112.65873,34.013672,66.842766,85.710068,98.524818,24.891415,50.667,65.978165,78.28949,-14.510421,-16.982104,-13.608309,-14.602861,12.4135,26.961774,34.386643,39.530823,29.775431,43.285125,50.476331,54.230015,42.613651,56.49045,61.587082,62.73354,51.342874,64.921543,68.011966,67.11535,-26.96188,296.545424,-75.320549,288.387947
106,1.546097,-0.494312,0.234146,0.175309,7.257729,9.091587,7.808933,-0.332222,-1.473827,21.762371,43.238811,54.710712,-9.402981,22.409649,45.286045,61.486988,-15.860596,11.855793,34.793758,50.749454,-20.779209,-6.72718,8.303661,19.46703,-7.901706,-4.116159,7.293465,16.393252,8.049228,24.774945,30.185701,33.516271,19.364065,33.047585,39.808391,42.459954,27.424963,40.394464,44.374896,46.571728,34.726888,48.289193,50.734694,51.078706,24.652691,47.967052,70.350494,88.65818,50.954533,82.74559,100.231361,113.722,42.663059,77.75528,98.420219,112.678642,33.578796,66.799507,85.758018,98.554001,24.765301,50.528584,65.884552,78.141518,-14.414954,-17.008039,-13.917925,-14.836401,12.14822,26.627704,34.032319,39.100484,29.514968,42.900358,50.064455,53.731997,42.370416,56.064311,61.192188,62.361865,51.094699,64.789335,67.887662,66.840684,-25.019646,295.974757,-74.690266,288.486902
107,5.275898,-2.033873,0.215664,0.083178,5.364647,4.637203,1.930962,-7.598076,-7.732143,15.856934,37.175102,48.307571,-15.579872,17.173462,39.832191,55.618401,-21.457901,7.171898,30.059624,45.780373,-25.452919,-10.618286,4.653625,15.978813,-6.012699,-0.5849,11.221038,20.161633,11.933514,29.834959,34.827788,37.406609,21.959064,36.66548,43.111976,45.010308,28.681708,42.56141,46.533073,48.401764,34.757887,49.420337,52.046643,52.564729,24.689999,48.011513,70.33659,88.499966,51.326294,82.661877,100.029659,113.496494,42.943668,77.686558,98.205242,112.535763,33.623199,66.457272,85.39381,98.44202,24.418659,49.90963,65.204029,77.623959,-14.556363,-17.170752,-13.98017,-14.620213,12.021694,26.495126,33.718998,38.665514,29.167931,42.649466,49.76052,53.515501,41.914945,55.770008,60.999095,62.429975,50.647873,64.497009,67.818193,67.05928,-19.512606,293.872001,-74.24346,288.501198
108,-9.06023,7.730287,0.150776,0.13653,14.287205,23.325176,25.418186,20.777264,10.372066,36.251278,55.068111,63.591671,-1.595249,29.572277,49.658489,64.145908,-12.59634,14.14072,34.043941,47.078991,-21.151199,-11.517506,-2.56937,4.484997,-19.527271,-26.028354,-24.491634,-21.585536,-2.683611,13.155678,18.221559,20.539484,15.087849,30.336495,34.479454,35.426397,28.16251,41.481086,43.12056,44.678029,38.508174,52.469387,54.352219,53.886497,24.841003,48.016262,70.131454,88.590431,50.999336,82.249146,99.433365,112.908669,42.437725,77.217865,97.823868,112.139282,33.063526,65.748482,84.760666,97.850647,23.942413,48.972359,64.229164,76.726112,-14.113798,-16.805066,-13.837897,-14.667328,11.904985,26.077446,33.287054,38.255245,29.544855,42.702695,49.55063,52.950855,42.529546,56.275559,61.230227,62.274858,51.177939,65.167927,68.272923,66.95591,-28.391075,301.477337,-73.910923,288.512776
109,45.290737,-1.95545,0.119534,-0.78528,-2.562447,-10.81913,-24.737549,-38.702717,-40.461674,-25.32795,-1.150703,14.26815,-50.356178,-27.89463,-3.442497,17.022629,-54.669056,-38.597775,-14.287491,4.940071,-55.316563,-62.740803,-61.674442,-58.094673,-15.338308,-17.94751,-13.130855,-8.232071,4.414599,21.635554,26.615107,28.868318,20.032883,32.581185,37.348502,39.215711,30.790978,41.605266,43.92103,46.035611,39.904351,50.076188,54.116703,58.051192,24.409504,47.724209,70.340137,88.708706,52.153244,83.120098,100.59042,114.062176,43.605194,77.357082,97.763042,112.194614,33.671837,65.49448,84.512272,97.967434,23.62896,48.861523,64.248791,77.13335,-14.401863,-16.599313,-13.537975,-14.348634,13.003587,27.761997,35.087696,39.837105,29.341635,43.095119,50.200121,53.945654,41.510171,55.980886,61.481304,63.269534,49.955836,64.534429,68.251989,67.941447,17.110119,299.487491,-73.580933,287.693101
