takenoko1/special-research/HandMotion_SimilarSearch_自分用/NewProject/handData/key/d4_feature_d2/12.csv
,vel_0x_L,vel_0y_L,vel_0x_R,vel_0y_R,posFromWrist_1x_L,posFromWrist_2x_L,posFromWrist_3x_L,posFromWrist_4x_L,posFromWrist_5x_L,posFromWrist_6x_L,posFromWrist_7x_L,posFromWrist_8x_L,posFromWrist_9x_L,posFromWrist_10x_L,posFromWrist_11x_L,posFromWrist_12x_L,posFromWrist_13x_L,posFromWrist_14x_L,posFromWrist_15x_L,posFromWrist_16x_L,posFromWrist_17x_L,posFromWrist_18x_L,posFromWrist_19x_L,posFromWrist_20x_L,posFromWrist_1y_L,posFromWrist_2y_L,posFromWrist_3y_L,posFromWrist_4y_L,posFromWrist_5y_L,posFromWrist_6y_L,posFromWrist_7y_L,posFromWrist_8y_L,posFromWrist_9y_L,posFromWrist_10y_L,posFromWrist_11y_L,posFromWrist_12y_L,posFromWrist_13y_L,posFromWrist_14y_L,posFromWrist_15y_L,posFromWrist_16y_L,posFromWrist_17y_L,posFromWrist_18y_L,posFromWrist_19y_L,posFromWrist_20y_L,posFromWrist_1x_R,posFromWrist_2x_R,posFromWrist_3x_R,posFromWrist_4x_R,posFromWrist_5x_R,posFromWrist_6x_R,posFromWrist_7x_R,posFromWrist_8x_R,posFromWrist_9x_R,posFromWrist_10x_R,posFromWrist_11x_R,posFromWrist_12x_R,posFromWrist_13x_R,posFromWrist_14x_R,posFromWrist_15x_R,posFromWrist_16x_R,posFromWrist_17x_R,posFromWrist_18x_R,posFromWrist_19x_R,posFromWrist_20x_R,posFromWrist_1y_R,posFromWrist_2y_R,posFromWrist_3y_R,posFromWrist_4y_R,posFromWrist_5y_R,posFromWrist_6y_R,posFromWrist_7y_R,posFromWrist_8y_R,posFromWrist_9y_R,posFromWrist_10y_R,posFromWrist_11y_R,posFromWrist_12y_R,posFromWrist_13y_R,posFromWrist_14y_R,posFromWrist_15y_R,posFromWrist_16y_R,posFromWrist_17y_R,posFromWrist_18y_R,posFromWrist_19y_R,posFromWrist_20y_R,posFromBody_0x_L,posFromBody_0y_L,posFromBody_0x_R,posFromBody_0y_R
2,-52.624512,-18.322644,-2.158241,-0.920699,21.664467,40.439816,51.50425,52.487297,33.306828,66.169052,80.791626,85.562439,22.892704,56.758804,71.602135,79.308243,10.901413,42.075977,58.822746,66.693878,-0.323467,20.501175,32.284756,38.382683,-21.41387,-31.680617,-35.469622,-36.082618,-8.744908,7.981488,11.351084,12.919915,12.847976,32.101878,34.010768,30.801785,29.113405,46.201844,45.309612,41.927233,41.787368,57.66377,54.748039,48.436653,24.207287,51.305237,75.723152,96.965675,53.62421,87.532539,105.545769,118.257637,44.9473,83.399849,103.294487,115.473976,36.613712,72.877007,91.346855,102.358246,29.471397,58.322067,73.351192,82.86129,-18.443366,-20.39684,-15.887764,-14.125036,12.135685,26.19366,30.565095,32.82868,30.645865,43.097033,44.407438,42.999714,42.818538,55.312129,55.003315,51.826565,49.359636,59.723763,58.584345,55.0035,-42.708864,296.005895,-73.318262,291.839718
3,15.396481,1.753465,-0.844803,-2.060549,15.162792,28.931751,33.302937,29.091625,16.356697,42.874889,60.977955,69.968319,7.276211,33.700275,52.467213,66.49847,-3.383732,21.40337,41.884289,55.060101,-12.701569,-4.665356,2.17741,7.33366,-20.959942,-31.602132,-34.107161,-34.239924,-4.357294,12.612336,16.205408,16.277779,15.298109,33.592718,35.600286,32.157083,28.929821,44.803691,43.355705,39.744232,39.671923,53.958251,54.281329,51.25525,24.878597,51.670361,75.931664,96.959839,54.49419,87.945557,106.07563,118.562164,45.758686,83.449516,103.437538,115.353127,37.046471,73.058453,91.287346,101.79142,29.344826,57.616482,72.509365,81.97094,-17.348531,-19.032156,-14.501158,-11.656811,15.025728,28.865848,33.069692,34.742017,32.995159,45.319862,46.807306,45.393654,44.595468,57.370826,57.178905,53.903046,50.906916,62.040762,61.110678,57.299381,-26.176844,297.827054,-73.027525,289.846863
4,-0.58279,1.979162,-0.107746,-0.316162,15.313282,28.361778,32.819366,30.71022,18.369942,43.658524,61.001015,69.671631,10.408459,34.979553,52.519569,65.211296,0.227795,21.860332,38.953743,48.894539,-9.208088,-4.690762,-2.810612,-2.181702,-23.571367,-35.001183,-38.523736,-39.754236,-7.409802,7.315139,9.5179,8.85328,13.113256,30.448387,31.03199,27.284852,27.450219,43.255546,41.374876,38.055667,38.6657,52.035528,52.193918,49.698522,25.439358,52.294693,76.651783,97.722759,55.13958,88.444347,105.998783,118.283329,46.465816,83.846569,103.334599,115.202007,37.719269,73.001347,90.795193,101.161022,29.862099,57.549305,71.902599,80.728855,-17.095725,-18.832517,-14.043711,-11.29168,15.376841,28.892586,32.972312,34.930109,33.379926,45.348453,47.036894,46.044936,44.99524,57.586026,57.565895,54.562047,51.229624,62.062313,61.019658,57.446532,-25.816498,299.859152,-72.192135,289.583636
5,1.059837,1.040371,-0.646534,-0.980658,15.995808,29.39312,33.826675,30.743637,17.100964,42.284431,58.787041,66.944733,8.616657,33.559227,50.940399,63.696899,-1.704311,21.584358,39.6595,50.90332,-10.894032,-2.279263,3.729458,7.568665,-23.74643,-35.537856,-39.251341,-39.317599,-6.71511,7.945549,10.09576,9.651775,13.032177,30.124691,30.607394,27.166106,26.723664,42.000654,39.829077,36.410698,37.412352,50.929517,49.542232,45.353455,25.551109,52.591324,76.661453,97.588577,54.901714,88.431015,106.229897,118.718262,45.942936,83.782997,103.432045,115.49881,37.16732,72.707577,91.102295,102.345657,29.35318,57.174454,72.054806,81.721573,-16.978523,-18.35074,-13.179637,-10.285704,15.836202,29.53868,33.49861,35.215272,34.011942,46.484784,47.822607,46.204252,45.448488,58.754344,58.607687,55.223949,51.388569,62.671049,61.752326,58.104606,-24.531527,300.902625,-72.613535,288.606081
6,-4.465942,-0.717169,0.091724,-0.395141,16.877403,31.667633,38.293648,36.603699,20.351143,48.302422,63.896942,71.184196,11.989059,40.52948,57.211647,69.016113,2.173004,30.012875,48.554993,59.887161,-6.654453,9.246883,19.736137,26.631603,-23.436319,-34.959934,-38.628217,-38.472915,-7.571712,6.897645,9.448739,9.7599,12.687981,30.221825,31.039833,27.838876,27.288989,42.627791,40.675182,37.312007,38.72146,52.471672,49.978746,44.68865,25.633221,52.553959,76.618938,97.509441,55.455723,88.668766,106.377239,118.747616,46.332779,83.994541,103.478794,115.295506,37.331829,72.942581,91.145611,102.109394,29.349289,57.329121,72.313385,82.101231,-16.68033,-18.316407,-13.40552,-10.200736,16.279632,30.304323,34.313098,35.945718,34.281791,46.913949,48.126851,46.341708,45.701665,59.134665,59.092736,55.699613,51.718625,63.098115,62.336423,58.803682,-28.887577,300.192851,-72.411919,288.218334
7,5.815487,-0.138321,-0.596294,-0.112386,14.766827,27.972393,32.318516,28.931522,13.59581,38.395901,55.130367,64.031124,6.061134,30.465031,48.983173,63.44038,-3.055573,21.752815,42.300396,55.907421,-11.106377,1.581974,12.236252,20.134048,-22.448868,-34.244679,-37.940132,-37.377648,-5.906983,8.501735,11.544548,11.605187,13.573976,30.398616,31.673639,28.69202,27.44108,42.430499,40.313324,36.701419,38.551461,52.358668,50.299848,45.34271,25.658226,52.849731,77.085114,98.133659,56.369648,89.253044,106.619797,118.942795,47.38821,84.551468,103.907089,115.965958,38.262005,73.261471,91.430511,102.760048,29.937,57.351494,72.39109,82.57885,-16.624631,-18.184817,-13.133819,-10.041358,16.706574,30.459132,34.319706,35.905765,34.540525,46.727031,47.974636,46.339485,45.884138,59.058156,59.15708,55.985332,51.939568,63.28633,62.561998,59.090883,-23.027143,300.070245,-72.963266,288.121664
8,-6.504364,0.4974,-0.026951,0.526546,17.850037,32.543449,38.454838,35.622425,23.671532,52.45554,66.857586,71.754627,14.564552,44.081326,58.566456,66.684093,3.561916,29.861126,44.388943,50.762959,-6.383572,5.138741,10.009117,11.443462,-23.57427,-35.820241,-40.734092,-42.026342,-7.060851,8.412938,9.417864,7.958146,13.466962,31.52587,30.620053,26.093625,27.765579,43.945792,40.75873,36.675607,38.671566,53.372425,50.835224,45.400508,26.199474,53.291988,77.759342,99.159794,55.84259,89.603748,107.302608,119.876347,46.913567,84.998188,104.444332,116.365986,38.098469,73.848896,91.864414,102.658825,30.209141,58.185425,73.052731,82.485752,-16.511998,-18.414529,-13.372237,-10.292188,15.860717,29.55739,33.541033,35.425162,34.35336,46.538815,47.881269,46.424083,46.152875,58.896184,58.661348,55.212587,52.353173,62.831168,61.620242,57.76998,-29.50985,300.629565,-72.968559,288.71013
9,-2.405663,1.064639,-0.005951,-0.070704,18.933277,34.614143,42.124729,40.029774,27.857666,56.851673,70.587215,75.022602,18.401527,48.575878,61.872654,68.864307,6.496525,32.202759,44.750118,49.897099,-4.761314,5.940914,9.104176,9.553757,-24.72894,-37.316391,-42.643723,-44.856302,-8.40596,6.117181,6.424019,4.745704,12.685943,30.384167,28.881779,24.398267,27.560567,43.444811,39.848405,36.000058,38.775739,53.468632,50.089464,44.355568,26.140022,53.116207,77.495785,98.913403,56.033649,89.813175,107.343235,119.783306,47.047863,85.119381,104.496861,116.29137,38.143559,74.026279,91.930904,102.558689,30.133266,58.24276,72.961922,82.238445,-16.761223,-18.614168,-13.456588,-10.750623,15.429699,29.377017,33.425807,35.330622,33.95297,46.230434,47.556092,46.056298,45.830785,58.532845,58.370812,55.101622,52.054424,62.642211,61.63358,58.076015,-31.913023,301.734712,-72.972021,288.679934
10,-0.553265,-1.852759,-0.352478,0.23107,19.472351,35.708256,42.479782,40.635567,25.903244,56.458054,70.821877,75.268364,16.176338,48.182716,61.180801,67.693634,4.992142,32.822113,45.119591,49.716797,-4.914265,7.365532,10.929108,10.968933,-24.106002,-35.614797,-39.359836,-40.105411,-6.010229,10.910001,11.922893,10.961192,14.809046,33.437663,31.876859,27.240083,28.83349,45.530925,40.966458,36.311651,39.154084,53.650549,49.823999,43.429559,26.284733,53.480816,78.122234,99.498081,56.061745,89.840527,107.313137,119.730549,47.406464,85.372295,104.505787,116.051846,38.815556,74.514256,92.215748,102.636395,31.089878,59.21133,73.667049,82.72665,-17.00594,-18.702409,-13.507223,-10.769272,15.926975,29.479153,33.341888,35.372488,34.090735,45.606261,46.830154,45.660539,45.671654,57.765781,57.470676,54.474052,51.727147,61.926524,60.714796,57.330688,-32.473497,299.908984,-73.331709,288.938035
11,0.901222,-0.214459,0.574265,-0.250521,18.862438,34.613342,40.763054,37.508583,24.073963,54.211807,69.230232,73.924141,14.980431,46.328888,60.141106,67.025299,4.441338,31.807423,44.60598,49.167137,-4.879189,8.734303,13.773823,14.325371,-24.010042,-35.635545,-39.507914,-40.369579,-6.704119,10.363016,11.730294,11.007073,14.055382,32.865545,31.798375,27.956449,28.072602,44.755834,40.668204,36.827822,38.080429,52.539906,49.008832,43.39467,26.040688,53.035069,77.471867,99.051876,55.65937,89.411488,107.034245,119.477177,46.905956,84.920368,103.906345,115.089741,38.28701,74.044361,91.720791,102.045879,30.577698,58.549576,73.053246,82.180653,-17.116164,-18.702162,-13.433555,-11.01158,15.920738,29.59617,33.576848,35.524024,34.311678,46.145218,46.926114,45.133438,45.9943,58.349446,57.660744,54.179873,52.087646,62.397803,61.004776,57.426339,-31.578999,299.72574,-72.764168,288.718729
12,-7.579422,-2.025475,-0.03891,-0.262254,20.219707,39.380836,50.312691,51.055069,29.846649,62.589111,77.454987,82.310143,20.656185,54.981995,68.144188,74.479523,10.153713,41.123543,54.134216,59.000015,1.10424,18.877144,25.031548,26.498051,-24.11934,-34.976668,-39.018356,-39.445978,-6.91864,10.1141,12.147788,12.296236,14.705058,33.11866,33.139717,29.489218,29.426974,45.494122,42.075804,38.085616,39.888605,54.322764,50.547405,44.085039,26.152611,53.26252,77.620411,98.964329,55.811749,89.498463,107.011242,119.411716,47.010956,84.960651,103.683643,114.452419,38.392181,74.0942,91.64629,101.566372,30.817051,58.811417,73.284245,81.960812,-16.596658,-18.228598,-13.21996,-11.071787,15.626374,29.612781,33.890664,36.1758,34.216212,46.391726,47.031275,45.108491,46.190111,58.571192,57.752196,54.183146,52.520701,62.657402,61.210034,57.566204,-39.163971,297.739939,-72.808628,288.496149
13,3.479633,-0.488199,-0.766697,0.088303,19.413872,36.697769,45.703068,44.923496,27.896862,61.525898,75.345898,78.80785,18.933563,54.309711,66.447544,71.057682,7.884178,40.795269,53.912601,58.928661,-2.027321,14.42585,19.419079,20.518913,-24.215362,-34.021081,-38.887939,-41.914636,-8.637709,11.573818,12.162238,9.947806,12.868971,35.502535,33.802793,28.678065,28.155471,46.794709,43.219484,39.095977,39.653645,55.218886,52.477167,47.73702,26.315918,53.080616,77.141132,98.173256,56.89167,90.2742,107.706184,120.361404,48.136196,85.231476,104.542236,116.74633,39.192982,74.053802,92.046547,103.213921,30.763149,58.405952,72.969532,82.315521,-16.659335,-18.609722,-13.589043,-10.923771,15.958653,29.527812,33.457361,35.285853,34.089685,45.667949,47.171325,45.954348,45.675483,57.789864,58.302454,55.705355,51.880658,62.110417,61.268203,57.98339,-35.754347,297.262547,-73.645334,288.595259
14,17.308617,-2.897823,-0.077534,0.568166,12.925301,22.004242,24.9967,21.319427,7.652435,35.55685,51.642551,57.588444,-0.228367,27.900753,42.86562,52.336864,-9.611378,16.021614,32.128544,40.820675,-17.570515,-14.520378,-15.89716,-18.379612,-22.693338,-30.484141,-33.673179,-36.815472,-3.280738,19.259151,20.554736,17.732928,16.304332,39.234112,37.675902,32.821394,29.765304,48.529772,45.021237,41.718702,40.117822,54.529195,55.027521,53.82839,26.341782,52.787476,76.93594,98.507023,56.864433,90.270367,107.706127,119.993534,48.281193,85.758991,105.074673,116.777973,39.424782,74.842014,92.664013,103.140278,31.082497,58.978443,73.41568,82.104435,-16.91529,-18.904456,-13.85389,-11.322123,15.496266,29.249318,32.988676,34.548182,33.703684,45.276328,46.203758,44.560826,45.43231,57.297281,56.966237,53.885447,51.77982,61.660503,60.209492,56.619015,-18.499861,294.390535,-73.776999,289.189236
15,-12.642403,0.500302,-0.717201,-0.506786,17.303753,32.10537,39.230747,38.264179,22.199764,52.430935,67.76453,73.947659,12.959976,43.580303,58.347187,66.814213,1.609898,30.253658,46.436405,54.831905,-8.272018,3.114796,7.940426,10.147076,-23.453053,-31.630722,-35.260782,-37.695354,-6.095136,15.795385,18.214396,16.321004,14.691226,37.395864,36.905936,32.525486,29.440065,47.748691,45.172464,41.62762,41.165418,55.998732,54.78441,51.312431,27.046909,53.781796,77.908058,99.073963,57.829914,90.871983,108.301563,120.886173,49.151115,86.082859,105.254459,117.403393,40.079212,74.826794,92.478504,103.011074,31.308403,58.684444,72.836208,81.235485,-16.876264,-18.577303,-13.760277,-11.749868,15.712886,28.807123,32.600883,34.32267,33.730483,45.215257,46.610384,45.391061,45.317207,57.266035,57.456597,54.726611,51.679352,61.67872,60.538437,57.097704,-31.196022,294.893415,-74.547958,288.685029
16,-6.124763,1.109778,0.305614,-0.775585,20.521259,38.397846,47.389126,46.250782,30.137844,63.503208,76.894512,80.143948,20.208721,55.051861,66.232281,70.857639,8.296165,39.282417,50.772915,54.750195,-1.876659,9.330254,9.186687,6.8993,-23.638984,-32.661213,-36.521417,-38.60784,-7.219982,14.66492,15.931359,13.52828,14.102003,38.175216,36.584093,31.071264,28.776865,48.606405,45.250208,40.932249,39.637528,55.348994,53.701802,49.298318,26.884403,53.491402,77.836475,99.605141,56.318779,90.238953,108.132935,120.927773,47.843628,85.762367,105.349388,117.604752,39.355831,75.016651,92.927742,103.83213,31.488476,59.400272,73.9785,83.235626,-16.332119,-18.275775,-13.411016,-10.819537,16.113338,29.747088,33.398637,34.829517,34.331068,45.994547,47.108895,45.530678,45.923534,58.097875,58.173952,55.10897,52.004221,62.346303,61.357803,57.774426,-37.365789,296.008164,-74.287348,287.914414
17,1.921806,0.933357,-0.145626,0.241135,19.456844,36.659031,43.946056,40.747547,26.430244,60.8325,74.559002,77.670536,17.073555,53.413868,65.272007,69.91785,5.907726,39.14629,51.529484,55.641117,-3.657932,12.543468,16.440582,16.676559,-23.501528,-33.1257,-36.7565,-38.554178,-7.583939,12.784003,13.776146,11.412279,13.858892,36.599284,34.513602,28.703259,29.041342,48.064421,43.513169,38.408386,40.273619,56.232457,52.630617,46.604086,26.137676,52.812309,77.144909,98.591938,57.108707,90.919018,108.548756,121.198483,48.713551,86.334057,105.70158,117.692814,40.081387,75.357113,93.147411,103.649883,32.006035,59.78857,74.217281,83.12479,-16.828222,-18.823872,-13.458441,-10.512699,15.390179,28.69307,32.448483,34.265551,33.732892,45.074651,46.370299,45.274846,45.48807,57.292341,57.303641,54.412796,51.705225,61.791723,60.491074,56.938388,-35.469818,296.939793,-74.458809,288.153821
18,-1.506271,-0.80362,0.180759,-0.133257,19.963875,36.979465,45.384121,43.94228,28.355083,62.301922,75.753307,79.133892,19.01453,54.485836,65.927639,70.08997,7.659702,40.612736,52.793598,57.102184,-2.774048,15.904713,22.553558,24.659901,-24.09958,-33.72437,-38.975625,-41.982808,-9.423236,11.224311,12.507546,10.191473,12.366076,35.347974,33.797297,28.269092,28.324358,47.416968,43.78061,39.262023,40.629857,56.624449,53.217864,47.532997,26.887379,53.333244,77.644558,99.517479,56.590576,90.672569,108.702507,121.147614,48.083038,86.583939,106.142235,117.840614,39.524231,75.438194,93.119774,103.134155,31.805134,59.760361,74.032574,82.436485,-16.719171,-18.400635,-13.363098,-10.841149,15.776366,28.949952,32.58489,34.323102,34.141556,45.61293,46.48713,45.179812,45.932488,57.951465,57.226577,53.985606,52.212876,62.480178,60.7114,56.79241,-36.994257,296.113896,-74.296217,287.998287
19,3.437061,0.932246,-0.165024,-0.460905,19.143734,34.846287,40.894089,36.876755,24.732971,59.843674,72.793922,75.159531,15.66576,52.653351,63.230782,65.966606,5.038834,39.174156,50.412827,53.368149,-4.35236,14.220257,19.192944,19.762344,-24.28582,-33.965629,-38.465196,-40.604663,-8.156612,13.876738,14.140659,10.446194,13.159198,37.130523,34.165144,27.769469,28.212775,48.118576,43.016325,37.667443,39.252143,55.303484,51.099083,45.005923,26.310368,52.628117,76.595249,97.688713,56.711311,90.739288,108.352318,120.768585,48.16,86.458969,105.64476,117.323112,39.508038,75.24622,92.815132,103.008728,31.531963,59.113312,73.366928,82.016487,-16.785306,-18.635595,-13.729772,-10.915559,16.18645,29.473163,33.280014,35.214284,34.652664,46.05531,46.965264,45.646275,46.288788,58.212175,57.763744,54.814235,52.375897,62.479314,60.944446,57.254735,-33.56741,297.040724,-74.471455,287.531963
20,8.037128,-1.890798,-0.073185,0.062121,16.556396,29.211216,33.366909,29.878635,17.501564,46.973248,60.841198,65.76273,8.556232,38.156147,51.658573,58.867893,-2.326584,25.665379,40.316792,47.62682,-11.600647,0.585995,6.05032,8.470745,-23.743527,-32.026419,-36.001108,-39.041327,-7.957282,13.508767,15.717888,13.679013,12.531937,35.750772,34.750785,30.487599,27.502831,46.546781,43.732012,40.262257,39.377497,54.80664,52.94505,49.275409,26.522484,52.891788,76.829109,97.655468,56.836624,90.71497,108.322964,120.745411,48.330631,86.346302,105.524426,117.290211,39.698925,74.975739,92.5704,103.008556,31.673927,58.727474,72.916145,81.570339,-16.885156,-18.852401,-14.292442,-11.717202,16.069495,29.186888,33.259513,35.495125,34.58196,46.058583,47.452042,46.405188,46.219504,58.195441,58.123255,55.185973,52.285803,62.539274,61.129882,57.167976,-25.531511,295.13895,-74.54587,287.583108
21,-6.56765,0.016179,-0.206165,-1.012028,21.01284,36.61211,43.477764,41.019459,24.431992,56.749935,71.658497,76.691494,14.389629,48.301907,62.110691,69.115505,3.316898,34.55246,48.719273,54.645252,-6.092148,10.604439,17.505341,19.871006,-22.417623,-31.147093,-35.444242,-37.893573,-7.158664,13.308511,14.922358,12.599554,13.516548,36.100773,34.842793,29.56301,28.425382,47.486437,44.48475,39.999941,39.84927,55.880541,53.396075,47.825077,26.566772,53.272591,77.202759,97.779922,56.886692,90.696259,108.27198,120.961075,48.268433,85.886993,105.05127,117.187157,39.640789,74.592991,92.36824,103.309593,31.68829,58.774395,73.134499,82.351685,-16.662731,-18.389026,-13.767625,-11.198128,16.317793,29.547449,33.514295,35.692479,34.511317,46.03592,47.631674,46.67337,46.032092,58.11745,58.584221,56.042327,52.106665,62.538224,61.596962,58.151413,-32.082367,295.150173,-74.735241,286.566125
22,-0.560246,-0.607192,0.417423,-0.950462,20.58506,36.256599,44.059868,43.077507,25.287895,56.600876,72.629929,79.430466,15.319118,47.819595,63.17688,71.899567,4.145107,32.725754,47.938728,55.377846,-5.434399,5.392914,10.099239,12.239971,-22.283315,-30.700699,-33.88276,-35.230277,-7.435552,12.778692,14.608789,12.989199,12.848285,35.272638,34.477849,30.235904,27.35216,46.705727,44.911136,41.528696,38.669281,54.342215,53.466409,49.635228,25.793037,52.834339,77.34478,98.638744,56.691284,90.709591,108.386822,120.951176,48.10318,86.115246,105.414677,117.465649,39.255409,74.803505,92.584476,103.529263,31.13102,58.824177,73.371105,82.705936,-16.698608,-18.163884,-12.998709,-10.538325,17.090785,29.893807,33.427721,35.344577,35.247135,46.22358,47.673541,46.941181,46.566788,58.55773,58.881426,56.48199,52.246159,62.87674,61.860575,58.481222,-32.609682,294.529813,-74.284887,285.602494
23,6.045227,-1.086993,0.336456,-0.317829,16.825848,30.278664,34.566307,30.626106,17.803631,47.170601,63.432083,70.205383,8.885937,38.374557,53.63308,63.011169,-1.359158,25.385685,40.446281,47.439423,-9.386044,-1.964779,-0.456047,-1.319618,-21.964066,-29.798958,-31.19495,-32.261503,-3.598505,15.774328,17.130799,14.683383,15.888134,36.533952,35.648081,31.672774,29.157804,47.35849,44.870319,41.471885,39.497972,54.227853,54.322146,51.390175,26.483574,53.040218,76.732521,96.669559,56.089725,90.247936,108.243771,121.123638,47.454014,85.979862,105.46629,117.521725,38.956318,74.906845,92.781658,103.193035,31.19173,58.602333,72.694359,80.759869,-16.747329,-18.370686,-13.945775,-11.864909,15.321142,28.441314,33.018933,35.85655,33.927838,45.406313,47.234496,46.547769,46.04475,57.608874,57.584297,54.800959,52.587762,62.479376,60.852252,56.710405,-26.536417,293.454893,-73.920393,285.296737
24,45.624161,-6.469899,0.167255,-1.494916,3.999481,0.035248,-8.072777,-16.641712,-26.298466,-10.866852,7.718239,18.434715,-34.002514,-18.386536,0.308647,17.44297,-40.617371,-27.734013,-8.140526,5.946693,-46.049652,-55.990219,-61.64463,-66.40892,-18.041433,-25.983462,-27.254718,-28.662874,2.049805,21.719225,24.494104,23.403777,20.213689,39.317537,37.951062,34.885031,31.908723,48.079427,45.493628,43.38763,41.072916,53.754907,58.742241,62.466285,25.721054,52.103691,76.105843,96.294594,56.653461,91.184807,109.239235,122.198868,48.022442,86.854477,106.747513,119.792175,38.924103,75.062485,92.954979,104.014206,30.277462,57.843761,71.961708,80.717354,-17.369218,-19.803913,-15.364861,-13.917987,13.784853,26.705201,30.993767,33.264638,32.033026,43.096539,45.706358,46.084456,44.120916,55.352884,56.368493,54.629725,51.006211,60.891155,60.060674,56.759435,19.179811,286.977367,-73.66107,283.794195
25,-17.051811,12.1334,-0.774651,-3.452713,-2.934551,-3.281536,-1.527729,-1.149788,-19.284554,5.830879,25.438385,37.152214,-24.94606,3.150902,24.321442,39.464035,-27.448769,-7.865067,12.523842,27.228699,-26.925602,-36.150227,-40.20813,-43.221302,-19.764022,-26.021315,-20.802541,-13.794486,-8.249546,2.134094,7.726891,12.153593,8.812772,17.06522,20.815817,23.226553,22.159135,28.698627,29.137858,30.313648,34.590667,40.111709,42.647058,45.786942,25.237656,51.931629,75.924225,95.626717,56.010818,91.334839,109.617805,122.580185,47.460194,87.948761,108.340416,122.04174,38.500099,75.987282,94.882736,106.969528,30.093098,57.919121,72.233162,81.625099,-18.539141,-20.644398,-16.608576,-15.717703,10.697024,23.532279,28.127683,30.637961,29.193681,41.07199,44.530569,45.621822,41.649727,53.566506,55.404137,54.357591,48.840933,59.294598,59.522828,57.085662,2.237921,299.159396,-74.3258,280.390111
26,-43.012962,-16.896456,1.077232,-10.271255,14.995193,30.38887,42.604294,50.362701,23.836212,55.730553,69.721985,73.194122,18.446617,51.535034,67.135506,78.082695,9.783096,39.992123,55.111198,61.602173,1.68005,5.250492,1.329689,-4.219608,-28.669358,-40.255032,-42.519358,-39.676677,-9.944348,3.812409,4.605469,3.654389,12.31896,31.339075,31.578543,29.057336,26.578674,42.942719,41.624347,38.310882,37.140279,50.489298,55.656387,57.52162,24.699612,50.591297,73.529434,92.706985,57.680054,91.137085,107.859764,119.800873,50.639248,87.966843,106.732864,120.631371,42.374096,77.143478,95.529671,108.504982,33.420181,60.596809,74.485817,84.520111,-21.9159,-24.868743,-20.135019,-18.706361,4.401199,18.654923,24.960134,29.128657,23.300468,36.17475,40.835115,42.551283,37.681522,50.513196,53.778866,53.626157,47.487734,58.436638,59.035864,56.674652,-40.472975,282.336407,-72.946501,270.192324
27,17.069206,-13.825608,0.250854,-5.261629,14.805107,24.935818,29.413605,30.740662,10.204124,31.611671,45.740547,52.62291,3.819523,28.923454,47.308273,61.755981,-3.836174,17.59449,35.100517,45.771446,-10.945988,-8.674107,-5.640965,-3.921947,-19.578153,-25.712686,-25.008114,-22.555635,-0.433673,17.917438,21.90213,22.058791,17.264242,38.927336,40.93725,39.44641,28.800701,49.676292,51.138727,49.065395,37.685041,54.591069,59.067418,60.289521,26.871357,52.039776,75.003605,93.268433,56.076565,89.738388,107.234001,119.704399,48.704224,86.519394,106.69693,120.844345,39.98394,75.270081,94.269447,106.741104,30.708046,57.208385,70.899639,78.92292,-19.284407,-23.931681,-21.212316,-20.809395,2.051287,14.824421,21.191259,25.333045,20.25926,33.842066,40.3802,43.591777,34.963516,48.73818,53.807148,54.823683,46.010541,58.881858,61.603137,60.042025,-23.053207,268.583247,-72.345085,265.003143
28,56.422348,-18.491655,0.150776,-11.533989,-4.570312,-16.361961,-30.306587,-37.988605,-48.346081,-39.123917,-19.32106,-5.792198,-52.950382,-39.551868,-19.29657,-0.255089,-54.15802,-43.246708,-24.488983,-8.75988,-53.831863,-65.208378,-69.023438,-69.35812,-12.901267,-14.858199,-9.391373,-0.905693,12.231398,30.671183,33.890849,34.084745,27.178271,40.007783,44.286716,44.879644,36.184321,47.6996,49.862593,49.563845,42.915301,55.070129,64.466813,72.897535,25.643749,51.805,74.315987,92.845173,56.430016,89.263744,105.873814,118.743153,48.41629,82.997761,101.441746,116.571636,37.961082,67.691517,84.62328,97.0994,26.046753,42.930279,49.655914,52.118282,-21.839268,-25.939928,-22.196371,-21.94023,-0.498882,11.900045,18.670052,23.534688,17.655307,31.077439,37.865291,42.231971,32.655162,47.591537,54.479733,57.832904,42.925737,57.962333,62.390332,62.500988,33.671923,250.008229,-71.891527,253.385791
29,-10.277138,-17.289066,-0.816479,-18.817327,-7.694206,-23.886452,-36.582184,-44.863014,-49.900589,-46.164036,-28.249111,-11.561508,-49.419708,-31.897774,-5.957222,15.804749,-43.279495,-22.218704,2.102051,21.652451,-34.082794,-23.062534,-5.977478,8.297195,31.326602,49.201308,60.558012,70.280799,40.398046,50.273604,54.502581,55.628106,24.322005,31.761633,37.087112,36.992758,8.347791,16.189167,21.727623,23.231431,-5.153998,-2.183742,-0.598114,0.109977,22.666855,45.881195,65.3829,81.574059,54.312687,86.76075,104.714241,118.941422,48.149242,81.74984,100.592422,115.502129,40.46711,69.755859,86.77597,98.621292,31.692009,53.17194,63.016434,67.462692,-17.12413,-19.669359,-16.243014,-16.179781,-0.934222,9.067739,14.296826,17.945905,15.414632,25.363241,29.843665,32.06069,29.471002,43.110186,46.178811,46.859918,41.897531,55.486635,55.32627,52.838407,24.154215,232.730032,-71.948576,234.579333
30,-3.936539,-25.19281,-3.642197,-9.037914,-7.021179,-17.065887,-22.09219,-26.045895,-33.210239,-27.078323,-10.260315,2.672081,-33.020668,-24.669857,-4.322777,14.497261,-33.369141,-25.479527,-5.889587,14.159317,-33.021069,-27.098408,-15.476017,-1.029625,17.485185,31.491166,43.861071,55.759511,30.781345,46.577965,51.040421,50.616133,28.249084,42.421298,49.332651,49.782997,23.508505,34.711636,40.589225,41.596313,19.203328,28.737468,32.673563,33.755554,21.027889,45.280952,67.153988,83.971596,50.28511,83.705063,102.362938,117.241859,45.958557,80.797005,102.405167,120.089378,40.11898,72.23877,92.829323,108.343163,33.075256,59.476433,74.836349,87.375183,-20.918817,-25.841621,-24.57722,-28.149852,-8.443998,0.887724,5.984232,9.530003,8.82858,18.672151,23.630771,26.753675,24.10026,34.644266,39.023543,40.905264,36.912297,46.463789,48.12611,47.100559,20.880518,207.651831,-74.927931,225.656028
31,58.200073,-49.04829,-3.138657,-12.8058,-30.419312,-54.85817,-70.36274,-78.700562,-69.00341,-98.806458,-92.626305,-82.123432,-64.196091,-94.934464,-85.313129,-70.886078,-58.258095,-86.431847,-78.111248,-64.015617,-50.842552,-72.278481,-71.519966,-63.802643,24.53702,47.342868,65.119638,76.603053,52.998403,71.938365,75.233306,73.962667,52.027686,69.051657,73.761238,69.313849,48.971843,64.695536,66.196256,59.334612,43.516195,60.511328,63.444658,59.901049,19.92033,42.985096,62.392445,78.4021,46.023502,78.090477,97.556992,113.798676,42.44751,75.3578,97.333717,114.896851,37.454739,68.671703,89.719963,106.045647,32.184849,57.746601,73.687592,86.924515,-20.067958,-26.40886,-27.725626,-33.483235,-11.482427,-5.509928,-1.767914,0.516727,6.000288,13.340065,17.11425,19.062043,20.975565,30.421464,32.793359,33.116931,33.410246,41.017094,41.983549,41.394265,79.026575,158.79015,-78.120604,213.036837
32,11.253662,-35.642646,-7.513618,-13.866981,-32.926426,-56.88097,-70.824794,-77.584133,-72.049484,-95.763874,-94.906053,-90.359773,-65.480861,-90.584678,-89.11952,-83.197374,-56.514129,-80.834999,-80.864267,-75.970001,-45.894012,-65.279731,-68.90253,-68.259601,13.606842,32.696488,50.090359,62.75293,39.764116,66.919014,78.957812,84.731723,42.416173,69.566254,83.299885,88.649848,44.053145,69.22746,80.76395,84.266557,44.503429,65.878612,75.381939,79.731422,21.865196,45.813789,65.910587,81.251621,69.296036,112.840805,120.092354,117.138405,66.23251,112.936249,117.612762,111.245499,59.036579,103.005638,109.849777,106.159515,49.340687,86.815739,93.983231,92.041054,-29.847185,-43.144951,-50.197589,-54.946505,-19.147444,-6.681703,-4.973934,-4.513708,1.600324,13.311351,9.553838,7.042264,19.628912,28.172514,23.492635,20.543745,34.365463,38.857188,32.666338,27.808187,90.268049,123.736649,-85.64641,199.759001
33,11.253662,-35.642647,-5.160713,-9.918907,-35.43354,-58.90377,-71.28685,-76.467705,-75.095558,-92.721291,-97.185802,-98.596115,-66.765633,-86.234894,-92.925911,-95.508671,-54.770164,-75.238152,-83.617287,-87.924385,-40.945473,-58.280983,-66.285095,-72.71656,2.676664,18.050109,35.061081,48.902807,26.52983,61.899663,82.68232,95.500779,32.804659,70.080851,92.838533,107.985848,39.134447,73.759385,95.331645,109.198502,45.490664,71.245896,87.31922,99.561795,16.27533,37.14632,54.02544,70.267296,42.716045,78.781643,95.701904,106.77784,42.335243,80.866356,100.828857,109.905396,40.817699,79.257889,97.046471,105.630798,38.038502,71.206627,85.817242,92.969799,-29.069315,-46.173377,-56.779627,-64.934448,-24.947043,-20.676076,-19.803419,-17.874768,-6.308546,-1.476946,-1.708881,-2.550477,10.814164,15.376594,13.66975,11.213134,27.478995,30.00045,26.78739,23.257552,101.862373,88.948782,-90.466461,190.694874
34,1.236649,-36.323877,-11.034622,-10.563643,-34.155121,-59.429626,-74.71756,-86.633034,-75.371132,-105.289021,-111.669903,-110.158768,-68.705177,-100.00494,-107.640553,-107.857819,-57.74334,-87.857552,-96.017189,-98.065681,-43.798027,-66.152115,-76.690636,-83.458786,-3.812316,5.037969,16.648529,28.61369,7.894142,32.728089,49.125386,57.279096,12.466081,40.857963,59.859336,70.39337,18.734982,45.318072,61.835905,70.237265,26.064664,45.904608,58.022879,65.198864,5.924091,23.058987,38.90625,51.961269,32.493668,65.611954,84.545746,100.449085,36.6889,71.972408,92.972031,109.620895,38.849373,72.920494,92.205334,106.289463,39.625912,67.980194,83.269787,94.556694,-28.14133,-45.13282,-56.223009,-70.371109,-22.705132,-25.522063,-25.352681,-25.530214,-4.305424,-8.196194,-10.485158,-12.984506,11.11316,7.867002,3.997783,-0.319929,23.842205,21.292407,17.546565,13.189888,104.103813,53.802779,-100.496292,181.309105
35,2.510948,-1.471574,-7.788506,-0.954908,-41.356087,-72.06665,-93.323936,-108.396664,-82.948151,-104.544811,-114.613609,-122.5383,-74.44313,-96.623268,-105.423203,-110.934849,-65.253525,-85.336876,-92.631912,-97.327194,-54.670944,-70.512886,-78.960228,-83.735161,-1.325874,6.949144,14.489425,19.893235,21.935753,27.28939,26.6872,27.907913,20.258612,27.311065,25.123093,24.611615,17.119252,22.187695,20.050019,18.820815,12.018853,16.566123,17.982152,19.478365,7.996216,21.762028,34.563274,44.29327,35.281334,66.648331,85.010777,100.132599,39.217987,74.309292,95.934391,112.869415,41.789589,74.674587,95.425701,110.422497,43.006096,71.720638,87.688751,100.120697,-28.118668,-46.275697,-60.521085,-75.209964,-22.447016,-25.38263,-26.427509,-26.246086,-3.935416,-9.587122,-11.837986,-12.753004,10.420938,4.423306,1.225869,-1.127254,21.715459,16.976794,14.599897,12.77017,106.738501,53.253648,-108.161058,181.27664
36,7.424469,-35.212678,-2.636089,8.359833,-32.903137,-60.156326,-78.697586,-92.639923,-76.107903,-101.686935,-120.503197,-135.901566,-74.028511,-104.491081,-125.705738,-143.130398,-70.595055,-99.943199,-120.66782,-136.208038,-66.079903,-90.800514,-106.844273,-120.071354,-6.426952,-9.350927,-10.911823,-9.398721,-16.14764,-10.772977,-7.680207,-5.12831,-13.724183,-9.704324,-7.181233,-4.327808,-9.645167,-6.708874,-4.791153,-2.576011,-5.054487,-3.591497,-3.186568,-2.005993,2.964592,13.337688,19.435959,21.963387,30.825005,57.454147,74.223747,90.066891,36.385117,66.583614,86.209087,103.111553,40.753498,69.892788,88.494473,102.505417,43.599072,69.976559,84.195385,94.882622,-25.188549,-45.806517,-61.926833,-75.396172,-22.06935,-23.041302,-24.179671,-25.738436,-5.903216,-10.728393,-14.741429,-18.636213,6.337815,1.929762,-2.49589,-7.390475,15.732708,12.564418,8.713415,4.344265,114.822779,17.995737,-110.137339,189.59124
37,-0.542107,-8.644039,-2.368526,13.488081,-32.84626,-57.451515,-75.104942,-89.921265,-73.504257,-99.616013,-120.038166,-138.001328,-70.719681,-101.559792,-124.653568,-145.975285,-66.588593,-96.190453,-117.658825,-136.523609,-61.334953,-85.454178,-101.632233,-116.92709,-6.936084,-9.989025,-11.450472,-12.401613,-15.905764,-17.208944,-19.371073,-22.064287,-14.500046,-18.259875,-22.053944,-25.581343,-12.623081,-16.122847,-20.491442,-23.985805,-9.944657,-13.018685,-16.804201,-19.578308,-1.264858,5.171356,9.746876,13.401318,30.433445,54.614925,71.721039,89.130306,38.808403,67.056713,85.754013,103.278122,45.012589,72.331924,91.100349,106.746368,49.496727,71.584854,85.499439,97.81786,-25.573686,-42.838237,-57.550334,-68.152324,-18.842459,-20.931414,-20.889115,-20.77537,-6.881713,-8.387991,-9.313382,-9.300847,0.573538,-0.924157,-1.500844,-2.816992,5.39112,3.760291,2.525715,0.25472,113.867397,9.563904,-112.91914,203.291526
38,-2.206535,-7.86975,-5.875997,16.547598,-29.373322,-53.845367,-70.321655,-82.76207,-70.375557,-97.536621,-118.765182,-137.574978,-67.870331,-100.306892,-123.905296,-145.388489,-64.119644,-95.047073,-116.822319,-135.637722,-58.879852,-83.535233,-99.805069,-114.527092,-7.182098,-10.832535,-13.396042,-15.349979,-17.333402,-17.396944,-19.865941,-24.445475,-15.563759,-16.788455,-21.002797,-25.849556,-13.666756,-15.616247,-20.126929,-24.592812,-11.11421,-13.218725,-17.399691,-21.206419,1.023617,8.555088,13.02887,15.937128,41.123257,64.44025,80.106354,95.706482,49.93103,76.144409,92.771616,108.108358,55.706291,81.742544,98.314447,111.660375,59.189472,80.831995,94.25889,105.261412,-20.182999,-34.624444,-47.302946,-58.18377,-13.468537,-13.064628,-12.803825,-12.842604,-4.329322,-2.983471,-3.90664,-3.903923,0.947097,2.4698,2.939443,3.114845,4.053235,5.364536,5.576155,5.37525,112.004528,1.703154,-118.451471,219.848124
39,-3.111992,-11.867009,-5.875998,16.547597,-28.074646,-52.07325,-68.959579,-81.622925,-69.656754,-96.959381,-119.367657,-140.338669,-67.475052,-99.193954,-124.737339,-148.02824,-63.94558,-93.487129,-116.164799,-136.297989,-58.561134,-82.055168,-98.291016,-114.433022,-8.730613,-12.055409,-13.904865,-15.607664,-19.474968,-20.49984,-23.567878,-26.798969,-17.348099,-21.012152,-26.424545,-30.692178,-14.838439,-19.40942,-25.670356,-30.248439,-11.338425,-15.269426,-20.131869,-23.990714,3.312092,11.93882,16.310863,18.472939,51.813068,74.265575,88.491669,102.282658,61.053658,85.232105,99.789219,112.938595,66.399994,91.153164,105.528545,116.574383,68.882217,90.079136,103.018341,112.704964,-14.792311,-26.410651,-37.055558,-48.215216,-8.094615,-5.197841,-4.718534,-4.909837,-1.77693,2.421048,1.500103,1.493001,1.320656,5.863757,7.37973,9.046682,2.715351,6.968781,8.626594,10.495779,109.13744,-9.723312,-124.082565,236.836264
40,-2.402,-9.697069,11.45648,10.966441,-26.259956,-50.072365,-65.962486,-78.250122,-67.976532,-96.402626,-118.921852,-139.242439,-65.520172,-98.866825,-124.665527,-147.773666,-61.942978,-93.112335,-116.521053,-135.642071,-56.373596,-81.364861,-98.096581,-112.676582,-11.237927,-15.002016,-17.982121,-21.358263,-18.464176,-18.638806,-21.34897,-25.690981,-15.893599,-17.216354,-21.407139,-26.038358,-13.646254,-16.417119,-20.687901,-24.66932,-11.344508,-13.948646,-18.394738,-22.805168,-2.636432,0.879021,2.231341,2.834101,41.66256,62.972832,77.722807,91.308403,51.945305,74.914542,89.659396,102.877894,58.861342,80.89119,96.024714,108.330946,62.919217,81.902619,94.650822,104.528189,-11.423641,-16.361451,-21.805892,-28.589206,2.282635,7.053781,9.153326,11.572892,6.711622,11.896927,12.079245,13.470297,8.999752,14.385716,16.418755,18.635009,10.173782,14.033059,15.623318,17.324017,107.698689,-18.760146,-111.662836,248.46294
41,-0.65827,1.595359,11.45648,10.966441,-26.27918,-50.124937,-66.032255,-78.280681,-67.975901,-96.569088,-118.937729,-139.014685,-65.491621,-98.943889,-124.568638,-147.389864,-61.845271,-93.104693,-116.412343,-135.423203,-56.216389,-81.23663,-97.929168,-112.481459,-11.311529,-15.112209,-17.962814,-21.073445,-18.6772,-18.586809,-21.056812,-25.178903,-15.989206,-16.920464,-20.728581,-25.004979,-13.503596,-15.885901,-19.780951,-23.44686,-10.888796,-13.165289,-17.338224,-21.500295,-8.584957,-10.180779,-11.848183,-12.804737,31.512051,51.680088,66.953945,80.334148,42.836952,64.596977,79.529572,92.817192,51.322689,70.629215,86.520882,100.087509,56.956215,73.726101,86.283302,96.351414,-8.054971,-6.312251,-6.556226,-8.963196,12.659884,19.305402,23.025185,28.05562,15.200173,21.372806,22.658387,25.447592,16.678848,22.907674,25.457781,28.223335,17.632213,21.097337,22.62004,24.152253,107.636484,-15.983825,-99.610291,260.610343
42,-0.658271,1.595358,4.109917,-1.120893,-26.298402,-50.177508,-66.102024,-78.311239,-67.97527,-96.73555,-118.953605,-138.78693,-65.463069,-99.020952,-124.471748,-147.006061,-61.747562,-93.097049,-116.303631,-135.204334,-56.05918,-81.108398,-97.761754,-112.286335,-11.385129,-15.222401,-17.943505,-20.788626,-18.890224,-18.534812,-20.764654,-24.666824,-16.084813,-16.624573,-20.050023,-23.9716,-13.360937,-15.354683,-18.874001,-22.224398,-10.433083,-12.381931,-16.281708,-20.19542,-11.834278,-10.719395,-13.064117,-15.489464,27.852516,49.69408,67.980022,85.41338,40.216656,63.482895,80.389137,97.57719,48.180943,67.723846,82.049332,95.980625,52.14632,69.196358,81.72163,93.745136,-5.872649,-2.469522,1.759207,6.144228,19.671396,25.842177,32.313805,39.327788,20.042763,27.262004,32.882588,39.918183,18.700248,25.460559,31.112266,37.536593,16.848044,24.059998,28.414514,32.871288,107.335698,-13.588105,-95.142889,260.289812
43,-0.65827,1.595359,-2.484627,3.207193,-26.317625,-50.23008,-66.171793,-78.341799,-67.974639,-96.902012,-118.969481,-138.559176,-65.434518,-99.098016,-124.374858,-146.622259,-61.649855,-93.089407,-116.19492,-134.985466,-55.901973,-80.980167,-97.594341,-112.091212,-11.458731,-15.332594,-17.924198,-20.503807,-19.103248,-18.482815,-20.472496,-24.154745,-16.180421,-16.328683,-19.371466,-22.938221,-13.218279,-14.823465,-17.967051,-21.001937,-9.977371,-11.598574,-15.225194,-18.890547,-9.115105,-7.209091,-7.369938,-6.716309,31.520519,54.780235,73.112411,90.203133,41.608715,66.19812,83.282833,100.209503,47.56216,68.613052,83.916092,98.148651,50.060062,67.762928,80.867329,92.55415,-6.574566,-4.514079,-2.732579,-1.035369,13.85142,20.139465,27.077679,34.266724,15.583704,22.435098,28.778039,36.621885,15.98113,22.678642,28.816509,35.29598,15.568761,22.510186,27.390877,32.122379,106.822196,-11.665654,-97.482748,263.824097
44,-0.65827,1.595358,4.221096,-4.3208,-26.336849,-50.282652,-66.241562,-78.372358,-67.974009,-97.068475,-118.985358,-138.331422,-65.405967,-99.17508,-124.277969,-146.238457,-61.552147,-93.081764,-116.086209,-134.766598,-55.744765,-80.851937,-97.426928,-111.89609,-11.532332,-15.442786,-17.90489,-20.218988,-19.316271,-18.430817,-20.180338,-23.642666,-16.276027,-16.032792,-18.692907,-21.904842,-13.07562,-14.292247,-17.060101,-19.779475,-9.521659,-10.815216,-14.168679,-17.585672,-9.077168,-8.740425,-9.871216,-10.741596,30.921021,54.178677,73.451385,91.578197,39.969006,65.009766,82.2682,99.722614,44.782562,66.30352,82.378178,97.191982,46.635761,63.433056,76.441154,88.708534,-2.524172,-0.237492,0.884945,1.718823,15.570737,23.000546,30.122345,37.270449,15.903201,23.400627,30.091161,37.23272,15.363688,22.997459,29.236721,34.784748,14.38939,22.081145,27.422308,31.345188,106.061987,-9.704703,-93.36359,259.86889
45,-0.658271,1.595359,3.42041,-5.103363,-26.356071,-50.335223,-66.31133,-78.402916,-67.973377,-97.234936,-119.001234,-138.103667,-65.377415,-99.252143,-124.181079,-145.854654,-61.454439,-93.074121,-115.977497,-134.547729,-55.587557,-80.723705,-97.259515,-111.700966,-11.605934,-15.552979,-17.885582,-19.93417,-19.529295,-18.37882,-19.88818,-23.130588,-16.371635,-15.736902,-18.01435,-20.871463,-12.932962,-13.761029,-16.153151,-18.557014,-9.065947,-10.031859,-13.112165,-16.280799,-10.198174,-10.76992,-11.112442,-10.065708,27.264633,50.863495,71.066837,89.235477,38.171425,62.125969,79.203529,95.213642,44.55019,64.933891,80.712719,94.623013,48.34465,63.908043,76.611843,88.851013,-6.778404,-9.263303,-10.590998,-10.69264,6.645394,13.394035,19.039011,23.980093,9.323386,16.746156,22.346116,27.703087,10.357705,16.844648,21.090606,25.221894,10.632062,16.40128,19.568767,22.143698,104.978025,-7.84692,-90.368872,255.027951
46,-0.65827,1.595359,0.625706,-11.145394,-26.375294,-50.387795,-66.381099,-78.433475,-67.972746,-97.401398,-119.01711,-137.875913,-65.348863,-99.329207,-124.084189,-145.470852,-61.356731,-93.066479,-115.868787,-134.328861,-55.43035,-80.595474,-97.092102,-111.505843,-11.679536,-15.663173,-17.866275,-19.649351,-19.74232,-18.326823,-19.596023,-22.61851,-16.467242,-15.441012,-17.335793,-19.838085,-12.790304,-13.229812,-15.246201,-17.334553,-8.610235,-9.248502,-12.055651,-14.975926,-5.905495,-3.864155,-3.881721,-1.9277,33.422985,57.444878,76.70002,93.897114,40.871029,66.658173,83.960838,100.558434,45.281868,67.631264,83.917236,98.013382,47.542992,64.73774,77.389755,89.095974,-4.944294,-4.295914,-2.51775,0.718528,10.889438,16.475936,21.237943,26.017857,12.502915,18.184385,22.750828,27.184507,12.680324,18.171294,21.360209,24.385052,12.343228,16.702437,19.549872,21.913863,103.758336,-5.805183,-90.304585,244.328936
47,-0.65827,1.595358,2.677832,-22.85815,-26.394518,-50.440367,-66.450868,-78.464034,-67.972116,-97.567861,-119.032987,-137.648159,-65.320312,-99.406271,-123.9873,-145.08705,-61.259024,-93.058836,-115.760076,-134.109993,-55.273142,-80.467244,-96.924689,-111.31072,-11.753137,-15.773365,-17.846966,-19.364532,-19.955343,-18.274826,-19.303864,-22.10643,-16.562849,-15.145121,-16.657234,-18.804705,-12.647645,-12.698593,-14.339251,-16.112092,-8.154522,-8.465144,-10.999136,-13.671051,0.066433,5.722504,8.865938,15.019398,38.916921,61.145611,77.788868,93.072452,46.20758,70.631733,85.876808,100.787973,51.052208,72.645607,87.446909,100.686922,53.780308,71.065321,82.414026,92.96093,-4.461961,-4.573729,-3.944184,-2.172441,4.438466,8.692081,12.73698,17.071334,6.42192,10.112433,13.568048,17.758523,7.25024,11.592621,14.63105,18.214365,7.743039,10.928218,13.050487,15.361156,100.950723,-3.844108,-89.776096,221.836502
48,-0.658271,1.595359,2.677832,-22.85815,-26.41374,-50.492938,-66.520636,-78.494592,-67.971484,-97.734322,-119.048863,-137.420404,-65.29176,-99.483334,-123.89041,-144.703247,-61.161315,-93.051193,-115.651364,-133.891125,-55.115934,-80.339012,-96.757275,-111.115596,-11.826739,-15.883558,-17.827659,-19.079713,-20.168367,-18.222829,-19.011707,-21.594352,-16.658456,-14.849231,-15.978677,-17.771326,-12.504987,-12.167376,-13.432301,-14.889631,-7.69881,-7.681787,-9.942622,-12.366178,6.038361,15.309162,21.613598,31.966496,44.410858,64.846344,78.877716,92.247791,51.544132,74.605293,87.792778,101.017513,56.822548,77.65995,90.976582,103.360462,60.017624,77.392902,87.438297,96.825886,-3.979629,-4.851545,-5.370619,-5.06341,-2.012508,0.908225,4.236017,8.12481,0.340924,2.040481,4.385267,8.332539,1.820155,5.013948,7.901891,12.043677,3.142849,5.153998,6.551101,8.808449,98.721064,-0.79678,-88.669653,200.430321
49,-0.65827,1.595358,2.885113,-10.843125,-26.432963,-50.54551,-66.590405,-78.525152,-67.970853,-97.900785,-119.06474,-137.192649,-65.263209,-99.560398,-123.79352,-144.319445,-61.063608,-93.04355,-115.542653,-133.672257,-54.958726,-80.210781,-96.589862,-110.920473,-11.90034,-15.99375,-17.80835,-18.794894,-20.381391,-18.170831,-18.719548,-21.082273,-16.754063,-14.55334,-15.300119,-16.737947,-12.362328,-11.636157,-12.52535,-13.667169,-7.243098,-6.898429,-8.886107,-11.061303,9.423923,18.65324,25.132141,31.60017,43.703613,68.145847,85.048141,100.53772,46.390114,71.781921,88.670769,104.880524,47.169685,70.151596,85.739594,99.368134,45.857162,63.081379,75.074158,85.960922,4.438681,5.281266,3.876567,2.700222,8.679453,8.498277,9.55884,11.161387,6.715543,6.163494,8.058923,10.284593,4.912678,4.779729,6.754075,8.970791,3.362125,3.274995,4.397679,5.469357,97.146179,3.114944,-86.701155,191.903562
50,-0.658271,1.595359,0.829377,-19.089899,-26.452186,-50.598081,-66.660173,-78.55571,-67.970222,-98.067246,-119.080615,-136.964894,-65.234657,-99.63746,-123.69663,-143.935642,-60.965899,-93.035907,-115.433941,-133.453388,-54.801518,-80.08255,-96.422449,-110.725349,-11.973941,-16.103943,-17.789043,-18.510076,-20.594415,-18.118834,-18.427391,-20.570195,-16.84967,-14.25745,-14.621561,-15.704568,-12.21967,-11.10494,-11.618401,-12.444708,-6.787386,-6.115072,-7.829593,-9.75643,5.526958,13.46878,19.607242,26.151866,42.599842,67.796344,84.684013,99.97174,47.148078,73.178546,89.9645,105.835784,49.18666,72.917449,88.811782,102.475479,48.942478,67.325809,79.542663,90.560623,0.349421,-1.765376,-4.883785,-6.305205,2.256459,1.57487,1.971444,2.890975,2.039937,1.027866,1.916195,3.262379,1.434962,0.252003,1.120535,2.546463,0.661705,-0.423441,-0.069123,0.516184,94.890971,9.64521,-87.468715,177.74857
51,-0.65827,1.595359,0.829376,-19.089899,-26.471409,-50.650653,-66.729942,-78.586269,-67.969591,-98.233708,-119.096492,-136.73714,-65.206106,-99.714524,-123.59974,-143.55184,-60.868192,-93.028264,-115.325231,-133.23452,-54.64431,-79.954319,-96.255036,-110.530226,-12.047543,-16.214136,-17.769735,-18.225257,-20.807439,-18.066837,-18.135233,-20.058116,-16.945278,-13.96156,-13.943004,-14.67119,-12.077012,-10.573722,-10.711451,-11.222247,-6.331674,-5.331715,-6.773078,-8.451556,1.629993,8.284321,14.082344,20.703563,41.496071,67.446842,84.319885,99.405761,47.906044,74.575172,91.258232,106.791046,51.203636,75.683304,91.883972,105.582824,52.027794,71.57024,84.011169,95.160324,-3.73984,-8.812019,-13.644137,-15.310632,-4.166535,-5.348537,-5.615953,-5.379437,-2.635668,-4.107761,-4.226532,-3.759835,-2.042753,-4.275722,-4.513004,-3.877864,-2.038715,-4.121877,-4.535926,-4.43699,93.325099,13.530799,-87.546941,160.948901
52,-0.65827,1.595358,0.829376,-19.089899,-26.490632,-50.703225,-66.799711,-78.616828,-67.968961,-98.400171,-119.112369,-136.509386,-65.177555,-99.791588,-123.502851,-143.168038,-60.770485,-93.020622,-115.21652,-133.015652,-54.487103,-79.826088,-96.087623,-110.335103,-12.121144,-16.324329,-17.750427,-17.940438,-21.020462,-18.01484,-17.843075,-19.546037,-17.040885,-13.665669,-13.264445,-13.63781,-11.934352,-10.042503,-9.804501,-9.999785,-5.875961,-4.548357,-5.716563,-7.146682,-2.266972,3.099861,8.557445,15.25526,40.3923,67.09734,83.955757,98.839783,48.664009,75.971798,92.551964,107.746307,53.220612,78.449158,94.956161,108.69017,55.11311,75.814671,88.479675,99.760025,-7.8291,-15.858661,-22.404488,-24.316059,-10.589529,-12.271944,-13.20335,-13.649848,-7.311274,-9.243388,-10.369259,-10.782048,-5.520468,-8.803448,-10.146544,-10.302192,-4.739134,-7.820313,-9.002729,-9.390163,92.076943,16.368977,-87.307451,143.101822
53,-0.658271,1.595359,0.829376,-19.089899,-26.509855,-50.755796,-66.86948,-78.647386,-67.968329,-98.566632,-119.128244,-136.281631,-65.149003,-99.868651,-123.405961,-142.784235,-60.672776,-93.012978,-115.107808,-132.796783,-54.329894,-79.697856,-95.920209,-110.139979,-12.194746,-16.434522,-17.731119,-17.655619,-21.233487,-17.962843,-17.550917,-19.033959,-17.136492,-13.369779,-12.585888,-12.604432,-11.791694,-9.511286,-8.897551,-8.777325,-5.420249,-3.765,-4.660049,-5.841809,-6.163936,-2.084598,3.032547,9.806957,39.288529,66.747837,83.591629,98.273804,49.421974,77.368424,93.845696,108.701569,55.237587,81.215012,98.028351,111.797516,58.198425,80.059101,92.948181,104.359726,-11.918361,-22.905303,-31.16484,-33.321486,-17.012523,-19.19535,-20.790746,-21.92026,-11.986879,-14.379016,-16.511986,-17.804262,-8.998184,-13.331173,-15.780083,-16.72652,-7.439554,-11.518749,-13.469531,-14.343337,90.769677,18.884664,-87.12707,124.932251
54,-0.65827,1.595359,0.829376,-19.089899,-26.529078,-50.808368,-66.939249,-78.677945,-67.967698,-98.733095,-119.144121,-136.053877,-65.120452,-99.945715,-123.309071,-142.400433,-60.575069,-93.005336,-114.999097,-132.577915,-54.172687,-79.569626,-95.752796,-109.944856,-12.268348,-16.544715,-17.711812,-17.370801,-21.446511,-17.910846,-17.25876,-18.521881,-17.2321,-13.073889,-11.907331,-11.571053,-11.649036,-8.980068,-7.990601,-7.554864,-4.964538,-2.981643,-3.603535,-4.536935,-10.060902,-7.269058,-2.492352,4.358654,38.184757,66.398335,83.227501,97.707825,50.179939,78.765049,95.139427,109.65683,57.254562,83.980865,101.10054,114.904861,61.283741,84.303532,97.416687,108.959427,-16.007621,-29.951945,-39.925192,-42.326913,-23.435516,-26.118757,-28.378143,-30.190672,-16.662484,-19.514643,-22.654713,-24.826475,-12.475899,-17.858898,-21.413623,-23.150847,-10.139973,-15.217185,-17.936333,-19.29651,88.516702,20.754951,-87.892399,106.11728
55,-0.65827,1.595358,-7.608318,-2.241633,-26.548301,-50.86094,-67.009018,-78.708505,-67.967068,-98.899557,-119.159998,-135.826123,-65.0919,-100.022779,-123.212182,-142.016631,-60.477361,-92.997693,-114.890386,-132.359047,-54.015479,-79.441395,-95.585384,-109.749733,-12.341949,-16.654907,-17.692503,-17.085982,-21.659534,-17.858848,-16.966601,-18.009801,-17.327706,-12.777998,-11.228772,-10.537673,-11.506377,-8.44885,-7.083651,-6.332402,-4.508825,-2.198285,-2.54702,-3.232061,-6.006489,-0.931149,8.924847,16.780872,41.835709,68.636513,87.56464,106.411915,50.848045,79.485111,98.886395,118.374195,55.388889,81.841335,99.827213,115.846539,56.916733,78.644257,93.154564,106.488018,-19.483336,-35.492253,-44.338093,-41.217875,-25.271109,-32.976511,-35.245561,-36.182191,-16.817138,-24.156113,-26.609735,-28.644905,-10.919819,-17.600782,-20.041374,-23.008389,-5.855637,-12.160632,-14.835506,-17.174519,87.303937,22.590519,-96.055212,104.115857
56,-0.658271,1.595359,4.647903,-2.314529,-26.567524,-50.913511,-67.078786,-78.739063,-67.966436,-99.066018,-119.175873,-135.598368,-65.063348,-100.099842,-123.115292,-141.632828,-60.379653,-92.99005,-114.781675,-132.140178,-53.858271,-79.313163,-95.41797,-109.554609,-12.415551,-16.7651,-17.673196,-16.801163,-21.872559,-17.806851,-16.674444,-17.497723,-17.423314,-12.482108,-10.550215,-9.504295,-11.363719,-7.917632,-6.176701,-5.109941,-4.053113,-1.414928,-1.490506,-1.927187,-7.249088,-3.259621,5.608463,13.267651,39.179878,63.908386,83.730698,104.190273,48.348198,76.34634,96.694164,116.877193,53.145676,78.517857,97.350483,114.242077,55.302944,75.870495,90.20937,103.081226,-20.091762,-35.334759,-42.950468,-38.247372,-23.285525,-28.592355,-31.976525,-33.527016,-14.984324,-20.613893,-25.122013,-27.749925,-9.002315,-15.394841,-19.639873,-22.674998,-4.36032,-11.048476,-15.181431,-18.28087,85.740352,24.119836,-92.312622,101.735286
57,-0.65827,1.595358,2.03001,0.344012,-26.586747,-50.966083,-67.148555,-78.769622,-67.965805,-99.232481,-119.19175,-135.370614,-65.034797,-100.176906,-123.018402,-141.249026,-60.281945,-92.982408,-114.672964,-131.92131,-53.701064,-79.184933,-95.250557,-109.359486,-12.489151,-16.875292,-17.653888,-16.516344,-22.085582,-17.754854,-16.382285,-16.985644,-17.51892,-12.186216,-9.871657,-8.470915,-11.22106,-7.386414,-5.269751,-3.887479,-3.5974,-0.63157,-0.433991,-0.622313,-7.359123,-3.946095,4.880562,12.830544,37.800522,62.506084,82.491817,102.891769,46.262398,74.14896,94.414444,114.675407,50.675755,75.704556,94.52179,111.564102,52.61879,72.764053,86.637154,99.251518,-19.110023,-33.133511,-40.636495,-38.458002,-21.274345,-27.545655,-30.663526,-31.56786,-13.022421,-19.472066,-23.66637,-25.800187,-7.668228,-14.561735,-18.984084,-22.183465,-3.962184,-11.313355,-15.442173,-18.254626,84.742679,25.683747,-90.622015,102.047851
58,-0.65827,1.595359,0.75943,4.223605,-26.60597,-51.018655,-67.218324,-78.800181,-67.965175,-99.398943,-119.207627,-135.14286,-65.006246,-100.25397,-122.921513,-140.865224,-60.184238,-92.974765,-114.564253,-131.702442,-53.543856,-79.056702,-95.083144,-109.164363,-12.562753,-16.985486,-17.63458,-16.231526,-22.298606,-17.702857,-16.090128,-16.473566,-17.614528,-11.890326,-9.193099,-7.437537,-11.078402,-6.855196,-4.362801,-2.665018,-3.141688,0.151787,0.622523,0.682561,-7.198219,-3.732777,5.155792,13.123398,37.953644,62.239037,82.090702,102.031517,45.942364,74.426422,94.661751,115.089569,49.981441,75.412674,94.668503,112.570381,51.726894,72.261314,86.346245,99.709511,-18.859409,-32.340574,-40.942098,-40.011673,-21.290029,-26.300149,-28.809686,-29.748323,-12.495134,-17.349519,-20.980968,-23.142295,-6.735395,-11.945957,-15.528314,-18.468128,-2.516823,-9.351729,-12.962986,-15.18208,82.919086,27.40236,-91.027908,106.394709
59,-0.658271,1.595359,1.64732,0.602962,-26.625193,-51.071226,-67.288092,-78.830739,-67.964543,-99.565405,-119.223503,-134.915105,-64.977694,-100.331033,-122.824623,-140.481421,-60.086529,-92.967122,-114.455541,-131.483574,-53.386648,-78.92847,-94.91573,-108.969239,-12.636355,-17.095679,-17.615273,-15.946707,-22.51163,-17.65086,-15.79797,-15.961487,-17.710135,-11.594436,-8.514542,-6.404158,-10.935744,-6.323979,-3.455851,-1.442558,-2.685976,0.935144,1.679037,1.987434,-9.142799,-5.880489,3.188725,12.634907,35.375004,58.450813,77.93335,97.52615,44.249897,70.435696,89.82542,109.375706,48.895969,72.880669,91.218853,107.994404,51.016617,71.287537,85.446682,98.258572,-18.057148,-31.963125,-39.994291,-37.935192,-19.21963,-24.411914,-27.924864,-29.764316,-12.218585,-17.081615,-21.416648,-24.157811,-7.426815,-12.776253,-17.008101,-20.203592,-3.683134,-9.901679,-13.421267,-15.85167,81.828371,29.285815,-89.813032,107.285768
60,-0.65827,1.595358,-0.564308,1.689893,-26.644416,-51.123798,-67.357861,-78.861298,-67.963913,-99.731867,-119.239379,-134.68735,-64.949143,-100.408097,-122.727733,-140.097619,-59.988822,-92.959479,-114.346831,-131.264706,-53.22944,-78.80024,-94.748318,-108.774116,-12.709956,-17.205871,-17.595964,-15.661888,-22.724654,-17.598862,-15.505812,-15.449408,-17.805742,-11.298545,-7.835984,-5.370779,-10.793085,-5.79276,-2.548901,-0.220096,-2.230264,1.718502,2.735553,3.292309,-7.460747,-4.339485,3.656616,11.675205,36.022511,59.466019,78.89534,98.40929,44.587612,71.640358,91.416378,110.90086,49.126682,73.677864,91.972561,108.444843,51.410408,71.466923,85.2701,97.622051,-18.756225,-32.288796,-40.703957,-39.789279,-18.683513,-24.724618,-28.232968,-29.723808,-11.009234,-17.326672,-22.0302,-24.716992,-6.14077,-12.777611,-17.650398,-21.132226,-2.78093,-10.115428,-14.283642,-17.014986,81.004362,31.043129,-90.543079,109.137616
61,-0.65827,1.595359,-2.891464,-0.492089,-26.663639,-51.17637,-67.42763,-78.891858,-67.963282,-99.898329,-119.255256,-134.459596,-64.920592,-100.485161,-122.630844,-139.713817,-59.891114,-92.951837,-114.23812,-131.045838,-53.072233,-78.672009,-94.580905,-108.578993,-12.783558,-17.316064,-17.576657,-15.377069,-22.937678,-17.546865,-15.213654,-14.93733,-17.90135,-11.002655,-7.157426,-4.3374,-10.650427,-5.261543,-1.641951,1.002365,-1.774552,2.501859,3.792067,4.597182,-5.699902,-1.7173,5.887928,13.054447,40.221863,64.491291,83.22813,101.772022,47.16013,74.587669,94.454784,113.824711,50.102863,75.088978,92.964878,108.826618,50.713806,70.968761,85.016098,97.468243,-18.675239,-32.107929,-39.822378,-39.158159,-19.535638,-25.150572,-28.055466,-29.87204,-10.74979,-16.101945,-19.964371,-22.416511,-4.860035,-10.166989,-13.962139,-17.179767,-0.495362,-6.049441,-9.348117,-12.042627,80.223869,32.850277,-93.556767,108.857316
62,-0.658271,1.595358,-0.568485,0.062831,-26.682862,-51.228942,-67.497398,-78.922416,-67.96265,-100.064791,-119.271132,-134.231841,-64.89204,-100.562224,-122.533954,-139.330014,-59.793406,-92.944193,-114.129408,-130.826969,-52.915024,-78.543777,-94.413491,-108.383869,-12.857159,-17.426256,-17.557348,-15.09225,-23.150701,-17.494868,-14.921496,-14.42525,-17.996956,-10.706764,-6.478868,-3.30402,-10.507768,-4.730324,-0.735001,2.224827,-1.318839,3.285217,4.848582,5.902056,-5.710945,-1.373634,6.287441,13.5989,40.372639,63.68042,82.359409,101.270599,47.137871,73.53241,93.184319,112.665367,50.090218,74.396896,92.245674,108.334808,50.819263,70.80677,85.007114,97.641563,-18.265154,-31.556066,-39.214476,-38.414468,-19.892432,-25.677736,-28.519953,-30.077854,-11.548809,-16.441078,-20.234375,-22.667187,-5.508353,-10.514366,-13.993353,-16.884508,-0.655264,-6.050058,-8.859856,-11.100995,79.534499,34.682401,-94.156351,109.156913
63,-0.65827,1.595359,-0.878963,0.4773,-26.702085,-51.281514,-67.567168,-78.952975,-67.96202,-100.231253,-119.287008,-134.004087,-64.863488,-100.639288,-122.437064,-138.946212,-59.695699,-92.936551,-114.020697,-130.608101,-52.757817,-78.415546,-94.246078,-108.188746,-12.930761,-17.536449,-17.538041,-14.807432,-23.363726,-17.442871,-14.629339,-13.913172,-18.092564,-10.410874,-5.80031,-2.270642,-10.36511,-4.199106,0.171949,3.447288,-0.863127,4.068574,5.905096,7.20693,-4.995117,-0.230656,7.781582,15.443058,40.659428,64.941387,83.940525,102.582035,47.22765,74.629498,94.64613,113.568592,49.939842,75.119705,93.04121,108.493137,50.493851,70.395241,84.086895,96.132832,-19.071676,-32.806759,-40.606083,-39.822625,-20.12202,-26.016406,-28.638205,-29.925917,-10.797152,-16.372319,-20.198004,-22.19918,-4.281774,-9.684749,-13.540044,-16.716022,0.64489,-4.71273,-7.940578,-10.661085,78.853055,36.522169,-95.058489,109.878621
64,-0.65827,1.595359,0.124283,0.847926,-26.721308,-51.334086,-67.636937,-78.983534,-67.961389,-100.397716,-119.302885,-133.776333,-64.834937,-100.716352,-122.340175,-138.56241,-59.597991,-92.928908,-113.911986,-130.389233,-52.600609,-78.287316,-94.078665,-107.993623,-13.004363,-17.646643,-17.518733,-14.522613,-23.57675,-17.390874,-14.337181,-13.401094,-18.188171,-10.114984,-5.121753,-1.237263,-10.222451,-3.667889,1.078899,4.669749,-0.407415,4.851931,6.96161,8.511803,-5.625343,-0.565281,7.414055,14.86742,40.70509,64.901848,84.460487,103.858051,47.452297,74.713497,95.072765,114.593296,50.281448,75.463085,93.508244,109.299717,50.989895,71.313629,85.192566,97.464123,-19.231332,-33.610008,-41.449069,-40.299492,-20.540256,-26.877268,-29.723561,-30.895985,-11.633994,-17.441095,-21.122222,-22.824187,-5.236157,-11.178276,-15.115328,-18.001573,-0.245026,-6.229659,-9.531083,-11.950989,78.135504,38.298919,-94.993486,110.907939
65,-0.658271,1.595358,-0.908203,-0.387391,-26.740531,-51.386657,-67.706705,-79.014092,-67.960757,-100.564177,-119.318761,-133.548578,-64.806385,-100.793414,-122.243285,-138.178607,-59.500283,-92.921265,-113.803275,-130.170364,-52.443401,-78.159084,-93.911252,-107.798499,-13.077963,-17.756835,-17.499425,-14.237794,-23.789773,-17.338876,-14.045023,-12.889015,-18.283778,-9.819093,-4.443195,-0.203884,-10.079792,-3.13667,1.985849,5.89221,0.048297,5.635289,8.018125,9.816678,-5.145836,0.462971,8.500328,15.156441,41.898422,65.930672,85.105534,104.291439,48.305569,75.556755,95.789623,115.321827,50.757465,76.265717,94.525852,110.451336,50.926895,71.491241,85.568218,98.012524,-19.009309,-32.930074,-40.329225,-39.263289,-20.870312,-26.645334,-29.063202,-29.985136,-11.525282,-17.029312,-20.581814,-22.429448,-4.692198,-10.342515,-14.037659,-17.038081,0.697039,-4.901315,-8.136574,-10.600693,77.351778,40.049858,-96.027145,110.676128
66,-0.65827,1.595359,1.486073,1.16662,-26.759754,-51.439229,-67.776474,-79.044651,-67.960127,-100.730639,-119.334637,-133.320824,-64.777834,-100.870478,-122.146395,-137.794805,-59.402575,-92.913623,-113.694564,-129.951496,-52.286193,-78.030853,-93.743839,-107.603376,-13.151565,-17.867028,-17.480117,-13.952976,-24.002798,-17.286879,-13.752865,-12.376936,-18.379385,-9.523203,-3.764637,0.829495,-9.937134,-2.605453,2.892799,7.114671,0.504009,6.418646,9.074639,11.121551,-5.864983,-1.125412,6.468658,13.596039,41.185284,65.792141,85.313187,104.612732,48.196793,75.274601,95.564117,114.827728,51.334476,76.067162,94.135208,109.73053,52.359982,72.074661,85.965786,98.25016,-18.855643,-33.04774,-40.973343,-40.063729,-20.16154,-26.68294,-29.854132,-31.252501,-11.565235,-18.080891,-22.555172,-24.902397,-5.513262,-11.842865,-16.114264,-19.404789,-0.982233,-7.194479,-10.679024,-13.362079,76.623012,41.638532,-94.611568,111.836063
67,-0.65827,1.595358,-0.332909,0.669591,-26.778977,-51.491801,-67.846243,-79.075211,-67.959496,-100.897102,-119.350514,-133.09307,-64.749283,-100.947542,-122.049506,-137.411003,-59.304868,-92.90598,-113.585853,-129.732628,-52.128986,-77.902623,-93.576426,-107.408253,-13.225166,-17.97722,-17.460809,-13.668156,-24.215821,-17.234882,-13.460707,-11.864857,-18.474992,-9.227312,-3.086079,1.862874,-9.794475,-2.074234,3.799749,8.337133,0.959722,7.202004,10.131154,12.426426,-5.877285,-1.686344,6.189251,13.489666,40.838871,65.9198,85.443535,104.634933,47.993374,75.812016,96.223297,115.705605,51.264153,76.632214,94.949684,110.9515,52.337265,72.66798,87.046337,99.779663,-19.115365,-33.025386,-40.771327,-39.374224,-19.499267,-25.849433,-29.141193,-31.085188,-10.771032,-17.371317,-22.233668,-25.281576,-4.936544,-11.316504,-15.61458,-19.21855,-0.799297,-6.806655,-10.325194,-13.231045,75.936704,43.132542,-94.972515,112.404306
68,-0.658271,1.595359,-0.080223,2.664839,-26.7982,-51.544372,-67.916011,-79.105769,-67.958865,-101.063563,-119.36639,-132.865315,-64.720731,-101.024605,-121.952615,-137.0272,-59.207159,-92.898337,-113.477141,-129.513759,-51.971778,-77.774391,-93.409012,-107.213129,-13.298768,-18.087413,-17.441501,-13.383338,-24.428845,-17.182885,-13.168549,-11.352779,-18.570599,-8.931422,-2.407522,2.896253,-9.651817,-1.543017,4.706699,9.559594,1.415434,7.985361,11.187668,13.731299,-6.550884,-2.224503,5.939312,14.440269,39.83202,64.131889,84.125462,103.966255,47.377281,74.676018,95.549355,115.667839,51.147594,76.130905,94.579353,111.026917,52.779465,73.207798,87.873688,100.797043,-19.48278,-33.400829,-41.706321,-41.06918,-20.617999,-26.963379,-30.612705,-32.735499,-12.423998,-18.68339,-24.056633,-27.355433,-6.6943,-12.846834,-17.6127,-21.438415,-2.441951,-8.623908,-12.258013,-15.228423,75.283297,44.578573,-95.047874,114.919817
69,-0.65827,1.595359,0.127602,0.986772,-26.817423,-51.596944,-67.98578,-79.136328,-67.958234,-101.230026,-119.382267,-132.637561,-64.69218,-101.101669,-121.855726,-136.643398,-59.109452,-92.890694,-113.36843,-129.294891,-51.81457,-77.64616,-93.241599,-107.018006,-13.37237,-18.197606,-17.422194,-13.098519,-24.641869,-17.130888,-12.876392,-10.840701,-18.666207,-8.635532,-1.728964,3.929631,-9.509159,-1.011799,5.613649,10.782055,1.871146,8.768718,12.244183,15.036172,-5.579853,-1.909275,6.552429,15.556526,39.142914,63.446274,83.074093,102.611504,46.71072,74.080067,94.464569,114.133987,50.618191,75.832729,94.595146,110.965233,52.327881,72.65007,87.120552,99.937134,-19.515261,-33.75188,-42.270318,-40.091054,-20.086761,-26.526927,-30.247637,-32.340142,-11.43772,-18.2135,-23.490721,-26.878164,-5.413226,-12.116851,-16.833039,-20.725075,-0.870249,-7.390536,-11.421665,-15.081735,74.588892,46.02286,-94.956408,115.755516
70,-0.65827,1.595358,0.153351,0.998195,-26.836646,-51.649516,-68.055549,-79.166887,-67.957603,-101.396488,-119.398143,-132.409807,-64.663629,-101.178733,-121.758837,-136.259596,-59.011744,-92.883052,-113.25972,-129.076024,-51.657363,-77.51793,-93.074187,-106.822883,-13.445971,-18.307799,-17.402886,-12.8137,-24.854893,-17.07889,-12.584233,-10.328621,-18.761813,-8.339641,-1.050406,4.963011,-9.3665,-0.480581,6.520599,12.004517,2.326858,9.552076,13.300698,16.341047,-5.293751,-0.913525,7.49342,15.154667,39.087296,62.518559,81.94828,101.753426,45.877876,73.227139,93.508873,113.39653,49.180298,74.613304,93.204575,109.847031,50.414085,71.523628,86.163712,99.179306,-18.780462,-32.173632,-40.585705,-40.045945,-19.204131,-25.48881,-29.267071,-31.683982,-10.46969,-16.671376,-21.853502,-25.39498,-4.203814,-10.443014,-15.170965,-19.167637,0.756844,-5.64723,-9.518209,-12.739511,73.884445,47.58972,-94.849234,116.725214
71,-0.658271,1.595359,-0.300865,2.636403,-26.855869,-51.702087,-68.125317,-79.197445,-67.956972,-101.562949,-119.414019,-132.182051,-64.635077,-101.255796,-121.661946,-135.875793,-58.914036,-92.875408,-113.151008,-128.857155,-51.500154,-77.389698,-92.906773,-106.627759,-13.519573,-18.417992,-17.383578,-12.528882,-25.067917,-17.026893,-12.292076,-9.816543,-18.857421,-8.043751,-0.371849,5.99639,-9.223842,0.050637,7.427549,13.226977,2.78257,10.335433,14.357212,17.64592,-4.642296,0.169201,8.325005,15.856361,40.178089,64.645214,84.19899,103.618355,46.24712,74.008427,94.18087,113.595543,48.842297,74.391689,92.675972,108.942146,49.425087,69.992638,84.455566,97.424355,-18.62482,-31.862317,-40.361119,-40.505461,-19.090665,-25.722566,-29.296094,-31.557826,-10.003412,-16.299608,-21.038859,-24.156638,-3.561054,-9.509347,-13.547824,-17.237411,1.273726,-4.650948,-8.115702,-11.085835,73.072194,49.194311,-95.304079,119.370848
72,-0.65827,1.595358,-1.431484,3.334491,-26.875092,-51.754659,-68.195086,-79.228004,-67.956341,-101.729412,-119.429896,-131.954297,-64.606525,-101.33286,-121.565057,-135.491991,-58.816328,-92.867766,-113.042297,-128.638287,-51.342947,-77.261467,-92.73936,-106.432636,-13.593174,-18.528184,-17.36427,-12.244062,-25.28094,-16.974896,-11.999917,-9.304464,-18.953028,-7.74786,0.30671,7.029769,-9.081183,0.581855,8.334499,14.449439,3.238283,11.118791,15.413727,18.950795,-3.352375,2.704639,11.9557,19.395905,41.468182,64.605446,83.64521,103.376141,46.544209,74.043388,93.711491,114.170437,48.281078,73.980217,93.154507,110.985889,48.068848,69.032593,83.860188,97.391109,-18.331598,-30.523661,-38.155857,-38.117263,-19.169242,-23.522368,-25.892905,-27.34052,-9.554024,-13.877047,-17.098967,-19.476111,-2.14419,-7.254871,-9.940767,-12.500352,3.983612,-1.010113,-4.136845,-6.549372,72.306635,50.575873,-96.842852,122.491544
73,-0.65827,1.595359,0.543251,5.073784,-26.894315,-51.807231,-68.264856,-79.258564,-67.95571,-101.895874,-119.445772,-131.726543,-64.577974,-101.409924,-121.468168,-135.108189,-58.718621,-92.860123,-112.933586,-128.419419,-51.185739,-77.133236,-92.571947,-106.237514,-13.666775,-18.638377,-17.344962,-11.959244,-25.493965,-16.922899,-11.70776,-8.792386,-19.048635,-7.45197,0.985267,8.063148,-8.938525,1.113073,9.241449,15.6719,3.693995,11.902148,16.470241,20.255668,-2.983074,2.965221,11.781464,19.457188,41.273861,65.035686,83.8797,102.595425,47.031898,74.85918,94.775677,113.919239,49.352703,74.987698,93.226833,109.404545,49.608479,70.682545,84.593754,96.973057,-19.998334,-32.795891,-41.903058,-43.587208,-17.185695,-22.878713,-26.54712,-29.120722,-7.743934,-13.735052,-19.008598,-22.493977,-1.12466,-6.983601,-11.313262,-14.852549,3.854708,-1.196569,-5.078632,-8.405157,71.498448,51.980547,-96.449518,127.374643
74,-0.658271,1.595359,-0.524197,9.365778,-26.913538,-51.859802,-68.334624,-79.289122,-67.955079,-102.062335,-119.461648,-131.498788,-64.549422,-101.486987,-121.371277,-134.724386,-58.620913,-92.85248,-112.824874,-128.20055,-51.028531,-77.005005,-92.404533,-106.04239,-13.740377,-18.74857,-17.325655,-11.674426,-25.706989,-16.870902,-11.415602,-8.280307,-19.144243,-7.156079,1.663825,9.096526,-8.795867,1.644291,10.148399,16.894361,4.149707,12.685505,17.526755,21.560542,-0.77425,7.416,17.575378,26.265793,38.290329,64.777336,84.62368,103.742523,45.090523,75.398769,96.599579,116.377373,49.42812,77.266331,96.972084,113.883362,51.532803,74.230042,88.844547,101.495132,-22.878342,-36.813033,-47.552788,-53.492807,-16.702653,-22.515806,-26.75596,-30.100485,-5.513787,-11.792878,-19.079581,-23.684062,1.378115,-5.012682,-10.944859,-15.265443,5.724171,0.206123,-4.747433,-9.474026,70.460548,53.413147,-97.353344,136.577662
75,-0.65827,1.595358,-1.107445,8.809468,-26.932761,-51.912374,-68.404393,-79.319681,-67.954448,-102.228798,-119.477525,-131.271034,-64.520871,-101.564051,-121.274388,-134.340584,-58.523205,-92.844837,-112.716164,-127.981682,-50.871323,-76.876774,-92.237121,-105.847267,-13.813978,-18.858762,-17.306346,-11.389606,-25.920012,-16.818904,-11.123444,-7.768228,-19.239849,-6.860188,2.342383,10.129906,-8.653208,2.175509,11.055349,18.116823,4.605419,13.468863,18.58327,22.865416,0.425377,10.034637,20.986519,30.262413,39.195042,65.409222,85.18404,103.999557,45.171375,76.397438,98.01178,117.74929,49.648647,79.092808,99.56852,117.00634,52.407017,76.424732,91.758499,104.841728,-24.084266,-36.662794,-46.57883,-55.084702,-14.553028,-21.22763,-27.181512,-31.533712,-2.789204,-8.433933,-16.789536,-22.384833,4.334632,-0.942126,-7.272099,-11.720105,8.745526,4.90749,0.074656,-4.469186,69.770606,54.558685,-98.49246,144.93731
76,-0.658271,1.595359,-0.285988,12.439435,-26.951983,-51.964945,-68.474161,-79.350239,-67.953817,-102.395259,-119.493401,-131.043279,-64.492319,-101.641114,-121.177498,-133.956781,-58.425497,-92.837194,-112.607452,-127.762813,-50.714115,-76.748542,-92.069707,-105.652143,-13.88758,-18.968956,-17.287039,-11.104788,-26.133036,-16.766908,-10.831286,-7.25615,-19.335457,-6.564298,3.02094,11.163284,-8.510549,2.706727,11.962299,19.339284,5.061131,14.252219,19.639784,24.170289,0.09819,10.165672,22.76619,35.049133,38.002338,66.683121,87.848969,107.158585,44.265919,76.865902,99.464035,118.821945,49.242153,79.245071,100.607414,118.307648,52.383785,77.006493,92.676144,105.878448,-24.667653,-38.75249,-49.587372,-59.767421,-15.379496,-22.380819,-29.594842,-35.439302,-2.852807,-8.969124,-19.078099,-26.743239,5.195494,-0.029023,-7.533489,-13.196434,10.666704,7.083513,1.916115,-3.589181,69.012886,54.784944,-98.877897,156.007646
77,-0.65827,1.595359,-1.481323,11.772284,-26.971207,-52.017517,-68.54393,-79.380798,-67.953186,-102.561722,-119.509277,-130.815525,-64.463768,-101.718178,-121.080608,-133.572979,-58.327789,-92.829552,-112.498741,-127.543945,-50.556908,-76.620312,-91.902294,-105.45702,-13.961182,-19.079148,-17.267731,-10.819969,-26.34606,-16.71491,-10.539128,-6.744071,-19.431064,-6.268408,3.699498,12.196663,-8.367891,3.237945,12.869249,20.561745,5.516844,15.035577,20.696299,25.475163,2.32172,14.477749,28.524227,42.388515,40.591278,72.541695,93.981342,111.897354,45.308762,81.222553,104.196968,122.024002,49.057674,81.797676,103.626022,120.754166,51.059589,77.289906,93.321419,106.833916,-25.906583,-41.06143,-52.817289,-63.819699,-15.47243,-23.667574,-32.100859,-38.627322,-1.721293,-8.783811,-20.052952,-27.880805,7.284079,2.194239,-6.496884,-12.559293,12.972835,9.619047,3.854028,-2.585675,68.755274,55.285051,-99.958563,166.684678
78,0.520592,26.520752,-3.611012,13.693092,-22.034683,-45.610771,-62.893295,-74.662113,-64.364891,-98.046627,-116.407928,-129.316864,-63.190041,-101.223679,-121.849136,-133.90749,-59.955826,-95.316067,-115.322571,-129.120083,-54.764671,-82.509327,-98.415356,-112.046013,-22.542852,-29.418884,-26.327844,-20.396902,-28.19635,-19.658614,-12.437891,-5.433975,-14.872309,-6.070868,3.074275,11.088923,0.540625,7.589527,15.138052,21.338935,15.926327,20.183524,25.070853,28.795112,5.513935,21.231937,37.858086,52.917824,44.567585,78.380127,99.653378,116.907063,47.550144,85.026226,108.105869,125.856342,49.963188,84.615326,106.865902,123.691463,51.113777,79.330215,96.254826,110.234127,-27.043716,-43.00311,-55.219256,-66.853929,-16.716022,-23.042598,-31.533033,-38.716582,-1.816759,-7.985872,-18.786204,-26.721935,8.310926,3.668777,-4.835057,-11.253642,15.106127,12.277649,6.674664,-0.428733,70.58939,79.269112,-102.25605,177.841078
79,-0.188599,18.368741,-1.57608,7.309149,-19.538727,-44.146271,-65.981827,-80.979939,-61.265373,-95.37941,-112.672691,-124.620323,-62.522507,-99.658356,-120.500221,-133.729649,-59.888535,-95.226059,-115.953197,-129.034996,-54.600105,-83.467598,-99.167862,-110.281048,-25.134054,-33.703004,-35.618873,-37.99367,-29.852897,-24.414754,-18.400913,-13.193284,-15.389963,-9.361671,-4.139284,-0.520432,0.62865,4.465728,7.674959,9.073235,16.496746,18.529693,20.887478,21.371941,6.949081,24.370422,42.140121,55.517235,46.689434,81.471748,101.783581,118.026752,49.992771,87.368259,110.794888,127.670689,51.472206,86.40667,107.781887,123.368511,51.210651,80.303707,96.875095,110.339069,-26.357855,-42.868248,-54.997294,-68.201786,-18.654738,-26.154881,-32.822011,-38.265866,-2.03375,-10.882337,-20.135883,-26.814561,9.986462,3.637285,-5.668503,-13.339139,18.34086,14.450399,8.074052,0.983746,71.025181,94.607297,-103.207741,182.119672
80,-2.037163,20.625101,-0.626221,8.326734,-21.493378,-47.768555,-70.145187,-86.745186,-63.747826,-97.266541,-116.177673,-129.970608,-63.180656,-99.974899,-120.423832,-133.469582,-59.035721,-93.84922,-111.286411,-121.145897,-52.44873,-80.122948,-94.558468,-104.324913,-24.716529,-32.541325,-35.039839,-39.724133,-30.486919,-20.157959,-12.723055,-7.243107,-15.606274,-6.750555,0.760919,6.466812,0.350897,6.357853,11.923603,15.233858,15.165068,17.520599,20.25361,20.901063,7.838001,25.609932,44.937172,62.045116,47.711277,84.625225,105.021,120.982761,50.455399,90.373077,113.587132,129.855366,51.437016,88.779774,110.020237,124.922161,50.561771,81.135235,97.950096,110.949268,-27.317765,-43.775732,-54.429654,-64.912651,-18.10306,-23.256502,-28.53363,-32.92322,0.202233,-6.588337,-14.653126,-20.262224,13.301471,8.702115,0.356423,-6.644468,21.815865,18.730444,12.806233,5.83492,69.662991,112.044239,-103.158989,187.258248
81,-4.065285,20.701856,-2.843113,7.43864,-23.281174,-50.396461,-69.083347,-83.580952,-67.478828,-96.965961,-114.146461,-125.627689,-63.072624,-89.776211,-100.876751,-107.256432,-53.865509,-75.882111,-78.90461,-76.891537,-43.00827,-57.088394,-61.278534,-61.555138,-25.252152,-33.531184,-34.62114,-36.245145,-22.228172,-13.065399,-9.132114,-4.934722,-6.06389,1.896293,6.089332,9.96874,7.903559,10.334611,11.519231,12.410968,18.311035,20.609385,22.176425,22.668144,13.05027,33.089104,53.78294,71.484489,48.407707,85.187473,105.398598,121.707802,50.488243,91.490707,115.251732,132.043419,51.587505,89.997997,112.282677,127.440376,51.057987,82.536907,99.888725,112.932816,-27.95787,-44.484318,-55.301878,-64.745492,-17.516245,-20.507991,-23.389018,-25.5128,1.924699,-3.158781,-9.104295,-13.05589,16.164467,13.50568,7.522559,2.230795,25.806423,24.398885,20.025906,14.064953,65.972843,130.324986,-105.626965,192.275778
82,-18.208065,31.424476,-1.143837,8.852971,-20.398693,-45.087948,-64.448033,-75.999871,-65.542202,-86.726275,-91.48922,-92.363062,-63.001957,-78.956108,-77.972346,-74.542351,-55.73885,-67.438488,-63.111391,-55.756388,-46.517544,-53.728638,-51.23271,-47.155581,-29.870867,-39.441795,-37.889791,-34.109878,-21.246959,-11.56576,-10.14496,-9.752181,-0.537353,7.740506,7.155051,6.006555,17.293357,21.680291,18.063076,14.23384,31.102848,34.046398,30.953104,27.51095,15.964165,38.016701,60.365295,81.08408,52.938595,89.304028,109.689789,124.740143,53.490086,94.377136,117.604408,133.395309,52.648888,90.9058,113.1213,128.131485,50.375347,82.02919,99.790821,112.76516,-28.712027,-44.017917,-52.245912,-58.616332,-15.691644,-16.978091,-19.509549,-21.240598,3.985619,2.766974,-1.471574,-3.738617,18.399894,19.251988,14.267124,10.086251,27.6372,28.094214,23.991023,18.516849,47.818451,160.406159,-106.717129,199.785446
83,-18.208065,31.424475,-1.691952,6.831016,-17.516212,-39.779434,-59.812717,-68.418789,-63.605576,-76.486588,-68.831978,-59.098434,-62.93129,-68.136005,-55.06794,-41.82827,-57.61219,-58.994865,-47.318172,-34.621239,-50.026817,-50.368881,-41.186886,-32.756023,-34.489581,-45.352405,-41.15844,-31.97461,-20.265744,-10.06612,-11.157805,-14.569639,4.989186,13.58472,8.220771,2.044371,26.683156,33.025973,24.606922,16.056713,43.894663,47.483412,39.729783,32.353758,20.360241,44.285316,65.868759,83.443279,56.65678,91.94561,112.140141,126.794758,55.570278,95.329685,118.033276,133.329105,53.390408,90.734653,112.05122,126.202755,49.865112,80.530186,97.74107,110.263309,-26.984992,-38.513732,-43.438019,-49.431761,-11.760798,-8.863222,-8.269739,-6.995087,7.410235,9.991649,7.892258,6.996877,21.822904,25.462412,22.749222,20.221037,31.296961,34.488346,32.414335,28.232782,29.76511,190.197598,-108.254356,204.983426
84,10.336761,23.110092,-1.270008,8.185388,-12.94178,-36.0886,-57.54467,-69.336319,-66.351986,-88.125572,-80.47411,-67.406158,-70.231075,-82.104549,-60.867176,-38.718338,-67.819176,-72.774754,-50.37981,-30.090179,-62.971458,-64.912205,-47.805347,-32.786293,-25.761963,-38.411473,-35.278381,-27.503695,-30.951715,-29.634578,-26.237997,-23.542159,-10.861836,-5.851407,-0.938606,0.534573,8.427326,12.857053,14.05674,13.118011,24.663794,28.7266,27.558653,24.491448,22.740154,47.708817,70.479584,89.434834,59.309063,94.061508,115.189018,131.385498,56.287079,94.736824,118.290138,135.140076,52.544346,88.427811,110.788536,126.765289,47.874069,77.566967,95.054798,108.558769,-25.216336,-34.437587,-37.771924,-42.616676,-6.954949,-0.934284,1.282618,3.730898,11.653352,18.313381,18.595457,19.34486,25.767521,32.832879,33.306875,32.768227,35.51507,41.334923,41.377037,39.274621,40.35181,211.747303,-109.274426,211.608427
85,-0.162849,13.876059,0.455017,11.068206,-16.020012,-39.159851,-57.054176,-66.232681,-66.532345,-84.351425,-72.872658,-58.39983,-65.284081,-75.324383,-52.751541,-32.054329,-59.776497,-65.138912,-42.327805,-22.612839,-52.559166,-54.338436,-37.949066,-24.08535,-23.885492,-33.830148,-28.585254,-17.434364,-18.583539,-20.211774,-23.495476,-24.240556,-1.750748,0.907793,0.872472,1.020796,14.27756,16.510269,14.538517,12.541509,27.09429,30.068807,26.999565,22.784914,25.525818,52.443924,76.130333,95.618877,60.713367,94.321404,116.258354,133.440857,57.362995,94.802513,118.960533,136.808167,53.531742,88.823605,111.849174,129.408989,48.961487,78.665771,96.569252,111.220779,-24.628164,-32.82831,-35.372118,-37.426801,-2.584008,3.234857,6.454338,10.442365,16.667609,24.642613,26.569967,28.991263,30.835006,38.373373,39.567009,40.024579,40.035324,46.010047,46.290826,44.496915,40.365572,224.441783,-108.642797,221.495054
86,-8.794041,19.221483,1.873455,9.139678,-17.908344,-42.617111,-61.876774,-72.833834,-67.984686,-72.402706,-61.150131,-49.126196,-66.485996,-63.38748,-45.658035,-29.304571,-60.468149,-56.234693,-39.0172,-23.444309,-52.16054,-54.370737,-45.143852,-35.325394,-7.120193,-6.340872,3.488033,12.901421,1.354279,2.917892,-1.394541,-4.97733,7.065698,9.692962,8.424331,7.14795,10.984348,12.985339,10.668433,8.97536,13.409503,15.168803,13.393355,11.971676,27.585583,55.698166,79.472752,99.265194,63.394089,94.562016,114.9119,130.683231,57.559776,92.241955,114.341297,130.54945,51.834412,83.611279,104.473915,121.161175,45.332394,70.878181,86.702213,99.998302,-21.946652,-28.242662,-29.402582,-30.941217,4.044343,12.077207,17.333094,23.179931,22.107512,32.492635,36.766689,41.285646,35.429731,45.545931,49.352473,52.129389,43.60598,51.830208,54.008886,54.122939,31.799812,242.942917,-106.541061,229.914383
87,-8.794041,19.221483,2.488861,11.413205,-19.796677,-46.074371,-66.699371,-79.434986,-69.437027,-60.453987,-49.427605,-39.852562,-67.687912,-51.450577,-38.564529,-26.554813,-61.159801,-47.330475,-35.706596,-24.27578,-51.761913,-54.403038,-52.338638,-46.565437,9.645106,21.148405,35.561321,43.237206,21.292098,26.047559,20.706395,14.285896,15.882144,18.478132,15.97619,13.275104,7.691137,9.46041,6.79835,5.409213,-0.275283,0.2688,-0.212854,1.158438,28.466206,56.104259,80.106411,101.458855,62.981529,93.958912,114.398861,130.519238,56.353283,91.919804,114.594784,131.551266,49.724979,82.384701,104.291096,122.318058,42.662086,69.093761,85.121212,98.806286,-21.038304,-25.84687,-25.27185,-25.063875,6.240805,17.239789,23.872215,29.949135,24.376716,37.89561,44.264363,49.903719,37.36962,51.334352,57.321796,61.487479,45.350738,55.970079,60.736285,63.810591,23.073435,261.515758,-103.984537,240.678946
88,-15.861053,23.30652,1.732121,14.596871,-0.642014,-9.601536,-14.808941,-15.295887,-42.780361,-21.12196,2.285843,21.618462,-48.526554,-22.449017,3.618851,24.589691,-46.095314,-26.019173,-3.328514,14.507904,-40.135975,-44.950962,-49.824486,-55.620689,-22.392243,-34.51212,-40.351301,-46.775443,-13.196928,-8.824257,-3.465001,-0.224277,4.101709,11.196646,15.924196,18.46819,17.72138,25.180645,29.328173,32.840722,28.649783,37.562405,47.638899,57.356129,30.018082,57.321281,81.367836,101.955643,64.795761,95.113335,116.449356,133.640442,58.593693,93.206291,116.328964,133.937531,52.785473,84.338264,106.600456,125.498772,46.548157,72.075005,88.062744,102.521667,-19.851152,-22.392861,-21.366631,-20.067278,13.571567,23.239706,29.659649,35.876989,29.812481,42.560298,48.910711,54.782804,40.489004,54.191359,60.48564,65.449879,46.406917,56.844651,62.078862,66.215152,7.272062,284.459185,-102.192736,254.912725
89,-9.661961,1.725986,5.461979,1.86443,-2.567482,-9.399891,-13.050785,-13.590431,-30.561905,-7.367592,13.424664,27.737331,-33.470306,-9.124775,11.465435,25.888882,-31.206207,-16.591816,-1.851883,8.148022,-24.695206,-32.965908,-41.912899,-51.395416,-18.998688,-28.703321,-34.572821,-39.359033,-4.95226,4.508521,11.413761,16.521323,10.164118,20.265806,26.563607,29.884544,21.216886,31.980353,37.127929,40.79189,30.421279,39.605726,51.720725,63.872341,28.337917,55.471458,80.143433,100.33247,62.149086,93.969841,112.959652,127.848873,54.776688,89.932308,112.225513,128.328838,46.518631,78.412056,98.949223,114.762783,37.645054,62.034702,76.93428,88.823204,-15.865719,-17.695939,-13.565825,-13.802514,14.734204,29.939131,37.439769,43.548428,33.164356,48.728485,55.029312,59.606932,46.405188,62.61183,67.660173,69.902393,54.309796,68.23297,72.233347,73.197827,-2.323122,286.067351,-96.66398,256.659335
90,37.40221,9.207913,3.139458,8.703288,-22.426643,-47.292023,-67.384758,-78.129673,-71.734428,-71.576672,-60.530319,-50.532188,-68.140812,-69.892845,-69.347992,-63.241596,-61.52504,-70.505219,-74.35215,-74.275188,-53.94619,-68.121643,-77.523193,-82.001839,-12.72534,-9.272689,3.66112,19.337574,14.663562,20.016087,15.424203,11.670643,23.575999,25.948202,23.515113,19.515847,29.328667,33.169728,31.998322,30.686188,34.487358,41.828432,44.317468,45.926992,29.22163,57.287292,82.171383,102.550678,61.725197,94.321003,113.252392,127.821293,52.533073,88.451729,110.00948,124.616146,43.148403,75.152206,94.970913,109.747066,34.081707,58.583851,73.666248,85.552883,-15.168803,-16.484334,-11.841877,-10.22383,17.36366,33.331946,40.879575,46.593588,35.172479,51.660333,58.669375,63.189876,47.472049,64.657868,70.365768,72.748346,54.233473,68.826824,72.938537,73.728016,35.140886,295.247075,-93.462725,265.334434
91,-24.71283,12.778075,3.754292,7.703487,-0.184593,-4.390068,-7.637444,-9.536362,-31.669064,-12.141953,6.724434,18.9188,-37.414799,-19.691105,-1.062355,14.169846,-37.214699,-27.767658,-12.050343,-1.14727,-33.269119,-43.067551,-52.762127,-63.289089,-22.658202,-32.784714,-38.178057,-42.244507,-8.578923,1.61323,6.645518,10.609462,8.437576,16.852799,20.49527,22.666106,20.57005,27.21495,29.606112,31.610406,30.315377,37.902959,44.081026,49.984859,29.36491,56.747704,80.950069,100.112457,61.374264,93.017921,110.460663,123.579369,52.072563,87.402649,108.270264,123.190613,41.992722,73.916988,93.355637,108.022614,32.034187,55.97517,70.173111,81.33316,-13.257011,-13.87717,-8.62573,-7.110004,17.933987,34.111792,41.657445,47.038932,34.74072,52.078074,59.873385,64.824594,46.470952,63.839984,70.1757,72.896053,53.791093,68.76143,72.40242,72.793547,10.46545,307.96485,-89.67104,272.977623
92,12.491798,-7.248943,2.93375,6.332443,-2.399254,-11.1026,-25.193481,-38.726578,-41.513615,-31.919632,-13.24791,-1.495628,-50.280018,-36.533489,-18.121262,-0.67234,-55.88871,-45.968685,-28.117733,-14.564781,-59.835663,-76.073627,-84.011822,-89.484901,-19.713572,-29.465074,-31.815047,-32.571305,2.299709,22.298691,27.748536,30.202497,18.890007,34.004099,37.383144,38.085555,28.973973,41.942238,42.882388,42.939013,37.444771,46.214688,51.517134,56.347313,30.206165,56.739864,80.123692,99.768391,60.960045,91.288662,108.255444,120.677433,51.246758,84.90881,105.076618,119.633389,40.980091,70.948792,89.290409,103.008442,31.087246,53.647728,67.499886,78.43626,-12.842604,-12.905033,-6.420005,-3.970551,19.367276,36.875617,45.623613,52.174837,36.7833,55.162322,63.806948,69.555849,48.50816,66.176496,73.473975,77.064391,55.62119,69.947594,73.833733,74.253635,23.069115,300.662108,-86.625423,279.256266
93,-51.999779,4.081085,2.495499,5.608481,8.455696,18.638134,27.504215,32.727356,6.835785,33.887901,52.418861,62.387466,-4.175434,25.775814,46.455574,63.413429,-13.099995,10.36068,31.547585,46.624489,-18.647346,-21.81776,-24.799519,-28.091526,-23.972807,-30.758189,-30.732686,-27.697098,-4.277266,14.342027,26.920586,36.038652,14.898892,33.814587,41.472441,44.929538,28.656575,44.436831,48.1053,50.031357,38.775615,49.193157,55.396295,58.563288,30.436592,57.203865,80.963173,101.459484,61.261711,91.761417,107.896671,118.934498,52.003269,85.971165,105.159245,119.045391,42.02425,73.417397,91.574078,105.169315,31.904697,56.609745,71.393852,84.315434,-13.334754,-13.528466,-6.473419,-3.598382,18.479614,34.840509,42.947165,48.966533,34.926712,52.051213,60.458593,66.045338,46.461504,63.412239,71.046257,75.545701,54.127694,69.132241,73.728942,75.697113,-28.893642,304.618348,-84.092903,284.739903
94,1.361618,-3.542312,1.321964,2.826069,14.805908,24.924603,28.858795,26.624851,7.940483,31.804047,47.350502,53.806915,0.063457,24.006557,40.210419,52.221107,-10.243835,10.954056,28.034019,37.643623,-19.265099,-24.899597,-31.107159,-38.659744,-22.73397,-30.0643,-31.660239,-31.224405,3.257149,25.517987,29.650572,30.608568,20.697133,44.765467,47.77018,48.525017,30.96777,52.133341,52.665691,53.188903,39.460304,50.99102,55.96798,59.742659,30.218925,56.225853,79.6035,99.82132,60.217037,91.381989,107.784348,119.059067,50.686855,85.137863,104.173737,117.483101,40.558491,72.186813,90.413818,103.153496,30.733738,54.990234,69.77005,81.984787,-13.682718,-13.489377,-6.423772,-3.30834,18.838692,34.93369,42.439823,48.093814,35.462027,51.292671,58.011239,62.684757,46.799526,62.8965,68.810769,71.735824,53.761638,68.349493,71.828264,72.47967,-27.522984,301.013884,-82.761898,287.50382
95,-7.898197,0.543157,0.142078,0.423052,17.061539,30.521107,35.862522,35.270405,13.058281,38.624554,53.293247,58.516674,5.845184,31.268005,45.793133,55.247097,-4.358826,19.649391,35.204601,42.948704,-13.540707,-14.135342,-19.087772,-25.461845,-23.043154,-31.041068,-32.914143,-32.700857,2.827737,24.133975,27.449478,28.529061,20.690525,42.357819,45.134426,45.928907,30.662599,49.465662,49.672155,49.684937,38.425491,50.413901,53.940776,56.424809,29.241486,54.823265,77.949543,98.272991,59.118748,90.208912,106.309376,117.106075,49.869919,84.536648,103.312855,116.22179,39.769878,71.731224,89.633961,101.972408,29.950447,54.112816,68.962612,80.987034,-13.73323,-13.055766,-5.153566,-2.005715,19.351591,35.20181,42.590185,48.051701,35.94121,51.202762,57.499452,61.71472,47.05122,62.592749,67.792196,69.964884,53.916199,68.214877,71.563602,71.994435,-35.367165,301.468861,-82.565804,287.838693
96,-9.334602,-1.254398,-0.137444,1.156894,20.989838,37.767677,46.125698,47.212086,21.987133,51.160526,65.460148,69.834309,13.924141,43.079453,56.745472,63.668461,3.238621,30.730934,45.183964,50.145664,-5.973186,-3.274841,-8.618774,-16.307259,-22.368407,-28.462556,-27.978124,-25.402329,2.446922,24.851145,28.371412,29.792536,20.263212,45.008393,47.489154,47.87281,30.5977,51.838421,52.187064,51.798036,38.923322,51.869111,54.836959,56.752704,28.602848,54.341583,77.422771,97.930813,59.666634,90.469952,106.543064,117.073803,50.603256,84.557476,102.841244,115.329723,40.578575,71.719952,88.671627,100.29047,30.755196,54.477882,68.746262,80.843468,-13.990976,-13.714581,-5.51036,-1.106691,18.683328,34.249063,41.476146,46.772603,35.040642,50.00678,55.894188,59.433907,46.146886,61.04726,65.921405,67.504315,53.297583,67.462757,70.826302,71.169882,-44.594507,300.118611,-82.595987,288.899735
97,20.748367,0.076509,0.257034,-0.61102,13.503227,21.313591,21.978836,18.198681,1.823444,26.639957,42.359104,47.345181,-7.618275,18.159428,34.705982,45.736485,-18.48587,2.806892,20.121861,30.079136,-27.498837,-34.843483,-41.416054,-48.522205,-19.664233,-25.595114,-24.865718,-25.438947,3.187556,25.524224,29.515832,29.906898,20.190285,42.543934,44.88094,44.134563,30.803884,51.15682,50.984722,50.117375,39.677912,51.829467,56.568441,60.560914,27.829971,53.596745,76.730862,97.354259,58.234577,89.521351,105.866833,116.651058,49.536953,84.210491,103.246021,116.189747,39.887524,71.676636,89.426365,101.420689,30.496845,54.918079,69.426327,81.417732,-14.114662,-13.273128,-4.542175,-0.458744,18.667273,34.754984,42.074569,47.034918,35.398547,50.45231,56.64921,60.006766,46.689054,61.633148,66.664695,68.092179,53.697973,67.954723,71.370632,71.555451,-23.808489,300.027391,-82.301302,288.120985
98,3.995762,1.958291,-0.658092,-0.165306,11.949692,17.225361,15.832958,10.475349,-3.219509,19.867516,35.295982,39.868813,-12.105904,12.153454,27.829742,38.693161,-22.318668,-2.021656,15.218868,25.422134,-31.054916,-39.019032,-45.942478,-53.433609,-21.943071,-28.89802,-29.092039,-29.529541,0.914091,23.091505,27.200871,27.5342,18.480355,39.880083,42.212458,41.489299,29.442288,48.62283,48.615852,47.791299,38.560168,49.61942,54.305659,58.401934,27.53231,53.621922,76.862869,96.978493,57.209644,88.30822,104.64386,115.906677,47.912292,82.594528,101.295776,114.258041,37.783642,70.191708,88.586197,101.322441,28.081627,53.554802,68.906822,80.844212,-14.552349,-13.204646,-4.368101,0.352533,18.244159,36.43756,43.476613,47.406656,35.19897,51.849598,57.809933,60.516824,46.480832,63.306584,68.189745,69.145086,53.405091,68.041853,70.862735,70.31365,-19.651279,301.848549,-82.797947,287.818547
99,-0.754223,-1.35147,-0.01339,0.523335,11.522884,16.966438,16.885643,12.034035,-4.444542,17.791843,35.337811,42.246609,-13.215408,10.486221,28.895359,42.365055,-22.512589,-2.640381,16.25782,27.835865,-30.110779,-38.265152,-44.506245,-51.21151,-20.663911,-26.367364,-25.705215,-25.42141,1.029688,22.917986,28.332818,29.567271,18.710251,40.373963,43.804075,43.484146,30.00576,49.615345,50.362895,50.08366,39.019838,50.425078,55.815765,60.175591,27.597713,53.859901,77.401485,97.480202,56.911011,88.631516,105.014763,116.243591,47.660065,83.056412,102.158432,115.416985,37.607288,70.497093,88.898964,101.665535,28.08609,53.778305,69.074879,81.21809,-14.679555,-13.921136,-5.165916,-1.225499,17.584665,35.234415,42.270874,46.464715,34.609871,50.751737,56.847862,59.599892,45.936749,62.274982,67.0896,67.982511,52.680573,67.152029,70.165573,69.680709,-20.070419,300.415708,-82.476254,288.26051
100,-0.706844,-2.061538,-0.074272,0.12313,11.73357,17.554722,17.498531,13.033791,-2.741261,18.65015,36.27594,43.172264,-11.965542,12.564125,31.694984,46.342964,-21.732502,-1.018353,18.798695,31.511078,-30.116272,-37.863579,-43.409328,-49.124908,-19.271377,-24.143114,-21.883358,-19.125029,2.391346,23.396737,29.899179,32.384571,19.594949,40.285907,45.496901,46.336398,30.725214,49.513889,51.366771,51.751662,39.829757,50.804781,57.273692,62.748731,27.60498,53.324318,76.440182,97.037659,57.085705,88.718948,105.214233,116.552353,47.774448,83.007431,101.895447,114.833107,37.726479,70.153599,87.95002,99.99733,28.147488,53.28804,68.201694,80.080891,-14.437679,-13.994619,-5.267187,-0.980164,17.710203,33.997554,40.994431,45.802565,34.920043,50.230379,56.333604,59.569943,46.398333,61.871381,66.515691,67.622135,53.33803,67.442194,70.093016,69.502991,-20.450077,298.265173,-82.223339,288.294642
101,16.687489,0.706795,-0.190544,-0.307085,5.241566,5.372944,-0.717888,-10.366344,-21.051121,-2.986336,14.214535,21.945934,-31.455688,-9.154987,9.865322,25.163097,-39.73978,-21.85112,-2.066689,10.979748,-45.382061,-56.693058,-63.178711,-68.917522,-17.272516,-22.474371,-20.331385,-17.9041,4.44498,26.181063,32.3348,34.311431,20.70516,40.093925,44.94232,45.224828,30.803452,48.578926,49.883897,49.224156,39.420599,49.422127,54.844184,59.855539,27.54467,53.223782,76.355438,96.834869,56.721497,88.62648,105.240097,116.692886,47.566624,82.870331,101.897507,114.922371,37.548122,70.10685,88.021545,100.106277,28.026695,53.223553,68.098755,79.998837,-14.5471,-14.29979,-5.738528,-1.247111,17.38237,33.5201,40.578974,45.512771,34.449752,49.909091,56.33206,59.944892,45.855424,61.553305,66.482655,67.789664,52.663345,67.235269,70.289444,69.929131,-3.581343,299.030322,-82.232637,288.045912
102,-11.444263,10.915867,-0.293427,-0.183646,-3.69627,-6.047001,-9.496365,-18.843327,-15.847778,13.547344,33.733521,46.119232,-24.056511,9.016857,30.434761,43.404236,-27.304058,-4.25108,14.880066,27.527847,-27.105045,-33.073711,-33.604374,-32.91544,-14.883578,-15.507134,-6.47027,3.470311,-2.321507,11.982791,19.653612,24.347817,13.049468,23.025,28.504114,30.579977,24.876833,32.727904,36.202476,38.301619,35.199402,42.055489,44.315739,45.762057,27.847824,53.310299,76.197853,96.775932,55.870399,87.493172,104.140205,115.504875,46.452713,81.824684,100.856323,113.604469,36.613541,69.144001,87.1772,99.128265,27.552052,52.331257,67.347736,79.051094,-14.100089,-13.57589,-5.124358,-0.403354,18.058784,34.687491,41.510232,46.084641,35.095167,50.535796,56.306187,59.41742,46.332878,62.092077,66.602204,67.645292,52.901269,67.246446,70.040652,69.488418,-14.910822,309.932064,-82.41128,287.848141
103,-3.231354,-11.128721,-0.626335,0.078608,12.104359,16.078606,13.941364,8.168449,-6.784744,16.463356,33.930244,40.199661,-16.62426,9.0909,27.630157,41.428642,-26.401634,-4.470348,15.383835,27.836723,-33.794117,-42.229214,-48.75,-55.296307,-19.344366,-24.058702,-22.349203,-21.585783,3.588625,25.40344,30.42134,31.385264,19.917657,41.48368,45.183764,44.652958,30.15921,49.973003,51.014362,50.314791,38.683546,50.195798,56.41283,61.615673,27.852917,53.566761,76.754494,96.540871,56.182194,87.845764,104.553223,116.064377,47.04237,82.232151,101.431732,114.592552,36.999378,69.460144,87.622833,99.982452,27.224751,52.372284,67.284222,79.326439,-14.167521,-13.776764,-5.142574,-0.518642,16.609379,32.910314,40.012106,44.936825,33.529733,48.928124,55.614521,59.237047,44.974307,60.602534,65.802474,67.272072,51.881708,66.586581,70.173971,70.11148,-18.059835,298.743337,-82.955275,287.866743
104,-3.455029,-0.563287,-0.146141,0.024021,13.521538,19.108372,18.828335,14.30603,-4.42915,20.04055,39.162769,46.674099,-14.366627,12.168503,32.12328,47.103596,-24.087067,-1.734066,18.78788,31.83672,-31.4744,-39.106865,-45.328331,-51.662064,-19.302253,-24.176336,-22.96504,-23.182834,2.167625,23.939585,29.723067,31.442013,19.400003,41.141706,45.162955,44.554528,30.36169,50.385619,51.590617,50.854675,39.179093,50.97126,57.23868,62.054162,27.555943,53.206043,76.297531,96.510658,55.423393,87.513428,104.62429,116.13842,46.199455,81.851978,101.484947,114.571037,36.503849,69.174557,87.530708,99.701729,27.413692,52.394257,67.466412,79.414787,-14.120034,-13.403483,-4.734157,0.14147,17.478269,33.760247,40.771883,45.716177,34.46451,49.433551,55.635824,59.090945,45.746434,61.257952,65.952775,67.178767,52.375403,66.849205,70.022188,69.813719,-21.310358,298.170818,-82.89691,287.881532
105,14.360218,-0.068172,-0.327759,0.206987,9.192352,9.630547,3.487816,-5.01812,-19.12714,1.34737,20.419235,28.944969,-29.387569,-5.138226,15.10231,30.239182,-37.717266,-18.284283,2.467403,15.627594,-43.021431,-52.986546,-58.837051,-64.429092,-16.380038,-20.323172,-17.965665,-16.850885,5.79929,27.850424,33.28693,34.065973,21.146429,41.824851,45.481587,44.628443,30.60406,49.396439,50.724444,50.156649,38.500209,49.905386,55.8057,61.13723,27.950649,53.650017,76.748428,96.961784,55.224838,87.038727,104.089851,115.842133,45.967426,81.482391,101.044121,114.361038,36.326294,68.840618,87.240372,99.658127,27.310925,52.075081,67.155075,79.124508,-13.976156,-13.508705,-4.937933,-0.091329,17.155993,33.404132,40.260466,45.037292,34.168849,49.506726,55.851889,59.558458,45.504558,61.489331,66.350941,67.833075,52.128092,66.794371,69.945186,69.744188,-6.649675,298.131282,-82.924204,288.117156
106,-5.670948,6.69146,0.544739,-0.054711,-3.472538,-8.533001,-16.778069,-30.875702,-17.788467,13.033562,32.876415,44.567471,-25.94553,9.264221,31.806278,45.554867,-28.67918,-2.937183,18.477573,32.522907,-27.694473,-31.776123,-32.85347,-32.480793,-12.92115,-10.684797,2.296621,14.935572,3.933439,18.382727,25.739918,31.778491,19.171959,29.133844,33.97625,36.539942,30.271102,38.399123,41.205247,43.682241,39.429738,45.156594,46.105081,47.505642,27.706432,53.14888,75.840626,95.537338,54.93988,87.115173,104.305115,115.836639,45.396023,81.379852,101.150093,114.402924,35.503578,68.570137,87.055664,99.29615,26.247425,51.406918,66.459732,78.391857,-13.788064,-13.008898,-4.205203,0.340492,16.851749,33.525534,40.646344,45.54272,33.933766,49.370442,55.746975,59.259092,45.457566,61.237143,66.015575,67.384273,52.280184,66.876375,70.161683,69.993783,-12.125645,304.894836,-82.184486,288.134539
107,10.079784,-6.008315,-0.391731,0.634238,6.578293,6.127167,-1.694641,-12.364311,-23.517723,-3.941574,15.189514,24.239731,-34.584789,-10.095577,10.445709,26.188087,-42.345257,-23.117809,-2.775135,10.012321,-46.639423,-57.451458,-63.755207,-69.750252,-16.215905,-20.840764,-19.206972,-18.168391,6.413213,28.265201,33.439948,34.655196,21.697119,40.986712,44.832219,44.224842,30.904229,48.806291,49.759285,48.609986,38.746099,48.965915,54.205623,59.140901,27.456837,53.128624,76.16106,95.946121,55.179977,87.330322,104.215164,115.514374,45.928974,81.866798,101.586914,114.870186,36.160698,69.213009,87.656708,99.868469,26.856194,52.236385,67.272263,79.242039,-14.398097,-13.830919,-5.035931,-0.648626,16.407517,32.56939,39.568182,44.327595,33.503736,49.022047,55.592723,59.230748,44.994129,60.757218,65.615432,67.024453,51.807546,66.364279,69.735605,69.70368,-1.785936,298.939534,-82.316294,288.82179
108,-14.625607,8.857109,-0.835876,0.227303,4.775391,7.538452,7.445469,1.826134,-12.898979,17.737656,38.503475,50.439091,-23.303318,10.9758,33.913021,48.626804,-27.897205,-2.286015,18.951931,33.968983,-28.001175,-31.116886,-30.195408,-27.684517,-18.006297,-21.650188,-15.431304,-8.675007,-1.409947,14.687891,22.597625,27.651587,16.329402,27.935825,32.004683,32.982192,29.157742,37.598961,39.900523,41.060628,39.419116,46.361839,46.613595,45.865551,27.383251,53.398418,76.626434,96.749725,55.463619,87.779274,104.806366,116.158333,46.426048,82.582626,102.438011,115.773811,36.791725,70.139179,88.580017,100.744057,27.637024,53.302975,68.289185,80.212898,-14.521165,-14.066065,-5.195124,-0.793061,15.408148,31.986713,39.247327,44.176183,32.732103,48.338408,54.891608,58.489249,44.468633,59.962614,64.864856,66.254178,51.593889,66.018786,69.321445,69.239811,-16.156855,307.771803,-82.897482,289.024254
109,12.779388,-8.510442,-0.237064,-0.073915,5.205975,4.309387,-2.979069,-13.18325,-21.550999,-2.358227,15.254116,22.894192,-30.890636,-7.680988,11.142254,25.997372,-38.235397,-19.54565,-0.438881,11.701412,-43.371506,-53.846397,-60.66021,-67.003727,-18.502276,-23.702957,-21.871934,-19.931921,6.80613,28.399138,32.649789,33.650331,22.738416,41.89821,44.914903,44.825056,31.96294,49.638933,49.721308,48.760719,39.723484,50.403897,55.11675,59.616627,27.901955,53.309612,76.354408,96.621265,54.042664,86.645222,103.964481,115.691357,45.350132,81.894093,102.110767,115.776157,36.380196,69.964542,88.897305,101.490841,28.115101,53.690529,68.876038,81.174889,-14.504431,-13.850185,-5.123432,-0.288127,16.530215,33.027949,39.730647,44.036195,33.505774,49.019577,55.127927,58.477702,45.030685,60.563075,65.408321,66.722061,51.990451,66.31809,69.826007,69.964637,-3.091965,299.211637,-82.849045,288.900615
