takenoko1/special-research/HandMotion_SimilarSearch_自分用/NewProject/handData/key/d4_feature_d2/122.csv
,vel_0x_L,vel_0y_L,vel_0x_R,vel_0y_R,posFromWrist_1x_L,posFromWrist_2x_L,posFromWrist_3x_L,posFromWrist_4x_L,posFromWrist_5x_L,posFromWrist_6x_L,posFromWrist_7x_L,posFromWrist_8x_L,posFromWrist_9x_L,posFromWrist_10x_L,posFromWrist_11x_L,posFromWrist_12x_L,posFromWrist_13x_L,posFromWrist_14x_L,posFromWrist_15x_L,posFromWrist_16x_L,posFromWrist_17x_L,posFromWrist_18x_L,posFromWrist_19x_L,posFromWrist_20x_L,posFromWrist_1y_L,posFromWrist_2y_L,posFromWrist_3y_L,posFromWrist_4y_L,posFromWrist_5y_L,posFromWrist_6y_L,posFromWrist_7y_L,posFromWrist_8y_L,posFromWrist_9y_L,posFromWrist_10y_L,posFromWrist_11y_L,posFromWrist_12y_L,posFromWrist_13y_L,posFromWrist_14y_L,posFromWrist_15y_L,posFromWrist_16y_L,posFromWrist_17y_L,posFromWrist_18y_L,posFromWrist_19y_L,posFromWrist_20y_L,posFromWrist_1x_R,posFromWrist_2x_R,posFromWrist_3x_R,posFromWrist_4x_R,posFromWrist_5x_R,posFromWrist_6x_R,posFromWrist_7x_R,posFromWrist_8x_R,posFromWrist_9x_R,posFromWrist_10x_R,posFromWrist_11x_R,posFromWrist_12x_R,posFromWrist_13x_R,posFromWrist_14x_R,posFromWrist_15x_R,posFromWrist_16x_R,posFromWrist_17x_R,posFromWrist_18x_R,posFromWrist_19x_R,posFromWrist_20x_R,posFromWrist_1y_R,posFromWrist_2y_R,posFromWrist_3y_R,posFromWrist_4y_R,posFromWrist_5y_R,posFromWrist_6y_R,posFromWrist_7y_R,posFromWrist_8y_R,posFromWrist_9y_R,posFromWrist_10y_R,posFromWrist_11y_R,posFromWrist_12y_R,posFromWrist_13y_R,posFromWrist_14y_R,posFromWrist_15y_R,posFromWrist_16y_R,posFromWrist_17y_R,posFromWrist_18y_R,posFromWrist_19y_R,posFromWrist_20y_R,posFromBody_0x_L,posFromBody_0y_L,posFromBody_0x_R,posFromBody_0y_R
2,18.026104,-3.076591,0.661354,-0.74014,5.285683,4.152145,-1.208611,-6.110916,-22.554531,-3.753204,16.319847,28.266449,-33.569298,-10.471573,11.655693,30.673599,-41.083775,-22.406616,0.661125,18.187294,-45.974922,-51.184559,-48.146954,-43.224678,-20.292606,-27.170243,-27.119422,-25.912264,0.109854,19.692206,25.302911,27.816152,19.253964,37.661885,41.587853,43.147977,32.166098,45.907912,47.722756,49.768115,42.185967,54.144367,56.366517,57.682912,27.934055,53.246727,76.786537,97.185516,54.634438,85.632706,102.43927,114.396286,45.214462,80.54203,100.21328,113.561096,35.308285,68.620262,87.423935,100.40657,25.992622,51.942902,67.161541,79.24015,-13.360257,-13.557426,-7.095184,-4.290172,18.354445,35.531002,43.513169,48.811478,34.622406,50.620209,58.115165,61.897563,46.04086,62.429975,68.423038,70.012679,53.193843,68.393768,72.392231,72.509433,2.990627,312.92154,-76.749401,299.1047
3,-25.692902,14.055197,0.349731,-0.61065,6.144791,14.237995,28.98159,40.741196,0.780659,27.923698,46.703568,58.473244,-9.127865,20.820007,42.700195,59.103928,-15.263271,10.452805,30.832672,45.521851,-18.651123,-9.571953,1.132221,10.523987,-23.321278,-34.772768,-33.137124,-28.533939,-12.545522,1.246617,11.255309,19.554318,7.428575,20.559985,29.149961,33.357881,22.581076,30.835068,36.193584,38.10198,33.85701,40.424475,41.024812,38.500826,27.493515,52.789078,76.471138,96.847,54.200878,85.07412,102.092285,114.400749,44.873314,80.102806,99.935303,113.514748,34.967194,68.085079,86.764297,99.834251,25.596085,51.287613,66.477013,78.626747,-12.899291,-13.170498,-6.671391,-3.212256,19.12824,36.021115,43.898677,49.027234,35.339329,51.141197,58.681664,62.474497,46.582103,63.228161,69.328978,70.847853,53.564222,69.420986,73.507011,73.424945,-22.715092,327.335291,-76.412487,298.852604
4,-1.824646,-2.79081,0.0634,-0.017661,6.438675,16.318703,31.403961,43.859024,2.880878,28.4832,47.129517,58.953552,-4.941444,22.815742,47.628479,66.077499,-9.383411,14.186153,36.721115,53.624382,-11.656551,-0.187626,13.6936,25.331268,-22.108438,-30.643148,-27.546797,-21.106044,-12.034785,-2.228634,6.933213,15.181154,6.264209,19.22278,28.907282,34.024539,21.7141,31.904832,38.303101,40.947624,34.166503,41.979536,43.803519,43.425421,27.338047,52.726078,76.313896,96.310043,54.311886,85.42099,102.270012,114.411163,44.722996,80.066757,99.7015,113.258629,34.639206,67.64431,86.367416,99.637527,25.242691,50.796032,66.159382,78.674469,-13.56848,-13.511855,-6.283722,-2.979025,19.071368,36.14264,44.006061,49.310174,35.422259,51.282297,58.634116,62.488144,46.489662,63.223962,69.283777,71.057805,53.175071,68.942606,73.008253,73.125641,-24.545631,324.747593,-76.35498,299.038056
5,5.800381,-12.267769,-0.547543,0.029517,11.10672,16.351833,16.852169,17.107487,0.195007,22.311001,41.157131,50.747395,-7.962914,17.654743,37.262363,52.782841,-16.291752,5.8354,26.946087,41.329479,-23.452148,-22.956161,-18.417149,-14.342995,-20.347996,-23.12485,-17.900395,-11.992733,1.929083,20.78278,26.649317,29.89004,19.137811,37.49343,42.289276,44.981594,30.661735,45.625465,47.687497,50.186536,39.582385,52.379849,55.466814,57.907252,27.602005,53.159695,76.77309,96.672993,54.326134,85.536633,102.317905,114.554043,44.713726,80.263081,99.932957,113.731327,34.619923,67.79829,86.592808,100.018559,25.105019,50.9198,66.240463,78.724537,-13.343894,-13.729587,-6.760744,-3.056522,18.373218,35.718908,43.47581,48.657472,34.880955,50.920995,58.388411,62.330928,46.163805,62.879457,69.105689,70.90349,53.100723,68.827318,72.915936,72.914763,-18.756495,312.609639,-76.913767,299.197388
6,18.991985,-0.736621,0.386467,0.185066,4.111748,3.665886,0.434303,-1.506958,-22.523289,-5.538368,15.534782,28.619957,-30.99741,-9.488926,12.428398,31.242256,-36.429405,-19.050922,4.088974,21.287155,-39.379807,-44.958458,-43.580017,-40.543041,-19.359372,-22.151355,-16.750602,-10.743275,3.069366,21.675321,28.041912,31.987269,20.700714,37.668369,42.804706,46.175785,32.426129,45.493875,47.945058,51.229994,41.756925,52.49983,55.791188,59.156956,27.422276,52.92017,76.685543,96.866512,54.189777,85.399532,102.157345,114.175587,44.63768,80.408535,100.121784,113.74197,34.561901,68.173256,86.89333,100.106449,25.15686,51.218147,66.591911,79.029865,-13.320737,-13.581818,-6.693868,-3.434434,18.751624,35.757441,43.579983,48.79814,35.218977,50.90988,58.361488,62.237808,46.493058,62.904712,68.988301,70.673841,53.398237,68.840409,72.785643,72.803118,0.233345,311.92915,-76.529446,299.438585
7,-21.139126,13.539889,-0.356884,-0.146966,4.035931,9.755516,23.885708,34.778538,-3.2341,22.396832,41.606998,53.275166,-10.400047,17.378597,41.315746,58.887234,-13.828239,9.385414,31.369228,47.456646,-15.417137,-5.233955,8.526249,20.116711,-21.715829,-31.088986,-28.238278,-23.272125,-8.799681,2.614759,11.522133,19.856956,9.843571,21.951963,31.204521,36.325174,24.352819,33.207766,38.91301,41.230812,35.247135,41.456139,41.46324,39.791904,27.734127,53.239975,76.830482,96.859131,53.879585,85.499496,102.406883,114.629059,44.225235,80.201111,99.950752,113.620033,34.199181,68.141727,86.986542,100.221291,24.85239,51.353416,66.924934,79.42028,-13.178896,-13.617077,-6.926852,-3.281355,18.155918,35.632211,43.602089,48.875698,34.775424,50.688567,58.207914,62.223791,46.390244,62.802022,69.026278,70.779619,53.726563,69.427038,73.322933,73.102114,-20.908155,325.524136,-76.888704,299.346716
8,-5.926895,-2.904739,0.002575,0.235146,9.335175,20.778122,34.687443,44.208012,6.582985,30.769215,49.130344,60.984592,-2.0961,25.333157,49.651279,68.612423,-6.630363,17.778511,39.588146,57.229786,-8.848972,4.68504,19.663868,33.158512,-19.476883,-24.982858,-19.940875,-13.021433,-12.895277,-5.119418,4.269176,14.102127,3.937145,17.984313,29.14922,35.790662,19.659479,31.566996,39.050961,43.018672,33.238765,41.785022,43.473402,44.332597,27.631588,53.325233,77.108402,97.132244,53.962212,85.527248,102.280254,114.483891,44.131851,80.041523,99.739895,113.470173,34.042568,67.869301,86.608944,99.87093,24.686337,51.034527,66.603985,79.165936,-13.257813,-13.649929,-6.689607,-3.489145,18.19797,35.374959,43.191758,48.433936,35.001122,50.711785,58.11992,62.090472,46.580929,62.812828,68.924513,70.696071,53.780472,69.008,72.808367,72.684743,-26.864347,322.669646,-76.915426,299.632111
9,26.638355,-13.830178,-0.292854,0.390633,3.579597,1.799927,-4.477844,-9.230747,-23.077297,-4.487114,16.292152,28.27652,-32.116756,-8.204441,13.395309,31.222572,-37.790165,-18.210068,4.716225,20.794029,-41.06226,-44.029484,-41.01099,-37.365532,-16.127602,-15.752777,-7.557571,-0.020625,8.205642,28.253036,33.832557,36.887597,23.852208,41.731916,46.697452,49.874079,33.706401,48.379842,50.470094,53.224718,41.497327,53.587069,57.02385,60.498175,27.540092,53.124332,76.913166,96.760426,53.946419,85.608273,102.350521,114.603138,44.25951,80.226116,99.93124,113.740482,34.230766,68.095551,86.813908,99.970379,24.858856,51.324806,66.920071,79.386463,-13.557859,-14.215439,-7.491313,-4.24565,17.113571,34.309455,42.229686,47.510149,34.113089,49.923603,57.524955,61.636174,46.001463,62.182541,68.309541,70.059053,53.471534,68.5734,72.33894,72.091445,-0.230284,308.867672,-77.212572,300.050948
10,-22.202625,16.040658,0.504227,-0.087624,6.891518,14.477406,27.190876,35.203686,-0.558701,25.688496,44.968014,56.60574,-8.191509,20.437603,45.59927,63.79755,-11.690369,12.364197,35.640392,52.64883,-13.614864,-1.447105,13.768673,26.164227,-20.687808,-27.871789,-24.760742,-20.364792,-9.354199,1.703015,11.583019,20.472979,8.060281,20.832983,30.945354,36.294731,22.430714,32.621199,38.675271,41.385682,34.074865,41.185734,41.426746,40.578604,27.143211,52.345333,76.142063,96.002598,54.330139,85.389347,102.16959,114.428272,44.800529,80.030422,99.608059,113.189678,34.499702,67.9533,86.423206,99.336147,24.637756,51.064739,66.417046,78.564777,-13.440224,-14.210499,-7.632598,-4.203412,17.550826,34.622221,42.761296,48.254798,34.252768,49.870003,57.704463,61.910901,45.990966,62.054965,68.309911,70.107836,53.582561,68.473179,72.227481,72.115219,-22.44936,324.928908,-76.724796,299.983903
11,-4.481678,1.29188,-0.185223,-0.486531,9.167061,22.624741,37.291946,47.750587,8.392467,32.611427,50.651093,62.746811,-0.245247,26.410217,49.454842,67.261734,-5.574589,16.191158,35.809135,52.559738,-8.107109,0.593548,11.394482,22.329025,-18.447009,-24.505651,-21.283823,-15.773649,-13.132151,-3.865452,5.272682,15.152131,3.125065,16.590298,27.156102,33.687937,18.160055,29.280625,36.925511,41.241433,30.976353,39.391205,41.904632,44.345503,27.031231,52.321815,75.929832,95.741501,53.720856,84.795799,101.750679,114.328079,44.277191,79.522247,99.248199,112.97699,34.253426,67.592525,86.150093,99.211121,24.622536,50.819778,65.979881,78.031769,-13.239227,-13.965535,-7.271111,-3.770171,17.674079,34.867555,42.985512,48.500194,34.374849,50.268911,58.26596,62.577621,46.121568,62.313699,68.688935,70.500816,53.665616,68.942174,72.935511,72.889445,-26.929092,326.240734,-76.908073,299.517317
12,18.588409,-14.290404,0.436363,-0.448864,7.737694,9.425125,6.087341,2.41642,-12.254734,8.297768,27.701797,38.268471,-21.958923,2.920418,23.252563,39.871445,-29.674931,-8.526478,13.04615,27.605667,-35.151558,-37.442093,-36.324577,-35.188065,-19.28595,-23.517397,-21.331371,-18.48338,3.188174,23.839364,29.594379,32.155971,20.590551,39.861126,44.099736,46.037279,31.89909,47.236533,48.804315,51.020166,40.873215,53.514636,57.351313,60.452789,27.351665,52.372112,75.709076,95.555649,52.805214,84.12735,101.304131,114.035683,43.302727,78.692093,98.632393,112.509842,33.496628,66.810436,85.526047,98.713646,24.235153,50.283508,65.6147,77.916298,-12.680077,-13.23336,-6.562463,-3.133957,18.400758,35.353593,43.32341,48.65951,34.997663,50.862641,58.765335,62.90076,46.610569,62.990607,69.36115,71.071019,53.971589,69.447786,73.507876,73.315091,-8.353386,311.976775,-76.484413,299.094898
13,-1.725368,-0.644798,0.478764,0.658321,-8.199692,-10.472832,-10.914345,-18.171959,-19.248047,4.78878,24.479313,37.811108,-22.209148,4.732246,30.018597,46.678448,-21.344147,1.264629,24.213924,39.618702,-17.836533,-9.088154,5.108471,17.604847,-0.682589,5.727104,17.79616,29.881457,14.547409,30.540334,39.150255,43.857119,22.257936,36.909765,46.49207,50.255141,26.85618,38.881579,45.765268,49.218104,31.16216,41.819293,44.138639,45.617191,26.472988,51.566219,75.049839,94.70747,52.817116,84.44006,101.284962,113.388233,43.191376,79.024944,98.887081,112.47694,33.118515,66.802368,85.931225,99.375172,23.589478,50.184288,65.997219,78.728771,-13.772503,-14.24582,-6.912279,-3.118396,17.430042,33.986192,41.611194,46.594638,34.426472,50.446876,58.199455,62.160743,46.123729,62.871923,68.899381,70.355332,53.351491,68.659604,72.670787,72.635836,-10.115347,311.346735,-76.042242,299.767977
14,15.026379,-2.168489,-0.301723,-0.301589,2.984734,-1.569557,-10.823364,-17.8438,-27.892799,-9.87648,10.729408,22.736435,-36.530571,-11.728878,9.867096,27.484703,-41.430702,-21.466885,1.410828,17.945938,-43.926086,-49.480534,-48.544579,-46.108761,-15.767782,-16.484149,-9.856292,-3.126238,8.886008,29.271857,34.560285,37.299719,23.759583,42.118227,47.258825,50.495041,32.974041,47.751532,50.492633,53.469188,40.521979,52.375403,57.311237,62.396877,26.459198,51.308899,74.41967,93.530846,52.781582,84.258156,101.423721,113.946762,43.44738,78.883667,98.934059,112.785187,33.4655,66.664295,85.806427,99.391823,23.775959,50.19928,65.786877,78.382759,-13.725141,-14.340175,-7.300319,-3.230041,17.160686,34.193673,42.046041,47.07765,33.934013,50.345667,58.45788,62.58219,45.696169,62.526182,69.053448,70.854769,53.189458,68.952857,73.129531,73.066298,4.904537,309.189268,-76.35046,299.47741
15,-20.637875,16.81402,0.540848,0.344629,4.239635,10.478497,22.709026,31.291752,-7.33881,19.334393,39.71426,52.315807,-15.571232,12.709866,36.820965,55.096836,-19.609795,0.352592,21.998692,39.608517,-19.704037,-20.728741,-18.887215,-15.705585,-18.724022,-27.998131,-29.205722,-28.828736,-6.888444,8.372368,17.639314,26.255658,10.481453,23.195801,30.969314,35.589109,23.330911,32.632376,39.115675,43.391212,33.63193,40.504936,43.384851,45.638494,26.498337,51.092777,74.234161,93.675041,52.848358,84.093475,101.108093,113.431664,43.64851,78.919258,98.903275,112.502975,33.629723,66.771641,85.727119,99.105721,23.830147,50.235214,65.761528,78.378067,-13.960533,-14.838562,-7.733869,-3.564049,17.115176,33.924997,41.779773,46.89104,33.856516,49.932803,57.953379,61.980432,45.639297,62.220147,68.693814,70.46815,53.230831,68.668311,72.875366,72.916801,-15.713797,326.050064,-75.790071,299.868815
16,-6.081963,-0.320299,0.027122,-0.020254,8.909969,17.677517,28.574009,36.966763,1.175709,28.520107,47.998638,60.686932,-7.195072,20.471134,44.433689,64.160328,-12.283859,9.609604,29.886646,47.856503,-14.6838,-8.745689,-0.820942,8.178062,-18.531422,-26.251397,-25.770979,-21.808084,-8.062813,4.480795,14.870425,24.384373,7.925604,21.784496,30.661241,36.017533,21.17576,32.429032,39.310189,43.388618,32.197715,41.50239,43.437401,43.317976,26.149235,50.988865,74.002075,93.382416,52.365017,83.819275,100.589676,112.70565,43.012218,78.782959,98.796272,112.319984,33.077202,66.560326,85.569763,98.839302,23.623238,49.955463,65.396233,77.852211,-14.626697,-15.328367,-7.862001,-3.702863,16.514777,33.862567,41.785392,47.022383,33.707944,49.974732,57.986107,62.155124,45.618117,62.367237,68.823736,70.811482,53.045456,68.707769,72.874378,73.067533,-21.727409,325.750791,-75.694599,299.869587
17,-1.234932,-4.427072,-0.273514,0.324869,7.904377,19.072781,31.905842,39.553471,4.720631,29.226208,45.153179,55.455036,-4.825745,22.066097,44.40279,61.326199,-9.841003,12.666378,33.760242,50.120258,-11.981392,0.966167,15.2845,28.735714,-18.342589,-24.978103,-22.937129,-17.413184,-9.008459,0.698891,9.72816,19.432731,8.149634,20.031278,31.558536,38.475014,22.984244,32.541232,40.265838,44.220643,35.2325,43.292288,45.885249,47.687435,26.253376,51.034756,74.184265,93.607635,52.963772,84.42215,101.280098,113.378334,43.609085,79.195518,99.102516,112.539711,33.564491,66.895924,85.696678,98.738594,23.917236,50.25547,65.498028,77.641525,-14.456698,-15.544122,-8.544775,-4.43794,15.936176,32.870547,40.946636,46.371287,33.006521,49.27652,57.530389,61.891944,44.957202,61.536138,68.039321,70.054237,52.539844,68.056982,72.173758,72.28108,-22.955217,321.328844,-75.960989,300.199582
18,7.135048,-7.321746,-0.305729,-0.13406,8.270874,12.980633,13.04266,10.079327,-3.984432,19.349384,36.259289,43.902912,-13.497562,13.683987,33.339672,49.985332,-22.431107,-0.088692,20.624256,35.248203,-29.76408,-34.993114,-38.594341,-41.637039,-22.188158,-29.33126,-30.140006,-30.70953,0.343394,20.275624,25.82958,28.16319,19.067539,39.235409,42.945559,43.574919,31.047675,47.236225,48.418066,49.443617,40.190997,52.080112,56.747147,60.069689,26.54726,51.575089,74.661655,94.294682,53.011894,83.99889,100.457668,112.375317,43.678722,78.891048,98.602123,111.781597,33.754635,66.84454,85.456524,98.293934,24.254093,50.222912,65.22789,77.098103,-14.596995,-15.521769,-8.285423,-4.535815,16.109571,33.017451,41.162392,46.795944,33.434946,49.515556,57.739661,62.198041,45.463741,61.586341,67.914585,69.824958,52.9214,67.884698,71.930029,72.134238,-15.790815,314.00912,-76.237364,300.067544
19,-0.351791,-2.30539,0.168972,-0.05786,-4.892235,-4.469318,-3.693523,-11.033936,-10.22089,15.433331,33.385906,45.891781,-15.388985,14.087162,37.537594,53.002796,-16.714954,6.223125,29.965839,45.158901,-16.225033,-9.241047,5.774689,18.715153,-9.592556,-7.486435,2.692009,13.792016,5.802686,16.016266,24.029617,30.491921,21.693784,30.176068,39.726819,43.5199,33.287362,40.956023,45.07811,46.17455,43.84588,52.626603,52.203922,49.152772,26.025467,51.296825,74.609985,94.351501,52.49136,84.052505,100.762253,112.764473,42.965126,78.883095,98.757591,111.816788,33.070564,66.883049,85.518723,98.268127,23.754101,50.246315,65.310345,77.133293,-14.794781,-15.802486,-8.573612,-4.412499,15.965137,33.637425,41.909881,47.481497,33.570488,49.813193,57.891937,62.124866,45.685672,61.999513,68.119658,69.688119,53.02619,68.169861,71.961028,71.744222,-16.09869,311.721159,-76.024475,300.027113
20,13.724155,-0.30128,-0.236092,-0.826715,5.076828,5.749054,0.663757,-5.304737,-19.144478,3.10627,22.669601,33.379898,-29.163036,-1.629639,18.510361,35.099373,-36.299,-14.031773,6.645241,21.320801,-40.498066,-44.87463,-46.629581,-46.842155,-19.245319,-23.669921,-21.367125,-18.670114,3.056584,23.231061,28.638236,31.046131,21.223678,38.833723,43.015275,44.649685,33.069569,47.183428,48.414361,50.036482,42.372392,53.811717,58.409221,62.404164,26.402779,51.35582,74.375839,93.96183,52.641506,84.288597,101.329422,113.692131,43.431816,79.155922,99.174156,113.036156,33.675041,66.993198,86.001434,99.471359,24.301357,50.701504,66.035557,78.245888,-14.40915,-15.193689,-8.310617,-4.602135,15.985391,32.775019,40.505183,45.675236,32.775019,48.600044,56.407149,60.564742,44.557739,60.809706,67.315544,69.467978,52.095118,67.449543,71.520068,71.500308,-2.337856,311.462054,-76.223888,299.242574
21,-5.685883,6.670094,0.453701,-2.464706,-7.497196,-10.293732,-10.799217,-17.604904,-19.116154,7.196388,27.340393,41.746216,-24.450703,5.274925,29.638939,46.566582,-25.687408,-3.149872,19.372559,35.588722,-23.221664,-21.377735,-13.216839,-4.098473,-8.280545,-6.044624,3.5073,12.667047,2.763393,18.725318,27.639546,33.417038,13.645915,27.294176,36.77941,41.93878,21.780976,33.417903,40.835609,45.110158,29.411412,39.592018,43.036641,45.342154,26.564312,51.359653,74.317875,94.293308,52.090073,83.409863,100.527935,113.039875,42.9459,78.292065,98.633022,112.66119,33.281422,65.991554,85.192051,98.621235,24.085064,49.856358,65.102749,77.194691,-14.110525,-14.189071,-7.489893,-5.10151,17.405589,33.670091,41.241062,46.505409,33.808165,49.620902,57.557559,61.911025,44.981347,61.371326,67.840423,70.0861,51.85213,67.363277,71.553166,71.624488,-7.929926,318.158655,-75.676374,296.804374
22,2.678261,-18.59626,0.33102,-3.702987,6.588707,8.25428,6.10714,0.804691,-19.757595,1.030312,20.940742,32.700233,-29.199772,-3.406277,18.7286,37.624283,-35.377979,-14.080124,7.707024,22.400665,-38.406429,-43.605423,-45.303783,-46.358871,-17.474626,-19.921856,-15.120082,-10.211974,8.019835,31.05033,38.578323,41.31047,26.473266,46.956742,52.740533,53.822338,38.246353,55.202337,58.053909,59.346715,47.120875,59.889069,67.202356,72.921309,26.284618,51.037388,72.877808,91.815605,51.858788,83.077583,99.789848,112.104149,42.272129,77.710304,97.944031,112.109413,32.189198,65.095367,84.322357,97.760811,22.344704,48.334408,63.522491,75.176125,-14.370679,-14.765265,-8.432266,-7.20547,14.937857,33.054996,42.609822,49.821776,32.018824,49.635105,59.267243,65.036398,44.081458,61.168785,68.910743,72.603911,51.758701,66.833027,71.63548,72.056926,-4.97941,299.58904,-75.073099,293.128032
23,2.473068,-4.136969,0.937443,-8.981412,-16.397495,-24.375973,-25.890026,-32.468319,-35.78413,-20.031509,-0.920448,15.828781,-31.227951,-7.087383,16.560287,33.952332,-23.810463,1.226807,23.531685,38.489571,-15.286789,-1.921291,12.273445,23.940125,14.943106,30.536628,43.165884,55.750557,28.630332,46.977243,57.711688,63.174068,24.762286,46.120889,59.976261,65.826804,19.265017,38.117788,47.965003,51.973902,14.309855,31.007105,37.333064,39.884159,26.620216,51.171513,72.199574,90.293941,51.844883,79.915409,95.161228,106.850796,42.398758,73.674831,92.432613,106.847706,32.109718,60.515556,78.449535,92.062283,21.429749,43.539963,57.006054,68.130054,-17.587876,-17.261031,-10.772545,-10.403462,12.988211,32.676095,44.085533,53.220704,30.365395,50.908954,63.18685,71.931943,43.236033,62.500062,73.338618,80.15611,52.045779,69.608708,77.269773,80.080837,-2.155724,295.467925,-73.785038,284.162475
24,64.096642,-22.215946,1.499863,-16.007745,-20.556908,-46.791,-71.217155,-89.899292,-56.544914,-97.893162,-98.006172,-87.972221,-56.246223,-99.933586,-92.54797,-78.212414,-55.052376,-93.726311,-85.37035,-71.630058,-52.74147,-83.064709,-75.803776,-64.53495,35.270353,59.681217,73.628721,81.029199,76.31153,66.864149,56.08018,54.043343,63.926064,42.5519,31.559586,29.853731,44.626096,23.615581,15.36622,16.192811,22.30042,8.040089,5.516226,9.234836,24.227486,46.878777,65.165977,80.755634,46.523609,72.549534,86.445065,95.980167,37.222996,65.036316,80.833569,92.204647,26.83136,51.265812,65.704308,75.859165,15.885487,37.122803,50.07082,61.288204,-17.909348,-18.555073,-14.607863,-13.371187,10.952177,30.044169,41.570316,50.893084,26.99586,51.606487,67.291894,80.85,39.114872,63.54704,78.202636,90.172212,48.653705,69.354666,79.735837,86.644103,62.272396,273.518757,-71.953697,268.421507
25,-6.479759,-13.945651,2.061653,-19.717709,-33.343391,-57.383537,-70.85392,-72.590961,-54.346046,-71.819687,-75.40432,-74.825764,-40.633392,-59.761047,-69.023838,-70.839958,-25.984039,-40.726891,-50.970383,-56.846581,-12.162781,-18.786621,-24.573326,-28.259354,-4.889706,4.756325,18.719082,28.030056,23.988368,48.26758,53.602569,54.948975,36.668877,69.69769,81.972684,87.253764,44.810668,74.459079,85.224584,90.812626,48.718358,73.227035,84.494941,91.919379,24.266052,44.296246,60.036621,74.198399,41.144257,68.36237,73.452244,71.189518,29.343338,57.130566,65.504265,64.367867,16.982975,40.971508,51.525822,53.040333,6.423969,24.579277,34.952316,40.380363,-15.703624,-13.201559,-7.427772,-6.945069,3.7853,28.073158,38.36022,42.332748,19.924203,54.345797,70.660811,78.755858,32.433539,65.168112,77.219508,83.904669,42.751292,68.515602,77.24427,81.126271,56.211205,259.613722,-69.473476,248.744414
26,32.450523,-55.005044,8.357792,-0.584282,-35.22377,-58.642044,-76.597824,-91.94315,-60.1791,-79.721031,-87.919235,-93.982315,-45.072556,-64.103394,-74.002991,-80.956078,-28.273659,-44.956627,-54.983826,-62.278061,-12.091713,-23.058357,-30.203133,-36.641235,3.652166,20.896092,39.038487,48.822901,39.906821,75.967889,93.06806,103.568779,48.79604,88.27666,107.306593,118.335093,55.032832,90.892531,107.995172,117.135468,58.077374,86.563704,99.454287,108.195984,23.095551,38.139782,46.895428,50.572529,28.221359,42.109909,48.893108,50.784817,16.406021,30.216923,35.171413,31.937943,3.916454,13.756599,19.803028,20.906467,-7.784729,-5.533962,-1.883011,-1.542778,-3.77048,-5.189443,-4.349205,-3.408376,-2.894242,5.446016,11.847866,15.63539,6.042093,19.403832,23.898521,24.306074,14.413102,29.906713,31.967324,30.999695,23.027408,35.819808,34.756405,30.946404,88.92849,204.814446,-60.848923,248.3659
27,20.010452,-43.570164,-55.535717,-87.04548,-31.799126,-59.679451,-79.978638,-95.757523,-58.748703,-75.595093,-80.748138,-82.414169,-42.942924,-60.960617,-66.590538,-67.660446,-25.351868,-40.602951,-47.357597,-51.457787,-7.553444,-14.581718,-19.633713,-24.498253,3.975924,19.823364,34.73473,45.177404,34.468401,70.19015,86.637372,95.066056,40.836721,78.96229,94.472017,100.32645,45.123743,79.82272,93.513404,98.179697,46.521525,73.627054,84.81592,88.483833,35.480232,66.935749,91.184692,105.197468,60.05167,77.036819,70.958805,67.38596,44.575195,60.69912,56.04847,51.734219,28.360748,44.686375,40.254936,35.783844,12.975769,24.937763,23.003941,18.825245,-6.806686,-2.460322,-0.167591,-7.186698,6.201038,32.053404,28.27749,20.895228,16.533426,43.565965,39.894595,32.904325,26.285236,49.782441,48.040153,41.683813,35.462891,54.87827,55.650521,52.331683,108.906784,162.825987,-116.416798,162.902125
28,18.593788,-36.766751,-2.758112,-23.78013,-34.799309,-60.930176,-79.301033,-94.794273,-54.548149,-66.881332,-71.75148,-73.16185,-38.697395,-49.532204,-54.897995,-57.655106,-20.493279,-31.603661,-38.38932,-42.455521,-1.830482,-6.408577,-11.145744,-15.277519,-1.327047,10.645771,20.144343,20.459517,10.154608,33.874609,45.263175,51.397955,13.286589,41.448606,52.956721,58.445098,15.573948,41.506589,52.717994,57.956034,18.036431,38.853915,48.333591,53.389591,33.141575,61.44928,82.217502,96.446714,46.805734,52.181539,50.781812,50.613355,29.869108,36.323747,35.199709,33.2864,13.497362,20.435056,19.740343,18.596134,-0.120421,3.742904,3.710918,2.427892,-5.827819,-8.975268,-13.115633,-20.52752,-19.928726,-12.522165,-9.410006,-9.697316,-14.500911,-5.510406,-2.49572,-2.70033,-7.211769,2.000266,4.596083,2.969052,1.392009,8.931116,12.434819,13.393278,127.494993,129.857134,-119.180488,142.919893
29,14.519119,-23.790025,-2.758112,-23.78013,-32.853699,-59.01123,-77.193489,-90.35614,-66.592941,-81.37928,-82.570953,-80.161514,-56.695518,-72.782249,-71.4711,-68.256798,-45.989571,-58.210487,-54.361038,-50.520287,-34.48082,-43.516502,-41.923141,-39.059372,-1.654232,-2.432163,-6.51331,-11.761601,5.0807,1.964435,-3.068501,-6.194925,-0.15734,-0.732669,-3.927944,-5.500233,-5.505914,-7.243663,-8.07365,-8.145497,-11.118625,-11.416262,-9.868889,-7.907326,30.802917,55.962811,73.250313,87.695961,33.559799,27.32626,30.60482,33.840752,15.163021,11.948376,14.350948,14.838581,-1.366024,-3.816261,-0.77425,1.408424,-13.21661,-17.451954,-15.582104,-13.96946,-4.848951,-15.490214,-26.063676,-33.868341,-46.05849,-57.097735,-47.097502,-40.289859,-45.535248,-54.586778,-44.886035,-38.304985,-40.708774,-45.78191,-38.847987,-35.745708,-32.678874,-37.016037,-30.780882,-25.545127,142.321758,108.886354,-121.630955,121.959009
30,-10.802193,-26.911632,0.530148,-30.203609,-28.930664,-50.446014,-65.419006,-72.2715,-30.302925,-33.270721,-33.029366,-30.562935,-12.323227,-14.374924,-15.850182,-13.567543,4.199295,3.14621,1.264114,1.846962,18.827705,22.375603,22.628746,23.632851,-4.726407,-16.271357,-28.428902,-38.545657,-30.99213,-46.371781,-41.111232,-35.491018,-32.857796,-52.302969,-48.472005,-42.865901,-31.431021,-51.495212,-48.849701,-44.379218,-28.023171,-44.618903,-45.84329,-42.710259,23.892517,43.835335,58.0616,71.662903,23.792267,21.195087,20.546837,21.202755,6.984901,2.768383,1.367283,0.5896,-8.195572,-13.185825,-15.824718,-17.729416,-21.310844,-29.24017,-34.279404,-37.694492,-3.484082,-16.340579,-27.847799,-38.668602,-33.423028,-54.884692,-63.674524,-70.271228,-31.367357,-54.823035,-67.397209,-77.404172,-25.85604,-45.580974,-59.04278,-70.780391,-17.31673,-32.192188,-41.873325,-50.456293,132.7143,85.396945,-119.906073,95.177624
31,7.253151,-27.086911,-10.114689,-18.693363,-29.677162,-49.782028,-60.509491,-69.389877,-31.133423,-27.724228,-26.278152,-24.988632,-11.392593,-9.547348,-11.576958,-11.709137,6.058846,7.141228,3.403015,1.955795,21.071091,22.346306,18.751259,16.292725,-8.224537,-23.736519,-39.689089,-54.330235,-39.820525,-69.118749,-76.194945,-74.325544,-42.104364,-75.225371,-84.031319,-82.683092,-42.423243,-74.446945,-81.741892,-80.587375,-40.670272,-67.512312,-74.025869,-72.879534,26.732082,45.973492,59.161949,71.746273,25.273418,20.635071,18.388195,17.819424,8.112774,2.990513,1.417408,-0.195808,-7.504978,-12.280655,-14.528103,-17.338829,-21.281033,-27.77504,-31.333179,-34.606819,-6.566848,-22.034739,-34.681872,-47.359849,-43.248877,-73.844601,-85.508265,-91.184209,-41.985309,-74.219765,-88.62731,-97.428102,-36.839277,-65.337246,-80.036932,-90.277991,-29.278464,-50.924206,-61.344743,-70.02577,141.356535,60.51667,-128.631678,78.690897
32,4.271164,-12.226674,-6.602097,-13.5565,-29.223862,-48.252754,-60.517502,-72.845078,-29.198341,-30.006638,-28.19458,-24.868698,-12.848282,-12.730637,-10.728607,-8.057556,1.58329,3.0019,5.132217,7.118454,15.370445,19.661293,22.774658,25.85392,-14.871475,-33.750799,-48.446965,-62.116314,-46.336861,-62.442449,-74.335455,-86.19493,-46.016592,-64.249513,-78.876456,-93.996261,-42.863307,-61.32665,-76.550411,-91.393759,-37.468915,-53.357049,-64.606523,-76.517869,27.914944,48.750229,62.46357,75.308304,25.654907,24.609547,20.938625,16.653728,9.177589,6.954231,4.190655,0.745525,-5.354176,-9.04747,-11.306591,-14.069767,-17.886944,-26.040916,-30.264072,-33.877716,-7.95265,-23.545864,-35.604794,-49.330613,-44.519639,-65.141837,-79.589303,-93.139196,-44.877915,-66.702425,-82.834843,-98.917275,-40.64585,-60.582125,-75.699521,-90.050132,-31.932898,-48.236489,-59.695605,-70.219327,145.742426,49.46279,-135.119047,66.307191
33,-5.756607,-20.141101,-2.270222,-5.439872,-26.502342,-45.161362,-54.204369,-62.386093,-23.480301,-19.552345,-15.618896,-12.672958,-5.880432,-2.551575,0.653801,3.128128,9.109154,11.706161,13.198242,13.978958,22.768021,28.170662,30.944595,32.047691,-6.889617,-26.917375,-46.19644,-60.84969,-47.18596,-71.305949,-82.861211,-92.37698,-46.907929,-74.258421,-88.38108,-100.532048,-42.508335,-68.760936,-82.793162,-95.586488,-34.828591,-56.066626,-67.279513,-79.094281,27.391777,47.758541,60.986309,74.712639,23.796329,22.835999,18.966694,14.643574,7.302132,4.422569,1.254158,-2.108231,-6.911545,-11.782494,-14.096146,-16.403904,-19.16399,-27.712154,-31.644917,-34.396305,-9.96451,-27.715468,-41.665782,-55.168652,-50.592915,-71.527355,-86.026382,-100.008713,-51.062064,-74.071225,-90.51431,-106.907408,-46.76087,-67.612471,-83.248664,-98.050114,-37.910924,-54.292629,-65.384609,-76.10445,140.18117,28.611853,-137.193918,60.157483
34,-4.322777,2.593332,1.757298,-2.661227,-24.518738,-40.530396,-47.605934,-58.23349,-17.48497,-15.032616,-11.613922,-7.881088,-0.968399,1.508789,4.46022,7.298698,13.628998,15.634804,17.770844,19.388466,27.674675,32.110634,34.602242,36.107597,-10.06646,-29.03032,-46.430505,-61.092924,-48.05346,-69.447076,-81.831615,-94.121398,-47.520925,-70.903768,-84.958224,-99.480686,-43.407452,-66.813483,-80.886402,-94.585761,-36.32752,-55.818112,-66.95063,-78.491381,26.398487,46.191387,58.65881,71.853733,20.403843,17.455044,14.04808,10.887451,2.983589,-0.161133,-2.477932,-5.061836,-11.737518,-16.639652,-18.919716,-20.752487,-24.622078,-32.250538,-35.773945,-38.30452,-10.017028,-26.58948,-41.026974,-53.669074,-48.309539,-72.614563,-86.153032,-98.230641,-48.157016,-75.402347,-91.720357,-106.29049,-43.789378,-68.368883,-84.013288,-97.649014,-35.660153,-55.510996,-67.035043,-77.400498,136.696959,30.616981,-134.598055,56.908053
35,-0.043144,8.074268,3.186378,10.054696,-26.760979,-44.081039,-51.082077,-59.539032,-20.450478,-16.762161,-13.628082,-10.157433,-4.073753,-0.480309,2.593346,6.927452,10.607414,13.923798,16.326141,19.413643,24.538879,30.070381,32.942963,35.457687,-4.499629,-23.10228,-40.589287,-56.775521,-42.19137,-63.796481,-75.173223,-84.809498,-40.958863,-64.077754,-76.886055,-88.581738,-36.235173,-58.476066,-71.332841,-83.67681,-28.723606,-48.235038,-58.027233,-67.623494,24.071159,43.522282,56.236382,69.167633,17.010841,10.858383,7.842121,6.045113,-0.25732,-6.614914,-8.586559,-11.058426,-15.352306,-21.767006,-23.77573,-26.381035,-29.046879,-36.492805,-39.338779,-42.10762,-6.954331,-24.086304,-37.997931,-51.690838,-47.944502,-74.082124,-87.880963,-100.274024,-45.388189,-73.830305,-90.288118,-103.763108,-39.878076,-65.559455,-82.392741,-95.971811,-31.456833,-53.147746,-65.069713,-75.318336,136.77,40.940322,-131.29549,69.211822
36,0.565567,15.570922,-3.46756,17.154234,-30.796394,-45.26516,-53.962784,-62.612686,-20.770226,-16.883812,-16.744537,-15.021172,-1.058807,3.679848,0.634232,0.958557,14.533081,20.044327,14.594765,13.337173,26.972351,29.706688,25.166473,22.741241,-4.514387,-13.908848,-26.189616,-38.810875,-33.463413,-59.593377,-64.73765,-64.770038,-33.723413,-65.431539,-72.648588,-70.686808,-31.025568,-60.647364,-68.051424,-67.510274,-26.948312,-51.470265,-57.562684,-55.830956,28.247795,45.947742,58.679352,71.895504,17.091293,10.510883,9.540825,10.523472,-0.933208,-10.761395,-11.197014,-10.633965,-15.330162,-24.811249,-25.460243,-25.257854,-25.857525,-36.566105,-39.974327,-40.318451,-5.330388,-16.601691,-28.593312,-40.542387,-45.308871,-77.385061,-86.810952,-89.299062,-43.138251,-77.498249,-88.818983,-91.998913,-37.372831,-67.383315,-79.682917,-85.593512,-29.498975,-51.432103,-60.927711,-67.190778,136.922865,58.225745,-135.175753,88.080556
37,5.291634,64.73024,1.382389,3.405967,-32.578926,-55.54985,-67.384872,-68.175087,-29.228325,-26.448784,-30.671768,-31.678391,-8.201981,-7.673149,-13.611374,-13.801003,8.818359,8.656425,2.292709,1.928444,21.920242,20.214958,14.919777,13.642273,-8.740215,-24.680991,-40.030569,-53.004331,-32.770048,-63.081195,-57.058338,-46.74466,-35.961711,-70.590447,-62.027054,-49.239408,-37.062289,-70.416743,-61.675756,-49.368683,-36.58221,-62.850681,-56.743349,-46.047066,22.112904,39.33157,55.027428,69.569206,12.800789,8.798904,10.708523,13.909779,-7.025528,-14.463673,-10.729065,-5.451736,-22.077484,-28.926258,-24.646969,-20.002613,-30.329418,-38.841934,-38.531113,-35.612755,-1.803544,-3.285091,-2.911563,-2.267877,-33.139285,-52.580939,-45.865921,-43.014689,-30.956161,-52.260362,-44.424636,-38.865956,-25.909547,-44.317036,-37.50544,-33.736226,-19.807927,-29.219492,-25.381828,-22.976773,141.024113,123.247447,-134.983749,91.777986
38,-0.860939,18.170491,-20.467072,57.404078,-29.900551,-48.56575,-59.632301,-68.644638,-29.430084,-27.098351,-25.383797,-25.541039,-12.745171,-3.467445,1.047707,2.505341,1.823044,9.991608,12.747231,14.399986,13.756828,21.850433,25.175743,28.305931,3.31717,4.834316,-1.165076,-9.219275,4.549647,10.99781,11.652426,12.143589,-2.072004,4.536124,4.440966,5.471334,-7.680084,-1.442057,-1.647563,-1.974099,-13.796215,-8.076707,-7.065359,-5.44688,33.586292,57.717361,75.276089,90.598183,28.083401,23.818474,29.103527,32.539558,7.144203,4.259205,9.788589,11.727219,-8.785686,-10.138893,-5.989323,-5.072308,-18.605404,-21.870117,-19.589767,-19.223728,-0.148386,-1.878324,-4.883902,-12.577941,-16.535803,-23.70092,-20.396038,-17.154604,-20.0624,-31.631155,-30.878448,-29.048197,-20.289796,-31.895446,-28.623724,-25.584369,-16.930388,-25.937118,-24.187544,-19.909321,138.895454,141.883983,-156.71854,149.64811
39,16.051025,4.014209,1.771774,15.228146,-29.416809,-55.519066,-72.530365,-85.681229,-41.514359,-41.989975,-39.421349,-38.599777,-24.09874,-17.231026,-16.882782,-18.176651,-7.10598,1.062126,1.183548,0.498161,7.350655,13.679695,14.700508,16.544037,10.886659,15.990763,15.899311,10.776003,-1.471759,8.936643,17.852723,22.489994,-8.152104,10.557159,21.519525,25.294389,-11.961209,6.495896,17.368291,20.548932,-13.899153,0.886736,9.766013,13.038352,29.974251,56.03508,73.310909,87.210674,31.090279,21.354847,20.465984,21.886711,9.541512,0.261154,3.201771,6.835213,-8.265438,-16.590958,-15.402603,-12.68961,-21.973629,-30.769501,-30.601215,-27.88908,-3.180702,-7.930729,-8.821602,-13.837094,-21.152789,-22.283624,-20.959634,-20.473226,-21.085234,-22.455753,-20.928944,-18.448306,-17.90589,-19.038393,-17.782451,-17.063738,-11.65891,-16.242149,-18.445404,-18.180309,153.096714,146.274577,-156.796532,165.252639
40,-0.92308,7.752764,-9.132557,-0.055575,-33.640823,-56.31649,-70.594711,-82.897568,-40.788574,-42.645607,-41.853561,-41.339722,-25.522385,-23.379707,-21.641808,-21.987419,-10.691757,-8.316536,-7.43969,-7.763557,3.51757,5.908585,5.021324,4.677086,0.076262,-1.750315,-3.798083,-8.876066,-15.624552,-13.38153,-7.855023,-4.203289,-19.650803,-11.629424,-5.542038,-2.396533,-21.281785,-13.41503,-6.896595,-3.206267,-21.695421,-16.111763,-9.59268,-4.581448,34.65168,61.230125,80.587292,94.298515,32.875786,27.848454,32.811127,38.183842,11.00029,5.74688,9.237213,11.585255,-6.631107,-11.604424,-8.52293,-6.680889,-19.903679,-25.38414,-24.94915,-24.087296,-9.593359,-18.029206,-21.615083,-30.080663,-25.016142,-36.016916,-40.429755,-40.510617,-23.021727,-38.643531,-45.911462,-46.546534,-17.463387,-31.977173,-35.443224,-34.189937,-9.550319,-17.967023,-19.516341,-16.914796,151.315842,153.965976,-166.78688,165.1357
41,-11.5868,-10.814226,16.777897,-41.414705,-21.331787,-38.462448,-49.514923,-59.137459,-34.092636,-36.72226,-33.192673,-30.431213,-22.639847,-23.090057,-18.848648,-15.061913,-10.437126,-11.216354,-6.675911,-2.519646,1.579971,1.181717,3.59333,5.85743,-2.532446,-6.974153,-11.77074,-17.208512,-9.449419,-3.814724,-1.493341,-2.14487,-11.526239,-4.466253,-1.78363,-2.071973,-12.837633,-7.759526,-6.603002,-7.77836,-15.013903,-14.092895,-12.163226,-10.514366,28.074932,49.092293,63.387508,76.835232,22.313805,12.832088,13.449669,14.249439,3.783989,-5.066414,-6.497326,-7.94363,-10.635395,-19.368496,-21.849918,-23.6903,-20.925694,-29.709949,-34.494324,-37.317295,-1.107926,-7.754802,-14.378954,-21.879005,-22.583206,-35.095939,-39.779492,-43.989048,-21.025645,-37.586241,-45.915136,-52.528914,-17.040891,-30.558056,-38.79837,-46.492564,-11.748633,-22.775157,-29.01976,-34.382969,139.530888,143.122342,-150.207138,123.691586
42,-1.782646,-34.387971,1.287003,-16.54204,-29.778786,-49.637146,-63.551903,-71.534843,-30.766182,-29.786682,-30.369301,-28.339691,-13.222046,-5.865211,-6.637688,-4.666214,3.119202,13.48114,12.233391,11.583138,16.354179,28.164139,28.957329,27.915459,-2.681265,-9.905538,-19.500965,-29.11674,-20.776266,-27.513328,-24.993541,-24.174329,-21.597052,-31.193807,-32.187217,-33.374739,-19.441037,-29.697904,-31.313418,-32.675694,-16.590082,-24.83018,-24.85133,-23.258879,29.551678,50.580196,63.879318,76.257133,22.066498,12.639999,12.082615,11.074505,3.96183,-5.142632,-8.389206,-11.393623,-10.59597,-19.035416,-22.680359,-25.390205,-21.875381,-30.966225,-36.173286,-39.195728,-4.395271,-14.42326,-23.376514,-32.350145,-33.113226,-47.892323,-54.303467,-59.360887,-31.828818,-48.658645,-59.774708,-68.075167,-26.695815,-41.91902,-52.778633,-61.726237,-18.873643,-31.668853,-38.364049,-43.912231,137.542877,110.181013,-149.1255,108.596189
43,7.107582,-9.734922,0.921822,-4.073706,-29.272957,-49.305153,-63.274612,-75.00515,-33.138199,-30.480652,-29.486275,-25.962868,-15.809555,-12.876205,-9.412193,-5.323677,-0.062714,3.839836,7.440948,11.603165,14.196968,19.420853,23.936119,29.241943,-7.685611,-17.5277,-26.096372,-38.104543,-23.253414,-31.675831,-42.030758,-53.261892,-20.141317,-28.849515,-43.443761,-59.629409,-15.549803,-26.221633,-41.689432,-56.880898,-11.056597,-22.61087,-32.486305,-42.128323,28.211861,48.306828,62.478561,75.043201,23.465939,17.381916,11.81551,6.220551,6.044369,-0.029926,-4.964104,-10.732384,-8.006001,-14.242687,-18.455029,-23.494892,-19.473324,-28.497391,-34.096355,-39.661274,-7.932921,-23.219699,-33.722734,-46.436402,-36.868979,-52.575721,-66.174613,-80.378721,-35.763739,-51.735977,-66.992868,-85.047484,-32.228868,-47.278802,-60.926229,-76.004537,-26.078681,-40.659868,-50.022866,-58.692377,143.605328,100.377147,-149.24881,104.453539
44,-1.622429,-9.766445,5.916424,-22.196587,-29.050713,-48.152618,-60.837135,-72.445107,-30.387611,-25.92556,-20.224915,-13.961105,-12.411118,-6.55323,0.257149,5.738983,2.428207,8.052177,12.101326,15.116959,14.425049,20.780411,24.496307,27.16404,-7.091109,-17.368014,-26.816876,-38.036772,-24.775809,-37.3188,-49.90446,-61.715461,-22.610901,-34.906427,-49.816157,-64.667069,-17.848957,-29.727605,-42.802946,-54.187746,-12.093293,-23.368517,-31.969115,-40.213505,25.324802,43.592834,55.261917,67.416687,17.462425,10.893917,7.379494,4.872952,0.504627,-8.104248,-11.729851,-15.952206,-13.696804,-21.746578,-26.53038,-32.168827,-25.380535,-34.078331,-39.468155,-45.144196,-3.220099,-16.019199,-26.022581,-36.82282,-30.872798,-50.821731,-60.885103,-71.302151,-28.387622,-50.376449,-64.764789,-77.264709,-23.547902,-42.868001,-57.483026,-69.515156,-15.993233,-33.540261,-43.031176,-51.101368,141.723003,90.54994,-143.592281,82.19619
45,-2.705498,-1.912997,-2.204189,3.683906,-26.145401,-44.63356,-56.645164,-66.99543,-26.265907,-23.739052,-20.305023,-16.374664,-9.454422,-4.391212,0.922394,4.71405,5.39463,10.206871,15.032272,17.936325,18.424759,24.197731,28.866463,31.952019,-6.648049,-19.229418,-30.297407,-40.947624,-27.643251,-39.266994,-48.302778,-58.737455,-26.042742,-38.35914,-51.205078,-65.847922,-20.893993,-34.179069,-47.787069,-62.119155,-14.64022,-27.043624,-36.398379,-46.804466,26.194382,45.347557,57.876148,70.72855,19.254913,12.261658,8.123875,4.754505,1.977482,-5.52206,-9.925289,-14.533882,-12.414608,-19.178066,-23.496437,-28.099251,-24.460087,-32.708588,-37.268028,-41.904602,-5.805681,-19.52863,-30.253904,-40.763824,-33.630602,-52.545926,-63.098053,-73.899281,-31.63699,-51.772842,-65.43614,-79.029598,-27.066842,-45.43302,-59.221486,-72.456112,-19.593498,-36.284882,-45.412364,-54.146127,138.928356,88.596064,-145.88562,85.839217
46,-2.138329,10.261714,-0.417709,13.974767,-25.391579,-43.346214,-55.113029,-64.954948,-23.677826,-20.502548,-17.658119,-13.902855,-6.784286,-1.094513,2.600212,5.563431,7.669716,12.676163,17.766266,20.879517,19.987564,25.842133,30.877762,34.364662,-5.915288,-19.166371,-31.10924,-43.112378,-29.242957,-40.96158,-48.457864,-54.439904,-26.503555,-39.522919,-52.49983,-64.061174,-21.680354,-34.4345,-48.34906,-61.010796,-16.266911,-27.928168,-37.158372,-46.23065,26.813393,45.70919,58.01445,70.237141,18.40765,10.48914,6.935692,4.72578,1.633644,-7.747707,-10.915146,-14.568615,-12.220402,-20.583916,-24.725933,-30.073986,-23.893147,-32.808495,-37.504921,-42.858353,-6.083373,-20.69068,-32.186569,-43.675295,-35.009828,-56.72541,-67.191642,-76.468654,-32.948136,-55.963874,-69.753636,-81.773817,-28.298207,-48.788846,-64.391786,-77.764671,-21.116171,-38.180743,-48.577783,-57.653118,136.275358,98.859229,-146.817999,99.815435
47,0.618439,16.587272,-6.161785,17.673153,-25.74955,-43.589745,-56.099968,-65.511475,-18.779984,-16.418953,-17.885056,-17.830238,-1.465302,3.48587,1.149902,0.76561,12.982178,17.944107,15.701294,14.728088,24.474792,31.505241,31.444931,30.844002,-3.626972,-12.347365,-22.46974,-33.281156,-33.748267,-48.886782,-43.235724,-36.415607,-32.317232,-50.948752,-47.557172,-40.652612,-27.290656,-45.31554,-44.563327,-40.28143,-20.402799,-33.821874,-34.272528,-30.368976,29.072056,48.065872,61.355095,76.098804,18.565922,10.78989,11.941166,14.431,-1.909904,-9.690056,-7.617931,-4.861336,-17.319889,-24.578648,-23.69545,-22.086639,-28.012161,-34.635201,-35.73761,-34.900017,-6.743052,-19.015885,-28.662627,-38.144125,-38.385785,-66.635302,-67.551184,-62.47317,-38.311654,-70.072083,-74.884817,-71.954976,-36.065266,-63.603017,-67.285935,-65.091665,-30.945972,-51.370507,-54.261476,-53.160837,136.681824,115.550705,-153.191757,117.592792
48,4.382401,19.666765,-12.822132,13.951734,-29.244919,-48.173733,-60.988484,-69.965229,-30.533352,-28.978043,-29.5784,-29.925614,-12.752209,-7.05534,-7.789765,-7.971497,3.064613,10.011005,8.668384,7.38121,16.350975,24.44767,25.06691,24.693146,-1.780789,-5.54812,-11.709885,-21.206774,-22.57504,-28.18136,-23.821426,-20.25202,-24.055676,-30.600417,-26.250857,-22.129912,-22.635107,-29.214845,-25.91796,-22.757142,-20.009341,-25.806393,-23.192976,-19.277923,32.054558,54.847126,74.310493,88.45705,21.402512,24.623337,25.201263,25.507793,0.466805,1.486301,2.740974,5.23653,-15.371761,-15.818768,-14.505558,-11.958733,-24.86618,-28.572807,-29.567585,-27.869225,-1.561514,-6.852999,-12.554353,-19.233154,-42.279704,-54.120624,-45.802936,-38.880931,-42.382364,-59.910497,-51.845893,-42.354978,-38.167003,-54.421039,-46.557958,-38.023897,-31.000961,-43.210808,-38.948517,-32.214449,140.818291,134.973356,-166.259823,131.30041
49,4.3824,19.666765,-13.410931,35.504233,-32.740288,-52.757721,-65.876999,-74.418983,-42.28672,-41.537132,-41.271744,-42.020988,-24.039116,-17.59655,-16.729431,-16.708603,-6.852951,2.077904,1.635475,0.034332,8.227158,17.390099,18.688889,18.54229,0.065394,1.251125,-0.95003,-9.132392,-11.401812,-7.475937,-4.407127,-4.088433,-15.794119,-10.252081,-4.944541,-3.607212,-17.979559,-13.114151,-7.272593,-5.232853,-19.615883,-17.790911,-12.113424,-8.18687,26.069813,52.57988,74.164925,94.185505,28.601532,26.099682,28.801517,31.677761,10.432606,6.980724,11.012764,15.281868,-4.987392,-7.500286,-4.004803,-0.428925,-18.487473,-21.901588,-20.060177,-17.559128,-9.690986,-23.313096,-28.597295,-34.387045,-29.44908,-38.722541,-35.709368,-32.308587,-29.713526,-48.827718,-44.645301,-39.044106,-28.481019,-47.641585,-42.440966,-37.775043,-24.211843,-39.869956,-39.477409,-36.863329,143.927879,154.699401,-180.943565,166.863924
50,-3.842125,7.104508,3.885956,4.375078,-24.811707,-45.870209,-61.079979,-72.634277,-36.696625,-39.231262,-35.990639,-33.680992,-22.059746,-19.801941,-17.400055,-17.294426,-6.391068,-1.887131,-0.508118,-1.563377,7.543831,12.968903,14.338303,13.496017,2.375415,-0.042361,-4.842961,-10.044693,-15.213387,-12.413932,-6.358069,-2.0708,-20.293686,-11.855523,-4.664935,-0.4078,-21.868847,-13.56848,-5.049887,-0.153759,-21.25656,-15.850528,-8.352299,-3.58739,26.907063,55.268898,74.949932,92.239838,30.135155,26.179504,25.970535,25.763512,7.551556,0.778198,2.730789,5.250435,-11.086578,-17.353878,-15.211601,-13.30925,-26.091785,-31.245689,-30.593491,-29.731579,-5.72556,-16.035841,-19.162758,-24.478604,-22.077934,-31.285846,-33.878684,-34.188486,-21.785978,-34.927484,-36.959659,-35.521369,-18.561742,-31.00235,-32.487756,-31.421388,-12.862364,-21.684645,-25.599868,-26.444182,139.446774,161.556121,-177.69659,170.991213
51,4.206734,3.280491,-19.463081,13.26757,-31.608238,-50.756721,-63.103867,-73.188972,-34.992599,-34.20536,-37.769966,-41.517448,-15.800171,-8.226357,-12.642059,-16.815262,1.846962,13.321037,7.506409,1.937828,18.123779,31.085701,28.029785,23.953972,-3.359963,-5.555623,-8.07152,-15.81002,-17.359585,-15.41599,-13.963003,-15.056973,-17.055464,-12.053372,-8.708599,-8.919785,-14.536541,-11.683301,-9.878152,-10.220496,-12.311488,-10.751673,-7.783145,-5.073476,23.128395,42.115345,52.231693,56.568203,42.568016,50.989037,48.772202,46.551533,25.681801,29.923496,26.412563,25.140209,8.883133,11.838799,10.742569,12.52327,-6.836014,-6.048603,-4.739914,-1.756897,-13.262445,-32.298553,-45.870491,-54.301645,-29.67132,-44.446372,-50.167702,-51.602596,-31.381868,-48.869029,-54.756993,-53.2643,-31.459056,-49.178213,-53.613313,-51.21113,-30.351562,-46.219566,-49.32061,-48.235501,142.910357,164.510739,-197.902822,183.932911
52,-1.869164,-4.6771,4.154377,4.294556,-27.259941,-45.979042,-59.650154,-71.305504,-31.632156,-35.358124,-35.151443,-33.946609,-15.30304,-15.459366,-14.698219,-14.059982,0.46978,3.993874,4.519272,3.786964,14.422073,21.055069,20.72216,19.175262,-2.660393,-5.758596,-8.65889,-14.552226,-16.018705,-12.854151,-10.311887,-9.985227,-17.736633,-11.262843,-9.96207,-9.696791,-16.49724,-11.220853,-9.935888,-10.026167,-14.374384,-13.06509,-11.613153,-10.439957,20.569096,31.815147,29.903469,23.271217,38.717136,46.639767,43.991833,38.831978,24.727077,23.523159,17.554379,12.906933,8.652992,4.886284,2.900047,3.228378,-6.712532,-8.502274,-8.531685,-6.837902,-15.049502,-38.278092,-55.399938,-65.879693,-34.810374,-48.173503,-58.499994,-63.972809,-35.443625,-55.33544,-65.376057,-66.662997,-35.841915,-56.112846,-60.150737,-56.922363,-35.012731,-51.181798,-51.068208,-46.963627,140.753889,159.895328,-194.035749,188.289156
53,-6.297455,-6.733944,-1.908474,-0.500178,-23.401794,-40.613823,-52.296867,-63.21888,-26.462517,-28.749504,-27.470055,-24.771996,-10.054779,-7.339096,-3.412399,0.050354,5.438232,11.82827,15.267563,17.40818,18.70388,28.288536,31.993103,33.916283,-1.917906,-3.702369,-7.299516,-13.64752,-11.140114,-9.375318,-9.20041,-10.400344,-12.678965,-7.563808,-9.348179,-12.061399,-11.65786,-7.453398,-8.784428,-11.367355,-10.7819,-9.289238,-9.673974,-11.482674,21.527195,33.362103,31.721935,23.784714,36.110687,43.498192,39.537106,33.224316,22.092934,22.823467,19.180412,15.620956,6.751785,4.571857,5.366478,7.05946,-7.35323,-8.070488,-5.460205,-2.409267,-12.364902,-32.601871,-48.40445,-58.518859,-35.343281,-49.727452,-62.652092,-71.738294,-37.436187,-55.30898,-66.27752,-70.912351,-37.522823,-54.310877,-57.481112,-55.616867,-35.653823,-47.462941,-46.22043,-42.646872,134.363623,153.293267,-196.037035,187.920861
54,-1.234131,-2.036035,-1.360016,-1.185114,-23.358994,-40.107994,-50.64743,-61.504898,-24.751053,-23.742027,-21.85318,-18.535538,-7.913589,-2.760086,1.3908,5.256271,7.677612,16.782875,20.463867,22.67498,20.93708,32.857132,37.048874,38.832436,-2.614759,-4.743358,-8.020761,-13.447418,-11.803159,-11.443463,-12.045468,-14.192035,-11.231319,-7.661868,-9.323942,-12.455552,-8.216016,-4.866241,-6.335654,-9.463004,-5.54352,-3.342118,-3.235536,-4.685621,21.172943,32.054901,29.823017,22.599049,34.347897,40.789204,39.617386,36.895924,21.083336,23.531399,22.0681,20.914478,6.288528,6.591454,8.714905,11.082001,-7.941055,-6.917782,-3.272896,0.37468,-13.361554,-33.581294,-49.614202,-61.407574,-34.00305,-49.042054,-60.32231,-69.490579,-36.002713,-52.864435,-64.219749,-71.598059,-35.482404,-52.141986,-57.23658,-57.841796,-32.872523,-45.287474,-45.396124,-42.750026,133.06406,151.235636,-197.462482,186.71415
55,1.915627,1.77094,1.515369,0.389275,-24.30645,-41.410675,-51.997604,-63.618622,-25.032692,-23.338737,-21.458244,-17.730789,-6.917152,-0.599785,4.684639,9.543228,9.544716,19.579124,23.604584,25.653648,22.347221,35.652466,39.379807,39.756088,-3.315565,-7.338048,-10.906852,-17.1132,-13.576754,-17.463325,-19.696467,-22.324935,-10.959216,-12.911672,-16.058503,-19.934453,-5.652015,-5.768662,-9.267317,-13.949233,-0.65863,1.31516,1.55469,-0.566251,21.168079,32.374592,30.839767,24.163055,34.052925,39.587059,39.340668,37.869473,19.702892,19.752159,17.992573,16.4114,3.782215,2.55764,4.826603,6.934261,-11.048298,-10.356274,-6.892376,-3.936138,-13.007354,-33.702263,-50.553148,-62.679447,-34.60172,-49.83601,-62.051198,-72.126982,-37.551908,-53.887547,-64.491204,-70.05294,-37.738888,-52.692645,-53.469929,-50.101598,-35.006803,-45.318596,-42.56567,-37.703381,134.967241,153.11484,-195.959558,187.211688
56,1.810913,0.181052,-0.748615,0.115967,-23.722687,-41.304131,-52.640305,-65.221367,-26.71978,-26.478539,-24.141426,-20.29953,-9.22863,-5.142975,-0.347328,3.870735,6.827888,15.495987,19.789238,21.750069,20.180397,31.385422,35.019035,35.400124,-2.959512,-6.786432,-10.304013,-16.688605,-13.554895,-15.868713,-18.785185,-22.216841,-11.998506,-10.782517,-14.614995,-18.843385,-7.836066,-5.486339,-8.910337,-13.624333,-3.732442,-1.86159,-2.018374,-4.482771,20.510216,29.934483,25.916176,18.272953,32.564621,38.050976,36.877499,33.766422,19.389381,22.014141,20.509758,18.555565,4.653282,4.883251,6.490345,7.772655,-9.96666,-8.21743,-4.629135,-2.168369,-11.650944,-30.64605,-46.297557,-57.378143,-32.843624,-48.88777,-61.039726,-70.548672,-35.515008,-51.774818,-63.448394,-70.252363,-35.62196,-51.289028,-53.819868,-51.67222,-33.531709,-44.620138,-42.693617,-38.135511,136.767569,153.360452,-196.71876,187.392215
57,-0.79731,-1.157141,0.333595,-0.75953,-24.346848,-41.073074,-51.608391,-63.717384,-25.443764,-26.427727,-24.948349,-21.50631,-7.949066,-3.423958,1.503525,5.776863,8.298798,17.18399,21.266098,23.28186,21.859016,33.440094,37.366791,38.72818,-2.749375,-5.911058,-9.070703,-13.227216,-13.528435,-13.856021,-14.404025,-16.469144,-11.804332,-10.06859,-11.773673,-14.782894,-7.321191,-4.994126,-6.523499,-9.249347,-2.918448,0.179261,1.080323,0.506477,20.24889,32.058048,32.215919,28.036766,33.120003,39.283791,39.018345,36.642838,19.290104,20.564632,18.658447,16.396923,3.998451,4.481449,5.741444,6.500416,-10.886421,-9.164772,-6.310329,-4.195805,-12.432149,-31.710689,-47.215168,-58.608273,-31.769908,-46.426244,-58.711304,-69.495272,-34.199045,-49.890319,-61.009222,-67.757924,-34.354101,-49.672587,-53.582654,-52.697122,-32.470157,-43.620213,-42.016339,-37.509362,135.752506,152.282351,-196.602917,186.711726
58,2.824173,0.121525,1.763649,0.080152,-24.1642,-41.735916,-53.248901,-65.395432,-27.191391,-28.954811,-27.168961,-24.047585,-10.969734,-8.36071,-5.058861,-2.636032,4.836044,12.041245,14.401703,14.660454,19.065285,28.229599,30.148888,29.276848,-2.242343,-4.762933,-7.978678,-12.906145,-11.85398,-11.112913,-11.462914,-12.977837,-12.080573,-8.118358,-10.5533,-13.350223,-9.814456,-5.81127,-8.438904,-11.601729,-7.704352,-5.432925,-4.9572,-5.694438,19.516926,30.153694,29.141922,24.477425,30.596008,35.493622,34.580784,32.011414,16.854858,17.865086,15.87513,13.909721,1.602459,1.519775,3.037205,4.484711,-13.057537,-11.903973,-8.946476,-6.587791,-12.614621,-32.040498,-46.97289,-58.007689,-32.280831,-47.353674,-59.572506,-69.969021,-34.294882,-50.095763,-61.419245,-68.88876,-33.929073,-49.055145,-53.227775,-53.227126,-31.575888,-42.161576,-40.836041,-37.131017,138.456287,152.458139,-194.95966,186.846141
59,39.456711,28.559874,-0.13052,-0.461276,-39.060516,-69.746246,-91.823387,-108.35289,-59.368401,-74.641228,-79.144936,-80.889473,-45.42366,-59.450912,-63.084526,-63.978081,-28.75946,-38.539352,-43.547974,-46.464844,-9.807014,-12.228127,-17.485886,-22.754173,-13.91984,-27.293312,-35.377861,-45.109664,-34.436538,-42.071482,-38.788367,-34.028244,-33.681886,-42.989525,-39.294319,-34.888736,-32.182833,-45.442653,-43.660845,-40.125016,-30.503222,-43.835568,-43.742819,-40.050144,20.061779,31.188984,30.669422,27.110767,28.946686,32.446518,31.056976,28.55032,14.669781,15.801945,13.973408,12.279625,-0.551205,0.637321,2.467575,3.903408,-14.988213,-12.358246,-8.567848,-6.123962,-12.247947,-30.969375,-45.888213,-56.495174,-31.749777,-46.750496,-58.755795,-68.775293,-33.253708,-48.670378,-59.263167,-66.313613,-32.276508,-46.96514,-50.683997,-50.527676,-29.528985,-40.167593,-39.322107,-35.929662,177.907934,181.023973,-195.095243,186.390824
60,-0.960732,-0.170863,15.045376,-15.989528,-36.411552,-67.02919,-89.700165,-106.017952,-57.963066,-71.698265,-75.600815,-77.552605,-44.46064,-57.365112,-61.389999,-64.204788,-28.47908,-37.057343,-41.613693,-45.109177,-10.73616,-13.279953,-18.275528,-23.096924,-11.310267,-26.52316,-36.603792,-46.638882,-33.813291,-41.511714,-37.936304,-33.980634,-33.872818,-43.255608,-39.843404,-35.565953,-32.75563,-45.908159,-44.039715,-40.718345,-31.267692,-44.299869,-43.539752,-39.825095,29.02256,59.98661,82.82793,103.792305,37.724075,34.69574,33.858719,33.378696,14.245663,9.720211,11.181335,13.084545,-5.33987,-10.001564,-8.622322,-6.754875,-21.596947,-25.816898,-25.036411,-24.160137,-9.465906,-23.582853,-29.517592,-36.96179,-28.827408,-38.744586,-41.709316,-43.278641,-28.344242,-43.993124,-46.362456,-45.70185,-25.066653,-38.712043,-39.773842,-39.246678,-19.956683,-27.945519,-28.171526,-27.825878,176.847038,180.852754,-180.150032,170.400941
61,-4.428406,-0.235578,-2.108746,0.264724,-36.126823,-63.907127,-85.166588,-102.421761,-53.034554,-62.568398,-66.750526,-69.070473,-38.090286,-45.862656,-51.26358,-55.431061,-20.962257,-24.273491,-30.221786,-35.453911,-2.767525,-2.935295,-9.592781,-16.527786,-12.511251,-26.303391,-35.069541,-43.426101,-33.653172,-43.650718,-41.551513,-38.751286,-32.629782,-42.424725,-39.754112,-35.899096,-30.490995,-43.236002,-41.781903,-38.319187,-28.247849,-41.682485,-41.757944,-38.378313,33.147583,64.064827,85.655365,104.484444,44.574852,44.833202,39.353485,34.202213,20.20998,18.553848,13.92231,10.190449,-0.375366,-3.562431,-6.562157,-9.168148,-17.017536,-21.522675,-22.212925,-22.27375,-10.491333,-24.639588,-31.736995,-40.724458,-28.558053,-39.714623,-46.102641,-50.422021,-28.273507,-39.794003,-49.084075,-53.222711,-25.316063,-36.09997,-43.899479,-46.662038,-20.644521,-28.819473,-33.090193,-33.531369,172.242136,180.688081,-182.435274,170.73657
62,-4.217262,-5.315846,13.724327,-13.273807,-34.922676,-60.331192,-80.358124,-96.375847,-48.355751,-52.354088,-53.754845,-54.890442,-33.407707,-34.891205,-34.834328,-36.29528,-16.738815,-14.102097,-13.852386,-16.072083,-0.207939,3.708,1.191101,-3.146095,-13.057927,-24.860654,-32.030278,-39.82105,-30.103017,-38.914523,-38.549979,-38.104605,-28.625021,-37.138211,-36.725996,-35.601706,-25.558928,-35.473512,-34.334124,-32.439869,-22.009823,-31.84194,-29.718497,-25.57875,32.083168,55.752525,72.595711,88.469467,33.031311,27.529278,20.870361,14.211788,10.997658,3.120861,-1.368542,-5.995159,-6.18021,-14.57571,-18.751202,-22.502747,-18.139687,-27.283516,-30.043373,-31.805019,-9.817822,-17.833087,-20.133073,-27.900874,-14.959655,-23.576894,-31.618249,-38.14817,-14.096137,-22.339539,-34.934061,-42.428986,-13.054994,-20.389801,-30.395961,-36.202754,-12.242945,-18.192382,-22.997891,-24.848644,167.909374,175.444591,-168.826447,157.535119
63,-13.881569,-11.747707,12.813148,-10.390927,-33.238907,-53.056183,-67.196846,-82.223396,-38.362999,-39.320869,-41.330566,-42.456322,-21.193542,-19.199524,-18.369255,-19.474869,-3.9608,4.371414,4.657974,2.600327,12.174225,23.320541,21.509171,17.850494,-10.416306,-17.915832,-22.516454,-29.068759,-22.738879,-28.860414,-29.361179,-29.495671,-21.14717,-26.293819,-25.956168,-26.090877,-16.88213,-22.712265,-22.226999,-22.533343,-12.072082,-15.979648,-13.26368,-10.197587,30.41502,48.829536,62.194576,75.715485,22.158451,16.863842,10.792694,5.775604,1.451054,-8.401051,-14.033318,-18.92395,-14.27084,-25.183525,-30.689621,-33.714008,-24.491558,-34.265041,-38.057442,-39.575672,-6.032182,-9.73909,-11.610992,-18.287786,-11.354326,-15.266153,-21.657321,-28.674174,-11.662028,-12.859122,-24.748423,-33.313205,-10.593808,-11.219648,-21.336033,-29.238511,-8.106501,-10.181501,-17.096806,-22.818753,153.960943,163.707922,-156.08016,147.15523
64,-13.009872,-12.181072,-5.656071,6.870289,-26.344986,-44.645119,-56.331596,-68.64933,-26.785011,-25.738678,-24.611092,-21.586304,-8.43338,-3.432541,1.310577,5.394974,8.466454,17.845116,21.598549,23.264122,22.086868,35.232697,38.322029,38.662376,-3.992596,-8.102549,-11.091887,-16.892319,-13.686794,-17.60109,-19.705328,-21.993459,-11.518829,-13.411387,-16.62071,-20.429753,-6.641442,-7.273241,-10.092024,-13.895294,-1.353384,-1.930194,-1.692949,-2.280072,28.718262,52.278557,68.002453,81.058159,27.157402,20.784187,16.930389,13.460426,4.857903,-1.577854,-6.703033,-10.672588,-12.445221,-18.782673,-22.891102,-26.924858,-25.59288,-32.225189,-35.513592,-39.405327,-3.806481,-11.631925,-15.661757,-23.313745,-16.489429,-26.154881,-34.625926,-41.077331,-17.212372,-26.028694,-37.913487,-45.890992,-15.764263,-24.703191,-33.131412,-38.554858,-12.464259,-20.055299,-26.337755,-29.872132,140.90847,151.597277,-161.778831,154.095946
65,-0.962334,-0.549332,-5.755978,1.454346,-24.873619,-42.266121,-54.447556,-66.894722,-27.74128,-29.826279,-28.747787,-25.596428,-9.394112,-7.19593,-3.077774,0.834846,7.723503,15.436707,18.865356,20.312119,22.019348,33.413887,36.442451,36.681519,-4.397432,-8.951278,-12.257796,-17.678093,-15.422721,-19.050095,-19.335351,-19.332171,-13.679939,-16.139304,-17.55064,-17.920093,-8.452119,-10.65667,-11.682653,-12.457837,-2.676819,-3.402448,-1.869123,-0.498141,29.836464,55.901299,73.584194,87.113457,32.704868,26.908436,23.289814,19.742432,10.408115,4.410152,0.555325,-3.205948,-7.156734,-12.588501,-16.28746,-20.34359,-20.866585,-26.559334,-29.122868,-31.990414,-4.05762,-13.848611,-18.965558,-26.879244,-18.016887,-28.045555,-35.776738,-41.204877,-19.49655,-29.741221,-40.597438,-46.613533,-18.515336,-28.608441,-36.018151,-39.615421,-15.682752,-23.919887,-29.008645,-30.80691,139.944935,151.050369,-167.536011,155.552715
66,-0.630112,-1.276999,4.417076,-2.82187,-24.301186,-41.816025,-53.906364,-65.736465,-26.990662,-29.253731,-28.133125,-25.127106,-9.025841,-7.098885,-3.381386,-0.096817,7.800751,15.175667,18.569641,19.652481,21.816216,33.119431,36.308212,36.411552,-3.538546,-7.996555,-11.51815,-17.188351,-15.109492,-18.576778,-18.255737,-17.658611,-13.858398,-15.48759,-17.215305,-17.753151,-9.151226,-10.379102,-12.398711,-14.07471,-3.750164,-3.694651,-2.731344,-2.162129,30.326042,55.060616,71.416397,85.546417,30.98299,24.625225,20.065556,14.125156,9.847355,2.044201,-2.127457,-7.211895,-6.454525,-14.503269,-18.938427,-23.162727,-17.977695,-27.594681,-30.730476,-32.309361,-6.371037,-13.357756,-17.5926,-26.719774,-14.679617,-23.46315,-32.659114,-40.315547,-16.465562,-25.939434,-37.567469,-45.119513,-16.558404,-26.019864,-33.384897,-37.92769,-15.555855,-22.848023,-26.083837,-26.793967,139.283066,149.776751,-163.150692,152.734225
67,-0.344467,0.118252,6.978378,-6.847812,-23.839073,-41.244507,-53.134689,-65.746422,-26.652718,-27.67868,-26.001778,-22.197418,-8.918266,-5.5299,-0.812187,3.691635,7.479515,15.79525,19.787865,21.313477,20.767708,32.565422,37.03434,38.115578,-3.180455,-7.831928,-11.808377,-17.776863,-14.752791,-19.043426,-21.273387,-22.646068,-13.23157,-15.471627,-19.275206,-21.457898,-8.487872,-9.379918,-12.796507,-15.868466,-3.385343,-2.11878,-1.312443,-1.788292,29.526443,51.096096,65.805416,79.630966,25.386715,16.90155,12.363853,6.362629,4.244671,-5.798264,-11.437511,-17.538986,-11.410961,-21.501617,-28.094101,-32.983818,-21.459045,-31.103725,-35.808105,-38.557148,-4.36665,-8.60668,-12.188512,-20.772375,-11.008555,-18.051189,-26.81947,-34.527835,-13.125729,-17.726104,-30.019901,-38.929158,-12.97583,-16.738221,-25.692123,-33.030573,-11.651623,-16.087248,-21.112064,-24.77868,138.929071,149.84869,-156.181841,145.840101
68,-2.555122,-1.261376,0.882511,5.286638,-22.815628,-40.155029,-51.694565,-64.165421,-25.666695,-25.572395,-22.470589,-17.717514,-7.428474,-2.755852,3.10524,8.29834,8.822823,16.931763,21.856041,24.213524,21.969452,33.365593,38.265953,39.906349,-5.122629,-9.779783,-12.192619,-17.195668,-13.9978,-15.027611,-17.635979,-21.810215,-10.517021,-10.484695,-15.709644,-21.306053,-4.671666,-3.784652,-8.67019,-14.393959,0.973125,2.178246,0.736868,-2.101861,27.942924,50.519028,65.687256,77.951546,27.610416,18.950615,16.545124,13.71254,6.79121,-3.013802,-5.871735,-9.132385,-9.102287,-17.75528,-20.884094,-23.963985,-20.791683,-28.934441,-31.891479,-33.787708,-5.041365,-13.690159,-19.285117,-28.332942,-18.409589,-27.236131,-35.690503,-42.202516,-18.781388,-27.500978,-39.236027,-47.450869,-16.657699,-25.186017,-33.416205,-40.156324,-12.649757,-19.768623,-24.136384,-27.391834,136.395636,148.425529,-155.277643,150.964953
69,-2.774277,-1.513564,0.401974,-0.98461,-22.567978,-40.174828,-52.20314,-64.611397,-25.53463,-22.908096,-20.579224,-16.716042,-6.777649,0.498505,5.457458,9.228516,10.195427,20.779839,24.874878,25.520439,23.671646,37.046471,40.010834,39.131126,-4.829716,-8.805238,-10.215,-14.187404,-12.763162,-14.15585,-14.033553,-15.532328,-9.123407,-9.526298,-11.270747,-14.256379,-3.058776,-1.913275,-3.961752,-8.1128,2.48354,3.199104,2.6444,0.723159,28.887634,51.91452,67.390137,80.702763,30.933895,26.280842,23.064137,19.440422,10.887623,4.68853,0.435905,-3.73312,-4.776535,-11.284275,-15.555954,-19.265556,-16.571674,-23.906822,-27.55537,-29.693813,-7.02062,-17.554129,-24.251239,-33.054656,-21.966937,-30.619528,-39.427885,-46.508465,-21.071464,-28.109992,-40.903319,-50.416093,-17.887983,-24.680528,-33.985852,-41.65618,-13.383321,-18.518084,-22.494224,-25.92026,133.62505,146.850013,-154.871979,149.918391
70,1.965179,4.003341,5.350056,-3.531074,-24.976158,-43.67878,-58.587914,-73.923454,-29.228096,-30.937042,-35.193214,-39.212494,-14.070396,-11.731339,-15.343895,-20.673752,1.346512,7.336807,3.326225,-2.846832,15.694313,24.00753,19.973373,13.935471,-6.209498,-10.694492,-12.763903,-16.858603,-15.932378,-15.667345,-13.782291,-13.068116,-15.643077,-12.714225,-11.515217,-10.49121,-13.078953,-11.351053,-12.960578,-14.540833,-10.279529,-12.953662,-14.945761,-15.88659,30.174007,51.243839,66.304035,80.243797,30.130062,25.322342,23.978348,23.792381,11.776829,7.212696,6.915607,7.008476,-3.106728,-7.522316,-7.450104,-6.948452,-14.755096,-20.283279,-21.312389,-20.70322,-8.405096,-18.230976,-25.65671,-32.949526,-27.656157,-36.654026,-40.234098,-41.564357,-26.098595,-35.755681,-40.125294,-40.912211,-22.132397,-30.095823,-32.259002,-32.202068,-15.653853,-21.763593,-23.815652,-23.601594,135.566654,150.730795,-149.545498,146.264758
71,17.884026,0.202233,4.65929,-1.155165,-41.160393,-63.698845,-81.355019,-101.061745,-55.559692,-62.176552,-74.864159,-83.400078,-43.900566,-50.745049,-68.748894,-81.273193,-31.980171,-39.41288,-56.002464,-66.751099,-19.261894,-28.378372,-42.1138,-52.720528,-4.94522,-7.21535,-7.441913,-14.274163,-22.15259,-19.549162,-20.662892,-21.860263,-21.85625,-19.844452,-15.981964,-12.277279,-20.599258,-21.012708,-18.535714,-15.85164,-18.310201,-22.380078,-20.654,-16.944869,31.44556,51.166306,65.840378,80.390224,31.18309,30.863514,33.517914,36.938725,14.915257,14.025421,18.164978,21.473579,0.785923,-2.862911,0.726013,4.886169,-10.618801,-14.266891,-11.849899,-8.20507,-7.886052,-18.787161,-27.443242,-36.120286,-32.366509,-40.037732,-40.945895,-39.196506,-30.238559,-35.729715,-39.207714,-38.200657,-24.376562,-30.149947,-34.287287,-34.417982,-15.48231,-21.072112,-24.523867,-24.492529,153.546495,150.259331,-144.790392,144.435896
72,-9.905891,-3.415786,2.851753,0.780216,-36.088715,-61.191673,-78.67321,-95.126953,-46.99379,-58.483543,-67.112274,-73.484573,-32.939415,-45.154839,-53.265839,-59.545326,-19.55658,-28.764038,-38.085251,-46.239967,-6.33007,-14.114456,-21.775703,-28.445091,-6.712023,-8.782885,-8.825986,-8.432976,-23.866843,-19.384381,-13.414752,-9.41771,-19.669976,-10.631352,-2.304649,3.50341,-13.124216,-2.917089,3.925288,7.424067,-5.001475,2.103528,6.724002,9.483073,32.159328,51.502934,66.633854,82.899799,31.700249,36.233025,41.037769,43.372536,14.815121,20.712376,28.085403,30.753536,-0.147171,4.069977,13.244705,17.096443,-11.897278,-8.839188,-0.233459,4.411125,-8.303825,-22.217088,-33.626156,-42.455199,-39.183045,-47.539512,-36.208589,-28.156366,-34.522648,-42.069568,-32.146276,-24.241761,-25.364846,-30.705825,-22.592191,-15.47737,-13.441181,-13.988969,-9.370285,-4.304127,143.6588,145.586569,-141.920443,143.959137
73,-6.953316,-1.672448,-1.291523,-3.541973,-28.198814,-56.232376,-78.29361,-95.161743,-52.624054,-70.755501,-81.446457,-89.460983,-39.588661,-59.771233,-68.754845,-75.247765,-25.950279,-44.131165,-53.505478,-60.618782,-12.703514,-27.469826,-35.37014,-42.081985,-10.137689,-10.40408,-6.958006,-5.309486,-20.020564,-6.296443,3.215097,10.645401,-15.064507,4.750768,17.34427,26.548972,-7.269722,13.410213,25.569487,33.793469,2.321136,19.539498,27.597185,33.390794,32.647991,55.118065,72.293816,86.608028,36.552658,54.312172,55.828114,54.69492,19.801769,41.612606,40.686321,37.34396,5.815029,28.281784,27.052345,22.353573,-4.560642,13.367958,15.46875,12.601261,-6.821383,-20.901249,-32.200617,-42.061262,-46.328864,-32.440857,-22.926137,-23.988553,-42.090069,-20.992022,-13.509693,-16.759834,-30.6538,-7.721055,-2.583328,-6.654595,-15.070991,2.458871,4.99601,0.927584,136.791859,142.602357,-143.125591,139.1054
74,-5.100632,0.770213,-1.445274,-1.093445,-27.191963,-58.260269,-80.826988,-98.165817,-59.610558,-80.725594,-94.033127,-106.697044,-47.12986,-70.602036,-84.211578,-97.42733,-33.33252,-55.739365,-68.159409,-79.834099,-19.939041,-37.082062,-47.227135,-57.726288,-11.906807,-10.033269,-3.524034,1.044632,-12.602703,5.502703,18.012101,27.089288,-4.043633,18.202416,33.784206,47.355156,5.735378,26.834753,40.811341,52.860452,15.9095,32.581864,43.564545,53.055892,28.607941,53.076725,72.424278,88.511753,39.088383,61.657791,74.69101,84.1325,24.99876,51.626415,61.430912,65.936394,13.569775,39.797802,50.660706,56.482029,5.771599,27.12616,36.167965,41.380062,-13.578483,-23.265054,-29.358739,-35.21839,-40.539238,-30.983269,-24.576355,-21.7723,-33.257197,-16.540867,-4.832618,1.422513,-19.131482,-2.055054,7.968211,12.056336,-2.148729,10.05766,15.581234,16.5685,131.795969,140.98465,-144.466124,135.624035
75,-6.626358,5.310535,4.08474,5.065386,-28.057022,-57.338562,-78.706741,-96.667557,-63.144951,-84.809303,-100.497894,-115.625839,-51.506653,-76.697731,-93.623314,-110.47966,-38.68721,-62.903023,-78.425446,-93.934135,-25.177574,-44.502869,-56.53656,-71.112442,-10.472005,-6.167014,3.977653,7.680701,-6.375236,14.444533,30.782704,43.989882,4.267386,27.264721,45.530308,61.247825,16.345272,37.846272,53.87248,67.234837,27.974851,44.20996,56.946415,68.208826,26.65638,52.832737,73.569202,91.239681,40.607529,60.434875,75.673656,87.596054,27.092686,51.013355,67.653122,79.252338,15.14019,38.147907,56.071014,69.382324,7.092934,26.670055,39.546719,49.947052,-13.183744,-21.677729,-27.819765,-33.810944,-36.422246,-28.842907,-16.796205,-5.589277,-27.799078,-12.872491,-0.416136,10.804223,-14.158968,1.718205,14.005673,23.760447,1.590629,14.545248,23.295343,30.408002,125.290003,142.424824,-140.260992,136.81906
76,-7.796631,12.627218,2.28035,5.355922,-30.953293,-59.723053,-80.988922,-100.365372,-61.930962,-84.648514,-102.385826,-117.407913,-51.407433,-78.390884,-98.322144,-116.211548,-39.422493,-66.341858,-85.73204,-101.735001,-26.245995,-48.054771,-62.27211,-76.326599,-12.074676,-5.689312,5.532713,9.800161,-1.230809,18.076877,34.420976,50.143743,9.209148,30.00434,48.301049,65.205101,21.702059,41.847884,58.616455,72.431134,34.1678,49.710934,62.288752,73.945871,27.853374,57.763424,81.273022,97.899342,48.528728,69.434052,84.935532,97.893162,35.344734,59.333611,79.452438,94.426003,22.063751,45.271282,64.528198,80.292892,12.014179,31.099319,45.491695,59.128361,-13.451741,-18.746128,-23.141029,-30.226981,-30.080139,-15.766825,-3.433755,7.123713,-20.933421,0.708648,13.748482,25.571031,-8.188444,10.616625,24.057961,34.802717,6.818542,20.699603,30.073562,38.239869,117.703714,153.023835,-137.7703,140.146774
77,-5.654755,15.203569,2.608509,13.337965,-33.094368,-61.800156,-83.594856,-104.303169,-58.70945,-83.240089,-101.482544,-116.212921,-50.164261,-77.602043,-99.441147,-117.997055,-40.929565,-68.247414,-89.541779,-105.536041,-31.280251,-54.927063,-70.187759,-84.076424,-12.695514,-7.625867,1.942483,6.056604,-1.277122,17.784921,33.500772,49.601512,11.053385,31.633501,46.905366,61.712744,24.530289,44.514822,58.776018,70.263447,37.125644,53.476907,65.292107,75.557187,30.983963,63.790684,88.245163,106.278934,54.636612,78.66291,94.740086,108.521118,42.081642,70.292301,91.15202,107.240124,28.522053,56.025124,76.022587,92.108688,16.291637,38.653793,54.598045,68.249302,-11.8441,-16.595979,-20.263892,-28.510814,-26.681736,-10.09329,6.541345,20.405732,-16.265676,4.838145,20.618771,33.245557,-4.409844,14.747851,28.814965,39.876564,10.215309,23.41835,31.631649,38.736651,112.088013,166.928453,-135.122738,152.185789
78,-4.813728,16.650628,2.009983,14.279659,-33.774261,-61.159973,-82.009392,-101.171265,-56.240616,-77.624817,-95.652466,-110.831451,-48.63018,-72.629013,-93.114281,-111.591339,-40.729523,-65.335808,-85.804825,-101.140709,-33.212128,-54.839973,-69.739838,-82.845726,-14.209264,-10.22346,-0.354386,5.285959,-3.419429,14.39081,29.073082,44.066082,10.486517,29.627848,44.406389,59.687392,24.347817,41.987872,55.627118,67.890749,36.751375,52.11037,63.36957,74.319214,34.768639,68.068714,93.134708,112.716351,59.210587,84.371796,100.929337,114.50964,47.778625,76.067562,95.960369,112.597103,34.929314,62.83865,81.538811,97.536678,22.044983,44.965725,59.925671,73.570461,-14.199445,-18.868518,-21.569975,-27.298622,-22.602627,-6.329047,9.034024,22.449918,-10.615143,10.067602,24.833484,36.522899,2.393878,20.141688,32.708884,43.411034,17.031628,29.490885,38.249872,46.734997,107.401657,182.08469,-132.985382,164.971058
79,-15.728073,16.073509,4.754219,15.541282,-31.709976,-60.195923,-76.598969,-83.280029,-69.686394,-99.65435,-109.400425,-113.474293,-62.157898,-95.439377,-111.436558,-121.257706,-51.622696,-81.588135,-99.577675,-112.201538,-39.414482,-62.902222,-76.089935,-87.077293,-12.65161,-6.705971,6.941179,19.341711,5.617311,25.50045,35.109617,39.998582,22.549583,47.571529,62.673457,72.880306,36.442191,58.544948,71.121902,79.675383,46.283231,62.934908,72.950702,80.74737,35.095596,68.132572,94.08308,114.58065,63.077087,88.85725,105.975437,119.677277,52.225399,80.35532,100.772266,117.89423,39.621277,68.263206,86.179047,101.795139,26.596527,50.209293,63.40662,75.558758,-14.018887,-15.616185,-17.578428,-25.182744,-17.005137,-0.326104,13.736997,28.028203,-5.930942,14.16678,27.597062,39.355205,6.855469,25.30464,37.167882,47.593513,21.618757,34.344035,42.185226,50.476578,91.792316,196.820546,-128.112431,179.174687
80,-2.224159,11.290013,24.054623,21.534345,-33.218651,-60.525856,-76.996307,-82.070847,-70.265579,-92.418022,-94.786148,-93.708344,-63.546524,-93.32325,-111.133518,-124.668846,-53.80085,-82.484322,-100.908737,-116.087036,-42.522125,-64.395905,-78.3181,-91.175079,-11.559986,-4.423244,8.724716,19.344243,11.291557,29.964573,32.290155,29.926226,27.382973,47.566836,58.754035,65.821246,41.056305,61.595665,72.613853,79.503408,50.359993,67.629854,77.98651,85.029268,30.29686,58.455219,80.328941,93.172932,70.583897,101.666622,105.312824,99.878826,61.775894,96.550884,99.132099,92.451782,50.782127,85.66349,91.483784,87.801247,39.466724,70.103359,79.166565,79.39064,-13.228976,-15.765065,-16.065605,-20.968032,-2.57209,26.502412,40.310669,45.552723,12.503223,44.950039,60.33676,66.113634,27.842088,55.731661,69.005344,74.545777,43.158166,59.422483,66.834817,69.099823,89.91128,206.932053,-103.714685,199.530525
81,-2.289619,10.765752,-5.232983,12.422948,-39.017487,-68.070946,-83.853607,-88.677864,-70.991592,-92.79705,-107.499962,-119.355068,-63.647575,-89.529305,-107.650051,-121.431313,-55.758362,-81.811523,-100.563812,-114.772568,-46.928787,-66.398849,-80.892105,-93.768539,-7.547197,5.082306,18.125228,26.758244,28.46484,43.378862,48.710207,51.225857,37.516278,51.610253,56.513545,57.332355,45.134796,61.624565,68.707337,71.28943,48.771278,65.9805,75.46524,81.408347,33.925953,63.568554,87.700882,103.357658,63.269234,94.151573,109.56459,120.667419,51.299744,85.431805,103.809471,116.326675,39.858284,73.99704,93.634529,106.372833,29.286633,58.295517,72.697906,82.410278,-11.931353,-14.391119,-14.645592,-17.717181,-3.701937,17.943188,29.26704,38.177501,9.186856,31.305792,44.187854,53.527665,23.052355,43.086659,53.7194,60.953955,36.737852,52.305625,59.454408,64.976439,87.858324,216.626559,-108.711004,210.882226
82,-3.481636,15.310397,5.689716,12.792586,-36.255569,-61.948471,-79.668617,-91.698189,-63.29155,-88.584366,-106.818123,-121.013317,-60.494041,-90.418739,-110.166206,-124.092579,-57.881012,-89.083214,-104.45303,-112.916508,-56.139221,-81.317139,-92.199554,-97.282906,8.393734,25.861258,39.029904,45.13739,44.938554,50.888576,51.327436,49.443184,41.503255,42.292795,37.593219,28.171773,34.211704,33.931913,25.885958,14.563464,23.957678,27.007654,24.166332,18.268057,32.120647,61.027565,83.327923,100.852947,61.065216,88.523712,104.674587,116.644306,49.594917,81.069946,100.615025,114.294605,38.545132,69.568806,88.769016,101.791134,27.925129,55.543842,70.421677,82.04258,-13.042058,-14.270397,-14.083108,-19.051237,-1.493372,17.87872,30.294011,42.202146,11.685524,34.059551,48.384968,59.40791,25.070173,46.005354,58.213287,66.845871,38.031646,54.930758,61.833281,66.485804,84.508209,231.312458,-102.889767,223.050315
83,-3.556824,8.219412,5.02058,12.044356,-40.535088,-67.355461,-81.902618,-90.18013,-64.821167,-89.405251,-105.327988,-116.216869,-58.807411,-85.867767,-102.398586,-112.638245,-52.811966,-79.8032,-93.542747,-100.317764,-46.840096,-68.093033,-80.040207,-87.439156,-1.377466,12.244304,23.288674,28.605014,38.842244,42.949326,39.852543,34.645933,43.124079,47.44068,41.842944,31.870067,42.95513,48.369221,42.655579,33.122365,38.929003,45.947247,45.262311,41.883946,32.376251,61.889191,83.548679,100.896149,60.065689,86.791134,105.451584,120.385666,49.444828,79.867115,101.045837,117.141609,39.199505,69.776001,90.511894,105.759888,29.203377,55.604439,71.872616,85.288868,-12.023978,-13.535011,-14.419586,-21.110675,0.35667,17.897122,30.170881,42.663236,14.565378,36.238168,50.340541,61.032625,28.592664,49.282263,61.939368,70.98037,41.049327,57.885886,65.902139,71.382859,80.933876,239.276008,-97.886696,234.838808
84,-2.342377,6.553633,19.133549,20.146628,-37.045441,-63.298988,-79.740028,-90.630913,-61.797981,-82.13665,-98.166561,-110.744019,-55.221291,-77.072868,-93.900547,-106.555882,-49.100533,-70.629272,-84.671402,-93.035889,-42.829056,-59.695816,-71.011276,-77.987938,-6.546038,-0.629607,1.871593,-0.19791,35.695814,47.929126,49.842092,47.635997,41.925874,54.317638,54.316403,49.156662,43.446046,54.771998,52.357557,45.723216,41.607119,50.107248,48.93714,45.239587,27.977943,56.032562,76.187496,90.495815,50.85371,87.343884,101.570148,107.757511,40.760479,81.552715,99.35194,104.961834,31.350861,70.631275,86.882801,92.357311,22.701988,56.709995,71.106663,76.271152,-17.793937,-21.886384,-19.261991,-17.521247,-3.996487,20.918199,30.746148,35.767876,15.79946,41.109411,49.49314,51.102418,33.202579,55.439952,60.449887,60.228388,46.956928,64.120825,67.905014,67.059589,78.475313,245.715109,-78.869333,254.870904
85,-0.095901,6.421364,-4.203014,-0.803743,-38.14888,-65.783501,-81.7733,-89.978256,-69.631462,-87.422905,-92.324696,-90.944996,-62.789841,-82.237587,-87.181549,-83.730812,-55.595055,-75.29171,-76.773148,-70.335388,-48.098946,-62.247391,-64.916496,-62.086258,-3.985742,1.504611,4.885569,3.82902,27.858945,37.563331,42.394437,44.191744,34.542069,43.593877,47.389427,48.442395,37.868749,46.464345,47.128532,45.58014,38.272597,44.70878,45.356666,45.476955,28.429527,55.5863,76.532249,92.166595,52.511501,81.927109,97.42527,109.270477,41.180191,74.259453,93.505898,107.351532,29.540863,60.612259,79.572029,92.461739,18.050766,42.676563,56.795425,67.112274,-10.129723,-10.373513,-9.190931,-16.148782,4.875442,23.952861,35.573424,45.791265,20.442227,42.32083,55.248155,64.771489,34.529842,56.506999,67.010991,73.336765,45.578535,63.696291,70.947518,75.213546,78.355379,252.088956,-83.09638,254.019644
86,-1.926956,4.879641,1.748371,6.625757,-36.541786,-64.824142,-81.320801,-89.596424,-74.443474,-91.210499,-90.222702,-82.8265,-68.228073,-84.542313,-81.389351,-69.648285,-60.193405,-75.088692,-68.029861,-53.588219,-51.767578,-61.884956,-57.304573,-47.12368,2.552145,8.615726,14.212969,18.457692,18.685551,31.313263,43.00379,50.783045,23.589769,39.27672,52.533484,59.291325,26.809312,43.667607,54.893461,60.044742,28.16109,43.206331,51.074939,55.115639,27.419529,54.230404,75.213718,91.904926,49.417534,78.085041,96.0145,110.532703,38.398075,71.740208,93.836575,109.999638,28.615723,60.404377,81.558666,97.467327,19.65889,47.276115,63.189125,76.624889,-10.359805,-9.747056,-7.447594,-13.854199,5.545866,22.491044,34.539908,46.933339,21.889101,40.702784,53.336116,64.36795,36.292261,54.153876,64.626005,72.888643,47.642172,62.057126,68.565002,73.842933,76.445045,256.957821,-81.331387,260.634626
87,-36.547394,21.442831,1.867447,6.309534,-22.657471,-48.643799,-71.412735,-93.527298,-83.03627,-72.784767,-50.13073,-30.777397,-80.02739,-62.386951,-37.950096,-13.055763,-70.323372,-51.012096,-26.08223,-4.29451,-58.324471,-50.542774,-35.691833,-19.754448,36.309983,54.632998,63.690425,72.979724,38.854285,53.419417,61.820252,69.210418,22.235706,37.916358,51.168923,60.270749,4.171858,18.568966,31.55304,41.958973,-12.695205,-1.963107,7.536082,17.401328,26.858368,52.173214,73.232861,90.894642,49.903278,77.85181,96.310558,111.986675,39.753342,71.747761,93.404331,109.694424,29.904442,59.771061,79.519215,95.290432,20.2775,46.166267,61.572304,75.626049,-11.670334,-12.256469,-9.519691,-13.892669,8.250905,23.215191,34.127353,44.769234,24.808969,41.501958,54.000797,64.893137,38.364111,55.468851,66.70261,75.760592,48.534218,63.913467,71.463134,77.875235,39.807215,278.377959,-79.554377,266.921466
88,-11.481972,2.614698,1.654358,6.292243,-15.685158,-38.294277,-57.158947,-73.015022,-68.230133,-52.890358,-33.065529,-16.310577,-64.45919,-43.225307,-20.792656,1.67347,-55.542641,-34.154663,-10.815811,8.873405,-44.949932,-35.900917,-21.992912,-7.311401,34.167738,53.302338,65.657361,76.353705,38.086357,53.902367,62.123261,69.387703,22.853148,40.221069,51.73289,60.10112,6.739502,24.510344,36.676287,46.885668,-7.082649,6.484226,16.275433,26.660432,26.15799,51.152573,72.092686,89.630413,51.035099,78.522205,95.983944,110.883579,41.277008,72.441044,93.314838,109.271221,31.266804,60.977612,80.503979,95.940228,21.008205,46.928787,61.928444,75.602016,-12.812346,-13.881801,-10.680969,-14.325478,9.401871,23.831336,33.898815,43.73158,25.917018,41.786442,53.793933,64.031719,39.030212,55.183997,65.509407,73.71227,48.694461,63.786817,70.95462,76.883709,28.255548,280.952935,-77.969713,273.173989
89,-5.447388,5.005118,2.445259,4.521921,-9.724731,-28.617897,-46.754494,-62.12122,-59.124355,-49.313507,-29.856491,-13.948288,-56.028385,-36.048717,-13.46386,6.327896,-47.835045,-26.151581,-3.921318,14.398155,-38.073635,-25.330925,-10.269127,3.112564,35.918856,54.831711,63.651151,76.067307,43.861565,58.113436,63.585017,66.356869,27.437993,43.001628,52.787525,57.85464,9.871544,26.484072,37.152753,44.134316,-6.040425,6.755125,16.197998,24.209311,24.907951,48.895397,69.849758,86.976757,52.09774,79.289417,96.71957,111.315708,43.042259,73.829899,95.077229,111.392956,32.629051,62.865715,82.837658,98.426113,21.251392,47.688675,63.19376,77.114697,-12.677298,-13.248057,-10.245937,-14.001597,12.064487,25.701509,35.079112,43.566274,27.919646,42.384989,53.310983,61.986484,40.42077,55.513065,65.157985,72.254466,49.871238,64.994532,71.711988,77.0245,23.023624,285.894265,-75.30899,277.632122
90,-9.229546,5.032473,1.266117,4.645422,-6.96373,-20.141487,-30.456333,-38.379364,-45.142879,-32.35342,-11.191063,6.629562,-43.626652,-22.832336,0.345039,19.59137,-38.737736,-15.686531,6.44474,24.62574,-32.179241,-18.280563,-2.949371,10.944786,28.417169,45.590329,55.835278,67.590334,40.145116,55.260197,62.217924,66.345075,27.380318,43.728122,54.11201,59.873261,14.475532,31.295726,41.714132,49.090528,2.745485,14.610024,23.296207,31.618804,25.684891,49.49358,70.622864,87.743797,52.88126,79.98539,96.63311,110.20752,43.641472,74.294128,94.769669,110.424271,33.246117,63.049221,82.646027,97.787476,22.201309,47.751789,62.963219,76.338043,-12.838652,-13.430962,-9.778919,-12.973638,12.4269,26.759541,35.723293,43.596285,28.567778,44.247196,55.160593,63.695056,41.169308,56.702933,65.985687,72.544137,50.593101,65.695955,72.116207,76.54192,13.81093,290.881722,-74.026022,282.232527
91,-24.88163,11.138539,2.126713,3.839702,6.302147,9.502945,10.694504,8.413467,-14.198627,9.189034,28.584023,40.195885,-23.145447,5.649605,27.206955,44.329376,-29.225235,-5.499573,15.882683,28.941078,-31.921577,-38.210506,-42.161808,-46.398468,-23.084774,-30.099868,-29.916346,-29.424874,2.520775,20.635073,28.269894,32.882156,21.279377,39.838649,45.263052,48.120799,32.947365,49.919033,53.383787,56.146747,42.155833,54.013518,62.43473,70.487601,25.58773,49.352131,70.398846,87.752781,54.193954,81.525364,97.79829,110.482349,44.468136,74.675617,94.319172,109.042225,33.383102,62.198238,81.191082,95.828533,21.440277,45.702324,60.60648,73.478107,-12.989199,-13.690313,-9.640598,-11.971676,13.106154,28.561665,37.472435,45.157335,28.997191,45.815162,56.770921,65.343236,41.259155,58.071075,67.793554,74.806919,50.392041,66.123514,72.709875,77.257855,-10.996857,301.807562,-71.825466,285.85953
92,-12.043476,1.155721,0.288563,4.339942,3.131161,15.017681,31.208439,40.735188,1.677475,29.468594,50.341473,65.21307,-7.051048,23.399105,47.946339,66.577206,-13.087978,8.806686,31.217709,48.109531,-15.627193,-15.726471,-11.742268,-6.232281,-18.96454,-24.101062,-23.073782,-19.646573,1.103295,18.216495,30.160815,39.868474,19.624528,33.993417,45.239155,52.209603,33.476627,45.962499,54.365927,59.653615,44.871863,57.455115,65.138287,70.709903,24.851189,48.838806,70.565987,88.351707,55.145359,82.965088,98.995743,110.971184,45.909748,76.369286,95.324478,109.245186,35.1301,63.533936,81.531944,95.259247,23.698997,46.585579,60.715427,73.254547,-14.000671,-15.373383,-10.772483,-12.677483,13.10671,28.961808,37.529863,44.347664,29.395851,46.054137,56.06357,63.210315,41.733707,58.49493,67.229958,72.915813,50.52641,66.202802,72.798796,77.032466,-23.001251,302.786908,-71.497822,290.023098
93,12.9772,0.030813,-0.270996,2.95346,6.123505,9.857597,10.678024,7.628288,-14.24675,11.234436,31.056976,41.555443,-22.916222,7.403297,30.748672,49.669533,-30.422344,-6.79533,15.66124,30.014648,-34.631138,-44.327431,-50.362587,-56.055164,-21.69786,-29.153481,-29.507434,-30.001808,5.1322,24.422597,31.163025,35.767321,22.566441,43.843719,49.071632,51.111187,33.437725,54.173142,56.056468,57.160627,42.977607,56.456426,64.410187,72.457563,24.580994,48.927383,71.703758,90.392647,55.730209,84.335976,100.687866,112.841492,46.641769,78.453255,98.083992,112.183456,35.924034,65.723305,84.368935,98.086624,24.850216,48.533192,63.218193,76.160088,-14.675047,-15.384683,-10.271008,-11.814521,13.601146,29.296433,37.618166,43.95771,29.844345,45.656155,54.493195,60.769013,41.855417,57.737685,65.397638,70.217381,50.244149,65.296429,70.968946,74.215041,-9.969778,302.794674,-71.714544,292.95351
94,-7.487526,3.061338,-0.189629,1.726109,-2.056046,5.343819,15.810471,19.529228,-7.316837,21.525192,43.166771,58.282242,-13.348732,19.035645,43.611031,58.728333,-16.0429,10.426483,34.809265,49.298286,-16.384106,-9.158936,2.225246,11.898766,-14.738527,-16.232763,-12.052075,-4.299311,8.600844,24.172878,32.382287,37.499605,23.672267,36.147518,45.706173,51.468042,33.877264,42.613157,48.184958,52.36262,42.02838,52.504461,55.510842,56.509284,25.16613,49.867401,72.591591,91.267548,55.947132,84.85817,100.990791,112.817688,47.644615,79.008751,98.405685,112.333946,37.880116,67.195702,85.571251,98.869858,27.565556,51.228905,65.621681,77.933807,-13.867784,-14.80991,-10.30108,-11.811557,15.401109,30.370396,38.406224,44.401634,31.372914,46.172697,54.542595,60.104517,42.973285,58.026059,65.257218,69.213135,50.941805,65.247585,70.449254,72.946564,-17.379627,305.892676,-71.826496,294.716284
95,-24.337063,1.552035,-0.310936,1.662383,16.842899,34.701061,41.903286,42.165585,22.826099,51.333218,70.221348,79.851894,14.180546,45.30035,65.294437,80.176678,3.36319,31.541862,50.745792,60.114269,-6.187477,-6.468945,-11.039486,-17.457504,-25.022378,-32.936435,-34.460188,-33.968655,1.83726,18.242307,21.921458,23.12238,20.296743,41.260143,44.038665,43.476613,31.944661,51.381468,52.432831,52.346256,40.663696,54.622253,61.474449,67.075212,25.979691,50.502834,72.905617,91.641655,56.835194,85.770721,101.748619,113.346634,48.668575,80.481606,99.913445,114.022064,38.913574,68.658943,86.969261,100.038528,28.437538,52.274494,66.760941,79.026947,-14.363702,-15.259824,-9.878152,-10.56741,14.917973,29.610681,37.339363,43.178482,30.966288,45.014136,52.596531,57.73293,42.657432,57.192676,63.901241,67.522964,50.750194,64.662191,69.517379,71.692784,-41.601019,307.46265,-72.021761,296.396605
96,39.034595,-4.492713,0.505714,0.338022,4.795189,6.565018,2.163162,-6.414299,-19.596405,3.898773,24.622192,35.822411,-30.847321,-0.817223,21.615143,39.325905,-38.048573,-15.747356,5.355263,18.092651,-41.321869,-51.457443,-57.55434,-62.919445,-21.44351,-25.332242,-21.515881,-16.670326,9.30764,29.011085,34.528237,37.920866,24.77371,44.893167,48.266839,47.814826,35.215642,55.366593,54.827203,53.902984,44.244541,58.545813,65.197011,71.475361,25.726776,50.217361,72.697563,91.464386,57.353725,86.15078,101.850014,113.235626,49.216003,81.180382,100.228958,114.003296,39.184742,69.307823,87.278481,100.132141,28.330193,52.740669,67.006645,79.118729,-14.444348,-15.279151,-9.733717,-10.51486,15.092295,29.512251,37.224877,43.164773,30.928744,44.855314,52.33193,57.440727,42.359548,56.953949,63.656215,67.198404,50.191723,64.249822,68.824724,70.628454,-2.502451,302.974568,-71.452074,296.739258
97,-13.135529,12.256654,-0.562534,0.296402,2.551174,12.098694,20.064354,20.313721,-5.619392,22.403297,44.854546,60.553207,-14.747372,16.409912,38.771896,54.273148,-20.618877,2.732048,23.071289,36.581383,-23.230362,-30.110378,-29.841843,-28.19046,-21.174772,-27.038468,-25.583072,-21.583992,-3.139206,10.410378,20.547758,28.367151,16.113153,25.832729,35.489135,40.513025,30.764549,38.065424,42.071173,44.620354,43.702187,52.63179,56.92505,58.751503,26.018372,50.278873,72.276249,90.442829,57.147675,86.487064,102.587185,114.043751,49.112778,81.9734,101.632633,115.414066,39.318466,70.188389,88.779087,101.662846,28.906002,53.713531,68.400135,80.492992,-15.75006,-16.04745,-9.812573,-9.390015,14.01265,28.945567,36.637693,42.381593,30.109377,44.292644,51.599694,56.253576,41.677947,56.388068,62.813692,65.952775,49.375815,63.356725,67.908842,69.402832,-15.478249,315.269384,-71.854877,297.073822
98,-15.892124,-9.830172,0.526142,-0.765211,3.683453,19.520016,40.777302,51.560841,7.342472,37.694263,59.218884,75.180416,-1.542149,32.248592,56.7346,71.741009,-6.561985,20.403728,43.807926,57.66695,-8.320255,-2.563705,6.558781,14.730892,-18.807076,-21.884964,-17.520074,-10.615699,5.631885,20.084383,27.588046,32.444963,24.472244,37.413957,43.778387,46.745679,38.291369,50.671153,53.891561,54.709074,48.711504,62.685745,67.134492,68.636139,26.14769,50.28923,72.539978,91.45649,56.658211,85.746918,101.764069,113.274078,48.852768,81.382828,101.048927,114.822578,39.111385,69.452019,88.007126,100.913658,28.685417,53.192482,67.734833,79.961014,-14.991642,-15.323797,-8.830679,-8.189154,15.082353,30.089803,37.783904,43.575845,30.916455,45.180615,52.562259,57.276533,42.346271,57.101903,63.52444,66.55515,50.067419,64.502937,69.006518,70.362865,-31.24629,305.457197,-71.204653,296.326596
99,6.664009,2.572893,0.101051,0.683454,12.197227,23.080616,27.464504,23.92313,4.265499,31.057262,52.525005,65.105267,-6.521473,23.085651,45.649738,64.854412,-15.54594,7.75835,27.853031,40.360851,-21.594658,-28.022919,-32.598438,-36.915894,-23.712776,-29.765551,-29.37498,-27.823933,-0.587679,19.166649,25.330575,28.05136,18.036616,39.768933,43.99686,43.701014,30.829819,50.61885,52.729047,54.101203,40.737611,54.383526,60.017078,64.880787,26.063747,50.193615,72.369576,90.823402,56.320038,85.832863,101.757774,113.049202,48.127441,81.100388,100.570564,114.238243,38.220005,69.001579,87.591362,100.495834,27.855721,52.289715,67.029076,79.437218,-14.884072,-15.671822,-9.343702,-7.974757,14.540678,29.992052,37.646571,43.264191,30.825373,45.419466,52.704594,57.270975,42.48768,57.49797,63.727784,66.51847,50.202097,64.356526,68.832011,70.233437,-24.519424,308.026632,-71.040745,297.006591
100,0.463257,-0.302577,-0.020027,0.633497,11.75211,22.399921,27.062244,24.312229,4.14299,31.177654,51.854267,63.394718,-6.127739,24.383411,45.800228,63.262081,-14.985294,8.416557,27.06625,38.067799,-20.947552,-27.717075,-33.378124,-39.061546,-23.544135,-29.593206,-29.126743,-27.437005,1.114101,19.955387,25.699533,28.128609,19.655774,40.872351,44.626837,44.032119,32.301826,51.951795,52.86039,53.422875,42.067839,55.588215,60.370661,64.470024,25.555687,49.755936,72.232819,90.932808,56.086006,85.954971,102.041473,113.326378,48.01672,81.59317,101.042061,114.40155,38.299313,69.705849,88.097305,100.727234,28.248539,53.114433,67.703247,79.843941,-15.212214,-16.424066,-10.364436,-8.413308,14.210005,29.527874,37.304659,43.141246,30.447399,45.063969,52.492296,57.233678,42.059132,57.169025,63.37204,66.043486,49.718344,64.065867,68.398029,69.516391,-24.004955,307.652331,-71.00956,297.568366
101,-2.144279,1.711351,0.086002,-0.357473,12.738934,23.784771,27.489338,23.603725,6.734161,35.165348,55.118923,65.835629,-3.309689,27.574596,47.989368,64.237118,-12.639542,10.702114,27.476978,36.455326,-18.897915,-24.740181,-30.539703,-36.449547,-23.548334,-31.152959,-31.806587,-31.239286,0.31326,18.682711,23.82158,26.043236,18.636521,39.87292,43.329523,42.697014,31.170002,50.96243,51.257411,51.81582,40.958431,54.631392,59.2728,63.287071,25.858555,50.063152,72.333584,91.205349,56.400547,85.885563,101.876736,113.224125,48.020039,81.231709,100.547848,113.841076,37.993355,68.962383,87.34045,99.967175,27.633076,52.357407,66.976604,79.039936,-14.838748,-15.901904,-9.877349,-8.08177,14.598477,30.651978,38.482733,44.07942,30.936956,46.041231,53.37261,57.848403,42.588333,58.015871,64.124901,66.657161,50.336342,64.995396,69.231166,70.260545,-26.131067,309.288733,-70.90539,297.135943
102,-18.587723,1.919265,-0.170231,0.654493,18.010082,37.068844,47.070179,48.544865,27.823849,57.300625,76.134167,87.054348,17.965565,50.307713,70.918179,86.359348,7.272949,33.460407,50.789394,59.54092,-1.518974,-1.113968,-3.52581,-6.340828,-25.13285,-32.588656,-32.593102,-31.228604,-4.371682,11.779015,17.09554,18.745696,15.541776,36.300721,40.219587,39.904845,29.417773,48.352178,49.531673,49.906498,39.701933,54.333817,58.305727,60.688675,25.598202,49.811153,72.167015,90.927773,56.804466,86.472816,102.252731,113.203468,48.690319,82.070045,101.224937,114.393539,38.938293,70.014153,88.278923,100.802078,28.841286,53.549366,68.041992,79.98436,-15.700783,-16.740413,-10.512637,-8.545825,14.355612,29.835391,37.528813,43.233933,30.689029,45.324308,52.412453,56.958642,42.298106,57.295243,63.137326,65.585298,49.878031,64.071054,68.21815,69.184976,-44.677391,311.14901,-71.034222,297.731448
103,11.23661,-1.656887,-0.034389,-0.092996,13.54826,28.109608,36.501789,36.539555,13.972893,43.040371,62.332592,72.826366,5.089302,35.685024,55.634594,71.732655,-4.079189,19.047661,34.7188,42.920437,-10.672302,-15.527802,-21.783543,-28.366299,-24.55993,-32.721111,-33.901902,-33.545788,0.858948,16.84224,21.442398,23.404147,19.838184,39.131174,42.602844,42.475206,32.520299,50.824788,50.697582,51.254941,42.156821,55.082047,59.271503,62.982333,25.925903,50.050335,72.266293,91.193905,56.855392,86.428127,102.222576,113.283291,48.513794,81.599865,100.649471,113.610706,38.471031,69.106007,87.388515,99.788074,27.9986,52.546177,67.091045,78.965321,-15.282486,-16.588075,-10.608412,-8.901137,14.095767,30.064608,37.927041,43.548675,30.803637,45.866539,53.203846,57.734783,42.715292,58.080585,64.171893,66.627583,50.626075,65.269568,69.495951,70.409796,-33.387022,309.453421,-71.014853,297.59975
104,-2.249222,1.35678,0.458508,-0.136036,16.218796,30.480824,36.418247,34.693737,18.23101,47.299175,66.973171,77.687359,8.463135,39.732914,60.131893,76.083012,-2.000256,22.981739,40.72546,50.584316,-10.471573,-12.941093,-16.39904,-20.43829,-23.996581,-31.864756,-32.698696,-32.161899,-1.230006,15.493364,20.47866,22.454982,17.620851,37.966994,41.870423,42.081856,30.272398,48.846984,50.369749,51.862504,39.640121,53.966526,59.016659,62.793994,25.917034,49.8456,71.989861,91.046677,56.414566,85.963783,101.836052,112.990952,47.876186,80.901146,99.998932,112.754974,37.774487,68.675079,86.98391,99.362183,27.311726,51.766777,66.377907,78.519974,-15.274273,-16.151253,-9.669991,-7.779749,15.030915,31.152033,38.938081,44.429607,31.630846,46.781248,54.082987,58.540873,43.439686,58.884761,64.999286,67.581009,51.189548,66.026752,70.436842,71.640728,-35.579081,310.755135,-70.499182,297.408648
105,5.865154,-2.737766,0.013332,0.409158,13.854561,26.374168,30.944481,27.217369,11.513729,38.710442,58.401604,68.773842,1.614189,31.423531,51.784515,68.496437,-8.116035,15.244904,33.239594,43.77079,-15.822659,-20.462894,-24.928837,-29.574451,-22.359948,-28.645337,-28.727218,-28.397409,1.352828,19.177455,25.340702,28.163128,19.740125,41.277433,45.779285,46.007824,32.072608,51.97242,53.529333,55.114095,41.297688,55.83991,61.046704,65.18145,26.242504,50.147953,72.358532,91.41798,56.327991,85.646152,101.072216,111.713734,47.981358,81.205502,100.072231,112.756062,38.110085,69.239674,87.23917,99.380894,27.855034,52.523003,66.984844,79.035358,-15.473542,-16.48489,-10.041975,-8.418928,15.018997,30.867549,38.916962,44.758922,31.567305,46.519117,53.716436,58.30054,43.294017,58.388349,64.167323,66.665868,50.897468,65.54905,69.891957,71.096028,-29.695587,307.974746,-70.46751,297.775183
106,-3.343906,-0.643933,-0.532608,-0.260587,14.67207,28.501682,35.086498,33.719158,15.151978,43.031216,62.062626,71.722355,5.484695,36.023884,55.657482,71.159649,-4.551201,18.972416,35.828419,45.049839,-12.611732,-16.994705,-22.155476,-27.969646,-23.021603,-29.325888,-29.080677,-28.285147,2.945865,20.17528,25.735966,28.811384,21.32075,42.1709,46.343684,47.163791,33.512443,52.979322,53.792328,55.256492,42.849846,56.578074,61.700085,66.257945,26.147861,50.294895,72.784939,91.643887,56.111412,85.808773,101.729794,112.804928,47.4967,80.993099,100.352726,113.310871,37.493305,68.795071,87.23299,99.520969,27.350521,52.367477,67.167835,79.196262,-15.08365,-16.018921,-10.172269,-8.694643,15.672996,31.54069,39.406643,44.97511,32.180671,47.184848,54.27361,58.618184,43.777152,58.785095,64.657992,67.088859,51.230982,65.795434,70.109565,71.139253,-33.001528,307.277861,-70.962152,297.461645
107,5.058117,0.84172,0.134697,0.631398,11.482315,23.348351,29.162979,27.189789,7.762299,36.027832,55.778046,66.010094,-0.633488,29.184837,48.636932,64.080276,-9.012108,13.948345,30.126572,38.731041,-14.891968,-20.246716,-26.697006,-33.547726,-23.630771,-31.249352,-32.115216,-31.745455,3.795921,20.790067,25.688789,28.413217,22.111835,41.905991,45.259285,45.68666,33.909436,52.580291,52.424,53.46505,42.899061,56.003795,60.707571,65.117415,25.808201,50.201225,72.691555,91.512737,56.042919,85.744572,101.10323,111.540928,47.449265,81.264668,100.021076,112.528782,37.470303,68.963985,86.965542,99.007244,27.416439,52.062206,66.652737,78.48753,-15.523745,-16.59919,-10.705175,-9.112879,15.888566,31.397491,38.928386,44.306168,32.49671,47.023,53.769603,58.093306,43.970431,58.65437,64.156023,66.445481,51.175222,65.289946,69.326817,70.316614,-27.931824,307.993765,-70.815868,297.967227
108,-1.112938,2.962106,-0.661125,-0.671968,13.463402,25.352097,28.505402,25.116119,13.649082,41.678009,59.20784,66.751442,5.272064,35.293579,53.638344,67.053452,-5.256615,18.543262,34.642525,42.622833,-13.983307,-18.57605,-24.887409,-32.375336,-25.034729,-34.055661,-35.758984,-35.829997,2.595926,19.496766,23.389883,25.492855,20.381032,40.263492,43.094131,43.354038,31.627264,50.418841,49.70797,50.1133,40.745454,53.593862,58.292142,62.815298,26.213894,50.509014,72.856808,91.198139,56.196842,85.634937,101.405926,112.428875,47.812271,81.057987,100.19537,113.293705,37.883778,68.909969,87.185154,99.559307,27.657795,52.376175,67.113247,79.122906,-14.585571,-15.495154,-9.887723,-8.57423,16.133407,31.731622,39.517732,45.162461,32.220562,47.136436,54.280279,58.885316,43.503103,58.561312,64.485029,67.003211,50.928838,65.566773,69.983533,71.233793,-29.038954,310.892406,-71.471186,297.231795
109,29.285431,-2.429199,-0.221958,0.629175,4.629593,6.249275,1.030655,-8.068657,-18.30431,4.773331,24.356461,34.404373,-29.860382,-0.62748,19.995232,36.41304,-37.746563,-16.196709,3.39695,14.89872,-42.104187,-52.175388,-58.653145,-64.479847,-21.557007,-27.939159,-27.143937,-25.324647,5.708455,24.911536,30.326739,32.754703,22.581014,41.586432,45.387294,45.194262,33.366959,50.848006,51.166824,51.006273,42.550109,54.898401,60.171145,64.902771,25.686836,50.187321,73.003807,92.116241,56.761494,86.550293,102.392235,113.291473,48.714638,81.977234,101.020203,113.916092,39.044895,70.266495,88.399773,100.698624,29.196396,53.993454,68.356705,80.099831,-15.669291,-16.220351,-10.056178,-8.502229,14.346782,30.407879,38.526947,44.227127,30.714717,46.39117,53.977579,58.666596,42.364735,58.284979,64.298728,66.912067,50.116017,64.827744,69.137429,70.430729,0.280952,308.361566,-71.658669,297.759329
