takenoko1/special-research/HandMotion_SimilarSearch_自分用/NewProject/handData/key/d4_feature_d2/123.csv
,vel_0x_L,vel_0y_L,vel_0x_R,vel_0y_R,posFromWrist_1x_L,posFromWrist_2x_L,posFromWrist_3x_L,posFromWrist_4x_L,posFromWrist_5x_L,posFromWrist_6x_L,posFromWrist_7x_L,posFromWrist_8x_L,posFromWrist_9x_L,posFromWrist_10x_L,posFromWrist_11x_L,posFromWrist_12x_L,posFromWrist_13x_L,posFromWrist_14x_L,posFromWrist_15x_L,posFromWrist_16x_L,posFromWrist_17x_L,posFromWrist_18x_L,posFromWrist_19x_L,posFromWrist_20x_L,posFromWrist_1y_L,posFromWrist_2y_L,posFromWrist_3y_L,posFromWrist_4y_L,posFromWrist_5y_L,posFromWrist_6y_L,posFromWrist_7y_L,posFromWrist_8y_L,posFromWrist_9y_L,posFromWrist_10y_L,posFromWrist_11y_L,posFromWrist_12y_L,posFromWrist_13y_L,posFromWrist_14y_L,posFromWrist_15y_L,posFromWrist_16y_L,posFromWrist_17y_L,posFromWrist_18y_L,posFromWrist_19y_L,posFromWrist_20y_L,posFromWrist_1x_R,posFromWrist_2x_R,posFromWrist_3x_R,posFromWrist_4x_R,posFromWrist_5x_R,posFromWrist_6x_R,posFromWrist_7x_R,posFromWrist_8x_R,posFromWrist_9x_R,posFromWrist_10x_R,posFromWrist_11x_R,posFromWrist_12x_R,posFromWrist_13x_R,posFromWrist_14x_R,posFromWrist_15x_R,posFromWrist_16x_R,posFromWrist_17x_R,posFromWrist_18x_R,posFromWrist_19x_R,posFromWrist_20x_R,posFromWrist_1y_R,posFromWrist_2y_R,posFromWrist_3y_R,posFromWrist_4y_R,posFromWrist_5y_R,posFromWrist_6y_R,posFromWrist_7y_R,posFromWrist_8y_R,posFromWrist_9y_R,posFromWrist_10y_R,posFromWrist_11y_R,posFromWrist_12y_R,posFromWrist_13y_R,posFromWrist_14y_R,posFromWrist_15y_R,posFromWrist_16y_R,posFromWrist_17y_R,posFromWrist_18y_R,posFromWrist_19y_R,posFromWrist_20y_R,posFromBody_0x_L,posFromBody_0y_L,posFromBody_0x_R,posFromBody_0y_R
2,-9.318695,10.912656,0.24622,-0.591013,5.121574,11.404724,24.697037,34.237862,0.60339,31.142807,51.259689,62.716942,-8.684921,24.487038,42.815781,53.085365,-14.20887,9.505234,25.753326,35.482635,-15.372562,-18.690662,-21.234798,-22.892132,-18.915448,-29.168672,-33.614022,-35.800048,-5.906242,8.636474,15.716838,21.247946,10.790699,23.556177,25.780427,24.922837,23.450707,32.881292,33.533376,31.620225,32.786999,41.460091,43.263759,42.741289,25.943012,50.67873,74.089794,93.784847,54.963169,85.000591,102.039814,114.170437,46.340218,80.686512,100.596828,113.924618,36.131229,68.63039,86.646709,98.576603,25.796642,50.541573,65.327053,76.81509,-14.574517,-15.227775,-8.59152,-6.245313,14.22643,30.977959,38.909984,43.887253,31.638441,47.610617,54.634295,58.451026,44.227436,60.292053,64.700908,65.357686,52.50125,67.902976,71.05589,70.315256,-14.087677,327.621596,-70.963726,297.564583
3,21.935806,-17.266712,0.315628,-0.12134,4.473152,4.170227,-2.694054,-13.136101,-24.255753,-2.53315,16.79718,26.841545,-33.935966,-9.437141,11.545258,27.804794,-39.959335,-22.085667,-3.940315,7.523003,-42.536716,-52.077885,-57.758789,-62.602501,-20.504842,-28.437979,-27.851721,-29.047641,4.866179,25.931715,28.936181,28.517575,23.730498,42.674104,43.715648,41.838992,34.98908,51.844411,50.33449,48.338902,43.622344,55.200669,59.526162,63.426997,26.306648,50.778122,73.803349,93.741245,54.555588,84.642277,101.843777,114.095821,45.740376,80.244541,100.309696,113.653278,35.513191,68.17194,86.404667,98.444767,25.32835,50.021667,65.068417,76.730518,-14.311831,-14.775083,-8.116289,-5.973611,14.850727,31.482213,39.271904,44.101897,32.392043,47.989394,54.655351,58.14462,45.061931,60.849967,65.003424,65.34231,53.298139,68.569942,71.681175,70.722932,8.374786,310.388924,-70.121441,297.477284
4,-7.109413,10.555924,0.753136,0.249657,5.055084,9.083748,9.017487,5.234299,-13.394394,11.149063,30.834961,41.977844,-24.945374,3.228035,22.733231,35.269661,-30.775509,-13.177299,3.838577,16.051826,-32.291508,-38.819618,-39.090271,-37.506294,-17.840744,-26.675128,-27.736803,-27.377724,-3.563246,10.747783,18.020684,23.342397,15.127492,25.367748,29.639395,30.418562,28.927536,35.981718,38.645754,39.337297,40.746627,47.151935,47.94654,46.826634,25.903816,50.672092,73.949375,93.688602,54.501801,84.859829,101.993008,114.016743,45.441456,80.287914,100.118809,113.094349,35.115623,68.292904,86.354656,98.129139,24.917164,50.182743,65.121517,76.358929,-14.898213,-15.246609,-8.362364,-5.854063,14.610827,31.182044,38.773145,43.569609,32.108176,47.864967,54.584585,58.342407,44.571077,60.576845,64.823421,65.617223,52.537312,67.681971,70.657291,70.046642,1.509562,320.974381,-69.124117,297.756473
5,-14.819527,7.386399,-0.649681,-0.342406,5.34708,11.113472,24.820862,36.300087,1.379414,30.227051,50.02224,62.009811,-8.298626,24.0588,43.019829,55.228157,-14.366798,9.961052,26.003494,36.243095,-16.091194,-16.322079,-15.110149,-13.489609,-21.334088,-34.098454,-38.644828,-39.820865,-8.276716,6.383881,14.099966,19.706903,9.557297,22.838575,25.482543,25.162243,22.705565,32.468614,32.651518,30.686311,32.34641,40.862162,41.683072,39.922753,25.6493,51.037846,74.794292,94.655399,55.358963,84.821377,101.896305,114.448757,46.629868,80.547695,100.660801,114.125347,36.235313,68.51469,86.600018,98.576603,25.736847,50.343075,64.869518,76.039753,-14.700982,-15.148735,-8.630917,-6.147439,14.874933,32.174249,39.976537,44.553293,32.145535,48.215771,55.164607,58.493942,44.574597,60.851079,65.307791,65.654952,52.692059,68.810769,72.088295,71.332285,-13.234921,328.369734,-69.698753,297.423021
6,7.875195,-7.093085,0.430126,-0.000741,3.529072,10.007343,18.044987,18.776035,-7.184372,18.537998,34.949169,44.331951,-16.181202,14.597454,31.481953,40.79916,-20.171413,3.754635,19.84045,30.010815,-19.913464,-12.192822,-4.800396,2.69434,-18.668508,-27.87568,-27.004196,-22.650483,-2.496693,8.442331,14.776194,18.930453,15.734746,26.103813,31.800165,32.627868,28.143985,35.647587,38.728438,38.811492,37.763773,46.59365,46.512448,43.152176,25.774956,50.832481,74.398499,94.227791,55.267925,84.956474,101.926804,114.055595,46.722794,80.889244,100.900154,114.143257,36.584244,69.095192,86.976128,98.640175,26.425896,51.301403,65.643768,76.52195,-14.44126,-14.77323,-8.016377,-6.103349,14.716235,31.814245,39.775849,44.379774,32.100025,48.031199,55.116256,58.466093,44.699271,60.704978,65.182438,65.390969,52.942704,68.45132,71.64184,70.955175,-5.314665,321.317188,-69.223566,297.462819
7,-1.311779,3.920163,0.213203,0.275407,3.262138,11.211777,20.991096,24.481201,-3.162746,21.092377,36.305466,45.03994,-10.674534,16.536369,35.306168,48.141861,-14.234676,7.662506,24.030991,36.293907,-14.646435,-5.886955,1.753464,9.016685,-17.186807,-23.386301,-22.002536,-18.880621,-6.054875,6.216167,12.189037,15.670711,9.074841,20.724612,26.334575,28.251863,20.988224,30.089803,33.891837,34.898307,30.544039,39.153343,40.116773,39.535701,26.122169,51.136494,74.759789,94.628906,55.021591,84.964943,101.980705,114.033966,46.304855,80.765762,100.703545,113.740883,36.160412,69.025269,86.989174,98.539352,26.118965,51.07584,65.623055,76.577225,-14.288984,-14.631945,-8.182115,-6.355229,14.680666,31.605899,39.314635,43.707744,32.186291,48.098384,54.989298,58.127207,44.776644,60.722206,65.04282,65.145697,52.933626,68.370735,71.463628,70.64982,-6.596518,325.2537,-68.980436,297.754574
8,22.175217,-15.564377,0.468636,0.110657,2.227821,0.681267,-9.430733,-23.218517,-30.873528,-11.096878,9.567833,21.311989,-42.386456,-17.234573,3.66806,20.474968,-47.579556,-31.196766,-13.382492,-1.958199,-48.742561,-60.173779,-66.619549,-72.438526,-17.831111,-25.262032,-24.50244,-24.973966,6.991937,26.731753,30.03855,30.666243,25.331625,41.876351,42.465511,40.098989,36.363397,51.522197,49.75206,47.346758,44.546562,55.795635,59.529435,62.551191,25.958004,50.629349,74.081268,93.965607,54.709282,84.507751,101.564827,113.650246,46.000099,80.336952,100.184784,113.264008,35.696754,68.462906,86.467781,98.208733,25.357018,50.084724,64.732819,75.910492,-14.361602,-14.763659,-8.194774,-5.917171,14.51956,31.67969,39.400715,43.786291,31.805105,48.071337,54.964906,58.131776,44.299375,60.615872,65.057888,65.304272,52.44728,68.188757,71.48734,70.831983,15.676231,309.695683,-68.414268,297.871591
9,-15.165939,10.93748,-0.027809,0.22576,5.60463,9.473763,9.880943,7.571297,-14.0415,9.898109,30.003548,42.001648,-25.179234,2.071266,22.172356,35.872879,-30.455875,-13.212147,4.194946,16.686287,-31.328259,-37.114334,-36.165047,-33.910847,-19.460148,-29.23598,-30.724473,-30.19237,-5.265458,9.560508,17.105482,21.78888,14.162086,24.806376,28.931365,28.965575,27.979173,34.683786,37.63348,38.226963,39.204287,46.426739,47.904241,47.114947,25.68821,50.57476,74.078064,93.900833,54.857883,84.53968,101.539879,113.65448,46.154652,80.470276,100.357132,113.366547,35.753002,68.482819,86.46389,98.1847,25.284061,49.849377,64.377251,75.525742,-14.668069,-15.157194,-8.48216,-5.998682,14.02216,31.217489,39.045156,43.553739,31.476285,47.668231,54.633492,57.884095,44.135675,60.352012,64.698932,64.913268,52.35768,68.14936,71.387922,70.621167,0.567369,320.637332,-68.385,298.101519
10,-11.828156,5.593476,0.463715,-0.604351,5.017662,10.830002,23.632622,34.990768,-1.818924,26.509209,46.867905,60.071869,-10.601864,20.192528,41.130638,56.2714,-15.923195,7.757835,27.228584,40.561981,-16.691666,-20.116882,-21.41367,-22.693806,-21.856188,-33.676143,-37.275636,-38.55529,-9.59904,4.592872,12.911641,18.899702,9.094477,23.217476,26.456717,26.40145,23.10509,33.899679,35.647648,34.556025,33.727581,42.569561,45.732726,45.644361,25.981178,50.434055,73.648453,93.405418,54.591293,84.434624,101.65947,114.01165,45.650425,79.935951,100.016556,113.269501,35.018234,67.63092,85.969162,98.132172,24.319324,48.758698,63.550873,75.023346,-14.091629,-14.386364,-7.699041,-5.245203,14.412237,31.899707,39.691992,44.167908,31.617569,47.960001,54.955705,58.306468,44.100106,60.598767,65.19732,65.643528,52.201205,68.386605,71.923792,71.297149,-11.235838,326.220819,-67.896338,297.487179
11,9.522171,-3.013914,0.445232,-0.260401,3.007393,9.30748,17.346725,19.480591,-10.157375,13.645592,32.189827,43.92334,-19.575577,8.067856,27.825279,40.393639,-23.712101,-5.58569,11.467094,24.481659,-23.396759,-24.736118,-21.812496,-17.160473,-18.115224,-26.619553,-27.427989,-26.667039,-4.751262,9.288867,15.040918,19.08909,12.704345,24.462426,28.18579,29.029671,25.463647,34.67545,38.149466,38.641123,35.761269,44.584724,45.951507,45.403472,25.822906,50.274353,73.380833,92.692738,54.775658,84.348392,101.447811,113.706493,45.819511,79.560986,99.413967,112.603512,34.860191,66.894779,85.081272,97.328739,23.593826,47.573948,62.116814,73.245106,-14.001103,-14.033399,-7.257773,-4.88841,14.807008,32.335356,40.1114,44.418059,31.604417,48.267704,55.547892,59.045991,43.774867,60.537263,65.366207,65.939745,51.615626,68.166342,71.852779,71.302707,-1.694899,323.198939,-67.432337,297.218812
12,-4.746895,6.280758,-0.374622,-0.229094,3.214645,8.338852,19.364891,27.811089,-2.309361,23.382339,41.091728,52.919083,-10.35593,17.437248,36.291389,50.5299,-14.879379,4.673996,21.178436,33.703423,-15.931778,-16.502781,-14.671783,-12.073231,-20.14212,-30.91485,-34.97568,-35.350629,-8.639994,3.932204,11.649956,17.167356,8.139754,18.874075,23.034447,23.994975,21.001809,29.860894,31.866238,31.270285,30.962892,39.08375,40.651346,39.367061,25.954685,50.392742,73.604965,92.919846,55.292358,84.670715,101.758118,114.244537,46.470623,79.64756,99.532242,113.015213,35.526237,66.992111,85.374527,98.058357,24.111385,48.004131,62.752304,74.440269,-13.811591,-13.848456,-7.252648,-4.935772,15.066421,32.163505,39.910897,44.336549,31.681481,48.072325,55.409756,58.895196,43.723738,60.501078,65.628338,66.324203,51.657492,68.539005,72.434777,71.9283,-6.420135,329.466961,-67.785301,296.976982
13,-4.392757,0.13159,0.64064,0.984363,7.362385,15.642757,25.383396,30.275745,3.530331,28.926258,45.200901,54.327564,-5.306911,23.001537,40.813122,53.663807,-10.760078,10.113659,25.322628,37.034054,-12.824879,-11.277924,-10.07143,-7.558994,-18.41422,-26.383852,-29.970748,-32.174743,-9.714884,2.086176,9.327832,14.646518,5.86703,16.997542,21.746087,24.134655,18.498571,27.497211,30.46154,31.917491,29.034488,36.486651,38.780247,40.192849,25.852547,50.383987,73.226624,91.906815,53.198204,84.500542,102.037354,114.291573,43.922024,79.449005,99.584084,112.543259,33.814087,67.398376,85.814209,97.648315,24.237728,49.658146,64.78672,76.098747,-14.166039,-14.516349,-8.017056,-5.375065,14.961384,31.971955,39.576333,44.471597,32.05291,47.90529,54.761253,58.435403,44.23287,60.219496,64.633477,65.303284,51.842188,66.824258,70.085915,69.589936,-10.796328,329.603322,-67.128096,297.966115
14,2.806549,-4.179083,0.265217,0.189327,7.082119,16.327801,27.020817,30.337429,-0.089607,25.078754,41.125202,50.104237,-10.215454,19.621296,38.965702,52.227459,-15.091553,8.158321,25.077038,38.10957,-15.365467,-11.256409,-7.383099,-1.23951,-15.15633,-21.551573,-20.779631,-17.407688,-6.244016,4.360258,10.287804,14.930694,9.766136,18.544143,24.658792,26.972765,22.084911,28.664788,32.963234,34.591593,31.49129,38.080182,40.22428,41.525732,25.825253,50.137768,73.035908,91.583004,53.957348,84.930439,102.450314,114.995556,44.517174,79.318714,99.206142,112.207546,34.032612,66.934719,85.265636,97.315807,23.86528,48.890533,63.979855,75.562763,-14.01617,-14.69419,-8.623507,-5.872217,14.936498,31.272755,38.877195,43.734606,31.84938,47.669095,54.644916,58.335738,44.012421,60.053325,64.65194,65.426785,51.857317,67.220943,70.384355,69.600865,-8.009748,325.411487,-66.882849,298.142691
15,-1.699047,4.797513,0.234947,0.769781,7.914047,17.746353,26.469269,29.054031,3.990555,27.200546,42.322426,51.300545,-5.322533,21.744804,41.255722,56.475906,-10.615196,13.111153,29.888878,43.729248,-12.056808,-3.398552,4.404716,13.042603,-17.040644,-22.041254,-20.136624,-17.567066,-12.838034,-4.908787,0.817822,5.638554,2.670397,12.520637,19.149853,21.57263,16.256784,23.601625,28.146147,29.970624,27.883893,34.019722,34.696568,35.013966,25.529366,49.967422,72.884274,91.459751,53.279686,84.667683,102.123928,114.446812,43.861027,79.29903,99.24963,112.20171,33.56123,66.934376,85.325603,97.2999,23.68269,49.039536,64.265041,75.636921,-14.443977,-15.311323,-9.05261,-5.976514,14.487079,31.102818,38.692499,43.508352,31.753482,47.440125,54.175057,57.822715,43.951658,59.775078,64.045984,64.678555,51.602164,66.418311,69.399312,68.635521,-9.721785,330.209402,-66.660891,298.912873
16,25.346947,-19.565124,-0.316029,0.253547,1.324654,0.476074,-8.611107,-22.014484,-32.206593,-12.101212,9.47216,21.998405,-42.708092,-17.468147,5.432053,23.865967,-47.034645,-30.31002,-11.35025,0.967369,-47.381458,-58.581161,-64.535351,-69.463577,-17.304194,-25.051957,-25.547133,-27.110777,5.000363,25.221894,29.842801,31.152836,23.467565,40.858642,42.80872,40.820913,34.839397,50.4181,49.976276,48.230406,43.274071,54.681719,59.0844,62.582808,25.505104,49.838848,72.510338,90.759888,53.419075,85.112801,102.531853,114.853706,44.108047,79.627304,99.683762,112.625427,33.938198,67.113419,85.734787,97.839775,24.155331,49.554462,64.813499,76.353035,-15.128233,-15.830583,-9.356422,-6.54789,14.047786,30.205152,37.788782,42.752342,31.371,46.959892,53.792822,57.602328,43.543674,59.214261,63.697526,64.662191,51.053882,65.880897,69.007567,68.470154,15.577412,310.647196,-67.02467,299.169338
17,-13.788185,11.744928,-0.142021,-0.501043,5.435257,7.931671,8.003769,6.031151,-14.984207,8.831406,30.212517,43.042946,-25.622349,1.115685,21.595459,36.812439,-30.286045,-15.24559,0.41748,11.24897,-30.195866,-40.268497,-44.887733,-49.232025,-20.690587,-31.089418,-34.133713,-34.705152,-7.954935,8.28777,18.129859,25.253387,11.550291,24.146449,28.735801,28.605508,25.43413,33.584135,35.141171,35.330189,36.842642,43.816178,44.711312,43.776843,25.758133,50.167408,73.028183,91.772118,53.746948,84.95018,102.429886,114.827271,44.606838,79.66713,99.842148,112.949524,34.42131,67.28714,85.860329,98.123817,24.545746,49.81041,64.93618,76.656761,-14.873575,-15.528067,-9.077125,-6.105634,14.31214,30.811233,38.651065,43.755292,31.553534,47.206708,54.413969,58.350558,43.68749,59.461756,64.239015,65.296491,51.235922,66.373851,69.786487,69.525962,1.640739,322.375945,-67.315178,298.652116
18,-25.560493,8.014401,0.029469,0.299551,9.312687,18.445587,31.906586,46.504669,12.959976,41.380577,61.133423,72.452545,5.088558,33.549843,53.605614,67.971382,-1.764965,23.106194,40.590706,51.742287,-5.244999,-4.699173,-6.718025,-9.482803,-24.483606,-37.308364,-43.317976,-46.178378,-14.519683,-2.327497,6.421672,13.835365,4.544707,19.897156,23.6212,25.894171,19.355852,30.568615,32.003077,32.267493,29.920112,39.47426,43.810929,45.277193,25.971222,50.442181,73.097363,91.737499,53.888168,84.855824,102.239056,114.546146,44.628181,79.407749,99.40424,112.405643,34.444027,67.329082,85.868168,98.073406,24.645996,49.964333,65.322132,77.121449,-14.813121,-15.604329,-9.302514,-6.144598,14.687459,31.473012,38.933203,43.614069,31.843514,47.575049,54.334188,57.975115,43.878978,59.677389,64.087109,64.871587,51.413517,66.312718,69.507931,69.110197,-23.937893,330.381979,-67.303848,298.9433
19,39.780464,-20.701085,-0.256405,-0.250398,1.702423,1.355553,-7.113991,-19.214859,-32.465172,-12.811317,8.599892,21.550827,-42.461929,-18.295097,4.508972,23.173485,-46.886787,-31.016235,-11.691628,0.918846,-47.343235,-59.749088,-66.793785,-73.052902,-18.087498,-26.021685,-25.876078,-27.571744,7.428204,26.798197,30.814258,32.571675,25.265613,42.531893,44.302648,43.032442,35.786896,52.023178,51.493669,49.822888,43.830628,55.126631,60.522073,65.391093,26.04126,50.489674,73.257065,92.091293,54.160938,84.708824,102.068253,114.521484,45.099163,79.542732,99.573784,112.675667,34.957466,67.445526,85.71579,97.654724,25.060101,50.09737,65.102692,76.769829,-14.44762,-15.422968,-9.362721,-6.275262,14.396306,31.250896,39.154331,44.203847,31.504319,47.30625,54.530307,58.426017,43.797221,59.575007,64.285575,65.204977,51.750427,67.0896,70.345514,69.757958,15.811758,309.688999,-67.591066,298.701007
20,-13.377686,12.002242,-0.04446,0.177285,4.930344,7.408562,5.785103,1.670036,-16.119576,8.231049,29.420128,42.289124,-27.10516,1.182747,22.010422,36.833496,-32.173176,-14.966927,2.750702,15.628853,-32.910576,-40.545044,-43.087864,-44.421329,-19.15257,-29.507867,-33.178249,-34.407824,-5.439717,10.676893,19.340414,25.41579,13.646779,25.636054,29.857744,29.474892,27.357964,35.065218,37.009986,37.278909,38.828227,45.732355,46.672073,45.612251,25.924358,50.551472,73.295116,92.408123,53.938179,84.802151,102.142696,114.411335,44.681225,79.604015,99.633579,112.527409,34.617519,67.711773,85.98032,97.686825,25.004826,50.471535,65.575275,77.064228,-14.611012,-15.544369,-9.233971,-6.016096,14.354069,31.473506,39.199903,44.17007,31.854444,47.625684,54.394888,57.969867,44.280912,60.008495,64.255873,64.736724,52.115248,66.96579,69.986805,69.241293,2.432842,321.6928,-67.636757,298.879852
21,-23.300858,6.283413,-0.293598,0.195564,7.803955,15.612602,30.69191,46.086159,8.461189,36.748924,56.822205,69.357262,-0.490608,29.134712,49.262009,64.295425,-7.677383,16.734467,34.928284,46.991615,-10.624352,-12.574139,-15.320492,-18.781013,-22.653633,-34.778264,-39.845935,-43.612155,-11.202451,4.215392,13.773923,21.239301,7.572021,23.387289,27.290533,28.076986,22.231507,33.916352,35.560148,34.851315,32.765818,41.554816,45.524688,46.249021,26.080456,50.820808,73.83316,92.886658,54.557533,85.37693,102.527046,114.607086,45.431614,80.338211,100.345345,113.186073,35.381126,68.301315,86.404953,98.041306,25.706291,51.261234,66.190109,77.638092,-14.797869,-15.772846,-9.58175,-6.634032,14.204324,31.020072,38.967289,44.199278,31.606825,47.254256,54.275216,57.942635,44.021992,59.587233,64.114341,64.797054,51.92129,66.683282,69.790871,69.171638,-20.876942,327.965376,-67.939281,299.064578
22,29.840355,-18.40539,-0.470238,-0.023218,2.9282,3.799095,-2.301521,-12.980232,-25.553627,-3.646774,16.109276,26.90197,-35.136337,-9.26445,11.878166,28.931236,-40.656052,-22.681789,-4.421539,7.012024,-42.645264,-53.703575,-60.750904,-67.421265,-19.185112,-27.016237,-26.469191,-28.631258,8.130677,27.446329,30.820742,31.956579,26.069665,44.084298,45.502582,44.596024,36.400015,53.425098,52.092833,50.470896,44.221014,56.06993,61.124572,65.786851,26.282616,50.966377,74.026451,93.289032,54.314003,85.374527,102.569847,114.734116,45.36129,80.580025,100.672531,113.485565,35.581913,68.862419,87.065964,98.586159,26.22551,51.920872,67.000694,78.592415,-14.793978,-15.887022,-9.642327,-6.448534,14.174931,30.994693,38.882073,44.039159,31.763362,47.366642,54.221184,57.732127,44.308761,59.820773,64.125889,64.560241,52.241281,66.963135,70.063746,69.280442,8.947134,309.532307,-68.425798,299.01368
23,-10.240059,9.035814,-0.279465,-0.112386,5.807762,10.362625,9.916191,4.307442,-13.196869,12.790031,34.154205,46.448936,-24.967747,4.768982,27.419243,41.190033,-31.212444,-11.322155,8.220978,21.597977,-32.98233,-37.466011,-34.604645,-30.25383,-16.440244,-22.027854,-20.675767,-17.486852,-2.206651,13.720262,21.04948,26.149447,15.61495,27.820907,32.777304,33.971742,29.205104,37.996017,41.108731,42.198503,41.376419,49.159873,51.34448,51.857749,26.561108,51.457329,74.493484,93.732147,54.339066,85.670929,102.902298,114.997444,45.244961,80.648689,100.674591,113.454208,35.446987,68.572769,86.804466,98.40992,26.235237,51.500874,66.51329,78.045044,-14.863262,-15.985082,-9.739275,-6.387277,14.396738,31.210078,39.031818,44.139997,31.941821,47.618151,54.544324,58.078918,44.31932,60.070307,64.568083,65.098334,52.016818,66.981413,70.285677,69.571349,-1.307545,318.545336,-68.719883,298.878509
24,-10.115776,11.103156,0.396194,-0.27269,5.124836,11.016426,23.562355,32.832985,-1.491909,28.299637,48.733406,61.468849,-10.807686,21.505508,41.045494,54.266052,-16.409111,7.501602,25.510712,37.513161,-17.316914,-22.57822,-25.825024,-27.912254,-19.397966,-30.941588,-38.367322,-45.207106,-10.041605,6.080131,15.151946,21.801847,6.986318,21.921335,25.024169,24.760433,20.530098,31.84691,32.660287,31.587682,30.875268,39.191875,41.461635,42.0453,26.36816,50.900745,73.689651,92.817879,54.272633,85.339851,102.689896,114.758263,45.245819,80.460091,100.482788,113.212051,35.402126,68.566475,86.824722,98.331757,25.960121,51.396503,66.423683,77.794189,-14.490228,-15.519669,-9.103307,-5.753842,14.848442,31.628314,39.376138,44.415898,32.187587,48.071708,55.023507,58.693581,44.460111,60.370537,64.782357,65.330022,52.204478,67.093181,70.320937,69.727145,-11.443005,329.635463,-68.343372,298.59279
25,8.48877,-3.557997,-0.314198,-0.181793,2.428665,6.169281,16.297646,23.293304,-11.563625,15.431328,35.59433,48.666229,-20.20895,10.453835,32.18399,46.95694,-24.366417,-2.548199,18.010712,32.845688,-24.155617,-29.250126,-31.420383,-32.387581,-18.414035,-27.598606,-30.278388,-29.749187,-5.731179,10.050127,18.085028,23.409952,11.349787,24.42025,27.506227,27.077185,24.112795,34.77246,36.052114,35.068676,34.264871,41.990157,45.762736,48.767326,26.487293,51.157894,74.159145,93.263912,54.248886,85.432148,103.16843,115.699368,45.310764,80.46278,100.689983,113.676853,35.409737,68.67754,87.095547,98.731213,25.835667,51.272392,66.404972,77.71471,-13.886865,-14.872154,-9.313197,-6.422166,15.105818,32.022961,39.76072,44.643819,32.150723,48.281474,55.180106,58.634363,44.48827,60.78303,65.173546,65.463341,52.463891,67.972692,71.058546,70.163535,-2.93066,326.075752,-68.633995,298.409283
26,-4.102077,3.493715,0.328732,-0.34148,3.588924,7.838802,17.697887,26.574612,-5.5933,21.504078,40.475178,52.545261,-13.110523,15.973721,36.74509,51.939869,-17.200127,4.658375,25.020504,39.498539,-17.650909,-24.807644,-29.744797,-34.003258,-20.610497,-31.951639,-38.01343,-41.429154,-10.103973,5.421624,14.018949,20.029858,7.091911,22.081392,25.937396,26.305676,20.501137,32.454658,33.13169,31.611827,30.576519,39.006438,43.505574,45.826463,26.457539,51.194401,74.131622,92.977066,54.147835,85.482101,103.239212,115.658569,45.182362,80.465012,100.804825,113.781509,35.217991,68.762627,87.221718,98.899155,25.557003,51.291676,66.44371,77.731705,-13.929411,-14.708084,-9.032727,-6.064014,14.892717,32.153007,40.026432,44.867541,31.999557,48.538417,55.56864,58.863951,44.49358,61.104194,65.560968,65.7406,52.625801,68.339613,71.449179,70.41523,-7.024727,329.567321,-68.297253,298.065657
27,-2.558212,3.151124,-0.149288,-0.029578,5.795574,10.8605,20.088787,29.017582,-2.955265,25.559978,45.01173,57.396297,-10.666294,18.737011,39.096279,54.569721,-15.073757,7.791882,26.945171,40.489826,-15.481682,-20.930328,-25.744286,-30.317688,-21.021693,-33.594694,-42.466499,-50.190056,-12.282219,1.830838,9.767865,15.308606,5.006291,19.627307,22.617076,22.639677,18.646525,29.998659,30.048924,28.962178,28.735739,36.568409,40.191614,42.113534,26.219101,50.910816,73.907375,92.861423,54.290085,85.572567,103.387585,115.856266,45.299034,80.622997,100.885906,113.732815,35.29747,68.906765,87.248211,98.719082,25.661373,51.371498,66.455669,77.656231,-13.860683,-14.718396,-9.085956,-6.265753,15.295145,32.502144,40.379706,45.226249,32.419954,48.689953,55.647063,58.94225,44.919781,61.246158,65.566587,65.698548,53.030451,68.715735,71.729711,70.646485,-9.567919,332.714832,-68.43152,298.032466
28,-2.293396,6.318117,-0.032158,-0.297822,7.874622,13.093243,18.174419,23.344975,2.298603,30.164509,48.611698,59.557972,-5.565376,21.862392,40.663891,55.983639,-11.452961,10.132656,27.351665,40.705547,-13.731308,-18.858032,-25.148335,-29.82439,-20.985445,-34.52163,-45.191422,-57.143523,-17.806966,-5.316402,2.273033,7.875401,-1.255077,12.119136,16.448828,18.771322,12.556699,23.705551,24.716405,25.429561,22.591018,30.47741,33.701769,35.380763,26.520138,51.206589,74.121494,93.047047,54.402809,85.972195,103.664188,115.981808,45.219154,80.786648,101.031361,113.904362,35.074368,68.761768,87.277966,98.991222,25.338593,51.169968,66.400967,77.745037,-13.934104,-14.671898,-8.858529,-5.817198,14.994297,32.253599,40.191182,45.179998,32.221427,48.511247,55.469284,58.878462,44.672409,61.024659,65.570601,65.99884,52.638706,68.194438,71.31234,70.367991,-11.857195,339.032934,-68.459558,297.734629
29,6.252823,-11.717758,0.216007,0.303503,10.349751,14.663372,20.166721,21.478558,-8.410721,16.19173,36.108227,51.849346,-16.369572,11.232204,29.148045,46.990986,-18.834858,4.646587,22.447529,35.388279,-16.05526,-19.273453,-23.67651,-26.833134,-18.692961,-28.959708,-31.603058,-35.970603,-10.6475,4.890509,12.897438,16.080795,6.813849,22.573481,26.997898,28.981506,20.358555,35.80221,35.874149,36.337586,31.357353,44.146481,48.06757,53.099488,26.509609,51.061192,73.689766,92.517471,54.374313,85.811806,103.218269,115.254021,45.16674,80.672493,100.793037,113.549995,35.045013,68.701057,87.02774,98.539581,25.402851,51.174088,66.208878,77.392159,-13.943922,-14.885616,-9.128378,-6.089208,14.597797,32.153934,40.25108,45.347774,31.805785,48.266345,55.390305,58.835299,44.288939,60.645265,65.244312,65.636118,52.240231,67.792813,70.964747,70.082148,-5.607233,327.308877,-68.246412,298.031833
30,17.865429,-19.339859,0.187225,0.021119,4.251823,4.505424,-3.865814,-15.934525,-29.015923,-9.806213,11.070786,23.555603,-40.249786,-16.086617,6.944847,26.066666,-45.831757,-29.420242,-9.254837,4.241524,-47.318344,-58.635006,-65.004616,-70.521183,-18.268736,-25.146744,-23.861718,-25.299453,7.061283,27.966762,33.242223,35.609178,25.202998,43.545711,46.506705,46.050925,36.028031,52.643029,53.012729,52.244121,44.465051,55.461503,61.147913,66.455114,26.413078,50.825958,73.376656,92.41539,54.342842,85.527077,102.900009,114.932442,45.274258,80.394516,100.41069,113.073692,35.213642,68.423538,86.448669,97.729454,25.64003,50.898285,65.550842,76.423988,-14.177401,-15.178004,-9.355064,-6.40006,14.604713,32.054577,40.275224,45.462382,31.939289,48.387993,55.614768,59.15109,44.456345,60.759133,65.304519,65.674218,52.419801,68.071246,71.212613,70.246836,12.259912,307.984657,-68.05747,298.06859
31,-6.369324,9.762493,-0.122051,-0.096454,2.8022,5.042152,3.335724,-1.920662,-21.161728,2.563591,23.86116,37.01786,-31.86573,-3.720589,18.859291,34.242668,-36.456928,-17.924881,3.098831,18.35392,-37.070503,-44.599056,-44.296989,-42.039413,-17.531065,-23.719198,-20.33262,-15.078895,-2.979272,13.545015,22.120912,27.769531,15.523374,26.924785,32.561548,34.398438,29.394863,37.559194,41.546171,43.583317,41.524312,49.478197,51.337625,51.834654,26.255207,50.745049,73.438282,92.238064,54.709167,85.745144,103.107319,115.138607,45.744667,80.57127,100.558949,113.240032,35.596905,68.617229,86.667652,98.026371,25.814667,51.136894,65.837116,76.743565,-14.138066,-15.135582,-9.406317,-6.415127,14.686594,32.162393,40.368714,45.499927,31.90829,48.259923,55.534924,59.016289,44.472214,60.745054,65.339284,65.728806,52.5249,68.135652,71.326851,70.402324,5.896711,317.742349,-68.173399,297.967335
32,-19.903908,13.648879,0.321808,0.063109,6.360111,11.621819,21.444397,30.85144,2.671223,32.617264,53.374329,66.137352,-6.021366,24.626312,44.63665,58.971977,-12.507019,11.641045,29.704742,41.662674,-14.685917,-18.464012,-22.123833,-25.862503,-21.097955,-34.110063,-42.224191,-47.885407,-12.561516,1.933899,11.567952,18.838445,5.415635,20.544486,24.597597,25.173543,19.528938,31.202421,32.699684,32.006288,29.904984,38.671628,41.706969,41.75427,26.300812,50.701675,73.323269,92.239895,54.749165,85.879154,103.222103,115.038815,45.657749,80.640049,100.540981,113.098469,35.360126,68.563786,86.656666,98.021679,25.446339,50.878487,65.733204,76.697674,-14.085516,-15.080624,-9.121833,-5.872958,14.650285,32.192219,40.314744,45.395568,31.814059,48.188787,55.514423,59.06853,44.264733,60.588825,65.214857,65.626547,52.218063,67.820107,71.036686,70.184654,-13.994551,331.389005,-67.838945,298.028221
33,12.638741,-3.925906,-0.267735,0.325239,2.074013,6.21048,14.903526,17.398796,-11.794395,15.52494,35.543861,47.314224,-20.219307,10.745544,30.386581,41.25824,-23.853035,-3.506699,13.660011,25.285835,-22.329311,-27.179203,-30.126572,-31.243343,-16.633153,-24.246485,-25.500265,-23.905499,-5.314179,6.939573,14.387722,20.220358,10.569571,19.653859,23.553583,24.225736,22.706985,30.176747,32.817503,32.917724,32.707896,39.703601,42.336268,43.9369,26.341038,50.871735,73.885689,93.352318,54.569778,85.437698,102.661171,114.657898,45.951462,80.928841,100.995026,113.892517,36.069889,69.207916,87.298508,98.793297,26.369076,51.826687,66.570969,77.647934,-14.030867,-15.20573,-9.441453,-6.282302,14.093605,31.401999,39.449806,44.455727,31.358465,47.601849,54.833748,58.239592,44.050521,60.213629,64.765191,65.052762,52.311121,67.776079,70.884348,69.880965,-1.380272,327.459255,-68.131142,298.349616
34,5.126038,-16.521693,0.742722,0.659741,5.635757,7.34127,2.584534,-7.307625,-20.761471,2.453041,21.718826,32.121506,-30.578613,-3.64975,17.650566,34.980011,-37.298183,-18.022499,0.514526,11.950722,-40.397015,-50.339413,-57.132683,-64.139328,-21.3218,-29.215417,-28.379995,-29.910665,6.047897,25.196576,28.62922,29.816866,24.1165,42.98687,44.446403,44.234105,34.710215,52.236958,50.74513,49.815663,43.199971,54.52549,58.992021,63.631083,26.013794,50.380898,73.236923,92.948112,54.534988,85.287209,102.348289,113.996658,45.731964,80.576591,100.438385,112.806473,35.785503,69.057198,86.869812,97.762985,26.204453,51.565018,66.171455,76.835861,-14.33085,-15.306013,-9.24379,-5.759214,14.621386,31.565637,39.455611,44.335561,32.005424,47.798956,54.663194,57.826235,44.495803,60.242652,64.324169,64.313239,52.497483,67.527842,70.273574,69.154904,3.736811,310.929518,-67.397375,299.001315
35,-1.285057,0.248916,0.447121,0.255894,-2.255287,-2.616005,-4.728699,-12.545128,-19.478817,4.973259,26.000175,39.505692,-29.195995,-1.34594,21.98307,35.816231,-34.345493,-14.552193,6.174431,19.501648,-35.360985,-40.822334,-35.610352,-29.337101,-9.884635,-5.058532,8.947449,23.337395,9.768359,25.507984,30.775788,34.023983,23.137138,36.592553,40.444359,42.099208,33.902149,45.819794,47.624449,49.32061,43.946718,54.601258,57.567563,59.692641,25.691643,50.312347,72.854576,92.329216,54.734516,84.785271,101.555214,113.088799,46.031399,80.143089,99.853134,112.703819,36.062622,68.29937,86.319809,97.775803,26.174526,50.838146,65.427818,76.010399,-14.644048,-15.219192,-8.718355,-4.97628,15.442852,31.813689,38.947652,43.327115,32.865175,48.436653,54.552784,57.679948,45.021237,60.785191,64.6378,64.796498,52.759984,67.552295,69.895724,68.665038,2.423201,311.172321,-66.978807,299.251095
36,-18.016319,15.604885,-0.448151,-2.085126,4.611855,8.601894,11.123543,8.033924,3.173161,29.994049,47.813759,59.660225,-5.302162,21.656113,40.471115,53.089714,-11.178417,7.562428,21.710587,32.145996,-14.161434,-15.97332,-17.354393,-16.591415,-8.7559,-4.188098,6.3288,18.773978,-0.839867,11.673915,21.291419,29.425986,10.53709,24.988539,32.372221,36.859562,20.950001,33.777599,38.544545,41.486767,30.943502,41.850168,45.825536,48.878292,25.342655,51.018906,74.26918,94.160614,56.361408,84.694061,100.237541,111.072006,46.791916,79.042397,98.063049,110.854683,35.553989,66.074524,83.415298,94.74575,24.679241,48.835258,62.800484,73.291512,-15.383139,-14.724818,-7.534847,-4.18359,17.009583,36.121336,46.413092,53.649869,34.194476,53.013099,62.424109,67.99097,45.920323,64.278659,70.327668,71.910269,53.120421,68.93711,73.11996,73.540542,-15.687847,326.778487,-67.521687,297.16725
37,34.248047,-24.537946,-0.569859,-9.646279,5.34256,6.798592,-0.170059,-9.567375,-29.399529,-15.441742,1.242142,12.044449,-45.042171,-29.864902,-11.210747,7.449875,-55.112,-46.525898,-29.179974,-13.457336,-61.249752,-73.870411,-79.310303,-80.789795,-10.998489,-12.445796,-5.850358,0.798556,-0.028961,30.215094,48.764362,62.577065,16.202752,41.250757,59.300526,72.236558,28.515908,48.225466,63.00024,74.213374,38.124334,51.16565,60.808595,71.179268,26.056824,51.991081,72.840214,90.842342,57.478638,83.488827,96.37476,105.093327,45.762806,73.09473,87.983837,97.6581,31.459007,55.775471,70.174198,80.141773,16.728687,35.303478,46.313038,54.786873,-13.89656,-8.355448,2.381405,3.821548,20.350404,43.160018,55.399135,64.374743,35.679326,61.363916,75.615479,85.153324,46.401112,71.575582,83.184968,89.965163,53.235277,73.578333,81.839118,86.332078,18.541317,302.177123,-68.110428,287.457554
38,15.04303,4.996473,7.94466,-20.121001,-18.865929,-39.996815,-55.517178,-72.467422,-65.884609,-82.371826,-91.793289,-99.517422,-62.670822,-70.529881,-67.854881,-65.841351,-54.060917,-56.755943,-44.975224,-35.085869,-41.205654,-43.186111,-34.701805,-26.88652,29.396407,49.491905,59.780759,67.49567,30.089988,37.476263,44.832096,53.138638,13.682101,21.396271,29.727945,36.381243,-1.915436,6.637984,15.957356,21.827721,-16.473096,-8.38904,1.329425,8.642402,31.534424,52.372341,63.708687,67.715034,48.373203,69.890213,70.037613,67.254982,36.973972,55.063591,52.1731,45.798397,22.15313,30.92989,24.81245,18.002186,5.864811,10.211449,6.045284,0.48357,10.656639,28.927474,48.037807,61.524899,21.819508,52.929613,71.859634,81.239583,28.98799,66.348965,85.848016,92.651121,37.282429,73.661758,90.087676,95.192583,44.603372,72.820902,85.010063,88.171931,33.266544,307.218072,-60.48357,267.381028
39,6.236343,-1.817932,-15.760345,-61.154891,-26.306763,-47.633858,-65.592327,-80.613785,-54.275894,-82.208176,-97.489243,-109.070435,-47.07653,-77.582874,-95.608292,-109.743176,-37.907753,-65.868931,-82.978134,-95.532303,-28.136444,-50.19001,-63.31255,-74.221115,-11.51602,-9.849314,-1.265575,5.810467,11.963093,26.016622,34.208308,40.842772,26.01798,41.93736,50.15881,56.30489,36.913717,52.423568,59.965146,64.777417,45.087496,58.345247,64.714123,68.097737,40.853462,67.10598,76.560974,74.19857,92.054214,90.390816,68.402309,46.480808,79.00589,74.376068,48.134708,21.579437,58.545341,54.75832,32.523766,10.476894,34.584789,40.704861,30.035763,15.719833,30.941279,63.464789,88.380339,106.956777,68.826762,123.404555,150.102284,163.199176,61.517922,120.728539,148.242485,160.085288,57.703537,111.427939,137.832662,148.845601,55.869303,95.565246,115.914909,124.83877,39.215755,305.930143,-76.531048,206.756141
40,2.71534,-4.625415,-21.307869,-52.618144,-23.962326,-47.095871,-66.141014,-78.96286,-54.35915,-83.151283,-99.406071,-111.35416,-47.481995,-78.97768,-97.796001,-112.379036,-38.016014,-67.449131,-84.647713,-97.396774,-27.287064,-50.95499,-64.136753,-75.016365,-18.061378,-15.771611,-1.14442,10.849609,11.244133,27.788365,36.718771,44.122398,27.666346,43.236774,52.349406,59.632002,39.711875,53.872109,62.510868,68.916362,47.825385,60.882695,67.208716,71.523464,36.591682,71.09808,94.904137,105.358315,71.838226,108.660622,117.596741,117.243233,57.506676,96.825256,103.787956,101.250229,41.249199,78.496056,86.569405,85.303459,26.270142,57.793751,69.758091,71.980934,-8.409295,1.148496,17.94115,33.347507,8.491917,31.448126,47.232087,54.149183,24.777106,50.509737,60.592098,62.506546,41.038583,66.872485,70.670938,67.571685,54.850791,73.552151,73.855345,69.463656,42.005825,302.794504,-97.764187,155.627773
41,2.470436,-1.790021,-22.25441,-51.411479,-25.537949,-48.576965,-67.965946,-82.511559,-55.17334,-84.39949,-100.670929,-112.594929,-48.069305,-80.056744,-99.037685,-113.957577,-38.260345,-68.207989,-85.754757,-98.983498,-26.987801,-51.356049,-64.967079,-76.271553,-16.717566,-13.937932,1.428719,13.208413,12.911764,29.475386,37.729996,44.28122,28.977554,44.187977,53.107392,60.510402,40.43454,54.718769,63.461948,70.177799,47.95784,61.312787,68.080694,73.111685,33.108673,70.508194,102.233105,123.103752,70.498753,107.149429,124.964333,137.602501,65.115452,102.772865,96.756821,86.693573,56.979561,92.834873,85.899925,75.460052,48.110619,78.30946,72.804794,63.695412,-22.976495,-26.593185,-19.271007,-14.595389,-20.771943,-6.509852,3.201851,9.961082,0.49635,19.27888,17.951184,14.040006,22.277881,37.787362,34.188424,30.165632,42.895541,51.15083,45.049951,41.209323,44.85014,302.607246,-119.644718,105.819057
42,1.163864,-0.164071,-14.526329,-44.734932,-26.020203,-48.921432,-68.648014,-83.388176,-55.77364,-85.508709,-101.67429,-113.604298,-48.727341,-81.37619,-100.328522,-114.991322,-39.177589,-69.584827,-87.219315,-100.52021,-28.313713,-52.723732,-66.637001,-78.005791,-16.74665,-14.669181,0.106519,11.67336,13.579533,29.272289,37.474534,44.196808,30.17014,44.374834,52.537312,59.547096,41.804164,55.512879,63.3918,69.641744,49.108559,62.129621,68.237663,72.922544,25.198345,56.016769,84.588947,100.638142,66.529541,107.621498,118.393536,116.300755,69.65023,105.164909,97.983627,85.580006,68.242207,96.186848,86.363411,74.037495,64.168797,83.173199,73.956642,63.698387,-31.505863,-45.055385,-42.863184,-33.060646,-45.664584,-48.445143,-39.591493,-33.177817,-24.648727,-16.720653,-12.354528,-13.544768,-1.682297,5.163106,6.372179,5.069925,20.753295,22.466869,20.35979,18.667304,46.223345,302.711804,-133.961706,61.352755
43,0.393677,-0.332402,-5.243855,-35.778528,-26.313515,-49.376335,-69.342842,-84.25684,-56.10054,-86.015224,-102.020874,-113.704891,-48.903465,-82.173786,-100.755844,-114.940681,-39.508553,-70.456009,-87.879696,-100.937176,-29.155197,-53.995514,-67.964172,-79.57901,-17.433253,-15.537515,-0.55526,11.25605,13.531615,29.103895,37.596985,44.767999,30.72435,44.844322,52.809199,59.576983,42.805324,56.33521,63.68462,69.477056,50.381297,63.173512,68.719193,73.025173,12.332726,36.215572,58.761463,72.73716,52.643566,83.660946,96.464481,103.501339,60.992832,83.290272,76.407909,69.032707,65.288372,80.524006,71.104317,62.023258,66.856441,76.258736,67.416401,60.020084,-32.180764,-49.824092,-54.22245,-50.964745,-53.554033,-67.564059,-71.504754,-72.688262,-37.006837,-45.449693,-43.38479,-41.053218,-18.522592,-24.73314,-24.054904,-21.356843,-0.368465,-9.032109,-9.976798,-7.65489,43.43874,302.373042,-142.383842,25.567866
44,0.363693,-1.145408,-12.385197,-17.949641,-26.707649,-49.848518,-69.801922,-84.277554,-55.954571,-86.265221,-102.575054,-114.759064,-48.817291,-82.667427,-101.983166,-116.758518,-39.501228,-71.429787,-89.394093,-102.712955,-29.194221,-54.517422,-68.688641,-80.462322,-17.085968,-14.691905,0.080523,11.596666,13.576137,29.749125,38.182997,45.164313,30.632836,45.247553,53.294064,60.053943,42.73709,56.374606,63.920692,70.023362,50.503809,63.126829,68.375367,72.563033,27.732639,51.16539,69.971466,79.772129,60.634975,84.820862,79.173603,70.499382,60.723038,84.68708,78.200226,68.036556,59.285889,83.270473,76.97422,66.430206,57.845764,79.327698,80.215073,76.942005,-13.476595,-23.378521,-31.823569,-40.827613,-39.296974,-44.316048,-41.190026,-38.305726,-39.736452,-39.717927,-37.921484,-36.919676,-39.061149,-40.775927,-38.644735,-37.418403,-37.280916,-44.542425,-48.831701,-52.119972,41.947317,302.600468,-156.624155,8.991061
45,0.633545,-0.832581,0.259438,-10.133798,-26.362839,-49.654655,-70.098324,-84.945087,-56.341667,-87.128849,-103.427868,-115.623264,-49.130745,-83.280716,-102.87077,-118.060284,-39.632492,-71.58514,-89.833202,-103.631115,-29.238968,-54.629974,-68.98201,-81.203156,-16.908374,-14.931929,-0.237863,11.472424,13.057186,29.755856,38.253824,45.241501,30.014961,44.99524,53.373969,60.383196,42.16559,56.10062,63.892966,70.199412,50.00993,63.131213,68.612921,72.981145,14.634304,31.154766,47.040596,58.849125,52.721214,65.644855,60.607738,54.612751,60.840683,72.342911,64.760914,56.736774,64.776592,74.526329,64.539413,55.35799,66.312046,75.093498,70.145359,65.044842,-32.115494,-44.547241,-51.056908,-56.101361,-54.018921,-59.352088,-60.813905,-59.86406,-45.968458,-50.329272,-51.804675,-52.058345,-37.355325,-43.725004,-45.013457,-44.283536,-29.052982,-37.659569,-42.325832,-43.88855,40.049915,303.859513,-158.895664,0.948888
46,0.407867,-0.679749,1.076202,-9.412646,-26.457481,-49.864655,-70.405197,-85.660057,-56.636696,-87.826424,-104.100666,-116.074963,-49.462509,-83.873749,-103.094959,-117.571793,-39.850273,-71.873875,-89.909534,-103.204708,-29.225578,-54.621906,-69.052677,-81.064968,-16.663287,-14.683136,-0.049092,11.542017,13.331296,29.98069,38.546768,45.569581,30.310251,45.366546,53.869269,60.916781,42.384248,56.491253,64.536838,70.984075,49.992084,63.152085,68.891971,73.39092,8.412838,26.184711,47.355194,62.416477,46.380501,63.771687,66.349239,65.788364,57.877636,66.028862,59.792347,51.417503,64.90139,68.704033,59.509277,51.264038,69.47176,71.916447,62.954521,55.874977,-36.617933,-55.330314,-64.07195,-73.725052,-62.636777,-71.254418,-75.8212,-79.154241,-51.554894,-53.13342,-50.835471,-50.393554,-36.513235,-37.968321,-35.899034,-33.291098,-20.922583,-21.436439,-20.305017,-19.006375,38.41218,304.346091,-159.865065,-7.297432
47,1.261826,0.065764,4.289474,-7.681319,-26.702614,-49.991455,-70.613079,-85.691757,-56.95982,-88.113441,-104.677277,-117.019558,-49.890518,-84.206715,-103.664246,-118.659668,-40.518265,-72.533112,-90.481625,-103.859425,-30.2631,-55.405312,-69.245281,-80.684395,-16.600425,-14.966818,-0.581442,10.907963,12.717436,29.378253,37.632183,44.057375,29.668109,44.794366,53.108318,59.870112,41.794593,56.086664,63.887532,69.9986,49.487336,62.891992,68.398276,72.545002,13.364754,33.095055,53.690071,68.811836,54.325104,76.537914,86.028328,92.647991,64.091091,80.347595,74.683285,67.314491,68.649101,80.340271,73.453674,64.491234,70.749722,80.136681,73.779087,66.060677,-29.323634,-44.876494,-48.670532,-49.316627,-50.241278,-58.338208,-61.940665,-64.070066,-36.041215,-38.03495,-35.658547,-32.571088,-19.929976,-20.650758,-20.199949,-18.592123,-3.265918,-6.533657,-6.466565,-4.889243,37.147894,304.055077,-158.101702,-15.33553
48,0.975723,0.300848,5.137482,-8.28672,-26.529236,-50.210037,-71.106548,-86.024208,-57.209187,-88.94743,-105.573921,-117.863503,-50.143661,-84.825497,-104.147072,-118.932953,-40.786514,-72.993107,-91.001759,-104.300823,-30.455132,-55.764942,-69.93885,-81.387291,-16.862062,-14.999607,-0.488137,11.381651,12.698787,28.980456,37.154667,43.642906,29.660761,44.743237,52.933441,59.674795,41.689864,56.197136,64.001091,70.058868,49.137767,62.729094,68.486456,72.605023,22.680988,48.519173,70.364113,87.98893,71.45319,97.559566,110.398808,120.395393,72.562294,94.029579,90.64373,83.835182,70.088825,86.469669,81.017132,71.879139,66.1833,79.76366,74.643574,66.074409,-19.365269,-23.962556,-17.749538,-11.772037,-31.072406,-24.67812,-18.67493,-15.112425,-16.930821,-2.180685,4.135857,5.47544,0.202819,12.713453,15.53699,14.055166,18.088795,24.96668,25.27642,23.760046,37.565231,303.470547,-153.522606,-24.507627
49,1.216965,-0.365377,5.437489,6.996198,-26.613464,-50.024185,-70.583668,-86.632862,-57.350407,-88.72427,-105.811443,-118.55484,-50.993958,-85.113201,-105.038509,-120.49015,-41.945572,-73.391075,-91.551304,-105.038795,-31.369972,-55.44136,-69.091587,-80.567093,-16.327365,-14.567478,0.23317,10.938283,13.102758,29.111738,37.199189,43.75628,29.531579,44.469003,52.795799,59.873014,41.285893,55.8438,63.745197,69.94957,48.735031,62.440843,68.54376,73.055863,32.544308,62.833042,84.343414,98.650475,74.391632,102.009544,116.189117,128.036327,63.531475,87.908592,80.693436,73.823776,51.321716,72.948303,65.256786,57.757244,39.032421,58.414993,54.604511,48.581371,-5.837822,2.116217,16.06613,23.295343,-19.304074,5.136739,20.201122,31.418486,-14.689651,18.951201,25.438638,21.900741,-4.943614,25.631268,26.911447,19.450268,6.760497,28.859611,29.509287,23.647691,37.696581,302.799413,-149.170732,-17.817186
50,-0.159645,0.366612,0.646534,5.05035,-26.549835,-49.634972,-70.345058,-86.418743,-57.639713,-89.059296,-105.74564,-118.168201,-50.899429,-85.327263,-104.940434,-120.13979,-41.755714,-73.448009,-91.438408,-104.859123,-31.354065,-55.753098,-69.477367,-80.96117,-16.546085,-14.883949,-0.344629,10.419394,13.052555,29.21517,37.275019,43.60777,29.592341,44.504386,52.619749,59.307504,41.35845,55.919568,63.59854,69.593641,48.541505,62.218048,68.205985,72.629476,35.935307,68.369465,90.997124,103.958187,68.573799,94.23912,99.443836,103.485661,52.36433,77.817593,64.367409,54.232006,35.63055,62.724152,49.815617,40.489998,19.107113,43.867435,36.785145,29.231358,4.558415,8.824566,18.620929,26.183255,-23.649296,12.692705,27.362565,32.880859,-22.622819,19.482656,22.312925,13.061293,-14.779405,23.687365,24.179393,14.611629,-4.271646,23.593505,22.613093,14.478218,37.016716,302.924118,-149.044418,-13.008743
51,0.293655,-0.111089,0.688019,-11.625503,-26.494102,-49.530258,-70.187416,-86.355801,-57.145271,-88.756828,-105.688419,-118.294144,-50.722733,-85.373383,-105.175552,-120.490208,-41.762352,-73.64748,-91.692238,-105.094929,-31.511307,-55.884476,-69.507065,-81.002712,-16.334095,-14.668563,-0.173827,10.421123,12.54262,28.604335,36.560443,43.005148,28.986323,44.002479,52.169589,59.037469,40.823815,55.526032,63.363394,69.506572,48.214783,62.143762,68.339243,72.942983,29.622059,57.417927,79.357395,98.079815,59.282799,86.931839,96.384487,100.897751,50.897827,77.732105,68.282261,61.757355,42.033348,68.681545,58.043118,50.750198,34.070435,57.604809,50.537109,43.681927,-7.61821,-5.577112,1.654849,5.45568,-27.029977,-7.264102,4.098375,10.819475,-19.661887,8.489786,12.726513,7.533766,-7.217975,19.604891,20.505243,14.139949,7.443858,26.864393,25.468587,18.680766,36.328039,302.52697,-149.338732,-24.920305
52,0.453415,0.889515,-3.295555,-9.970191,-26.561852,-49.455414,-70.249786,-86.504745,-57.728004,-89.30603,-105.915585,-118.071957,-51.047401,-85.836926,-105.031185,-119.907246,-41.921196,-73.85891,-91.565895,-104.60741,-31.599312,-56.275749,-69.927063,-80.990925,-17.015388,-15.501329,-1.098478,9.776202,12.564603,28.038269,35.87489,42.26087,29.27902,43.656183,51.711092,58.710192,41.139668,55.359491,62.964487,69.119644,48.395959,61.865515,67.797877,72.199755,25.984554,51.400795,72.457409,88.213291,56.234493,83.794613,90.271282,90.432014,52.909069,80.257702,74.876404,67.290173,48.501377,75.741234,67.714348,58.211918,44.438324,69.639874,65.523949,57.719593,-16.278242,-21.011998,-18.249192,-16.659582,-31.696425,-23.287346,-16.759587,-14.076037,-22.408051,-8.296538,-1.989475,-2.721155,-9.884697,4.315551,8.901168,7.51944,5.463337,16.292476,17.56157,15.614549,35.134449,302.922265,-154.281292,-35.384715
53,0.265274,0.201183,-13.296261,-19.691836,-26.343384,-49.326553,-70.269699,-85.849113,-57.466278,-89.041214,-105.50909,-117.661343,-50.813713,-85.809116,-105.167885,-120.07576,-41.8927,-74.217625,-91.862812,-104.746971,-32.008667,-57.199059,-70.820904,-81.743946,-16.937397,-15.193689,-0.929282,10.42631,12.656426,28.510906,36.328817,42.391473,29.435125,44.170996,52.179839,58.84277,41.356289,55.848987,63.271942,69.195659,48.716012,62.375944,68.04809,72.196544,12.630272,34.879646,55.000935,67.453079,54.294605,90.135212,108.415375,120.326099,61.52338,85.948677,76.28603,64.967365,65.010052,83.456955,74.366055,63.881207,66.399193,79.845943,72.069912,63.250751,-25.594558,-39.195426,-39.633884,-35.905086,-51.684323,-51.852438,-51.34942,-51.804705,-37.712273,-25.341659,-20.855368,-21.62518,-20.207853,-11.090127,-7.8013,-7.916248,-1.911144,1.020611,4.242655,5.127013,35.073481,304.692464,-167.903795,-53.507535
54,0.235062,-0.090835,-7.172585,-1.754082,-26.173782,-49.741859,-71.052303,-87.037868,-57.22229,-89.267979,-105.929546,-118.273945,-50.581512,-86.13224,-105.71497,-120.609283,-41.641388,-74.441128,-92.483082,-105.52042,-31.858521,-57.228355,-71.162739,-82.461147,-17.206999,-15.120268,-0.401131,10.565248,12.74899,28.639779,36.46331,42.739807,29.669838,44.297461,51.945558,58.420953,41.793729,56.208374,63.346784,69.05777,49.383163,63.100338,68.533262,72.52765,12.773323,31.136742,48.227978,58.484287,51.593571,77.511635,92.015247,99.737148,61.503754,78.269863,70.869598,60.930233,65.981083,77.814503,68.237858,57.615967,68.130913,78.281536,69.794712,61.03735,-28.263071,-42.732273,-45.112227,-43.673874,-60.053789,-67.899672,-70.629782,-72.676005,-46.285577,-39.120739,-33.250652,-32.164184,-29.726587,-21.867519,-17.794153,-17.70903,-13.114244,-7.14653,-4.93182,-5.091661,35.158052,304.955969,-175.22687,-54.907278
55,0.021858,-0.103061,-5.455055,-2.7767,-26.39946,-49.935608,-71.301384,-87.232132,-57.5774,-89.550247,-106.107101,-118.497162,-50.935249,-86.294918,-105.963078,-120.958214,-42.032661,-74.54607,-92.649136,-105.777283,-32.194977,-57.080383,-71.027184,-82.485237,-16.685764,-14.754211,-0.211063,10.837074,13.016122,29.042948,36.915817,43.200094,29.803281,44.576264,52.182309,58.498018,41.878635,56.514224,63.768292,69.452911,49.463624,63.248106,68.592172,72.472198,11.191177,27.415295,43.229599,53.436069,46.527157,68.711643,79.632339,84.049129,57.788086,67.512989,59.757843,50.168839,63.990612,69.885235,60.317745,49.977207,68.166389,75.006695,66.49498,58.118992,-30.129539,-44.923764,-48.560123,-49.429445,-62.177509,-70.683088,-74.070159,-75.705928,-49.308538,-43.758997,-38.357534,-36.386955,-33.231015,-26.6265,-23.393866,-22.382085,-17.455452,-13.452111,-11.462513,-10.977185,34.841166,304.794461,-181.02067,-57.742424
56,-0.475273,0.432376,2.852955,-0.532875,-26.397743,-50.089302,-71.717319,-87.798958,-57.864189,-89.935627,-106.51474,-118.794422,-51.272621,-86.998329,-106.474686,-121.117058,-42.47612,-75.215607,-93.10112,-105.813675,-32.933121,-58.186684,-71.965313,-82.85265,-17.52946,-15.732646,-1.082238,10.135713,12.271598,28.501335,36.81856,43.467906,29.349106,44.345997,52.008358,58.267627,41.665658,56.273459,63.313068,68.766803,49.439541,63.010244,68.125278,71.80764,8.827629,24.360123,40.592709,50.622368,44.356613,67.685566,78.283768,84.041061,57.265663,66.240063,58.049583,48.305569,64.572372,68.403568,59.936314,50.323849,68.568707,71.759262,63.319244,55.136433,-31.347844,-47.873736,-52.727195,-53.423894,-61.316986,-70.952628,-73.753797,-75.181003,-49.412803,-46.082758,-40.239563,-38.221066,-33.462703,-29.028714,-25.175365,-24.253895,-17.232842,-15.580154,-12.28685,-10.680567,33.951645,305.171663,-178.581963,-58.330473
57,-0.051498,0.090094,5.587349,1.582787,-26.259956,-50.535851,-72.530651,-88.835392,-58.356342,-90.602245,-107.013073,-118.943195,-51.850204,-87.625179,-106.815605,-121.133022,-43.13839,-76.08427,-93.957882,-106.609726,-33.587494,-58.93301,-72.652702,-83.491859,-17.855749,-15.785196,-0.875621,10.443538,11.932217,28.11663,36.34444,42.815389,29.070982,44.230462,51.989463,58.255153,41.364378,56.095803,63.258975,68.783969,49.148141,62.916507,68.309479,72.195062,10.236568,26.564484,42.914143,55.558376,49.437389,74.824162,87.835064,96.168594,61.255589,74.36245,66.549282,56.500511,67.268658,74.030457,65.839233,54.760494,71.175785,74.977741,66.758823,57.411118,-27.485016,-42.560638,-45.602154,-43.492853,-52.449935,-61.051181,-63.998806,-64.862478,-39.345634,-36.600519,-33.271739,-30.787798,-23.461668,-19.851862,-17.595409,-15.564963,-6.503492,-6.524641,-4.37477,-2.271674,33.668861,305.494849,-173.225899,-56.514595
58,-0.332451,-0.532783,8.308353,9.324436,-26.591606,-50.370026,-71.887608,-87.702084,-59.705544,-91.225319,-107.343464,-119.249039,-53.203468,-88.048267,-107.135754,-121.731033,-44.328575,-76.577454,-94.288216,-106.994133,-34.294853,-59.06765,-72.708664,-83.690872,-17.186066,-15.192948,-0.826715,10.001838,12.434557,28.136575,36.203649,42.643106,29.340214,43.959501,51.929997,58.510491,41.589211,55.810949,62.951519,68.547095,49.501847,63.050443,68.40087,72.12479,13.957157,32.685471,50.387592,63.445072,56.150551,83.754559,97.43763,107.558327,63.659534,85.894375,79.510345,70.178547,66.41098,82.031136,75.830097,67.446957,66.498528,75.588398,69.50449,63.249149,-26.313827,-39.314264,-41.24239,-38.482888,-43.696876,-48.230931,-50.051333,-50.991175,-29.496968,-23.830194,-20.215757,-17.67692,-12.420509,-7.082896,-4.072007,-2.429138,6.425964,7.205038,8.232935,8.533814,33.287544,305.378851,-164.966412,-46.773374
59,-1.17794,-0.15592,7.773705,22.48806,-26.264305,-50.112305,-71.992035,-88.084946,-59.423332,-91.661797,-107.83556,-119.56461,-52.844009,-88.524628,-107.521763,-121.78545,-43.799973,-76.485271,-94.163475,-106.713181,-33.649178,-58.76976,-72.473602,-83.474579,-17.56861,-15.666944,-1.306145,9.84845,11.948334,28.262484,36.654489,43.187744,29.092101,44.299807,52.539103,59.090328,41.438293,56.03572,63.439348,69.075925,49.222859,62.745149,68.248223,72.135349,20.124664,41.536502,58.501911,67.6655,55.002288,77.690677,83.579883,88.280925,52.323913,73.486518,66.495456,57.795028,47.611313,65.237522,59.066009,51.201725,41.658115,54.75563,50.041332,43.70037,-14.660125,-21.04309,-18.351214,-14.294397,-36.629316,-25.352517,-24.011895,-27.464721,-27.767555,-7.403854,-5.663954,-8.863006,-14.846148,4.091602,5.490826,1.9117,0.39407,10.995618,11.404642,8.48007,32.247677,304.938957,-157.054634,-24.56929
60,0.045319,-0.616269,7.773704,22.488059,-26.683731,-50.948524,-72.762737,-88.58345,-60.124569,-92.05862,-108.370056,-120.123539,-53.628159,-88.775024,-107.860565,-122.435932,-44.601402,-77.123566,-94.868717,-107.567596,-34.483337,-59.526672,-73.134441,-84.21793,-17.503895,-15.437726,-0.749218,10.262486,11.325952,27.862156,36.260274,42.86127,28.436991,43.58801,51.975631,58.740141,40.956455,55.391231,62.780347,68.347764,49.139619,62.811778,68.494792,72.48214,26.292172,50.387535,66.61623,71.885929,53.854027,71.626797,69.722138,69.003525,40.988293,61.078663,53.480568,45.411511,28.811646,48.443909,42.301922,34.956494,16.817703,33.922863,30.578175,24.151592,-3.006422,-2.771914,4.539962,9.894093,-29.561754,-2.474103,2.027544,-3.938267,-26.038142,9.022486,8.88785,-0.049092,-17.271786,15.266101,15.053659,6.252538,-5.637823,14.786198,14.576349,8.426327,32.226248,304.22222,-149.347677,-2.181698
61,-0.224648,-0.59583,7.773705,22.488059,-27.534599,-50.992241,-72.163696,-87.254276,-60.202675,-91.240368,-107.759628,-120.059967,-54.161911,-88.160305,-107.33654,-122.239609,-45.597496,-76.776009,-93.939056,-106.619225,-35.189438,-59.109364,-72.133656,-83.172455,-16.695644,-15.348806,-0.787935,10.85986,12.543979,28.53925,36.621514,42.836384,29.287541,44.369771,52.652415,59.448665,41.183079,56.15885,64.12595,70.44277,48.602638,62.52717,68.646019,73.208633,32.459679,59.238567,74.730549,76.106358,52.705765,65.562916,55.864391,49.726124,29.652672,48.670807,40.465679,33.027992,10.011978,31.650295,25.537834,18.711262,-8.022709,13.090096,11.115017,4.602814,8.647281,15.499261,27.431139,34.082584,-22.494193,20.404312,28.066983,19.588188,-24.308729,25.448827,23.439654,8.764823,-19.697424,26.4406,24.616493,10.593376,-11.669716,18.576778,17.748056,8.372584,32.205191,303.494831,-141.370382,20.174801
62,-0.849266,-0.560261,-7.353802,8.104186,-27.333755,-50.575104,-71.351795,-86.743298,-60.772648,-91.259537,-107.547569,-119.771175,-54.633522,-88.202534,-107.120476,-121.932907,-45.944023,-76.781902,-93.961601,-106.674213,-35.352173,-59.003506,-71.98288,-83.110256,-16.531697,-15.341952,-0.944473,9.794233,12.128769,28.343254,36.699258,43.166255,28.961437,44.046445,52.464323,59.409269,41.141891,55.636627,63.484549,69.599939,48.989628,62.362235,68.258226,72.533022,32.686844,57.715702,69.897995,69.451962,58.177814,68.292732,64.233513,63.260136,37.14798,48.590813,41.049957,36.10754,16.921463,32.058506,26.957989,23.198204,-2.116928,16.603546,15.510292,11.361294,4.214558,13.965535,29.262347,37.44227,-24.060492,18.486499,32.310594,30.895121,-26.598002,22.248519,25.614102,13.954698,-21.971568,24.874671,25.561398,12.15492,-13.361678,21.191661,21.428443,10.272366,31.37043,303.037121,-148.709679,28.381539
63,0.712967,0.173519,-8.558807,-11.379489,-27.912598,-51.351814,-72.224751,-87.715645,-60.837765,-91.475544,-108.017349,-120.512638,-54.641876,-88.07024,-106.978283,-121.965981,-45.928345,-76.869221,-93.852825,-106.486816,-35.43045,-59.121609,-72.164555,-83.021908,-16.550037,-15.377149,-1.046546,10.132193,13.050209,28.863378,36.935515,43.255793,29.866575,44.368227,52.363732,59.312691,41.77792,56.058568,63.822138,70.089311,49.230331,62.530937,68.674856,73.196654,35.522461,64.975433,83.66684,92.281265,66.179752,85.450859,87.682915,90.048008,47.86068,69.749451,57.858124,49.0868,28.851185,52.6684,43.669167,36.615715,10.626183,32.645817,29.900608,26.127949,0.911683,12.577818,31.082471,45.847087,-16.876511,25.273641,40.856728,48.070874,-14.882343,35.746017,35.376626,23.855697,-6.109184,39.903641,37.18298,26.089456,6.367085,37.888941,37.307561,30.484573,32.169399,303.087525,-157.182484,16.878935
64,-0.968857,-0.29986,5.648975,-9.414499,-27.390976,-50.702477,-71.552582,-87.092285,-60.050297,-90.683441,-106.908302,-119.22123,-53.674507,-87.607727,-106.501064,-121.439896,-44.8526,-76.068077,-93.261681,-106.029396,-34.383202,-58.355942,-71.496048,-82.561569,-16.12223,-14.616323,-0.094602,10.707089,13.262692,29.728377,37.999351,44.327904,29.955866,44.939171,53.218234,60.241602,41.900866,56.413818,64.164915,70.352553,49.441949,62.977022,68.852636,73.114526,32.198639,60.231113,77.194748,85.512943,64.108887,81.415844,89.036922,94.682407,47.497444,65.171757,56.638069,50.44733,29.183121,49.569569,41.825352,36.63271,12.247696,31.87912,29.44273,26.610432,-4.079263,10.208053,35.195821,51.212118,-10.722002,27.909272,44.068089,54.441541,-6.951275,39.588405,36.6443,25.624167,2.40663,45.05273,38.776511,26.33229,12.84952,44.3874,41.733584,33.001057,31.204605,302.652987,-151.529446,7.329758
65,0.864487,1.650095,-1.900063,-2.778522,-27.394753,-50.694809,-71.514759,-86.820545,-60.603046,-90.966053,-107.239895,-119.441185,-54.282417,-87.995682,-106.97897,-121.95591,-45.51693,-76.671124,-93.749084,-106.432858,-35.167923,-59.195423,-72.273445,-83.054123,-16.6447,-15.801992,-1.644413,9.5024,12.716756,28.488738,36.398286,42.61044,29.433334,44.083063,52.029847,59.006532,41.390931,55.8036,63.086814,69.035417,49.034088,62.46332,68.125957,72.204695,33.447361,62.422428,78.176765,87.782593,66.440392,85.953712,94.723434,101.392136,49.793129,70.457783,58.301239,48.242111,31.60017,53.297997,43.223248,36.390896,13.387585,34.888802,30.369186,26.356544,0.609662,12.976077,31.80986,48.669081,-11.189792,29.338609,44.712393,54.063288,-9.109946,40.209738,39.031077,28.871436,-0.912208,45.603297,41.811852,31.043661,11.014853,43.838439,41.92467,33.655827,32.101851,304.185694,-153.396749,4.433849
66,-0.288162,-0.172407,0.697575,-3.616228,-27.362709,-50.41729,-71.283531,-86.914101,-60.004807,-90.666847,-106.863785,-118.969002,-53.734589,-87.673931,-106.635017,-121.700821,-44.961319,-76.463299,-93.729,-106.566982,-34.43367,-58.650513,-71.950321,-83.041019,-16.625496,-15.364861,-1.067232,9.895874,12.943689,28.988484,36.893895,42.874052,29.810258,44.32988,52.335203,59.060688,41.877894,55.87097,63.306399,69.153237,49.628744,62.869885,68.641634,72.77212,32.538528,60.746784,75.589199,84.492874,66.69239,85.98793,96.022053,102.837181,50.78476,69.601021,57.033348,48.004818,32.907028,52.986088,43.140392,37.401009,14.486446,34.949627,29.772434,25.984726,0.611761,14.207813,34.511564,51.626339,-8.824659,31.657676,48.112062,59.045126,-5.460898,44.442451,41.998616,30.727067,3.473955,50.021076,44.923332,33.967296,15.489751,48.272705,44.916076,35.572158,31.774778,303.807905,-152.738085,0.61224
67,-0.537415,0.242309,-0.7794,3.304944,-26.404724,-49.449921,-70.520039,-86.122513,-59.870853,-90.576611,-106.591988,-118.355312,-53.663406,-87.984409,-107.149258,-122.005978,-44.783249,-76.472855,-93.916111,-106.725197,-34.102478,-58.63203,-72.041416,-83.230476,-16.605427,-15.848614,-2.029366,8.919106,12.01416,28.085755,36.241687,42.512627,28.913642,43.823156,52.089128,58.938916,41.30201,55.657314,63.150911,69.106739,49.472948,62.865624,68.42662,72.432307,34.15987,61.061611,74.773865,83.396702,67.137623,85.878925,93.032055,98.64069,50.377007,68.722744,57.333469,48.729973,31.33873,51.187134,43.146229,38.211193,11.901054,32.115669,29.289036,27.21817,0.34253,12.79416,32.326835,48.503806,-12.198207,28.382558,44.068614,53.370912,-9.840206,39.315623,37.949395,27.498416,-1.634194,44.5105,40.819307,30.391731,10.435387,42.515313,40.69241,32.713917,31.300621,303.980266,-153.454227,3.847236
68,-0.026321,-0.774412,-0.694485,0.631676,-27.037926,-50.22583,-71.051102,-86.200562,-59.866619,-90.371532,-106.475544,-118.338547,-53.581924,-87.290096,-106.197853,-121.135197,-44.699707,-75.938988,-93.184605,-106.126213,-34.058304,-57.926731,-71.226883,-82.619076,-16.497425,-15.271247,-1.046422,10.351469,12.706753,28.863933,37.21333,43.658035,29.710346,44.502596,52.807779,59.666274,42.018562,56.437283,64.219934,70.34434,49.992948,63.409646,69.401288,73.733697,33.617649,59.289722,72.271786,79.562702,65.367966,84.92506,93.704624,100.051517,49.802685,68.469429,57.891426,48.789024,31.283054,50.295925,43.528748,39.142513,11.454163,31.362247,29.537659,28.08363,1.85103,14.307879,33.572001,49.502249,-12.79203,28.705605,46.558174,57.352517,-11.346052,38.242617,39.635089,30.974748,-3.471022,44.227065,41.713947,31.209029,8.784644,42.464184,41.391888,33.636005,31.358271,303.163154,-154.064741,4.436211
69,-1.052399,0.096269,-0.354309,-1.428781,-26.235352,-49.33239,-70.440044,-86.340408,-59.209385,-90.226593,-106.1693,-117.727776,-52.846069,-87.343826,-106.292038,-120.840855,-43.786469,-75.562363,-93.06078,-105.817795,-33.136711,-57.653561,-71.185226,-82.353058,-16.903681,-15.307433,-1.082361,10.095575,12.880333,29.053384,37.242167,43.562322,29.885038,44.83543,53.05336,59.681403,42.077966,56.709602,64.217156,70.006998,49.789666,63.458861,69.21122,73.244078,34.021225,61.539745,75.184479,83.470917,65.889301,85.237713,93.988781,100.08585,49.103508,68.501873,58.188572,49.711876,30.315056,50.731258,43.743095,39.368362,10.887508,31.648407,29.851627,28.383179,0.386249,13.288503,33.067747,49.874171,-11.169785,28.97175,46.751978,58.064561,-8.555396,39.886073,39.781005,30.632187,-0.182102,45.229429,42.27603,32.556114,12.365983,43.821983,42.24074,34.830629,30.470037,303.213928,-154.254885,2.961936
70,0.798912,0.543033,0.667877,-0.444294,-27.225609,-50.720329,-71.803894,-87.117004,-60.009956,-90.807838,-106.768055,-118.4622,-53.537407,-87.695503,-106.615849,-121.280651,-44.447365,-76.144867,-93.471165,-106.258907,-33.789368,-58.313198,-71.775112,-83.032951,-16.723308,-15.365726,-0.977015,10.750747,12.702492,28.644164,36.781756,43.142666,29.584993,44.334943,52.604929,59.349926,41.707278,56.11649,63.655042,69.495396,49.515926,62.968439,68.652811,72.563218,33.179626,60.336399,74.002934,82.275982,65.302105,85.234051,93.900776,99.776173,49.095383,68.867054,56.661415,46.929359,30.811558,51.98101,43.184338,37.757034,11.541023,33.213558,29.5261,26.653633,1.304632,14.286977,34.499616,52.336346,-9.235824,33.093373,50.290215,61.052848,-6.614797,44.547766,41.691995,30.508625,1.901727,49.410704,43.906457,32.664887,14.265488,46.417229,43.377102,34.675018,31.506987,303.716437,-153.34897,2.477118
71,0.39402,-1.116756,1.258564,1.794498,-27.277451,-50.898972,-71.897507,-87.158775,-59.923725,-90.415249,-106.546326,-118.500023,-53.346405,-87.148647,-106.068649,-120.934353,-44.253845,-75.380287,-92.635975,-105.566483,-33.51265,-57.313728,-70.640488,-82.069016,-15.954639,-14.391304,-0.064961,11.746843,14.030496,29.857374,37.8769,44.116717,30.62382,45.476832,53.779916,60.678425,42.401167,57.097704,64.855655,70.995931,49.858209,63.420575,69.471189,73.833794,34.409866,61.119518,74.569874,82.87199,65.230751,83.603382,91.513481,96.888542,48.337898,66.677341,56.235466,47.460537,29.184723,48.438549,41.463604,36.964073,9.428902,29.302483,27.948246,26.840057,2.103559,15.408055,34.995286,51.228759,-9.919586,31.676695,49.452354,60.289119,-8.042034,40.402924,40.667308,31.669316,0.098121,45.575756,42.737892,32.912136,12.612182,43.876663,42.614793,35.574505,32.286644,302.586806,-151.704769,4.258741
72,-0.045776,0.777252,0.242386,-0.273647,-27.527847,-50.818405,-71.925201,-87.404652,-60.099277,-91.064529,-106.817894,-118.399715,-53.342285,-87.813721,-106.680164,-121.274929,-44.042587,-75.740318,-93.10833,-105.94614,-33.244629,-57.909107,-71.504974,-82.89505,-16.497858,-15.142436,-0.832828,10.770507,13.037241,29.027819,37.001341,43.235662,29.928078,44.672656,52.899108,59.771805,42.061849,56.473469,63.851223,69.649895,49.764101,63.343449,69.045297,73.01202,34.2243,61.556568,74.707832,83.062706,66.115437,85.431404,94.008293,99.700871,49.278774,68.281288,56.53862,47.343349,30.229168,50.45763,42.205353,37.057858,10.747204,31.488762,28.69812,26.456738,1.268292,14.319859,34.89065,52.404858,-9.614724,31.870901,49.061351,60.097446,-7.104261,42.867074,41.687024,31.481595,1.476298,47.863763,43.918282,33.33738,14.113551,45.583197,43.58023,35.310584,32.614174,303.353793,-151.089077,3.974828
73,0.177841,-0.385508,3.099689,-4.536278,-27.657738,-51.017761,-72.21714,-88.1357,-59.563408,-91.043015,-107.040596,-118.735313,-52.740211,-87.624435,-106.559658,-121.230011,-43.445778,-75.873299,-93.123951,-105.828037,-32.732162,-57.579288,-71.015453,-82.263794,-16.477542,-14.865115,-0.512528,10.916608,13.379524,29.400174,37.372214,43.283766,30.203609,45.247985,53.372734,59.88802,42.396104,57.28808,64.788471,70.589983,50.11929,63.920445,69.752463,73.957974,31.250954,57.809601,70.334358,76.755009,62.08065,80.522575,90.248451,96.147366,46.403103,63.822956,53.628044,46.932106,28.695087,47.55558,39.214783,34.848804,10.666466,29.668179,25.275993,22.612724,-0.401192,14.588072,37.527176,55.132806,-5.169899,34.615089,51.487463,63.678816,-1.108389,46.873101,44.704736,35.440877,7.858604,52.912631,47.620775,37.556878,19.61789,50.685634,46.223734,36.828563,32.98748,302.942489,-147.793922,-0.587246
74,0.161476,0.023712,3.647804,-3.788203,-27.705231,-51.054611,-72.245693,-88.031559,-59.446564,-90.813618,-106.919174,-118.834877,-52.779236,-87.600803,-106.679535,-121.506042,-43.745842,-75.988998,-93.236446,-105.9165,-33.352203,-57.812977,-70.979633,-82.09671,-16.251844,-14.77817,-0.690246,10.587046,13.326233,29.33935,37.278168,43.196513,30.049788,45.008826,53.209836,59.880054,42.181768,56.928261,64.420685,70.342179,49.957257,63.626513,69.356087,73.651878,31.684399,59.609528,74.447422,81.271362,60.694313,78.555393,86.219215,91.07357,44.690037,62.818451,55.178719,49.825916,26.417713,45.208569,38.022594,33.424873,9.547691,27.737503,25.747204,22.611179,-0.993966,18.219058,46.195792,60.813874,-0.140544,32.803424,50.888731,64.043328,3.432675,46.577626,47.027169,38.789571,11.330213,52.121454,46.207802,35.019431,21.114411,52.992475,48.21571,38.352934,33.346024,302.950624,-143.949051,-4.391025
75,-0.17395,-0.001791,1.613331,-1.697797,-27.621918,-50.790367,-72.032032,-87.797527,-59.421501,-91.041985,-107.081165,-118.83688,-52.739754,-87.660484,-106.604805,-121.176453,-43.62545,-75.902538,-93.109703,-105.650082,-33.125267,-57.788773,-71.041946,-82.049503,-16.655445,-14.979168,-0.642204,10.788661,13.411572,29.558687,37.637864,43.780054,30.298704,45.221309,53.497099,60.217335,42.468352,57.126418,64.657251,70.465248,50.050129,63.717163,69.464706,73.642986,31.495056,58.523483,72.890625,80.549984,59.444389,75.969543,84.35606,90.25526,43.619614,61.469479,54.487953,49.368782,25.436783,43.672485,37.419834,32.904053,8.725834,26.355343,24.907322,21.861248,1.407076,21.044324,49.320888,63.705029,0.671814,34.136925,52.714598,65.541918,4.496758,47.116305,48.153836,39.98685,12.299354,53.229751,47.892724,37.2493,22.289768,53.520039,48.943747,39.375829,33.451424,302.944866,-142.05637,-6.09279
76,0.05619,0.47554,-8.051491,9.61528,-27.405853,-50.788994,-72.239914,-88.393078,-59.661655,-91.363106,-107.360802,-119.068222,-53.039131,-88.090096,-107.009354,-121.448021,-43.974953,-76.358871,-93.599396,-106.007538,-33.64975,-58.562622,-71.802349,-82.624569,-17.049968,-15.318857,-0.918846,10.340786,12.98747,29.090002,37.126632,43.333969,29.975564,44.835801,53.035021,59.818612,42.244136,56.868177,64.292862,70.152914,49.930642,63.507273,69.148297,73.351524,35.398178,63.62051,77.705498,84.557018,66.436615,85.379677,94.644871,102.042274,49.420967,69.626999,57.33736,47.206135,30.931606,52.050762,42.361393,36.16436,11.882744,34.604073,29.681568,25.260143,1.837754,14.874686,34.688726,51.826534,-11.022109,32.673038,48.914138,58.593854,-9.024143,43.33542,40.16713,27.606417,-1.071678,47.427497,41.784003,29.284361,10.664111,43.450986,40.280843,31.005005,33.768597,303.413197,-149.846878,3.515281
77,-0.163078,-0.190685,3.446388,-4.170623,-27.391663,-50.742416,-72.338448,-88.442688,-59.335098,-91.252499,-107.365437,-119.10078,-52.518539,-87.952366,-106.889362,-121.315956,-43.376999,-76.055031,-93.350258,-105.81562,-33.209152,-58.42598,-71.791649,-82.668858,-16.966234,-15.118045,-0.72637,10.781066,12.973268,29.232213,37.445326,43.578871,30.164829,45.162584,53.405585,60.051164,42.546343,57.339889,64.775688,70.557873,50.237974,63.881604,69.437844,73.514792,32.918873,61.878777,77.846889,83.724861,62.367439,80.654697,89.662113,95.656986,45.993462,65.637531,58.285789,52.20274,27.355328,48.921204,42.603149,37.797661,10.255451,30.603676,29.553509,26.865692,-3.912352,12.703048,40.109455,55.992402,-8.522205,27.943945,45.618395,57.742594,-4.364426,40.238421,39.512668,29.992854,5.271818,46.668677,41.064117,29.291956,16.678663,48.479044,44.375822,34.84866,33.917055,303.218853,-146.088953,-0.659
78,0.446548,-0.282323,2.286701,-3.657477,-27.504616,-50.801582,-72.440758,-88.766613,-59.023705,-90.909462,-107.261124,-119.31736,-52.459488,-87.660141,-106.746368,-121.410599,-43.458824,-75.943394,-93.486214,-106.171074,-33.338356,-58.393192,-71.86758,-82.882233,-16.638649,-14.725003,-0.387175,11.005282,13.010565,29.109823,37.358382,43.674955,30.192802,45.325482,53.712176,60.532447,42.610007,57.483767,65.078574,70.999203,50.436255,64.237842,69.946359,74.074127,32.530918,61.011772,76.354294,81.583157,59.712067,77.319717,86.33955,92.549515,43.692455,63.382759,56.620045,50.009937,25.201378,46.613903,41.544628,36.259346,8.063164,28.172722,28.215065,25.182552,-2.870808,15.972145,44.065989,58.162528,-4.033228,29.852928,47.863856,60.399591,0.107538,42.405768,44.647308,37.391264,9.12421,49.17599,45.841314,36.050848,20.303474,50.55003,48.004338,39.961254,34.755077,302.955749,-143.410778,-4.297257
79,-0.090408,0.206802,2.944851,0.683176,-27.316246,-50.688286,-72.179604,-88.371506,-59.290066,-91.212959,-107.497959,-119.392948,-52.517395,-87.897892,-107.010212,-121.549358,-43.343124,-75.88068,-93.422127,-106.020927,-33.088875,-58.252144,-71.730709,-82.74828,-16.830692,-14.922852,-0.580824,10.575252,12.740283,29.169227,37.451007,43.933319,29.669653,44.796404,53.354888,60.456926,41.992503,56.825323,64.494106,70.627713,49.863828,63.58971,69.218754,73.464403,30.778084,58.470497,72.923985,78.477802,58.097763,76.009254,85.857925,93.138714,41.679497,61.511536,55.249901,49.051266,23.049889,43.737946,38.815899,33.750916,6.125622,25.855465,25.981007,23.030663,-2.080989,15.846391,43.313344,55.79937,-5.683107,26.700971,45.776661,59.498097,-1.283421,40.258366,44.565118,38.928077,7.899576,47.862096,45.382663,36.247801,19.327076,49.238451,46.902124,38.919834,35.02902,303.241268,-140.101576,-3.535365
80,0.386925,-0.3182,0.518589,2.327929,-28.230171,-51.406288,-72.467995,-88.127632,-59.498577,-90.424519,-106.725426,-118.9468,-52.780266,-87.000618,-105.981159,-120.833874,-43.795395,-75.519505,-92.724037,-105.429211,-33.436432,-57.671814,-70.855923,-82.007046,-15.94655,-14.21124,-0.049956,11.201895,13.661538,29.83465,38.019235,44.157596,30.240659,45.556428,53.949729,60.809583,42.238085,57.271099,64.874859,70.786412,49.929839,63.758288,69.600371,73.871771,29.634533,57.394867,72.117805,76.804047,56.657238,74.674759,85.721512,94.143047,39.94503,60.869694,55.485592,48.88813,21.316795,44.013062,40.231647,34.868259,4.623928,26.653576,28.096447,25.44445,-2.648259,13.589012,39.813146,51.005377,-9.049121,22.767099,41.268078,54.657327,-4.296223,36.84996,42.268528,38.142149,5.830412,45.408412,44.490523,36.872838,18.789045,48.209164,47.003179,39.955975,35.977678,303.030313,-139.021254,-1.100192
81,0.692368,0.459423,-0.76767,5.168911,-28.403893,-51.930656,-72.9249,-88.716602,-59.908905,-90.575294,-106.849308,-119.032516,-52.997704,-86.871014,-105.896759,-120.903969,-43.908234,-75.305099,-92.464542,-105.368099,-33.436089,-57.511368,-70.679398,-81.838245,-16.121489,-14.410755,-0.030134,11.015965,13.799673,29.816866,37.90018,44.12845,30.511373,45.168389,53.307463,60.266858,42.492867,57.091776,64.506889,70.47309,50.051735,63.733897,69.684599,74.131617,28.937187,58.138962,74.570904,79.647961,54.804726,73.97913,87.291126,97.005844,39.019089,61.729202,56.845779,50.115681,21.609364,45.931206,41.674576,36.132832,6.088543,28.585281,29.40073,26.720123,-4.250404,9.816278,35.181247,47.666934,-11.907702,16.308593,33.549308,46.461936,-6.912712,31.629055,36.738809,33.166517,3.944061,41.624285,39.709621,31.689632,17.549313,45.98229,43.717377,35.733728,37.489958,303.412039,-138.969011,3.991022
82,-0.19558,0.659988,1.211185,7.226404,-27.921867,-51.414413,-72.50433,-88.529949,-60.236492,-90.63715,-106.443558,-118.266735,-53.408432,-86.920509,-105.212803,-119.598427,-44.437637,-75.204964,-91.842098,-104.299736,-34.26075,-57.947788,-70.826569,-81.545105,-16.551519,-14.773169,-0.455718,10.713943,13.667898,29.496628,37.59643,43.714166,30.70002,45.366175,53.305364,59.903766,42.815698,57.312101,64.554251,70.279132,50.217535,63.756621,69.487059,73.624028,26.975327,56.093674,74.515457,80.691376,52.623768,74.04705,88.981419,100.291271,37.848816,62.748184,58.156071,50.912132,21.466312,47.686157,43.679295,37.166348,6.928596,30.729103,31.95076,28.811016,-6.033725,5.82751,28.638297,41.665535,-14.099317,12.141026,27.898126,39.523135,-7.400602,27.549113,32.395717,28.878537,4.753238,38.309153,37.188877,30.080077,19.031446,43.081688,41.68088,35.455697,38.401709,303.82396,-136.650496,10.969359
83,1.40831,0.134925,1.744251,9.814703,-27.918434,-51.785316,-73.469696,-89.567184,-60.096703,-91.059151,-107.193604,-119.169445,-53.133545,-87.330608,-106.134796,-120.944309,-43.9674,-75.33926,-92.369728,-104.963837,-33.920174,-58.407269,-71.541367,-82.338753,-16.706944,-15.167136,-1.063589,11.034058,12.954001,29.210168,37.213824,43.116422,30.201262,45.108614,52.843409,58.909399,42.619085,57.555892,64.493489,69.447601,50.241617,64.410867,69.92524,73.423648,23.65757,52.456856,70.999031,78.213959,50.44939,74.537716,90.679607,102.616653,36.99852,63.271236,57.378845,49.188023,22.26305,49.301434,43.091869,35.565147,9.310856,33.64357,32.323837,27.707977,-7.39915,1.641635,22.096304,34.785149,-16.421133,6.106467,20.463222,31.570053,-7.516785,25.899883,29.812389,25.553679,6.513217,36.769931,35.325342,28.584883,21.960947,42.911874,40.814182,34.590389,41.407299,303.155744,-133.308964,19.98092
84,1.045074,-0.758419,0.128403,15.551255,-27.788429,-51.525307,-73.217583,-89.852715,-59.741821,-90.735226,-107.224503,-119.594536,-53.088226,-87.10928,-105.956898,-120.812531,-44.243431,-75.217152,-92.524052,-105.180588,-34.291306,-58.275719,-71.63538,-82.634811,-16.497549,-14.655596,-0.292388,11.424567,13.590463,29.236721,37.170475,42.948276,31.0528,45.776136,53.391506,59.26786,43.441909,58.241692,65.274755,70.129449,51.009607,65.155206,70.919051,74.37164,22.657471,49.604874,68.805714,79.506741,48.59499,75.113926,92.886944,105.90992,37.004471,64.895096,61.167526,54.741211,24.526119,52.681675,47.254314,40.541439,13.094044,36.609764,35.064468,30.972748,-9.804144,-2.866825,13.937716,24.702017,-18.433856,1.604554,14.740997,24.481599,-7.045846,21.877059,26.76337,22.472457,8.155315,33.232034,33.082629,26.761641,24.090534,41.120279,39.748895,34.017005,44.714928,300.960532,-130.918007,34.095382
85,1.647263,-0.568845,-1.723309,17.278198,-27.752838,-52.069588,-74.069767,-90.725956,-60.425606,-91.613445,-108.062038,-120.471725,-53.545532,-87.37175,-106.373863,-121.302795,-44.439354,-75.500908,-93.428192,-106.814404,-34.092293,-57.986526,-71.671944,-83.204784,-15.946859,-14.425761,-0.810659,10.744695,14.276695,29.345031,36.947556,42.86868,31.139745,45.635716,52.882559,58.5736,43.009532,57.778317,64.918208,70.058868,50.140347,64.492686,70.472164,74.464945,22.344475,49.76675,70.507393,82.735119,47.96711,76.944466,95.945091,110.675125,38.460331,67.427673,65.041637,60.021057,27.820644,57.278709,52.918053,46.57402,17.73056,42.089825,40.508308,36.521244,-10.633637,-5.399796,10.353043,20.955404,-17.214317,-1.469845,9.314309,17.545608,-4.608155,20.384181,24.601982,20.404281,10.95301,32.036916,32.256995,26.608129,27.131896,41.207872,40.217982,35.191683,47.94199,299.455134,-131.061516,50.437026
86,1.714668,-0.224648,0.238323,24.636593,-27.502785,-52.240334,-74.547329,-91.236362,-61.095428,-92.215576,-108.669434,-121.045418,-54.377403,-87.989502,-107.127514,-122.209511,-45.287933,-76.096802,-93.827705,-107.025719,-34.812469,-58.541565,-72.194481,-83.614826,-16.189291,-14.584645,-1.246741,9.947312,14.344312,29.156816,36.512278,42.324967,31.179574,45.170797,52.253075,57.886009,43.02744,57.547308,64.477557,69.414935,49.997456,64.198075,70.060906,73.950811,22.242737,48.160744,68.993511,83.365345,45.774937,77.422829,97.843952,114.542999,38.766918,69.456024,68.618374,63.677044,30.688591,61.72348,58.73045,52.073078,22.989292,47.117329,46.148472,41.942139,-13.161483,-11.004356,2.53047,11.091671,-19.966687,-9.188307,0.643748,8.849884,-5.70827,13.149997,16.94632,13.986777,10.575283,25.844462,26.549651,22.901561,27.226837,34.824886,33.824251,30.774615,50.772886,298.285288,-129.706964,74.128421
87,1.313782,-0.613058,1.68972,20.700961,-27.715874,-52.35363,-74.883728,-91.715069,-60.640411,-92.526226,-109.368839,-121.898003,-53.567963,-88.358231,-107.576637,-122.547855,-44.382019,-76.370201,-94.257774,-107.238178,-34.315681,-59.220886,-73.183308,-84.526577,-16.378679,-14.942859,-1.840409,9.625345,14.616817,29.137858,36.759835,42.891095,31.741009,45.193336,52.273329,57.950786,43.740904,57.591275,64.157999,69.035046,50.879561,64.498244,69.718191,73.274521,22.111416,47.573719,68.366089,81.063766,46.799412,77.334251,95.607548,110.551014,40.101013,67.842808,74.722023,75.672855,32.199154,59.413719,62.964191,61.476803,24.292889,44.873657,48.562946,48.018494,-13.446584,-13.73641,-4.660149,3.469354,-15.668797,-8.532641,0.481499,8.129534,-2.846107,7.495883,12.110028,12.414828,11.718036,21.084339,22.175962,20.583666,25.912696,33.138636,32.473091,29.777129,53.960638,296.797211,-126.143274,93.954363
88,0.913811,-0.340739,-3.930044,29.330628,-27.749748,-52.107239,-74.76202,-91.551647,-60.720406,-92.429752,-109.325237,-122.181358,-53.887367,-88.331051,-107.713165,-122.728615,-44.977226,-76.433144,-94.525337,-107.706814,-35.086784,-59.203835,-73.080425,-84.568748,-16.47044,-15.541652,-2.790872,8.109867,13.874947,28.75692,36.439103,42.773152,30.965547,44.827032,51.735298,57.42529,43.265179,57.40448,64.054505,69.155398,50.80052,64.581545,69.792662,73.553633,30.218697,61.482697,86.045008,100.445824,53.923159,85.497065,92.672567,96.795702,45.493813,77.277231,77.055073,72.758303,37.200136,69.623194,66.595116,60.217237,29.90078,56.086693,55.301228,50.859432,-15.15105,-15.334248,-5.872233,2.117746,-14.480472,-2.600727,2.053278,4.23668,0.663523,13.188035,14.455169,13.561486,16.714123,26.932241,25.634927,24.126303,32.424215,38.047902,35.502488,33.623516,56.715374,296.122418,-128.232393,122.950937
89,0.460739,-1.161711,-3.930044,29.330627,-27.807884,-52.446785,-74.924755,-92.006435,-61.03054,-92.476902,-109.190254,-121.947269,-54.040833,-87.911568,-107.116928,-121.938744,-44.963722,-75.933838,-93.999939,-107.179985,-34.860992,-58.624992,-72.508507,-84.046783,-16.256722,-15.098223,-2.485516,8.167356,14.219082,29.402088,37.401669,43.722688,31.405272,45.880494,52.901516,58.35204,43.764369,58.501476,65.328231,70.216393,51.220793,65.22906,70.803084,74.610491,38.325977,75.391674,103.723927,119.827881,61.046906,93.659878,89.737587,83.04039,50.886612,86.711655,79.388123,69.84375,42.201118,79.832668,70.22604,58.957672,35.508671,67.299728,62.039509,53.700371,-16.855516,-16.932086,-7.084316,0.766137,-13.292147,3.331188,3.625058,0.343826,4.173155,18.880188,16.800311,14.708145,21.71021,32.780144,29.093892,27.668939,38.935734,42.957168,38.531887,37.469903,57.743368,294.782033,-131.595182,152.102889
90,-0.863457,0.031801,-2.712421,27.571929,-27.15168,-51.56868,-73.99601,-91.540604,-60.909805,-92.618351,-109.163704,-121.588383,-53.611565,-87.956657,-106.785622,-120.954838,-44.340477,-75.595779,-93.406219,-106.168728,-34.254227,-58.363609,-72.182178,-83.364944,-17.23207,-16.04498,-3.430976,7.445741,14.028026,29.462604,37.518933,43.658838,31.717605,46.504791,53.419232,58.59089,44.254544,59.132133,65.873734,70.51224,51.641437,65.790556,71.295976,74.91702,34.745579,69.425583,97.183228,116.706104,67.687168,102.234821,111.016445,114.892616,60.919762,96.880646,90.843315,81.100502,53.494892,88.072243,80.112648,69.511356,45.562649,75.214062,69.456997,60.71909,-16.177558,-19.334857,-9.533214,-0.849192,-18.802877,-8.790789,-3.596529,-1.058773,-0.835113,9.787934,10.595506,10.103911,16.901397,27.572485,26.132589,24.953835,35.423371,37.153617,33.880105,33.063455,57.762623,294.808169,-133.424892,179.669153
91,0.674286,-0.625593,5.510502,23.223836,-28.026695,-52.779694,-75.329475,-92.182159,-61.040955,-92.444057,-108.972359,-121.498375,-54.105949,-87.88765,-106.828365,-121.548443,-45.047035,-75.944195,-93.770256,-106.873856,-35.013771,-58.546028,-72.076378,-83.405972,-16.934495,-15.573022,-2.034429,9.550133,14.312634,29.517747,37.232843,43.36929,31.746937,46.031968,52.88682,58.43917,44.135551,58.633375,65.394427,70.169093,51.605746,65.637909,71.087321,74.632721,30.446835,63.571186,89.918289,107.914696,64.649792,100.141182,112.733459,118.060398,59.550991,97.115765,98.011494,92.253857,53.362942,89.192963,87.80365,80.588036,46.846733,76.964607,78.149014,73.828468,-18.14542,-21.243932,-10.70888,-0.667954,-13.101276,-6.458599,-2.150396,2.096859,6.06951,12.086099,9.565262,8.815921,23.448546,29.347748,24.090873,21.690573,39.491982,38.779938,31.968003,27.798306,58.843231,293.964967,-127.508068,202.675381
92,-1.248665,-0.304059,6.455555,22.489994,-27.299538,-51.842308,-74.153252,-90.224361,-59.989014,-91.768341,-108.16761,-120.510006,-53.089485,-87.473373,-106.379814,-120.744095,-44.062042,-75.602932,-93.208752,-105.975323,-34.127655,-58.265877,-72.065678,-83.445511,-16.326562,-14.398529,-1.078533,11.190718,15.124775,30.714902,38.233632,43.519282,32.610393,47.637294,54.35049,59.101258,44.832466,60.00658,66.438442,70.613078,52.050657,66.396328,71.938304,75.276593,28.488121,59.748802,84.365444,104.945297,62.43084,97.691746,118.5672,132.149963,57.564583,95.912361,105.109692,105.630856,51.722488,88.393192,94.519501,92.535152,45.80143,75.225334,82.896881,83.473091,-19.147444,-22.436765,-19.16739,-18.879694,-1.904506,5.92841,10.19629,14.985899,15.696955,22.281216,15.226046,10.252112,29.212638,33.703745,25.230786,19.326335,39.308336,39.357675,32.054886,25.60876,57.975225,293.660182,-120.671854,225.164649
93,0.325241,2.213197,4.285011,19.325347,-28.482857,-50.08873,-70.543499,-84.335747,-60.471382,-91.554394,-106.960602,-118.888836,-54.634781,-87.528191,-106.07357,-120.793419,-45.684013,-75.843029,-93.544979,-107.001286,-35.978622,-59.702568,-73.057709,-84.918251,-15.111437,-16.759124,-14.511038,-10.140591,11.853547,26.344702,34.731643,40.871424,28.777853,43.841866,51.53992,56.160888,41.528264,56.611666,63.756621,66.785355,50.148374,64.533935,69.867071,71.751385,31.891022,63.794918,88.30101,109.173145,64.6134,97.676697,119.556313,135.766296,57.77441,93.768539,108.268661,114.219131,50.642796,85.640945,99.322357,105.024548,44.244461,72.921009,86.092701,93.177052,-19.677016,-22.913664,-19.109962,-16.213682,1.862022,11.839406,17.671671,22.043045,19.842198,30.610235,26.337292,21.225716,32.854492,41.639106,35.975667,28.990645,41.45299,47.603084,44.819684,39.171189,58.767099,296.151178,-115.92021,244.767796
94,-0.76561,-0.851291,31.977825,25.6426,-30.992661,-57.217369,-81.078529,-98.516579,-60.63961,-89.529819,-106.333694,-118.84409,-54.751282,-85.988846,-106.42067,-121.880665,-47.02343,-74.556942,-92.6754,-106.424847,-38.046112,-60.098648,-74.064445,-86.019516,-12.087026,-15.625324,-15.943771,-15.705909,17.654258,31.076574,37.28953,40.492092,31.344633,46.744815,52.990252,56.272903,41.702955,58.059096,64.18239,66.946339,49.139619,62.106897,67.739831,71.35575,15.870266,39.589062,63.006763,81.992397,56.354027,86.171436,92.509403,90.28513,60.144539,83.2374,74.744968,57.827797,59.724026,74.58292,61.879234,43.766441,56.664848,66.624527,58.287563,43.580303,-24.378754,-29.667738,-26.224597,-21.81605,-2.553256,14.559574,24.801003,31.85852,21.710457,45.74946,57.946525,62.352232,43.964688,67.975842,78.214986,80.114923,61.848533,83.338171,90.729078,91.485088,58.396254,295.630514,-83.547621,270.741023
95,-2.450638,4.131411,-12.226868,2.191769,-21.213799,-45.232201,-70.942211,-91.675816,-36.347008,-68.925991,-85.41132,-97.134018,-39.378548,-72.477036,-93.607578,-109.580212,-40.91217,-70.979404,-92.72953,-111.867485,-40.95417,-64.122047,-79.709129,-94.480534,-15.677503,-24.467242,-30.607147,-33.669721,-0.092564,-4.012851,-7.42487,-9.875188,19.212282,19.994598,17.01971,14.218712,33.611367,42.32225,44.722612,45.342031,42.545293,56.933942,62.937872,66.039472,25.173683,54.262905,80.518055,103.146915,53.668098,92.373447,112.127323,124.610882,47.869606,91.026192,109.467258,116.609058,42.007828,82.300529,98.889828,105.020657,36.323376,67.016487,81.224041,86.99461,-18.869382,-19.220433,-12.498963,-10.872889,8.256277,23.110771,28.838986,33.161144,30.168226,44.239724,44.762503,43.246098,45.823375,57.973078,58.171111,56.135077,54.645904,66.188044,65.393131,61.276786,56.18331,299.948489,-95.536795,273.119355
96,-3.015976,-1.522703,2.851582,5.923594,-19.774704,-42.057838,-64.519958,-82.88475,-26.376801,-54.95842,-75.462513,-91.034145,-28.900108,-59.896088,-83.573685,-100.505333,-32.069893,-60.84795,-83.719482,-101.662216,-34.590797,-55.786858,-73.239498,-89.991589,-17.16822,-26.340256,-28.219753,-24.331762,9.635164,7.003917,-0.233725,-5.105277,28.155039,29.336571,21.857361,14.496341,41.329489,48.710269,45.260767,39.190269,48.550273,65.40264,72.168447,74.316621,29.744282,58.754196,84.262562,104.630585,58.421059,92.136383,110.736008,123.147469,48.957253,86.904316,107.191086,119.108276,40.366173,73.876591,92.633057,104.593391,33.361588,58.118534,72.504215,83.024254,-14.64516,-14.180179,-8.058676,-3.56621,16.328167,30.983207,37.220431,41.581801,34.384605,50.680848,56.031768,57.959184,46.359616,63.797191,68.289842,68.843435,52.654576,69.159412,73.403764,74.023553,53.250074,298.572412,-92.602472,279.189575
97,-7.651977,0.937927,4.158669,3.834886,-15.852242,-35.53917,-56.886664,-74.816466,-44.911108,-54.619417,-52.578593,-52.081747,-49.147139,-58.319178,-57.377816,-54.21587,-50.761442,-61.840926,-60.802803,-58.557701,-50.489788,-66.605645,-74.8736,-80.490904,-9.864844,-14.054054,-10.690571,-3.397292,9.319033,19.116446,19.121231,18.427249,24.648881,32.958634,33.184826,31.717018,35.964582,45.371949,46.50371,45.400508,43.816487,58.112047,64.100633,68.098509,29.298992,57.15168,82.072334,102.617569,57.571907,90.529861,108.328171,120.925941,47.828979,84.306393,105.191345,119.280281,38.973141,71.61335,91.168785,105.282898,31.062641,55.3442,70.616856,83.974228,-11.989213,-10.954647,-5.696167,-5.330913,19.130833,34.372688,40.41126,44.28474,36.887164,53.39626,59.029565,61.360952,48.956035,67.392485,72.929521,74.690026,55.6914,73.334357,78.124954,79.619746,45.897417,299.706458,-88.144484,283.22058
98,-7.651978,0.937927,2.732449,3.278576,-11.929779,-29.0205,-49.253368,-66.74818,-63.445415,-54.280415,-29.694672,-13.129349,-69.394169,-56.742268,-31.181946,-7.926407,-69.452991,-62.8339,-37.886124,-15.453186,-66.388779,-77.424431,-76.507702,-70.990219,-2.561469,-1.767853,6.838611,17.537179,9.002901,31.228974,38.476188,41.959775,21.142724,36.580697,44.51229,48.937696,30.599676,42.033629,47.746654,51.610747,39.0827,50.821454,56.032818,61.880397,29.388371,56.420345,81.614285,102.028255,58.377342,91.384907,109.137211,122.092381,48.861351,85.178776,106.305828,120.779171,39.409504,72.42342,92.24184,106.780186,30.425549,55.821934,71.404381,85.61182,-11.974887,-12.0325,-7.480445,-9.45652,17.586394,33.290944,40.889023,46.364741,34.506809,50.970272,58.324561,62.021743,46.614213,64.928273,71.948987,74.514963,54.504001,72.021049,77.605448,79.482846,38.478727,300.735066,-85.178747,286.589837
99,-33.297501,10.515107,3.816605,3.202068,1.703224,0.97126,-3.462181,-8.834209,-26.665878,-8.566418,12.253189,26.482658,-36.848488,-13.163338,9.649773,30.223274,-41.352253,-24.05571,-1.652298,16.670151,-42.626839,-46.488247,-47.588196,-45.886459,-16.230478,-21.385094,-19.571855,-16.228317,0.673635,18.094908,25.041398,28.734937,17.070469,30.051208,35.81351,39.338841,28.034317,38.336632,41.194626,44.162598,36.601013,45.141898,50.226859,55.224752,28.127174,54.556332,79.544392,99.918423,58.891525,91.680737,109.124737,121.796093,49.591312,85.229702,105.963078,120.127659,40.085907,72.832546,92.052441,105.988712,30.83313,56.814308,72.221832,85.994396,-13.200262,-14.295776,-10.480342,-13.23089,16.676749,32.477197,40.359081,45.949778,33.692445,49.717109,56.650569,59.647502,45.883026,62.986717,69.307551,71.001982,53.989373,70.170575,75.075472,76.499868,5.523491,311.153425,-81.019878,289.695157
100,-36.339912,16.462042,3.931217,2.175529,10.582867,20.591698,31.562576,41.138306,15.84795,47.970886,66.988792,78.112221,6.678543,37.76413,57.934227,75.435219,-1.39801,23.806744,41.743469,56.761208,-7.731113,-1.009769,3.357353,8.597145,-22.331172,-33.519853,-41.25755,-48.050219,-17.081831,-6.74685,0.751317,7.393253,0.655666,14.501034,21.182614,25.54312,15.229813,26.709894,30.272398,32.232233,25.807103,34.91498,35.81703,34.580416,27.418499,53.131313,78.098259,98.574486,58.520565,90.868034,108.232498,120.811386,49.725895,85.306435,106.127014,119.902611,40.209045,73.035336,92.013817,105.347557,30.89138,56.700153,71.895447,84.927521,-13.654869,-15.357266,-12.171191,-14.941315,16.196022,31.262443,39.015022,44.321173,33.504292,48.648518,55.518993,58.491966,45.974602,62.269671,68.146149,69.658726,54.303251,70.136365,74.235975,74.634635,-30.558615,327.60531,-76.830854,291.860528
101,5.333748,-24.270938,1.401043,1.671213,15.43951,27.712097,31.60778,28.106117,16.034088,46.284828,59.831429,63.272095,5.184174,37.163658,51.165848,59.504356,-6.409664,21.800537,36.725121,44.074974,-15.558128,-6.76363,-2.90102,-0.974407,-17.418247,-24.195726,-24.622915,-26.058983,1.566423,24.968409,26.363165,24.398452,21.136425,44.510623,43.358669,38.868797,34.634509,54.445647,51.726715,48.998458,44.487529,61.631975,61.758316,59.73741,26.950722,52.714863,76.911335,96.885853,58.261299,90.215206,107.372189,119.614391,49.603443,85.015469,105.482082,118.71809,40.433693,73.356228,91.774578,103.810101,31.988297,57.295303,72.1035,83.715763,-14.185737,-15.942721,-13.079478,-16.742204,16.356634,31.675059,39.719779,44.887301,33.896592,48.900213,55.318242,57.595042,46.445078,61.676867,66.062073,66.061764,54.537099,69.258089,72.537283,72.098608,-25.198002,303.309132,-75.402946,293.506501
102,3.082294,1.343133,0.844688,-0.14604,13.052387,24.143543,27.12759,22.169552,14.790974,44.65147,57.062359,59.451199,4.515324,35.130787,48.45583,56.140308,-6.710873,20.446529,35.193501,42.174053,-16.488304,-4.366951,3.781013,8.29525,-17.810239,-25.173296,-25.252954,-26.233675,0.430709,23.035065,25.897505,25.154895,19.68986,41.649788,42.249076,39.048244,33.011461,51.584009,49.37705,46.668985,43.094563,60.830701,58.711242,53.444611,27.066822,53.184872,77.174435,96.920757,57.419014,88.893757,105.889606,118.377743,48.140774,83.840275,103.886433,117.042446,38.460503,72.014294,90.047665,101.711712,29.625835,55.294418,70.2075,81.397762,-13.181181,-14.723583,-12.06356,-15.983847,16.226218,32.375124,40.564093,45.632505,34.134331,49.837276,56.443458,58.589038,46.909503,63.009688,67.371675,67.003767,55.077539,69.863366,72.667576,71.51309,-21.935005,304.599762,-74.377556,293.307958
103,3.055229,-0.025132,-0.27523,-0.168764,11.976643,22.446613,25.109196,21.514721,11.881771,39.559994,52.272663,55.057583,2.662868,30.724812,44.457493,53.000164,-7.731972,16.896458,32.269421,39.942341,-16.698647,-7.911301,-1.506042,1.484356,-18.765888,-25.320756,-24.208446,-23.497699,1.570869,23.459167,26.088932,25.115498,20.657551,41.671154,42.404687,39.526253,33.23012,51.204244,49.193589,46.346216,42.273097,59.265267,58.632016,54.948234,27.193623,53.790722,77.67889,97.484035,56.948147,88.745213,106.070766,119.138546,47.607708,83.581409,103.818111,117.514973,38.038273,71.758118,90.284672,102.678738,29.336586,55.100842,70.431976,82.201824,-12.69255,-13.87859,-11.136687,-14.355921,16.562572,32.727718,40.39255,45.024819,34.264316,49.614912,56.054863,58.240951,46.74642,62.701183,67.282014,67.261513,54.627193,69.663913,72.780456,71.858893,-18.711033,304.570121,-74.484043,293.134686
104,-5.105495,-0.003026,0.854988,0.225389,14.019299,26.772423,31.409225,28.480797,15.702496,45.133324,58.582878,62.158012,5.29604,35.164719,49.552917,58.465691,-5.564346,20.469131,35.703278,42.859497,-14.933796,-2.724895,6.520729,11.541996,-17.73126,-24.458474,-23.287439,-21.697983,-0.759098,22.24608,25.622098,25.238381,18.758231,40.931693,42.399253,39.577136,32.370307,50.768348,49.392055,47.307546,42.727333,60.101367,58.590396,54.184505,27.134743,53.401508,77.090206,96.653652,56.72636,88.400402,105.445232,117.920666,47.496529,83.448429,103.572407,116.810131,38.013153,71.997814,90.32198,102.205982,29.361362,55.547333,70.932827,82.53233,-13.563416,-14.343941,-10.527395,-12.245601,16.748317,32.810279,40.384214,44.680684,34.589185,49.493696,55.653053,57.5202,47.321811,62.705814,66.983574,66.780848,55.449894,70.01095,72.651768,71.299866,-23.76111,304.583043,-73.573637,293.376022
105,22.233124,-1.453605,-0.478191,0.789479,7.01786,9.415283,5.829506,-2.098389,-11.909924,11.614723,30.853615,39.882317,-21.941299,2.870522,23.382339,39.569321,-30.526199,-8.581467,12.662773,26.258583,-36.37888,-33.594589,-27.107906,-21.057758,-16.112535,-21.142477,-18.892662,-16.903434,3.470929,25.782958,30.41146,30.216082,22.167286,42.058638,44.814003,42.701645,35.297709,51.270564,51.192141,50.610823,45.645534,61.161128,62.395395,61.832293,28.137074,53.988991,77.500076,97.280159,55.812836,87.650757,104.890022,117.711639,46.752949,82.717323,102.900925,116.252174,37.646599,71.706619,90.230598,102.22641,29.413834,55.576057,71.117249,82.929955,-13.121654,-14.267,-10.805828,-12.183295,16.64822,33.228761,40.981155,45.488256,34.28105,49.45998,55.873872,58.00457,46.872082,62.562739,67.253423,67.395635,54.921063,69.64582,72.590944,71.450969,-1.524038,303.111407,-74.04788,294.14747
106,-11.885433,12.861623,1.308804,0.167714,1.153164,7.878113,19.625416,21.753559,-4.092979,23.765659,41.249714,51.887684,-13.276176,17.948284,38.581409,52.283306,-17.65955,6.081734,24.832592,37.38287,-18.299847,-10.940895,-0.456848,9.971352,-18.572795,-25.15119,-20.694045,-15.689421,-3.93486,6.660399,13.561008,18.420271,14.881726,24.547209,31.842588,33.455385,28.579511,35.184397,39.042871,39.64679,39.862793,46.718324,45.884446,43.614625,27.836208,53.572712,77.284184,97.107754,55.103245,86.744328,104.006824,116.742382,45.758572,81.285496,101.317806,114.463749,36.517067,70.065136,88.816509,101.315746,28.314342,54.220619,69.837971,81.92728,-12.773999,-13.648817,-9.847215,-10.499052,17.989254,34.69626,42.127613,46.160038,35.172726,50.631262,56.756965,58.285102,47.219429,63.502703,68.030305,67.607562,54.641334,70.010518,73.3514,72.308683,-13.416166,315.925358,-72.745771,294.267513
107,-11.134872,1.618231,0.358658,0.20248,10.345459,23.064022,39.279842,49.003658,10.16922,38.783627,57.761593,69.692402,-0.263901,32.227879,55.662632,72.757473,-5.841694,20.839863,41.156673,56.689281,-7.477398,2.468834,10.793552,18.8661,-17.756269,-21.737627,-18.080829,-13.017481,-11.524047,-2.443464,4.875813,12.489515,6.583829,18.632508,27.136404,31.787445,22.54384,33.431488,38.216527,40.412928,35.695443,44.159325,44.133266,43.517183,27.532883,53.323517,77.085171,96.721859,55.79298,86.988773,103.822346,116.440945,46.49128,81.248188,100.739765,114.04604,37.010708,69.541912,87.796497,100.374813,28.433018,53.733845,69.017487,81.163044,-12.855633,-13.615657,-9.615342,-10.229944,18.262067,35.118509,42.673178,46.848617,35.080718,50.138371,56.63754,58.859134,46.924817,62.917804,67.839435,68.08798,54.358147,69.652797,73.062655,72.293307,-24.536476,317.479431,-72.372551,294.405834
108,48.574848,-11.327002,-0.586567,-0.000803,1.22509,-5.288658,-19.145622,-33.737583,-39.221306,-18.577652,3.146095,14.687576,-51.315079,-25.8395,-2.983589,14.737358,-57.878723,-37.209206,-14.308434,1.465187,-59.988842,-59.304314,-50.799236,-42.57185,-16.075361,-23.786444,-23.340853,-23.181228,5.093977,26.805607,29.47693,28.469719,24.646071,41.661027,42.902581,40.663511,37.801379,50.483,48.69267,46.750866,48.148278,61.193423,58.688147,55.055247,27.618999,53.608818,77.331848,97.112732,54.754829,86.286964,103.422318,116.276894,45.494843,80.891304,100.934601,114.523315,36.372814,69.480343,88.261642,101.016083,28.373508,54.058571,69.486923,81.514206,-12.894783,-13.689387,-9.679192,-10.043581,17.31778,34.759183,42.390361,46.57673,34.407021,49.985847,56.581717,58.886428,46.479844,62.790721,67.858145,68.155412,53.994931,69.24543,72.785705,72.027471,24.051876,306.058291,-72.945614,294.310892
109,-27.601604,10.668001,0.857563,0.321534,1.088047,3.345966,4.884167,4.641781,-15.799828,10.465679,29.897747,40.06422,-25.163441,5.007763,27.56773,44.61771,-29.166183,-8.026485,12.646351,28.740749,-29.381275,-33.799381,-37.080231,-38.50256,-17.775165,-22.176672,-15.494352,-9.279975,-2.488665,13.352045,21.444498,27.510426,14.855297,26.883536,32.914946,36.246998,27.037541,35.890204,39.362491,41.886169,37.114468,42.096985,43.289324,43.66279,27.576828,53.074379,76.833286,96.736851,53.714161,85.850201,103.733311,116.85957,44.065819,80.049534,100.359821,113.717022,34.799995,68.342571,87.477551,100.420246,26.830215,52.533817,68.078041,80.333805,-13.266644,-14.100521,-9.868148,-9.816833,17.722492,35.516676,43.113829,47.251354,34.648712,50.711291,57.099803,59.021291,46.488427,63.249774,68.065503,68.044384,53.559529,69.02072,72.705985,72.191789,-3.45726,316.690801,-71.995583,294.596936
110,34.359684,-7.793766,-0.125198,0.350619,-2.296829,-12.185898,-27.155228,-40.168247,-44.319935,-27.61631,-5.958023,7.352486,-54.343185,-33.20303,-10.397415,8.319969,-58.906574,-44.222717,-21.415558,-4.470062,-60.064545,-68.26458,-66.990623,-63.969612,-16.808215,-24.495215,-23.187588,-20.204364,5.263976,23.13967,25.403687,25.502858,24.22586,36.925141,38.604382,38.491378,36.791266,46.007885,44.799368,44.067441,46.393023,56.365159,55.940254,54.704752,27.029171,52.542629,76.268635,95.81789,54.28894,86.147518,103.50832,116.510639,45.030441,80.412197,100.37653,113.886738,35.690289,68.62215,87.539692,100.475063,27.16959,52.746849,68.235912,80.578709,-13.47746,-14.865362,-10.904691,-11.166389,16.959689,34.325572,41.766929,45.898896,33.794457,49.599722,56.150576,58.395944,45.692032,62.201128,67.291338,67.645353,53.21138,68.623356,72.380622,71.86939,31.077662,308.853238,-71.945543,294.903758
