takenoko1/special-research/HandMotion_SimilarSearch_自分用/NewProject/handData/key/d4_feature_d2/124.csv
,vel_0x_L,vel_0y_L,vel_0x_R,vel_0y_R,posFromWrist_1x_L,posFromWrist_2x_L,posFromWrist_3x_L,posFromWrist_4x_L,posFromWrist_5x_L,posFromWrist_6x_L,posFromWrist_7x_L,posFromWrist_8x_L,posFromWrist_9x_L,posFromWrist_10x_L,posFromWrist_11x_L,posFromWrist_12x_L,posFromWrist_13x_L,posFromWrist_14x_L,posFromWrist_15x_L,posFromWrist_16x_L,posFromWrist_17x_L,posFromWrist_18x_L,posFromWrist_19x_L,posFromWrist_20x_L,posFromWrist_1y_L,posFromWrist_2y_L,posFromWrist_3y_L,posFromWrist_4y_L,posFromWrist_5y_L,posFromWrist_6y_L,posFromWrist_7y_L,posFromWrist_8y_L,posFromWrist_9y_L,posFromWrist_10y_L,posFromWrist_11y_L,posFromWrist_12y_L,posFromWrist_13y_L,posFromWrist_14y_L,posFromWrist_15y_L,posFromWrist_16y_L,posFromWrist_17y_L,posFromWrist_18y_L,posFromWrist_19y_L,posFromWrist_20y_L,posFromWrist_1x_R,posFromWrist_2x_R,posFromWrist_3x_R,posFromWrist_4x_R,posFromWrist_5x_R,posFromWrist_6x_R,posFromWrist_7x_R,posFromWrist_8x_R,posFromWrist_9x_R,posFromWrist_10x_R,posFromWrist_11x_R,posFromWrist_12x_R,posFromWrist_13x_R,posFromWrist_14x_R,posFromWrist_15x_R,posFromWrist_16x_R,posFromWrist_17x_R,posFromWrist_18x_R,posFromWrist_19x_R,posFromWrist_20x_R,posFromWrist_1y_R,posFromWrist_2y_R,posFromWrist_3y_R,posFromWrist_4y_R,posFromWrist_5y_R,posFromWrist_6y_R,posFromWrist_7y_R,posFromWrist_8y_R,posFromWrist_9y_R,posFromWrist_10y_R,posFromWrist_11y_R,posFromWrist_12y_R,posFromWrist_13y_R,posFromWrist_14y_R,posFromWrist_15y_R,posFromWrist_16y_R,posFromWrist_17y_R,posFromWrist_18y_R,posFromWrist_19y_R,posFromWrist_20y_R,posFromBody_0x_L,posFromBody_0y_L,posFromBody_0x_R,posFromBody_0y_R
2,28.983822,-15.621804,0.071983,0.370502,2.767525,-4.326668,-16.698303,-29.000416,-35.771255,-17.184448,4.497871,17.511749,-47.378483,-24.274063,-1.039696,17.043915,-53.766518,-35.782127,-13.001404,3.627892,-56.674805,-57.960377,-48.528214,-38.34938,-17.936457,-24.037027,-22.192666,-19.378823,0.560755,20.058819,25.047449,25.78549,19.881965,34.523606,38.675209,39.897991,33.686332,44.08331,45.290222,45.944283,44.374031,55.997435,54.824424,51.91882,27.335873,52.621307,75.855618,96.1516,52.761955,84.538479,101.840687,114.510212,43.884888,80.017605,100.258083,113.577061,35.355034,69.162083,87.849026,100.124416,27.739563,53.328552,68.628902,80.32053,-14.238472,-15.777292,-10.63799,-7.256785,15.274705,32.452065,39.899782,44.008345,32.808982,48.459068,54.64825,56.648902,45.305351,60.988597,65.529599,65.211893,53.197609,68.294165,71.405645,69.588145,24.42235,309.228634,-69.902658,296.663043
3,-34.561615,15.196776,0.704498,-0.43003,11.37394,17.514496,22.17041,24.91848,-3.201141,26.120338,45.216751,54.732285,-14.326515,18.192329,39.634895,55.537148,-20.731087,6.297054,25.884819,40.27256,-23.207302,-16.065044,-9.787617,-3.692951,-22.839625,-34.767828,-38.188554,-38.171696,-12.881136,2.620811,10.770877,16.545035,6.897336,21.559539,26.621776,28.832502,21.315872,30.753125,32.881477,34.010645,31.848825,39.584237,37.802367,34.112595,26.452503,51.637974,75.15707,95.493908,51.933002,83.876896,101.486263,114.447041,43.240128,79.38303,100.029888,113.422451,34.638119,68.592281,87.632504,100.149822,26.775799,52.562313,67.91811,79.86105,-14.03451,-15.432107,-10.264153,-6.717457,15.165654,32.721605,40.230146,44.427013,32.591435,48.178845,54.630157,56.638651,45.050507,60.879793,65.566032,65.20226,52.934491,68.586985,71.9417,70.20744,-10.391693,324.4067,-69.450588,296.214303
4,0.887604,8.108694,0.620556,0.126218,7.394428,12.404709,16.359444,20.8564,-1.297588,25.654564,45.398941,56.928635,-9.685364,17.291908,38.152428,55.316849,-14.896545,6.721802,24.583397,39.11293,-16.87706,-18.212643,-21.985016,-25.426083,-21.407139,-32.968854,-39.499022,-44.145925,-16.31063,-5.189258,3.328718,10.493927,0.332279,12.993522,18.744399,23.059827,13.434852,22.748296,25.460621,28.290951,23.666525,29.200844,31.602626,32.782367,26.130295,51.20327,74.605064,94.863625,51.588249,83.395958,100.994339,114.053764,42.672844,78.611641,99.238586,112.599907,33.916111,67.544403,86.592751,99.219246,25.995026,51.412868,66.872063,79.021111,-14.079897,-15.450879,-10.125277,-6.681518,15.559251,32.859185,40.345681,44.499138,33.185412,48.455734,54.674803,56.449757,45.622069,61.323717,65.706082,65.070238,53.353714,68.867888,72.069091,70.120372,-9.694118,332.493565,-69.020061,296.318692
5,0.526142,0.861727,-0.351677,0.021736,8.620663,14.03635,19.423542,24.649601,-3.261395,21.910114,37.764072,47.870922,-12.715073,15.963993,33.759785,49.901791,-17.536297,6.886711,25.323544,40.540638,-18.7183,-20.411453,-24.462547,-25.509052,-17.6085,-31.590214,-40.25145,-46.500345,-16.449692,-3.768936,4.471286,8.214472,-0.798556,12.807468,19.028204,21.907688,11.186211,23.18975,26.110853,26.763123,20.25006,28.005664,30.851741,31.796954,25.917206,51.104565,74.911079,95.41008,51.915836,83.742828,101.18557,114.103317,43.022861,78.717728,99.165459,112.409821,34.132977,67.493706,86.189117,98.521729,25.866566,51.289501,66.459389,78.307457,-14.107808,-15.731164,-10.39704,-7.117414,14.959964,31.697166,39.268384,43.842793,32.391981,47.585917,54.191915,56.572208,44.814373,60.611549,65.310508,65.058382,52.591961,68.570683,71.801156,69.788463,-9.301414,333.343683,-69.505177,296.328819
6,0.149632,-3.057448,0.42881,-0.495362,5.662365,9.333344,15.809212,22.776947,-7.188492,17.524796,34.713821,46.125641,-14.87875,13.043404,32.158127,49.061394,-17.967396,7.002296,25.831146,40.870857,-16.498604,-13.541679,-8.006573,-0.284901,-17.755096,-31.232617,-37.868564,-41.29071,-13.294493,-1.195735,7.036521,11.00874,1.646883,14.828744,20.875962,23.874562,13.382549,26.236947,28.831453,29.358678,22.487771,32.582543,36.05693,38.963584,25.790863,51.023598,74.64489,95.295181,51.017818,83.079872,100.737534,113.786316,41.92915,78.12149,98.880272,112.119827,33.044872,66.901646,85.929337,98.460388,25.010605,50.440235,65.759354,77.767181,-13.885753,-15.192824,-9.877781,-6.71826,15.368937,32.523942,40.280288,45.138254,32.908338,48.075969,54.615831,56.890963,45.331039,61.245849,65.700215,65.317178,52.986732,68.880176,72.22711,70.448328,-9.407787,330.226507,-69.332371,295.773729
7,4.371758,5.77564,0.053673,-0.023897,5.422211,7.068214,8.086281,7.881317,-9.763756,15.919991,32.794762,42.21508,-17.196064,10.887337,29.242516,44.071655,-20.423698,2.351418,20.73864,35.011024,-19.562645,-24.216213,-30.305672,-34.394474,-18.708337,-33.424819,-43.611167,-48.957703,-18.863701,-5.898276,4.606519,11.358371,-4.1148,9.515244,17.474132,22.728412,7.232147,18.170059,22.89378,25.596904,15.895915,22.97844,26.753428,28.880112,25.799847,51.031322,74.84951,95.216789,51.241264,83.089828,100.670357,113.753471,42.054577,77.842026,98.478241,111.853409,33.006935,66.467972,85.466423,98.133659,24.693203,50.174904,65.626087,77.865143,-13.721559,-15.086058,-9.719083,-6.655706,15.556226,32.32844,39.843836,44.416083,32.925505,48.275669,54.794475,56.885468,45.255271,61.428754,66.066889,65.64007,52.946779,69.071911,72.463985,70.606224,-5.141058,335.978774,-69.383726,295.726459
8,2.001057,-5.891669,-0.363464,-0.03773,4.60825,5.320759,10.446796,15.701466,-15.047665,12.156887,30.148258,42.27602,-22.342873,6.459446,25.599346,42.640972,-23.526421,0.43396,19.501591,34.054241,-19.632339,-25.479927,-32.406693,-36.104736,-18.838013,-30.512669,-36.513574,-41.200801,-13.5967,-1.306577,7.135631,10.835221,1.269033,14.545865,20.620686,23.161345,12.779742,24.842129,26.969184,27.085583,22.379214,28.646387,32.852454,38.07623,25.731754,50.913391,74.737244,94.87278,51.531086,83.193054,100.837097,114.045868,42.418499,77.778397,98.354301,111.780167,33.172359,66.236343,85.138435,97.764587,24.557076,49.789238,65.096455,77.26387,-13.673702,-15.029618,-9.8587,-6.571726,15.45372,32.424277,40.02353,44.579969,32.525301,48.11061,54.91211,57.205952,44.709768,61.210096,66.138643,65.906585,52.388679,68.867703,72.487512,70.876505,-3.205118,330.096306,-69.812307,295.69793
9,36.481647,-18.019758,-0.274372,-0.313507,-3.24646,-12.990761,-28.781319,-44.611015,-47.700863,-34.716568,-9.982338,6.850777,-59.658394,-40.118351,-13.839455,7.383728,-64.371586,-50.569668,-24.976044,-4.860535,-65.558739,-72.263145,-65.091763,-55.133801,-17.618751,-26.237565,-25.79642,-23.038399,-3.552686,15.305272,21.864524,23.701784,17.302959,30.217317,35.929415,37.593527,32.466144,41.269838,44.188533,45.209885,44.124189,53.879766,52.593999,48.963322,25.457611,50.853939,74.75687,95.061665,51.882191,83.349895,100.931454,114.139652,42.759876,77.812443,98.315334,111.705723,33.434315,66.361713,85.204983,97.840977,24.784355,50.015144,65.259361,77.463055,-13.787014,-14.836771,-9.312827,-6.201038,15.863187,32.774031,40.533711,45.298929,33.055366,48.226207,55.082294,57.528598,45.328322,61.420665,66.254734,66.107706,53.026746,69.098649,72.621757,71.166609,33.219481,312.093822,-70.143728,295.401698
10,-48.867416,11.894858,0.134068,-0.089106,13.150063,20.171013,24.604454,24.972038,1.610527,27.481499,45.051727,54.598732,-10.644779,19.041824,38.537979,55.476723,-18.260765,6.651421,24.849358,39.696465,-22.708282,-16.662655,-10.331669,-2.142963,-24.200542,-36.241008,-40.476037,-42.823417,-14.116823,0.686541,8.018476,12.614745,5.185429,20.35238,25.445184,28.329422,19.569261,29.831871,32.2607,34.127538,30.315933,39.691745,38.921717,35.641659,25.487194,50.860691,74.908905,95.256958,52.391567,83.674164,100.999031,114.001007,43.172207,77.96196,98.261719,111.451492,33.673782,66.310101,85.005112,97.492676,24.805584,49.933319,65.084667,77.078819,-13.604974,-14.714444,-9.166231,-6.263962,15.859667,32.581679,40.465354,45.356604,33.004484,48.354339,55.358195,57.703413,45.305845,61.59443,66.531067,66.269863,53.01137,69.160029,72.723769,71.214651,-15.688334,323.961711,-70.050058,295.285623
11,4.833183,5.290096,-0.410271,0.204085,6.453667,11.281357,15.899162,20.796661,-2.744579,24.318695,43.874359,55.515175,-11.406841,15.327644,35.689545,52.600708,-16.386452,4.881077,23.153343,37.686996,-17.89135,-18.887386,-20.244083,-21.231823,-22.58441,-33.334293,-38.259506,-40.18828,-14.953912,-5.377288,3.573002,11.135822,2.469337,14.543272,21.476423,26.076211,15.988046,25.233874,28.400805,30.598935,26.169454,33.377456,35.921388,35.813016,25.877266,51.265068,75.17601,95.625801,52.531929,83.768463,101.132126,114.238472,43.345013,78.120003,98.096809,111.080933,33.991985,66.425228,84.867554,97.268143,25.381222,50.298386,65.233097,77.146454,-13.622079,-14.853938,-9.405638,-6.372396,15.413459,32.642935,40.678948,45.617561,32.690112,48.179277,55.289281,57.727249,45.107873,61.212875,66.250288,66.149203,52.903801,68.8401,72.385624,70.915964,-10.866165,329.253861,-70.471344,295.491761
12,38.228531,-18.114422,-0.013447,-0.021798,-0.316658,-8.538895,-21.803627,-34.903049,-42.097149,-23.34938,-1.092453,12.756729,-54.068699,-30.261669,-6.308784,12.110367,-59.363594,-41.336803,-17.877846,-0.559959,-61.008396,-62.03928,-51.576462,-40.20401,-17.433932,-26.0977,-26.509081,-25.357621,-2.410613,15.794459,21.313957,23.367529,17.935037,31.486597,36.12535,38.019296,32.580938,41.877462,44.065279,45.297076,43.832048,55.05994,54.101635,51.0792,25.84568,51.063137,74.910908,95.480862,52.689915,83.837643,101.11536,114.121113,43.664017,78.305111,98.281231,111.196117,34.264297,66.58144,84.881344,97.105923,25.505619,50.414429,65.307026,77.198353,-13.653881,-14.978921,-9.428485,-6.373445,15.371283,32.434589,40.641342,45.856597,32.688198,47.786236,55.156147,57.919108,45.185864,60.921413,66.031383,66.043424,53.113135,68.700483,72.151096,70.615116,27.347717,311.165312,-70.499439,295.495837
13,-47.749443,16.421472,0.456448,0.715934,12.832203,20.853081,29.515915,36.203156,6.142216,33.741302,50.767937,59.781303,-4.014187,26.817398,46.465302,62.528915,-10.658169,16.539803,34.657402,48.440094,-14.008713,-4.541016,2.246418,9.439144,-22.607752,-37.281255,-43.632594,-44.379157,-15.693744,-2.443958,4.243674,9.179507,3.554292,18.672275,23.020121,25.514282,17.872607,28.290025,29.937155,30.928805,28.144294,37.654722,36.701666,32.494549,25.655708,50.597305,74.749031,95.800095,52.201653,83.282318,100.569763,113.427887,43.320122,78.211327,98.4375,111.492577,34.218693,66.897869,85.019188,96.876068,25.949421,50.726395,65.511417,77.021713,-13.779234,-15.482804,-10.424828,-7.71979,15.929013,32.549383,40.568909,45.604655,33.205173,48.080909,54.850977,56.927952,45.494801,61.263757,65.776662,65.149216,53.272327,68.695481,71.920087,70.131795,-20.41357,327.594164,-70.054836,296.21915
14,17.673569,-8.097146,-0.373878,-0.181114,0.61203,5.355606,14.023247,17.275887,-13.175068,13.346786,32.94651,44.76757,-21.029778,8.180237,30.562935,47.186852,-23.993969,-3.690434,15.70919,31.999397,-22.698097,-27.209644,-29.569759,-29.237194,-15.822432,-21.022496,-16.761161,-12.639074,-4.889089,7.943264,16.52651,24.402281,11.791982,21.649262,27.880496,31.433121,24.285511,32.195986,37.407226,41.183635,34.885401,40.039708,41.5232,44.358038,25.603523,50.8255,74.877205,96.036186,51.823254,83.192253,100.900154,114.124603,42.973709,78.307457,98.820534,112.097168,34.062996,67.113705,85.453262,97.508469,25.935287,51.05587,65.861893,77.313194,-13.903908,-15.410556,-10.159919,-7.503848,15.635698,32.541541,40.385696,45.323629,32.936496,48.085169,54.733527,56.903252,45.251999,61.02293,65.548124,65.145017,53.016989,68.749698,71.874083,69.980877,-2.762976,319.50963,-70.451689,296.050649
15,27.464676,-7.471615,-0.230598,0.015252,-1.866302,-8.820534,-20.036087,-30.232086,-39.168835,-21.907425,0.118675,14.454918,-49.056301,-27.608757,-4.872665,13.929977,-53.735676,-38.600292,-16.314354,0.606079,-55.397873,-62.334938,-59.957714,-55.189705,-18.734272,-27.997575,-28.786437,-27.462137,1.14689,17.219349,20.589996,21.816482,20.686018,31.967571,35.123017,36.651216,33.616801,40.991467,41.662138,43.007062,43.195772,52.112222,51.909496,50.772918,25.906963,50.887928,74.867706,95.840836,52.393684,83.296623,100.736847,113.946648,43.530235,78.30162,98.560982,111.884079,34.295654,66.763115,85.063591,97.266426,25.559235,50.516396,65.307312,76.871338,-13.807145,-15.40469,-10.225127,-7.449384,15.180289,32.133062,39.999385,45.04989,32.364564,47.728005,54.759833,57.273939,44.742064,60.76469,65.701883,65.647172,52.730962,68.470215,71.835366,70.244675,24.689999,312.054225,-70.693989,296.08211
16,-37.381439,12.179281,0.352764,-0.230144,9.41637,15.753136,20.825157,23.865509,-2.169628,24.854622,43.185081,52.591438,-13.684845,16.760101,37.361641,54.351883,-20.609322,3.526268,23.409805,38.240547,-23.328495,-23.269958,-23.516407,-23.43338,-21.565158,-33.454829,-38.33867,-39.494143,-12.697861,2.378194,10.621503,16.521755,6.625387,20.921101,26.687355,28.962919,20.590304,30.488587,33.524731,34.968703,30.961224,38.058014,38.696513,37.055434,25.623837,50.602798,74.88081,95.89468,52.501945,83.568134,100.94656,113.912258,43.567085,78.440609,98.744373,111.842136,34.112949,66.712818,84.946117,96.9417,25.265751,49.972286,64.74535,76.325283,-13.725388,-15.170347,-10.216606,-7.631857,15.889801,32.587174,40.574405,45.674927,32.946438,47.851876,54.993682,57.423499,45.166289,61.087274,65.94487,65.652112,52.910964,68.709251,72.289108,70.786535,-12.693043,324.240808,-70.342827,295.859269
17,-5.561714,8.995121,-0.503712,0.417742,8.427658,15.602875,23.997345,32.296829,4.255199,31.491852,50.837173,61.826019,-4.760056,22.946205,43.57132,59.771919,-11.29818,12.775497,30.664787,44.071999,-15.097446,-10.151367,-5.399551,-0.668278,-21.560712,-34.082028,-43.66174,-49.876796,-16.961912,-5.81905,1.890612,8.140433,0.643748,13.396134,19.030736,22.219218,14.4328,23.614778,26.295487,27.323014,24.198937,31.473938,31.964977,29.365841,26.119308,51.019306,75.061798,95.939255,52.22929,83.474922,100.969391,114.170151,43.481998,78.504295,98.865967,112.184372,34.424801,67.019005,85.343513,97.480087,25.950279,50.865211,65.585632,77.141876,-13.935956,-15.79699,-10.646944,-7.868546,14.860175,31.568046,39.496984,44.661356,32.175731,47.085739,54.27219,56.98785,44.641596,60.116126,65.058382,65.084872,52.699098,68.176777,71.453625,69.825513,-18.244028,333.239386,-70.83581,296.280468
18,5.956478,-6.055122,0.198841,-0.001544,7.476082,12.926502,20.991726,29.938145,-5.54369,21.898785,39.181538,50.394802,-14.289265,16.326427,34.983044,51.789494,-17.836418,7.759209,27.767658,43.477077,-16.831799,-20.291977,-25.844879,-28.697147,-20.099883,-32.625398,-38.536641,-41.583098,-11.123657,3.422702,10.835407,13.709085,5.834364,20.896586,25.467846,27.060945,18.303254,31.363528,32.446383,31.35124,27.339007,35.737433,38.564491,38.896585,26.051216,50.821724,74.786396,95.806561,52.129898,83.29771,100.558376,113.508396,43.439484,78.555965,98.920841,112.160625,34.333763,67.090874,85.484219,97.67252,25.877666,50.793228,65.653896,77.465916,-14.138745,-15.95007,-10.64114,-7.837239,14.824854,31.508024,39.494761,44.702914,32.231554,46.773776,54.035192,56.815937,44.733233,60.112482,65.046958,64.992617,52.687922,68.000665,71.419353,69.904307,-12.259827,327.186333,-70.609245,296.280993
19,26.111126,-16.030716,0.697002,-0.175309,3.583603,0.458679,-7.386932,-16.30085,-26.13493,-5.475769,14.195251,25.168877,-36.85421,-13.118477,7.285652,23.386803,-43.574123,-24.654121,-4.798622,9.219475,-47.155323,-48.358212,-43.433933,-37.367764,-19.476574,-29.863734,-31.981218,-32.670537,0.477639,16.304023,18.378096,18.507031,20.328668,33.605315,34.608451,34.405662,33.626619,42.839163,41.789838,41.966877,43.619874,53.883162,52.582081,50.482259,26.164055,50.718555,74.453201,95.120087,52.079601,82.950325,99.968491,112.647285,43.186226,78.169899,98.209076,111.317139,33.862038,66.518211,84.790077,96.938667,25.204239,49.819164,64.74369,76.614418,-13.787076,-15.55814,-10.558641,-7.759804,15.029062,31.725633,39.463762,44.281591,32.295157,47.088147,54.157026,56.719297,44.67914,60.336204,65.105435,64.929385,52.54287,67.997578,71.539334,70.20781,13.902369,311.147513,-69.861174,296.097579
20,-28.901768,10.871716,0.153866,-0.241753,7.898312,15.627308,28.147488,38.71645,-0.40266,28.657093,47.814274,58.596439,-11.043491,19.271908,41.199932,57.643032,-17.624187,7.07159,26.689739,40.815525,-20.685654,-13.548145,-5.266056,1.662197,-20.491442,-32.562042,-35.191745,-35.390952,-10.06118,4.056076,11.955868,18.241319,9.529756,22.307892,28.003071,30.657412,24.079079,32.299294,35.196932,36.41181,34.770607,41.736424,40.59892,37.020483,25.864048,50.540085,74.19096,95.092106,51.354332,82.472363,99.638042,112.483463,42.466507,77.774105,98.030033,111.236744,33.326454,66.309013,84.859371,97.19862,24.956474,49.833641,64.896069,76.972561,-14.006414,-15.668303,-10.301451,-7.404554,14.583101,31.462391,39.048861,43.882992,32.146276,47.058816,53.946642,56.513607,44.760465,60.407835,65.182068,65.163419,52.740842,68.331524,71.691364,70.154087,-14.959288,322.018241,-69.667196,295.854838
21,8.427086,-6.353129,0.614777,-0.049586,2.671738,7.811909,15.805721,17.180042,-10.311012,17.16013,36.015415,47.216663,-19.093037,11.525974,33.15176,49.757252,-22.27541,-0.648479,17.646732,33.364506,-21.640148,-20.206547,-15.577126,-8.848686,-17.361561,-24.149969,-21.9921,-19.320037,-4.832649,8.371689,16.65952,23.696906,13.469062,24.412531,31.793867,34.800618,26.956587,35.167477,40.727361,43.415788,38.174105,45.709013,46.076181,46.286133,25.54018,50.121288,73.772564,94.605618,51.406689,82.621021,99.801121,112.410107,42.267551,77.53355,97.652149,110.442753,32.835903,65.834255,84.099255,95.955105,24.232407,49.121189,64.074669,75.866718,-14.080514,-15.770438,-10.290459,-7.299269,14.905067,31.682469,39.439679,44.427569,32.421683,47.341509,54.156223,56.633155,44.9141,60.578327,65.150328,64.975636,52.745596,68.265204,71.509694,69.882385,-6.468029,315.637972,-68.988247,295.778113
22,-10.270214,6.50942,-0.659809,0.00247,12.070255,20.374603,29.599571,35.498085,4.740601,30.658379,48.66909,59.672127,-5.822811,21.942558,44.640541,62.680664,-11.866608,10.616226,30.239754,45.796738,-13.866692,-8.653622,-3.268948,2.395592,-16.271851,-21.109564,-17.133084,-12.629688,-14.54074,-8.584295,-2.352567,3.603631,2.940246,14.360738,22.836723,27.711177,18.539758,29.152431,34.567263,37.676952,32.112005,39.555461,41.1669,41.834422,25.4813,50.271606,74.013176,94.6035,51.384602,82.646255,99.939194,112.801094,42.132511,77.553749,97.840233,110.87059,32.751389,65.782928,84.313087,96.423683,24.204082,49.119186,64.276314,76.276932,-14.344868,-15.670464,-10.191103,-7.62951,15.177078,31.707663,39.292405,44.192732,32.697584,47.429812,54.159619,56.765486,45.116518,60.639213,65.268642,65.306865,52.846003,68.311517,71.646101,70.183789,-16.752262,322.140476,-69.662075,295.773667
23,42.439384,-11.944382,-0.250454,0.086636,2.039108,-5.148697,-17.759056,-30.23077,-38.678169,-20.937424,0.730362,13.642159,-49.993458,-28.386097,-6.020622,10.694847,-55.753613,-39.177704,-17.15847,-2.252541,-58.004036,-62.357483,-56.434021,-49.71302,-17.427387,-27.195869,-28.910493,-30.287219,2.519973,19.860538,21.831302,21.392566,21.860325,34.762641,35.875631,35.769482,34.463646,43.268205,42.667806,43.05918,43.905222,53.811964,53.723352,53.151605,25.408745,50.166836,74.047565,94.506512,52.009449,82.993069,100.018215,112.687626,43.013592,77.815189,97.713032,110.592442,33.592243,65.997505,84.123516,95.953732,24.808445,49.550743,64.347553,75.827007,-14.296394,-15.969953,-10.564507,-7.700832,14.637071,31.001671,38.598268,43.571708,31.93157,46.814284,53.846236,56.66613,44.407932,60.007877,64.899621,65.125813,52.347121,67.887971,71.165744,69.597901,25.659971,310.191122,-69.93968,295.855332
24,-26.843605,5.680297,0.526371,-0.307085,7.883949,10.472488,8.005028,3.556824,-12.991505,12.483902,30.877647,39.389305,-25.78989,3.415146,24.22039,39.823723,-32.465801,-9.835911,10.278854,25.091171,-35.076942,-34.70747,-32.065201,-28.573723,-20.316009,-28.940751,-28.733269,-27.36241,-5.960088,10.323187,18.756379,25.14483,13.275412,26.775473,32.600574,35.8936,27.000676,36.125782,39.461971,42.172629,37.329544,44.375699,44.021436,42.573513,25.483303,50.027733,73.604736,94.204674,51.570911,82.224541,99.226112,111.712532,42.547932,77.340088,97.435913,110.155678,33.183231,65.772629,83.862534,95.500603,24.564514,49.098587,63.848934,75.209885,-14.109413,-15.667994,-10.363139,-7.566834,15.389067,32.069088,39.849517,44.819684,32.712713,47.495947,54.309302,56.931719,45.077863,60.600743,65.12149,65.015403,52.910717,68.304045,71.576385,70.004343,-1.261797,315.856815,-69.491472,295.533643
25,-11.044979,7.085613,-0.395565,-0.205505,5.787792,8.637371,14.637852,18.010426,-3.954449,24.302502,44.493084,55.957432,-13.146,15.895443,38.472233,55.36932,-18.193245,5.161858,25.317135,39.925976,-19.666557,-14.189587,-5.682564,1.964378,-19.526777,-27.856167,-27.495235,-24.389437,-12.464506,-3.937453,3.041084,8.825307,5.53049,17.674326,24.205235,28.172143,20.321505,29.817545,32.72142,34.033554,31.49623,38.176698,38.469827,37.667504,25.392895,50.00021,73.646908,94.028263,52.471962,83.072834,100.246983,113.353786,43.472557,77.402515,97.044125,110.320187,33.837891,65.430222,83.62421,96.073895,24.651146,48.873768,63.586521,75.714169,-13.862165,-15.685901,-10.878941,-8.014092,15.686395,32.402047,39.747443,44.3313,32.456264,47.339224,54.25138,57.15365,44.394347,60.233822,65.505208,66.187611,52.05745,68.066676,71.912863,71.115418,-12.362423,322.926172,-69.942684,295.311882
26,19.757938,-19.243404,1.055431,-0.635041,6.238861,5.372429,-1.536713,-11.717033,-22.763271,-1.257477,20.180511,31.61705,-34.911175,-9.319954,13.472214,30.177956,-42.83844,-21.549625,1.637306,17.12368,-47.171345,-43.001118,-31.256218,-20.50827,-16.599808,-21.938563,-19.381972,-16.253573,1.69579,22.268557,28.409389,30.024285,20.977912,38.752336,43.573437,43.932269,35.117274,48.583619,50.496646,51.272479,45.897661,60.064379,60.180964,57.952453,25.114861,49.683609,73.417854,94.142761,51.5938,82.624283,100.072861,113.140526,42.250957,77.129631,97.235756,110.271378,32.604046,65.591011,83.952942,96.105309,23.793011,48.654728,63.678303,75.72773,-13.653016,-15.179857,-10.21395,-7.64853,16.404985,33.281002,40.798127,45.497642,33.426795,48.450176,54.861598,57.00903,45.473683,61.600111,66.016871,65.794632,52.984818,69.050484,72.614285,71.551931,7.277241,303.661387,-69.005527,294.65546
27,-23.429432,18.087437,-0.434132,-0.192229,8.09103,15.742321,26.247768,32.863483,2.054615,29.962864,47.928028,57.447224,-7.934647,22.464123,41.802578,55.688496,-14.191475,9.446297,26.958675,39.742413,-17.134438,-12.602806,-6.056671,-0.002174,-22.387056,-33.151882,-34.305133,-33.173927,-12.930413,-0.261266,8.598807,16.470317,6.97545,19.162697,25.588197,29.367014,22.053727,29.72035,32.73908,34.788453,33.727766,39.437642,37.684177,34.683045,25.301628,49.979725,73.384609,93.524036,51.765518,82.93745,100.173855,113.038273,42.390347,77.071896,96.933231,109.916668,32.708588,65.079517,83.3111,95.445499,23.790722,48.548985,63.438721,75.336514,-14.167829,-15.801745,-10.633606,-7.406838,15.438468,31.973869,39.460428,44.268068,32.627683,47.884172,54.954409,57.884774,44.773556,60.938703,66.069606,66.604797,52.47408,68.83164,72.462812,71.369768,-16.171246,321.736057,-69.458714,294.450464
28,5.20277,-6.884306,-0.159245,-0.533894,1.155338,5.259533,12.50267,13.415222,-7.002068,20.274696,38.568077,49.232254,-13.660927,17.989655,41.020775,58.776627,-15.815907,7.102661,26.638069,42.858582,-13.942966,-15.243759,-12.862415,-7.801723,-15.253093,-16.695397,-8.905027,-1.368636,-5.595143,6.438036,14.951257,22.695252,10.672385,21.343474,28.813607,32.615147,23.750073,32.582543,37.92099,41.38809,34.737941,42.413517,43.283581,44.735889,25.937805,50.762386,74.143867,94.470634,51.307526,82.800293,100.446167,113.722801,42.159119,77.273598,97.693291,111.086655,32.975807,65.60463,84.150925,96.385345,24.596786,49.172459,64.365864,76.622086,-13.656042,-15.204248,-10.215988,-7.068817,15.884614,31.568663,38.759807,43.275244,33.211286,47.560908,54.292629,56.907759,45.453182,60.852437,65.635871,65.725348,53.151173,69.074011,72.520981,70.88268,-10.974197,314.838119,-69.62368,293.902938
29,27.861328,-9.632076,0.842628,-1.635336,0.324097,-4.60144,-14.194107,-26.742096,-29.150734,-8.978119,11.003723,21.506538,-39.733658,-12.647095,7.926064,23.190308,-45.714283,-25.351295,-5.399551,8.03112,-48.524094,-51.042252,-46.485271,-41.439114,-16.757889,-21.594737,-18.488629,-15.387091,5.284292,24.920243,28.725859,27.755822,24.277668,40.231505,41.810401,39.474198,36.973059,49.770894,48.568613,46.36857,46.206413,58.882723,59.040125,57.060283,25.275364,49.98579,73.272972,92.977638,51.358624,82.902145,100.425453,113.839645,42.263374,77.066689,97.730141,111.695366,32.776279,65.249577,84.376259,97.405128,23.736534,48.866901,64.369869,77.081451,-13.971339,-15.259885,-10.547156,-8.400403,14.649421,30.729722,38.263458,42.865407,31.556375,47.284575,54.327518,56.791607,43.588504,60.371155,65.804327,66.192551,51.434573,68.188016,72.149181,70.990744,16.876173,305.187348,-68.792009,292.248907
30,-22.907696,4.795969,0.735626,-5.10398,1.84679,5.729542,13.542538,15.645847,-12.525787,15.298061,36.812382,50.09222,-21.236458,10.08276,33.712521,50.476055,-25.161781,-2.409439,20.193729,37.195301,-24.672718,-28.647366,-29.847164,-29.217625,-18.417493,-23.711911,-22.877478,-21.329272,-3.821424,14.822939,25.241592,33.125885,13.477089,27.132452,33.817798,37.36468,26.082633,37.60069,41.656766,45.145047,36.547414,44.26393,49.604044,56.336198,26.216526,50.083122,72.2929,91.505013,48.231926,79.438133,96.806602,110.50312,39.698639,74.971046,96.077499,111.034241,31.640797,63.925667,83.342628,96.990395,24.267426,48.819008,63.636475,76.327858,-14.349005,-14.708207,-9.495299,-8.882303,12.904478,29.090928,37.782916,44.099859,30.288145,48.062445,57.061703,61.89676,42.475885,60.176517,67.499869,70.515204,50.203208,66.335998,71.920149,73.25581,-6.09704,309.979905,-68.121901,287.141515
31,26.560421,3.633209,1.833172,-11.132303,-15.637779,-34.891891,-51.332531,-66.172886,-49.253254,-54.72393,-51.283436,-45.948658,-47.095184,-38.926678,-20.252724,-6.838646,-39.227314,-26.554356,-9.408073,2.409782,-28.75351,-26.748161,-20.86853,-16.451683,20.918693,31.527229,33.927282,35.490123,18.783487,24.286499,28.185482,31.487276,8.488026,15.796743,19.991758,21.938686,-1.83689,6.430811,11.922337,14.480966,-10.67183,-2.664098,1.486518,4.131164,26.833649,52.148724,70.829716,86.854191,43.779087,71.705074,87.474804,100.969677,33.777695,63.574276,82.388706,98.168736,24.738293,50.473366,66.452236,78.236446,16.700535,35.683994,47.353878,55.362682,-17.176927,-16.555656,-9.521358,-5.276943,6.24556,24.497438,35.600409,45.28874,23.48714,44.256459,56.312362,65.219735,36.670853,58.704758,69.986003,77.175109,45.862957,64.045366,71.870811,73.997124,20.383987,313.808492,-66.368122,276.204591
32,43.446808,-36.994116,9.860115,-15.923887,-27.148361,-52.943115,-72.381649,-81.537781,-57.94487,-90.389671,-96.581554,-96.428318,-52.1632,-87.114429,-103.449612,-111.561871,-44.425507,-72.481384,-88.721981,-99.927006,-34.85218,-52.530441,-63.331375,-73.468952,-16.565968,-23.90519,-29.695217,-33.483667,3.242699,2.28668,-1.955327,-3.275118,23.469973,36.645844,39.40547,42.653171,37.282305,54.256258,60.805137,65.334159,43.847547,64.009427,73.32423,80.041749,23.254566,41.690826,52.614899,64.881992,37.784786,53.246956,60.537243,62.644787,30.337029,46.669807,51.153717,48.123436,22.143517,34.403801,33.695927,28.285961,13.548145,20.921516,19.692593,14.454918,-0.049092,7.290624,21.054482,34.570783,9.615712,31.103991,46.314291,57.565957,19.126387,41.648677,58.787565,70.35984,28.267301,50.551357,63.094039,69.812422,36.759712,54.261075,61.658713,65.217759,63.931618,277.27099,-56.407185,260.737317
33,0.716286,-14.046181,2.895927,-27.35358,-24.979134,-51.663437,-72.395611,-88.579159,-51.18576,-81.151714,-94.771957,-103.321323,-43.23864,-76.798496,-93.715668,-103.683414,-33.6446,-63.751717,-80.103493,-90.81316,-23.889656,-44.494286,-56.955299,-66.701088,-12.305252,-14.08249,-14.844429,-16.907263,6.9384,21.32921,30.366259,35.715265,22.697908,42.539612,50.889009,54.2034,35.50729,54.518698,62.115419,64.876527,44.744904,61.968823,67.8361,68.76637,-1.202545,14.892082,32.062626,46.792259,60.908031,64.756565,52.675724,36.310329,67.330914,69.119396,46.515713,23.513718,68.029575,70.698452,51.079502,29.723167,64.858189,74.373837,63.485699,49.242783,-18.547786,-28.630332,-31.061136,-28.053212,9.510737,35.461162,50.100147,57.287524,29.043504,57.375395,69.139219,73.920862,44.955844,72.04754,81.928656,83.558743,58.22224,79.221888,90.45293,94.591319,64.803286,264.35021,-53.355875,234.509138
34,1.742249,-14.221861,-29.493828,-32.366355,-23.946419,-47.404747,-64.210854,-76.563663,-56.744728,-80.895939,-81.219864,-75.814304,-48.474998,-72.841358,-74.329834,-70.880356,-38.167763,-61.57402,-64.109459,-60.839767,-28.008385,-47.598953,-51.748581,-49.955635,-16.439997,-17.982152,-17.59189,-23.779528,11.96019,32.824605,31.128444,26.306849,29.189543,48.218056,44.19372,39.540086,41.482815,57.77066,52.557319,47.326751,49.67444,61.205526,57.715949,53.542609,14.532108,34.982071,49.104309,54.022751,59.749947,82.315807,84.649715,81.464024,52.947636,68.899384,57.477837,50.077629,41.641445,52.636929,41.923256,35.291691,27.94281,39.081631,33.759098,29.474888,-16.089008,-25.319027,-32.67943,-41.301454,2.38548,17.782143,17.961589,15.655767,16.843413,23.467935,15.683555,10.052164,27.961204,30.969561,20.368065,14.30121,35.999873,39.174276,30.134078,23.793669,66.174545,251.545444,-83.220692,203.559878
35,-3.139458,-12.624378,-7.833767,-18.495607,-20.101776,-38.830032,-50.820465,-58.679237,-47.390556,-66.817474,-59.851456,-50.644455,-39.507751,-60.214233,-55.315475,-45.874329,-30.527229,-50.141373,-46.327972,-38.029175,-22.567177,-37.47757,-35.6464,-29.21608,-16.691136,-21.77264,-24.796125,-32.014069,3.843407,18.803309,13.415833,7.090306,19.910741,32.616568,25.064924,17.928059,32.186846,42.268157,32.55457,25.065665,40.998692,48.06825,40.577616,34.485753,16.442928,38.234081,47.390556,41.369476,44.489822,55.428944,42.998314,33.823528,39.843979,53.260288,42.842503,35.969868,32.964478,46.571045,37.51133,32.350845,24.77314,32.7701,26.289368,21.320057,-23.821765,-39.638948,-52.270797,-63.870582,-15.994653,-16.760606,-23.6459,-25.17626,3.050779,-3.635247,-10.840408,-10.177147,18.908408,11.934255,3.24554,3.083445,30.777208,23.650284,16.116055,15.732152,62.727098,241.213535,-91.362448,187.35674
36,18.304939,-41.577664,-13.656349,-20.230485,-22.068214,-42.059784,-55.004768,-57.84359,-33.05809,-63.117714,-54.085922,-45.454788,-24.588776,-56.205025,-47.540703,-38.46096,-17.089577,-47.227592,-39.098625,-31.250496,-11.220131,-36.185417,-31.197395,-24.416313,-18.442625,-31.731314,-41.13726,-53.373413,-20.752029,-1.629346,-2.589195,-7.130073,-5.264655,13.25275,8.134691,4.344203,10.530915,24.250992,18.392792,14.523079,25.347186,35.304995,30.73528,28.094153,22.228661,38.969707,45.343781,41.386642,34.707642,56.566544,47.571316,37.510071,26.622791,52.86232,44.401646,35.44939,18.51202,44.261112,37.549381,30.367298,11.855164,31.134853,27.540436,21.017704,-24.747527,-45.621328,-63.175581,-78.818257,-38.548652,-34.676623,-30.654942,-30.167546,-21.344462,-15.593585,-13.98863,-15.150772,-3.597764,2.205292,1.695852,-1.147384,13.175068,16.978708,15.41105,14.026112,80.846472,201.827316,-105.204363,169.3177
37,-5.654984,-22.950776,1.522293,-9.582058,-17.368698,-34.195862,-44.430027,-47.313194,-36.572571,-49.903049,-42.721882,-36.80254,-30.857849,-41.330509,-34.833984,-29.650154,-23.674278,-32.993202,-27.037239,-22.846298,-16.501808,-26.009216,-21.289844,-16.670265,-25.241747,-43.620707,-55.887766,-67.008089,-31.861344,-21.464088,-19.444155,-20.246648,-14.799381,-3.227601,-5.201083,-7.04424,1.676277,10.157603,6.403888,3.685018,16.539848,21.981449,18.828287,17.268596,14.775639,27.53952,33.168468,33.414516,25.613251,43.073044,33.389111,22.437687,18.271179,40.146332,30.377426,21.780853,13.71666,35.652752,25.541668,17.12986,11.249714,27.666607,22.717724,16.651955,-25.773263,-49.203222,-66.244206,-85.110099,-45.443487,-47.996465,-44.723755,-42.825115,-28.228491,-29.296124,-27.035689,-26.889989,-11.000465,-11.559307,-11.22746,-12.04448,4.535321,3.874221,2.153052,0.91051,74.867248,182.719484,-104.00631,163.578586
38,-5.654983,-22.950775,-1.044273,-14.304359,-12.669182,-26.33194,-33.855286,-36.782799,-40.087051,-36.688385,-31.357841,-28.150291,-37.126923,-26.455994,-22.127266,-20.839348,-30.25898,-18.758812,-14.975853,-14.442101,-21.783485,-15.833015,-11.382294,-8.924217,-32.040869,-55.510101,-70.638272,-80.642765,-42.970661,-41.29883,-36.299115,-33.363223,-24.334108,-19.707953,-18.536856,-18.432683,-7.178362,-3.935786,-5.585016,-7.153044,7.73251,8.657902,6.921295,6.443038,16.570816,24.344501,26.724644,25.741425,9.712715,42.286663,39.044952,27.922268,2.899017,41.058197,34.237347,22.47179,0.416107,36.304722,29.131451,17.272797,2.16608,30.090408,28.188972,21.022339,-24.701801,-49.151661,-65.072306,-83.451143,-48.382652,-44.301505,-40.46415,-42.958619,-29.98282,-26.067782,-21.758221,-24.133914,-11.072158,-9.683391,-7.143905,-10.477007,5.967498,4.583486,3.437275,0.641649,68.895235,163.287016,-105.367613,152.792533
39,4.84005,-18.669249,-2.525139,-6.366776,-13.750305,-30.535469,-41.16497,-44.837036,-24.683418,-53.581467,-46.802902,-39.619102,-20.653152,-52.144547,-42.690926,-34.178581,-19.340401,-46.503868,-37.716293,-29.994392,-19.675026,-40.795326,-33.528214,-27.169418,-24.705537,-42.712729,-55.406638,-71.008126,-39.434955,-33.680435,-32.487355,-34.513664,-23.531353,-17.889033,-17.07896,-19.113512,-7.740352,-5.940143,-6.155096,-7.305815,7.106978,6.953714,5.994359,5.25638,17.156696,22.607632,25.248985,22.309284,4.310932,43.013134,40.225239,28.923225,-1.831455,41.295891,36.815071,25.199947,-2.685127,38.118439,32.259235,19.889145,1.803646,30.668392,27.28323,18.122921,-26.782389,-51.998972,-70.454534,-84.693654,-56.84394,-52.496588,-41.640371,-43.282037,-39.75967,-33.407529,-24.675743,-24.743575,-20.905417,-17.194834,-11.214369,-12.346408,-2.980013,-3.051582,-0.774535,-1.080632,73.249598,146.157405,-108.378439,147.965396
40,-13.932838,-23.612153,6.311188,-7.527653,-16.441841,-30.397682,-38.926735,-38.247185,-35.629349,-48.021584,-42.826996,-39.952812,-29.730835,-44.096718,-33.903236,-28.798256,-22.763672,-38.088684,-27.872086,-21.980782,-16.169586,-30.47596,-24.88575,-19.526596,-30.687392,-55.180693,-70.836491,-84.848308,-45.323043,-39.231025,-34.362344,-33.775715,-26.842379,-21.40013,-21.81747,-20.53337,-8.91043,-5.291331,-6.935374,-6.185909,7.071842,8.817959,6.981656,8.039039,20.529499,24.23624,23.128796,19.905052,-1.395721,33.552933,35.663681,27.367516,-10.664635,29.9893,31.027222,22.013969,-14.415665,25.265179,25.227127,15.503597,-12.275162,17.768555,18.523922,9.645195,-25.443362,-50.962183,-69.580796,-86.881965,-58.734429,-54.384483,-41.086872,-38.639579,-43.821211,-35.941117,-26.429886,-25.481555,-25.808893,-19.651235,-13.11551,-13.431548,-7.54482,-4.548875,-2.15404,-2.775033,58.604107,124.672986,-102.779903,142.565476
41,2.89959,-6.904715,6.309814,-5.745444,-17.590942,-32.372017,-39.300499,-35.930214,-19.092178,-57.070198,-47.677231,-37.675438,-11.221046,-55.402222,-44.406738,-35.241051,-8.028603,-49.644585,-40.438156,-31.035461,-9.479485,-41.502457,-35.219307,-27.216225,-24.446,-46.899006,-65.448027,-85.105622,-48.629561,-41.94477,-37.058336,-38.635226,-32.616074,-22.408916,-19.462186,-21.652504,-14.452313,-7.379051,-5.610581,-6.798998,3.097771,4.967574,5.952585,5.824638,18.160801,21.247387,19.073639,14.804134,-9.65807,22.346649,29.236107,24.133301,-18.928299,19.720287,23.452091,14.983692,-21.828003,15.763893,18.954334,10.258026,-18.767681,11.803493,15.251598,7.27066,-23.857148,-49.90094,-67.667336,-86.260046,-51.983318,-50.325474,-39.578463,-37.344581,-34.689066,-30.460305,-23.52067,-24.040238,-15.800356,-13.579996,-8.837626,-9.04202,2.031095,3.452033,4.834038,3.451941,60.560045,119.372732,-97.41374,138.424494
42,-6.57383,-3.103699,-14.063988,8.062041,-14.007683,-25.824966,-31.506042,-27.787514,-10.524559,-46.721535,-40.834122,-31.805191,-4.075127,-48.056488,-38.290787,-28.422546,-2.452698,-42.329979,-34.253769,-25.992737,-4.342346,-34.325294,-28.230743,-21.842537,-22.74422,-47.04733,-67.208716,-84.914721,-57.504701,-49.071879,-39.964836,-40.491443,-42.122179,-30.207869,-23.245109,-25.310197,-23.825594,-15.124992,-10.822964,-12.587297,-6.01412,-2.018034,-0.36266,-1.536659,24.871044,31.793518,29.919891,21.266212,10.857296,34.21875,37.596817,34.68029,-0.482025,33.278904,36.975574,31.446762,-6.428318,26.760063,29.704742,22.24514,-7.816486,18.245544,22.613068,17.547112,-36.353178,-66.405992,-90.989757,-107.364484,-60.885042,-62.573236,-53.483946,-51.501912,-43.19608,-43.025835,-35.446929,-31.193406,-24.062839,-25.643279,-21.02407,-18.571004,-4.818879,-5.869871,-3.919916,-0.895844,52.58317,117.733227,-112.880774,147.95073
43,-4.170227,-5.430856,10.678711,-1.752971,-12.050171,-19.345436,-22.09465,-17.979469,-2.318001,-41.160278,-34.026947,-22.750511,3.48381,-41.263161,-32.906342,-21.445885,4.248734,-36.069832,-28.493958,-19.236031,2.350731,-27.603607,-22.229919,-15.462914,-22.863522,-47.839125,-67.345432,-84.868994,-58.534543,-49.718097,-39.86903,-41.960455,-41.311242,-30.740405,-22.880288,-24.76244,-22.198501,-13.539148,-8.971347,-11.689476,-3.592701,-0.337095,2.919529,1.518504,19.480877,22.453022,18.745766,13.685703,-1.142578,13.915215,25.626183,27.592964,-8.789177,12.040043,24.518394,24.505634,-11.494675,8.607101,19.596176,17.635002,-9.291115,6.815643,16.045818,15.589943,-35.713227,-64.162568,-84.977119,-102.307434,-57.846767,-65.916928,-56.203589,-51.565052,-40.203408,-46.470458,-38.468901,-32.831644,-21.131578,-27.037819,-23.274749,-19.568335,-2.02634,-4.153703,-4.796124,-2.529914,47.466459,113.528873,-103.148546,147.424261
44,-1.030197,-4.956736,9.300442,-6.256181,-10.61142,-13.290482,-13.169403,-6.059418,7.047386,-33.164978,-26.944885,-14.192162,11.344528,-32.582474,-25.176201,-14.032059,11.108437,-28.966942,-21.436729,-11.545601,9.045639,-19.223099,-13.857765,-7.319183,-24.195355,-48.277892,-66.896321,-83.309055,-53.578455,-48.081433,-37.730922,-40.052923,-34.305318,-27.986861,-20.821868,-22.741596,-15.456437,-10.285766,-6.372581,-8.79823,2.945587,4.888626,6.350752,3.70521,17.661667,18.322735,14.960232,10.784626,-9.623966,26.499538,28.771706,18.797035,-17.968655,25.411148,25.549278,13.582077,-19.661751,19.95821,21.046829,10.031605,-15.674515,14.371777,16.582661,8.513775,-28.533044,-58.750577,-79.071032,-99.235382,-57.573151,-52.437863,-40.400176,-40.365843,-37.308951,-33.554525,-25.834118,-25.307233,-17.304812,-15.947908,-9.594841,-8.827468,1.361041,1.493804,3.935848,3.872801,45.794392,109.426608,-94.489975,142.022551
45,23.919296,5.314271,-4.511032,1.74482,-16.699104,-24.789391,-25.71064,-19.639091,-8.903618,-40.373955,-33.884239,-25.122414,-1.997795,-42.203178,-33.821754,-24.498711,0.330162,-39.755287,-31.192245,-21.277542,-1.829567,-32.251625,-27.692757,-20.454712,-28.361995,-56.831961,-78.050637,-94.532008,-53.077011,-54.47575,-45.040071,-43.111884,-34.706603,-33.167227,-28.668617,-27.189293,-15.111808,-14.590017,-11.921071,-11.402152,3.071836,0.415488,0.561682,1.527798,20.450306,29.40937,30.22625,25.379906,7.679501,41.9767,37.828503,28.197041,-1.679649,42.804337,36.154919,23.331528,-5.437088,35.085926,29.529762,17.508545,-5.845528,25.161552,24.009476,15.815334,-30.9025,-60.506481,-85.677338,-102.926667,-56.071906,-55.426645,-45.510918,-46.069173,-35.948867,-35.370759,-29.090002,-29.210508,-16.01957,-18.387636,-14.118398,-14.616817,2.003986,0.247156,2.241694,2.669903,68.903818,115.403384,-99.810877,144.429876
46,-3.548927,5.70194,13.82309,1.492044,-9.586601,-11.168404,-8.105049,-4.075127,-0.409584,-22.629662,-19.200783,-12.889481,5.022469,-25.701027,-18.648262,-10.46711,6.87664,-22.967491,-15.97023,-6.927109,6.795731,-16.260452,-11.620216,-3.530045,-29.404373,-57.017799,-76.674097,-89.770773,-50.784743,-48.423747,-41.815928,-41.034322,-32.340852,-31.788834,-28.327384,-27.738038,-13.66126,-13.870254,-11.495858,-11.331077,4.108934,3.131703,3.317387,4.22098,16.347885,22.101288,23.141785,20.913277,-2.341976,31.399727,31.080894,20.616016,-8.938122,32.428093,29.028111,15.891895,-9.827671,26.923199,24.589977,13.099995,-6.214657,21.146793,21.503563,13.767986,-31.281925,-59.312382,-80.473693,-98.294615,-52.88435,-53.170285,-43.583503,-44.437943,-33.993231,-34.255424,-28.032804,-28.345045,-15.596703,-16.918656,-12.875548,-14.051986,1.243839,0.397827,1.24776,0.392578,65.020781,121.428897,-86.321898,146.245492
47,3.062325,3.065321,12.278194,1.673992,-6.964989,-5.460663,-0.393906,4.234428,9.882202,-19.930801,-17.708588,-8.948822,15.237923,-23.551483,-18.092766,-8.189964,15.558014,-21.706238,-15.296402,-5.140114,12.592735,-16.072197,-11.35952,-3.089561,-24.428031,-48.233123,-67.672771,-80.561965,-44.340995,-36.987478,-32.043524,-33.236943,-28.238741,-21.926954,-19.31661,-20.722605,-11.842216,-6.818264,-5.105617,-6.799369,3.998216,5.807842,6.436616,6.462952,14.203491,15.920277,13.989143,10.953598,-10.385571,25.563812,28.268967,18.989468,-16.42828,28.833275,26.646652,13.994007,-16.388626,25.484447,23.165932,10.975285,-12.211361,19.066772,18.541489,9.568176,-30.644074,-58.32981,-78.987391,-98.93932,-51.952474,-52.380559,-42.11974,-39.508902,-33.783805,-33.397093,-26.706312,-25.086321,-15.737586,-17.127588,-12.051488,-10.845873,0.586907,-1.925409,-0.488693,-0.229742,67.56423,124.946401,-74.562578,148.371667
48,20.832596,12.07977,-17.644615,-1.294103,-20.031052,-27.379303,-26.161537,-19.018936,-8.859673,-41.222992,-35.851479,-26.903801,-1.068306,-45.13813,-36.742058,-26.380119,1.379242,-41.971893,-33.551559,-23.569221,-0.957985,-34.912033,-30.402031,-22.86747,-25.564424,-50.158409,-70.552223,-86.637742,-43.472444,-41.251406,-33.539798,-31.418733,-24.464957,-18.741929,-16.836065,-15.783961,-4.841448,-0.598732,0.073236,-0.66147,12.469878,12.768133,11.676571,12.323622,24.32991,34.655342,35.440578,28.615952,10.078011,44.915829,39.589005,28.280411,0.336914,44.558716,38.098526,25.990906,-3.992043,37.242393,31.704311,19.903221,-4.574718,27.537689,26.581535,17.839508,-30.571487,-58.117326,-81.527494,-100.143021,-48.993919,-48.003504,-40.649493,-40.417929,-30.015486,-25.917976,-23.170298,-24.409228,-10.61011,-9.473131,-8.244884,-10.386234,5.967282,6.814004,6.974246,6.670434,88.309593,137.730913,-92.294426,147.782306
49,-12.268066,9.143106,-1.055088,-0.255338,-15.28347,-23.112259,-21.602669,-16.095886,-7.431107,-38.662834,-35.197906,-26.000175,-3.697586,-41.60614,-35.985489,-27.204781,-3.964348,-40.241089,-32.244759,-22.405701,-7.002525,-35.144348,-27.667351,-18.810425,-26.161365,-51.444453,-71.316817,-87.381711,-51.375293,-45.286301,-37.459992,-38.552851,-33.385885,-25.60027,-20.559522,-23.258046,-14.253199,-8.669542,-3.461882,-6.209591,3.431501,5.087462,8.972427,9.436976,19.180126,22.590065,20.952072,16.107731,0.624619,34.025402,30.65094,19.451237,-7.357635,35.525036,28.905144,15.046349,-9.007702,31.678276,24.241962,8.987675,-7.053738,25.815639,23.492718,11.37537,-32.204414,-61.171502,-84.028015,-102.135953,-54.037292,-53.084637,-43.356508,-44.176245,-34.446294,-32.545277,-27.143505,-28.015544,-15.042061,-15.078555,-11.471868,-12.208118,2.365288,1.460613,2.943086,2.868523,75.884857,147.375911,-93.506184,148.028859
50,-9.289513,3.012062,-8.43956,-5.228593,-17.28035,-28.915672,-30.340004,-25.322456,-17.476387,-52.463493,-47.029037,-38.119698,-12.240028,-50.883522,-45.869293,-37.894592,-10.282288,-48.043213,-41.846695,-33.575478,-11.232033,-39.942398,-36.800194,-31.840096,-22.972728,-46.79792,-66.03799,-82.107454,-50.773504,-43.902227,-36.440462,-36.010525,-33.699948,-27.373186,-21.158624,-22.093217,-15.59695,-10.917658,-4.24142,-5.407854,1.291633,1.438198,4.618838,3.348076,18.844128,19.280663,18.587093,14.925785,-4.384289,27.845078,26.005726,13.813877,-12.513313,29.48204,26.096191,13.559132,-14.410229,24.529896,21.774902,9.648571,-11.827183,17.889862,16.810341,5.995388,-33.238178,-60.897392,-82.174793,-102.472925,-55.458292,-53.307,-43.925662,-44.869362,-36.002868,-30.28126,-25.452532,-27.591134,-16.768818,-13.391843,-11.105812,-13.72829,1.066306,3.997475,3.59233,1.982312,66.229963,150.454879,-102.311125,142.867173
51,-12.21096,3.82127,-8.436069,2.35303,-15.407066,-29.966354,-38.02002,-38.070259,-26.239815,-62.273598,-54.341354,-45.265617,-20.255585,-58.120308,-51.032753,-42.429657,-16.860924,-53.247643,-46.922379,-39.813194,-16.558685,-42.859268,-45.501938,-48.099518,-26.104987,-48.052874,-65.511506,-85.579495,-51.775374,-40.556436,-35.639158,-38.075736,-34.76718,-25.057978,-20.71751,-23.345515,-16.474763,-10.167452,-6.669909,-8.983543,1.848128,2.266611,1.488061,-2.419906,18.399124,17.929287,15.90414,10.422592,-9.733829,23.376904,24.186401,12.961464,-17.561646,25.223236,24.901314,14.012833,-18.993073,20.53133,19.670677,8.771553,-15.232544,13.37534,13.688507,4.891548,-33.349669,-63.399241,-85.161846,-105.394924,-58.623371,-54.694439,-43.714383,-42.608927,-39.474877,-34.491248,-29.753139,-30.936956,-19.836054,-16.997388,-15.231295,-17.237411,-1.158191,0.554395,-0.241043,-1.675814,53.334045,153.434135,-111.432152,144.378191
52,-7.310257,-2.221718,-4.239292,1.671862,-15.5793,-32.300034,-42.078094,-43.124084,-25.974655,-67.819061,-57.49752,-47.648735,-22.206802,-68.533173,-55.651932,-44.498863,-21.358337,-64.13229,-54.131012,-45.737114,-22.99015,-55.258598,-50.42038,-46.584549,-24.815329,-44.607911,-61.631357,-80.064658,-50.701843,-41.394697,-35.404383,-38.213748,-34.781043,-24.674075,-20.188155,-22.0972,-16.615863,-11.106306,-7.252987,-7.861136,1.13454,1.320965,2.469955,2.890784,18.390083,15.369129,9.777489,3.570557,-15.861969,19.340515,23.524876,14.277363,-23.637772,20.959625,22.328568,12.320538,-24.26651,17.397766,17.75425,7.886982,-19.124622,12.200489,13.47353,5.173817,-31.479249,-62.835861,-85.163173,-104.838985,-59.894472,-57.352054,-45.383157,-42.45875,-41.490194,-38.041743,-31.542697,-30.437519,-22.199489,-21.332884,-16.782836,-15.786493,-3.564573,-3.877247,-2.028964,-1.580533,45.606251,150.092635,-116.088982,144.93027
53,-4.157982,-5.14983,-0.160103,-0.575606,-12.820587,-27.066994,-35.68119,-34.163933,-19.241867,-60.691795,-51.353073,-40.539551,-15.599785,-62.689648,-50.287857,-40.12001,-15.629082,-57.743797,-47.929459,-39.168091,-18.748169,-51.504707,-45.149574,-38.839531,-24.876308,-45.89726,-63.485135,-82.546932,-49.927277,-44.518435,-39.296974,-40.496198,-34.397511,-26.955691,-22.110167,-23.047353,-16.140168,-12.108299,-8.522637,-8.86949,1.156678,1.061397,3.512518,4.204833,17.407436,14.251099,7.489815,1.485157,-18.004761,21.49189,26.62302,17.898102,-25.775185,21.530571,21.566906,10.539665,-26.715546,17.281265,17.292309,6.797562,-21.576462,10.723286,12.015324,3.783016,-30.554783,-62.312649,-84.777233,-106.613013,-60.96084,-54.732323,-43.407236,-40.983903,-40.652766,-36.42345,-29.096609,-27.807075,-20.047734,-19.477284,-14.734945,-13.404996,-0.81668,-3.695762,-2.417498,-1.664668,40.869255,144.225389,-116.828098,143.637247
54,-0.490265,-5.003389,2.822342,-1.128057,-7.736435,-18.096199,-25.681114,-21.005859,-9.24614,-48.456802,-40.540581,-29.202232,-6.254539,-51.301804,-41.604767,-31.575165,-7.7005,-48.969383,-40.37281,-31.421013,-12.408714,-42.374268,-36.868172,-31.207237,-24.161547,-47.15456,-64.119281,-81.802315,-50.339862,-49.734492,-43.188362,-42.357757,-32.500168,-30.603072,-25.380963,-24.908542,-13.705998,-14.141215,-10.310559,-8.194434,3.334553,-0.364266,0.119919,0.834402,16.462612,14.106274,9.391308,5.255699,-13.356743,23.287754,27.761135,19.017448,-20.140285,23.900871,23.117123,11.171894,-21.30661,18.436031,20.278873,11.123486,-17.316113,11.506176,13.580418,6.608734,-30.793695,-62.446988,-84.236732,-104.704894,-59.704559,-53.140058,-42.599633,-41.166715,-39.253008,-35.650767,-28.675409,-27.240947,-19.220094,-18.441267,-14.853969,-14.850634,-0.458065,-3.703512,-3.475035,-3.680108,39.780149,138.922974,-114.604597,142.210164
55,-4.061737,-2.380972,9.078655,-2.899768,-9.83963,-11.189804,-11.716461,-4.609909,-0.401688,-26.256294,-20.850334,-10.099297,5.239677,-28.959732,-19.825745,-8.472977,7.34539,-25.498924,-17.494011,-8.096809,8.115463,-15.765152,-11.883888,-6.718025,-21.336311,-46.35483,-64.684051,-81.749981,-49.320857,-42.418766,-35.944637,-37.471262,-31.230055,-24.283041,-19.867053,-21.839608,-13.756695,-9.327029,-5.823064,-5.221244,2.273558,3.868818,4.568542,4.832711,16.565323,14.458294,9.454479,4.903507,-13.906631,20.83849,23.594971,14.36182,-21.509857,22.109756,20.203342,8.267384,-23.409634,16.758556,17.011013,6.720886,-21.226158,8.913116,10.352612,2.791672,-28.929327,-58.412895,-79.319886,-98.904091,-53.408302,-47.709603,-37.024683,-35.018906,-34.290498,-29.486624,-22.657122,-20.725075,-15.642954,-14.67375,-9.63362,-8.959275,1.627092,-1.396084,-0.363741,-0.169628,35.637703,136.408682,-105.606651,139.177077
56,25.036011,0.275438,5.983543,0.802601,-15.278435,-22.092476,-21.931,-17.007751,-16.403503,-21.555977,-15.686989,-13.164711,-10.476494,-25.461845,-18.295898,-14.181633,-7.145119,-24.911499,-17.735596,-13.185425,-5.443611,-22.465782,-18.858032,-14.41658,-27.442531,-51.748852,-68.839236,-79.947641,-37.26026,-39.127624,-33.498116,-30.97058,-19.166371,-17.357856,-17.604734,-15.259793,-2.154966,-0.070148,-1.537153,-1.080447,12.568061,13.704763,11.78343,12.532123,15.63343,15.68161,11.042519,5.968266,-7.220592,21.919613,25.2701,18.695297,-14.977913,21.465912,21.69445,13.618755,-18.147011,13.421402,16.210155,10.797615,-16.993618,2.095985,5.106468,2.957439,-25.007373,-52.382442,-72.358978,-91.037521,-46.066981,-42.581046,-33.221289,-29.400174,-29.11921,-26.058211,-19.253964,-15.025666,-11.336048,-10.838,-7.813465,-6.545204,5.824546,3.501434,3.155971,3.419306,60.608025,136.736593,-99.688797,140.03215
57,3.750458,1.244456,2.674656,4.349174,-14.270096,-18.939629,-20.024872,-16.347313,-7.010536,-31.856117,-25.48542,-16.893883,0.410156,-33.721733,-23.893547,-14.403076,4.421539,-28.535728,-19.625015,-11.443291,5.323448,-19.690018,-14.538345,-8.215027,-22.646593,-45.363829,-62.570643,-76.711364,-38.078916,-26.80891,-23.58733,-24.670772,-21.55923,-5.364444,-8.506305,-12.422577,-3.867614,9.092223,5.824916,2.373068,12.246527,19.911853,17.338034,16.544603,15.172691,17.450523,14.666233,11.296234,-4.252567,23.796673,26.421318,19.628792,-11.827183,24.613895,22.943802,13.647995,-15.214062,17.164364,18.538799,12.918949,-14.196396,7.145462,9.79826,7.759037,-25.212693,-51.669534,-71.901099,-90.318623,-44.354271,-41.383274,-32.400657,-29.168826,-28.477314,-25.579707,-19.629962,-16.641335,-11.806586,-12.263447,-8.809129,-7.347527,4.629706,2.292361,1.809287,1.676524,64.49358,138.650979,-96.879044,145.051255
58,-3.91674,9.738163,5.517082,3.81352,-12.210274,-15.480652,-13.078651,-7.273979,7.07119,-27.202492,-24.768677,-15.322495,14.238739,-29.600029,-24.531441,-14.392776,15.460739,-25.997543,-20.012856,-10.774269,12.83741,-18.419495,-14.3573,-7.272377,-25.503291,-51.407496,-71.75404,-87.595059,-49.732516,-38.921038,-32.128832,-35.126351,-31.655114,-19.958073,-17.624803,-21.400501,-13.749408,-4.931511,-3.990095,-6.23886,3.647226,6.61316,6.791557,7.10667,13.242874,15.020771,11.459141,7.255955,-10.207844,16.381531,21.700115,16.236191,-17.304497,17.774734,19.14196,11.188889,-19.21051,11.765041,15.522652,10.99617,-16.55983,4.419765,8.784428,7.614613,-26.030238,-51.502746,-71.172413,-89.768334,-42.601023,-41.540861,-32.673471,-29.317552,-25.549789,-24.125361,-19.16915,-16.576342,-7.95759,-9.66221,-7.215258,-5.430825,9.051715,6.005382,4.826752,5.08314,60.88254,148.999452,-91.056261,149.475085
59,17.427521,0.317304,-15.221443,8.041972,-23.087196,-34.725723,-36.397247,-31.208382,-17.005348,-46.064301,-40.822906,-32.894325,-7.300987,-49.410782,-39.873848,-29.767799,-3.333435,-45.01236,-35.550385,-25.512657,-3.140144,-37.561913,-32.457275,-23.344116,-29.17954,-54.577484,-75.338559,-89.287977,-52.492883,-44.589818,-35.901566,-35.636255,-33.429882,-20.302084,-18.546057,-19.982742,-14.113859,-2.849102,-2.150983,-4.111188,4.349668,8.935377,8.337942,8.653795,18.541489,25.542755,26.815395,24.057026,2.252827,37.606602,33.948212,22.496395,-5.162086,38.242722,31.6642,18.388596,-7.030506,32.270107,26.065292,13.245964,-5.089016,26.58102,24.383125,15.131149,-29.17037,-54.126119,-75.541224,-93.930065,-44.866522,-43.225844,-36.662547,-38.396591,-25.66659,-23.539566,-19.913798,-20.507868,-7.568069,-7.93712,-5.686719,-6.470208,7.798398,6.216599,6.554744,6.902276,79.029722,149.517924,-105.558043,157.718225
60,-13.461227,0.739616,1.6856,4.397247,-16.409454,-23.400993,-21.367035,-17.341461,-5.621223,-32.151718,-30.770187,-24.744415,2.17289,-35.667458,-31.421928,-23.798676,5.219765,-31.6745,-26.350136,-17.981987,4.871063,-23.713303,-19.548454,-11.503029,-25.154339,-52.307168,-73.224781,-88.954216,-50.280304,-42.519975,-34.198613,-35.495526,-32.411,-22.596668,-19.350109,-21.814259,-13.533591,-4.329754,-1.850845,-3.932235,4.570827,7.878365,9.299859,10.282617,18.388252,21.73027,22.264881,21.154575,-3.848076,33.007565,31.858635,19.595318,-10.566444,34.377823,29.244633,15.351906,-11.434078,30.345898,25.329952,12.377644,-7.729511,24.261303,22.220364,12.467251,-30.972278,-59.666737,-80.908107,-102.493735,-51.32793,-49.404745,-39.335939,-38.530435,-32.310533,-28.725149,-23.844489,-23.791415,-13.406076,-12.391949,-9.517406,-9.505303,3.85619,1.306083,1.487506,1.225622,66.203012,150.456268,-103.237925,162.3142
61,-10.905304,5.400321,1.285343,-1.721107,-12.312927,-15.360603,-12.28054,-8.398476,3.884811,-21.010895,-21.137695,-14.388771,9.212723,-24.748878,-22.499657,-14.619598,10.009232,-22.972755,-18.567924,-9.870758,7.97081,-17.138672,-14.04705,-6.897697,-26.081213,-54.189908,-74.017841,-88.40047,-54.059398,-46.949703,-38.605617,-39.548761,-35.522943,-27.997019,-23.158875,-25.666003,-16.757672,-11.603829,-6.979989,-8.818453,0.931381,2.006086,5.243289,5.725189,20.171928,22.107754,20.488758,17.878075,-6.675453,32.607079,33.911762,22.432823,-14.649925,33.199768,29.525814,15.631027,-16.067448,28.558331,25.090714,12.248783,-11.746101,21.312275,19.886913,9.547462,-29.93413,-60.491969,-82.74901,-104.810271,-54.951877,-52.095797,-39.562192,-37.450421,-35.140863,-32.313527,-25.675173,-24.805943,-15.212276,-15.244262,-10.760534,-10.131575,3.669395,0.733842,2.138602,2.711893,55.66432,156.069211,-101.58597,160.805714
62,19.054756,-2.621737,-3.823185,2.641683,-23.044624,-35.834541,-38.468971,-33.114967,-17.27932,-49.935036,-43.987312,-34.786835,-8.137093,-49.9506,-40.620232,-30.426521,-4.143562,-44.478836,-34.873009,-25.288239,-3.283997,-36.190453,-30.796509,-21.941872,-27.614722,-51.926045,-71.957323,-86.580747,-47.955802,-38.275406,-33.148794,-34.103394,-28.94001,-15.976375,-16.860425,-19.095852,-9.677833,0.447937,-0.175124,-3.084804,8.486483,12.991052,11.040727,10.064638,20.821095,23.763714,23.333931,22.208977,-3.233185,35.579281,36.821194,25.758305,-10.340996,37.782612,34.32478,20.817146,-11.463032,33.500175,30.020828,17.375851,-7.093277,26.661415,25.401192,15.371704,-31.590276,-63.528361,-86.247233,-107.881428,-60.127796,-58.234961,-46.757597,-44.976901,-40.506665,-39.77415,-32.17144,-30.593964,-20.677372,-22.657955,-17.258407,-16.175181,-2.059314,-6.97014,-4.694205,-3.565778,75.018482,153.607623,-105.109749,163.607547
63,-10.535431,7.230109,3.871937,-5.597428,-16.191673,-24.97776,-24.750824,-22.220879,-12.299309,-31.851425,-30.36026,-26.061859,-5.1194,-36.370811,-31.602859,-24.862404,-1.700134,-34.32827,-27.806511,-19.244728,-1.170845,-28.096962,-23.273621,-14.866905,-26.753335,-52.784561,-73.640269,-90.274317,-50.252763,-46.109434,-38.005958,-37.792981,-31.730789,-23.964656,-19.768808,-20.635228,-12.660656,-4.174204,-1.642808,-3.739111,5.079589,9.409713,10.133675,10.231364,19.446487,22.110901,21.012955,18.327999,-5.029049,33.954334,33.943691,21.800652,-12.758102,33.606777,29.438381,15.943508,-14.406281,28.678665,24.999619,12.860928,-10.63345,20.681763,19.352531,10.338707,-30.096472,-61.236525,-84.1019,-106.223337,-56.353735,-51.721126,-39.32612,-37.530635,-37.234819,-32.485842,-25.610366,-25.03019,-17.707085,-16.381829,-11.880872,-11.74993,0.959416,-2.788957,-1.725739,-1.79527,64.932833,160.917174,-100.788031,158.089561
64,-7.163429,-2.816498,3.038235,-0.517468,-13.523712,-19.204216,-17.077332,-12.880325,-0.842972,-31.018524,-28.639526,-21.1623,6.562843,-34.590797,-28.506432,-19.052353,8.803368,-30.901337,-24.020691,-14.317589,7.551613,-23.347664,-18.024445,-9.173012,-23.23631,-49.159071,-69.34772,-85.057457,-48.100298,-38.335953,-31.856605,-34.306707,-30.40121,-19.568891,-17.603962,-20.778983,-11.954571,-2.184112,-0.709883,-3.036947,5.447745,9.910324,11.246047,12.050902,17.426033,17.798481,16.074772,13.685074,-10.23365,28.639183,28.705788,16.269035,-16.995277,30.150948,26.232262,12.383366,-17.280521,26.78896,23.218288,10.504246,-12.002506,19.418507,17.312565,7.055626,-31.837926,-62.55045,-84.594668,-105.794912,-56.838846,-54.963579,-43.203058,-41.573434,-36.755698,-35.456901,-28.39602,-27.49962,-16.971545,-18.680673,-14.213864,-13.957075,1.400252,-3.707742,-2.869356,-3.098018,58.128262,158.235863,-97.390938,157.707279
65,12.00428,-3.666245,-14.638081,4.225766,-21.917839,-33.3918,-35.202599,-29.238853,-14.440041,-48.571358,-42.18956,-31.939087,-5.73761,-49.569168,-39.785957,-28.140106,-1.892395,-43.660927,-33.717842,-22.725792,-1.055603,-33.416862,-27.512054,-17.881393,-26.192271,-49.743384,-69.371092,-83.997881,-45.585605,-36.588385,-31.003986,-31.675738,-27.442284,-14.28358,-14.793701,-17.017364,-8.365915,2.128043,1.587294,-1.044817,9.682588,14.886975,13.128199,12.419984,25.333672,34.207306,34.879532,29.193649,10.28183,42.768745,37.651234,27.389889,-0.133553,42.5774,35.795231,24.52589,-3.955536,36.732674,29.892597,17.473125,-3.225746,28.059082,26.048012,17.33448,-35.626808,-65.929927,-91.095906,-109.945991,-62.629645,-59.02515,-49.682004,-50.990001,-42.580305,-37.302189,-32.372592,-34.327425,-21.67705,-21.484172,-17.880171,-19.579821,-2.336265,-3.801108,-2.774631,-3.160633,70.656509,154.691189,-111.505051,162.054617
66,-8.89801,-0.187598,5.643654,-4.090286,-16.320877,-23.044052,-22.289429,-17.960472,-1.727486,-34.503708,-32.552376,-24.692802,5.811653,-39.36882,-33.16349,-22.16526,7.453194,-35.566292,-29.071426,-18.678932,5.140114,-28.117332,-23.282547,-14.332924,-24.975109,-49.988718,-69.513797,-84.89601,-43.928626,-36.939436,-31.149687,-32.217382,-25.580417,-16.444752,-16.460097,-18.923414,-6.660492,1.281753,0.497461,-1.391731,10.640769,13.031128,12.292469,13.172598,20.340328,25.314045,25.509968,23.7957,-0.924625,34.778996,34.362144,22.831364,-8.378563,35.335007,31.194191,18.045616,-9.769707,30.283356,26.20245,13.356571,-6.663895,25.047512,24.371681,15.426064,-33.71801,-63.024601,-85.520554,-104.52415,-51.574253,-52.482262,-42.69865,-42.17936,-32.105243,-32.663467,-27.468992,-26.992402,-13.384186,-15.396014,-12.392381,-11.957875,3.697862,0.641155,1.601867,3.178417,62.340574,154.531595,-105.279322,157.992335
67,10.419388,-2.085744,5.282822,1.497694,-21.813469,-34.312248,-36.469688,-30.155754,-15.143738,-48.778496,-42.492714,-33.009796,-6.807404,-49.014816,-40.127449,-29.664001,-3.16349,-43.567657,-34.355507,-24.650459,-2.0858,-34.805145,-30.133095,-21.718712,-26.640671,-49.747552,-69.048817,-83.425455,-45.690303,-37.624711,-31.242775,-31.723224,-27.272286,-14.952584,-14.826614,-16.452996,-8.189463,1.543637,1.54481,-0.739338,9.557914,13.965041,12.371819,11.740359,18.389854,20.955162,19.222298,16.024361,-7.331486,30.155983,32.484741,21.66069,-14.338703,31.86327,29.441471,16.136627,-14.820557,28.086033,25.486279,13.089294,-9.720211,21.446915,20.853939,12.374783,-31.93157,-61.511747,-83.285035,-102.952078,-54.538828,-55.138332,-43.851592,-41.745718,-35.558604,-35.219564,-28.538015,-26.968875,-16.042911,-17.772077,-13.758578,-12.553674,2.410119,-1.618046,-0.614664,-0.241753,73.185568,152.477436,-99.570894,159.521615
68,-7.227631,2.138293,1.004848,2.272847,-16.160088,-24.066811,-24.1539,-19.964676,-3.541374,-38.196144,-34.73053,-26.112442,3.922806,-42.083473,-34.748611,-23.877869,5.550613,-38.057556,-30.960274,-20.739784,3.09185,-30.383835,-25.042419,-16.418495,-25.219424,-50.675136,-70.82868,-86.921331,-47.285687,-39.661147,-31.739619,-32.721636,-29.01763,-19.14905,-16.574459,-18.820785,-9.667953,-1.41569,0.1524,-1.54623,8.285917,10.93291,11.755055,12.533666,18.278618,18.981686,16.651783,13.262558,-9.954586,31.169586,33.446732,22.374344,-16.678276,32.340374,29.517174,16.477604,-16.965408,28.602791,26.053677,14.260769,-11.233864,19.305439,18.135166,9.764729,-31.932311,-63.531664,-86.534866,-108.631541,-59.844578,-56.661375,-44.811008,-42.841787,-38.965189,-37.531098,-30.41708,-28.677663,-17.939267,-20.002533,-15.485552,-14.465343,1.835407,-4.338213,-3.805246,-3.667419,66.637974,154.662629,-97.886009,161.841361
69,7.59407,-3.506806,-0.757313,0.184881,-23.375359,-35.794373,-36.469116,-29.230843,-13.917618,-51.285667,-43.141708,-32.687988,-4.517326,-51.138496,-40.162697,-28.69091,-0.588799,-44.153595,-33.727341,-23.653908,0.360489,-34.236488,-28.172607,-19.456329,-26.94331,-51.025755,-71.52047,-87.048321,-47.313629,-33.738233,-28.36712,-30.153158,-28.009462,-11.63563,-12.943164,-16.348452,-7.845297,3.92992,2.809088,-0.529911,10.970146,16.735535,14.263542,12.765724,17.470551,18.445187,16.752205,13.87373,-10.107822,30.81459,33.708572,22.770939,-16.781788,32.464943,29.744053,16.740532,-16.982689,27.957516,25.926132,14.793262,-11.090069,17.452698,16.535912,9.086552,-32.566426,-63.437526,-85.975253,-107.065396,-59.154764,-57.38333,-45.938169,-43.480287,-38.67666,-37.861895,-30.962398,-28.750343,-17.919229,-21.083351,-16.893184,-15.229936,1.582046,-5.158321,-5.044021,-4.548288,74.829426,151.24056,-98.04594,162.110979
70,-9.668541,3.89114,-0.797138,-1.446133,-16.153107,-22.63195,-21.463852,-17.41642,-1.705399,-37.603111,-33.991127,-24.84993,5.877113,-41.363754,-33.949356,-23.222237,7.291946,-37.405472,-29.724541,-19.283295,4.756737,-29.692955,-23.88176,-14.674644,-25.801267,-52.672175,-73.74299,-89.344633,-49.703771,-39.090481,-31.675862,-33.875689,-31.569559,-19.854023,-18.096051,-21.603814,-12.680663,-2.806865,-2.029119,-4.212829,4.785904,8.654752,9.409034,10.464719,17.846889,18.868275,17.092896,13.840313,-9.783783,30.778828,32.992001,21.862564,-16.60675,32.083054,29.372177,16.490822,-17.031384,28.379803,25.975628,14.36451,-11.413765,19.18642,17.996807,9.612064,-31.656657,-62.696583,-85.441452,-107.185037,-59.044632,-55.103042,-43.998774,-42.27356,-38.588234,-36.739643,-30.021507,-28.673402,-18.155177,-19.825587,-15.435905,-14.60459,0.804052,-4.814927,-4.028844,-3.714473,65.704565,155.192,-98.299398,160.725146
71,9.357033,-3.311613,0.822544,0.252127,-22.198105,-34.812241,-36.66584,-30.275459,-14.136314,-50.131416,-42.70752,-32.720146,-5.034256,-50.679016,-40.291786,-29.156227,-1.333008,-44.651184,-34.309387,-24.053307,-0.662613,-35.249176,-29.11972,-19.915352,-27.58076,-51.430838,-71.133418,-86.21574,-48.08344,-37.283571,-30.963849,-31.983502,-28.720333,-14.255237,-14.337272,-16.888614,-8.791591,2.060796,1.845967,-0.985537,9.87352,15.053392,13.229347,12.275797,17.488346,17.454414,14.810486,11.597157,-10.665836,29.4837,31.362362,19.661751,-17.522793,30.390244,27.542839,14.32251,-17.962303,26.70908,24.719467,13.263817,-12.252502,17.491322,16.172447,7.691631,-31.883251,-62.939169,-85.694628,-107.554614,-59.197526,-55.849079,-44.199185,-42.699978,-38.701793,-37.493615,-30.333964,-28.741328,-18.252804,-20.37072,-15.593893,-14.576216,0.835113,-4.956767,-4.092076,-3.961721,75.492296,151.778267,-97.046156,160.875153
72,-8.737335,1.642067,-0.632458,-0.861542,-16.2854,-23.367691,-22.523003,-18.687286,-3.261452,-39.530869,-35.717239,-26.391792,4.088173,-42.696533,-35.328712,-24.529724,5.653725,-38.324432,-30.487175,-20.007591,3.303452,-30.941849,-24.827385,-15.353737,-25.986611,-51.641962,-72.076995,-87.14706,-47.779937,-38.611575,-31.09232,-32.557102,-29.338825,-18.499003,-16.776352,-20.17988,-10.355019,-1.357953,-0.610897,-3.017341,6.932657,10.315715,10.935998,11.591046,17.725468,17.566166,14.750004,11.787529,-11.542282,27.544785,30.071011,18.892078,-18.848705,28.847179,26.674633,14.130077,-19.34618,25.05043,23.680515,12.938747,-13.549175,16.248093,15.551548,7.793083,-31.772069,-61.91581,-83.715836,-104.258747,-57.321209,-54.679002,-43.953449,-42.184146,-36.903281,-35.905209,-29.555631,-27.864873,-16.560719,-18.998286,-14.962403,-13.792263,2.483602,-2.818783,-2.550477,-2.278281,67.186975,153.344428,-97.246599,159.937704
73,5.026474,-0.831963,-1.35807,-2.309712,-20.751686,-31.193619,-32.297745,-26.451874,-14.328918,-43.825035,-37.682877,-29.183578,-5.633469,-46.822701,-37.303047,-26.873016,-1.718445,-41.422119,-31.76445,-21.756821,-0.847092,-33.191986,-27.89257,-18.896942,-27.396157,-51.27569,-71.048758,-85.675609,-46.561818,-38.495546,-31.776546,-31.350036,-28.192058,-15.471103,-15.835183,-17.365574,-9.22227,0.967505,0.399957,-1.359343,8.235961,12.61987,10.634224,10.621503,18.09866,18.106556,15.560188,13.010902,-10.443993,26.985512,29.108105,17.955494,-18.206863,28.951492,26.525059,13.706703,-19.085312,24.961338,23.334217,12.126846,-13.796368,17.886486,16.788654,7.767506,-29.89921,-59.229544,-81.203181,-102.843273,-53.01807,-51.234162,-42.238579,-41.637315,-32.362835,-32.296484,-27.029359,-26.075871,-12.436533,-15.146697,-11.86034,-11.085527,5.531478,1.488061,1.927477,2.54529,72.625723,152.150406,-98.192396,157.265934
74,-8.489227,2.702754,-0.500736,4.777382,-15.662384,-21.648102,-20.044327,-16.865845,-2.178612,-34.195747,-32.123909,-24.515419,5.812683,-38.26458,-31.808395,-21.923332,7.936935,-34.884109,-27.491684,-17.074814,6.411095,-27.028885,-21.248474,-11.913757,-24.731627,-50.903674,-71.856423,-87.988255,-48.197709,-38.89325,-31.468473,-32.432428,-30.151028,-18.554671,-16.571124,-19.257638,-11.258644,-1.821452,-0.531115,-2.130636,6.313547,10.363942,11.071911,11.88856,17.576408,17.224846,14.494457,12.38245,-10.376816,25.199318,27.998943,17.767239,-17.177238,28.710594,26.681786,14.390717,-17.674656,24.982224,23.276482,12.390118,-12.48579,18.358154,17.843456,9.679527,-31.818721,-61.986391,-84.269768,-105.032573,-56.107906,-53.973565,-44.689607,-43.275275,-35.489814,-34.536604,-28.874585,-27.293466,-15.72678,-17.500839,-14.583286,-13.830055,2.000096,-1.989104,-1.76495,-1.016844,64.762802,154.194746,-98.066826,161.384902
75,11.146317,1.419395,-2.31102,1.83936,-22.194672,-34.291306,-36.159439,-30.065689,-16.077003,-48.325768,-42.206383,-33.202972,-7.360497,-50.077286,-40.576859,-30.131378,-3.781128,-44.968071,-34.814415,-24.541397,-3.157883,-36.264954,-30.625534,-21.306038,-28.668401,-52.636082,-72.22569,-85.556616,-47.672306,-41.419645,-34.808275,-34.290621,-28.391327,-16.845729,-16.816675,-17.961713,-8.824196,-0.022848,-0.122081,-1.680599,9.354755,12.360333,10.806693,11.161634,17.159157,17.586708,15.494843,13.925457,-8.576775,28.877449,29.029827,17.489033,-14.45961,33.357239,28.631973,15.129261,-14.170017,30.511494,26.015053,13.527546,-8.670158,24.242764,21.937866,12.122383,-31.694109,-61.339556,-82.915921,-103.144801,-55.841206,-56.018677,-46.192241,-45.056497,-35.694702,-37.287678,-31.002103,-29.440466,-16.330823,-19.450484,-15.153736,-14.464664,1.187646,-4.031067,-2.365041,-1.398709,76.677446,154.591107,-99.609518,162.201227
76,-6.899529,6.56586,1.547298,3.488837,-18.899918,-28.585167,-27.552223,-23.28907,-11.254234,-41.374855,-38.865051,-31.759872,-3.882751,-44.777298,-38.547592,-29.514999,-1.061668,-40.655708,-33.490562,-23.954201,-1.701164,-33.331032,-27.804794,-18.635559,-25.504804,-52.167551,-72.621541,-88.318033,-50.112837,-41.723827,-33.213787,-34.483777,-31.492185,-21.496368,-17.780753,-19.907221,-11.707322,-3.151741,-0.319805,-2.875655,6.976006,9.603177,10.562964,10.444094,14.927216,15.876102,13.810272,11.709366,-8.350697,27.510681,29.482212,19.498501,-13.857136,31.262684,28.0093,16.100063,-13.649368,28.306561,25.015182,14.242802,-8.945274,21.674538,19.943619,12.095089,-31.803129,-60.793713,-81.873142,-101.462503,-54.030159,-53.938892,-42.911689,-39.577939,-35.481169,-35.861614,-29.389398,-27.028865,-17.026287,-19.663523,-15.180845,-13.762191,0.408788,-5.166472,-4.333582,-3.854584,70.040359,158.67338,-97.799778,163.206478
77,-0.315285,4.971587,-12.424393,0.249904,-18.370628,-28.746185,-29.469681,-26.339836,-13.433304,-50.869102,-44.946098,-33.793373,-7.649574,-51.92585,-43.990402,-33.035545,-6.118011,-48.042297,-39.187775,-27.742882,-7.898026,-40.712128,-34.013786,-24.485893,-22.07182,-47.154097,-67.142921,-83.207661,-48.753309,-39.134725,-31.83277,-33.575552,-31.547946,-21.408436,-17.360603,-19.790914,-13.064349,-5.581002,-1.927539,-4.311229,4.234102,6.847688,9.74687,10.172701,21.560726,31.770859,33.508186,27.408657,10.832462,45.643501,39.103317,28.483887,2.043858,45.577641,38.058987,27.057095,-1.31321,38.697453,32.562218,22.115765,-0.879593,27.790146,25.556889,18.229923,-31.905975,-57.970546,-79.486396,-96.705128,-45.623952,-43.775114,-37.728174,-38.466863,-23.898274,-24.135426,-23.080637,-24.496265,-3.774309,-7.29365,-7.331873,-8.561386,13.67889,10.278047,8.868532,8.908979,70.113401,160.274738,-109.835844,160.086152
78,-0.156555,1.732408,3.812771,12.04201,-15.052643,-28.285675,-33.98735,-34.122505,-21.3731,-58.505974,-49.848289,-38.661461,-16.639824,-58.23864,-48.371544,-38.044968,-14.710236,-53.283806,-43.16906,-32.988396,-14.515457,-45.140076,-38.217888,-30.005264,-20.233047,-41.589613,-59.30349,-75.586395,-42.289152,-29.90662,-24.008406,-27.161444,-25.99751,-13.157037,-10.714437,-14.723336,-8.274308,1.428658,3.607459,-0.442936,8.42819,11.815509,12.838713,11.507251,20.395031,29.5368,30.832214,25.983467,5.759468,42.618198,39.136047,27.929077,-0.638466,44.714012,37.236958,23.229332,-1.577282,39.18251,32.612457,20.338554,0.823574,31.607552,29.064274,20.66906,-33.818509,-61.178912,-84.400556,-101.952431,-49.690279,-51.865344,-43.299512,-44.143116,-29.627508,-31.803994,-27.103491,-25.740597,-10.398214,-14.59613,-12.712002,-12.471051,6.83503,3.430112,3.866873,4.745334,70.131454,158.815838,-105.848465,168.936854
79,-4.492378,4.052618,8.622952,5.85925,-11.149979,-27.992249,-40.728493,-45.437279,-22.859001,-61.094284,-54.553413,-45.207481,-17.73159,-58.142509,-49.988823,-41.625366,-14.813118,-53.863335,-45.616493,-37.934303,-14.535484,-44.679108,-39.989548,-35.151443,-20.720906,-35.82515,-47.49289,-61.478772,-33.037736,-20.334596,-17.506551,-19.988732,-17.338466,-2.599384,-2.160956,-5.063719,-0.281026,10.946804,10.488184,6.800573,15.801498,20.655142,18.819611,15.581667,16.700821,23.683891,24.937534,22.869358,0.581703,36.368179,37.865009,28.946457,-4.836559,38.299141,33.903694,21.122246,-5.558109,33.179054,28.709908,16.973648,-3.03709,25.707779,24.484234,16.342392,-30.525205,-55.076273,-75.309135,-94.146315,-42.978657,-44.578981,-38.68969,-38.336724,-26.534893,-26.435043,-22.910144,-21.228001,-9.924526,-10.107554,-9.058538,-8.814439,4.632701,3.120372,2.077469,2.852993,65.655813,159.113398,-97.208776,171.041046
80,-5.733719,5.782432,-12.327347,10.575684,-10.419731,-26.967888,-43.70636,-53.470459,-22.315636,-46.439209,-57.678337,-65.34565,-16.671867,-39.64222,-54.901085,-65.532818,-10.99617,-32.475357,-48.065414,-58.809242,-7.439003,-22.163773,-33.549843,-42.694016,-21.579916,-31.486998,-36.747485,-41.95465,-21.854088,-16.463833,-13.174512,-10.870728,-8.042497,1.982312,5.941439,8.424547,5.825596,14.304421,17.517604,18.77089,17.813944,26.455482,30.728055,31.705379,22.071476,35.912476,41.789875,39.245911,18.867645,56.616039,60.460968,55.966702,12.09446,54.793339,52.548866,44.063816,8.334103,49.425488,46.297646,37.028618,8.4062,40.379906,38.341885,30.360146,-29.263088,-52.615581,-71.880629,-93.508,-46.057872,-37.814841,-32.486274,-31.060087,-25.664891,-19.76643,-17.494694,-18.419345,-6.179117,-5.272744,-5.788731,-9.137702,10.847448,8.982524,5.218033,2.140455,59.970846,161.8323,-109.487371,178.5532
81,6.519699,22.242251,4.522362,11.839468,-20.445557,-42.260056,-58.989487,-66.456871,-67.883835,-93.902035,-85.938148,-76.487331,-63.369141,-84.379234,-72.702312,-60.955238,-54.741783,-72.724972,-62.600555,-51.317482,-43.979073,-61.031227,-53.678284,-44.222488,-25.405107,-38.147429,-40.040449,-37.82293,-14.816641,-5.934153,-8.671363,-12.084679,4.60763,11.00874,5.368643,2.413453,20.989891,22.286465,15.587533,13.356614,35.270971,36.372351,29.411659,26.336736,16.929417,33.410854,42.015896,39.271889,19.7188,50.075169,62.591915,69.569492,11.846752,48.741417,59.060955,61.780815,6.163673,42.347946,50.397434,50.259705,4.22699,30.833874,36.504478,35.516911,-29.998165,-51.754935,-70.049112,-87.782811,-44.084422,-38.689968,-34.868852,-34.301181,-26.836667,-19.90716,-19.178011,-17.720392,-7.335455,-2.439203,-3.759921,-4.575088,11.89597,15.308668,11.502867,8.950722,66.711502,182.287834,-104.744053,188.605951
82,6.602097,12.34718,-3.727341,7.936533,-23.781509,-46.486244,-65.067329,-79.638405,-58.561134,-89.659367,-100.922527,-102.91523,-55.399475,-89.90118,-97.611351,-95.914478,-49.353905,-81.519642,-88.111038,-87.163467,-41.733971,-68.0159,-74.919891,-75.430984,-22.392552,-31.059222,-30.868228,-30.880702,-14.347029,-0.65511,2.483231,2.193622,2.998477,16.706512,16.266294,13.856854,19.114099,29.555723,27.642201,24.537761,32.930815,40.133384,37.317379,33.114955,14.55368,35.105495,46.41655,47.707329,25.281601,58.255062,76.548443,89.179001,17.819939,55.432091,74.299622,85.649643,11.599903,49.289703,66.53698,74.782333,8.846169,36.313419,47.65646,52.309113,-28.482007,-47.195222,-62.926696,-77.920251,-35.567373,-29.222024,-23.973424,-21.549906,-18.34932,-9.592494,-7.321685,-4.742432,0.273307,5.885926,4.909281,5.415882,17.810795,23.188947,19.962426,17.736694,73.544083,193.317769,-108.24091,195.22524
83,2.358971,16.109756,11.883717,5.55093,-25.700455,-52.842636,-75.707588,-91.869965,-57.277222,-89.031143,-105.699005,-115.059128,-53.396187,-89.242573,-108.856888,-120.69603,-48.67733,-82.57576,-100.38311,-110.672607,-43.42907,-70.193138,-85.228386,-97.191811,-23.528512,-30.229667,-26.656356,-20.090867,-16.159898,-7.742575,-4.104303,-4.353775,3.694898,13.709147,17.141235,16.909548,21.504149,29.693735,32.667326,31.786951,35.386197,41.246496,44.213727,43.368488,12.676506,29.901237,40.961552,45.696087,32.860107,64.95472,80.809994,92.844543,27.493401,63.581657,82.063637,92.911835,22.924061,53.970566,69.405556,77.781429,19.857502,42.018757,49.011784,50.714607,-21.418069,-37.785201,-49.971768,-65.804327,-17.274184,-6.362392,-3.891758,-4.907614,4.353034,12.411586,9.507773,4.35433,22.195939,25.935791,20.245614,14.261443,35.485492,35.623257,29.32595,23.411372,76.524811,207.956399,-95.735435,199.305043
84,1.025391,14.434653,-6.74984,9.887723,-24.838257,-51.725235,-74.572563,-90.541935,-56.952782,-87.884159,-106.642914,-119.494858,-53.976517,-87.908363,-110.405674,-126.634483,-48.914795,-80.760155,-100.673218,-113.914547,-43.152809,-67.860489,-83.1217,-96.145935,-22.851357,-28.347021,-24.034989,-17.237134,-11.424011,-2.237341,3.258075,5.389205,8.06553,19.012828,25.18966,28.30361,24.95717,34.616169,40.441456,42.833173,37.949518,46.249824,52.441229,55.659475,17.482109,38.791695,53.462734,60.998554,27.844849,56.140594,75.675716,93.377323,20.270348,53.817501,77.244873,95.010681,15.671654,47.118359,69.002781,84.988232,12.485504,38.131599,53.556576,65.088215,-20.381217,-33.850958,-45.039824,-57.326983,-20.429877,-10.793046,-5.049578,0.613984,-2.011705,8.08634,13.632762,16.676069,15.111993,24.929691,28.756364,30.632712,30.079552,37.884372,39.554103,39.412633,77.965994,221.588667,-102.069483,208.390381
85,1.664886,10.759392,-4.127541,8.907435,-26.303787,-50.003471,-69.886208,-84.33363,-61.085014,-84.230003,-95.600452,-102.631359,-58.37162,-83.745518,-98.178062,-106.15448,-52.793884,-77.468834,-91.570873,-99.929352,-45.62748,-64.505196,-76.969643,-88.168774,-19.277244,-22.688707,-16.3914,-9.038099,-2.664469,7.21251,11.634272,12.308524,14.173696,25.797655,31.89699,34.251286,28.53925,38.838416,43.574981,46.047467,39.013663,48.072325,53.396075,57.248313,20.624199,40.963268,57.302113,71.704845,40.436611,64.077644,81.810436,98.218575,31.85606,61.422215,83.881416,102.40242,24.314575,51.834641,73.557243,90.553837,17.455559,38.298798,53.501472,65.959454,-17.809622,-27.333141,-35.393175,-46.088902,-6.755248,1.218583,4.812642,8.290425,7.475999,18.341478,23.15943,27.402239,19.626133,30.876626,33.965073,36.234524,29.547819,40.237371,42.809523,45.087249,80.029736,231.907254,-105.798168,216.857011
86,-4.251709,11.843606,16.816006,26.051758,-25.274162,-52.106094,-72.256165,-88.512611,-55.921097,-79.260979,-90.692482,-99.801521,-52.409248,-75.434532,-87.92347,-94.579239,-45.902138,-67.365074,-72.449913,-71.590462,-38.740425,-55.461159,-60.371933,-62.240295,15.477185,25.899914,34.985869,46.23982,12.952766,15.949452,19.282616,18.788983,5.694438,10.596988,16.730842,17.564102,1.202775,6.951614,12.116851,12.8573,-1.120338,4.222493,7.794569,7.690643,16.107273,34.598579,50.181942,63.209496,33.510418,72.064991,88.712711,95.571041,32.634258,76.447906,91.175022,92.414188,32.620239,71.593781,83.799305,85.013008,32.587452,61.004219,71.083145,72.040386,-26.690998,-37.041046,-42.494905,-51.072963,-10.85986,0.652517,6.230123,9.887291,10.848992,25.654703,32.492017,34.436167,29.800996,45.843629,52.729171,54.272067,45.415452,60.02739,66.46944,67.400328,75.877533,243.341948,-88.882656,242.499858
87,-2.464485,10.214321,-11.459255,0.681663,-24.297638,-45.962563,-62.173004,-73.455391,-52.546921,-75.332794,-81.852036,-82.322674,-50.285912,-73.250885,-83.24152,-88.104343,-45.519676,-68.26458,-77.52491,-81.354046,-39.024239,-57.036209,-67.905464,-76.542091,-16.559052,-19.11873,-12.310315,-5.470469,-1.807126,6.374557,6.944266,4.541434,13.780531,22.02384,22.99678,20.515586,27.305106,36.389147,36.46121,34.111236,38.360344,49.255278,52.851313,53.589539,25.350094,49.708385,68.19128,82.452507,45.057678,78.563747,96.430836,110.494652,36.507339,74.126186,94.863739,108.737755,29.051056,62.964764,83.18367,96.218204,22.422237,48.445587,63.632812,73.818798,-16.965493,-22.89415,-26.638819,-33.985759,2.023376,13.377301,19.907839,26.028416,20.959881,32.710984,38.414623,42.226784,35.67735,49.52383,54.440336,56.392267,45.709446,58.075645,61.176812,61.413934,73.54497,252.979736,-100.20999,242.604988
88,-3.645687,9.133936,-0.409641,6.931731,-28.855304,-55.267467,-73.796138,-86.854419,-64.642267,-94.678201,-96.659889,-91.521949,-61.255674,-92.633228,-95.110101,-90.15687,-55.552139,-85.444965,-88.502054,-83.505134,-47.874012,-70.80883,-78.178882,-79.937553,-5.860824,1.270854,15.508369,27.86052,13.87612,19.133026,17.12413,13.146755,23.834208,28.500594,25.533363,19.367832,30.923865,36.297664,31.949138,25.797871,34.734236,43.039512,42.706801,40.259107,28.614521,53.92828,73.825321,90.802116,49.097557,76.723309,95.381126,110.767078,39.721127,72.077007,93.790569,109.426632,32.17495,61.226463,81.750927,97.209206,25.372524,47.994862,63.211155,75.642185,-12.984383,-16.555162,-19.198759,-24.684542,8.097146,21.17292,29.270498,37.018199,24.435626,39.686249,47.654645,54.658748,37.428901,53.028907,61.316801,67.867717,46.123173,59.884253,66.769918,72.03624,69.936247,261.846632,-100.582666,249.269679
89,-3.645687,9.133936,10.789146,21.560836,-33.412971,-64.572372,-85.419273,-100.253448,-76.737614,-114.023609,-111.467743,-100.721226,-72.225437,-112.015572,-106.978683,-92.209396,-65.584602,-102.625351,-99.479198,-85.656223,-56.723785,-84.581451,-88.452301,-83.333015,4.837404,21.660439,43.327053,61.191509,29.559366,31.891494,27.303994,21.752077,33.887885,34.977348,28.069947,18.220077,34.542625,36.206181,27.437067,17.484506,31.108129,36.823747,32.562289,26.928675,27.820244,53.573971,72.705631,87.753639,54.192009,91.427364,107.003689,113.534374,46.590214,89.012203,105.562534,109.063053,39.01474,77.245216,91.532536,94.72887,31.264057,59.352551,71.360664,74.934139,-23.519312,-27.446514,-28.128424,-29.325024,8.174767,28.076492,31.376249,31.162531,28.449218,50.309481,49.085217,42.43161,42.878375,63.478374,62.114616,55.901042,51.685898,71.134005,72.153998,67.969172,66.356735,270.825497,-89.727345,270.675444
90,1.028366,0.669868,-3.513451,-1.852821,-32.897873,-60.844688,-81.486912,-100.735531,-82.08292,-103.103886,-88.937416,-72.295532,-80.536022,-101.763496,-83.956432,-60.768242,-75.194492,-98.154602,-83.5322,-62.838249,-67.538452,-89.492569,-90.931606,-84.860401,25.145077,41.047104,53.829316,67.693272,32.989417,47.855705,53.478697,53.044407,29.731959,43.53472,51.751477,50.051179,25.620987,38.576162,47.356761,47.517683,20.382205,33.098777,43.002061,48.85353,29.084415,55.311127,76.796951,93.726482,56.718121,88.023834,103.770046,115.836697,47.464142,80.637474,99.216328,112.354946,38.460903,68.001137,85.603523,97.421207,30.079823,50.857029,63.151875,71.259155,-12.41066,-14.332271,-12.525145,-14.77817,15.389808,32.404517,41.0011,46.379438,34.05986,52.433016,60.497311,63.141896,47.704293,66.997777,73.368752,73.261553,55.929509,74.285993,79.672913,79.085667,67.397375,271.211684,-93.228521,268.538941
91,-0.986023,10.580995,3.308773,8.290425,-30.241585,-58.016624,-80.335178,-101.430988,-85.367146,-100.180779,-78.039665,-59.681625,-85.891571,-96.053581,-71.189232,-45.085602,-81.807175,-93.147354,-68.002052,-41.516075,-75.049667,-93.339272,-92.717628,-85.32938,21.556451,34.196328,47.163421,59.61817,19.206292,42.738263,55.47373,59.846523,19.921856,40.45146,54.191606,59.404637,21.017741,39.016813,52.739298,58.987019,22.611025,36.121336,45.018644,52.225905,30.127316,56.292572,79.245415,98.548737,57.16032,87.165356,103.786697,115.987816,46.796379,80.434971,100.55088,114.771881,37.016888,66.980267,84.807358,98.355446,27.800961,49.556808,61.841125,72.379475,-10.699556,-11.852806,-8.669881,-9.699322,17.496176,34.039729,41.908893,46.984098,34.535338,52.326558,60.650081,65.404925,46.563763,65.113957,73.07093,76.798061,53.960289,70.746397,76.679809,79.197867,66.381426,281.369395,-89.949675,276.406083
92,-2.915268,7.595362,4.311733,7.314892,-28.097878,-55.293274,-76.383934,-94.595261,-82.188435,-88.656521,-66.490917,-47.472038,-82.952843,-85.211163,-60.073471,-34.852753,-79.317284,-83.708782,-58.334312,-33.804817,-72.983379,-85.653019,-82.938938,-75.400143,9.946818,20.862253,34.824886,46.221357,18.432374,42.082103,55.514732,61.822722,21.712124,41.610515,55.259332,64.089085,24.225922,42.126934,53.907739,61.826982,26.685194,40.105411,46.590995,52.612339,29.610558,54.954014,77.190113,95.75243,57.385139,87.411404,104.690609,117.127018,47.213116,80.548553,101.137562,115.529766,37.855797,67.802982,86.230946,100.062389,28.882313,51.986618,65.8255,77.903481,-11.184729,-11.891092,-8.870385,-11.444636,19.717462,34.79506,41.444283,45.481895,36.522405,52.940913,60.202638,64.495403,48.192121,65.377322,72.859929,76.958427,55.589265,71.123137,76.657208,79.780977,63.481922,288.603981,-85.622177,283.360198
93,-3.590469,9.171727,2.616062,8.580775,-16.902351,-38.746834,-59.732552,-75.396481,-70.27914,-76.051941,-54.239616,-34.84417,-73.341694,-75.996208,-52.357521,-27.596283,-71.678581,-76.176968,-54.555016,-32.974663,-67.122116,-80.883064,-78.208866,-70.753555,-13.458317,-17.465672,-11.910481,-8.777574,3.415601,28.815212,40.941141,46.86282,20.018743,39.503282,50.843807,58.897728,34.359349,48.447891,57.888973,65.423944,46.398333,59.028083,63.865919,68.60125,28.767242,53.958435,76.828823,95.712662,57.254505,88.744354,106.422272,119.160347,48.707714,83.745461,105.727158,121.083298,40.144215,71.767788,92.076416,106.970444,31.707172,56.403866,72.034149,86.143227,-12.62938,-13.4062,-9.776819,-12.434927,19.520664,32.732226,38.777036,42.878189,36.320666,49.380508,54.645163,57.575775,47.960433,62.673704,68.108914,70.428753,55.228642,69.678794,74.157428,76.230143,59.705143,297.57752,-83.192425,291.742785
94,-3.700218,5.698452,2.939072,5.775578,-12.59285,-32.130547,-51.999893,-66.92934,-66.526566,-65.44899,-44.004478,-26.508408,-71.475277,-67.375603,-44.157829,-21.28624,-70.857182,-67.827301,-46.335411,-27.099037,-67.374172,-73.850956,-66.407261,-56.463776,-10.248778,-14.348943,-10.970516,-7.428081,6.740675,29.796056,40.128011,45.129671,21.685695,39.687546,49.374147,55.528564,34.082769,47.531824,55.445448,60.570176,44.28863,57.159578,61.921646,64.690226,28.084602,52.653809,75.255432,93.981056,55.674706,86.813622,104.642372,117.502098,47.842026,82.193069,103.735542,118.719292,39.97261,70.936317,91.332207,105.997353,32.284012,55.634308,71.048584,84.710426,-11.45396,-11.279145,-6.949638,-8.475429,23.356352,36.364138,41.779341,45.394086,38.875157,51.294338,55.491946,57.511246,49.035199,63.342893,67.631212,68.801074,54.86098,69.423827,73.707206,75.327043,55.843134,302.987103,-80.415144,297.229495
95,-4.936752,8.030641,1.41758,7.647418,-8.197289,-26.203995,-45.761032,-60.887146,-59.767342,-59.638939,-38.463593,-21.448746,-66.190853,-63.109531,-39.103775,-16.509476,-66.48674,-63.825588,-42.188187,-23.683777,-63.860779,-64.800625,-51.240578,-37.852135,-14.960828,-19.5558,-14.762239,-11.697134,0.100159,21.484512,31.581013,36.925697,17.597324,33.540601,43.498781,49.404652,32.258477,43.806669,51.667064,56.072338,44.513278,55.250564,59.132195,60.57876,27.139378,52.395344,75.149746,94.709473,55.28492,88.289795,105.9058,118.285561,46.983547,83.684464,104.406281,118.576241,38.708153,72.282944,91.698532,105.037537,31.381359,56.229057,71.675892,84.873505,-13.862906,-14.7644,-9.74156,-9.985968,20.537076,33.479344,39.076834,42.471192,37.068772,49.113375,52.627591,53.418491,47.873859,61.12803,63.682644,62.781273,54.084407,67.836533,70.601901,70.422763,50.686884,310.824466,-79.217062,304.683634
96,-6.546135,3.368855,0.502796,1.211481,-8.515892,-22.275124,-37.170525,-49.889545,-47.03413,-46.505699,-29.844246,-15.157814,-51.626816,-49.810982,-30.534668,-11.63681,-51.067257,-50.484123,-32.767067,-16.734352,-48.044357,-50.414085,-41.800575,-32.731133,-16.431785,-21.058249,-16.41857,-10.954153,1.100022,16.976856,25.594805,29.765181,17.152968,30.364715,38.889854,42.215916,30.408496,39.21676,46.015481,48.831794,40.396934,49.146041,53.829563,55.760128,26.122684,50.772686,72.629528,91.42004,54.238415,87.519093,105.222874,118.219471,45.905228,83.281918,103.85828,118.192577,37.782326,71.818314,91.276302,104.758358,30.667763,56.77969,72.561035,85.480328,-15.110882,-15.772784,-9.752922,-9.26213,18.673572,32.39334,37.445635,40.046809,36.15147,49.207483,52.751401,53.236821,47.350648,61.517922,64.760312,64.013503,53.709644,67.010559,69.68145,69.111555,43.961878,314.097546,-78.893137,305.79934
97,-1.044159,-11.109949,0.816422,-0.202233,-18.746681,-39.237785,-58.15836,-74.452801,-71.526031,-64.973545,-39.367447,-19.313164,-74.732265,-63.224831,-34.324722,-8.126106,-71.569061,-59.813919,-32.491837,-9.203568,-65.34502,-59.704914,-41.902885,-25.853348,8.221141,14.542531,26.136232,37.578337,19.117681,38.623524,46.626131,49.018033,27.70599,43.078755,52.288643,53.854634,33.801496,47.487302,52.439438,52.467473,38.898499,50.333502,50.224265,49.492832,24.819088,49.448833,71.319637,89.861927,55.026913,89.441013,107.498188,119.8736,46.07008,84.336948,104.756184,118.087521,37.156334,71.744785,90.916271,103.129292,29.260254,56.135902,71.972008,84.091473,-15.548815,-16.290932,-11.098031,-10.500781,18.899269,32.34925,37.632862,40.316473,35.868283,48.64117,52.42011,53.170933,46.299656,60.349974,63.759956,63.31208,51.600126,65.199296,68.439525,68.387655,42.661171,302.92543,-78.333263,305.534941
98,-12.029343,17.396758,-0.314884,-1.451258,-2.882652,-12.731895,-24.96151,-34.757423,-39.743557,-29.650841,-11.809616,3.410568,-46.687775,-35.13588,-13.133926,7.844467,-48.580513,-39.045639,-18.333092,-0.673828,-47.507572,-44.339104,-32.410698,-20.431023,-19.239267,-27.433856,-25.426288,-21.790979,-3.031389,10.266809,17.590469,21.794314,14.948416,24.640761,32.511468,36.215814,28.538262,34.963145,40.503948,43.732753,38.719484,45.915198,47.455871,47.507988,25.619717,50.549297,72.306061,90.623817,56.045551,89.819641,107.782631,120.371132,46.830082,84.244537,104.386482,117.87735,37.623768,71.262646,90.183563,102.557487,29.425449,55.526161,71.342297,83.614311,-15.146759,-15.221909,-9.570943,-8.667103,19.892401,33.019119,38.30304,41.151277,36.761379,49.751936,53.726255,54.65918,47.048195,61.571953,65.082958,64.564749,52.454443,66.395587,69.606917,69.345836,30.468035,320.249771,-78.811941,304.011265
99,6.768036,-12.322295,-0.167427,0.071569,-11.434708,-26.96125,-45.515385,-59.639397,-63.730373,-52.045441,-26.705246,-8.466568,-70.747719,-54.752426,-25.770493,-1.029854,-70.760765,-56.727104,-28.901711,-6.51123,-67.737694,-62.063656,-42.88496,-25.970764,-7.492918,-10.915065,-4.473756,4.111898,5.90723,26.347419,34.385593,36.572608,24.085192,39.429985,47.121554,48.031446,38.261976,50.514801,52.638892,51.661259,49.640662,60.341021,56.860706,53.019274,25.781193,50.897369,72.993908,91.634102,55.669327,89.250298,107.022514,119.59053,46.73418,84.218559,104.335442,117.951279,37.813168,71.774998,90.845947,103.684502,29.837036,56.040115,71.840515,84.497566,-15.189675,-15.259824,-8.652529,-6.317623,19.788352,33.258463,38.582892,41.654975,36.753598,50.044386,53.982272,54.868946,47.286242,62.374215,65.893865,65.404616,52.905653,67.144187,70.329891,70.111171,36.921043,307.729612,-79.294395,303.88497
100,-25.039444,14.949775,0.678978,-0.196058,2.708931,-1.627693,-8.947563,-15.553608,-30.992546,-11.27243,8.711586,22.527695,-38.926277,-15.987682,7.507782,27.514801,-40.998516,-22.187119,0.005951,16.604462,-39.774113,-31.813831,-19.935608,-9.130211,-18.725936,-26.966652,-27.173825,-27.483194,-0.065208,12.541509,17.67797,20.590798,17.629372,26.360325,31.573233,33.60303,29.500951,36.622317,38.723128,39.758126,37.83917,46.091063,44.155373,40.957134,25.890541,50.748539,72.999229,92.024574,55.549393,88.758774,106.328201,119.077606,46.903095,83.601723,103.807983,117.823105,38.133659,71.370792,90.401917,103.530464,30.109005,56.196098,71.882801,84.581223,-14.688323,-14.145229,-7.771351,-7.192132,20.905787,34.157117,39.390032,42.211964,37.531406,50.575502,54.537717,55.387403,47.885221,62.787325,66.369775,65.889789,53.481908,67.410887,70.527863,70.364594,11.705475,322.441879,-78.791542,303.451405
101,25.65033,-13.876429,0.783749,0.219337,-10.320053,-26.801147,-46.233616,-61.881695,-68.443565,-54.571781,-28.018799,-8.913002,-74.559746,-55.233593,-25.191765,-0.453072,-73.079166,-55.218487,-26.589546,-4.452209,-68.155632,-58.610859,-38.963356,-22.128639,-6.927223,-9.88093,-2.389185,6.272792,9.080213,27.930329,34.649823,35.989252,26.115484,40.168272,47.082404,47.625808,38.655758,49.672711,51.243518,49.971953,48.646048,57.494265,53.742866,50.291944,25.466366,50.084496,72.431889,91.809368,55.47163,88.671627,106.139088,118.571148,46.715984,83.534145,103.719006,117.541523,37.715893,71.160164,90.222301,103.255291,29.478607,55.440559,71.174984,83.912601,-14.89988,-14.570504,-8.130924,-7.310446,21.082702,34.442466,39.612334,42.52967,37.801503,50.41668,54.182034,54.940268,48.274311,62.815668,66.319387,65.885405,53.88236,67.964603,71.138821,71.003958,37.076168,308.405841,-78.28743,303.511133
102,-23.659859,15.809526,0.142078,0.449172,2.252884,-3.044014,-11.987686,-21.753559,-32.058334,-12.601318,7.884407,21.920815,-38.937607,-15.210342,8.213768,27.363739,-40.13031,-19.977779,2.120819,18.777351,-38.184071,-26.30888,-12.06768,0.147743,-19.861588,-29.277723,-28.652809,-27.996711,0.420582,11.346329,15.115204,17.35767,18.013213,25.762642,29.891522,31.370938,29.77679,36.36278,37.208452,37.401916,38.231347,45.722846,43.252706,39.505444,25.051117,49.52734,71.857681,91.03054,54.555359,88.162079,105.810585,118.680382,45.731621,83.096352,103.108749,116.854134,36.943188,70.913544,89.986839,103.338089,29.21711,55.768776,71.726589,84.648285,-15.350288,-15.369739,-9.137023,-7.758384,20.701085,34.374231,39.64185,42.545663,37.812124,51.30638,54.96929,55.395739,48.386203,63.618794,66.934236,66.328464,53.72996,67.681045,70.379538,69.803468,13.15444,323.985207,-78.407221,303.730146
103,26.348305,-14.703082,-0.317745,-0.351483,-11.720352,-29.392662,-49.397678,-64.966278,-67.394829,-55.424137,-28.813019,-9.27063,-73.777714,-56.184998,-26.376686,-1.768913,-72.957058,-57.605095,-28.773994,-6.158867,-69.009933,-61.837521,-42.099266,-25.098953,-6.908019,-10.434893,-4.047184,4.423738,9.942249,27.981335,34.269811,36.17123,26.465486,39.979563,46.581176,47.304335,38.703306,49.577553,50.965579,49.938484,48.252328,57.164765,53.211874,49.635352,25.35387,50.114536,72.543354,91.759357,54.75626,88.592319,106.492252,119.688663,45.668335,82.961941,103.15836,117.250385,36.849003,70.489769,89.809055,103.518848,29.15657,55.426769,71.377258,84.384556,-15.315028,-15.233641,-9.064528,-8.00378,20.849718,34.53151,39.626413,42.279457,37.913827,51.464337,54.988063,55.259888,48.35471,63.643741,67.110965,66.510504,53.560023,67.561496,70.419491,69.950558,39.313545,309.231336,-78.914165,303.327873
104,-30.479851,16.80593,0.982819,0.779414,2.47879,-1.155968,-7.05986,-13.393593,-27.378101,-8.122673,11.793938,25.412636,-34.025517,-11.232948,11.807671,30.807838,-35.723648,-16.228123,5.551987,21.621552,-34.537067,-22.714119,-9.251175,1.562691,-20.017755,-29.812543,-31.155244,-31.646222,-1.634039,7.753814,11.396718,13.555821,16.216708,22.771638,26.73694,28.018879,28.3096,33.860036,34.204171,34.043496,37.072477,43.826305,41.063036,37.065129,24.800377,49.189911,71.56414,90.765438,54.54277,87.975712,105.483227,118.348103,45.853729,83.011723,102.710781,116.264019,37.216358,71.195354,90.032444,103.335857,29.608326,56.338863,72.350292,85.3969,-15.522325,-15.70208,-9.346666,-7.648715,20.656748,34.468154,39.668094,42.44149,38.00744,51.509785,54.983925,55.28607,48.799745,63.844677,66.88817,66.132653,54.290221,67.894022,70.127967,69.286803,8.528452,325.937694,-78.236589,304.007714
105,22.448158,-16.275433,-0.543194,-0.049771,-8.482475,-23.309326,-42.487736,-57.42588,-61.412487,-45.453472,-19.826088,-2.250137,-68.473606,-46.54335,-17.316055,6.194344,-68.086281,-48.577652,-20.275726,1.095085,-64.701862,-54.403152,-33.908958,-16.72348,-9.350371,-13.026682,-6.196222,2.937344,7.285993,25.110496,31.42287,33.031222,25.444257,39.095853,46.05815,46.056113,38.890286,49.103866,50.261377,48.667723,49.606329,58.239901,53.798564,49.114549,25.226154,49.817619,72.374954,91.688919,54.854164,88.174438,105.89962,119.044418,45.788956,82.675209,102.342339,116.152954,36.933117,70.524216,89.809685,103.585968,29.119606,55.824966,71.99152,85.053406,-15.331269,-15.404011,-9.429967,-8.651541,21.39343,34.876386,40.006363,42.650454,38.446115,51.941668,55.536345,55.827312,48.888727,63.827202,67.037853,66.450112,54.121828,67.256017,69.631185,69.032391,30.610085,309.55991,-79.146309,303.855592
106,-25.966644,21.137104,0.236893,-0.588852,3.482552,-0.089264,-5.036201,-9.966373,-26.125717,-5.880547,13.15567,25.338936,-32.035217,-5.80204,16.906471,34.572029,-32.008953,-9.16008,11.913528,27.402878,-29.379559,-15.913639,-1.264572,10.453262,-21.012862,-33.728075,-35.349703,-35.361497,-5.883579,0.479368,4.046999,6.851579,11.672619,17.124377,20.525713,21.633763,24.355165,29.598763,30.170202,29.871577,33.815637,39.657473,36.816707,32.377902,25.124016,49.702549,72.21468,91.480408,54.647484,87.95723,105.689735,118.989487,45.555782,82.383614,102.052345,116.037941,36.733074,70.036182,89.224663,103.215637,28.95607,55.352955,71.391163,84.543114,-14.949651,-14.656893,-8.642649,-7.812045,22.071635,35.415899,40.327218,42.886587,39.000202,52.631482,55.968844,56.105869,49.16716,64.631439,67.797198,67.146842,54.040132,67.620777,70.116049,69.573016,4.258575,330.52825,-79.294281,303.097976
107,23.460045,-20.256111,0.234318,0.128873,-6.720772,-20.056686,-37.38121,-50.072365,-57.700424,-42.706547,-17.159386,0.949631,-64.807835,-44.006996,-14.498978,9.228401,-64.822083,-46.073055,-17.641983,3.887558,-62.017136,-51.302605,-30.819168,-13.935585,-9.574587,-15.115883,-11.109702,-3.749053,7.116179,24.529301,31.179018,32.969409,24.901718,38.712383,45.755388,45.571495,38.014912,48.4482,49.984735,48.683593,48.481298,57.390092,53.436892,49.231504,25.403881,49.874611,72.312698,91.78854,55.053177,88.085804,105.413532,118.311939,46.263828,82.483578,101.828327,115.522785,37.533245,70.383568,89.062214,102.488422,29.710236,55.922928,71.628628,84.412594,-15.150031,-14.786198,-8.506613,-7.896025,21.894164,35.130365,40.098309,42.703683,38.789015,52.069306,55.470025,55.768279,49.075893,63.950209,67.136468,66.683899,54.220567,67.577181,69.839963,69.314035,27.220459,310.161498,-79.558125,303.116208
108,-28.635521,21.062633,-0.473499,-0.132887,4.540787,3.790054,2.78904,2.234001,-20.998192,-0.511093,17.897072,30.01133,-27.688694,-2.742004,20.101662,38.380966,-28.289509,-6.594715,14.316216,29.991074,-26.166172,-13.673229,0.555496,11.87645,-21.027806,-34.074742,-36.807383,-37.52412,-7.91949,0.298995,4.591699,7.039732,9.520926,17.508527,21.401458,21.87638,22.474495,29.678668,30.888853,29.992484,32.21908,39.464565,37.397223,32.838005,25.610676,50.346165,72.958031,92.313766,54.693832,87.945671,105.530548,118.669052,45.650196,82.301331,101.912842,115.724144,36.970482,70.164986,89.154282,102.647896,29.420471,55.778389,71.744099,84.663277,-14.963113,-14.689497,-8.37916,-7.419374,21.702491,35.129933,40.26201,43.065787,38.724424,52.201637,55.738639,56.120195,49.159503,64.284958,67.607315,67.077126,54.424961,67.93453,70.430914,69.859229,-1.855145,331.154955,-80.471706,302.914145
109,26.581764,-22.032856,-0.462227,0.209766,-2.534866,-12.405739,-27.855835,-39.920368,-56.424122,-38.11512,-12.428741,4.781456,-67.02713,-42.768002,-12.517662,11.144829,-69.290085,-47.184048,-17.962189,3.465157,-68.099442,-54.923286,-34.040451,-16.754951,-14.910934,-21.302657,-15.981007,-6.788408,0.957502,20.819522,28.861278,31.333024,22.116219,38.372694,45.44466,45.30708,38.286305,50.700052,52.242886,50.453359,51.012633,61.829576,57.82747,52.888178,25.501499,50.538769,73.24894,92.939186,53.855896,87.921295,106.01429,119.436264,44.783421,82.664337,102.705345,116.591377,36.319771,70.615597,89.677048,102.965469,29.259167,55.989418,71.956959,84.69326,-14.917047,-14.706725,-8.421151,-7.176756,20.561035,34.603696,40.032483,42.993292,37.873751,51.494904,55.198138,55.782852,48.796905,63.665169,66.773067,66.154945,54.450772,68.134046,70.37997,69.488974,24.083118,309.041144,-81.577435,303.042956
