takenoko1/special-research/HandMotion_SimilarSearch_自分用/NewProject/handData/key/d4_feature_d2/127.csv
,vel_0x_L,vel_0y_L,vel_0x_R,vel_0y_R,posFromWrist_1x_L,posFromWrist_2x_L,posFromWrist_3x_L,posFromWrist_4x_L,posFromWrist_5x_L,posFromWrist_6x_L,posFromWrist_7x_L,posFromWrist_8x_L,posFromWrist_9x_L,posFromWrist_10x_L,posFromWrist_11x_L,posFromWrist_12x_L,posFromWrist_13x_L,posFromWrist_14x_L,posFromWrist_15x_L,posFromWrist_16x_L,posFromWrist_17x_L,posFromWrist_18x_L,posFromWrist_19x_L,posFromWrist_20x_L,posFromWrist_1y_L,posFromWrist_2y_L,posFromWrist_3y_L,posFromWrist_4y_L,posFromWrist_5y_L,posFromWrist_6y_L,posFromWrist_7y_L,posFromWrist_8y_L,posFromWrist_9y_L,posFromWrist_10y_L,posFromWrist_11y_L,posFromWrist_12y_L,posFromWrist_13y_L,posFromWrist_14y_L,posFromWrist_15y_L,posFromWrist_16y_L,posFromWrist_17y_L,posFromWrist_18y_L,posFromWrist_19y_L,posFromWrist_20y_L,posFromWrist_1x_R,posFromWrist_2x_R,posFromWrist_3x_R,posFromWrist_4x_R,posFromWrist_5x_R,posFromWrist_6x_R,posFromWrist_7x_R,posFromWrist_8x_R,posFromWrist_9x_R,posFromWrist_10x_R,posFromWrist_11x_R,posFromWrist_12x_R,posFromWrist_13x_R,posFromWrist_14x_R,posFromWrist_15x_R,posFromWrist_16x_R,posFromWrist_17x_R,posFromWrist_18x_R,posFromWrist_19x_R,posFromWrist_20x_R,posFromWrist_1y_R,posFromWrist_2y_R,posFromWrist_3y_R,posFromWrist_4y_R,posFromWrist_5y_R,posFromWrist_6y_R,posFromWrist_7y_R,posFromWrist_8y_R,posFromWrist_9y_R,posFromWrist_10y_R,posFromWrist_11y_R,posFromWrist_12y_R,posFromWrist_13y_R,posFromWrist_14y_R,posFromWrist_15y_R,posFromWrist_16y_R,posFromWrist_17y_R,posFromWrist_18y_R,posFromWrist_19y_R,posFromWrist_20y_R,posFromBody_0x_L,posFromBody_0y_L,posFromBody_0x_R,posFromBody_0y_R
2,-41.174126,24.188069,-0.090866,-0.192785,12.613449,28.258553,41.994438,54.061203,30.455132,56.739693,73.259811,85.866966,21.720943,47.430382,67.024498,83.994827,13.092499,36.193771,52.207031,64.53289,5.005646,20.765533,31.99173,41.058311,-25.792097,-44.520936,-53.245589,-55.340966,-31.328825,-31.862966,-29.900352,-27.536052,-12.832785,-2.77457,0.883525,2.665889,4.281218,13.930522,14.804476,13.615472,18.277443,25.547936,24.007819,18.965157,25.222664,50.449848,74.22718,94.165421,53.690929,86.89167,105.112839,118.725128,45.568085,82.463837,102.669411,116.624222,37.299843,71.133614,89.833603,102.721825,29.850712,55.62315,70.675735,82.074051,-14.303865,-16.295069,-13.060521,-12.05615,18.805717,31.614297,36.161412,38.262593,35.30833,47.399616,50.489977,50.483494,45.920941,59.88555,62.34161,60.861577,51.962169,65.799634,67.303688,65.115068,-33.897228,337.264232,-72.249699,297.997454
3,36.630135,-20.354047,0.305328,0.231255,9.17038,10.524216,4.319801,-4.977379,-13.636951,11.286049,29.060326,38.472748,-21.892376,6.007919,24.934845,38.896637,-28.127747,-3.133163,15.14946,27.501755,-33.246002,-17.89175,-5.034943,3.54126,-23.765078,-35.704582,-38.882258,-38.046775,-8.020885,6.19758,7.901459,6.678431,12.131795,25.891515,24.976992,22.354761,27.233475,36.94027,33.10841,30.818272,39.512051,48.127962,42.215546,36.265214,25.132828,50.192871,73.686218,93.579025,53.636284,86.776543,104.943008,118.532181,45.508003,82.506638,102.930794,117.069511,37.208862,71.170349,89.897575,102.674446,29.658222,55.629616,70.555115,81.464424,-14.50863,-16.728557,-13.220454,-12.141737,18.357101,31.086639,35.763739,38.071414,35.091833,47.381956,50.526163,50.742537,45.979727,59.800025,62.20014,60.85818,52.265549,65.502552,66.728421,64.435073,2.538671,316.869213,-72.138605,298.187738
4,-34.100761,20.684289,0.783806,-0.075027,12.70792,26.727562,37.563972,45.998268,25.059929,53.06282,69.235497,79.871407,16.354923,44.381332,62.800369,77.927055,8.823338,34.764977,49.472122,60.518188,1.738415,19.898643,31.305199,39.40361,-26.144569,-44.164697,-53.031316,-57.354647,-28.627182,-25.142236,-21.541014,-17.679822,-9.835235,0.346543,1.616626,2.032577,6.724805,15.871276,14.051615,12.413377,20.049927,26.448319,22.501109,17.088624,24.932957,49.96891,73.237381,92.865601,53.7957,86.82106,104.752922,117.994881,45.412159,82.119827,102.212563,115.968132,36.861076,70.818901,89.243431,101.694946,29.214764,55.539207,70.279999,80.748253,-14.942982,-16.709167,-13.184824,-12.346748,18.857156,31.795472,36.543832,38.806429,35.489814,47.710962,50.774091,50.757357,46.19678,59.900061,62.348773,61.027376,52.233871,65.513359,66.636475,64.350104,-31.784048,337.516776,-71.576757,298.075985
5,52.462807,-25.790245,0.718231,-0.093243,4.839935,-0.480423,-12.011261,-24.653549,-32.126141,-10.359077,8.456383,18.061409,-41.894588,-16.740532,3.022385,16.889877,-47.766953,-26.095276,-6.55117,6.363831,-50.651836,-40.360508,-27.998428,-19.218979,-19.252482,-28.726786,-29.496443,-28.907097,-1.28447,14.471703,15.683184,14.311584,17.80604,32.588656,31.007908,28.129597,31.939289,43.337551,39.087332,36.427618,43.142852,53.749226,48.138028,41.99874,25.201321,50.46936,73.806725,93.594589,53.285179,86.46801,104.355583,117.606926,44.643402,81.623039,101.710052,115.404053,35.998764,69.90715,88.352737,100.820847,28.413334,54.48452,69.330139,79.929657,-14.737477,-16.727754,-13.298445,-12.308524,18.856353,32.042968,36.849867,39.131915,35.744596,48.196382,51.208629,51.021093,46.484907,60.443032,62.818632,61.287099,52.342798,65.85206,67.058724,64.589819,20.498571,311.736982,-71.038713,297.993193
6,-47.293453,25.844153,0.272655,0.963739,13.679581,26.869183,34.065685,38.41753,21.26833,44.781933,58.276577,66.134434,13.283501,39.761753,56.545773,69.575214,6.616573,31.626835,45.367527,55.564442,0.338345,16.604805,25.831089,32.864742,-26.355076,-45.131524,-54.145169,-58.980165,-25.839707,-19.189435,-15.761978,-13.011553,-7.664461,2.826378,3.589675,4.967635,7.23122,15.550483,13.757621,13.04144,19.345848,25.488718,21.850939,16.918934,24.836369,49.977379,73.507977,93.420696,53.288612,86.646481,104.478207,117.588673,44.87154,81.900158,101.7346,115.097752,36.51638,70.469227,88.64851,100.730724,29.226437,55.469799,70.298481,80.845127,-15.39339,-18.019943,-14.816209,-13.292949,17.608994,30.778752,35.463756,37.637432,34.651799,46.725549,49.57039,49.402614,45.747607,59.170109,61.193979,59.527335,52.129019,65.226157,65.849713,63.086444,-26.919823,337.589688,-70.890999,298.965484
7,30.612888,-23.924518,0.535526,0.214397,9.234352,9.92775,3.370056,-6.661034,-16.863155,10.740623,29.197083,37.775917,-25.253162,5.433311,24.922714,37.857056,-30.84137,-3.762589,15.244217,27.120667,-34.397278,-18.05088,-4.782944,3.982887,-20.75808,-31.021122,-32.138187,-31.494192,-3.571767,11.470016,12.21207,10.658924,15.312064,29.669159,28.32479,25.660384,29.561713,41.132196,36.981025,34.553061,41.457745,51.871396,45.936811,39.896571,24.416027,49.397106,72.823219,92.789154,52.683048,86.040573,104.031143,117.139549,44.570217,82.040291,102.287292,115.762138,36.546421,71.028786,89.367828,101.380463,29.600716,56.028728,70.793152,81.095695,-15.23994,-17.912313,-14.596871,-13.153641,17.576267,30.480991,35.078804,37.164794,34.841867,46.452674,49.083797,48.736327,46.039687,58.874881,60.55585,58.632387,52.334709,65.104509,65.584125,62.526059,3.51388,313.655475,-70.534658,299.170187
8,-33.460922,24.589323,0.220356,0.161971,10.469513,21.640091,35.286255,46.964836,21.352959,48.235703,63.209724,73.005867,14.777927,43.380775,61.436234,75.988426,9.045868,35.397835,50.30365,61.621513,3.542862,20.605488,31.772346,39.875336,-26.82055,-45.947679,-53.917496,-57.197492,-26.72527,-22.907489,-18.915324,-14.567601,-7.793272,0.401872,1.562038,2.823476,7.950366,14.257367,12.418687,11.544363,21.022681,24.407159,20.196954,15.872573,24.619789,49.259033,72.484989,92.225933,52.877541,86.156101,104.08556,117.13274,44.573364,81.835041,101.932011,115.253849,36.323318,70.598202,88.790646,100.581493,29.16647,55.541553,70.234394,80.456028,-15.497501,-18.155671,-14.89846,-13.272078,17.311481,30.136671,34.873113,37.062844,34.539043,46.210674,48.927568,48.605787,45.744582,58.604661,60.275133,58.310358,52.097279,64.80434,65.32113,62.32784,-30.060711,338.238792,-70.427971,299.326153
9,29.818954,-22.94565,0.644245,0.392239,10.798645,12.79541,7.716522,-1.269836,-13.267021,16.705971,34.991112,42.686119,-21.6996,11.533356,30.534897,42.394409,-27.050285,1.854858,19.877815,30.411644,-30.919647,-12.140694,0.799599,8.62587,-22.1713,-32.971015,-34.198613,-32.753962,-6.074141,7.488658,8.319757,7.251845,13.644433,26.571079,25.194353,22.672343,28.578708,38.519845,34.298834,32.487262,40.794422,49.838325,43.805434,38.328048,24.376602,48.85437,72.004509,91.842613,52.891216,85.948792,103.782463,116.732712,44.667034,81.976662,102.078438,115.323486,36.476784,71.09951,89.19754,100.760765,29.368629,56.128521,70.621948,80.432968,-15.799275,-18.432745,-14.983676,-13.69124,17.177853,29.74258,34.467227,36.71661,34.530336,45.798675,48.626906,48.57096,45.881544,58.230577,59.794097,57.929482,52.299079,64.569812,64.916911,61.907258,-0.386267,315.300213,-69.928236,299.725462
10,-26.025181,21.223987,0.188484,-0.159316,10.943012,21.292477,32.264271,39.990406,17.288876,44.301853,59.969273,69.378948,10.092716,39.463062,57.844563,71.920338,4.571972,31.344624,46.656933,58.063488,-0.293083,16.735497,28.78767,37.495823,-25.346568,-43.008791,-51.696827,-58.646034,-24.425067,-18.838507,-13.728043,-8.225093,-6.044254,2.41512,3.985125,4.964486,9.108618,16.050291,14.73371,14.250266,21.848654,25.585851,21.772269,18.182656,24.519939,49.065628,72.037926,91.718102,52.351685,86.019173,103.934212,117.076149,43.858395,81.611366,101.787987,115.063705,35.609837,70.564842,89.089622,101.045952,28.48217,55.870686,70.827141,81.035385,-15.952231,-18.7155,-15.410124,-13.934845,16.315632,29.481684,34.287966,36.443673,33.996998,45.851348,48.487226,47.960495,45.536421,58.420398,60.123597,58.148572,51.816932,64.282735,64.716408,61.675138,-26.637583,336.532953,-69.965887,299.574899
11,47.952976,-24.340345,0.012188,0.394153,5.153847,-1.261711,-13.000488,-24.981537,-37.329025,-11.4505,9.187317,19.789009,-47.258148,-16.281853,6.109657,20.664482,-51.447659,-25.303688,-4.084396,9.000549,-52.673492,-37.938881,-23.634224,-14.047737,-19.254396,-29.11501,-29.583079,-28.548142,-1.492878,12.628515,13.831475,13.247378,18.640473,30.719657,29.631306,27.374328,33.377765,42.52016,38.36127,36.074467,44.879273,53.482094,47.596044,42.078089,24.477253,49.230137,72.539005,92.598438,51.891003,85.712872,103.800602,117.051601,43.633289,81.695995,101.988201,115.410748,35.678329,71.04681,89.61565,101.649113,28.855362,56.556244,71.611004,82.033138,-15.789766,-18.821217,-15.605811,-14.310534,16.083636,29.267411,33.941114,36.136403,33.707574,45.343142,47.930299,47.491624,45.370004,58.026121,59.651886,57.738055,51.902209,64.269088,64.540296,61.374846,21.098442,312.200357,-70.17065,299.976802
12,-45.346355,19.149606,0.294228,0.006978,15.489521,27.238712,31.897259,31.957569,15.998898,41.734943,56.716061,63.424816,6.592426,36.350384,53.867741,66.093578,-0.065861,27.863216,43.137074,53.727093,-5.440922,13.83482,25.275707,33.362103,-25.426103,-42.475515,-49.142398,-52.239058,-21.266718,-12.593997,-8.56787,-5.219948,-2.780621,9.749526,11.15867,12.552253,12.38738,22.603244,20.792352,20.458838,24.289031,31.922678,28.549747,24.08723,24.445553,49.036674,72.232189,92.314968,52.044411,85.409603,103.415508,116.591549,43.791046,81.3941,101.644077,115.015125,35.656528,70.715733,89.193707,101.039143,28.590832,56.008472,70.99474,81.297741,-15.891592,-18.868271,-15.824222,-14.691102,16.391153,29.60006,34.237207,36.115037,33.839905,45.600703,48.216759,47.641925,45.329372,58.082314,59.713266,57.694027,51.740176,64.374187,64.752223,61.583007,-24.401293,331.353282,-70.029802,299.987098
13,36.531429,-17.501117,-0.730934,-0.391189,5.82058,2.578239,-5.262794,-14.573364,-24.896221,-2.776909,16.062126,26.721725,-33.784504,-7.928581,12.216339,27.387886,-39.075165,-16.294327,3.222427,16.484985,-42.647839,-29.719677,-16.493683,-7.418175,-21.587265,-33.141323,-35.601336,-33.963776,-4.578484,8.528164,10.3921,9.386124,15.699857,28.844791,28.685351,25.797346,30.786965,40.296343,36.540004,33.858245,42.953772,51.93963,45.863636,39.357798,24.909153,49.96891,73.480167,93.450336,52.17556,85.297451,103.620472,117.012691,43.912468,81.719456,102.340336,115.901127,35.807877,71.456165,89.834118,101.036396,28.698235,56.803551,71.376858,80.597248,-15.539738,-18.871543,-16.218375,-15.252167,15.249758,28.748707,33.953341,36.319431,32.786381,44.990733,48.425599,48.452893,44.640978,57.321055,59.240134,57.421091,51.644834,64.238521,64.62372,61.26456,11.794739,313.905363,-71.096134,299.649108
14,-49.076328,25.663718,0.099735,-0.361363,13.280354,30.487232,42.5247,50.874538,31.618366,59.589787,75.065632,85.139408,22.955532,50.563145,68.137608,81.624813,13.873959,39.937191,54.072704,64.171429,5.628548,24.83757,35.393314,42.418957,-25.256166,-45.325049,-56.187379,-62.01069,-28.373697,-21.707678,-16.487545,-11.660516,-10.863379,2.038011,4.498888,6.443717,4.943244,15.303358,13.454489,12.210712,17.993082,24.313484,20.644583,15.640638,24.992294,49.988365,73.575325,93.733978,51.813927,85.025024,103.440399,117.000732,43.891125,81.747551,102.637367,116.298294,36.116238,71.748276,90.054588,101.151352,29.389629,56.897449,71.537361,80.917397,-14.665414,-17.80956,-15.13058,-14.861101,15.491202,28.367398,33.424942,35.833208,33.129343,44.931638,48.350017,48.421339,45.193521,57.808698,59.628112,57.555151,52.294818,64.941241,65.542628,61.993215,-37.520971,339.593844,-71.235781,299.312506
15,57.347546,-26.408922,0.413246,-0.080893,4.51355,-0.884857,-12.179375,-23.917465,-34.312706,-12.649384,7.578506,18.835602,-44.182034,-17.58728,4.496269,20.302277,-49.181385,-26.456566,-5.482979,8.461533,-51.67963,-39.51519,-25.481529,-15.615578,-20.075862,-31.22249,-33.102111,-31.727917,-2.779077,11.538558,13.158334,12.424183,17.297834,30.078008,29.644829,27.262622,31.997149,41.25792,37.419638,34.811733,43.532744,52.198488,46.335595,40.156787,24.93679,49.980698,73.280983,93.227348,52.13768,85.142784,103.311768,116.667709,43.994179,81.480446,102.146072,115.650444,36.025658,71.271858,89.406395,100.429001,29.128647,56.450672,70.99926,80.336838,-14.978242,-17.876497,-15.111437,-14.848936,15.484595,28.599703,33.896654,36.431632,33.194057,45.630282,49.24336,49.337468,45.221926,58.316595,60.378688,58.424535,52.232512,65.084193,65.78716,62.310179,19.514036,313.296535,-71.135073,299.343227
16,-48.115368,22.343831,0.014706,-0.179076,14.555855,27.795696,31.710377,30.249653,20.527325,46.812458,61.564121,69.426899,12.168674,41.706562,58.467693,70.796986,5.182629,34.207249,48.840122,58.96059,-0.871696,18.627033,30.36478,38.698711,-25.707932,-45.200684,-53.571508,-58.485297,-24.560238,-17.586764,-13.283131,-9.751502,-6.604145,5.887408,8.331674,9.749649,8.540761,18.334624,17.793134,17.083498,20.941788,28.199437,25.405849,20.198004,24.949722,49.856071,73.156071,93.275356,52.152271,85.597858,104.013691,117.422161,43.839397,81.682606,102.3979,115.692959,35.764732,71.366558,89.618511,100.497837,28.895473,56.600704,71.176357,80.307713,-15.354549,-18.009508,-15.043388,-14.923469,15.624151,28.911605,34.167182,36.630221,33.361216,45.920941,49.491226,49.527906,45.358271,58.490299,60.371587,58.349076,52.279504,65.046711,65.519781,62.037428,-28.839254,335.680535,-71.35829,299.204319
17,56.997128,-21.799377,-0.023403,-0.45331,0.630684,-7.448616,-20.633469,-32.824173,-41.154671,-26.137962,-5.315666,8.159866,-50.936337,-31.06739,-8.812294,7.944832,-55.433578,-39.196987,-17.520905,-2.35611,-57.525387,-50.800095,-36.727753,-25.939522,-20.334966,-32.652012,-35.372921,-34.165268,-3.481179,8.459374,10.781313,10.694369,17.188474,27.525431,28.188507,26.978137,32.152637,39.077822,36.579215,34.778882,43.818525,51.046102,46.035056,40.772253,25.018101,49.946995,73.287506,93.363304,52.941856,86.151466,104.137001,117.130623,44.502697,81.917267,102.327576,115.452347,36.148911,71.192665,89.341393,100.387001,28.930321,56.187687,70.84877,80.44178,-15.397095,-18.057179,-14.993865,-14.507457,16.294266,29.556526,34.777215,37.288233,33.876894,46.374806,49.886676,49.832829,45.654426,58.929036,61.039047,59.217472,52.268513,65.267407,66.098567,62.972761,27.932539,313.945686,-71.607027,298.815539
18,-48.743362,20.093955,-0.277004,-0.56656,13.706818,25.017014,26.586914,23.801308,13.797569,36.411095,50.862465,59.301682,4.712048,31.43486,48.166466,60.991058,-2.13026,24.264107,39.972954,51.378365,-7.654495,10.195999,21.921616,31.030083,-26.70341,-44.660121,-50.50455,-52.239984,-23.185921,-14.539382,-9.786576,-7.372135,-5.575815,6.17572,8.992157,9.668756,9.200997,18.205133,18.666964,17.434858,21.059114,28.269215,26.934974,21.980059,25.035782,50.196762,73.635006,93.751774,52.665939,86.132298,104.314671,117.524586,44.32806,81.914234,102.423534,115.800762,36.171799,71.190777,89.477978,100.885677,29.217396,56.206913,71.046925,81.211796,-14.930817,-17.590469,-14.628734,-14.043155,16.852305,30.197125,35.259979,37.723388,34.364104,46.588278,49.926814,49.766016,46.043207,59.172703,61.234179,59.326461,52.704471,65.768017,66.717368,63.640407,-21.137924,334.042651,-72.211132,298.251989
19,50.537224,-21.43894,-0.193119,-0.13301,-0.085144,-8.526421,-22.149582,-35.065956,-42.926731,-28.075447,-6.684036,7.627602,-53.026714,-33.965149,-10.239716,8.012924,-57.685318,-42.079296,-19.484024,-3.262825,-59.64901,-53.91798,-39.878426,-28.526344,-18.755206,-30.419056,-32.620087,-31.017911,-2.538189,9.740757,12.656488,12.879777,17.830555,28.169365,29.658291,28.896167,32.615333,39.757694,37.79471,36.267561,44.351307,52.101787,47.197075,41.975213,25.243893,50.586548,74.089279,94.194374,53.000793,86.335373,104.684944,118.039398,44.676247,82.137451,102.737732,116.27758,36.454868,71.5345,89.895058,101.320267,29.342422,56.249199,70.906677,80.713463,-14.732969,-17.371194,-14.43632,-14.12868,16.621297,29.988408,35.14253,37.456318,33.983969,46.798476,50.230811,49.962382,45.656834,59.354373,61.425914,59.311456,52.456172,66.009708,66.907251,63.652016,29.152222,312.581805,-72.651329,298.097073
20,-44.390202,17.498399,-0.236435,-0.504254,13.223248,22.011738,22.129154,18.273525,7.632122,31.1796,45.937214,53.667355,-1.930275,25.998516,42.661228,55.025082,-8.545418,18.026791,33.502178,43.929119,-13.613091,4.059162,15.431271,23.660831,-26.155993,-43.087091,-48.082082,-48.436344,-19.6073,-9.310604,-4.251886,-1.795455,-1.445021,10.506339,13.620597,14.293553,12.923682,22.421883,22.796029,21.543978,24.064691,31.792447,30.133337,25.07536,25.447998,50.959568,74.562035,94.894524,53.063622,86.764412,105.278435,118.910065,44.674873,82.200737,102.873917,116.4814,36.447601,71.467667,89.843903,101.418571,29.280281,56.042805,70.572739,80.385704,-14.25959,-16.569797,-13.719583,-14.076192,17.267144,30.326245,35.270724,37.616437,34.569733,47.062459,50.439774,50.251559,46.060744,59.530238,61.5877,59.507822,52.647043,66.178287,67.198342,64.127803,-15.460339,330.050672,-73.110123,297.563287
21,39.196758,-19.148988,0.037479,-0.805349,2.567596,-3.717728,-15.543365,-28.321953,-31.759186,-15.015564,2.71019,12.951622,-41.02129,-21.899071,-3.508415,10.233307,-46.822472,-30.445633,-12.195511,-0.085258,-50.843868,-45.610771,-34.638634,-26.216469,-19.468979,-30.803329,-33.240617,-33.566783,-1.586183,15.078463,16.340332,14.586744,18.421815,33.585246,32.362835,28.96613,32.411803,42.891219,39.954863,37.093843,42.874052,53.154261,48.828459,42.780685,25.380306,50.819664,73.957272,93.46796,53.17606,86.409588,104.512196,118.026867,44.685001,81.408176,101.68951,115.430775,36.590252,70.386143,88.992748,101.503544,29.55019,55.474949,70.368862,81.328182,-14.571183,-16.710217,-14.126024,-13.865129,18.224831,31.474123,36.259348,38.308968,35.238614,48.046884,51.060428,50.258228,46.37246,60.305082,62.502532,60.43025,52.646672,66.337912,67.713711,65.003115,23.543558,310.852346,-73.265505,296.708599
22,-27.02076,17.126539,0.348072,0.673697,9.30748,12.558174,8.341942,2.816048,-4.727325,16.077003,31.579628,40.791321,-14.033031,12.342567,30.812531,44.801903,-19.244099,4.253311,19.576378,31.096916,-22.59407,-10.134487,-1.412086,5.753288,-25.601474,-40.597994,-45.899822,-49.496722,-16.058256,-6.28224,-1.486147,2.113655,2.204119,13.146539,15.579814,16.733682,15.940251,24.324167,24.401231,24.038756,26.398054,32.792927,30.901882,26.219842,24.505634,50.053711,73.663902,93.686485,52.933846,86.52317,104.947929,118.463631,44.71859,82.221794,102.62661,115.873718,36.961555,71.757317,90.382118,102.36351,30.443115,57.817783,72.982178,83.557205,-15.442111,-18.241689,-15.672749,-15.929507,17.128391,30.73034,35.591702,37.923089,34.801112,47.11365,49.858888,49.215511,46.49522,59.704189,61.067823,58.600832,53.079543,65.682678,65.95049,62.652709,-3.632755,327.953875,-73.072987,297.357287
23,-36.286068,-13.917617,0.430241,-2.733135,15.039024,32.003918,44.484501,52.401066,27.113457,55.000362,71.067867,82.30814,20.683136,52.432766,71.224194,85.164356,14.241257,43.479939,62.266331,75.696659,9.031563,26.43013,38.19437,48.529873,-21.132288,-31.616828,-34.506686,-35.415158,-5.887284,10.396114,17.864271,20.747583,11.365966,27.943296,32.920565,34.772521,23.380064,37.006343,38.310203,38.039057,31.852098,45.30708,45.933908,42.796308,25.691299,50.908241,73.856678,93.261623,52.914219,85.191479,102.801304,116.712742,44.697247,80.791111,100.993023,115.947132,36.625729,69.756145,88.344555,101.709881,29.250927,55.35181,70.526676,82.682362,-15.133173,-18.274726,-15.534489,-15.085317,15.428958,30.401395,36.938788,41.461388,32.530796,46.761858,52.157177,54.919458,44.27239,58.45788,62.49364,63.182836,51.690961,64.265074,66.407258,65.084317,-40.016098,314.030902,-72.740021,294.618795
24,-3.628578,-18.224029,1.815891,-8.22781,20.571041,38.696651,48.831654,49.202557,27.856979,60.630741,75.399113,81.16396,18.866844,57.912769,74.857349,84.616985,8.738995,45.156498,60.998669,68.069401,-0.762978,18.522606,27.289581,31.46719,-21.271658,-28.437423,-29.119024,-29.662798,2.932589,25.251287,30.888915,33.367576,21.60863,45.522589,50.012832,50.808115,33.699793,53.379032,55.209623,54.470162,42.528435,58.282756,57.883169,54.026547,25.960007,50.604744,72.450256,89.942665,53.510742,84.29615,100.858154,113.172226,44.732609,78.935051,98.043823,111.888313,34.837532,66.396561,84.025497,96.320229,24.938335,50.065727,64.388924,76.001587,-14.676406,-16.736276,-13.362974,-14.160234,12.695452,30.484449,40.486781,47.650755,29.081912,46.872268,56.869104,63.311339,41.379013,58.063233,65.500762,68.796319,50.590507,65.930544,70.640001,71.226877,-43.967772,295.806843,-71.247225,286.390954
25,33.855343,-7.054676,4.596233,-11.782473,13.642616,17.596092,16.917343,14.043274,-5.877514,18.778839,32.934036,39.447784,-16.185551,8.163185,23.337708,35.471649,-25.405769,-6.366005,6.586075,14.947357,-32.093353,-34.380341,-37.607174,-40.367432,-22.128692,-30.880455,-35.197858,-36.744953,0.974051,20.120384,25.703918,27.892723,18.177098,36.812693,42.548133,44.846298,29.164781,44.50945,47.986986,51.343245,37.127126,50.880116,56.393687,61.810495,26.152496,52.202911,71.720753,87.890568,48.396149,73.75391,88.212948,101.744099,38.293819,64.738369,80.776005,96.80563,25.989017,46.736813,60.090809,73.102512,13.064175,24.129295,32.891693,40.962067,-17.381506,-18.43293,-16.177805,-15.548754,7.624879,23.070571,33.807548,44.070219,21.814815,41.079709,53.989435,66.365453,32.529438,52.975061,65.334838,75.631534,40.045389,58.897234,67.383285,71.759598,-10.412722,288.818626,-66.951284,274.674941
26,46.223488,-10.906358,4.758911,-25.363858,-27.547531,-47.228851,-60.927601,-70.308151,-69.354572,-92.613029,-99.992981,-102.784309,-62.583046,-89.463158,-98.668499,-103.487206,-51.655998,-76.251068,-83.993855,-87.316189,-36.684837,-54.840946,-64.870892,-69.707108,-13.801711,-15.681826,-12.236585,-7.370035,13.512966,25.733867,28.390616,27.672397,30.610173,43.372378,45.140848,44.213604,41.780205,54.494553,55.271806,53.140861,48.431836,59.470896,60.681883,58.327895,28.814278,50.958538,60.29108,65.342159,59.102383,70.335674,63.953533,54.484806,45.751247,56.02747,46.630039,36.322289,30.205593,34.521389,23.643494,13.478565,12.584667,11.881027,5.668888,-0.27277,0.66005,15.863249,35.173714,50.772053,23.452251,50.500043,65.000398,68.751921,29.022385,58.007164,70.935354,73.230061,32.80009,60.392273,70.907689,72.609037,34.294388,53.392617,60.236477,62.493331,35.427332,278.03986,-62.575808,249.438674
27,-2.661781,-1.143679,21.037216,-3.289136,-24.007301,-42.184525,-53.437901,-61.48653,-51.239719,-77.702351,-87.725086,-94.867172,-47.395763,-75.439968,-88.233433,-96.834755,-41.024208,-64.313393,-76.228924,-84.505177,-32.576294,-48.867474,-58.727589,-64.989796,-11.433398,-13.416944,-14.177277,-15.677503,0.684133,11.739371,16.62778,19.27076,13.902241,26.364338,31.544951,34.964874,24.979462,37.67936,42.067468,45.016483,34.121857,44.056511,47.264939,49.626768,5.506725,8.358307,6.2673,3.342133,40.869541,32.598095,16.26852,2.33305,39.124546,27.640285,7.606773,-10.260773,32.607594,17.433243,-3.572788,-20.988522,22.628288,10.174828,-4.629707,-17.761459,35.060711,55.531034,68.600509,77.857575,47.515892,62.891004,70.38806,73.957913,34.676932,51.12576,62.717609,67.58879,22.376497,37.750806,50.380123,56.040228,11.177874,25.200034,36.571558,44.45406,32.870693,277.122804,-41.433449,246.376163
28,-7.028961,-21.479078,-13.18408,-44.33198,-28.281441,-46.249294,-59.052773,-68.204498,-45.577412,-68.363342,-79.888973,-87.416325,-39.790649,-62.368298,-75.17046,-84.691658,-33.173676,-51.896725,-64.943562,-75.275917,-25.252533,-38.402596,-47.512035,-54.975529,1.508748,9.363956,18.73841,26.055833,13.419414,22.907118,28.64756,32.812008,21.304448,33.663793,40.325242,45.478808,28.178566,40.366862,45.36142,48.199716,34.415419,43.971172,48.395897,51.605437,19.158297,33.38522,40.05023,43.901196,50.673895,57.24721,54.659701,50.450163,45.450411,51.213827,46.035176,39.764843,37.755747,40.363884,34.248934,27.986326,28.738146,29.684229,25.930424,21.465168,18.743072,25.015895,29.503637,31.656164,10.161802,11.856604,12.343398,10.2372,4.852348,7.128931,10.969945,10.847386,2.173213,6.63326,11.445995,12.214448,2.347257,8.690259,12.72253,14.000733,25.172968,257.533227,-55.286293,203.933684
29,19.537926,-49.903966,-13.18408,-44.331979,-21.284752,-41.438484,-58.254833,-69.921398,-52.032394,-81.157837,-93.103008,-98.108482,-52.148781,-82.897282,-95.235958,-98.534031,-50.001984,-78.521404,-91.473827,-97.218876,-45.371819,-69.858284,-81.15675,-87.368832,-18.976087,-24.597906,-25.238011,-24.404072,9.512157,23.420202,29.737455,33.390547,27.323075,45.074651,49.015501,50.239765,40.186736,57.700943,61.543054,62.816718,47.848418,64.201039,68.941988,70.454997,32.809868,58.412132,73.83316,84.460258,60.478249,81.896324,93.05088,98.567276,51.776276,74.787369,84.463577,89.790459,42.9039,63.294525,72.070656,76.961174,34.848003,49.19363,56.490555,60.691795,2.425433,-5.499245,-9.593235,-14.545248,-27.192288,-39.177796,-45.701264,-53.483514,-24.972237,-36.867898,-40.777718,-45.894018,-18.030071,-24.484285,-27.488134,-31.611333,-6.483361,-7.819516,-11.126498,-16.452595,44.228382,209.063229,-68.952885,161.035673
30,-10.517006,-22.814739,43.221531,-44.001676,-19.851608,-41.634636,-59.042015,-69.39537,-55.019073,-77.61137,-82.721386,-82.200565,-52.203999,-75.892982,-80.278416,-79.2556,-47.534866,-70.70406,-75.10128,-74.107761,-41.393166,-60.829067,-66.689529,-66.863766,25.895344,39.546322,45.586748,49.239408,45.923473,47.888186,44.640608,42.243025,33.269949,38.951913,36.911618,34.870519,18.830973,25.470378,25.032073,24.143979,3.290371,9.006606,11.400361,12.645682,16.45277,31.826191,42.563152,48.283482,43.383694,54.600048,56.914845,57.558231,42.830143,55.702229,56.660671,55.573139,42.200718,52.759037,54.584599,54.238644,41.124058,49.985905,51.64381,50.557423,-17.202677,-29.67484,-38.491718,-45.612405,-35.48685,-46.056792,-49.433706,-51.442447,-32.538762,-43.072147,-46.496053,-46.895671,-30.105055,-38.626581,-42.876923,-44.475209,-27.487671,-33.805757,-39.079088,-41.811914,33.322134,187.836463,-26.120596,118.62197
31,6.949997,-40.674688,-9.666653,-14.369506,-14.708862,-30.428009,-45.327759,-57.756329,-72.41066,-102.758789,-122.417965,-136.66872,-77.99263,-110.921631,-126.411724,-138.719902,-76.897316,-104.245892,-112.201023,-117.643661,-71.982937,-91.614075,-96.504078,-99.135361,-17.627643,-24.907831,-27.004968,-27.327799,-17.201287,-24.896871,-23.625059,-16.927548,-6.720483,-9.905075,-6.563822,-1.490778,3.390221,2.680338,5.613853,8.280545,11.95877,15.108597,16.301615,17.077385,23.335533,42.185326,53.806343,61.090279,46.189041,60.538445,71.437225,82.158165,39.362755,54.554214,65.975533,76.850967,30.74707,45.122223,55.909195,65.80822,21.004314,32.449837,40.382423,47.993546,1.188726,-5.079682,-11.023807,-15.418337,-20.251542,-36.537101,-48.083132,-58.644119,-23.2896,-40.72909,-53.623842,-66.367336,-24.790166,-39.661703,-52.571368,-64.885882,-24.291995,-35.962174,-44.937072,-54.510608,40.226326,148.423167,-35.833054,105.513855
32,1.218575,-2.900545,-6.770696,-9.725011,-16.106824,-32.6771,-47.90888,-60.465223,-71.315387,-100.85072,-120.107546,-134.226829,-75.182525,-106.513735,-121.61918,-133.680349,-72.706024,-98.043092,-105.852058,-111.362506,-66.623101,-84.624514,-89.593804,-92.51309,-17.011129,-24.178762,-26.135076,-26.465082,-17.690992,-24.68162,-22.786506,-15.766732,-8.060012,-11.499525,-8.035671,-2.834242,1.34973,-0.351657,2.513348,5.32882,9.230672,11.492056,12.958366,14.112131,32.855844,57.72088,73.539362,84.125776,59.499235,76.636533,89.177255,100.12187,52.665624,67.478571,76.966982,86.032819,44.417009,61.170931,72.315416,82.525663,34.289074,47.222299,57.180948,65.750627,-6.840495,-22.988737,-33.544105,-41.818738,-36.161103,-58.997023,-74.497627,-87.697966,-35.199958,-56.201736,-66.116753,-76.005109,-32.092276,-52.711356,-65.830756,-77.077327,-25.819762,-41.744992,-53.502193,-64.893107,41.308259,147.434955,-42.740392,97.701178
33,1.218575,-2.900544,-6.770697,-9.725011,-17.504785,-34.926191,-50.490001,-63.174117,-70.220113,-98.94265,-117.797127,-131.784938,-72.37242,-102.105838,-116.826635,-128.640796,-68.514731,-91.840292,-99.503092,-105.081351,-61.263264,-77.634953,-82.68353,-85.890819,-16.394616,-23.449693,-25.265186,-25.602365,-18.180698,-24.466369,-21.947954,-14.605918,-9.399542,-13.093977,-9.507522,-4.177707,-0.690763,-3.383654,-0.587159,2.377095,6.502574,7.875515,9.615116,11.146875,42.376156,73.256435,93.272381,107.161274,72.809429,92.734623,106.917286,118.085575,65.968494,80.402927,87.958431,95.214672,58.086948,77.219639,88.721638,99.243107,47.573833,61.994762,73.979473,83.50771,-14.869715,-40.897792,-56.064403,-68.219138,-52.070664,-81.456944,-100.912122,-116.751813,-47.110316,-71.674382,-78.609664,-85.642881,-39.394385,-65.761009,-79.090144,-89.268773,-27.347528,-47.52781,-62.067315,-75.275605,42.089097,148.907899,-49.948826,92.349655
34,1.218575,-2.900545,27.924156,-28.151704,-18.902746,-37.175282,-53.071121,-65.883011,-69.12484,-97.034581,-115.486708,-129.343046,-69.562315,-97.697942,-112.03409,-123.601243,-64.323439,-85.637492,-93.154126,-98.800196,-55.903428,-70.645392,-75.773257,-79.268548,-15.778102,-22.720623,-24.395294,-24.739648,-18.670403,-24.251118,-21.109401,-13.445103,-10.739072,-14.688427,-10.979371,-5.521171,-2.731254,-6.41565,-3.687664,-0.57463,3.774476,4.258974,6.271868,8.181621,36.958294,59.93597,73.692799,88.773365,59.512768,77.511234,90.688992,102.806797,51.526051,70.527134,86.425381,99.981251,42.744198,58.38953,72.650356,85.316448,32.201214,42.907734,51.637974,58.853703,-5.744209,-29.098863,-43.838007,-54.600486,-52.064767,-78.595585,-93.98845,-105.491656,-51.035357,-79.10484,-93.308516,-104.477869,-44.927716,-66.809808,-78.697072,-88.762203,-32.824327,-42.848827,-47.849993,-52.49421,42.531705,149.285313,-22.800636,67.47591
35,1.218575,-2.900545,-8.001194,-14.384758,-20.300707,-39.424373,-55.652242,-68.591905,-68.029567,-95.126512,-113.176288,-126.901155,-66.75221,-93.290045,-107.241546,-118.56169,-60.132146,-79.434692,-86.805161,-92.519041,-50.543591,-63.655831,-68.862983,-72.646277,-15.161587,-21.991554,-23.525403,-23.87693,-19.160107,-24.035867,-20.270847,-12.284287,-12.078601,-16.282878,-12.451221,-6.864635,-4.771745,-9.447645,-6.78817,-3.526354,1.046378,0.642434,2.928619,5.216366,39.212952,69.793854,88.864174,109.75399,73.563652,93.767509,107.806091,119.847908,60.762978,83.411522,99.16729,111.239204,44.53434,61.779099,74.138374,82.855339,25.947075,30.53318,31.396523,30.733452,-2.824155,-18.078822,-28.69659,-38.52284,-35.071949,-57.724069,-72.358454,-86.172731,-35.196438,-57.258317,-70.373579,-83.895623,-31.015997,-49.580054,-60.665148,-70.460925,-22.552516,-33.534796,-39.44851,-45.550408,42.85232,148.4828,-31.699791,55.189184
36,1.218575,-2.900545,9.508781,-2.009019,-21.698668,-41.673464,-58.233363,-71.300799,-66.934294,-93.218442,-110.865869,-124.459264,-63.942105,-88.882149,-102.449001,-113.522137,-55.940854,-73.231892,-80.456195,-86.237885,-45.183755,-56.66627,-61.952709,-66.024006,-14.545073,-21.262484,-22.655511,-23.014213,-19.649812,-23.820616,-19.432294,-11.123472,-13.418131,-17.877328,-13.92307,-8.208098,-6.812237,-12.479641,-9.888675,-6.478079,-1.681719,-2.974107,-0.41463,2.251112,37.233925,65.457001,85.080643,104.841156,65.12455,85.321884,97.752342,108.092537,48.230667,63.63636,74.431114,83.039474,27.570076,28.662872,24.831734,23.444023,6.070976,-0.693169,-7.79686,-13.491154,-2.513396,-16.615307,-27.867405,-37.632708,-34.72979,-61.666154,-79.456046,-95.15544,-36.164345,-62.400459,-78.090528,-92.98658,-30.975365,-47.053505,-53.893907,-59.797895,-21.033919,-30.29256,-32.042073,-33.891683,43.335555,147.517961,-22.92635,55.115871
37,1.218575,-2.900545,3.770885,-6.924784,-23.096629,-43.922555,-60.814484,-74.009693,-65.839021,-91.310373,-108.55545,-122.017372,-61.132,-84.474253,-97.656457,-108.482584,-51.749562,-67.029092,-74.10723,-79.95673,-39.823919,-49.67671,-55.042435,-59.401735,-13.928559,-20.533414,-21.78562,-22.151495,-20.139517,-23.605365,-18.593741,-9.962657,-14.75766,-19.471779,-15.39492,-9.551562,-8.852728,-15.511637,-12.989181,-9.429803,-4.409817,-6.590647,-3.757878,-0.714143,36.3521,65.067043,82.288227,100.344486,65.579853,85.3969,99.355717,111.800938,53.043766,74.830341,90.299549,102.68652,37.622395,54.519482,67.971096,77.664013,18.891621,23.70615,26.852703,28.096218,-0.880623,-11.995357,-24.941979,-34.706696,-32.478031,-56.747826,-71.175624,-84.857231,-35.679789,-60.034739,-74.786109,-90.464292,-33.590804,-53.944913,-68.023328,-81.740194,-26.768371,-39.933374,-47.365592,-54.922947,43.913032,145.625846,-19.796562,49.199517
38,1.218575,-2.900544,5.40659,0.772282,-24.49459,-46.171646,-63.395605,-76.718587,-64.743747,-89.402303,-106.245031,-119.575481,-58.321895,-80.066356,-92.863912,-103.443031,-47.558269,-60.826292,-67.758264,-73.675575,-34.464082,-42.687149,-48.132162,-52.779464,-13.312046,-19.804345,-20.915729,-21.288779,-20.629223,-23.390115,-17.755189,-8.801842,-16.09719,-21.066231,-16.86677,-10.895027,-10.893221,-18.543634,-16.089688,-12.381529,-7.137916,-10.207189,-7.101128,-3.679399,30.451241,58.179932,76.522636,92.643013,59.599571,81.199722,93.068275,102.500038,49.932632,70.843849,81.464882,88.805237,37.523689,48.443184,53.933144,58.537445,21.96373,28.838768,32.75528,34.796562,-1.42415,-13.086055,-24.420868,-34.068876,-28.734597,-53.23395,-68.870975,-82.800325,-31.930088,-56.207417,-71.469402,-85.445033,-31.701118,-49.277354,-59.321336,-67.515616,-28.822097,-41.694681,-48.4147,-54.851872,44.285459,143.99875,-15.23612,51.245247
39,1.218575,-2.900545,1.744194,1.727807,-25.892551,-48.420737,-65.976726,-79.427482,-63.648474,-87.494234,-103.934612,-117.13359,-55.51179,-75.65846,-88.071368,-98.403478,-43.366977,-54.623492,-61.409299,-67.39442,-29.104246,-35.697588,-41.221888,-46.157193,-12.695532,-19.075276,-20.045838,-20.426062,-21.118928,-23.174864,-16.916636,-7.641027,-17.43672,-22.660681,-18.33862,-12.238491,-12.933712,-21.575629,-19.190193,-15.333254,-9.866013,-13.82373,-10.444377,-6.644653,31.72657,59.913712,77.506027,91.607437,59.457321,79.494438,91.711006,101.281242,49.543762,70.862961,84.500313,94.068604,37.617416,53.356018,64.241753,72.027054,22.001038,30.408554,37.55619,42.501755,-0.304707,-10.787241,-21.131979,-29.05959,-24.336702,-47.384796,-63.080763,-76.845516,-26.165626,-50.138185,-65.864348,-80.205943,-25.851316,-46.109959,-58.743939,-69.217766,-23.257058,-37.84902,-46.635084,-54.997665,44.381426,142.189072,-14.614534,54.063921
40,1.218576,-2.900545,6.608162,9.916066,-27.290514,-50.669829,-68.557847,-82.136377,-62.553202,-85.586165,-101.624194,-114.691699,-52.701686,-71.250564,-83.278824,-93.363926,-39.175685,-48.420693,-55.060334,-61.113265,-23.744411,-28.708028,-34.311615,-39.534923,-12.079018,-18.346206,-19.175946,-19.563344,-21.608632,-22.959612,-16.078082,-6.480212,-18.776249,-24.255132,-19.810469,-13.581954,-14.974203,-24.607625,-22.290699,-18.284978,-12.594111,-17.44027,-13.787625,-9.609908,30.454102,54.005814,68.325119,80.3508,58.122368,76.521606,87.9879,97.969208,49.965019,70.614052,83.262177,94.260063,40.116234,58.147545,69.512215,79.284668,26.786728,37.505493,45.555267,53.074379,1.361936,-9.549701,-20.955435,-26.865011,-27.68802,-48.052596,-60.87121,-72.324923,-31.963372,-53.513463,-68.089123,-81.953047,-33.232898,-54.244495,-66.61937,-78.717233,-31.629611,-47.195161,-55.098472,-63.135535,42.52775,139.216032,-11.078625,63.907493
41,1.218575,-2.900545,2.788696,10.446132,-28.688475,-52.91892,-71.138968,-84.845271,-61.457929,-83.678096,-99.313774,-112.249808,-49.891581,-66.842668,-78.486279,-88.324373,-34.984393,-42.217893,-48.711368,-54.83211,-18.384574,-21.718467,-27.401341,-32.912653,-11.462504,-17.617136,-18.306055,-18.700627,-22.098337,-22.744361,-15.239529,-5.319396,-20.115779,-25.849582,-21.282319,-14.925418,-17.014695,-27.639621,-25.391204,-21.236703,-15.322209,-21.056811,-17.130874,-12.575162,28.212776,50.563545,62.54837,72.314529,50.581284,66.10714,75.852242,83.827057,43.033791,60.439224,72.256851,81.286583,35.000839,50.803299,62.224388,70.987129,24.27784,35.456429,43.452988,49.398079,2.57987,-8.935161,-20.323296,-28.090664,-29.162435,-46.268997,-56.843385,-66.421584,-33.346303,-51.278036,-62.877481,-74.87608,-34.452407,-50.156957,-59.200707,-67.98248,-32.032625,-41.857949,-46.741264,-51.99996,40.760475,135.56028,-11.275778,73.598417
42,1.218575,-2.900544,4.309845,8.201998,-30.086436,-55.16801,-73.720089,-87.554165,-60.362655,-81.770027,-97.003355,-109.807917,-47.081476,-62.434772,-73.693735,-83.28482,-30.7931,-36.015093,-42.362403,-48.550955,-13.024738,-14.728906,-20.491068,-26.290382,-10.84599,-16.888068,-17.436164,-17.83791,-22.588043,-22.529111,-14.400977,-4.158582,-21.455309,-27.444034,-22.754169,-16.268883,-19.055187,-30.671617,-28.491711,-24.188428,-18.050307,-24.673352,-20.474124,-15.540418,28.161964,47.616692,56.431961,61.786308,42.560005,53.2798,59.989815,66.67099,34.614143,47.883797,58.379517,67.242508,26.306763,39.18251,48.756981,56.540794,16.446762,26.143913,32.881737,37.932472,0.119796,-12.484945,-26.096836,-37.667937,-25.141958,-38.766044,-45.961387,-51.934319,-28.131265,-43.069029,-51.238578,-59.403526,-28.487379,-42.624086,-48.255909,-53.562153,-25.183825,-33.145892,-34.972871,-36.704754,41.279072,131.880368,-7.665911,81.021048
43,1.218575,-2.900545,-6.629448,-1.994044,-31.484397,-57.417101,-76.30121,-90.263059,-59.267382,-79.861957,-94.692936,-107.366025,-44.271371,-58.026875,-68.90119,-78.245267,-26.601808,-29.812293,-36.013437,-42.2698,-7.664901,-7.739345,-13.580794,-19.668111,-10.229476,-16.158998,-16.566273,-16.975193,-23.077748,-22.31386,-13.562424,-2.997766,-22.794838,-29.038484,-24.226019,-17.612347,-21.095679,-33.703613,-31.592217,-27.140153,-20.778405,-28.289893,-23.817372,-18.505672,15.338058,31.654243,42.556458,48.774605,41.911926,55.807343,63.78582,70.955429,40.538292,55.321426,63.271179,69.792252,36.301003,48.933792,43.716888,39.475937,30.299263,40.909882,39.271774,36.73851,-0.568814,-6.368598,-10.021073,-13.551406,-15.96103,-28.83843,-36.49119,-43.699099,-16.401403,-29.021922,-35.92815,-42.310981,-14.198365,-19.062383,-12.458269,-7.957282,-10.109283,-14.626727,-11.326322,-8.358011,41.717733,128.374345,-15.075274,78.421526
44,1.218575,-2.900545,-33.86816,28.881069,-32.882358,-59.666192,-78.882331,-92.971953,-58.172109,-77.953888,-92.382517,-104.924134,-41.461266,-53.618979,-64.108646,-73.205714,-22.410516,-23.609493,-29.664472,-35.988644,-2.305065,-0.749784,-6.67052,-13.04584,-9.612962,-15.429928,-15.696381,-16.112475,-23.567453,-22.098609,-12.723871,-1.836951,-24.134368,-30.632935,-25.697868,-18.955811,-23.13617,-36.735609,-34.692722,-30.091878,-23.506503,-31.906433,-27.160621,-21.470927,26.965656,54.158077,74.863644,91.033573,76.733723,101.284161,93.988781,82.955875,73.211918,97.662792,87.763424,75.645733,66.245899,89.204693,82.703075,72.387371,57.108021,77.291737,78.358326,73.707905,-23.299202,-35.999379,-46.162848,-58.453187,-12.122285,-18.660882,-30.690017,-35.927748,-3.448483,-10.467559,-24.480982,-30.150102,1.986665,-1.932047,-13.778092,-19.16106,6.336796,4.260902,-4.001488,-9.229278,42.285625,123.888405,-49.594116,105.717199
45,1.218575,-2.900545,6.989651,4.294556,-34.280319,-61.915283,-81.463451,-95.680847,-57.076836,-76.045818,-90.072098,-102.482243,-38.651161,-49.211082,-59.316101,-68.166161,-18.219223,-17.406693,-23.315506,-29.707489,3.054771,6.239777,0.239754,-6.423569,-8.996448,-14.700859,-14.82649,-15.249758,-24.057158,-21.883358,-11.885318,-0.676136,-25.473897,-32.227386,-27.169718,-20.299275,-25.176662,-39.767605,-37.793228,-33.043603,-26.234601,-35.522974,-30.50387,-24.436182,13.855991,32.228737,50.533676,63.15834,55.478439,77.817993,78.615646,72.140236,59.1465,79.848976,77.11338,68.733673,58.67157,78.420982,78.598366,71.787415,55.603981,74.011688,76.660995,73.190117,-17.123914,-28.653148,-36.968675,-43.171257,-19.967088,-21.052414,-23.05112,-23.306921,-10.098755,-11.6314,-15.859327,-17.890854,-1.780172,-3.72321,-5.620893,-6.386073,7.292106,4.064721,0.550598,-2.77423,42.966099,119.591498,-43.142567,108.615393
46,2.13438,5.605718,57.705917,-5.780703,-12.048855,-26.207943,-39.37869,-51.155376,-47.449722,-66.101274,-79.725551,-90.258493,-45.584678,-62.897386,-75.96528,-86.83402,-40.333786,-53.327408,-64.293852,-73.577385,-32.232456,-42.715015,-53.104791,-62.297172,-13.08641,-20.732222,-22.967494,-21.259046,-18.725256,-17.301415,-14.275491,-9.303857,-17.661328,-21.022974,-20.033099,-16.724775,-16.961927,-24.483884,-25.189228,-23.645128,-17.952496,-22.309528,-19.963476,-16.712996,-21.64547,-38.775787,-54.814053,-66.421852,-31.923294,-46.980457,-53.734875,-59.87257,-19.693451,-19.314995,-16.795692,-18.178596,-5.894165,3.548584,11.416855,12.904129,7.61055,17.896271,24.971581,27.746086,-2.756261,-2.596389,-2.381744,-2.496075,0.092286,0.885871,3.068224,4.622512,3.010549,2.794175,-1.752353,-6.505776,5.57106,3.467841,-0.749094,-4.450599,8.024775,7.827112,3.920688,-1.665964,45.092783,123.696279,14.555655,101.333754
47,2.134381,5.605718,-111.457043,31.231228,10.18261,9.499397,2.70607,-6.629906,-37.822609,-56.156731,-69.379005,-78.034744,-52.518196,-76.583691,-92.61446,-105.501881,-62.448349,-89.248123,-105.272198,-117.447281,-67.519684,-91.669807,-106.449337,-118.170776,-17.176371,-26.763586,-31.108499,-27.268334,-13.393356,-12.719473,-16.665664,-17.931579,-9.848758,-9.818563,-12.896481,-13.150275,-8.747193,-9.200163,-12.585228,-14.246654,-9.670392,-9.096083,-9.423082,-8.98981,23.065853,43.748817,57.613049,67.848873,72.931309,104.366169,126.005802,143.648701,70.245724,103.326015,124.021168,141.247501,61.059322,83.339138,85.602551,86.80418,48.516083,62.507973,66.341801,67.588692,-3.115895,-6.61773,-12.787491,-19.126573,-1.931954,-7.313348,-12.830192,-19.676275,-7.265708,-9.558717,-17.662903,-25.963578,-13.49793,-19.693658,-25.182466,-27.372414,-19.402504,-26.858465,-30.184775,-30.088012,47.33242,128.121978,-96.796131,131.384962
48,-6.827431,-1.154053,-33.625431,6.528748,13.796768,15.954552,12.40654,6.614685,-23.93589,-39.895477,-55.568504,-64.309387,-40.239601,-61.761932,-74.304829,-79.868202,-51.881676,-74.265461,-86.178303,-91.973648,-60.559387,-79.13744,-89.070225,-94.52837,-16.450433,-25.763383,-30.891415,-29.433581,-5.220596,0.126187,-1.135497,-0.853545,-1.320316,3.931618,1.247605,0.450562,-0.12384,1.721262,-0.128317,-0.822824,-1.193481,1.948225,2.629857,3.719536,22.758436,44.730492,58.473415,66.754704,67.244139,96.486855,107.256689,112.965288,63.527184,92.896328,102.244349,107.974033,55.304031,76.989784,77.002029,74.456234,44.778671,59.649181,61.800098,60.4216,4.788359,2.221131,-4.403252,-11.598889,1.245645,-6.40608,-9.615141,-12.195413,-6.260041,-12.085374,-15.525783,-17.999288,-13.29332,-19.890749,-21.36433,-20.570158,-19.048242,-24.920305,-24.842654,-22.827985,40.68572,126.628158,-130.240831,137.573944
49,11.789703,11.504133,-33.625431,6.528748,-13.134727,-31.1166,-48.97007,-66.830864,-23.610649,-21.934662,-27.968674,-35.632896,-16.907158,-17.789955,-31.211472,-43.785095,-10.743484,-15.82283,-29.438896,-39.942398,-5.358925,-10.02388,-19.762917,-27.80159,-15.291224,-20.899087,-16.354473,-12.6689,-18.131187,-12.336374,-11.270623,-8.64972,-13.6528,-7.533489,-9.027015,-8.460331,-12.047197,-12.272308,-13.990389,-12.923373,-14.203645,-19.37623,-20.162004,-17.213545,22.451019,45.712166,59.333782,65.660534,61.556969,88.60754,88.507576,82.281876,56.808643,82.46664,80.467529,74.700565,49.54874,70.64043,68.401508,62.108288,41.04126,56.79039,57.258396,53.254509,12.692612,11.059993,3.980987,-4.071205,4.423244,-5.498812,-6.400091,-4.714551,-5.254373,-14.612031,-13.388663,-10.034998,-13.08871,-20.087841,-17.546194,-13.767903,-18.69398,-22.982145,-19.500533,-15.567958,53.419104,137.893178,-162.922583,143.863578
50,0.912666,3.449409,-28.26848,-0.237215,-26.322212,-50.321732,-70.010948,-89.677906,-30.693741,-26.145172,-31.712723,-39.213753,-13.658867,-5.858688,-15.076218,-25.760765,0.688591,9.735031,2.321892,-6.749039,12.163353,19.590569,13.96946,6.57589,-8.510164,-10.359496,-5.750661,-1.148218,-15.077598,-5.989852,-6.111747,-5.578872,-18.442131,-13.35436,-14.900868,-14.501189,-21.915808,-23.893025,-23.870641,-23.32841,-25.75057,-34.378646,-34.348574,-31.793651,26.585626,50.858373,67.003698,78.491678,56.711998,76.458978,78.76296,76.765594,47.53644,63.236704,62.253227,60.187883,37.474222,50.05291,49.384231,46.843156,27.721595,37.990837,39.831648,38.961239,11.431175,11.646807,7.665233,2.578481,10.33245,3.200956,0.980736,0.611468,1.129307,-5.77374,-7.311279,-6.405339,-7.528131,-12.899228,-13.10424,-11.510709,-15.115713,-17.704815,-16.418323,-14.731734,54.551668,140.955087,-190.971164,143.238864
51,0.517502,-1.111168,-28.268481,-0.237214,-5.3508,-18.135109,-31.510735,-45.554352,-22.647858,-21.56044,-26.421547,-33.75,-20.619049,-22.886238,-34.366035,-45.906258,-17.686043,-22.957993,-33.669548,-43.538361,-14.155426,-20.110245,-27.764854,-34.669762,-16.157675,-21.961874,-19.234945,-15.54687,-15.255933,-7.56495,-5.748469,-3.115617,-9.631521,-3.596931,-3.997876,-3.256439,-7.455343,-6.443223,-5.775207,-4.120327,-9.256634,-12.629657,-12.206914,-9.128625,30.720234,56.004581,74.673615,91.322823,51.867027,64.310417,69.018345,71.249313,38.264236,44.006767,44.038925,45.675201,25.399704,29.465389,30.366955,31.578026,14.401932,19.191284,22.4049,24.667969,10.169737,12.233621,11.349479,9.228167,16.241655,11.900725,8.361562,5.937487,7.512987,3.064549,-1.233897,-2.775681,-1.967553,-5.710616,-8.662286,-9.253515,-11.537447,-12.427487,-13.336113,-13.89551,55.829515,139.041211,-218.4793,142.198941
52,3.912735,6.852011,9.010391,2.862626,-29.789429,-55.042534,-76.916084,-98.067627,-36.996803,-31.312866,-36.412125,-43.941536,-19.547882,-12.727661,-24.176102,-36.566048,-4.235001,4.484367,-4.374161,-14.851112,8.839874,16.357727,9.442062,0.275459,-8.467309,-8.579479,-1.912349,5.258295,-16.405355,-8.3862,-6.823884,-5.260209,-17.947171,-11.188557,-11.582494,-10.270853,-20.158298,-21.813457,-21.4742,-20.024825,-23.486954,-33.14759,-33.494936,-30.35783,25.521183,41.530781,53.150539,63.630524,23.407059,24.127235,26.903,28.647537,10.852776,7.500744,8.443394,8.233681,1.562004,-1.502953,-1.881008,-2.35611,-3.115311,-4.856243,-5.131874,-7.899284,9.368032,9.917981,9.712475,6.83151,6.292058,2.511266,-1.146335,-3.75671,1.035122,-4.626094,-7.507862,-8.444616,-4.706956,-10.598223,-11.458499,-11.122824,-8.972026,-11.85222,-12.035433,-13.016987,60.103941,145.64639,-209.107218,144.814735
53,-3.462868,-3.819078,-47.83453,-20.023868,-0.444832,-7.162056,-15.793076,-26.685104,-26.380463,-31.644173,-38.479729,-46.807251,-27.244492,-35.457802,-46.752548,-58.937874,-26.241074,-36.483879,-46.686745,-56.858025,-24.524002,-33.818321,-39.592209,-45.87616,-18.491562,-23.432151,-21.80475,-16.474825,-9.58669,-0.185436,1.245197,5.329802,-3.98954,3.375586,2.809273,4.633257,-2.650853,-0.736435,-0.19754,2.57987,-4.907367,-6.990054,-6.63465,-2.877291,34.573059,57.667923,74.750748,91.185608,47.288361,48.027534,46.449623,47.75219,33.647575,34.092808,33.01672,32.685757,20.391541,21.092033,20.784817,22.197075,6.850777,8.1954,11.156673,14.296989,13.910454,20.253024,22.341484,19.099711,23.744392,31.631402,22.325059,12.985649,16.597893,25.501253,17.116103,8.317256,9.324374,16.61858,10.73392,4.230613,1.993118,7.873394,4.580584,-0.544083,57.900066,141.824626,-255.682755,124.788181
54,2.09919,5.285465,2.874813,2.653415,-28.809814,-53.219719,-74.717216,-95.986691,-32.220726,-21.890373,-25.165443,-31.807022,-15.791016,-5.338211,-14.339104,-24.799347,-3.133278,6.605644,-0.384178,-9.25827,6.781082,15.270653,9.33506,1.384621,-7.780861,-8.462431,-1.596248,5.262185,-16.671685,-7.741402,-6.748178,-5.804168,-18.135139,-11.132395,-12.091163,-12.39127,-21.322047,-22.626061,-22.401073,-21.527398,-26.200638,-34.006724,-34.441354,-31.735636,32.726326,54.963055,71.741352,87.992935,40.220432,45.50766,48.59911,52.04195,25.42757,30.063229,31.991501,33.485126,10.270615,14.342995,17.607536,20.090675,-4.760857,-1.811657,2.63855,5.268745,11.520404,18.160487,18.256077,14.084466,21.807343,20.170402,11.493295,4.920242,14.984664,10.081187,1.995959,-3.497667,7.029821,2.458068,-2.968373,-7.008826,-1.454562,-3.950977,-7.090213,-10.174801,61.801586,146.388753,-251.005611,126.720259
55,-3.196907,-2.452603,1.536942,-2.458407,-23.990707,-46.081467,-65.556564,-85.393066,-34.206505,-31.049423,-36.467857,-43.625221,-20.080833,-19.142303,-31.880608,-44.664459,-7.174988,-7.258987,-17.933235,-28.598557,4.065285,4.859619,-1.690063,-9.423752,-5.758874,-5.579026,1.070382,6.662808,-9.094909,-1.524926,0.598485,4.125916,-10.714283,-3.567754,-3.958788,-1.920438,-14.756836,-13.685466,-13.600683,-11.872505,-21.074335,-27.103614,-26.541809,-22.204676,30.941963,53.182926,69.966087,86.350307,38.109627,41.780033,45.551376,49.294281,22.319469,22.429504,25.104847,27.72377,6.685867,6.031551,8.675079,11.127148,-8.000336,-10.73885,-8.610649,-7.275238,13.039217,20.277045,20.003799,15.961401,20.434138,18.067059,11.370968,6.433683,12.570346,7.68453,1.780017,-1.617429,4.035235,-0.74329,-4.776672,-7.285962,-4.437755,-7.823438,-10.238095,-12.821547,60.518618,143.77685,-247.554731,124.102551
56,5.3825,7.210596,-4.897842,-7.226682,-29.384193,-54.578476,-77.60479,-100.727119,-35.404129,-25.145302,-28.298035,-34.28421,-19.116325,-9.81205,-19.066429,-28.629112,-6.655884,1.45237,-5.980339,-14.103127,3.107758,10.35347,4.714737,-1.937485,-8.403428,-10.520726,-3.953508,3.743557,-20.124243,-11.466959,-10.063032,-8.678094,-20.82897,-13.830857,-14.018085,-13.393263,-23.548273,-24.514327,-23.775823,-22.021555,-28.102582,-35.101281,-35.451159,-32.476394,34.428635,56.758862,73.827267,90.777111,42.573338,43.746185,46.44659,50.485268,27.019215,24.544086,28.124313,31.561947,10.610046,7.309341,10.500469,13.537331,-5.36768,-8.7533,-6.339569,-5.263367,15.315986,24.900885,26.279648,20.255154,23.944679,29.075645,21.080325,13.617695,15.034774,18.305817,10.697703,3.63676,5.262185,8.2786,3.773938,-1.09008,-3.704222,-0.795623,-2.267877,-5.466517,67.398834,150.83415,-250.954857,116.722574
57,-2.317085,-2.551712,5.459976,4.101617,-7.785988,-20.099831,-30.54039,-39.334145,-34.734879,-41.481171,-48.624458,-56.165657,-29.885674,-36.862335,-48.092308,-59.482727,-22.71595,-29.082985,-37.951126,-47.026405,-15.386238,-20.268517,-25.033836,-30.999069,-16.501377,-22.796863,-22.686329,-20.008677,-11.39008,-3.607027,-0.709512,4.011369,-8.23346,-2.291928,-1.985152,0.453989,-8.820058,-7.882749,-7.795681,-6.104275,-12.817193,-17.383605,-16.691538,-12.462376,34.906425,54.828243,70.618801,87.672157,39.49585,36.567421,36.767006,40.051975,23.223438,19.919472,19.832211,20.912876,8.706551,4.898129,3.297157,3.329086,-4.83427,-10.590763,-11.880512,-13.279324,14.796479,20.816558,20.952224,16.27463,19.322136,22.197421,17.217188,12.806264,10.038826,12.831365,8.39713,3.792247,1.302532,3.068131,1.502851,-0.510244,-6.671515,-5.739454,-6.516768,-9.480788,66.583414,147.799364,-243.993216,120.341117
58,-1.583405,-0.473934,-6.531029,1.290059,-29.041443,-53.003883,-74.608154,-95.949039,-32.497215,-23.433723,-27.676964,-34.257317,-15.917931,-7.759781,-18.090363,-28.969574,-3.303337,3.954391,-3.620682,-12.510338,6.450233,13.609428,8.026886,0.434532,-7.666622,-7.595486,-0.882475,4.806776,-12.318127,-3.702925,-4.15889,-3.304079,-13.127983,-6.481755,-8.471045,-8.689981,-16.184598,-17.580373,-18.819519,-18.716272,-21.755751,-29.973835,-31.994772,-30.226888,37.617817,61.478119,79.420853,96.943588,45.280151,48.023701,49.835587,54.167461,28.426437,29.247437,32.307644,34.933834,11.462917,11.422176,15.498962,18.975391,-5.110474,-6.627674,-2.132034,0.709934,11.695806,18.319093,19.180573,14.316771,19.05065,21.958107,15.310027,9.964324,10.386759,12.065876,5.780147,-0.026522,1.510199,2.320148,-0.473379,-4.158057,-6.456283,-5.044453,-5.787218,-8.425288,66.368065,146.793018,-249.156189,121.098764
59,2.088661,-1.06538,3.987637,-1.197927,2.797966,-0.644646,-5.169525,-9.666023,-34.264641,-51.536865,-64.819565,-76.520576,-39.480515,-58.130035,-72.077866,-84.656754,-40.238228,-58.535843,-72.123985,-84.418144,-38.222237,-53.780708,-63.991013,-73.786926,-19.85745,-29.631398,-32.357247,-24.999376,-14.659208,-6.655274,-1.452493,5.132138,-6.319908,1.161587,4.418551,8.057873,-0.834866,4.300978,6.828916,9.835482,1.425138,3.144763,5.970833,10.35999,38.598289,59.868622,76.531448,93.317184,45.291939,39.767876,39.547348,43.813133,28.340206,21.38752,21.290989,22.76207,13.060741,6.942844,6.075439,6.863365,-1.045361,-6.465626,-6.533489,-7.581139,13.487618,19.755007,20.550043,15.141911,20.87837,26.809003,22.133262,17.657808,12.154828,18.834864,14.732691,9.420025,3.420849,8.345661,7.264041,4.720665,-4.548844,0.026861,-0.499221,-3.409086,69.568892,145.276319,-244.056387,119.449518
60,-1.91906,3.576028,0.996037,2.395268,-31.148529,-56.331253,-78.478088,-100.688324,-34.902763,-23.350296,-25.045509,-30.256805,-16.609154,-2.413445,-7.042694,-14.337273,-2.843399,11.320496,7.415428,0.724869,7.588921,19.179726,15.202332,9.198303,-7.377569,-8.12444,-1.052659,7.429254,-20.895568,-12.147695,-11.444296,-11.543066,-22.161976,-15.216876,-14.949157,-15.34189,-24.398483,-25.257215,-24.353498,-24.031964,-27.76527,-35.294683,-35.856828,-34.520518,36.707153,59.408684,76.552277,94.221325,45.438251,46.87603,48.031025,51.54356,28.974209,29.536972,29.361477,30.4529,12.385998,12.743053,12.754154,13.945599,-3.653584,-6.756878,-5.745049,-4.991798,13.17019,19.431589,20.303072,14.91396,21.067357,23.973579,17.397468,11.831935,12.345266,14.747079,9.173826,4.379494,3.703481,4.969426,2.542388,-0.12347,-4.473539,-3.774463,-5.306522,-8.214132,68.110743,148.70268,-242.59944,121.695118
61,0.48111,-1.686033,-0.68819,0.063232,-30.212631,-55.012207,-77.059479,-98.6796,-35.729027,-25.199318,-25.524216,-28.496017,-18.493309,-10.042419,-14.408455,-19.064255,-5.342102,2.036362,-1.497917,-6.013412,4.883652,11.236839,8.226585,4.222412,-7.764435,-8.006929,1.02129,10.78613,-21.562781,-13.678766,-10.879929,-9.344813,-19.158621,-12.037131,-11.359081,-11.186334,-18.959599,-17.38728,-16.21572,-14.376175,-20.944443,-24.326173,-23.696937,-20.030815,36.162243,59.974766,77.833958,96.19463,46.709862,47.057648,50.097313,55.303688,31.385708,29.963722,32.099361,34.416447,15.904541,14.403248,16.99688,19.573002,0.744495,-1.358585,2.340431,4.590855,12.77545,18.9755,20.625409,16.18222,20.118624,23.255915,17.501827,10.878786,12.92504,15.476815,9.647884,3.110831,4.847469,7.247244,4.840152,1.183014,-3.492634,0.93416,1.198328,-1.32325,68.696537,146.976941,-243.182945,121.718645
62,-1.666946,-1.478675,5.153961,3.312354,-23.493462,-45.452156,-63.72654,-81.664581,-41.261559,-49.978981,-60.417252,-71.671143,-28.076706,-32.123909,-44.626579,-57.360535,-12.75444,-11.369247,-18.576622,-26.685562,2.677345,3.00396,-2.597809,-9.437828,-5.957803,-7.195621,-1.456383,3.780731,-9.025502,-1.831702,1.255015,5.193518,-11.696053,-3.714287,-0.311963,2.697196,-14.241467,-12.704962,-10.670317,-9.122018,-17.695136,-25.728525,-26.312993,-24.024801,32.265701,56.034107,73.479023,91.396751,45.93132,54.746189,62.520561,70.953655,32.365608,38.059559,44.121838,50.250549,18.19313,23.39201,31.123924,37.340698,4.889202,6.823368,14.13763,19.797821,11.077468,16.689685,18.174227,13.066418,20.861914,22.157499,19.377248,16.364322,14.833777,15.404844,11.131315,6.103503,6.51013,6.312467,3.838344,0.771479,-2.960593,-1.300711,-1.833401,-4.636777,67.054596,145.479648,-238.003979,125.012381
63,3.772087,3.995869,6.244411,1.815092,-32.110519,-58.540535,-80.449448,-101.754684,-41.038399,-33.39077,-35.695038,-41.083946,-23.454094,-16.120834,-24.748878,-34.606705,-8.520241,1.223145,-4.98024,-13.331223,4.016991,13.29586,8.703232,1.402931,-7.072398,-9.000308,-3.425048,3.87595,-21.738677,-14.760047,-13.210451,-11.394834,-23.567353,-18.340922,-17.778283,-16.180615,-26.345937,-28.031383,-25.827172,-23.60567,-30.287713,-38.105685,-37.051976,-33.573761,29.440498,51.053925,67.140999,84.446011,40.356903,40.274563,41.710796,45.630741,26.831474,22.653008,20.956764,21.200008,13.162136,9.557419,6.981354,5.810566,0.049095,-5.158482,-7.333031,-9.132042,13.11199,17.770009,17.187826,13.490705,16.956879,15.498582,11.835979,7.909672,9.518456,7.605983,5.168633,2.424414,2.570176,0.755455,0.143384,-0.625779,-3.435731,-2.44439,-2.552114,-4.733941,70.888796,149.478651,-231.697454,126.830607
64,-2.599754,-3.764367,-0.659809,0.425491,-28.977699,-55.209618,-78.061867,-99.103546,-40.89901,-42.19265,-49.644012,-58.706703,-24.218674,-19.952202,-29.120293,-40.686607,-8.383026,1.695328,-3.084526,-11.936073,4.797935,12.856636,9.109955,2.059479,-7.50039,-6.480644,1.088536,8.081462,-8.888663,1.949646,2.834653,4.920026,-12.274531,-4.336917,-6.214438,-5.717532,-15.858154,-16.841653,-18.60753,-18.497552,-21.02512,-30.722929,-32.045284,-29.463715,28.396854,51.329899,68.325233,86.776485,41.594868,43.123398,46.146069,50.801697,29.225693,26.250286,27.152824,29.482555,15.290279,12.610645,13.364868,14.723282,1.27121,-1.633244,0.11507,1.195164,10.274898,14.887469,14.635712,10.136979,15.900422,17.664508,15.122861,11.607966,10.212314,12.227878,8.931302,4.763674,3.479636,4.497746,2.223694,-0.130077,-3.524837,0.423577,-0.04517,-2.317771,68.349152,145.695389,-232.297153,127.237202
65,-4.62307,-7.311588,-1.096115,1.252607,7.735863,6.174545,1.653442,-4.666786,-25.749092,-40.387802,-52.593269,-65.03437,-33.414917,-48.530731,-62.656631,-77.658691,-37.931442,-55.640717,-70.379448,-84.718952,-39.713745,-56.958275,-70.225868,-82.393456,-15.767227,-24.4841,-27.383776,-23.470683,-6.304316,0.745729,7.062796,12.21099,1.548484,8.994287,13.419816,17.459775,6.53026,12.116079,15.333584,18.623276,8.591551,11.188218,14.639078,19.456598,28.692055,53.557434,71.006298,86.881313,45.815334,57.859325,68.924389,79.810238,34.542503,45.539303,54.18869,61.301479,22.471447,31.240196,38.236713,42.967014,10.471916,17.568054,25.228901,31.145611,8.500963,13.173154,13.862782,11.662553,19.659973,17.285175,14.073783,11.116186,14.9302,14.26416,10.442674,6.726349,7.954873,7.64924,3.938441,1.257146,-0.618091,1.141395,0.116214,-1.695419,63.765192,138.368795,-233.354158,128.474804
66,7.23793,9.789447,-1.475086,-0.653844,-31.661224,-57.529221,-79.860878,-101.560478,-38.344002,-29.211159,-31.027107,-35.775032,-21.545219,-13.246193,-20.171814,-28.009987,-8.329697,0.13607,-4.855957,-11.406212,2.290535,9.635124,5.321274,-0.434532,-7.968767,-9.440835,-3.026943,4.003835,-20.952316,-12.38599,-10.628018,-8.737869,-22.887883,-17.06593,-17.029374,-15.960876,-26.46669,-28.447025,-27.221835,-25.069494,-31.466466,-38.644705,-38.379301,-35.008964,25.121956,47.591915,64.003773,79.172974,46.091137,64.680347,78.887959,92.086716,38.016644,57.371464,71.510696,83.540497,28.036537,44.927845,57.086964,66.706924,17.161274,28.389359,37.547379,45.586739,9.165367,14.451418,14.709411,12.714132,21.948597,20.580887,16.433977,13.07883,16.136463,16.515858,11.97782,8.192088,8.613503,9.250613,7.43546,5.893892,-0.906465,-0.29316,-0.285287,-0.516944,71.013765,148.131658,-234.818602,127.794376
67,-2.523079,-2.527136,2.906227,0.671134,-28.92231,-54.377747,-76.077576,-96.481361,-39.877167,-42.274818,-51.880188,-62.876244,-23.948708,-20.207634,-31.832314,-45.679207,-8.611565,-0.189972,-7.273064,-17.546654,4.619408,11.416283,6.73851,-0.788155,-6.938338,-6.17146,0.851785,5.586313,-7.290593,2.885412,3.504768,5.211673,-10.96357,-2.62643,-4.048913,-4.047678,-15.434454,-15.8333,-17.655925,-18.083824,-21.464134,-30.950727,-32.674891,-30.886537,27.703342,47.701492,63.159485,77.124825,45.504684,58.241444,68.787117,78.425274,31.933594,39.459229,44.142437,48.015862,16.037064,21.250362,28.699493,34.002342,1.118832,5.118713,11.58617,17.519073,5.005488,9.784909,12.881136,13.069475,19.662566,18.376799,12.128398,6.012977,14.253601,14.932299,6.623627,-0.93663,6.761145,6.954362,1.633206,-3.622403,-2.072406,-1.167886,-3.976047,-7.347743,68.548422,145.575994,-231.854639,128.436982
68,-1.096458,-2.183001,5.965233,1.655498,7.582855,4.372444,-4.542503,-13.710938,-29.392662,-50.833397,-66.455612,-81.022911,-39.698524,-60.725555,-77.352676,-93.542175,-44.97345,-65.1408,-80.561829,-94.822826,-46.966782,-65.309258,-78.662224,-91.681538,-18.296894,-27.976333,-33.284645,-32.499612,-8.50155,-2.347133,3.255605,6.446434,-0.838571,6.17887,11.824401,14.973487,3.703234,8.888663,12.963943,14.995841,5.775578,7.693916,11.046963,13.704022,26.184654,44.738674,57.294102,68.600121,43.954411,56.663189,67.16526,75.564308,31.040611,38.344746,44.956684,51.260548,16.241112,21.276855,24.248371,25.702858,2.335796,5.755463,8.532715,10.931053,5.128711,8.518006,9.170152,6.844941,15.635235,13.331142,7.846717,2.398448,10.854951,9.597403,2.828786,-3.67699,3.41205,1.184435,-3.810803,-7.66301,-5.215996,-5.142636,-7.617562,-10.446842,67.515993,143.381076,-225.825377,130.080562
69,8.358078,7.639823,6.293936,2.902532,3.226089,-0.854073,-9.919167,-18.265572,-31.741447,-47.396622,-61.130333,-74.319992,-42.602577,-62.49321,-79.829063,-97.460403,-48.231697,-68.216171,-86.400833,-104.121952,-50.967979,-69.189377,-79.857788,-92.011814,-25.336997,-36.746837,-43.120498,-47.618521,-21.460831,-11.840333,-9.659493,-6.101126,-11.876395,-3.756833,-1.75717,-0.381062,-6.883565,-0.803002,3.253382,5.083788,-5.645778,-1.873631,1.231303,3.630492,29.715128,52.399864,68.892803,82.033968,44.722681,61.157742,70.368576,76.87397,31.745882,47.188282,54.028473,58.398228,18.130274,31.526012,38.293734,41.03385,5.495882,15.033274,21.703176,26.09436,4.526043,4.97696,3.401197,-1.305126,15.178915,9.609892,2.796846,-2.581445,10.287727,5.126596,-2.906607,-8.877795,2.72063,-1.743955,-7.563376,-11.201648,-6.389223,-7.991152,-11.013495,-13.477089,75.981388,150.751003,-219.424124,132.713198
70,-3.281822,1.312382,6.293936,2.902532,-0.554123,-11.056137,-25.309639,-38.687096,-32.247162,-59.677277,-78.941231,-95.412254,-39.305534,-67.7528,-86.4077,-103.059196,-44.472771,-69.531097,-85.748291,-99.619102,-47.366524,-67.331657,-79.500732,-92.215233,-23.859587,-35.733327,-40.668296,-43.01969,-6.720668,-6.906166,-6.945625,-5.667823,2.125017,1.158746,-0.026429,1.366351,6.888444,4.181244,2.410304,1.548824,9.114361,5.639542,3.380032,2.615192,33.245602,60.061054,80.491505,95.467815,45.490952,65.652294,73.571892,78.183632,32.451153,56.031818,63.100262,65.535908,20.019436,41.775169,52.339096,56.364841,8.655968,24.311085,34.873638,41.257668,3.923374,1.435913,-2.367758,-9.455192,14.722595,5.888643,-2.253026,-7.561338,9.720503,0.655789,-8.642001,-14.0786,2.029211,-4.672345,-11.315948,-14.740286,-7.562449,-10.839667,-14.409428,-16.507336,72.695818,151.509869,-213.133936,135.062215
71,-2.853813,4.1035,4.66753,-3.852979,-0.46978,-13.177299,-27.870598,-43.041,-30.07988,-58.694572,-79.997749,-98.949223,-37.528725,-68.031807,-89.248238,-108.854942,-43.227539,-68.841019,-88.775883,-105.178757,-46.397324,-67.375259,-81.082764,-93.352261,-24.182511,-36.739612,-42.394498,-45.447593,-6.862817,-7.043437,-8.956712,-8.997282,5.824731,6.745924,4.832711,4.430901,13.98863,13.297951,12.308092,11.312675,18.177407,18.644364,18.3726,18.458063,35.560284,62.020855,78.64769,97.025642,49.814186,59.405079,70.433407,81.818619,34.504681,44.406567,56.867466,68.322601,19.093552,27.825794,42.21199,54.115391,3.960743,9.822636,19.034386,27.943096,-2.347164,-2.088553,-2.201526,-5.320138,4.519297,10.120954,6.187515,0.614447,2.892266,8.327846,2.727022,-4.620814,-0.394153,4.744099,1.105425,-4.738233,-5.612526,-0.442411,-2.456555,-6.571664,69.747591,155.271519,-208.56082,130.867386
72,1.958427,8.2606,3.624573,-0.820416,-2.922707,-18.247147,-35.675812,-54.195328,-31.465073,-61.593704,-84.741096,-104.811172,-38.533859,-71.340866,-94.445744,-114.972153,-44.253845,-72.658653,-94.699802,-112.924862,-47.551003,-70.4179,-86.229401,-100.408058,-26.367766,-39.985553,-46.491453,-51.589845,-11.28495,-11.363064,-14.041117,-16.571341,4.606889,4.194458,-0.758851,-5.14171,15.370172,14.705243,11.289766,7.950057,21.403372,23.700858,22.659437,20.881458,35.41254,61.422329,80.508785,97.154331,51.132431,71.447525,74.144382,74.892597,37.033539,58.452473,58.258266,55.893459,24.143715,43.654804,42.256165,38.848286,13.76152,25.86565,24.786873,22.545433,-3.055256,-3.478246,-2.40595,-3.97648,-14.884165,1.905216,7.107164,5.93616,-9.55072,8.964493,11.825389,6.839723,-1.266902,14.237113,14.145537,7.861877,9.271454,20.958213,19.524307,12.947147,71.492357,163.006252,-205.149908,129.521103
73,-3.185921,7.974201,22.077599,1.044817,-4.885941,-23.705406,-44.046249,-63.173332,-36.125793,-69.440804,-91.877975,-111.176548,-40.830345,-75.192261,-97.278957,-117.432919,-44.604263,-74.561577,-96.29837,-114.559135,-47.001343,-71.644936,-87.270527,-101.912384,-26.727431,-41.24557,-47.42481,-51.644,-13.001302,-17.162848,-18.893959,-19.055251,3.822104,-1.586677,-6.062347,-8.565338,16.095368,11.684845,8.36292,6.136138,24.271123,24.737462,22.382363,20.524417,31.162205,59.226551,82.315578,95.268173,47.069206,74.019985,66.817131,61.832943,31.641884,60.566769,53.897209,48.132648,16.799412,44.146385,38.960724,33.390884,3.991985,22.549324,22.615471,20.504036,-3.415014,-2.037825,-2.541338,-10.118052,-18.443119,9.248544,12.712372,7.255056,-14.542037,16.406405,16.096974,8.546381,-6.123294,20.719486,20.827117,14.179624,6.053702,25.108767,26.422631,23.281511,69.002609,169.932286,-182.376137,129.517753
74,-0.089722,7.011512,2.411098,6.711776,-7.556877,-28.408585,-50.526695,-70.362053,-39.865036,-70.965157,-93.270721,-112.737122,-43.711052,-76.679306,-99.260845,-119.8522,-45.737343,-75.761719,-97.428589,-115.409546,-45.980301,-70.50499,-87.858238,-103.91098,-26.973074,-40.760953,-43.906488,-47.137671,-15.872696,-17.290239,-17.364957,-16.469267,1.843559,-0.907361,-4.243674,-6.872759,15.986008,14.653558,12.177181,9.946139,26.979249,30.66544,29.964387,28.618784,30.027065,58.596897,81.273766,102.74437,50.175362,70.913086,84.261417,94.554405,38.600521,59.395981,76.365566,90.413189,25.616341,45.753479,61.963692,74.741478,13.931637,28.496876,40.579777,51.508026,-5.872402,-8.283139,-11.726341,-18.472018,-21.326493,-7.621328,4.420959,14.896978,-14.783728,0.66394,10.359558,19.233648,-4.045578,9.473007,18.581255,26.567003,10.164488,20.820078,26.899776,32.231122,69.275265,176.123167,-179.602661,135.408897
75,-3.211555,11.323173,6.746292,8.745093,-8.608932,-31.704254,-55.232277,-75.864143,-41.138077,-72.934227,-96.272106,-116.038628,-44.206123,-76.837234,-100.056553,-120.048866,-45.147514,-74.672699,-97.174931,-114.970665,-44.123611,-69.102745,-85.698795,-100.475407,-28.096993,-41.184931,-41.344618,-43.094501,-15.586854,-15.360971,-14.95033,-13.009515,2.610746,3.207008,1.949461,2.285197,16.52194,18.13554,17.820304,17.864271,26.992772,31.786025,32.528944,33.161638,31.32803,61.128731,85.385513,106.678677,56.741581,78.318157,93.541946,105.988197,44.200172,68.768234,86.405125,100.261974,30.828667,54.694977,70.864563,83.981209,17.626419,36.628246,50.216389,62.824802,-7.942647,-11.277879,-13.578082,-19.45104,-22.56712,-9.465072,1.086375,9.86963,-14.956938,3.219234,14.814727,25.280557,-4.197237,13.491292,25.307357,36.273365,10.426372,23.873759,32.513815,41.40007,66.693764,186.011214,-172.226315,142.718864
76,4.956322,13.350501,7.725277,7.168667,-22.03125,-49.977608,-75.978241,-95.945377,-73.529663,-119.799328,-136.157227,-138.355579,-72.880096,-123.674927,-138.507957,-139.111462,-68.67485,-113.46508,-127.538681,-130.828972,-62.738228,-95.234585,-107.745667,-112.409706,-29.998968,-41.991947,-43.340947,-41.138865,-14.821087,-8.155253,-14.035375,-20.799021,5.669676,13.948862,4.964424,-3.535273,21.335817,27.556801,19.65318,11.798836,31.390822,37.965327,33.694359,28.685722,32.70504,63.845558,89.353981,111.910343,60.62479,85.532627,102.66489,115.651016,49.311905,77.427635,97.412624,112.090759,35.895824,63.633041,80.895996,94.537754,21.924648,43.310738,58.371849,72.349892,-8.32871,-11.68009,-14.442742,-20.530962,-19.276719,-2.800443,9.20711,19.562839,-10.57587,9.050634,22.40132,33.962665,0.945831,20.090188,32.75563,43.822909,16.312483,30.332976,38.57894,47.1909,72.501926,197.969289,-163.649197,148.495106
77,2.90863,5.550868,10.074348,12.924361,-27.566185,-56.503029,-84.061775,-102.159519,-75.976524,-120.062428,-144.854851,-159.71077,-75.263214,-121.407623,-147.124214,-162.905617,-69.858513,-110.984802,-133.515816,-148.574181,-62.391472,-91.74305,-108.492222,-121.562061,-25.859838,-33.517877,-27.438178,-20.468965,-8.164825,-7.356944,-15.657249,-24.417718,13.150615,14.879071,2.834097,-10.056981,28.55759,34.70367,28.963598,20.988718,37.469347,45.351108,45.936131,44.568545,32.293224,63.874283,89.700336,111.273193,61.995392,88.009701,105.476646,118.878651,51.30106,80.021381,100.491486,116.186085,39.373627,67.542515,84.657784,98.019333,26.924,49.445343,63.740444,76.170158,-12.820374,-14.662697,-16.703178,-24.49361,-16.952773,-5.836587,3.653278,13.81931,-6.845959,9.288929,21.338843,32.901916,5.838131,23.712529,35.719279,46.187394,21.32532,33.743389,41.574576,50.61144,76.602545,201.960079,-152.38286,159.859389
78,1.447792,9.875249,10.264778,11.738877,-35.395088,-66.502304,-91.697273,-108.624001,-77.845688,-117.875004,-139.761143,-155.453911,-76.330948,-118.517761,-141.346893,-158.312302,-71.569633,-109.921589,-131.734543,-147.741966,-65.152359,-91.745682,-107.494354,-120.778084,-20.954941,-19.867578,-8.01965,-0.066382,-2.212579,-8.275111,-18.333389,-26.992649,14.551979,7.443765,-3.906208,-16.344099,27.775212,25.870891,17.046942,5.394886,36.580265,42.58469,42.338367,38.580299,30.615578,62.270679,88.245678,109.393044,62.866402,89.399242,108.051338,122.945251,52.941513,80.706539,102.717247,120.16983,42.099323,69.966831,88.819313,103.428268,30.539646,53.76852,68.843708,81.577835,-15.552582,-17.733854,-19.262053,-26.477959,-12.640556,1.214692,11.741717,23.089405,-0.20637,16.940361,29.7214,41.907905,13.609482,31.863521,43.796294,54.495171,28.696219,41.299911,48.982897,57.810859,78.769312,210.724423,-141.399107,170.487361
79,-1.886673,7.427772,10.76088,13.894028,-41.20182,-75.614662,-99.504089,-116.837711,-81.233597,-108.480091,-122.360516,-136.260509,-74.705315,-102.888107,-117.991905,-131.585884,-66.751785,-93.782444,-110.260448,-123.279705,-57.386971,-77.108688,-92.794018,-106.986122,-6.281931,4.043787,19.037776,30.035709,14.185305,18.134243,14.811763,10.509364,23.121083,24.880723,20.472485,12.279069,30.56701,33.072347,30.536999,23.101632,35.414108,41.873634,45.128621,45.175675,32.114124,62.115269,85.557003,105.97847,60.758114,85.579834,105.754395,123.529816,50.352001,77.518673,100.886421,120.2528,39.576817,65.623741,86.803322,103.88483,28.561134,50.974846,67.601624,81.727066,-14.359811,-18.755453,-21.433692,-29.283466,-9.202355,3.770604,13.738787,24.709551,3.226397,20.002502,32.680294,45.086446,16.78969,35.629432,47.883678,58.894023,31.075092,46.54604,54.764835,63.380438,77.566767,216.731735,-129.9541,182.960929
80,-4.031982,16.079128,18.051624,20.140329,-30.974236,-61.82888,-87.026939,-105.688763,-65.779953,-94.861794,-115.805511,-134.208641,-63.651924,-95.063553,-115.787773,-133.532352,-60.001831,-91.655731,-109.525566,-123.43935,-56.161652,-81.857529,-95.887642,-106.435146,28.909382,46.70406,59.319669,72.326405,38.746531,44.906073,48.400282,49.483693,20.711212,16.373986,8.819317,-3.005146,1.941495,-5.14807,-13.431085,-24.180906,-17.046263,-23.960518,-28.706285,-34.783451,29.093571,60.677891,84.6698,100.269012,65.260506,105.062199,117.926273,121.128674,57.159519,103.084431,117.37215,120.270939,47.296886,91.522064,106.577969,111.403484,36.35519,71.672859,86.688766,92.382545,-16.151191,-20.005034,-21.225654,-27.814053,-6.079452,18.603917,30.644815,36.1758,12.142169,37.107984,47.591784,50.620888,30.173907,51.524173,59.337823,61.119446,46.674049,61.055596,65.265307,65.436294,73.962765,231.695048,-111.474495,201.985443
81,-1.113853,10.672571,1.645718,9.858639,-34.092178,-66.361656,-89.912567,-103.645248,-62.889061,-97.107868,-115.539322,-132.270069,-57.571335,-94.276314,-114.90921,-132.583637,-53.285751,-87.867622,-107.80735,-123.030853,-50.017319,-75.655518,-91.013832,-103.515072,4.905453,17.227562,32.879995,46.863993,27.218902,20.252653,15.589941,12.437027,26.708782,15.000966,5.267372,-4.633627,23.739205,14.70197,7.852676,0.6364,17.879091,20.817669,23.183822,23.635958,34.737339,64.888573,89.096775,106.607094,66.712475,101.096191,117.401276,127.29332,55.708637,93.482437,113.041306,125.590439,45.339661,80.669174,99.871101,111.714592,35.793571,64.077587,78.114052,88.119621,-14.39717,-17.450852,-18.414405,-26.256646,-2.137058,16.876017,28.304228,36.888893,15.074572,36.604965,48.348535,56.027075,31.157714,51.287237,59.875299,64.203262,44.860686,61.043185,66.384472,68.632681,73.036337,241.934178,-109.641352,211.41064
82,-2.654114,9.084288,5.079231,10.896786,-34.347496,-64.997864,-85.863247,-97.305279,-52.844467,-82.586689,-104.211845,-122.784405,-45.814476,-84.08535,-107.216492,-124.744778,-41.780434,-81.725121,-102.932968,-115.837383,-41.819229,-73.435593,-90.54451,-102.288265,-2.792292,0.25225,-0.675303,-0.628619,44.815176,46.328308,47.908131,49.558905,44.600408,32.516655,20.980814,9.643624,34.401463,18.830665,7.581716,-2.343552,18.48159,10.537646,6.466565,4.551129,34.172459,64.458561,87.762051,105.56488,67.529011,97.710114,114.556618,126.14193,57.035351,90.916786,110.980453,124.735565,46.97691,78.081264,96.880417,109.410782,37.201023,62.690964,76.893196,88.229771,-12.512054,-15.343125,-16.402762,-25.244865,3.037503,19.635087,31.184082,40.645788,18.901925,38.992977,51.522321,60.09229,33.815699,53.193225,62.256024,66.904225,46.420996,62.839442,68.988425,71.337287,70.595856,250.640276,-104.348488,221.929236
83,0.553322,13.60269,6.436043,10.095698,-37.63607,-68.373985,-91.179943,-108.59436,-58.766441,-89.468193,-109.020882,-121.637192,-51.590309,-89.524956,-109.190712,-119.608727,-46.205864,-84.799061,-102.34314,-108.415375,-43.217697,-74.422302,-86.979733,-90.89138,11.63316,18.749525,17.636782,15.065248,45.284541,32.717777,21.875269,13.277697,35.640979,14.383647,-3.57504,-17.613688,17.442886,-2.925858,-19.129475,-30.216638,-4.080961,-17.402378,-26.190696,-31.770093,34.50428,64.913063,88.304901,107.132607,67.086582,94.415474,112.438087,125.93708,56.848354,88.370819,108.110847,122.485542,46.61665,76.76405,96.177063,110.149384,36.665325,61.873169,76.764965,88.996582,-13.056075,-15.190046,-15.367578,-22.863461,6.025605,20.766355,31.485424,40.993937,22.497836,40.714702,52.486615,61.269623,37.175662,54.327271,63.261074,68.992747,48.43233,63.065881,68.817006,71.848148,71.321726,264.111792,-97.739897,231.893761
84,-4.532318,8.661113,17.090321,20.214121,-36.90033,-64.272995,-83.152885,-96.531372,-61.782303,-86.138763,-97.205601,-101.868896,-53.274307,-81.980324,-93.939171,-98.036442,-45.009041,-74.596367,-86.322441,-88.329563,-37.777176,-63.449135,-73.374138,-75.731106,10.87573,17.27474,16.44432,14.930941,39.377126,23.478927,10.938962,2.139405,31.353586,12.590724,-3.122163,-15.324908,15.543258,-0.91545,-15.48972,-24.562523,-4.412437,-15.611245,-24.024677,-28.939763,28.555527,57.316303,79.397564,95.82819,64.518757,105.697689,117.225323,116.978817,55.027599,102.850971,116.029873,114.72147,44.424534,88.917675,100.66309,100.392895,33.780384,69.297295,80.847187,82.214069,-23.014193,-24.919441,-23.524684,-27.555874,2.91005,29.323665,33.134407,32.041054,24.128973,48.226269,47.317303,42.29508,40.408049,60.950497,59.433413,55.151763,51.053882,68.549873,66.885453,62.839442,66.960554,272.480053,-80.47843,251.815031
85,-9.813423,7.182067,-4.547367,-1.736175,-29.330177,-52.967033,-67.486496,-75.884171,-58.255005,-68.522415,-68.745232,-66.544876,-50.870476,-64.46022,-65.103264,-61.176796,-43.832245,-58.624191,-59.230614,-53.282204,-36.209679,-52.097397,-54.777374,-51.330528,4.89724,10.069887,9.471896,6.947477,27.284234,18.794417,12.711631,9.680056,23.399454,16.69725,10.336895,5.583843,14.947984,8.75343,2.780498,0.85691,3.579733,-0.790467,-4.132214,-5.348512,33.451252,63.122807,86.821289,104.588242,64.014187,97.328682,113.400879,125.39772,55.351009,92.302437,111.854782,125.854454,45.948944,80.856972,100.544128,113.770981,36.575089,64.417763,80.267944,91.738815,-13.865932,-15.9208,-15.395983,-21.461911,7.480321,27.521232,37.68677,45.517587,24.881896,45.258482,54.510176,59.632435,39.892125,59.585875,67.382791,69.597346,51.534609,67.482456,73.132063,74.852553,57.331152,279.417465,-84.841776,249.834201
86,-20.663338,6.952788,4.389381,4.868896,-6.766205,-16.463585,-24.291916,-28.140106,-32.070694,-25.619431,-12.877007,-1.37764,-33.897972,-28.901253,-12.521439,5.274239,-33.387451,-31.070595,-17.412758,-3.261681,-30.916557,-35.9618,-30.377426,-22.862434,-15.636501,-21.165324,-21.964375,-27.848077,-3.161127,4.581016,9.257313,12.181627,9.686602,15.729127,22.650298,26.902987,20.242897,24.481198,29.941787,33.666448,28.747657,33.726531,36.023708,37.00659,31.916485,61.100063,84.750023,104.115372,65.387249,95.936623,112.778549,125.094452,54.910469,89.7155,108.885841,122.720261,44.045219,76.608009,95.080833,108.28949,33.251324,59.154739,73.449554,84.50798,-11.344662,-13.173771,-11.994215,-17.681798,12.535087,30.372619,40.250154,47.15138,29.229187,48.762571,58.716923,65.697745,42.92691,61.947519,69.109332,72.669305,52.857118,69.486565,73.855531,75.096961,36.632338,286.352561,-80.487871,254.685406
87,-27.207985,6.079575,4.354134,5.936808,-5.199394,-6.241608,-1.562233,2.572975,-29.951077,-3.583603,16.784821,30.15873,-33.306599,-10.002594,3.502235,17.37854,-33.873024,-23.981037,-20.566978,-18.115883,-31.295414,-45.604191,-58.170204,-68.713989,-23.251871,-39.608937,-47.391218,-52.594493,-2.42747,10.534373,14.737045,17.717058,19.036294,27.447564,28.350849,28.028265,32.057171,42.695655,40.91502,40.338333,40.935336,50.455397,55.117368,60.733444,31.406937,59.499893,82.875366,102.296791,63.975277,93.549614,109.804001,121.290092,53.275108,87.46891,106.520691,120.132866,42.193966,73.85582,91.470566,104.009857,31.515141,56.038685,69.574699,80.388908,-10.727837,-12.690512,-11.466002,-16.744365,13.797018,32.079833,41.779464,48.618014,30.451845,50.009497,59.403279,66.142472,43.816734,62.858955,69.834282,73.243893,53.447266,70.268017,74.814638,76.060761,9.467096,292.434328,-76.090994,260.624406
88,-29.936543,0.199824,2.927742,6.302432,7.402554,16.3801,31.543293,44.131107,5.860519,35.104351,56.721439,69.679241,-3.134136,24.148121,45.211887,61.556797,-10.040588,6.339569,19.501934,27.091541,-11.791077,-16.982517,-21.242809,-27.374554,-22.727795,-32.800152,-39.467591,-46.504421,-7.025159,9.974482,22.250711,32.913278,13.662093,28.037466,35.879953,39.82142,29.162435,41.306271,46.672258,49.852219,39.958074,51.65107,60.285692,68.113607,31.100693,58.358231,81.522903,100.691071,64.611225,93.096657,108.96904,120.29583,53.870945,87.161064,105.843773,119.52095,42.424049,73.426094,90.909576,103.685989,31.117859,56.051388,70.144157,81.792412,-10.795207,-12.168783,-10.939394,-17.022613,15.564747,33.920489,43.690763,50.519865,31.868708,50.435575,59.498807,66.066457,44.613623,62.619734,69.815263,73.906722,53.658762,69.134465,74.017317,76.530435,-20.516939,292.620969,-73.210745,266.913655
89,-25.693531,-3.75282,2.926254,4.244353,13.641243,32.209282,47.421341,56.735573,27.281113,59.023361,76.675072,83.749123,23.982811,56.381149,73.061028,84.267654,16.91185,47.232285,63.213959,69.343414,10.689697,11.617699,4.085197,-5.061378,-25.556334,-38.455007,-43.714537,-47.831746,2.328917,21.151739,24.104891,25.256536,23.876538,46.053334,47.583324,45.793426,35.361497,54.399952,53.948988,51.899678,41.865236,54.65566,60.322866,64.787791,29.467335,56.104832,78.925438,97.650261,62.743835,91.341934,107.082138,118.485832,52.454567,85.5336,104.584007,117.887077,41.314087,72.108192,89.782906,102.213593,30.486488,54.907036,69.155846,80.812912,-11.82576,-13.596514,-11.769937,-16.833409,16.882624,34.913374,44.347726,51.042026,33.924688,52.308527,61.175145,67.096763,46.418834,64.207029,71.290727,74.975498,54.825659,70.586649,75.27437,77.064144,-46.252928,288.863642,-70.326948,271.1535
90,12.839584,8.475059,-0.157814,4.237684,13.101254,30.072784,40.341911,45.410156,18.647976,51.466141,67.645226,74.87606,13.684788,45.597038,54.26033,59.801102,5.538311,29.210587,33.872108,32.16774,-0.682983,-4.232712,-15.87038,-29.237022,-26.091402,-39.432516,-42.441058,-42.736349,1.799098,17.840806,18.260338,17.732866,19.780571,37.820275,36.997265,35.456346,29.985197,47.694598,42.701151,39.87996,39.062014,49.586939,52.456296,56.592585,28.318233,55.206985,78.31089,96.669617,63.144608,92.529831,108.61805,120.181961,53.649788,86.723099,105.970001,119.173279,43.046722,73.659096,91.648178,104.542923,32.872982,55.990448,70.236397,82.231636,-13.998695,-14.861719,-13.02168,-19.184927,15.504479,32.175731,40.704451,46.709185,32.536971,49.256081,56.495884,60.51596,44.868776,61.947705,68.031355,70.486305,52.982286,68.114718,72.601133,73.710479,-33.447275,297.330302,-70.518694,275.382786
91,3.931103,2.029427,0.375023,0.620283,10.167904,22.63979,31.861439,38.16885,11.161995,43.482227,61.000271,70.185528,7.254467,36.889172,47.345867,55.507793,0.899506,21.819592,26.261387,25.249958,-3.472195,-8.980236,-20.321217,-33.154507,-28.675101,-41.207038,-43.36398,-42.082782,0.944596,15.034867,16.731027,17.977583,19.212097,34.957093,35.467522,35.633816,29.69565,45.416378,40.263492,37.782607,38.554487,47.91128,50.509305,54.396,27.95145,54.762497,77.521019,95.741959,61.18618,90.705986,106.534538,118.060455,51.367493,85.089912,103.9468,116.668396,40.466309,72.217369,90.326729,102.810059,30.11261,53.989792,68.339653,79.198723,-13.543533,-14.354624,-12.143157,-17.973816,16.386336,33.789578,42.645884,48.839574,34.009039,50.573958,57.724038,61.307353,46.527392,63.383463,68.956191,70.582079,54.214268,68.900863,72.557537,72.530181,-29.648609,299.337499,-70.276108,275.980838
92,13.501625,-3.082272,0.700607,0.325301,4.617691,12.229671,18.026562,21.426144,-5.570126,26.014194,44.927731,54.977589,-9.795399,17.813358,27.0928,34.680004,-14.514942,2.132835,2.793217,-1.449165,-15.837193,-23.805714,-35.812626,-49.378796,-27.606571,-39.320995,-40.482459,-37.060066,3.806357,18.801642,20.692193,21.789991,22.006674,36.611202,36.595641,35.675004,32.42298,47.597773,42.885723,40.172472,40.694139,50.265268,52.979754,56.521758,27.007942,53.487511,76.786537,94.98951,59.464359,90.130348,106.284485,118.017769,49.656715,84.912758,103.869438,116.344414,39.16111,72.022133,90.299835,102.745743,29.533768,53.58942,68.19912,78.955307,-13.946825,-14.31671,-11.679288,-17.179706,17.23454,33.509479,41.138371,46.377091,34.812227,49.908165,55.881776,58.742796,46.672443,62.302337,66.802769,67.764099,53.45764,67.45967,70.381452,69.988411,-16.396523,296.242198,-69.825039,276.29311
93,-2.577667,1.261931,-0.034218,-0.157093,5.334549,14.10284,19.283924,20.919056,-1.178055,30.646992,49.294338,59.833775,-5.009308,23.106709,33.627262,42.737789,-10.133114,7.83514,11.124401,9.849701,-12.567616,-21.05484,-33.106556,-46.429195,-27.587182,-40.541183,-42.866457,-40.450719,2.93685,16.323783,17.243556,17.825924,21.340016,34.271973,34.088512,33.332131,31.681234,45.373647,39.961409,36.830786,40.30542,49.658693,52.362003,55.950628,26.892757,53.377132,76.349373,94.594231,58.681183,89.298363,105.485458,117.614136,48.92355,84.133415,103.298492,116.36776,38.291359,71.04229,89.812431,103.04718,28.145199,51.519184,66.266212,77.166824,-14.129235,-14.67832,-11.72418,-15.735055,16.720406,33.109892,40.122948,44.342724,34.188795,50.069642,55.84732,58.113807,46.014678,62.613312,67.037606,67.422311,52.684402,67.735509,70.921521,70.198856,-19.347982,297.472699,-70.233049,276.104586
94,0.255203,-2.471251,-0.121937,0.866544,2.991714,9.582767,16.409054,20.784588,-5.390568,26.210804,46.10281,56.600475,-7.65976,20.884609,33.145008,43.464832,-11.142311,9.108753,17.130489,19.293423,-12.270126,-20.434742,-32.100677,-45.573063,-28.469533,-40.322031,-41.519989,-37.990953,3.600914,18.414343,20.145454,22.214525,22.659252,36.976517,37.204376,36.992758,33.508923,47.452907,41.514493,38.214551,42.739436,52.259435,55.720855,59.906298,26.4398,52.897053,76.000385,94.160557,58.617096,89.157772,105.29108,117.209644,49.080391,83.856869,102.757587,115.391064,38.587246,70.871372,89.349232,102.199001,28.651943,51.684036,66.15057,76.635532,-14.591808,-15.031224,-11.594196,-14.780887,16.238382,32.429587,39.385771,43.527557,33.816687,49.389276,54.84122,57.050465,45.702159,61.835751,65.807105,65.974511,52.459692,66.810055,69.529544,68.517887,-19.254141,294.949083,-70.516348,276.918765
95,-24.314404,2.50861,0.249252,0.370811,8.554916,23.849773,35.334892,40.177116,21.244698,55.443993,73.655205,82.434082,18.741016,49.409752,63.075714,72.91626,12.671814,37.990837,47.434387,48.587265,7.437916,3.955936,-7.947407,-23.513546,-29.311624,-43.047077,-47.156752,-47.548249,-2.049434,14.272805,16.580727,17.621715,19.952978,37.068402,36.641151,35.425532,32.967063,47.007254,41.135222,36.505485,42.057094,51.217027,54.169376,56.516447,26.524258,53.111401,76.209126,94.479504,57.571507,88.270168,104.500294,116.276608,47.922077,82.872562,101.75005,114.07053,37.564716,70.047855,88.213406,100.414524,28.005009,50.987778,65.155277,74.901066,-14.317451,-14.811886,-11.29273,-14.268544,15.721778,32.266566,39.775293,44.596889,33.482988,49.426512,55.248649,57.888171,45.693082,61.848163,65.936411,66.247015,52.80463,67.263859,69.840272,68.432115,-43.749418,297.357256,-70.447969,277.18914
96,-2.107086,0.145793,0.812645,0.779043,8.374786,24.095936,37.134476,42.990646,21.725178,55.790176,74.486732,84.242477,19.900761,50.386963,65.559196,76.5168,14.317703,39.522285,50.183258,52.310028,9.318352,5.911903,-6.013069,-21.65205,-30.309881,-44.485059,-48.774427,-49.720876,-3.285925,12.131671,14.491957,15.600871,19.759144,37.087544,37.361716,36.302326,33.336763,47.823533,42.29965,37.643916,42.515838,51.791059,55.082911,57.583371,26.386013,52.352715,74.97076,93.074398,56.797142,87.489223,103.769131,115.652218,47.068863,81.979694,100.484676,112.460804,36.745834,69.407558,87.278194,99.184856,27.11689,50.695896,64.832325,74.34557,-14.382597,-15.320277,-11.857623,-14.183082,15.06284,31.787754,39.293084,44.058919,33.019304,49.211559,54.675729,56.969942,45.393778,61.797219,65.71343,65.960802,52.652662,67.136345,69.468966,67.79022,-46.122122,297.441824,-69.900942,277.906957
97,2.674599,-4.106032,0.587425,0.987204,11.352654,27.4617,40.146561,46.46656,20.359154,52.730942,69.419403,76.891136,16.248322,47.1492,62.726555,73.577957,9.208031,34.834671,48.208122,52.050133,3.153648,0.300636,-9.284191,-22.531929,-28.406857,-36.783979,-34.717749,-27.845113,-1.775571,13.90644,15.959085,16.890528,20.109948,37.530171,37.568457,35.657034,33.529609,49.167037,45.531419,41.581492,43.498225,52.752451,56.657856,59.836087,25.890198,51.232052,73.937931,92.330532,55.088711,86.115246,102.881527,115.206585,46.061325,81.739712,101.448383,114.315891,36.753902,70.443935,88.636837,100.523586,28.11676,53.232708,67.613354,77.119961,-14.87833,-16.419126,-13.676296,-15.355104,14.716729,30.62981,38.002747,42.546528,33.049809,48.760904,53.479624,54.978121,45.605458,61.428692,64.136942,63.257184,53.193719,66.834323,67.868828,65.398688,-43.681955,293.244586,-69.547949,278.802956
98,-3.233643,0.130726,-0.198212,0.296525,13.772278,33.585663,50.485725,59.138489,25.502014,59.131851,75.707588,82.94117,20.774002,51.232109,65.315323,74.560204,12.743683,37.553558,48.556595,50.64949,6.725349,3.558483,-7.485237,-22.424068,-28.545301,-39.592512,-41.51579,-40.952811,-3.547623,13.141043,15.55814,16.80908,19.935997,38.529602,38.381463,36.007653,35.077322,51.161575,46.872823,42.922897,47.077773,55.80218,58.956082,61.883608,25.66246,50.905666,73.942394,92.650623,55.147305,86.476421,103.342838,115.65897,46.42931,81.708813,101.073132,113.693218,37.496109,71.016941,88.738117,100.397587,29.189529,54.598217,69.617786,81.28149,-14.952862,-17.183534,-14.510853,-15.169977,14.31319,30.634812,37.949086,42.058761,32.411309,47.626364,52.456604,53.507967,45.108923,60.311442,63.479177,62.400953,53.14543,67.543033,69.498051,67.199639,-47.096815,293.284585,-69.927378,279.008754
99,0.341492,0.935457,0.559387,0.369638,12.286434,31.661282,48.443871,58.015366,24.473476,57.302742,74.160919,82.10392,20.03088,49.596291,66.187019,78.276329,12.459068,37.244911,50.700417,54.975128,6.802769,2.724266,-7.690887,-21.780739,-29.140266,-40.204211,-41.646824,-40.323143,-5.676962,11.179542,13.860806,14.787556,18.594099,36.814731,36.782312,33.771671,34.178606,50.063591,45.907356,41.072607,45.914828,54.866291,58.296897,60.595865,26.015339,50.836544,73.743153,92.871265,54.359951,85.15234,102.175884,114.723072,45.812416,80.828075,100.70303,113.417072,37.029819,70.721912,88.376141,99.486408,28.81588,53.901672,68.696537,79.713306,-15.00393,-17.62894,-14.791138,-15.032212,13.346796,29.67237,37.021286,41.18382,31.949601,47.206029,51.772657,52.439376,45.328013,60.733383,63.526045,61.845199,54.129114,68.951436,70.872986,68.203577,-46.797152,294.129223,-69.409819,279.287573
100,-1.744194,-0.313075,0.655174,0.885007,12.552567,33.424187,51.834526,63.301506,26.789188,60.028725,76.313324,82.974586,22.071476,52.996559,67.861862,77.08992,14.137402,39.616356,51.107597,53.015556,8.177319,4.08411,-7.326965,-22.957764,-28.375302,-39.481423,-41.221241,-40.342656,-4.562491,13.257258,15.14188,15.593091,19.705359,38.948949,37.125521,33.058577,35.151175,51.748451,45.788857,39.977649,46.695415,54.871046,57.914909,60.823044,25.543613,50.32568,72.997227,92.097759,53.594856,84.618816,101.778202,114.325047,45.062771,80.204372,100.240116,112.893505,36.442051,70.357304,88.158932,99.176388,28.565884,54.440117,69.278011,79.87215,-15.522757,-18.032849,-15.125763,-15.158738,12.868971,29.160459,36.715683,41.006534,31.528587,47.041402,51.445441,51.686268,44.80684,60.163612,62.563294,60.304835,53.396755,67.739708,69.089942,65.838228,-48.563061,293.755123,-68.77636,280.111555
101,7.34705,-0.454051,1.051197,0.22471,11.35128,29.42173,45.14883,54.957218,17.844887,49.945736,66.746235,73.900509,12.511654,42.019787,56.612835,67.552814,5.239906,27.066021,37.658901,40.378819,0.563221,-6.741199,-18.224831,-33.225861,-26.769668,-36.214641,-36.159497,-33.44884,-2.589936,15.270321,18.065207,19.58402,19.757785,38.062089,37.35375,34.233749,34.037321,50.839855,46.090075,41.516222,45.41045,52.850696,56.882751,61.058499,25.222263,49.35339,71.657181,91.10939,52.136822,83.812408,101.207428,113.58696,43.098564,79.508286,99.621964,111.645584,34.206047,69.587631,87.322083,97.425842,26.365185,53.873119,68.824539,78.439064,-15.584013,-18.33802,-15.148982,-14.604219,12.522984,29.596849,37.359617,41.956564,31.532539,47.621053,51.603523,51.851142,45.024634,60.524172,62.312402,60.039308,53.633073,67.48437,67.772621,63.913405,-41.230545,293.26907,-67.739697,280.304263
102,-6.273251,1.385247,-0.324097,-0.138259,12.560978,32.942734,49.96685,59.532623,25.004311,56.250458,73.403206,81.176834,19.304352,47.731018,63.699646,75.152779,11.330395,32.901535,44.37767,47.389984,5.486984,-0.513668,-11.525002,-26.166229,-27.178518,-39.00755,-40.463686,-39.303952,-6.053208,11.801306,15.300517,16.75795,17.999936,36.182777,35.669261,32.449039,33.560917,49.965963,45.115716,39.928002,45.280219,52.598075,55.700786,58.207791,25.203438,49.485397,71.644936,90.593948,52.898655,84.141197,101.323242,113.590164,43.32962,79.413071,99.052277,110.748482,33.748341,68.93074,86.428413,96.287842,25.168705,52.518196,66.951141,75.697517,-15.593214,-17.832778,-14.493995,-13.66586,12.572199,29.410671,36.960524,41.37716,31.441951,47.998348,51.976866,52.115619,44.743608,60.864479,62.508645,60.311257,53.005998,67.207852,67.015376,62.836725,-47.514553,294.58738,-68.074551,280.099066
103,-3.423672,-0.250274,-0.248852,-0.069037,14.822731,35.904579,53.766804,64.34309,29.382877,62.700977,78.907642,85.137234,23.068943,53.864651,70.098438,79.87112,14.160404,39.98148,52.642307,55.381222,7.370625,5.041866,-5.195503,-19.146194,-28.007764,-40.675367,-42.979275,-42.698928,-5.743344,11.67478,13.937315,14.386487,18.332215,38.305757,37.273845,33.564375,33.526151,51.167071,46.63564,41.683381,44.702049,53.861859,57.026814,59.48374,25.037327,49.748039,72.28529,91.191845,53.229561,84.256725,101.516819,113.508739,43.732052,80.01646,99.557934,111.156864,33.99868,69.306278,86.443462,95.954876,25.156345,52.354603,66.275082,74.126072,-15.27557,-17.390583,-14.173634,-13.568233,12.650313,29.368496,36.946939,41.261934,31.317154,47.60049,51.719428,51.984893,44.643263,60.504906,62.154321,60.107542,53.08121,67.368773,67.301404,63.294234,-50.906639,294.31875,-68.291817,280.011674
104,-1.094341,-0.429412,-0.16634,-0.298625,16.603317,39.044838,57.880096,68.327637,31.605778,63.873367,80.015259,86.138077,24.237442,54.093933,71.447296,82.34951,14.515285,40.241032,54.29409,58.216095,6.80088,4.846058,-4.577351,-17.399139,-26.856427,-38.938822,-41.190612,-41.591743,-7.089009,12.168289,15.098902,15.392834,17.128082,38.365222,37.270387,33.181646,32.63818,51.178124,46.760376,41.608786,44.033354,53.764293,57.17483,59.740868,25.092602,49.857159,72.300453,91.204834,52.700443,84.396973,101.726761,113.563156,42.947216,80.091133,99.984283,111.607704,33.179798,69.229889,86.87851,96.563988,24.495621,52.170982,66.489372,74.421272,-15.248894,-16.902385,-13.396999,-12.719041,13.026126,29.9366,37.211292,41.444221,31.861422,48.094988,51.762098,51.961243,45.08342,60.880781,62.172353,60.193252,53.112826,67.060021,66.777266,62.838825,-51.955032,293.875583,-68.412209,279.699294
105,3.366623,2.768086,-1.200771,0.173827,13.525887,33.443069,50.039177,58.99086,26.695862,59.294243,76.930733,84.637413,21.03281,50.53997,67.239189,78.633842,12.687836,35.790939,46.950531,49.007034,6.145306,0.583534,-10.986786,-26.556702,-27.416195,-41.070323,-44.01415,-44.227374,-7.734301,9.762493,12.424183,13.727734,16.227885,34.767767,33.662064,30.23578,31.652644,48.447829,42.831444,37.164238,43.395164,51.336329,54.224766,56.689719,25.024738,50.475826,73.196239,91.947041,53.604984,85.601292,102.811604,114.724674,43.735256,80.757008,100.404453,111.937008,33.906441,69.159222,86.818256,96.752529,25.287495,52.182713,66.257,73.943424,-15.74722,-17.413863,-14.128186,-13.643568,12.938193,29.686881,36.936379,41.182153,31.702538,48.364158,52.230536,52.376205,44.597938,61.066835,62.781335,60.782166,52.204292,66.594053,66.668585,62.733664,-48.55608,296.620095,-69.58065,279.849548
106,4.953747,-2.093524,-0.290165,0.483506,13.034649,33.591328,51.042538,60.96262,22.409077,54.072475,70.228901,77.043858,16.853714,45.476131,58.51553,67.318668,9.255867,29.89603,36.94891,37.237759,4.139957,-1.77475,-13.689022,-28.796253,-26.793627,-38.43216,-40.988194,-41.951624,-4.834687,13.536925,15.433713,16.25913,18.28405,36.909703,35.717179,32.464168,33.403824,50.075262,44.154138,39.414362,45.696663,53.818139,56.108833,59.183015,25.407829,50.69561,73.485832,92.499046,54.965801,86.202393,103.264847,114.977417,45.540733,81.715622,100.869827,112.273521,35.726738,70.425224,87.615051,97.291145,26.826496,53.445568,67.54715,75.617867,-15.828545,-17.853711,-14.517151,-13.984122,12.70311,29.337188,36.449354,40.410828,31.182908,47.417833,51.172566,51.322867,44.089918,60.13885,61.784683,59.77798,52.141801,66.452768,66.337912,62.377858,-43.522253,294.490586,-69.790735,280.297069
107,5.521603,0.29492,0.028152,-0.745698,11.562195,28.657837,42.636909,48.527641,17.150002,47.293396,63.753319,70.579834,11.584511,39.321098,55.07206,66.656685,3.967838,25.797672,39.441147,45.10231,-1.515026,-9.946918,-20.66597,-34.081364,-26.695691,-38.173055,-40.32623,-41.855973,-4.42911,13.429418,15.32108,16.64328,18.746808,37.322937,36.38711,32.981698,34.080176,51.180347,45.793982,40.939288,46.673987,54.851162,58.651962,62.72471,25.548077,50.520058,73.209572,92.730217,53.932571,85.576172,102.703629,114.253464,44.542465,81.085167,100.373955,111.453323,35.05846,70.474663,88.139992,98.000565,26.577587,53.740425,68.213882,76.682396,-15.461068,-17.31179,-13.567924,-13.068857,12.687857,30.310004,37.800391,41.91303,31.506974,48.19348,52.029662,51.93012,44.800541,61.010025,62.815236,60.847312,53.137156,67.679378,67.86043,64.114774,-37.846956,294.767599,-69.608889,279.533463
108,-1.45792,0.447567,-0.676632,0.756875,11.384354,28.603592,42.156773,47.001743,18.162861,47.900906,64.619694,71.971722,12.994995,40.108166,55.832806,68.115864,5.642109,27.116604,40.660343,46.262913,0.228939,-7.975216,-18.82925,-32.57515,-26.009274,-37.877147,-40.353832,-42.174852,-4.739344,13.073674,15.067348,16.391709,18.743041,36.885435,35.745523,31.917244,34.204418,50.582294,44.631469,39.04213,46.57179,54.286701,58.2462,62.296347,25.735645,50.783386,73.558102,92.847805,54.992695,86.069012,102.936001,114.605083,45.759888,81.433468,100.514545,111.996861,36.208477,70.440617,87.833233,97.947178,27.475147,53.838959,68.143215,76.950359,-15.732399,-17.779364,-14.20525,-13.618498,12.540212,29.443708,36.967502,41.214695,31.07571,47.306126,51.568201,52.066651,44.100168,60.061476,62.256333,60.642054,52.331498,66.578985,67.106149,63.772676,-39.102631,295.188289,-70.083275,280.263461
109,12.198029,-2.353432,0.858307,-1.045434,11.438828,23.361797,28.734112,27.751293,6.397533,34.757938,52.005558,60.278721,-1.567955,27.652531,44.45509,57.231159,-10.363026,11.775284,26.323757,33.508015,-15.962849,-24.22823,-32.986221,-42.996941,-22.139807,-33.359425,-34.452716,-34.119264,0.455162,19.086435,21.563367,22.121529,20.712447,39.371136,39.083565,35.131785,34.024971,52.417022,48.596154,44.388728,45.277502,56.356019,61.370894,65.791915,24.977531,50.063782,72.645321,91.906414,54.528809,85.32938,102.160549,113.716908,45.239296,80.557079,99.502201,110.555134,35.513763,69.631634,87.067852,96.886768,26.715832,52.877598,66.784573,74.898663,-15.986564,-16.723864,-12.197991,-11.434571,13.514572,30.949121,38.895288,43.372748,32.014007,48.725706,52.944062,53.404041,45.055509,61.311922,63.431011,61.858105,53.246516,68.095205,68.466881,65.17651,-26.658497,292.802917,-68.978863,279.186086
110,7.122288,-0.097072,0.15255,0.604845,8.272705,18.770714,24.888382,24.768562,-0.921707,25.671043,42.377701,50.153618,-9.649315,17.377739,32.617264,44.344711,-17.779541,1.33009,12.694702,17.35199,-21.827431,-30.907288,-40.541267,-51.546764,-21.397506,-32.372036,-33.815946,-34.30822,2.417096,20.415736,22.266519,22.463318,22.708714,39.901325,39.108512,34.690085,35.88724,52.560098,48.287896,43.637411,46.921051,56.339223,60.114026,63.47825,25.307236,50.638332,73.091183,92.205677,54.389305,85.094204,101.998959,113.915119,44.980831,79.888058,99.014568,110.304508,35.03334,68.768635,86.170979,96.009464,25.957832,51.484165,65.303135,73.348217,-15.833238,-16.611849,-12.101475,-11.271426,13.266088,30.651978,38.531393,42.878869,31.768796,48.849207,53.200697,53.377797,44.849262,61.6752,64.021592,62.15852,53.040702,68.756737,69.308107,65.600427,-19.243183,292.68326,-68.533287,279.768346
