takenoko1/special-research/HandMotion_SimilarSearch_自分用/NewProject/handData/key/d4_feature_d2/129.csv
,vel_0x_L,vel_0y_L,vel_0x_R,vel_0y_R,posFromWrist_1x_L,posFromWrist_2x_L,posFromWrist_3x_L,posFromWrist_4x_L,posFromWrist_5x_L,posFromWrist_6x_L,posFromWrist_7x_L,posFromWrist_8x_L,posFromWrist_9x_L,posFromWrist_10x_L,posFromWrist_11x_L,posFromWrist_12x_L,posFromWrist_13x_L,posFromWrist_14x_L,posFromWrist_15x_L,posFromWrist_16x_L,posFromWrist_17x_L,posFromWrist_18x_L,posFromWrist_19x_L,posFromWrist_20x_L,posFromWrist_1y_L,posFromWrist_2y_L,posFromWrist_3y_L,posFromWrist_4y_L,posFromWrist_5y_L,posFromWrist_6y_L,posFromWrist_7y_L,posFromWrist_8y_L,posFromWrist_9y_L,posFromWrist_10y_L,posFromWrist_11y_L,posFromWrist_12y_L,posFromWrist_13y_L,posFromWrist_14y_L,posFromWrist_15y_L,posFromWrist_16y_L,posFromWrist_17y_L,posFromWrist_18y_L,posFromWrist_19y_L,posFromWrist_20y_L,posFromWrist_1x_R,posFromWrist_2x_R,posFromWrist_3x_R,posFromWrist_4x_R,posFromWrist_5x_R,posFromWrist_6x_R,posFromWrist_7x_R,posFromWrist_8x_R,posFromWrist_9x_R,posFromWrist_10x_R,posFromWrist_11x_R,posFromWrist_12x_R,posFromWrist_13x_R,posFromWrist_14x_R,posFromWrist_15x_R,posFromWrist_16x_R,posFromWrist_17x_R,posFromWrist_18x_R,posFromWrist_19x_R,posFromWrist_20x_R,posFromWrist_1y_R,posFromWrist_2y_R,posFromWrist_3y_R,posFromWrist_4y_R,posFromWrist_5y_R,posFromWrist_6y_R,posFromWrist_7y_R,posFromWrist_8y_R,posFromWrist_9y_R,posFromWrist_10y_R,posFromWrist_11y_R,posFromWrist_12y_R,posFromWrist_13y_R,posFromWrist_14y_R,posFromWrist_15y_R,posFromWrist_16y_R,posFromWrist_17y_R,posFromWrist_18y_R,posFromWrist_19y_R,posFromWrist_20y_R,posFromBody_0x_L,posFromBody_0y_L,posFromBody_0x_R,posFromBody_0y_R
2,-9.759693,11.754623,0.715313,-1.331524,5.782585,12.289867,21.545677,31.747055,3.870277,28.625221,44.694328,55.813293,-3.732147,20.066872,38.47744,54.834824,-9.431133,11.901913,28.421631,42.657967,-13.097591,-2.366009,8.92416,19.904251,-20.137427,-36.06434,-47.746283,-60.792169,-15.449274,-6.968657,0.388657,6.191529,-0.041311,10.60304,16.334713,19.327138,13.161174,22.713345,26.287953,27.259966,23.034694,29.895906,32.115031,30.674764,26.850471,50.343819,72.87569,92.230453,49.544277,81.403427,98.490944,111.305809,40.940323,77.225876,97.87571,111.311989,32.692909,66.754875,86.437912,99.181252,25.582409,51.562614,67.148209,79.317741,-13.242932,-16.303714,-14.380806,-15.834596,12.896882,29.907207,37.578645,42.709055,30.132472,45.707284,52.597457,56.098459,42.402341,57.891752,63.149862,64.381535,50.392165,64.600564,68.581181,68.875854,-18.271437,325.568056,-73.33457,289.906822
3,10.841789,-12.813334,0.156326,0.881055,10.720367,15.896988,17.819138,17.588768,-10.178204,11.600533,32.861252,49.205589,-19.597721,7.328625,28.807182,46.958771,-23.639889,1.053028,21.713791,37.182655,-24.548492,-15.226822,-3.101578,8.279915,-19.773408,-29.684843,-32.774216,-34.75554,-9.304923,6.096433,14.362652,17.11777,6.455203,22.880689,30.080355,32.377532,18.374453,33.914129,39.085541,39.4256,27.668322,40.45004,42.109088,40.501292,25.913658,49.175262,71.515388,90.018196,50.327511,81.569366,98.468971,111.156006,42.05658,77.529831,97.936363,111.926994,33.754692,67.112675,86.332283,99.21936,26.040344,51.298027,66.396275,78.798637,-13.891867,-17.38904,-15.452855,-16.514901,12.618635,28.860167,36.359384,41.546418,29.301435,44.203847,50.98855,54.534074,41.236061,56.506444,61.60147,62.665924,49.282201,63.417179,67.666781,68.29046,-7.44401,312.672547,-73.192606,290.705703
4,29.980431,-9.960712,0.811672,0.014264,7.296982,-0.582619,-13.989601,-26.309109,-39.011536,-14.167786,3.872795,12.677193,-51.490059,-24.483604,-3.094368,12.376213,-57.340908,-34.482307,-12.605553,2.229195,-59.452343,-45.690765,-30.835934,-19.975548,-18.255954,-28.232288,-28.197523,-24.166456,-4.70921,15.210423,20.16577,21.365643,15.630882,33.122674,36.578474,36.13066,31.430033,44.185137,44.619427,44.154632,44.086583,56.295134,52.626171,47.892261,25.705833,48.876171,71.406384,90.473843,49.486427,80.49036,97.246342,109.827862,41.252174,76.756382,97.16795,110.885181,33.040237,66.430378,85.83807,98.770123,25.463219,51.00071,66.240349,78.65015,-13.709332,-17.271034,-15.255007,-16.427092,12.814322,29.154901,36.681288,41.828062,29.520402,44.271958,51.097848,54.594157,41.386238,56.28902,61.591775,62.849878,49.244657,63.237979,67.453001,68.118114,22.504349,302.706787,-72.413006,290.714919
5,-23.01424,8.586024,0.008583,-0.354818,6.367664,7.913876,8.323231,8.607616,-20.485611,5.965748,24.761524,35.954533,-29.043674,0.699749,22.174473,39.373341,-31.916485,-6.453323,15.160618,30.581074,-32.053642,-15.837364,-1.003933,11.536388,-21.614929,-32.154798,-35.003406,-34.788762,-4.402743,9.967505,16.471428,20.351824,13.698588,24.514543,30.12957,32.317202,25.871817,34.79716,37.362766,38.723683,34.163168,43.151991,42.683923,40.389154,25.276165,48.269806,70.500069,89.126301,49.596519,80.476856,97.256985,109.940586,41.308136,76.476345,96.867886,110.996647,33.074112,65.944176,85.236225,98.449459,25.375042,50.240421,65.274467,77.722836,-13.63412,-17.00946,-14.989789,-16.164467,13.740022,29.656932,36.966761,41.997567,30.262086,44.564593,51.137369,54.691414,41.781008,56.543679,61.728058,63.084036,49.335492,63.221986,67.535685,68.326584,-0.531836,311.296347,-72.426367,290.363636
6,-14.135914,11.622416,-0.444031,0.678328,5.910015,10.765629,18.96698,28.337173,-0.263844,23.907738,39.071617,49.650078,-6.86388,16.086559,34.706841,52.16629,-11.515331,9.237728,26.725159,42.330208,-14.625149,-3.700504,8.531342,20.663681,-19.595258,-34.370465,-45.399459,-56.506814,-14.941562,-6.192084,0.613182,6.144104,0.814364,11.799145,17.7496,20.900724,14.374878,23.792001,27.828194,29.557267,24.789271,32.271136,35.314875,35.022178,25.388088,48.684883,71.112328,89.607296,50.271492,80.983143,97.688313,110.487156,42.03043,76.870594,97.069416,111.292248,33.686485,66.325951,85.423565,98.669872,25.788918,50.779037,65.686398,78.148899,-13.961089,-17.714588,-15.810328,-16.823097,12.661057,28.331892,35.82234,41.024565,29.319837,43.505512,50.292067,53.976344,41.11256,55.807676,61.187001,62.699948,49.037052,62.863834,67.200503,67.973125,-14.706717,322.917836,-72.909365,291.041038
7,-14.337101,-7.906029,0.825062,-0.404156,11.983109,23.43956,30.731678,36.426487,13.476791,37.920856,54.720898,66.109829,6.407547,33.9715,51.949596,67.667599,1.305771,26.869984,45.254688,59.57571,-2.560787,9.576931,21.644268,33.467503,-20.719424,-31.86136,-36.514007,-40.393847,-6.544309,7.185154,14.078229,17.130614,9.422063,22.49691,28.906479,32.409704,20.786856,32.067051,35.712486,37.034871,28.849669,39.5018,41.116697,39.354217,25.811119,48.482838,70.701313,89.633675,49.450321,79.942703,96.908684,109.666443,41.164112,76.185379,96.577606,110.638618,32.933407,65.745907,85.077553,98.177147,25.155544,50.245457,65.448074,77.865257,-13.377301,-16.682244,-14.829114,-16.188735,13.915764,29.489836,36.499434,41.298243,30.320193,44.52038,50.919575,54.520674,41.783478,56.396404,61.571583,63.152393,49.241816,63.022779,67.300477,68.27422,-29.057407,314.997975,-72.097893,290.62305
8,59.018154,-13.577866,0.01339,0.906928,2.023659,-8.335991,-22.0158,-33.20612,-47.950287,-27.810402,-8.270302,3.548927,-59.642887,-37.707481,-13.481827,5.438232,-64.521675,-46.084499,-21.110344,-2.985306,-65.59433,-55.100269,-37.979507,-24.577217,-16.845018,-26.465794,-25.601659,-20.679163,-4.392122,15.639836,22.216995,23.965705,15.881156,32.629659,38.671813,39.695511,31.987207,44.420776,46.542582,46.730242,45.160176,57.690816,54.829611,50.222783,25.442677,48.309288,70.509396,89.225807,49.941158,80.582542,97.246513,109.825287,41.705589,76.591644,96.695366,110.63839,33.474827,65.966034,84.800949,97.636642,25.720425,50.372143,65.224056,77.538071,-14.092741,-18.016794,-16.105434,-17.392189,13.109242,28.267918,35.642029,40.8487,29.68509,43.45148,50.059947,53.76454,41.311334,55.538876,60.701643,62.088989,49.035446,62.601024,66.735646,67.339565,29.923668,301.410631,-72.121582,291.520499
9,-23.53466,6.413892,0.120792,-0.180126,8.200264,7.845383,2.898102,-1.938972,-25.961895,-2.177353,17.23114,29.872513,-36.139755,-8.145618,14.034233,32.306557,-39.312,-15.610657,6.694908,23.401566,-38.830261,-24.091816,-8.584957,5.037575,-20.539793,-29.471557,-29.397086,-29.106427,-2.813287,12.339832,19.258595,23.006907,14.682457,26.761517,33.699114,36.350553,26.944731,37.083778,40.741131,42.128478,36.157089,46.654104,46.70338,44.387616,25.305576,48.223572,70.467224,89.089108,49.801311,80.491962,97.152042,109.777622,41.471272,76.256504,96.452923,110.377293,33.049393,65.465527,84.600964,97.550297,25.094833,49.886456,64.876614,77.178783,-14.188948,-17.855873,-15.749998,-16.643959,12.884779,28.667999,36.143072,41.343383,29.459578,43.586528,50.302071,54.033463,41.068841,55.534369,60.84441,62.409474,48.814195,62.557119,66.759173,67.478812,6.355791,307.813114,-72.034006,291.328965
10,-17.052383,14.555684,0.360661,0.514196,5.94286,10.309868,17.895927,26.013336,-6.763916,17.339516,33.830795,45.577927,-13.370934,10.759907,31.401443,50.611153,-16.799698,4.3503,24.189606,41.324158,-17.981758,-8.0056,4.379139,16.846161,-19.265079,-34.096478,-44.618563,-54.717102,-14.073166,-6.879799,-1.128365,2.810138,1.717155,10.970887,17.279494,20.505953,15.101619,23.634353,27.534879,29.333545,25.417643,32.164802,34.349963,33.805448,25.298367,48.030338,70.20813,88.945084,49.217777,80.147552,96.894264,109.587135,40.877552,76.110306,96.602783,110.528297,32.568569,65.485382,84.846497,97.772942,24.78178,49.947853,65.175304,77.58007,-14.450893,-18.278863,-16.225353,-17.019957,12.55565,28.440881,35.888351,41.064641,29.357257,43.50403,50.106754,53.734468,41.10021,55.59686,60.73011,62.105724,48.851245,62.422256,66.498957,67.187536,-10.735903,322.35881,-71.712656,291.833173
11,-12.286491,-5.797067,-0.436935,0.190068,8.62999,16.676044,24.819489,33.919373,3.546696,30.388184,47.47776,58.550606,-3.292408,25.993423,44.5784,62.07962,-7.111645,19.155693,37.904091,53.210907,-8.863621,-2.449036,1.558056,7.612209,-21.0932,-33.261242,-39.01212,-44.259855,-7.677984,6.6202,13.518894,17.042434,8.650492,22.570393,28.944888,32.444593,19.885362,31.587744,34.55127,36.053163,27.599161,37.411672,39.334827,38.136437,25.198116,48.256531,70.564327,89.435806,49.101219,80.470161,97.253609,109.990311,40.693359,76.334496,96.691017,110.48996,32.537155,65.810051,85.02491,97.770996,25.111427,50.395145,65.477085,77.770271,-14.493069,-18.281642,-16.239432,-17.43103,12.180331,27.682339,35.23318,40.748726,29.143601,42.927034,49.629053,53.434484,41.084772,55.320897,60.434572,61.795613,48.920097,62.368842,66.454497,66.970051,-23.051605,316.55796,-72.178802,292.019458
12,52.976303,-15.649036,0.551262,-0.008336,0.819626,-9.22554,-22.724075,-33.628006,-49.455757,-32.514324,-11.004066,3.10009,-60.578957,-41.227913,-14.980316,6.006088,-64.783974,-48.62566,-21.859245,-1.443329,-65.242996,-56.469955,-38.657284,-23.602066,-15.798781,-24.285079,-23.200247,-18.190498,-3.741396,15.015107,23.092184,26.598434,16.629324,31.975475,39.422945,41.797125,32.757235,44.249481,47.639825,48.771216,45.9851,58.052859,56.246598,52.492481,25.058384,47.854958,70.181007,88.91098,48.78479,80.192871,97.141685,109.957123,40.416584,76.097145,96.622238,110.456543,32.152462,65.459175,84.668884,97.370682,24.467983,49.860706,65.024185,77.39399,-14.117564,-18.170429,-16.357128,-17.3058,12.221765,27.595333,35.14006,40.60139,29.138352,42.829962,49.599783,53.42306,41.053465,55.072043,60.222769,61.560282,48.878415,62.296718,66.48284,67.109607,29.892855,300.906547,-71.659384,292.008744
13,-28.437767,11.928389,-0.25486,0.174136,7.398376,7.919312,6.775818,5.310745,-20.670204,5.436974,23.42926,34.467773,-29.853859,-0.399055,20.09594,37.719498,-32.962704,-7.149239,13.175697,28.689423,-33.510418,-17.245045,-2.815304,9.69326,-20.76018,-32.184747,-35.557246,-38.165274,-6.14713,7.103706,13.172968,16.787035,11.472424,22.603368,28.351714,30.977156,23.981699,33.416174,36.071071,37.519736,33.002199,43.237391,42.930615,40.637267,24.807415,48.236332,70.866737,89.875259,48.325882,79.995346,97.020607,109.944191,40.109138,76.002846,96.835213,110.655556,31.999798,65.506897,85.010033,97.8899,24.451561,50.394402,65.573673,77.802887,-14.163383,-18.497027,-17.305244,-18.827268,10.987436,26.499201,34.216397,39.840193,28.303178,42.296624,49.393969,53.396693,40.602563,54.901118,60.341638,61.727132,48.740403,62.444487,66.509331,66.865507,1.338129,312.819112,-72.031202,292.167057
14,-14.868851,9.207789,1.156311,-0.183954,5.663052,9.956417,18.417549,27.416611,-2.43124,22.629204,38.149338,48.878632,-9.300442,15.074158,33.864098,52.060547,-13.686848,8.411751,26.946602,43.535156,-16.176624,-5.026417,8.046341,20.753059,-18.908408,-33.907645,-44.048174,-54.444288,-14.140412,-4.740579,1.983238,7.200407,1.26082,13.116776,19.623169,23.232975,14.510174,24.999037,28.606372,30.435543,24.868682,32.133494,34.649021,34.634386,24.519711,47.501965,69.925861,88.935585,47.662525,79.422226,96.388893,109.025574,39.481487,75.303726,96.162186,109.91066,31.428223,64.902306,84.408302,97.257729,23.920841,49.791756,65.068531,77.401428,-14.393342,-18.376429,-16.690519,-17.905582,11.532877,27.303933,34.780117,40.123689,28.651141,42.689048,49.517347,53.443932,40.836165,55.300705,60.743263,62.397371,48.907747,62.794673,66.951155,67.565881,-13.611917,322.010337,-70.956087,291.966538
15,-3.2864,-3.745965,-1.076145,0.70414,7.039604,12.791004,19.291191,26.365585,-3.112907,22.640533,39.832993,51.336937,-9.946461,19.194603,38.137093,55.882645,-12.91832,14.272385,33.84407,50.118942,-13.400631,-6.293793,1.430397,11.310024,-20.638717,-33.660705,-40.557485,-45.411994,-8.995615,2.747646,9.520987,12.709099,6.699179,19.316702,25.814142,29.405855,18.111766,28.925931,32.423721,33.761791,26.481355,35.992833,38.422959,37.647868,24.426785,47.972832,70.702457,89.764996,48.138599,79.685612,96.828632,109.88554,39.964199,75.757656,96.800823,110.844669,31.86018,65.333405,85.024509,98.018818,24.333458,50.367165,65.619335,77.886257,-14.941377,-19.253099,-17.984622,-19.614833,10.351469,25.912264,33.521643,39.140437,27.657948,41.685357,48.672786,52.671558,39.99778,54.58298,59.890551,61.385282,48.155256,61.978148,66.029777,66.565277,-16.913424,318.257393,-72.047338,292.6637
16,55.98278,-17.595224,1.430683,-0.394956,-6.053238,-19.74369,-35.541916,-49.065342,-58.950806,-47.317772,-25.015411,-9.228745,-68.057499,-53.266525,-26.302986,-4.181099,-70.409546,-58.681641,-31.678391,-10.011406,-68.7747,-64.93475,-47.403545,-31.74408,-13.554277,-20.146381,-16.0464,-8.65642,-1.212284,16.958145,25.797902,29.84348,17.474255,30.916764,39.457525,43.67477,32.412668,41.949895,46.005539,47.874353,44.739902,55.085505,53.529209,51.025909,24.292545,47.198181,69.630203,88.966026,47.468433,79.131203,96.293449,109.072952,39.148464,74.979172,95.823669,109.361115,31.02911,64.651279,84.215469,96.969452,23.633709,49.985275,65.455456,77.826462,-14.825965,-18.751624,-17.061083,-18.058723,11.408636,27.942926,35.448009,40.635106,28.5495,43.345516,50.122624,54.035069,40.860186,55.9313,61.317603,63.11065,48.927198,62.71273,66.7199,67.443368,39.050331,300.637407,-70.635681,292.243983
17,-26.400032,6.450386,-1.127586,0.607068,4.091034,1.57814,-2.413445,-3.997765,-32.522392,-12.034035,6.417389,19.717369,-40.587387,-16.272869,6.664467,26.525803,-42.321167,-22.530441,-0.2948,17.195549,-40.405769,-30.590229,-16.679478,-4.545021,-16.791172,-23.65189,-23.218587,-21.839268,0.461523,15.844909,22.56712,26.96906,14.954777,27.138689,34.74671,39.399912,25.658284,36.478871,41.048525,44.501175,33.386286,44.404474,45.945147,46.72314,24.932442,48.264542,70.5546,89.56089,47.679462,79.269447,96.401596,109.280777,39.483433,75.607338,96.680717,110.527382,31.51228,65.240879,84.981537,97.745934,24.312057,50.269089,65.56263,77.738914,-15.05827,-19.370795,-18.035381,-19.486948,9.672523,25.695767,33.373998,38.924372,27.011421,41.693631,48.745837,52.647475,39.472901,54.34981,59.66436,61.042691,47.725967,61.576461,65.604626,65.984205,12.613735,307.072001,-71.799831,292.835258
18,21.977921,-6.779207,1.02356,-0.938051,-3.370857,-16.135483,-31.117401,-44.085789,-52.330971,-39.069099,-18.298073,-3.728256,-62.33448,-46.110821,-20.793915,0.465202,-65.737553,-52.349396,-26.013451,-5.858803,-65.456829,-59.443188,-41.257038,-25.825081,-14.533268,-21.954741,-20.313416,-14.533083,-0.977756,17.986104,25.865148,28.537582,17.769793,33.116684,40.814491,43.22924,32.72037,44.112765,47.366703,48.290551,44.796836,57.306173,55.732711,52.271415,24.547348,47.608795,69.950294,89.125214,47.130833,78.879318,96.21357,109.342346,38.523674,74.478722,95.480919,109.07856,30.325813,64.101906,83.752785,96.567307,23.091316,49.591599,65.057316,77.242584,-14.441445,-18.258177,-16.717936,-17.945719,11.038627,27.732666,35.373785,40.655421,28.286505,43.744177,50.853934,54.851841,40.728719,56.228443,61.821857,63.782803,48.842723,62.879889,66.928184,67.599226,34.568739,300.278931,-70.799189,291.883345
19,-18.282852,4.384897,-0.993061,0.540687,2.546539,-1.631012,-7.911415,-10.653419,-37.381783,-18.711948,0.014534,13.641701,-44.619312,-21.028118,2.558784,22.293549,-45.242443,-25.45475,-2.01725,16.26503,-42.610531,-32.749214,-17.79871,-4.574547,-16.083945,-19.287494,-15.129345,-11.32342,4.695069,20.740173,27.597185,32.10373,17.957329,29.938823,37.286504,42.180657,27.647512,38.835019,43.152917,46.422231,34.561767,45.490355,47.789632,49.081142,24.720669,48.307285,71.207485,90.304699,48.328457,79.769154,96.712132,109.629192,39.93433,75.71291,96.616917,110.474453,31.663628,65.134449,84.639874,97.527294,24.083748,50.308056,65.543575,77.740231,-15.068891,-19.578462,-18.282259,-19.297004,10.145037,26.095971,33.822121,39.493464,27.414651,41.922663,49.130542,53.143454,39.759238,54.753658,60.417715,62.059473,47.887691,61.836307,65.95296,66.324636,16.274958,304.645935,-71.803179,292.406139
20,18.864555,-3.255296,0.834904,-0.917549,-1.862183,-14.223518,-29.889793,-43.113785,-52.58543,-36.340656,-16.094398,-3.083611,-63.393974,-44.023819,-19.439507,0.228767,-67.083035,-51.226158,-25.366974,-6.597633,-67.037544,-59.668007,-41.838055,-27.556229,-15.841574,-24.731534,-23.237915,-17.697483,-1.845843,17.878226,24.152192,26.024464,17.703905,33.799397,39.606035,41.09459,33.010659,44.877729,46.61483,46.816939,45.081753,57.399478,55.015789,51.063886,24.316692,47.614918,70.341396,89.606438,47.802658,79.229851,96.271019,109.381599,39.200878,74.682884,95.467987,109.1185,30.795364,64.205074,83.74752,96.794243,23.118095,49.633942,65.043983,77.374306,-14.806514,-18.51265,-16.419496,-16.997233,11.156632,27.92613,35.46357,40.728966,28.468298,43.655689,50.77934,54.803614,40.92558,56.383375,62.19662,64.34183,49.002039,63.106019,67.307702,68.104468,35.071878,301.344342,-71.03591,291.442293
21,-20.429649,4.987334,-0.282955,0.732916,2.900963,-2.156639,-9.381409,-14.740562,-34.868374,-13.356972,4.70787,16.918488,-42.638741,-16.322594,6.282005,24.348907,-43.98531,-21.63826,0.988655,17.432899,-42.037983,-29.153194,-14.115829,-2.003632,-17.397808,-23.425389,-22.327776,-21.59344,2.678486,18.631273,24.79773,28.416366,17.772818,29.355034,36.018768,39.774305,28.169365,38.281674,41.674674,43.849832,35.284679,45.999796,46.814531,46.592971,24.712658,47.920876,70.477982,89.531193,47.85244,79.2449,96.299572,109.326038,39.501457,75.259953,96.334362,110.274982,31.278763,64.862652,84.549351,97.534389,23.680229,49.83942,65.269089,77.633343,-14.964224,-19.194436,-17.494818,-18.416505,10.2686,26.570276,34.152115,39.563427,27.588602,42.248335,49.153081,52.817783,40.031495,55.157691,60.56289,61.944061,48.264493,62.18427,66.305863,66.684579,14.599457,306.292912,-71.361637,292.136444
22,24.407845,-6.225738,0.946369,-0.05786,-6.032753,-19.392014,-35.010338,-47.649078,-59.517174,-47.533436,-25.041733,-8.528137,-68.400593,-53.917522,-26.768303,-3.907471,-70.467682,-58.322811,-30.861053,-9.20208,-68.87495,-63.330746,-44.333668,-28.339691,-14.071313,-21.928992,-19.807803,-14.384264,-0.632633,17.181867,25.399488,28.759822,18.285841,32.433848,40.383102,43.537931,33.179176,43.55238,47.027694,48.329269,45.220629,56.690892,55.416549,52.673966,24.18972,46.891251,69.204655,88.224335,48.08075,79.107399,95.973701,108.847733,39.628887,74.685974,95.306396,108.864899,31.149902,64.39888,83.719711,96.548195,23.209362,49.375591,64.839191,77.324982,-15.047649,-18.92292,-17.055279,-17.783995,11.034613,27.787253,35.189584,40.238359,28.181159,42.852439,49.635846,53.297028,40.589781,55.621004,60.977112,62.57867,48.860075,62.703344,66.759729,67.295846,38.969193,300.049111,-70.453377,292.060522
23,-21.518784,3.046951,-0.43951,0.475355,2.999268,-1.869278,-10.513344,-16.589012,-37.493877,-17.831554,0.838852,13.906975,-45.21801,-20.124779,2.581673,21.335564,-46.128273,-25.351524,-2.257919,15.152664,-43.480339,-31.627979,-16.610928,-4.583015,-15.098099,-18.327028,-14.443051,-10.622306,6.24519,23.11497,28.845161,32.282498,19.62743,32.055503,39.040525,43.435302,28.908702,39.833585,43.926958,46.973847,35.27554,46.275265,48.508654,49.939164,24.799976,47.735996,69.952469,88.962536,47.874413,78.879833,95.88438,109.014988,39.49625,74.769917,95.621281,109.404316,31.209927,64.510403,84.068012,96.8997,23.592281,49.636803,65.015888,77.226849,-15.377149,-19.567532,-17.934419,-18.697407,9.877102,26.354644,34.043249,39.594426,27.107752,42.004297,49.0063,52.815313,39.550954,54.805467,60.339168,62.045332,47.858792,61.679399,65.770549,66.28635,17.436647,303.082708,-70.906649,292.522523
24,15.507088,0.168949,0.783119,-0.059527,-1.005707,-12.669067,-27.46685,-40.636539,-50.285854,-35.613213,-15.629997,-1.170845,-60.560818,-43.19561,-17.92614,3.831482,-64.367466,-49.363403,-23.544502,-3.332977,-64.888687,-57.372437,-39.119225,-24.163055,-16.530462,-26.931886,-27.889635,-24.851083,-4.922681,11.938145,18.914275,21.229421,15.229134,29.957965,36.573225,37.839232,31.395453,42.53603,44.853832,44.655551,44.871925,56.288773,54.116888,49.601265,24.316978,47.01479,69.533215,89.027996,48.36422,79.477673,96.548481,109.619694,39.818459,74.842358,95.343761,108.837719,31.106415,64.186192,83.521557,96.232052,22.917252,49.222126,64.688416,77.059078,-14.880676,-19.056733,-17.872545,-19.408525,9.559705,26.133948,33.771053,39.099373,26.511613,41.595325,48.71947,52.798578,39.167051,54.54241,60.292423,62.541682,47.840267,61.669704,65.758384,66.56151,32.93704,303.196684,-70.130224,292.408023
25,-24.950294,9.336354,1.061954,-0.456953,5.928497,3.975105,-0.471725,-4.309273,-25.491314,-2.88826,16.252213,29.281197,-34.770012,-8.371296,13.857536,32.425919,-37.523403,-15.876961,5.69252,22.424927,-36.736393,-25.532684,-11.71463,1.066704,-20.454145,-31.183464,-34.260117,-36.011976,-5.73087,7.040288,14.109846,18.237799,10.721045,20.942343,27.724391,31.367913,22.874576,31.787136,35.80153,38.039427,31.938919,40.627016,41.296144,40.140361,24.106121,46.605606,69.154072,88.001862,47.933865,78.82061,95.608635,108.724709,39.538021,74.716988,95.27401,109.120445,30.87553,64.099846,83.536148,96.668129,22.460575,48.287487,63.817406,76.627922,-14.655287,-18.8566,-17.669448,-19.161585,10.920993,25.581096,32.562845,37.632986,28.186964,41.611688,48.410964,52.55133,40.738229,54.629046,60.28773,62.805541,49.100408,62.312896,66.369158,67.319002,7.959766,312.428216,-69.095249,291.846248
26,-16.517658,-14.353883,-0.262814,-0.707536,12.222118,16.621227,15.982761,13.141193,-6.864681,12.800045,32.670765,46.090336,-16.989899,6.079617,28.836536,46.990986,-25.672817,-4.421711,20.930843,40.065823,-33.413887,-18.209209,2.48909,18.813457,-16.778143,-21.324887,-18.795529,-10.854796,-1.697951,16.251844,25.039298,30.373052,14.738835,31.408174,41.016538,45.730503,27.845422,41.703079,48.181253,52.035714,39.291664,52.212752,54.627317,54.783607,23.366547,46.53883,69.22823,87.433491,49.651737,81.456928,98.855839,112.398777,41.522312,76.277218,96.60284,111.22015,32.683582,65.015144,84.36842,98.44305,23.717823,49.038506,64.117413,77.173061,-16.039052,-20.492739,-19.125955,-20.467792,11.334412,24.67355,31.552423,36.604224,27.99282,41.48405,48.759422,53.363101,40.08281,54.299299,60.588022,63.847394,48.276843,62.399038,67.394832,69.1583,-8.571224,297.976675,-69.371395,291.041054
27,4.179382,-0.376986,-2.302437,-5.497454,-3.970642,-7.609692,-11.772079,-19.798393,-24.997845,1.534767,21.529255,35.158253,-27.067738,2.542419,28.595181,48.241367,-25.266781,-1.700535,21.446514,39.26096,-21.44022,-15.512066,-7.010422,2.571774,8.875757,18.430213,28.658243,37.810889,17.268441,32.433478,40.688026,48.387932,20.823844,33.440627,42.848179,47.928323,23.195554,35.307342,45.073231,52.278208,25.791171,39.096471,47.831931,56.345954,22.017231,44.429226,65.839748,82.92223,49.240093,79.824543,97.67458,112.07056,42.162666,75.678349,96.728954,113.398075,33.992443,64.905567,85.261402,101.412907,25.172596,50.213871,65.261192,78.792858,-18.163575,-22.916442,-23.451139,-25.024169,10.400437,23.339865,30.439557,35.965663,26.931701,41.744884,50.662879,57.100729,39.179648,54.489984,63.655783,69.368684,47.950121,63.941872,72.068535,76.846041,-4.417591,297.353659,-71.699581,285.297571
28,67.053051,-20.550105,-3.99828,-7.633833,-30.832901,-56.467781,-72.28672,-85.716877,-72.597313,-93.434772,-87.174053,-76.935539,-65.795574,-86.727161,-76.928215,-62.638264,-56.69014,-77.681007,-70.058212,-56.779747,-44.778099,-61.51886,-65.400066,-63.050251,12.319948,30.441718,50.488187,65.579864,33.654839,44.654749,44.367486,39.678592,33.142311,44.162166,45.575262,39.717556,30.559414,41.44348,42.054501,35.983015,25.696878,38.609939,44.776891,45.915692,21.575031,41.133499,58.087463,73.162994,44.419098,76.014004,95.390625,111.476669,38.310356,71.337719,92.484398,110.412369,32.883625,61.762733,81.544762,97.76413,27.845421,51.15675,65.497856,78.093567,-21.8016,-27.954597,-31.412805,-36.720253,5.212352,19.831639,27.097501,33.085438,21.556019,37.979159,46.14176,51.38789,33.784391,51.072716,59.628112,64.494477,43.070727,59.573216,67.405268,70.901761,62.529573,276.775026,-75.803747,277.635209
29,4.185791,-1.316889,3.112049,-7.437096,-16.352119,-41.108437,-62.188225,-78.405018,-55.215225,-91.73418,-99.545631,-98.086967,-57.017326,-95.255585,-104.428711,-105.49284,-56.070671,-93.935966,-102.537689,-104.289951,-54.31675,-83.626213,-93.382473,-97.510529,28.080815,46.516215,55.668305,61.393062,37.333867,45.230077,47.762091,48.01675,23.3926,30.669145,30.770971,28.582413,9.132824,15.243768,15.438282,14.029261,-5.992877,-1.473921,0.316533,1.515232,12.68446,26.656895,38.121414,47.456818,40.666523,68.724461,85.172024,96.336765,39.788475,67.551212,83.358364,90.378628,35.218391,57.164211,67.771969,72.325687,28.385124,43.320866,51.046543,52.833424,-18.444601,-29.035414,-35.50167,-42.872941,-4.714767,0.83962,4.003588,6.73098,12.903922,27.385814,36.186668,41.982623,25.584739,41.270147,48.097458,52.275552,35.098749,49.566685,53.485737,53.381379,66.615658,275.42879,-72.791405,270.168766
30,4.010811,-4.045949,-0.919275,-22.671664,-22.581711,-50.234756,-71.122398,-83.73539,-56.668282,-87.314987,-102.514801,-112.835999,-53.845596,-88.922081,-108.815403,-123.784218,-47.831383,-80.765991,-99.149151,-113.68309,-41.01059,-64.199867,-76.533394,-86.036911,22.348894,34.399981,39.359095,40.772994,25.676686,24.295267,17.100727,10.840532,14.867708,10.754946,0.649923,-7.358735,2.344725,-2.343552,-10.77767,-16.526325,-10.886351,-13.912553,-17.999875,-20.005404,1.905184,8.015385,11.926975,12.310667,35.623627,55.508766,63.498487,68.023481,40.302458,62.513866,73.1781,77.507172,40.237055,61.980171,71.519937,75.597868,36.965589,54.07937,64.06085,69.666738,-18.875958,-34.213525,-45.479301,-57.313058,-20.071446,-20.863333,-16.904638,-12.894412,-2.834899,1.802217,6.822371,10.355143,11.812576,18.391465,22.353958,24.771302,25.159249,31.225825,33.758179,33.778371,70.114088,271.546464,-74.223061,247.660725
31,-5.106468,-11.932588,-0.919275,-22.671663,-19.350586,-37.371712,-49.510345,-58.733597,-57.573738,-79.560699,-81.596661,-79.713135,-56.248512,-78.967953,-76.430283,-70.49017,-50.046387,-70.67997,-67.758923,-61.188698,-40.971794,-55.080757,-54.836655,-50.23613,1.676215,2.684476,4.201745,3.364039,5.421871,4.48413,-1.365857,-6.143795,9.560384,9.237985,2.297054,-4.50778,12.80543,12.925843,7.064124,2.754995,15.921356,15.932471,12.031636,8.792826,-8.874092,-10.626125,-14.267464,-22.835484,30.58073,42.293072,41.824951,39.710197,40.816441,57.476521,62.997837,64.635715,45.255718,66.796131,75.267906,78.870049,45.546055,64.837875,77.075157,86.500053,-19.307316,-39.391638,-55.456933,-71.753176,-35.428126,-42.566288,-37.812865,-32.519805,-18.573721,-23.78138,-22.541926,-21.272338,-1.959588,-4.487217,-3.389542,-2.73295,15.219748,12.884964,14.03062,14.175363,64.904909,259.691033,-75.245047,225.066219
32,19.874496,-32.89605,-6.26564,-23.681036,-0.971031,-2.585106,-4.605675,-5.463181,-60.864716,-76.145668,-68.091431,-60.038338,-71.983223,-86.892071,-76.275673,-66.110802,-74.695244,-85.713272,-76.138802,-67.489357,-70.96653,-78.049965,-70.018501,-62.325783,-29.705715,-52.725219,-69.070059,-77.861218,-49.609416,-47.932893,-38.876763,-35.73132,-29.848605,-26.029342,-20.372511,-20.279638,-10.37197,-7.819702,-4.88032,-4.811469,7.185834,7.250672,7.685086,6.92043,-12.972164,-18.702679,-24.605942,-35.192928,24.322357,37.496452,37.285252,33.22752,38.757648,54.548893,55.49572,50.622997,45.762863,62.518387,62.476044,56.507492,48.672066,61.301537,59.720078,53.574772,-18.997823,-39.879404,-55.2568,-71.416574,-56.777157,-69.649092,-65.639947,-58.711983,-44.881805,-57.367491,-53.757253,-48.025704,-28.894747,-39.495811,-36.778051,-31.548038,-10.09329,-17.314445,-16.585914,-14.078476,84.644051,226.756467,-81.646042,201.346666
33,-0.197639,-33.64712,-14.525471,-15.241237,10.700455,14.420013,16.780586,23.876839,-36.52771,-45.903511,-40.105133,-35.18486,-51.562386,-62.260208,-54.812164,-47.873955,-59.072227,-67.671318,-58.88752,-52.766075,-61.266861,-64.392929,-55.952911,-50.873337,-24.346397,-45.662762,-61.839147,-76.424317,-59.804101,-65.664771,-55.84417,-50.640587,-46.198941,-50.427177,-42.00473,-36.729022,-29.247156,-32.505911,-26.196377,-22.165743,-10.526531,-11.933823,-7.782898,-5.22532,10.40308,19.843998,25.050545,27.146015,22.219162,37.646942,47.33139,56.194839,24.29575,40.666981,51.542645,59.830456,27.214508,42.47406,50.762959,57.814121,29.761105,39.07093,41.991978,44.613991,-18.93317,-38.577767,-55.423774,-71.525039,-35.11079,-55.158494,-69.67265,-83.185555,-28.450453,-48.921455,-63.763722,-76.510335,-20.337745,-36.005986,-51.520345,-65.388962,-10.382035,-23.254711,-35.628691,-46.472002,84.051018,193.252422,-96.566906,186.248505
34,16.536369,-11.286802,5.286083,-34.746463,-9.582367,-23.582153,-36.591911,-46.322937,-26.618729,-49.19838,-58.679924,-64.931259,-28.668938,-50.25753,-61.159058,-68.758965,-28.833504,-48.092651,-58.18943,-64.56665,-28.181534,-41.599503,-50.350456,-55.758705,-33.147251,-56.175924,-73.606769,-88.609958,-41.20852,-61.920596,-75.499049,-87.132703,-28.897958,-51.719119,-67.875065,-81.828589,-18.127636,-38.704355,-55.792053,-70.291822,-8.05176,-22.289861,-35.888722,-46.130522,-14.524956,-25.756187,-37.969952,-51.724091,-0.615063,23.363457,28.982906,27.567329,16.486073,42.925129,46.651611,43.681297,30.070953,53.473835,55.927162,53.257999,40.608444,58.003807,60.216522,58.075218,-22.890816,-43.349561,-58.596294,-70.194997,-45.609348,-73.876402,-84.226697,-84.730087,-34.671035,-68.842416,-81.772119,-83.40094,-22.179822,-55.445818,-69.169106,-72.93372,-9.095959,-35.795077,-47.529971,-51.051381,100.415754,183.337297,-91.452456,152.87372
35,-4.02935,-42.702386,-9.76347,-12.009282,17.081566,23.212624,27.220688,35.190697,-12.242203,-31.193962,-35.077057,-31.397438,-28.047981,-50.48481,-51.681862,-46.253242,-39.346046,-59.2202,-59.210472,-55.075378,-46.252327,-62.595291,-62.71534,-59.40834,-24.15778,-47.98325,-64.236329,-77.494266,-65.645288,-84.425534,-85.403444,-81.750413,-54.682336,-75.076583,-74.663689,-70.06174,-40.425339,-59.503345,-59.139172,-55.903327,-23.813738,-37.805671,-39.817901,-39.889037,-10.070057,-18.999767,-30.176697,-44.156399,-6.160011,11.239929,25.071545,36.681118,12.044277,34.015217,49.139671,59.543152,28.437653,49.036617,60.521221,67.673149,42.353554,57.238884,64.700375,69.604111,-24.599635,-47.319402,-64.13157,-78.354789,-37.793907,-66.175107,-83.469637,-97.422483,-27.237458,-60.118812,-80.293968,-94.885436,-18.079934,-48.227782,-68.279129,-82.957356,-10.099836,-35.073925,-50.244581,-61.905097,96.498356,142.646447,-101.103973,142.875973
36,5.102921,-5.347833,9.566059,-22.355008,13.102913,20.574074,26.449242,34.672623,8.53981,-9.481544,-20.623856,-30.159302,-6.982841,-28.553696,-42.404594,-53.121071,-22.236786,-41.67572,-54.061546,-62.52285,-35.723648,-52.142258,-61.646805,-68.337822,-26.546224,-51.014207,-70.962709,-86.387684,-46.867451,-76.094755,-94.167186,-108.987532,-37.243186,-69.591448,-88.987284,-104.58834,-27.882935,-57.769641,-76.423668,-91.354084,-18.609135,-41.433199,-55.575988,-68.351593,-17.478676,-29.849625,-40.695305,-54.330654,-10.873318,8.500786,19.955692,27.564983,6.906109,31.864643,44.118462,49.079189,22.565517,45.929604,55.229473,57.215195,36.089172,52.209492,57.977715,59.087505,-21.2276,-44.685408,-62.096369,-75.141761,-36.720037,-72.96864,-89.798962,-101.450061,-26.746049,-68.789496,-88.512824,-99.679769,-17.742622,-57.760347,-78.040449,-90.132383,-9.966331,-41.702955,-57.669574,-68.169151,101.354971,141.222698,-91.78422,124.44505
37,-5.629234,-27.811768,-7.182713,-6.517972,16.963806,26.075935,32.477875,40.591164,6.798935,-13.15876,-23.035011,-28.367844,-8.663979,-29.997368,-39.983482,-46.262054,-22.913475,-42.802162,-52.920799,-60.371819,-35.230064,-52.769051,-59.547501,-64.50634,-20.558812,-45.520304,-64.185169,-79.147911,-46.908515,-81.207133,-97.169584,-107.28884,-36.909364,-74.841283,-93.669817,-103.586193,-27.121522,-60.382023,-79.79626,-92.10324,-17.526434,-43.092494,-57.558856,-68.408588,-11.464405,-20.576763,-31.215076,-46.144581,-3.808479,10.552597,20.451794,30.043316,14.434547,32.831612,43.841858,52.086468,30.828781,49.490032,59.258137,66.047859,44.421158,58.974552,65.01709,68.907452,-26.229568,-49.090188,-64.50272,-77.514181,-39.90537,-72.196204,-92.037167,-108.158718,-29.505304,-68.617027,-91.558262,-108.03602,-22.172875,-58.362105,-81.256781,-97.847974,-16.383372,-46.329389,-62.947845,-76.069684,95.307112,117.4428,-99.385557,121.958947
38,-2.78595,-1.045434,0.846062,-8.037094,16.441269,26.807671,34.532776,43.797455,10.177689,-5.907555,-16.114197,-24.827499,-7.083893,-24.776688,-35.923004,-44.48307,-22.953873,-39.010506,-49.187508,-56.369705,-36.479301,-51.051178,-58.96534,-64.103279,-25.318688,-48.993703,-68.243128,-82.971065,-47.373403,-80.491693,-99.445704,-114.467603,-38.025749,-74.420022,-96.640846,-113.187672,-29.023095,-61.989201,-83.255086,-98.629765,-20.513549,-47.686231,-64.598372,-77.480897,-13.269424,-21.334648,-33.013687,-50.467987,-4.047775,8.54496,18.218765,28.796024,15.269966,30.480938,41.917191,52.210979,31.398754,46.212788,55.627327,63.012657,43.65921,55.127277,61.809711,67.254696,-25.74597,-48.716691,-64.298388,-79.099777,-41.728397,-74.657576,-97.812344,-116.004355,-31.582403,-68.263074,-93.962885,-112.093979,-24.255191,-58.81702,-83.897629,-103.031303,-19.230066,-48.105763,-65.974264,-80.377856,92.665701,118.46304,-98.394957,115.987528
39,-3.322105,-4.706555,2.486629,-4.787046,15.711479,26.495705,35.215302,45.127258,10.687981,-3.340645,-12.879982,-20.65052,-6.854782,-21.91864,-31.752892,-39.250259,-23.041306,-37.407074,-46.248207,-52.628059,-36.964645,-49.674225,-56.123428,-60.986595,-24.517322,-48.42387,-67.979948,-83.025775,-49.962598,-83.554421,-103.568378,-119.35873,-41.427641,-78.920886,-102.426365,-119.37954,-33.133789,-68.190023,-91.600314,-108.021941,-25.097899,-54.229613,-72.253663,-86.14837,-15.044289,-24.264336,-37.03577,-53.879299,-4.072323,6.462936,13.736229,22.216759,15.687847,26.967316,35.434055,43.978157,32.084026,42.309666,49.419479,55.636883,44.636021,53.564701,58.031845,61.761761,-25.171814,-47.532009,-62.29925,-75.024219,-42.71983,-78.277354,-102.036165,-120.205976,-34.025836,-74.345891,-101.368704,-120.44776,-27.573504,-65.128437,-91.029617,-110.726393,-23.101786,-53.743946,-72.395133,-87.992392,89.020214,113.975437,-96.231709,111.419433
40,-4.688873,-6.463292,3.291893,-1.591339,17.724152,29.846191,39.380264,50.961571,12.597198,0.327072,-7.752686,-14.49646,-6.284752,-19.432755,-27.120438,-33.07251,-22.763329,-35.333176,-42.450142,-47.883911,-36.250534,-47.490349,-52.871246,-57.242775,-21.650158,-45.349626,-64.263098,-78.391808,-47.22301,-82.31404,-103.573441,-120.28619,-40.294274,-79.594706,-104.1375,-121.914456,-33.412129,-69.71427,-94.466923,-111.928612,-26.668768,-56.07768,-74.855856,-89.311535,-15.533524,-25.837383,-39.771767,-57.325058,-6.13924,3.756638,10.227585,16.64978,14.087391,24.153442,31.592846,38.391495,31.009426,39.730911,45.998268,50.993385,44.302711,52.700443,56.258698,58.167973,-23.228683,-44.83966,-58.742025,-67.875188,-39.898114,-77.025611,-97.430232,-113.202893,-32.025338,-74.754369,-99.881168,-118.23055,-26.410219,-66.814687,-92.297847,-111.10801,-21.653677,-53.379403,-72.190431,-87.80853,84.036598,107.44266,-93.234558,109.758609
41,-1.653442,-5.514898,5.558338,8.192118,19.21463,32.900848,42.547417,53.238373,13.177757,3.528214,-3.194962,-8.886681,-6.102905,-16.142464,-21.842651,-26.375198,-22.972183,-32.995491,-38.332214,-42.358704,-36.583099,-45.846977,-50.339813,-53.927422,-20.590273,-43.307571,-62.091645,-76.00605,-46.067104,-80.889304,-101.555746,-117.496986,-40.258459,-79.608106,-104.292957,-121.571618,-34.46062,-70.522429,-94.884355,-112.007282,-28.563857,-58.028468,-76.432344,-90.67588,-19.254341,-31.856117,-46.654873,-62.819653,-10.355072,-1.473026,4.084282,8.767776,10.572739,19.010811,24.561539,28.44738,27.72686,36.964417,42.013493,44.701023,41.120167,50.471935,53.889828,54.412136,-20.842215,-41.4717,-55.035086,-65.337123,-39.342855,-77.119997,-97.18002,-113.493768,-31.821438,-75.502723,-99.584581,-116.48715,-25.917358,-67.971581,-92.99294,-109.963775,-21.081004,-52.926618,-70.73732,-84.669911,82.477283,102.180537,-87.582092,118.203503
42,-0.008926,-2.195536,4.183445,11.289426,20.323563,34.2556,44.003677,55.935745,15.177383,6.136665,-0.195694,-6.093407,-4.375534,-14.125214,-19.505768,-24.16214,-21.615601,-31.532478,-36.04763,-39.561424,-35.329742,-43.716888,-47.429352,-50.556908,-20.143972,-42.652214,-62.07701,-75.945905,-45.887781,-81.827262,-102.783777,-118.942131,-40.803437,-81.41517,-106.149143,-123.463619,-35.743084,-72.531416,-96.286985,-113.288664,-30.617923,-60.429262,-78.490578,-92.867896,-20.935421,-36.50774,-51.572857,-64.173889,-14.752064,-5.99247,0.564766,5.795231,5.443153,16.626091,23.531971,27.299709,22.443638,34.327126,38.908882,39.841633,35.979939,46.574936,49.092808,48.475628,-17.382834,-36.717598,-48.728115,-57.763589,-32.075881,-69.807081,-90.967805,-107.010778,-24.903293,-69.641899,-93.341491,-109.874515,-19.368387,-62.070928,-85.183983,-100.597473,-15.070342,-48.330411,-65.981118,-78.334597,81.886339,100.101926,-83.980665,129.609854
43,1.67347,0.059929,4.470463,13.233823,20.917168,35.230637,45.381317,56.936531,16.479034,7.813225,1.900063,-3.445702,-2.460938,-11.754799,-16.696815,-20.948982,-19.743805,-29.540749,-33.876572,-37.151184,-33.750572,-42.430573,-45.817566,-48.275757,-19.431249,-41.398896,-60.573079,-74.448859,-45.558806,-81.918745,-103.042171,-119.661616,-40.899861,-81.611876,-106.578648,-124.499575,-36.06434,-72.933813,-96.731372,-114.161414,-30.973297,-60.796121,-79.260112,-94.308687,-23.922729,-41.14872,-55.918579,-68.756733,-18.432827,-9.004154,-3.909645,0.450497,1.942062,13.263416,19.740715,23.490829,18.909702,29.811344,32.275372,32.15601,32.283325,40.493546,41.476307,40.628471,-12.608045,-28.892802,-40.3802,-48.273601,-23.107406,-63.70966,-85.699198,-99.693014,-15.990022,-63.684435,-88.355114,-101.753687,-10.921981,-55.52773,-77.887863,-90.009963,-7.88139,-41.191631,-57.898452,-67.709605,82.752628,100.353373,-80.317383,143.035196
44,1.884041,4.69547,-2.809639,15.922035,21.129341,35.487099,45.799141,56.940422,16.097488,8.337936,2.994461,-1.539345,-2.657318,-11.187515,-15.51487,-19.338455,-20.050049,-29.173965,-33.261337,-36.590652,-33.902435,-42.488251,-46.03157,-48.481064,-18.158203,-39.334642,-58.656593,-73.835554,-44.539739,-82.04944,-102.843798,-119.191448,-40.551959,-81.987998,-106.514706,-124.211664,-36.052608,-73.815918,-97.619775,-114.824953,-30.853686,-61.576708,-79.915685,-95.045401,-23.439674,-40.498466,-54.257584,-68.106308,-19.04314,-11.604366,-7.827473,-4.07444,1.609726,11.931553,17.413158,20.844898,19.12365,29.530621,32.578068,33.979111,32.84729,40.670357,42.242889,42.888966,-12.248626,-25.341813,-33.443344,-38.884821,-21.301823,-53.300362,-72.929367,-85.680426,-15.432478,-55.561477,-78.357722,-92.001908,-11.096364,-49.596696,-69.411292,-82.52183,-8.400094,-37.514271,-52.377132,-62.932377,83.947077,104.737483,-83.816614,158.64587
45,-0.2631,9.354508,-8.09269,11.693737,22.512932,37.233925,47.807922,59.761848,17.411957,9.581909,5.291519,1.787338,-1.546783,-8.64933,-11.76075,-15.229797,-19.026833,-25.767746,-29.233017,-32.571602,-32.832184,-40.716476,-45.264931,-48.862381,-14.587176,-35.643233,-54.65461,-68.715642,-41.233344,-79.243748,-99.984692,-115.842631,-36.413045,-78.70513,-102.52705,-120.211843,-31.482274,-70.216795,-94.216957,-111.81919,-26.281531,-58.596355,-77.231703,-92.337274,-17.422256,-34.488487,-51.595516,-68.803596,-16.541862,-9.923229,-4.11026,0.767326,2.658291,11.619587,17.190742,20.165806,19.557323,28.965626,32.068577,32.612858,34.26733,41.44455,42.563953,42.10247,-14.539382,-29.82162,-36.629387,-39.093352,-21.173105,-54.277254,-72.631946,-86.168377,-14.598168,-54.520303,-76.825787,-91.074293,-10.366906,-48.455548,-69.462946,-83.345643,-7.508665,-36.890592,-51.838483,-62.734127,83.113546,113.878288,-92.479734,170.125905
46,-1.728973,12.075941,-13.983707,0.783921,22.863464,39.315033,50.21862,62.345695,20.462952,11.898308,8.082161,5.431709,1.244431,-6.884537,-10.357704,-13.99601,-15.735397,-24.045067,-27.751808,-30.748672,-29.475975,-38.781166,-43.013077,-46.072769,-12.832693,-32.943258,-49.371029,-61.755167,-34.832327,-72.640715,-93.754261,-109.423397,-29.23635,-71.473477,-95.349614,-112.706945,-24.080932,-62.282454,-86.576609,-104.723326,-19.567779,-50.89963,-68.913089,-83.25064,-16.59811,-31.811085,-49.008923,-68.538151,-13.658466,-9.611206,-4.221039,1.425591,7.752514,13.901997,19.063282,22.996902,25.853634,32.222843,34.175148,35.07534,40.290298,44.006252,44.095631,43.90892,-16.779069,-32.833497,-40.461093,-45.384916,-23.790211,-54.5576,-75.063214,-93.146761,-19.020238,-55.15553,-78.617136,-96.049956,-16.420361,-50.186258,-72.333445,-88.883265,-14.578717,-42.435161,-58.837583,-71.312834,81.027231,126.174339,-106.820784,171.129936
47,2.4543,15.861767,-15.424519,-3.684338,22.697639,38.141899,48.275871,58.825722,18.107529,7.543488,1.607666,-1.810799,0.319748,-10.044365,-15.52002,-19.490089,-16.07151,-26.651344,-31.361847,-34.205589,-29.600372,-40.776329,-44.611244,-45.315056,-11.376433,-28.559442,-43.046891,-54.011387,-33.992305,-73.092542,-92.161564,-104.46382,-27.608146,-68.732161,-91.071144,-104.030981,-21.275888,-58.104421,-81.600452,-98.059685,-16.180893,-46.029961,-62.867137,-75.578151,-15.135899,-26.262417,-41.573982,-62.569313,-10.160923,-5.633812,-2.199154,2.337627,9.494934,16.502151,21.409607,26.448498,26.506233,34.174232,36.365719,38.080273,40.934029,47.144966,47.49218,46.962948,-20.090064,-38.345246,-46.99299,-52.595666,-32.96203,-63.22424,-84.983634,-104.325129,-28.134692,-62.35146,-86.457894,-106.200396,-24.460264,-55.722646,-78.12903,-96.445653,-21.192803,-47.451425,-64.42933,-78.329718,82.650261,142.270371,-123.076572,167.679863
48,0.252457,12.949864,-1.272583,-32.765695,22.507782,38.845711,50.221481,61.27533,20.391541,13.437424,7.241821,3.662453,3.116913,-3.808594,-9.490013,-14.098778,-12.495575,-21.150169,-26.459541,-30.408783,-25.551224,-35.282936,-39.155502,-40.82634,-7.678602,-19.686494,-31.441735,-42.625877,-26.284804,-60.737705,-78.162776,-88.957088,-23.116853,-60.471314,-80.605252,-90.632994,-19.694429,-51.590277,-72.093884,-85.996433,-16.379359,-40.56366,-55.330129,-66.898389,-23.258858,-44.276791,-60.270882,-77.549801,-25.602894,-19.773502,-14.709091,-10.325947,-4.961185,1.830482,6.049175,8.084965,13.736744,19.730186,21.413326,20.240993,30.312653,33.224888,33.06942,31.571102,-11.459117,-26.575864,-36.77555,-43.957216,-30.083504,-60.14592,-76.821588,-89.300852,-24.451805,-60.029335,-80.362418,-92.109014,-19.289625,-53.626559,-73.036195,-83.611447,-13.642673,-41.892684,-57.035737,-65.4312,80.575562,155.749622,-126.676311,135.443554
49,8.864136,16.991676,-14.026451,6.906351,20.433998,35.886955,46.571045,60.518646,20.879173,15.586052,10.81707,6.643066,2.927284,-3.598137,-8.422737,-12.400475,-14.078178,-22.184601,-26.093903,-28.347359,-29.405823,-37.387848,-40.166245,-40.992966,-8.400032,-24.531216,-38.198743,-45.920601,-24.928641,-56.359323,-75.47052,-91.779606,-22.481472,-58.553902,-80.232743,-97.87675,-20.538619,-53.068335,-74.265399,-91.98681,-18.247679,-42.605253,-58.105285,-71.907892,-20.54472,-40.811977,-58.5989,-75.767269,-27.475204,-22.532158,-16.986465,-13.034878,-6.665668,0.230427,5.378723,7.993183,12.824135,18.857059,20.496712,20.331287,29.583149,33.244457,33.244686,32.20602,-17.506736,-35.058302,-47.092068,-53.72573,-30.777548,-62.573082,-83.754029,-101.507797,-26.601738,-62.96671,-87.61945,-106.580161,-24.253401,-58.27797,-81.190924,-97.902561,-22.902085,-50.511961,-67.175062,-80.718379,87.687778,172.708569,-142.454681,142.317178
50,10.779648,7.872869,-9.638214,11.064686,20.837517,35.613556,46.878204,60.687332,19.327011,17.063141,15.295372,12.382622,1.688461,-2.642441,-5.398293,-7.614899,-15.134811,-19.668045,-22.569466,-24.157677,-30.833015,-36.538925,-39.004898,-39.684563,-16.273395,-33.52436,-46.784304,-54.287257,-40.521577,-67.270991,-86.115859,-104.01048,-38.853606,-68.200706,-88.685942,-106.365949,-35.803383,-62.707173,-81.468584,-98.169817,-30.779925,-52.951843,-68.279839,-82.229504,-21.635456,-40.739365,-57.570076,-75.411987,-29.183521,-22.608604,-16.530476,-12.163982,-8.986759,0.051498,5.636902,8.563614,10.432148,17.864571,20.766392,21.437759,27.309208,32.21117,33.523579,32.774677,-18.599409,-39.209536,-53.911444,-60.956703,-36.879168,-72.862059,-94.313905,-111.939078,-31.699142,-72.803859,-97.329641,-116.023405,-28.46836,-67.953056,-91.130363,-107.473875,-26.28008,-57.89697,-74.957714,-88.29429,97.547293,180.464668,-153.013029,153.265094
51,18.700333,-18.345245,-6.45155,6.855345,27.333069,43.333397,51.645241,62.588081,23.492661,15.273857,10.126648,8.266754,2.948799,-7.418289,-12.116203,-14.652443,-14.962578,-24.960136,-28.19973,-30.557899,-30.223045,-40.780449,-42.041359,-42.662201,-14.687891,-34.917666,-51.373657,-62.017266,-45.514438,-80.733755,-95.273229,-103.684283,-43.653713,-83.738468,-99.007122,-105.796363,-40.107726,-76.538679,-90.859525,-98.256885,-35.444335,-61.262738,-72.948664,-81.002276,-20.763073,-40.484276,-56.948547,-74.173679,-29.850426,-24.295578,-18.072395,-13.663445,-10.707493,-2.136841,4.093895,6.928997,8.230419,16.990643,21.23291,21.762428,25.675335,31.017323,33.014832,32.295799,-14.541543,-34.472631,-47.797011,-54.845635,-29.180466,-66.382588,-87.877351,-104.436218,-23.76267,-66.547616,-91.48552,-109.962911,-20.537539,-61.115124,-85.033003,-101.84514,-19.078654,-51.086702,-67.946387,-81.076377,116.217842,161.726382,-159.494362,159.727398
52,17.014961,2.459025,-5.946293,9.254905,24.349022,38.224068,47.507057,61.380844,23.475037,19.248734,17.070007,14.611931,4.20536,-1.046333,-4.999123,-8.484421,-14.29081,-19.998436,-22.846756,-23.578377,-30.837135,-36.760254,-39.390221,-39.706192,-23.01407,-43.866999,-61.343539,-71.185844,-45.279941,-78.855801,-100.196342,-117.904539,-43.2243,-80.542359,-104.061269,-121.003051,-41.153778,-75.980671,-97.671522,-113.758307,-38.439014,-66.662194,-83.000026,-96.693612,-23.011723,-41.106033,-54.801636,-69.180965,-28.31274,-21.648731,-16.541348,-13.246765,-8.616428,0.444546,5.528297,8.183899,10.487881,18.792171,22.214355,22.424011,27.441502,31.892223,32.906513,32.022743,-10.168564,-27.688823,-39.200489,-46.871527,-20.812915,-56.699043,-77.83343,-92.729359,-14.819481,-55.546194,-79.999419,-95.930531,-11.991745,-49.349385,-72.650811,-89.508735,-11.63705,-40.811372,-56.933108,-69.14595,133.542023,162.62871,-165.131435,167.425606
53,17.025604,-5.054518,-4.195633,9.241443,21.918182,34.660835,42.669296,53.821335,25.734444,20.502777,17.441483,12.745171,6.380424,0.780945,-2.981644,-7.680359,-12.185898,-19.44294,-23.265381,-25.571709,-28.728333,-36.404228,-40.738106,-43.42907,-21.782489,-45.238197,-62.996288,-73.766178,-42.626587,-76.752181,-100.014549,-120.140675,-40.230764,-78.074133,-104.488274,-124.486515,-38.392176,-73.664475,-100.046999,-120.472152,-36.86268,-65.310354,-83.179256,-98.249475,-22.70565,-39.760094,-51.193142,-64.046173,-29.239368,-24.963341,-21.407375,-19.362144,-10.674706,-3.233013,0.868664,3.382759,7.28611,15.203419,18.590927,18.695126,23.401337,28.306217,29.654503,28.762608,-7.842611,-22.461836,-31.504751,-36.994795,-13.995731,-46.518747,-66.436836,-80.482523,-9.118313,-45.866817,-69.365596,-84.02607,-7.585112,-41.074985,-63.069154,-78.930488,-8.642526,-34.170023,-48.136206,-58.483815,151.196709,157.134652,-168.697987,176.227509
54,15.080338,-1.374008,-8.874893,11.4208,19.586334,30.486603,37.562828,46.240654,27.225266,19.741516,13.817368,7.504921,8.251305,-0.431786,-6.714134,-12.602005,-10.671158,-20.967751,-26.593781,-29.677963,-28.067436,-38.311729,-42.775497,-45.302353,-20.49527,-43.955611,-62.260162,-72.024075,-40.39678,-75.789121,-99.255142,-117.834297,-34.087679,-75.571821,-102.632828,-122.530972,-29.739307,-68.947731,-93.88264,-112.75829,-27.173547,-58.321535,-76.316778,-91.868218,-21.069317,-45.400543,-66.309242,-85.925674,-35.544834,-29.429455,-23.174515,-19.50079,-17.366009,-8.830719,-3.267918,-2.557869,1.10321,9.046326,11.212807,8.663177,19.254284,23.717136,23.485851,20.243397,-15.38246,-31.984367,-37.952112,-39.209844,-22.874329,-56.858112,-74.028987,-84.748612,-15.718567,-56.489215,-77.735649,-88.285768,-11.379798,-50.404916,-70.823801,-81.651211,-8.840992,-40.020813,-53.493672,-61.331219,166.72534,155.230254,-177.124586,187.11792
55,9.014511,5.428787,-6.182499,6.622052,18.056831,27.913742,31.968269,39.62265,24.770622,18.370285,12.899666,7.785873,7.770195,0.079193,-6.931,-11.95118,-10.037041,-20.788994,-28.092499,-31.933823,-26.548462,-37.583656,-43.163795,-46.11454,-16.717133,-39.287001,-58.39261,-69.096056,-37.883044,-73.749474,-95.643453,-112.846223,-29.750793,-71.578546,-95.865353,-114.620559,-24.026283,-64.283383,-87.146658,-104.905922,-20.803158,-53.442759,-70.867984,-85.740571,-23.101845,-45.872097,-67.652435,-85.601578,-38.070774,-33.756695,-30.433788,-29.363251,-20.861549,-13.375511,-10.074921,-7.350426,-2.775021,2.987022,5.161572,5.961914,14.029999,15.044174,15.579929,16.168385,-20.098648,-37.790511,-47.361022,-52.814819,-32.917107,-64.520258,-82.561474,-99.517983,-26.915523,-65.210627,-86.561264,-104.187518,-23.100706,-57.966779,-79.442986,-96.246323,-22.377732,-51.554307,-66.962764,-79.108916,175.926933,159.573531,-183.120003,192.654462
56,1.982574,6.937412,-15.225277,-28.329237,18.408394,25.777359,21.692619,20.381241,27.968216,24.642792,19.04686,13.99086,11.801949,5.301018,-2.747841,-8.462219,-4.745178,-14.338188,-21.409492,-25.680199,-21.245384,-29.897919,-34.30481,-37.371368,-14.351228,-35.52776,-54.662144,-65.595518,-32.457375,-65.801764,-85.312548,-98.874791,-26.17532,-61.882558,-84.19221,-101.826923,-21.032314,-53.329292,-73.16195,-88.839021,-16.944684,-42.40444,-56.473191,-68.010175,-24.526062,-50.237789,-70.857296,-89.240742,-39.620132,-34.496613,-29.418068,-27.694359,-20.101948,-12.814865,-9.974041,-11.829243,-0.514069,5.232811,5.775204,2.249165,18.700275,19.956264,18.413887,14.899693,-18.936258,-36.052299,-44.740674,-48.806136,-29.289178,-68.845812,-86.069175,-94.961636,-22.137337,-69.347473,-90.118644,-98.851572,-19.874802,-64.412966,-83.549697,-92.900099,-20.371955,-57.451534,-70.237574,-75.472064,178.462858,164.640677,-197.791929,162.45496
57,3.968811,0.960528,-8.653965,-3.810865,15.842056,23.789062,21.351814,20.015144,26.650085,27.486763,24.1119,19.871979,13.053589,10.82634,3.767509,-2.564049,-1.637421,-8.051033,-14.052315,-18.988266,-17.394562,-24.263191,-27.215881,-31.14624,-12.413624,-29.626427,-45.399767,-53.66225,-23.328009,-47.356422,-63.184071,-76.990414,-19.484663,-44.324477,-61.835411,-77.092796,-16.527251,-38.648132,-54.47504,-69.77988,-13.947874,-29.873985,-40.694942,-52.179716,-24.281101,-43.351593,-58.197956,-73.752937,-44.193821,-47.955837,-53.05687,-59.821587,-27.714157,-22.773628,-20.472851,-17.952518,-8.315449,-2.922535,-1.972618,-1.524124,11.297379,12.855263,11.235809,9.832077,-19.704495,-38.687004,-53.615938,-64.264704,-36.630344,-64.098008,-81.602058,-97.283205,-31.107851,-71.103191,-96.109298,-114.002098,-28.542492,-67.689443,-91.97236,-109.410646,-29.146411,-61.708206,-79.369225,-92.949746,182.961645,162.860737,-205.915918,155.903627
58,16.893425,38.350279,-18.352776,-31.734092,21.898956,41.555328,56.770363,72.375298,32.956924,23.303947,17.710533,13.826752,15.725441,5.672035,-0.18528,-4.993401,-2.863083,-13.45974,-19.199982,-23.325806,-21.499672,-31.687775,-35.155334,-36.984215,-17.850994,-40.621706,-57.0115,-65.701636,-35.100416,-71.07071,-90.772982,-105.293159,-28.816756,-70.034075,-92.540155,-107.823691,-24.765744,-62.315428,-84.478052,-99.86749,-21.907255,-51.64718,-67.553036,-79.657414,-26.252975,-50.38044,-69.104519,-86.982136,-39.605255,-33.604832,-28.316975,-25.547905,-20.887356,-11.269913,-6.763744,-6.507568,-1.214561,7.772369,9.969864,7.490444,18.143692,22.148266,22.190552,18.943806,-16.81087,-33.590248,-43.468801,-48.792489,-30.234051,-66.04929,-85.023926,-97.051239,-23.052201,-64.969739,-88.437088,-101.173295,-18.507988,-58.529109,-80.385575,-93.124592,-16.483624,-48.679888,-64.037863,-73.973999,200.827589,199.2275,-223.296175,122.186019
59,9.583969,0.592804,-6.01284,7.039084,23.000793,40.503845,55.222321,72.098122,33.809967,30.626335,27.92038,24.674149,16.358299,11.891327,6.994514,3.422813,-1.667519,-7.498512,-12.402649,-14.601746,-19.568825,-26.024323,-29.348717,-31.068077,-19.733332,-41.45546,-55.397036,-64.433035,-33.909436,-64.95779,-86.480155,-104.389874,-27.920387,-66.107212,-90.617618,-109.391843,-24.396847,-60.61933,-84.051172,-101.921031,-22.982021,-52.838531,-70.361198,-84.779364,-22.990036,-45.615234,-65.943718,-86.148834,-40.775986,-34.470406,-31.472511,-29.644203,-22.864208,-13.402977,-9.911671,-6.980495,-3.866272,2.580929,6.113033,7.51379,14.502296,15.427837,16.603432,17.699547,-16.170611,-36.52435,-49.101705,-56.723465,-31.701427,-67.772096,-89.485918,-108.238747,-26.38663,-69.316721,-92.730625,-111.368937,-23.113766,-62.630417,-85.604627,-102.889061,-22.645049,-55.464591,-71.655302,-84.983603,210.666304,197.355691,-229.05427,126.760489
60,20.337639,-21.671863,-5.327396,6.988572,23.932228,43.942795,59.709663,74.550819,31.477547,23.133202,17.164192,14.256363,15.393791,6.879158,1.514511,-2.350845,-1.743965,-10.454292,-15.239868,-17.46666,-19.166451,-27.176628,-29.818611,-29.625435,-17.498646,-38.013121,-53.114709,-61.931835,-35.658887,-70.574144,-88.9808,-102.222003,-27.943667,-67.045448,-88.580009,-102.034714,-21.682484,-57.875975,-80.240801,-95.650184,-16.917081,-45.620525,-62.166733,-74.118155,-23.831635,-46.652527,-66.886482,-87.521896,-42.083588,-37.870903,-34.112148,-31.011028,-24.113617,-15.469208,-11.759148,-8.71685,-4.786434,1.638565,5.660191,7.447128,13.949947,14.288006,15.285015,15.96096,-16.100802,-37.830278,-50.371478,-56.566372,-32.064241,-67.934747,-89.583175,-108.391455,-26.582935,-69.022357,-92.971235,-111.591362,-23.478062,-63.088019,-86.307779,-103.114111,-23.778139,-56.713524,-72.442434,-85.234032,230.914879,173.127191,-234.47073,131.192424
61,9.99836,-2.361768,-0.256062,7.94592,24.52961,40.770035,54.097939,69.872932,37.424469,37.494049,34.33239,28.088379,20.54615,17.626762,13.736115,9.462318,3.463326,0.124855,-2.572975,-5.777664,-12.698364,-16.507645,-18.928413,-21.565018,-19.056054,-39.397566,-52.168878,-62.716096,-36.046,-62.181677,-84.527854,-103.826834,-32.575812,-66.256185,-91.263713,-110.372501,-30.082763,-62.887978,-86.463822,-103.512555,-28.767294,-57.628232,-75.470921,-89.654991,-25.798302,-50.788078,-71.268539,-93.127098,-47.996464,-43.770962,-40.998974,-39.015827,-29.681339,-21.976261,-18.735924,-16.711922,-10.412178,-5.32774,-1.838379,-0.580273,8.299942,8.107338,8.299084,8.069401,-14.722904,-34.132756,-45.237117,-49.630473,-27.392267,-62.274519,-82.448965,-97.586245,-22.004265,-63.752731,-86.691373,-104.050772,-19.435633,-57.763373,-80.208475,-96.829957,-20.492924,-53.009981,-67.613212,-78.812051,240.897074,170.132759,-234.742956,138.50568
62,16.971588,-16.388683,-1.022415,8.843338,26.709938,48.508301,66.317482,78.955078,40.934944,35.426445,29.206009,24.651833,27.387772,20.0354,12.528419,4.05899,12.207413,4.835815,-0.626221,-6.679115,-3.58532,-11.957817,-14.406738,-16.251984,-21.531813,-44.298912,-60.996933,-70.906084,-44.240249,-81.027285,-99.420911,-112.075577,-37.534957,-77.123393,-99.624163,-114.023185,-32.268975,-70.046178,-93.42439,-109.07355,-27.656713,-57.811878,-75.548542,-88.087488,-28.306046,-53.862705,-72.952652,-93.239136,-50.082207,-46.046391,-45.661068,-45.224934,-31.52853,-24.247227,-23.970909,-22.356663,-12.907963,-9.539967,-8.482475,-6.925392,5.207176,3.028851,2.511864,2.475128,-14.49276,-30.910558,-40.604724,-44.413768,-23.529315,-54.796791,-73.218235,-86.951249,-19.135959,-55.829968,-76.381091,-92.432648,-17.549899,-51.531799,-71.536278,-86.480371,-19.35474,-49.0084,-61.978765,-72.433789,257.832069,153.648132,-235.801964,147.253074
63,10.796356,2.73227,-3.155079,11.269203,23.814125,43.328247,60.444374,79.618034,44.854546,40.173454,35.684052,31.907959,30.57003,20.920486,15.781631,11.775169,12.933311,2.999268,-1.406822,-4.035072,-5.017662,-11.976585,-14.810371,-16.471252,-21.035834,-45.232053,-64.726874,-76.270713,-41.347088,-76.197909,-97.733211,-114.410731,-34.948109,-77.006376,-102.02718,-120.928734,-30.365765,-70.190397,-94.544944,-112.519964,-28.50541,-61.717129,-79.717435,-95.124719,-28.185368,-54.44458,-74.783077,-96.01965,-47.894325,-41.633205,-41.740837,-42.127991,-29.129562,-20.12867,-20.265312,-19.375648,-11.202736,-7.105007,-7.077999,-6.730843,5.952587,4.548683,3.685341,3.90976,-15.947229,-30.531503,-38.053506,-41.497388,-21.125989,-52.947181,-71.42982,-85.723774,-17.149633,-53.803041,-74.124423,-90.443976,-15.291872,-49.111307,-70.085606,-85.696141,-16.603451,-46.393393,-60.312307,-71.134962,268.522911,156.473105,-239.062557,158.61498
64,6.493492,-2.046964,0.076275,7.595362,23.337593,43.3992,60.213089,80.330544,48.734093,42.109451,37.125893,33.690147,34.873924,23.648415,18.361702,14.662857,16.917114,5.843925,0.827179,-2.276344,-1.839294,-9.664879,-13.484116,-15.935326,-19.5177,-43.102498,-62.87251,-73.529921,-40.850676,-76.034085,-97.356255,-113.949795,-33.962387,-77.757817,-102.09208,-121.259469,-29.007874,-69.452726,-93.460669,-112.063814,-26.679636,-60.441612,-78.062524,-93.773929,-27.565327,-54.384212,-75.895386,-96.64135,-49.807205,-43.094444,-41.47253,-40.52433,-31.769371,-23.305264,-21.843853,-20.386505,-13.514614,-9.344158,-8.559895,-7.976017,4.475727,3.756695,3.065243,3.32737,-17.921884,-31.846663,-39.518658,-43.118028,-18.49184,-50.109564,-70.100303,-86.437424,-13.614978,-49.686203,-70.413933,-88.071926,-11.330274,-45.061777,-66.807555,-84.251583,-12.630429,-42.354021,-57.442549,-70.100611,274.875441,154.302377,-239.127245,166.086579
65,2.456703,0.310852,2.578239,4.737615,24.231148,46.644173,65.315208,84.734344,51.336823,43.898506,37.64637,33.601341,37.296982,24.424438,18.757782,15.993118,19.481506,7.110672,2.077904,0.084343,1.16993,-7.853394,-10.998001,-11.793709,-18.313567,-40.905017,-59.397907,-68.524957,-39.267488,-73.572991,-94.169749,-110.53898,-31.836228,-73.073338,-96.776666,-117.539995,-25.780427,-64.28221,-88.119721,-107.955189,-22.807453,-55.109155,-70.862797,-85.386525,-29.998569,-56.482029,-78.256817,-98.803196,-52.477341,-46.820641,-44.771576,-44.746056,-35.895367,-28.040085,-26.09127,-25.549679,-17.943764,-11.934643,-11.509094,-10.914402,0.689907,0.325012,0.018253,1.039352,-18.528582,-33.636129,-42.769385,-47.861108,-22.326479,-51.29298,-71.992521,-90.084774,-15.730053,-49.827673,-72.06446,-92.297353,-11.448897,-44.858834,-68.468178,-87.780248,-11.454887,-40.249042,-55.654782,-68.974099,277.290115,154.61681,-236.591034,170.827775
66,0.404892,2.816128,1.709404,3.431409,23.651848,47.477531,67.790222,87.206383,51.903763,45.799828,39.279327,34.92691,38.257942,26.248283,20.266113,15.973206,20.988121,9.109383,2.664528,-1.116257,2.872009,-6.238289,-10.742455,-13.00312,-18.59873,-41.194163,-59.407725,-68.036264,-36.978339,-71.629181,-92.837268,-109.753731,-29.070921,-70.427333,-94.599192,-113.94325,-23.542345,-62.267139,-86.234605,-105.180279,-21.868291,-54.788547,-70.436719,-84.073773,-32.394104,-58.632317,-81.486397,-102.97348,-56.338348,-51.265469,-48.728886,-47.475071,-40.038757,-33.814545,-32.909088,-32.439423,-21.610565,-15.8638,-15.69191,-14.962978,-1.721306,-1.713924,-2.36681,-1.828079,-21.662415,-39.811726,-50.695236,-56.539789,-29.730415,-58.655914,-79.052877,-97.320317,-21.460985,-57.453448,-78.726187,-98.147896,-16.357005,-53.729589,-76.469672,-94.960802,-15.999717,-46.574013,-62.136229,-76.03109,277.71389,157.426686,-234.862747,174.252932
67,-1.02459,2.681573,-1.763992,2.141875,23.740654,47.033958,66.597862,84.527321,51.96064,45.498047,39.495163,35.129929,38.246384,27.8302,22.131271,17.318802,20.607262,11.278954,4.595032,0.43808,2.050209,-5.486641,-9.830017,-11.831245,-17.600288,-39.184588,-55.577563,-64.617175,-33.603524,-68.070536,-89.568571,-107.144097,-25.304393,-65.84712,-90.719228,-111.264146,-19.866466,-58.087131,-82.318085,-101.272127,-18.165798,-51.259387,-67.825418,-82.102699,-34.144707,-59.907703,-83.819275,-104.261456,-55.288925,-51.272678,-50.364361,-49.577122,-39.067383,-31.870651,-30.516357,-28.912811,-20.190697,-14.881611,-13.299465,-11.806698,-0.320377,-0.758686,0.195751,1.646519,-22.681606,-43.117287,-56.264104,-62.647182,-34.953327,-63.789071,-81.940141,-98.657676,-27.668692,-64.196253,-86.282801,-106.66831,-23.060321,-61.164215,-83.957033,-102.782696,-22.776145,-53.811254,-70.034508,-83.919211,276.772985,160.099321,-236.543055,176.385868
68,0.198555,4.05904,-0.64064,-0.905508,24.602394,46.609268,65.792427,84.032707,49.862709,43.919792,37.780724,33.772888,35.274353,26.400261,21.910057,18.34568,17.636375,10.14061,4.600182,1.731491,-0.411644,-7.062149,-10.250473,-11.243591,-17.100109,-38.591723,-55.209685,-64.172541,-32.36796,-67.663477,-88.994262,-106.680351,-25.319336,-66.164208,-90.591096,-110.811053,-20.682745,-59.038149,-82.371437,-100.741351,-19.185977,-51.946484,-68.520079,-82.60118,-32.27108,-58.374996,-83.357563,-103.82309,-53.70512,-48.782158,-47.364693,-45.539246,-38.600407,-28.990002,-27.369175,-24.07093,-20.402641,-15.591488,-13.973465,-10.663147,-1.329575,-1.936684,-0.242043,2.801971,-25.151869,-46.5164,-60.806433,-66.765441,-36.889696,-66.789925,-85.212666,-102.772569,-29.510707,-63.706912,-86.286012,-108.134913,-24.542269,-59.562657,-82.447946,-102.926513,-24.25408,-53.061913,-69.766881,-85.55535,277.054996,164.120785,-237.100239,175.442785
69,-0.854988,2.880163,1.043358,-0.769657,23.769493,46.112595,65.276985,83.594856,49.152374,43.819885,37.863693,33.673668,34.588165,26.151123,21.68335,17.974319,16.913109,9.58889,4.64241,2.121048,-1.329803,-7.516022,-10.061989,-10.284119,-17.594051,-39.168225,-55.671207,-64.544402,-31.760336,-66.532024,-88.387656,-106.770167,-24.40932,-65.250456,-89.994587,-110.226523,-19.796379,-58.457849,-82.2643,-101.084035,-18.563656,-51.23021,-68.127377,-82.456066,-31.292953,-57.582836,-82.859859,-103.639984,-53.872089,-49.694424,-48.279419,-46.288319,-38.617287,-30.190716,-28.475361,-24.736176,-20.448017,-16.593819,-14.546185,-10.279255,-1.273727,-2.621098,-0.71497,2.745895,-24.111189,-46.735305,-62.33914,-68.129909,-37.224939,-67.607994,-86.534187,-104.664108,-29.913505,-64.803291,-87.765583,-109.155648,-25.038804,-60.727887,-84.263995,-104.401885,-24.654778,-54.171413,-70.890554,-86.110826,276.24856,167.009609,-236.008329,174.681788
70,-1.180687,2.219186,1.016235,-0.014511,24.100342,45.875702,64.750328,82.596588,48.746567,43.485947,37.405128,33.23719,34.358368,26.473389,21.843224,17.821198,17.044258,9.669685,4.483223,1.838036,-0.983963,-7.392883,-10.145302,-10.757103,-17.496856,-39.714222,-56.368709,-66.292927,-33.642983,-67.79269,-89.254632,-107.820634,-26.649193,-66.374375,-90.732227,-111.057529,-21.834884,-59.366229,-82.48441,-101.170115,-19.927167,-51.689819,-68.170695,-82.360291,-32.437706,-58.364182,-83.230476,-103.928947,-54.489212,-48.992958,-47.3069,-45.349388,-38.529453,-28.717518,-26.793079,-22.980309,-19.964333,-15.512867,-13.459282,-9.350452,-0.636349,-2.039852,-0.625648,2.048435,-24.081734,-47.251415,-63.41792,-69.458098,-36.819918,-68.230685,-87.543528,-105.893373,-29.549919,-65.757365,-89.095316,-110.556641,-24.833546,-61.689958,-85.327738,-105.033159,-24.683245,-55.143766,-71.713964,-86.336709,275.134935,169.199232,-234.925032,174.637714
71,-1.559601,0.726308,1.028938,0.628743,24.153671,46.431999,65.728683,83.891258,49.606361,44.372177,38.172913,34.31591,35.17971,25.567703,20.410309,16.980286,17.957726,8.923531,3.244286,0.780602,0.012474,-7.158623,-10.083046,-10.726089,-17.25535,-39.353785,-56.626949,-66.575219,-34.484765,-68.553548,-89.99326,-108.059825,-27.359261,-67.810505,-91.891004,-111.656879,-22.321415,-60.141629,-82.59837,-100.697169,-20.180529,-51.42494,-67.410022,-81.337674,-32.370243,-58.385525,-83.307438,-103.940277,-54.2169,-48.661137,-47.256432,-45.413418,-37.879601,-28.287449,-26.709538,-23.009148,-19.072666,-14.804077,-13.017597,-9.120369,0.377941,-1.195393,-0.097733,2.36824,-24.608218,-48.007117,-64.166489,-69.975721,-37.522329,-69.326879,-88.861745,-106.970856,-30.257146,-67.055081,-90.613357,-111.549155,-25.442034,-62.89406,-86.486022,-105.582707,-25.142112,-56.431015,-73.24627,-87.603395,273.596821,169.890914,-233.874607,175.23183
72,-1.030312,1.44496,0.60997,1.247235,24.221191,46.356697,65.453796,83.514862,49.376564,45.02552,39.005013,35.391884,34.885941,25.731354,20.705566,17.431068,17.604904,8.761024,3.440437,1.28231,-0.400429,-7.554588,-10.220604,-10.560722,-18.5363,-41.163751,-58.378778,-68.582416,-35.019523,-69.335616,-91.264114,-109.736256,-27.879323,-68.814165,-93.386661,-113.522451,-23.063902,-61.823833,-84.433191,-102.53165,-21.180083,-53.295947,-69.371833,-83.12717,-31.973591,-57.769146,-82.267113,-103.022633,-53.466568,-47.15086,-45.11673,-42.999802,-37.084179,-27.063389,-25.123386,-21.559296,-18.310833,-13.630257,-11.480656,-7.577763,1.140919,-0.123425,0.905228,3.021927,-24.39203,-48.325872,-65.389827,-71.909899,-37.814532,-70.402139,-90.140287,-108.295403,-30.38676,-67.601325,-91.358994,-112.062795,-25.55936,-63.414833,-87.194144,-105.913751,-25.353916,-57.212467,-74.194973,-88.114503,272.565022,171.241534,-233.266125,176.384726
73,-1.1166,0.062059,0.64888,-0.132146,24.273033,46.838608,65.720329,84.263191,50.74688,45.090294,38.40168,34.40918,35.687141,25.732384,20.315781,16.594391,18.124809,8.412323,3.117714,0.841141,-0.186081,-7.554703,-10.335274,-11.069756,-18.087931,-40.986033,-58.814797,-69.010902,-35.389408,-70.57257,-92.745908,-111.119465,-28.065068,-70.13479,-95.049661,-115.270636,-23.339741,-62.977516,-86.084736,-104.508991,-21.454316,-53.772845,-69.659837,-83.417458,-31.77681,-57.214909,-81.607304,-102.022076,-53.156204,-47.809353,-45.789986,-43.606796,-36.896896,-27.525673,-25.312614,-21.514378,-18.209038,-13.9678,-11.784496,-7.692204,1.177139,-0.310192,0.881023,3.227234,-23.8992,-48.114748,-65.44284,-71.529331,-37.353195,-69.490301,-88.953784,-107.224064,-29.930178,-66.648269,-90.71046,-112.386491,-25.462721,-62.728631,-87.147523,-107.174478,-25.750354,-57.379008,-74.301924,-89.005624,271.47048,171.283493,-232.595186,176.23248
74,-1.450882,0.363092,1.297874,0.450408,24.1436,46.167297,64.731445,83.100815,51.602669,45.608826,38.743172,34.387436,36.89415,26.735344,21.17466,17.306099,19.301033,9.305077,3.454628,0.958214,0.849953,-6.768494,-9.803925,-10.649757,-18.301402,-41.583715,-59.608537,-70.565005,-36.533828,-71.228544,-93.172758,-111.680776,-29.146565,-70.376543,-95.170816,-115.763559,-24.053823,-63.161193,-85.791021,-104.203728,-21.664206,-53.709489,-69.396194,-83.17234,-32.081051,-57.406712,-81.578693,-101.860142,-53.024368,-47.548199,-45.458679,-43.168316,-36.883736,-27.159977,-24.88821,-21.038189,-18.242054,-13.321953,-11.13493,-7.238789,1.173019,0.337658,1.701221,4.066772,-23.815158,-48.023604,-65.477605,-72.146526,-37.577225,-69.642115,-89.448559,-107.876241,-30.254244,-66.620204,-90.511315,-112.224365,-25.631052,-62.459862,-86.61931,-106.659696,-25.64507,-56.848016,-73.806624,-88.69752,270.037251,171.592415,-231.279659,176.628717
75,-1.468391,-0.235763,1.216793,0.807448,24.224854,46.048508,64.474869,82.790108,51.366577,45.789986,38.692245,34.095039,36.745491,27.259254,21.581841,17.348557,19.29142,9.675064,3.938026,1.276817,0.871239,-6.559868,-9.420662,-10.388374,-18.834925,-41.795272,-59.547528,-71.144163,-37.009121,-71.90854,-93.654905,-111.919905,-29.590118,-70.753807,-95.489293,-116.226317,-24.571909,-63.641271,-86.114716,-104.420842,-22.01538,-53.981963,-69.673453,-83.55828,-31.536198,-56.575527,-81.058331,-101.250286,-52.21859,-46.880608,-45.000229,-42.6507,-36.329556,-26.721039,-24.453278,-20.1087,-17.681236,-12.568874,-10.197201,-6.039906,1.74654,0.940132,2.661781,5.588951,-24.563017,-49.068359,-66.890208,-73.561815,-38.544237,-70.658681,-90.344064,-108.579238,-30.820495,-67.891058,-91.660274,-113.241765,-25.829827,-63.804941,-87.734306,-107.499409,-25.561768,-57.477592,-74.541825,-89.382795,268.593636,171.310463,-230.03809,177.389976
76,-1.433372,-0.151783,1.902351,0.01976,23.730125,45.205307,63.589897,81.588707,50.115395,44.071312,36.641808,31.934166,35.674095,26.511269,20.736465,16.316986,18.460922,9.273262,3.372231,0.51075,0.132179,-7.874565,-11.304474,-12.53849,-18.649242,-41.982314,-59.949276,-71.597071,-37.284096,-72.083942,-93.284958,-110.938567,-29.955063,-70.81352,-95.308519,-115.647777,-24.785874,-63.344437,-85.762862,-104.240963,-21.926398,-53.286993,-68.928311,-82.889832,-31.20821,-56.233063,-80.666142,-100.816669,-51.321945,-45.838566,-43.783722,-41.313229,-35.527611,-26.11805,-23.723488,-19.083652,-16.996136,-11.774883,-9.414768,-5.160484,2.554665,2.172604,4.100704,7.340527,-25.817662,-50.15492,-67.939131,-75.153709,-39.191257,-70.663497,-90.603107,-109.026713,-31.471221,-67.371892,-91.378445,-113.03169,-26.211259,-63.249805,-87.531332,-107.725168,-25.539909,-56.4714,-73.783252,-89.012015,267.213593,171.143737,-228.082409,177.394793
77,-2.866402,0.173951,1.588554,1.132811,22.56237,43.982735,62.224388,79.652023,47.688904,41.650772,34.180412,29.629784,33.144608,24.553413,18.557281,13.935356,16.063385,7.334976,1.391945,-1.535225,-2.162018,-10.16716,-13.951378,-15.063171,-19.531779,-43.256596,-61.35064,-72.917912,-36.318628,-71.417871,-92.691876,-110.661678,-28.405931,-69.529297,-94.639114,-115.308212,-23.282622,-62.818571,-86.32439,-105.215168,-20.816805,-53.063765,-69.669655,-83.942584,-29.726257,-54.111671,-77.500305,-96.438675,-49.45467,-42.539177,-40.104389,-37.67149,-33.692951,-22.792969,-19.690876,-15.291309,-15.544796,-9.806499,-6.812153,-2.619553,3.842297,4.384117,6.141758,8.458157,-26.285298,-51.502746,-69.938517,-78.561252,-42.553691,-73.643727,-93.464837,-112.489182,-34.255362,-69.54989,-93.625944,-115.036849,-27.886054,-64.122832,-88.679983,-108.61459,-25.678785,-56.047731,-73.247629,-87.830359,264.378748,171.276469,-226.462297,178.486386
78,-6.090088,-2.736778,1.389141,-1.027589,23.197975,43.13118,59.974823,76.560059,45.667305,38.184013,29.70108,23.562584,30.765038,21.556091,14.379845,8.857956,14.043617,6.232109,-1.205635,-5.27813,-3.585548,-11.401634,-16.199341,-17.863197,-18.442502,-41.828062,-59.187801,-70.764181,-35.978384,-70.430637,-91.149845,-108.683813,-27.602434,-66.888509,-91.552612,-112.415791,-21.327913,-59.276907,-82.326853,-101.129082,-17.276592,-47.775645,-65.37442,-80.948708,-29.269981,-51.473351,-72.867222,-90.059395,-45.36438,-36.150455,-32.62001,-29.876118,-29.521809,-17.114525,-14.133511,-10.702286,-11.184025,-3.227406,-0.971889,1.953964,8.380051,10.8391,11.786098,12.569561,-27.3324,-53.686487,-73.2752,-83.900316,-42.748452,-74.333818,-95.104743,-115.184371,-33.493732,-69.485485,-93.984158,-115.0136,-26.498769,-63.311864,-88.476762,-107.983162,-23.916305,-54.056836,-70.981635,-84.607574,258.333035,168.355505,-225.028782,177.274611
79,-7.995529,-3.467224,2.543964,0.041929,24.517136,41.737404,56.26339,72.547874,39.536819,30.282211,21.390495,14.252014,23.601265,15.012245,7.200623,0.304298,6.972542,0.399513,-7.022552,-11.788445,-9.439201,-16.479492,-21.226158,-22.319298,-17.258684,-39.920592,-56.276732,-68.297932,-34.300872,-66.743828,-87.028437,-105.402612,-25.552073,-62.819373,-86.845038,-107.646035,-18.654429,-53.802393,-76.670608,-96.230978,-14.378707,-40.714578,-58.338949,-75.597417,-28.062687,-47.675285,-66.156063,-81.154003,-40.025024,-28.005409,-22.084808,-17.786579,-24.219246,-8.446026,-3.173733,1.027794,-6.440964,4.94957,8.294792,10.355587,12.191334,18.322849,19.895554,19.34309,-29.636307,-57.825154,-78.102816,-89.603429,-47.525093,-77.882584,-97.77128,-116.634456,-36.620156,-71.817242,-95.798385,-115.102922,-27.589837,-63.772861,-88.729908,-106.782826,-22.43306,-51.604634,-68.553393,-81.435332,250.099125,164.330443,-222.723198,176.758702
80,-12.466393,-4.197237,2.743435,-0.26213,24.904861,39.78344,51.467743,64.825974,34.487114,24.598846,14.825478,5.743103,20.421982,10.173683,0.335884,-8.216286,5.336266,-2.525826,-12.498207,-18.885269,-9.459229,-16.215019,-23.369751,-26.317062,-17.142841,-38.066566,-54.465469,-67.368341,-29.818162,-61.035435,-81.380991,-98.702167,-19.676398,-56.287353,-79.765014,-98.90088,-11.953274,-47.220787,-69.267166,-87.614757,-7.677676,-33.339233,-50.715984,-67.128533,-24.007244,-38.811607,-53.267326,-65.540085,-30.959244,-16.942692,-7.896652,-1.055775,-17.673512,0.156555,9.310398,16.006794,-2.136612,12.099838,19.544106,24.148064,14.944153,24.446983,27.621689,27.833519,-32.798917,-62.305795,-83.222914,-95.341555,-50.831334,-78.101705,-97.713265,-116.740945,-37.678249,-68.584701,-92.341937,-111.093067,-26.077693,-58.458004,-83.307728,-101.584738,-17.73725,-43.715154,-60.656781,-74.019632,236.693258,159.75957,-220.919237,176.122935
81,-16.301079,3.111202,4.813671,0.533894,22.681275,34.100819,40.802365,49.016476,14.699364,-1.26995,-7.682933,-10.749549,0.140934,-16.880092,-21.232337,-22.876052,-12.876892,-27.301998,-31.770286,-32.672481,-23.882617,-35.843009,-38.665237,-37.248516,-19.462433,-41.449393,-59.136085,-70.722222,-50.698539,-73.66571,-83.458229,-90.164061,-41.362618,-65.580018,-75.722832,-83.344624,-30.105348,-53.743421,-64.159357,-72.777106,-18.586936,-36.158417,-45.431198,-54.553201,-20.604458,-30.263329,-40.372753,-50.336552,-24.485378,-9.582825,2.07098,12.254906,-13.365955,7.351398,20.289001,30.778942,0.489979,19.582214,30.578041,38.313103,16.278248,29.866505,35.498943,37.943115,-34.091229,-65.022196,-87.677403,-101.492792,-51.017079,-76.416073,-95.453478,-114.588758,-36.331843,-64.883196,-88.708172,-107.701333,-23.202223,-53.020633,-76.890409,-94.452658,-13.14444,-37.019928,-53.024091,-65.704538,219.2175,162.566203,-217.280245,176.352261
82,-16.301078,3.111202,6.820107,-0.107013,20.457687,28.418198,30.136986,33.206978,-5.088387,-27.138748,-30.191345,-27.242203,-20.140114,-43.933868,-42.80056,-37.53582,-31.09005,-52.078171,-51.042366,-46.459694,-38.306007,-55.471001,-53.960724,-48.17997,-21.782026,-44.832219,-63.806701,-74.076103,-71.578916,-86.295985,-85.535467,-81.625955,-63.048838,-74.872683,-71.68065,-67.788367,-48.257422,-60.266056,-59.051548,-57.939454,-29.496196,-38.977601,-40.146413,-41.977868,-17.133579,-21.465454,-26.275806,-32.320576,-14.283714,2.883739,17.672195,30.291538,-5.053253,16.465759,33.725853,47.41888,5.661678,23.990135,39.548435,51.081791,18.169041,31.766968,39.675179,44.628582,-35.645178,-66.41087,-88.938285,-104.721258,-51.332809,-72.322268,-89.776176,-108.219758,-35.486912,-58.236567,-79.227168,-96.673049,-20.205414,-44.234846,-67.300601,-85.084071,-7.608577,-25.688974,-41.553705,-55.014831,202.871046,165.864524,-210.505514,176.432366
83,-5.188408,5.346721,2.919674,2.052645,10.244637,10.149536,3.200226,-3.50853,-2.961502,-28.62339,-47.101479,-60.032272,-10.733986,-39.571152,-61.140633,-75.028152,-17.923851,-43.114815,-65.721359,-82.145691,-24.806442,-47.657661,-65.005417,-76.844215,-27.581748,-48.994321,-66.074299,-75.465364,-49.182629,-72.186633,-82.254081,-90.323902,-36.049335,-56.700679,-69.063544,-76.948423,-22.399653,-42.265934,-55.538104,-65.607096,-10.373637,-22.199767,-30.91522,-39.751148,-11.369762,-8.697109,-7.887783,-11.49725,-4.132977,15.951691,33.317585,49.479675,3.53548,29.179173,49.137783,64.722347,12.584667,36.407375,54.92363,68.826199,23.658371,42.672901,54.862461,63.480892,-35.295918,-66.860907,-90.167859,-107.689569,-50.492633,-69.271334,-82.732554,-97.916856,-33.295019,-52.910841,-69.599476,-84.448567,-16.376086,-37.64126,-55.598774,-70.240229,-1.870358,-19.007518,-32.496401,-44.613129,197.949657,171.764081,-207.318821,179.037848
84,-32.385292,10.84998,9.413509,1.039074,10.900726,9.468269,1.487846,-6.117668,-41.746445,-59.71653,-55.41996,-47.246132,-56.703529,-77.438049,-68.987617,-58.96946,-63.13179,-82.804184,-74.185524,-65.304909,-63.213615,-79.520073,-73.110695,-63.899803,-30.742072,-53.589292,-67.068141,-73.486387,-67.269818,-77.403864,-73.013656,-67.054927,-53.672408,-63.04751,-57.36144,-50.710982,-36.019695,-45.071811,-40.804302,-36.475104,-15.592473,-22.192172,-21.846864,-20.923633,-7.87159,-2.201157,0.414391,2.63586,9.078255,28.934269,46.063213,63.226604,14.28978,38.269787,59.035492,76.705341,18.622341,41.367588,59.921837,74.64632,22.860775,41.932011,53.818302,63.047333,-35.172479,-62.026251,-82.997092,-100.304961,-47.028558,-61.11568,-71.346426,-84.076088,-28.95026,-41.785084,-54.869564,-68.930132,-11.515587,-24.897704,-38.526514,-51.308109,3.762267,-4.124742,-14.4462,-25.089007,166.115713,183.395158,-197.353964,180.858018
85,0.850296,9.232366,8.735275,-2.643906,-2.736969,-14.232216,-30.775223,-45.622444,-32.834129,-69.19487,-88.496361,-101.280212,-38.314705,-75.706444,-97.178535,-110.353203,-41.497536,-73.970146,-96.544533,-113.268929,-43.054848,-69.576645,-86.445694,-98.288155,-33.540416,-56.794447,-72.444688,-80.127829,-43.873729,-58.937866,-64.797918,-69.353802,-26.986103,-40.456585,-48.32297,-52.562506,-10.506956,-24.900792,-32.706106,-37.578645,3.310934,-5.516597,-11.96334,-18.774842,-0.818081,5.296268,9.264965,14.232502,19.375534,39.894047,54.211006,68.428001,20.323677,42.685318,60.695858,76.148014,18.827076,39.138451,55.890713,68.432064,15.982933,30.1157,40.556545,47.637463,-31.536306,-52.462903,-68.548762,-85.014571,-41.395068,-51.182693,-59.258628,-67.164626,-24.627855,-31.969856,-40.8642,-48.749295,-8.07751,-13.554524,-23.171533,-31.588176,5.888705,5.501653,1.59032,-3.329829,167.545967,192.742626,-188.038731,178.329215
86,-5.003242,12.374536,11.630344,1.354187,-10.284805,-28.849869,-46.716156,-62.362175,-42.709236,-76.580887,-99.018517,-117.776413,-46.070137,-80.660362,-104.635506,-125.539169,-45.690079,-77.201385,-98.062363,-115.855293,-42.963409,-65.650864,-80.279846,-94.688416,-33.530597,-53.508646,-65.390908,-73.84281,-39.815616,-44.526246,-47.934375,-51.440069,-22.715013,-28.509795,-32.925011,-36.171168,-7.880773,-16.537995,-21.437211,-24.999901,4.012295,-1.3829,-5.397357,-9.535375,1.52647,9.76799,16.238022,22.517166,10.052948,24.949322,35.802612,45.364666,12.666092,35.470963,53.05109,65.791798,15.568714,39.34885,55.677624,66.248074,18.147068,34.591827,44.483986,50.703506,-27.633865,-46.479473,-60.317648,-76.211741,-32.036299,-38.008861,-45.952742,-53.499692,-19.175602,-23.718951,-32.645961,-39.605047,-8.145991,-14.33437,-23.439407,-30.974686,0.290906,-6.623967,-13.059595,-19.656576,163.094816,205.161082,-175.856295,179.727322
87,-28.796654,6.360848,13.521652,24.011895,-13.345985,-35.860863,-59.257393,-80.441551,-50.945549,-97.023354,-117.120895,-126.970711,-52.498283,-101.448555,-122.157669,-131.026955,-52.093163,-95.466843,-117.981491,-130.801277,-50.281792,-87.386627,-103.491669,-113.923988,-30.708109,-47.083763,-52.487603,-55.198261,-25.535216,-29.164905,-31.091147,-32.814416,-5.233965,-10.691837,-15.780565,-18.663074,11.495889,6.536837,1.333624,-1.51659,24.150401,22.294122,16.995689,12.180701,1.728001,9.928722,23.034954,33.663311,32.258778,70.181179,74.659653,70.92865,43.135529,82.226372,85.926647,81.61869,51.30003,87.040672,87.665863,82.956963,55.988102,83.374901,83.049488,78.766136,-35.552738,-59.180977,-75.075719,-87.66987,-40.174262,-49.549827,-53.653142,-54.145478,-16.73819,-33.817428,-43.820192,-45.647695,1.98966,-17.760283,-28.143553,-29.452477,16.723061,-2.588083,-11.291557,-11.91925,134.454889,211.280872,-162.177916,203.498159
88,-3.599739,7.276051,0.384808,2.521702,-19.709015,-42.128448,-68.598633,-91.446075,-55.513573,-93.724823,-115.938721,-132.561378,-57.140923,-99.675636,-125.247345,-143.119812,-57.548332,-96.307411,-120.758057,-136.878433,-56.438026,-87.420959,-106.87088,-121.892395,-29.492985,-43.592024,-46.378079,-46.915431,-15.798596,-15.614765,-15.692632,-16.03652,4.640667,4.041132,1.431004,-0.993194,20.385911,20.615869,17.608192,14.847701,31.19001,33.742833,31.913292,28.79008,9.250488,24.74762,40.207901,55.193195,25.369835,59.118061,80.637474,97.644367,28.300266,67.558479,91.62426,108.376408,33.112679,71.800919,94.432869,109.159298,37.435627,69.598217,86.770306,98.097038,-31.410644,-52.98315,-68.060748,-78.10754,-27.814732,-30.337113,-34.923069,-38.381895,-4.286652,-11.695281,-19.556726,-26.825305,14.220996,6.111068,-2.559987,-10.608536,27.599717,21.256591,13.131719,4.230335,131.235924,218.081414,-161.412334,205.544351
89,-10.880699,8.175631,-3.995476,9.320731,-24.595757,-51.554146,-76.881065,-99.590492,-62.072182,-96.226616,-121.768227,-143.58696,-61.508102,-98.255653,-125.500717,-146.904488,-59.584351,-93.507156,-119.820099,-139.610367,-56.22242,-83.636284,-101.80172,-117.762337,-25.793024,-35.786587,-36.187223,-35.945347,-9.931813,-3.883977,-0.890379,1.998676,9.550072,16.015587,16.247645,17.015697,24.611491,31.480916,33.147312,33.244569,34.233255,40.452942,39.768871,37.675347,18.344135,38.679314,55.693188,71.823978,41.40873,74.637909,95.767536,113.413124,42.168446,81.90588,105.691452,123.69112,44.090595,82.198563,105.637035,122.866917,45.082569,75.051842,94.062653,108.343563,-30.035215,-48.121293,-59.805645,-70.568618,-21.000265,-23.931249,-27.808866,-29.387021,-1.961687,-5.022223,-10.970022,-14.611691,13.440965,11.583822,6.693806,2.281925,24.56277,25.112472,20.910851,14.373705,120.472784,226.131259,-165.290251,214.739296
90,-10.527992,7.809142,29.595909,12.636419,-28.958359,-57.76577,-82.413712,-104.624634,-66.687012,-97.057343,-120.72876,-141.986046,-65.194931,-96.976433,-122.875957,-144.213238,-61.853256,-91.253815,-115.660286,-134.803791,-56.568947,-80.419693,-97.695007,-113.365288,-22.796955,-28.64367,-25.77209,-25.148905,0.342653,8.988822,13.047183,16.243878,18.75113,27.657083,28.884805,30.455488,31.975907,42.381037,46.427788,48.535762,39.141981,47.908378,49.535995,49.58379,12.886791,29.249668,47.054729,63.596764,28.452187,71.254463,90.969429,100.609303,32.554092,82.684479,103.742409,110.530643,36.582985,84.305134,101.146259,105.145454,39.334774,77.12265,90.859165,93.724194,-32.546913,-48.616779,-56.118836,-61.759798,-19.498619,-19.405993,-20.129955,-19.117248,4.816409,2.166945,-2.562951,-5.582237,23.266505,19.252111,11.49805,6.456808,36.664122,31.527105,23.400133,17.724468,110.412683,233.961381,-135.22645,227.396695
91,-22.320442,15.16374,-1.895084,1.407415,-25.942955,-54.162827,-83.173943,-106.30188,-64.734764,-110.546265,-136.310692,-154.916439,-63.544807,-115.92762,-144.598446,-165.192146,-60.395966,-105.238895,-129.7966,-146.572094,-56.2286,-90.212288,-107.49361,-119.793377,-24.003744,-29.91968,-27.45096,-21.462405,2.437104,11.547142,11.742767,10.081805,21.772578,29.951667,25.302664,18.912299,36.130104,44.253247,41.56624,37.326519,44.493148,53.894278,53.851608,52.610363,20.85743,42.300797,61.682167,78.951759,38.680744,75.992374,97.003269,112.977676,36.023026,79.196835,102.4296,118.298492,34.831524,75.251541,97.952843,112.312489,33.870678,63.964691,81.478615,92.987537,-24.202703,-35.561445,-42.642735,-50.690234,-7.962901,-4.530319,-4.534024,-4.240833,13.603554,15.590497,13.268435,11.361644,29.4639,33.277235,31.597501,28.978974,39.429676,45.365928,43.885956,39.5646,88.551321,249.306451,-136.662455,228.98544
92,0.358086,0.675797,3.790455,7.785677,-34.73362,-64.66301,-92.018051,-116.648598,-74.145126,-114.784641,-140.331917,-162.754669,-70.453949,-112.794571,-141.451149,-166.559601,-64.170227,-101.865692,-128.48711,-150.984478,-54.513588,-81.83979,-100.887794,-119.432487,-16.968766,-19.856092,-13.520438,-9.710067,10.779831,13.389218,11.195041,7.984205,26.031998,28.337696,24.441245,20.492862,37.631195,44.839259,44.186187,43.053499,45.935514,57.595968,60.742769,62.257259,24.439087,48.428707,68.21125,86.544628,44.716644,78.205032,102.131367,121.004391,40.033035,77.830982,103.313484,121.159115,36.853981,71.741295,95.136852,112.244854,34.849377,62.010841,79.792385,93.991814,-21.045528,-31.331048,-37.996511,-42.812857,-2.988349,4.606334,7.734795,10.18783,16.437589,25.112781,27.475475,29.74857,31.205632,40.865373,42.69936,43.015831,40.51531,49.533587,51.718502,51.108099,89.22349,249.970299,-132.557917,236.759169
93,-5.012283,2.01646,6.130199,5.635219,-35.515251,-65.531502,-87.279053,-104.845848,-78.739471,-111.001053,-132.379589,-152.079964,-72.91008,-104.655991,-128.419762,-150.584278,-64.296455,-92.770844,-113.725433,-133.296432,-51.99852,-72.087364,-87.390404,-104.116173,-12.111232,-11.277848,-4.653573,-0.549023,15.92537,21.214416,19.940567,17.134875,29.085123,37.395247,36.983248,35.415035,39.767204,53.724032,59.081744,62.939046,47.389427,62.572927,70.44876,77.132563,27.363625,53.336334,73.953266,93.196106,49.020195,78.375378,100.881844,119.282341,43.363895,76.079922,101.391907,120.706272,38.485737,68.688869,91.097431,109.250221,33.590584,57.399387,73.565197,87.934341,-17.835001,-25.933506,-30.722744,-34.878609,4.067006,11.688982,16.506688,20.379241,21.540643,32.707032,36.570755,40.084354,34.435117,46.019124,50.539872,53.550451,42.494658,52.589121,56.721458,59.13732,84.426355,252.086856,-126.212568,242.494485
94,-6.702347,6.614766,19.651394,19.26372,-36.220207,-65.758896,-88.023319,-107.161388,-71.619644,-104.202118,-124.906311,-143.990707,-66.423225,-98.77739,-122.757969,-144.58334,-59.588013,-88.16597,-110.951672,-131.768875,-50.402985,-69.635925,-85.355988,-101.913071,-11.28674,-9.53766,-2.225176,2.479217,18.220138,20.577893,16.256784,9.513021,32.103545,39.105918,36.52401,31.043476,42.94982,55.915183,58.314002,57.436899,49.564215,65.245177,72.83634,77.457062,21.874638,46.902008,69.328537,88.88134,46.605949,90.480938,110.433254,119.605465,44.125957,92.247448,110.80164,115.260258,42.520981,85.405941,101.533241,105.632572,40.577202,73.586597,87.313099,91.593704,-28.009184,-36.217728,-37.218949,-37.046419,1.446256,15.228084,18.303748,19.569014,24.431859,38.446177,38.081047,34.25987,40.283931,52.756403,50.904137,46.595502,50.222722,61.128832,59.621073,56.086602,78.004789,258.785834,-106.280394,261.842418
95,-4.265442,7.235852,-1.228695,-3.444685,-31.975365,-62.297745,-86.153984,-106.755581,-62.864799,-93.72963,-111.925678,-129.041748,-60.100479,-90.603275,-112.495308,-132.411919,-55.590477,-83.026028,-104.886932,-125.33535,-49.144821,-67.927551,-83.87907,-100.7971,-11.419318,-11.754006,-6.971992,-3.920966,18.230389,20.21937,12.718979,3.642966,33.227464,37.821572,31.059222,22.399344,44.775162,57.217932,56.778084,52.503041,51.517689,69.284395,76.327585,79.142477,28.88752,55.03561,78.44759,98.31728,53.308353,88.189545,106.186752,119.766312,45.457535,85.28698,107.459335,122.409668,39.037342,75.486431,96.476097,110.428505,33.599682,61.498375,77.276402,88.066864,-17.421891,-21.838651,-21.535271,-23.730992,8.667411,25.009905,31.96294,37.052655,28.069947,43.431597,49.077745,51.891897,41.903953,57.600352,63.269102,65.186637,50.024318,64.595686,69.078704,69.493173,73.882484,266.099522,-107.365952,258.475569
96,-5.505524,3.344279,6.310616,4.15889,-31.923065,-60.644989,-81.160011,-98.143845,-56.628685,-84.790707,-103.849926,-119.831429,-52.934074,-83.736992,-105.678577,-124.953289,-48.355865,-77.309647,-99.741726,-119.253445,-42.702942,-62.092438,-78.552876,-95.860577,-10.356964,-11.351702,-9.546428,-7.161442,25.391152,26.069233,16.286671,4.473509,38.556031,42.212705,34.203615,23.6706,48.11271,58.669499,56.218748,48.986108,53.012173,71.173895,78.44797,80.71137,29.41309,55.932827,79.486713,99.333344,55.308495,87.588501,107.386894,122.227707,45.811443,83.38726,105.834045,120.700035,37.910385,72.480755,93.348999,108.519516,31.567383,58.969574,74.263,85.927048,-14.327331,-17.533721,-18.032602,-21.593193,14.172028,30.060101,38.678853,45.254345,32.772055,49.473751,57.320067,63.170054,45.742544,61.922757,67.649861,70.822536,52.914484,66.592879,70.661923,72.676221,68.414612,269.580949,-101.017685,262.771607
97,-0.240898,3.768689,5.655499,5.694314,-35.715065,-63.226433,-80.583057,-91.778469,-58.551636,-80.391197,-99.083061,-112.86953,-49.60865,-75.000057,-94.22081,-107.513065,-42.061615,-66.865196,-84.466896,-95.295181,-35.468903,-53.738022,-66.139755,-75.189114,-7.066717,-3.672421,-3.942146,-5.296148,38.186208,50.218523,50.547282,46.624402,42.877942,54.814667,49.728533,40.722668,42.270133,52.912755,47.134645,37.904935,37.190421,46.595996,45.511103,41.93384,29.131165,56.222706,80.104122,99.266224,55.691071,87.562408,106.779842,121.33009,46.060066,82.780151,105.482769,120.838795,37.736549,70.946503,91.649151,106.683826,30.519619,56.542168,71.685162,83.798161,-12.472348,-14.423044,-14.551608,-18.918412,16.745168,32.668747,40.835362,46.9355,34.427645,51.665643,59.375182,64.362393,46.771553,64.070622,70.441103,73.639836,54.14801,69.267104,73.567959,75.582751,68.25491,273.493223,-95.280991,268.609506
98,0.028267,0.499746,6.262779,5.267187,-33.184776,-59.513855,-74.540691,-82.780209,-65.277672,-83.915863,-91.056118,-93.955936,-59.821014,-78.795948,-84.229832,-83.85458,-53.85807,-72.761936,-73.940849,-68.872147,-48.152733,-61.194878,-62.444916,-59.421844,11.39431,23.973177,31.914589,38.829524,35.000072,45.136958,52.575968,57.117402,33.144534,46.976132,53.687846,55.38061,30.103573,44.763491,49.313694,48.23831,25.299267,36.892228,41.697892,42.821008,29.521179,56.21212,79.926453,98.380909,58.156528,88.484631,106.091824,119.654446,47.766838,82.866955,104.213619,119.14278,38.039761,69.963226,89.741192,104.820957,29.204979,54.318409,68.742371,80.783615,-11.767406,-13.299989,-12.061276,-16.246657,17.028232,33.729557,42.678365,49.894518,34.2306,52.131056,61.681375,68.746116,46.747532,64.436987,72.817938,78.025289,54.979047,70.467285,75.811043,78.923696,68.55257,274.106312,-88.748817,273.990036
99,-1.215134,7.307359,5.469189,4.582436,-24.083405,-48.085213,-64.343491,-77.156868,-71.086807,-82.50967,-70.32383,-54.464035,-68.779907,-76.662426,-58.403549,-37.387733,-63.408508,-67.957535,-50.559998,-31.235847,-56.881828,-60.29068,-49.318199,-36.063766,27.930761,39.120121,45.055324,54.180244,29.537383,47.465874,61.374846,70.099438,21.71552,44.927747,60.9781,70.159954,14.974784,37.181652,52.593443,61.219605,9.143692,28.173255,38.623586,45.780953,29.184093,55.866108,79.367523,98.238029,59.370518,88.809471,105.870323,118.805008,48.687286,82.354317,102.704544,117.705002,38.134289,69.064178,87.648468,102.126732,27.924156,52.781181,67.089272,79.629478,-11.243453,-12.198732,-10.098662,-13.758609,18.417246,35.845497,45.017718,52.029847,34.529719,53.238118,63.351415,70.723364,46.463418,64.682322,73.171953,78.642237,54.504248,70.81247,76.629606,80.288997,67.402811,281.470234,-83.214254,278.629036
100,-5.13382,7.046957,4.33342,5.258233,-22.950783,-47.930603,-67.818317,-82.176933,-72.804508,-77.927742,-60.177269,-41.567001,-71.597157,-72.469139,-49.159698,-25.589905,-67.11153,-65.18795,-43.167,-22.737465,-60.434303,-60.479279,-45.611,-30.505486,36.114358,51.035913,59.446134,74.099753,34.554481,55.100078,67.056193,71.743296,23.493315,45.430396,59.500597,66.028789,13.037488,34.095984,48.335938,56.526451,3.041949,21.228124,33.439392,42.296377,28.765583,54.948063,77.960815,97.306824,59.730206,88.428841,105.136871,117.601662,49.788837,82.337151,102.490883,117.132339,39.545002,69.104462,87.70752,102.265778,29.186897,52.801151,67.43906,80.575562,-11.992362,-12.179898,-8.551135,-11.168921,19.734629,37.213701,45.606199,51.836877,35.767506,53.969737,63.060323,69.309465,47.239806,65.373185,73.497378,78.420368,54.858819,70.983334,76.499745,79.543423,62.254143,288.630318,-78.895683,284.000395
101,-4.382973,5.918283,3.679848,5.166842,-20.556107,-43.176155,-61.567268,-76.981316,-69.157562,-73.85685,-55.429573,-38.092918,-68.314018,-68.846111,-45.421944,-22.072792,-63.489418,-60.423546,-37.118225,-15.37365,-55.889168,-55.424538,-41.004982,-26.375656,30.067264,43.324274,51.872199,65.22801,34.896022,52.479884,63.360245,69.309033,26.265291,43.027996,57.604119,65.813589,17.882425,32.361477,46.300212,54.438546,9.499251,21.98222,31.640417,39.099188,29.040127,54.822922,77.981873,97.748222,58.751278,87.658195,104.229355,116.623878,48.836288,81.425629,101.043663,115.492859,38.276596,67.340755,85.338249,99.363098,27.750034,49.570999,63.606377,76.337013,-10.798171,-10.898886,-6.593585,-8.557928,20.67095,37.144293,45.08836,50.762358,36.463371,53.799491,61.946531,67.347655,47.745172,65.639453,72.980836,76.958859,55.183194,71.845184,76.833012,78.701332,58.034134,294.61648,-75.052872,289.235117
102,-6.313591,4.40231,1.727257,5.856965,-16.757927,-36.416931,-52.31266,-67.545204,-62.184677,-63.014946,-43.593864,-27.153282,-60.41605,-58.823948,-36.884537,-15.491066,-54.492989,-50.517426,-29.591446,-10.06176,-46.566124,-43.616638,-30.85041,-18.835258,19.466941,29.430246,37.470706,50.236677,32.3863,49.758605,58.449482,63.490168,29.788028,44.901812,57.123021,63.988741,26.131539,38.129953,49.402985,55.702083,21.713544,33.301194,40.647579,46.248465,28.491726,54.283791,77.59655,96.973457,57.743626,86.845665,102.89875,114.572754,48.021641,81.012726,100.283203,113.788834,37.913189,67.821808,85.501671,98.508453,28.223648,50.478058,64.529972,76.71524,-11.497062,-11.290198,-6.852937,-8.561695,20.772839,37.23766,45.140971,50.4809,36.981704,53.704827,60.881275,65.125937,48.434615,65.801733,71.750027,74.268579,55.653362,71.365322,74.980747,75.455978,51.906481,299.195751,-73.139677,295.269043
103,-5.545921,6.868684,-0.417137,4.130794,-10.98484,-25.564384,-36.708755,-46.817894,-56.849728,-50.350285,-31.168556,-15.942993,-57.482929,-49.047318,-26.998329,-6.793213,-52.944603,-43.830872,-23.795815,-5.500603,-45.581703,-39.199219,-27.373581,-16.239738,15.119835,24.863371,33.783095,45.886855,27.454789,43.474945,51.899801,57.342174,26.429115,40.532291,51.609512,58.083302,23.96762,34.608883,44.884337,51.216718,20.328668,30.021136,36.536731,42.300699,28.311596,53.730469,76.763077,96.733932,58.074131,87.73304,103.657837,114.90612,49.008121,82.147293,101.210518,114.172668,39.347076,69.713345,87.860641,100.475693,29.914398,52.858257,67.314262,79.343033,-12.982962,-12.993954,-7.303962,-7.417953,19.340476,35.372674,43.200588,49.132765,35.14358,51.73715,58.743784,63.11275,46.319725,63.729327,69.449145,71.802144,53.312897,69.048508,73.151082,74.120193,46.380558,306.245101,-73.536816,299.580503
104,-30.921249,3.048124,0.770874,1.258844,3.288689,0.975723,-9.981079,-23.294506,-33.177223,-17.663612,3.040352,15.012703,-45.933723,-22.843494,0.618439,19.237518,-52.924004,-36.470547,-13.844833,1.569328,-56.317635,-69.125061,-74.654789,-78.881779,-16.938632,-20.774382,-16.997912,-12.803948,7.362069,29.974885,37.324481,41.385188,23.959469,42.391534,48.48735,50.067728,34.66205,51.795381,54.213527,54.695798,44.306847,55.542705,62.005626,68.074272,28.281155,53.745975,76.601143,95.633125,58.267765,87.814064,103.058395,113.88279,49.481277,82.632866,101.018257,113.936806,39.691029,70.479012,88.153267,100.32692,29.842014,53.835926,68.127766,79.52877,-13.897239,-14.473926,-9.013337,-8.758678,17.408676,33.264576,40.754963,45.888522,33.378938,49.483446,56.365714,60.062156,44.761762,61.150013,66.760717,68.516713,52.241281,67.340739,71.41324,72.094162,15.545053,309.408513,-72.680197,300.954635
105,-15.891609,11.983779,0.556355,-0.785589,4.723091,7.540855,5.153732,1.093712,-17.578068,7.507439,29.694443,41.883202,-28.342381,0.582047,21.907654,36.853065,-33.957138,-14.972649,2.476158,13.592949,-34.961529,-45.546741,-50.794601,-55.584126,-20.838356,-27.851844,-25.547133,-20.355406,-6.753643,11.615808,23.751925,32.323377,12.440485,26.014337,34.51669,36.635099,26.657838,35.711931,39.149946,40.418732,39.006932,45.610089,47.721336,48.667352,27.820587,53.191967,75.775051,94.637547,58.006325,87.780247,102.823162,113.563442,48.989182,81.879215,99.847698,112.591496,38.820705,69.0909,86.534557,98.687153,28.446751,52.248802,66.204929,77.13438,-13.892978,-14.900436,-9.233477,-7.861383,16.857615,32.282066,40.170681,45.812631,33.185906,48.813886,56.114822,60.629086,44.549896,60.453777,66.432513,68.697827,51.996564,66.780477,70.606409,70.958263,-0.176125,321.541203,-71.953411,300.317957
106,-15.952721,7.658286,0.336285,-0.228971,7.319641,13.133583,23.265724,33.417206,2.284355,29.921265,50.858345,63.72139,-7.438087,20.282478,40.937576,56.91124,-14.312325,7.348251,27.10247,40.980034,-17.181759,-24.562283,-29.038582,-34.053097,-23.328688,-33.850341,-38.72498,-40.798682,-11.330892,4.719275,16.478097,25.734484,6.976994,23.546235,29.670085,32.607305,20.773827,33.422843,36.330237,37.756116,30.388551,37.705851,41.671586,44.009025,27.086506,52.071991,74.801903,94.094009,56.609859,86.652031,102.249641,113.352699,47.806892,81.314278,100.01564,113.071976,38.03421,68.746262,86.516304,98.858986,28.198643,52.029133,66.004601,77.201958,-14.131767,-15.330343,-9.305478,-7.348423,16.70645,32.068471,39.58751,44.661418,33.325524,48.519089,55.410312,59.455273,44.79943,60.453468,66.251091,68.236367,52.029847,67.01272,71.191247,71.835057,-15.977325,329.296098,-71.465607,300.185595
107,2.497444,-5.941069,0.526943,-0.116214,3.432541,12.669525,24.820518,28.790016,-2.862682,24.065208,43.657036,56.442146,-11.907063,20.429192,40.349579,52.183113,-16.749916,8.249245,26.903687,38.366089,-17.206821,-18.224716,-17.18668,-15.590286,-20.551896,-27.175121,-25.98834,-24.244632,-5.876601,7.934804,16.647911,23.073288,13.000314,24.996937,30.648582,31.588732,26.818513,36.692157,40.14419,40.433491,37.790141,46.498307,50.282249,51.532448,27.045135,52.050133,74.971104,94.27969,56.291542,86.191463,101.780033,112.881832,47.171631,80.56303,99.135189,111.89661,37.205772,67.929668,85.666065,97.953587,27.376671,51.382084,65.48996,76.805019,-13.705998,-14.77144,-8.932629,-7.10704,17.074298,33.079387,40.7612,45.890992,33.643909,49.140237,56.142178,59.84992,45.036428,60.976865,66.621223,68.162575,52.050472,67.089538,71.139562,71.554093,-13.397312,323.367688,-70.856094,300.08204
108,-1.058292,-7.346694,0.534554,0.078176,3.678989,14.936199,30.171032,37.158909,-1.959972,23.998318,42.160892,54.159222,-11.09024,19.282665,39.498539,52.485867,-15.23243,7.670918,26.955929,39.340954,-15.387154,-12.247467,-7.002411,-1.564522,-16.382446,-21.54299,-20.610126,-16.886515,0.235269,14.489425,22.640109,28.091683,18.566805,31.113501,38.464332,40.786085,31.714579,42.038878,47.330826,48.735525,41.432427,52.358421,55.367334,56.006389,26.758175,51.741714,74.735928,93.880177,56.608315,86.341381,101.977444,113.002682,47.384777,80.577335,99.058056,111.601009,37.048759,67.809963,85.134373,96.970081,26.809158,50.864296,64.792786,75.796452,-13.77417,-14.957123,-9.298562,-7.201395,17.07967,32.9084,40.880563,46.244822,33.63687,49.10047,56.327429,60.024735,45.120347,60.966058,66.517112,67.750576,52.268883,67.26423,71.087507,71.066388,-14.392462,315.966222,-70.258398,300.105443
