takenoko1/special-research/HandMotion_SimilarSearch_自分用/NewProject/handData/key/d4_feature_d2/130.csv
,vel_0x_L,vel_0y_L,vel_0x_R,vel_0y_R,posFromWrist_1x_L,posFromWrist_2x_L,posFromWrist_3x_L,posFromWrist_4x_L,posFromWrist_5x_L,posFromWrist_6x_L,posFromWrist_7x_L,posFromWrist_8x_L,posFromWrist_9x_L,posFromWrist_10x_L,posFromWrist_11x_L,posFromWrist_12x_L,posFromWrist_13x_L,posFromWrist_14x_L,posFromWrist_15x_L,posFromWrist_16x_L,posFromWrist_17x_L,posFromWrist_18x_L,posFromWrist_19x_L,posFromWrist_20x_L,posFromWrist_1y_L,posFromWrist_2y_L,posFromWrist_3y_L,posFromWrist_4y_L,posFromWrist_5y_L,posFromWrist_6y_L,posFromWrist_7y_L,posFromWrist_8y_L,posFromWrist_9y_L,posFromWrist_10y_L,posFromWrist_11y_L,posFromWrist_12y_L,posFromWrist_13y_L,posFromWrist_14y_L,posFromWrist_15y_L,posFromWrist_16y_L,posFromWrist_17y_L,posFromWrist_18y_L,posFromWrist_19y_L,posFromWrist_20y_L,posFromWrist_1x_R,posFromWrist_2x_R,posFromWrist_3x_R,posFromWrist_4x_R,posFromWrist_5x_R,posFromWrist_6x_R,posFromWrist_7x_R,posFromWrist_8x_R,posFromWrist_9x_R,posFromWrist_10x_R,posFromWrist_11x_R,posFromWrist_12x_R,posFromWrist_13x_R,posFromWrist_14x_R,posFromWrist_15x_R,posFromWrist_16x_R,posFromWrist_17x_R,posFromWrist_18x_R,posFromWrist_19x_R,posFromWrist_20x_R,posFromWrist_1y_R,posFromWrist_2y_R,posFromWrist_3y_R,posFromWrist_4y_R,posFromWrist_5y_R,posFromWrist_6y_R,posFromWrist_7y_R,posFromWrist_8y_R,posFromWrist_9y_R,posFromWrist_10y_R,posFromWrist_11y_R,posFromWrist_12y_R,posFromWrist_13y_R,posFromWrist_14y_R,posFromWrist_15y_R,posFromWrist_16y_R,posFromWrist_17y_R,posFromWrist_18y_R,posFromWrist_19y_R,posFromWrist_20y_R,posFromBody_0x_L,posFromBody_0y_L,posFromBody_0x_R,posFromBody_0y_R
2,-31.158314,21.244673,3.380127,1.234699,6.520557,12.96896,23.065166,30.606594,0.27832,28.57893,47.940502,57.37421,-9.660187,21.357594,39.979534,53.058987,-15.726414,7.005787,23.497868,35.112133,-17.677574,-19.327126,-20.200939,-20.180626,-22.924408,-35.249173,-38.245241,-37.217467,-12.782891,2.195721,10.996822,18.37964,7.461179,19.854672,25.47575,28.843617,21.845258,29.424689,31.785654,33.437107,32.408839,36.116334,36.1871,35.17674,28.719406,53.314018,76.603088,96.426315,54.940853,86.317406,103.316002,115.508766,46.204834,80.443153,100.037842,113.076668,36.991882,69.015999,87.003021,98.571053,28.307362,52.246914,67.361298,79.46846,-11.686327,-12.339523,-6.722644,-5.067795,17.616219,32.880736,40.03378,44.429545,34.505142,49.785714,56.041895,58.286831,46.944701,63.376918,68.041482,67.698088,55.168374,71.349328,74.893802,73.603589,-12.977114,328.085574,-69.887838,295.487284
3,1.668777,-3.771962,1.842613,0.752923,3.446503,8.89492,20.532246,27.073002,-1.428165,27.751293,46.670666,57.696819,-10.159035,21.011295,41.053333,55.049572,-15.297146,9.168835,26.463032,39.041004,-17.494354,-11.842976,-4.992771,1.094742,-21.218924,-29.037143,-27.347652,-26.920648,-6.709676,7.161072,14.781752,20.665022,11.559801,22.2609,27.418974,29.938329,25.127478,33.148547,35.660492,36.202291,34.6857,40.980661,40.332899,38.703614,27.679081,51.659832,74.844131,94.895325,53.447342,84.42009,101.782608,114.281502,45.009499,79.320488,98.992195,112.0364,35.783901,67.989807,85.975685,97.707939,26.804638,51.196404,66.378078,78.528099,-11.903071,-12.941837,-7.705216,-5.113984,17.203356,32.337394,39.271039,43.259807,33.962294,48.765288,55.189369,57.735894,46.299594,62.090719,66.73577,66.574972,54.641334,70.802467,73.961865,72.165977,-12.200375,326.002084,-68.937263,297.928679
4,-8.116493,1.470771,0.794621,0.613058,10.445137,24.563885,40.485592,49.754162,10.016899,33.103466,47.578526,56.612606,-0.413361,27.806225,48.891163,64.308872,-6.575832,16.582375,34.944134,49.060192,-9.782524,-0.66679,7.533016,15.094528,-19.023202,-24.15108,-22.265346,-17.754787,-15.477185,-9.585455,-1.463855,6.838673,2.309589,13.102326,22.15611,25.936655,17.741017,26.445664,31.491166,33.14651,30.033424,36.91736,37.432976,36.840049,27.536201,51.181812,73.94228,93.59911,53.000793,83.559551,100.731411,113.30389,44.48616,78.329487,97.920055,111.159267,35.260391,66.959896,84.671574,96.280575,26.362438,50.3722,65.278988,77.004719,-11.807605,-13.075773,-8.524583,-6.419511,17.049536,31.694696,38.408262,42.349853,33.582035,47.971549,54.325234,56.976302,45.825845,61.170884,65.785184,65.747022,54.197163,70.048247,73.144166,71.31728,-20.855398,328.530578,-68.681173,299.59946
5,46.618137,-8.926578,0.516415,0.37149,0.580788,-5.226974,-15.857964,-26.767502,-38.575172,-19.859047,0.295258,13.12809,-48.548527,-27.379303,-5.427361,13.598557,-52.792053,-38.76955,-17.116241,-0.358658,-54.104919,-64.475212,-71.408615,-76.696014,-17.835186,-27.913347,-29.396901,-29.916284,-1.567164,18.07978,22.082627,24.361896,18.106271,30.720583,31.893038,32.435762,30.918123,40.547235,39.732376,39.698414,40.738167,48.692732,51.527446,54.130041,26.973953,50.429993,73.081627,92.586594,52.079544,82.383156,99.554214,112.310371,43.818569,77.286873,97.06501,110.503235,34.895496,66.29734,84.083977,95.81852,26.190376,49.977894,64.826889,76.648407,-11.892882,-13.33247,-9.024884,-7.263701,15.919009,30.74553,37.715237,41.813242,32.669673,47.277906,53.79134,56.328911,45.160855,60.70541,65.396712,65.319524,53.63931,69.718068,72.980651,71.224592,25.62541,320.396937,-68.302088,300.763888
6,-41.845436,5.595267,0.807838,0.270899,9.576416,17.186165,28.27549,37.7314,1.455173,28.639069,45.877075,55.5019,-10.486965,19.806061,39.257126,55.928993,-17.969799,7.582512,25.88253,40.320625,-21.759396,-13.76524,-6.963444,0.254173,-23.625522,-34.876077,-34.411343,-29.960929,-11.799022,5.262494,12.893424,18.054956,8.934667,25.776289,30.076032,32.234024,23.913279,36.403782,37.93476,38.022322,34.218929,44.989127,44.410896,40.486905,26.584167,49.947453,72.572937,92.322121,51.560497,82.047272,99.086266,111.653824,43.022404,76.817207,96.275826,109.292221,34.002743,65.555305,83.162727,94.692993,25.395298,49.049778,63.918343,75.892181,-12.096782,-13.361122,-8.688345,-7.1804,16.430179,30.66192,37.15195,40.905325,33.33843,46.996695,53.041381,55.340349,45.638371,60.521888,64.84738,64.717766,53.680374,69.107356,72.245697,70.580906,-16.323223,326.364188,-67.597446,301.406771
7,8.444595,-4.818076,0.202389,0.193032,0.158501,7.654037,20.589066,25.741882,-8.593483,17.318687,35.990753,47.249107,-17.856216,11.188431,32.300949,46.588097,-22.345734,-0.349159,17.912292,30.988884,-22.940025,-17.974377,-11.258125,-4.80114,-20.250615,-27.091079,-23.073721,-20.290568,-3.525331,13.494009,20.850706,25.482975,15.210238,27.493198,32.900867,34.77882,29.112787,38.332309,41.716232,42.132553,39.521869,47.580236,47.663414,46.600998,25.827427,49.040165,71.629314,91.188755,50.407276,81.267414,98.448429,111.326122,41.678181,76.05257,95.959339,109.194546,32.724724,64.833927,82.795315,94.56522,24.403896,48.660164,63.673439,75.734425,-12.476424,-13.991655,-9.37822,-7.725285,15.699054,30.602146,37.383329,41.416742,32.873264,47.264321,53.439548,55.724869,45.324494,60.744992,65.333541,65.416225,53.289618,69.072405,72.238596,70.597579,-7.866983,321.767071,-67.383413,301.820761
8,-10.59454,2.998971,0.295658,0.308196,4.823971,15.035477,31.838322,44.581432,4.939384,30.315456,47.974491,60.753078,-3.170929,24.079571,45.532322,62.824917,-8.884907,12.834148,31.110706,45.691395,-12.019901,-3.634586,6.66378,16.244717,-20.975689,-28.949396,-27.137268,-23.342026,-9.089352,4.827585,13.853828,20.42222,8.805856,23.092678,30.195272,32.088169,23.591992,34.424867,38.012998,37.131078,35.242566,44.857228,45.396927,42.40938,25.616169,48.843613,71.422462,90.971375,50.037804,81.185074,98.524017,111.387062,40.99308,75.887833,96.01284,109.105453,31.901379,64.611511,82.684822,94.267044,23.61042,48.269863,63.384933,75.376282,-12.649757,-14.362714,-9.806212,-8.224414,14.882158,29.798464,36.865922,41.207841,32.274285,46.837255,52.943568,55.145897,44.939356,60.59253,65.006017,64.87029,52.929551,68.886228,72.077921,70.368114,-18.469248,324.924647,-67.09548,302.287564
9,33.108845,-6.472987,-0.229797,0.357288,2.177124,1.053429,-4.611053,-11.518593,-31.152763,-10.52948,11.86203,26.198158,-42.41993,-17.554951,6.08242,26.196213,-47.860565,-30.810699,-8.682518,8.591766,-49.885254,-56.67841,-59.411774,-59.805279,-17.67729,-27.358829,-28.89592,-28.740062,-0.931381,17.53545,22.754162,25.617282,19.713449,31.607442,33.988971,34.257955,33.355164,42.394807,42.225487,42.296253,43.699099,52.300685,53.700628,54.62108,25.443306,48.756008,71.247597,90.83828,50.174332,81.285095,98.644867,111.543732,41.269112,75.973091,96.046715,109.219666,32.214146,64.611511,82.729225,94.453239,23.879929,48.521519,63.556652,75.497131,-13.073303,-14.747974,-9.97757,-8.221635,14.442866,29.297236,36.316344,40.646962,31.767067,46.151826,52.331128,54.763044,44.36304,59.843065,64.351401,64.398331,52.331622,68.174246,71.273128,69.478353,14.635878,318.569063,-67.328997,302.762255
10,-28.454018,7.833966,0.015163,0.209643,6.377678,12.708549,24.160309,33.390541,-4.64035,23.880272,43.97541,56.017227,-14.993649,16.798668,38.133659,54.899025,-20.818176,6.007633,25.81398,40.843391,-22.704906,-16.95734,-9.233437,-1.045876,-23.544629,-35.205639,-34.998405,-31.607504,-11.71924,3.775111,12.109626,18.0163,10.264771,25.365217,30.527736,31.827336,26.137159,36.566556,38.997485,38.506939,37.23204,46.149232,45.925387,42.177569,24.964314,48.249092,70.957661,90.575809,50.517654,81.374531,98.69997,111.445827,41.87376,76.222286,96.098728,109.023342,32.74807,64.945965,82.74931,94.078045,24.297409,48.741417,63.533821,75.160847,-13.073921,-15.029865,-10.706966,-9.298995,14.708392,29.541891,36.336906,40.533032,31.681728,45.800466,52.139207,54.872281,44.04521,59.282372,63.72729,63.957001,52.006629,67.665422,70.801108,69.292546,-13.81937,326.495933,-67.315063,303.064801
11,-0.53175,1.679673,0.108833,0.068852,5.72628,13.01199,27.467594,39.44418,1.967182,28.978901,46.666775,57.806225,-7.127724,21.137524,40.615368,55.313015,-13.424263,8.149509,25.099812,37.884808,-16.712379,-11.556587,-4.413357,2.141991,-21.296606,-32.595449,-34.327795,-33.306443,-9.315358,3.862921,11.247344,17.349396,9.825726,22.23163,26.518467,27.996525,24.061048,32.86079,34.580478,34.05739,34.555098,42.34269,42.141877,39.060902,25.460129,48.480835,70.786343,90.388699,49.354649,80.363789,97.750912,110.516682,40.526218,75.688763,96.01141,109.032269,31.679363,64.939327,83.181095,94.514751,23.714333,48.733864,63.820095,75.323811,-13.081887,-14.835907,-10.424396,-8.876683,14.55698,29.7687,36.434843,40.57916,31.915515,46.698564,52.593814,54.95163,44.456468,59.917783,63.810653,63.562787,52.387815,67.646094,70.461296,68.690726,-14.368773,328.308323,-67.223883,303.266369
12,-1.931763,-9.490915,0.537872,-0.545935,5.17931,15.920734,27.472401,31.746998,2.158184,32.131062,47.257519,55.887051,-8.307724,26.840687,45.468578,58.06612,-14.172878,11.977558,28.524914,41.077023,-16.756783,-7.864952,0.012188,9.100685,-18.096761,-24.701153,-21.342918,-16.134024,-3.423011,7.429871,14.248043,19.858006,16.34941,25.789442,33.091675,36.133254,30.837538,39.208733,43.030466,43.401956,42.375294,52.302599,53.925523,52.575289,24.955959,48.026733,70.420246,89.664288,49.474983,80.060177,97.381611,110.326252,40.879898,75.085545,95.239162,108.604717,31.914997,64.054241,82.181568,93.862438,23.478527,48.005676,63.136883,75.195522,-12.708667,-14.302754,-9.96874,-8.286103,15.408642,29.981863,36.753042,40.776452,32.588903,46.92667,52.867553,55.041415,44.866491,60.459643,64.76587,64.555363,52.745041,68.442242,71.59491,69.84515,-16.322823,318.94077,-66.708298,302.843796
13,36.805973,-4.484068,0.194378,0.099356,-1.415176,-5.960312,-16.843872,-30.806751,-39.252548,-20.277214,2.887688,16.441498,-49.475098,-23.635082,0.987854,20.446243,-53.560181,-35.868359,-11.379204,6.269302,-54.207172,-63.310833,-66.516094,-67.746563,-12.60789,-18.319989,-16.092404,-12.105983,3.609806,25.339158,30.724041,32.614468,21.822472,37.937848,40.797324,40.3019,34.784625,47.7624,47.488352,46.58519,44.870566,54.88883,58.052612,60.68318,24.595184,47.818623,70.167732,89.266548,49.711132,80.118713,97.303162,110.38868,41.082687,74.562607,94.439735,107.778969,32.012444,63.30122,81.573601,93.942947,23.445854,47.983074,63.140144,75.611572,-13.661846,-14.967559,-10.021351,-8.145126,15.475209,30.365456,37.022398,40.938424,32.514185,47.336075,53.087817,54.948419,44.485614,60.669101,64.992123,64.738514,51.983473,67.76095,71.027238,69.598889,20.466986,314.499094,-66.530085,302.985544
14,-31.38073,16.364724,0.385494,-0.209149,4.765549,8.436241,17.30278,24.131355,-8.649731,20.164719,41.632118,52.690544,-17.911377,13.748817,34.894867,50.221252,-22.500401,2.78635,22.843781,37.772713,-22.069931,-25.673618,-27.945442,-28.926601,-22.595896,-34.582392,-36.117198,-32.823802,-13.756325,4.216565,13.678828,20.268585,6.997557,23.312201,28.686216,29.739863,22.163952,33.296378,35.411577,34.842485,33.150091,40.004387,41.898457,41.830779,24.466839,47.834988,70.059528,89.072514,49.282837,79.888287,97.022839,109.940243,40.478725,74.438496,94.517498,107.640667,31.471939,63.295727,81.648731,93.863583,23.245182,47.960644,63.102722,75.291653,-13.888347,-14.992383,-9.723282,-7.401466,15.052836,30.268261,37.030055,41.137198,32.408839,47.61037,53.215579,54.912295,44.579537,60.907704,64.888383,64.339854,52.004283,67.665484,70.72639,69.087905,-10.90579,330.949666,-66.136637,302.862244
15,-15.109921,13.498578,-0.354424,0.228785,10.476151,18.710918,26.503201,35.511875,14.179173,41.949978,59.594479,69.885006,7.075367,32.178898,50.492764,64.565563,0.402718,21.719513,37.384815,48.208523,-4.191685,-5.394745,-10.266323,-15.73637,-22.279178,-37.478857,-49.016551,-58.175681,-19.467373,-10.240194,-2.857624,3.412451,-3.456788,9.362165,14.000362,18.418728,10.017152,20.350466,21.175945,22.505987,19.946062,27.273737,31.035325,33.28693,24.213181,47.520447,69.588833,88.374081,49.909916,80.324993,97.33057,110.265598,41.207428,74.81226,94.724865,108.047047,32.230854,63.647747,81.897984,94.290218,23.959293,48.474655,63.538685,75.798512,-14.377287,-15.775192,-10.455889,-8.110299,14.890494,29.957842,36.649611,40.520682,32.349682,47.10519,52.808767,54.665725,44.604113,60.424816,64.558821,64.235125,52.15977,67.601449,70.646115,69.015595,-26.018915,344.486931,-66.494265,303.129716
16,59.112225,-24.846884,0.153923,-0.236195,-1.628952,-10.614853,-26.259727,-43.393593,-49.006348,-32.595863,-9.242477,5.012054,-59.622917,-37.056026,-12.030029,8.998833,-63.15033,-48.401585,-23.378792,-4.431267,-63.423729,-76.493225,-82.351341,-86.268482,-15.385239,-23.928593,-24.451743,-23.560252,-0.481715,21.77054,26.942137,29.095868,17.851056,32.737784,35.122276,35.407563,30.444682,41.588285,41.700053,41.454781,41.11645,49.461401,52.671002,56.057642,24.111786,47.379398,69.702473,88.858051,50.206947,80.442753,97.439747,110.168438,41.413136,74.800014,94.661465,107.80695,32.099934,63.422871,81.524906,93.706112,23.390522,47.524738,62.36927,74.390774,-13.749841,-15.025666,-10.234143,-8.357116,15.598525,30.21108,36.847397,40.623064,32.770264,47.556956,53.445846,55.365111,44.818017,60.85324,64.893137,64.351833,52.323347,68.106073,71.217306,69.551465,33.096485,319.649665,-66.337166,302.903138
17,-41.349907,6.227344,-0.021458,-0.090526,9.260216,14.497948,15.667076,13.031731,-9.467754,16.851196,37.07943,49.164619,-21.722374,9.371796,30.440941,48.527756,-27.496376,-2.627335,16.571732,32.365837,-28.625736,-29.227924,-29.397583,-26.234035,-24.194676,-34.265118,-36.616389,-37.011715,-10.637805,7.63655,15.525536,19.659046,10.150162,27.72223,31.524759,31.961087,24.587347,37.327383,38.671875,38.530837,34.399858,44.769419,45.573348,43.534473,24.32373,47.741661,70.100327,89.25808,50.062866,80.515251,97.593613,110.338326,41.27821,75.076332,95.080147,108.194847,32.034931,63.870163,82.01992,94.046516,23.41959,48.090019,63.087273,75.061684,-13.948245,-15.31719,-10.381109,-8.149819,15.060246,30.191999,37.069699,41.037533,32.37395,47.578754,53.527604,55.472556,44.572744,60.865343,64.932843,64.423834,52.155756,68.096996,71.085901,69.305822,-8.24564,325.895672,-66.350842,302.831276
18,-9.409561,10.035059,-0.536671,-0.165553,7.406158,13.81937,25.095863,36.810493,3.710175,32.311134,52.809105,64.699974,-5.085754,23.357849,43.892326,59.876747,-10.801849,12.431087,30.779457,45.001373,-12.796726,-13.332081,-15.709591,-17.860336,-25.169221,-39.027557,-44.585032,-45.355245,-16.279385,-4.610903,3.723303,11.203562,2.747152,16.717442,21.676124,24.831137,17.514269,27.516354,28.864119,29.246971,27.548279,34.726764,37.766675,37.9418,24.602108,48.140202,70.716419,90.117245,50.94223,80.952473,97.816601,110.477085,42.134228,75.513096,95.445042,108.649921,32.75671,64.18745,82.276669,94.375362,23.809776,48.082352,62.856388,74.691525,-13.971957,-15.254698,-10.326274,-8.532054,14.798918,30.22837,37.240562,41.246373,32.031112,47.216465,53.476227,55.641938,44.275663,60.495335,64.726967,64.366592,52.038739,68.103047,71.203103,69.555911,-17.634201,335.939115,-66.866512,302.674106
19,-13.656349,10.266994,0.18877,-0.353583,12.717876,24.904804,34.963646,45.360947,23.073578,49.639549,67.477798,79.304695,15.263729,39.76284,58.674774,74.929276,7.181797,27.917175,43.281097,55.636024,0.787811,3.69627,4.085197,4.854069,-23.020615,-38.685336,-50.227538,-58.868767,-25.114942,-20.421849,-14.284908,-8.174026,-8.850007,2.268401,8.050154,12.381452,5.615891,15.836943,19.196351,21.4876,16.918995,26.312036,30.07597,31.341792,24.968491,48.202801,70.742455,90.544968,50.809765,80.464439,97.169724,109.597778,42.283459,75.455589,95.18795,108.112221,33.125553,64.277115,82.063065,93.847733,24.33918,48.131332,62.755852,74.404907,-13.599046,-14.970832,-10.06859,-7.780428,15.493178,30.560588,37.438966,41.562041,32.700857,47.393318,53.439115,55.519981,44.905208,60.896095,64.950565,64.535541,52.588071,68.516096,71.4083,69.51849,-31.277933,346.201076,-66.665125,302.31549
20,65.612755,-27.338945,0.009556,0.624482,-3.054886,-12.077293,-27.68074,-44.999371,-48.908443,-33.601341,-10.498924,3.87188,-58.788872,-37.229691,-12.539978,8.353271,-61.797295,-47.973747,-22.99221,-4.400482,-61.616592,-77.651997,-85.666924,-91.972504,-15.115636,-23.63355,-24.38814,-24.171458,0.530683,23.121701,28.541967,31.017602,18.162216,33.528806,36.165055,35.906012,30.176624,42.645699,42.699113,41.349805,40.543839,49.077313,52.71608,55.81416,24.93679,48.187065,70.560322,89.872456,51.599178,81.450291,98.131771,110.3092,42.961521,76.29427,95.646,108.158855,33.625317,64.961987,82.358494,93.655643,24.706421,48.828564,63.188095,74.416752,-13.862659,-15.659719,-10.706348,-8.398674,14.703391,29.805257,36.830416,40.967446,31.779109,46.402594,52.757946,55.156826,44.042493,59.592667,63.91958,63.752299,51.932899,67.485482,70.456417,68.730555,34.346609,318.889872,-66.643782,302.967714
21,-48.584576,6.06247,0.04921,-0.501599,10.567474,18.053226,23.138065,23.724232,-3.4865,25.370693,44.581661,55.004368,-14.769287,17.831097,38.638058,55.666065,-20.552616,6.945133,26.179562,40.687351,-22.042465,-17.891464,-14.097576,-8.102875,-24.25198,-34.646612,-36.910938,-36.862649,-10.130773,7.524843,14.345609,18.4128,10.93853,27.701297,30.87428,31.942438,25.457781,36.876482,37.454712,37.746298,35.223238,45.252554,44.455912,41.151957,25.381508,48.882465,71.229,90.911121,50.687656,80.785618,97.627201,109.980755,41.870441,75.888577,95.729771,108.451023,32.586079,64.960957,82.766132,94.046688,23.799934,48.333149,62.880421,74.051914,-14.088912,-15.798164,-10.614834,-7.888862,13.723844,29.545164,36.437498,40.581506,31.23799,46.471261,52.761034,55.216539,43.964873,59.906483,64.104276,63.936685,52.131489,68.119041,71.063856,69.201525,-14.252987,324.965974,-66.609592,302.479746
22,9.340611,0.640722,1.007423,-0.536179,0.437279,4.562988,12.504501,15.149345,-11.122856,17.734337,38.664207,50.521889,-18.564777,12.953453,35.222282,50.463982,-21.189995,-0.492153,19.046974,33.560486,-19.846973,-25.917892,-29.860382,-33.528671,-20.538743,-27.509191,-26.920277,-27.520121,-5.664859,9.375195,16.799632,22.748975,12.863784,23.274348,27.193461,28.461012,26.283445,35.26634,37.555551,38.132794,36.600519,44.002479,47.038253,49.32592,25.59803,48.846188,71.187572,91.101093,50.78968,80.852795,97.525806,109.7822,41.815567,75.439281,94.915409,107.568684,32.352161,64.144535,81.999149,93.655987,23.516865,47.771473,62.418709,73.907032,-13.431085,-15.229442,-10.714252,-7.949625,14.249649,30.159333,37.037959,41.078782,31.186428,47.005525,53.425036,55.82793,43.425545,60.14663,64.732463,64.774947,51.27359,67.44275,70.75603,69.222397,-4.972773,325.621871,-65.662565,301.958743
23,-0.140934,-0.889391,1.037292,-1.84078,-2.451668,-1.323509,3.979626,4.677601,-7.753086,19.49873,38.814983,50.308628,-14.425278,14.610386,36.688557,52.485752,-17.603474,2.990971,22.729282,37.0471,-17.544193,-23.303947,-26.334686,-28.61824,-14.233779,-15.415188,-9.72921,-6.377212,0.64029,12.924176,21.374349,28.048519,14.144302,24.851515,30.521376,33.767595,23.998495,34.026453,37.844666,40.300789,31.967509,40.402121,46.606185,52.494457,25.084534,48.663197,71.429386,91.066647,52.075481,81.818905,98.73167,111.247845,43.193893,76.138287,95.663624,108.540745,33.194618,64.113865,82.195873,94.326382,23.377132,47.326584,62.084255,74.026394,-13.535814,-14.661647,-9.67913,-7.288154,14.239769,30.562687,38.051777,42.677747,30.290368,46.292123,53.702728,56.963829,42.123723,59.310159,65.023987,66.101223,49.93657,66.968754,71.164324,70.584426,-5.174675,324.81169,-64.686241,300.197173
24,3.527584,-16.593447,2.387753,-3.059177,6.137352,10.593796,8.924789,1.431885,-7.985859,15.080452,32.740059,40.809402,-17.193489,11.1866,30.474586,45.484543,-25.204067,-1.974964,16.572533,28.565598,-30.775223,-34.968853,-37.445812,-38.944416,-18.331536,-23.421499,-21.913801,-21.676679,4.300607,23.241805,29.138414,32.597734,22.60238,40.013773,43.557876,44.629369,35.298697,49.629856,49.999988,51.465696,45.548524,58.676106,64.636997,69.443958,26.133671,49.357338,71.49147,90.357857,52.065468,81.753273,98.55835,111.244926,43.553123,76.385765,96.016731,109.966736,33.487759,63.913193,81.987076,94.535294,22.844181,45.898075,60.072556,72.15477,-13.88316,-15.748331,-10.062415,-7.68947,13.061015,28.736851,37.508126,43.896762,28.969218,44.998698,53.878037,59.419272,40.836844,56.413694,63.538519,66.593806,49.293193,64.917035,69.947964,70.684523,-1.703739,308.242279,-62.355137,297.162032
25,19.00692,-2.461804,5.396461,-7.426784,-4.380684,-15.520363,-28.410015,-43.873272,-30.235291,-25.414696,-17.899475,-10.807114,-35.356693,-15.394707,2.858505,15.560989,-35.781898,-18.261909,-1.539917,9.84272,-33.7813,-31.316643,-26.17012,-20.636101,29.539298,48.842723,61.675879,73.300333,31.015379,41.1916,46.963967,50.303738,20.996622,35.569534,43.631359,46.329296,10.509303,25.13569,32.148005,34.588876,-0.172098,14.43138,22.019147,25.574921,26.876221,51.623096,73.331108,91.492538,52.432537,79.770699,95.460777,107.697487,44.105186,73.593178,91.615677,105.622215,34.30275,61.825676,79.082336,91.790199,23.77161,45.245647,58.461227,69.139252,-16.701757,-17.727123,-11.703185,-9.825293,5.106203,20.736159,31.390143,39.882739,22.549027,42.22876,54.203277,62.702233,36.716054,54.668134,63.997077,69.615994,47.499652,63.957742,69.224929,70.337363,17.014303,306.149697,-57.247553,290.10447
26,39.083633,-13.534702,7.417259,-19.96502,-30.983849,-51.373444,-60.418053,-61.911793,-69.858112,-95.559826,-104.888935,-108.960285,-62.105427,-90.773907,-101.867924,-106.971302,-50.438232,-73.69915,-85.236225,-93.796806,-36.193657,-50.908356,-60.363922,-69.221706,-19.680412,-25.474638,-29.868613,-29.606173,16.833039,33.199492,37.646941,37.929326,33.677193,51.859478,56.938388,58.015191,44.616216,61.054855,66.807709,69.55764,51.486444,67.523396,73.342323,76.745512,26.497936,50.284653,64.361916,77.153549,52.763786,72.78019,84.816971,93.261909,42.546158,61.399956,72.745056,80.078888,29.983807,39.753914,43.454189,44.529133,15.365753,19.227619,17.950344,14.312038,-2.926414,5.180242,18.127266,29.224062,15.30663,36.403659,48.907747,58.233109,25.223994,47.777529,61.964562,73.324292,32.553026,56.909674,71.00192,82.276496,37.483612,55.995582,63.856039,69.961982,55.906649,293.270182,-50.021582,270.794637
27,-0.482483,-3.243564,-0.390988,-43.285711,-25.422821,-47.985649,-66.473122,-79.988022,-48.572388,-77.702637,-90.898304,-99.269142,-39.685593,-71.051044,-88.411903,-98.656368,-29.706573,-56.50898,-72.734699,-84.36985,-20.189323,-37.830048,-47.904739,-56.578789,-14.62293,-20.032204,-23.038152,-22.437074,7.464205,22.945836,32.161282,37.002576,23.481644,43.026267,51.667496,55.671701,35.452517,55.461318,63.592921,68.443724,43.623393,63.621696,71.613744,76.288311,33.525439,62.124996,81.292362,92.059193,63.402958,92.133179,96.058445,95.553818,53.025685,80.298557,81.850147,80.263882,40.733958,62.085514,59.50656,54.687338,27.798672,41.44063,36.841479,30.558615,-11.335246,-9.26037,-0.135234,12.724506,-4.531276,14.728986,24.470793,28.176003,9.370223,34.368457,42.811807,45.031055,23.017188,48.628542,55.444398,57.078036,35.512476,55.094921,57.435972,56.300197,55.310497,290.639151,-50.526238,228.12146
28,12.892914,-7.538243,-0.390987,-43.285711,-20.998192,-42.077637,-59.610329,-73.481483,-45.859222,-74.034061,-88.081684,-98.064022,-38.469086,-68.237228,-84.993038,-95.88604,-29.067421,-54.084435,-68.911171,-79.605446,-19.673538,-37.071877,-46.786194,-54.824524,-17.145434,-18.675548,-9.349939,-0.463746,5.079651,18.94657,28.305648,34.117041,22.827398,40.810909,49.230145,54.083172,36.245763,54.365495,61.856129,67.034889,44.788315,62.983197,70.203179,75.128453,40.55294,73.96534,98.222809,106.964836,74.04213,111.486168,107.299919,97.845726,63.505211,99.197159,90.955238,80.448875,51.484108,84.417114,75.558929,64.845543,40.23159,63.653641,55.732613,46.805191,-19.744077,-23.700981,-18.397732,-3.77505,-24.369183,-6.945686,0.033839,-1.881103,-6.483546,20.959387,23.659053,16.73782,13.48135,40.34741,39.886876,31.879576,33.541342,54.194261,51.015906,42.638412,68.021965,283.448794,-51.098671,185.183635
29,-3.744507,2.881459,14.574451,-60.060735,-16.842499,-30.891495,-41.644592,-51.974602,-29.585152,-52.319641,-65.241394,-75.465088,-22.195816,-45.827751,-60.641098,-70.491028,-12.722397,-30.720062,-43.838882,-54.412537,-4.069977,-14.554253,-23.176804,-30.986137,-15.426364,-22.229099,-21.688844,-17.72138,-8.85433,3.565222,12.896574,19.768221,7.970867,24.412408,33.675525,39.614371,20.692131,37.646818,46.68572,53.473943,29.417155,44.659009,52.0317,56.863546,29.817867,57.739391,77.445316,86.090183,66.870289,97.589436,90.929546,81.625271,63.292065,92.604847,83.940983,73.677006,58.481541,84.300785,74.598141,64.355907,54.124889,74.373379,66.143246,56.410618,-25.517956,-36.202723,-32.261163,-20.534359,-42.566751,-30.486117,-21.116912,-20.973713,-27.468405,-10.319266,-3.635216,-7.433484,-9.345462,6.526216,10.692269,6.230431,9.810844,20.566345,21.913369,18.065454,64.273624,287.17503,-36.528053,125.967676
30,69.65744,-67.933481,-27.224236,-34.471797,-35.075569,-62.698517,-82.859573,-94.592857,-74.056664,-104.681511,-117.477837,-124.131546,-63.037949,-96.6996,-112.449417,-121.274414,-49.660606,-78.801498,-94.28318,-103.5783,-36.189308,-56.137276,-67.912903,-77.35405,-12.210897,-2.0729,14.628179,27.72964,19.466323,42.958527,55.043453,61.734789,37.933216,65.273829,76.727789,82.214993,51.739003,77.946681,88.270053,92.55936,60.232463,83.709908,94.071257,100.816687,36.893406,66.424313,87.551136,107.777538,74.61771,96.805515,113.249874,124.846401,64.272366,86.648998,101.638927,110.499973,52.761497,71.243534,85.996799,96.036015,40.220375,51.88345,64.487286,74.469967,5.861627,3.337949,2.95099,4.475176,-41.892437,-61.085329,-65.817387,-65.025314,-45.240637,-70.276415,-71.168832,-67.396931,-43.60527,-68.202033,-69.610344,-67.205104,-36.1737,-56.057765,-62.109799,-64.533627,133.793764,221.69054,-63.889589,93.944869
31,24.707565,-37.316824,-5.658016,-41.387534,-40.772667,-71.813164,-91.410255,-100.60936,-80.594788,-112.60437,-121.725311,-123.11039,-68.52459,-103.235092,-115.138435,-120.053101,-54.18457,-85.800133,-97.893562,-103.938675,-40.670586,-64.382286,-74.451714,-80.344391,-10.837877,3.290062,23.753222,41.623544,18.555443,45.807629,60.315394,67.244099,37.999907,70.27802,82.342939,86.733949,53.377859,84.186066,93.438809,96.1612,63.472199,89.260035,98.034151,102.493643,35.591583,65.408134,86.640358,102.768974,71.512985,94.641037,106.65081,111.528969,61.516228,83.537407,94.182358,96.278,50.076942,68.333702,76.999283,78.264656,37.626572,49.553604,58.813992,62.544193,1.002178,-4.668887,-4.714243,0.966209,-59.827875,-84.361375,-89.32759,-87.385077,-67.261389,-96.793709,-97.593161,-92.970618,-69.451059,-97.064732,-95.389196,-89.736254,-66.156613,-87.123378,-90.046056,-89.11696,158.146563,186.634214,-69.902372,54.817832
32,-0.742836,-19.691342,-2.021084,-22.251298,-35.755692,-58.864632,-72.992592,-77.830925,-64.088974,-92.471352,-91.599083,-85.390663,-55.856781,-89.475975,-87.892227,-77.399826,-45.190887,-76.890793,-76.703339,-67.577362,-32.997093,-56.499825,-61.551933,-57.499352,-7.44006,3.421158,20.184357,36.340982,19.732591,43.065108,42.806435,39.592759,33.257846,62.094547,60.353247,54.873269,43.927144,70.448884,66.26659,59.264464,50.550987,71.914839,70.638211,65.740724,43.10915,74.112568,94.173832,104.099979,74.888935,88.813763,100.061131,112.390423,57.419987,70.558147,84.15556,95.263195,38.823109,49.433842,59.984665,68.7533,20.112476,22.761955,27.888165,33.406963,-1.642715,-6.193258,-8.757752,-9.9416,-41.194966,-69.532353,-87.997178,-102.192054,-50.010949,-80.076545,-98.622293,-113.087883,-52.487696,-79.58532,-97.512515,-111.225954,-49.211126,-73.24485,-88.498159,-101.403902,157.861032,171.471493,-71.46615,37.095155
33,50.047188,-62.564282,4.027519,-46.588895,-31.558456,-66.114006,-93.639221,-106.081352,-71.137962,-112.626228,-109.548683,-97.439117,-67.252007,-111.939468,-108.919373,-97.787476,-62.079506,-103.913841,-100.744629,-89.834404,-54.612694,-86.82724,-88.494987,-82.112846,-26.377152,-27.706237,-15.499168,1.019932,-16.240327,-4.099579,-0.582862,-0.311037,8.654135,29.436792,31.189392,27.480724,30.037747,50.388892,49.658632,44.439981,46.751175,66.959924,66.718047,61.560653,32.376595,58.799286,75.428982,85.04179,65.874653,91.95219,96.317539,92.966137,52.091331,80.208149,84.828358,81.939182,36.437702,59.115772,63.954906,62.008953,19.36615,28.47084,31.908131,31.574249,-2.848855,-11.145918,-17.017549,-16.15116,-62.160435,-98.130605,-106.436159,-105.666193,-69.130049,-105.099109,-109.625167,-107.598271,-68.233866,-98.364516,-101.679124,-99.652907,-61.937855,-85.511168,-88.7836,-88.123519,209.302397,110.84483,-66.044455,-7.55612
34,16.34182,-49.096116,-4.963875,-4.887916,-30.339775,-57.078667,-80.829277,-90.556068,-52.758865,-96.683464,-96.764946,-85.521355,-49.518471,-95.834541,-94.721031,-82.648773,-45.983276,-88.11573,-86.912498,-75.261154,-41.822662,-74.428482,-79.292107,-75.207024,-31.043321,-45.597585,-49.739463,-41.167425,-43.2779,-43.9863,-30.177365,-24.126287,-21.137012,-12.737319,-0.462264,1.335044,2.151292,12.465895,20.662738,19.970979,23.800245,37.364032,43.627932,43.696475,29.281082,56.609974,73.961163,79.683437,63.831825,82.676296,92.901249,99.277554,48.414059,63.31192,73.960819,81.608219,31.651726,38.80806,43.491154,48.357296,13.3568,10.025997,8.122272,8.373871,-1.672788,-5.393713,-5.388897,-6.837808,-60.630136,-88.782828,-99.413995,-101.932949,-67.664064,-102.434393,-116.997039,-124.269709,-66.183443,-99.769986,-117.514924,-129.1414,-57.35298,-82.124837,-96.967938,-109.308418,225.995007,61.443868,-70.657539,-12.748882
35,32.211113,-37.330563,3.971272,-4.069043,-30.025978,-54.050674,-72.082558,-83.45089,-52.684593,-75.074158,-83.238373,-82.057228,-47.492294,-75.351334,-83.504906,-80.94944,-41.722984,-67.143173,-73.856392,-71.278267,-36.360168,-56.019287,-64.452209,-66.009865,-9.301835,-21.734293,-33.090132,-44.450941,-55.892583,-76.887105,-70.999389,-62.06537,-57.832503,-78.401935,-68.475464,-59.887587,-54.541916,-71.527046,-61.876012,-53.100785,-46.994811,-58.968185,-54.121365,-48.752444,28.536358,53.087883,68.900871,78.706512,60.243244,80.337639,93.852768,105.970459,45.045376,59.25436,69.298553,78.204689,28.832474,36.940727,42.308464,48.140202,11.55899,7.381382,6.188736,7.054138,0.901741,-1.708665,1.373607,7.383775,-53.589879,-77.023635,-88.346901,-96.555383,-61.569607,-92.372812,-109.314037,-122.150806,-61.62546,-92.100986,-109.749347,-124.235654,-54.908374,-78.262441,-91.976343,-104.694134,256.848679,26.3062,-68.043709,-14.625029
36,7.57782,-46.112583,9.788704,-0.319435,-29.06559,-44.134827,-55.496864,-64.763718,-36.652107,-53.930855,-64.353333,-63.559914,-32.156982,-52.740784,-65.600624,-65.362358,-29.575539,-49.882393,-61.401787,-60.905342,-28.454704,-45.957642,-56.99913,-60.065117,-23.683506,-47.627599,-63.807287,-75.162231,-74.618055,-102.442112,-95.522299,-84.127279,-73.768401,-102.50624,-93.534461,-83.696755,-67.57505,-94.586471,-86.295799,-76.534665,-57.876407,-78.515309,-78.396965,-74.881297,26.840801,49.553661,62.849007,75.846634,61.834602,82.896996,95.912933,106.492996,48.336926,65.023155,76.428909,86.218529,31.60778,39.430504,44.418011,49.726124,13.346043,10.030918,10.344028,12.703915,7.375809,9.304212,18.260863,32.723921,-37.25001,-52.987627,-58.420212,-59.109347,-49.512376,-73.285945,-86.04463,-94.395786,-53.086706,-79.46679,-95.846581,-108.457297,-49.591756,-70.92359,-83.219054,-92.973859,264.166174,-19.159625,-58.515329,-14.297706
37,10.701599,-39.628728,10.775928,2.84654,-27.245636,-42.947617,-54.325333,-66.246529,-31.736069,-38.209076,-48.726768,-58.37883,-27.796669,-34.168739,-46.156197,-56.697578,-25.415611,-33.062096,-43.8937,-52.736778,-24.109154,-32.03167,-40.078583,-46.165924,-27.997019,-53.502873,-70.558213,-84.541131,-72.47703,-102.952278,-115.216173,-122.691832,-69.382933,-102.887548,-116.891894,-124.718156,-62.007541,-91.722889,-104.765965,-112.939034,-51.910113,-73.701818,-84.800421,-92.94107,23.464451,44.486446,57.861958,73.127117,64.758511,88.403835,104.8419,120.58794,53.813381,70.500813,81.608562,90.787411,39.061031,48.583431,56.30682,62.630367,22.583313,23.190937,26.272087,30.286732,10.261529,13.866549,23.592301,39.728795,-25.072829,-36.712503,-41.304851,-43.558586,-38.003488,-59.052382,-71.232157,-79.345266,-44.881311,-67.427035,-82.24843,-92.935636,-46.556106,-66.98342,-79.556761,-89.614946,274.84992,-57.973556,-47.757254,-10.63637
38,2.27417,-37.407165,17.040539,2.87442,-1.272354,-10.877266,-25.954399,-42.247124,-14.099922,-21.532745,-35.55542,-47.925797,-21.87458,-32.659721,-46.284828,-58.758087,-30.739174,-47.206306,-62.804832,-76.481895,-39.935417,-62.429008,-78.597565,-92.241669,-31.086223,-57.681878,-72.099766,-79.004372,-75.762306,-110.798965,-124.795545,-134.147521,-68.809071,-105.952206,-122.484489,-133.467449,-56.685751,-84.81541,-99.723102,-111.56274,-41.176796,-52.015629,-59.197928,-67.188879,19.773903,38.246384,49.49501,63.397064,65.327682,89.037666,107.895699,125.627174,55.965385,74.519005,89.042931,103.439369,41.699295,53.203354,65.447502,79.266357,25.409374,25.727062,28.715057,33.999596,12.608878,16.76959,23.326311,37.169889,-15.434762,-24.129128,-26.81808,-27.027383,-28.775661,-47.450128,-56.656096,-63.482665,-36.336289,-55.732124,-68.549163,-77.977525,-38.367785,-55.887272,-64.953344,-71.828481,277.27272,-93.198492,-30.568085,-5.579721
39,-4.889603,-30.287805,10.00248,-2.041993,-2.666359,-12.966957,-26.238327,-39.665794,-15.015907,-24.894333,-38.448029,-49.064941,-20.486183,-34.415131,-50.079918,-63.318443,-28.448524,-48.525009,-66.731529,-81.547852,-38.313446,-64.110031,-82.600822,-98.386345,-31.759395,-58.690926,-75.684439,-84.831249,-77.347871,-114.524969,-130.441354,-141.213806,-69.087442,-109.037426,-128.159229,-139.93423,-54.961016,-85.641801,-102.077306,-115.124442,-37.639408,-49.823891,-59.435327,-69.905928,25.420189,49.75296,66.833153,80.85125,70.821991,90.458107,104.935112,118.407898,61.575279,81.325264,96.000137,109.092979,49.007835,65.975647,78.023529,88.609085,33.707199,45.022202,51.57795,57.917633,13.025231,18.9755,27.717166,42.929998,-12.990187,-24.130363,-31.249228,-37.326179,-26.984992,-44.990084,-55.846486,-65.225447,-36.84187,-54.053594,-64.502875,-72.189196,-42.653263,-60.028903,-70.646825,-80.574408,273.987808,-116.830097,-18.960915,-0.965514
40,-12.607613,-7.866925,8.678112,-16.821183,-1.251411,-13.381233,-31.186867,-46.273956,-18.334351,-26.221504,-34.217377,-42.759018,-28.048782,-41.821747,-54.447556,-67.387619,-39.139366,-59.946671,-74.938545,-87.627296,-49.875755,-73.041916,-90.066032,-105.427094,-32.556593,-55.558822,-67.279266,-72.2779,-80.40234,-111.013578,-129.780903,-145.188572,-76.053567,-112.149416,-133.627938,-149.579096,-65.802567,-93.58207,-110.214111,-123.698225,-48.89075,-60.483463,-67.01323,-73.176878,32.83865,58.843288,76.468449,90.177212,66.262836,84.174213,101.983166,118.318348,54.252033,74.503155,91.515026,105.705814,39.058399,57.34869,72.954197,85.144672,21.87933,32.160702,42.314587,50.468388,13.311197,18.923259,30.062046,41.762823,-7.958825,-19.974869,-28.856647,-35.076426,-17.780753,-36.084996,-47.815474,-57.82253,-23.298708,-42.080868,-55.313734,-66.222562,-24.075436,-41.262305,-54.572204,-67.133967,262.697582,-119.998418,-8.965416,-13.088092
41,-32.569771,-21.21863,15.463886,-35.356804,-6.254997,-20.405502,-34.817619,-50.287285,-19.066544,-30.030098,-46.457863,-61.44516,-22.997131,-39.835052,-58.111725,-73.727074,-30.567513,-58.103142,-79.237747,-94.725838,-40.850372,-71.061745,-90.932465,-106.213875,-34.071176,-58.92124,-72.641209,-79.249506,-77.475124,-113.505092,-127.033318,-133.011499,-70.111279,-109.073898,-125.246323,-133.289438,-55.281207,-81.99476,-95.683622,-104.787624,-36.389842,-44.768709,-49.304339,-54.380686,32.475471,60.297089,77.648849,92.858849,81.92997,106.716156,125.367508,142.159882,72.278709,92.450981,108.946495,124.00177,57.231674,68.480415,79.894753,92.050323,39.942856,43.83728,50.732346,59.769173,14.05285,16.458059,24.418953,40.642485,-24.178405,-34.74214,-35.363874,-32.390561,-37.232318,-61.512812,-69.688582,-73.996445,-42.642797,-69.722081,-82.736228,-90.015521,-40.965656,-64.161364,-77.358508,-86.432746,230.320501,-137.820806,6.69116,-45.048655
42,-17.812843,10.206432,8.895493,-37.03129,-6.825371,-21.670189,-36.901245,-50.767021,-30.264702,-43.221359,-58.34919,-73.73291,-38.203011,-55.910568,-73.718834,-89.881439,-46.32946,-70.115547,-88.700523,-103.265076,-53.871346,-78.31398,-98.1427,-115.31353,-30.627448,-58.300247,-73.554899,-80.578221,-78.333593,-108.208983,-122.737288,-133.393888,-70.640928,-103.650058,-119.507988,-130.65765,-56.431108,-81.252057,-95.238031,-103.875401,-37.877502,-42.940434,-47.875156,-51.904124,31.685028,56.546631,74.188042,89.044647,76.280708,102.268524,118.310852,131.335602,68.570251,88.074074,100.872116,107.91481,56.037369,70.635681,80.392456,85.168877,40.729179,46.877518,52.645569,57.093887,11.53121,11.936169,11.740513,18.751284,-29.703245,-41.312199,-46.555828,-48.490623,-46.761534,-72.971651,-82.720651,-83.356819,-56.031444,-84.678016,-94.052083,-94.737405,-58.455997,-83.77013,-94.542459,-98.219202,213.26005,-125.444171,16.339045,-79.909742
43,-57.122498,-2.543484,-0.479622,-3.578838,-24.583282,-49.748611,-67.766647,-77.733307,-61.650352,-99.148293,-117.195969,-122.94754,-59.11869,-104.296761,-107.838821,-100.477982,-55.757561,-98.07621,-96.823082,-85.888138,-52.238731,-89.11274,-93.564491,-88.892441,-41.556622,-68.007442,-84.792748,-89.664392,-83.982598,-95.311298,-90.80943,-84.366176,-65.467972,-62.402002,-45.540203,-34.648959,-42.708931,-34.219979,-20.054527,-13.694111,-19.504686,-14.672145,-6.611833,-1.872643,35.217705,59.510422,75.325699,89.456406,67.232208,88.450928,103.446236,118.47599,54.934731,73.594894,87.182808,100.459557,40.160751,55.623665,67.031136,78.958282,24.3536,32.875671,39.782982,48.660736,1.146736,-8.545979,-16.068816,-17.323476,-39.253178,-65.756053,-83.815733,-100.09467,-47.425768,-77.424658,-96.851168,-114.786204,-50.715613,-78.104545,-100.205388,-120.443468,-48.899981,-70.780267,-86.915527,-102.756205,153.114166,-122.511243,12.836037,-78.012167
44,-54.20002,11.108112,-13.357458,-28.433803,-22.688999,-44.473343,-54.967403,-59.232616,-41.988316,-59.112453,-66.13369,-64.143562,-32.484112,-71.198158,-71.058197,-63.496628,-27.42033,-71.840973,-68.637314,-58.15979,-25.186329,-63.335953,-65.137424,-58.38192,-46.113548,-74.760321,-88.219487,-84.494478,-73.808523,-82.834874,-89.719929,-93.5816,-45.803623,-35.458399,-26.088924,-22.311381,-15.385517,-1.520867,2.320379,0.436575,13.13327,22.780854,22.815264,20.276674,13.242531,31.938086,50.18466,65.742617,38.564787,52.051249,65.669661,76.012259,43.598643,59.861441,71.51124,78.772459,45.323668,63.098402,69.217043,73.010531,43.757887,53.943129,55.273276,55.526018,-20.82897,-39.003004,-49.163587,-52.885662,-72.199585,-102.888514,-111.645147,-115.281049,-74.440674,-108.665782,-115.908048,-117.467894,-67.135967,-92.253742,-98.982553,-103.983055,-53.110966,-65.815241,-69.866562,-73.893175,95.787878,-107.461664,-3.64769,-102.504503
45,-54.20002,11.108112,-13.357458,-28.433803,-20.794716,-39.198074,-42.168159,-40.731926,-22.326279,-19.076614,-15.071411,-5.339584,-5.849533,-38.099556,-34.277573,-26.515274,0.916901,-45.605736,-40.451546,-30.431442,1.866074,-37.559166,-36.710358,-27.871399,-50.670474,-81.513199,-91.646226,-79.324564,-63.634448,-70.35845,-88.630428,-102.797022,-26.139274,-8.514795,-6.637644,-9.973803,11.937898,31.178246,24.695287,14.567262,45.771227,60.233853,52.242361,42.425991,-8.732643,4.365749,25.043621,42.028828,9.897366,15.651569,27.893085,33.548527,32.262554,46.127987,55.839672,57.085361,50.486584,70.573139,71.40295,67.062778,63.162174,75.010586,70.763569,62.3913,-42.804675,-69.460028,-82.258357,-88.447848,-105.145993,-140.020973,-139.474559,-130.467428,-101.45558,-139.906905,-134.964927,-120.149583,-83.55632,-106.402938,-97.759717,-87.522641,-57.32195,-60.850214,-52.817597,-45.030145,39.415255,-95.190869,-19.177752,-129.775623
46,40.709724,88.395344,-20.139084,-29.227829,-25.020447,-52.479858,-72.007484,-83.063965,-71.893501,-104.346828,-99.38158,-88.374195,-69.670715,-105.544968,-104.120522,-96.235428,-64.013443,-99.221363,-97.281532,-87.560349,-54.948807,-84.170265,-89.668064,-87.432632,-34.951382,-61.052107,-77.068096,-82.932455,-35.461718,-55.764914,-72.841002,-80.815913,-13.701181,-34.251811,-50.473737,-56.540375,5.413689,-11.185593,-23.071189,-26.759572,19.752444,18.774595,13.975631,11.714702,43.107777,81.011982,108.954105,124.65929,58.285503,76.696873,81.791897,81.747723,38.366718,53.422337,66.365261,73.139591,17.780399,23.119411,33.80991,43.40086,-4.422054,-11.874275,-13.065548,-13.265476,9.934329,11.596465,15.716082,19.165892,-43.074926,-52.623207,-45.17867,-35.557539,-66.853211,-94.936974,-109.868386,-119.678211,-79.139915,-111.54525,-132.372236,-149.282238,-79.71813,-110.479453,-130.118353,-147.734341,76.369143,-9.557868,-43.072672,-161.765794
47,21.785431,25.946133,-49.588852,-19.551647,-22.99038,-50.038376,-70.889168,-83.437272,-69.28917,-104.062472,-110.434828,-110.199967,-70.013066,-109.995175,-118.909264,-120.214034,-65.744362,-102.519408,-111.679917,-113.404971,-57.269097,-85.251561,-95.172873,-99.834652,-32.232325,-49.988208,-56.20067,-55.279192,-38.151102,-54.29354,-63.053484,-66.816431,-16.621034,-27.485278,-34.003095,-36.25149,3.621894,-1.963508,-6.307789,-8.301061,20.668604,26.266434,26.985563,26.815549,23.230362,43.787556,56.614952,67.803154,50.191269,71.038342,85.031376,96.377163,34.710674,46.862755,55.123215,62.506027,18.352776,24.820633,30.211029,35.835629,0.944653,-3.425903,-6.074753,-7.011395,-5.740689,-13.487556,-20.856217,-20.87238,-59.113716,-78.581089,-89.716186,-97.2954,-70.653,-100.338515,-119.60858,-134.984702,-73.081281,-101.754691,-119.513685,-133.28926,-68.595051,-89.135269,-105.747793,-121.468981,94.228278,6.629678,-96.58782,-191.076029
48,21.78543,25.946134,-23.970737,-8.24439,-20.960312,-47.596893,-69.770851,-83.810577,-66.684837,-103.778114,-121.488075,-132.025738,-70.355415,-114.445381,-133.698006,-144.192638,-67.475281,-105.817451,-126.0783,-139.249592,-59.589386,-86.332855,-100.677681,-112.236671,-29.51327,-38.92431,-35.333246,-27.62593,-40.840487,-52.822167,-53.265967,-52.816949,-19.540887,-20.718745,-17.532455,-15.962605,1.830097,7.258576,10.455611,10.157449,21.584764,33.758271,39.995495,41.916396,16.496601,31.802616,32.956009,26.552582,40.451775,58.910065,69.926434,77.557812,23.573685,32.623558,35.381985,37.785702,6.110687,9.445496,7.226143,7.674694,-9.961452,-12.658539,-16.082611,-17.437592,4.894183,-0.592727,-1.418361,1.989367,-46.86661,-69.273804,-80.447464,-87.624367,-56.149603,-88.724906,-107.40458,-121.643148,-55.593317,-85.054523,-104.924077,-122.227708,-48.700867,-64.753991,-73.002194,-80.848224,115.010004,29.870372,-121.562262,-202.025859
49,9.925117,-5.363332,-43.580189,36.975159,-19.97406,-47.370872,-72.081528,-88.716431,-59.590874,-96.573143,-112.678299,-117.120323,-61.195107,-111.11515,-127.061462,-129.428673,-57.436409,-103.639641,-119.479866,-125.103149,-49.679604,-81.257401,-95.398865,-104.39724,-27.231932,-34.649638,-31.954511,-25.169715,-40.435158,-55.357237,-52.144549,-47.726986,-22.443527,-20.782904,-12.700176,-7.899391,-1.941186,7.87151,12.729076,12.679428,18.033436,33.680311,38.837026,39.461107,17.150459,30.438766,31.534081,31.018124,39.753857,55.778961,65.579109,73.16534,24.248142,33.28577,36.705322,38.72818,8.512001,10.141582,10.507565,11.548233,-8.061619,-17.583389,-23.126221,-27.157116,-1.817068,-13.355703,-28.46183,-38.404032,-59.001191,-81.500208,-93.285413,-103.673214,-70.702825,-103.008147,-120.547495,-136.403441,-72.611592,-103.888654,-122.120517,-139.427791,-67.622328,-89.438262,-103.709894,-118.124084,123.85932,20.037468,-166.218252,-169.520272
50,9.959335,-13.064133,-9.734631,-12.314082,-28.28167,-50.895081,-69.797516,-81.812439,-59.398842,-93.652496,-106.312752,-110.155106,-57.321053,-98.554344,-107.206764,-105.867462,-53.939781,-92.285957,-97.257385,-95.285568,-49.235458,-76.252441,-83.623009,-85.46196,-18.499621,-22.686793,-17.925187,-15.030606,-26.505592,-34.804014,-32.815713,-29.075675,-16.986272,-23.832078,-22.899955,-20.453898,-3.299355,-5.80176,-3.845785,-2.016799,12.726451,18.998132,21.725987,23.25045,16.750603,27.512398,29.55225,27.131195,26.204567,41.858368,46.657734,48.286457,9.052734,11.401405,11.695862,10.161438,-7.863865,-10.362339,-15.381546,-18.439693,-21.741829,-31.641827,-40.324345,-46.685314,0.60378,1.234607,6.823359,16.127201,-22.748173,-42.659099,-51.482229,-56.468737,-30.813116,-62.243597,-76.535259,-84.429802,-30.897405,-58.814535,-72.827108,-84.228596,-25.217649,-44.65038,-56.548735,-68.239392,133.078794,-0.831099,-176.692743,-189.638788
51,46.201744,-44.045056,-23.848228,84.912498,-23.885765,-55.976944,-81.866684,-100.630074,-66.738853,-96.602783,-103.814163,-105.548058,-63.992958,-95.761414,-102.05452,-102.873688,-59.685745,-88.518906,-92.903137,-92.224846,-53.929253,-77.655716,-85.246925,-88.111267,-17.546781,-25.400754,-28.406023,-26.926545,-39.188633,-67.716459,-72.933041,-70.765725,-38.033376,-65.15604,-69.722683,-67.122852,-34.102591,-58.511387,-62.55326,-61.144486,-28.020948,-45.101667,-49.061258,-48.673373,11.382637,22.231865,23.597088,21.266098,33.89843,46.785049,51.551914,51.794128,19.716568,24.113331,24.199791,20.253868,4.667873,1.242599,-4.110603,-10.078011,-9.648743,-23.29525,-32.587395,-39.777431,4.198225,1.869525,3.730404,7.982352,-46.435137,-63.988015,-71.586373,-76.609722,-57.890286,-89.794084,-102.94882,-113.729794,-59.010593,-89.023315,-104.596013,-119.521257,-52.637008,-75.042265,-87.55875,-100.707882,180.971317,-45.462645,-198.850193,-105.31278
52,10.695763,-41.776315,14.06559,34.596193,-14.447823,-35.090561,-53.668671,-67.847557,-51.393356,-74.808769,-77.585793,-74.336243,-57.820244,-78.286171,-76.000328,-69.375572,-60.373878,-75.163078,-67.566833,-58.250198,-60.695686,-72.444763,-64.90551,-56.305389,-42.31447,-66.039287,-77.639982,-82.26041,-70.595556,-100.940187,-101.797129,-96.061118,-55.088577,-83.830476,-84.224197,-78.923835,-38.545055,-64.081706,-65.526542,-60.118086,-22.475359,-43.03962,-46.055233,-42.580274,11.113014,20.893707,25.252018,29.665432,32.231255,43.331451,48.092766,50.948524,19.073353,22.931557,23.136063,21.995544,3.653412,1.822586,-1.761589,-5.165405,-12.66346,-23.48196,-31.361046,-38.331413,4.825949,6.526401,13.913294,26.772107,-32.687611,-45.635283,-50.541971,-53.536789,-43.857489,-67.175062,-80.23793,-90.2268,-46.562682,-70.241186,-84.640626,-97.683764,-41.851496,-60.445703,-71.991224,-83.397698,195.652056,-87.004679,-180.799627,-70.482306
53,0.441971,-37.014339,15.705013,36.209639,-26.559219,-46.282425,-57.061615,-63.565521,-56.745872,-68.751526,-77.110291,-84.326477,-50.580368,-61.831398,-71.542511,-79.474869,-41.954956,-51.220779,-59.400787,-66.677628,-30.786438,-40.786972,-47.262497,-53.9534,-15.919364,-36.537379,-53.621418,-64.211814,-53.222603,-88.465524,-104.56347,-115.541937,-56.44971,-95.433703,-113.291844,-122.988396,-58.701362,-95.344396,-111.651368,-120.34148,-59.598873,-87.758157,-101.909051,-111.058579,14.221859,28.560562,34.923019,40.607529,40.891171,55.612679,64.438305,71.335487,28.832588,36.753788,38.832836,39.568176,15.561848,19.44397,22.376518,24.979305,0.95541,-4.212456,-7.46418,-9.30439,9.347005,15.703963,27.012718,42.176612,-20.906744,-32.211794,-38.573167,-42.539735,-31.692257,-47.459082,-56.204577,-63.015647,-35.924136,-51.486814,-62.551346,-71.529022,-34.800093,-47.72078,-57.040862,-65.257218,199.892836,-123.194465,-161.295805,-33.448114
54,-4.536209,-37.41195,24.93227,8.840714,-4.30172,-19.797363,-34.844742,-49.239693,-28.480225,-46.979599,-63.482323,-75.90786,-35.561485,-60.027351,-79.287186,-92.862396,-43.808556,-73.955154,-93.461952,-106.496773,-52.228432,-82.909584,-101.245079,-114.108124,-34.539321,-60.259448,-75.300398,-81.860051,-79.61564,-114.722401,-127.621097,-134.385554,-70.383814,-108.233421,-124.423807,-132.592677,-53.545341,-80.401398,-92.159572,-99.693207,-33.380698,-43.485844,-51.392367,-59.797602,11.571693,28.484173,37.968922,44.082699,52.261734,72.462273,84.00135,93.917942,48.180141,47.27314,33.264599,26.848412,40.571938,42.369576,30.216579,23.015327,31.715298,47.917786,59.000301,70.424137,17.464406,30.547188,42.094638,58.489126,-0.487736,-12.011783,-14.345331,-13.277697,-13.787231,-18.35707,-10.927229,-6.253896,-22.76926,-26.228426,-19.382065,-14.919394,-29.847432,-37.124934,-42.695562,-48.796596,199.450779,-160.99288,-132.269382,-24.993865
55,-24.979591,-31.599106,22.359352,-1.460953,-7.152557,-22.756691,-39.36779,-54.870415,-27.365456,-47.764549,-63.438034,-76.153793,-35.488472,-62.4543,-82.303162,-97.49073,-44.652786,-77.522964,-99.726334,-115.840416,-54.822578,-87.497864,-107.454758,-123.164864,-35.831804,-60.515365,-76.096723,-82.591354,-82.389244,-116.631766,-129.035556,-135.20668,-74.723672,-113.258715,-128.862547,-136.567431,-58.069169,-86.445305,-99.071242,-107.470903,-36.988219,-46.741913,-53.377118,-60.656743,15.738029,33.012428,43.740978,49.597607,67.347279,95.921631,102.57185,102.244835,54.595699,80.002327,87.688808,89.566784,36.602383,51.4254,55.381107,57.118549,17.414589,19.502277,18.56741,18.899975,20.878061,34.127291,47.62763,60.701983,-4.02094,-15.758767,-14.637843,-8.662317,-17.759171,-42.02977,-42.961058,-38.965498,-23.293058,-47.780555,-43.510946,-35.358471,-22.104239,-35.288693,-28.10536,-18.998718,182.421484,-192.92391,-101.959734,-26.786742
56,-42.229614,-22.757589,12.407856,-2.209152,-5.102806,-22.590523,-41.929321,-57.72995,-26.068611,-44.641113,-60.957756,-73.882828,-35.115395,-60.307274,-79.520416,-94.51458,-44.153938,-76.131935,-98.799019,-115.719109,-52.433853,-83.029633,-102.494316,-118.166542,-33.907707,-55.887619,-64.744743,-65.549359,-77.985753,-110.347774,-120.236566,-123.316704,-69.359228,-105.699562,-119.716724,-126.485387,-53.183492,-78.938979,-90.468367,-98.458724,-32.886857,-41.573943,-46.156341,-50.933453,22.138767,40.372868,51.525192,59.949245,61.478291,84.820118,100.531597,114.7225,51.317081,70.034237,83.411407,95.370655,36.517925,49.277115,60.163765,70.427628,18.515968,21.21151,24.450245,29.051514,13.593952,22.221534,33.799798,46.238801,-18.104511,-26.682168,-30.822626,-32.233159,-30.193883,-48.785265,-58.271394,-66.244051,-35.50766,-54.697064,-65.358952,-74.166475,-35.201038,-51.786458,-63.100801,-73.640701,142.233295,-211.383856,-87.510452,-24.698251
57,-31.763649,7.407595,26.982422,-42.55789,-5.437088,-21.52874,-38.092346,-53.203812,-34.982414,-50.324249,-68.078613,-85.039902,-42.340622,-62.212257,-82.448044,-100.672073,-49.22493,-76.032143,-98.869057,-117.143211,-54.275894,-78.645859,-99.767647,-120.191975,-33.365878,-60.230472,-75.742747,-83.653993,-82.615027,-111.119585,-124.308859,-131.957798,-73.907293,-104.28946,-118.445461,-127.905697,-60.034368,-80.895209,-92.637428,-98.934264,-41.626887,-47.921863,-52.530334,-56.342018,20.45042,41.15736,48.660908,48.843956,74.57983,100.757046,106.484013,103.406353,64.063625,93.063869,99.460888,98.220234,49.770985,74.771061,79.75668,78.509274,34.726295,50.962486,55.797043,56.88446,16.188642,31.710566,45.308037,55.45857,-10.632001,-40.198345,-53.149583,-58.932092,-34.629971,-63.274211,-70.903521,-73.307712,-50.818304,-74.291581,-77.846444,-77.252853,-62.024275,-79.95732,-81.059117,-79.72608,111.639175,-200.687372,-59.358501,-63.967252
58,-66.743317,3.102665,-16.439666,-27.697695,5.54718,-14.830742,-39.37809,-58.810272,-36.113434,-67.34024,-87.763309,-102.866249,-54.678841,-89.826965,-94.356079,-92.979355,-68.810806,-99.115105,-92.804317,-81.298141,-78.282795,-102.506218,-96.900558,-86.280899,-41.848825,-64.467407,-73.533788,-75.626054,-91.201584,-112.656734,-117.352706,-117.437258,-79.392018,-90.517613,-85.422309,-81.472699,-60.915338,-60.253968,-48.219855,-41.724962,-40.156532,-34.506223,-25.023397,-20.422096,21.767592,43.438797,53.291058,55.473103,68.987746,94.054641,101.412992,101.820216,56.942653,81.191482,87.203922,87.313714,42.090969,61.621356,65.582456,65.095939,26.387429,36.624455,38.931498,38.949751,10.150837,19.429253,27.587533,34.994664,-23.524167,-50.873907,-63.210657,-69.863797,-44.286227,-73.970927,-84.034972,-89.375503,-56.841639,-82.27925,-89.165081,-92.545673,-63.616626,-82.367127,-86.727354,-89.361824,39.82584,-185.579517,-80.868186,-79.659756
59,-55.920429,20.044384,-16.439667,-27.697696,12.454491,5.282097,-7.677707,-16.991939,-8.968467,-23.407345,-33.086071,-39.786567,-25.767689,-47.416744,-50.343818,-49.698829,-40.208683,-58.914108,-53.956985,-46.142883,-51.734981,-69.259548,-66.590709,-60.333347,-35.032969,-57.409739,-69.327496,-74.016812,-88.670031,-110.283213,-118.753962,-123.797882,-83.493185,-97.839977,-95.636872,-93.11306,-71.959916,-78.568384,-71.341388,-66.246182,-57.234682,-60.89062,-59.163906,-59.310856,23.084764,45.720234,57.921209,62.102251,63.395662,87.352237,96.341972,100.234079,49.821682,69.319095,74.946956,76.407194,34.410953,48.471651,51.408233,51.682606,18.048563,22.286424,22.065954,21.015043,4.113033,7.147942,9.867029,14.530759,-36.416333,-61.549469,-73.271731,-80.795501,-53.942482,-84.667642,-97.166423,-105.443294,-62.864972,-90.266918,-100.483717,-107.838492,-65.208976,-84.776932,-92.39559,-98.997566,-18.601532,-166.686268,-99.814796,-108.508588
60,-55.920429,20.044384,-16.439667,-27.697696,19.361801,25.394936,24.022675,24.826393,18.176498,20.525551,21.591167,23.293114,3.143463,-5.006523,-6.331558,-6.418304,-11.60656,-18.713112,-15.109653,-10.987625,-25.187168,-36.012878,-36.280861,-34.385796,-28.217113,-50.35207,-65.121204,-72.40757,-86.138477,-107.909691,-120.155217,-130.158506,-87.594351,-105.162341,-105.851434,-104.753422,-83.004494,-96.882799,-94.462921,-90.767401,-74.31283,-87.275016,-93.304414,-98.199616,24.401937,48.001671,62.55136,68.731399,57.803578,80.649834,91.270952,98.647943,42.70071,57.446709,62.689991,65.500674,26.730938,35.321946,37.234011,38.269272,9.709697,7.948394,5.20041,3.080335,-1.924772,-5.13337,-7.853475,-5.933145,-49.308499,-72.22503,-83.332804,-91.727205,-63.598737,-95.364357,-110.297874,-121.511085,-68.888306,-98.254587,-111.802353,-123.131311,-66.801325,-87.186738,-98.063826,-108.633308,-78.061304,-150.149894,-119.793806,-139.714294
61,-55.920429,20.044385,-16.439667,-27.697696,26.269112,45.507774,55.723057,66.644726,45.321465,64.458447,76.268406,86.372795,32.054615,37.403698,37.680702,36.862221,16.995564,21.487885,23.737679,24.167633,1.360645,-2.766209,-5.971012,-8.438244,-21.401257,-43.294403,-60.914913,-70.798329,-83.606924,-105.53617,-121.556473,-136.519131,-91.695518,-112.484705,-116.065997,-116.393784,-94.049073,-115.197215,-117.584455,-115.288621,-91.39098,-113.659414,-127.444923,-137.088377,25.719109,50.283108,67.181511,75.360546,52.211494,73.94743,86.199932,97.061806,35.579739,45.574322,50.433025,54.594154,19.050922,22.172241,23.059788,24.855938,1.370831,-6.389637,-11.665134,-14.854374,-7.962577,-17.414681,-25.573979,-26.397051,-62.200665,-82.900592,-93.393878,-102.65891,-73.254992,-106.061072,-123.429325,-137.578876,-74.91164,-106.242255,-123.120989,-138.424131,-68.393676,-89.596544,-103.732063,-118.269051,-137.388124,-132.279942,-139.639864,-169.586422
62,34.557152,89.119044,-27.579346,-15.220643,-22.999935,-50.22646,-73.085117,-89.257164,-70.516777,-106.246033,-123.005848,-133.095016,-73.930206,-113.207989,-127.569637,-134.360161,-73.204536,-107.500019,-121.222401,-126.856213,-68.189163,-90.434589,-99.72971,-104.694157,-33.265348,-42.981374,-40.370258,-34.456329,-43.487326,-49.950989,-47.933387,-43.06554,-25.492978,-27.638527,-25.726117,-23.363639,-5.173172,-2.881459,-2.145889,-3.511221,15.259113,24.931358,30.09678,32.249955,19.487343,34.764633,41.575642,51.872921,42.882042,60.866318,71.498566,79.555492,26.729393,35.992184,39.642277,41.296177,10.892086,10.682945,12.0191,12.953796,-4.67989,-15.552235,-21.570797,-26.746502,-7.505052,-20.379658,-32.34749,-37.209085,-70.006427,-90.010781,-103.987979,-117.236526,-78.407053,-109.139214,-126.854122,-142.568132,-77.369067,-106.397141,-123.640087,-139.853321,-69.028902,-89.248766,-102.738421,-116.212701,-101.977987,-43.203321,-166.366224,-184.849488
63,-4.493637,27.151872,-24.274063,-3.445966,-21.098328,-47.364292,-65.581398,-75.906029,-63.28783,-91.104469,-103.127518,-108.70594,-65.85228,-97.868671,-117.686977,-130.964127,-63.11594,-93.480949,-114.361897,-131.474648,-56.322041,-75.6954,-91.208439,-107.136154,-29.504162,-45.763169,-51.393201,-50.46997,-34.740411,-45.486959,-44.746572,-42.855743,-14.295128,-17.132312,-13.15787,-11.777255,4.971865,8.451841,13.247285,14.835197,21.30769,31.445378,41.848254,48.071955,17.622929,32.345066,39.731083,46.931992,35.423355,51.276913,60.417423,66.547565,18.688431,23.543129,24.87608,24.825497,2.348099,0.032043,-2.04071,-3.685112,-13.574066,-23.280602,-31.44104,-37.927837,-13.030989,-26.256893,-37.57863,-41.826518,-73.783854,-95.627074,-110.591121,-123.114066,-81.337504,-112.131998,-130.605626,-146.267267,-78.991397,-108.226898,-125.317143,-139.562731,-69.3959,-86.740572,-101.873282,-117.225022,-102.455349,-15.006585,-186.624012,-187.250591
64,12.647267,36.691045,-24.609261,0.113528,-23.781853,-51.288958,-71.332426,-83.939438,-71.397858,-102.426396,-115.111313,-121.063585,-74.9473,-112.972813,-130.384541,-138.83317,-72.102785,-106.661654,-123.340531,-133.524113,-64.764204,-87.493601,-99.709482,-109.049835,-31.148899,-44.286994,-47.036323,-45.184537,-34.228624,-45.007128,-44.622083,-42.839858,-12.7093,-14.122736,-11.85293,-11.432996,7.391926,12.835209,15.219053,15.160992,24.407205,35.818172,41.729431,43.659625,14.899349,28.275318,33.034286,38.923759,28.639412,41.92028,48.20549,52.133904,10.891628,11.82003,10.184555,7.947578,-5.425816,-12.102757,-17.522049,-21.808147,-20.545979,-31.163349,-40.296192,-47.878132,-11.43738,-25.112766,-36.21884,-41.487477,-74.88051,-98.818073,-115.122351,-128.807322,-81.106866,-113.390143,-132.452959,-148.963591,-76.820268,-106.985429,-125.094544,-140.39258,-65.661166,-83.598163,-98.557918,-113.173095,-89.108419,21.359591,-210.533609,-187.461932
65,12.647266,36.691045,-20.216217,4.896468,-26.465378,-55.213623,-77.083454,-91.972847,-79.507885,-113.748322,-127.095108,-133.42123,-84.04232,-128.076954,-143.082104,-146.702213,-81.08963,-119.842358,-132.319164,-135.573578,-73.206367,-99.291801,-108.210526,-110.963516,-32.793637,-42.81082,-42.679446,-39.899102,-33.716836,-44.527296,-44.497594,-42.823972,-11.123472,-11.11316,-10.547989,-11.088738,9.811986,17.218578,17.190821,15.486787,27.506721,40.190966,41.610608,39.247296,13.006954,24.342613,25.438614,26.888237,21.607475,34.395676,39.514446,41.585541,2.914352,2.99675,1.17794,-2.132549,-12.96587,-22.10043,-28.136616,-33.597221,-26.756229,-41.334229,-51.659203,-60.658493,-10.446348,-23.691225,-33.712282,-37.263271,-74.09276,-100.821742,-117.802758,-131.505754,-79.640108,-113.91904,-132.902259,-149.029062,-74.705278,-105.809138,-123.010688,-137.881526,-62.450245,-80.550495,-94.096119,-107.714871,-75.045805,56.996942,-229.334478,-183.619157
66,4.912548,9.226654,-15.155983,7.471892,-23.404026,-48.684368,-67.917881,-77.252026,-75.037136,-108.823814,-124.486885,-132.478123,-77.312279,-118.511124,-137.176609,-147.394123,-72.226925,-107.1805,-124.441509,-135.438309,-62.845287,-86.135902,-99.260216,-109.143505,-29.606482,-40.678454,-40.085095,-34.570783,-32.92075,-43.402666,-45.259594,-45.088638,-12.094837,-11.774013,-10.546754,-8.745371,7.704043,15.265381,18.605584,20.475788,25.031919,39.502263,45.16669,47.416845,11.806355,20.60297,19.938068,25.183125,18.164177,28.290768,33.479347,36.140499,-1.166382,-3.953133,-7.435513,-11.874275,-16.7696,-28.142223,-35.771027,-42.653904,-29.963264,-46.485043,-57.792549,-67.696896,-9.00463,-22.329412,-33.515931,-38.796039,-74.313078,-102.860054,-119.510898,-133.196989,-79.348515,-113.673045,-132.626902,-149.165739,-73.577036,-105.260393,-122.610815,-138.432865,-60.253458,-79.175498,-91.725961,-104.125212,-68.705578,65.653331,-243.062782,-176.71753
67,5.494823,0.091977,-7.146206,5.166348,-23.449745,-46.658363,-64.999352,-72.980175,-72.484646,-104.38036,-121.688919,-131.720009,-75.150604,-115.884533,-137.460938,-152.222557,-70.69416,-105.377254,-125.618935,-140.781269,-61.921749,-85.080357,-98.196659,-108.732719,-28.425104,-38.764377,-37.297588,-34.13995,-29.663848,-38.631274,-41.646083,-43.498719,-9.006081,-9.103246,-7.860117,-6.314505,9.923013,18.337094,22.256022,23.999792,25.895498,40.228417,46.461103,49.344168,13.019199,21.197777,18.366966,18.449306,17.103653,24.436569,28.184795,29.787197,-2.251511,-6.869259,-10.744457,-15.636635,-17.906055,-29.990101,-38.207588,-45.665817,-31.196079,-49.409237,-60.225964,-69.557076,-8.362766,-21.288794,-31.625026,-36.020189,-74.933446,-102.922337,-120.385222,-134.790216,-78.458105,-112.496854,-131.363959,-148.044513,-72.558533,-102.857445,-120.414878,-137.195811,-60.028316,-79.210464,-90.665127,-102.413676,-61.034203,65.548078,-248.032436,-171.748412
68,2.554264,-3.381051,0.257778,3.729725,-21.509743,-44.321308,-63.20303,-70.956116,-72.372894,-100.846481,-118.087921,-128.661861,-75.582504,-115.87635,-137.485428,-152.800999,-71.790562,-106.505527,-127.302189,-142.126923,-63.040695,-86.372795,-98.762798,-108.279419,-28.388733,-39.238126,-36.779904,-31.807421,-28.089429,-38.599256,-43.230877,-46.536839,-8.45922,-9.91159,-8.723882,-7.845452,9.730105,16.581622,20.906281,22.319316,25.31418,38.49533,44.50664,47.520894,11.832561,18.848362,16.731834,19.265499,14.483356,22.337151,26.035137,26.95982,-4.758739,-10.068512,-13.75946,-19.401855,-20.051708,-32.893753,-40.70137,-48.435059,-32.750416,-51.245041,-62.092724,-71.976986,-10.206479,-23.909142,-34.110125,-38.278833,-75.411093,-102.744179,-119.373442,-132.910753,-77.954955,-112.422569,-131.306454,-147.404555,-71.148933,-100.80622,-118.464815,-134.852093,-58.230963,-76.943653,-88.628367,-100.711124,-56.218472,62.793145,-245.513191,-167.392569
69,3.238449,-4.875195,-1.321621,2.767684,-23.425598,-46.678505,-65.580482,-71.409588,-72.157345,-100.899639,-117.587128,-127.858658,-76.183949,-115.043278,-136.103325,-151.163578,-73.197098,-105.62542,-126.280746,-141.058273,-64.732876,-86.469097,-99.641247,-111.054554,-29.498511,-40.029458,-35.104399,-26.373447,-30.275795,-40.729892,-44.774236,-47.956234,-10.513378,-13.614607,-12.717868,-12.686036,8.009152,13.765649,17.213483,17.240221,23.873203,35.874056,41.254061,43.326713,11.860142,19.744949,19.131088,25.003338,15.711021,24.11602,28.986454,31.786652,-3.296642,-7.877312,-11.285477,-15.884743,-18.320847,-30.449295,-38.036442,-45.142479,-30.863171,-48.762417,-59.594479,-69.213409,-8.588062,-21.643874,-31.00641,-36.129888,-76.529015,-103.14619,-119.548419,-133.38688,-79.59791,-113.098242,-131.597523,-147.924926,-73.007458,-101.941717,-119.474543,-135.811556,-60.054483,-78.236823,-89.456201,-100.915063,-50.84404,58.321211,-244.69883,-164.221624
70,4.13578,-5.639233,3.54475,1.68381,-23.084679,-46.14996,-65.649891,-72.287464,-71.145973,-100.212078,-116.859798,-127.308941,-75.126572,-114.291286,-135.853157,-151.573792,-72.380848,-105.371819,-126.325607,-141.255913,-64.69408,-87.219486,-101.214066,-113.342972,-28.826358,-40.415706,-37.23803,-30.255541,-30.103233,-41.887929,-46.591489,-50.182615,-11.034428,-15.173342,-15.008561,-15.503398,7.093826,11.903133,14.723923,14.232358,22.958186,34.580138,39.630241,41.074583,11.241703,20.026073,20.220394,24.614697,15.124741,23.677082,28.501396,31.268005,-3.607464,-7.92057,-11.825809,-17.181416,-18.606091,-30.269852,-37.907352,-45.355453,-31.30846,-49.266472,-60.437107,-70.366974,-9.838631,-24.233594,-33.711989,-37.076831,-77.726926,-103.782559,-119.663777,-133.602084,-80.461783,-113.679321,-132.091788,-148.548991,-73.592636,-102.331609,-120.062762,-136.741386,-60.553473,-78.533518,-89.701026,-101.464225,-44.64715,52.159662,-239.09297,-163.060129
71,3.45108,-4.06611,1.226463,1.061459,-22.55127,-45.935555,-65.930099,-73.466778,-69.751854,-99.051075,-115.697193,-126.464195,-73.982277,-113.557892,-135.49324,-151.845074,-71.760235,-105.61821,-127.479115,-143.389893,-64.779854,-87.948418,-101.719837,-113.226299,-28.568458,-40.106368,-37.176527,-31.003492,-30.85208,-43.062236,-48.155472,-52.033028,-12.166838,-17.006959,-16.87401,-16.934865,5.761097,9.0473,11.84694,11.897761,21.783662,33.021249,38.500919,40.937436,11.974697,21.482506,21.627102,24.948578,16.594563,25.647812,30.850124,33.8447,-2.337799,-5.844383,-9.323788,-14.315872,-17.600327,-28.721695,-36.32864,-43.854618,-30.468121,-47.710304,-58.305073,-67.933617,-9.66678,-23.931033,-33.523249,-37.573505,-77.684442,-103.497982,-119.459746,-133.369173,-80.64038,-113.748203,-132.211545,-148.699492,-73.966774,-102.269689,-119.93605,-136.579723,-61.114429,-79.128607,-90.43679,-102.280526,-39.439373,48.334934,-236.10981,-161.757288
72,4.209309,-1.244518,2.084713,1.904105,-22.140141,-45.589428,-66.130543,-75.499763,-69.220905,-99.050274,-115.773983,-126.190681,-72.746429,-113.794613,-135.774364,-152.207165,-69.707108,-105.475216,-127.137222,-143.040848,-62.105827,-86.900883,-101.670856,-114.122486,-28.272334,-40.010408,-39.578216,-36.105991,-31.432874,-44.598772,-50.373146,-54.490632,-12.106107,-17.094089,-17.716872,-18.244128,6.156423,9.135603,11.219247,11.358278,22.062558,33.314903,38.798803,41.794315,11.829529,20.696011,22.516823,30.433617,17.017307,26.300869,31.789856,35.176048,-1.631413,-5.351486,-8.852291,-13.711853,-16.663342,-28.006153,-35.423298,-42.242889,-29.537659,-47.102795,-57.850971,-67.109699,-9.828798,-24.442789,-33.750197,-37.801271,-79.064903,-104.137593,-119.594308,-133.166639,-81.958697,-114.699275,-132.804141,-149.31438,-75.136759,-103.670883,-121.489196,-138.315388,-61.90275,-79.937715,-91.20816,-102.956948,-34.300776,47.201459,-233.095808,-159.742141
73,3.807392,1.282896,2.84174,3.188297,-21.418934,-46.208496,-67.072449,-76.5378,-69.589348,-99.925976,-116.690311,-126.418419,-73.529034,-114.52549,-136.365795,-152.485199,-70.709095,-106.355152,-128.056526,-143.848343,-63.27879,-87.652817,-102.094173,-113.992424,-29.378129,-40.550508,-38.815599,-33.226538,-33.500432,-46.439119,-52.146154,-56.156658,-13.448221,-18.016238,-18.804915,-19.587416,5.157487,8.437854,10.191535,9.81884,20.818596,31.782073,37.280206,40.108251,11.670055,20.524864,22.418289,31.236935,16.923122,26.664047,32.848091,37.016602,-1.535511,-4.798965,-7.621708,-11.85339,-16.566639,-27.224064,-33.996849,-40.341911,-29.527588,-46.595421,-57.138977,-66.285725,-10.263243,-25.742218,-35.2503,-38.71933,-79.438887,-104.930576,-120.352587,-134.134214,-82.439023,-115.119881,-133.231948,-149.720381,-75.743874,-104.432505,-122.52668,-139.55485,-62.579905,-80.917778,-92.272722,-104.223488,-29.797697,48.516897,-229.558382,-156.521301
74,4.018307,1.470401,2.922421,3.868509,-22.39397,-47.567139,-68.43996,-78.363304,-69.631004,-99.900112,-116.487408,-126.265469,-73.433704,-114.181423,-135.982132,-152.37854,-70.518322,-106.416779,-128.31831,-144.512787,-63.197651,-87.652473,-102.085419,-114.064293,-29.024639,-40.298134,-38.46887,-33.293939,-34.550868,-47.343732,-52.726114,-56.762028,-13.838267,-18.823563,-19.910154,-21.353786,4.967913,7.990287,9.31437,8.279186,20.66882,31.014484,36.176355,38.476373,12.053375,21.214199,23.415184,33.002071,18.012829,28.523369,34.675026,38.81218,-0.320606,-3.130188,-5.529041,-8.95649,-15.395279,-25.795555,-31.78751,-37.000294,-28.580875,-45.66576,-55.898838,-64.217033,-10.114316,-25.015123,-34.520163,-38.357009,-78.665641,-104.067244,-119.542314,-133.435207,-82.23297,-115.086404,-133.394552,-149.91166,-75.904625,-104.610215,-122.408668,-138.892801,-63.0154,-81.111652,-92.542733,-104.452103,-25.144215,49.52011,-226.000786,-153.11998
75,3.973331,1.736514,5.992298,5.633644,-22.751026,-47.878075,-69.509525,-79.373016,-67.671432,-99.276752,-116.296234,-126.714134,-71.698322,-112.883663,-134.876575,-151.546497,-69.538593,-105.567455,-127.48621,-143.810577,-63.036976,-87.682285,-102.842274,-115.743084,-28.854949,-40.281399,-38.526947,-33.487341,-35.145803,-47.841317,-53.066575,-57.258255,-14.907661,-20.154161,-21.406151,-22.927372,3.983457,6.792514,7.797225,6.774236,20.076881,30.190703,35.057778,37.210829,13.059769,22.683277,24.803925,33.915882,18.97459,29.772434,35.929012,40.241261,0.548115,-2.571659,-5.157051,-8.682232,-14.826107,-25.743027,-31.527443,-36.369381,-28.450642,-45.723209,-55.788975,-63.649578,-11.043799,-26.446281,-35.496051,-37.50402,-78.349895,-103.2074,-118.841755,-132.804828,-82.130518,-115.324251,-133.881701,-149.921903,-76.221606,-105.441051,-123.051358,-139.107399,-63.808291,-82.12706,-93.542689,-105.638653,-20.77692,49.376123,-219.614525,-149.366837
76,3.578224,2.21826,4.44912,7.843321,-21.820335,-45.717602,-66.979179,-77.628365,-66.927395,-98.179893,-114.761066,-124.691448,-71.215267,-111.758251,-132.873459,-148.532238,-69.354172,-104.942722,-126.033554,-141.209965,-63.251038,-87.890339,-102.811432,-115.17231,-28.578214,-40.184482,-38.886149,-33.319473,-35.327997,-47.336754,-52.086967,-55.792763,-15.222434,-21.232354,-22.463225,-23.997785,3.463642,4.746723,5.086196,3.689587,19.627801,28.823332,33.180719,34.959162,14.500751,25.252132,29.457836,40.921097,22.380581,33.542404,40.273075,45.149174,3.961086,1.568298,-0.711308,-3.280277,-11.422634,-21.578293,-26.2183,-29.388371,-25.253792,-42.066135,-51.168537,-57.621689,-11.266918,-26.827683,-37.235807,-40.657845,-77.271486,-102.664784,-118.141676,-131.745361,-81.778571,-115.252744,-133.753662,-149.017044,-76.619479,-105.934638,-123.238802,-138.146555,-64.81825,-83.465701,-95.085399,-106.840347,-16.590242,49.245475,-214.556952,-143.872424
77,4.180584,3.074646,8.556862,10.508839,-20.656242,-44.838295,-66.820335,-78.541603,-64.429207,-96.76672,-113.032951,-122.039051,-69.14011,-109.976864,-130.669842,-145.192108,-67.765274,-103.967056,-124.591255,-138.980484,-62.487946,-88.609829,-103.833332,-115.956631,-28.792951,-40.401627,-39.690293,-35.160345,-37.034933,-48.704341,-52.337457,-54.987877,-16.85743,-22.877324,-23.877341,-25.407578,2.09479,2.736531,2.216006,0.002686,18.579958,26.435351,29.405361,29.53093,15.118961,25.975342,32.071724,43.376827,23.784256,34.881191,42.754555,49.426746,6.36097,4.044056,2.40303,0.862141,-8.806973,-18.992271,-22.26162,-23.891087,-23.053322,-39.098911,-45.777454,-49.473553,-11.28708,-28.484848,-40.431638,-44.135536,-75.981057,-101.536465,-116.199216,-128.769068,-80.183049,-114.027632,-132.470519,-145.709282,-74.731244,-104.423019,-122.041075,-136.09083,-63.031301,-82.311076,-94.245686,-105.58344,-12.542839,50.822689,-206.13327,-134.861016
78,3.910732,2.061877,8.860474,11.286956,-19.773502,-45.765724,-68.95689,-81.460991,-62.983303,-97.248459,-113.168564,-121.532936,-67.099342,-107.893181,-127.715435,-140.095825,-65.744305,-102.981606,-123.215103,-137.030239,-60.787582,-87.644062,-103.207111,-116.134357,-28.490312,-38.772898,-36.558467,-31.208195,-37.443412,-45.609503,-47.230574,-48.733116,-17.424762,-21.585227,-21.011566,-21.324671,1.751396,1.442984,0.292172,-2.196308,18.979205,23.247579,24.391073,23.500509,19.805202,33.317471,42.474575,54.443092,27.570934,39.087982,47.542534,54.773197,10.784283,12.600689,11.938934,11.16497,-4.57283,-11.48386,-13.332653,-13.777599,-19.423084,-33.74794,-39.264221,-41.250973,-7.802813,-22.55582,-35.167632,-39.556187,-71.48416,-96.496643,-110.081904,-121.486309,-76.95111,-108.962384,-125.763583,-136.15935,-72.294017,-99.980416,-114.826188,-124.72667,-61.766483,-80.843562,-92.230199,-101.793192,-8.953342,52.553275,-197.594032,-123.905351
79,4.812069,3.815712,11.325817,13.760184,-18.745937,-42.561321,-63.080978,-77.042313,-62.63998,-97.846642,-114.694862,-123.803101,-66.658974,-107.25666,-126.485481,-137.398853,-65.485783,-102.953625,-121.203289,-132.169762,-61.144695,-89.049568,-103.282757,-113.474293,-26.660617,-36.602063,-35.293571,-31.293812,-34.810807,-40.3936,-38.778302,-37.391017,-15.410989,-16.092034,-14.30473,-14.256472,3.355363,5.189072,5.35972,3.404609,20.716584,24.941424,26.079113,24.194522,22.067471,36.481361,47.244186,60.445976,30.319233,41.648026,50.380383,57.524242,14.561405,18.12624,18.710976,17.273026,-0.34338,-3.272896,-1.751862,-1.148415,-14.850769,-25.678654,-27.745228,-27.654533,-5.298124,-18.494897,-30.023591,-34.032381,-63.727012,-88.81412,-101.163045,-110.894585,-69.388475,-101.030806,-116.203546,-124.085801,-65.237581,-93.3711,-105.858237,-113.148275,-55.77254,-75.820228,-85.924787,-91.810327,-4.73402,56.070655,-186.860962,-110.443499
80,4.148254,6.744874,12.328835,14.965305,-21.620178,-46.936455,-67.013111,-81.123676,-64.625587,-99.09771,-114.412708,-122.400799,-66.440392,-105.165367,-123.214645,-132.580776,-63.434086,-99.400406,-116.153183,-125.630379,-57.774982,-84.75666,-98.03009,-107.423687,-25.325542,-34.118091,-31.604046,-25.864963,-30.779555,-32.376328,-28.64685,-26.010879,-12.531135,-10.276627,-7.046494,-6.075777,5.243166,9.268613,11.537015,11.445223,21.660285,26.328307,28.366132,27.588818,23.872032,38.672848,48.318386,59.138889,30.035934,43.314342,52.923775,60.793018,11.587543,20.463524,25.956001,28.878479,-4.540558,1.469994,8.787575,12.595024,-16.933594,-15.723324,-10.571194,-5.694294,-4.865191,-17.137638,-28.509038,-31.531968,-54.865195,-79.755721,-89.750889,-94.380349,-62.518294,-94.816476,-95.946586,-89.502622,-60.595695,-85.967889,-80.46548,-69.964977,-54.635869,-71.783619,-68.461833,-60.025661,-0.824032,62.044684,-174.770393,-96.24904
81,3.344021,9.248267,10.666408,40.471513,-23.058529,-49.495411,-70.426998,-85.985928,-64.688244,-99.714203,-113.768349,-120.46526,-64.267044,-103.336372,-120.332794,-128.970394,-59.794292,-96.385803,-112.245712,-120.420971,-53.020706,-80.736351,-94.262295,-103.259068,-23.559172,-31.597408,-27.764467,-19.962982,-29.414901,-25.387848,-18.859718,-14.275923,-12.26851,-5.4504,0.691265,4.110663,5.336347,13.118844,18.124271,20.439664,22.16565,28.71425,32.807346,34.189814,27.846823,48.466502,60.603762,73.87496,37.055884,48.924752,58.707333,66.269274,19.647017,29.136029,37.602825,42.074061,4.063654,11.026268,20.576048,25.710497,-9.417715,-6.903505,0.160189,5.325823,-7.550424,-21.485755,-33.126541,-37.994434,-62.007271,-89.116844,-94.389989,-92.927547,-66.612663,-97.150341,-96.772475,-88.326462,-63.243452,-87.503753,-84.308023,-74.92636,-55.360587,-70.518276,-68.277762,-61.246513,2.599096,70.43198,-164.024878,-56.638497
82,1.372261,11.313262,10.666409,40.471513,-24.970379,-51.714649,-71.082172,-84.217014,-65.297298,-98.650703,-110.679302,-116.548004,-62.748356,-100.531654,-115.144672,-121.957798,-57.40448,-91.698704,-105.903282,-113.02145,-50.83992,-77.744465,-90.191689,-98.574944,-22.965596,-29.210446,-22.491291,-10.985429,-26.412473,-18.064002,-9.524692,-3.88265,-9.993038,0.364883,7.915878,12.203549,7.459172,17.297031,23.33829,26.711067,24.226354,31.705564,36.45417,39.006408,31.821613,58.260155,72.889137,88.611031,44.075832,54.53516,64.490891,71.745529,27.70649,37.808533,49.249649,55.269642,12.667866,20.582542,32.364521,38.82597,-1.901836,1.916313,10.891571,16.34594,-10.235656,-25.833871,-37.744044,-44.4569,-69.149346,-98.477967,-99.029089,-91.474745,-70.707031,-99.484205,-97.598363,-87.150302,-65.891209,-89.039617,-88.150566,-79.887743,-56.085306,-69.252933,-68.093692,-62.467365,3.847017,83.088838,-153.482809,-14.823387
83,6.047115,15.745583,14.510765,14.155942,-24.764042,-51.410751,-71.051617,-83.729897,-62.465916,-96.673679,-109.901447,-117.344112,-59.611702,-96.199207,-112.010593,-119.915943,-54.021091,-86.994839,-103.626652,-113.531857,-47.369213,-74.007511,-87.114887,-96.960697,-23.043617,-28.453787,-20.47196,-8.735831,-25.701664,-15.039807,-3.966723,4.201097,-9.770799,3.154551,12.603352,18.8792,7.174842,17.903575,25.886946,32.013945,23.295127,31.432195,37.672475,41.901452,26.526718,49.541302,64.896812,80.824699,36.482105,50.653324,64.153118,72.804966,22.563,36.981068,52.383785,60.729504,8.973885,18.981857,33.041954,40.575199,-3.95462,-1.934109,8.125248,16.141834,-3.302813,-14.998835,-23.931959,-30.071524,-56.264752,-78.467669,-74.677552,-66.69909,-55.537116,-78.689662,-72.280061,-61.056862,-48.671551,-68.622893,-64.115206,-56.366918,-38.449573,-50.975583,-49.256976,-45.539416,7.904005,97.323188,-140.962172,-2.178678
84,7.018719,13.699946,0.607796,40.143696,-25.111427,-49.564133,-67.641964,-80.627804,-60.114956,-96.137009,-109.802227,-117.754726,-56.476936,-95.571556,-112.450962,-121.760445,-50.328197,-85.529308,-103.300838,-115.12682,-42.886162,-70.303402,-83.975716,-95.142059,-20.072929,-22.483912,-13.737552,-1.458452,-19.118329,-7.7812,4.480795,14.408316,-5.477509,8.67161,20.118408,28.680751,10.377496,22.610716,32.012124,40.167624,25.880215,36.124547,43.804229,49.914186,35.236015,62.533207,80.478401,97.974358,58.490353,83.923531,99.007187,105.363522,45.755997,72.119751,89.084129,94.758568,32.19326,53.778648,71.091557,79.156494,18.445816,30.707645,43.237038,51.11887,-3.997166,-14.432306,-22.461496,-28.558948,-55.003655,-71.771392,-63.877065,-54.78123,-57.797089,-75.420533,-64.123048,-52.147019,-53.536928,-69.869294,-61.459722,-51.466807,-43.18231,-54.388404,-49.960992,-43.474853,14.353065,106.888049,-140.924034,33.829932
85,7.073135,16.995504,4.907627,13.41608,-27.131195,-52.166004,-69.999847,-82.104435,-62.017479,-95.151672,-109.538498,-119.817753,-57.145443,-92.491322,-109.323406,-119.378986,-50.308743,-82.640018,-99.37191,-110.810509,-42.545929,-67.402153,-79.801025,-90.140762,-19.21398,-20.649708,-11.837214,-0.937464,-15.9028,-2.00059,11.272877,22.342997,-2.386437,13.883438,27.207509,37.472033,12.107249,26.853803,38.229279,47.668385,26.122802,38.780772,48.183445,55.471105,36.8577,63.124752,81.254139,91.395264,53.088627,84.010849,95.148125,96.888714,41.227913,76.261311,88.095589,85.75367,31.169872,63.260021,68.243465,61.580257,22.842064,43.662014,48.258247,44.441814,-3.855016,-13.597039,-20.816898,-28.417941,-51.550479,-54.691352,-39.14513,-27.105035,-48.069361,-51.763518,-32.994851,-19.244948,-37.451254,-33.562337,-18.751501,-10.523721,-22.588795,-16.729391,-6.027396,1.19203,21.303549,119.954096,-136.139059,43.316556
86,7.085724,21.102061,12.916317,27.448568,-26.303616,-51.29694,-68.272419,-79.085312,-62.691994,-94.118099,-109.15947,-120.030155,-57.860985,-92.153435,-109.674797,-120.215321,-51.163158,-82.49754,-99.682274,-111.63763,-43.443432,-67.434597,-79.986534,-91.397095,-19.174398,-20.671321,-13.353125,-3.19228,-14.496156,1.832814,15.233518,26.343096,-1.155165,16.538057,30.475928,40.934286,13.167473,28.791006,41.02191,50.542836,26.750772,39.171559,48.703476,56.693115,33.119917,59.721822,79.250393,90.020399,50.198679,83.598318,95.858001,98.552999,38.752184,74.204921,88.71274,91.215734,29.198055,60.828123,71.510753,72.527275,21.492662,42.047538,49.529628,51.035871,-12.623621,-19.988145,-19.414129,-18.433116,-43.175765,-42.278794,-26.985038,-15.325202,-36.774007,-34.235941,-17.401621,-5.04947,-24.80687,-18.718325,-4.780594,3.895339,-8.965681,-2.318126,7.006557,13.637856,28.35165,138.729541,-123.260364,68.438507
87,5.61367,19.448416,12.916317,27.448567,-26.046238,-51.083794,-67.861919,-79.080963,-61.641712,-91.195107,-106.492367,-118.542252,-55.916348,-88.365669,-106.555767,-118.793221,-48.04739,-78.592472,-96.104851,-109.54216,-39.218731,-61.983833,-74.781876,-87.714043,-19.370301,-24.598894,-25.118122,-22.812763,-11.218012,5.839428,18.713462,29.179972,2.147865,20.425801,35.334635,46.113602,15.40222,31.401814,45.041986,55.619522,27.87253,41.973546,53.170439,62.572433,29.382133,56.318893,77.246647,88.645535,47.308731,83.185787,96.567879,100.217285,36.276455,72.148533,89.329891,96.677799,27.226238,58.396225,74.778042,83.474293,20.143261,40.433064,50.80101,57.629929,-21.392226,-26.379251,-18.01136,-8.44829,-34.80105,-29.866235,-14.824946,-3.545369,-25.478652,-16.708365,-1.808392,9.146008,-12.162485,-3.874313,9.190314,18.3144,4.657432,12.093139,20.04051,26.083683,33.637161,155.903951,-110.672207,93.613069
88,-10.669098,17.285577,1.034918,32.059595,-20.638075,-39.635296,-51.679459,-58.981018,-47.549887,-71.806498,-82.416973,-89.666805,-43.833933,-73.742638,-89.757986,-97.331371,-37.991581,-66.589394,-82.004471,-91.189957,-30.432158,-50.742416,-63.222513,-73.723183,-21.185671,-29.2889,-33.678166,-34.281637,-9.991896,3.145411,12.750533,19.333343,8.072291,28.028913,40.584377,46.7316,23.67378,42.860899,53.16343,57.713046,36.528147,53.944758,63.928781,69.575115,29.220542,59.0948,83.012723,97.057113,56.743526,95.634183,103.770732,101.959018,47.696914,89.633874,98.32612,97.061777,39.039144,76.557798,84.749307,84.406385,31.260252,57.038383,63.022384,63.350915,-21.888082,-27.49028,-22.000761,-17.282242,-34.320555,-24.374416,-8.252495,0.947668,-22.41083,-6.82234,8.836129,17.094845,-7.225663,8.820228,22.574036,29.489542,10.285287,23.374785,32.004574,36.483687,22.4895,171.667149,-110.115852,124.150284
89,-10.669098,17.285576,1.034917,32.059594,-15.229912,-28.186798,-35.496998,-38.881073,-33.458061,-52.417889,-58.341579,-60.791359,-31.751518,-59.119606,-72.960205,-75.869522,-27.935772,-54.586315,-67.904091,-72.837753,-21.645584,-39.500999,-51.663151,-59.732323,-23.00104,-33.978905,-42.238208,-45.75051,-8.76578,0.451396,6.787605,9.486716,13.996719,35.632025,45.83412,47.349598,31.945341,54.319985,61.284876,59.806571,45.183764,65.915971,74.687123,76.577797,29.058952,61.870708,88.778801,105.468693,66.178322,108.082581,110.973587,103.700752,59.117374,107.119217,107.32235,97.445755,50.852051,94.719372,94.720573,85.338478,42.377243,73.643703,75.243759,69.071903,-22.383938,-28.601309,-25.990162,-26.116194,-33.840059,-18.882597,-1.680043,5.440705,-19.343008,3.063685,19.480649,25.043682,-2.288841,21.51477,35.957759,40.664684,15.913143,34.656431,43.96864,46.883692,11.205883,187.356385,-109.695454,154.613537
90,-26.346245,12.804844,-1.962376,14.377101,-2.602615,-3.793917,-1.288204,-0.412473,-5.354318,-7.33243,-12.311611,-17.57329,-2.337141,-11.572866,-23.100471,-29.071541,-0.0321,-10.657339,-20.356178,-25.563125,2.42898,-2.824745,-9.688997,-14.590816,-13.412993,-17.636011,-24.053916,-30.724968,7.410172,19.210676,25.315631,29.2621,20.237308,39.528075,48.60909,52.593628,27.477266,47.302328,53.551624,54.881728,31.473907,44.170131,49.660978,52.5944,34.896984,68.537006,94.147453,112.611408,67.169094,101.178589,117.079983,127.88435,57.796783,94.2029,112.939796,125.650463,48.018494,83.38583,100.435696,112.461033,38.43195,65.272694,78.230381,87.808285,-15.774637,-20.796921,-21.11648,-22.77349,-22.985294,-9.917116,3.283949,14.24477,-9.308566,6.802672,22.980848,33.986253,6.955628,21.017555,34.865394,44.172046,25.290622,36.185124,44.673397,50.235133,-15.526228,197.541668,-112.043695,166.371078
91,-26.346245,12.804843,2.647076,19.263226,10.024681,20.598965,32.920589,38.056126,22.749424,37.753029,33.718357,25.644779,27.077236,35.973873,26.759262,17.72644,27.871571,33.271637,27.191734,21.711502,26.503544,33.851509,32.285156,30.55069,-3.824944,-1.293115,-5.869624,-15.699425,23.586126,37.969958,43.843657,49.037484,26.477897,43.424125,51.384062,57.837659,23.009192,40.284672,45.818373,49.956886,17.76405,22.424292,24.634833,28.611004,36.253796,70.929451,98.281975,120.44426,70.739708,96.245441,113.514118,128.776817,61.197624,88.829098,109.29142,128.371239,49.732761,77.926769,96.525764,113.960209,36.552372,59.203491,73.493843,87.755814,-14.671651,-18.210629,-18.594408,-23.441136,-13.081701,-2.508178,8.991786,21.876195,-0.693704,13.350069,25.914548,38.420983,12.649263,27.479304,39.870389,50.483123,27.117014,39.36916,48.312226,57.085354,-42.118349,208.746311,-109.642496,184.034104
92,25.907536,23.196481,23.266525,25.197564,6.401825,2.413273,-4.678631,-13.956413,-7.330112,4.603786,7.015858,8.627071,-8.032608,6.117725,10.856152,16.504097,-9.151897,5.952187,11.71051,18.392544,-9.457855,1.856804,10.386486,18.507957,35.367301,57.005696,70.687487,77.84294,41.705981,53.44776,54.807875,53.009456,19.302006,31.51142,36.152828,36.450959,-2.171144,6.25507,9.202417,7.977289,-23.50196,-24.904435,-23.75631,-24.845958,34.014244,65.147209,89.565582,103.128891,74.429798,111.089973,115.183754,110.41729,64.531174,105.511894,104.493484,94.088402,51.883106,90.551605,91.972332,84.746132,37.616272,67.268829,73.176041,69.527378,-12.903613,-14.750753,-16.181016,-21.784804,-0.142829,27.396003,39.704959,43.354409,14.765944,48.169706,61.159893,64.244696,30.870945,63.476892,76.16055,80.59991,46.713446,71.511053,81.58273,85.482207,-17.015791,230.27641,-87.180948,207.565288
93,68.991909,23.160233,-6.280518,14.278918,-15.063515,-39.3853,-61.813545,-79.749298,-66.984844,-84.077625,-80.336838,-71.440773,-68.722744,-81.200409,-70.53154,-55.48542,-65.602741,-75.584278,-65.72525,-51.246758,-59.079781,-69.157276,-61.232414,-48.716068,33.676452,52.344713,63.944157,70.932945,38.876454,45.443919,47.488537,45.050754,19.468114,26.53724,31.817085,28.900057,-0.57255,3.429927,8.028418,7.146931,-19.591059,-20.497247,-18.663692,-19.13812,36.766777,68.948994,94.650536,111.537552,69.315891,104.944038,119.772835,127.378807,58.581161,96.785431,114.493904,124.977837,47.592316,84.338894,101.480827,110.886154,36.621552,65.656357,79.747124,88.8937,-12.630553,-14.587485,-15.405802,-22.069474,1.638053,20.234004,30.531194,37.298175,18.209641,38.898375,49.392981,55.858002,33.986748,53.975356,62.99598,67.892602,47.59308,64.311634,70.815743,74.073201,51.431551,251.560403,-94.006033,219.967966
94,-15.009499,13.360196,4.56316,15.56413,-23.795357,-45.703411,-61.340046,-69.872532,-41.287708,-52.801037,-55.733471,-54.004612,-34.043941,-47.671394,-51.113319,-47.015018,-26.237068,-41.588802,-45.863571,-43.245335,-17.935867,-31.685143,-38.598404,-41.681271,2.246295,9.115534,16.422028,25.755232,9.253114,14.281574,16.305752,15.424635,16.048376,20.508485,23.795707,21.279192,20.74573,26.004395,28.879618,27.045013,24.815453,32.10725,38.250552,40.41972,34.27866,65.141602,88.027668,107.027721,66.118698,93.638706,109.973087,122.465687,56.296806,86.436081,105.465717,120.377483,46.088276,73.582649,92.046833,106.439381,35.068531,58.455906,72.08416,83.890743,-11.968774,-15.328737,-17.00205,-24.371344,6.030175,20.983469,30.866623,40.191058,20.451613,37.967364,49.460104,59.098973,33.635079,51.987672,62.473695,69.988287,44.936022,62.171365,70.13902,75.434736,35.598621,263.327453,-90.266304,233.93895
95,26.296005,11.315392,5.60606,14.698142,-21.265869,-48.879433,-73.53447,-97.118111,-78.258877,-92.672195,-81.414928,-65.274067,-80.7094,-87.241402,-67.047615,-43.268509,-77.82732,-80.63736,-59.39209,-36.895752,-70.624924,-77.981129,-61.755524,-43.352966,34.819267,54.157952,61.414181,66.170939,38.743258,39.777886,44.880076,47.867808,21.689832,24.410988,31.620472,32.302011,2.136132,5.526538,12.164214,14.385191,-15.469219,-15.054874,-12.660131,-11.868861,31.323109,60.967598,84.011421,103.16906,59.876461,85.584297,102.334785,115.54081,50.071049,79.410896,98.865623,113.157234,40.429688,68.148079,86.566143,100.434608,30.471039,53.277969,67.17207,78.33744,-11.872752,-15.322006,-17.605475,-25.480999,6.236421,19.818424,30.25375,40.736932,21.350946,39.326676,51.409626,61.696257,34.654887,52.997723,64.3041,73.194986,45.149061,62.449427,71.435717,78.200783,60.863285,274.483422,-85.691586,248.477668
96,3.066673,3.009653,13.145027,17.459682,-28.352165,-58.493958,-83.664894,-101.999245,-60.709076,-81.928711,-85.102558,-82.424126,-55.267296,-77.609825,-76.277504,-67.083492,-49.735222,-70.573139,-68.527966,-58.790588,-42.377243,-60.189285,-57.429428,-48.419724,27.255088,45.788548,54.747298,65.643034,46.309289,50.109842,47.042822,42.204986,33.340776,37.642557,34.175642,28.661083,16.647417,19.502447,15.805141,10.562161,-1.49047,0.728037,0.307949,-1.485962,31.492996,58.941822,78.957253,94.526253,62.486801,102.934685,110.983429,108.503609,49.908772,96.352272,103.877449,99.685593,37.844124,80.978394,87.80674,84.137535,27.228928,60.263901,68.097553,66.101933,-18.778486,-19.757847,-17.875571,-20.970749,9.015622,40.500243,42.302058,38.049431,28.339858,59.493496,56.787902,49.639736,44.102021,70.911271,68.061798,61.832108,55.172635,79.172797,77.760133,71.366371,62.701235,277.670685,-73.775282,266.11496
97,4.72332,9.111459,-7.810478,2.307675,-27.943153,-57.293587,-79.425716,-96.840305,-80.501289,-89.498806,-75.405636,-58.193893,-76.407337,-81.553059,-63.161888,-41.376915,-69.777718,-72.66346,-54.709053,-33.481407,-60.273056,-64.453983,-52.840233,-36.682205,32.679924,48.744602,55.157568,61.8791,30.855693,41.835225,51.103468,56.531823,16.823714,31.930644,43.437895,48.602329,3.038182,17.236763,29.25327,35.685748,-10.138738,4.644557,15.016712,22.81406,31.993675,61.473141,85.342598,102.329063,59.953308,92.514839,107.60582,118.411674,49.313965,86.119537,104.565811,117.329521,38.579979,72.452374,90.491066,102.936974,27.941551,53.98344,68.410149,78.361015,-11.209923,-13.574161,-11.956115,-16.52299,12.082024,31.283191,42.43476,50.809968,29.617165,51.792479,63.154863,69.312367,44.221384,66.345754,75.412382,77.695048,55.456686,73.663919,80.38823,82.023566,66.14522,286.868162,-82.865095,268.508653
98,-4.847488,3.146492,2.664871,5.906056,-23.448601,-52.613754,-75.152836,-93.087387,-81.167278,-81.437302,-65.213757,-49.457932,-79.677429,-75.998325,-55.474892,-33.026276,-73.179474,-67.35775,-47.153778,-26.577873,-63.303623,-59.44828,-44.05117,-26.713829,35.124622,49.861605,57.055528,65.949255,30.602825,47.157802,59.001222,66.646849,17.887674,35.176616,50.334552,59.802495,4.177909,21.498406,35.532299,46.064017,-7.744675,7.929741,19.673558,30.27209,32.534409,59.710464,81.903305,100.620346,60.88377,90.19558,106.533623,118.226967,49.407005,83.377762,102.704659,116.446609,38.07621,68.74609,86.896362,99.753342,26.911297,50.82716,65.17828,76.950932,-7.744551,-9.22897,-9.190376,-16.135753,15.827372,33.714058,43.998157,51.687997,31.41756,51.199737,62.068921,69.591418,43.891081,64.085566,73.152008,78.224125,52.781597,70.872368,77.52227,81.251748,60.19927,289.946929,-81.298685,274.346984
99,-5.287514,2.157745,3.828449,7.070854,-20.678215,-46.923065,-68.183327,-86.108608,-74.104328,-71.115074,-54.645309,-38.253365,-72.263889,-63.955994,-43.374138,-20.763702,-65.838432,-56.097164,-35.22068,-15.080223,-56.660099,-51.08139,-36.372986,-20.624771,35.863651,51.75123,60.441674,69.910544,36.829489,54.644977,64.62335,70.214664,23.149241,41.63503,53.736444,60.707509,8.447395,26.457582,38.890162,47.478286,-5.014133,10.49121,22.204151,32.220994,31.023731,58.001976,80.362186,98.839931,58.679695,88.69669,105.542736,117.237797,47.112865,81.882305,102.128735,116.193409,36.569252,68.057384,86.655521,100.164585,26.860485,51.392326,65.930614,77.967968,-8.517543,-9.867716,-9.787193,-16.381026,16.444629,33.984833,43.639448,50.742413,32.88265,52.263634,61.954188,68.596001,44.986225,64.318859,72.512953,77.233278,52.886696,69.876025,75.587012,78.921473,53.853464,292.042352,-78.528528,281.355517
100,-6.88282,3.304759,4.190083,6.915243,-16.718445,-38.314247,-56.794853,-73.104801,-66.579037,-56.148376,-38.363457,-22.189178,-64.11232,-48.701935,-27.941666,-6.572571,-56.876392,-41.314774,-19.837303,-1.089134,-47.461681,-38.224869,-23.707809,-10.032692,33.010041,49.349756,58.512838,69.57635,37.005046,53.948865,62.501544,67.759036,24.414384,41.655716,52.784684,58.953736,11.018126,27.961389,39.668897,47.244808,-1.391916,13.181366,23.20704,31.711492,30.318947,56.384525,78.880463,97.35775,57.368259,87.291069,104.064674,116.099281,46.085472,80.748024,101.345444,115.164642,35.572357,66.940269,85.530052,98.820534,25.993996,50.331345,64.623928,75.93647,-9.621023,-11.147308,-10.213209,-14.676714,17.70514,35.68933,44.750585,50.751552,34.586221,54.223407,62.655797,67.829555,46.493058,65.67144,72.435456,75.531807,53.616771,69.999341,74.347805,75.801286,45.79874,295.385303,-75.510349,288.308953
101,-6.565933,4.837342,3.584003,6.061914,-6.187248,-17.695885,-27.999573,-37.207947,-50.228291,-39.983139,-21.549454,-7.678299,-53.677197,-40.559692,-18.817062,1.62426,-51.874523,-40.70097,-18.933678,0.069466,-47.642727,-47.776623,-44.690838,-39.792023,7.69299,17.15976,28.720364,39.084059,23.853073,41.528202,47.745851,51.687935,25.870273,39.286785,47.61778,53.170871,26.345072,37.931611,46.389194,52.765048,25.38862,36.504065,44.733789,51.700471,29.722023,55.512829,78.312092,96.731243,56.080742,86.711369,103.225079,115.382252,45.989456,80.648174,100.810261,114.706936,36.326694,68.129883,86.775455,100.330067,27.552967,51.957664,66.764374,79.068432,-11.050483,-12.270424,-9.575142,-11.82119,16.923565,33.569438,41.175545,46.128855,34.247643,52.267154,59.63861,62.80832,46.54851,65.09889,71.234781,72.864128,54.156161,69.793527,73.271557,73.113105,38.238087,300.356181,-72.921066,294.504403
102,-27.851257,4.160558,-1.027164,2.609325,0.403061,-3.655586,-11.75972,-20.317383,-28.538418,-10.48954,9.451332,19.943275,-36.10714,-11.677094,7.802238,23.17131,-40.327892,-20.267601,-0.172462,13.528404,-42.319107,-44.374638,-42.198029,-39.086151,-11.218383,-9.191796,-0.751379,6.477001,17.309814,36.936688,40.59435,41.204383,28.657008,44.51896,48.202001,48.789742,33.932284,48.06967,49.499563,50.610391,37.95347,49.834003,54.275216,58.394462,28.452759,54.148979,76.797295,95.185089,54.827385,86.327934,102.686234,114.692001,45.355225,80.891418,100.765343,114.40052,36.281147,69.109268,88.368301,101.953468,28.442516,52.963657,68.285007,80.717239,-12.906762,-13.638566,-10.363139,-12.098388,17.74219,34.256535,41.199875,45.650412,34.510638,50.593656,56.857742,59.445331,45.773975,62.745643,67.965467,69.031897,52.163599,66.994072,70.862797,71.277821,9.492846,304.571974,-74.842215,297.168964
103,-18.360844,16.919366,-0.422058,-0.739461,4.52322,9.948292,21.751842,28.641415,-7.196503,18.329258,36.950054,49.331646,-14.852257,10.997486,31.768284,47.224102,-18.648033,1.08942,20.447102,35.791454,-18.489876,-19.516869,-19.692879,-19.549198,-16.181448,-24.930926,-32.220377,-39.569479,-3.62018,9.077496,16.060171,22.28066,12.791166,23.208028,29.648596,33.013314,24.29323,32.450706,37.597232,41.130529,33.237345,38.801118,41.713206,45.891239,27.722225,53.322029,76.118546,94.190025,54.557362,86.514816,103.125,115.68203,45.325298,80.656586,99.947433,114.007187,36.128998,68.593311,87.266693,101.087608,27.677364,52.22477,67.328224,79.834442,-12.186506,-13.4443,-10.462002,-12.27697,16.830816,32.916613,39.879466,44.375637,33.206408,48.680814,55.391663,58.552543,44.56626,60.805322,66.641353,68.201169,51.529669,66.563424,70.62197,70.722253,-9.696493,321.532296,-76.092768,296.470459
104,3.916454,-2.824958,2.120132,-0.478936,3.058434,7.674179,17.721748,23.485794,-11.454563,13.503456,30.957069,42.426109,-19.411125,7.115707,27.842216,44.403992,-23.309555,-3.570042,14.834976,30.573463,-23.342686,-21.519527,-18.483124,-13.905716,-16.541886,-25.366513,-28.720858,-30.686867,-3.803764,8.956465,16.268517,22.063484,13.322837,24.036224,31.025506,34.113274,25.581096,33.290326,39.260356,42.543626,35.742312,41.56235,42.226599,43.469326,27.466793,52.278957,74.882126,93.385849,53.902817,85.863762,102.514343,114.773598,44.491024,79.798965,98.981781,112.45079,35.019321,67.419491,85.508194,98.565788,26.33812,50.662079,65.308971,77.337456,-12.294569,-13.916382,-10.209319,-10.955573,16.589866,32.407975,39.449374,43.672361,33.191958,48.627832,55.219688,58.054712,44.563296,60.682686,66.246706,67.422249,51.539487,66.693532,70.487169,70.165264,-6.409721,318.742536,-74.602318,296.02672
105,2.469749,3.337919,1.009541,-0.131034,4.110374,7.601852,17.211571,23.030205,-10.550537,14.126244,31.891365,43.374138,-17.785149,6.175232,27.106247,44.158516,-21.775703,-4.295883,14.878006,30.78289,-22.401695,-24.690456,-24.7645,-24.20105,-17.267453,-26.62863,-32.864125,-39.121603,-5.885,6.927902,15.054997,21.891447,10.83411,20.9655,27.270093,30.422081,23.001473,31.517534,36.156163,38.898128,32.562845,37.536346,39.961594,42.567523,27.222462,52.141972,74.979458,93.712406,53.417645,85.3755,102.108479,114.560452,43.981991,79.549999,98.89555,112.45245,34.518127,67.340698,85.742741,98.851948,25.892715,50.800152,65.869274,78.311977,-12.384663,-13.779357,-9.943545,-11.075739,16.557755,32.175052,39.073438,43.321249,33.054131,48.116724,54.654981,57.610417,44.424481,60.151817,65.549112,66.601895,51.379924,66.275914,70.14748,70.029784,-4.530001,322.13657,-74.182806,295.951802
106,-1.309147,2.730788,0.542278,0.719578,5.016003,8.172169,16.083012,20.715809,-10.404453,14.109478,31.553249,42.420788,-17.617378,6.87315,27.482471,44.704113,-20.798836,-2.96751,17.479992,33.811054,-20.637474,-27.754555,-32.694969,-37.665138,-17.428251,-26.876929,-32.953663,-39.373359,-7.85138,4.648942,12.109873,19.089028,8.496116,19.657379,24.839412,27.709509,20.342191,30.756522,34.187066,36.610584,30.273078,33.57444,37.148739,41.847266,27.062531,52.032051,75.30304,94.38755,53.341084,85.151825,101.872215,114.324989,44.031429,79.509659,98.903847,112.31163,34.655399,67.644539,85.669785,98.298683,26.235752,51.227932,66.152458,78.426704,-12.803886,-14.457809,-10.767728,-11.553564,16.135877,31.863398,38.942218,43.113211,32.973238,47.672677,54.250763,57.079117,44.627825,59.921674,65.183056,66.09727,51.938704,66.450792,69.847867,69.342131,-6.115408,324.948838,-73.916788,296.752859
107,-17.109261,-16.984327,0.327358,-0.046066,11.628456,21.37167,23.378391,19.184704,9.940624,42.258625,55.011463,56.015797,1.247234,37.635326,46.481152,49.68401,-7.977791,23.418331,34.362888,36.703205,-15.480995,-12.051601,-16.416664,-22.851219,-20.893869,-27.410267,-28.264337,-28.690168,3.02966,27.296029,27.225077,23.412669,22.089049,44.256026,41.447432,34.951412,33.947289,52.214728,47.346943,42.186646,41.876721,55.569134,55.703997,53.893475,27.124043,52.248459,75.555668,94.744091,52.762814,84.478626,101.173954,113.713245,43.441658,79.055843,98.524189,111.957264,34.271393,67.431965,85.492802,98.062191,26.185741,51.335278,66.310501,78.526783,-12.603691,-14.28744,-10.412972,-10.660282,16.140755,32.188576,39.297962,43.444194,33.150462,47.740664,54.28207,57.123021,45.043406,60.205293,65.390414,66.210706,52.485998,66.942201,70.261348,69.511327,-23.368521,308.058634,-73.733282,296.800916
108,-16.581345,-2.669223,0.490837,0.330982,18.18655,36.586361,44.322681,43.898792,28.602562,60.424061,70.857754,71.262989,18.949585,55.144901,63.128643,64.337597,7.765617,39.984798,50.423412,51.559925,-1.982403,10.082989,10.199318,6.026459,-20.015964,-26.311974,-27.056005,-27.44707,1.134664,26.07337,26.894219,24.588705,20.544918,44.148704,42.592717,37.694983,33.002322,53.07627,49.771511,44.782449,41.973793,57.201259,56.327861,52.388062,26.877537,51.762142,75.090122,94.218693,53.473206,84.895992,101.357861,113.705921,44.25602,79.070263,98.022137,111.383228,34.723091,67.086525,84.937305,97.612553,25.957203,50.727482,65.484982,77.784405,-12.78956,-14.798424,-11.101674,-11.121126,15.244942,31.335926,38.503296,42.717515,31.774045,46.745618,53.653883,56.720903,43.444502,58.900816,64.577222,65.792841,50.926368,65.73035,69.512624,69.237217,-40.131083,305.460763,-73.423662,297.203251
