takenoko1/special-research/HandMotion_SimilarSearch_自分用/NewProject/handData/key/d4_feature_d2/132.csv
,vel_0x_L,vel_0y_L,vel_0x_R,vel_0y_R,posFromWrist_1x_L,posFromWrist_2x_L,posFromWrist_3x_L,posFromWrist_4x_L,posFromWrist_5x_L,posFromWrist_6x_L,posFromWrist_7x_L,posFromWrist_8x_L,posFromWrist_9x_L,posFromWrist_10x_L,posFromWrist_11x_L,posFromWrist_12x_L,posFromWrist_13x_L,posFromWrist_14x_L,posFromWrist_15x_L,posFromWrist_16x_L,posFromWrist_17x_L,posFromWrist_18x_L,posFromWrist_19x_L,posFromWrist_20x_L,posFromWrist_1y_L,posFromWrist_2y_L,posFromWrist_3y_L,posFromWrist_4y_L,posFromWrist_5y_L,posFromWrist_6y_L,posFromWrist_7y_L,posFromWrist_8y_L,posFromWrist_9y_L,posFromWrist_10y_L,posFromWrist_11y_L,posFromWrist_12y_L,posFromWrist_13y_L,posFromWrist_14y_L,posFromWrist_15y_L,posFromWrist_16y_L,posFromWrist_17y_L,posFromWrist_18y_L,posFromWrist_19y_L,posFromWrist_20y_L,posFromWrist_1x_R,posFromWrist_2x_R,posFromWrist_3x_R,posFromWrist_4x_R,posFromWrist_5x_R,posFromWrist_6x_R,posFromWrist_7x_R,posFromWrist_8x_R,posFromWrist_9x_R,posFromWrist_10x_R,posFromWrist_11x_R,posFromWrist_12x_R,posFromWrist_13x_R,posFromWrist_14x_R,posFromWrist_15x_R,posFromWrist_16x_R,posFromWrist_17x_R,posFromWrist_18x_R,posFromWrist_19x_R,posFromWrist_20x_R,posFromWrist_1y_R,posFromWrist_2y_R,posFromWrist_3y_R,posFromWrist_4y_R,posFromWrist_5y_R,posFromWrist_6y_R,posFromWrist_7y_R,posFromWrist_8y_R,posFromWrist_9y_R,posFromWrist_10y_R,posFromWrist_11y_R,posFromWrist_12y_R,posFromWrist_13y_R,posFromWrist_14y_R,posFromWrist_15y_R,posFromWrist_16y_R,posFromWrist_17y_R,posFromWrist_18y_R,posFromWrist_19y_R,posFromWrist_20y_R,posFromBody_0x_L,posFromBody_0y_L,posFromBody_0x_R,posFromBody_0y_R
2,-41.043777,5.750445,-4.191914,1.530854,8.858299,10.39896,4.645615,-3.008537,-8.685551,11.309052,27.39212,34.331017,-19.801884,5.05394,22.503204,36.524734,-29.899807,-9.939995,9.235611,22.164917,-38.388519,-43.988285,-46.604977,-47.839909,-17.184337,-20.618648,-16.751837,-12.813334,9.068913,30.124753,35.322162,37.745804,25.192748,43.562631,47.098521,47.701823,35.300426,50.603042,51.783525,53.11474,43.375218,55.998052,61.980124,67.237677,25.013638,49.099617,71.43465,90.201187,51.129684,79.742432,95.268173,107.214203,42.01498,73.586426,92.549744,105.520363,32.25729,62.287331,80.656013,93.166351,22.833881,47.154636,61.636105,73.220901,-13.691795,-16.162862,-12.89361,-12.9984,12.412018,29.243451,37.529616,43.964009,28.143121,44.762194,53.44844,59.920315,39.890457,56.319155,63.351724,67.772189,48.107523,62.636901,67.126279,69.506017,-9.858513,307.390633,-73.473816,302.416761
3,-3.419151,10.83164,-0.317287,0.108125,-6.157608,-7.248287,-4.28175,-9.009933,-13.179245,7.373257,23.43029,34.878616,-15.99844,9.290886,28.607712,40.460587,-14.280453,6.34449,26.092987,36.770439,-10.509453,-1.660538,12.908592,23.777161,-10.767975,-11.768517,-6.105695,0.079843,0.57008,10.947854,20.274266,26.09418,15.617852,24.803658,33.536958,35.452517,26.321854,33.873435,37.612793,38.705529,35.355569,43.654824,42.786243,39.865325,24.904747,48.464756,71.189632,89.817982,50.199394,79.271564,95.292721,107.370129,41.347046,74.194851,93.748455,107.08746,31.831856,63.258419,82.026157,94.812984,22.703075,48.28846,63.308315,75.39854,-13.472273,-15.452485,-11.886152,-12.405781,13.040205,29.731033,37.682757,43.448207,28.966624,44.714461,53.201932,59.015116,40.685617,55.939142,62.678891,66.528721,48.677665,62.546684,67.290474,69.606917,-11.118364,318.173259,-71.631804,302.475872
4,-23.994312,-6.294466,-0.388641,0.05681,15.906715,27.889938,30.787125,28.980789,19.29388,47.110233,62.087002,67.455997,7.975216,41.79388,58.048382,69.172382,-4.178295,23.9328,40.420361,49.316883,-15.186825,-11.641445,-12.5457,-14.531651,-21.131053,-27.456209,-26.978323,-25.511627,0.637944,20.19047,25.732693,27.627196,19.449651,41.069396,44.503769,44.018349,32.057109,50.389077,50.864061,50.58637,40.864014,55.644222,58.996467,59.853748,24.818172,48.87846,71.810589,90.151806,50.564289,79.936695,95.77177,107.375164,41.960735,75.20216,94.538097,107.834187,32.544422,64.323406,82.807102,95.546436,23.429317,48.906269,63.699818,75.865631,-13.949974,-16.012561,-11.922337,-11.972911,12.527183,29.262162,37.401978,43.517244,28.539311,43.948509,52.282345,58.109484,40.440654,55.336644,62.020817,65.946846,48.772575,62.417193,67.061318,69.09902,-34.677343,311.544429,-71.585112,302.198319
5,7.279472,0.308752,-0.188198,-0.193649,14.940605,24.744415,25.579147,22.451248,12.946758,39.010792,53.350124,58.174839,2.475586,33.291149,49.607334,61.627522,-9.02504,16.294842,33.10461,42.792263,-19.553375,-20.922832,-24.289055,-28.116016,-21.537185,-28.574756,-28.616561,-28.330533,1.73636,20.960745,25.738498,27.283493,19.892648,41.655099,44.497964,44.07059,31.654187,50.432982,50.509799,50.284472,40.073239,54.107131,58.008028,60.00905,25.329151,49.109173,71.657696,89.953766,50.522118,79.854355,95.777664,107.510948,42.060986,75.212803,94.542046,107.859764,32.853584,64.642467,83.18264,95.927238,23.949909,49.327927,64.24736,76.42725,-13.883283,-15.826137,-11.695899,-12.155939,12.791474,29.371089,37.28848,43.304514,28.828118,44.204279,52.558678,58.387917,40.800164,55.892891,62.587686,66.482593,49.208039,62.888534,67.60997,69.670767,-27.184811,311.617634,-71.560249,301.769123
6,5.847359,0.886489,-0.177898,0.200936,14.151478,21.815643,20.461121,14.970989,6.021938,30.952549,46.374836,52.280903,-5.329342,23.450317,41.219044,55.332012,-16.911335,7.114162,25.769577,37.97842,-27.292557,-30.052929,-33.431225,-36.540356,-20.781484,-28.315775,-28.364866,-29.067524,0.600523,19.565495,24.935125,27.290656,18.903036,39.131236,42.501203,42.623098,30.786656,48.173411,49.082006,49.740327,39.698784,53.411328,57.961654,60.446984,25.077438,49.121876,71.934013,90.213261,51.568909,80.542889,96.373615,107.907772,43.132324,75.906544,94.963818,108.117542,33.695812,65.041924,83.324833,96.012669,24.350681,49.589939,64.358883,76.535168,-14.245758,-16.246966,-11.96124,-12.455243,12.651918,28.997932,37.014555,43.202317,28.461197,43.660567,52.019165,57.911142,40.263183,55.200237,62.019026,66.09301,48.645925,62.369707,67.24978,69.586725,-21.202326,312.443716,-71.603022,301.909651
7,-5.489388,0.968864,0.339603,-0.383779,13.624249,22.448559,23.045654,18.544407,12.26223,39.155216,53.572712,58.032246,1.351948,33.072338,48.526325,59.867535,-10.665092,15.445518,31.819725,41.366787,-21.704063,-22.203484,-25.602894,-29.340878,-21.122408,-29.023188,-29.636122,-29.897697,0.578231,18.627135,23.648555,26.393485,18.87426,38.545719,41.31825,41.188883,30.718607,47.417462,47.024421,47.302606,39.665562,53.39799,57.08628,59.037099,24.9856,49.149685,72.017269,90.417824,51.400909,80.467529,96.075439,107.350845,42.976456,75.766068,94.65374,107.618065,33.584061,64.831295,82.974358,95.534477,24.412251,49.677315,64.430981,76.506214,-14.249278,-15.906536,-11.42537,-12.232016,13.470544,29.854163,37.93581,44.161425,29.37288,44.590775,52.923191,58.813439,41.119723,56.29853,63.184071,67.340059,49.298812,63.114911,67.892602,70.115432,-26.593094,313.343157,-71.164799,301.456449
8,0.310993,-0.280717,-0.438309,-0.360622,12.948875,20.805817,20.771141,16.738014,11.815739,39.351425,52.9533,56.692886,0.880737,33.909302,47.949142,58.214607,-10.79401,15.756969,31.125469,39.882317,-21.593914,-22.131214,-25.295105,-28.726902,-21.417266,-28.008752,-27.372105,-26.315062,2.325335,20.08426,24.137619,26.023291,20.051285,39.673281,41.786936,41.330539,31.733104,48.324946,47.323231,47.428886,40.424228,53.80548,57.274742,59.352149,25.567131,49.788666,72.413921,90.79628,50.734291,80.310974,96.239204,107.766266,42.146244,75.584965,94.85218,108.003502,32.880306,64.588566,83.090973,95.750542,23.9641,49.212742,63.957596,75.797768,-13.738046,-15.433713,-11.07117,-11.581043,13.125112,29.808962,37.795204,43.862244,29.113281,44.651538,52.96481,58.606884,40.952811,56.422463,63.548584,67.62726,49.133012,63.167769,67.998319,69.994401,-25.97105,313.037878,-71.292057,301.071266
9,8.927479,0.181978,0.273972,-0.007595,10.96035,15.397396,11.95982,5.311604,2.503853,27.874432,42.161694,46.398182,-8.843708,22.308025,37.369022,49.032383,-19.518585,4.91375,21.295223,31.744022,-29.086189,-32.302723,-35.46627,-37.81414,-20.707074,-26.691863,-25.040657,-23.641145,2.991807,20.51114,24.884613,27.13696,20.380229,39.145377,41.92149,42.15855,31.88569,47.407829,47.178426,47.878491,40.568539,53.348898,57.216079,59.643364,25.708179,49.689503,72.205524,90.645447,50.66946,80.240021,96.16024,107.64679,42.050629,75.53896,94.733391,108.058777,32.786236,64.434013,82.911644,95.75798,23.862019,49.014416,63.758011,75.832558,-13.637455,-15.371962,-10.890673,-11.243639,13.340497,29.626983,37.371658,43.309578,29.271486,44.672471,52.748128,58.309062,41.002953,56.317919,63.29621,67.334378,49.090775,63.049394,67.938915,69.992178,-16.886644,313.206766,-70.861158,301.050579
10,1.130161,-0.071445,-0.216122,0.466524,10.683002,15.176353,11.484261,4.440365,1.152878,26.301956,40.29808,44.480896,-10.139351,20.623798,35.425415,46.922836,-20.749283,3.413429,19.526768,29.473915,-30.108891,-34.167595,-38.170967,-41.480656,-20.962968,-27.839062,-26.973136,-26.252632,3.46216,21.123396,25.609625,28.132006,20.818904,40.095222,42.661569,42.878128,31.95942,48.154639,47.646865,48.158035,40.384584,53.378785,56.964199,59.269589,25.318851,49.562302,72.390175,90.8325,51.358566,80.555019,96.389408,107.941418,42.854519,75.753937,94.833469,108.249493,33.455772,64.710674,83.089428,95.967579,24.275379,49.554005,64.245529,76.422443,-14.094285,-16.041831,-11.777718,-12.125743,13.191308,29.486995,37.351157,43.249618,28.896599,44.09387,52.269686,57.783627,40.536799,55.691523,62.782138,66.82821,48.718358,62.643323,67.60855,69.820512,-15.687361,313.10003,-71.008158,301.481813
11,-9.259529,0.086512,-0.658836,-0.196305,14.228554,21.962357,20.891361,15.19598,11.319752,40.404053,54.316521,57.650299,0.365696,35.186577,49.72538,59.560661,-11.525974,17.506313,33.580055,42.507133,-22.127495,-20.907955,-24.154987,-27.914314,-20.991126,-29.021088,-30.288701,-30.447399,0.94756,19.289779,23.340235,25.35052,18.911619,39.483028,41.716849,41.228898,30.650867,47.679716,46.981072,47.201459,39.490006,53.714213,57.103076,58.64486,25.474319,49.983788,72.864933,91.369801,50.971584,80.612011,96.686497,108.552418,42.598228,75.931034,95.28059,108.992901,33.340015,65.079918,83.903103,97.18832,24.251118,50.060978,64.972973,77.280235,-14.071005,-15.993418,-11.464211,-11.94679,11.57036,28.456998,36.716424,42.992057,27.64356,43.427583,52.18447,58.259599,39.841181,55.325961,62.829439,67.312148,48.536071,62.544461,67.681848,70.027067,-24.878397,313.15295,-71.598501,301.251917
12,15.223389,2.329287,0.492954,0.033839,10.438099,12.922554,7.710571,-0.166397,-3.387852,21.30455,36.727295,42.240143,-14.428482,15.279293,30.746384,42.916946,-24.267025,-0.578327,16.791,28.365326,-32.765579,-35.559311,-38.025398,-39.915333,-21.252763,-29.635134,-31.084849,-30.907501,-1.553764,16.703363,21.173969,23.640281,17.09449,35.51402,39.030768,40.167346,29.346513,43.939679,44.310058,45.421751,38.776665,50.628607,53.647523,55.316019,24.778805,48.764362,71.598244,90.053329,51.500587,80.414886,96.127167,107.790756,42.961006,75.536098,94.702377,108.112793,33.254414,64.483738,83.060188,96.221581,23.55669,49.275398,64.131432,76.290607,-14.284044,-16.276791,-11.87022,-12.352552,12.124199,29.397642,37.798477,44.007481,28.201907,44.051015,53.016434,59.061923,40.276768,55.439582,62.880877,67.271887,48.804253,62.511609,67.582553,70.162362,-9.671373,315.488845,-71.121912,301.292363
13,13.322868,-2.788155,-0.22253,0.920822,-12.871628,-21.200695,-24.524517,-35.139256,-25.920868,-10.070229,8.886223,23.472519,-28.169632,-8.01733,14.156799,30.197754,-26.513901,-9.695091,12.128563,27.183609,-22.020664,-17.856789,-5.278473,6.64341,3.380403,10.779646,19.309107,27.511908,13.56039,24.555237,34.888674,42.339479,17.288819,29.903996,41.566796,47.366889,18.881362,29.02504,36.622564,41.381483,21.219294,30.453265,32.892468,33.424819,25.032749,49.087543,71.922169,90.445118,51.925678,81.199093,97.140713,108.988094,43.621502,76.262398,95.331516,108.748684,34.216576,65.352802,83.697796,96.554203,24.757576,50.189552,64.860535,77.001457,-14.756372,-17.250286,-12.830995,-13.05873,11.464396,27.078544,35.271094,41.578899,27.688391,42.570425,51.27569,57.303086,39.718544,54.30887,61.520577,65.767585,48.311238,61.676126,66.462771,68.738953,3.636389,312.713349,-71.359549,302.225844
14,-12.203236,0.360684,0.3578,-0.005125,9.075909,12.246208,7.82896,0.864658,-4.722061,17.324467,32.294827,38.440876,-15.877361,11.343384,28.43256,43.340321,-25.693188,-3.528786,15.878277,29.698849,-33.951588,-40.039101,-43.878994,-46.937027,-22.410521,-28.981074,-27.476093,-26.543168,0.174321,19.211047,24.801312,27.730875,18.540129,36.489677,40.930211,41.997443,30.271472,45.216554,46.351897,46.839231,39.601836,50.589951,55.795079,58.969606,24.972668,48.762474,71.577644,90.438538,51.171856,81.108627,96.98513,108.61805,42.648869,76.059608,95.274696,108.35907,33.133507,65.065727,83.620605,96.279716,23.787689,49.728699,64.598522,76.642971,-14.770328,-17.270602,-12.83896,-13.043725,10.812374,27.288989,35.53304,41.792802,27.364325,42.897208,51.717884,57.790482,39.654756,54.484797,61.510079,65.651371,48.251216,61.708977,66.33748,68.492198,-8.598318,313.123449,-71.03322,302.270135
15,17.124424,-1.369377,0.002346,-0.295229,-19.382687,-33.633213,-42.312069,-56.393051,-34.300747,-21.8363,-3.867588,10.39032,-32.401028,-14.974365,6.222267,21.797905,-27.329979,-11.578903,9.503975,24.067612,-20.4245,-14.567814,-0.233116,12.110825,7.952527,18.796023,31.091271,40.957196,19.088534,29.38097,38.427343,44.896502,19.995524,31.504196,41.534871,45.498012,19.071121,28.066859,34.802285,38.575112,18.711425,27.450652,29.444758,29.680336,25.287266,48.979855,71.550865,90.242672,51.163673,80.659618,96.766605,108.663883,42.656136,75.575066,94.881191,108.18964,33.166122,64.652939,83.315105,95.945034,23.750668,49.496841,64.39436,76.325054,-14.472321,-17.015141,-12.903243,-13.048047,11.61377,27.607251,35.740891,41.945326,27.818622,42.993477,51.8299,58.089539,39.822408,54.475719,61.673162,66.10147,48.418992,61.984323,66.6169,68.754638,8.533401,311.755862,-71.023579,301.976697
16,-16.864071,-0.982202,0.400715,0.236319,7.804127,10.095634,5.803127,-1.195164,-6.745548,14.402962,29.388599,35.890102,-16.854973,10.442963,27.718906,42.143497,-25.793552,-3.840981,15.218525,28.175297,-33.118401,-39.484291,-43.217468,-46.264801,-19.937356,-25.406404,-23.825408,-22.926199,3.309513,23.892902,29.935488,33.250744,20.129955,39.216822,44.294065,45.996647,30.67532,46.760932,48.823642,50.040373,39.313462,51.021525,56.609567,60.521394,25.113831,48.660393,71.167717,89.90181,51.560783,80.206261,96.139984,108.113708,43.215981,75.216465,94.264412,107.780342,33.85952,64.430408,82.74868,95.651665,24.344101,49.404888,64.002457,76.049709,-14.693511,-17.144508,-13.106834,-13.49123,12.293334,27.814794,35.474932,41.159984,28.259397,42.941792,51.207949,56.93882,40.052923,54.326098,61.334955,65.674836,48.473147,61.792464,66.459313,68.75365,-8.337736,310.778091,-70.62993,302.217446
17,3.112564,2.585428,0.171261,-0.282817,-5.454254,-6.048088,-1.736469,-5.855312,-16.025276,2.688961,21.51392,35.859776,-20.448074,2.24287,25.555515,42.380161,-21.053181,-2.774906,19.63892,35.01955,-18.53159,-13.021374,1.060696,14.343166,-5.423415,-4.222184,-0.792381,3.842666,7.559053,18.987449,30.207375,38.019173,16.589804,28.821634,40.581136,46.76544,22.314314,32.541788,40.101767,45.083482,28.012766,37.586426,39.770291,40.689261,25.453491,49.142933,71.613235,90.059109,51.05999,80.021725,96.049061,108.137455,42.576199,74.676418,93.70966,107.368412,33.114567,63.882694,82.244968,95.174274,23.592453,48.781815,63.507557,75.526028,-14.040438,-16.737449,-13.103808,-13.312463,11.973961,27.359323,35.062687,40.867843,27.786883,42.761975,51.263525,57.256094,39.546322,54.104723,61.327483,65.806797,48.012366,61.594677,66.330811,68.451443,-5.239592,313.350366,-70.473089,301.921476
18,27.914371,-9.674869,0.736256,-0.253794,-5.174103,-16.091537,-30.791073,-44.119263,-41.762638,-34.785976,-14.44416,0.192604,-48.815403,-35.692863,-15.13298,3.224487,-50.945606,-40.977688,-18.485985,-0.365067,-51.150398,-57.368202,-54.217358,-48.11657,-1.742782,0.941447,7.901583,15.963593,15.632611,36.192534,44.067008,48.12895,23.609776,39.882245,48.957023,54.42107,27.261201,40.694386,48.124072,53.772629,30.32044,41.62058,48.839389,55.860596,24.658642,48.177567,70.703716,89.379845,50.668259,79.85836,95.822525,107.780113,41.989117,74.298363,93.423271,106.713524,32.284813,63.464756,81.881561,94.623756,22.584972,48.123379,62.984219,75.104885,-14.188577,-16.744365,-12.740592,-12.814322,11.433583,27.488937,35.565953,41.603476,27.70778,43.107839,51.911287,58.054897,39.83445,54.557724,61.716079,65.993406,48.431095,61.949125,66.476789,68.38006,22.65707,303.663425,-69.754543,301.65561
19,-22.542229,22.393972,0.292969,0.126156,6.938896,9.939423,10.948563,12.753525,-16.924553,5.936222,23.570137,34.815903,-25.016041,-2.094784,20.393257,39.851074,-27.364197,-10.957661,10.148506,26.977158,-25.347748,-32.210712,-35.605145,-39.448185,-18.717291,-27.121954,-30.596279,-35.122091,-12.937144,-1.200922,7.114944,13.708653,3.137662,15.259885,23.492697,28.371412,16.079313,27.403721,33.726408,38.549732,27.087374,33.868619,41.658619,50.374566,24.734573,48.13179,70.557747,88.984108,51.168308,80.12043,96.053352,108.055573,42.646351,74.470425,93.408737,106.824989,32.96711,63.429337,81.693077,94.605103,23.130398,48.196392,62.730274,74.796753,-14.519745,-17.232996,-13.057433,-12.705024,11.772037,27.156967,35.060464,41.038892,27.651279,42.399377,50.936371,56.994395,39.459563,53.676546,60.747153,65.001324,47.921592,61.356815,65.939807,67.84314,0.08194,326.041681,-69.494476,301.766051
20,30.209885,-16.946413,0.247478,-0.61596,-2.215233,-10.521927,-25.694218,-38.903618,-43.557701,-36.352158,-16.558456,-1.967583,-54.770451,-42.104073,-20.497055,-0.166512,-59.594479,-52.881088,-30.052872,-10.843735,-62.165623,-76.877003,-82.131672,-83.444824,-12.603197,-18.263364,-16.006263,-12.267831,3.265053,25.037137,33.330711,38.333297,19.005604,35.391137,42.810511,48.299011,29.40499,42.185226,47.336322,52.184038,37.897463,46.925003,52.646302,58.612256,24.76799,48.21579,70.592194,89.170589,50.743561,79.803028,95.997105,108.419552,42.127304,74.221516,93.498974,107.169971,32.36784,63.174992,81.692448,94.789982,22.507496,47.821884,62.569656,74.750404,-14.108364,-16.734053,-12.870391,-12.54015,11.208132,27.377477,35.495866,41.490719,27.116767,42.590309,51.38894,57.440171,39.138831,54.046122,61.273514,65.469886,47.784754,61.702679,66.406393,68.239825,30.274401,309.026695,-69.264421,301.081516
21,-44.79229,12.380525,1.170158,-2.00201,11.392765,19.341259,21.874695,20.223255,0.280724,27.508965,47.079506,57.762794,-11.821861,20.077744,40.738907,57.797012,-20.024757,4.703922,25.483932,41.208,-23.754444,-27.51194,-30.688877,-32.442627,-23.45083,-32.578159,-36.261139,-38.838169,-9.981769,8.034902,20.041714,28.61193,9.00463,26.268625,34.092217,37.450575,22.337903,35.088437,38.770367,40.551743,32.476579,41.50381,45.787066,47.823409,23.451118,47.004318,69.58271,88.237438,49.756794,79.681149,96.129742,108.293324,41.437798,74.70789,94.506969,108.181286,31.977825,63.674355,82.670918,95.844669,22.441463,48.020725,63.043613,75.506687,-15.316387,-17.828085,-13.223851,-12.824943,11.471004,27.225818,35.438438,41.852762,27.637694,42.690653,51.198316,57.293947,39.56812,54.48597,61.834948,66.465735,47.867499,61.913248,66.973632,69.277478,-14.53474,321.332348,-68.111115,299.004634
22,2.982616,-8.081462,1.860008,-7.519595,2.489777,7.798405,17.757854,20.687542,-6.721058,19.605618,40.853748,56.016254,-14.13826,16.379871,40.899067,58.320522,-17.748127,3.706512,26.528149,42.063732,-17.567654,-21.511803,-21.898041,-21.759109,-18.812757,-23.307446,-24.856764,-26.0215,-8.139631,8.300923,21.737071,33.68837,9.631953,24.230615,36.661281,44.768616,23.404579,36.066995,45.105094,52.710831,35.166489,46.31497,54.51419,63.131707,24.633636,48.231411,69.685478,88.009701,48.428249,77.365208,93.682766,106.002445,40.021477,71.06678,90.534267,104.724483,30.630569,59.493828,78.200169,91.412945,21.008148,45.322437,59.937515,72.231388,-17.236516,-18.427867,-12.305005,-10.897651,9.554826,26.857045,37.136574,45.617746,26.16507,45.305104,56.557079,65.265678,38.417154,56.120689,66.527547,73.624028,47.55214,63.617003,70.718424,74.542566,-11.685305,313.320463,-66.384287,291.554617
23,21.462536,-6.858557,1.129932,-15.143671,-21.581554,-37.558365,-48.768597,-58.675575,-40.037041,-42.143383,-43.858566,-43.369217,-31.12175,-23.93034,-11.118965,0.306015,-20.365334,-9.845181,2.538986,11.926689,-8.772526,-1.85154,6.131172,12.446594,17.071951,30.60264,39.799561,46.441929,22.018283,31.966212,41.985278,50.778846,13.614052,26.857848,37.192767,43.94678,5.740812,19.171156,28.549932,33.206531,-1.228216,12.638704,21.988457,29.068451,24.577274,48.837318,68.520355,85.171165,45.752048,70.970879,84.343529,94.763374,36.280804,63.074627,78.510704,90.650139,25.42717,48.273354,60.623188,68.872375,14.163666,26.087608,28.745556,27.715588,-15.863063,-15.906474,-10.233772,-8.35761,7.694781,26.5549,38.782964,49.455102,23.478371,47.617348,62.512783,74.827235,35.590282,61.589305,76.761937,88.034043,43.475131,65.299332,73.537639,76.517838,9.659014,306.462478,-65.372572,276.411517
24,63.106613,-56.243881,-19.838876,-39.189466,-36.833267,-61.887703,-76.628494,-84.077396,-67.316265,-91.319218,-100.129738,-102.677422,-57.673874,-83.887539,-95.4776,-100.813007,-46.339417,-69.625683,-80.826015,-88.104515,-33.78582,-48.797836,-57.553825,-64.562874,-0.20884,14.727103,28.978172,39.423748,35.456963,60.385728,68.410626,71.077318,45.959535,76.837643,85.135108,87.551093,53.369461,81.5986,91.475825,95.456936,57.386572,80.160124,92.185646,99.858999,29.342594,55.70981,76.301937,90.208568,56.2926,85.26432,86.202163,85.792007,46.716413,73.765268,76.263313,77.356252,35.39443,58.923883,60.902366,59.883298,23.534975,41.115846,39.455337,33.863897,-15.274273,-16.885249,-14.903987,-16.1247,-0.444264,19.88462,25.961972,29.058045,15.492715,41.17712,47.122727,49.317182,29.683824,55.201317,61.01271,62.634925,41.380556,63.745073,66.115425,63.989852,72.748289,250.212376,-85.228786,237.215829
25,31.290207,-44.097883,-19.838877,-39.189467,-35.679245,-58.890152,-71.668282,-78.223114,-71.119995,-99.754028,-111.415215,-117.820702,-60.266304,-90.337372,-104.596195,-113.033352,-45.875702,-73.041344,-86.705818,-94.415016,-29.960861,-49.896584,-60.560875,-68.759193,-3.046024,12.413315,32.319486,48.733857,24.194244,55.831697,73.931175,85.802691,36.440832,72.501653,92.708549,105.246291,47.516078,81.544445,100.143175,111.652587,56.381522,82.727336,96.611298,106.291663,34.107914,62.582302,84.083519,95.245972,66.833153,99.557762,88.060799,76.820641,57.152023,84.45591,74.015923,64.062366,45.361691,69.574413,61.181545,50.894222,32.906284,56.144085,50.165119,40.012207,-14.685483,-17.864024,-19.574201,-23.89179,-8.583307,13.214341,13.140982,8.660989,7.507059,34.736892,31.732672,23.80713,23.777367,48.81333,45.263484,37.235807,39.285983,62.190816,58.693211,51.461867,104.034519,206.404148,-105.07164,198.316018
26,1.65493,-17.294994,-10.911026,-35.169762,-33.827248,-55.287666,-66.694107,-73.889809,-70.451889,-94.629707,-93.257332,-88.454475,-60.135498,-84.968147,-81.891861,-74.244347,-45.694084,-67.172012,-64.543762,-58.694,-29.368286,-41.753998,-41.535187,-39.183197,-1.1677,12.148344,28.69906,42.457916,28.22988,51.768273,57.002485,55.867203,38.042515,64.617237,68.067726,64.235866,45.350367,69.129895,70.930599,67.703028,49.757679,68.117744,70.217505,68.486826,33.522148,54.002094,58.671284,52.321701,57.219601,63.081722,57.00119,53.558578,40.366287,43.013935,37.973785,35.633411,23.190136,24.113159,22.772026,22.68322,7.575073,8.234825,8.755817,10.802822,-10.82071,-26.882239,-41.995128,-51.049714,-36.260892,-59.699835,-56.359045,-48.065687,-37.301633,-59.273757,-53.577714,-44.630018,-37.205302,-55.520475,-49.29875,-39.5667,-35.604794,-51.663143,-46.47089,-38.049863,105.603533,190.741326,-116.068583,164.778427
27,57.032318,-65.1331,-30.9688,-52.99056,-31.880608,-61.33255,-80.148354,-92.124481,-67.036514,-98.890572,-99.57058,-93.792343,-57.355728,-87.655334,-88.214607,-83.457184,-45.843658,-74.24366,-74.145584,-68.379822,-33.023758,-54.091301,-53.367004,-47.763405,-13.113287,-8.885174,6.969398,22.058667,-12.829914,13.479621,26.779795,29.647546,-0.880005,29.691574,40.218105,40.445964,12.028425,40.490918,44.890944,40.950774,24.820702,45.89482,46.653424,41.820837,27.750092,47.134209,59.970131,61.126099,15.257778,8.288326,6.499214,7.36227,-2.646389,-11.701756,-12.872372,-12.151394,-16.56229,-24.573669,-25.412636,-24.503403,-27.686291,-35.022411,-33.823757,-30.25898,-12.418996,-33.945313,-51.560236,-67.528769,-73.470177,-101.33011,-107.937868,-106.556295,-70.10126,-98.8663,-104.319355,-102.880509,-61.383862,-86.073313,-89.993321,-89.080033,-49.14706,-66.161584,-69.24086,-67.629947,163.163881,128.250156,-146.509352,114.429797
28,22.281647,-37.707025,-30.060711,-38.273986,-36.942329,-62.371216,-78.244743,-78.912621,-64.84211,-76.966896,-69.4384,-62.705383,-50.700302,-61.96106,-55.041504,-48.079605,-34.861565,-42.69516,-37.230721,-32.451668,-18.690033,-24.939537,-21.945992,-19.428864,5.111174,0.322214,-11.869541,-22.822211,-29.383501,-49.898285,-37.91571,-28.483767,-41.807036,-59.767792,-46.156333,-36.469176,-49.875159,-64.180075,-50.410134,-41.357277,-54.152456,-66.280916,-54.16425,-44.955164,27.285175,44.296074,52.430248,53.608875,9.833107,3.947124,0.463257,-2.662754,-6.564789,-18.070278,-22.658386,-27.592678,-20.201454,-31.246376,-36.178837,-39.964714,-31.227779,-42.289181,-46.175652,-48.083897,-21.11401,-50.55179,-72.93971,-89.041964,-84.34356,-116.884669,-133.381847,-144.721199,-82.572126,-119.500848,-137.610299,-150.263823,-76.404804,-107.700653,-123.156288,-133.238123,-66.527887,-86.960018,-96.350866,-101.579706,184.811754,90.248474,-177.203836,75.861153
29,12.069855,-35.266463,-24.980793,-51.577248,-29.511795,-44.300079,-49.668045,-48.511505,-19.272537,-14.804993,-20.845184,-24.667168,-3.024902,1.548386,-6.639175,-10.078812,10.788918,15.162506,5.844727,1.323738,22.499084,25.585442,17.256775,11.660614,-19.301326,-43.0024,-62.303418,-74.622254,-74.219024,-103.200067,-97.569016,-86.834572,-73.291008,-105.269694,-97.190208,-85.508605,-66.551846,-95.244978,-88.750656,-77.377589,-55.401389,-78.52099,-76.855304,-68.918863,24.300957,37.91811,42.085991,45.599899,4.280491,-2.799053,-8.12645,-13.109722,-11.348763,-22.41806,-28.023663,-34.629536,-24.776058,-37.728252,-43.378315,-48.614616,-36.011467,-48.601341,-53.829975,-58.129292,-24.181863,-53.822832,-76.453803,-92.35018,-87.231905,-117.577539,-134.804793,-147.55193,-85.499188,-120.973071,-141.302356,-157.134699,-78.518088,-109.925953,-127.621645,-140.973504,-66.488645,-88.11969,-101.145755,-111.717487,194.063187,54.806424,-205.003052,24.108318
30,36.674652,-48.873599,-28.327389,-43.301241,-23.836555,-35.284538,-34.668961,-29.429512,-15.701866,-9.506035,-3.65387,2.406349,-0.125542,6.491089,12.275963,18.216934,13.700638,19.849319,24.704018,28.22319,26.599731,36.722946,42.616196,47.296829,-21.765322,-46.523224,-66.589792,-82.474221,-78.252283,-114.335087,-130.679618,-140.460359,-75.761086,-114.489586,-131.153769,-141.569643,-68.877089,-103.262806,-118.854105,-130.328011,-57.236704,-80.773059,-94.720624,-106.617242,22.880516,35.139027,38.751526,45.340118,2.85696,-4.744148,-10.462532,-16.538086,-12.194309,-22.384529,-27.455864,-33.515797,-25.669613,-37.0681,-41.732941,-46.805878,-37.445297,-50.162144,-56.075191,-61.337185,-24.816286,-54.062023,-77.969003,-94.129271,-87.208748,-120.10767,-137.995097,-151.817124,-86.022801,-122.495743,-142.113849,-157.407898,-79.923898,-112.115144,-130.221029,-144.759962,-68.148002,-90.615395,-104.194743,-116.276427,229.634256,7.458508,-234.434023,-17.667241
31,29.162865,-50.661674,-24.979649,-34.62114,-19.061394,-25.47123,-21.151428,-14.641113,-3.529243,1.923523,8.29113,14.659767,11.101913,16.817322,23.131485,28.943367,24.184456,32.103653,37.808304,41.887894,36.320457,48.716125,55.627785,60.597839,-23.955053,-49.461061,-70.470126,-83.948851,-81.392168,-113.780892,-131.176832,-143.489124,-78.462111,-114.788644,-133.239451,-147.39107,-71.15043,-102.699457,-120.139147,-133.999969,-58.851168,-80.557395,-94.736309,-106.704064,22.916222,32.670364,35.226803,43.096619,1.860924,-7.575645,-13.983879,-20.45042,-13.665333,-24.346218,-29.699593,-35.100975,-27.559261,-39.794426,-43.771935,-46.865101,-39.57201,-53.081417,-58.72221,-62.535896,-24.129961,-54.117783,-78.91414,-95.348703,-87.722604,-120.135071,-137.486073,-150.443548,-85.424038,-120.878284,-140.452516,-155.348414,-78.29239,-109.461652,-127.930799,-141.924106,-66.225804,-88.783291,-102.189707,-113.858837,258.052454,-41.923976,-260.158339,-51.00919
32,28.660927,-31.195351,-12.988129,-11.994307,-17.738571,-23.094406,-21.890945,-20.794029,2.912178,10.187988,16.017494,21.438332,17.955666,27.260056,33.21785,36.855583,31.223946,41.7342,46.680908,48.526039,42.463417,54.287338,60.328789,64.164162,-28.449742,-56.254085,-78.443879,-92.99575,-88.248517,-122.537548,-138.330942,-148.251037,-85.822035,-123.98964,-140.818341,-152.04523,-77.574001,-111.041953,-127.626539,-139.780703,-63.275693,-85.360682,-99.251128,-110.793608,18.366909,26.257095,29.160862,36.347752,-1.422787,-10.084534,-17.550201,-26.536331,-15.835075,-24.290371,-30.890179,-40.205269,-27.68589,-39.194756,-44.629383,-51.136379,-37.972927,-50.376892,-57.644978,-65.260849,-37.181158,-67.635381,-90.158674,-108.895678,-92.223515,-121.868915,-140.027087,-156.859848,-88.011751,-119.229579,-139.613575,-156.374381,-79.382208,-108.569358,-127.646114,-144.156537,-66.549839,-87.378809,-102.519825,-117.647626,286.762848,-69.985046,-273.097,-59.869217
33,26.939163,-27.972257,-23.261719,-30.964806,-16.632729,-20.10601,-19.122849,-18.914108,4.810524,15.15152,22.071762,27.652473,20.896797,31.002388,36.930199,39.901886,34.779282,44.992676,49.122391,50.371284,45.492439,56.795425,61.596107,64.043427,-29.606528,-57.487302,-80.227139,-96.576008,-87.873862,-123.732959,-138.791631,-145.821653,-83.974648,-123.901816,-139.18705,-147.063809,-74.973707,-110.040407,-125.472283,-134.268969,-61.432181,-84.632598,-96.447135,-104.937292,18.914738,28.593521,31.211586,38.376045,-1.353207,-11.332283,-18.543835,-24.965401,-16.32534,-27.334328,-33.197765,-38.599262,-29.011059,-40.53091,-44.946899,-48.543262,-39.772682,-51.859188,-57.098408,-60.570145,-26.248526,-56.615742,-81.651057,-98.67387,-86.517576,-119.101848,-135.445469,-147.143914,-82.943555,-118.065182,-136.048508,-148.749085,-74.847057,-106.230932,-123.111874,-135.651298,-62.092216,-83.691059,-97.069209,-108.966568,314.03924,-96.056718,-296.02149,-88.933437
34,15.499649,-5.499523,-9.836369,-8.604302,-12.321625,-15.783234,-11.67984,-11.32061,8.671761,17.180214,25.042419,32.789383,23.423882,32.300491,38.396301,44.750748,35.994415,45.827065,51.986504,57.030144,46.806221,56.713142,63.817749,70.344887,-37.287724,-66.342219,-91.249742,-111.656709,-92.460127,-122.601738,-139.809864,-153.767642,-88.505646,-122.063429,-141.272515,-157.749617,-80.366633,-111.098084,-129.084605,-144.836518,-67.59126,-89.268294,-102.759355,-116.010283,15.595264,24.413509,28.90955,38.705406,-6.780338,-14.776382,-21.803627,-29.113884,-21.218376,-29.702682,-34.785919,-40.646439,-32.442284,-41.972065,-45.490952,-49.066086,-42.603436,-53.355846,-58.416653,-63.066387,-32.365027,-61.858043,-85.574555,-102.537979,-87.717464,-117.098974,-133.634067,-147.504984,-84.329095,-114.726615,-133.291985,-147.773769,-76.551214,-104.157523,-121.490508,-135.826391,-64.234755,-83.347279,-95.863115,-107.874049,329.865303,-100.468908,-305.531445,-96.450408
35,11.898079,-10.449991,-7.729912,-9.439847,-12.505188,-11.842232,-5.953789,-8.193855,11.998787,19.026031,25.814095,33.986778,24.916077,32.465286,38.620148,44.903984,36.040306,45.65815,51.141129,55.964928,45.519791,56.099396,62.455444,67.990723,-41.865529,-72.836664,-99.581076,-122.107488,-93.480861,-122.682878,-141.186551,-156.275558,-88.281971,-121.863604,-142.376011,-158.447976,-79.864077,-111.423802,-130.181755,-145.488062,-67.662798,-89.518847,-103.321515,-116.206294,14.318218,22.796459,26.425781,35.937939,-7.523918,-14.873428,-21.737995,-29.090195,-21.863995,-29.65662,-34.451408,-40.273075,-33.19725,-42.458725,-45.903339,-49.773788,-43.562965,-53.754444,-58.537846,-63.735294,-32.164246,-61.624225,-85.186978,-102.768802,-87.64344,-116.402475,-133.254394,-147.196479,-83.999394,-114.587121,-133.374175,-147.963404,-76.125939,-104.578491,-121.984496,-136.700438,-63.550637,-83.728047,-97.027434,-109.977839,342.050714,-110.649344,-312.974024,-105.620699
36,8.749809,-27.45343,-3.973961,-10.602546,-13.279724,-13.129349,-7.291489,-10.638657,9.197502,17.791328,23.0373,28.063889,23.134346,32.815704,38.281517,43.50174,33.810539,44.415207,49.060822,51.816673,43.015709,53.193283,59.012947,63.084412,-30.5462,-62.325123,-89.277356,-108.891418,-83.046215,-114.873558,-132.695152,-147.521549,-78.367942,-113.922648,-133.46978,-149.604367,-69.040202,-101.192175,-120.072781,-135.867579,-54.691429,-76.407567,-91.202101,-105.109344,13.359776,21.770782,26.555843,38.435383,-8.085079,-15.067234,-22.166576,-29.523468,-21.912289,-30.120678,-35.950356,-42.581749,-32.928085,-42.285004,-46.647205,-51.345921,-42.989216,-52.632236,-57.452259,-63.286114,-29.583943,-59.841985,-85.152012,-102.902785,-87.812389,-115.964927,-132.950505,-146.526719,-84.249051,-114.80757,-132.88136,-147.186206,-76.265973,-104.468081,-121.513109,-136.277941,-63.439579,-84.336274,-97.327588,-109.839888,350.775347,-137.702354,-316.973162,-115.822824
37,-3.521461,-11.164583,1.526585,-11.977295,-13.179474,-14.728203,-9.150352,-12.170677,11.116447,18.38253,24.119682,30.286217,24.362297,32.162704,37.296524,42.6614,34.993629,43.353653,47.021599,49.796219,44.559402,52.994614,57.43,60.912437,-29.339597,-60.093633,-86.359248,-109.142147,-84.234277,-113.000475,-129.780347,-144.999546,-79.35601,-110.893042,-129.735393,-145.668458,-70.222522,-99.646594,-117.637669,-132.944924,-56.754618,-77.38611,-91.074556,-104.51001,14.635448,23.107224,29.037781,42.078037,-5.536995,-12.225266,-18.074684,-22.709084,-19.390182,-27.630272,-32.383461,-37.01952,-30.895844,-40.018101,-43.425522,-46.240311,-41.185055,-51.043053,-55.575886,-60.421944,-28.609414,-58.985908,-84.686213,-101.483221,-86.92604,-115.771818,-133.188514,-147.892692,-83.544911,-114.265818,-133.317681,-149.323519,-75.881129,-104.397516,-121.826415,-137.427803,-62.996489,-84.583816,-97.684953,-111.45406,346.803818,-148.991039,-315.896645,-127.924222
38,-9.044609,-11.586955,7.780094,-14.19412,-13.302155,-15.829697,-11.89064,-15.269623,8.978119,14.867134,19.175377,22.890015,22.113419,29.168816,32.870407,36.377678,32.891808,41.493988,44.502411,46.3694,43.12912,51.153488,54.458771,57.320709,-29.143215,-58.928048,-84.032477,-104.06729,-84.241456,-112.978561,-130.487991,-145.819021,-80.456094,-111.540109,-130.901271,-147.915841,-72.310674,-101.301396,-119.527895,-135.235756,-59.107988,-78.726202,-92.444643,-106.151922,17.717743,27.914944,34.730415,45.593777,-1.723824,-8.972912,-14.538517,-18.848133,-16.156139,-24.556618,-29.053745,-31.887646,-28.408756,-37.198105,-40.416183,-42.336388,-39.067554,-47.903481,-52.731342,-56.988201,-28.418481,-57.285224,-81.994281,-98.627233,-85.512079,-114.368687,-132.230302,-146.459658,-82.375436,-112.870298,-132.226111,-147.766783,-75.87869,-103.21129,-121.047596,-135.875985,-64.579399,-85.786729,-99.077996,-112.388336,337.50658,-160.727353,-308.369179,-142.2677
39,-12.622948,-8.303763,12.999401,-14.460542,-16.507416,-20.408478,-16.292038,-17.99366,3.461494,7.90947,12.221603,16.337128,16.677475,21.547508,24.537277,26.998558,27.661743,34.668732,36.359596,36.92791,39.013023,44.874802,46.678505,48.159599,-28.355835,-57.836779,-82.492676,-102.856604,-83.850151,-113.125998,-130.76904,-146.554206,-80.985387,-112.974725,-132.500013,-149.774984,-74.018845,-103.35361,-121.451266,-136.380516,-62.313637,-83.635152,-98.241664,-111.850327,19.7826,31.583462,39.473476,51.522331,3.930931,-1.2533,-5.944405,-9.11499,-11.728592,-17.688332,-21.302319,-22.585087,-25.036125,-31.546497,-34.514122,-35.264225,-36.731701,-44.65971,-49.285412,-52.260361,-27.699506,-54.077151,-77.402906,-93.343073,-84.280096,-112.747407,-130.99216,-145.336132,-81.596114,-111.836989,-131.570677,-147.123614,-75.649874,-102.47186,-120.973827,-135.729273,-64.972842,-85.930824,-99.296677,-111.811147,324.859543,-169.515579,-295.393867,-157.212705
40,-17.7285,-6.126181,18.167038,-13.178943,-17.618866,-22.625885,-20.675354,-24.8703,-1.070251,1.059265,3.775749,5.958939,12.164841,15.219269,16.637077,17.063713,23.223267,28.714828,29.712753,29.140663,34.801941,40.742226,42.386055,42.57431,-27.842226,-57.00639,-80.691957,-100.024576,-85.079023,-112.790408,-131.086144,-147.287052,-83.714501,-113.331419,-133.39879,-151.06424,-77.745436,-104.613766,-122.980561,-137.644486,-67.0136,-87.532452,-103.017456,-117.354281,22.140255,35.844326,45.269852,57.79335,8.694534,5.148754,2.079391,-0.30201,-6.793728,-11.160393,-13.331451,-13.848038,-20.696068,-25.09346,-27.297764,-27.384453,-33.317871,-40.91486,-45.1474,-47.29414,-25.728047,-50.062726,-71.152499,-84.900348,-82.376238,-110.586922,-129.279914,-144.677726,-81.194799,-111.330374,-131.314636,-146.545885,-76.456859,-102.792607,-121.069178,-135.40361,-66.744137,-87.228138,-100.185389,-112.525661,307.25132,-176.32915,-277.106552,-171.079038
41,-21.612968,-4.150384,18.159142,-9.189125,-13.993607,-17.725067,-17.10125,-21.753731,-1.133308,0.539932,-0.214806,-1.546783,9.469986,10.138664,7.8162,4.764633,18.21167,22.126236,19.575577,16.214218,27.689438,32.829552,31.764565,29.657936,-28.614878,-57.87369,-79.609557,-96.395481,-83.740398,-111.864715,-130.609956,-146.971646,-83.188866,-112.741973,-133.477151,-152.164122,-77.984371,-104.970529,-124.278401,-139.999832,-67.800656,-88.561847,-104.740794,-119.955185,24.961166,39.973412,50.219078,64.176979,16.400127,15.552464,15.318832,15.43499,1.211357,-0.587082,-1.131248,-0.598984,-12.694073,-15.421314,-16.004677,-15.358658,-25.35181,-31.450367,-34.347954,-35.464611,-21.516437,-43.848273,-65.140417,-81.258,-80.183551,-108.481348,-127.472796,-143.801967,-80.921893,-111.02369,-131.211691,-147.445179,-77.638762,-103.870106,-122.485941,-137.767871,-68.825203,-89.159621,-102.575717,-115.24528,285.999727,-180.869566,-258.586035,-180.658194
42,-21.440506,-0.803218,24.69183,-6.386938,-17.032814,-22.928123,-24.614754,-32.744408,-6.592941,-7.676697,-11.201019,-14.923096,3.906555,2.125854,-2.252998,-7.360497,12.355614,14.425964,11.044579,6.421165,21.686211,26.443634,25.475693,22.454109,-27.568255,-54.457889,-74.962507,-92.482596,-84.010772,-111.652803,-131.779694,-149.431752,-84.193869,-113.468404,-134.211927,-151.784736,-80.226791,-107.669392,-127.527167,-143.191842,-71.905059,-93.382261,-110.082259,-124.851537,25.62212,40.543385,50.650692,66.700058,19.862194,21.346092,22.867413,24.101658,5.639706,6.377621,7.522602,8.73436,-7.803955,-8.496437,-7.420349,-5.517998,-20.824757,-25.4702,-26.991634,-26.582966,-21.185053,-42.887606,-62.485458,-75.861616,-77.97243,-106.305557,-124.872964,-140.772985,-80.267176,-110.536433,-130.378677,-146.201757,-78.181178,-105.182587,-123.904787,-139.342661,-70.246991,-92.003236,-105.576625,-118.303662,264.637442,-181.451347,-233.815985,-186.823695
43,-37.816772,-3.257674,21.825542,-4.672762,-24.432449,-38.811378,-46.254387,-56.346016,-23.447571,-27.36042,-28.495445,-27.956886,-8.485451,-11.348648,-13.270226,-14.561577,5.337868,4.742889,2.920876,0.246735,19.459877,20.212097,19.133835,17.500763,-19.877303,-50.008417,-74.998029,-89.479712,-83.573424,-117.038597,-135.907852,-152.190706,-85.435647,-122.345474,-142.713083,-158.648286,-82.033801,-116.8265,-134.803971,-148.186095,-73.297453,-99.292409,-114.71865,-126.955435,26.181679,42.092972,53.023682,69.55965,28.250141,32.415161,35.032196,36.661263,14.193821,18.135281,20.660591,22.373199,0.479565,2.964535,5.839291,8.731556,-13.744869,-15.522995,-15.200729,-13.79076,-17.994965,-38.088905,-57.793044,-71.500987,-74.304595,-103.316884,-122.292276,-138.663313,-78.452486,-108.895925,-129.102489,-145.148434,-78.383572,-105.348611,-124.214234,-140.034782,-72.583379,-94.162617,-107.687315,-120.774096,226.189156,-184.446366,-212.621956,-191.233801
44,-18.248634,8.377123,23.640404,-3.420216,-26.925545,-41.607285,-48.921204,-59.981003,-28.907547,-35.774231,-40.050659,-43.678207,-16.098747,-23.551369,-29.478607,-34.192543,-3.789597,-6.575775,-11.539192,-15.223732,9.900398,10.849342,7.934074,5.286713,-21.743308,-49.73301,-70.428599,-84.572531,-83.968372,-113.003609,-131.671685,-147.649318,-87.794675,-119.751509,-138.669836,-156.12802,-86.238186,-116.919457,-134.733548,-149.662652,-79.265646,-103.085235,-118.380171,-132.718385,24.657497,40.813808,52.157993,68.664665,33.290691,40.285549,44.548931,47.720776,20.638676,28.379574,33.05254,36.666412,7.666683,13.550091,18.28949,22.912788,-6.571598,-6.289787,-5.358009,-3.407249,-14.264036,-31.336281,-48.890997,-59.142569,-71.381276,-98.850623,-116.721624,-132.222637,-76.948493,-105.955046,-125.291049,-141.129671,-78.036859,-103.906924,-121.800029,-137.570146,-73.773634,-94.676534,-107.436655,-120.320338,207.720823,-174.986172,-189.20125,-193.570946
45,-19.664383,8.707812,22.061577,0.970485,-27.215652,-43.317947,-51.127968,-60.957069,-35.903435,-44.727058,-51.513634,-57.603493,-24.169006,-33.45108,-41.271172,-48.070908,-12.837868,-17.399712,-23.463936,-28.946686,0.47287,1.340446,-2.54837,-6.976891,-19.71916,-44.831386,-64.321992,-80.058591,-81.86371,-109.778447,-128.48348,-145.051093,-86.833136,-116.693536,-135.445036,-152.389048,-86.247047,-115.268166,-133.038607,-146.920316,-79.911471,-103.468959,-119.151426,-132.990396,23.750782,39.664936,51.069031,68.234539,37.859688,48.427162,53.721371,57.046509,26.180763,37.857742,43.384781,47.653713,14.009972,22.98214,28.684788,33.722763,0.059166,3.01157,4.825974,7.136421,-10.939379,-26.103705,-41.810031,-49.955744,-65.812732,-93.843768,-111.830915,-127.313731,-72.427352,-101.87735,-121.32633,-137.237489,-74.941666,-101.258218,-119.09223,-134.539737,-72.8449,-93.748117,-106.816032,-120.148618,187.530441,-166.353094,-167.665672,-192.675195
46,-21.794243,10.463021,21.293278,3.505525,-28.370361,-46.845474,-59.364967,-78.471107,-40.341797,-49.823799,-58.865662,-66.760597,-30.092583,-41.697578,-52.658157,-62.139587,-19.536667,-27.67067,-38.603096,-47.763748,-6.496124,-9.993439,-17.148514,-24.800835,-19.37007,-46.595472,-66.159407,-77.83641,-81.105477,-107.827188,-125.939518,-142.558885,-84.750526,-112.29828,-130.935921,-147.212442,-83.827635,-111.403741,-129.423538,-142.944732,-78.700669,-102.516081,-118.152605,-131.721131,22.764015,38.439388,51.107998,70.441303,43.329277,54.835968,60.823517,64.867401,32.618179,45.275345,51.614914,56.832047,21.023026,30.380344,37.589264,44.061871,7.335262,11.466293,14.167728,17.278633,-7.128174,-20.04636,-35.280295,-40.706396,-61.977345,-88.166621,-104.972829,-119.637386,-70.181095,-96.932123,-115.481113,-130.543096,-73.827542,-97.947477,-114.22585,-128.051378,-72.850527,-92.130843,-104.789307,-117.692241,164.020042,-155.477117,-148.088551,-188.756714
47,-19.956551,10.983021,17.581673,6.56924,-28.206711,-45.899391,-55.151711,-65.159683,-48.619766,-62.725868,-73.000488,-81.528854,-37.889557,-53.737679,-65.189896,-74.746513,-26.687279,-37.683678,-47.543793,-56.132927,-12.721367,-17.254372,-24.601707,-32.207222,-16.860255,-37.722107,-55.115979,-69.44933,-73.668025,-99.783139,-117.008324,-132.798892,-79.817641,-106.246586,-124.404943,-140.224209,-81.167042,-108.195104,-126.285991,-140.510021,-77.910634,-100.990529,-116.585766,-130.575198,23.536148,38.259029,47.3382,58.739204,45.566368,62.65749,71.603565,77.032928,37.501945,57.244148,65.51302,70.992222,27.688808,42.883072,51.484966,57.871113,15.297718,23.509426,28.453102,32.86171,-10.84047,-25.101928,-39.947144,-48.135465,-57.219614,-82.546932,-98.761224,-112.217071,-64.242195,-90.2046,-108.637284,-123.27931,-67.651644,-92.57743,-107.600479,-120.194892,-68.076518,-87.987792,-99.680363,-110.735902,145.140123,-144.51787,-129.430246,-182.211248
48,-30.758286,8.562636,28.922482,24.839597,-31.418037,-62.236404,-81.310272,-93.61496,-59.43203,-78.611069,-88.585854,-95.203171,-44.411201,-63.845787,-75.414162,-82.853394,-28.926086,-46.091652,-56.459541,-63.025017,-11.67057,-22.789993,-32.144966,-38.486366,-4.04351,-21.597268,-39.071307,-51.625073,-65.845051,-101.689652,-117.354558,-127.515404,-75.211106,-113.637986,-129.381192,-136.610992,-77.360052,-113.140077,-124.58381,-127.189547,-73.971899,-101.941007,-112.81825,-117.042356,37.213726,70.593166,94.291821,107.768326,63.12315,82.358608,90.847664,94.109459,46.360931,63.23782,72.351093,75.714855,29.974823,45.905743,55.498581,59.66423,13.473816,22.248344,28.662186,32.903309,-4.714474,-16.885959,-27.302867,-35.125811,-69.306841,-105.171032,-118.285307,-123.872778,-76.992915,-115.910911,-125.701107,-125.752537,-78.027496,-113.750573,-121.191251,-122.110845,-74.309844,-99.624441,-112.882378,-122.991337,112.785788,-135.349987,-102.103815,-156.766404
49,-10.668297,20.011147,15.192833,11.171174,-36.041908,-65.946121,-86.399574,-108.216305,-60.205994,-81.422424,-95.931473,-107.980785,-45.941277,-67.760582,-83.509941,-95.471649,-31.328087,-49.15638,-65.547523,-77.847977,-15.867805,-29.002075,-41.082115,-50.318527,-2.843792,-24.336764,-43.317204,-53.827093,-66.26534,-100.95456,-120.113212,-135.835808,-75.325468,-110.776766,-131.164837,-147.036739,-78.668373,-113.221742,-130.829286,-142.9556,-77.698274,-106.384382,-119.071251,-127.68108,36.884365,64.909515,87.069397,105.281067,57.679424,79.429607,89.757843,94.029121,40.961437,62.892551,75.050354,80.215702,25.635967,44.244862,57.011948,63.186665,11.711941,26.003208,37.844639,44.143867,-0.80558,-11.991745,-22.56377,-26.388128,-61.419183,-102.023243,-106.382475,-100.646348,-71.597318,-113.071149,-117.060627,-112.716693,-75.922919,-113.957553,-116.419248,-111.99064,-74.828871,-104.568256,-109.489331,-107.733196,102.14839,-112.584324,-86.880083,-142.840713
50,-11.489639,19.330472,12.91337,19.152186,-33.719444,-60.527229,-75.307045,-88.974152,-63.321075,-83.096695,-94.659119,-104.533768,-50.665283,-72.556572,-84.67907,-93.884239,-37.673035,-55.775986,-68.942184,-80.374489,-22.927437,-37.288742,-48.559799,-57.876778,-1.457526,-20.139279,-39.434461,-56.451841,-63.371299,-96.495979,-116.281398,-133.702903,-71.854045,-106.436345,-128.42122,-147.68528,-76.136776,-110.114647,-131.450325,-148.810342,-77.413821,-104.555057,-121.419604,-136.611424,34.625111,60.850001,80.876685,96.18743,54.751912,74.751339,84.679976,89.714442,40.366974,61.069603,72.997332,79.310952,27.390404,45.421048,57.655363,64.745503,15.356503,29.268799,40.387955,47.295275,1.068666,-9.928689,-21.199768,-26.279938,-57.709485,-96.335575,-102.937655,-100.572963,-68.112294,-107.878659,-114.163235,-113.088957,-73.015259,-109.273937,-114.198699,-112.922121,-72.618695,-101.217439,-107.492297,-108.210356,90.589399,-91.734776,-74.036065,-122.169452
51,-10.05249,15.878748,12.913371,19.152186,-35.036316,-60.763206,-75.367928,-89.582291,-68.47435,-88.209,-98.040619,-105.195808,-53.430977,-72.148018,-81.129684,-87.340508,-37.364273,-50.54821,-58.414421,-66.132774,-19.265099,-25.535774,-32.102852,-39.326935,1.952949,-12.526627,-27.354074,-41.297132,-57.378869,-86.699014,-104.383622,-118.106601,-68.022123,-102.079174,-121.782187,-138.187789,-73.19264,-107.299214,-125.757894,-140.699225,-73.868328,-101.543489,-116.967461,-130.740844,32.365856,56.790485,74.683971,87.093791,51.824398,70.07307,79.602108,85.399761,39.77251,59.246654,70.944309,78.4062,29.14484,46.597232,58.298778,66.30434,19.001064,32.534389,42.93127,50.446682,2.942912,-7.865633,-19.835765,-26.171749,-53.999788,-90.647906,-99.492835,-100.499577,-64.627271,-102.68617,-111.265844,-113.46122,-70.107599,-104.590321,-111.97815,-113.853603,-70.408519,-97.866622,-105.495263,-108.687517,80.340528,-73.290468,-61.319074,-100.451706
52,-11.878853,18.037542,12.91337,19.152187,-34.969482,-60.745239,-76.679249,-95.317097,-65.475311,-85.829029,-98.088112,-105.152664,-50.335464,-69.841232,-80.089931,-83.672504,-33.957367,-46.641426,-54.056168,-57.637253,-15.924454,-19.873238,-24.411278,-28.345299,2.597809,-11.835022,-28.0789,-44.357729,-56.622565,-82.830737,-97.175697,-105.818671,-68.103649,-98.135175,-112.886546,-121.476198,-73.380099,-103.091788,-117.571333,-125.877319,-74.505052,-101.273346,-113.620048,-122.581021,30.106601,52.73097,68.491258,78.000154,48.896885,65.394802,74.52424,81.085081,39.178047,57.423706,68.891287,77.501449,30.899276,47.773418,58.942194,67.863178,22.645626,35.79998,45.474586,53.598089,4.817157,-5.802579,-18.471764,-26.06356,-50.290092,-84.960239,-96.048015,-100.426193,-61.142248,-97.493681,-108.368454,-113.833485,-67.19994,-99.906706,-109.757602,-114.785086,-68.198344,-94.515806,-103.49823,-109.164679,67.698441,-52.555158,-49.168939,-78.601752
53,-3.206749,13.201157,12.91337,19.152186,-35.670891,-63.559456,-81.33997,-100.713959,-70.98856,-94.302864,-108.636646,-121.044044,-55.193939,-78.811512,-92.935696,-103.169174,-37.001381,-51.031036,-60.86174,-68.082447,-16.992073,-17.632713,-21.312103,-25.34626,9.412245,-2.254477,-17.657993,-30.124877,-46.862048,-69.591047,-83.906383,-94.430366,-59.14578,-85.251384,-99.776254,-110.419925,-65.767956,-91.935387,-107.41779,-118.697614,-68.697951,-90.959515,-103.886037,-114.501921,27.847347,48.671455,62.298546,68.906517,45.969372,60.716533,69.446373,76.770401,38.583584,55.600757,66.838264,76.596699,32.653713,48.949604,59.585609,69.422016,26.290188,39.065571,48.017902,56.749496,6.691403,-3.739523,-17.107761,-25.955371,-46.580394,-79.27257,-92.603195,-100.352807,-57.657224,-92.301192,-105.471062,-114.205748,-64.29228,-95.22309,-107.537054,-115.716567,-65.988168,-91.164989,-101.501195,-109.64184,64.289274,-43.929475,-36.457987,-64.02504
54,-2.054329,9.571406,12.91337,19.152186,-33.073082,-62.035561,-81.506252,-100.312672,-73.186626,-97.78204,-112.202682,-125.755005,-59.951706,-86.875877,-102.178173,-116.821175,-43.951263,-63.64357,-75.974121,-87.65831,-24.827271,-30.822945,-36.526451,-43.921738,11.896495,2.812361,-11.195257,-21.32041,-38.470044,-59.052135,-72.675912,-83.1695,-51.342905,-74.319739,-89.270116,-100.983706,-59.427608,-83.316095,-98.587898,-110.146649,-63.682459,-85.135802,-99.588795,-111.963825,25.588093,44.61194,56.105833,59.812879,43.041859,56.038265,64.368505,72.455721,37.98912,53.777809,64.785242,75.691948,34.40815,50.12579,60.229025,70.980854,29.93475,42.331161,50.561218,59.900904,8.565649,-1.676467,-15.743759,-25.847181,-42.870697,-73.584902,-89.158375,-100.279422,-54.172201,-87.108702,-102.573671,-114.578012,-61.384621,-90.539474,-105.316505,-116.648049,-63.777992,-87.814173,-99.504161,-110.119,61.906471,-36.500267,-23.873091,-47.015053
55,-4.355965,7.346169,12.91337,19.152186,-29.49852,-59.089737,-79.788036,-98.999233,-73.049927,-97.804241,-112.040806,-124.519844,-62.351875,-89.031143,-105.470753,-119.549847,-49.362259,-73.830814,-90.28204,-103.763866,-33.465843,-51.772385,-64.817505,-76.945896,11.081883,3.472349,-9.610988,-18.840329,-36.674342,-55.367704,-68.414547,-79.586679,-49.796983,-71.020754,-85.449819,-97.013047,-58.019977,-78.899891,-91.860777,-101.149645,-63.111854,-80.474989,-91.266955,-100.144811,23.328838,40.552425,49.91312,50.719242,40.114346,51.359997,59.290638,68.141041,37.394657,51.954861,62.73222,74.787197,36.162586,51.301975,60.87244,72.539692,33.579311,45.596752,53.104534,63.052311,10.439895,0.386588,-14.379757,-25.738992,-39.161,-67.897233,-85.713555,-100.206037,-50.687177,-81.916213,-99.67628,-114.950275,-58.476961,-85.855859,-103.095956,-117.579531,-61.567816,-84.463356,-97.507127,-110.596161,57.490053,-30.141333,-11.020174,-28.850101
56,-2.125397,1.863164,16.390057,7.376766,-28.526802,-58.365669,-79.30275,-100.087852,-73.68988,-97.093163,-111.300774,-123.242111,-64.127083,-90.197468,-106.69241,-120.128975,-51.745491,-76.767597,-92.116756,-104.757099,-35.842896,-57.062645,-70.37035,-82.752857,12.329859,6.255749,-6.446342,-10.798171,-32.742415,-53.421455,-66.484229,-77.117527,-46.294747,-68.717526,-82.877791,-95.208823,-55.035549,-75.773313,-88.770663,-99.281016,-60.841261,-77.632247,-87.440312,-95.814131,29.440613,48.62709,56.611748,62.872696,36.214714,50.039749,60.118904,70.47226,18.123093,29.123383,40.493088,50.983429,1.43074,5.838776,13.18428,21.101761,-12.816238,-20.756149,-22.947178,-22.237988,-1.141055,-14.08459,-30.364067,-38.357442,-52.209603,-76.945521,-89.59324,-101.257121,-58.421293,-87.254845,-103.75738,-118.315364,-56.013737,-83.942553,-101.482788,-117.273573,-47.382882,-69.979148,-84.700385,-97.432162,55.25877,-29.224787,5.263996,-22.419954
57,0.414276,0.02788,-10.443678,-3.73184,-27.492943,-57.668266,-79.271049,-100.713158,-73.303699,-97.550869,-112.567005,-124.848518,-63.569584,-90.212173,-107.072582,-121.003189,-51.745377,-76.641254,-92.211285,-105.566025,-36.855354,-57.08416,-69.777031,-82.406445,11.384553,5.427923,-6.934787,-11.356549,-33.001365,-53.569625,-66.367583,-77.3674,-46.91293,-68.865264,-82.678892,-94.521927,-55.936364,-76.270496,-89.351272,-99.799132,-61.824111,-78.833941,-88.97268,-97.459425,31.471052,53.935289,65.729742,72.204351,45.51507,60.553293,70.539408,80.264082,31.443643,45.963964,57.849455,68.977918,18.13056,28.978529,38.686723,48.946409,5.399923,6.933145,9.905433,15.533523,4.750614,-6.069494,-21.182274,-29.167652,-46.283184,-71.819912,-85.342064,-96.713781,-55.600349,-83.809372,-100.30554,-114.152259,-58.066552,-84.423743,-101.123586,-115.448925,-55.395893,-78.074457,-92.034342,-104.277658,55.753698,-29.373235,-5.099029,-26.328122
58,0.884743,-1.877768,-10.443678,-3.73184,-27.326889,-58.001518,-80.097141,-101.76321,-73.439083,-98.087769,-113.275623,-125.962715,-64.05241,-91.07048,-108.043671,-122.314854,-52.65358,-78.446388,-94.131088,-107.559357,-38.168449,-59.684486,-72.923527,-85.888824,11.646498,6.199155,-5.543489,-9.251601,-32.10725,-52.593474,-65.183704,-76.25123,-46.471137,-67.894979,-81.47865,-93.272376,-56.083577,-76.000369,-88.800952,-99.19546,-62.676421,-79.5257,-89.484884,-97.809828,33.501492,59.243488,74.847736,81.536007,54.815426,71.066837,80.959911,90.055904,44.764194,62.804546,75.205822,86.972408,34.830379,52.118282,64.189167,76.791058,23.616085,34.62244,42.758045,53.305035,10.642282,1.945601,-12.000482,-19.977864,-40.356766,-66.694304,-81.090888,-92.17044,-52.779405,-80.3639,-96.8537,-109.989155,-60.119367,-84.904933,-100.764384,-113.624278,-63.408905,-86.169767,-99.3683,-111.123155,56.654148,-31.266626,-15.527,-30.075584
59,-0.139961,-0.382575,19.271793,4.695285,-28.044777,-58.255119,-80.051136,-101.606426,-73.265247,-97.639503,-112.99324,-125.789165,-63.880749,-90.436649,-107.63134,-121.954708,-52.355461,-77.659893,-93.480721,-107.143021,-37.661247,-58.309135,-71.489811,-84.759235,11.115723,5.355397,-6.328367,-10.186749,-33.560454,-53.803381,-66.056639,-76.693394,-47.449171,-68.980953,-82.383139,-93.847458,-56.703829,-77.010143,-89.639939,-99.772271,-62.869484,-80.240616,-90.304049,-98.648444,28.995438,49.077759,58.859482,65.331116,39.299126,53.628273,63.277473,73.115044,24.291229,36.845398,48.297501,59.542007,10.39547,19.503365,27.708321,37.145462,-2.81765,-5.943375,-6.185188,-3.133507,3.983025,-6.82376,-22.967417,-31.427656,-46.797766,-72.269162,-86.148092,-98.975814,-57.529957,-86.347701,-103.51274,-117.418378,-59.704466,-88.103018,-105.315451,-120.19233,-55.341676,-81.276973,-97.482334,-110.749024,56.523371,-31.629287,3.753977,-25.360385
60,-0.184708,-1.835037,16.277847,-0.603549,-28.178902,-58.148804,-79.94545,-101.686249,-73.214607,-97.61301,-112.970409,-125.785103,-63.529358,-90.695744,-108.013229,-122.709846,-51.424141,-77.203331,-93.00848,-106.940746,-36.094322,-56.939049,-69.996586,-83.319168,11.232493,6.192146,-5.222448,-9.260061,-33.0608,-53.815237,-66.148029,-76.813406,-47.017566,-68.982744,-82.539676,-94.253714,-56.268241,-76.855921,-89.378565,-99.374629,-62.532728,-79.995096,-89.675739,-97.634379,22.558022,31.32843,33.271751,36.69445,13.174896,17.863655,23.895607,31.038322,0.05127,2.702751,8.493118,13.225708,-10.321198,-11.926689,-7.165833,-2.688904,-18.57296,-25.344429,-27.801533,-28.92849,-2.757866,-16.395661,-29.103803,-35.874272,-55.175321,-80.983535,-94.786172,-105.583016,-59.51128,-86.232413,-98.6377,-109.92884,-55.662223,-81.564606,-93.790478,-107.104006,-47.400419,-65.312639,-73.863867,-84.069759,56.351252,-33.493192,20.044413,-25.992802
61,-1.184464,-0.907978,-17.225304,-12.954156,-27.642975,-57.435722,-78.309975,-99.015884,-73.095188,-97.638588,-112.92841,-125.744534,-62.91481,-90.185623,-107.050953,-121.594162,-50.506783,-76.094513,-91.544094,-105.358887,-34.89315,-55.391121,-68.591194,-82.172642,11.08,5.253756,-6.716037,-10.590597,-33.586944,-54.29652,-66.749941,-77.340724,-47.493075,-69.250247,-82.825951,-94.569289,-56.600181,-77.224417,-90.397215,-100.744964,-62.612262,-80.420773,-90.570626,-98.77548,5.118942,5.347023,-6.660633,-22.38739,24.987373,33.845215,37.88166,43.397026,26.019974,38.61557,46.353722,54.14669,25.410805,37.251892,44.567184,54.439087,21.614456,30.075302,35.967979,44.10965,17.467617,13.989865,-0.324313,-12.401675,-21.909509,-45.797872,-63.62889,-79.355331,-38.3341,-67.00599,-85.147242,-101.879319,-50.010949,-74.725717,-90.496309,-104.418233,-57.778718,-79.447061,-92.375807,-104.644903,55.108795,-34.691227,2.761116,-39.237015
62,0.565681,-1.261129,11.577759,10.550706,-28.450356,-57.98481,-78.656502,-99.080429,-73.862057,-98.377876,-113.42411,-126.016903,-63.661766,-90.982304,-107.784748,-122.498589,-51.050262,-76.152134,-91.322765,-104.894657,-35.030479,-54.281044,-66.773529,-79.386005,11.553471,6.39055,-5.393374,-9.102566,-32.650654,-53.615783,-66.635333,-77.688193,-46.431833,-68.742133,-82.592041,-94.641599,-55.444151,-76.313537,-89.588841,-100.178064,-61.469756,-79.138155,-89.606378,-98.371648,14.956284,20.108185,21.14296,23.160439,18.233871,26.39946,34.922218,44.241371,10.837212,23.821449,36.336937,48.780441,3.264542,14.008141,26.004868,38.382568,-3.494682,-1.715126,1.669579,5.954132,2.430558,-9.802291,-24.075312,-31.320488,-48.996945,-74.570569,-88.092057,-99.740856,-57.636322,-85.019573,-98.180222,-109.618915,-59.675722,-84.98666,-96.266824,-107.456492,-55.827004,-76.036802,-86.157478,-95.543726,55.522957,-36.085536,14.187355,-28.819488
63,-0.14946,0.289609,-7.018776,-10.353043,-28.620415,-57.933998,-78.469734,-99.114704,-73.979015,-98.340397,-113.53014,-126.598663,-63.74548,-90.387096,-107.221127,-122.238865,-51.049461,-75.267906,-90.169258,-103.818741,-34.80835,-53.056526,-65.12043,-77.447319,10.655034,5.147453,-6.874179,-11.283313,-33.476257,-54.394549,-67.1369,-77.745776,-46.924416,-69.523585,-83.418477,-95.326303,-55.644593,-76.909737,-90.527848,-101.159154,-61.431162,-79.822473,-90.798732,-99.809321,1.452026,-2.210197,-15.304184,-30.398426,11.277351,10.137978,11.209946,14.643059,17.041054,22.193985,26.795197,32.601814,21.553116,27.883072,33.037148,41.969376,22.132072,29.648209,34.726639,42.781219,17.020853,10.44502,-6.532329,-21.390898,-24.903663,-49.848545,-69.485979,-86.940443,-41.210712,-69.659744,-89.350654,-106.934856,-52.464694,-76.591197,-92.631237,-106.338563,-60.243331,-81.227696,-94.32414,-106.679085,55.093431,-35.898062,6.888514,-39.274667
64,-0.181961,-0.84842,15.022888,16.115931,-28.24173,-57.678108,-78.43071,-99.455452,-73.872871,-98.162613,-113.22979,-126.120815,-63.530788,-90.303783,-106.904354,-121.610928,-50.818634,-75.068493,-90.167828,-103.747902,-34.645271,-53.761253,-66.488914,-79.376507,10.896756,5.390533,-6.617699,-10.930934,-33.622173,-54.556859,-67.419903,-78.00664,-47.114762,-69.396163,-83.266031,-95.001851,-55.817587,-76.497892,-89.803501,-100.140396,-61.51326,-78.774507,-89.104208,-97.699912,11.150208,8.86528,3.957024,4.623299,-0.960617,3.679962,10.926933,19.36203,-8.07827,-14.602089,-16.834373,-17.990341,-12.5877,-23.565445,-23.525391,-22.448273,-14.709663,-22.582169,-25.705605,-28.276405,-14.924395,-38.499221,-57.487843,-70.379631,-69.251296,-94.309181,-107.064161,-117.797155,-66.412167,-90.908123,-102.548214,-113.875617,-56.405512,-82.156855,-93.24658,-105.908193,-42.518493,-60.770587,-70.16795,-81.849461,54.753284,-37.247957,21.753216,-23.660211
65,-0.108604,-0.705992,-30.500393,-12.213521,-28.010788,-57.445221,-78.159599,-99.242649,-73.743324,-98.079586,-113.293076,-126.101761,-63.326626,-90.168056,-106.938114,-121.641483,-50.683136,-75.308933,-90.66124,-104.502468,-34.600639,-53.958778,-66.777763,-79.819965,11.095962,5.48989,-6.582316,-10.301729,-33.456991,-54.656278,-67.602375,-78.125849,-47.206554,-69.814584,-83.782125,-95.42285,-56.115286,-77.204873,-90.273915,-100.383878,-61.98812,-79.407572,-89.606563,-98.008664,15.747585,25.244694,23.162556,16.977367,35.149097,44.590931,50.28162,57.9146,33.465443,43.935413,50.788822,59.630756,31.725025,41.373081,47.447262,55.59145,27.694874,37.830334,43.077908,50.181026,9.330148,-4.634492,-27.469887,-45.553063,-38.933048,-63.918654,-79.980986,-94.814639,-51.902148,-81.338013,-98.444915,-113.48006,-59.351779,-85.431047,-100.738325,-114.280129,-62.989959,-86.131281,-98.864478,-110.489487,54.451847,-38.161616,-8.94001,-36.081399
66,0.877762,-1.081497,17.866573,3.539657,-28.859024,-58.374596,-79.09647,-99.714603,-74.166584,-99.14526,-114.375629,-127.288399,-63.396778,-90.687046,-107.195721,-121.856575,-50.12043,-74.171906,-88.648109,-101.923084,-33.301392,-50.059776,-60.972919,-71.830902,10.796442,6.533749,-4.926849,-8.945597,-33.220209,-54.369447,-67.614108,-78.415397,-46.689209,-69.570855,-84.106531,-96.287881,-55.128884,-76.588079,-90.392831,-100.832016,-60.334352,-78.380879,-89.141243,-97.436376,25.285263,39.067955,45.680008,53.756561,29.624634,42.700882,53.293877,63.828392,14.326515,26.372566,38.798332,49.550858,-0.379028,5.896568,14.694099,23.617973,-13.880081,-18.028221,-17.633114,-15.63343,-1.665903,-12.723796,-26.357175,-32.697986,-49.958461,-71.628348,-83.759988,-94.755081,-57.616531,-83.305412,-97.734847,-109.278469,-57.726848,-83.543738,-97.533108,-109.77451,-51.781456,-72.991117,-85.49712,-95.849576,55.125217,-39.177688,8.722172,-32.476317
67,-0.029869,-1.537091,22.182198,-1.723516,-29.015236,-58.59169,-79.495926,-100.392208,-74.270153,-98.737564,-113.61414,-126.34964,-63.929958,-90.984192,-107.199612,-121.64669,-51.094894,-75.58033,-90.181274,-103.214893,-34.662552,-52.547379,-64.22121,-75.737343,11.114179,7.274847,-4.131998,-9.005896,-32.825469,-53.342198,-66.27295,-76.931133,-46.443195,-68.576179,-82.54758,-94.49945,-55.180384,-75.710575,-88.816173,-98.986065,-60.897917,-78.168859,-88.247823,-96.289085,-18.354721,-32.388954,-42.375755,-47.840424,-23.032494,-23.855667,-20.450363,-14.090652,-11.517677,-5.30365,1.331406,11.059685,0.112724,7.446098,15.199814,23.968163,11.024094,18.002014,23.975716,30.338516,-5.206918,-20.106675,-32.147295,-40.732857,-60.658973,-84.227562,-95.673464,-104.01224,-59.581151,-84.948498,-96.291447,-104.895054,-52.833405,-77.291817,-88.513658,-99.370152,-42.080374,-61.967804,-71.980387,-81.988924,54.95779,-40.892682,30.766811,-34.377736
68,-0.159187,-0.375998,-9.294777,-13.907706,-28.831902,-58.507919,-79.669361,-100.90456,-74.15966,-98.702488,-113.736362,-126.702919,-63.625431,-90.736256,-107.289505,-122.07613,-50.681076,-75.097847,-89.904327,-103.466263,-34.27597,-51.876183,-63.643341,-75.607281,11.281739,7.332954,-4.109521,-9.347685,-32.501527,-53.416175,-66.493677,-77.173164,-46.107057,-68.701903,-82.936685,-94.90515,-54.79253,-75.96934,-89.340002,-99.344341,-60.506604,-78.710564,-89.276337,-97.470216,-16.411743,-33.075428,-52.413197,-69.536076,-20.535393,-45.677605,-61.802559,-70.631618,-4.112206,-20.08049,-24.183083,-24.154243,10.138779,-0.269966,-0.377998,4.872894,18.560371,20.648918,25.65834,33.700562,19.270605,13.166268,-5.671034,-25.338108,-16.433853,-36.024665,-53.603865,-72.135874,-34.588968,-57.799343,-82.026808,-105.991556,-46.658056,-69.679968,-88.381281,-104.860659,-55.224721,-74.237704,-88.907595,-103.891224,54.559851,-41.763733,21.233282,-48.780494
69,-0.655289,0.187876,-2.197952,1.199502,-28.770676,-58.626366,-79.589195,-100.835152,-73.626251,-98.351154,-113.443966,-126.391869,-63.157482,-89.916172,-106.497402,-121.277618,-49.891891,-73.460197,-87.832489,-100.798645,-32.907829,-47.737541,-57.604752,-67.383499,11.259941,7.161164,-4.170932,-8.512541,-33.14052,-53.755339,-66.846426,-77.650834,-46.645181,-69.435467,-83.79818,-96.123686,-54.991675,-76.739676,-90.446569,-101.089593,-60.208936,-79.719998,-91.228098,-100.174992,-13.097763,-28.887978,-48.038521,-64.992714,-13.581963,-34.926052,-49.234829,-57.589817,0.272026,-13.556213,-19.305038,-20.248489,11.795769,2.964363,1.093369,4.933548,17.939529,21.128654,25.595627,33.08979,18.734457,12.798514,-4.831013,-24.370325,-19.314386,-39.112834,-56.645011,-74.203602,-36.470318,-61.663869,-85.077001,-107.252315,-48.034781,-71.818107,-90.488097,-106.173442,-55.635392,-75.457182,-90.398064,-104.898312,53.902788,-41.96927,19.033556,-47.974405
70,-0.955467,-0.136901,0.987968,-0.762154,-28.295174,-58.351765,-79.888058,-101.246338,-73.679008,-97.475624,-112.378635,-125.245171,-63.766766,-90.516186,-107.028465,-121.596851,-51.116638,-75.861797,-91.196251,-105.067406,-34.938583,-54.185715,-67.13047,-80.200138,12.023886,6.988016,-4.83938,-9.687652,-32.611628,-53.825302,-67.126248,-77.946897,-46.519982,-69.122608,-83.10142,-95.057056,-55.542211,-76.586875,-89.517396,-99.848378,-61.624904,-79.164291,-89.191786,-97.482288,-13.926888,-30.345268,-50.431767,-67.948151,-16.971359,-40.422192,-56.229343,-65.436573,-2.478676,-18.456802,-23.979607,-24.822006,10.026855,0.089149,-1.048393,3.553619,17.250938,19.438019,24.59095,32.758484,19.453047,14.627468,-2.522412,-21.402538,-17.762506,-36.498291,-53.491418,-71.330247,-35.163185,-58.723716,-82.163307,-105.498016,-46.870631,-70.123459,-89.128414,-105.892787,-54.787713,-74.557339,-89.453962,-104.488659,53.056555,-42.254001,20.130758,-48.884389
71,0.1157,0.751688,0.381546,-2.145117,-28.705788,-58.338375,-79.086914,-100.458927,-74.119091,-98.407402,-113.367863,-126.35891,-63.846302,-90.289421,-106.639194,-121.465473,-50.562859,-74.194965,-88.57069,-101.578274,-33.398666,-48.485298,-58.49865,-68.185787,10.839328,6.902677,-4.257691,-8.65043,-33.649837,-54.271881,-67.399679,-78.270098,-47.124487,-69.935923,-84.175352,-96.480434,-55.411979,-76.957377,-90.59176,-101.193549,-60.366246,-79.502575,-90.812055,-99.563863,-15.427895,-32.310677,-52.532272,-68.873119,-18.632698,-43.603134,-60.863571,-71.608658,-2.912521,-19.69986,-25.68346,-26.566715,10.39238,0.866203,0.563393,5.697441,18.041153,19.466515,24.232979,32.093353,20.007535,16.461579,0.1725,-17.838089,-13.72017,-32.361724,-49.553965,-68.386729,-31.875841,-55.472711,-77.814859,-100.623562,-44.685902,-67.491008,-85.905197,-102.836018,-53.602198,-73.34186,-88.431051,-103.672597,53.239288,-41.14538,20.579338,-50.672573
72,-0.618095,-0.221437,0.080681,-0.056193,-28.490753,-57.963409,-78.914051,-100.416241,-74.145584,-97.804012,-112.461033,-125.505066,-64.196262,-90.742035,-107.056904,-121.792545,-51.194229,-75.819855,-90.857849,-104.515858,-34.465714,-52.830734,-65.495682,-78.365536,11.307488,7.278398,-3.89713,-8.770102,-33.003156,-54.012993,-67.075675,-77.829818,-46.733545,-69.234037,-83.116178,-95.066195,-55.545761,-76.650015,-89.640233,-99.829097,-61.385251,-78.952564,-88.710904,-96.684905,-15.159416,-32.541561,-54.432106,-72.118549,-18.86879,-48.40456,-68.396473,-80.835686,-3.652496,-23.990822,-30.626564,-31.760731,8.72303,-4.526939,-4.716682,2.142792,14.558372,14.834404,19.674911,27.935257,21.452525,18.27664,0.07407,-18.109759,-10.378453,-29.035538,-44.763954,-61.756464,-30.046392,-52.576987,-76.575945,-100.130223,-44.055801,-67.580824,-87.780495,-105.259351,-54.094287,-74.67343,-90.398311,-106.154176,52.725077,-40.453667,20.763903,-49.815617
73,-0.08812,0.569617,0.180244,2.116804,-28.716202,-58.726788,-79.92548,-100.841217,-73.653831,-98.47578,-113.784084,-126.582413,-63.276501,-90.824718,-107.622128,-122.325554,-50.444298,-75.471382,-91.105042,-104.985352,-34.24942,-53.577919,-66.4888,-79.292507,11.694139,6.409569,-5.65464,-11.086669,-33.28727,-54.235109,-67.268985,-77.914015,-46.699737,-69.7679,-84.038019,-96.142721,-55.141852,-76.648563,-90.202069,-100.691781,-60.5904,-78.299461,-88.476361,-96.508237,-14.151306,-30.594177,-52.706909,-72.076378,-17.547569,-44.108391,-60.501709,-68.910484,-2.806091,-22.714348,-27.305832,-28.066406,10.740051,1.639481,4.586449,11.628456,18.622742,21.550484,29.086189,40.116692,20.357845,16.848693,-1.865264,-19.831639,-12.177181,-34.329895,-50.4382,-67.635072,-29.260371,-54.753349,-76.998549,-98.536321,-42.036655,-67.086327,-88.203239,-106.711041,-51.633626,-71.565486,-85.921592,-100.881139,52.706451,-39.485313,21.013641,-47.300075
74,0.878105,2.264171,0.997925,-2.54211,-29.033546,-59.308147,-80.097542,-101.326618,-73.574982,-98.375874,-113.793411,-126.950226,-63.08075,-89.877491,-106.763649,-121.546383,-49.828491,-72.918377,-87.562923,-100.73988,-32.912178,-47.855301,-58.053074,-68.040161,10.805859,5.195433,-7.003392,-11.883867,-34.698298,-55.403859,-68.170077,-78.8667,-47.756904,-71.544521,-85.980255,-98.354621,-55.639684,-78.213442,-92.28403,-103.128931,-60.177752,-80.118659,-91.339588,-99.819572,-13.579674,-32.127571,-55.649529,-75.674572,-20.635414,-45.926743,-59.848709,-66.917896,-6.490746,-21.686897,-21.749153,-20.01812,6.943817,0.755081,6.055412,14.765625,14.992104,17.099991,24.302216,34.359283,23.273051,22.134435,5.52907,-9.953889,-6.229598,-26.512539,-42.826751,-59.850414,-25.178267,-49.418237,-72.344621,-93.406452,-39.684057,-63.752793,-85.458927,-103.610059,-50.593008,-70.388924,-85.500809,-100.229703,53.713331,-36.817896,22.140341,-49.438939
75,0.740547,1.512391,-4.062538,9.766939,-29.021988,-59.759159,-81.486168,-103.531094,-74.166012,-98.177547,-112.730083,-125.210266,-63.968067,-90.88131,-106.844845,-120.834675,-50.903893,-75.214348,-89.660568,-102.827282,-34.342461,-51.925049,-63.296185,-74.839382,11.874326,6.334388,-6.053763,-11.347657,-34.270305,-55.130644,-68.149978,-78.739772,-47.675671,-70.700208,-84.66494,-96.673882,-56.119207,-78.08602,-91.823835,-102.766502,-61.471887,-80.422594,-91.090287,-99.748868,-15.142021,-32.401485,-51.211281,-69.207687,-14.115944,-44.866104,-65.539627,-77.27417,4.018822,-27.493057,-43.7784,-53.999004,18.198967,-3.87886,-11.507835,-13.733597,25.663033,26.470299,32.520447,39.916649,17.511058,13.622172,-4.996658,-25.64121,-7.37513,-35.538072,-55.918549,-76.899363,-24.817985,-55.870229,-82.371514,-107.258829,-38.262933,-68.693659,-92.111515,-112.978971,-49.092072,-69.955498,-86.919648,-107.034552,54.559822,-35.313301,18.183746,-39.679796
76,2.248077,4.259852,-52.021408,9.861356,-29.415665,-60.657806,-82.747822,-104.528904,-74.551506,-99.088783,-113.355217,-125.241508,-64.222126,-91.704998,-107.716312,-121.428452,-50.972672,-75.335541,-89.745998,-102.409172,-34.102364,-51.644554,-62.61755,-73.660812,11.684351,5.844862,-7.015372,-10.539252,-34.205745,-54.834273,-67.436637,-77.794929,-47.929188,-70.895463,-85.166137,-97.415536,-56.380473,-78.477796,-92.744194,-103.704815,-61.658774,-81.026791,-92.13481,-100.829886,31.529274,55.451546,65.028648,71.452217,59.014778,68.018188,73.905373,82.137222,46.103554,35.54924,26.104259,22.632751,32.250481,15.028839,-3.113995,-14.936829,17.920876,9.974098,1.561089,-4.593201,-2.743941,-23.986886,-50.043553,-69.014113,-48.654199,-74.666777,-93.56989,-111.01892,-49.862964,-78.282232,-94.500546,-110.628179,-47.123036,-71.71239,-84.860751,-97.784247,-40.93901,-62.283009,-71.275753,-81.791354,56.840544,-31.606902,-33.805017,-30.371894
77,1.612587,6.933398,-0.796108,-7.042881,-30.199356,-60.77076,-82.839146,-104.340763,-73.273888,-99.00444,-113.489971,-125.210667,-62.954006,-91.524353,-108.077774,-121.159115,-49.577522,-74.435234,-89.715672,-102.442303,-32.709732,-51.413956,-63.266659,-74.884644,11.274792,5.024353,-8.561355,-15.267666,-33.033599,-53.657959,-66.699862,-76.953827,-46.894683,-71.258432,-87.0871,-100.299511,-55.131879,-77.985707,-93.000999,-104.64444,-59.958446,-79.534098,-90.070602,-98.309805,35.957851,60.935383,78.949299,93.083782,50.823841,58.457737,65.062008,72.156773,33.502064,27.580032,20.596333,16.366482,16.207066,5.78373,-4.977665,-11.110382,0.698605,-6.812267,-12.804165,-15.599899,-10.495872,-32.156743,-49.198344,-61.585847,-50.910992,-72.14912,-85.4017,-98.044433,-46.172666,-66.627367,-77.03898,-88.546772,-38.236503,-54.115313,-60.596667,-67.57326,-28.713324,-41.405318,-45.780829,-51.056105,58.260498,-25.553911,-34.793758,-38.295182
78,1.401901,9.01908,0.024376,-3.4692,-30.505486,-59.176598,-79.820366,-98.25737,-73.390503,-99.225025,-113.60321,-123.951015,-64.244728,-93.295383,-109.452667,-121.819611,-51.495094,-76.265202,-90.847492,-102.31636,-35.438576,-53.592567,-64.930458,-75.224819,10.826731,5.594649,-6.84528,-13.568881,-30.433938,-49.130419,-60.310392,-68.62206,-44.928674,-68.266748,-81.67656,-92.792715,-54.283305,-76.360868,-89.549212,-99.151803,-60.553782,-81.075111,-91.243428,-98.607319,33.75246,56.447124,74.460354,88.986454,39.218273,46.732235,57.24638,69.100399,23.636398,23.938065,22.285137,22.365818,8.610077,6.881504,4.352589,2.315941,-4.133606,-4.625359,-4.1082,-3.180885,-14.991765,-36.397329,-51.504506,-64.124376,-52.700364,-69.059963,-78.122638,-85.877718,-44.466935,-56.787717,-55.167602,-54.602647,-32.773136,-40.344971,-40.523677,-40.839005,-19.477099,-25.076534,-25.825412,-26.493397,61.506586,-19.004554,-32.925196,-44.234105
79,1.414261,12.259402,5.791454,-2.294645,-28.775711,-58.053131,-77.6124,-98.08754,-74.294529,-99.760494,-113.486309,-123.388996,-65.651493,-93.038578,-108.043156,-119.880295,-53.914833,-77.92099,-92.627907,-105.055046,-38.356133,-54.949951,-66.370068,-76.496544,11.833664,5.978428,-6.506394,-14.872093,-29.370163,-48.653582,-59.133522,-66.583123,-42.321571,-66.738271,-79.563368,-89.43624,-51.230149,-74.658224,-86.941369,-95.608163,-57.670254,-77.515539,-87.168364,-93.841576,28.162766,46.650467,60.070496,72.017555,24.578133,31.718445,42.412605,54.221649,8.273163,8.788948,15.408382,23.887138,-7.013855,-7.689114,2.505741,12.302971,-18.450565,-21.398163,-13.336887,-4.140816,-9.709357,-24.247997,-34.863603,-42.136011,-42.707974,-60.072406,-67.656932,-71.99181,-38.591537,-44.468139,-33.913419,-25.663873,-29.019513,-32.142664,-20.355344,-11.620038,-16.074744,-17.498152,-11.980846,-6.159573,67.538538,-11.106491,-22.51605,-50.890089
80,-4.508286,15.963253,-33.466301,14.871506,-27.510567,-54.563599,-71.906776,-90.44569,-75.099564,-98.002224,-108.050308,-108.163834,-63.741989,-86.271057,-93.315353,-90.473671,-49.901733,-66.855354,-70.93832,-68.331757,-33.238564,-44.893913,-48.934593,-48.427162,12.152666,6.377274,-5.576865,-18.70843,-32.658126,-55.462213,-66.750188,-68.781499,-45.938077,-73.531927,-86.969805,-92.94638,-53.636717,-79.329612,-92.806578,-99.761063,-57.503157,-79.22229,-88.794622,-94.543709,14.354153,34.670048,54.030075,69.993553,49.324036,67.889786,66.911201,61.523438,50.436058,72.345543,68.557091,63.312607,50.528641,72.919922,64.161301,56.401291,48.855286,70.037613,68.261604,65.912247,3.730466,7.130351,11.833818,15.0692,-30.620115,-33.42803,-23.275737,-16.477912,-35.770686,-34.899666,-24.401849,-18.896614,-35.083713,-29.958861,-20.609107,-17.508002,-31.659776,-28.451317,-24.850002,-26.30935,64.104538,5.17223,-54.908066,-35.703116
81,-3.655644,22.8366,-9.416313,28.488475,-25.431232,-50.06155,-66.449661,-82.334289,-85.594596,-106.240167,-109.235401,-104.271927,-77.285413,-96.233797,-93.43194,-84.763412,-64.465112,-76.684141,-72.024908,-63.183603,-48.30059,-56.553554,-54.824609,-50.167579,12.379537,7.587149,-0.598825,-10.267936,-32.346302,-55.462985,-65.370438,-66.928154,-45.268486,-76.302376,-87.364622,-90.010813,-53.328119,-82.098223,-93.760992,-96.794327,-56.952899,-81.928008,-90.88401,-93.559871,25.658712,50.067902,68.787746,83.713875,60.407352,79.83118,84.846268,83.865108,54.965687,76.913509,80.472221,80.342159,48.427391,70.354214,71.057682,69.410019,39.651718,58.114242,63.511162,67.394285,0.23388,-5.130656,-9.030179,-13.97401,-41.402632,-55.757781,-49.377837,-41.853781,-46.303701,-57.752721,-51.216579,-45.738653,-45.966883,-53.014921,-47.496827,-43.019227,-42.36194,-48.363108,-48.587524,-49.702134,62.440681,28.875759,-62.332592,-6.347711
82,-3.655643,22.836599,-9.416313,28.488476,-23.351898,-45.559502,-60.992546,-74.222889,-96.08963,-114.478111,-110.420494,-100.38002,-90.828838,-106.196537,-93.548527,-79.053154,-79.028492,-86.512928,-73.111496,-58.03545,-63.362617,-68.213196,-60.714626,-51.907997,12.606408,8.797025,4.379216,-1.827442,-32.034477,-55.463757,-63.990686,-65.074807,-44.598895,-79.072823,-87.759439,-87.075244,-53.019521,-84.866833,-94.715406,-93.82759,-56.402641,-84.633725,-92.973396,-92.576032,36.963272,65.465755,83.545418,97.434196,71.490669,91.772575,102.781334,106.206779,59.495316,81.481476,92.387352,97.371712,46.326141,67.788506,77.954063,82.418747,30.448151,46.190872,58.760719,68.876324,-3.262707,-17.391664,-29.894177,-43.01722,-52.18515,-78.087533,-75.479937,-67.22965,-56.836716,-80.605777,-78.031309,-72.580693,-56.850054,-76.070981,-74.384546,-68.530453,-53.064105,-68.274899,-72.325047,-73.09492,60.882683,56.109882,-69.65126,26.538289
83,-11.470261,24.523846,0.536957,14.547903,-26.90464,-48.03751,-61.281967,-72.83163,-92.323684,-101.496601,-92.719345,-81.859054,-83.679981,-91.113796,-74.93351,-60.309467,-70.289783,-71.111431,-56.112022,-42.634849,-53.958816,-55.238762,-48.350334,-41.873588,5.552474,1.635769,-0.831582,-4.716949,-33.930698,-58.401419,-66.491001,-66.949271,-42.086909,-75.865146,-82.694175,-81.010962,-46.000526,-76.935517,-84.769936,-83.455589,-45.886834,-70.747457,-77.407311,-76.669023,33.796921,57.151737,70.813923,78.349457,58.350735,80.692635,88.865662,88.786926,50.640507,76.447506,87.702255,90.076561,41.860199,67.22208,79.403458,83.601952,32.820396,52.065697,65.547523,73.83728,3.151618,-10.08483,-23.140102,-36.069651,-51.590493,-69.358032,-60.853703,-51.506358,-55.665897,-75.421953,-66.360235,-59.724443,-54.811055,-73.96841,-65.115871,-58.823813,-49.862161,-65.758786,-61.260639,-57.055405,49.630718,82.150149,-68.896008,42.602613
84,-11.47026,24.523847,3.438377,36.342032,-30.457383,-50.515519,-61.571389,-71.440373,-88.55774,-88.515091,-75.018196,-63.338089,-76.531124,-76.031056,-56.318493,-41.565781,-61.551075,-55.709935,-39.112549,-27.234249,-44.555016,-42.264328,-35.986042,-31.83918,-1.501461,-5.525488,-6.04238,-7.606457,-35.82692,-61.339082,-68.991317,-68.823736,-39.574923,-72.657469,-77.628913,-74.946681,-38.981532,-69.004202,-74.824466,-73.083588,-35.371027,-56.861189,-61.841226,-60.762014,9.922829,33.395233,56.133957,75.693741,28.02618,41.389904,55.582008,67.259045,30.116444,49.13269,67.112846,85.174713,36.108799,60.900593,85.548019,110.187721,42.410259,71.862431,92.097816,113.376732,-36.344409,-54.493226,-61.774865,-65.488998,-33.633381,-35.00106,-37.749354,-39.951714,-12.693415,-1.7078,-3.826056,-6.276868,6.771797,18.673448,16.482605,13.383383,21.528602,33.507503,31.502405,25.301151,38.086501,107.546112,-65.531588,79.816761
85,-11.470261,24.523847,-10.554485,25.513634,-34.010124,-52.993526,-61.860809,-70.049114,-84.791794,-75.533581,-57.317047,-44.817123,-69.382267,-60.948315,-37.703476,-22.822094,-52.812366,-40.308437,-22.113075,-11.833649,-35.151215,-29.289894,-23.62175,-21.804771,-8.555396,-12.686746,-11.253179,-10.495965,-37.723141,-64.276745,-71.491632,-70.698201,-37.062937,-69.449793,-72.56365,-68.882399,-31.962538,-61.072886,-64.878997,-62.711588,-24.85522,-42.974921,-46.275141,-44.855005,30.832901,53.984699,70.406742,85.88419,55.764885,79.724178,89.689693,92.885342,45.23632,70.401077,80.509586,83.798962,33.989353,58.496532,68.754215,72.396297,21.705036,41.83897,54.527836,62.113609,-0.650633,-14.821643,-28.644565,-40.793094,-39.532243,-53.268036,-51.960934,-48.798109,-45.405541,-57.273384,-53.229781,-49.60247,-47.745542,-57.117649,-52.980588,-49.823876,-47.476743,-54.64754,-54.634974,-54.769034,26.611376,131.275679,-76.090937,104.536115
86,10.440331,24.249047,-5.385647,26.501162,-38.438874,-62.314425,-74.557057,-82.036515,-91.192418,-99.595614,-93.873711,-89.680653,-75.480051,-78.896513,-59.373208,-44.983321,-57.876721,-57.789832,-44.080582,-34.5815,-39.777489,-45.05476,-45.4523,-46.508074,-1.696901,-3.870701,-0.374285,0.490823,-36.49508,-54.797887,-55.703487,-51.350886,-35.895252,-61.864789,-63.553462,-60.047166,-28.42444,-45.197689,-46.010788,-43.495832,-17.435198,-21.05422,-20.488354,-17.292369,36.780681,61.119776,77.10783,88.331709,58.958874,86.023092,94.952831,96.341057,47.33119,76.383848,86.716375,88.092699,36.003399,63.873453,74.627352,76.327801,24.76819,47.735424,60.043916,66.0468,-3.892236,-15.106374,-23.453161,-31.38795,-38.769008,-48.963214,-43.413951,-37.597865,-42.782939,-50.340464,-43.232806,-37.29322,-42.646378,-48.163716,-41.40467,-36.081877,-38.739167,-42.666956,-39.124274,-36.719157,36.769896,154.540317,-81.758394,130.052867
87,10.44033,24.249047,-5.385647,26.501162,-42.867622,-71.635323,-87.253304,-94.023914,-97.59304,-123.657646,-130.430374,-134.544182,-81.577835,-96.844711,-81.042938,-67.144547,-62.941074,-75.271225,-66.048088,-57.32935,-44.403763,-60.819626,-67.282848,-71.211376,5.161593,4.945343,10.50461,11.477611,-35.267019,-45.319029,-39.915343,-32.003571,-34.727567,-54.279785,-54.543274,-51.211932,-24.886342,-29.322492,-27.142579,-24.280077,-10.015176,0.866482,5.298432,10.270267,42.728462,68.254852,83.808918,90.779228,62.152863,92.322006,100.215969,99.796772,49.42606,82.366619,92.923164,92.386436,38.017445,69.250374,80.500488,80.259304,27.831345,53.631878,65.559998,69.979992,-7.13384,-15.391105,-18.261758,-21.982807,-38.005773,-44.658392,-34.866969,-26.397622,-40.160338,-43.407545,-33.235832,-24.98397,-37.547215,-39.209783,-29.828753,-22.339879,-30.001592,-30.686373,-23.613574,-18.66928,47.822657,176.693787,-86.53161,154.458451
88,-6.337624,20.484495,-3.151474,3.440362,-39.450559,-66.420135,-80.297069,-85.029916,-88.085203,-118.406181,-133.710079,-149.033603,-71.787557,-89.093484,-81.575002,-77.715139,-54.008874,-69.508495,-65.240221,-61.148471,-36.734504,-53.756704,-60.900249,-66.632452,1.392287,2.002474,9.035382,15.331979,-29.153419,-38.014248,-34.284508,-29.42722,-24.237098,-37.98379,-38.254596,-36.615354,-12.364161,-8.613194,-4.414907,-1.749389,2.207331,16.680577,22.001672,26.210179,36.191425,66.109257,87.569332,95.788422,57.777557,93.301105,100.837498,98.656712,44.726543,85.846939,95.562458,91.189213,34.281979,72.417526,83.502903,81.142788,25.957603,54.652233,65.205517,66.190166,-15.35671,-18.466955,-12.579362,-6.346769,-41.319671,-35.188997,-15.638292,-3.297843,-32.907258,-21.697181,-2.662184,6.736105,-18.290719,-6.773464,8.209532,13.578977,-0.632695,7.814576,18.61213,23.557103,41.911211,194.548686,-89.256907,155.269219
89,-6.337623,20.484495,39.344845,36.203773,-36.033497,-61.204948,-73.340836,-76.035919,-78.577366,-113.154716,-136.989784,-163.523026,-61.99728,-81.342258,-82.107067,-88.285732,-45.076675,-63.745766,-64.432354,-64.967594,-29.065247,-46.693783,-54.517651,-62.053528,-2.37702,-0.940397,7.566154,19.186347,-23.03982,-30.709468,-28.653673,-26.85087,-13.74663,-21.687794,-21.965918,-22.018777,0.158019,12.096103,18.312764,20.781298,14.429836,32.494672,38.704911,42.15009,15.74873,32.033958,45.244846,52.052135,52.830105,55.732727,43.56926,31.966038,47.210541,51.355476,34.137669,15.479164,37.803669,37.899513,21.489773,5.897198,26.316319,31.379414,23.26458,12.827282,-13.569406,-22.389773,-31.624362,-42.331204,-15.248029,19.959709,36.658935,44.551934,-6.454338,33.323239,48.165877,56.108524,4.207179,41.052415,55.863436,62.531122,13.803872,41.60082,55.976748,64.329418,35.847588,213.396796,-49.638062,189.836605
90,-99.201794,-12.467593,53.586788,35.144568,8.30183,17.407436,21.734104,19.230309,29.701653,54.303589,57.885075,54.322987,34.858246,59.048138,60.332508,55.571423,37.877541,62.393074,67.393742,65.423012,39.419575,61.02602,67.751713,70.341225,30.547744,56.076537,75.615232,84.788441,40.968558,53.207366,61.703049,68.854303,20.488416,33.3388,42.937223,49.052613,1.080756,8.236208,16.867434,22.633193,-15.661633,-24.464278,-27.803432,-29.280687,-5.171471,-11.97155,-12.373867,-8.826942,-6.724777,-22.005558,-27.134399,-31.946297,-6.392326,-14.430599,-23.176804,-33.274384,-5.999851,-16.884441,-29.754639,-41.647682,-6.462765,-12.892971,-22.223911,-32.934895,-23.042784,-34.478034,-45.385256,-56.93672,-24.680528,-1.013942,9.856416,14.490166,-11.210046,23.981822,33.810574,36.783547,3.820807,37.053458,48.022184,51.410058,18.938543,45.969785,55.667873,59.158377,-62.720661,199.970033,4.582272,224.022004
91,100.736561,40.473752,-78.511162,1.841521,-8.252678,-30.803204,-52.465954,-72.310638,-52.013512,-64.270134,-63.404217,-58.243103,-53.78952,-70.242577,-62.977867,-49.074097,-53.599949,-68.138065,-58.801689,-44.699078,-50.870018,-66.28315,-59.303169,-47.505054,34.925724,52.276355,60.596976,70.020151,36.684376,43.715525,47.388316,46.602418,18.171849,23.874562,33.522137,34.864838,0.279359,0.999739,9.858577,12.331249,-17.92281,-23.637131,-17.37459,-13.046627,29.314899,52.758007,70.077152,80.576878,72.711239,100.48605,96.756878,86.828327,68.372498,101.309566,92.888317,74.559975,59.162807,85.162067,75.185966,58.882141,44.835892,66.732788,63.180714,51.574974,-16.967778,-22.53396,-23.100891,-22.873464,-5.528206,19.356963,30.579792,33.700349,8.862049,42.393263,53.538039,54.478128,24.507998,55.507384,67.364945,69.760675,40.081266,64.207646,72.668317,73.59939,38.210707,238.919152,-73.734083,224.338892
92,3.947411,18.342466,-7.495708,12.41066,-17.418594,-44.645977,-65.036488,-78.196678,-68.30864,-66.343975,-54.719353,-44.059811,-70.264721,-64.520531,-45.801258,-24.624481,-66.734047,-61.531906,-43.26582,-23.283691,-60.542164,-62.259121,-49.905224,-34.731789,22.953307,35.908359,41.248287,50.75748,20.70726,27.625776,34.517801,39.045588,9.605894,17.505377,25.671314,30.495935,-1.974408,4.349823,9.474983,11.693861,-13.387798,-9.620529,-4.826968,-2.253828,28.036423,56.449699,78.795147,92.465057,55.643177,84.268799,99.014168,108.55854,45.266762,76.335068,94.756622,106.046677,34.294395,65.951958,83.905506,94.850006,23.359852,50.450764,64.431267,73.559761,-15.274397,-20.720412,-21.424305,-20.296681,-1.922105,20.064561,32.717221,40.912427,14.637009,35.867418,49.227737,56.383745,30.58078,49.216622,58.841844,63.374139,43.863602,58.459918,64.896657,67.526299,42.234335,255.801838,-81.153574,235.289771
93,18.466415,18.823069,-4.756565,14.758101,-34.594688,-66.084709,-93.462524,-105.471954,-69.861546,-101.946373,-96.904507,-86.776142,-66.347637,-101.430073,-98.23019,-84.304104,-62.673626,-96.01038,-94.295082,-83.247986,-60.029411,-89.75853,-92.683926,-86.85482,-9.556123,2.940925,27.1892,50.096812,20.130017,8.579479,-3.713361,-9.65727,33.749502,18.155609,2.51423,-8.325932,40.969484,27.459235,13.065214,4.943553,42.764198,38.455563,30.250539,25.613886,28.255577,54.389534,75.361919,92.949085,54.225197,81.889229,97.627544,110.154133,43.638954,74.526672,94.629993,110.417347,33.461037,61.930962,82.331772,98.335133,23.517094,46.424847,61.976566,76.433544,-15.096741,-18.148199,-17.224722,-19.982063,6.752963,23.336716,34.666867,45.326964,20.392456,40.300542,53.815361,64.728696,31.987454,51.170158,63.130595,71.756943,40.806525,57.251277,65.534909,71.223234,60.671282,274.195989,-85.939608,249.618955
94,3.029709,3.977776,-1.008167,14.993618,-33.23513,-60.829983,-81.465797,-94.639034,-60.289764,-86.700611,-96.74984,-101.406727,-53.877068,-84.027042,-95.815029,-98.818645,-47.407494,-77.960358,-90.629768,-94.992943,-40.970078,-66.413956,-80.989895,-91.837349,-10.862824,-11.451182,-9.090463,-3.726761,18.494619,28.300276,25.943262,21.288146,30.085109,38.329469,33.201962,25.300873,37.713447,46.623784,42.215793,34.303095,41.810031,52.664765,54.606569,53.238365,29.52919,55.511913,75.706787,94.49564,52.63155,81.00872,100.96447,117.904587,44.046192,74.955196,96.842194,114.156761,35.748997,64.438763,85.53257,102.90905,27.568531,51.842136,67.769508,82.277355,-15.784085,-16.9897,-15.516211,-18.08756,9.761752,24.142003,34.001197,43.08635,24.712762,43.115681,54.814112,64.584571,36.560443,54.208278,65.38288,74.269197,44.195387,58.86074,66.557373,72.18512,63.97336,277.930777,-86.675406,264.369584
95,2.431526,4.519821,-0.968971,13.04496,-29.634247,-57.279453,-76.242428,-90.884171,-70.683289,-86.041431,-80.024471,-68.303776,-63.639336,-80.518227,-73.539562,-61.338844,-54.554672,-70.390892,-66.150513,-57.844391,-44.028053,-58.397655,-61.0849,-60.430241,-11.172934,-14.267556,-14.540308,-14.655658,12.49075,27.556862,37.960881,43.90831,23.476395,39.63586,49.014204,53.136909,32.285709,46.986938,54.501408,57.39849,38.613521,51.289089,57.84124,62.033846,29.592819,55.023422,75.784607,95.700417,52.956104,81.588364,101.548462,117.190018,45.469666,76.771202,99.30233,116.301613,38.438931,67.874737,88.753567,105.474701,31.084785,56.335258,72.573795,87.26469,-14.553831,-16.441912,-14.400999,-14.993124,11.945802,24.83336,33.438836,41.109966,27.164191,42.366525,51.0637,58.502217,38.722634,54.390504,62.166178,67.808066,46.555735,61.097834,67.332649,71.203165,66.190538,282.302197,-87.858725,277.266142
96,-3.257446,8.485927,1.563148,8.385212,-24.070816,-48.143463,-66.444111,-79.82254,-69.534416,-76.702938,-60.956612,-43.180389,-68.337479,-75.473213,-54.966774,-32.368813,-63.929672,-70.791721,-52.985573,-33.662453,-57.443161,-67.90638,-62.29351,-54.328423,-7.958578,-10.481391,-9.58811,-8.021008,10.836271,28.970268,38.522686,43.149459,19.373698,35.275479,46.493985,53.897983,26.549034,38.946788,49.29381,56.358057,32.444099,42.927651,47.385599,50.657691,28.139763,53.166332,74.66526,94.469604,53.4589,82.422924,102.682343,118.716316,45.585423,77.274971,100.098038,117.187958,38.170853,67.987289,89.305687,106.408997,30.856018,55.929279,72.244034,86.730137,-13.095657,-14.433356,-13.058113,-14.613482,15.816504,27.946446,35.5909,41.988922,31.862719,45.890066,53.343526,59.392534,43.329955,58.307024,64.296134,68.425076,50.599399,64.285143,69.144283,72.317142,62.841368,290.462653,-86.3873,285.325883
97,-2.733421,6.653854,3.55854,7.009289,-20.006218,-41.945915,-60.034904,-74.46722,-60.354767,-67.616329,-58.648682,-45.123253,-60.021057,-66.026115,-51.044712,-32.680893,-55.580864,-59.834404,-44.148216,-27.965584,-48.613243,-53.645325,-44.352493,-34.585075,-11.809087,-14.139177,-11.288716,-10.607054,9.299921,23.072053,30.933128,34.821922,18.272132,32.084835,40.708033,46.159236,26.305737,37.481265,44.795293,49.968001,32.301332,42.02733,46.82824,50.223586,26.975098,51.371098,73.869324,93.739014,52.397404,82.378063,102.732353,118.623619,44.572449,78.065872,102.245407,120.010071,37.275066,67.817516,89.898262,106.744423,30.318489,54.59095,71.007843,85.647755,-12.43783,-13.025076,-11.205353,-11.979024,19.820709,32.096259,37.87795,40.985354,34.750971,48.979007,55.30089,59.356657,45.124237,60.368376,65.975869,68.933158,51.347876,65.647604,70.437275,73.35881,59.911909,296.751855,-83.024797,291.970521
98,-27.80797,9.161075,2.53212,6.984095,-7.224283,-17.99592,-30.354595,-41.960477,-40.627441,-35.093565,-21.206388,-9.406728,-44.917917,-36.335306,-18.561115,-1.226148,-46.115656,-37.197389,-18.591756,-3.046617,-44.84745,-44.502067,-34.385433,-24.997644,-16.244063,-21.529744,-19.338777,-15.280263,4.525935,19.922845,26.387433,28.713572,19.122467,33.851823,40.24262,42.209711,29.860277,42.175686,46.073928,47.585485,37.715145,48.473086,50.05862,49.901219,26.504459,51.407032,74.472141,94.065056,54.655895,85.265751,103.993607,117.933083,46.899261,81.504536,103.578186,119.336929,39.009018,70.508251,90.902023,105.97641,31.168442,56.338177,72.277393,86.148834,-13.855619,-15.036102,-12.042565,-12.892004,18.050757,30.396393,35.713227,39.430911,33.369429,45.942121,50.979535,54.214145,44.220705,58.286152,63.509064,65.997544,51.344974,64.858372,68.679796,70.413624,31.997738,305.757628,-80.598879,298.799314
99,-27.80797,9.161075,4.280376,4.287887,5.557652,5.954075,-0.674286,-9.453735,-20.900116,-2.570801,16.235905,26.309795,-29.814777,-6.644497,13.922482,30.228596,-36.650448,-14.560375,6.964703,21.872349,-41.081657,-35.35881,-24.418373,-15.410213,-20.67904,-28.920311,-27.388839,-19.953472,-0.248051,16.773635,21.841738,22.60522,19.9728,35.618811,39.777207,38.260185,33.414815,46.870106,47.352562,45.202969,43.128958,54.91884,53.289,49.57885,26.876106,51.521072,74.755611,93.506298,55.379734,87.063274,104.714642,117.307262,46.550159,82.041206,103.410244,118.178387,37.398434,70.096149,90.175266,104.702511,28.372421,54.240875,69.971523,83.763657,-14.675418,-16.05628,-12.196818,-13.624426,15.96384,30.445485,37.05457,41.564943,32.439344,46.495281,52.760046,56.330887,43.942272,59.071741,65.07209,67.764532,51.350716,65.347682,69.872691,72.092247,4.018908,314.674511,-76.489363,302.843009
100,-15.32032,7.581098,1.089306,1.483801,4.976006,9.032993,15.902252,21.015301,-9.380951,20.537167,39.243221,50.946865,-16.346741,13.064575,37.48209,56.522884,-19.175034,5.872421,29.290295,46.873798,-19.848347,-3.844185,13.50214,27.446194,-18.928292,-27.35006,-26.778931,-23.360551,-3.792649,7.313534,16.007004,22.130792,13.442818,24.848613,33.816687,37.839047,27.116644,36.72544,41.627743,43.598446,38.229433,46.39926,46.72561,44.959672,26.046753,50.33638,73.296204,91.982346,55.409603,88.220901,105.408096,117.883873,47.038479,83.068371,103.82309,118.491096,37.622623,70.855293,90.751534,104.805794,28.22279,54.916763,70.526047,83.269672,-15.499971,-18.069714,-13.366124,-12.530455,14.639973,29.082839,36.251382,41.373208,31.284549,45.548586,52.71009,56.82557,42.834717,57.72163,64.250501,66.805424,50.613108,63.901858,68.204318,69.383195,-11.624823,321.998542,-75.723467,304.069742
101,20.51096,-12.476238,-0.889549,-1.069455,5.343132,4.274712,-3.351059,-13.524857,-26.532211,-7.694492,14.346199,27.345886,-37.166977,-13.375683,12.037125,31.86264,-43.946686,-21.136093,4.69162,22.460175,-47.889519,-37.286053,-19.222755,-4.450665,-17.810795,-27.376613,-26.759479,-21.474385,-1.138678,16.850699,23.740872,26.676795,19.657626,36.284419,42.382951,42.228266,34.491495,49.358092,51.579687,51.182879,46.464406,60.010038,58.139804,53.711929,26.509266,51.322803,74.215279,93.222198,56.387215,88.887749,106.589241,119.489365,48.302593,84.221077,105.200157,120.227852,38.957405,72.214108,92.2118,106.01944,29.454803,56.456566,72.076664,84.780293,-16.304641,-18.203157,-12.750781,-12.088014,13.617818,27.587429,34.899295,40.537663,30.622153,44.132155,50.701967,55.045799,42.443343,56.398751,61.927265,64.040364,50.557347,63.818927,67.739523,68.58538,8.613997,309.418023,-76.885157,302.896006
102,-29.040642,17.609303,1.195621,-0.767311,9.751625,16.997395,26.565628,35.658302,1.270294,30.44735,49.122963,60.37056,-6.62962,23.672447,46.947212,64.965477,-10.340767,16.526241,37.800407,53.774529,-11.944542,5.221252,21.185989,33.625946,-21.986049,-35.828392,-41.193823,-39.378052,-13.298445,-4.894152,3.38701,9.902481,5.304793,15.650889,22.977205,26.249236,20.959942,28.9439,33.036532,34.57208,33.840584,40.920825,41.102988,38.234373,26.175098,50.740986,73.87476,93.449764,55.902443,88.450298,105.969257,118.32613,47.937984,83.917179,104.607983,118.955212,38.738422,72.016754,91.492481,104.716129,29.637794,56.165028,71.42458,83.73785,-16.094195,-17.97184,-12.395345,-11.585736,14.321403,28.904936,35.930095,41.13763,31.030138,45.064833,51.626185,55.336273,42.453964,57.030581,62.588056,64.516707,50.059886,63.219578,67.078485,67.839188,-20.804272,326.962395,-76.067162,302.063765
103,5.802212,-3.201574,0.920906,0.385755,6.04723,12.396183,23.703632,32.223301,-5.352802,23.680859,42.921696,55.660458,-12.796898,17.349701,41.930981,60.484371,-15.410843,10.176201,33.004704,49.938755,-15.074444,0.702038,17.040195,29.621372,-17.266033,-27.203156,-31.561871,-33.829469,-7.41431,2.91147,10.872333,17.593742,10.359126,21.439681,29.085679,32.72037,23.991517,32.307507,36.202908,38.026459,35.389285,41.891603,40.925209,39.427823,25.873432,50.417747,73.855591,93.422756,55.830803,88.249912,105.280666,117.273731,47.913609,84.192295,104.629154,118.782749,38.611622,72.361107,91.685658,104.632702,29.395866,56.226196,71.588287,83.937092,-16.155266,-18.414343,-13.085098,-12.060288,13.789237,28.260755,35.234353,40.221748,30.943996,44.709027,51.112854,54.745754,42.767039,56.976364,62.225952,63.824053,50.635955,63.508199,67.176112,67.944164,-15.259008,323.704922,-75.403204,302.39362
104,0.29108,1.200922,0.384235,0.344753,6.865654,13.083572,22.697468,31.538429,-3.08075,25.406113,44.381104,57.954597,-9.907093,19.466858,44.641113,64.696312,-12.762966,11.84967,33.641396,50.987091,-13.359032,1.53265,17.213058,30.4953,-17.472341,-26.927626,-31.544889,-33.90536,-8.572563,-0.261945,8.769547,16.956416,8.09233,19.134291,27.29572,31.077377,22.173029,31.620966,35.937505,37.742222,34.200095,42.347753,42.434204,41.286017,26.276894,50.857372,74.055748,93.536682,55.892544,88.53447,105.265961,116.947174,48.09597,84.406586,104.609528,118.646851,38.861904,72.424393,91.542778,104.45343,29.690723,56.405354,71.560936,83.795586,-15.844291,-18.475538,-13.347352,-12.079986,13.451092,27.722971,34.721639,39.672293,30.683286,44.291101,50.709438,54.3311,42.601424,56.435801,61.688476,63.232731,50.61953,63.32301,66.886379,67.458991,-15.310507,324.864163,-75.361547,302.696691
105,-1.938686,-0.424472,0.755997,0.008028,7.842579,16.303825,27.796841,36.712818,1.829338,30.703526,49.355793,62.23177,-5.124378,24.514503,49.409466,68.864307,-8.987331,15.433731,36.535892,53.297367,-11.055908,3.190155,18.219223,31.094112,-16.487545,-24.666696,-28.802121,-30.644753,-7.138162,2.385418,11.687747,20.468286,7.830384,19.93927,28.79502,33.095257,21.172364,31.357044,36.619044,39.320872,32.82127,42.25062,43.383678,43.901085,26.101055,50.651436,74.037666,93.803787,55.644894,88.206825,105.103683,117.004509,47.842484,84.207001,104.352722,118.178787,38.774586,72.417812,91.495285,104.336128,29.926987,56.678524,71.781979,83.917236,-16.043622,-18.834184,-13.589598,-11.924313,13.775591,27.931502,34.830505,39.771773,31.145982,44.719587,51.000159,54.525799,43.091537,56.955986,62.002415,63.424651,50.972866,63.668812,67.121586,67.647823,-17.430353,324.42362,-74.786711,302.688648
106,50.959454,-11.86176,-0.244904,0.804423,1.434975,-8.063622,-23.951912,-38.908825,-45.86729,-28.802147,-7.716408,5.102119,-56.797829,-35.093021,-11.14666,7.531471,-61.444473,-44.061584,-20.023384,-2.147942,-62.484283,-56.817284,-43.376713,-31.444817,-16.053872,-24.721777,-24.174113,-22.512718,3.270487,19.934515,23.760756,25.836187,21.077639,34.6003,37.90654,39.809935,33.524484,44.105355,44.574905,45.434039,43.325942,53.75114,50.90457,47.369729,25.76437,50.21616,73.559589,93.199997,56.051044,88.278236,105.087204,117.138405,48.785591,84.704247,104.720192,118.758545,40.185986,73.359604,92.314453,105.251427,31.398869,58.235607,73.173065,85.20916,-16.578071,-19.848805,-15.224255,-13.735638,11.757278,25.685825,32.898211,38.021643,29.151628,42.660766,49.272506,52.905159,41.435823,55.404878,60.628284,62.09535,49.913043,62.557119,66.122835,66.591768,33.307886,312.556704,-75.252829,303.487915
107,-22.061348,9.941137,0.967598,-0.730075,5.086899,2.649193,-2.657433,-9.183254,-26.222706,-3.553391,15.665131,27.523956,-33.487415,-5.938625,16.824532,34.529114,-34.273453,-10.300827,10.731354,26.573067,-32.251797,-17.822514,-3.05397,9.103775,-20.997487,-32.813366,-34.076656,-32.957677,-7.465872,4.335249,12.215899,17.6868,11.201525,21.336249,28.437114,31.594043,24.894802,32.9733,37.006404,38.87139,35.220768,43.210345,42.611736,39.371075,25.55088,49.845428,72.996941,92.675514,55.444508,87.717705,104.641228,116.638756,48.04739,84.255524,104.478722,118.312798,39.344273,72.943439,92.022629,104.896545,30.684242,57.640114,72.529507,84.371109,-16.77345,-19.588033,-14.006784,-11.909802,12.219666,26.90379,34.099566,39.352056,29.603827,43.481923,49.886552,53.445537,41.784466,55.641135,60.545044,61.893982,49.980475,62.363223,65.697128,66.139323,11.02993,322.48282,-74.501839,302.742819
