takenoko1/special-research/HandMotion_SimilarSearch_自分用/NewProject/handData/key/d4_feature_d2/134.csv
,vel_0x_L,vel_0y_L,vel_0x_R,vel_0y_R,posFromWrist_1x_L,posFromWrist_2x_L,posFromWrist_3x_L,posFromWrist_4x_L,posFromWrist_5x_L,posFromWrist_6x_L,posFromWrist_7x_L,posFromWrist_8x_L,posFromWrist_9x_L,posFromWrist_10x_L,posFromWrist_11x_L,posFromWrist_12x_L,posFromWrist_13x_L,posFromWrist_14x_L,posFromWrist_15x_L,posFromWrist_16x_L,posFromWrist_17x_L,posFromWrist_18x_L,posFromWrist_19x_L,posFromWrist_20x_L,posFromWrist_1y_L,posFromWrist_2y_L,posFromWrist_3y_L,posFromWrist_4y_L,posFromWrist_5y_L,posFromWrist_6y_L,posFromWrist_7y_L,posFromWrist_8y_L,posFromWrist_9y_L,posFromWrist_10y_L,posFromWrist_11y_L,posFromWrist_12y_L,posFromWrist_13y_L,posFromWrist_14y_L,posFromWrist_15y_L,posFromWrist_16y_L,posFromWrist_17y_L,posFromWrist_18y_L,posFromWrist_19y_L,posFromWrist_20y_L,posFromWrist_1x_R,posFromWrist_2x_R,posFromWrist_3x_R,posFromWrist_4x_R,posFromWrist_5x_R,posFromWrist_6x_R,posFromWrist_7x_R,posFromWrist_8x_R,posFromWrist_9x_R,posFromWrist_10x_R,posFromWrist_11x_R,posFromWrist_12x_R,posFromWrist_13x_R,posFromWrist_14x_R,posFromWrist_15x_R,posFromWrist_16x_R,posFromWrist_17x_R,posFromWrist_18x_R,posFromWrist_19x_R,posFromWrist_20x_R,posFromWrist_1y_R,posFromWrist_2y_R,posFromWrist_3y_R,posFromWrist_4y_R,posFromWrist_5y_R,posFromWrist_6y_R,posFromWrist_7y_R,posFromWrist_8y_R,posFromWrist_9y_R,posFromWrist_10y_R,posFromWrist_11y_R,posFromWrist_12y_R,posFromWrist_13y_R,posFromWrist_14y_R,posFromWrist_15y_R,posFromWrist_16y_R,posFromWrist_17y_R,posFromWrist_18y_R,posFromWrist_19y_R,posFromWrist_20y_R,posFromBody_0x_L,posFromBody_0y_L,posFromBody_0x_R,posFromBody_0y_R
2,-24.873161,11.533063,0.698376,0.700558,2.590599,-2.519989,-9.983711,-15.325356,-34.397564,-13.571205,5.325737,18.493881,-42.048168,-20.849876,1.569099,21.024857,-43.949032,-26.229916,-4.20433,13.322983,-42.892056,-33.021469,-18.574047,-6.085968,-20.02677,-30.148527,-31.30962,-30.60264,-3.485811,9.756071,15.923208,20.209737,13.775344,25.258821,33.056292,37.874059,26.370637,35.80715,40.371678,43.847856,35.878471,46.093163,47.785618,48.012551,25.769348,49.940529,73.011875,91.623573,55.945816,87.240829,103.751907,115.517807,48.066845,82.911415,102.591362,116.196213,38.982582,71.434822,90.039825,102.812233,29.765053,54.83757,69.626026,82.165833,-14.228036,-16.577207,-13.795968,-17.867111,14.51499,28.610818,35.838828,40.731992,30.987839,43.707127,49.77182,52.69138,42.735175,55.705108,60.394188,61.465928,50.871163,63.752916,67.797012,68.932788,13.461485,307.137179,-78.877916,289.628343
3,-11.745071,7.77518,0.068207,-0.351422,4.483795,4.745865,2.39399,1.429596,-23.602352,-2.05822,17.367554,31.861038,-29.789085,-4.908943,17.896271,37.304192,-30.810871,-10.257397,10.969849,28.44738,-29.048767,-19.19775,-6.909142,4.896927,-19.357025,-31.437258,-37.845407,-43.312171,-8.861555,0.976953,7.538923,11.387887,5.99862,15.267419,22.366555,26.488518,17.985301,27.544204,32.635216,35.54539,27.115779,36.673384,40.874574,43.108951,25.805569,50.113735,73.142853,91.455002,56.016827,86.973495,103.610115,115.468025,48.072453,82.852364,102.680397,116.463776,38.894405,71.239185,90.229454,103.356857,29.42934,54.723244,69.751453,82.430534,-14.231123,-16.387695,-13.722115,-17.725147,15.232283,29.091175,35.711313,40.069472,31.338087,43.923192,49.623187,52.440549,42.735237,55.755497,60.411293,61.541572,50.529065,63.837267,68.256806,69.583946,1.736927,314.921559,-78.789196,289.286123
4,-17.657032,8.493707,0.446777,0.084598,10.819988,17.09959,20.029736,20.846729,-3.05769,20.955219,39.586315,52.575016,-10.013638,16.856403,36.574574,54.165058,-13.392792,10.230446,28.527775,43.890896,-14.686489,-2.610054,9.7122,21.86594,-20.731836,-35.818326,-45.687524,-53.233239,-17.24899,-11.604261,-5.734082,-2.042086,-1.672386,6.695412,12.993707,16.47007,10.86974,19.20796,23.634229,26.28962,20.321628,28.404819,32.07409,33.736782,25.429173,49.825745,73.021431,91.394005,56.489582,87.579231,104.148903,115.826912,48.555737,83.328323,103.193436,116.931839,39.221592,71.660843,90.36541,103.189087,29.546585,54.88781,69.719753,82.247429,-14.37704,-16.373677,-13.557056,-17.942385,14.677332,28.781373,35.916633,40.763299,30.875206,43.595297,49.608243,52.669458,42.489903,55.410559,60.100935,61.220408,50.631695,63.745815,67.966023,69.260991,-15.917559,323.411237,-78.339872,289.366691
5,5.703735,-13.849382,-0.131435,-0.063109,9.118137,13.180561,12.908535,7.89259,-10.665207,13.856335,34.594631,51.287327,-17.763062,10.790348,32.118359,49.734364,-19.652653,7.296238,28.183651,44.076405,-18.034172,-7.641335,5.008106,16.734409,-18.735384,-27.514255,-30.13945,-29.075675,-6.505529,9.579588,17.37601,20.054187,9.419778,26.016066,32.445581,34.603634,21.332915,37.130152,41.393956,41.75427,30.327048,43.732445,46.971933,46.956619,25.550594,49.804058,73.109093,91.775265,56.254063,87.297993,103.716831,115.284863,48.467216,83.422909,103.263988,116.91164,39.287968,71.886349,90.620899,103.446064,29.809113,55.363369,70.345116,82.934246,-14.539011,-16.551086,-13.750643,-18.031861,14.598662,28.488923,35.5754,40.443618,31.109796,43.750537,49.500551,52.481613,42.96501,55.839601,60.272663,61.31149,51.188683,64.302865,68.268415,69.334536,-10.208874,309.573402,-78.466358,289.31513
6,44.378986,-10.522394,0.354137,-0.309493,-2.231369,-15.024605,-33.477173,-49.382114,-54.654579,-40.050373,-16.429939,-1.136856,-66.669216,-47.324581,-20.802383,0.744324,-71.394768,-56.131268,-29.476318,-8.741913,-72.295189,-70.184269,-55.512714,-41.314201,-15.067101,-24.707266,-25.403131,-23.475531,-1.191351,18.933356,25.92307,29.266423,18.550997,32.896729,39.529773,43.136244,32.959715,43.568559,46.859485,49.139064,44.666481,55.991136,54.764897,52.763936,25.675278,49.718742,72.81641,91.365166,56.389217,87.435265,103.760033,115.315704,48.436661,83.421707,103.200874,116.786957,39.112701,71.822891,90.575867,103.396797,29.525127,55.033092,70.032063,82.635956,-14.629105,-16.433328,-13.119863,-17.275728,14.73371,28.870232,36.009259,40.849256,31.421944,44.081334,49.907609,52.828836,43.342676,56.258886,60.780622,61.855943,51.539673,64.68368,68.731296,69.832491,34.172373,299.045127,-78.109961,288.999755
7,-23.494835,9.909583,0.058422,0.015623,4.123993,-1.274185,-9.695778,-17.728901,-33.218079,-8.774529,12.121925,25.492744,-40.88316,-12.045937,11.125946,29.56913,-42.078323,-17.129402,5.207405,22.115707,-40.234795,-26.893559,-11.986656,0.736198,-21.692673,-32.066495,-32.990219,-33.181707,-4.206006,10.131884,15.273038,18.148755,14.056308,25.442281,31.011366,34.196081,27.232549,36.250518,38.862684,39.89972,36.85456,47.305138,47.79346,45.426382,25.956173,50.00061,72.867336,91.238766,56.683044,87.520008,103.929005,115.652905,48.573818,83.355961,103.120251,116.810703,39.107437,71.564312,90.319233,103.166485,29.322681,54.699955,69.632778,82.18626,-14.610147,-16.444382,-13.134251,-17.085289,14.715741,28.92803,36.180678,41.072299,31.287946,44.096278,49.998506,53.05583,43.185645,56.044427,60.694048,62.019335,51.478231,64.531712,68.535424,69.681326,10.666609,308.97978,-78.062468,289.040448
8,-13.074875,9.226438,-0.298862,0.128811,6.84288,8.329468,5.583687,2.423401,-16.966553,9.896965,29.569359,43.081398,-25.378189,3.239594,24.32888,42.633476,-27.815895,-2.921162,16.535683,32.26696,-27.785397,-14.006195,-1.153221,10.880699,-20.818163,-34.876756,-42.651504,-49.424227,-11.120632,-0.781698,5.27824,8.98135,5.539321,15.036225,20.134833,22.183095,18.1172,26.464683,29.343858,30.565219,27.256261,36.523516,39.058741,39.140499,25.911312,50.087986,73.173809,91.708031,56.401062,87.424278,103.9571,115.872688,48.510647,83.410606,103.360062,117.302742,39.289799,71.963882,90.950775,104.025192,29.762993,55.391693,70.420418,83.054695,-14.818493,-16.65106,-13.334693,-17.197304,14.711418,28.743767,35.764604,40.485608,31.268,43.815869,49.570884,52.551762,43.157425,55.863189,60.446923,61.693602,51.457051,64.391786,68.39772,69.474586,-2.411385,318.207962,-78.364449,289.171004
9,-3.060207,-0.171604,0.013103,0.16864,5.470219,6.496868,4.275799,1.628551,-15.506516,10.169506,29.403019,40.985355,-21.828346,6.166248,26.431675,42.799015,-23.976803,0.758514,20.743504,35.702648,-23.282776,-13.659439,-3.354607,6.129971,-20.071477,-32.426253,-40.994308,-46.292802,-9.170986,2.174047,8.236208,11.378625,5.879689,16.945301,22.825793,26.233489,16.768386,26.405896,30.307658,32.388338,24.605254,34.698977,37.517389,37.999104,25.738792,49.854469,72.91729,91.396465,56.625824,87.35075,103.649197,115.487423,48.945065,83.466282,103.224621,117.188931,39.796085,72.098293,90.86729,103.953266,30.168972,55.554714,70.371437,82.988148,-15.018318,-16.855269,-13.476286,-17.536808,14.188454,28.053583,35.222311,40.134001,30.686744,43.266538,49.232245,52.394422,42.636869,55.404569,60.121251,61.547191,51.085066,64.036536,68.051424,69.216469,-5.456114,318.037948,-78.335867,289.341235
10,-9.68565,4.47851,-0.164165,-0.069099,7.284966,12.261658,14.449654,15.568542,-1.299763,25.852547,44.427567,56.454391,-8.77676,19.041023,37.759552,54.498367,-13.444576,12.216454,30.005836,44.479752,-16.142807,-3.358669,8.361511,20.019836,-21.590352,-36.458987,-45.558404,-52.654576,-15.153304,-7.607466,-2.363744,0.829679,0.744895,10.899689,15.933582,18.496595,13.099177,22.07497,24.768275,25.428264,21.932264,31.151601,34.357126,34.086227,26.189404,50.235558,73.350735,92.042084,56.455479,87.2929,103.760147,115.751953,48.736954,83.352699,103.169289,117.042618,39.671459,72.089081,91.035347,104.1576,30.246964,55.793438,70.820332,83.529053,-14.774774,-16.487607,-13.155431,-17.424546,14.233285,28.213084,35.353593,40.490918,30.680013,43.14032,48.942636,52.188114,42.694914,55.356589,59.953351,61.317109,51.178556,64.041291,68.078347,69.306686,-15.146284,322.516736,-78.504553,289.272414
11,-7.969666,-13.937377,0.266304,-0.145916,9.842606,16.445103,21.029778,23.50296,1.861439,27.095375,45.397911,58.41774,-3.894024,25.568275,44.734154,61.729546,-6.414757,20.381927,39.794312,54.843521,-6.730614,7.553215,21.605759,34.428406,-18.114051,-26.735891,-30.790731,-31.761695,-3.219913,12.520761,19.303982,21.142724,11.788339,27.242491,33.260748,35.044223,22.806712,37.436558,41.180794,41.497388,31.031311,45.901242,49.417002,49.076943,25.855751,49.856987,73.081112,91.769714,56.123028,87.080154,103.622475,115.691528,48.552361,83.188705,103.125572,117.10865,39.61195,71.965714,91.015091,104.269638,30.255718,55.705833,70.667381,83.347664,-14.734575,-16.641983,-13.246698,-17.073001,14.209511,28.163128,35.298203,40.345867,30.57584,43.15304,49.155921,52.488591,42.435562,55.370545,60.144284,61.555095,50.813303,63.850667,68.03364,69.278899,-23.156004,308.641496,-78.278303,289.188634
12,59.577255,-11.969453,0.298576,-0.14993,-3.355179,-15.493355,-34.146309,-51.131058,-55.825481,-44.885731,-20.699501,-4.388695,-68.686638,-51.029491,-24.074707,-1.695328,-73.762436,-60.339832,-32.808723,-11.02684,-75.032272,-78.828049,-67.673492,-55.641289,-15.07309,-22.399221,-19.6835,-14.454722,-1.298426,20.711088,29.769194,34.557815,17.898974,33.008436,41.650529,46.955137,32.012402,43.350703,48.621163,52.635742,44.045087,54.65813,55.319848,55.910429,25.753098,49.557323,72.634907,91.202202,56.859455,87.350121,103.945885,116.125031,49.173489,83.246727,103.019714,116.878738,39.884777,71.729965,90.684357,103.885574,29.943523,55.310497,70.336189,83.057442,-14.739329,-16.464327,-12.941837,-16.955119,14.607801,28.448291,35.646043,40.750888,30.951591,43.345393,49.377482,52.694776,42.822799,55.628353,60.369982,61.686562,51.308664,64.184798,68.349308,69.623096,36.371813,296.680009,-78.029165,289.04667
13,-48.642998,5.064398,-0.465889,0.437749,6.681347,10.52227,13.110237,12.690926,-12.524872,13.410187,33.589439,45.87513,-20.881691,8.151627,30.948601,49.236031,-24.924202,0.733795,24.116936,40.78743,-26.759148,-9.576302,7.202053,20.095253,-20.225606,-27.598853,-27.838629,-25.085179,-0.778302,16.73535,22.924902,25.811363,16.955058,32.273359,39.251958,41.888268,29.952037,42.764692,46.243587,48.145623,39.195457,52.424494,52.953078,50.384755,26.124058,49.976978,72.982292,91.360474,55.897179,87.032547,103.601761,115.710411,48.481293,83.298798,103.08403,116.896477,39.866924,72.100754,90.965652,103.914986,30.8951,56.242733,71.184311,83.79776,-14.805279,-17.023477,-13.897177,-17.516925,14.041426,27.455715,34.527002,39.72861,30.683903,42.403452,48.005635,51.10742,42.67503,54.849495,59.454964,60.67719,51.065738,63.437248,67.510429,68.596989,-12.387171,301.736163,-78.61104,289.476175
14,-7.614098,9.633064,0.895615,0.177965,6.426601,12.961121,23.731728,32.259865,-0.962963,26.357574,45.249138,58.373108,-7.789536,18.481979,40.8181,59.613991,-11.84618,10.911942,30.850296,47.108688,-13.457336,-0.372448,14.914513,28.485031,-17.817896,-28.951372,-35.523036,-41.147511,-10.136207,1.019191,8.824566,15.649098,8.636907,19.273909,27.076691,29.960003,23.723829,32.175484,36.280775,36.987879,35.683958,43.970431,45.064216,44.058857,25.588474,49.040279,72.097778,90.774078,55.522041,86.749191,103.056221,114.719124,48.15588,83.110542,102.912827,116.727333,39.471531,72.074833,90.8955,103.76152,30.402489,55.870399,70.878067,83.567276,-14.823063,-17.286657,-14.280586,-17.700447,13.679569,26.877608,34.008731,39.201076,30.455365,42.040113,47.705713,50.746797,42.666447,54.788918,59.296204,60.346825,51.304033,63.650225,67.595397,68.573647,-20.048647,311.369969,-77.762804,289.654881
15,1.55405,-4.826968,0.11198,-0.059836,3.790226,10.340252,21.359539,28.003979,-4.179153,23.6059,41.894932,54.001865,-10.703888,17.798824,41.019688,59.526272,-14.039497,8.665123,29.071484,45.365925,-14.342308,-4.334164,6.453552,16.830425,-16.553186,-25.5396,-30.598008,-32.303431,-5.090827,6.83929,13.824065,21.135314,13.568665,24.884305,32.923838,35.513403,27.607683,36.335857,42.576971,44.824809,38.770367,46.776369,47.669589,48.090356,25.31805,48.747826,71.683846,90.24931,54.755974,86.297321,102.929363,114.927464,47.404175,82.634869,102.722225,116.705875,38.810978,71.604881,90.676861,103.661098,29.919376,55.473347,70.551796,83.235111,-15.008005,-17.388299,-14.301766,-17.516863,13.791522,27.122695,34.247087,39.542247,30.566207,42.244321,47.989024,51.276245,42.774819,54.862771,59.362956,60.585923,51.299958,63.668874,67.550752,68.435944,-18.570013,306.549716,-77.72624,289.60176
16,-4.435329,-0.839744,0.306358,-0.057057,3.625717,13.76049,27.88147,38.142815,0.49284,27.417984,45.465775,59.096832,-6.467686,21.732559,45.083885,64.386177,-10.569992,12.429543,32.831726,49.858131,-11.339722,-2.348442,6.112175,15.273914,-16.359413,-25.021699,-30.383117,-31.39712,-5.603912,5.762734,11.791118,19.3138,12.828031,24.166209,32.288117,35.988758,26.986412,35.872667,42.255683,44.498829,37.958719,46.48676,48.409544,48.831917,25.204868,48.639736,71.490383,89.915142,54.536076,86.035137,102.73859,114.88306,47.079678,82.179508,102.192936,116.187115,38.462963,71.256237,90.115528,102.97308,29.590302,55.254478,70.243206,82.819462,-14.897163,-17.386817,-14.335543,-17.345135,13.645791,26.80431,34.137295,39.628821,30.536073,42.3367,48.258688,51.610562,42.795135,54.951877,59.548578,60.779881,51.338984,63.808121,67.701917,68.555801,-23.040905,305.668569,-77.455444,289.503299
17,46.883469,-9.982942,0.430298,0.132146,0.13607,-7.29641,-21.63311,-34.597492,-41.395741,-29.707088,-5.769081,9.898682,-54.622421,-38.326893,-12.224922,9.756546,-62.15498,-49.427605,-22.139969,-0.398712,-65.979652,-71.741581,-62.575035,-50.9305,-15.773896,-24.680713,-24.54653,-21.832908,-0.060454,21.601714,29.291308,32.922232,19.764269,36.162029,42.695223,45.936378,33.674599,45.504805,49.40317,52.751092,45.545684,56.346201,57.439245,58.121711,25.208817,48.683167,71.637783,90.092411,54.444408,86.03754,102.804966,114.966145,46.769085,81.997318,102.005939,115.854778,37.956905,70.774269,89.668179,102.479496,28.905373,54.632492,69.691601,82.283306,-14.92526,-17.5612,-14.732846,-17.82722,13.396381,26.655986,34.038618,39.54731,30.23084,42.177013,48.249178,51.656381,42.436859,54.720313,59.429955,60.806742,50.966444,63.4793,67.383161,68.334797,23.826885,295.657684,-77.040825,289.607503
18,-65.113335,13.157284,-0.18362,-0.131467,13.284702,27.714615,39.140854,44.363823,18.390884,49.377136,67.20314,77.792702,9.819317,43.546486,63.910217,79.755592,3.22237,33.922291,54.708366,70.267181,-2.458878,19.782829,36.256542,49.29348,-25.168233,-36.483564,-40.535132,-40.793989,-10.344059,3.383367,10.048336,15.224688,8.900643,22.523833,27.964168,30.823891,24.129035,34.22813,37.037774,39.011749,35.466905,45.579646,45.939713,43.145569,25.447884,49.032154,71.988373,90.451355,54.245567,85.86113,102.720566,114.971237,46.481495,81.862564,102.055893,115.960236,37.544346,70.66555,89.922867,102.922096,28.347588,54.425983,69.681244,82.296295,-15.112858,-17.632027,-14.584892,-17.770472,12.785855,26.550516,33.849723,39.204163,29.697687,42.092724,48.199408,51.63483,42.063763,54.736244,59.517579,61.003047,50.640463,63.411992,67.415086,68.509983,-41.289082,308.789187,-77.227077,289.450255
19,66.455612,-13.753855,0.041199,-0.139618,-0.564766,-8.874435,-24.057999,-37.383156,-42.883759,-31.179028,-7.191582,8.967476,-55.430889,-38.930397,-12.579346,9.663849,-62.58934,-49.825401,-22.703247,-0.94574,-66.105537,-72.578773,-65.34977,-55.358219,-15.793903,-24.816256,-25.111793,-23.340853,0.216867,21.687177,29.188246,32.883947,20.087656,36.282998,42.52084,45.674371,34.294079,45.940948,49.588545,53.003651,46.61378,57.579542,59.155721,60.605745,25.403252,48.942947,71.974869,90.42778,54.658012,85.865822,102.769318,115.315475,47.023888,81.793213,101.945572,116.085434,38.074379,70.639343,89.758415,102.951508,28.64748,54.69389,69.753685,82.308083,-14.902103,-17.485864,-14.502825,-17.495559,12.839763,26.672782,34.189906,39.661919,29.413018,41.804164,48.195394,51.778091,41.637006,54.346785,59.515479,61.234302,50.367279,63.20871,67.437748,68.716229,25.151739,295.077153,-77.20067,289.352458
20,-61.855087,12.681497,0.059395,-0.346296,12.806282,25.097923,35.116081,39.515533,14.37521,45.158615,63.538284,74.524841,4.96027,38.408432,59.322395,76.346855,-2.185707,27.812061,49.068604,65.737953,-8.08033,12.352867,28.079395,41.366844,-24.272234,-34.867123,-39.044353,-39.591771,-8.88539,5.654732,12.381637,17.331118,10.281752,24.522385,29.962041,32.232357,25.354163,36.022535,38.792906,40.415459,36.066316,46.980207,47.69503,44.572744,25.437698,49.00898,72.080727,90.546227,54.545631,85.690269,102.611275,115.021133,46.839066,81.569252,101.745186,115.739708,37.815056,70.360336,89.445992,102.557602,28.411789,54.463577,69.6702,82.231522,-14.705428,-17.073804,-14.122566,-17.232193,13.308511,27.080211,34.452654,39.764425,29.846753,42.224005,48.490808,52.010273,41.9825,54.684559,59.710055,61.408376,50.496955,63.402668,67.531733,68.712524,-36.715336,307.742564,-77.153263,288.990076
21,72.655106,-13.049282,0.044403,0.530683,-4.203987,-15.982704,-33.753433,-47.695942,-51.298542,-44.111423,-20.099258,-3.396263,-63.567982,-51.327209,-25.190048,-2.341232,-69.682732,-61.616421,-34.727325,-12.366142,-72.216511,-83.102303,-76.924438,-66.996346,-13.60695,-21.537679,-21.047813,-17.788071,1.811757,23.073721,31.461464,35.940901,20.149777,35.506302,43.392941,48.392378,33.114152,44.01946,49.591015,54.553401,44.241762,53.960906,56.595611,59.63614,25.581379,49.048233,71.981449,90.527,53.831806,85.382767,102.458611,114.969521,46.194305,81.422195,101.756172,116.00853,37.592411,70.47123,89.649467,102.800102,28.833618,54.71632,69.862576,82.430305,-14.886542,-17.556507,-14.553708,-17.331303,13.124309,26.86711,34.182743,39.511063,29.819027,41.934643,48.053738,51.55406,41.956873,54.369509,59.169492,60.587466,50.38636,63.061435,67.037729,67.9638,35.934935,294.712239,-77.113695,289.539716
22,-60.158443,2.583699,0.363464,-0.234528,11.316319,18.318844,21.968822,21.679974,-0.16983,27.315273,46.606236,57.779789,-8.973141,22.698498,45.691166,63.631954,-15.244904,13.578415,37.248058,54.150295,-19.595661,-0.94202,15.125713,27.236881,-18.090895,-22.835488,-22.272509,-21.01453,2.277849,21.708543,28.364002,32.429958,18.956759,36.03575,42.792171,45.699936,31.965101,46.424083,50.105025,52.565162,41.670166,55.917283,57.687605,56.340026,25.570736,49.064598,72.129707,90.622215,53.96553,85.300713,102.37484,115.014496,46.351948,81.405945,101.676636,115.968704,37.569466,70.289669,89.378586,102.607727,28.493385,54.299698,69.416714,82.093849,-14.718334,-17.309937,-14.348634,-17.449184,13.335063,26.850067,34.068443,39.342361,29.904922,41.998925,48.15223,51.617169,41.926924,54.470532,59.335909,60.827182,50.365056,63.213588,67.291029,68.330598,-24.234724,297.288158,-76.761446,289.297407
23,45.522823,-4.822275,-0.056763,0.205135,1.482925,-5.92598,-18.723106,-30.697803,-38.055325,-25.751953,-3.082581,11.577873,-50.545864,-34.410324,-8.996658,11.81591,-57.877293,-45.245304,-18.58429,1.99276,-61.226063,-63.551502,-50.798035,-36.93552,-13.693401,-21.606407,-21.884037,-18.652144,3.11889,24.671204,32.444037,35.745461,21.530146,38.702935,45.627318,48.750901,34.739732,47.708801,52.128216,55.600256,45.771628,57.719222,58.605031,58.741006,25.596828,49.200783,72.262802,90.871811,53.385429,85.159378,102.567101,115.375557,45.73431,81.092834,101.495018,115.721855,37.205429,70.176773,89.368973,102.455521,28.578529,54.438343,69.591408,82.173386,-14.602367,-17.544959,-14.860854,-17.791158,13.170622,26.89922,34.256844,39.688534,29.839343,42.017389,48.247202,51.856329,41.929271,54.371917,59.149855,60.573326,50.296884,62.995547,67.073545,68.06433,21.262522,292.481552,-76.843786,289.518211
24,-35.029564,11.144591,0.358486,0.017722,5.105209,8.563499,12.34108,14.142265,-10.434437,16.773148,36.510315,47.572517,-19.289932,9.221992,31.97216,49.541588,-23.627758,1.755466,24.894562,42.091484,-25.675507,-9.036884,7.172127,20.045586,-20.608521,-28.353937,-29.417155,-26.728419,-5.555932,8.885823,16.820195,23.371049,13.609976,25.931468,33.066728,37.273907,28.095017,37.343994,40.59787,42.628347,38.465999,48.046699,48.279436,46.159544,25.470314,48.879032,71.873016,90.462742,52.985229,84.776745,102.162952,114.955959,45.341206,80.795803,101.306362,115.610447,36.801567,69.847012,89.092655,102.262402,28.192062,54.009533,69.18148,81.875324,-14.699315,-17.663829,-15.008191,-17.894652,13.356305,26.919722,34.113892,39.440297,30.018296,42.159168,48.301049,51.808719,41.988428,54.533086,59.203763,60.52868,50.190488,62.997153,67.116646,68.146705,-13.77285,303.611292,-76.491108,289.521083
25,-9.119225,8.042374,0.325584,-0.068172,6.553574,12.646523,24.133186,34.130058,2.889748,30.376053,48.384705,60.467834,-4.646873,22.149239,44.209328,62.375221,-9.321613,13.789673,33.202629,48.71521,-11.917591,0.12022,14.096661,27.293816,-19.072541,-30.792769,-38.304336,-46.491576,-10.019684,-3.205464,2.326385,8.064851,8.219042,18.087498,22.864387,25.54948,23.075326,32.159059,34.500758,35.356927,34.281235,43.893181,46.5792,46.798229,24.912472,48.349743,71.302814,89.330349,54.601307,85.592022,102.399044,114.70396,46.602917,81.243153,101.108265,114.957905,37.330914,69.711285,88.488178,101.454334,27.642117,53.570995,68.712101,81.452923,-15.017144,-17.762259,-15.110141,-18.334253,13.505556,27.436079,35.099799,40.686914,29.921286,42.108964,48.515137,52.054239,41.75921,54.270893,59.120585,60.579809,50.08119,62.659687,66.678959,67.74261,-22.890244,311.652971,-76.163692,289.452216
26,64.03862,-16.655568,-0.220242,-0.798989,-5.14492,-19.565048,-39.552727,-57.483845,-59.94421,-51.180038,-25.84877,-9.432335,-71.50835,-56.585026,-28.720779,-6.334076,-75.528088,-64.224644,-36.886024,-15.074844,-75.795135,-77.257805,-62.372475,-47.58007,-12.622278,-20.083333,-18.300414,-11.955991,-1.612736,20.226594,30.899597,36.746312,16.252461,31.806402,42.635325,49.289673,30.058866,41.954341,49.508887,54.819299,41.846525,53.761452,55.851951,57.559041,25.419159,49.025288,71.81694,89.777756,54.920597,85.572281,102.362595,114.906921,46.847591,81.046143,100.848427,114.681473,37.302303,69.291058,88.147545,101.218758,27.194366,53.12336,68.484192,81.360168,-14.166409,-16.583938,-13.932931,-17.291906,14.106449,27.93953,35.477773,41.110275,30.299692,42.73462,49.355314,53.251579,42.097602,54.860795,59.966628,61.774186,50.57402,63.532467,67.498758,68.470586,41.146889,294.99677,-76.385422,288.652594
27,-19.484367,1.687021,-0.179214,0.35488,0.339661,-9.910011,-23.134003,-34.768238,-45.450897,-27.541466,-5.939827,9.531441,-53.013496,-30.165081,-4.945679,15.627365,-53.566933,-34.433727,-9.226341,10.059471,-51.060219,-40.479755,-22.802925,-8.44265,-15.461315,-19.819536,-15.965754,-10.088412,4.649374,23.906487,30.735218,33.808845,19.7978,35.126969,43.243999,47.440804,30.77375,43.750537,48.961655,51.549367,39.054419,52.621046,54.472261,54.275401,25.14513,48.800068,71.772766,89.812202,54.92878,86.056252,102.987328,115.449142,47.056503,81.649246,101.658669,115.640373,37.916508,70.092602,88.948288,101.893959,28.374081,54.27475,69.451447,82.13562,-14.807872,-17.324943,-14.636021,-17.801224,14.067361,27.676535,35.156547,40.739526,30.449499,42.410924,48.727559,52.361385,42.284274,54.728526,59.518135,60.9245,50.618418,63.207722,67.160921,68.098416,21.657629,296.656497,-76.569529,288.98018
28,12.80262,-0.713279,-0.142708,-0.566745,-0.531464,-12.615738,-30.76046,-47.644787,-53.489571,-40.690613,-16.137543,-0.009613,-65.32156,-48.836918,-21.070976,1.128502,-70.36377,-57.190361,-29.300537,-7.637787,-71.338577,-69.318695,-52.509956,-36.634483,-14.331283,-24.886651,-26.337045,-24.138977,-2.812608,19.026475,27.97658,32.031853,16.91492,33.097418,41.982932,46.407287,32.226737,44.131599,49.726928,52.934614,45.079715,56.962779,57.311237,56.045971,25.708008,49.517899,72.316017,90.19146,54.428902,85.128021,102.172279,114.938965,46.513767,80.866814,101.308136,115.762482,37.387333,69.381695,88.756256,102.22435,27.833576,53.129196,68.400135,81.270447,-14.15832,-16.269937,-13.585091,-17.279247,15.08896,29.030289,36.055448,40.934533,31.189207,43.787032,49.877475,53.089114,42.746105,55.770132,60.526272,61.773815,50.824912,63.979664,68.324608,69.58444,34.440565,295.91222,-76.73192,288.382436
29,-13.688622,3.481426,0.121822,-2.041469,1.097488,-6.151085,-19.285011,-30.902824,-43.937759,-26.008873,-6.784744,5.822525,-52.652264,-32.405319,-9.392166,9.486008,-54.364986,-39.751339,-16.247749,2.0541,-52.270603,-50.001011,-40.578918,-31.320305,-11.893253,-14.253477,-8.465673,-0.686109,3.349157,24.080623,32.34147,38.058446,16.343296,32.656891,42.261611,49.222118,25.802904,39.030583,45.922979,51.372699,33.546035,45.306957,50.041422,53.692477,25.647755,49.583073,72.066479,89.645519,53.961239,83.337307,99.811649,112.638187,45.686817,77.864399,97.974758,112.29269,36.226273,66.496868,85.514317,98.771381,26.364269,50.995731,65.551586,77.627621,-13.899894,-15.736907,-12.422083,-14.950948,15.278287,32.954713,42.492002,49.526486,31.553164,48.238804,56.910785,62.16346,43.354841,59.368822,66.307963,69.589195,51.592284,65.864286,71.519451,74.519471,20.666943,299.310113,-76.695099,286.257435
30,15.430641,-3.698232,-1.247406,-7.731213,-9.765358,-22.585258,-41.071701,-59.264088,-57.063274,-52.080803,-32.044258,-16.929588,-67.349281,-58.396282,-36.670876,-16.471596,-70.424366,-66.489716,-47.19698,-28.380547,-69.812164,-75.23243,-66.241894,-53.606071,-9.076261,-11.040233,-3.983581,5.972809,8.308209,29.882259,41.490472,48.323649,22.292454,38.460874,50.398587,57.701129,32.463921,43.616168,53.073615,59.592112,40.443124,50.761123,53.14543,54.508015,27.305202,51.111374,71.779461,89.090595,49.620552,75.875645,90.573864,102.603436,38.138294,67.742214,86.558933,100.709324,26.850471,54.800606,72.915058,86.337605,16.598396,38.225327,52.346992,63.44696,-11.604446,-10.220681,-4.98789,-6.183501,15.857135,40.912427,54.126768,64.422167,32.113487,58.590335,71.914159,79.886199,44.138515,69.533249,80.136968,85.648254,51.561347,71.624982,79.608755,83.430611,35.903206,295.619924,-78.136883,278.534264
31,7.228431,-5.711697,-1.021957,-11.690217,-13.501911,-33.070621,-55.536689,-75.892295,-64.413385,-78.393888,-74.916315,-68.848571,-71.279697,-87.189588,-80.886211,-69.114704,-71.60923,-87.328577,-80.338039,-70.142154,-68.83275,-84.247856,-82.058744,-75.935039,12.108052,20.781113,30.514368,40.247035,28.535421,42.468321,46.621685,48.131081,26.538197,30.894318,34.318625,35.968318,21.387749,20.271178,22.329752,24.716127,14.635404,13.404965,14.996396,17.788657,27.799072,53.055553,71.991177,88.537846,44.998055,68.879814,80.977535,90.508289,29.803905,55.930824,71.432819,83.789692,15.560131,38.709641,53.941269,65.952187,3.566437,21.504536,32.855129,41.464119,-8.363538,-1.98472,8.31883,9.382728,13.871613,42.215052,58.0804,70.731392,26.747438,57.493586,75.048857,87.028931,36.849744,65.581716,79.431778,88.107093,43.719724,64.971869,75.042312,80.63165,42.694587,290.125542,-79.59589,267.061362
32,7.228432,-5.711697,-19.193974,-28.568828,-17.238464,-43.555984,-70.001678,-92.520504,-71.763496,-104.706974,-117.788372,-120.767555,-75.210114,-115.982895,-125.101547,-121.757812,-72.794094,-108.167439,-113.479099,-111.903763,-67.853336,-93.263283,-97.875595,-98.264008,33.292364,52.602459,65.012316,74.521262,48.762633,55.054383,51.752897,47.938512,30.783939,23.327762,18.238663,14.235508,10.311578,-3.073812,-8.414111,-10.159857,-11.172317,-23.951194,-23.152638,-18.9307,42.657566,69.716148,82.669659,87.351723,69.461117,88.429184,84.347248,74.23193,53.517952,74.695473,70.859299,59.608669,38.858356,58.905716,55.834408,46.677017,24.441891,42.382736,45.641727,42.305717,5.158938,20.905664,38.671628,54.684004,50.25335,86.947544,98.38971,99.926925,56.794509,93.649255,103.030562,101.087956,59.06007,90.156651,98.584594,97.320811,58.351052,81.63775,89.261456,89.12474,49.270592,284.897984,-99.442291,238.976672
33,7.662048,0.240147,-39.311428,-45.738345,-30.34481,-59.178886,-82.976646,-96.996803,-72.689724,-105.102882,-119.73175,-128.841591,-65.664425,-102.305202,-120.86483,-131.628971,-55.633965,-88.537617,-106.544552,-118.216381,-44.582062,-68.111229,-82.032394,-92.878761,-17.213915,-18.379022,-5.904698,7.636426,11.590305,26.381814,33.401107,38.234682,30.03293,46.545176,52.817227,56.626919,42.981868,58.996776,64.497564,67.814055,51.662618,65.278769,69.798775,72.395319,33.327656,60.153637,75.409698,83.317909,53.151512,76.954479,90.843086,102.770061,36.631622,61.235104,74.737988,85.158749,22.023582,44.860725,59.103184,71.48283,10.683517,30.288792,41.529121,52.192326,-6.430503,1.960205,16.182807,30.898733,2.85608,24.331947,37.068155,47.501628,13.059039,46.835217,67.12171,80.966584,24.065618,56.575295,73.850529,84.530571,34.679772,58.851045,69.667926,76.659184,56.556015,286.023431,-139.130344,194.123628
34,1.775436,-0.899457,-19.412041,-43.833159,-30.119934,-56.084862,-79.630165,-96.307526,-69.761353,-101.667767,-117.27253,-128.695221,-64.010124,-98.929768,-117.725258,-131.637039,-55.797272,-87.039928,-104.290695,-116.96434,-45.914268,-69.523315,-83.042393,-95.013657,-15.535477,-15.584939,-2.675707,8.412876,12.913555,27.378959,34.019475,38.550782,30.414548,44.913915,51.28699,55.950813,43.089437,58.521359,65.273643,69.490764,51.471562,65.571774,71.368039,74.741093,28.291111,51.000652,64.134636,66.203041,33.665428,54.706421,65.322361,71.025066,17.762947,45.927486,59.371548,63.193245,6.651878,35.464611,50.356064,57.230244,-0.142822,26.739178,39.591579,46.963806,-13.958989,-10.653737,5.398406,21.082826,-17.841547,12.722005,26.855069,34.400537,-6.567959,30.592945,46.534246,54.598047,7.889541,40.188465,52.421283,57.803264,22.886432,46.569938,52.849708,55.228766,58.084259,286.769299,-158.789577,151.935793
35,-1.959114,1.247173,-6.885853,-15.550853,-29.728432,-55.645866,-79.639549,-95.742874,-67.844009,-100.926819,-116.707649,-127.944775,-61.441612,-97.387848,-115.833549,-129.544086,-52.980652,-85.096149,-102.236996,-114.728336,-43.210945,-67.055798,-80.343647,-91.804276,-16.550778,-16.706327,-4.153086,8.103692,13.036932,26.37817,32.717344,36.829736,31.198902,43.588813,49.39786,53.778187,44.015632,56.8993,62.314564,65.547445,51.884302,64.368876,68.89864,71.278686,23.626556,40.372982,45.42263,41.529121,24.020634,20.391026,16.961002,14.257393,1.694984,7.193356,17.158928,21.755505,-15.70467,-8.914833,-0.271969,3.158741,-29.844074,-25.178547,-15.513554,-10.14925,-4.088989,-13.475453,-15.559406,-17.26807,-53.164388,-65.013304,-75.063739,-85.56171,-56.489339,-39.441439,-22.962199,-14.779374,-48.301111,-31.040234,-18.742609,-13.461312,-35.621559,-23.968052,-15.672471,-13.499134,55.321541,288.15998,-166.479034,136.528447
36,-0.057907,0.118993,-19.150658,-43.218249,-29.476089,-55.473633,-79.630451,-97.265968,-66.466999,-100.178146,-116.381321,-128.238258,-59.920921,-96.812553,-115.781422,-130.150051,-51.4468,-84.602108,-102.408257,-115.284348,-42.331123,-67.292862,-81.009293,-92.402229,-17.398796,-16.821862,-3.640619,7.465316,11.759995,25.311864,31.790841,36.484552,30.044231,42.250558,47.855458,52.465991,43.264623,56.13273,61.482045,65.096729,51.745672,64.153368,68.288793,70.758994,24.274178,31.025162,24.163284,16.642342,18.603344,12.823334,9.725819,7.608604,0.511665,-5.022469,0.965137,6.115379,-14.858036,-19.204903,-12.288952,-7.40736,-27.343597,-31.655045,-25.561638,-20.408306,-17.874552,-39.171744,-53.562925,-61.31359,-58.223167,-83.541546,-96.14465,-104.064944,-55.569504,-71.963096,-62.024337,-52.461328,-47.650354,-61.466885,-52.170885,-42.842806,-37.379068,-51.544088,-43.787804,-35.490277,53.55855,288.239021,-187.334776,93.270246
37,0.763092,0.961145,-20.49963,-43.903493,-28.961906,-54.989777,-79.671364,-97.677383,-65.851765,-100.156689,-116.825638,-128.965759,-59.500809,-96.995659,-116.106262,-130.064163,-51.181068,-85.029774,-103.052387,-115.434437,-42.26429,-68.141956,-82.012081,-92.730675,-18.127142,-17.78912,-5.034326,6.11045,9.588666,23.001658,30.096719,35.453011,27.904579,40.796768,46.65787,51.18856,41.224699,54.691475,60.101182,63.613545,49.651407,62.472768,66.2493,68.344491,22.1311,27.285004,18.027077,6.952744,14.865704,9.473934,5.172558,1.756439,-2.698174,-8.06076,0.293598,7.064152,-17.250767,-20.97044,-12.363167,-5.956821,-29.019756,-34.650135,-27.718964,-21.957607,-19.527178,-44.115266,-60.61192,-67.902698,-75.645613,-103.421504,-116.072527,-125.237554,-73.340162,-81.476365,-64.51927,-52.511346,-66.00449,-69.113685,-53.447637,-43.250483,-56.182717,-63.719139,-52.11108,-43.089098,52.07139,290.286217,-210.084658,50.452804
38,-0.133553,-0.210631,-14.487419,-51.270132,-29.020386,-54.45488,-78.411598,-96.173229,-66.109428,-99.139996,-115.603065,-127.715206,-60.10437,-95.846157,-114.622478,-128.655281,-52.043037,-84.2486,-101.915245,-114.287109,-43.001633,-67.4259,-80.871677,-91.81509,-17.698224,-17.708289,-5.616262,4.703776,9.433857,22.818197,29.717324,34.40171,27.528581,40.210757,46.154357,50.57791,40.814614,53.839999,59.401859,62.913913,49.295786,61.64556,65.99495,68.383826,19.478874,21.176662,7.416344,-6.02108,4.979782,-3.401814,-9.799061,-14.246235,-14.23708,-12.519035,-3.792801,1.565552,-28.58202,-25.383396,-15.829468,-10.156231,-39.138165,-37.261448,-29.271297,-24.436054,-19.981291,-45.153167,-60.472395,-68.041945,-75.862944,-104.892646,-117.074119,-123.858915,-73.941827,-76.949442,-63.202936,-52.667266,-66.431711,-63.749427,-52.905159,-45.885404,-57.176435,-58.438398,-49.610651,-43.035004,49.262381,291.817102,-227.247534,0.924188
39,-1.744766,0.500425,-14.757957,-42.485982,-28.086433,-52.903976,-76.515141,-94.645443,-64.742546,-98.236656,-114.859428,-126.920815,-58.66642,-94.804802,-113.432236,-127.20623,-50.626945,-83.265266,-100.97311,-113.50256,-41.477394,-66.466999,-80.051994,-91.151505,-17.748859,-18.042544,-6.491142,3.373487,9.039272,22.518214,29.404002,34.202689,26.975544,39.684829,45.647016,50.261933,40.153946,52.96796,58.786392,62.864328,48.641788,60.836074,65.330269,67.978744,17.621841,15.01276,2.216034,-8.204784,0.603561,-12.842331,-20.753117,-25.684605,-17.493725,-24.541798,-16.176052,-7.58709,-30.686703,-35.088501,-25.915947,-18.238792,-40.166988,-44.556999,-37.571583,-30.972633,-27.399924,-53.582716,-69.622262,-75.835249,-69.913106,-99.375386,-111.885571,-117.68111,-64.948589,-79.425726,-71.967018,-63.899697,-56.460501,-67.913597,-62.009825,-54.369725,-47.361393,-59.537617,-54.77138,-47.670083,43.376312,293.986039,-246.146793,-39.893282
40,-0.572777,-0.033407,-11.532726,-34.546638,-27.915459,-52.630119,-76.189785,-94.358997,-64.559326,-97.467213,-113.950081,-126.173458,-58.931007,-94.635029,-113.403168,-127.444782,-51.047974,-83.4268,-101.346588,-114.079914,-41.963196,-66.897411,-80.618076,-91.840668,-18.353149,-18.36062,-6.564686,2.738693,8.642896,21.686498,28.530049,33.502871,26.441835,38.765982,44.705816,49.297515,39.684149,52.22714,57.951959,61.89781,48.346682,60.300018,64.605442,67.100468,12.061615,4.742317,-10.330811,-20.971928,-11.14912,-27.095661,-36.797676,-43.840313,-27.253647,-33.524437,-24.123001,-15.271282,-38.812981,-41.931038,-32.003746,-23.58902,-47.419224,-52.018089,-44.801216,-37.76247,-28.306481,-52.283148,-65.768172,-71.506838,-70.355533,-96.225065,-106.994074,-111.759601,-63.580802,-77.232722,-69.965162,-62.563094,-54.013595,-64.131168,-57.675163,-50.306795,-44.152316,-55.409339,-51.181428,-44.682166,38.821764,297.197107,-261.661291,-71.195446
41,-0.821228,-0.217114,-10.407772,-25.263143,-27.450714,-51.996002,-75.429897,-93.198051,-63.880806,-97.201481,-113.713989,-125.871048,-58.524742,-94.454155,-113.23328,-127.336693,-50.74688,-83.521557,-101.460686,-114.309425,-41.766472,-67.122002,-81.037731,-92.470951,-18.565323,-18.604411,-6.655212,2.68145,7.985131,20.707815,27.540313,32.816701,25.956353,37.699429,43.396646,47.839588,39.359095,51.312184,56.83298,60.655762,48.162604,59.612921,63.457193,65.571651,4.482994,-4.832954,-24.733143,-42.329807,-16.947098,-35.418205,-48.157196,-57.856636,-30.936184,-45.914841,-33.082695,-20.521088,-41.139164,-52.550583,-38.04245,-25.942154,-48.022556,-59.451313,-49.39167,-38.997288,-18.971363,-36.749307,-44.086846,-50.00871,-70.7338,-86.922288,-93.211568,-97.085866,-63.836295,-58.932262,-45.103674,-44.376069,-53.464047,-46.645181,-35.527235,-36.452781,-42.454952,-40.097584,-32.816284,-32.200802,37.40839,298.871701,-272.661209,-94.566881
42,-0.436478,-0.367724,-7.800236,-4.129621,-26.896248,-51.70681,-75.349617,-93.33189,-63.543148,-96.905136,-113.389263,-125.718899,-58.1036,-94.661865,-113.800678,-128.568821,-50.290604,-84.004612,-102.357216,-115.812092,-41.344986,-67.73695,-82.172928,-94.131031,-18.738101,-19.239329,-7.733683,1.262611,7.883675,20.045233,26.413986,31.425896,25.826245,36.526851,41.86468,46.25569,39.276164,50.322695,55.428158,59.141395,48.270915,59.052413,62.390023,64.310399,2.89444,-9.244308,-32.304211,-53.802967,-14.63356,-39.766502,-53.773384,-66.891689,-27.757473,-51.301289,-37.54343,-26.420689,-37.567463,-55.41235,-39.494591,-28.544655,-44.046078,-56.924858,-46.092052,-36.253281,-20.313663,-36.468049,-43.328844,-46.335796,-73.53537,-82.032613,-84.129348,-89.304171,-65.734888,-62.975463,-47.121122,-49.497494,-56.018677,-50.688567,-39.50745,-43.819806,-45.792932,-42.349945,-35.954641,-38.55475,35.247173,299.720707,-282.186184,-97.479772
43,-1.609497,0.682774,-0.533924,-7.949532,-26.204796,-50.609436,-74.459896,-92.224388,-62.134209,-96.480331,-113.178406,-125.502834,-57.120552,-94.528713,-113.646927,-127.970123,-49.642868,-83.660774,-101.871758,-114.985943,-41.129494,-67.8162,-82.181454,-93.671951,-19.569076,-20.530159,-9.09281,0.731434,6.569688,18.307145,24.551223,29.631738,25.006138,35.476785,40.230702,44.272143,38.56906,49.427438,54.122569,57.706378,47.392638,57.765967,60.758206,62.574965,3.724766,-6.215286,-27.906761,-48.932419,-19.810696,-42.588329,-51.420994,-53.571911,-35.005875,-57.100983,-56.542625,-50.460835,-45.155182,-63.542461,-57.663689,-48.208866,-49.969826,-63.662567,-58.95195,-49.533463,-14.315258,-24.019011,-27.129225,-29.592851,-60.085003,-65.950675,-55.220507,-46.764251,-55.745401,-60.794917,-46.895887,-40.393229,-48.225142,-47.500455,-35.657976,-32.495938,-38.160797,-35.371547,-28.624403,-26.916387,31.356497,301.241929,-285.001287,-104.590856
44,-0.094299,-0.145731,-5.594387,-2.500274,-26.190834,-50.351257,-74.317989,-92.188625,-62.410984,-96.461449,-113.382168,-126.099758,-57.461929,-94.421883,-113.642807,-128.177834,-50.105209,-83.931999,-102.302055,-115.482559,-41.688652,-68.34898,-82.604256,-93.929787,-19.567841,-21.087519,-10.406735,-1.21883,5.838872,17.017426,23.068163,28.153927,24.213325,34.317606,39.100176,43.011014,37.904564,48.44857,53.183901,56.769439,46.949703,57.22281,59.964343,61.529469,12.787743,13.214893,-2.805691,-21.070518,-12.903099,-31.660137,-34.302292,-31.372948,-29.323254,-47.6017,-45.696888,-38.636341,-41.804523,-56.999588,-53.99025,-45.887604,-49.920788,-61.286373,-58.432045,-51.048489,-2.877137,-8.812864,-5.703392,-2.165433,-42.85863,-40.681372,-22.929132,-9.554857,-43.00663,-38.742934,-18.69787,-7.327366,-37.133904,-33.025016,-15.528824,-6.274151,-28.268088,-22.946237,-10.765289,-4.553692,27.838011,302.117457,-294.019861,-106.069871
45,0.575066,1.023945,5.605917,2.888298,-25.929909,-50.23407,-74.07692,-91.81675,-62.126999,-96.416588,-113.580894,-126.43095,-57.687149,-94.706497,-114.432507,-129.568977,-50.578651,-84.424496,-103.346615,-117.183037,-41.828156,-67.837887,-82.330742,-94.126167,-20.166882,-22.154689,-11.368004,-2.666136,4.59034,15.309162,20.945246,25.535463,22.912429,32.140101,36.79423,40.935151,36.449724,46.110823,51.121128,55.231421,45.404831,55.361035,58.807758,61.056461,18.580141,23.634424,17.667761,7.369537,5.247488,-2.200642,-1.87829,1.004906,-12.855377,-17.913036,-14.081068,-9.97942,-27.710009,-31.42765,-25.24601,-18.859234,-38.250961,-38.904962,-32.310648,-25.833406,5.539568,13.965489,29.309355,40.231629,-7.481085,14.507357,30.623666,40.938193,-8.239481,18.031329,34.330096,41.172875,-4.363399,18.821464,28.232281,29.139819,0.857629,18.674236,24.886898,24.385007,26.079712,301.903121,-290.747309,-104.419855
46,0.304413,-0.135604,5.605917,2.888299,-25.305176,-49.795647,-73.494186,-91.735325,-62.028637,-96.300373,-113.399448,-126.01347,-57.66964,-94.599438,-114.08123,-129.228344,-50.560799,-84.557247,-103.342724,-117.237797,-41.695747,-67.807045,-82.35569,-94.403343,-19.988547,-21.688968,-10.9791,-2.829466,4.739962,15.356092,20.799762,24.931667,22.972635,31.940154,36.349442,40.161109,36.365373,45.621143,50.371849,54.229335,45.041059,54.623056,58.295415,60.798838,24.37254,34.053955,38.141212,35.809593,23.398075,27.258854,30.545712,33.382759,3.612499,11.775627,17.534752,18.677502,-13.615494,-5.855713,3.49823,8.169136,-26.581135,-16.523552,-6.189251,-0.618324,13.956272,36.743842,64.322101,82.628689,27.896459,69.696084,84.176463,91.431242,26.527668,74.805591,87.358061,89.673115,28.407104,70.667943,71.993385,64.553788,29.983345,60.294708,60.539085,53.323704,24.127979,300.726436,-287.397537,-102.572637
47,0.686417,0.821836,8.170223,40.203161,-25.114059,-49.68647,-73.421059,-91.299419,-62.269821,-96.249962,-113.543987,-126.053524,-58.115158,-94.68401,-114.140568,-129.087868,-51.169968,-84.707279,-103.218155,-116.74799,-42.581635,-68.519154,-82.713604,-94.297199,-20.401101,-22.562613,-12.049173,-3.858474,3.396149,14.349869,19.914817,24.087107,21.536012,30.919296,35.607943,39.54589,35.219224,44.517663,49.265467,52.994389,44.499199,53.707483,57.159516,59.419519,25.804195,46.816635,59.373493,64.891376,33.730774,54.924488,64.005775,69.108753,22.299099,47.088661,56.145,60.721779,13.004723,40.76334,48.674469,51.072865,7.258244,31.420097,40.681801,45.908489,4.467056,23.131149,44.072689,60.090901,6.131816,33.15534,49.575824,60.775466,7.575016,35.021962,52.033552,61.238408,11.160492,37.263224,46.624216,49.531333,15.114772,36.755265,40.811063,39.474908,24.346504,300.717868,-279.695206,-63.199879
48,1.815147,-0.242864,38.357964,12.68338,-25.520668,-50.288315,-73.79385,-91.561718,-62.702808,-95.82304,-113.273792,-126.388206,-58.737373,-94.298744,-114.094162,-129.987888,-51.670761,-84.317894,-102.973251,-117.005482,-42.61322,-67.876282,-82.051964,-94.003944,-20.145207,-22.279055,-11.760675,-3.973269,3.877247,14.905191,20.262471,24.205173,21.558983,31.182229,36.185865,40.532291,34.991118,44.784054,49.910017,54.027103,44.199772,53.928302,58.083611,60.840149,37.921486,55.759506,60.938644,63.405418,52.244282,67.230492,75.659637,81.509628,33.364449,52.8685,57.673931,57.663403,15.774937,34.168453,40.937462,40.851173,0.20668,19.285069,25.490913,24.175472,10.839544,38.706301,68.549657,88.14084,46.851736,83.934124,102.74719,116.923849,56.041247,88.886661,84.888075,77.687576,62.157378,89.010996,81.48924,71.79143,65.605212,83.509219,77.545334,70.201635,24.950409,300.06952,-242.548485,-50.921983
49,-0.091782,1.380307,16.158543,5.013547,-25.555,-49.467888,-72.678738,-89.940262,-61.837692,-94.483509,-111.455727,-124.359112,-58.433418,-93.766479,-113.492947,-129.049358,-52.076683,-84.713402,-102.992821,-116.853333,-43.566399,-68.357277,-82.402325,-94.236145,-20.289271,-23.050811,-12.66081,-4.892979,3.308587,14.029138,19.525789,23.259836,21.322294,30.70706,35.345751,39.128766,34.984634,44.176862,48.941709,52.619317,44.479316,53.886991,57.607577,59.760505,37.890072,53.487968,54.36161,52.173615,55.097408,67.125721,78.011742,84.57201,37.798176,50.410252,57.752266,61.197681,21.112347,35.733376,41.464233,40.854378,7.376404,20.664253,26.124172,24.92918,16.595269,42.279087,65.666561,82.09038,59.522519,86.780725,103.968026,117.479078,68.104807,90.54503,89.438679,85.657424,72.648557,91.961523,84.977922,75.529862,73.998761,88.951561,84.11391,76.03427,22.76885,300.987718,-228.479719,-46.370546
50,0.595894,0.490051,12.172565,7.725471,-25.528908,-49.827232,-73.187199,-90.977039,-61.866188,-94.851093,-112.056084,-124.817333,-58.474731,-93.947239,-113.815212,-129.231148,-52.140198,-84.848957,-103.305759,-116.877708,-43.689194,-68.651905,-82.719383,-94.178867,-20.632233,-22.895818,-12.174402,-4.550326,3.098636,13.392429,18.992636,22.987641,21.269682,30.316735,34.920167,38.640197,34.978336,44.190262,48.847787,52.529408,44.411082,53.734282,57.234481,59.231242,37.782497,54.153843,57.386341,58.674202,58.801174,69.647484,78.426991,83.234711,42.842331,53.376217,57.016239,57.417927,26.531467,39.213009,42.108822,39.505234,12.094116,23.786716,26.908264,23.952999,17.063491,41.721357,65.610368,83.331996,60.27152,87.692902,104.331705,117.608013,69.128814,91.471904,86.93575,80.169726,73.975975,93.085998,85.139708,74.882131,75.851674,91.019829,85.666223,76.923631,20.904293,301.564899,-218.767605,-38.557945
51,-0.160675,-0.646959,9.308624,7.739889,-25.920525,-49.895325,-72.709007,-90.384235,-61.828709,-94.596462,-111.844654,-124.80526,-58.279724,-93.28125,-112.937164,-128.356476,-51.759796,-84.06023,-102.300339,-115.942955,-43.072815,-67.333889,-81.194229,-92.895126,-19.901108,-22.012231,-11.431483,-4.495615,3.650993,14.431936,20.212824,24.14262,21.508162,31.079353,35.989993,39.862608,35.068121,44.679881,49.748787,53.661293,44.460358,54.197287,58.131838,60.4045,38.138752,55.466251,59.093628,60.372391,61.320763,72.216969,78.400097,81.592026,44.258194,53.919868,54.669743,52.882862,26.251259,37.331085,38.369408,35.479145,10.15274,21.321259,23.537636,20.650406,13.709302,38.785465,64.223207,81.991271,59.724844,87.613306,102.092605,112.99782,70.476733,92.543058,86.053769,77.722372,75.517203,91.944727,82.670988,72.939803,76.591784,90.158133,82.579443,73.255286,19.427233,301.140473,-210.775366,-30.595523
52,-0.599098,-0.357905,2.695084,7.755327,-25.535889,-49.330444,-71.991348,-89.710121,-61.128731,-94.308186,-111.576176,-124.533634,-57.415695,-92.879562,-112.741413,-128.223209,-50.736237,-83.353043,-101.791477,-115.46545,-41.775513,-66.603298,-80.734692,-92.597694,-19.756427,-21.905465,-11.390296,-4.61609,4.413302,14.539999,20.414686,24.907523,22.184577,31.023839,35.987646,40.182722,35.602077,45.01605,50.294723,54.535617,44.634186,54.119481,58.045326,60.513304,35.265484,53.309555,58.694916,60.258522,60.150146,72.455978,78.768883,82.883549,43.574696,55.457668,54.42564,51.71545,25.916748,37.482204,36.931973,33.654327,9.316692,21.188622,21.785717,18.271122,10.376694,31.973838,54.120932,69.579778,53.429019,85.205318,99.644571,110.688787,64.351247,89.116033,80.149163,70.716541,70.104594,88.190765,78.489806,69.0528,72.462843,85.900936,78.357784,70.205124,18.564863,300.977143,-208.343554,-22.645621
53,-0.602989,-0.314742,1.597023,3.201913,-25.576859,-49.652367,-72.23156,-89.773636,-61.510162,-94.160042,-111.17157,-123.941631,-57.725372,-92.513866,-112.181339,-127.590065,-50.898743,-82.732029,-101.097164,-114.752426,-41.719322,-65.942345,-79.922733,-91.6749,-19.950076,-21.834513,-11.41938,-4.288628,5.233039,15.289032,20.982049,25.167554,22.864572,32.025801,37.048086,41.150042,35.992648,45.696602,51.042335,55.05395,44.644869,54.474114,58.681355,61.170514,34.646988,52.542171,57.231445,57.856121,58.187656,70.154171,76.228981,79.695454,41.124516,52.357235,51.62653,48.030109,22.893448,34.495811,34.438763,30.78701,5.711918,19.035702,19.940357,15.680752,10.484633,34.047325,59.188789,76.103307,50.252331,84.614614,100.108718,111.871276,60.162315,87.101426,77.483089,67.679779,65.819455,85.642171,75.283385,65.414465,68.691899,83.056465,75.175476,67.301157,17.713909,301.056924,-206.994495,-19.049184
54,0.330505,0.127453,1.172047,0.271794,-25.943985,-50.101662,-72.74477,-90.262127,-61.715469,-94.116383,-111.264954,-124.285812,-58.000946,-92.42672,-112.259331,-127.990952,-51.150398,-82.687225,-101.103973,-115.007114,-41.858025,-65.693951,-79.650478,-91.547413,-19.85214,-21.786225,-11.266733,-4.042738,4.711001,15.396045,21.190765,25.372565,22.341793,32.20778,37.333867,41.439405,35.509821,45.785646,51.515466,55.774145,44.277948,54.597306,59.20401,61.910778,33.684254,51.601295,56.374741,56.316147,56.747246,68.242779,74.126072,77.851982,39.250832,50.684967,49.778709,45.977783,21.067429,33.103695,33.067703,29.232044,4.03204,18.211384,19.313736,14.854603,10.176283,32.701042,56.546674,72.05319,50.144823,84.36542,100.638197,113.233737,60.351086,87.095189,78.793927,69.748264,66.162633,85.646895,76.358614,67.037606,69.046254,82.984495,75.770658,68.502943,17.725096,301.22859,-206.141768,-18.733176
55,-0.221214,0.216559,1.978111,1.485097,-25.854721,-49.658089,-72.099209,-89.753323,-62.098675,-94.318714,-111.029263,-123.638878,-58.333168,-92.703209,-112.108269,-127.486782,-51.278915,-82.849445,-100.815468,-114.375744,-41.781807,-65.790653,-79.452782,-90.892811,-19.93365,-21.626415,-10.948595,-3.835689,4.84679,15.287858,21.073687,25.186882,22.419228,32.181721,37.514857,41.837757,35.493396,45.818744,51.545601,55.855841,44.141171,54.485291,58.992515,61.666678,33.19313,50.54369,54.945316,55.495834,54.710827,66.667728,72.996998,77.024746,36.776562,48.346481,48.126297,44.837666,18.433971,30.385323,30.721149,27.302513,1.616306,15.559101,16.801357,12.531738,10.80203,33.808381,58.093151,73.963285,49.599938,83.82109,99.622835,111.800016,59.618726,87.224495,78.033934,68.187615,65.125813,84.942817,74.949223,65.358766,67.741159,81.645592,74.11022,66.872207,16.880493,301.519558,-204.787045,-17.17367
56,0.392876,0.048289,1.641827,1.731976,-25.837898,-49.729958,-72.291126,-89.472084,-62.322006,-94.510002,-111.223068,-123.838978,-58.211746,-92.7178,-112.082119,-127.597504,-50.93502,-82.887096,-100.802593,-114.37397,-41.43322,-65.719528,-79.530201,-91.063328,-19.825526,-21.878541,-11.434509,-3.266782,5.065448,16.125564,21.636171,25.214854,22.629118,32.656705,37.791252,41.871225,35.712919,46.044503,51.537079,55.645149,44.499508,54.811148,59.241802,61.779682,33.093052,50.824413,55.065365,55.352268,55.067711,66.169796,72.419529,76.883297,37.051964,47.692051,46.810055,43.70882,18.37944,30.199871,29.788971,26.185856,1.234589,15.677834,16.402702,11.71875,11.320302,34.623765,59.354712,75.609119,48.24853,82.581605,98.740051,111.010105,57.966007,85.717229,76.792411,67.073853,63.53398,83.303992,73.431367,64.064138,66.320653,80.73394,73.25155,66.099308,16.875286,301.695408,-203.543301,-15.314133
57,0.426407,0.192661,1.095943,1.249303,-26.07708,-49.980469,-72.603779,-89.672813,-62.097187,-94.753761,-111.230736,-123.52375,-57.934113,-92.972488,-112.376003,-127.791252,-50.652122,-82.94529,-100.981636,-114.579105,-41.278038,-65.881004,-79.986935,-91.560173,-19.954337,-21.782705,-11.241786,-3.029846,5.108179,15.865719,21.425417,25.157921,22.837093,32.496093,37.686276,41.890553,36.074652,46.418032,51.753453,55.656758,44.813077,55.1333,59.264587,61.498964,32.304382,49.760342,54.738579,56.274662,55.125618,65.787106,71.67635,76.060982,37.318668,46.385365,45.449238,42.986412,18.625889,28.562794,28.235722,25.337563,1.381416,14.02668,14.880466,10.879097,10.998335,34.408781,58.681911,75.092206,48.221607,82.093776,98.392211,110.76264,57.627584,84.766921,76.041094,66.438442,62.828296,82.195541,72.750692,63.559761,65.27809,79.481611,72.333383,65.204884,17.139502,301.926416,-202.609549,-14.026483
58,0.204849,0.484802,0.569744,1.602454,-25.553741,-49.541473,-72.544441,-89.786854,-61.810684,-94.849033,-111.596031,-123.860321,-57.751579,-93.237076,-112.654438,-127.75938,-50.667572,-83.437099,-101.533642,-114.875507,-41.702156,-66.755047,-80.820522,-92.075386,-20.27019,-22.204275,-11.84904,-3.694342,4.88137,15.620014,21.247452,25.147176,22.853395,32.310594,37.320096,41.545121,36.376427,46.251059,51.169726,54.930326,45.394395,55.30546,59.074643,61.189101,32.241383,49.623985,54.327793,55.377388,55.019073,66.091862,72.07243,76.26543,37.333031,47.554379,46.556568,43.347073,18.774147,29.593964,29.109306,25.519695,1.405392,14.358273,15.395279,11.34819,10.264277,32.516408,56.113155,72.056587,47.388162,81.059025,97.387378,109.832772,57.21506,84.240128,76.163174,66.978696,62.570427,81.737137,72.702774,63.697958,65.093456,79.57859,72.667977,65.499125,17.08497,302.41443,-202.299185,-12.420817
59,-0.59063,-0.657765,0.391045,2.041839,-25.36377,-49.192657,-72.290154,-89.827881,-60.890923,-94.743748,-111.729012,-124.167137,-56.489983,-92.921619,-112.386703,-127.342644,-49.342804,-82.802868,-101.205597,-114.646683,-40.597115,-66.26152,-80.593815,-92.119331,-19.971195,-21.704097,-11.315701,-3.082087,5.522092,16.375715,22.051257,26.112458,23.675849,33.173001,38.008181,41.986513,37.216479,47.313227,52.091042,55.672875,46.090384,56.248759,59.727654,61.649759,32.029095,49.544678,54.667912,57.029629,55.25116,66.205502,72.215996,76.66214,37.454166,47.031326,46.570473,44.290581,18.887901,29.143066,29.099522,26.283245,1.777668,14.531136,15.577698,11.665649,9.966794,33.115912,57.732004,74.275372,46.801347,80.399314,96.169134,108.098172,56.725194,83.522866,75.031227,65.750264,62.274735,80.62069,71.125514,62.16803,65.053658,78.261762,70.779959,63.604406,16.346598,301.638243,-202.055883,-10.4974
60,0.90992,0.383841,0.028725,1.687515,-25.558548,-49.804344,-73.224564,-90.43293,-61.616364,-94.816704,-111.938438,-124.796276,-57.359276,-93.064785,-112.728539,-128.042107,-50.300903,-83.097496,-101.594067,-115.246525,-41.525459,-66.776505,-81.08717,-92.766209,-20.160028,-22.250896,-11.67515,-2.654218,4.977639,15.435812,20.913383,25.063072,23.174744,32.449718,37.126324,41.062912,36.74767,46.71042,51.497621,55.140092,45.739703,55.896843,59.284533,61.20355,31.876488,49.599667,54.112244,55.120697,56.061001,67.143917,73.212719,77.600842,38.341713,48.394089,47.87756,45.377598,19.962215,30.489521,30.245934,27.195282,3.039265,15.980244,16.856918,12.73613,8.894931,31.028563,54.627193,70.631788,45.915167,79.254029,95.37981,107.709947,56.412305,82.875845,74.04989,64.600441,62.336362,80.40305,70.88302,61.977901,65.326625,78.321783,71.049376,64.013441,17.256746,301.760416,-202.02693,-9.071552
61,0.706329,0.386866,0.190144,1.208888,-25.972023,-50.111847,-73.194523,-91.118889,-61.430969,-94.419651,-111.839161,-125.166893,-57.584953,-92.98811,-112.893162,-128.841591,-50.770683,-83.396645,-102.117119,-116.266251,-41.758003,-66.642323,-80.971527,-93.165092,-20.125818,-22.681359,-12.492047,-4.796896,4.88526,15.537886,21.187493,25.259624,22.926878,32.343137,37.05988,40.782874,36.238785,46.056915,51.245308,55.098349,45.140786,55.134473,59.279408,61.798639,31.890335,49.534321,53.83667,54.493847,55.615025,67.298813,73.746128,78.18655,37.854996,48.930244,48.315582,45.092525,19.509773,30.526199,30.309849,26.73975,2.355022,15.650883,17.149315,13.393593,7.853603,28.934452,51.586912,66.789801,45.340024,78.320826,94.792625,107.502805,55.850623,82.107115,73.606337,64.568793,61.626078,80.156944,70.862859,62.021311,64.543908,78.534483,71.657679,64.459186,18.51079,302.003481,-201.289072,-8.006466
62,-0.088806,0.038532,0.214863,1.894657,-25.96859,-49.954834,-72.905388,-90.83416,-61.41552,-94.262066,-111.559124,-124.762173,-57.46273,-92.835732,-112.662907,-128.669357,-50.641479,-83.190536,-101.730423,-115.88253,-41.627998,-66.367836,-80.625973,-92.751904,-20.133228,-22.449609,-12.253134,-4.680496,5.114046,15.58531,21.225593,25.298279,23.014564,32.455523,37.45391,41.49992,36.187038,46.134536,51.485641,55.521895,44.971714,55.053024,59.426435,62.117024,32.268105,50.064526,54.359493,55.308838,55.522614,67.675438,74.437294,78.975677,37.617474,49.366035,49.170227,45.936985,19.341717,31.43137,31.390057,27.649384,2.516155,16.784363,18.357067,14.116058,7.496593,28.532519,51.201651,66.570804,44.428125,77.451041,93.709708,106.335846,55.125766,81.327546,72.587795,63.435272,61.117995,79.697613,70.314052,61.316893,64.140153,78.037052,71.128077,63.929399,19.271994,301.89937,-200.224199,-6.254452
63,0.388641,-0.178273,0.632629,1.270268,-25.939178,-50.14286,-73.280411,-91.610527,-61.439667,-94.500847,-111.896725,-125.220966,-57.395325,-92.986794,-112.895565,-128.9748,-50.425186,-83.19643,-102.005482,-116.242561,-41.245079,-66.456585,-80.991268,-93.253555,-20.093769,-22.295789,-12.002428,-4.487649,5.3495,15.702142,21.286046,25.567079,23.244275,32.583284,37.656204,41.964468,36.437189,46.306449,51.612106,55.73055,45.286394,55.187084,59.457063,62.246577,31.569271,49.534607,54.060116,55.778446,55.796127,67.517738,74.060783,78.859406,38.231678,48.661938,48.419724,45.988598,20.026588,30.504742,30.269794,27.108421,3.166637,15.943623,17.031212,13.016338,7.771011,29.470044,52.866318,68.742998,44.802085,77.383517,93.128421,105.082405,55.626315,81.129019,72.533856,63.44509,61.760632,79.193298,69.871456,60.948892,64.98354,77.730863,70.442462,63.226772,20.527353,301.540507,-198.724852,-5.164774
64,0.02964,-0.165676,-0.464401,0.936507,-25.82737,-50.196877,-73.533211,-92.330189,-61.525383,-94.736481,-111.97031,-125.101433,-57.226295,-93.074913,-112.871304,-128.736992,-50.176048,-83.196602,-101.941795,-116.129379,-41.0606,-66.607475,-81.243324,-93.563404,-19.987991,-22.137646,-11.967353,-4.408609,5.605702,16.349965,21.915653,26.109927,23.561117,33.117981,38.017938,42.094577,36.800158,46.88468,52.087955,56.118219,45.554946,55.554499,59.801631,62.642767,31.909904,49.89006,54.467411,55.94593,55.898895,68.24152,75.268364,80.21822,38.251534,49.77602,49.541874,46.596622,20.082264,31.571846,31.447277,27.808743,3.25882,16.733723,18.044014,13.935127,6.962513,27.708305,50.461356,65.94345,44.140553,76.550071,92.429591,104.636814,55.081491,80.725449,72.120159,63.01364,61.210096,79.157205,69.691021,60.681234,64.431121,77.826452,70.743279,63.618856,20.808048,301.295759,-198.938198,-4.307338
65,-0.635948,-0.025503,-0.406494,1.178877,-25.835724,-50.067673,-73.354511,-91.654758,-61.859207,-95.217361,-112.334404,-125.404301,-57.404823,-93.27713,-112.854824,-128.395271,-50.258102,-83.1633,-101.767387,-115.84053,-41.222878,-66.66235,-81.206703,-93.493881,-19.826699,-21.838712,-11.725786,-4.115603,5.191728,16.337121,22.023778,26.184706,23.251377,33.225921,38.180588,42.30002,36.690057,46.978849,52.125499,56.072956,45.638186,55.884679,60.020906,62.718103,31.895256,50.632725,56.035709,58.43462,57.054176,69.147663,76.040726,81.108513,39.789104,51.167049,50.4562,47.264385,21.643524,33.075714,32.479649,28.606052,4.535522,18.064098,19.164848,14.870567,6.594141,27.118033,50.070383,65.910753,43.055537,75.364247,91.071175,102.94158,54.128991,79.872429,71.900204,63.184751,60.504628,78.437627,69.377977,60.701272,63.94425,77.382374,70.48507,63.428449,20.647373,301.057526,-198.869419,-3.341191
66,0.022659,-0.370626,0.075703,1.213025,-26.238899,-50.491219,-73.782005,-92.022514,-61.718102,-95.004959,-112.195358,-125.392742,-57.29599,-92.895527,-112.67395,-128.363228,-50.093536,-82.834854,-101.559906,-115.694675,-40.961838,-66.249275,-80.680847,-92.862682,-19.57414,-21.179095,-10.934145,-3.459011,5.45003,16.587704,22.425094,26.767569,23.394391,33.58537,38.671937,42.797049,36.795712,47.662611,53.010197,57.084551,45.611139,56.480817,60.876335,63.691351,32.569942,51.968021,58.451157,62.136497,56.598129,69.30542,76.292953,81.337852,39.770336,51.639004,51.003456,47.709846,21.828003,33.958282,33.388195,29.246979,4.74432,19.061394,19.790897,14.904099,7.341908,29.349415,53.61921,70.157082,43.082213,75.316144,90.467626,101.808985,53.98184,78.841845,70.004528,61.117347,60.577216,77.615698,68.058618,59.492693,64.411422,76.988191,69.384461,62.460387,21.254339,300.505756,-198.20941,-2.309311
67,-0.424576,0.514257,-0.164223,1.67038,-26.010704,-50.454712,-73.893185,-92.733192,-61.312294,-94.929886,-112.026958,-125.037003,-56.618958,-92.84935,-112.521172,-127.903976,-49.498787,-82.464352,-101.218987,-115.31147,-40.797615,-66.213684,-80.799179,-93.195934,-19.932292,-21.294938,-10.572659,-2.697443,5.470963,16.77098,22.522043,26.680686,23.556918,33.537328,38.369915,42.154227,36.976641,47.882998,53.238488,57.21929,45.573965,56.728621,61.330756,64.348005,31.634045,50.580997,55.898895,57.04319,57.509594,70.731697,78.096313,83.33353,40.435867,52.79068,51.974888,48.642254,22.519855,34.494381,33.657646,29.64323,5.850334,19.508629,20.090961,15.446091,5.918808,25.539106,47.291213,62.275198,41.72747,73.713134,89.373718,101.291053,53.090905,78.650543,69.96652,60.831597,59.86968,77.65704,68.091932,59.314358,63.879443,76.931226,69.824217,63.063565,21.353531,300.933192,-197.849865,-0.725753
68,0.304184,0.408602,-0.343723,2.368406,-26.196785,-50.52269,-73.731251,-92.015247,-61.702194,-94.801025,-112.076225,-125.312691,-56.996841,-92.328014,-111.998634,-127.377892,-49.844055,-81.939411,-100.638771,-114.619045,-41.019287,-65.6464,-79.802284,-91.608639,-19.809532,-21.276043,-10.753464,-2.817857,5.201978,16.530647,22.308942,26.498707,23.342891,33.389374,38.277413,42.264761,36.738284,47.757954,53.592812,57.98129,45.330483,56.625313,61.2561,64.155714,31.51125,50.982857,57.669125,61.120262,58.562794,72.143898,79.346352,84.800949,41.909924,54.016113,52.69043,49.496555,23.901272,35.512218,34.223042,30.261669,6.835442,20.194244,20.241222,15.450153,5.441693,25.746958,48.634192,64.5394,40.171329,72.304391,87.842863,99.581555,51.947627,77.663648,68.792552,59.756923,59.289102,76.79874,67.342684,58.920298,63.700428,76.07308,68.554474,61.981451,23.245525,301.2224,-196.605778,1.523259
69,-0.684013,0.304553,-0.556183,3.113363,-25.980835,-49.633942,-72.700768,-91.383133,-61.681709,-94.277802,-111.382942,-124.706612,-56.837311,-91.772747,-111.364746,-126.778049,-49.510918,-81.475697,-100.323315,-114.713573,-40.331726,-65.079002,-79.547653,-92.037163,-19.353629,-21.262087,-11.460691,-4.367051,5.726301,16.763076,22.213784,25.963146,23.518694,33.746291,38.454081,42.126563,36.703272,47.95821,53.508523,57.634871,45.393901,56.791792,61.332794,64.171337,31.886501,51.602554,58.469753,61.874313,59.209614,73.835506,81.660004,87.297707,43.182907,55.986729,54.291973,50.778751,25.598316,37.833652,36.154747,31.879749,8.748093,22.441463,22.021179,16.940746,4.981097,24.649344,47.25759,63.336657,38.625531,70.290741,85.784444,97.424953,50.472934,75.913425,66.766985,57.441437,58.338455,75.880913,66.239821,57.5918,63.509836,76.667027,69.133754,62.376067,25.484591,301.261581,-194.238882,4.37125
70,0.54657,0.943114,-0.415649,5.047571,-25.546188,-49.57489,-73.09576,-92.182674,-61.700363,-94.597721,-111.959839,-125.24334,-56.7239,-91.89703,-111.322517,-126.623783,-49.259377,-81.104794,-99.587631,-113.514061,-40.123329,-64.912891,-78.973732,-90.650711,-19.671211,-21.658216,-11.697195,-4.114492,6.191776,16.887503,22.143883,26.082757,23.904078,34.038186,38.930115,43.088388,36.964785,48.333097,53.970169,58.420953,45.468928,56.921715,61.615673,64.624029,31.622772,51.458359,58.763237,62.515411,59.976425,76.156425,84.632664,90.822659,44.547672,59.122982,57.367802,53.525677,27.592335,41.228371,39.354801,34.721088,11.215839,25.788116,25.226612,20.13525,3.827321,22.322373,43.878515,59.136455,36.59913,67.458219,82.953682,94.896119,49.307272,74.891826,65.933447,56.683358,57.939177,75.911356,66.46873,57.938652,63.903556,77.281505,69.8328,62.93849,28.675632,302.293461,-192.010059,9.507587
71,1.055603,-0.959725,0.15913,6.755711,-25.696678,-50.078773,-73.73457,-92.220955,-62.300034,-94.735565,-112.257786,-125.906639,-57.04731,-91.461468,-110.902176,-126.30043,-49.308815,-80.650005,-99.163971,-113.240433,-40.10891,-64.717941,-78.863811,-90.753136,-19.270389,-21.409671,-11.74499,-3.381082,7.084378,18.212358,23.572726,27.618613,24.95118,35.337847,40.069348,44.099118,38.128286,49.920145,55.337632,59.4901,46.563454,58.470848,62.90675,65.626979,32.295341,52.694664,60.785351,65.408936,61.288948,78.609753,87.629185,93.781872,46.621399,62.45882,60.361176,55.82634,29.859238,44.885445,42.612648,37.268085,13.214264,29.00425,28.308449,22.755604,3.119631,21.66047,43.92665,59.492632,33.915518,63.979417,79.175514,90.764646,47.080583,72.665971,63.44685,53.831755,56.468621,75.497103,65.735506,56.930638,63.262803,77.676831,69.857685,62.481876,33.121548,300.920904,-188.460617,15.850466
72,1.11351,-0.37464,0.357285,8.482407,-25.778961,-50.408936,-73.992004,-92.510376,-61.991272,-94.591599,-112.164059,-125.776005,-56.617928,-91.397953,-111.039333,-126.514664,-48.916054,-80.508099,-99.324074,-113.515205,-39.782295,-64.559784,-78.881321,-90.925655,-19.367399,-21.204659,-11.232894,-2.915731,7.624447,18.696975,24.228453,28.472312,25.544725,35.54082,40.200877,44.15562,38.65761,49.949661,55.372521,59.462312,46.891534,58.469427,63.064152,66.070347,31.676159,52.382126,61.499748,67.093792,62.457047,80.534134,90.539474,97.741756,48.505726,63.448563,60.545654,55.710411,32.075157,46.257477,43.628769,38.335648,15.25835,29.993877,29.460983,24.494133,2.415213,19.990553,41.509461,56.821031,32.196819,61.120959,76.394646,88.039569,45.195744,71.956736,63.993835,54.930789,54.775456,75.61162,66.305184,57.259644,61.907289,78.154378,70.233992,62.088712,36.817961,300.201697,-185.52043,23.988306
73,0.53112,0.600585,-1.027966,11.743724,-25.729408,-50.096054,-73.94331,-92.578354,-61.626892,-94.482422,-111.886311,-125.410595,-56.326103,-91.675415,-111.400852,-126.831379,-48.686028,-80.995274,-99.898338,-114.316235,-39.574814,-64.83181,-79.552917,-92.013302,-19.815337,-22.456093,-13.261889,-4.561935,6.569071,17.865073,23.437739,27.660171,24.925554,34.814944,39.211326,42.733385,38.478905,49.490794,54.571741,58.314743,46.988791,58.475726,62.74657,65.515396,32.737713,54.318581,65.152073,71.671886,64.516697,84.919453,96.8573,105.23243,51.373386,69.142971,65.774746,59.832802,35.361557,52.181168,48.965034,42.636738,18.93259,35.468273,34.376621,28.537216,1.058309,16.972811,37.733979,53.106929,28.137131,54.734114,69.229715,80.748914,42.149905,67.514473,59.456075,50.288208,52.90871,72.862028,63.576125,54.795247,60.931046,76.384086,68.532645,60.832399,40.288754,300.932667,-183.608723,35.862416
74,-0.28038,-0.577737,-0.288849,13.016987,-25.815239,-49.917526,-73.632545,-92.375908,-61.310349,-94.356365,-111.558666,-124.766922,-55.632362,-91.284428,-110.555592,-125.580254,-47.841225,-80.309029,-98.778076,-112.826271,-38.847771,-64.438133,-78.881378,-90.98608,-19.939517,-22.608431,-13.497035,-4.573297,6.897892,18.211926,23.917725,28.372894,25.26549,35.490988,40.183216,44.007543,38.792535,50.340727,55.58945,59.572598,47.200409,58.961269,63.201794,66.014648,33.23204,55.960865,68.357735,75.916328,66.801338,89.055004,102.384739,111.567936,54.87648,73.602333,70.115833,63.795662,39.860401,57.719707,54.126778,47.230511,24.314232,41.242046,39.85548,33.755093,-0.310419,14.385808,34.404736,49.880964,24.9727,48.843156,62.092664,72.734236,40.274514,62.329322,55.335378,47.109482,52.401677,68.921364,60.326725,52.248073,61.740131,73.993296,66.647127,59.636942,43.068008,300.371726,-180.837936,48.896199
75,0.763092,-1.032343,0.057793,14.637102,-26.314087,-50.478401,-74.014778,-92.569427,-60.871239,-93.478203,-110.977592,-124.618607,-55.498009,-90.459309,-110.120087,-125.893936,-47.946281,-79.692364,-98.18573,-112.594471,-39.063721,-63.990211,-78.306313,-90.666332,-19.432669,-22.532108,-13.037117,-3.719351,7.26333,18.825292,24.640267,29.096547,25.609501,36.227917,41.122502,44.963748,39.055468,51.02029,56.500824,60.540907,47.484338,59.63898,63.914702,66.509269,34.725266,59.400215,74.423332,84.261532,67.479572,92.011642,106.910362,117.043533,56.088009,77.282181,73.694859,66.398792,41.842232,61.909847,58.041573,50.503292,27.015266,45.792789,43.709965,36.670647,-1.92757,11.554891,31.449207,47.426478,21.987531,43.803241,55.378634,64.594018,37.890825,58.817453,51.387797,42.991687,50.896511,65.890098,56.734982,48.845317,61.257922,71.903075,63.89451,57.112678,45.726128,298.678746,-178.885117,62.872664
76,-0.016022,-1.209938,-0.465488,16.586655,-25.975113,-50.496941,-73.886948,-92.357826,-60.699577,-93.085442,-110.580139,-124.293938,-55.080757,-89.909878,-109.57655,-125.21656,-47.354279,-78.954906,-97.532101,-111.930313,-38.417358,-63.448219,-77.934093,-90.363064,-19.038578,-21.515634,-12.035896,-2.997303,8.185696,19.971195,25.73294,29.851014,26.239109,37.01894,42.141383,46.142193,39.497107,51.837371,57.496303,61.599247,47.863424,60.286186,64.856766,67.765705,34.172459,59.429684,75.242443,84.833508,70.382824,96.04517,111.42952,121.779213,60.207367,82.012768,78.434544,70.73164,47.024231,66.963902,62.813473,55.122929,33.081837,51.125507,48.622913,41.434708,-4.875566,6.369431,24.767287,39.341805,17.558328,36.49156,46.831018,55.277826,34.359102,54.476738,48.047718,40.033163,48.303982,63.104506,54.707808,47.003086,59.685139,69.720322,62.566907,55.997219,47.753906,296.53505,-177.306805,78.52556
77,-1.2743,-0.898221,-0.932121,19.995771,-25.57045,-50.162659,-73.624134,-91.979027,-60.3582,-93.062096,-110.168037,-123.104782,-54.184914,-89.631443,-109.217491,-124.191914,-45.884857,-77.841797,-96.488171,-110.647774,-36.533775,-61.641197,-75.97744,-87.888908,-18.973617,-21.067326,-11.913136,-2.535101,8.664571,21.272461,27.237489,31.201063,26.501857,38.375349,43.758318,47.752705,39.579359,53.013284,59.069641,63.370434,47.723497,60.609079,65.306124,68.310467,33.135509,58.356457,74.129391,82.541428,74.083099,101.063461,117.11134,127.986946,65.862808,89.867535,84.940853,76.442299,54.045467,75.58445,70.101757,61.527328,41.167259,60.726357,57.482815,49.532375,-10.139016,-3.253073,11.502002,24.852225,9.646464,25.185616,33.960781,41.04837,28.070811,46.272579,40.84552,34.44793,43.519251,57.323556,50.176563,43.569578,56.592122,66.74741,60.153083,53.700659,48.077002,295.694241,-176.641531,98.578744
78,1.209869,-1.259523,0.690365,21.775326,-26.246109,-51.044312,-74.609756,-93.068161,-61.017838,-92.91687,-110.157051,-123.481293,-55.149994,-89.416981,-109.114437,-124.614944,-47.065544,-78.218079,-96.953773,-111.323433,-37.649689,-62.144279,-76.461639,-88.817368,-18.054091,-20.152741,-10.623047,-1.479725,9.356855,21.930412,27.998131,32.477259,26.938864,38.551708,44.010013,48.377249,39.929298,52.826057,58.813871,63.248415,48.224478,60.870222,65.919244,69.333795,33.381214,60.380344,77.761803,86.681328,76.101608,104.956856,122.004662,132.956543,69.948692,97.166519,92.32069,82.081203,60.008755,84.553528,78.282223,67.825699,49.045544,70.367088,65.893764,56.464348,-13.941082,-10.635273,1.757355,13.598305,1.74695,13.693957,20.612596,27.047174,21.790362,37.407103,32.72673,27.975839,38.914122,50.13658,43.253014,38.131929,53.126473,58.886366,52.384356,47.938018,51.881933,294.55794,-173.356104,120.477292
79,-0.835648,-0.424411,2.162418,23.474357,-26.142998,-50.539398,-73.85685,-92.202129,-60.238152,-92.439594,-109.55183,-122.83247,-53.901901,-88.740292,-108.312778,-123.665714,-45.62645,-77.156925,-95.804558,-110.301304,-36.174889,-60.908775,-75.218639,-87.560921,-18.158079,-20.124459,-10.528754,-1.287928,9.592803,22.593611,28.630085,32.591003,27.246011,39.401765,45.073169,49.394772,40.141102,53.688278,60.196278,64.905488,48.311732,61.509832,66.922688,70.577572,36.978836,69.203739,92.837105,106.262283,75.805492,105.238953,113.767834,118.041515,69.143658,99.711399,95.645084,85.393524,59.893913,89.654045,84.29924,73.155727,49.915295,76.872025,72.617111,61.919804,-15.78356,-15.449305,-3.913679,7.771845,-2.861267,8.418557,10.846151,13.784791,17.232564,29.518858,23.946995,20.483476,34.113768,43.562754,35.599915,30.745283,48.44925,50.775203,43.608882,39.938684,53.285952,293.765837,-168.95402,143.583957
80,-0.459366,0.428918,3.170185,23.156837,-25.985413,-50.631523,-74.154625,-92.585278,-60.400085,-92.740631,-109.76675,-122.893753,-53.997574,-89.020443,-108.390312,-123.736668,-45.75737,-77.029266,-95.427704,-109.740829,-36.440849,-60.787697,-74.775467,-86.867638,-18.617255,-20.713126,-11.138416,-1.669114,9.463868,22.089296,28.110084,32.226861,27.245023,39.012305,44.654996,48.971226,40.09059,53.417441,60.159474,65.054368,47.987542,61.137539,66.695138,70.443264,34.073639,67.308369,93.521862,111.160927,74.213047,105.643959,120.072155,129.650116,69.360752,103.360119,103.616524,97.128181,62.538242,95.293808,93.798008,85.408115,54.556904,82.95187,81.54808,72.683201,-19.604089,-22.692288,-14.614532,-5.385994,-9.263797,-1.368821,2.413762,6.017207,11.24617,21.013789,16.760791,14.143006,28.91463,36.2499,29.854163,26.301847,44.600964,45.225631,38.336694,34.940977,55.647955,293.730871,-162.962465,166.276909
81,-1.552849,-0.428857,21.129913,21.363234,-25.823708,-50.317268,-73.616924,-91.759186,-60.492668,-92.334423,-108.845844,-121.57196,-54.338837,-88.933067,-107.793274,-122.693424,-46.369629,-77.387009,-95.604515,-109.782372,-37.289886,-61.299362,-75.321465,-87.534084,-18.773052,-20.730107,-11.108652,-1.327325,9.871915,22.139499,28.1551,32.419646,27.86617,39.092519,44.12141,47.915541,40.948612,53.789919,59.963232,64.274398,49.05885,62.334694,67.788614,71.39101,33.737411,64.801311,90.081596,105.661411,65.979652,102.8722,114.610176,118.653831,60.228996,98.894005,93.473282,82.831879,51.999035,86.358776,81.234055,70.672188,42.456551,70.784569,68.059387,58.830585,-18.565508,-19.152384,-13.010565,-8.719096,-2.27365,8.71076,9.131219,9.120536,16.770918,24.675588,17.117523,13.805107,33.636314,38.842491,30.836859,28.759575,48.435109,49.167778,40.786271,39.072326,56.173553,292.612478,-139.754105,186.950607
82,-0.810814,-0.933604,0.517788,20.430186,-26.211319,-50.418091,-73.40538,-91.401558,-59.772034,-91.394749,-107.857132,-120.839252,-53.812408,-88.260384,-107.1702,-122.335854,-46.009827,-77.079964,-95.321846,-109.595661,-37.107925,-60.972404,-75.045204,-87.421017,-18.138319,-19.614833,-9.33623,0.760209,10.418283,22.986776,28.849175,33.117178,28.28138,39.208115,44.178838,48.077018,41.271629,53.662961,59.856156,64.291627,49.289302,62.290419,67.642019,71.325925,30.615635,63.962975,91.104298,109.336281,68.764744,101.506863,116.697865,124.452209,64.282894,99.804096,111.412354,114.733429,57.961178,92.649479,102.302341,103.293228,50.054569,78.543205,87.425938,88.644333,-17.422014,-20.187939,-16.76252,-14.442742,0.889082,6.749135,6.342817,5.570011,18.438797,24.07735,19.395002,15.805697,32.402602,37.067229,31.761448,27.719575,43.954499,46.659599,41.106447,35.402129,56.700811,290.154596,-137.898245,205.856515
83,-0.565109,0.156352,3.093681,19.668062,-25.604095,-49.449005,-72.348404,-90.378571,-59.370461,-90.366096,-106.609154,-119.524155,-54.058113,-87.924557,-106.873512,-122.005863,-46.740646,-77.028236,-95.168953,-109.397278,-37.980881,-61.092224,-75.079479,-87.309036,-17.225957,-19.353999,-10.322446,-0.337343,11.473906,22.966151,28.813174,33.153179,28.802492,39.634687,44.582686,48.424364,41.026233,53.527357,59.624407,64.02116,48.390957,61.156003,66.572625,70.299077,32.031956,64.180756,90.945225,112.123947,70.742912,102.280312,120.291023,132.013264,65.545177,99.880142,117.052402,125.544205,58.904572,92.060394,107.091064,114.261875,50.890446,76.682739,88.877678,94.773273,-18.983065,-22.368099,-18.913163,-17.677105,1.171405,5.430269,6.798165,7.417274,19.217716,24.754196,20.612535,16.487607,32.915316,38.98427,33.987365,28.410253,43.234489,48.74312,45.12399,39.30284,57.481871,288.912965,-133.458395,224.126594
84,-3.042641,1.613168,4.810638,19.163067,-25.037956,-47.91996,-71.849213,-91.466045,-58.79694,-88.573837,-104.444332,-116.893501,-53.817673,-86.391277,-104.899292,-119.561977,-46.35601,-75.608139,-93.567009,-107.785549,-37.837715,-60.509205,-74.520264,-86.9557,-18.710622,-27.228906,-30.31655,-30.440977,9.622937,21.755473,27.456394,31.157158,26.905334,38.41629,42.363685,45.20476,39.581026,52.480193,57.400466,60.068331,47.709974,60.939382,65.669525,68.397782,32.620411,63.489418,89.411774,112.665539,69.553185,101.376228,120.616894,134.897518,64.414501,98.778706,119.112911,130.99577,58.878822,91.14275,108.600368,118.822689,52.199306,77.279663,90.045662,96.752872,-18.782129,-22.564589,-20.823597,-21.373423,4.885137,9.704695,10.792614,11.143294,22.403296,28.670222,25.150758,21.788077,34.428016,41.142138,36.473128,31.233729,42.553073,48.55052,46.071982,41.918526,55.743427,289.395529,-127.343559,242.159057
85,-0.388985,-3.940726,44.472141,34.207752,-27.220573,-52.149239,-75.24107,-92.470493,-54.69326,-86.143398,-104.335728,-117.828941,-50.034714,-83.832664,-103.992691,-118.513412,-44.076576,-73.188972,-91.90052,-106.37146,-37.479515,-58.765411,-72.120037,-83.389149,-10.040679,-7.896581,-1.385803,4.673086,14.154553,25.439996,29.234127,31.539393,26.94541,40.249104,44.79344,46.012146,37.271067,51.249754,56.584496,58.436576,44.844446,57.676429,63.488748,66.716812,12.287178,34.230652,56.041031,77.578297,53.824196,88.511696,95.069847,94.947739,55.545673,88.464432,90.54245,82.923317,53.883991,81.136208,81.537323,72.360363,49.183502,67.343216,68.603382,61.221027,-32.068841,-39.814566,-39.299938,-40.785344,-4.717855,-2.699605,-5.272312,-6.02684,21.152357,22.258924,15.338926,12.713175,41.476393,46.618597,43.773138,41.55741,55.565676,69.45217,68.849672,64.776306,57.024536,285.220228,-81.201324,276.132235
86,1.178741,2.135082,-10.091171,-2.835764,-28.790016,-54.307251,-75.860825,-91.960659,-49.084511,-82.939568,-99.045124,-109.473324,-46.085014,-81.73542,-103.080254,-118.841171,-42.234764,-74.266891,-94.810066,-111.381454,-37.045326,-59.119549,-73.55381,-86.561508,-13.879331,-14.584459,-10.021845,-6.238088,6.060926,10.098724,6.944513,3.668962,23.580012,31.011489,29.721461,27.348825,36.814978,47.479027,51.244506,52.046396,44.31191,57.729349,65.154403,69.485948,20.258217,45.861912,69.585972,90.764694,53.063564,91.519547,109.237976,118.597984,48.950787,90.432358,108.350487,115.517235,44.135742,82.169323,99.515419,106.601601,38.759995,68.690529,82.201252,87.465305,-21.494763,-23.454041,-19.337142,-20.364792,10.273972,17.837409,16.006695,15.101928,31.010686,36.895809,32.486583,29.6699,45.249652,52.821735,49.325303,46.109712,53.065402,61.732504,58.983191,53.672038,59.408913,287.107043,-90.086861,273.048203
87,-2.986679,6.686582,-2.926483,5.464973,-22.917252,-45.668564,-65.639133,-82.372856,-42.008629,-65.027332,-77.867718,-88.664474,-42.028313,-67.870216,-87.07552,-102.083015,-41.766129,-67.976761,-87.528305,-103.521709,-39.407158,-59.776497,-75.495872,-91.180058,-19.514921,-27.90285,-28.958411,-26.882857,-0.343579,5.783976,4.430716,0.931196,18.876113,25.725345,24.502749,20.705284,33.916908,44.652402,45.892042,43.50088,44.97301,57.538787,62.714151,64.698809,26.537533,53.807659,79.554749,100.12516,55.913715,90.670681,109.21051,121.509819,49.34927,88.33477,108.590927,120.377312,43.531551,78.425388,97.663422,109.458733,38.611679,63.868046,78.270779,88.229027,-16.390103,-17.723665,-14.217785,-13.180317,16.117413,23.264035,23.39544,23.116205,34.084869,42.002877,40.919343,38.729056,45.264102,56.117786,55.069635,51.674783,50.6446,62.027486,62.310673,59.697087,57.045822,293.837082,-92.389755,278.556633
88,-0.805664,1.354989,4.249363,6.280634,-18.958969,-40.805168,-62.175007,-81.698971,-29.896202,-59.051342,-78.133736,-93.576794,-31.299934,-60.152607,-83.681087,-101.355915,-33.531532,-60.163021,-82.455997,-99.654408,-35.733261,-56.778831,-73.334999,-88.146858,-18.869382,-26.79832,-24.690902,-19.271316,2.013557,6.655583,5.253169,3.718178,22.090098,29.362568,28.539064,26.099861,36.664678,45.91526,46.775073,44.551687,45.715991,58.386558,63.307202,63.857645,28.001747,54.341068,78.460979,98.815327,54.292145,90.190716,111.453838,126.422367,47.650623,87.75032,110.977306,125.471363,42.021561,78.166122,99.925175,114.246197,37.707253,63.248119,79.116211,91.358929,-15.546716,-17.078929,-13.934042,-13.237559,17.242074,24.986131,26.23034,26.410589,35.463138,44.017176,43.7485,41.471638,47.31051,59.189499,58.209273,54.335731,53.050458,66.3368,66.675131,63.537901,56.843405,294.948296,-87.537146,284.593493
89,1.755524,0.654925,2.408752,4.979553,-19.350014,-42.242432,-63.638363,-83.529282,-29.495773,-60.045834,-79.861393,-94.792957,-28.942909,-60.202103,-84.201622,-101.369534,-30.328903,-58.416767,-80.822239,-98.178921,-33.023415,-55.170135,-70.833435,-85.006771,-19.777854,-24.979277,-21.385094,-16.170457,2.422345,13.017049,13.364209,13.04249,22.987579,35.043791,35.472524,34.285434,37.130029,49.16469,50.06921,48.897064,45.417058,57.560894,60.384122,60.62921,26.920853,53.815956,78.707657,99.832478,55.960178,92.874584,112.389164,125.908871,49.436073,91.013889,112.358837,125.503178,43.361721,81.368752,101.683216,114.707966,38.761139,66.720428,82.376747,93.754292,-16.036088,-18.251508,-15.163246,-16.753813,15.838363,22.916566,23.279782,22.582681,34.076162,41.57081,40.15549,36.853202,45.941195,57.273631,55.51714,50.936989,51.704176,63.330482,62.729712,58.809425,59.098005,295.727524,-84.629316,289.697349
90,-6.115265,2.229684,1.391487,2.312121,-17.333336,-37.5,-53.594112,-68.242035,-42.240486,-56.043835,-60.252457,-61.238594,-39.517365,-53.517208,-63.340302,-67.583256,-36.759453,-52.901459,-64.62616,-71.753025,-33.167953,-47.927284,-58.367214,-67.039661,-20.106799,-25.638956,-20.893808,-14.470098,-0.953426,11.446674,18.181174,21.916394,18.040877,28.934514,34.357682,35.639127,32.177893,42.653974,45.761378,45.142083,42.841695,51.454395,53.059721,52.184223,26.057453,52.675781,77.351074,98.416386,56.662731,92.783489,112.150898,126.296482,51.011639,91.501751,112.832165,127.52924,45.373535,81.856842,102.278767,117.124615,40.546188,67.042122,83.040962,96.501904,-15.399379,-16.91529,-14.02673,-16.07567,17.720269,23.744515,23.759397,22.787075,35.230339,41.604649,40.257317,37.21228,46.255813,56.633711,55.4494,51.701706,51.723442,63.374695,63.772244,61.341377,53.515606,297.978774,-82.704964,292.031036
91,-1.021042,2.237094,0.734253,2.28458,-14.225578,-34.546623,-53.545189,-71.787586,-25.095749,-50.102234,-61.733894,-68.712845,-23.281403,-47.158585,-63.262653,-71.674862,-23.201637,-46.225204,-60.824203,-69.971809,-24.14669,-42.228127,-52.751942,-60.520992,-19.789278,-26.08535,-21.623389,-16.139582,-3.71225,7.277965,7.66971,7.270123,15.673181,25.63062,26.179025,24.964827,30.139388,39.250044,40.996284,40.741625,39.328282,46.854298,48.347053,47.460255,26.10054,52.717152,77.439194,98.051891,56.687737,91.600742,110.570011,125.033398,51.450119,90.41399,111.211796,126.873608,46.322136,81.26461,100.980091,116.358318,41.766415,66.946278,82.078342,94.864254,-15.448286,-17.572932,-14.952801,-16.757148,18.231994,23.653557,23.57816,23.038523,35.578735,41.958787,41.085945,39.111785,46.254393,56.27525,55.641011,53.314626,51.578205,62.856362,63.060076,60.924438,53.491316,300.285909,-80.973959,294.385657
92,-2.717056,3.978085,3.770485,0.229588,-10.753441,-29.845619,-48.359241,-65.456371,-31.565094,-41.013336,-34.085083,-26.141167,-31.076317,-40.846939,-34.239349,-24.65435,-30.021286,-39.740295,-32.290306,-24.453964,-29.191475,-38.639488,-35.91671,-31.518974,-20.589996,-26.648884,-22.390946,-19.688069,-7.33033,2.979149,4.795907,3.851558,11.849781,20.939071,22.53606,19.985583,27.052855,33.005286,33.701646,32.266505,38.151195,43.416035,42.710166,39.834265,25.202408,50.721188,74.525356,94.473438,54.079456,89.95863,109.376392,123.904095,48.583775,88.997784,110.639248,126.419163,43.031273,79.708443,100.215626,116.024723,37.879314,64.392471,80.393543,93.430424,-14.681346,-16.163664,-12.40609,-12.185147,18.665359,24.949389,24.807734,24.04913,36.401436,43.54497,42.59951,40.165555,47.346202,57.819875,56.896274,53.570952,52.59968,63.418414,63.397048,60.499966,51.298227,304.226465,-76.679506,294.577716
93,-46.066818,-3.31785,2.000771,2.769259,-2.538414,-5.552673,-12.828083,-21.350327,-18.782902,-2.54385,13.249626,19.807777,-20.697899,0.795593,18.205948,30.08503,-23.534489,-3.608894,13.532639,25.320168,-26.56723,-17.182617,-5.828762,1.519547,-0.66462,7.548247,20.052335,31.436208,14.211302,31.036313,31.799671,28.062475,20.980258,37.23908,36.854251,33.016834,24.586606,39.963446,37.361716,32.489794,26.776152,39.910032,38.085246,35.062131,25.274277,50.416431,73.889179,93.897343,53.317451,89.551334,108.985233,123.888645,47.444801,88.179302,109.94585,126.293049,41.792393,78.302765,99.118023,115.376072,37.022953,63.579826,79.737225,93.202801,-15.597475,-17.859639,-13.898042,-13.319502,16.489089,24.060122,24.515778,24.255871,34.699841,42.727951,42.311815,40.588546,46.414882,57.055775,56.55393,54.089779,52.363114,63.419155,63.422057,60.794022,5.575333,300.676804,-74.334812,297.115164
94,22.329025,-2.69275,2.203274,-0.160798,-4.665756,-14.109077,-26.642818,-41.043892,-42.37112,-24.637184,-2.743492,9.513702,-49.643326,-24.609947,0.144196,17.632942,-52.252007,-31.630211,-8.234825,7.854652,-52.102604,-41.839027,-25.845909,-15.197868,-1.009372,4.477893,16.93925,29.784508,14.071005,30.233002,32.484175,32.20284,25.779932,37.752288,40.37526,39.775108,33.707265,44.628937,43.123091,40.722297,39.06399,49.43528,46.556167,43.137232,24.793396,49.490376,72.363739,91.612473,53.26664,88.695831,107.472153,121.658478,46.463642,85.809288,106.805763,122.254944,39.947605,75.377369,95.183258,110.42942,34.319744,61.023102,76.619053,89.477806,-15.352881,-17.032678,-11.849287,-9.941446,17.170999,27.574585,30.287466,31.319871,35.080409,45.587797,47.351389,47.144711,46.376968,58.993688,60.406785,59.076125,52.251284,64.26421,65.161443,63.236868,28.141365,297.792689,-71.894531,296.763001
95,6.867142,7.711206,1.810799,0.914894,-2.24247,-10.998344,-25.172195,-39.398003,-48.779583,-30.385323,-5.251808,10.815239,-58.307419,-33.013744,-5.558167,14.06662,-61.234589,-41.015797,-15.810127,1.473656,-60.854816,-52.170296,-37.002754,-25.874062,-16.031024,-21.799316,-16.814699,-8.614491,2.324347,16.976979,19.747597,19.910926,23.12343,33.273592,34.775856,34.099998,38.072031,45.682584,43.174838,40.630598,48.618199,56.963829,52.855944,47.9035,25.223293,50.3405,73.492126,92.60273,53.772583,89.559174,107.852554,121.285744,46.478691,85.90519,106.459923,121.286888,39.298325,75.195236,94.686241,109.379654,32.907944,60.258408,75.814934,88.592491,-15.579629,-17.221017,-11.774877,-9.380999,16.025096,26.955413,30.514769,32.257489,33.665769,44.22546,47.003858,47.730043,45.083235,57.617827,60.119398,59.811696,51.380233,63.960212,65.471986,64.195605,35.048933,305.386724,-70.043306,297.560724
96,-26.412849,16.758815,-0.042515,-0.925639,5.362701,6.055756,5.509987,4.079704,-15.376053,4.962273,22.668686,34.277,-22.543259,1.590385,21.815643,37.578621,-25.541039,-5.209122,13.267365,27.217026,-26.080112,-14.785309,-3.275986,6.113777,-23.458735,-34.955735,-36.743903,-36.143998,-8.298453,-1.075877,3.317047,6.774761,9.362721,16.566092,20.622662,22.800352,22.460539,29.380784,30.289071,30.557438,31.794546,38.530899,37.420626,34.841064,26.199074,51.307697,73.551235,92.422771,55.356617,89.348545,107.240353,120.609341,47.621841,84.778118,104.98003,119.854717,39.866867,73.326931,92.376194,106.701679,32.8018,58.596382,73.835964,86.447811,-15.150278,-16.220351,-10.688996,-8.546936,16.100679,28.162078,32.56056,34.967838,33.37443,45.3085,48.774551,49.710687,44.693837,58.576564,61.586403,61.298584,51.00899,64.401728,66.39818,65.023493,8.616571,322.122491,-70.105333,296.612037
97,11.891899,-17.157475,1.431484,-0.638808,3.501549,-0.072441,-8.952484,-20.149498,-30.084457,-9.50798,11.661415,22.729225,-39.21072,-11.170921,12.112885,27.563553,-44.053802,-20.397148,2.544594,16.710777,-46.42931,-32.065601,-15.43087,-4.981384,-16.267652,-22.786705,-19.630085,-13.092446,3.865761,19.049076,21.95999,21.425108,22.051072,35.924043,37.756734,35.839322,35.428743,48.802215,46.399321,42.885167,45.407239,58.624174,54.938168,49.364761,25.767117,50.668259,73.775368,94.105682,53.709698,88.365097,106.520233,119.63974,45.888977,84.293976,104.345169,118.187256,38.027344,73.110695,91.950989,105.404205,30.941391,57.749577,73.020802,85.523758,-14.998805,-16.400354,-10.319482,-7.335084,16.637352,28.79786,33.045301,35.478637,34.300748,46.033944,49.244719,49.936261,45.765453,59.292622,61.866379,61.106911,51.985696,65.532872,67.355435,65.823716,20.434084,304.941951,-68.748236,295.950165
98,-25.226612,23.251253,0.318832,0.257005,8.680916,14.092083,20.914364,27.052288,-3.188553,21.28561,39.184284,50.516682,-11.333427,15.480938,37.234211,54.541111,-14.920464,9.414883,28.285732,43.714542,-15.810184,-0.367641,11.960964,22.596531,-21.802774,-35.2078,-39.086035,-37.122248,-16.277594,-11.105009,-5.522895,-0.526361,1.403649,9.223659,12.840689,14.002029,16.088823,22.962323,24.187883,23.704007,27.874568,33.747341,31.561006,26.673276,25.657768,50.811539,73.673058,93.131218,54.45734,88.503685,106.263657,119.14547,46.106014,83.833923,103.251572,116.688995,37.830105,72.691212,91.229095,104.458122,30.322666,57.175426,72.49609,84.771194,-15.442914,-16.828284,-10.4704,-6.845527,15.896594,28.818732,33.318114,35.656417,33.702078,45.900872,49.164814,49.816466,45.43336,59.092736,61.656737,61.025833,52.027439,65.506875,66.920959,65.279139,-4.838791,328.137027,-68.475666,296.150993
99,2.696629,-0.048289,0.911636,-0.248669,3.3181,5.771484,8.008804,10.380478,-9.148808,13.862114,31.386337,41.373367,-12.30732,14.648781,33.341904,47.861366,-12.672901,12.276878,30.679207,43.809586,-11.039429,3.371716,17.108574,28.144913,-19.487504,-31.998137,-39.417387,-40.884269,-11.699418,-2.753945,2.168551,3.937268,3.53163,12.918618,15.514791,15.761299,14.852827,24.329724,23.770636,21.417266,22.736502,31.398602,30.529033,27.705619,25.740395,50.753059,73.443947,92.814217,54.188232,88.049812,105.804291,118.623505,45.699921,83.177948,102.824707,116.298866,37.145805,72.019215,90.630341,103.72364,29.339733,56.248341,71.605511,83.819962,-15.275138,-16.29723,-9.999985,-6.220057,16.083945,29.2106,33.775623,35.986226,33.685405,45.991522,49.326723,49.784355,45.394457,59.321089,61.877062,61.010148,52.050904,65.840512,67.293808,65.488103,-2.186995,328.020242,-67.608862,295.833827
100,4.250793,4.642581,0.75325,-0.064591,6.807747,9.966202,10.575829,10.844765,-9.271145,12.547188,29.928017,40.419846,-16.881008,9.071388,28.394623,44.013519,-20.058289,3.67115,20.861435,34.293022,-20.782814,-8.302059,3.94558,14.842987,-21.292962,-36.852708,-45.618117,-48.801412,-19.163191,-11.651253,-5.632934,-1.940568,-3.348725,5.392108,9.892663,11.671384,9.971086,17.632954,19.560925,19.256187,19.830219,26.888785,26.762011,23.680789,25.632706,50.729256,73.465919,92.767296,53.331528,87.410545,105.200958,118.01445,45.062771,82.739639,102.463074,115.964241,36.89724,71.947517,90.656319,103.849411,29.377956,56.551437,71.914101,84.026413,-15.498674,-16.385287,-9.81813,-5.364073,15.694423,28.786684,33.283163,35.426273,33.349174,45.751992,49.030815,49.361489,45.207785,59.096318,61.611474,60.536337,51.925921,65.716456,67.107322,65.065545,1.998796,332.56413,-66.920614,295.670544
101,-20.759583,-14.826768,0.401917,0.362475,12.489109,25.173569,35.404472,40.204239,12.051315,39.273949,57.296677,70.180206,4.916725,35.851593,54.319611,68.271561,0.561619,28.729591,46.771317,58.847351,-1.207924,13.729763,27.457809,38.505249,-18.10837,-27.163697,-29.721338,-28.630517,-8.334453,3.411278,9.14783,10.551849,8.317039,20.696206,25.478837,26.235465,21.252886,33.390424,34.662976,32.874005,31.053232,42.009855,41.387596,38.362135,25.877953,51.28624,74.159317,93.944206,53.296623,87.183723,105.020714,118.044548,44.841614,82.422638,102.199516,115.66143,36.696854,71.677208,90.35717,103.426208,29.364338,56.686478,71.878624,83.654022,-15.582469,-16.322733,-9.240579,-4.921631,14.74853,28.117803,32.829113,35.12277,32.799781,45.365372,48.69125,48.938869,45.007097,58.748601,61.061833,59.816883,51.984337,65.330145,66.425289,64.264148,-18.761759,317.564878,-66.51967,295.860534
102,-4.552402,-9.689195,0.737514,0.396993,18.945694,32.719173,38.329182,35.555935,15.343838,47.796307,66.195545,73.16843,5.152187,44.919491,64.503651,73.517933,-3.291492,31.156254,50.265255,58.284702,-10.813866,14.742622,31.424046,39.801464,-20.001638,-28.845099,-26.982954,-22.144253,-7.063136,8.809376,11.805567,11.848175,12.9984,28.936799,30.379968,27.877223,29.165584,45.064339,42.597534,38.463591,41.756431,57.587076,52.603385,45.57026,26.00235,51.66235,74.769115,94.930401,53.719769,87.474461,105.099964,117.737904,44.955082,82.505665,102.261829,115.352383,36.427059,71.582966,90.177784,102.808399,28.877907,56.308708,71.502514,82.958279,-16.083389,-16.829087,-9.789416,-6.273471,14.068411,27.718957,32.746861,35.437018,32.273174,44.959796,48.477655,48.77381,44.569348,58.460412,60.921783,59.636263,51.525038,65.059184,66.301911,64.124777,-23.364487,307.590921,-65.832481,295.972766
103,2.516556,1.318989,0.248051,-1.110705,17.673798,30.710278,36.611996,35.22646,12.075977,41.20039,60.495014,69.346333,2.60828,39.341526,60.677204,72.329235,-5.566978,25.969677,47.380199,59.065762,-13.066578,10.403881,28.114986,38.706264,-21.035463,-29.623278,-27.322952,-21.41319,-10.193882,3.885645,7.802473,9.125352,9.539636,24.066729,26.672905,25.54596,26.090414,40.518027,39.298147,36.281455,39.330875,53.260224,49.409592,43.726455,25.820503,51.614285,74.791374,94.965706,53.848,87.130051,104.641342,117.156143,45.160675,82.155418,101.682014,114.548264,36.493378,71.232719,89.678535,102.162094,28.639412,55.651989,70.691414,82.179108,-15.645023,-15.822432,-8.575403,-5.026669,15.013501,28.630393,33.518309,36.231807,32.899261,45.582549,49.209027,49.7168,44.915768,59.06995,61.6752,60.614204,51.729926,65.882256,67.297019,65.27562,-20.929098,308.782704,-65.665598,294.734855
104,25.821934,-2.687316,-0.29377,-0.346235,4.565849,4.722633,0.165138,-6.905251,-16.443043,7.413597,27.393723,36.617432,-23.088341,8.15094,30.616264,44.813004,-27.696133,-1.423416,20.470047,34.087715,-30.886002,-14.31982,2.765236,13.31131,-14.420203,-15.886837,-7.069434,3.134945,-0.247249,15.333183,18.366672,19.012396,15.171335,29.258086,31.48141,30.669392,27.315665,41.498315,39.48167,36.372042,36.902972,50.667078,47.600614,42.947412,26.177616,51.989651,75.3685,95.648117,53.907967,87.384453,104.86908,117.508736,45.009499,82.17968,101.694489,114.674721,36.186047,70.829659,89.377213,102.102699,28.237782,54.891472,70.004711,81.73851,-15.172941,-15.572034,-8.508034,-4.673765,15.84991,29.153666,33.892146,36.577239,33.676822,46.228334,49.809117,50.389262,45.421504,59.761184,62.408733,61.323964,51.935122,66.353288,67.988686,65.996309,4.822712,305.971315,-66.029491,294.264549
105,-2.788982,1.484295,0.592403,0.652331,8.72961,11.172009,7.943058,2.092495,-11.68951,13.479137,33.238277,41.652775,-19.400539,13.214664,35.222912,48.132992,-25.205612,1.887989,23.141499,35.72794,-29.410629,-13.073387,2.546482,11.98946,-18.169873,-22.353032,-15.996568,-7.878241,-2.008864,12.872491,15.184241,15.715048,14.711418,28.411488,29.585857,28.827439,27.998625,41.428722,38.554981,35.809867,38.367754,51.666508,47.946046,43.591345,26.11805,51.808491,75.437908,95.905094,54.202423,87.572536,104.746113,116.978588,45.442772,82.65604,101.977329,114.594326,36.685181,71.453533,89.753895,102.142467,28.814049,55.703201,70.743771,82.112217,-15.434021,-16.252091,-9.543711,-5.947491,15.331207,28.623971,33.45625,36.086509,33.278841,45.621698,49.067433,49.249782,45.237734,59.289411,61.788203,60.431608,51.874298,65.803092,67.190685,64.975204,1.916084,307.40462,-65.554733,294.86589
106,-10.399303,15.411853,0.06649,-0.092379,5.781612,11.215153,24.501228,37.013741,-2.034817,24.316063,43.504944,56.462059,-9.050503,19.264755,43.123741,61.658592,-12.166386,12.28569,31.689949,47.18502,-12.771893,0.267334,12.337933,22.958794,-21.442398,-31.257688,-29.31749,-22.860188,-11.854412,-3.983951,3.454565,9.596755,5.407051,14.28639,17.959552,17.666916,19.687081,26.65648,27.834677,25.9566,31.160863,36.841407,35.021623,30.76881,25.978031,51.785374,75.291996,95.677128,54.055595,87.451458,104.716358,117.000332,45.381947,82.655811,101.982479,114.52383,36.676769,71.620159,89.927731,102.302799,28.75597,55.914745,70.978374,82.327023,-15.456437,-16.323783,-9.578786,-5.495787,15.444334,28.837628,33.649652,36.389518,33.359549,45.721796,48.995556,49.122638,45.243045,59.317261,61.672112,60.22351,51.859972,65.692311,67.009571,64.801623,-8.757677,322.792591,-65.762701,294.749629
107,26.332512,-17.705943,0.18568,-0.481344,4.28627,0.990486,-6.036644,-14.665432,-28.359947,-4.454498,16.314125,26.045609,-37.974472,-6.575546,16.51165,30.179558,-43.139992,-17.986336,4.34967,17.208252,-45.18259,-32.999783,-18.312778,-8.83461,-18.297759,-23.281511,-18.010743,-10.456691,-0.107075,14.532404,17.113571,17.457768,18.350308,32.142263,33.08019,31.581384,32.723519,45.927363,42.8567,39.693103,43.502362,56.577395,52.706694,47.626796,26.15633,51.909428,75.543709,96.046371,53.979034,87.235107,104.689178,117.058983,45.377998,82.318382,101.720467,114.286995,36.71442,71.313972,89.551849,101.697121,28.806267,55.518837,70.320396,81.291962,-14.97114,-15.72888,-9.223783,-5.280154,15.871647,29.195904,34.201948,37.036724,33.472367,46.190728,49.749466,49.946759,45.223408,59.681279,62.252505,60.708065,51.92271,66.258501,67.710624,65.29785,17.392902,305.054121,-65.758953,294.235758
108,-38.237686,28.114345,-0.622845,-0.374701,12.228527,22.92984,35.881348,49.102364,14.443016,41.311111,58.377571,68.742256,6.10857,35.260277,56.329536,73.871727,-0.66782,25.459671,42.817154,57.195969,-5.185318,8.918781,19.985104,29.7369,-24.12428,-40.960963,-46.61588,-44.575955,-25.750231,-18.101825,-10.38926,-4.533468,-7.756037,4.355195,9.304737,10.962612,7.685148,16.821677,18.631087,18.06885,20.259693,27.925451,26.645426,21.460553,26.354141,52.052536,75.880909,96.803684,54.405785,87.528362,104.975567,117.506962,46.109905,82.353573,101.911182,114.866467,37.606602,71.323299,89.537258,101.878338,29.621143,54.843922,69.50758,81.099186,-14.801018,-15.56802,-8.767015,-4.606828,15.963778,28.999105,34.07715,36.879816,33.526213,45.748101,49.186056,49.108991,45.371177,59.528323,62.330434,60.724738,52.281851,67.425028,69.418146,67.051438,-21.098442,333.161041,-66.635456,293.853631
109,-4.096184,-25.20905,-0.056591,0.340368,18.449478,34.045715,44.165154,45.923195,15.994606,45.796852,66.205559,76.820641,6.438217,39.763985,61.411171,75.189171,-1.780071,27.374382,48.116913,60.543938,-9.615097,9.476795,25.083561,36.50322,-21.805676,-32.414397,-34.53046,-32.413409,-12.064301,2.395792,6.945131,8.376258,9.881486,24.639464,26.981349,24.988786,27.990227,41.498994,41.277001,38.871699,42.187449,56.316931,53.251518,46.742839,26.932125,52.018204,75.480766,96.642151,52.981567,86.67057,104.881096,118.276749,45.111294,81.779137,102.326775,116.128693,37.409592,70.711327,89.627151,102.308235,30.492439,54.665737,69.455795,80.899887,-13.845801,-14.802871,-8.304566,-3.641854,16.032568,28.688068,33.529362,36.033959,33.654654,46.179613,49.463994,48.954615,45.491529,59.993983,62.587315,60.437104,52.18941,67.719269,69.922956,67.140914,-25.32506,307.918074,-66.822481,294.160083
110,4.396534,-0.264168,0.557842,-0.033469,16.701221,30.36581,39.630604,41.610317,10.730953,38.233051,59.728146,71.633434,1.489048,32.366467,55.059185,70.495663,-6.162357,20.776691,42.559147,56.727505,-13.249054,3.821526,19.712162,32.04649,-22.217366,-32.555558,-34.353668,-31.815418,-12.170883,1.689059,6.704983,8.322597,9.960835,24.284955,27.28726,25.781291,28.408339,41.604278,41.713268,39.601465,42.871273,56.836746,54.259717,48.25276,26.85751,51.707439,74.989529,95.885754,52.510529,86.339664,104.559917,117.822018,44.593449,81.565647,102.148418,116.081142,36.781597,70.426655,89.298191,101.90237,29.67905,54.186401,68.942528,80.347996,-13.65246,-14.649235,-8.081523,-3.225471,15.693991,28.499791,33.634523,36.349071,33.182819,45.828686,49.347903,49.075708,45.08589,59.554938,62.404287,60.469214,52.042568,67.537846,69.794515,66.979869,-21.036043,307.625871,-66.372156,294.098579
