takenoko1/special-research/HandMotion_SimilarSearch_自分用/NewProject/handData/key/d4_feature_d2/136.csv
,vel_0x_L,vel_0y_L,vel_0x_R,vel_0y_R,posFromWrist_1x_L,posFromWrist_2x_L,posFromWrist_3x_L,posFromWrist_4x_L,posFromWrist_5x_L,posFromWrist_6x_L,posFromWrist_7x_L,posFromWrist_8x_L,posFromWrist_9x_L,posFromWrist_10x_L,posFromWrist_11x_L,posFromWrist_12x_L,posFromWrist_13x_L,posFromWrist_14x_L,posFromWrist_15x_L,posFromWrist_16x_L,posFromWrist_17x_L,posFromWrist_18x_L,posFromWrist_19x_L,posFromWrist_20x_L,posFromWrist_1y_L,posFromWrist_2y_L,posFromWrist_3y_L,posFromWrist_4y_L,posFromWrist_5y_L,posFromWrist_6y_L,posFromWrist_7y_L,posFromWrist_8y_L,posFromWrist_9y_L,posFromWrist_10y_L,posFromWrist_11y_L,posFromWrist_12y_L,posFromWrist_13y_L,posFromWrist_14y_L,posFromWrist_15y_L,posFromWrist_16y_L,posFromWrist_17y_L,posFromWrist_18y_L,posFromWrist_19y_L,posFromWrist_20y_L,posFromWrist_1x_R,posFromWrist_2x_R,posFromWrist_3x_R,posFromWrist_4x_R,posFromWrist_5x_R,posFromWrist_6x_R,posFromWrist_7x_R,posFromWrist_8x_R,posFromWrist_9x_R,posFromWrist_10x_R,posFromWrist_11x_R,posFromWrist_12x_R,posFromWrist_13x_R,posFromWrist_14x_R,posFromWrist_15x_R,posFromWrist_16x_R,posFromWrist_17x_R,posFromWrist_18x_R,posFromWrist_19x_R,posFromWrist_20x_R,posFromWrist_1y_R,posFromWrist_2y_R,posFromWrist_3y_R,posFromWrist_4y_R,posFromWrist_5y_R,posFromWrist_6y_R,posFromWrist_7y_R,posFromWrist_8y_R,posFromWrist_9y_R,posFromWrist_10y_R,posFromWrist_11y_R,posFromWrist_12y_R,posFromWrist_13y_R,posFromWrist_14y_R,posFromWrist_15y_R,posFromWrist_16y_R,posFromWrist_17y_R,posFromWrist_18y_R,posFromWrist_19y_R,posFromWrist_20y_R,posFromBody_0x_L,posFromBody_0y_L,posFromBody_0x_R,posFromBody_0y_R
2,-11.471443,17.86248,0.497131,0.372355,6.997032,13.316002,25.477753,34.027519,-7.019348,18.758354,39.065437,52.050705,-16.009254,16.433601,40.075951,56.969261,-18.832684,10.270901,31.152077,46.835289,-18.783588,-0.901051,14.861698,27.139549,-24.592472,-39.908118,-39.663278,-34.928318,-21.735836,-11.690032,-2.935862,4.142279,0.47554,11.306747,17.029158,17.956711,18.415764,26.063861,28.250752,27.338698,33.227341,37.485094,35.030206,30.623203,26.639614,52.242565,75.930061,96.457214,51.563702,84.962196,102.741966,115.755272,42.85841,80.209808,100.837898,114.622879,34.891148,69.175129,87.894745,100.558777,28.012333,52.8162,67.372913,78.700333,-14.401493,-15.660954,-9.848141,-6.61773,16.501501,30.497479,36.513945,40.16148,34.141,47.745419,51.832555,52.103083,46.100573,60.805507,63.913282,62.323085,52.754488,68.067294,70.56269,68.334488,-19.789953,329.013574,-75.803175,300.210589
3,-31.548615,-6.832498,0.790501,-0.041311,18.30986,39.519768,56.603394,67.539139,29.715385,60.31105,78.100777,90.812531,22.011909,55.904732,75.917244,88.617554,15.514641,46.15591,66.160011,78.148041,11.640987,30.648594,45.15976,56.086693,-22.763672,-34.287534,-34.936531,-32.067298,-10.69301,0.452013,5.28071,8.25813,7.846872,21.15637,26.091031,29.531641,22.521178,34.982411,37.74531,38.907885,33.744192,46.998486,46.942293,44.423617,26.290169,51.431465,75.254345,96.224613,51.532059,84.568348,102.254047,115.220203,43.004951,80.03912,100.702915,114.653263,34.81842,68.788319,87.474804,99.931812,27.409973,51.528168,65.46484,76.138515,-14.246067,-15.531093,-9.903346,-6.904067,16.315447,29.874294,35.82549,39.54342,33.571044,46.920742,51.599756,52.747511,45.402176,59.969283,63.410201,62.36347,52.276479,67.901432,70.625058,68.75612,-51.579752,322.269843,-75.253859,300.258044
4,67.098885,-11.494407,1.046104,0.797198,6.600266,0.451012,-12.431946,-23.804283,-41.299896,-16.198425,6.713219,18.636017,-52.88887,-21.821136,4.355278,21.547737,-56.963139,-29.977341,-4.404373,11.655006,-57.663574,-44.134598,-25.939808,-11.489525,-17.40034,-28.54703,-29.471496,-25.839892,-4.532851,11.663233,16.492609,17.063615,18.28053,33.192143,35.578488,31.770216,35.827713,47.121431,46.175476,42.489532,49.895568,61.108516,56.569491,49.824617,25.712471,50.771027,74.182835,95.005817,50.376263,83.302288,101.496449,114.622364,41.967087,79.150257,100.184727,113.662777,34.087658,68.554287,87.283916,99.386387,27.330322,51.814728,66.298656,77.345867,-14.545371,-16.0845,-10.618169,-7.343976,16.711884,30.793572,36.3642,39.216143,34.147113,47.750112,51.179482,50.545676,45.910629,60.408761,62.593923,60.118781,52.61024,67.732977,69.89313,67.266576,15.377455,310.812486,-74.349432,301.092292
5,-53.539581,17.536994,0.650711,-0.195996,17.392616,30.186939,43.626251,53.63308,16.271038,44.165268,61.101723,69.620247,6.220608,39.816399,61.166954,76.520691,0.127373,31.605434,52.153587,66.554489,-3.725853,16.913567,32.005863,43.365326,-25.569055,-41.256562,-43.627716,-36.887967,-20.417959,-11.011827,-5.009811,-0.418359,0.010436,13.657833,18.319433,20.9274,16.741031,27.294608,28.638359,29.23036,29.685584,38.92641,36.639792,31.308817,25.800934,50.458202,73.247967,93.304081,50.118942,83.316708,101.209431,114.220676,41.221161,78.566837,99.432507,113.144016,33.036232,67.529984,86.387959,98.840847,25.965214,50.978508,65.454712,76.379642,-14.987998,-16.328167,-10.321087,-7.176695,15.782109,30.142476,36.25836,39.761276,33.389312,47.41561,51.580798,51.802235,45.309488,60.081175,63.067919,61.353357,52.058438,67.359634,69.669964,67.085462,-38.239059,328.346438,-73.775654,300.893255
6,44.868851,-17.948313,1.22303,0.986339,6.582069,3.300819,-5.187492,-13.459454,-31.86676,-7.444611,14.214134,25.776558,-42.292442,-12.950706,12.196541,29.470139,-46.79472,-21.225986,3.488274,19.288559,-48.488045,-35.275211,-17.534065,-3.805847,-16.963023,-28.636939,-30.966103,-28.320283,-4.838701,11.578511,16.815502,17.507662,17.26807,32.972929,36.367226,32.940078,34.487667,46.989964,47.081602,44.093437,48.432886,60.967602,57.55194,51.492434,24.919853,49.489403,72.30566,92.267933,49.681778,82.744732,100.881214,114.035625,41.233521,78.342533,99.205685,112.571239,33.253555,67.832565,86.517963,98.567219,26.258926,51.475868,65.921631,76.704769,-15.393204,-17.081584,-11.424135,-8.46098,15.752654,29.508422,35.45369,38.655573,33.303603,46.841146,50.645835,50.373146,45.201857,59.525359,61.789438,59.282989,51.982608,66.917007,68.719378,65.72541,6.53801,310.365475,-72.644405,301.846944
7,-45.428295,24.381656,0.124798,0.519938,15.765095,29.577541,42.305088,52.974758,19.394875,48.608494,66.648159,76.714268,9.935188,42.945957,63.719044,78.65633,2.699032,34.337425,53.167362,66.113148,-2.629108,17.812386,32.474213,42.645321,-25.997232,-43.590357,-49.104175,-45.356666,-24.706896,-16.076473,-9.833444,-5.135844,-5.161223,8.73614,12.726883,14.277128,11.976925,21.966227,22.156974,21.639506,25.757147,33.659347,31.747863,27.123683,24.6698,49.298344,72.359505,92.843857,49.366779,82.639618,100.810432,113.964386,40.976715,78.313522,99.415169,112.953758,33.086071,67.674866,86.679611,98.913002,26.292915,51.527596,66.390381,77.644615,-15.813972,-17.717119,-12.220715,-8.985488,15.273409,29.073144,34.723245,37.734071,32.999544,46.165102,49.66598,49.102384,44.973751,59.001592,60.982669,58.169444,51.745116,66.644935,68.386482,64.98459,-38.998575,334.69577,-72.627897,302.315521
8,20.121346,-21.437705,0.536442,-0.13122,15.119648,21.151943,20.242825,15.119648,-3.79818,24.091702,44.459095,54.485264,-12.905273,16.302624,39.872532,56.421146,-19.853039,6.725407,30.432301,46.057606,-26.002636,-9.999104,7.86684,21.480732,-19.601248,-31.824619,-35.009458,-34.745722,-11.214678,4.899772,10.657936,12.137352,10.648426,27.529136,31.235828,28.319418,28.886966,42.855095,43.316741,41.197528,44.266153,58.972199,56.365344,50.546602,24.636154,49.080677,71.795025,92.169743,49.279118,82.604198,100.586414,113.67033,40.458755,78.122921,99.215527,112.653065,32.373047,67.227058,86.097393,98.123074,25.500698,50.998707,65.549412,76.244602,-15.85837,-17.773868,-12.028363,-8.520322,14.509309,28.865971,35.008593,38.626118,32.595264,46.428468,50.424645,50.528571,44.885078,59.320039,61.806605,59.733397,51.676635,66.744538,68.527643,65.282103,-18.967381,313.243939,-72.181606,302.170176
9,0.774651,2.475759,0.164337,0.207173,7.671032,16.630726,27.231503,31.461353,-3.932819,23.268299,43.046894,55.384426,-14.865074,15.49078,38.952999,56.13596,-20.196762,3.846073,24.493961,40.007801,-22.333031,-13.294888,0.176468,13.226624,-20.546585,-27.303624,-20.560726,-14.324861,-8.234603,4.069723,12.55318,18.622751,12.816977,23.909698,31.124184,32.647443,29.995942,37.029561,39.776096,39.076463,44.312898,50.737103,48.566576,44.178282,24.58437,49.09584,71.933956,92.317257,48.945065,82.368793,100.690212,113.905048,40.386028,78.110561,99.260502,112.518826,32.520046,67.498169,86.19215,97.889042,25.877609,51.327381,65.942631,76.7383,-15.703624,-17.792887,-12.324888,-8.725024,14.480657,28.615635,34.72096,38.114207,32.508196,46.241364,50.053217,49.756074,44.720389,59.040125,61.124325,58.405207,51.565484,66.646911,68.272182,64.567528,-18.233299,315.700479,-72.057838,302.358129
10,-4.771271,0.725444,0.304413,-0.411875,5.337009,14.299965,30.720806,41.24136,-4.977093,24.27618,44.735699,59.1152,-13.911381,20.243282,44.507046,62.077503,-17.08477,11.712627,33.218937,48.668346,-17.709618,-3.265057,11.909122,24.722042,-20.906899,-28.92414,-22.263494,-15.507937,-13.147836,1.483554,11.558257,18.311714,9.543835,23.465218,30.456415,30.495688,28.193324,37.779767,40.046501,37.273845,43.094563,50.986451,48.593684,43.030466,24.574585,49.217892,72.125301,92.627048,48.938999,82.603054,100.711727,113.670788,40.140095,78.275585,99.380093,112.624111,32.129917,67.484722,86.320553,98.161068,25.483932,51.315594,65.755978,76.198483,-15.763151,-17.304503,-11.357939,-7.733622,14.567354,29.023373,35.297647,38.999214,32.688692,46.473978,50.428659,50.425572,45.037169,59.399697,61.620057,59.228834,51.857564,66.961035,68.494298,64.892026,-23.035526,316.438875,-71.784382,301.959206
11,2.253227,6.859545,-0.411072,0.190624,5.356922,11.850414,25.3335,34.883022,-6.42849,23.151569,44.907131,58.578243,-15.517159,18.308544,42.011318,58.594151,-18.545094,10.177517,30.503025,45.360088,-18.93734,-5.475426,8.150139,19.184361,-22.91459,-33.040114,-29.060855,-23.871104,-15.360909,-2.299153,6.77859,13.656227,7.264442,18.793182,23.774094,23.624287,24.903632,33.014611,34.02213,31.617384,37.829476,44.396138,41.652814,35.821352,24.669571,49.392757,72.497692,92.94199,49.237576,82.912273,101.16251,114.168606,40.529137,78.540287,99.571209,112.692776,32.543907,67.862377,86.695919,98.430233,25.893917,51.880875,66.487312,76.947384,-15.881033,-17.677167,-12.020767,-8.421768,14.426749,28.904503,35.0575,38.539544,32.561795,46.293111,50.181966,50.029875,44.966588,59.27916,61.477166,58.886984,51.909805,67.080214,68.523568,64.681704,-20.780296,323.275741,-72.193451,302.127152
12,23.172512,-12.786534,-0.30138,-0.533462,6.580925,5.074196,-0.567284,-7.094479,-29.453659,-6.270905,16.86161,30.131607,-38.98859,-11.865063,14.975853,34.922447,-43.552608,-19.302921,7.101974,25.710068,-45.363579,-34.73568,-17.392159,-2.188454,-17.743302,-29.350403,-32.81491,-32.355919,-6.178684,9.942928,16.223439,17.508527,16.070483,31.699327,36.357593,33.665522,33.882328,46.457799,47.797289,45.580758,48.357242,62.23225,60.166452,54.575817,24.609776,49.606934,72.564011,92.733078,49.804802,83.548279,102.021332,115.194397,40.924644,78.794975,99.866753,113.121529,32.654572,67.658844,86.432076,98.353615,25.588875,51.069946,65.700359,76.622772,-15.617111,-17.163342,-11.498112,-7.563808,14.951504,29.54325,35.633137,38.976922,32.791939,46.902587,50.811574,50.609835,44.932132,59.689677,62.091892,59.593532,51.786921,67.243667,69.17312,65.732017,2.37957,310.495444,-72.507477,301.599927
13,-31.30228,20.004972,-0.970459,-1.210679,10.169106,19.326839,32.142391,45.468006,8.375015,39.420033,59.192219,70.828915,-1.008854,33.053112,54.960423,71.173038,-6.872292,24.276867,43.87991,57.741337,-10.075207,6.944389,21.204872,32.209339,-24.404689,-41.297441,-45.663874,-40.531982,-19.168069,-9.831407,-3.167549,1.439773,0.509811,13.755707,17.989933,19.04747,16.866075,26.403488,27.142332,25.820688,29.413327,37.82435,36.623984,31.437258,25.326004,50.11837,72.694702,92.447319,49.308815,83.129768,101.979218,115.596428,40.528564,78.35289,99.934502,113.841019,32.747784,67.516308,86.992378,99.442406,26.317463,51.731129,66.748238,77.82074,-14.941562,-15.935682,-10.301265,-6.880354,16.343605,30.918555,36.80164,39.81259,34.232514,48.810119,52.447157,51.790441,46.175661,61.718919,64.085998,61.35169,52.752265,68.136084,70.297287,67.047115,-28.951464,330.496341,-73.506689,300.385172
14,23.285007,-19.275576,-0.156212,-0.175371,8.764687,11.463776,11.35952,9.739838,-19.117584,3.904495,27.067108,39.972496,-29.288177,-2.593117,24.000206,43.328819,-35.093765,-11.364727,15.56076,33.931046,-38.294334,-26.854134,-8.762684,6.424141,-20.806122,-32.110646,-34.385038,-30.937883,-9.177099,5.969289,12.738307,14.898645,13.742492,29.544732,35.218298,32.981821,32.373086,45.192657,46.779272,44.666667,47.06073,60.766049,58.773178,52.862181,25.911655,50.644398,73.297806,93.225517,49.877129,83.697624,102.132568,115.471458,41.04784,78.496284,99.730911,113.664322,32.99778,67.30402,86.617813,99.371452,26.18803,51.059361,65.965805,77.345924,-14.812442,-16.03121,-10.276627,-6.993296,16.968396,31.066632,36.648376,39.37657,34.557877,48.865324,52.332795,51.644957,46.179552,61.475808,63.811208,61.049977,52.556825,68.061428,70.567568,67.724703,-5.671034,311.218155,-73.667479,300.207192
15,-22.434883,19.845224,-0.252514,-0.118314,9.790707,18.790741,31.631355,44.370003,7.859116,38.018074,57.783279,69.280014,-1.538372,31.540031,53.311844,69.131012,-7.269745,22.931442,42.615852,56.302643,-10.544586,6.857414,21.831608,32.77874,-24.8785,-41.905867,-45.940578,-41.610515,-20.18553,-9.855613,-2.737828,2.563692,-0.10442,13.389898,18.26534,19.366905,16.704413,26.103258,26.800111,25.45599,29.914493,38.087716,36.20087,30.472902,26.082115,50.735207,73.381863,93.245716,50.173645,83.946705,102.290096,115.463734,41.244278,78.729,99.912014,113.669872,33.144722,67.410736,86.723614,99.278126,26.300869,51.354389,66.332302,77.517872,-14.839427,-16.215905,-10.58013,-6.519794,17.043114,31.249166,36.911309,39.690757,34.725591,49.091701,52.694344,52.060661,46.331581,61.951471,64.573703,62.05231,52.574177,68.233279,70.747756,67.847956,-28.106918,331.048343,-73.920994,300.073842
16,2.712708,-17.424793,0.002003,0.220881,15.22871,25.015869,30.009613,31.014977,1.002159,26.941681,49.063454,61.076889,-8.164501,19.423656,44.663315,63.332291,-15.256691,9.766445,35.416031,53.386803,-21.1726,-7.516537,9.534645,23.855438,-21.50631,-34.593507,-39.416955,-39.041513,-12.746767,2.115075,8.43875,10.89339,9.893836,26.063058,30.825682,28.874925,28.603902,41.855911,43.246901,42.087475,43.626543,57.646418,56.417152,51.705658,26.179562,51.113434,73.722954,93.607635,50.265141,83.817558,102.215538,115.558662,41.556129,78.891563,100.12516,114.181709,33.6973,67.809105,86.99398,99.599991,27.021332,51.537666,66.201496,77.278862,-14.510421,-15.930742,-10.415689,-6.744009,17.058798,30.876812,36.596382,39.513965,34.626358,48.746516,52.32557,51.835642,46.21654,61.44308,63.850791,61.196881,52.580538,68.097737,70.518538,67.550134,-25.378733,313.620601,-73.903513,300.291775
17,16.187382,-4.023657,0.140991,0.551802,3.971615,8.385029,9.340611,3.623772,-11.047554,15.680408,34.401226,45.99535,-21.393528,8.304119,30.83559,46.658993,-26.140022,-3.702221,16.941319,32.071323,-28.378029,-21.546307,-8.18779,4.845428,-16.781045,-22.440347,-17.710574,-9.667892,-1.832629,7.908931,13.746444,18.226437,19.161894,27.187224,34.625556,36.115902,35.562556,40.294984,43.720156,42.899123,49.893407,56.240237,53.688031,47.746715,26.015968,50.905266,73.60714,93.649406,50.565262,84.273605,102.593994,115.61657,41.787415,79.360313,100.380249,113.838043,33.796921,68.220577,87.22847,99.38015,27.047482,52.10598,66.875153,77.757339,-14.835289,-16.35614,-10.921054,-7.320141,16.827914,30.641481,36.343822,39.287094,34.42746,48.520139,51.889983,51.286187,45.941566,61.146616,63.395937,60.737767,52.176813,67.548158,69.819771,66.871744,-9.191465,309.581661,-73.762636,300.828293
18,-13.246193,14.984417,-0.056763,0.185128,5.780468,13.65097,28.114414,38.208332,0.533867,27.700367,46.77206,59.529705,-7.533131,24.521999,46.477604,62.856731,-10.837269,16.111507,35.308514,49.417019,-12.212677,-2.349815,8.644123,18.420582,-22.671973,-31.918911,-28.831267,-23.959901,-17.700817,-7.329403,0.891491,7.532995,3.794007,14.765265,21.511435,23.095827,21.585906,29.163238,31.525932,30.225221,36.276268,43.010335,40.079722,34.454075,25.801048,50.946693,73.815994,93.678589,50.781441,84.83036,103.307304,116.476479,41.793423,79.886398,100.896034,114.214783,33.667603,68.770752,87.752953,99.733772,26.816025,52.658958,67.45697,78.03875,-15.05827,-16.42561,-10.98546,-7.56776,15.962173,30.093816,36.106516,39.264061,33.917958,48.14198,51.717576,51.272787,45.792253,61.00527,63.274412,60.636805,52.291175,67.641834,69.603397,66.424301,-22.448931,324.556939,-73.830671,301.004282
19,-8.349781,-11.079506,-0.287933,0.054896,16.181488,27.984238,35.20237,36.827774,7.556705,35.65258,56.776886,68.387489,-1.404533,28.212662,51.892891,69.406242,-8.964386,17.400913,41.961365,59.390945,-15.916557,-0.816936,15.971146,30.531464,-22.367913,-34.988154,-39.574357,-40.153823,-14.541975,0.15629,6.902399,9.274109,8.820861,24.939139,29.983345,27.680672,28.296756,41.551296,43.216829,41.271999,43.889661,58.764718,58.022972,53.050149,25.909939,51.089745,73.885574,93.793602,51.138268,85.202637,103.596611,116.595383,42.225666,80.371056,101.465263,114.826813,34.030094,69.192181,88.274231,100.281258,26.990376,52.722588,67.375145,77.771072,-15.238458,-16.66057,-11.034675,-7.388499,15.744503,30.024532,36.064031,39.280981,33.550543,47.915417,51.498053,51.021957,45.340549,60.593642,62.866551,60.215914,51.721898,67.062553,69.161079,66.064419,-30.799913,313.461548,-74.119806,301.043293
20,20.425816,-4.231323,-0.020485,0.043225,12.071056,15.507145,14.521809,10.8494,-11.434536,12.836781,34.670734,46.278591,-22.804699,4.437504,29.022961,47.20602,-30.685959,-6.528168,18.778439,36.293964,-36.337566,-24.071102,-7.120113,7.070789,-18.399153,-29.146812,-32.310162,-30.948318,-7.144646,10.129044,16.540404,18.501597,14.993679,32.465773,37.062289,35.089548,33.018007,47.055852,48.176622,47.137053,47.481559,62.097696,60.291867,55.732217,26.055164,51.430149,74.677162,95.155678,51.141701,85.157433,103.625221,116.563225,42.278252,80.620651,101.625824,114.591866,34.175949,69.611893,88.449669,99.920425,27.232819,53.280945,67.856312,77.842598,-15.220921,-16.469144,-10.823242,-7.159775,15.518805,29.744062,35.738236,38.965313,33.595991,47.856446,51.364363,50.807992,45.580758,60.636064,62.618191,59.857453,52.13365,67.410702,69.033317,65.538923,-10.363026,309.220977,-74.129219,301.077271
21,-15.818081,14.883146,0.112209,0.079843,8.597717,18.462009,32.890549,44.357643,3.586178,31.069336,49.245872,60.399055,-5.902233,26.126747,48.811913,65.205803,-10.918064,18.136253,38.888512,53.446655,-13.894215,4.59589,20.893021,33.305969,-24.889739,-37.497011,-35.482651,-30.36453,-15.386906,-5.212476,2.51423,8.416396,6.219131,16.500081,22.281525,22.491847,23.509617,30.061706,32.12911,30.75751,37.429456,42.290449,39.368543,33.528251,26.353226,51.40337,74.504757,94.946766,51.567078,85.43478,103.725643,116.481571,42.609844,80.755749,101.578388,114.378719,34.351444,69.687195,88.409557,99.797459,27.233334,53.239689,67.760582,77.699833,-15.261985,-16.710588,-11.205724,-7.554916,15.297862,29.713928,35.769358,38.992359,33.383075,47.886271,51.476811,50.852699,45.412426,60.669039,62.760155,60.042766,52.064613,67.41311,69.146629,65.769005,-26.177959,324.098751,-74.013863,301.151742
22,-0.043201,-7.735659,-0.175152,-0.302515,7.855396,20.920944,35.851879,44.675846,6.551342,35.286541,54.177761,66.847401,-3.380013,28.764782,51.256199,67.328053,-9.066525,16.367912,36.308956,50.087528,-12.067051,-0.068436,12.994537,24.452419,-20.693181,-28.310711,-24.431859,-18.876545,-8.507107,1.945632,8.347853,13.973377,12.60857,22.973562,29.434507,30.804008,29.681818,36.363459,37.895919,36.704568,43.876014,51.106123,48.994753,44.431706,26.477509,51.719799,74.838524,95.404015,51.525364,85.328064,103.612404,116.386757,42.659912,80.85743,101.715317,114.712944,34.478817,69.748249,88.460541,100.007744,27.412548,53.140182,67.62989,77.771873,-14.884258,-16.176014,-10.666951,-6.991196,16.071471,30.296234,36.139367,39.256219,34.011818,48.081217,51.59815,51.027021,45.873455,60.804766,63.00376,60.513304,52.370339,67.66357,69.397398,66.089428,-26.233292,316.370903,-74.201145,300.857038
23,18.170929,-7.987848,0.225506,-0.17111,10.273533,13.126202,11.905346,8.654194,-15.207081,7.811794,30.211773,42.553997,-26.515503,-0.191288,25.368862,44.649067,-34.097843,-10.754929,15.670567,34.625988,-38.850975,-28.496075,-11.567059,3.580799,-18.100837,-28.214689,-30.612705,-28.670716,-6.817492,10.681278,17.930838,20.288839,15.698128,33.206531,38.372632,36.552354,34.011077,47.568936,49.290043,48.379472,48.564167,63.143687,62.096708,57.866867,26.478539,51.620121,74.390659,94.347897,51.809406,85.44508,103.564053,116.358318,42.812405,80.646915,101.383381,114.478054,34.521046,69.335461,87.973766,99.632664,27.335186,52.785931,67.272663,77.466488,-14.988986,-16.315262,-10.53777,-6.558511,16.542441,30.646791,36.458431,39.446101,34.340207,48.397688,51.809213,51.16812,46.037587,60.920548,63.031795,60.352259,52.440055,67.66005,69.35584,66.041016,-8.054409,308.39065,-73.967686,300.693523
24,-23.164616,15.157194,0.172749,-0.202418,8.01218,18.517742,35.831108,51.370811,8.039589,36.731987,55.882072,68.161125,-0.855732,32.210312,55.281258,72.301254,-6.184044,23.988991,44.893799,59.61319,-9.378719,9.499397,25.711155,37.751884,-25.242086,-38.564553,-36.437683,-29.738875,-15.738513,-4.220208,3.528913,9.471031,6.653916,18.255583,24.080191,24.585741,24.29959,32.281139,34.246902,32.401861,38.042823,44.49321,42.470266,36.583105,26.36364,51.570568,74.447021,94.340515,51.95961,85.562782,103.633118,116.476707,43.008728,80.639191,101.294861,114.369736,34.65889,69.285221,87.872887,99.576302,27.346516,52.781467,67.233353,77.426376,-14.988739,-16.222945,-10.391792,-6.644036,16.755851,30.848962,36.528333,39.348165,34.452593,48.290736,51.80841,51.255559,46.155469,60.999712,63.302756,60.799023,52.611536,67.990229,69.737519,66.53434,-31.215277,323.556783,-73.791189,300.500044
25,8.993855,-9.935333,-0.489407,0.716614,15.608253,23.637371,25.063305,22.231236,-0.686989,27.014179,48.517056,59.735699,-10.126648,18.902149,43.243732,60.563793,-17.175579,9.022522,33.83234,50.828304,-23.213253,-7.256413,10.547276,24.83511,-19.746114,-32.402479,-36.602063,-36.582241,-12.238808,3.088015,10.033454,12.506928,9.974668,26.181742,30.994446,28.579943,28.369683,41.666152,42.749378,41.155785,43.684032,57.95517,55.976748,50.747724,26.793938,52.094707,75.354595,95.779095,51.612053,85.184727,103.398113,116.096249,42.840099,80.699673,101.710224,114.886494,34.78529,69.90097,88.46014,99.688854,27.883987,53.416786,67.625484,77.252941,-15.080562,-16.862309,-11.531519,-8.08881,15.621002,30.248378,36.4898,39.857668,33.538316,48.073992,51.565855,50.838126,45.468249,60.241479,62.0943,59.104839,52.031515,67.070827,68.720798,65.119761,-22.227917,313.617406,-74.28709,301.212613
26,-1.76405,0.617628,-0.394077,0.315236,9.026356,20.389595,31.15242,36.370354,2.514153,31.218567,50.369339,61.792831,-8.487625,23.017502,46.111794,62.315025,-14.185753,12.038727,33.781242,48.550529,-16.809769,-2.715282,13.293743,26.529808,-22.900573,-29.595058,-22.927743,-14.569083,-8.873534,-0.682527,5.896732,11.546895,13.344449,22.718409,30.028176,30.991482,31.685371,37.197769,39.038363,37.339918,46.548078,51.226228,48.46302,43.3273,27.118378,52.559566,76.070938,97.102089,51.569195,84.977188,103.213005,116.0392,43.211918,80.834312,102.090454,115.590477,35.544434,70.276394,88.976555,100.370636,28.922997,54.18972,68.367004,78.060608,-14.897472,-16.835077,-11.679535,-8.087328,15.473171,29.680583,35.728541,39.115922,33.374183,47.53874,51.137677,50.582232,45.384453,59.890613,61.964624,59.098541,52.050349,66.966099,68.616811,64.945378,-24.007301,314.18077,-74.696503,301.473585
27,-14.757843,-2.337315,-0.005436,0.433488,9.671459,28.498764,43.564911,54.344673,13.822746,46.473427,64.757767,78.659363,3.035316,40.708809,63.789368,80.136795,-2.808838,28.04266,49.855156,65.91259,-5.773087,13.620243,26.953583,38.056068,-17.645859,-23.497761,-20.820633,-12.797464,-9.579897,0.707104,8.852971,15.054503,12.299262,22.33605,32.72673,37.905737,30.473211,39.219292,43.4797,44.066514,45.653438,55.366407,55.089519,52.323965,26.911354,52.320499,75.748501,96.786175,51.487656,85.279484,103.589115,116.40913,43.159046,81.212368,102.379246,115.624866,35.502663,70.682888,89.34763,100.590878,28.962078,54.403439,68.592339,78.300877,-15.101187,-17.298822,-12.266596,-8.448938,14.791138,28.967921,34.805187,37.944393,32.754395,46.736726,50.301762,49.83777,44.811224,59.270762,61.358359,58.664806,51.57839,66.403676,68.12114,64.638664,-38.775587,311.82564,-74.712381,301.889258
28,36.819305,-1.92828,0.206108,0.125971,10.86937,11.552467,6.55632,0.454903,-20.130959,4.151115,26.028328,37.131157,-31.115055,-3.409538,21.339798,38.183098,-37.489414,-12.659054,12.649269,29.506874,-41.41634,-28.292999,-10.906391,3.128128,-17.824071,-28.375858,-30.728672,-28.820708,-6.595623,10.107801,16.082771,17.527854,15.466132,31.977389,35.685316,32.968483,33.319596,46.366408,46.115455,43.586528,47.798524,61.718981,58.116215,51.950313,26.746902,52.04195,75.371189,96.523762,51.732559,85.17168,103.385639,115.984554,43.411503,81.219234,102.118092,115.019817,35.605831,70.718365,89.121037,100.082188,28.796425,54.304619,68.425083,77.821255,-15.278904,-17.371008,-12.298089,-8.423621,15.044623,28.961684,34.547256,37.380056,32.824975,46.564751,49.943795,49.301467,44.797639,59.152078,61.051336,58.348829,51.561594,66.330255,67.748044,64.097545,-1.985693,309.890537,-74.535685,302.008406
29,-32.666931,19.696467,0.474186,-0.402798,13.54351,24.181767,35.222054,44.291153,10.388031,40.002823,59.813805,70.072403,1.167126,37.3526,61.008797,77.202759,-3.56987,30.688705,52.428131,66.979408,-6.318855,17.026577,33.012886,43.677292,-26.900949,-42.894677,-44.930403,-38.898869,-24.77056,-17.925959,-11.224311,-5.382166,-3.210898,9.667089,14.332085,15.776551,15.239631,25.164343,26.062688,25.739177,30.102461,37.627367,34.380406,28.630023,26.672401,51.580296,74.650612,95.679703,51.025887,84.651031,103.337746,116.449013,42.604465,80.791054,102.16507,115.468369,34.875755,70.381508,89.057693,100.131569,28.289623,54.29821,68.737564,78.277588,-15.040054,-17.079361,-11.719672,-7.811489,14.921246,28.822931,34.404304,37.252912,33.120142,47.062582,50.495103,49.999803,45.371053,59.876287,61.763997,58.978992,52.306489,67.090094,68.381974,64.406915,-34.666929,329.58282,-74.075804,301.601424
30,42.441788,-20.654895,0.510864,-0.84456,8.980064,6.526566,-2.929459,-13.140736,-29.535027,-8.594513,14.941635,28.642387,-42.10516,-16.933594,10.137634,29.605522,-48.851337,-26.668224,-0.076103,18.55751,-52.254009,-41.239414,-23.463192,-8.319855,-16.303591,-27.116829,-28.82608,-27.385567,-5.120529,13.125297,20.152803,22.088184,16.530524,33.053575,38.295074,37.325654,33.955687,46.714989,47.81989,46.687696,48.354339,61.169835,58.130232,53.128449,25.798416,50.477886,73.279839,93.674812,50.370998,84.676781,103.675003,116.884575,41.831818,80.579796,102.247124,115.951309,33.964348,69.976044,89.030342,100.547218,27.347431,54.03883,68.820305,78.558655,-15.21629,-17.090044,-11.677559,-8.042991,14.597118,28.798601,34.903556,37.989224,33.022453,47.784383,51.688676,51.397214,45.363643,60.64051,62.624427,59.64849,52.200587,67.356732,68.852636,64.785877,7.762098,308.984226,-73.5777,300.813165
31,-45.20977,19.097859,1.100807,-1.786316,14.952621,28.00621,40.211563,49.721031,17.839737,49.134407,68.363342,79.55143,7.969837,42.699852,64.587708,81.588936,0.486946,32.422771,53.014984,68.539581,-5.140743,15.827579,32.249966,44.861069,-25.922514,-41.148746,-44.950224,-42.273529,-16.868484,-4.55471,3.193237,9.137208,2.649031,16.164097,21.404916,23.549569,18.463682,28.287802,30.160877,30.598564,30.852914,40.008154,38.552449,33.767287,25.598831,49.360085,71.591148,91.550331,49.799824,84.066124,102.890167,116.604424,41.215496,79.116211,100.769463,115.327835,33.304195,68.026943,87.579002,100.852776,26.440716,51.841164,66.847229,78.310661,-14.678629,-16.393129,-11.128536,-8.000816,16.145386,31.019887,37.391912,40.787814,33.891961,49.419163,54.220937,54.668257,45.918718,62.340437,65.786048,64.164853,52.735778,68.638053,71.560885,69.105874,-37.454882,328.084725,-72.484102,299.029488
32,23.28907,-23.940943,0.252457,-3.189965,15.515099,22.314606,20.301704,11.25824,-6.091232,22.883949,46.056633,57.978859,-18.534393,14.250984,38.995743,57.446022,-26.947289,1.712608,26.337318,43.620186,-33.197422,-15.557957,1.137714,15.384293,-17.429548,-25.976052,-26.731012,-27.001541,-0.747365,22.241696,27.696727,30.412078,19.646696,40.545444,45.564579,46.208636,35.187176,51.486753,54.288677,56.563316,47.04097,63.060076,63.157766,60.748265,24.754772,48.661652,71.659927,91.396179,51.878357,84.697037,103.083687,117.18853,43.229198,78.914223,100.036583,115.1968,34.398937,66.017132,85.250702,99.512444,26.040287,49.279747,63.575764,76.238251,-15.587718,-16.657359,-11.151816,-9.718836,16.170148,30.508903,38.2981,43.439068,33.772165,49.939411,57.788135,61.083322,45.721055,63.238535,69.486812,70.914544,52.783264,70.270981,75.327846,75.513776,-14.165611,304.196825,-72.231445,295.892568
33,35.9729,-1.927601,-3.330173,-9.350988,-7.729912,-19.114723,-31.455803,-49.246902,-42.298336,-31.530762,-11.397629,4.434586,-48.565235,-33.099575,-8.912315,10.985298,-50.677471,-43.925285,-22.626114,-2.624702,-50.75861,-64.259205,-70.712242,-71.493416,-4.601394,-1.620454,6.914811,19.042592,3.619747,21.848593,33.645144,40.892975,15.96594,30.769736,42.568882,48.040524,25.39072,38.378869,48.015021,52.408871,33.990885,42.744253,49.076881,54.103426,25.956173,49.853268,71.019516,89.95554,51.897068,81.720943,98.440647,112.298985,44.159374,76.071796,95.937824,112.462406,35.410194,62.709846,81.220608,96.339741,26.232491,46.459751,59.75893,72.14201,-18.061872,-18.20396,-11.601235,-8.677724,14.013577,28.021164,35.137158,41.122872,31.044464,47.661067,56.862496,63.947677,42.917339,60.837926,70.48155,76.703707,50.960886,68.926921,77.216791,80.667651,21.797848,302.500618,-75.57106,286.772973
34,5.551414,13.41361,-9.469871,-32.201759,-19.014473,-35.801754,-49.60516,-59.857521,-47.624989,-69.132957,-80.753689,-90.765553,-44.299278,-66.207676,-80.820808,-94.198952,-36.818905,-56.914616,-69.351883,-81.182899,-26.181793,-40.868225,-50.507984,-60.671368,-14.805217,-21.547312,-24.523559,-28.884743,-1.482751,3.504027,5.691721,5.93724,11.343427,17.438008,21.436223,24.238025,21.826548,30.185639,35.598742,39.921024,30.019592,40.006363,45.932797,49.928481,25.104532,53.453264,76.038837,92.049694,55.64043,94.466457,101.389961,101.744041,51.206302,93.794117,100.276623,101.035251,45.610199,84.430933,90.340061,90.904312,38.607959,67.494077,73.494901,75.205965,-2.553719,0.981708,6.623349,8.177792,18.129458,28.388609,29.649398,32.074924,23.061988,33.618684,36.06116,39.218983,24.588396,34.864591,38.24981,41.422639,24.628349,34.085332,37.021409,38.194482,27.411633,316.400095,-84.978561,255.057082
35,4.046402,-1.143618,-9.469872,-32.20176,-19.046974,-35.893593,-51.557064,-63.727055,-36.922932,-64.327068,-80.655212,-94.059563,-32.321777,-61.93903,-81.918354,-98.698883,-26.300468,-53.126221,-71.189346,-85.650215,-19.855957,-40.706177,-54.330368,-66.35479,-13.980911,-18.774101,-18.290719,-16.089379,-4.590279,1.671275,6.531156,11.28674,9.902049,17.611712,22.760399,27.282073,22.381931,32.463056,39.192492,44.413058,31.736315,42.723505,48.909784,52.357804,24.252892,57.053261,81.058159,94.143848,59.383793,107.211971,104.339275,91.189098,58.253231,111.516438,104.615421,89.608097,55.810204,106.15202,99.459515,85.468884,50.983429,88.528404,87.230873,78.26992,12.954434,20.167376,24.847934,25.033308,22.245339,28.756055,24.161639,23.026976,15.079512,19.576301,15.259824,14.49029,6.259454,8.891257,6.018072,6.141572,-1.704188,-0.756257,-3.173971,-4.278686,31.158743,316.373821,-94.747725,223.972665
36,29.867935,-24.414384,-1.644516,-13.382982,-30.835419,-57.511139,-81.313648,-96.980095,-68.664265,-101.897564,-118.107319,-128.506393,-61.956825,-98.104877,-116.994781,-129.195786,-53.421593,-86.098366,-103.184566,-114.333172,-44.19857,-68.838558,-82.796116,-93.265228,-14.59718,-13.529948,-0.629484,11.978654,16.455929,29.628897,35.193412,39.049973,34.117597,47.836377,53.046568,56.290379,46.393208,60.977173,65.854159,68.224819,54.075515,68.007643,72.296333,74.394365,26.646023,58.079281,83.363514,94.39127,54.071674,101.910496,101.884747,90.898132,48.761787,99.89439,103.669338,94.749584,39.783497,87.847881,90.809155,83.058414,28.922825,58.762894,66.603184,66.359482,30.623017,42.760864,42.984832,35.012916,37.711162,34.328227,22.256269,18.102936,13.033042,7.689161,-2.082286,-3.651611,-11.554614,-16.86694,-24.553569,-23.336592,-32.152699,-42.763025,-50.962121,-50.325227,60.920191,293.309224,-96.498728,211.939471
37,1.120377,1.412047,-28.240643,-47.603887,-30.321121,-56.478653,-80.001698,-94.437218,-67.721786,-100.386944,-116.286163,-127.395515,-61.449738,-97.868614,-116.211376,-130.031834,-53.087425,-85.593052,-102.645092,-115.445023,-43.989143,-67.641735,-80.974445,-92.552147,-16.5304,-16.213991,-2.599939,11.042764,13.934351,27.168329,32.508443,35.631161,32.348447,43.7083,48.131544,51.041964,45.255395,57.874771,63.135103,65.973831,53.061388,66.558608,70.959807,72.882653,40.580292,76.875801,102.307949,111.430492,78.666973,124.622383,113.982811,100.248299,68.649101,118.341007,109.317055,95.133476,56.64156,104.389172,95.652637,81.01593,44.281368,82.007561,77.195034,65.613556,23.190058,25.111052,13.955284,-3.422702,20.985075,2.305884,-0.998628,1.652812,-6.146204,-21.64673,-20.679842,-15.151081,-30.971104,-42.22734,-37.648207,-30.880517,-50.25653,-60.311844,-53.895173,-46.859825,61.542406,296.425643,-125.237532,166.039957
38,-0.967827,0.056872,-3.408909,-28.240007,-30.093155,-55.887794,-79.383373,-94.506912,-66.405315,-98.970108,-114.471245,-125.347023,-60.201988,-96.367035,-114.550838,-128.356705,-51.971054,-84.40773,-101.535816,-114.335232,-43.035507,-66.807346,-80.340614,-91.922493,-16.736214,-16.151129,-3.144084,9.791886,13.679013,26.360016,31.459797,34.452963,32.071744,43.042569,47.221899,50.036853,44.857908,56.821926,61.465928,63.995842,52.493346,65.438332,69.651562,71.477646,34.822254,65.358353,84.710541,90.293198,69.490013,105.598698,105.349331,96.578522,61.797466,103.79734,108.272896,101.831303,49.001255,86.545658,89.960346,86.577873,32.892494,53.285294,57.68549,59.914284,18.829553,24.812674,22.562613,13.288009,14.726918,3.494826,-4.742555,-5.161902,-7.234925,-22.31311,-32.342612,-32.233005,-26.617762,-42.362728,-52.703514,-51.899678,-40.618032,-57.421739,-69.40734,-70.186753,60.561533,297.262933,-128.659487,138.580367
39,0.665016,-0.612996,-17.536297,-45.804263,-29.77169,-55.041504,-78.554649,-94.337769,-65.019608,-97.521286,-113.294277,-125.02676,-59.19136,-95.237217,-113.925591,-128.709583,-51.341171,-83.829689,-101.537647,-115.104961,-42.575912,-66.20533,-79.992599,-91.956367,-16.624075,-16.181881,-2.883497,9.973618,13.11622,25.566214,30.717866,33.786429,31.103189,41.850415,46.181836,49.14598,43.784253,55.763833,60.773953,63.56501,51.642178,64.92463,69.542943,71.655549,12.66592,34.288559,56.629086,68.43441,58.672199,92.337055,100.890541,100.169792,68.060246,109.280491,119.822845,117.647552,69.38427,107.597237,116.935272,115.554314,64.822941,93.507786,101.95982,100.622578,-36.342186,-55.490001,-60.59429,-56.328294,-48.332665,-61.535706,-61.450922,-58.931444,-24.500927,-31.59679,-35.248555,-38.374701,-2.395484,-7.173237,-13.171826,-18.478842,16.620247,20.564153,16.25947,9.947806,61.072826,297.581333,-146.349506,93.707501
40,0.426521,0.04162,-5.481606,-18.986739,-29.256592,-54.410706,-77.727299,-93.375893,-63.971901,-96.476269,-112.825413,-125.374489,-58.218269,-94.085827,-113.111286,-128.184013,-50.588036,-82.636585,-100.385456,-113.911171,-42.005653,-65.527382,-79.32415,-91.330376,-16.981857,-16.933568,-3.926153,8.872052,12.929857,25.00126,29.95636,32.906054,30.802896,40.882848,44.95535,47.770736,43.297907,54.915012,60.040605,62.992398,50.911239,63.333199,67.816217,70.155569,17.992001,40.183983,59.881611,74.786167,64.506683,89.200573,102.680511,111.797962,71.861916,105.556412,121.400642,128.706722,72.716618,104.339848,118.042717,123.67733,68.790836,94.860764,104.567127,106.917915,-34.2867,-48.561543,-50.877338,-53.928456,-41.848378,-53.780811,-59.482844,-63.008731,-23.746121,-30.257578,-34.345023,-37.230311,-5.133806,-4.871953,-9.793399,-15.001799,13.330648,19.196567,14.820068,9.424008,61.149588,300.938935,-152.180872,78.036744
41,-1.488762,0.235146,6.456757,-14.828157,-27.729034,-52.473907,-75.334911,-91.361332,-61.800499,-95.056973,-111.786633,-124.095612,-56.32782,-93.201771,-112.512417,-127.140141,-49.110832,-82.33675,-100.700626,-114.669514,-40.981407,-65.431995,-79.803429,-91.999855,-17.226636,-17.331303,-4.860992,7.749183,12.469631,24.146572,28.704,31.500305,30.427763,39.7974,42.704979,44.61776,42.80131,53.861488,58.501044,61.154953,50.21525,62.54866,66.769609,68.88666,19.871979,44.362335,66.828518,83.62524,70.252991,94.653282,108.844757,117.63937,74.538746,106.85606,123.051739,130.912628,72.965183,103.234005,118.647823,126.578636,67.257156,91.970215,102.175541,106.726398,-34.729265,-47.726924,-48.429582,-48.812373,-40.955775,-49.84166,-55.496639,-58.591107,-22.293906,-24.580523,-26.777171,-27.937862,-3.840505,-2.598025,-5.185861,-7.217543,12.966043,17.665403,16.961912,15.015415,58.924084,303.985577,-146.460857,66.020082
42,0.248566,-0.89958,37.675724,-9.136622,-27.87941,-52.819061,-75.909119,-92.148628,-61.301651,-95.044842,-111.978836,-124.560528,-55.996628,-93.440323,-112.733746,-127.464581,-48.956566,-83.141556,-101.625423,-115.599232,-41.116447,-66.47398,-80.954704,-92.75671,-18.023587,-17.806905,-5.481214,7.059245,12.786905,22.710875,26.599546,29.145453,30.615916,38.611236,40.938671,42.58895,43.030157,52.826613,56.28019,58.037236,50.698509,62.066389,65.169718,66.415285,13.662815,35.641994,53.184242,63.953762,69.151897,98.447056,107.544651,108.869419,76.128216,114.783497,125.915737,127.905178,74.970303,107.956753,117.719593,120.399799,67.591209,90.896702,98.695564,100.940323,-33.403175,-47.487302,-48.997964,-44.558572,-37.72626,-49.387486,-51.257813,-49.529419,-17.550177,-21.012554,-21.950851,-22.242869,1.396022,1.466603,-0.051438,-2.475975,18.40681,25.078602,25.128003,22.359886,58.506832,308.790608,-109.450951,62.588072
43,-1.360016,-0.265342,36.344948,3.509307,-27.986641,-52.658501,-75.534096,-91.380215,-61.799927,-94.788837,-111.588135,-124.554749,-56.439743,-92.982674,-111.927624,-126.89455,-49.352646,-82.886524,-101.041431,-115.313473,-41.312828,-66.276226,-80.460434,-92.566509,-18.291213,-18.834246,-7.101544,5.217972,11.674286,21.346191,25.227266,27.44602,29.255122,37.479474,40.286586,42.282607,41.654111,51.02418,54.471088,56.321686,49.602006,60.853734,64.118108,65.649271,8.359737,24.99567,39.058113,44.356842,58.118649,79.434528,91.426563,98.700085,64.7085,92.951145,109.911861,121.706486,62.877274,89.021702,103.701611,115.264606,55.048885,73.317318,84.145718,92.840366,-27.944037,-43.956846,-44.687013,-39.761152,-31.897083,-44.32108,-50.484512,-53.124065,-14.238719,-16.741525,-18.244622,-17.580682,3.092337,6.273471,6.752099,7.511413,20.092503,28.571267,32.383645,35.072443,56.676779,312.166055,-73.57604,69.738167
44,-1.041412,0.29387,10.486736,8.539372,-27.431488,-52.065468,-74.921265,-91.801472,-60.698776,-94.207363,-110.857658,-123.189354,-55.51609,-92.632027,-111.683922,-126.371384,-48.545609,-82.636585,-100.885105,-114.973412,-40.760651,-66.229076,-80.654011,-92.718258,-18.341231,-18.639362,-6.542888,5.176228,10.784956,21.93424,25.938014,28.083161,28.608287,37.141329,39.477224,40.906869,40.96794,50.245878,53.72539,55.553264,48.536009,59.39272,62.717917,64.18202,11.654491,27.410831,40.543785,46.603146,60.642357,81.089287,92.810783,100.786972,66.625671,93.28228,109.903564,123.580971,65.099144,89.338074,104.972191,117.488823,57.531395,74.324799,84.439888,92.539673,-28.875172,-45.654086,-49.090682,-45.889726,-34.10009,-43.429898,-48.830898,-52.493655,-16.06968,-17.293975,-18.351574,-18.582119,1.158623,4.765773,6.076765,7.391926,17.906817,26.532948,31.225022,35.092327,54.628572,315.352839,-64.096098,81.170453
45,-1.078606,-0.705251,16.658649,20.590706,-27.050972,-51.497269,-74.328175,-91.0429,-60.824661,-94.327698,-110.964775,-123.59808,-55.762482,-92.593231,-111.486912,-126.037045,-48.879089,-82.637157,-101.037884,-115.227299,-41.068726,-66.532688,-81.100616,-93.19725,-18.135849,-18.613488,-7.094875,4.429419,11.2437,21.039353,25.055662,27.519997,28.969094,36.973677,39.165322,40.629919,41.203148,50.353077,53.712484,55.441434,48.62036,59.418655,62.619117,63.978614,18.322792,35.456429,46.824245,53.84222,61.566753,82.3522,96.366291,107.362232,64.986706,91.449909,110.552044,126.812954,63.290577,85.864849,103.636951,118.868465,57.261143,71.201305,81.979694,90.672398,-33.956922,-53.196313,-65.009074,-71.952753,-34.573531,-41.348138,-46.309783,-50.966042,-17.204684,-14.806637,-15.044006,-14.306829,-2.3174,2.449948,3.849984,5.822662,10.727868,17.992156,23.351042,28.248004,51.67614,316.615712,-49.311275,103.729284
46,-1.388397,0.306159,43.166943,24.04666,-27.092857,-51.574631,-74.302311,-90.945683,-60.738087,-94.194603,-111.011868,-123.923779,-55.774727,-92.449322,-111.41922,-126.156921,-48.992271,-82.69804,-101.088524,-115.320511,-41.150551,-66.666641,-81.308556,-93.577709,-17.951648,-18.641647,-7.394488,3.873233,10.900306,20.87133,24.658298,26.85618,28.479105,36.217358,38.243697,39.693597,40.688581,49.76898,52.985312,54.65424,48.149575,59.036914,62.228113,63.688696,9.744072,24.018745,36.484108,41.280098,62.719231,89.980545,96.595459,92.621498,69.284706,105.644073,110.920944,104.236565,65.243225,94.337883,94.48185,88.65303,54.923058,72.727776,72.915344,67.910385,-32.293088,-52.610579,-61.129234,-56.373834,-29.653165,-43.28778,-46.453199,-46.05991,-8.870755,-6.419048,-7.455868,-8.221882,9.97686,18.409805,16.217881,13.098559,26.721781,38.152523,36.142856,31.31138,46.719131,318.595909,-9.712944,129.449982
47,-0.804062,-0.235269,2.486801,22.601237,-26.795883,-51.483536,-74.068623,-90.598354,-60.862942,-93.861637,-110.70488,-123.795719,-55.857239,-92.049236,-111.171799,-126.406574,-48.963318,-82.182827,-100.707779,-115.223122,-40.772552,-65.71701,-80.346394,-92.76289,-17.890082,-18.276022,-6.471073,4.49895,11.04931,20.724982,24.693063,26.898665,28.508066,36.001478,38.458527,40.254847,40.677899,49.537292,53.220087,55.178748,48.188293,58.897111,62.278131,63.78021,17.530289,38.025513,50.402756,51.136665,70.923729,95.210152,104.412575,106.71524,72.236023,98.353615,112.785988,120.383949,66.986046,85.107994,98.018188,107.97718,56.085434,63.239822,69.182854,74.302826,-31.892081,-51.286558,-56.405265,-54.07993,-23.07369,-30.041946,-35.252168,-38.327925,-4.02977,2.02986,3.096227,2.278528,10.480589,21.039724,23.617927,22.756077,22.481534,33.673673,38.349538,39.927137,43.420401,319.251606,-9.720812,152.942185
48,0.044289,0.900136,-5.453167,28.699677,-26.918449,-51.569595,-74.380817,-90.38784,-60.2005,-93.479462,-110.82962,-124.162045,-55.391464,-92.212486,-111.783829,-127.415428,-48.678474,-82.300758,-100.992279,-115.523243,-40.653648,-65.768166,-80.319958,-92.436676,-18.040568,-19.068342,-7.342062,4.665799,9.911126,19.457864,23.702587,26.258436,27.53562,34.558248,37.295149,39.505444,40.092011,48.313584,51.93679,53.949297,48.131914,58.28362,61.294385,62.482525,18.857975,40.429631,54.388562,56.82993,69.75483,96.937695,106.552563,107.731476,70.398159,100.797615,113.921757,118.507061,63.442154,85.286179,96.010266,102.861443,50.987721,60.637436,64.599438,67.184716,-29.460828,-47.083578,-52.674969,-49.35113,-14.343154,-20.474708,-25.234568,-28.704895,6.680407,15.022825,13.858738,10.204286,22.358126,34.220967,33.402156,29.990323,34.201824,47.04026,47.057612,44.672224,42.144213,319.892205,-16.494456,181.382326
49,0.648766,-0.202047,-5.453167,28.699677,-26.159935,-50.289917,-73.283215,-89.019184,-59.177399,-92.68816,-110.072079,-123.159943,-54.50489,-91.336155,-111.090031,-126.791782,-47.884254,-81.306152,-100.065479,-114.479942,-39.717636,-64.774189,-79.642067,-92.167969,-17.06522,-18.511292,-7.063815,5.233039,11.861143,20.807975,24.516828,26.736323,29.189976,35.649254,38.22863,40.358093,41.187772,49.093492,53.096771,55.469531,48.69514,58.733163,62.482278,64.198137,20.185661,42.833748,58.374367,62.523193,68.58593,98.665237,108.692551,108.747711,68.560295,103.241615,115.057526,116.630173,59.898262,85.464363,94.002342,97.745705,45.890007,58.035049,60.016022,60.066605,-27.029576,-42.880598,-48.944673,-44.62233,-5.612618,-10.907469,-15.216969,-19.081865,17.390583,28.015791,24.621248,18.130044,34.235663,47.40221,43.186386,37.224569,45.922114,60.406847,55.765686,49.417311,41.862602,318.696825,-22.877998,209.08867
50,1.857033,2.455876,-4.409695,17.387496,-25.853233,-48.529129,-70.934029,-87.554569,-58.273315,-92.470093,-109.769325,-123.231239,-54.352455,-91.324081,-111.029663,-127.093277,-48.095284,-81.621666,-100.820618,-115.659714,-40.06382,-65.389538,-80.227375,-92.766609,-15.319783,-17.092576,-8.518161,1.622986,11.19183,18.140542,21.298273,23.140596,27.969726,33.734374,36.094783,37.744445,39.624066,47.511755,51.226413,52.841989,46.614522,56.902017,60.831442,62.408301,16.097889,37.357693,51.730785,57.801991,48.389683,77.246876,90.791416,97.904606,43.249454,68.044338,84.83717,96.962185,35.20071,54.916592,70.426083,82.488155,26.77969,39.799175,48.704853,57.017727,-25.344469,-38.173549,-44.753302,-44.101712,1.643796,1.972987,-5.463553,-11.790438,19.900244,32.566118,35.355507,37.045122,32.08891,45.144553,47.978773,49.172841,38.228322,49.237803,50.738523,50.052784,43.170834,319.65567,-27.836494,224.979135
51,1.604576,1.279592,-36.618262,15.432138,-25.064049,-43.397026,-60.267906,-73.915157,-56.273117,-89.598713,-106.906128,-121.571217,-53.679199,-89.097748,-109.992199,-128.102531,-48.390083,-80.752029,-100.426254,-117.121124,-40.680313,-64.972057,-79.135323,-92.541275,-15.249511,-20.958831,-22.169633,-22.411139,7.234617,14.787062,17.626285,18.759219,23.341594,30.381017,33.305764,34.774992,35.365264,44.22898,48.326737,50.047474,44.170564,55.284094,59.618973,61.798516,15.705986,36.043797,54.382439,63.649836,42.117062,75.110236,92.747527,100.150366,41.610432,71.749335,80.849448,80.041552,38.550082,61.455775,67.029162,64.940587,35.561657,51.765547,56.563654,55.072718,-24.912154,-35.358718,-37.442949,-32.774926,5.829455,4.845401,2.259015,1.392997,29.788368,46.003532,51.591049,53.660954,47.379825,66.750281,73.143116,75.797519,57.879804,76.207357,80.829282,80.433648,44.297018,320.029352,-64.933148,239.505364
52,-0.491066,-2.996006,-36.618261,15.432138,-25.259628,-48.77243,-68.708267,-83.067513,-57.98069,-87.464275,-105.076904,-119.815063,-54.801064,-86.477852,-107.487602,-124.97921,-48.986893,-78.329945,-98.28146,-114.801407,-40.129051,-62.20047,-76.787624,-90.117073,-15.32145,-17.364092,-13.078182,-14.475655,10.859119,19.232722,23.20247,25.996862,25.744364,34.609439,37.514919,40.119922,37.636073,47.704355,51.10001,53.397496,46.81731,57.095048,60.790378,63.048282,15.314083,34.7299,57.034092,69.497681,35.84444,72.973595,94.703636,102.396126,39.971409,75.45433,76.861725,63.120918,41.899452,67.994957,63.63224,47.393017,44.343624,63.731918,64.422455,53.127708,-24.479839,-32.543887,-30.132596,-21.448141,10.015114,7.717813,9.981584,14.576432,39.676492,59.440947,67.826591,70.276785,62.67074,88.356009,98.307459,102.422197,77.531286,103.176911,110.920042,110.814511,43.691568,316.47364,-101.665792,254.377796
53,0.21595,1.364314,5.125465,21.438138,-24.680557,-47.368813,-69.489155,-85.921211,-56.503143,-88.977127,-106.248093,-119.19302,-52.259789,-87.933826,-107.676315,-123.092308,-45.681381,-77.625217,-96.497784,-110.948009,-37.26265,-61.564865,-76.208897,-88.17976,-18.049892,-19.873814,-8.578923,2.261671,8.814563,17.515566,21.358109,23.992011,26.478268,33.344914,36.082927,38.80328,39.109253,47.626117,51.838421,54.782804,47.181699,56.853666,60.736285,62.882853,11.72596,18.893681,30.525398,41.115246,20.983315,38.065853,40.28595,37.737751,31.296844,48.803902,44.335613,31.750202,40.810719,57.263317,51.799908,39.536419,49.779339,66.271706,66.349182,59.832973,-23.965829,-32.615518,-35.592196,-35.577562,-15.660769,-4.660736,8.333527,18.562236,9.830727,33.811191,48.920282,54.675544,33.95155,59.784526,74.174224,81.044266,55.650212,75.75911,89.833264,99.281942,43.534727,317.355699,-96.913118,275.333679
54,1.166267,0.746562,-77.046089,-59.814043,-24.71489,-47.860909,-70.338078,-85.633278,-57.188873,-89.990788,-107.513809,-120.655975,-52.810822,-89.154339,-109.476871,-125.717125,-46.227264,-78.627434,-97.9216,-112.769623,-37.810936,-62.118874,-76.655788,-88.949032,-18.478255,-20.395111,-9.808868,2.867874,9.18099,17.259055,21.006255,23.457314,26.789243,33.063332,35.656293,37.821572,39.407075,47.656374,51.541031,53.896748,47.339039,57.135001,60.558938,62.208044,28.736916,56.654892,76.34943,80.938854,63.624802,94.619865,109.210968,117.773781,54.900627,81.907139,97.448788,106.157799,43.782406,64.198036,78.388882,87.836437,31.785278,42.839985,51.86554,58.45705,-14.40915,-17.152597,-14.818987,-6.032892,26.006433,33.538872,33.887762,30.888359,43.917634,66.059911,73.982057,75.101654,52.674336,73.512939,79.574483,79.413562,55.664168,73.173127,76.664186,74.692002,44.385138,317.566221,-174.275064,214.983596
55,0.376053,0.358832,3.965607,-16.432032,-25.052032,-48.066788,-70.422649,-85.985641,-57.630386,-90.36644,-107.873325,-121.283569,-53.325691,-89.281197,-109.658489,-125.940514,-46.674728,-79.028435,-98.24604,-113.257942,-38.17543,-62.369041,-76.718102,-89.056377,-18.246938,-20.517933,-10.402536,1.658616,8.621531,17.122031,20.610126,22.449795,26.369525,32.882835,35.371068,37.140341,39.194963,47.53769,51.37097,53.341117,47.301433,57.488584,60.643412,61.741149,25.247269,49.625187,67.055168,72.050629,56.846066,87.097263,100.345058,106.765709,50.206661,76.492195,90.24662,96.362972,40.058956,59.16481,71.908035,79.23214,28.569489,38.216228,45.041714,49.977837,-17.93868,-20.47514,-17.248125,-7.619692,23.569762,28.571236,26.371748,21.887989,43.851314,64.117614,69.044,67.004199,53.974244,74.035286,77.470461,75.372985,57.818578,74.259502,74.062147,69.182136,44.545727,317.557113,-170.524921,198.183625
56,-0.351677,0.52352,-0.290508,-11.859228,-24.685593,-47.687073,-70.326576,-86.794739,-56.92234,-90.365467,-107.874813,-121.075344,-52.70256,-89.632759,-109.672222,-125.690117,-46.3908,-79.921589,-99.228687,-114.163857,-38.377991,-63.287888,-78.14003,-90.759945,-18.718217,-21.047504,-11.085557,0.769781,9.186794,17.274987,20.323666,21.808331,27.208281,33.154969,35.040642,36.521664,39.860447,47.226159,50.456323,52.170762,47.663167,57.244361,60.346578,61.575103,24.786701,49.128399,66.706924,73.829155,59.926586,90.525227,103.094501,108.866959,52.549496,78.902206,92.406349,98.809032,41.718235,60.514698,73.338375,81.005459,29.657307,39.551239,45.602703,49.333935,-19.186285,-21.611347,-18.646772,-11.152001,20.344476,25.813648,22.893101,17.735151,40.320858,59.822317,65.71874,64.861027,50.403836,70.290617,75.020699,73.933398,54.08274,70.910159,71.835119,67.411381,44.173651,317.969034,-170.835829,186.212798
57,-1.117287,0.41768,6.173916,-15.95007,-24.81617,-47.800369,-70.855808,-87.251072,-56.646423,-90.800915,-108.300476,-121.785336,-52.556305,-90.245476,-110.240765,-126.258945,-46.287231,-80.618248,-99.915047,-115.049343,-38.372383,-63.89431,-78.750744,-91.323681,-18.767309,-21.092026,-11.099019,1.001715,8.789739,15.944944,19.084706,20.861389,26.966714,32.490165,34.229921,35.860255,39.852357,47.123839,50.040743,51.737706,47.949071,57.405097,59.854551,60.678425,23.032494,46.27327,63.820267,77.938099,58.054047,87.41003,101.109695,110.105324,53.640804,84.194927,98.967419,106.816921,46.00811,70.422935,84.186001,91.495857,36.125107,51.258259,59.651527,63.467045,-15.919565,-15.563389,-11.638779,-8.920835,13.85105,18.939592,16.971174,13.168646,34.921093,48.97172,49.196183,44.803752,46.831327,60.767716,59.281322,55.497565,52.765233,64.777788,61.613079,56.068448,43.052559,318.727407,-164.665718,170.603421
58,-1.100922,-0.993935,13.206997,-35.758151,-25.63797,-49.376678,-71.972351,-87.894859,-58.070297,-90.466461,-107.635918,-121.172447,-53.791695,-89.434376,-109.274769,-125.520916,-47.505112,-79.974346,-99.036598,-114.370308,-39.331627,-63.574276,-78.247719,-91.285858,-18.350246,-20.705901,-10.86622,0.796148,9.569955,17.156364,20.570297,22.411262,27.205379,32.539256,34.509032,35.936826,39.849826,46.940131,50.142261,51.700471,48.095173,57.693163,60.663481,61.709842,25.386028,53.895721,73.313313,76.886559,70.196056,100.41441,113.339996,118.928833,67.410393,98.390064,113.140697,120.713596,59.348545,83.296738,96.7099,105.703125,48.457661,60.900764,66.419392,70.417042,-20.743106,-30.290677,-29.702411,-18.367784,5.561458,3.508381,-0.409683,-5.829208,28.022553,40.514106,41.69218,38.119363,43.164742,56.272749,55.717181,51.384031,52.519127,65.397237,62.500402,56.41249,41.847782,317.875344,-151.562576,134.987142
59,-2.186394,-0.144743,5.659847,-0.506415,-24.616356,-48.102493,-70.673275,-86.641331,-57.116547,-90.321064,-107.465458,-120.734425,-52.624741,-89.254475,-108.991642,-125.177135,-46.160431,-79.3507,-98.376217,-113.712273,-37.811508,-62.115841,-76.970501,-90.22665,-18.385506,-20.608027,-10.442303,1.221547,9.637263,17.382062,20.691513,22.368716,27.588911,33.022083,34.805867,36.441759,40.242064,47.299457,50.427239,52.186199,48.211264,57.626719,60.75975,62.144997,23.996658,50.448761,69.907036,73.814507,71.855221,99.122658,112.122116,120.539932,70.210934,100.476894,114.244423,122.081337,62.569656,86.535473,98.962841,106.754494,51.99789,64.630566,70.02903,72.095833,-25.22952,-36.210411,-35.995643,-26.166922,-2.846169,-5.896115,-8.340381,-11.836535,19.63802,30.277555,32.587946,30.865604,35.081119,46.330871,46.363166,43.456019,45.720159,56.369697,53.752591,48.560123,39.725389,317.836055,-145.838728,134.586181
60,-1.479836,0.543836,11.859798,-8.070007,-24.276237,-47.785492,-70.485878,-86.299267,-56.806068,-90.549374,-107.975292,-121.332436,-52.401352,-89.671612,-109.615517,-125.651436,-45.826035,-79.522991,-98.745689,-114.096222,-37.674408,-62.604733,-77.32338,-89.966125,-19.020609,-21.058619,-10.953226,1.135961,9.347654,16.931098,20.103588,21.861807,27.530433,33.167258,34.893367,36.510857,40.310607,47.998225,50.917537,52.436906,48.216759,58.089292,60.659035,61.443636,23.723717,47.53418,66.273537,73.649597,71.110096,95.876369,107.773476,116.077137,69.411449,100.067654,115.8811,125.224056,61.250267,86.440258,100.400677,108.513966,49.663124,65.120487,71.616726,72.516174,-24.676792,-35.452023,-36.917854,-29.539359,-5.446016,-9.260555,-13.24358,-18.34015,16.204018,24.516828,26.508958,24.907337,31.953677,41.011536,41.096628,38.201398,43.253138,54.420391,52.783943,47.710036,38.368778,318.359081,-133.855705,126.495364
61,0.436592,-0.240333,9.242821,-1.744634,-25.289497,-48.709488,-70.879898,-87.16547,-57.709122,-90.887661,-108.469105,-122.081051,-53.465195,-89.643459,-109.641495,-125.603828,-47.046776,-80.198307,-99.448185,-114.593697,-38.736992,-63.520374,-78.352032,-90.946484,-18.94904,-21.095237,-10.607856,0.820478,9.181051,16.682615,19.5311,21.055841,27.312084,33.135456,34.68675,35.725516,40.159936,48.045093,51.179606,52.66989,48.263381,58.423485,61.271229,62.043726,21.403198,44.364967,62.113838,69.176559,69.847984,95.248547,107.911777,115.781879,68.736362,99.935074,114.922657,122.682896,60.822315,86.461315,100.530281,108.517399,49.251595,64.305668,71.130753,72.405167,-24.159416,-37.002545,-39.494483,-31.828632,-7.325791,-11.191521,-14.844367,-19.873012,14.412731,24.497716,27.084163,25.571093,30.483091,42.658667,43.765049,41.049821,41.881352,54.59391,54.07391,49.169136,38.895006,318.123642,-124.523249,124.755623
62,-0.375137,-0.136283,6.097355,3.077826,-25.634079,-48.638077,-70.517921,-86.74736,-57.463188,-90.036621,-107.186794,-120.552063,-53.017273,-89.09008,-108.584347,-124.41267,-46.589584,-79.595032,-98.281517,-113.120441,-38.38623,-62.746353,-77.360401,-90.035019,-18.59836,-21.041885,-10.967799,0.377542,9.446825,17.584541,20.699356,22.40978,27.672459,33.569994,35.444675,36.805777,40.567427,48.10425,51.573141,53.326977,48.575962,58.879512,62.229657,63.399333,18.333435,40.834351,57.933655,63.264942,69.223709,94.531403,106.819611,113.235512,68.499584,98.000679,112.132187,119.285889,61.103897,84.675407,97.390938,104.598427,49.981041,63.137169,68.858528,70.38969,-24.535291,-38.570511,-40.639984,-31.952535,-8.482654,-14.226863,-16.696756,-19.899533,13.307523,22.813813,25.887934,25.682552,29.444325,41.668005,43.340823,41.439281,41.239457,53.786214,53.494073,49.143757,38.654594,317.958614,-118.291168,127.804704
63,1.024132,-0.598053,0.04137,3.947179,-25.487823,-48.719788,-70.607071,-86.787071,-58.030014,-89.921379,-106.787453,-119.711723,-53.349266,-88.375912,-107.852268,-123.250751,-46.461411,-78.056087,-96.590195,-111.174545,-37.855568,-61.986008,-76.621399,-89.017467,-18.040939,-19.420566,-7.849342,3.696565,10.009557,18.918659,22.293195,24.339048,27.869196,34.54775,36.547414,37.935439,40.609294,49.543097,53.772938,56.341446,48.683099,59.347456,62.802824,64.070745,17.674255,39.666996,56.865635,61.499004,66.255283,92.249966,104.260883,109.519329,66.165161,96.580181,111.566105,118.196125,58.505116,83.60796,97.120628,104.15514,45.797997,60.803318,67.384186,69.468842,-23.916336,-38.717848,-41.820775,-33.097295,-8.928338,-14.392817,-17.271961,-21.401211,12.581832,21.667324,24.0068,22.636312,28.795792,41.465494,42.157902,39.017955,40.731591,53.519792,52.643369,47.340181,39.947062,317.262471,-117.981462,131.653793
64,1.869621,0.370935,-0.766582,0.887539,-25.606041,-48.833199,-70.437813,-86.279926,-57.213821,-89.427967,-106.600342,-120.039425,-52.707481,-87.880898,-107.59552,-123.684425,-46.093597,-78.274441,-97.122231,-112.129269,-37.61879,-61.792145,-76.595764,-89.489594,-17.743796,-19.086805,-7.842179,3.52107,10.35258,19.2623,22.165928,23.496773,28.018632,34.457286,36.289112,37.512943,40.448125,48.722804,52.496619,54.643125,48.25066,58.871978,62.631961,64.212092,16.852856,38.871803,56.452389,61.026707,65.6563,92.751961,104.288177,107.770844,65.13113,96.248932,111.461449,116.947861,57.333012,82.969723,96.774445,103.082771,45.142078,60.868263,67.866325,69.318638,-24.137526,-38.89254,-42.487865,-32.523911,-9.317643,-15.450509,-18.899918,-23.508721,11.911654,21.366167,23.427396,20.900631,27.916095,40.619699,41.157113,37.394043,39.524185,53.217894,52.619965,47.224029,42.261715,317.436067,-118.303013,132.343992
65,0.585251,-0.687838,-1.001301,-0.123902,-25.650673,-48.800354,-70.250645,-85.419102,-56.638069,-89.25293,-106.324711,-119.895401,-51.749039,-87.247353,-106.765251,-122.922134,-44.971161,-77.355251,-96.134148,-111.356335,-36.347122,-60.347214,-74.946556,-88.064175,-17.125798,-18.53346,-7.522065,4.556563,10.732098,19.579141,23.05748,25.087216,28.021905,34.532621,37.03024,38.982356,40.473875,48.724101,52.531569,54.733774,48.543172,59.599892,63.469296,65.24425,16.880608,38.636856,56.461258,61.351147,65.697441,91.677589,103.390903,107.462711,65.648003,95.9515,110.974331,116.615353,58.160591,83.042736,96.481018,102.529392,45.994148,61.351433,68.634281,70.345058,-24.291501,-39.218026,-42.740486,-32.30269,-9.396344,-15.498643,-18.74937,-23.129728,11.807852,21.220838,23.173139,20.75067,27.625838,40.332652,40.845428,37.050865,39.161,52.729541,52.189904,46.762167,43.581676,316.552573,-118.569603,132.024434
66,1.052971,0.171728,0.367985,-0.456397,-25.468826,-48.620567,-70.156403,-85.1437,-56.439743,-88.287106,-105.486317,-119.490623,-51.792526,-86.420174,-106.118889,-122.747669,-45.213432,-76.568184,-95.157967,-110.51548,-36.711502,-59.995651,-74.498177,-87.677307,-17.529707,-19.314788,-8.645737,3.56658,10.382159,19.488677,23.154675,25.214484,27.849745,34.841744,37.670777,39.796288,40.394156,49.110658,53.372116,55.804527,48.521559,59.762357,63.873823,65.843909,16.585522,37.560768,54.996529,59.769688,65.083752,90.264702,101.812248,106.412544,65.192471,95.0881,110.083809,116.554413,57.865963,82.408962,96.160412,103.34919,45.875187,60.833931,68.605156,71.620846,-24.316386,-39.756212,-43.060909,-32.162826,-9.746222,-16.036922,-19.201321,-23.269717,11.331695,20.072836,21.877245,19.818239,27.164685,39.296295,40.012414,36.850855,39.005327,52.303834,52.507549,47.852803,45.93996,316.318106,-116.896305,131.161843
67,0.149117,-0.684503,0.600986,-0.322553,-25.010834,-48.295555,-69.552326,-84.805756,-55.876579,-87.09549,-104.481125,-118.840656,-51.188393,-85.245266,-104.960518,-121.975422,-44.829712,-75.755482,-94.268246,-109.656715,-36.547966,-59.253502,-73.608799,-86.911526,-17.526558,-18.971332,-8.280298,3.077023,11.212208,20.460505,24.01597,25.86274,28.518131,35.318889,38.00849,40.152526,40.761941,49.441085,53.564469,56.040413,48.576641,59.815895,63.869316,65.792223,15.73946,36.485367,53.959808,58.895473,64.31551,90.738716,102.528362,106.689892,64.362717,95.808964,111.167393,117.413349,56.97916,83.010693,97.141285,103.942738,45.1157,60.971718,68.579178,70.473175,-24.845433,-39.946527,-43.315537,-32.689557,-10.534435,-16.927857,-20.714021,-25.696322,10.735,19.230035,20.850922,18.15317,26.767599,38.438551,38.856601,35.131693,38.427868,51.904895,51.856545,46.797766,47.465572,315.699228,-114.918823,130.904914
68,-0.87204,-0.107816,-0.934925,-0.30869,-24.64817,-47.397652,-68.539352,-83.866425,-55.158348,-86.240044,-103.51181,-117.812004,-50.607262,-84.78693,-104.534855,-121.570187,-44.205551,-75.13092,-93.655586,-108.955364,-35.966835,-59.071083,-73.566685,-86.990318,-17.772077,-19.672817,-9.074038,2.74635,11.214986,20.089447,23.755322,25.99785,28.651327,35.089548,37.650029,39.806477,40.934039,49.171668,53.184704,55.586856,48.651482,59.617738,63.479424,65.240916,16.294041,37.228889,54.858112,60.46526,64.495869,91.642685,103.102112,106.454315,64.824886,96.154232,111.382942,116.711197,57.676563,83.510513,97.444096,103.682899,45.89241,62.48497,69.416142,70.411549,-24.910641,-40.276922,-43.783358,-33.240278,-11.471992,-17.61131,-21.562657,-26.468944,9.529447,18.720348,20.429352,17.832901,25.618054,38.04625,38.310727,34.383834,37.671549,51.68988,51.078181,45.535464,47.733049,315.457105,-114.714231,130.461917
69,-0.635834,0.651652,-0.794792,0.185189,-24.625511,-46.943893,-68.095036,-82.911015,-54.976616,-86.272373,-103.356171,-117.165298,-50.22892,-84.60331,-104.52198,-121.368198,-43.408928,-74.299679,-93.037891,-108.430023,-34.772186,-58.080139,-72.691727,-86.132412,-17.667966,-19.929513,-9.248297,2.777657,10.127068,19.622675,23.468553,25.620184,27.757366,34.769434,37.585747,39.958692,40.355438,49.119242,53.347478,55.802427,48.506554,59.439712,63.367902,65.10136,16.348171,37.470474,55.024338,60.107288,65.049419,91.042328,102.486649,106.220856,65.4039,95.86504,110.994759,117.324944,58.536644,83.883991,97.623253,104.493141,47.040882,63.037148,70.184612,71.973095,-24.764231,-40.530037,-44.286531,-33.535259,-11.593547,-18.265926,-22.244845,-27.093209,9.276209,17.599516,19.251525,17.042404,25.396246,37.191007,37.846611,34.817074,37.58164,50.572445,50.350946,45.569982,47.993317,315.417955,-114.612923,129.956305
70,-1.092796,0.296155,0.899792,0.241135,-24.346962,-46.517143,-67.654152,-82.814026,-54.492416,-85.956059,-102.863903,-116.310883,-49.678001,-84.351025,-103.997784,-120.415878,-42.882156,-74.099121,-92.69886,-107.773933,-34.186478,-57.762794,-72.35487,-85.528221,-17.873966,-19.800517,-8.814748,2.999959,10.313183,19.875049,23.819727,26.225956,27.839432,34.878485,37.562467,39.815925,40.226874,48.80697,53.117519,55.806317,48.056949,59.035864,63.031733,64.851271,15.52042,36.173344,53.534775,58.591118,65.078316,91.285686,102.406254,105.08852,65.444527,96.284065,111.217747,117.419529,58.422146,84.107208,98.01218,104.873028,46.554279,62.500534,69.703274,71.112442,-24.441986,-40.608275,-44.75852,-34.246964,-11.9069,-18.597866,-22.544427,-27.77021,9.216897,17.41797,19.11907,16.662361,25.519315,36.900472,37.37632,33.994497,37.867915,50.59554,50.396024,45.605798,47.660751,315.599486,-112.9529,130.082816
71,-0.823517,1.402167,-2.106972,2.035818,-23.774643,-45.917015,-67.429962,-83.165874,-54.500198,-85.818672,-102.601604,-115.684605,-49.614143,-84.438629,-103.59066,-119.0942,-42.770119,-74.118462,-92.474785,-107.190571,-34.288216,-58.44841,-73.165112,-86.138134,-18.808496,-20.752214,-9.723714,2.018189,9.518456,18.72538,22.521734,25.065171,27.513143,34.579057,36.783238,38.636615,40.198901,48.966348,52.953757,55.356342,48.176869,58.92885,62.428926,63.748038,15.608654,36.814728,54.009819,59.794407,64.898186,91.685429,103.072758,106.583576,65.2561,96.046829,112.041607,119.551449,58.328819,83.795815,98.475494,106.670322,46.625576,61.987438,69.294662,71.921425,-24.622668,-40.973374,-45.949964,-36.659151,-12.5994,-19.660868,-24.334911,-30.150874,7.858512,15.597104,17.285484,14.881757,23.687396,34.545589,35.250964,32.038399,35.822587,48.801845,49.24231,44.994808,47.436361,316.828983,-114.460745,131.945965
72,1.219254,0.051068,-1.123524,1.820557,-24.048958,-46.83918,-68.162727,-83.535576,-55.590248,-86.278324,-102.795868,-115.485535,-50.528641,-84.606743,-103.855762,-119.174938,-43.209801,-74.022331,-92.425346,-107.040768,-34.179382,-57.969017,-72.377415,-84.857426,-18.737669,-20.532074,-9.636584,2.354173,9.77719,19.229511,23.161715,25.66415,27.764591,34.957711,37.677384,39.743059,40.325366,49.445037,54.137574,56.972783,48.008105,58.793555,62.652771,64.364554,15.4006,36.204758,53.263035,59.749203,64.394188,90.725155,102.70895,107.514496,64.6031,95.768166,112.023926,120.45433,57.607155,83.721085,98.580265,107.092896,45.944424,61.851025,69.644623,72.667065,-25.608668,-42.11128,-47.704632,-39.327757,-13.86905,-21.476546,-25.918161,-31.733938,6.801684,13.97841,15.749906,13.66231,22.848486,33.23682,33.920705,30.969653,35.163618,47.526235,48.565433,45.220907,49.484968,316.578863,-114.754915,133.465334
73,0.778999,-0.40675,-0.147343,3.503163,-24.327049,-47.794418,-69.715462,-85.144157,-55.277138,-86.554756,-103.299351,-116.270714,-50.083694,-84.441147,-103.666248,-118.912125,-42.961235,-74.041042,-92.818165,-107.615547,-34.343719,-58.192062,-73.137131,-85.998001,-18.668014,-20.426234,-9.393596,2.882139,10.073283,20.461617,24.535353,27.183272,28.163498,36.232054,38.953518,41.11787,40.858766,50.463116,54.85746,57.684827,48.628326,60.026464,64.170349,66.504947,13.161793,34.626732,53.183727,61.899662,60.925541,88.215237,101.75211,108.965664,63.346596,96.009808,112.957134,121.089764,58.644047,86.659126,101.528893,109.066372,49.571571,66.458473,73.311195,74.811344,-25.832204,-42.715199,-49.244811,-42.289584,-14.942735,-24.02903,-28.887429,-34.700737,6.86785,12.186289,12.827938,10.659078,23.504769,31.369117,30.450332,26.445324,35.504418,45.209731,43.686842,38.41206,50.95665,315.966253,-114.209576,136.762636
74,0.975838,-0.096763,-0.861797,6.148859,-24.732628,-48.502693,-70.68552,-86.319981,-55.585442,-87.071972,-103.792591,-116.666794,-50.22789,-84.660759,-103.769646,-118.909435,-43.024979,-74.009285,-92.660637,-107.414303,-34.309731,-58.02578,-72.769718,-85.467453,-18.415887,-20.381897,-9.606265,2.481564,10.183075,21.03781,25.762889,28.778594,28.407598,37.359185,40.782442,43.355767,41.160725,51.277357,56.203866,59.458978,49.00735,60.516145,65.04881,67.828814,13.736172,34.505253,53.81916,65.838261,60.628567,89.598541,104.160576,113.466454,63.550758,97.036114,114.974213,124.841194,59.68174,88.796883,104.295158,112.319756,51.703777,70.672073,79.329987,82.232437,-26.826231,-44.173991,-53.034712,-50.320195,-16.288091,-25.852952,-31.269204,-38.285441,5.84656,9.656931,9.532318,6.556628,22.4849,28.635611,26.601738,21.474231,34.372286,42.558044,40.649401,34.929275,52.71163,315.404077,-114.292231,142.446082
75,-0.216179,0.129861,-0.359974,10.255848,-25.279884,-48.741646,-70.982094,-87.214451,-55.9338,-87.375984,-103.764038,-116.609573,-50.380669,-84.853191,-103.479481,-118.168602,-43.051987,-73.776913,-92.089405,-106.362076,-34.606705,-58.454247,-73.137131,-85.539951,-18.910446,-20.774074,-9.805657,2.006024,10.095204,21.095052,25.588074,28.326025,28.54703,38.035907,41.517148,44.247258,41.468921,52.01583,56.738749,59.884068,49.346607,61.118705,65.282968,67.63078,14.480667,37.317581,58.011131,74.270439,60.190144,91.71278,108.240566,120.039425,63.66869,99.239788,117.526188,128.463764,61.698933,93.373547,107.450352,113.955059,56.527233,78.626575,87.059727,89.445477,-27.445959,-44.823142,-54.782928,-57.152939,-16.387602,-25.440367,-30.327264,-36.154434,6.39444,8.44301,7.209299,3.845939,22.934721,25.718553,20.884298,13.689634,34.030343,37.542954,33.242223,26.065528,53.321772,315.482978,-113.825884,152.65097
76,1.47789,-0.613676,-0.625935,9.739275,-25.441017,-49.717369,-72.160835,-87.915058,-57.120781,-88.33683,-104.838638,-117.60807,-51.591339,-85.600491,-104.565239,-119.53783,-44.120407,-74.518261,-92.87035,-107.251396,-35.445557,-58.800659,-73.256378,-85.481529,-18.920758,-20.844778,-10.634718,1.717526,10.438845,21.191877,25.341134,27.79491,28.551661,38.335273,42.012263,44.6248,41.158564,52.44728,57.688285,61.043061,48.709034,61.065291,65.766782,68.541784,18.0546,42.765312,63.795662,80.600452,63.57645,95.758896,113.372612,126.941643,64.590225,99.315548,119.108276,133.044205,61.496372,91.392689,108.567924,119.517174,55.24807,75.528259,84.906235,89.375782,-27.466305,-43.353266,-52.042136,-56.50737,-13.156852,-19.467528,-23.61379,-28.25915,8.118327,11.110258,10.045557,8.874893,23.673626,28.468916,26.77572,23.133927,34.181817,39.631661,37.789091,33.011708,56.057453,314.085891,-113.194027,161.606833
77,0.239639,-1.199502,-0.078392,13.453192,-25.750122,-50.357666,-73.072128,-88.083458,-57.5037,-89.005852,-105.454617,-118.203163,-51.616516,-86.147289,-105.143108,-119.903984,-44.004936,-74.882755,-93.30677,-107.539673,-35.481033,-59.469452,-73.910122,-85.925674,-19.013322,-20.618277,-10.047101,2.466558,10.041296,21.129818,25.971976,29.173365,28.188878,38.289269,42.504599,45.649116,40.958678,52.713301,58.040941,61.629628,48.691064,61.347985,66.032618,69.030353,21.347752,46.194363,67.818832,85.038185,66.694279,98.27116,116.943054,130.76992,65.489044,100.59557,121.659508,136.569901,60.80143,91.462727,110.653152,124.410439,53.313961,74.069881,87.176914,96.991653,-27.252433,-41.77579,-49.81804,-55.269706,-9.114237,-15.136199,-19.198141,-23.409272,10.568645,13.96714,12.663713,10.871407,24.448841,30.901203,29.858238,26.807521,33.522693,40.090096,40.58762,38.149652,57.57803,311.330834,-111.991482,173.504471
78,-0.761604,-1.150163,0.432472,17.426584,-25.65033,-49.787178,-72.246151,-87.902184,-57.379875,-88.67918,-105.162334,-118.040886,-51.951141,-86.236267,-104.863701,-119.488163,-44.61834,-75.6213,-93.938084,-108.195877,-36.181412,-59.921265,-74.586811,-87.067337,-18.39094,-20.596665,-11.049001,0.542416,10.559382,20.995387,25.538241,28.434521,28.677571,37.704431,41.356289,44.035022,41.44243,52.047755,56.891519,59.886476,49.183277,61.20318,65.878798,68.681957,23.866081,49.911633,72.426796,90.356197,67.710171,99.405613,118.785782,133.581276,65.394859,100.168648,121.362762,136.787453,61.097717,91.430969,110.997505,125.500145,54.855366,76.589527,91.011257,102.908478,-27.065453,-39.990431,-47.865183,-54.843443,-7.511197,-10.821636,-12.277711,-13.895263,11.592096,16.354226,15.582284,14.161963,24.878809,31.981403,31.996099,29.357566,33.319411,39.277461,39.965237,37.426801,57.206984,307.793447,-111.168451,188.54383
79,-2.108116,-2.26766,2.256088,20.637482,-24.56646,-47.653313,-69.535046,-85.502357,-56.221848,-88.111439,-104.594021,-117.151794,-51.015244,-86.130695,-104.993305,-119.56255,-43.824577,-75.743122,-94.22224,-108.470993,-35.44487,-59.705315,-74.297218,-86.930752,-18.035628,-20.241353,-10.899874,-0.657704,10.885239,20.891585,25.353237,28.228892,28.707643,37.70474,41.590261,44.493148,41.237049,51.649712,56.692436,59.777486,48.832226,60.6733,65.270988,68.146273,31.265659,56.410904,76.231213,96.277313,71.103745,97.485294,115.299797,132.073517,64.495811,95.959282,117.448082,137.133636,56.927605,82.869759,103.282814,122.493668,47.685986,64.622154,80.750084,96.791153,-24.059566,-33.921786,-41.188698,-45.981333,-1.845658,2.743324,5.143995,6.310645,10.239824,21.242944,24.670339,27.100342,19.015731,31.809613,37.011036,39.947391,24.547765,34.626297,39.815616,43.068689,55.719166,303.685778,-108.292065,207.341303
80,0.050926,-0.448308,4.258804,15.665092,-26.337776,-46.370544,-64.614601,-78.067932,-55.897522,-88.288193,-104.781532,-117.879982,-52.359695,-86.233349,-104.783421,-119.751434,-46.233788,-77.342491,-95.803242,-110.732746,-38.487511,-61.674271,-75.389214,-88.122082,-13.162409,-12.842974,-5.955704,1.957859,10.357767,18.637077,23.759521,27.838074,26.800605,35.8823,40.062371,42.452297,38.971673,50.015734,55.012763,56.838661,46.974773,59.802557,65.225663,67.791393,32.627735,58.790932,79.592628,101.474762,69.592953,94.201584,112.280502,129.864693,62.141075,91.890335,114.061775,134.397011,53.520241,79.043999,100.153656,119.259796,43.372593,58.993492,74.950848,90.234604,-22.197791,-29.852557,-35.264117,-39.817283,2.604818,10.594765,14.317512,16.844895,14.301766,27.794663,32.514741,36.201303,22.958988,36.977567,43.366882,47.814764,28.355789,39.746455,45.459542,49.878957,56.488323,301.674691,-103.315029,221.443616
81,-2.010727,0.127576,3.527412,8.381198,-26.913986,-45.313454,-61.318016,-70.976715,-55.368462,-86.996613,-103.368473,-115.991592,-51.902733,-85.838871,-104.445705,-119.318905,-45.728989,-76.293869,-94.241352,-108.6339,-37.769051,-60.310078,-73.754711,-86.468983,-10.301883,-9.474674,-3.362804,4.909034,8.332168,17.27474,22.731623,26.523037,23.600946,34.117844,39.674825,42.67114,35.997464,47.627784,53.767627,56.309027,45.332583,57.47222,62.639,65.41394,28.393478,56.435852,79.49564,99.880486,65.415516,93.302593,112.577019,129.292259,58.564053,89.819012,110.995903,128.682976,50.170784,77.832012,97.977562,115.409088,39.925804,59.37109,73.772449,86.616383,-19.490097,-25.728927,-28.906665,-32.916181,8.5386,16.187562,18.433548,19.909012,23.010735,35.497101,38.746099,41.971385,33.584197,47.749988,53.28548,57.222625,40.460167,54.485291,60.508241,64.157752,55.036154,300.987115,-99.229059,229.009662
82,-0.142593,4.427134,1.973476,14.587856,-25.673218,-47.206078,-63.843555,-77.21323,-57.247696,-83.317623,-99.202251,-114.477825,-55.641975,-82.536621,-101.11187,-118.253689,-49.955521,-74.524326,-91.024532,-104.925327,-40.763969,-58.939934,-70.834064,-81.875381,3.761526,12.58035,23.353512,34.608883,10.97311,15.801066,18.160117,19.481205,18.35389,26.057809,30.726882,33.442171,26.012361,36.697899,41.891603,45.452749,32.532649,42.901407,48.825495,53.754104,30.223331,58.517704,82.608948,103.409786,64.443455,93.964291,113.97131,129.508495,57.198029,88.991432,110.502262,125.7934,49.612942,78.247776,97.266941,112.308598,40.965958,61.523094,74.094143,84.332428,-18.087375,-23.666031,-26.230093,-28.243465,11.288284,20.635073,24.409506,26.540945,27.124362,39.640059,42.861887,45.293618,38.088086,52.035467,57.411334,60.688552,44.837159,57.835621,63.738281,67.267441,55.55975,304.86288,-96.589394,243.046148
83,-2.41745,0.415704,16.799011,30.289133,-22.055969,-47.799911,-70.288124,-86.249142,-53.076897,-77.449608,-97.234325,-115.090084,-49.55452,-73.121567,-88.493729,-101.04166,-41.878738,-63.489017,-70.631447,-75.691967,-31.702652,-50.390167,-59.325829,-66.385632,27.447749,44.459926,52.679832,63.119542,36.04353,39.127346,40.243793,40.476839,19.692021,21.854644,18.092994,13.168769,1.527705,3.746027,-0.375628,-5.776628,-17.122092,-16.398933,-18.405143,-21.664206,25.517693,51.726151,74.383106,94.945164,58.750935,101.720066,117.281857,120.907803,52.988605,100.154285,114.906521,113.466053,47.074986,88.991032,102.06934,101.120167,40.553226,70.222607,81.67448,82.508984,-27.647141,-33.167937,-33.916784,-35.156239,6.000102,20.739926,18.07768,15.238396,29.020779,42.632114,34.452407,26.390644,45.082494,58.713094,53.188038,46.787484,54.493627,72.111328,69.150458,62.855559,53.240891,305.264952,-79.691792,273.32165
84,-5.045013,-6.072906,-5.443439,-4.073613,-24.718323,-50.71106,-68.343658,-78.821468,-64.230537,-74.839268,-79.298172,-86.484489,-61.043701,-65.768738,-48.731804,-34.265213,-54.342957,-61.794033,-46.183434,-32.63546,-44.581032,-63.380299,-74.972591,-84.12672,1.711289,15.943154,33.442603,49.000125,15.264764,24.603772,25.890898,26.01057,20.519662,26.394534,24.965259,21.917938,25.906644,32.201975,28.523195,23.64238,30.335199,40.977018,49.107509,55.584263,25.871773,53.88176,77.916527,98.214569,56.665421,93.600769,112.140541,124.772301,49.728355,90.605392,110.863037,122.943993,43.629913,80.629978,99.854736,111.083679,37.815113,65.514278,80.63982,89.624519,-19.56321,-23.898089,-23.108671,-22.30888,11.556528,27.648623,32.397354,34.395844,31.753791,46.935562,49.291155,48.452646,45.268795,61.018052,62.743914,60.259634,52.568743,66.975979,68.383271,64.837933,48.380098,299.108961,-84.95101,269.164951
85,-1.353607,10.45663,0.152836,2.449145,-21.811066,-45.14946,-63.338299,-75.097103,-58.677349,-63.37904,-53.882446,-46.667976,-55.121155,-58.253231,-47.978783,-37.069244,-48.419724,-53.855896,-43.309135,-31.872711,-39.38633,-54.105263,-62.860794,-68.414898,17.599794,28.229757,35.957203,42.816007,17.144878,22.225208,21.616534,18.547292,13.188159,18.657331,19.965761,17.040211,10.907778,17.952018,20.088274,18.29782,9.061194,17.176062,23.228344,27.090523,28.795681,56.400719,80.617447,100.310726,59.852886,91.263027,109.208622,122.818623,51.783371,87.279682,108.673611,122.822285,43.555756,76.348915,95.686169,108.575306,36.008434,59.449139,72.814579,82.293262,-15.378446,-18.031923,-16.14798,-18.209455,14.609098,29.664651,36.83832,41.58211,33.095627,49.013216,54.083851,56.165705,46.329173,63.572543,67.577428,67.748662,54.09157,71.327654,75.078374,74.88985,47.509346,309.269976,-84.315319,271.318482
86,-6.425972,8.785355,2.046318,7.025221,-20.68943,-41.717491,-58.792992,-71.698608,-53.022938,-49.194374,-38.975716,-32.658463,-46.970787,-39.552383,-29.853973,-22.691574,-37.535591,-31.417236,-21.616974,-14.681969,-25.538292,-26.181679,-24.457169,-23.193741,20.359975,29.88757,36.029945,42.243457,18.377478,29.013678,27.98751,23.728337,9.0205,21.444807,22.997953,20.655204,0.933851,14.2938,16.315138,14.417671,-5.863757,2.746967,5.339064,6.331517,28.418083,55.957203,80.685596,100.296421,58.308392,90.584736,108.769283,122.555866,49.122849,85.426197,106.854115,121.112537,40.525246,73.748989,93.468533,107.252483,32.99715,56.929779,70.533714,80.67152,-14.807934,-16.863173,-15.326144,-18.443243,15.04487,31.945155,39.684396,44.244602,33.343493,51.373996,57.063247,58.427314,46.097424,64.51751,68.589826,68.338502,53.199277,69.973591,73.538936,73.363318,41.315689,317.759392,-82.036686,278.047764
87,-56.518536,-17.292771,2.419739,7.149833,6.295509,10.432777,11.78833,9.986458,-7.553844,18.953648,41.232433,54.284077,-14.603577,15.123768,38.216572,58.219814,-20.527496,5.197678,27.542324,44.041615,-24.297638,-22.922688,-21.429462,-19.197235,-21.981047,-30.456909,-30.552313,-29.713989,-0.785342,19.48491,23.503133,23.394946,20.123224,39.745282,40.754716,37.085136,33.654036,49.451829,47.952715,45.553279,43.756033,57.496982,60.431794,60.740669,27.997742,54.995613,79.577694,99.745846,56.77145,90.125942,108.739529,122.116871,48.126469,86.311283,108.123264,122.238178,40.658512,75.182991,94.810581,108.180256,34.542561,59.225349,74.405136,86.988659,-14.511964,-17.191994,-16.179411,-18.72433,16.453089,30.363233,35.847596,38.700527,35.181247,50.281137,54.485229,55.320589,47.64106,63.982319,66.779119,66.135679,54.575199,70.169834,72.576494,71.798563,-14.833632,300.04218,-79.247732,284.773155
88,-1.336155,-2.51775,-0.474758,3.626849,-5.606289,-0.220356,11.254578,15.008125,-8.364544,26.018257,47.818909,62.573547,-14.169273,22.059174,46.454659,61.689262,-16.240482,9.718609,31.478119,45.371361,-14.761333,-13.240929,-8.232193,-1.593933,-12.497789,-12.675507,-6.197642,3.925906,9.580762,20.728625,24.898939,26.524457,26.971098,34.627099,38.300446,37.505224,38.184355,46.251553,47.960619,47.16163,46.623043,58.513702,62.210638,62.790289,27.382793,54.123974,78.475914,98.490257,57.918434,90.886345,109.147568,122.573204,49.972401,87.426109,108.972931,123.777351,42.541695,76.109619,95.617104,109.230766,36.2253,60.197697,75.203018,87.82505,-14.947737,-18.06076,-16.511319,-19.607114,16.075423,28.798478,34.159834,36.801393,34.288151,47.671071,52.152237,52.886511,46.412351,61.517242,64.623288,63.386427,53.819127,68.76884,71.474126,70.011567,-15.7897,297.109236,-79.342403,287.98481
89,46.948814,4.397803,2.698631,3.859401,-6.103935,-17.799454,-32.734108,-47.560616,-49.462166,-36.471405,-12.935829,2.65892,-58.217525,-40.105133,-14.012718,7.795029,-61.620827,-46.240082,-20.102463,-0.483398,-61.999283,-59.406338,-44.502239,-31.127472,-16.125194,-21.407695,-15.180042,-4.604913,1.370303,21.837848,27.807569,28.731479,21.179774,36.898279,41.869558,41.221735,35.989313,47.818408,47.965065,45.853942,48.202495,60.265191,57.832472,52.91189,26.704102,52.430477,76.463814,96.432953,56.427727,89.734955,108.283424,121.506615,48.401642,86.223907,107.510605,121.240425,40.987644,75.36335,94.567909,107.327957,34.788494,59.914513,75.157814,87.482414,-15.2484,-18.431448,-17.043422,-19.530791,17.486173,30.790361,36.18852,38.967474,35.401635,49.126281,52.824081,52.75597,47.221837,62.379278,64.416671,62.455169,54.124977,68.606622,70.762761,69.273156,31.375036,301.238671,-76.427851,291.575843
90,-52.932129,22.58898,-0.327759,3.181443,12.059155,21.749153,28.919792,33.404732,8.576546,37.269058,55.58075,67.565346,0.040569,31.405563,51.695023,68.86219,-5.233154,23.532486,43.570862,59.019699,-8.294735,8.266068,21.672592,34.44294,-23.874747,-37.998672,-44.541622,-49.362044,-11.892882,-2.689786,1.264957,2.75518,6.105201,16.013673,18.398288,18.215198,19.707397,28.199993,28.25705,26.851487,29.645323,37.751423,37.185357,32.864063,26.650486,52.971783,77.271309,96.915665,57.613506,91.046448,109.885139,123.705597,49.710445,87.312813,108.626289,123.050308,42.21817,76.279793,96.029778,109.632454,35.900173,61.49168,77.402344,90.184479,-15.225243,-18.610216,-18.258856,-21.58109,17.603005,30.466604,35.879953,38.463405,35.1697,48.110178,52.01688,52.466608,46.755806,61.478587,64.216662,62.780347,53.682782,67.73131,69.676263,67.931628,-21.275167,323.544402,-76.473684,294.474037
91,-11.179619,-17.780846,1.033745,2.386098,16.184521,32.368927,38.943214,36.327782,21.418304,55.316048,70.11692,74.892883,14.277191,49.074554,64.543877,73.500824,6.459675,39.93187,56.497765,64.918442,-0.577297,24.217243,37.821922,45.319862,-21.462838,-31.4585,-31.42849,-28.892339,-2.812176,16.97488,18.114422,17.067814,17.612885,36.735876,36.294113,32.489362,32.639909,48.244362,45.874875,42.624272,44.133699,59.477132,55.173623,48.192368,26.701469,52.585316,76.937943,96.930885,56.661472,90.457878,109.256058,122.964478,48.82822,87.072601,108.277931,122.653542,41.60162,76.328201,96.095581,109.329643,35.589981,61.226578,77.030067,89.510765,-14.795152,-19.208145,-19.64435,-22.626092,18.521542,31.176239,35.693529,37.433223,35.836543,48.57201,51.66589,51.293782,46.89246,61.152853,63.357775,61.452281,53.284863,66.749602,68.636386,66.701375,-32.384205,305.508836,-75.369358,296.605414
92,0.096588,5.620522,0.029926,1.432177,17.556782,32.167053,38.37101,37.326164,19.739285,52.645111,67.696037,74.310493,12.082615,45.136185,63.435974,76.133423,4.32209,36.045799,55.243607,66.753159,-3.170071,21.50671,37.332344,47.219124,-21.953259,-34.496621,-37.106255,-35.462582,-9.631891,7.142423,9.024082,9.058168,11.203192,29.100499,30.555524,28.44613,27.880002,41.735251,40.806648,38.790559,41.651888,54.858572,51.410491,45.825907,26.11845,52.301731,76.729946,96.521587,58.178616,91.081638,109.260349,122.21941,50.539055,87.322254,107.720089,121.70557,43.11367,76.468906,95.295582,107.851238,36.67408,61.253757,76.631985,88.941364,-14.833375,-18.924031,-19.243281,-22.893224,18.485789,30.234854,34.775177,36.705742,35.337106,46.861153,50.067481,50.050685,46.237659,59.339861,61.990806,60.694603,52.955918,66.650554,69.068206,67.880005,-32.267561,310.993631,-75.319376,297.901864
93,3.668747,-1.293671,2.119846,0.859566,14.746284,29.277763,35.405502,33.998795,11.990376,40.218887,59.378357,71.069984,4.536381,33.796234,56.75663,75.292282,-2.637405,25.654106,48.986435,66.084251,-9.927692,12.167473,30.488205,44.622917,-20.364607,-32.009191,-34.174098,-32.346657,-8.410838,8.482284,13.555883,15.468663,12.128584,29.019236,33.55573,32.887837,28.617981,42.15361,42.725542,41.895432,42.724307,55.599947,52.727627,47.451116,25.904903,51.484337,75.513496,95.425415,56.00481,89.244347,107.901077,121.33358,48.069019,85.425453,106.189499,119.955482,40.716648,74.930305,93.913307,106.232414,34.551773,59.844646,75.363121,87.441216,-14.739762,-18.601694,-18.233353,-20.322863,18.799542,31.453622,36.223718,38.21239,36.100526,48.394045,51.392645,51.03301,47.30026,60.906716,62.879457,60.618156,53.979493,67.256943,68.820896,66.322906,-28.595953,309.531149,-73.196669,298.59262
94,0.168686,2.326694,0.734653,0.788923,16.466217,30.547142,35.169411,32.082596,14.900837,44.870682,62.621613,72.097092,6.702805,37.975159,58.946228,74.381561,-1.178398,28.066978,49.520988,63.904953,-9.660473,13.012848,31.193504,43.864403,-20.977912,-34.170887,-36.753475,-35.41133,-9.56094,5.634849,10.205676,12.306981,11.031896,27.770395,31.427934,30.526007,27.768296,41.642008,41.26533,40.162036,42.157377,55.366222,51.786674,46.277056,25.304146,51.282806,75.88583,96.307011,55.270443,88.664989,106.734409,119.787769,47.76947,85.589733,105.631657,119.032917,40.460758,75.555096,93.96143,106.172161,34.376335,61.125355,76.612644,88.503284,-15.692447,-19.66306,-18.442255,-20.037082,16.933939,31.138448,35.923796,37.705851,34.55973,47.128223,50.229761,49.98912,46.388144,59.830098,61.984261,60.289212,53.647646,66.433501,67.621271,65.341137,-28.439455,311.578006,-72.474203,299.101706
95,26.733284,-1.628667,1.594734,-0.083857,11.014709,14.374352,11.046638,4.712448,-9.271088,17.387695,34.840164,41.909294,-18.416977,11.013336,30.746155,44.350204,-25.334644,2.217064,23.661003,36.748009,-31.364136,-12.160206,4.757881,15.177612,-20.233387,-31.964113,-34.083387,-31.178154,-2.86843,14.240633,16.263762,14.916553,17.330932,35.331671,35.580896,31.52445,33.621926,48.40164,44.470485,40.618989,46.785879,61.19719,55.077724,47.335087,25.733013,51.526394,75.617123,95.59164,53.320026,86.207714,104.380817,117.600574,45.438652,83.28043,103.435993,116.508579,38.324203,73.894787,92.693882,104.976826,32.693653,59.890079,75.632343,87.419987,-15.425191,-18.837889,-17.584171,-18.412614,18.60083,33.567709,38.595181,40.633191,36.340179,49.97819,52.570287,51.54875,48.037251,62.089731,63.272313,60.455012,54.871663,67.233602,67.832704,64.910304,-1.724939,309.594227,-70.898237,298.662737
96,-1.495743,9.27942,0.326214,1.025983,1.413574,5.290604,10.989876,11.280441,-11.420288,17.053757,34.951859,46.030884,-20.249519,10.588646,30.682411,45.332909,-23.840446,0.344296,18.264427,31.449394,-24.434452,-11.904945,-0.678406,8.727379,-23.464724,-34.97037,-33.208754,-31.37452,-8.597386,1.81151,7.136372,10.412601,13.710135,24.051291,26.40602,24.165468,30.094125,36.336474,35.343836,32.808673,43.298771,46.736726,42.358004,37.640334,25.255909,51.285667,75.554237,95.550041,53.832092,86.536331,104.852371,118.234749,45.885372,83.406487,103.532181,116.955528,38.502274,73.340034,92.137642,104.876289,32.603874,59.397926,75.295486,87.51503,-15.546345,-18.566126,-16.316126,-16.5417,18.468313,32.974288,38.195594,40.484126,36.282998,49.651345,52.745967,52.318654,48.15822,62.135179,63.75977,61.540275,55.341213,67.730692,68.244641,65.479087,-3.260708,318.525082,-70.612049,299.340155
97,-6.312847,13.825608,-1.061783,-0.263057,3.988724,8.26292,17.98193,26.623363,-2.842026,20.906239,38.301601,50.43108,-10.305862,14.459324,33.131046,47.452297,-13.788586,6.186848,21.384144,33.238964,-15.015106,-8.50914,-1.546383,4.515839,-20.913012,-35.295362,-44.260843,-53.404782,-12.347365,-2.306316,2.61865,6.167075,5.214884,14.684001,16.934433,17.172357,18.02933,24.922899,24.539737,24.078215,27.59595,31.568169,28.70437,25.547936,25.404797,51.86594,76.401787,96.711502,54.842377,87.716789,105.809326,119.147987,46.802559,84.153671,104.367371,118.03894,39.080658,73.85685,92.45636,104.949074,32.648392,59.680138,75.411415,87.416725,-15.313114,-17.896566,-15.204372,-15.727274,18.207109,32.82022,38.319095,40.797447,35.979557,48.985614,52.498965,52.188422,47.838785,61.717437,63.829116,61.839456,54.853508,67.628866,68.538944,65.905288,-9.589205,331.763289,-71.689482,298.489697
98,27.244892,-28.978419,-0.872498,0.410949,4.551315,0.588684,-8.847885,-18.38871,-33.824787,-12.774124,8.991165,21.208878,-44.707661,-20.114765,5.262566,24.902344,-50.528011,-28.437366,-2.645988,15.149231,-53.134403,-39.495106,-20.611038,-6.726608,-13.645668,-22.060952,-20.812791,-16.435675,4.042244,24.252104,29.800934,30.054173,24.437479,41.574762,46.05778,44.016311,39.719532,53.938182,53.084112,49.846229,51.999837,65.694102,61.451602,54.813,26.031704,52.060776,76.357727,96.575546,54.824066,87.840958,105.780945,119.116058,46.833916,84.270058,104.388771,118.122139,39.210949,73.986168,92.513008,104.967842,32.81971,59.728317,75.261497,87.143555,-15.332195,-18.447318,-16.172556,-17.086709,17.373911,31.772748,37.239821,39.862793,34.965059,48.060284,51.461435,51.3078,46.714125,60.622047,62.84043,61.00317,53.684573,66.387868,67.497029,64.939512,17.558985,302.186725,-72.658682,298.302501
99,-23.109341,18.122511,0.594006,-0.51154,4.828892,8.274021,11.372738,11.636295,-12.669697,15.405293,33.869534,44.240055,-20.266743,9.958248,31.963062,47.87962,-22.235813,4.73196,25.003567,39.560108,-21.736221,-5.534077,9.54649,21.020336,-21.927757,-32.070509,-30.664575,-27.915694,-9.834,1.698877,8.65926,13.228544,9.714328,20.89319,24.778217,24.86405,24.518001,33.318238,33.377827,32.238717,36.440338,42.629767,39.118886,34.703361,25.697536,51.593857,76.262569,96.801281,53.748722,86.866322,104.739933,117.74683,45.953808,83.42577,103.558788,117.106419,38.519726,73.540592,92.146511,104.712811,32.377739,59.362965,74.95142,87.032604,-15.15528,-18.219953,-16.23795,-16.768818,17.973137,32.981821,38.268212,40.659188,35.222682,48.717988,52.259188,52.152175,46.647496,60.832183,63.266261,61.502052,53.251456,66.399415,67.893219,65.55115,-5.631351,320.106571,-72.145672,297.588296
100,17.496243,-16.767954,0.49696,0.01939,5.653725,4.061279,-3.716011,-12.77298,-31.689606,-6.251335,16.068649,27.429771,-42.161579,-11.374283,13.541336,31.873856,-47.024574,-19.310017,5.68325,22.26162,-49.090118,-31.889534,-14.41103,-1.739845,-15.233024,-24.569377,-25.033617,-22.088061,3.165944,22.807329,26.657097,26.281655,24.589755,40.955961,43.260671,40.134186,40.242188,53.016063,50.071001,46.241117,52.334956,64.373384,58.339381,50.928961,25.541782,51.478271,75.916786,96.111145,52.418633,85.939865,104.721794,118.440285,44.6208,82.613182,103.41671,117.16095,37.632523,73.237152,92.544937,105.158501,32.014046,59.794464,75.713882,87.474403,-15.036658,-17.909225,-15.802054,-16.439009,18.064157,32.768906,38.084196,40.539207,35.652218,49.367787,52.714474,52.385221,47.318106,61.673594,63.387601,60.821562,54.011665,66.773746,67.52951,64.463849,11.73068,303.072025,-71.782923,297.341093
101,-19.366608,21.374288,-0.121994,-0.11924,3.710804,7.118111,12.281342,13.238983,-10.660057,16.696701,33.321304,42.232132,-18.252811,12.002563,31.138115,44.191933,-21.160469,5.50621,23.113403,35.385818,-21.522617,-5.863495,7.005959,16.584091,-23.041487,-34.701509,-34.952339,-35.089857,-12.783076,-3.183666,2.99823,7.349905,6.619212,14.694005,18.292139,18.471462,21.057137,26.237565,26.204899,25.269318,32.857332,36.52895,32.990219,28.939207,25.771694,51.731129,76.001244,96.107826,52.80859,86.053047,104.375839,118.062973,44.942493,82.550011,102.811661,116.548576,37.909584,73.001747,91.963806,104.713783,32.234745,59.778957,75.573692,87.499237,-14.929768,-17.861615,-15.582408,-16.420978,17.418556,31.954727,37.361655,40.106646,35.092944,48.710516,52.183297,52.039048,46.923768,61.367065,63.434099,61.446538,53.776149,66.751393,67.619974,64.904376,-7.797832,324.227717,-72.066822,297.003257
102,14.031601,-20.360716,-0.004063,0.656963,8.37616,8.226814,2.042427,-5.84507,-23.301945,3.059006,23.053093,32.710648,-33.598194,-3.540344,19.334335,36.497383,-39.530983,-12.218513,11.756058,27.794266,-43.247051,-25.170708,-7.365532,5.177994,-16.498907,-26.622764,-27.706669,-24.954823,1.706164,19.970083,23.153811,22.531182,22.64894,39.261344,41.357894,38.09457,38.689782,52.000392,49.245521,45.719758,51.317309,64.211475,58.678699,51.439699,25.702229,51.53944,75.917072,96.333447,52.46973,85.938549,104.693584,118.565083,44.691811,82.781582,103.457165,117.257023,37.740326,73.215237,92.388783,105.090809,32.118874,59.64323,75.559559,87.538433,-14.874686,-18.009014,-15.713874,-16.292599,16.787591,31.450473,36.86302,39.585225,34.492792,48.259305,51.827059,51.982114,46.464097,60.88603,62.881988,60.797912,53.503274,66.357116,67.239591,64.37184,6.10116,303.720065,-72.203493,297.513284
103,-8.083763,17.789429,0.314255,0.236813,2.925339,6.117325,9.566116,8.156776,-15.194378,10.752296,28.716888,38.791809,-24.273491,4.560127,25.073433,38.901672,-27.50124,-2.890835,16.043358,29.181519,-28.112583,-13.904629,-0.591488,9.461174,-23.367159,-34.987042,-34.038803,-33.862691,-10.373946,-1.524247,4.026436,8.171432,10.299845,18.031429,21.134573,20.784448,25.3223,29.826499,29.259939,28.090571,37.540422,40.088491,35.789366,31.637885,25.64827,51.28973,75.581646,96.094036,52.416344,85.80019,104.437466,118.276463,44.763851,82.464809,103.162823,117.032032,37.85162,73.034534,92.114811,104.64529,32.229767,59.638767,75.406551,87.235279,-15.17399,-18.443551,-16.049056,-16.154587,17.04793,31.657275,37.18122,39.983145,34.646983,48.139448,51.634027,51.588641,46.498184,60.723132,62.842777,60.671632,53.376439,66.38972,67.473131,64.576234,-2.049379,321.366496,-71.956015,297.607099
104,-4.700603,-14.334123,0.645046,0.396808,9.907894,14.346027,12.275791,7.202282,-5.934334,20.485439,38.191395,46.676044,-15.101223,13.228168,33.977795,50.578823,-22.438831,3.717613,25.617199,40.854092,-29.328461,-10.5229,6.653881,18.45274,-18.499374,-29.379055,-31.165495,-28.907035,-2.902146,14.057852,17.787206,18.373094,17.799618,34.351384,36.955213,34.46414,34.123463,47.615928,45.503632,42.760061,47.424625,60.664222,55.407348,48.289748,25.29213,51.00769,75.424232,95.575104,51.829662,85.566559,104.366455,118.095245,44.222488,82.327995,103.264389,116.997299,37.371311,73.035736,92.253456,104.687119,31.825676,59.718361,75.76561,87.717934,-15.573207,-18.989919,-16.718924,-16.52157,16.714602,31.347535,36.870986,39.590968,34.451543,48.089121,51.546033,51.290201,46.357578,60.655886,62.651536,60.27643,53.333028,66.307654,67.366488,64.43637,-6.80995,306.968878,-71.370935,297.940412
105,0.229225,8.311667,0.363464,0.026182,0.402431,7.394543,19.676456,24.608631,-8.907223,15.750217,33.480663,45.448208,-17.502823,12.002163,30.896816,44.31284,-21.061935,0.259438,16.832829,29.440441,-21.390381,-15.008755,-5.999336,3.80476,-21.174463,-32.735499,-31.333085,-28.368695,-11.569681,-0.407738,7.184907,12.221642,10.674423,20.801059,27.526172,27.629604,27.469918,34.602214,36.875247,34.310134,41.201542,47.330456,45.417552,39.976599,25.023937,50.680447,75.076904,95.47966,51.889744,85.537949,104.297562,117.996826,44.182434,82.144547,102.951851,116.680183,37.202568,72.653618,91.829681,104.410858,31.551189,59.269638,75.321465,87.454147,-15.44384,-18.805162,-16.575725,-16.543738,17.081708,31.332097,36.689934,39.326985,34.709104,48.132841,51.563632,51.313481,46.421613,60.721218,62.74589,60.442909,53.247751,66.368355,67.562608,64.784827,-6.662149,315.232797,-71.088896,297.918846
106,-6.859074,12.936588,0.233917,0.102753,6.215744,11.339607,23.597832,36.095123,0.302982,23.523674,39.63089,51.271362,-7.530956,17.766495,37.864838,54.472733,-11.426182,11.959305,29.620056,43.656349,-13.404751,-2.140617,9.651318,19.279747,-22.308757,-37.437916,-44.88446,-51.687194,-14.475346,-8.119253,-3.699591,0.373713,3.812779,12.282713,15.595808,16.915599,17.843523,24.416607,25.193427,24.882205,28.313428,32.576121,30.431838,26.769112,24.997902,50.903378,75.424576,95.544319,51.870747,85.502472,104.078751,117.740364,44.090137,81.969223,102.710037,116.30722,37.099171,72.5877,91.584435,104.052887,31.548042,59.354839,75.371819,87.498779,-15.624336,-19.107615,-16.838535,-16.644762,16.67539,31.121158,36.7071,39.63197,34.608945,47.88269,51.531213,51.504351,46.588339,60.651255,62.816595,60.638349,53.543967,66.561695,67.756504,64.973722,-13.546486,328.102895,-70.880241,297.955108
107,26.993179,-25.483963,0.63446,-0.589531,1.588097,-1.242256,-6.88488,-11.402664,-32.380371,-10.401764,11.186829,24.009361,-41.809044,-16.32019,9.432449,30.738716,-46.009483,-22.765274,4.112206,23.250618,-48.145695,-31.911678,-13.083458,0.579872,-17.364463,-26.500745,-25.399797,-19.373142,2.973776,18.434536,23.361107,24.805079,24.589014,38.043379,41.986884,39.99321,40.417559,51.098095,49.629671,46.971995,52.546822,63.781815,58.77608,52.012249,25.166187,50.564003,75.032959,95.643082,52.258759,85.586128,103.735542,116.930466,44.608612,81.789207,102.148361,115.632935,37.346706,71.960335,90.802002,103.221474,31.257648,58.215466,73.944168,86.068726,-15.278287,-18.497953,-16.114079,-16.352991,16.924923,31.213166,36.502768,39.059976,34.248446,47.350895,51.073272,51.204244,45.850731,60.157992,63.046368,61.633457,52.827107,66.552618,68.595198,66.556138,13.364782,302.559497,-70.327692,297.306143
108,-24.903831,19.918645,1.379356,0.309246,5.923862,10.488739,22.676468,33.409538,-6.163559,21.181984,38.797531,49.534378,-13.983364,16.444931,37.669945,53.30143,-16.449108,11.598701,31.447334,45.660667,-16.123867,1.25124,16.632614,27.768974,-23.085145,-37.21722,-39.657226,-40.867287,-12.45759,-2.366708,4.255283,8.878721,8.024157,18.23854,21.075169,19.880607,23.479174,31.611271,31.228851,28.873319,35.862355,41.503316,37.719375,32.790642,24.920654,50.146236,74.466705,95.014572,50.791111,84.08844,102.384453,115.450401,42.953281,80.931931,101.708794,114.873047,35.706711,71.405411,90.57827,102.674446,29.874401,57.339249,73.640213,85.999374,-15.181277,-18.44491,-16.015957,-15.760434,16.981425,31.769414,36.898773,39.038487,34.645439,48.305433,51.685465,51.218509,46.56932,61.157485,63.23588,60.968405,53.762502,67.039335,68.567287,66.126725,-11.56703,322.424404,-68.976316,297.56165
109,-11.399174,10.2305,-0.796223,-0.17673,9.604454,18.691235,31.070995,41.372852,13.511066,43.308735,61.4855,73.65778,5.561371,35.027332,54.954815,72.04977,-0.220127,26.819172,44.535427,58.664417,-4.663754,12.528419,26.041775,36.662235,-22.789175,-38.561156,-48.314449,-59.018203,-20.931228,-17.263563,-13.849938,-9.897912,-3.427333,6.383634,8.824443,9.509255,11.877692,21.114195,21.228433,20.569309,24.469712,30.338657,28.050001,24.132679,24.497337,50.164204,74.764767,95.101376,51.671505,85.203037,103.584423,117.314243,43.706875,81.43301,102.200832,116.106205,36.346436,71.576214,90.839138,103.773022,30.199242,57.973251,74.105701,86.591778,-15.616247,-18.882905,-16.22807,-15.374494,16.338418,30.80092,36.402794,39.374224,34.206764,47.907513,51.872693,52.002677,46.209068,60.85886,63.454909,61.6639,53.259298,66.780848,68.260511,65.700215,-22.974129,332.505066,-69.780464,297.235083
110,42.79707,-29.339103,0.775681,0.45473,4.338799,-0.041885,-10.682716,-21.47541,-37.119141,-14.028969,7.786217,19.833069,-48.409538,-19.793129,6.053009,25.56324,-52.411823,-26.221447,0.825462,18.76236,-54.121799,-36.084423,-16.412888,-2.305527,-16.008918,-27.164871,-27.516848,-22.810232,0.146966,18.83721,24.049192,25.218683,22.635663,38.722387,42.846573,40.491474,39.015701,50.810771,49.693212,46.84553,51.614823,62.83654,57.94776,50.886045,24.82069,50.147038,74.595623,94.825802,50.492592,84.192638,102.702999,116.347561,42.760334,81.044254,102.101383,115.803967,35.723591,71.626682,91.124096,103.96574,29.907074,57.853374,74.143124,86.560421,-15.482434,-18.993562,-16.323351,-15.384559,15.799584,30.700699,36.100896,38.865092,33.856639,47.764932,51.164539,50.737597,45.982938,60.979088,63.000796,60.677128,53.058424,66.812526,68.140839,65.475197,19.821768,303.084823,-69.005957,297.608673
