takenoko1/special-research/HandMotion_SimilarSearch_自分用/NewProject/handData/key/d4_feature_d2/139.csv
,vel_0x_L,vel_0y_L,vel_0x_R,vel_0y_R,posFromWrist_1x_L,posFromWrist_2x_L,posFromWrist_3x_L,posFromWrist_4x_L,posFromWrist_5x_L,posFromWrist_6x_L,posFromWrist_7x_L,posFromWrist_8x_L,posFromWrist_9x_L,posFromWrist_10x_L,posFromWrist_11x_L,posFromWrist_12x_L,posFromWrist_13x_L,posFromWrist_14x_L,posFromWrist_15x_L,posFromWrist_16x_L,posFromWrist_17x_L,posFromWrist_18x_L,posFromWrist_19x_L,posFromWrist_20x_L,posFromWrist_1y_L,posFromWrist_2y_L,posFromWrist_3y_L,posFromWrist_4y_L,posFromWrist_5y_L,posFromWrist_6y_L,posFromWrist_7y_L,posFromWrist_8y_L,posFromWrist_9y_L,posFromWrist_10y_L,posFromWrist_11y_L,posFromWrist_12y_L,posFromWrist_13y_L,posFromWrist_14y_L,posFromWrist_15y_L,posFromWrist_16y_L,posFromWrist_17y_L,posFromWrist_18y_L,posFromWrist_19y_L,posFromWrist_20y_L,posFromWrist_1x_R,posFromWrist_2x_R,posFromWrist_3x_R,posFromWrist_4x_R,posFromWrist_5x_R,posFromWrist_6x_R,posFromWrist_7x_R,posFromWrist_8x_R,posFromWrist_9x_R,posFromWrist_10x_R,posFromWrist_11x_R,posFromWrist_12x_R,posFromWrist_13x_R,posFromWrist_14x_R,posFromWrist_15x_R,posFromWrist_16x_R,posFromWrist_17x_R,posFromWrist_18x_R,posFromWrist_19x_R,posFromWrist_20x_R,posFromWrist_1y_R,posFromWrist_2y_R,posFromWrist_3y_R,posFromWrist_4y_R,posFromWrist_5y_R,posFromWrist_6y_R,posFromWrist_7y_R,posFromWrist_8y_R,posFromWrist_9y_R,posFromWrist_10y_R,posFromWrist_11y_R,posFromWrist_12y_R,posFromWrist_13y_R,posFromWrist_14y_R,posFromWrist_15y_R,posFromWrist_16y_R,posFromWrist_17y_R,posFromWrist_18y_R,posFromWrist_19y_R,posFromWrist_20y_R,posFromBody_0x_L,posFromBody_0y_L,posFromBody_0x_R,posFromBody_0y_R
2,-3.765335,-17.261957,1.581345,0.562299,6.300545,5.47657,-0.952148,-8.15197,-28.642445,-4.540787,18.53096,31.193848,-39.342957,-11.355171,14.994965,34.417191,-44.974823,-20.024872,6.28212,24.361954,-48.212528,-31.61293,-12.296104,2.066002,-18.285161,-27.545192,-28.414761,-23.447496,-3.085298,16.449507,22.767439,24.614764,18.243727,35.765777,41.035063,40.092381,34.308838,47.853358,48.031755,46.707518,47.028496,59.103481,55.215675,49.667585,24.819489,48.492908,70.503788,89.178715,50.460835,84.666996,102.518749,115.429859,42.586842,79.84251,100.066738,114.013767,35.018406,69.108639,88.209515,101.628971,28.615379,55.117321,70.992565,83.763027,-15.112919,-16.438824,-10.697086,-6.501454,18.107506,29.729674,33.835582,36.343637,35.329448,46.491885,49.060826,49.375753,46.347204,59.341899,61.643954,60.496199,51.998169,65.29717,67.121401,65.539541,5.76705,311.003109,-72.270269,305.22006
3,-17.304096,20.811062,-0.416851,0.099542,4.667645,7.734547,15.679836,25.287037,-12.684746,9.762096,29.059811,42.444019,-20.090218,8.636456,34.327869,54.79414,-22.105522,4.306355,26.986828,44.671497,-21.199665,-5.838776,10.228214,23.475666,-23.924086,-40.102632,-40.040387,-31.459921,-14.403222,-7.050971,0.266515,5.382969,4.876862,14.13788,19.501706,20.40246,20.184542,27.239156,28.872887,27.40298,32.863075,37.766058,36.051311,31.696548,24.866924,48.460236,70.371666,89.119034,50.514851,84.396629,102.40139,115.752869,42.382565,79.387093,99.778519,113.940926,34.772358,68.632393,88.003349,101.569862,28.403034,54.884834,70.700912,83.215141,-15.270012,-16.662855,-11.143356,-7.537132,17.493212,29.346266,33.717145,36.470349,34.800494,46.194186,49.013834,49.576812,45.927178,58.906003,61.418874,60.535473,51.643537,64.98249,66.947141,65.469331,-10.122013,331.754413,-71.272087,305.259843
4,-8.262177,5.952184,1.084728,-0.213101,8.870659,16.328144,20.92947,25.853863,1.395264,22.137966,39.768162,53.234997,-3.564091,23.469601,45.25034,64.330273,-6.152458,19.52116,39.894047,56.754055,-6.918411,8.131371,24.257755,38.867626,-21.916086,-37.940318,-43.177061,-40.54106,-16.341938,-8.949549,-3.440486,-0.322152,0.93521,9.501227,13.842837,16.298342,14.296764,21.771899,23.498564,22.870191,25.280989,30.571023,29.877319,26.845868,24.573441,47.767754,69.560795,88.252201,49.706783,83.477726,101.325359,114.490757,41.766129,78.538342,98.697796,112.779522,34.194088,67.809277,86.906033,100.496693,27.782478,54.0905,69.936161,82.748966,-14.774898,-16.00546,-10.617551,-7.151006,18.241998,29.674716,33.85596,36.430891,35.36514,46.534925,49.34531,49.831533,46.372954,59.381851,61.950175,61.05924,52.140381,65.591905,67.660976,66.192737,-17.63011,337.664097,-69.433279,305.004242
5,3.655357,-3.135377,0.610886,0.301342,6.989021,13.587513,17.331448,17.497616,-2.081394,19.04829,38.390751,52.745647,-7.032623,19.802113,39.863033,58.188686,-8.64481,17.139645,36.08305,52.090015,-8.356705,3.520889,18.106556,32.023144,-19.223336,-31.796769,-36.033465,-35.875693,-13.280352,-3.484637,1.974346,3.490442,3.641422,13.651164,17.784427,19.093104,16.77771,26.223424,27.144678,25.752701,26.885759,35.683834,34.510761,30.927632,24.168205,47.366581,69.060116,87.572193,50.30571,83.712101,101.331997,114.503689,42.050571,78.437405,98.263149,112.268658,34.180126,67.58955,86.581364,100.298023,27.465935,53.849602,69.624767,82.388592,-15.377335,-16.626916,-10.809163,-6.967731,17.477775,29.296186,33.486878,35.868159,34.763074,45.943109,48.697548,48.954677,45.987693,58.864692,61.186754,60.102602,51.933146,65.302666,67.187104,65.67144,-13.675661,334.406716,-68.523302,305.183581
6,48.516941,-23.987442,-0.007954,0.122389,-0.026436,-8.150711,-24.169579,-37.636528,-51.559296,-39.805698,-12.80262,5.725937,-65.203686,-46.054573,-15.512238,7.563057,-70.96859,-55.499783,-26.357002,-4.485512,-73.469353,-67.925205,-48.477974,-31.481094,-14.183514,-24.881279,-24.606119,-18.518022,-5.396863,18.877533,29.629021,33.31478,16.551642,34.885648,44.092202,46.750866,33.420373,46.758523,50.6827,51.200848,46.906724,57.775847,55.669664,52.174899,24.208546,47.393646,69.169693,88.189774,49.619007,83.116951,100.805054,113.998489,41.550236,78.13076,98.266182,112.33223,33.938885,67.443581,86.614494,100.227814,27.562866,53.968964,69.690514,82.241936,-15.182389,-16.49971,-10.820957,-7.477728,17.413307,29.013061,33.330402,36.054213,34.853538,45.801145,48.779923,49.358278,46.056051,58.755949,61.288766,60.353371,51.812301,65.069373,67.215262,65.795434,34.989252,310.391472,-68.383284,305.278167
7,-31.351204,10.233587,0.042286,0.537908,4.08371,5.921745,3.54538,0.950089,-21.305637,-4.115067,15.843887,29.632874,-28.289623,-6.494865,18.215561,38.849487,-30.067005,-10.094147,13.099594,30.942764,-29.455204,-14.706001,2.676773,16.815376,-19.548513,-30.629316,-30.184651,-24.435564,-6.543444,4.5854,12.051087,16.102593,11.902454,22.767933,29.435186,31.788742,26.02113,36.439474,38.640938,38.497059,37.037033,46.765316,45.519378,41.251498,24.089756,47.066631,68.840389,88.015423,49.830494,83.163471,100.759449,113.910198,41.895962,78.11903,98.158665,112.332859,34.34,67.308598,86.41943,100.181866,27.880268,53.950195,69.592266,82.185001,-15.572342,-17.163898,-11.590305,-8.20453,17.153091,28.648239,32.983736,35.714895,34.335267,45.257988,48.141053,48.643825,45.433483,58.052118,60.561408,59.649416,51.22703,64.389007,66.552371,65.196332,3.798466,320.556794,-68.18058,305.74781
8,28.396225,-11.59259,-0.552692,-0.748353,0.281982,-7.107353,-22.738266,-35.208206,-51.007118,-36.983013,-8.566017,10.410576,-64.370098,-43.396797,-11.920624,11.367531,-69.702873,-52.170238,-21.989822,0.074387,-71.571121,-63.389969,-42.604866,-24.7855,-12.398742,-23.177276,-23.25397,-17.247261,-3.422517,20.741222,31.243979,34.732754,18.267192,36.80411,45.2725,46.869118,35.036319,48.863842,51.966306,51.881152,48.506925,59.387038,56.712999,52.996797,24.211235,47.541275,69.474907,88.605309,49.224644,82.659645,100.663033,114.446526,41.389217,77.68364,98.159981,113.030663,34.083939,67.097511,86.56414,100.870056,28.030186,54.192295,69.981422,82.738609,-14.759769,-16.076411,-10.787982,-7.659953,17.323399,29.257777,33.707944,36.396002,34.486061,45.8955,48.973078,49.63387,45.630652,58.674068,61.393865,60.65181,51.450073,64.743084,66.80987,65.351202,32.3174,308.970718,-68.610563,305.005971
9,-27.995567,12.265299,-0.022144,-0.103061,3.699303,4.679146,2.79911,0.258636,-24.463291,-6.99646,13.692398,28.070869,-31.41798,-8.277397,17.653084,38.826141,-32.66613,-11.581764,12.675705,31.383934,-31.138515,-16.629124,1.185722,15.861397,-19.482008,-30.49223,-29.76481,-25.558557,-6.824223,4.235584,11.800874,16.196269,11.81767,22.616644,29.09877,31.119244,26.019339,35.655676,37.792858,37.377648,37.169425,45.46195,43.867184,39.442335,24.296894,47.575893,69.504719,88.780231,49.754219,83.001308,100.872173,114.548092,41.925659,77.676029,97.987347,112.747478,34.398365,66.838188,86.197643,100.512943,27.925243,53.811436,69.584827,82.481861,-15.009179,-16.356634,-10.815091,-7.594683,17.558915,29.573878,33.991564,36.701975,34.423385,46.122556,49.088984,49.609293,45.392913,58.900754,61.630801,60.86769,51.19103,64.744442,66.949303,65.703426,4.385204,321.216504,-68.569336,304.883397
10,33.199081,-11.139033,0.302582,0.188709,-1.598969,-11.455307,-29.961777,-45.060654,-57.07243,-44.477634,-14.864731,4.432182,-70.017014,-49.809551,-17.379913,6.901131,-74.709206,-58.887062,-28.497505,-5.791626,-75.539703,-71.110153,-52.224941,-35.284882,-12.125558,-21.809875,-21.410041,-14.751432,-2.281863,21.638147,30.884901,34.098948,18.543957,36.160547,43.990808,46.169239,34.526693,47.406409,49.850922,49.864754,47.428515,57.6077,54.331841,50.900432,24.457283,47.668648,69.485264,88.653088,49.45261,83.043423,100.937977,114.422894,41.571751,77.746868,98.003254,112.37978,34.084511,67.098026,86.34264,100.220089,27.771206,54.1222,69.98045,82.70731,-14.994853,-16.467723,-10.980705,-7.441851,17.258499,29.397333,33.870348,36.67357,34.37911,45.907973,48.773316,49.255957,45.50499,58.703894,61.281788,60.35158,51.355656,64.631501,66.552927,64.937598,37.601137,310.123182,-68.249903,305.117817
11,-23.367577,10.536226,-0.269451,0.410146,1.204834,-0.726128,-6.93718,-12.629471,-31.643887,-16.882381,4.227562,19.331474,-38.938408,-18.216705,7.019463,28.014679,-39.975758,-21.741085,1.691208,20.211983,-38.390694,-25.761051,-8.725548,5.459518,-20.287727,-30.958816,-29.323912,-24.248893,-5.382783,6.630944,13.752064,17.547368,13.295543,23.916737,30.288515,32.566365,27.179073,37.319479,39.378917,38.90455,37.799033,46.963597,45.70994,41.543516,24.425068,47.760544,69.796257,89.086647,49.463882,82.921257,100.804939,114.385986,41.64299,77.744408,98.10791,112.7211,34.305439,67.264137,86.587715,100.571251,28.198128,54.414024,70.216026,82.897568,-15.104707,-16.676502,-11.493542,-8.272332,17.313704,29.145021,33.52294,36.321037,34.37701,45.589218,48.341866,48.766215,45.489799,58.347347,60.728443,59.703448,51.335835,64.44909,66.323647,64.69813,14.321594,320.700579,-68.43132,305.569135
12,24.233894,-11.556898,-0.135784,0.063726,-3.466301,-13.96122,-31.97113,-46.713696,-55.805798,-47.099934,-17.813759,2.39399,-68.124905,-52.305222,-20.189896,3.915024,-73.103886,-60.873013,-30.504341,-7.612381,-74.642143,-72.753181,-53.311443,-35.827904,-10.609524,-19.950941,-19.211418,-12.879345,-1.751983,21.027868,30.999077,34.915103,18.265525,35.721502,44.525752,47.187751,34.112286,47.16515,50.774523,51.261117,47.183675,57.35193,54.98726,52.312232,24.197102,47.390156,69.279613,88.673115,49.092865,82.764416,100.844364,114.604168,41.394939,77.697315,98.211651,112.894306,34.185619,67.306767,86.723499,100.739079,28.248367,54.526806,70.3232,82.934132,-15.116069,-16.700893,-11.442351,-8.113387,17.391818,29.208439,33.49719,36.158571,34.465066,45.610151,48.293762,48.77523,45.480537,58.259476,60.653663,59.822935,51.222831,64.222281,66.035458,64.546471,38.600321,309.099668,-68.522272,305.588849
13,-45.762634,12.507546,0.594177,0.509256,6.540985,12.045479,15.593376,18.04493,-10.785198,13.209915,32.127342,43.332253,-16.459293,13.051643,35.687027,53.926392,-17.8438,8.79982,30.028725,46.157913,-17.14222,2.289047,18.369598,30.831985,-21.575409,-32.721173,-31.430157,-24.814527,-4.522168,7.533983,12.526071,14.774589,14.138868,25.749181,29.70238,30.662723,27.802999,37.884063,38.044058,36.934959,37.807925,47.683051,44.867108,39.640986,23.707237,46.906013,69.018688,88.455219,49.325466,83.256512,101.450901,115.124531,41.636868,78.204632,98.4688,112.630291,34.340057,67.959766,87.340107,101.016598,28.251801,55.187416,70.985241,83.575115,-15.450262,-17.301477,-11.953645,-8.610477,17.261401,29.112664,33.649158,36.683697,34.224116,45.142083,47.906711,48.577752,45.201363,57.670995,59.926799,59.065689,50.933098,63.707344,65.367319,63.906736,-7.154331,321.606504,-67.920113,306.097394
14,40.942039,-11.739247,0.339603,-0.012165,1.144524,-7.088242,-24.213409,-37.326736,-53.709469,-38.192596,-8.942642,9.932899,-68.18161,-45.78146,-13.406868,10.591164,-74.232674,-55.925961,-25.413666,-2.734909,-76.24649,-67.690887,-46.142864,-27.431717,-11.628097,-21.639629,-21.329642,-15.150834,-4.101092,21.077145,31.038351,34.039421,17.160501,36.76743,44.77615,45.957682,34.077274,48.487226,50.748588,50.11824,47.806675,58.870682,55.402346,51.553196,23.642235,46.864586,68.921471,88.228798,49.643898,83.264465,101.388016,114.862404,41.905804,78.151474,98.292847,112.18895,34.542217,67.599335,86.732025,99.978104,28.344326,54.536304,70.044708,82.364845,-15.425315,-17.057996,-11.814274,-8.644317,17.913301,29.363556,33.731224,36.5547,34.819884,45.556181,48.315375,48.932632,45.570816,58.066444,60.317308,59.381481,51.052462,63.922421,65.83724,64.519177,33.78931,309.799084,-67.578907,306.017057
15,-55.868282,11.295138,-0.242043,0.125168,12.744541,23.654423,30.320377,32.222729,3.076344,32.893581,52.626972,63.102779,-4.128914,29.173107,51.942158,69.279957,-7.469616,21.996059,43.977413,59.735584,-9.032593,12.068768,29.390087,42.339306,-21.646854,-32.148129,-30.887247,-24.650147,-5.180242,7.785307,13.207116,15.843797,13.359146,26.198415,30.372743,31.54668,26.373848,37.447117,37.675285,37.470397,35.522357,45.40514,42.380296,37.138859,23.676968,47.277603,69.604568,89.016495,49.742661,83.411064,101.607056,115.155029,41.894989,78.459778,98.752556,112.767334,34.530144,67.843208,87.153625,100.562668,28.361092,54.671803,70.21122,82.461891,-15.521645,-17.172913,-11.86423,-8.754541,17.738053,29.14391,33.554618,36.491221,34.678908,45.450958,48.193541,48.837166,45.421133,57.934484,60.071233,59.077792,50.847142,63.632318,65.532625,64.249266,-22.058229,321.097357,-67.800207,306.145359
16,52.949581,-11.263707,-0.009499,-0.30727,0.589828,-6.51226,-21.762772,-32.694569,-51.81942,-35.396461,-6.984901,11.945,-65.152187,-42.20232,-10.103531,14.112854,-70.239086,-50.951672,-20.631523,2.193146,-71.522827,-61.635075,-40.462818,-22.233582,-13.867475,-24.676267,-24.56277,-18.358027,-3.325013,20.48045,29.646558,32.442308,18.704879,37.022768,44.217988,45.127819,35.858402,49.016736,50.827505,50.344493,49.651963,60.118534,56.544852,52.287964,23.744431,47.156467,69.423637,89.200058,49.391899,82.739182,100.872688,114.532814,41.712456,78.126984,98.55526,112.741127,34.562645,67.811966,87.206154,100.602493,28.583164,54.776402,70.335846,82.542229,-15.307433,-16.922145,-11.611239,-8.377678,18.303934,29.690216,34.016882,36.934589,35.358348,46.058459,48.613259,49.078178,46.146824,58.43423,60.372575,59.2121,51.660333,64.236545,65.987664,64.578025,30.907116,309.770015,-67.793941,305.774455
17,-59.78302,16.142546,0.230427,0.089168,13.521709,26.243591,36.387978,42.764397,10.631962,38.83976,56.799774,66.95137,4.338741,36.920242,58.800201,76.562004,0.910606,31.212845,52.603569,68.735962,-1.334953,22.863178,40.317535,52.644081,-23.525734,-37.218579,-38.052209,-30.266285,-14.016911,-4.417377,2.367202,7.046525,5.473001,16.950735,22.58441,24.827309,20.982049,30.568924,31.777997,32.021541,32.713516,41.003879,38.243883,33.531832,23.788719,47.384491,69.632664,89.222431,49.791756,83.454151,101.512356,114.924831,41.715374,78.363705,98.591366,112.414455,34.180241,67.578449,86.822491,100.083103,27.978401,54.11253,69.598904,81.775646,-15.476568,-17.025391,-11.567766,-8.190636,18.365746,29.869662,34.198922,36.994548,35.333833,46.143428,48.61684,49.000619,45.93854,58.456707,60.384308,59.256745,51.165589,64.162692,66.055157,64.754199,-28.884087,325.911017,-67.571697,305.862079
18,57.637596,-17.341862,0.12846,-0.243914,1.449509,-4.758224,-18.325081,-27.049942,-49.276199,-31.450424,-3.96389,13.620186,-62.577953,-38.904877,-7.468872,15.963364,-67.931213,-47.753677,-18.193817,3.554306,-69.61916,-58.500252,-37.861233,-20.409622,-14.147513,-24.242532,-24.037706,-17.848277,-1.540673,21.548733,29.742518,31.986899,20.010345,38.519042,45.048469,45.158138,36.805654,50.056983,51.059934,49.80393,50.161342,60.725726,56.709479,52.117718,23.665981,47.316742,69.770508,89.405594,50.452194,84.155731,102.254219,115.498123,42.362938,78.735352,98.820534,112.327194,34.62759,67.784958,86.836281,99.675407,28.100052,54.264679,69.865379,82.020836,-15.349856,-16.833533,-11.65644,-8.346433,19.099835,30.35428,34.569301,37.221605,35.725454,46.510349,48.959493,49.305543,46.068524,58.569093,60.45495,59.234268,51.204183,64.084269,65.959752,64.599205,28.733654,308.542155,-67.463093,305.591164
19,-48.037834,17.306788,-0.483112,0.153882,10.904446,21.233597,30.010872,35.832481,0.385323,25.465393,42.794952,52.995758,-6.318684,23.955116,46.657791,64.441795,-9.473534,19.319115,40.8181,56.778603,-10.984154,11.261101,28.183022,40.350838,-22.879269,-36.527159,-37.367521,-30.877491,-13.34235,-3.405041,3.491554,8.078992,6.483485,17.406144,23.474543,25.343295,21.832599,30.594736,32.041733,32.031853,33.394129,40.213844,37.551475,33.586914,24.010105,47.708473,70.179119,89.631329,50.921516,84.404926,102.283688,115.493832,42.856121,79.180126,99.131756,112.651577,35.222111,68.292103,87.210102,99.984112,28.706417,54.92981,70.392437,82.375088,-15.512383,-17.236948,-12.010146,-8.234109,18.065948,29.707259,34.069864,36.822573,34.865888,45.836466,48.447829,48.726633,45.434842,58.117573,60.334846,59.155845,50.910992,63.830475,65.661807,64.216662,-19.379425,325.839603,-68.02145,305.735707
20,14.768372,-0.159625,0.622501,-0.714885,1.248264,6.977806,13.047867,15.493469,-6.304207,14.869194,32.041512,43.483543,-14.230042,7.41703,25.521812,39.348221,-18.603401,-3.031082,10.529594,22.003555,-20.455399,-14.332809,-8.103333,-1.03157,-19.276194,-30.541383,-30.187183,-27.214703,-10.443971,1.187152,7.798707,12.734787,10.449466,20.442906,23.845045,23.617742,26.125488,32.419522,31.788001,29.534852,38.751162,43.10469,39.427391,34.315198,24.017715,47.228451,69.188919,88.433876,49.753647,83.005028,100.975456,114.284706,41.909409,78.350029,98.591995,112.488213,34.396191,67.620964,86.5979,99.539337,28.043175,54.077053,69.659615,81.996574,-14.654546,-16.236777,-10.987621,-6.979402,19.061426,30.704898,34.923748,37.574508,35.9338,46.863437,49.329872,49.588421,46.519796,59.198453,61.383368,60.235674,51.991253,65.008981,66.80703,65.217142,-4.867373,325.682433,-67.655268,305.023277
21,32.429924,-18.095217,0.207996,0.360499,1.939659,-4.046631,-17.947083,-27.398529,-48.653183,-31.258736,-3.701363,14.107475,-61.461353,-38.103333,-6.494064,17.17907,-66.201954,-45.676804,-15.629425,6.39267,-67.438145,-55.330582,-34.178581,-16.473083,-13.454242,-22.853766,-21.611162,-15.511703,-1.350049,22.187849,31.317462,33.852193,20.142676,39.09258,45.860672,45.447439,36.781509,50.426683,51.774262,50.407479,50.309666,60.796306,56.981675,52.413379,23.90728,47.661095,69.951038,89.148159,50.022926,83.74712,101.653461,114.948177,41.766415,78.532734,98.544674,112.248516,34.002571,67.570095,86.659184,99.920368,27.422447,54.065495,69.766674,82.113819,-15.43433,-16.816119,-11.230856,-7.243941,18.582119,30.410472,34.49588,36.941443,35.503955,46.698996,49.095406,49.313694,46.123359,58.955156,60.894613,59.749699,51.439699,64.313363,65.926654,64.441742,27.37009,307.587123,-67.639732,305.383683
22,-39.181366,18.35284,-0.205193,0.220758,9.518852,17.10434,23.071404,27.052917,-6.656055,17.009697,35.529442,47.533836,-14.84396,13.689079,37.38842,56.927147,-18.589153,8.317108,30.561447,48.074684,-19.988365,-1.458836,15.381775,28.897018,-21.94375,-34.715526,-36.075764,-32.682208,-11.983161,-1.722466,5.01259,9.262068,7.147054,17.627026,23.772859,26.11709,22.193345,30.949183,32.510542,32.700054,33.495399,40.017848,37.820584,34.266539,23.852291,47.8018,70.332584,89.761562,50.29335,83.905048,101.818256,115.039158,42.187271,78.879833,98.999348,112.780666,34.47876,67.918797,87.043819,100.211506,27.950363,54.387474,69.898052,82.008648,-15.461686,-16.924121,-11.633345,-7.858234,18.735198,30.528539,34.596348,36.969231,35.48438,46.551166,48.89589,49.047117,45.945765,58.706672,60.619577,59.40754,51.143852,64.232408,65.931841,64.453166,-12.07778,325.947327,-68.111429,305.611804
23,39.653893,-16.46618,-1.211987,-1.465461,1.479721,-3.798752,-17.758484,-28.445206,-50.414143,-30.194778,-2.573318,14.25808,-63.443356,-36.280117,-5.354919,18.072395,-67.839203,-44.203205,-15.165939,6.074066,-68.786602,-54.434223,-33.90295,-17.36927,-14.618607,-23.758656,-21.691808,-14.232729,-1.352828,21.753867,29.954507,32.088602,20.476251,37.909442,44.074727,43.394299,36.740878,49.024702,49.326167,47.43821,49.462512,58.953365,54.143317,49.271148,24.80484,49.095383,71.243019,89.990845,49.360714,82.835197,101.260414,115.414581,41.050529,77.542648,98.124733,112.45903,33.616791,66.883621,86.124115,99.26239,27.618027,54.025497,69.489441,81.318283,-14.27404,-15.22864,-9.877658,-5.843318,19.287124,32.017465,36.843754,40.060456,36.288124,48.404728,51.330586,51.986622,46.941675,60.382764,62.803874,61.984384,52.274997,65.176881,66.714528,64.967855,27.41046,309.480807,-69.489069,304.146004
24,-32.147598,15.570675,0.837936,-0.554889,6.592255,10.873146,14.928932,17.151489,-14.838181,9.983368,28.866119,41.207542,-23.64996,5.975304,30.029755,49.497414,-27.059441,-0.888634,21.239319,38.256798,-27.939205,-15.771275,-2.76083,8.394012,-22.493884,-33.963035,-34.089377,-28.183876,-4.504322,9.973803,16.829581,21.644631,13.838638,25.834952,30.736268,33.722641,26.250347,34.670263,35.528223,36.684191,35.072937,40.916626,38.464332,35.124375,25.161839,49.585476,71.443977,89.60598,47.898388,80.672493,99.296837,113.942757,38.75742,75.608253,97.356033,112.933846,31.006222,64.408836,84.950981,99.88163,24.939365,51.488743,67.537651,80.13485,-14.453116,-14.854309,-8.047005,-3.036885,19.702148,35.302958,42.155895,47.111118,36.633432,52.539412,58.220326,61.281603,47.193617,63.818866,68.13312,69.187014,52.453579,66.664633,69.412033,69.070615,-4.83676,325.050834,-68.750753,303.590466
25,-2.791672,1.185423,-0.665531,-1.324732,5.209179,8.853378,8.190193,9.367905,-6.398048,18.088646,34.392471,45.496674,-13.503399,13.828583,36.586304,54.017601,-17.458248,6.827774,26.032791,40.303688,-20.457573,-6.046257,7.898712,18.975677,-18.874754,-26.436278,-24.908634,-23.904449,-1.674609,10.234266,18.336167,24.723198,12.946468,27.215383,35.439673,42.174976,24.453287,36.969354,41.899384,46.006218,33.675834,43.223436,44.723477,45.843382,24.92506,48.07869,68.884563,85.839329,50.002155,80.922031,97.082348,109.30006,39.730911,74.745312,94.403629,108.085499,30.485859,61.906357,80.638676,94.150715,22.884293,47.26965,61.901436,72.936115,-14.208708,-14.060631,-6.521338,-1.571116,17.26134,36.008641,45.769961,53.105478,34.525952,54.073971,63.278364,68.588467,45.117568,64.838427,72.048343,75.118265,50.576366,65.965804,70.543362,71.574656,-7.675495,326.181129,-69.463348,302.210607
26,26.717205,-11.185531,4.018536,-17.878535,-10.921354,-20.624027,-28.371105,-32.104855,-32.955494,-35.31169,-33.031883,-31.538029,-33.20529,-35.565205,-31.591587,-26.100798,-31.126013,-32.837935,-30.736313,-28.432732,-27.816982,-30.308104,-29.705315,-29.095373,-17.112028,-25.762982,-30.476206,-34.425855,3.823462,17.492595,24.561936,28.911326,18.734056,34.643401,41.447463,45.503292,30.083689,44.510499,49.867193,53.062592,38.765642,52.097834,55.535541,56.901522,29.195995,55.967388,72.222633,83.141441,53.73539,80.05085,89.157372,94.596519,41.317062,69.064407,76.266403,78.964691,26.552124,46.080837,47.477474,45.955124,11.171207,20.232983,19.075871,16.411743,-4.397309,6.562278,23.485349,36.909765,14.535985,43.016263,59.419643,68.636262,25.722381,55.072043,70.780916,77.526963,36.056189,63.685176,74.606601,77.598161,43.713364,65.476308,70.337054,69.147494,18.74239,315.031923,-65.744133,284.368397
27,26.717205,-11.185532,17.001572,-17.742808,-27.051888,-50.101433,-64.932404,-73.577614,-59.512939,-88.712025,-100.456238,-108.572731,-52.907181,-84.958992,-99.769478,-106.219196,-44.793777,-72.503643,-87.505417,-97.169151,-35.176392,-54.56995,-67.309341,-77.166424,-15.3493,-25.089686,-36.043777,-44.94726,9.321533,24.750924,30.787706,33.099456,24.521644,42.07142,47.455253,48.831608,35.714092,52.051645,57.835004,60.118966,43.855451,60.972233,66.347607,67.959663,8.125076,20.302048,26.706161,28.393879,52.982254,50.703278,35.645199,19.640579,50.423126,40.449028,17.788868,-2.5387,43.74218,28.665161,5.362015,-14.643345,34.399052,23.157063,6.529255,-9.039803,42.027701,64.284278,78.66138,93.997774,62.363408,83.68033,94.469918,99.534748,52.731826,78.035231,89.003092,94.002837,43.315197,68.047966,79.020644,84.283817,33.854231,56.431849,65.549483,70.632035,45.417223,303.914347,-48.784933,266.693546
28,5.640106,-5.662883,-44.525528,-65.795249,-24.121513,-48.178024,-69.236126,-84.00238,-56.722012,-87.294788,-102.572422,-113.200779,-49.54216,-82.835197,-102.061787,-115.543213,-40.074348,-70.166073,-87.979374,-100.623322,-29.590645,-53.336449,-66.72472,-77.286358,-16.840017,-16.203555,-2.455999,9.551183,12.775975,26.878287,34.201207,39.123394,29.877752,44.451219,51.93469,57.327971,41.795396,56.636119,63.123,66.838955,49.643564,62.735516,67.808745,70.831798,28.852558,59.754124,86.944427,99.630547,62.568111,97.747993,89.678879,77.579327,61.844616,93.577538,84.303303,69.930153,59.757557,89.051571,81.197891,67.988434,56.737576,82.394829,76.606579,65.52721,31.603923,43.321002,36.975961,26.156919,18.019079,20.008739,23.894322,23.894939,-4.915703,-0.836101,5.520487,6.612172,-23.193022,-19.211603,-10.757231,-7.921281,-37.146516,-35.58139,-27.282011,-22.619732,51.100817,298.736622,-93.266973,201.383454
29,4.90551,0.735324,5.320015,-56.979637,-25.987473,-49.883652,-70.743885,-85.55872,-57.551537,-87.770348,-104.253731,-116.750393,-51.271591,-84.338894,-103.458538,-118.51759,-42.68486,-73.513985,-91.212788,-104.517059,-32.89547,-56.946716,-70.372353,-81.617718,-16.647541,-16.161133,-2.360718,9.095712,12.096041,27.022413,34.222449,39.395219,28.72166,42.360289,49.205445,54.491281,40.947995,54.339128,61.07585,65.851998,49.180004,61.616599,66.536254,69.902269,30.75634,54.508953,68.103905,67.926922,49.855728,64.660034,61.607151,55.632019,39.133358,52.529869,50.142574,44.220028,26.067753,40.048771,39.421234,35.286713,12.216339,16.549816,17.445374,16.43137,10.662197,5.340546,-5.29763,-13.582497,-23.3009,-39.429583,-34.374787,-27.290903,-36.302666,-52.463706,-46.855008,-39.187182,-45.10213,-61.531723,-56.500948,-49.540534,-49.655421,-68.034844,-75.991477,-79.612985,55.420446,300.102664,-88.532839,145.034536
30,1.119003,-1.317383,-13.002434,-77.975487,-27.108078,-50.393257,-71.285076,-86.804008,-57.492828,-87.879982,-104.282284,-116.665993,-51.005173,-84.585629,-103.840427,-118.841801,-42.333984,-73.50174,-91.286087,-104.760761,-32.247734,-56.602249,-70.446854,-81.869774,-16.392944,-15.017824,-0.942744,11.106553,13.905081,28.645028,35.439735,40.214524,30.558673,44.38774,51.231909,56.447472,42.393819,56.416905,62.970291,67.692345,49.864384,63.022841,68.159055,71.590896,7.666912,12.030373,15.247135,14.535084,3.856659,10.639973,11.840801,10.100727,5.612869,14.168644,14.488678,13.468323,9.041061,25.00946,23.96204,20.031223,15.516815,30.203075,29.298992,25.246639,-30.06115,-53.026437,-65.651587,-75.696866,-43.262308,-57.215493,-64.190943,-68.751612,-28.55867,-35.380207,-44.22969,-50.302688,-13.426052,-16.584617,-23.850047,-30.255016,-0.661131,0.655913,-2.025877,-4.895943,58.298149,299.301545,-99.776573,67.575313
31,0.666275,-0.755455,-11.7241,-49.960128,-27.134171,-50.702477,-71.606197,-86.161423,-58.003578,-88.6623,-105.064945,-117.515316,-51.103935,-85.17374,-104.400787,-119.453316,-42.219429,-73.832016,-91.584663,-105.062141,-32.38266,-57.031517,-71.165199,-83.055153,-16.294266,-14.95632,-0.940397,11.663788,14.498256,29.718868,37.019557,42.18961,31.464367,45.131277,51.861392,56.972844,43.481676,57.187489,63.732724,68.471327,50.966876,63.882345,68.762604,72.088913,12.367201,14.409285,14.860296,11.802607,-3.101406,-5.981913,-8.423252,-12.299452,-7.54549,-2.887545,-0.567799,-1.237221,-7.620707,12.895002,18.213587,16.207437,-2.770758,15.738087,19.428005,17.27417,-27.38603,-52.492481,-68.167206,-80.294925,-55.861846,-77.581797,-90.21773,-99.779835,-45.392728,-61.89165,-71.623407,-77.99774,-32.937423,-40.036034,-37.441374,-35.599097,-21.269482,-23.738294,-20.290876,-16.602756,59.678078,298.895583,-110.78702,17.964677
32,0.667763,-0.313075,-11.7241,-49.960128,-27.246552,-51.292419,-72.584381,-87.031174,-58.196182,-89.264946,-105.526886,-118.013763,-51.124992,-85.596199,-104.79332,-119.911766,-42.102699,-73.923283,-91.790028,-105.364666,-32.162018,-57.099266,-71.22242,-83.040218,-16.302973,-14.586621,-0.399463,12.702368,14.622127,30.086159,37.446808,42.932962,31.597624,45.523145,52.340637,57.754481,43.508476,57.481606,64.305335,69.352876,50.816575,63.987135,69.059932,72.612556,17.06749,16.788197,14.473457,9.070129,-10.059471,-22.603798,-28.687305,-34.699631,-20.70385,-19.943733,-15.624275,-15.942764,-24.282475,0.780544,12.465134,12.383652,-21.058331,1.273098,9.557018,9.301701,-24.710909,-51.958526,-70.682825,-84.892984,-68.461385,-97.948102,-116.244518,-130.808059,-62.226786,-88.403094,-99.017125,-105.692792,-52.448793,-63.487451,-51.032702,-40.943178,-41.877833,-48.132501,-38.555877,-28.309569,59.948902,300.783401,-122.908058,-29.794558
33,-0.32444,-1.030491,-10.864162,-9.820755,-27.40654,-50.998192,-72.086449,-86.042461,-58.410988,-89.006138,-104.968243,-117.138062,-51.281204,-85.365944,-104.129162,-118.70327,-42.244835,-73.709106,-91.213989,-104.365368,-32.397308,-57.183037,-71.041145,-82.542057,-15.489906,-13.620535,0.697903,14.021728,15.130827,31.009143,38.86361,44.774483,32.125837,46.490341,53.651969,59.239578,44.141726,58.36544,65.211584,70.134636,51.683428,64.981935,69.915422,73.175535,17.513866,17.176323,14.905815,13.130665,-12.921009,-16.405678,-21.008091,-27.489223,-19.245129,1.462555,15.248394,16.273384,-19.534664,2.865028,13.017826,12.4403,-14.94278,1.438179,8.781681,8.092346,-39.016689,-66.606156,-87.449498,-106.490345,-78.559183,-102.161256,-119.037906,-133.055836,-73.644776,-93.84136,-83.242056,-71.430993,-65.132204,-83.421194,-72.000764,-60.078767,-53.837807,-70.683968,-66.709124,-57.915063,58.234892,302.471966,-135.161791,-36.896257
34,0.249825,-0.742919,-1.478577,-12.177119,-27.64595,-51.262779,-72.058868,-84.916935,-58.866005,-88.727589,-104.405136,-116.39637,-51.758423,-85.00042,-103.685017,-118.349018,-42.597084,-73.354912,-90.663071,-103.779602,-32.434273,-56.359291,-69.979992,-81.511173,-14.948354,-13.169325,1.224325,15.04308,15.868127,31.81128,39.747196,45.6669,32.79657,47.21807,54.70222,60.537449,44.704087,58.962319,65.893185,70.76449,52.212505,65.706514,70.770109,73.875414,15.833073,13.738174,8.145733,2.399712,-16.282711,-14.312267,-15.307045,-20.998707,-21.413841,-0.373135,15.312309,16.355724,-20.808506,-0.459538,14.378757,15.33205,-14.612675,-2.655716,6.98101,8.072433,-44.659164,-74.51379,-96.941246,-113.969741,-83.30058,-105.313166,-117.085481,-126.875854,-75.818453,-100.521705,-94.435677,-83.697589,-67.203128,-92.436862,-86.270976,-75.469007,-57.58158,-80.669658,-82.503861,-76.867839,57.369576,303.969768,-137.755508,-46.832655
35,0.493584,-0.457818,-0.153751,-11.233882,-27.884445,-51.501846,-72.074833,-84.303474,-58.68576,-88.11573,-103.802662,-115.864334,-51.297798,-84.232292,-102.852573,-117.475548,-42.083015,-72.56258,-89.676304,-102.699795,-32.12471,-55.846939,-69.251175,-80.670433,-14.659116,-12.65093,2.037702,16.112226,16.245175,32.707155,40.715752,46.409572,33.090626,48.1949,55.970759,61.942518,44.953621,59.772855,66.80882,71.710012,52.432707,66.511739,71.789423,75.048857,17.161789,17.2225,13.007927,6.408577,-13.348331,-11.993866,-16.875916,-25.489025,-17.02692,4.682636,14.873829,11.512756,-15.574379,5.483551,14.692612,11.900826,-10.218887,3.456345,11.103344,10.139866,-40.511636,-66.065469,-83.587025,-92.786138,-84.932119,-110.358329,-122.04725,-131.096156,-79.106739,-107.53862,-97.730247,-85.218594,-72.101031,-99.649295,-89.67577,-77.447197,-64.40798,-89.031713,-84.882965,-74.249529,56.028271,305.467664,-139.744148,-56.110824
36,0.610313,0.303627,3.470306,-11.823506,-27.970963,-51.577148,-72.134228,-84.374199,-58.735428,-88.195038,-103.928604,-115.923786,-51.153145,-84.112129,-102.868137,-117.489166,-41.779518,-72.225666,-89.22123,-102.04319,-31.750717,-55.536919,-68.880844,-80.00639,-14.376484,-12.161188,2.681759,17.146052,17.221572,33.482802,41.531104,47.358676,33.999406,48.984194,56.706391,62.573792,45.559454,60.46625,67.484802,72.219453,52.364843,66.543232,71.926386,75.072816,20.556107,23.980808,24.661846,22.84584,-13.4408,-19.566422,-25.562382,-31.504612,-18.289948,4.367409,17.188053,17.207851,-15.993519,6.910973,18.711376,17.450066,-9.30582,9.4701,19.487057,18.827248,-37.52273,-63.874811,-81.026776,-94.94183,-85.094244,-110.350117,-126.494607,-139.088542,-80.564435,-105.490483,-96.400837,-84.93763,-75.091712,-100.015938,-87.917396,-74.650088,-69.489591,-92.764634,-83.577593,-69.217087,55.802479,306.484106,-137.109947,-67.221514
37,-0.082855,0.365439,10.627899,-8.112584,-28.113213,-52.061005,-72.809486,-85.628128,-59.472084,-88.492985,-103.806953,-115.6073,-51.481476,-84.426327,-102.780991,-117.164612,-41.718636,-72.128906,-89.074917,-101.946831,-31.479378,-55.339851,-68.929825,-80.334835,-14.50758,-11.962846,3.066958,17.880758,17.832778,34.729914,42.778771,48.308582,34.463275,49.694632,57.194405,62.605346,45.878642,60.541401,67.403662,71.74873,52.624566,66.434551,71.639987,74.699782,20.207977,23.971596,26.193638,24.658985,-17.351646,-25.627842,-31.39864,-37.098312,-21.202984,8.194599,23.028145,22.889271,-18.473911,11.044178,23.236542,21.408634,-11.704044,7.483234,16.614532,14.870453,-38.324127,-66.130091,-86.417432,-103.283739,-81.672237,-106.222271,-120.95893,-132.869102,-77.421308,-102.126999,-88.858164,-75.807199,-73.006123,-97.592111,-82.888041,-68.526022,-69.061043,-90.165358,-82.975603,-72.329354,55.813322,307.584529,-126.38835,-74.599114
38,0.465431,-0.354447,7.24411,-6.307866,-28.907089,-52.470703,-73.111897,-85.90456,-59.068108,-88.449039,-103.816509,-115.857754,-50.900116,-83.776646,-101.96949,-116.329422,-40.970421,-71.767101,-88.648682,-101.3867,-30.813332,-54.734116,-68.212109,-79.342918,-13.914961,-11.102477,4.21144,19.167698,18.303995,35.629308,43.581897,48.745775,35.013904,51.002074,58.618863,63.572605,46.307869,61.63747,68.508562,72.451697,52.823402,67.331105,72.422427,74.916032,18.126183,17.901192,17.612171,13.536358,-21.022453,-32.41087,-36.621666,-41.06678,-25.237999,4.038792,18.494968,17.484341,-22.53233,8.835812,18.15033,14.596195,-15.453014,10.423622,19.168854,16.944065,-36.4718,-64.032537,-85.518408,-104.991231,-75.939715,-99.786906,-115.344089,-127.644215,-72.461561,-96.042886,-84.282813,-71.253708,-67.913721,-87.790453,-73.247104,-58.679132,-62.949126,-80.094036,-69.479572,-55.959551,56.871986,308.165817,-118.551006,-79.971245
39,0.849609,-0.398228,5.907211,-2.552361,-29.239426,-53.145447,-73.480396,-85.98278,-59.506302,-88.281212,-103.414593,-115.424938,-51.648674,-83.891315,-102.076836,-116.832905,-41.929207,-72.109051,-88.832417,-101.588745,-31.616135,-54.588776,-67.79829,-78.966579,-13.918234,-10.826453,4.522168,19.129537,18.219521,35.456654,43.501374,48.719717,34.69274,50.631262,58.393104,63.729389,45.933106,61.049421,68.435326,73.093716,52.545031,66.790234,72.210438,75.256462,12.225494,10.881958,11.2714,9.729137,-20.216789,-30.017738,-33.551674,-37.358952,-20.699158,3.084698,11.974354,9.965916,-15.037308,12.518177,17.801456,12.898979,-6.306095,14.840813,19.379139,16.483955,-32.179066,-57.152847,-75.379037,-89.281771,-71.295822,-95.009385,-111.580602,-124.554471,-68.215093,-89.664269,-82.531803,-73.927578,-63.976885,-79.520745,-65.75065,-54.713891,-59.585489,-70.620071,-60.37012,-50.642578,58.44243,307.6186,-111.92296,-82.672594
40,0.165596,-0.39193,1.246548,-1.513904,-29.235992,-53.013725,-73.415737,-85.832176,-58.929176,-88.101368,-103.601074,-115.687981,-50.529556,-83.318253,-101.603909,-116.100826,-40.535889,-71.039715,-87.841473,-100.548191,-30.266304,-53.585129,-66.821423,-77.896271,-13.512534,-10.488863,4.775653,19.484787,19.162326,36.620094,44.867788,50.232787,35.72286,51.929935,59.816574,65.440123,46.835897,62.466223,69.73122,74.409926,52.979013,67.677278,73.301691,76.511786,2.411671,2.002029,5.611725,7.962856,-21.822395,-28.44841,-30.330849,-32.253628,-18.725624,3.869019,11.137104,9.148006,-9.928493,13.790245,17.187767,12.620144,1.559601,18.928871,21.262264,18.084698,-26.227407,-48.85265,-64.97806,-75.847167,-66.123962,-92.823158,-110.344173,-123.929928,-63.966727,-88.787413,-80.886587,-71.970553,-60.277124,-80.392105,-67.80839,-57.01133,-55.942709,-69.727562,-59.179665,-48.920467,58.9674,307.084938,-110.317039,-84.328231
41,0.669937,0.126156,-0.736942,-1.536628,-29.537315,-53.328323,-73.797398,-86.33028,-59.261055,-88.217812,-103.281841,-115.034122,-50.910416,-83.343945,-101.27964,-115.499954,-40.935287,-71.026325,-87.552109,-100.035725,-30.770416,-53.937492,-67.012424,-77.88866,-13.326295,-10.397164,4.925398,19.992807,18.676289,36.558652,45.076689,50.879869,35.211937,51.928638,60.022882,65.759743,46.473237,62.655179,70.100179,74.951662,52.894724,67.848389,73.414139,76.671411,6.271591,5.658073,8.264408,9.050789,-21.072006,-28.993778,-30.679493,-32.792015,-19.598694,2.727242,11.651859,9.136562,-11.899796,11.989403,16.249924,11.203823,-1.01572,17.805347,20.904465,17.087688,-26.888723,-49.538604,-67.352718,-80.064087,-63.546562,-89.829328,-107.020951,-120.342244,-61.509014,-87.522919,-77.460628,-66.479861,-58.009464,-78.57124,-65.254331,-54.184582,-54.033216,-68.895151,-58.16171,-48.330427,59.927473,306.956265,-110.763845,-86.119687
42,0.423889,-0.428795,-1.046963,-2.777256,-29.355583,-53.309669,-73.514442,-85.98856,-59.529076,-88.188629,-103.451557,-115.340538,-50.795403,-83.150196,-101.173897,-115.502472,-40.474777,-70.595741,-87.228012,-99.826698,-29.908676,-53.122559,-66.427116,-77.570629,-13.165311,-9.900876,5.50474,20.079628,20.00065,37.666208,46.162755,51.918264,36.42101,52.689959,60.940679,67.090526,47.313413,63.212106,70.743001,75.842968,53.238982,68.095637,73.969954,77.593777,5.18755,4.45919,7.050591,7.900829,-21.705151,-29.434719,-31.848049,-34.918442,-20.541687,3.199654,11.391907,7.925205,-12.990246,12.768002,16.314068,10.491657,-2.355537,18.315983,21.023827,16.231728,-27.312501,-49.857514,-67.570249,-80.436488,-61.441675,-87.460196,-104.438703,-117.740236,-58.412802,-83.461533,-73.136663,-62.412824,-54.317916,-74.426876,-61.822598,-51.705812,-49.792522,-64.513511,-54.052637,-44.89945,60.703039,306.2426,-111.459131,-89.181813
43,0.468407,-0.061442,-1.213131,-0.150764,-28.595009,-52.861748,-73.242474,-85.628643,-59.266434,-88.032875,-103.442574,-115.289898,-50.950813,-83.336391,-101.543026,-115.846596,-41.018143,-70.768547,-87.648125,-100.508709,-30.558472,-53.195801,-66.665039,-78.100376,-13.155987,-9.805101,5.745073,20.369979,20.690834,38.319342,46.874923,52.97679,36.977999,53.362854,61.551205,67.709327,47.921963,63.929708,71.549461,76.664001,54.114727,69.276861,75.350014,79.077269,6.726494,5.209351,5.935421,6.482849,-22.113018,-28.88546,-31.314297,-34.682693,-22.379265,3.854885,11.569519,6.913433,-15.35923,12.219601,15.632572,9.48,-4.676971,17.715969,20.420609,15.219498,-27.5252,-51.026403,-69.820681,-85.119439,-60.050053,-85.209965,-102.618301,-116.406242,-56.216525,-80.901762,-70.025446,-60.001687,-52.043942,-72.260595,-59.873169,-50.688273,-47.834771,-62.106496,-52.141153,-43.618839,61.62077,305.728883,-112.222939,-89.784852
44,-0.021286,0.549949,-1.422272,-0.423947,-28.719749,-52.755318,-73.326416,-85.729752,-58.768501,-88.028641,-103.525829,-115.416813,-50.333748,-83.342915,-101.604252,-115.768719,-40.383568,-70.970936,-88.094616,-100.956459,-30.003204,-53.272247,-67.030048,-78.679562,-13.255405,-9.862961,5.935573,20.715843,21.136796,38.911219,47.464022,53.447822,37.627181,54.192779,62.23577,68.206356,48.543851,64.620077,72.092,77.014867,54.640346,69.916039,75.819132,79.32427,5.761127,4.296055,5.405159,6.270561,-21.832352,-28.614006,-31.734409,-35.165577,-21.473923,3.068218,10.080643,5.68119,-14.120178,12.332668,14.933681,8.55938,-3.321304,17.82526,19.902534,14.674702,-26.362085,-49.419565,-67.931366,-83.05432,-58.230145,-84.385149,-101.71815,-115.222641,-54.604315,-79.087288,-68.541043,-59.144807,-50.710565,-71.091675,-58.80359,-49.716646,-46.854684,-61.415154,-51.318992,-42.857364,62.23526,305.733345,-113.009434,-90.754287
45,0.227737,0.59762,-0.846691,-0.003767,-29.472542,-53.47229,-73.748302,-86.35437,-59.711838,-88.715458,-103.667278,-115.101757,-50.99865,-83.572483,-101.360779,-115.302429,-40.830574,-71.16497,-87.942066,-100.491543,-30.374451,-53.559151,-66.838932,-78.012371,-12.991669,-9.307887,6.56129,21.191815,20.500766,38.404866,47.201459,53.454615,37.035551,53.851855,62.225026,68.348876,48.178474,64.261431,71.886619,76.872532,54.659797,69.763454,75.403675,78.742767,5.821781,4.144535,5.119801,5.87328,-21.972427,-28.495903,-31.775436,-35.484695,-21.482277,2.759342,9.891415,5.646973,-14.131966,11.277637,14.449482,8.705406,-3.243885,16.843128,19.403114,14.790173,-26.227222,-49.129801,-67.52054,-82.513216,-57.831005,-84.013797,-101.369384,-114.887722,-53.874641,-78.620547,-68.140159,-58.371785,-49.671846,-71.075234,-59.071756,-49.757463,-45.463895,-61.551977,-52.053374,-43.368611,62.980642,305.872422,-113.33848,-91.216597
46,-0.025749,-0.199948,-1.598969,-0.391158,-29.437866,-53.471146,-73.840141,-86.190662,-59.78096,-88.652344,-103.58923,-114.9753,-50.73555,-83.384743,-101.011963,-114.893303,-40.288239,-70.574627,-87.072773,-99.529724,-29.704285,-53.119583,-66.414757,-77.580128,-12.883606,-8.693532,7.274013,22.174388,21.721881,39.651669,48.339211,54.270399,38.28402,54.970093,63.432184,69.448836,49.154686,65.326008,72.831585,77.66269,55.124099,70.428877,76.062058,79.158532,4.111462,2.858105,4.9613,6.638489,-21.961327,-28.653259,-31.401329,-34.528027,-20.802269,3.387852,10.414581,6.103878,-13.057423,12.524986,15.345497,9.081459,-1.955738,18.083897,20.587063,15.695858,-24.642552,-46.546195,-63.85147,-77.100808,-57.375843,-83.69461,-100.60445,-113.530047,-53.708548,-78.573154,-67.854193,-57.892076,-49.695481,-70.376126,-58.015778,-49.081682,-45.472154,-61.534996,-51.481735,-42.819295,63.594875,305.318444,-114.297466,-91.961786
47,0.105629,0.57539,-0.505486,0.031801,-29.991074,-53.904991,-74.125957,-86.479282,-60.162163,-89.026566,-103.629684,-114.871731,-51.3414,-83.359795,-100.510254,-114.145203,-41.037483,-70.668755,-86.668053,-98.812923,-30.523338,-53.133659,-65.769367,-76.409683,-12.921027,-9.136776,6.680715,21.214231,20.569865,38.58388,47.443336,53.572681,37.280267,54.2281,62.650609,68.619837,48.44468,64.771489,72.444966,77.35542,54.870119,70.247886,75.617332,78.47724,5.102749,3.210983,3.700275,4.505825,-21.451721,-28.348732,-30.932236,-33.815231,-21.239491,3.337383,10.485649,6.305237,-13.874416,12.326088,15.220928,8.902302,-2.709446,18.167267,20.451622,15.180931,-24.496358,-46.077941,-63.057498,-75.946152,-57.254071,-83.291935,-100.389744,-113.810301,-53.0625,-78.024918,-67.438659,-57.978743,-48.62053,-69.524233,-57.071676,-48.53763,-44.177032,-60.427209,-50.264233,-41.836043,64.406548,305.503865,-114.096909,-92.319953
48,-0.031815,0.288066,0.453873,0.853205,-29.870224,-53.888855,-74.083958,-85.924129,-60.162964,-89.033604,-103.727875,-114.989319,-51.025085,-83.320599,-100.739021,-114.489555,-40.587387,-70.464077,-86.76384,-99.088783,-30.11673,-53.016243,-65.987835,-76.91328,-12.968636,-9.141963,6.695165,21.319391,20.469768,38.499838,47.235669,53.226509,37.240253,54.219146,62.50599,68.527149,48.429428,64.807922,72.03908,76.702101,54.743469,70.208181,75.6776,78.726588,4.218864,1.976109,1.807137,1.87151,-21.289158,-28.088608,-30.971203,-33.54063,-20.937252,3.379669,10.021019,6.101418,-13.820744,11.549664,14.421501,8.865395,-3.13385,16.531906,19.155979,14.883614,-23.369382,-44.152085,-59.916981,-71.614052,-56.860891,-82.913065,-100.174729,-113.543941,-53.136646,-77.808143,-67.390834,-57.782732,-48.927352,-69.788232,-57.55211,-48.696637,-44.701061,-60.856004,-50.944908,-42.224978,64.97283,305.442778,-113.044939,-91.8159
49,-0.203018,-0.10547,-1.004562,1.941803,-29.75132,-53.529282,-73.915901,-87.063217,-59.896317,-88.829155,-103.612118,-114.917736,-51.204529,-83.348808,-100.849571,-114.398689,-41.093102,-70.840816,-87.09795,-99.076538,-30.799828,-54.057083,-67.226028,-77.950287,-12.972527,-8.873719,7.023739,21.284009,20.346761,38.172931,46.899438,53.017113,37.066241,54.110404,62.379957,68.167577,48.45419,64.943526,72.240078,76.740324,55.106253,70.449934,75.634066,78.209243,4.743977,3.225517,3.949642,4.952488,-21.311302,-26.843491,-29.447021,-32.065659,-20.387192,5.011139,11.216927,6.527653,-12.919235,13.312454,15.904655,9.834938,-1.985035,18.25098,20.954247,16.373234,-23.182371,-44.454461,-60.716587,-73.172941,-57.801226,-83.987816,-101.220164,-114.375255,-54.180753,-78.725523,-67.717354,-57.887028,-50.104855,-70.842913,-57.936151,-49.037361,-46.017163,-62.624643,-52.281017,-43.243922,65.068846,305.359168,-113.750467,-89.852237
50,0.315742,0.035383,-0.408726,-0.419038,-29.810486,-53.580894,-74.084129,-86.88097,-60.086174,-89.070053,-104.032688,-115.628986,-51.453323,-83.57626,-101.202164,-115.033493,-41.287308,-71.159992,-87.478695,-99.635696,-30.871811,-54.226456,-67.395744,-78.147011,-13.037179,-9.124858,6.664043,21.079429,20.161016,37.828055,46.431308,52.464694,36.77237,53.758982,62.273623,68.32893,48.129568,64.617051,72.094347,76.81214,54.851409,70.259742,75.533104,78.223569,6.49847,5.184631,5.466671,5.880203,-21.225986,-26.149693,-28.905029,-31.945438,-21.124935,5.981026,12.025852,6.611195,-13.934784,14.029884,16.724396,10.258598,-3.314896,18.781929,21.691933,16.63044,-23.781751,-46.195838,-63.834211,-77.883927,-57.935935,-84.566309,-101.63613,-114.920851,-54.228162,-78.106444,-66.138304,-55.817525,-50.216176,-70.898504,-57.663029,-48.59495,-46.062288,-62.476304,-51.992982,-43.053036,65.759525,305.443318,-113.784256,-90.222508
51,0.06237,-0.573723,0.249939,0.031616,-29.754295,-53.719368,-74.244518,-87.147503,-59.975624,-88.961105,-103.985939,-115.642776,-51.214256,-83.415813,-101.230087,-115.294304,-40.872917,-70.886421,-87.478466,-100.019474,-30.220757,-53.589134,-66.901302,-77.999439,-12.69644,-8.709402,6.939758,21.283823,20.658415,38.480263,47.084257,53.14117,37.155717,54.134425,62.735763,68.818364,48.336308,64.856952,72.456081,77.288236,54.860919,70.387319,75.866371,78.761354,4.243011,2.936497,4.139385,5.473309,-22.131901,-25.749149,-28.3564,-31.544724,-21.290874,6.270676,11.754341,6.470661,-13.68433,15.148087,17.1908,10.464878,-2.787952,20.05291,22.43763,16.925068,-23.417362,-46.072909,-64.474794,-79.2835,-58.224016,-85.16677,-102.103318,-115.311423,-54.756205,-78.352998,-66.288897,-56.306727,-50.916704,-70.691285,-57.236997,-48.676908,-46.87747,-62.16769,-51.304048,-42.695578,66.408348,304.923473,-112.947865,-90.137015
52,0.121078,0.278124,-0.299435,1.074426,-29.659424,-53.637428,-74.297962,-87.705059,-59.924126,-89.109421,-104.18232,-115.836239,-51.212769,-83.59005,-101.38916,-115.245266,-40.99823,-71.090755,-87.636051,-99.91333,-30.491409,-54.011993,-67.342186,-78.234386,-12.88941,-8.966345,6.615569,20.930981,20.323419,37.972243,46.623661,52.777954,36.961265,54.082308,62.63758,68.60761,48.274187,64.97224,72.520301,77.266994,54.905317,70.439436,75.741512,78.393507,4.119244,2.959557,4.128914,5.608578,-21.127968,-24.878311,-27.191277,-30.081024,-20.056801,6.430206,11.989346,6.930485,-12.373753,15.262356,17.531433,11.176186,-1.378498,20.496368,22.988491,17.858505,-22.805353,-44.566291,-61.580583,-74.413816,-58.837043,-85.98396,-103.006094,-116.247312,-55.369726,-79.513443,-67.567795,-57.579311,-51.335541,-71.755214,-58.38378,-49.818226,-47.080212,-63.13586,-52.198056,-43.254821,66.821594,305.300227,-112.955132,-88.963957
53,-0.575066,0.290721,1.104412,-0.807665,-29.725914,-53.668213,-74.299965,-87.698822,-59.590302,-89.262829,-104.394035,-115.885849,-50.702362,-83.608017,-101.390591,-115.020905,-40.344887,-70.8391,-87.368259,-99.52446,-29.899979,-53.681717,-67.009335,-77.902164,-13.324813,-9.191858,6.526339,21.112528,19.97385,37.835404,46.642803,52.84168,36.824055,54.127941,62.654315,68.425261,48.213301,65.137978,72.628179,77.163871,54.699935,70.421405,75.828024,78.542943,2.551918,1.229954,3.517399,5.758266,-22.211609,-26.501827,-28.634491,-31.285229,-20.653496,5.134392,10.750408,5.731373,-12.569618,14.400387,16.78133,10.378361,-1.162834,20.132217,22.649403,17.542362,-22.20304,-43.78379,-60.461573,-72.754212,-58.543914,-85.678264,-102.442513,-115.498218,-55.414449,-80.164508,-68.086004,-57.886859,-51.70237,-72.330743,-58.893946,-50.086052,-47.564397,-63.664335,-52.371049,-43.340793,66.439362,305.664493,-111.657887,-89.698077
54,0.067062,0.689073,1.025562,-0.191272,-29.881897,-53.578491,-74.294643,-87.826138,-59.500923,-89.185123,-104.275131,-115.692673,-50.854454,-83.811493,-101.467552,-114.933701,-40.785484,-71.179848,-87.477837,-99.299755,-30.716515,-54.328651,-67.383556,-77.895069,-13.255158,-9.471216,5.998806,20.553131,19.478982,37.023571,45.803986,51.974643,36.397422,53.5938,61.998155,67.72884,47.9282,64.770933,72.06057,76.443614,54.633245,70.275118,75.445851,77.906605,3.990612,3.139687,5.713463,7.99942,-22.604427,-26.338177,-28.377743,-31.317959,-21.408291,4.013329,10.084019,5.644054,-13.375626,14.215794,16.784878,10.266838,-1.839123,20.392971,22.65255,17.122593,-23.696597,-46.148167,-63.966943,-78.241878,-58.656238,-85.227471,-102.301815,-115.474444,-55.784705,-80.387705,-68.82176,-58.763267,-52.426547,-72.230985,-58.767867,-49.761029,-48.711828,-62.955379,-51.759489,-43.198442,66.723919,306.361238,-110.414829,-89.881677
55,-0.457535,0.156167,0.145226,-0.423824,-29.668808,-53.334045,-73.902569,-87.477264,-59.473228,-89.16441,-104.103298,-115.43787,-51.02005,-83.981781,-101.669712,-115.279026,-40.990677,-71.397686,-87.688179,-99.612694,-30.769958,-54.084892,-67.098427,-77.732391,-13.551066,-9.798617,5.772676,20.020163,19.112679,36.68944,45.444475,51.46304,35.963563,53.250715,61.696442,67.307023,47.445126,64.251304,71.747248,76.235577,54.165794,69.913755,75.236517,77.812373,3.390255,2.425575,4.635658,6.495895,-21.434212,-26.174698,-27.963409,-30.1157,-20.152359,4.284954,10.234337,5.904465,-12.300625,14.222889,16.519089,10.122128,-1.060524,20.266113,22.428017,17.047119,-22.588177,-43.513153,-59.390558,-71.197716,-58.369592,-85.363523,-102.728109,-116.050405,-55.626299,-80.459181,-69.514106,-59.758514,-52.070603,-72.133944,-59.116371,-50.289921,-48.063757,-62.853166,-51.777412,-43.082707,66.56848,306.535791,-109.967508,-90.287114
56,0.548973,-0.335613,0.733223,-0.38313,-29.533539,-53.548164,-74.159374,-87.062588,-59.920464,-89.408512,-104.465446,-115.803566,-51.411324,-84.069042,-101.68293,-115.435581,-41.272659,-71.382408,-87.685204,-99.875565,-30.9375,-54.094048,-67.278385,-78.405704,-13.301841,-9.641215,5.88395,20.569618,19.519429,36.839864,45.463988,51.394312,36.336412,53.027858,61.409426,67.141099,47.657239,64.041229,71.555142,76.185188,54.189877,69.701704,75.492781,78.598888,3.714752,2.672539,4.891663,6.973858,-22.746906,-26.024551,-27.68589,-30.264988,-21.699657,3.948669,9.884148,5.162086,-13.660069,13.915958,16.289749,9.72599,-2.037163,20.222683,22.372742,16.847477,-23.515113,-45.487885,-63.082029,-77.391807,-58.132656,-85.009106,-102.211613,-115.511988,-55.150204,-79.672666,-68.285196,-58.541691,-51.572833,-71.668177,-58.565387,-49.822841,-47.643993,-62.131783,-51.199073,-42.917463,67.390966,306.075411,-108.960772,-90.795012
57,0.096931,-0.198219,0.427494,0.155395,-29.781876,-53.845024,-74.286633,-87.335758,-60.220985,-89.30563,-104.291668,-115.767517,-51.70475,-83.858299,-101.409931,-115.207672,-41.56311,-71.262646,-87.376671,-99.544029,-31.05732,-53.725777,-66.746693,-77.821999,-13.079417,-9.397795,6.094951,20.686944,19.8987,37.411364,45.979295,51.661444,36.647758,53.597505,62.118815,67.788861,47.786236,64.294405,72.068041,76.73841,54.09367,69.512007,75.529955,78.776606,4.050465,2.913208,5.091591,7.083206,-22.937737,-25.484104,-27.011433,-29.721966,-21.859703,4.403458,10.078869,4.981327,-13.950634,14.564095,16.835403,10.009117,-2.613659,20.542374,22.761326,16.974049,-24.447142,-47.105576,-65.734502,-81.133357,-58.249874,-84.860967,-102.190757,-115.73679,-55.168127,-79.694773,-68.258211,-58.71507,-51.783016,-71.728059,-58.498712,-50.124971,-48.151891,-62.023364,-50.975722,-42.8253,67.570353,305.74395,-108.450823,-90.772859
58,0.072899,-0.202356,0.852642,-1.324546,-29.943008,-53.993111,-74.423561,-87.388973,-60.153351,-89.33979,-104.447479,-116.002007,-51.622124,-83.874035,-101.561565,-115.479813,-41.47934,-71.226254,-87.463417,-99.758835,-30.881653,-53.565903,-66.662006,-77.860622,-12.884223,-9.323139,6.232901,20.630133,20.020163,37.762476,46.309783,51.99644,36.636211,53.727366,62.321665,68.221052,47.745172,64.314289,72.157826,77.028143,54.174624,69.578079,75.646786,78.976801,3.198853,2.083454,4.797192,7.044525,-23.165874,-25.769062,-27.314129,-30.062256,-21.831608,4.492207,9.66156,4.38303,-13.967285,14.978085,16.462612,9.099827,-2.90657,20.796661,22.386818,16.039753,-24.046197,-46.587953,-64.936347,-79.973298,-57.770521,-84.000166,-100.899247,-114.195624,-54.837037,-78.522549,-66.986507,-57.740742,-51.504923,-70.321554,-56.91097,-48.919958,-47.763666,-60.278684,-48.977355,-41.326803,67.625542,305.414512,-107.615891,-92.224487
59,0.132294,0.246816,0.212917,-1.13136,-29.743309,-53.883934,-74.624519,-87.747002,-60.267563,-89.698792,-104.860668,-116.402264,-51.76403,-84.204941,-101.997185,-115.788345,-41.597786,-71.273232,-87.650414,-99.965115,-31.003304,-53.825912,-66.966648,-78.07806,-12.953384,-9.722973,5.781629,20.481871,19.924635,37.554131,46.093286,51.916412,36.606447,53.713719,62.237314,68.069208,47.764932,64.536344,72.333259,77.125647,54.161719,69.655329,75.619061,78.787721,3.312378,2.351246,4.832497,6.850777,-22.23381,-25.864162,-27.719421,-30.088463,-21.001053,5.202656,10.816383,6.225071,-13.050098,14.644661,16.199341,9.497681,-1.818295,20.372715,21.889458,16.290321,-24.26748,-46.704137,-65.009182,-80.123846,-57.143152,-83.702344,-100.74078,-113.958564,-53.807487,-77.364529,-66.620281,-57.453093,-49.91576,-69.125233,-56.701019,-48.647577,-45.827142,-59.384105,-49.171544,-41.312724,67.755003,305.60793,-107.405806,-93.409246
60,-0.377998,-0.012227,-0.333252,0.324869,-29.612503,-53.676224,-74.373207,-87.749634,-59.978256,-89.638596,-104.986839,-116.627197,-51.545563,-84.080944,-101.884403,-115.637226,-41.479912,-71.290855,-87.636795,-99.818687,-30.880623,-53.553658,-66.63271,-77.670307,-13.029584,-9.544576,6.002264,20.460814,20.04406,37.488366,46.059879,51.971246,36.73427,53.832836,62.421948,68.388643,47.850456,64.601058,72.454722,77.44712,54.232114,69.81341,75.799989,79.089187,4.799595,3.747654,5.97971,7.817688,-21.857815,-25.065937,-26.679668,-29.045963,-21.11515,5.208035,11.4398,7.072792,-13.51387,15.074673,17.285042,10.625038,-2.394333,20.883751,22.843781,16.929588,-24.293199,-46.722832,-64.900146,-79.830315,-57.255507,-83.759571,-100.960087,-114.242399,-53.73209,-77.580995,-66.665297,-57.268428,-49.820557,-69.143758,-56.307021,-48.063603,-45.832746,-59.517023,-48.8135,-40.702799,67.203999,305.592106,-107.912064,-93.087974
61,-0.98053,0.912486,-0.128574,-0.24481,-29.66938,-53.193054,-74.194565,-87.450657,-59.333038,-89.2943,-104.22266,-115.368404,-50.76004,-83.930454,-101.675205,-115.26907,-40.571594,-70.905876,-87.51709,-99.821548,-30.143394,-53.808746,-67.168407,-78.385162,-13.449734,-10.557715,4.736627,19.897527,18.305539,36.038405,44.860686,51.180223,35.441649,52.589244,61.013421,66.850811,47.222084,63.985036,71.409226,76.055636,54.22563,69.945494,75.367366,78.139342,4.597549,2.825089,4.280834,6.095009,-22.580738,-25.450859,-27.189274,-29.676018,-22.021008,4.538097,11.358833,7.732086,-14.355297,14.677849,17.174492,11.214867,-3.139286,21.005745,23.089199,17.599754,-24.981006,-47.507633,-66.268427,-82.600114,-56.776586,-83.488363,-100.799937,-114.293853,-53.681223,-76.819211,-65.32698,-55.589882,-50.103281,-68.652904,-55.545345,-46.985225,-46.408121,-58.981971,-48.236767,-39.898223,66.00523,306.53661,-108.258877,-93.300766
62,-0.885315,0.348087,0.536785,0.273523,-29.583549,-52.901802,-73.31686,-86.33337,-59.140778,-88.803234,-103.598328,-114.595013,-50.477257,-83.182755,-100.555458,-114.006214,-40.18959,-70.154858,-86.255722,-98.342056,-29.597054,-53.027344,-66.08448,-77.171516,-13.487093,-10.077297,5.341658,20.184048,18.477699,35.959735,44.655737,50.809844,35.652465,52.409736,60.778584,66.815181,47.319649,63.680483,71.111033,76.061379,54.109416,69.507128,75.189216,78.39221,5.62254,3.804016,4.386063,5.771999,-22.219563,-26.364841,-28.579903,-31.218739,-22.278557,5.025387,11.543255,7.43042,-15.091553,14.298477,16.481724,10.22604,-4.213142,20.402126,22.160683,16.148701,-25.569209,-48.740279,-67.312997,-83.680469,-57.192383,-83.203524,-100.65013,-114.261388,-53.596965,-76.892647,-65.489754,-55.861646,-49.494561,-68.614109,-55.51978,-46.834338,-45.30495,-58.225822,-47.65673,-39.298024,64.854383,306.974343,-107.987623,-92.937596
63,0.454102,0.566622,0.056019,1.089216,-29.286919,-52.934532,-73.503571,-87.088623,-58.945885,-88.555069,-103.453903,-114.652004,-50.469475,-83.325119,-100.95686,-114.622993,-40.310097,-70.398731,-86.901226,-99.220047,-29.716988,-53.025856,-66.375446,-77.651882,-13.703157,-10.501275,5.020617,19.685599,18.003086,35.248679,43.864343,50.181596,35.170565,51.61297,59.692209,65.596228,46.981134,63.209451,70.643583,75.484753,53.934415,69.278713,74.977782,78.195473,5.839119,4.197063,5.260448,6.302834,-22.738838,-26.952496,-28.870583,-31.11414,-22.963943,4.359627,10.821133,6.67757,-16.058807,14.209843,15.85516,8.920441,-5.309429,19.840736,21.182384,14.70726,-26.129316,-49.199795,-67.988253,-84.152319,-57.039087,-82.81357,-100.210205,-113.861399,-53.511826,-76.722293,-65.943558,-57.117001,-49.801368,-67.919155,-54.953621,-46.875834,-46.253189,-57.407305,-46.680347,-38.88865,65.208406,307.597173,-108.031683,-91.792173
64,-0.243874,-0.501043,0.034733,2.187385,-29.029312,-52.551956,-73.065205,-86.773567,-58.150177,-87.991333,-103.144741,-114.687424,-49.707642,-82.719555,-100.563698,-114.376774,-39.632378,-69.812279,-86.654205,-99.386616,-29.179573,-52.386017,-65.989323,-77.627449,-13.340621,-9.977014,5.234644,19.502633,18.464485,35.714648,44.19088,50.235133,35.461286,51.963466,59.914881,65.503046,47.162989,63.498381,71.078182,75.931765,54.040873,69.457666,75.349582,78.785622,7.121029,5.162888,4.963703,5.348339,-24.209404,-29.341164,-32.738972,-36.319714,-24.848671,4.883366,11.640587,6.121502,-18.16618,12.179375,14.681225,7.569523,-8.141727,16.286259,19.419022,13.824577,-26.117151,-49.689476,-68.574558,-84.448721,-57.690214,-83.097653,-100.231493,-113.694349,-53.290312,-77.239222,-64.56214,-54.210023,-49.055855,-69.200105,-55.632197,-46.92281,-45.022642,-61.002198,-50.587558,-41.797665,64.72435,307.058045,-108.237133,-89.642872
65,0.904198,0.864259,-2.184963,4.911473,-29.278107,-52.97493,-73.733025,-87.58913,-59.237022,-88.682327,-103.995323,-115.678654,-50.851707,-83.310757,-101.108837,-114.660759,-40.781364,-70.39341,-87.075291,-99.480114,-30.195236,-53.355331,-66.775074,-77.987995,-14.010798,-11.054127,3.874715,18.040939,17.719898,34.512923,42.858429,49.09942,34.715588,50.697644,58.599227,64.330035,46.522699,62.648386,70.245169,75.260908,53.477524,68.564508,74.218314,77.608535,9.713745,9.875221,11.019859,11.165714,-23.44202,-30.101795,-34.182816,-37.623711,-24.698181,6.456413,13.347702,7.203598,-18.50172,12.460213,15.585995,8.652706,-8.727551,15.185394,19.435902,15.299664,-26.06806,-52.208723,-72.772397,-89.740345,-58.945585,-83.410897,-100.262508,-113.521649,-53.948217,-78.613955,-64.567512,-53.362776,-49.411738,-71.301379,-56.652807,-46.453106,-44.90314,-63.424697,-53.992492,-44.294944,65.442295,307.905863,-110.608349,-84.74784
66,-0.395279,-0.153079,-3.475571,8.954088,-29.09214,-52.81105,-73.269596,-87.349949,-59.106331,-88.430386,-104.126186,-116.17733,-50.569153,-83.036957,-100.970993,-114.70253,-40.400276,-70.144444,-86.971321,-99.563999,-29.713326,-52.957191,-66.620865,-78.135338,-14.210314,-10.82423,4.327839,18.304057,18.338884,35.279739,43.724046,49.970471,35.482095,51.584874,59.428473,65.226219,47.077217,63.071686,70.496987,75.537982,53.526616,68.666952,74.808957,78.615129,10.911655,12.099438,15.175266,15.814705,-22.223568,-31.217194,-34.98682,-38.026199,-23.805656,6.60656,17.111664,13.777142,-18.038921,11.701813,18.248749,14.03635,-8.962555,13.369102,20.690231,19.178581,-26.567559,-52.492111,-72.701184,-87.90361,-59.169816,-84.822126,-103.35256,-118.132645,-53.157796,-78.990973,-66.381647,-54.189645,-48.432454,-71.798871,-59.468163,-48.3025,-44.294265,-66.207557,-60.290956,-51.220763,64.551344,307.526438,-114.579592,-76.020099
67,0.641098,0.242185,-2.164192,8.787856,-28.887405,-52.981567,-74.010487,-87.877007,-59.175911,-88.913898,-104.806309,-117.164955,-50.812683,-83.641491,-101.84824,-115.858326,-40.874519,-70.754414,-87.816925,-100.559864,-30.510292,-53.912888,-67.601395,-79.118328,-14.589646,-11.900045,2.857192,16.895715,17.540946,34.062948,42.200726,48.493463,34.775486,50.242111,57.807154,63.481955,46.705109,62.144503,69.593949,74.760051,53.741939,68.525791,74.324834,78.125571,11.87788,11.486607,12.03598,11.18288,-23.068886,-31.795006,-35.19516,-38.554058,-24.338665,4.000397,15.038738,11.175442,-18.710175,8.195,15.229111,10.817127,-9.376431,9.576817,15.977325,13.20425,-21.944244,-41.535797,-55.440446,-63.783791,-58.281845,-86.049369,-104.614291,-119.33085,-53.320724,-78.71836,-65.38623,-52.791801,-49.164536,-72.597073,-59.540087,-48.317876,-45.609534,-67.155611,-57.671797,-46.213298,64.697599,307.362969,-117.238626,-67.637897
68,-0.085945,0.248978,-2.956066,9.315111,-28.620987,-52.750854,-73.846378,-87.774868,-59.595566,-89.002762,-104.997597,-117.436638,-51.513748,-83.903103,-102.123356,-116.224766,-41.720695,-71.500797,-88.550892,-101.426697,-31.452713,-54.984283,-68.776932,-80.313549,-14.792682,-12.427456,1.806632,15.680159,17.575526,34.22566,42.395857,48.429984,34.84409,50.077546,57.329823,62.594355,46.712458,61.464137,68.553764,73.384375,53.588119,67.812882,73.414015,76.841472,9.116707,6.847229,5.788422,4.18087,-21.671448,-29.98003,-32.472324,-34.525223,-22.626057,5.003872,17.467461,15.629311,-17.045231,9.497852,16.728344,13.474846,-7.994156,12.745113,18.593502,15.189629,-22.009638,-39.860416,-51.705442,-57.865169,-58.946604,-86.340198,-105.010497,-119.842483,-53.503614,-80.806882,-67.962488,-55.50442,-48.625702,-74.043236,-59.98821,-48.449435,-44.024771,-62.70444,-51.206097,-40.741347,63.768311,307.169351,-121.038036,-58.765382
69,0.072327,0.132146,1.845875,9.22403,-28.336601,-52.449646,-73.747673,-88.701324,-59.430656,-89.122066,-105.224762,-117.963696,-51.454124,-84.07568,-102.488995,-117.01046,-41.892471,-71.862373,-89.241486,-102.612476,-31.799011,-55.153084,-69.18829,-81.29694,-14.707343,-12.758067,0.795345,13.442509,17.202677,33.760556,41.63503,47.197754,34.33255,49.536489,56.453523,61.42579,46.170227,61.054238,68.158499,73.009982,53.119001,67.457076,73.220922,76.904828,8.15443,6.171398,4.89378,1.184978,-24.40733,-30.795937,-31.993961,-33.213501,-25.008545,1.46347,12.969131,9.95676,-19.097271,6.119442,13.330765,9.431534,-10.458012,8.912315,15.24559,11.82272,-19.928741,-38.171233,-50.774245,-57.841858,-57.04432,-86.587493,-105.465011,-120.201314,-50.059731,-77.944087,-62.464123,-50.034074,-43.625616,-70.383089,-54.333724,-43.263574,-38.130972,-59.590938,-47.954598,-37.865075,62.283182,306.413603,-120.749617,-50.429246
70,-0.041313,1.099219,-2.072067,13.602566,-28.006668,-51.964417,-73.586369,-88.337746,-58.895416,-89.46888,-106.438923,-119.416637,-50.966492,-84.593525,-103.662643,-118.09639,-41.620216,-72.288952,-90.013847,-103.001347,-31.977882,-55.987129,-69.981308,-81.541901,-15.409568,-13.793745,-0.356547,12.672543,16.032815,31.908599,40.129802,46.346339,33.486754,48.637403,55.847134,61.083693,45.511474,60.255249,67.238912,72.17876,52.465435,66.697052,72.218589,75.880574,7.859631,8.151569,8.499813,6.452179,-20.066872,-26.768017,-26.79451,-26.233463,-19.376163,7.870159,17.681351,14.690151,-11.95982,14.380188,19.416218,15.637608,-2.03825,16.980228,21.025944,18.098717,-23.040468,-43.370155,-57.618599,-63.532035,-56.937091,-88.545954,-108.054977,-121.936717,-48.70292,-74.227175,-60.142524,-48.434306,-39.970424,-64.304872,-49.838974,-39.433782,-32.338814,-51.696827,-41.181134,-31.278868,61.249695,306.911311,-123.813858,-37.428191
71,-0.132179,0.315298,1.830826,1.624993,-28.201103,-52.127609,-73.792648,-88.920593,-58.989944,-89.571533,-106.356812,-119.27599,-51.049919,-84.771652,-103.870468,-118.558331,-41.616783,-72.593708,-90.322323,-103.479252,-31.82991,-55.97065,-70.10891,-81.999722,-15.705662,-14.214574,-0.979979,11.526023,15.116316,31.338952,39.691806,45.978554,32.693756,47.69361,54.928288,60.359484,44.992523,59.645217,66.630485,71.840182,52.177678,66.142719,71.474002,75.212743,8.483849,10.275478,11.259327,12.322311,-11.894932,-18.075199,-17.733936,-17.270737,-13.133869,8.630161,14.730949,12.540436,-8.755074,16.153049,21.207218,18.504295,-2.249165,16.786366,21.993198,20.86607,-13.049066,-22.91601,-27.427372,-25.244217,-39.062076,-69.311534,-86.762277,-99.973068,-35.562896,-56.384733,-44.386134,-33.918359,-29.060176,-46.836977,-33.932284,-23.418473,-22.468845,-33.34655,-25.868266,-17.775381,60.455303,306.879386,-122.645245,-36.15042
72,-0.293541,0.048906,4.83736,30.44868,-28.029442,-52.079773,-73.776112,-89.132824,-58.977127,-90.113983,-106.852341,-119.709721,-50.907326,-85.167904,-104.22924,-118.81834,-41.255608,-72.886677,-90.939617,-104.441471,-31.19957,-56.037483,-70.503273,-82.611465,-16.142793,-14.563958,-1.139048,11.211281,14.543457,30.832845,39.122776,45.440214,32.104657,47.278956,54.583536,60.177258,44.546006,59.324424,66.356746,71.728291,52.046767,66.01965,71.443374,75.519828,11.561709,14.747601,16.003418,15.986581,-7.580366,-12.252187,-10.706548,-9.29266,-10.326891,5.963187,11.934357,11.73048,-8.241091,10.670758,15.88254,15.234118,-3.825359,10.416827,15.133653,15.067435,-15.318486,-28.458681,-35.486974,-36.970327,-46.802181,-75.555866,-92.112715,-103.968771,-43.724602,-66.382511,-60.712596,-54.652125,-37.50067,-57.194065,-51.235467,-45.413298,-30.457642,-43.3677,-40.874774,-36.829458,59.956312,305.713353,-118.013335,-6.916679
73,0.423889,0.587432,4.837361,30.448681,-27.743225,-51.882706,-73.704243,-89.253731,-59.474373,-89.997597,-106.675014,-119.806252,-52.09053,-85.697708,-104.772892,-119.623318,-42.851028,-73.604164,-91.6325,-105.30035,-32.998695,-57.503586,-71.890812,-84.144802,-16.702745,-16.018242,-3.322234,8.76757,13.01921,29.026213,36.942678,42.841695,30.595353,45.530246,52.587268,57.953873,43.412207,58.193959,65.315325,70.568433,51.531707,65.652421,71.361987,75.492657,14.639568,19.219722,20.747509,19.65085,-3.265801,-6.429177,-3.679161,-1.314583,-7.519913,3.296213,9.137764,10.920524,-7.727108,5.188465,10.557861,11.963939,-5.401554,4.047289,8.274107,9.268798,-17.587907,-34.001352,-43.546576,-48.696437,-54.542287,-81.8002,-97.463153,-107.964475,-51.886309,-76.380289,-77.039058,-75.385891,-45.941164,-67.551153,-68.538651,-67.408124,-38.44644,-53.388851,-55.881283,-55.883537,60.359402,305.007067,-113.196773,22.238284
74,-0.277061,-0.310172,4.83736,30.44868,-27.768631,-52.123718,-74.048882,-90.827866,-59.483643,-89.988613,-106.655102,-119.879322,-52.452621,-85.648727,-104.737015,-119.957085,-43.486862,-73.881226,-91.834946,-105.572891,-33.684883,-57.6614,-71.655807,-83.583412,-16.553927,-15.820085,-3.131116,7.902138,12.955113,28.684363,36.57514,42.169789,30.515263,45.425209,52.766036,58.282447,43.32977,57.955602,64.909872,69.91431,51.432042,65.35182,71.145428,75.203048,17.717428,23.691845,25.4916,23.31512,1.048765,-0.606165,3.348227,6.663494,-4.712934,0.629239,6.341171,10.110569,-7.213125,-0.293827,5.233183,8.693762,-6.977749,-2.322249,1.414561,3.470163,-19.857327,-39.544022,-51.606178,-60.422546,-62.282392,-88.044532,-102.813591,-111.960177,-60.048015,-86.378066,-93.365519,-96.119657,-54.381658,-77.908241,-85.841833,-89.402949,-46.435237,-63.41,-70.88779,-74.937614,59.265919,303.799661,-109.175835,51.789731
75,-0.300636,0.497523,4.83736,30.448681,-28.018112,-52.254524,-74.135456,-90.869408,-59.676247,-90.091438,-106.738815,-119.942379,-52.600136,-85.741653,-104.801273,-120.13361,-43.699379,-74.178314,-92.001286,-105.764465,-33.812828,-57.736931,-71.53616,-83.508911,-17.038421,-16.955366,-4.689573,6.068583,12.022929,27.502275,35.340378,40.852776,29.613707,44.170811,51.399808,56.939746,42.433216,56.715716,63.49801,68.456383,50.571797,64.401048,70.174094,74.337492,20.795288,28.163967,30.235691,26.979389,5.363331,5.216846,10.375614,14.641571,-1.905956,-2.037735,3.544579,9.300613,-6.699142,-5.776119,-0.091496,5.423584,-8.553944,-8.691788,-5.444984,-2.328472,-22.126747,-45.086693,-59.66578,-72.148656,-70.022497,-94.288865,-108.164029,-115.955881,-68.209721,-96.375844,-109.691981,-116.853423,-62.822152,-88.265329,-103.145017,-111.397774,-54.424034,-73.431151,-85.894298,-93.991691,57.469854,302.239012,-105.833902,80.180239
76,-1.286659,0.268491,2.387924,27.939684,-27.472687,-51.711502,-73.538647,-90.899849,-59.530678,-90.791302,-107.552547,-120.516872,-52.424812,-86.406784,-105.367413,-120.102825,-43.359489,-74.251099,-92.091122,-105.632687,-33.374748,-57.714615,-71.553783,-83.067284,-17.519642,-17.028726,-4.478943,5.967622,11.752647,27.051991,34.852982,40.201,29.437718,44.239848,51.480516,56.777528,42.299217,57.003164,64.000597,69.064193,50.42903,64.190171,69.87374,73.824285,19.594288,29.131851,30.401745,28.879509,13.142395,15.620041,21.961613,26.590977,3.755207,6.282864,15.143795,21.62487,-3.823929,-0.419483,7.788734,14.530964,-10.430031,-7.447758,-0.430927,5.572586,-14.742509,-33.765681,-48.82108,-61.417238,-58.672926,-83.150974,-91.08405,-93.616774,-59.192895,-85.100651,-94.00117,-97.880763,-56.06607,-79.847111,-88.774862,-92.854866,-48.599427,-67.591445,-75.680348,-80.215236,54.970579,300.94423,-104.658594,106.55665
77,-0.076103,-0.708956,-6.363087,27.965279,-27.483444,-51.767693,-73.87064,-90.935097,-59.828339,-91.195164,-107.833271,-120.715256,-52.973671,-86.724586,-105.626736,-120.459652,-43.988457,-74.770432,-92.646332,-106.263428,-33.870049,-57.757416,-71.50732,-83.251534,-17.41127,-17.312469,-5.389205,5.04507,11.931353,26.656356,34.315939,39.877119,29.659279,43.8741,51.202145,56.735908,42.507008,56.926779,64.27835,69.684908,50.598658,64.433467,70.470435,74.824024,14.100666,27.820187,40.524244,47.806721,13.343553,31.514854,39.948864,41.667452,10.30446,29.304685,35.442581,35.215416,9.142971,27.603807,31.197796,30.796709,8.842478,22.871675,25.363569,24.920311,-22.5994,-43.108595,-54.301691,-59.449823,-57.573722,-76.623678,-76.936752,-75.243016,-49.230608,-67.588558,-68.114317,-67.219167,-38.54558,-55.355786,-57.119625,-56.921915,-26.004302,-41.129881,-44.538858,-45.482466,53.83132,298.876564,-112.084837,133.163219
78,0.026093,-0.830173,-6.363087,27.96528,-27.75753,-52.251549,-74.095516,-91.104813,-59.471512,-91.043987,-108.119774,-121.438637,-52.631149,-86.489868,-105.875359,-121.312294,-43.827782,-74.860954,-93.047104,-107.023201,-33.985405,-58.120308,-72.18132,-84.290314,-17.144817,-17.04793,-5.410695,4.342783,11.961858,26.732247,34.540402,40.260404,29.637542,43.50298,50.823368,56.495761,42.553938,56.557882,64.138115,69.811311,50.78076,64.388019,70.614745,75.319448,8.607044,26.508522,50.646744,66.733932,13.544712,47.409668,57.936115,56.743927,16.853714,52.326508,55.741367,48.805962,22.109871,55.627098,54.606857,47.062454,28.114986,53.191109,51.158066,44.268036,-30.456291,-52.45151,-59.782303,-57.482409,-56.474519,-70.096382,-62.789455,-56.869258,-39.268322,-50.076466,-42.227463,-36.557572,-21.025089,-30.864461,-25.464388,-20.988965,-3.409178,-14.668316,-13.397369,-10.749697,52.766333,297.209982,-119.539003,160.29209
79,-1.188927,0.141038,-1.575336,15.610597,-27.388,-51.893234,-73.88546,-90.476074,-59.904213,-91.262054,-108.160057,-121.281223,-53.069115,-87.169704,-106.81572,-122.271824,-44.167557,-75.173435,-93.571815,-107.680149,-34.140816,-58.801346,-73.111324,-85.491943,-17.298513,-17.523161,-5.957556,4.29789,11.779385,26.042989,33.721776,39.343781,29.588019,42.862196,50.121513,55.768897,42.537883,55.881529,62.968809,68.111445,50.756924,63.901982,69.721649,73.942784,16.471309,41.752081,68.024397,80.512132,24.476766,63.738756,65.911073,59.740562,21.915664,61.812687,60.906515,51.530227,22.204342,60.3164,56.719866,47.690563,23.909998,51.678571,48.505125,40.869827,-26.814067,-41.153609,-38.845857,-29.541459,-42.063239,-42.728646,-37.897448,-37.443521,-23.692954,-24.211179,-20.06521,-18.41263,-4.538594,-7.207756,-5.560841,-3.818893,13.072191,7.083389,4.991316,5.286267,50.730057,296.954937,-121.961689,175.506605
80,-0.202904,-0.306714,-1.575337,15.610596,-27.131882,-52.025528,-74.669437,-91.653614,-60.133095,-91.843243,-109.035587,-122.358742,-53.339996,-88.102913,-107.993774,-123.410969,-44.518547,-76.618423,-95.713062,-110.161972,-34.739456,-60.464973,-75.570488,-88.361263,-18.16518,-18.444231,-6.766548,4.252751,11.513488,25.258759,32.668314,38.109946,29.722326,42.633164,49.314497,54.347217,42.793591,55.839354,62.365076,66.925652,51.06333,64.012824,69.276861,72.852395,24.335575,56.99564,85.40205,94.290333,35.408821,80.067844,73.886032,62.737198,26.977615,71.298866,66.071663,54.254494,22.298813,65.005703,58.832874,48.318672,19.705009,50.166035,45.852184,37.471619,-23.171842,-29.855707,-17.90941,-1.600509,-27.651958,-15.360909,-13.00544,-18.017782,-8.117586,1.654108,2.097044,-0.267688,11.947902,16.448951,14.342706,13.35118,29.553562,28.835096,23.380003,21.322232,49.732161,296.221497,-124.332018,190.690475
81,-2.522392,0.116091,0.230427,15.164296,-26.423836,-50.574532,-72.944241,-89.772778,-59.122181,-91.050396,-107.912407,-120.981903,-52.638588,-87.717304,-107.387238,-122.611713,-44.236565,-76.388969,-94.924164,-108.978939,-35.004845,-60.25486,-74.597454,-86.903,-17.652652,-18.415455,-7.075671,3.296731,10.093043,24.29113,31.921134,37.438719,28.193015,41.753529,48.45771,53.360322,41.516901,55.089889,61.499397,66.040831,50.152326,63.300409,68.014065,71.129867,30.558872,60.106716,83.28867,93.891735,40.391006,78.077946,76.587639,69.460659,30.252457,72.745228,73.082199,65.27956,24.297466,66.541958,66.629906,59.629726,21.913776,53.3004,53.748608,47.88105,-20.23314,-22.14802,-9.080398,2.892636,-21.453143,-13.098374,-8.006497,-6.868807,-2.608831,4.826721,6.470208,4.750644,16.372072,20.111986,17.466722,14.708516,33.991008,29.778704,23.495785,19.367152,46.392832,296.241766,-124.918528,205.758949
82,-1.300735,-0.548344,1.877632,14.483497,-26.488152,-50.58609,-73.32304,-90.507946,-59.426651,-91.37701,-107.954292,-120.746841,-52.95948,-87.419357,-106.643028,-121.854515,-44.402161,-76.143723,-94.62719,-108.850422,-34.986076,-60.036335,-74.535885,-87.017612,-17.873719,-18.931874,-8.382433,1.895923,10.100885,24.299219,31.849566,37.697515,28.039689,41.038645,47.565848,52.741459,41.199196,54.527899,60.854167,65.599686,49.601698,62.402558,67.233108,70.674396,31.071682,56.663074,74.723568,89.432774,43.695316,68.577061,83.412151,94.936352,32.497387,56.039429,72.098866,84.776001,22.341785,45.589886,60.782948,70.725288,13.826466,29.561462,38.873405,44.874458,-15.320895,-18.388161,-16.034235,-11.712818,-4.997955,6.982675,15.857444,23.196728,7.646245,19.427421,25.975373,28.67615,18.168577,28.703259,32.296145,32.911982,27.038468,33.417532,32.672328,29.167622,44.514627,295.434673,-123.618364,219.983697
83,-1.062469,1.098972,13.425121,27.216803,-26.348763,-49.22493,-68.534775,-80.98772,-60.826092,-90.65752,-106.548843,-118.788929,-55.208359,-87.281399,-105.972977,-120.341606,-46.6436,-76.374722,-94.539299,-107.946339,-36.652565,-60.596809,-74.363594,-85.599689,-19.065625,-21.745346,-17.040829,-13.474002,8.744105,22.759905,30.461108,36.179813,25.881018,40.299677,47.094878,52.217754,38.867685,53.15883,59.62521,63.82325,47.630069,61.073133,66.514333,69.575239,21.54356,40.545845,59.050198,69.331112,59.395466,80.596218,74.301796,62.026749,60.336285,80.470276,70.019875,50.362873,56.756744,77.336426,68.632565,52.151585,50.921688,69.797859,68.093891,57.830086,-17.863591,-21.573556,-16.7322,-8.453323,3.482908,46.259395,66.78023,77.713634,25.532931,68.149792,88.814074,99.034137,46.049629,83.018612,100.118413,108.656457,62.457145,87.737949,103.678818,114.234557,42.972336,296.313011,-110.673065,246.979865
84,0.36438,-3.398743,-2.496071,8.424485,-27.857437,-51.281776,-68.468456,-79.434986,-59.652958,-87.924328,-105.604362,-119.202976,-54.360924,-85.651073,-106.090965,-122.115097,-47.196922,-75.529919,-94.695339,-110.315895,-38.149338,-60.441685,-74.803562,-87.814007,-15.609269,-16.386398,-11.499285,-11.711336,16.068445,28.399508,34.146743,37.620636,30.447337,44.946458,50.858936,54.961633,41.245014,55.812739,61.716943,66.115425,49.289858,61.213986,67.126897,71.971278,24.18251,49.19529,71.386814,87.779903,33.340988,70.289555,89.372921,98.620892,28.067436,71.527748,89.234619,91.999111,25.276108,64.222069,80.168152,83.583412,24.732056,57.666378,72.00491,75.201931,-18.594716,-20.944443,-13.031066,-6.873747,-1.02339,20.540163,31.240089,38.869291,24.05549,52.041024,62.863834,67.668077,44.448935,68.818117,77.545241,82.28477,58.534327,74.848539,79.882556,81.408038,43.102226,292.797081,-113.403625,255.287164
85,0.477448,-2.335092,-10.14061,4.954236,-27.858124,-51.057243,-66.968307,-76.118374,-60.592747,-89.445763,-108.40519,-123.289433,-57.130051,-88.243847,-109.069862,-126.238461,-50.699272,-77.985764,-96.354103,-112.497711,-41.533585,-61.553993,-75.772476,-89.764481,-13.225765,-12.592206,-4.816717,-1.264834,18.717661,23.454721,23.750937,23.79935,32.676527,42.07741,44.669939,46.258654,42.910979,55.924446,62.008096,66.847044,49.528338,62.054039,69.461001,75.872855,29.370975,56.71526,79.637604,97.693119,43.577957,77.173519,97.170582,112.303963,33.792744,74.125443,95.352573,107.822685,27.302628,63.5606,83.446941,95.339127,23.587646,52.054482,68.089371,77.781372,-14.100151,-12.034847,-5.158691,0.73341,11.279145,31.429416,40.279423,46.835341,30.379906,51.184484,56.8612,58.91471,44.027735,63.578903,66.746391,65.776909,51.679229,66.946956,68.359806,66.084365,43.50626,290.415044,-123.617649,260.194454
86,-1.153221,0.191426,2.899132,6.192084,-28.481026,-57.3036,-78.719215,-96.546307,-64.26527,-86.629372,-101.924686,-116.033821,-60.263615,-84.822922,-104.030514,-122.168827,-52.828331,-75.919933,-93.933334,-111.478729,-41.293144,-59.513741,-74.448566,-89.660454,-13.847653,-15.656323,-15.343866,-19.484972,17.976903,22.008958,18.356421,12.390652,32.256933,40.25003,40.27578,38.389861,42.781365,56.879231,62.01915,64.365851,49.276891,63.868389,71.783125,77.321952,28.717232,54.761868,77.017708,96.117954,48.34837,79.229565,97.065639,110.046158,36.717854,71.295204,90.38641,101.922169,27.66283,59.020557,76.899319,89.062099,21.444912,46.550961,61.108475,71.234837,-10.9791,-8.836113,-2.129772,1.749821,17.930344,39.372371,49.065581,55.505716,34.635003,55.639529,62.849631,66.43875,45.887472,66.136544,72.142698,74.208558,51.68386,68.074272,71.699206,72.686286,42.324057,290.508611,-120.747499,266.288679
87,-2.672997,2.386653,3.049564,7.366083,-27.616539,-56.174641,-78.735523,-97.459316,-60.976753,-80.017319,-88.906746,-96.658001,-56.977158,-81.098671,-98.94928,-117.066364,-50.632668,-75.485344,-94.013443,-112.106152,-41.043663,-60.823574,-76.134167,-92.864628,-13.765093,-16.259316,-19.0069,-24.262416,19.445884,28.238896,28.632863,24.251425,33.193502,40.344323,39.627401,35.428928,43.958142,53.732553,54.012344,50.486581,51.666076,65.763324,71.469865,73.771797,28.550205,54.710999,77.238636,97.403984,47.759171,79.245987,98.724289,113.583813,36.71957,72.814751,95.148525,109.669704,28.168488,60.359745,81.056213,95.87574,22.052822,47.482796,63.462296,75.74049,-11.05425,-8.376999,-0.423608,5.025743,19.526407,39.215772,48.195579,54.774468,35.967948,55.917468,64.197025,69.475636,47.302051,67.919834,75.084055,78.67163,53.445352,70.84211,76.088672,78.886831,39.6387,292.828867,-117.710295,273.588365
88,-0.130234,1.553146,2.629108,4.697354,-28.121109,-55.946617,-76.705685,-94.385262,-62.349072,-76.004677,-76.192532,-76.928902,-58.061943,-79.73917,-93.797665,-106.378384,-51.400681,-75.040112,-91.007824,-105.336971,-41.875534,-62.340202,-76.005936,-91.087532,-14.4349,-15.48231,-15.637674,-17.865938,16.545529,29.413018,36.430767,38.761598,30.737132,40.41935,44.426025,43.124635,41.816514,53.109121,55.071796,53.303326,49.995418,64.020542,69.001701,71.136289,28.120193,53.523045,76.037579,94.757137,48.590927,80.178509,98.93755,113.490028,37.775917,73.382835,95.701447,110.607834,29.070053,61.223259,81.39164,95.693893,22.488899,47.224274,62.517014,74.371948,-10.954894,-8.947079,-1.080076,3.123274,20.2261,39.287835,48.483706,55.39049,36.517403,56.317487,64.722212,69.480576,47.477298,67.145237,74.472541,77.601434,53.525936,70.412575,75.719961,78.010469,39.546289,294.390844,-115.043364,278.294549
89,-0.517845,-1.628358,3.519859,3.344711,-27.703743,-52.9739,-71.185112,-87.010803,-63.40868,-74.997768,-67.694206,-56.700325,-60.134525,-73.781662,-64.002914,-49.458847,-55.067654,-70.841846,-63.754463,-53.471947,-47.873955,-64.22224,-68.538265,-69.336433,-8.068309,-5.456822,-2.20449,-3.055966,20.182443,36.657823,45.637877,48.590905,29.564924,45.056744,54.421256,57.398305,36.585699,50.396672,57.24998,58.998381,41.624903,54.033895,60.41086,64.59303,27.51709,52.721329,75.241871,93.764362,49.577293,81.142559,99.897995,114.904861,38.672848,73.1147,95.089302,110.325851,29.566555,60.480881,80.425301,95.134735,22.086926,46.315041,61.030197,72.776871,-10.650341,-8.680317,-1.254583,2.159782,21.932017,40.497587,49.378655,55.675345,37.572964,57.33958,66.305987,70.877926,47.81285,67.761938,76.241628,79.998276,53.358963,70.229979,76.456828,79.55954,39.043751,292.768969,-111.508198,281.645744
90,0.63858,-1.787983,3.196793,2.665271,-26.859856,-51.650734,-69.862976,-85.103703,-58.01033,-71.465607,-67.751999,-59.348316,-53.04554,-67.66222,-61.166668,-50.074539,-46.530991,-61.654701,-57.187843,-48.960686,-38.591652,-51.630821,-53.795414,-52.904778,-10.515292,-8.755467,-5.063966,-6.316944,21.636912,36.463433,45.882717,50.967185,31.757928,47.621485,57.310434,61.313466,39.341064,54.488008,61.390284,63.040502,44.718907,57.972398,63.997324,66.665498,28.264732,53.37307,76.200714,94.965706,51.494751,82.887955,100.718651,114.471359,40.928764,75.124283,96.746407,111.484566,31.291237,62.561359,82.328224,96.448059,22.822609,47.830124,62.866688,75.197067,-11.27155,-9.43219,-1.835963,0.312148,21.172611,39.219971,48.575097,55.578705,37.117185,56.237397,66.076769,71.323146,47.949812,67.425151,76.683946,80.980108,54.31418,71.064721,77.838926,81.413596,39.719095,291.010935,-108.274641,284.340964
91,-0.217438,2.499657,4.64138,1.462867,-23.28289,-47.221184,-65.722733,-81.335678,-56.860085,-67.813168,-63.474598,-53.960724,-52.222824,-63.328686,-55.633965,-43.864403,-45.890007,-57.385368,-51.757164,-42.874832,-38.290215,-48.265686,-47.700462,-44.415321,-11.892141,-11.582463,-8.063369,-9.293561,17.211754,30.846677,41.904632,49.568846,28.81935,43.946163,54.662576,60.407711,37.599332,52.208491,59.590321,62.914037,44.00711,56.047947,61.25011,64.206226,27.620831,52.640247,75.096817,93.183517,52.852364,84.456654,101.806984,115.102043,42.10722,76.531334,97.732315,112.098427,32.038078,63.312092,82.711086,96.874924,22.982655,47.574005,62.290764,74.453831,-11.804703,-9.294549,-1.472192,-0.096084,21.778815,38.565355,47.208684,53.905701,38.004353,56.239064,65.443457,69.874667,48.492722,67.272257,75.22923,78.156261,54.122878,70.128708,75.674327,77.682142,39.58374,293.518341,-103.551178,285.811581
92,-0.126572,0.843943,3.090305,2.596296,-20.566978,-43.075905,-60.780201,-75.712967,-51.650391,-62.777767,-59.28709,-50.331917,-46.743393,-57.855949,-50.99865,-39.712715,-40.124588,-50.828362,-45.15152,-36.111259,-32.227478,-40.911026,-39.263992,-34.64344,-14.150292,-14.484856,-9.360745,-8.449865,14.342521,28.156397,38.506075,46.14633,26.953808,41.666523,52.214852,58.298749,36.456517,50.376727,58.439231,62.559281,43.089129,54.830723,61.144702,64.860286,27.459469,52.409134,74.339676,92.103825,54.228458,85.986328,103.151951,115.619259,44.28875,79.085026,99.93536,114.462719,34.539013,65.795288,84.639301,98.48093,25.425282,49.793072,64.210682,76.412888,-12.882865,-11.591417,-3.699158,-1.902777,19.966502,36.251753,44.538164,50.430388,36.442932,53.991226,63.049888,67.384026,47.215847,65.381027,73.307866,76.090895,53.427321,69.438153,75.242074,77.354556,39.827843,294.363843,-100.090199,288.409436
93,-8.231621,8.8166,4.302177,0.292944,-15.036163,-35.059662,-56.182652,-77.536755,-66.419506,-60.007553,-33.980026,-16.373863,-72.419815,-61.694241,-36.308327,-14.469223,-72.642746,-67.178249,-41.677895,-20.263367,-70.858784,-90.339088,-98.632164,-103.732796,5.111514,9.099726,20.196275,31.772686,15.917836,35.067812,42.297365,47.379609,23.867646,36.896427,45.472695,48.880021,29.347871,40.602131,46.655833,49.977634,35.373353,42.45452,48.098013,55.858682,27.028656,52.007389,74.325314,92.984333,54.100742,86.143398,103.599415,115.985928,44.429569,79.33239,100.59866,114.971523,34.82357,66.457214,85.707607,99.452763,25.956688,50.987778,65.983944,78.749943,-12.785176,-10.732592,-2.492617,-0.845487,20.352071,38.022816,47.167867,54.106946,36.478068,54.616078,64.262419,69.262041,47.090494,65.582396,73.881342,77.507079,53.158707,69.395545,75.310247,77.685106,32.08497,303.170903,-95.299273,288.69284
94,-6.969795,5.527403,2.358913,1.174308,-16.613846,-36.15715,-55.658226,-77.511806,-62.447262,-53.992653,-30.405464,-12.686462,-64.276142,-51.389122,-25.723114,-3.681221,-61.030598,-54.542313,-30.18322,-8.797073,-56.142311,-72.435379,-83.213768,-91.227322,7.65594,16.320449,29.540286,42.264267,17.0391,33.008374,39.934547,46.076552,21.444745,32.616691,40.159813,46.019927,23.654669,34.273331,40.742243,46.166214,25.912943,32.140904,36.73989,44.48617,27.618084,52.641392,75.220985,94.372787,53.312244,85.027657,102.448769,114.883232,44.161777,79.207764,100.460014,115.280914,34.995975,66.498299,85.685692,99.390221,26.503773,50.986805,65.779896,78.494568,-12.276785,-11.092165,-2.39499,1.297623,19.500163,37.316947,45.858326,51.716094,35.646969,54.385008,63.639542,68.386482,46.08106,65.150143,73.174053,76.399647,52.423445,69.416911,75.361747,77.52579,25.487967,308.795455,-92.567568,289.964296
95,-3.733864,-0.751564,2.456074,0.78034,-13.510551,-31.767426,-47.501736,-62.935524,-53.803825,-54.778976,-44.850483,-39.756203,-52.411251,-44.395809,-24.017143,-5.418892,-46.591072,-36.902218,-15.738144,2.97123,-38.971252,-42.643433,-41.77969,-39.360409,21.164954,35.751945,46.455391,56.380658,32.539318,45.183641,48.171743,51.357571,24.195911,37.087853,45.020064,51.857625,15.798905,28.4754,38.259135,46.462245,7.616111,15.770129,23.94187,32.682702,27.971134,52.730427,75.099163,94.42194,52.707024,84.155331,101.376514,114.076138,43.225079,78.264942,99.407558,114.309139,33.898945,65.591698,85.022449,99.267597,25.222092,50.209808,65.538197,78.599453,-11.734369,-10.4189,-1.849981,1.605078,19.940134,38.106797,46.434272,52.043865,36.388406,55.051419,64.033016,68.49825,47.089691,65.952404,73.849417,76.93138,53.462766,70.114876,75.471539,76.979113,22.151699,308.31232,-89.713898,291.013065
96,14.18026,-5.620152,0.504169,1.367586,-18.087845,-41.294632,-65.242596,-89.032688,-69.917336,-65.20895,-39.578133,-20.61676,-73.201504,-62.76907,-36.545105,-12.228928,-70.784912,-64.619751,-37.834282,-14.188499,-67.73037,-86.923256,-96.821709,-102.201176,14.059025,21.794684,34.638091,47.186392,19.419764,37.553945,46.209933,53.690686,22.793189,36.546179,46.638851,52.412762,24.422164,37.095634,45.249343,50.779463,26.925464,36.341105,44.098007,53.961647,27.619286,52.571297,74.323654,92.415848,52.669373,84.640846,101.837883,114.211464,43.007126,79.14711,100.09861,114.754715,33.489075,66.212311,85.656967,99.743729,24.809361,49.754906,64.878216,77.957611,-12.167486,-11.324593,-2.310639,2.429076,18.153571,36.003392,44.294682,49.705932,35.034899,53.412501,62.228051,66.791592,46.085135,64.639343,71.818446,74.164097,52.694899,69.382886,74.665634,75.853712,37.061262,302.797205,-88.480425,292.485689
97,-4.33239,0.861542,0.483742,-0.30974,-19.454613,-41.408958,-59.753036,-80.146008,-70.701256,-60.425377,-37.262077,-20.056801,-69.395714,-54.717522,-29.578743,-6.886253,-62.39645,-51.779709,-27.509193,-6.866226,-52.857571,-63.444443,-68.902817,-71.233921,22.853395,37.569753,50.174433,61.612523,28.19882,46.961621,54.526293,60.142493,22.889951,38.733934,47.457662,54.386984,16.281916,29.954507,39.186688,47.570974,10.119472,18.371303,24.845896,33.916784,27.308578,52.004299,73.447552,91.682739,53.820648,85.917778,102.984352,114.97879,43.9995,79.531631,99.991837,114.203339,33.939514,66.161957,85.326004,98.83461,24.62471,49.412613,64.364204,77.397652,-12.579609,-11.56437,-2.275009,2.683549,18.524321,36.103737,44.540325,50.459226,35.072875,52.88367,61.552625,66.533475,46.007885,63.73365,70.982901,73.69288,52.565841,69.155707,74.682616,76.20254,33.916912,303.728371,-86.808643,292.245573
98,-6.742401,5.552844,-0.288219,0.223413,-14.244919,-29.656563,-41.763954,-53.389091,-53.189335,-47.00861,-28.833275,-13.854446,-52.24926,-43.116589,-22.837143,-2.534065,-47.591743,-39.547634,-20.092392,-1.764107,-40.589333,-37.360725,-28.283844,-19.130173,11.144467,20.822795,29.371645,38.118159,22.510804,37.455886,42.385606,46.366779,23.525178,36.201611,44.18773,49.28535,22.202669,33.383384,40.891185,46.48534,19.702086,29.435248,35.47166,41.461079,27.889538,52.526779,73.945599,92.322979,54.328823,86.071758,103.298321,115.500584,44.529991,79.543247,99.845409,114.090786,34.534721,66.060505,85.092602,98.649158,25.186729,49.588108,64.466057,77.475872,-12.392381,-11.100933,-1.811448,2.627912,18.979792,36.52401,44.983137,50.938471,35.437512,52.815066,61.111419,65.769932,46.345043,63.683879,70.575596,73.08365,52.86249,69.065613,74.311866,75.609798,28.325071,309.384461,-85.946302,292.572232
99,9.320183,-6.855531,0.327702,-0.078485,-17.655373,-39.479027,-62.418423,-85.692673,-67.710228,-62.279034,-36.942329,-18.205376,-72.211933,-61.181202,-34.557953,-10.078354,-70.724258,-63.82164,-37.374001,-13.689194,-67.654095,-84.908752,-92.347298,-94.424858,16.304455,25.221894,38.154221,50.501586,18.523456,36.804728,45.86376,53.061512,21.668528,36.083668,47.009724,53.136044,23.078846,36.296028,45.151654,51.485765,25.117783,34.948448,41.774215,50.37117,27.551022,52.356491,74.059238,92.517357,53.842392,86.072388,103.296089,115.439186,44.017353,79.614716,100.064163,114.213409,34.111347,66.104908,85.252647,98.774414,24.970264,49.673023,64.602928,77.55043,-12.67384,-11.505213,-2.274144,2.210294,19.1078,36.591812,44.908172,50.762605,35.736137,52.909544,60.93753,65.268395,46.634282,63.814914,70.364841,72.373212,52.996241,69.177381,74.348978,75.50087,38.7852,302.775809,-84.478655,292.740626
100,-7.074394,1.923958,-0.224762,-0.066752,-18.896942,-38.79055,-55.566444,-74.393749,-67.007904,-56.860943,-33.950615,-16.079636,-65.641479,-51.128082,-26.044464,-2.379341,-58.828182,-46.366539,-22.194328,-1.317558,-49.236431,-51.739883,-49.692478,-45.83765,22.420772,36.885744,49.173953,60.303415,26.981225,44.9811,53.447822,59.542897,22.674196,38.333112,48.220588,54.690858,16.690581,30.500628,40.350251,48.011378,10.606745,21.170079,27.064835,34.189536,27.963524,52.886066,74.512825,93.364105,53.549652,85.944557,103.256836,115.498466,43.643932,79.326096,99.711685,113.841476,33.936596,65.970554,85.057068,98.61042,25.115147,49.563046,64.514179,77.547455,-12.426715,-11.307612,-2.032206,3.030834,19.288729,36.678448,44.797701,50.365921,35.803321,53.265597,61.201204,65.429625,46.518314,64.075747,70.64241,72.689436,52.663777,69.126993,74.290871,75.351805,32.631598,304.968056,-83.782625,292.942164
101,-11.775627,5.423786,0.531006,0.343456,-8.42205,-21.022911,-32.28653,-43.094387,-46.741047,-36.612911,-18.540344,-5.290604,-46.086445,-31.15757,-10.734787,8.278198,-41.504002,-27.483788,-8.005371,9.439545,-34.72744,-30.900707,-24.99321,-18.86364,21.849889,36.325112,46.555365,56.248697,27.021548,42.466993,47.716766,52.363608,21.936463,34.623024,42.893503,48.360082,15.461315,27.100589,36.154187,42.977299,8.449988,16.292229,21.838898,27.477143,27.800446,52.586918,74.271011,93.015747,53.628559,85.774841,102.840385,114.892159,43.966999,79.379082,99.572067,113.69236,34.261551,66.134205,85.05043,98.542442,25.298424,49.555378,64.272366,77.206993,-12.414426,-11.398385,-2.008617,3.189841,19.056362,36.107874,44.129808,49.543405,35.461718,53.040887,60.988041,65.177313,46.174488,63.821583,70.335201,72.189257,52.445798,68.82528,73.923765,74.8775,21.709957,310.592299,-82.397633,293.486077
102,20.590553,-9.898715,0.551662,-0.049524,-17.196465,-39.920883,-63.298874,-86.787987,-69.583168,-64.396019,-39.726448,-21.095238,-73.356571,-62.905598,-37.254295,-13.070641,-71.114731,-64.428921,-38.549881,-15.558357,-66.778965,-83.139839,-89.212475,-89.65313,25.054983,36.935206,49.154995,59.565127,25.704041,44.166118,52.9729,59.183139,23.856284,39.47111,50.536167,56.257466,20.909369,35.387988,44.832343,51.749315,18.811893,29.937835,38.081664,47.768884,27.841587,52.609406,74.344883,93.090763,53.770866,85.903072,102.934742,114.956417,43.954525,79.382572,99.524059,113.453007,34.062824,66.1413,84.883862,98.010807,24.888554,49.541359,64.289417,77.056103,-12.252146,-11.268833,-1.791441,3.274069,18.465473,35.729838,43.873729,49.38378,35.154942,52.561395,60.478354,64.653793,46.18585,63.575939,70.047444,71.810666,52.706447,68.960884,74.018428,74.935113,43.04575,300.908461,-81.100731,293.651429
103,-2.332649,5.185491,0.387154,0.598423,-21.427574,-46.294842,-65.224113,-84.78178,-71.764355,-66.064053,-44.10759,-27.301941,-67.115307,-57.852573,-34.206619,-11.822319,-58.18943,-51.607075,-28.2304,-7.405357,-46.938801,-53.057671,-54.290314,-53.888855,28.92519,43.662914,53.844877,64.706528,31.191615,46.964708,55.041662,61.368918,20.770801,35.855377,46.295395,53.693712,9.475354,22.352414,34.902321,45.002898,-1.756182,4.151418,11.064068,19.717709,27.532253,52.138939,73.741436,92.525654,54.270344,86.36507,103.297634,115.068913,44.583893,79.818707,99.776745,113.480015,34.591198,66.513233,85.259571,98.25285,25.133514,49.59137,64.21526,76.899433,-12.58461,-11.915977,-2.637545,2.24012,17.265971,34.465869,42.795753,48.576641,33.879178,51.091365,59.063158,63.370311,45.137081,62.257012,68.772854,70.603754,51.99113,68.114595,73.259516,74.181758,41.234179,306.287802,-80.192499,294.443702
104,-6.91967,-1.587603,0.504456,0.627261,-14.989586,-33.281364,-48.117542,-61.673813,-61.196251,-53.105564,-34.224815,-18.828621,-59.478207,-47.123222,-24.821663,-2.729874,-52.826099,-41.671829,-20.641479,-1.879349,-43.830357,-41.17836,-30.953522,-20.429306,29.51151,46.750311,57.61579,68.086622,33.627607,51.000962,58.837645,64.040241,22.897547,39.218119,50.564695,57.423808,11.245738,25.868668,37.484414,45.571928,-0.576317,8.63314,16.830198,24.842993,27.379131,51.547565,73.164368,92.183018,54.211292,85.537891,102.502613,114.335346,45.083199,79.485683,99.368534,113.218517,35.234699,66.333961,84.89233,97.804356,25.55975,49.809952,64.238033,76.811085,-12.863105,-12.471854,-3.530209,0.880561,17.625791,34.222758,42.072408,47.457353,34.130255,50.275642,57.537552,61.506621,45.422677,61.669828,67.738411,69.429261,52.565779,68.364499,73.14608,73.986565,34.804602,304.887457,-79.19795,295.258221
105,-10.939293,2.411848,0.260239,0.425337,-7.902603,-19.461365,-29.882698,-38.862476,-45.896416,-35.553474,-18.612671,-5.363617,-44.975681,-30.961189,-10.39959,9.651718,-40.144272,-26.975327,-7.453995,10.392609,-33.436546,-29.804935,-22.625313,-15.23037,26.983139,44.334202,55.539864,65.682555,32.100272,48.387685,53.826414,57.807586,21.960114,36.567915,45.739148,51.36214,10.881472,23.718148,33.956675,41.109225,-0.006175,6.137867,11.491628,17.01088,26.864662,50.936279,72.750721,91.694126,53.463078,84.854221,102.045307,114.18211,44.542923,79.245472,99.39909,113.446484,34.874954,66.284122,84.905491,97.862377,25.316505,49.672909,64.001083,76.414318,-12.963881,-12.93103,-4.014394,0.665546,17.00983,33.517938,41.346779,46.803107,33.518926,49.5418,56.901646,61.049915,44.910766,60.889611,66.864025,68.626629,52.253322,67.800594,72.492822,73.274583,24.271288,307.401285,-78.531733,295.785539
106,13.676147,1.792059,0.851498,0.705375,-5.018234,-18.164978,-38.732071,-58.256264,-54.841461,-49.582729,-25.357475,-9.274292,-64.848518,-54.445438,-28.729134,-7.172241,-68.088799,-63.651466,-39.244995,-18.496628,-68.015213,-83.489113,-85.625496,-83.883991,-8.003409,-11.069379,-4.065647,4.674074,3.67804,21.329395,30.549843,36.509684,19.808729,30.499393,40.54989,46.241549,32.484545,39.623696,46.14176,50.084524,43.643894,50.192587,52.987596,56.051096,26.705074,50.58506,72.40797,91.56189,53.70718,85.088997,102.023048,114.173241,44.937286,79.103165,98.93486,112.849159,35.188007,66.331844,84.774628,97.604256,25.371723,49.555435,63.708115,75.966225,-13.117887,-13.012232,-4.365939,-0.335799,15.778404,32.190984,40.189144,45.833688,32.281201,48.178598,55.809528,60.214494,44.017608,59.922229,65.923628,67.802014,51.812115,67.35136,71.768181,72.374817,38.323946,309.306795,-77.303724,296.604365
107,-24.118423,2.981742,0.841942,0.3831,-0.222244,-5.699501,-17.85078,-31.460896,-42.686405,-23.29628,0.38784,15.070839,-53.239403,-28.516731,-1.638565,19.614372,-56.220245,-37.831764,-12.673302,7.441978,-54.907322,-56.56992,-52.180481,-45.882225,-12.094189,-10.939024,-0.051376,10.446749,1.285397,18.468375,26.364647,33.030357,16.825752,28.894994,36.155051,43.071159,28.318245,38.058261,42.516826,48.047872,37.024436,45.908282,47.974574,52.137725,25.922413,49.293766,71.760635,91.423531,52.234612,83.247643,100.257225,112.710457,43.973866,78.608551,98.764572,112.675896,34.537296,66.315708,84.938965,97.783127,24.987431,49.422455,63.595047,75.950775,-13.438989,-13.374954,-4.783002,-0.9257,14.970893,31.950157,40.22533,45.810161,31.731561,47.695895,55.507322,59.986203,43.83884,59.753095,65.712936,67.65616,51.985696,67.667151,71.962448,72.538888,14.666004,312.33661,-76.001301,297.035537
108,-24.624138,18.813869,0.814247,0.287078,6.461277,9.368591,14.115028,17.80529,-12.261772,15.21595,34.440308,45.402718,-20.895309,7.346649,27.240715,44.611931,-25.361195,-3.571358,15.415192,32.040825,-25.328064,-28.07848,-32.474442,-34.554806,-18.679006,-28.966439,-34.024107,-34.15545,-13.037673,1.460274,12.418255,20.518056,3.597764,17.511738,25.73893,30.638023,15.734375,26.577933,31.787074,34.809942,24.856949,31.492895,35.036443,37.033636,25.437355,48.757095,70.95623,90.125313,51.487885,82.843094,100.087395,112.581367,43.148346,78.184547,98.668327,112.68837,33.795147,65.901089,84.606743,97.285652,24.418945,49.023399,63.336468,75.638924,-13.641531,-13.720324,-5.250205,-0.988871,14.890803,31.551497,39.531317,44.977209,31.839686,47.541951,55.144291,59.449962,43.902505,59.723949,65.337864,66.912561,51.805014,67.419532,71.616955,72.002154,-9.643679,331.253354,-74.872599,297.425491
109,51.306038,-26.566633,-0.346298,0.175495,-15.61718,-36.215172,-59.385452,-82.199135,-65.444241,-60.025578,-33.933334,-14.946785,-69.907379,-60.362892,-33.112907,-8.175774,-68.648357,-63.706455,-37.691803,-13.431816,-64.818935,-80.301361,-83.729954,-81.628475,8.816724,15.298665,26.419852,37.599085,14.696783,32.372839,42.022514,48.625732,22.559155,34.338725,45.814051,52.657602,28.64262,37.689302,47.132854,53.869577,34.489334,42.44359,47.29637,53.582438,24.87957,48.511276,70.892773,89.874115,51.867313,83.50296,100.994225,113.664093,43.256321,78.304253,98.866539,112.972641,33.675671,66.394672,85.055122,97.515221,24.266052,49.415245,64.007492,76.079063,-14.125407,-14.060445,-5.640591,-0.755146,14.481707,30.758436,38.653658,43.964873,31.563538,47.602405,55.304966,59.60792,43.542006,59.869494,65.22449,66.61338,51.204677,67.367168,71.404224,71.631404,41.873217,304.669817,-75.008039,297.584081
