takenoko1/special-research/HandMotion_SimilarSearch_自分用/NewProject/handData/key/d4_feature_d2/14.csv
,vel_0x_L,vel_0y_L,vel_0x_R,vel_0y_R,posFromWrist_1x_L,posFromWrist_2x_L,posFromWrist_3x_L,posFromWrist_4x_L,posFromWrist_5x_L,posFromWrist_6x_L,posFromWrist_7x_L,posFromWrist_8x_L,posFromWrist_9x_L,posFromWrist_10x_L,posFromWrist_11x_L,posFromWrist_12x_L,posFromWrist_13x_L,posFromWrist_14x_L,posFromWrist_15x_L,posFromWrist_16x_L,posFromWrist_17x_L,posFromWrist_18x_L,posFromWrist_19x_L,posFromWrist_20x_L,posFromWrist_1y_L,posFromWrist_2y_L,posFromWrist_3y_L,posFromWrist_4y_L,posFromWrist_5y_L,posFromWrist_6y_L,posFromWrist_7y_L,posFromWrist_8y_L,posFromWrist_9y_L,posFromWrist_10y_L,posFromWrist_11y_L,posFromWrist_12y_L,posFromWrist_13y_L,posFromWrist_14y_L,posFromWrist_15y_L,posFromWrist_16y_L,posFromWrist_17y_L,posFromWrist_18y_L,posFromWrist_19y_L,posFromWrist_20y_L,posFromWrist_1x_R,posFromWrist_2x_R,posFromWrist_3x_R,posFromWrist_4x_R,posFromWrist_5x_R,posFromWrist_6x_R,posFromWrist_7x_R,posFromWrist_8x_R,posFromWrist_9x_R,posFromWrist_10x_R,posFromWrist_11x_R,posFromWrist_12x_R,posFromWrist_13x_R,posFromWrist_14x_R,posFromWrist_15x_R,posFromWrist_16x_R,posFromWrist_17x_R,posFromWrist_18x_R,posFromWrist_19x_R,posFromWrist_20x_R,posFromWrist_1y_R,posFromWrist_2y_R,posFromWrist_3y_R,posFromWrist_4y_R,posFromWrist_5y_R,posFromWrist_6y_R,posFromWrist_7y_R,posFromWrist_8y_R,posFromWrist_9y_R,posFromWrist_10y_R,posFromWrist_11y_R,posFromWrist_12y_R,posFromWrist_13y_R,posFromWrist_14y_R,posFromWrist_15y_R,posFromWrist_16y_R,posFromWrist_17y_R,posFromWrist_18y_R,posFromWrist_19y_R,posFromWrist_20y_R,posFromBody_0x_L,posFromBody_0y_L,posFromBody_0x_R,posFromBody_0y_R
2,41.823006,0.611267,-0.669308,0.381803,13.60857,17.551861,15.356884,11.864605,-9.897995,7.180996,29.34763,42.361279,-24.069386,-5.391712,19.024143,37.193356,-35.087585,-20.746937,2.322178,19.808178,-42.221661,-41.285992,-30.707016,-19.705067,-18.206121,-27.311034,-28.418898,-26.018968,-10.314665,6.344423,14.977995,19.711226,9.253114,25.596225,32.401244,34.938507,25.667856,37.518377,42.222894,45.813866,39.277461,49.637019,51.148793,51.725171,26.451817,51.605587,74.379902,93.376064,52.388821,83.715649,100.455036,112.787647,43.086948,77.455845,97.012997,110.081005,33.32674,65.822182,83.915348,95.893078,24.160709,48.230896,62.775192,74.700966,-13.628625,-13.088247,-4.79072,1.131144,14.288119,31.77775,39.337976,43.708856,31.44084,47.709727,54.85567,57.927073,43.808583,60.431423,65.569428,66.070656,51.732828,68.354248,72.161655,71.372546,-6.230621,310.938534,-78.632469,293.618964
3,-14.024105,6.038943,0.830498,0.548282,9.70808,15.978584,22.027359,24.318466,-5.110359,23.085136,40.597115,48.425217,-17.42363,13.629284,35.036201,49.954262,-24.105034,3.336639,24.184227,39.192467,-27.434807,-13.075905,1.450367,13.880081,-21.341683,-30.040958,-25.114572,-16.139211,-12.177119,2.464335,13.156975,20.476066,6.884862,22.621893,31.736624,34.612464,21.971414,33.088279,37.979714,38.495454,33.372022,43.624258,43.391891,39.165693,26.491127,51.270504,74.151993,93.693409,51.274567,82.958508,100.014324,112.430935,42.376328,77.096386,97.009335,109.969769,33.123665,65.877628,83.946362,95.687771,24.503517,48.894024,63.069992,74.488392,-13.365877,-12.908924,-4.684263,0.814241,13.814555,31.579346,39.323712,44.002417,30.737256,47.221775,54.459541,57.448755,43.186386,59.877584,64.84065,64.963903,51.126192,67.77472,71.419044,70.434805,-20.22769,315.598374,-77.774935,292.788143
4,-9.735146,-7.904423,0.614662,0.29776,20.500603,34.322319,39.840317,39.010849,17.170887,42.868538,60.702209,69.502602,2.961845,30.650253,50.708885,63.626862,-11.274891,12.000504,32.335396,45.954094,-23.315964,-13.349819,-0.051727,11.326046,-19.01499,-25.499647,-24.029432,-21.269991,-11.650759,7.773451,16.191576,19.789402,8.59788,28.779521,35.536004,35.97085,25.337367,42.088834,45.950149,46.365853,38.823102,53.888967,54.916988,53.160806,26.096191,50.527554,72.98069,91.950016,50.972729,82.463551,99.291286,111.667385,42.04422,76.482239,96.320286,109.269848,32.686386,65.08707,83.199291,95.146694,23.864479,47.936497,62.063713,73.59827,-13.687164,-13.644989,-5.366111,0.49036,12.988149,30.862177,38.638777,43.317297,30.266162,46.628045,53.923547,56.978464,42.964516,59.35746,64.26353,64.431183,51.097972,67.638746,71.279056,70.203055,-29.680624,306.744261,-76.878061,292.136213
5,-3.329887,-1.011966,0.289307,-0.335552,21.184044,36.424713,43.683128,44.720535,21.513634,47.17392,64.351044,72.354698,7.630405,34.859047,54.142113,66.046257,-6.867256,15.769157,34.726639,46.836433,-19.165535,-11.232147,-0.637665,8.694305,-19.491765,-24.931791,-22.154442,-19.382034,-9.884821,9.101084,16.606538,19.280146,10.338686,29.437286,35.509389,35.37749,26.7073,42.194983,45.773851,45.834305,39.872241,54.116147,55.446683,54.29337,25.357189,49.423485,71.807728,90.897617,51.112862,82.371426,99.493504,112.159252,42.388115,76.340332,96.262035,109.328556,32.807808,64.695168,82.880459,94.896297,23.506336,47.488747,61.621628,73.236752,-14.11565,-13.83166,-5.261753,0.408417,13.658759,31.185811,38.872934,43.591654,30.450981,46.268966,53.423184,56.614445,42.796679,58.79936,63.679927,64.035671,50.764458,67.228106,70.909357,70.03108,-32.741489,305.02093,-76.319733,291.089296
6,-0.418625,-0.307826,0.578899,-0.173272,20.229721,34.883881,41.917076,43.189201,19.123764,46.140289,63.668861,71.587486,5.853081,35.016518,54.345016,66.660233,-7.727165,16.484814,35.366364,47.809753,-18.860149,-12.706032,-4.709187,3.305111,-19.34202,-23.920072,-20.11427,-17.251027,-9.780524,10.34375,18.347962,21.31723,10.163809,30.281291,36.727046,36.392852,26.196007,42.100381,46.31003,46.645705,39.057815,53.024153,55.699057,55.956741,25.087223,49.092236,71.417484,90.632057,50.751114,81.976776,99.181824,111.939354,42.022648,76.110535,96.229706,109.513435,32.42712,64.443798,82.729912,95.032768,23.073521,46.957855,61.087418,72.852001,-14.082243,-13.946948,-5.302261,0.655913,13.686794,31.289613,38.788768,43.330017,30.476298,46.310339,53.292149,56.314955,42.823602,59.0061,63.811455,63.962497,50.768966,67.530004,71.306103,70.364533,-32.976866,304.335269,-75.557585,290.538189
7,2.826977,0.836224,0.384121,-0.055822,19.096012,31.868992,37.789021,37.903805,17.266903,43.47044,60.472355,68.076038,3.960056,32.754765,51.760197,63.803158,-9.569035,13.842602,32.200413,44.219913,-20.850048,-15.603104,-7.884235,-0.07616,-20.051841,-25.799878,-23.436319,-21.73948,-9.978434,9.979669,16.944251,19.199068,10.490777,30.444126,35.524889,34.5714,26.588801,42.41926,45.539076,45.393531,39.251032,53.457208,55.332136,54.944158,25.132084,48.877659,70.99474,89.948559,50.914135,81.955547,98.873577,111.298428,41.940651,76.029568,95.965061,108.96841,32.043343,64.179955,82.350368,94.323177,22.48621,46.591129,60.799885,72.452374,-14.055876,-13.996904,-5.296395,0.778981,13.540692,31.177783,38.722078,43.412207,30.47531,46.314106,53.33099,56.451053,42.921538,59.053463,63.895498,64.2279,50.993552,67.615096,71.298322,70.356876,-30.012331,304.81913,-75.035906,290.130004
8,-8.166218,0.923292,-0.131035,0.447876,23.919754,39.943428,49.198837,51.142159,29.13517,59.348602,73.3564,77.314224,15.421371,49.748154,64.583015,70.844765,1.250439,30.59,45.775909,53.570023,-11.425495,3.311291,13.779716,21.714077,-20.362198,-26.329882,-25.429622,-24.31299,-11.00028,9.348827,14.119849,14.392848,9.518579,31.521239,33.979646,30.64006,26.322163,44.684451,45.459295,42.630138,39.256528,56.432158,55.254701,51.041779,25.0284,48.868561,70.953941,89.768658,50.669346,82.07365,99.223194,111.813641,41.690369,76.103611,96.143703,109.272594,31.974564,64.481335,82.841091,95.027561,22.559395,46.738586,61.021786,72.847881,-14.306768,-14.338322,-5.682582,0.259352,13.180996,30.607703,37.875171,42.141939,30.232261,45.979851,52.668223,55.3464,42.610872,58.560262,63.164558,63.185862,50.486211,66.942695,70.785918,70.015581,-38.159924,305.421382,-75.148315,290.256839
9,5.822182,-0.104605,-0.286217,-0.001606,20.96117,35.525322,42.784081,44.139633,20.322876,45.779686,63.613586,72.534599,6.840706,34.402657,54.386215,67.47654,-6.775875,15.819969,34.991112,47.836418,-17.965336,-11.330795,-1.916656,7.111473,-20.225112,-26.590901,-24.572959,-22.80665,-11.385726,6.638787,13.630415,15.951922,9.168269,27.969787,33.311383,32.419337,25.76925,40.720012,44.309873,44.170255,38.952654,52.921462,55.009614,54.503445,24.413109,48.594761,70.893574,89.914799,50.82922,82.427502,99.829388,112.477169,41.829071,76.623631,96.917095,110.056286,31.967869,64.919472,83.376789,95.481434,22.476883,46.907043,61.34903,73.123055,-14.968547,-14.936004,-6.307928,-0.201677,13.223418,30.7099,37.992373,42.259265,30.275671,45.986026,52.564359,55.236299,42.644032,58.632201,63.081627,63.098485,50.43996,66.878537,70.663096,69.922029,-32.265472,305.004891,-75.362263,289.943348
10,1.12112,1.301143,0.230312,-0.365809,19.39785,33.57336,40.237026,40.661602,18.058949,44.095402,61.884327,70.632305,4.990768,33.199024,53.241177,66.300373,-8.192425,15.116444,34.251652,47.083111,-19.0975,-11.966972,-2.607937,6.506538,-20.901403,-27.738717,-26.520567,-25.075422,-12.83649,5.157765,12.430481,14.788483,8.324511,27.249345,32.517026,31.351116,25.328907,40.237495,43.525581,42.907212,38.805503,52.679462,54.044825,52.416899,24.552898,48.781986,70.974884,90.075417,50.211983,82.244568,99.723587,112.402039,41.282272,76.47068,96.743431,109.842453,31.689262,65.110817,83.555374,95.755348,22.560425,47.083225,61.64669,73.588829,-14.702403,-14.487202,-5.859311,0.348643,13.560329,31.135052,38.357812,42.521272,30.794869,46.622302,53.06744,55.440076,43.273083,59.46892,63.755818,63.484178,50.982684,67.753293,71.423799,70.297287,-31.120834,306.027153,-75.108433,289.298658
11,0.355282,-1.88524,0.470009,-0.153635,18.097858,31.098518,37.32399,37.444611,15.452957,42.039413,60.408554,69.251404,2.81908,32.226791,52.558365,66.717339,-9.530296,14.801731,34.097214,46.745567,-19.540787,-14.659081,-8.028374,-1.37867,-20.857004,-28.292125,-27.797133,-26.680809,-9.586504,9.511045,15.6922,17.00384,11.664035,31.175128,35.105788,32.958541,27.823315,43.229734,45.487515,44.704026,40.134125,53.696059,55.504296,54.841344,24.47691,48.788567,71.18494,90.292053,50.453281,82.419662,99.678268,112.331543,41.522541,76.417923,96.291847,109.420853,31.753178,64.835243,83.083763,95.464783,22.327309,46.717873,61.192703,73.235722,-14.50406,-14.365307,-5.921803,0.350187,13.640357,31.541987,38.843232,42.914869,30.636355,46.728822,53.247319,55.390984,42.951796,59.539624,64.160284,63.866475,50.623482,67.691975,71.581016,70.409981,-30.732479,303.892889,-74.60535,288.895999
12,-1.015949,2.062649,0.021,0.04409,20.528927,34.897671,42.594166,44.02319,20.900459,46.267834,62.888889,70.928936,7.507267,34.337826,53.562527,66.61005,-5.784416,17.568226,36.602726,49.25806,-17.615261,-7.22723,4.55658,15.0527,-21.304818,-30.978082,-33.595744,-34.509218,-13.156975,3.190026,9.858145,12.836676,7.658904,25.56078,30.462404,30.27388,24.391968,38.651991,41.574144,41.707525,37.570865,51.720725,52.068318,49.272815,24.472046,48.819065,71.374054,90.751476,50.432224,82.305737,99.742985,112.198391,41.39986,76.592503,96.69508,109.381771,31.631298,65.102463,83.338795,95.190983,22.383099,46.959057,61.602917,73.498936,-14.038277,-13.898536,-5.623178,0.210198,13.774973,32.071003,39.405964,43.393188,30.885148,47.228568,53.622452,55.619028,43.344775,60.006333,64.35029,63.916184,51.107914,68.07668,71.901562,70.824512,-31.697989,305.714017,-74.533911,288.698567
13,4.404202,-0.174939,-0.94265,-0.548838,18.626919,30.181961,36.227646,35.306282,14.371548,39.864349,57.137604,65.607147,2.098103,28.726273,48.295898,61.417351,-9.854565,13.390388,33.038406,45.841141,-20.553188,-8.668327,5.378094,16.824188,-21.518598,-31.022604,-33.880969,-35.558234,-12.721882,4.670554,11.05178,12.937699,8.068371,26.633138,31.58725,30.817655,24.922652,40.151168,42.969333,42.777166,38.517128,53.544461,53.135242,49.593238,24.416885,49.627247,72.800503,92.272968,51.792183,83.547535,100.81953,113.519154,42.560749,77.290363,97.197933,110.279903,32.266216,65.039234,83.265553,95.436344,22.252121,46.659222,60.990887,72.718849,-14.436999,-14.000547,-5.372286,-0.000741,13.357664,31.05632,38.351699,42.54801,30.447337,46.543756,53.44597,56.04418,42.736719,59.256251,64.119528,64.230803,50.442059,67.770583,71.688276,70.838035,-27.236996,305.315017,-75.419769,287.925668
14,-3.534393,-0.162218,0.014477,-0.144805,20.116653,33.751602,39.597244,38.191109,19.452209,46.498833,62.194748,69.247055,6.736279,34.749756,52.955017,64.310188,-6.037788,18.736267,37.249718,48.865013,-17.402744,-4.681263,8.778076,19.873409,-21.12815,-30.7212,-34.214421,-36.472325,-13.007292,5.479238,11.698245,12.951099,7.648036,27.034763,31.106153,29.684596,24.616555,40.601143,42.930739,41.864248,38.584127,54.018643,53.52396,49.608984,25.339966,50.205231,73.088608,92.63443,51.362915,83.047371,100.633507,113.280716,42.162666,76.937141,97.156334,110.107613,32.194633,65.010109,83.285751,95.142059,22.743702,46.863441,61.11311,72.386627,-13.613249,-13.196619,-4.865315,0.413296,14.288613,31.994679,39.380893,43.461916,31.274608,47.39412,54.303745,56.73634,43.480318,59.912843,64.570924,64.470765,51.097169,68.09786,71.8161,70.729601,-30.674086,305.091202,-75.307989,287.719268
15,-0.111637,-0.690555,0.190372,-0.363772,20.642967,33.830395,39.097767,37.202168,21.209736,49.488316,63.771114,68.981953,7.829247,37.921658,53.992939,63.299046,-5.770855,20.510387,37.161541,47.085972,-17.916412,-5.578251,5.68325,15.259666,-20.771048,-29.20319,-31.827459,-33.371343,-11.50367,8.501426,13.971833,14.462317,8.94572,30.138709,32.999111,30.73176,25.316249,42.642365,43.919981,42.265008,38.495763,54.271881,53.106651,48.710824,25.256653,49.977207,72.729549,92.059078,51.465626,83.477726,101.020031,113.581867,42.152481,77.046146,97.062664,109.899616,32.074184,64.863853,83.138409,95.109501,22.537823,46.557255,60.884228,72.373924,-13.651349,-13.167349,-4.677408,1.067294,14.076439,31.810107,39.114069,43.190214,31.086207,47.406224,54.370064,56.845021,43.279876,60.168675,65.0188,64.989715,50.748712,68.253904,72.141771,71.033784,-30.727358,304.365033,-75.059252,287.319881
16,-0.880394,0.649676,-0.087376,0.030443,20.993385,35.234127,42.453518,42.591305,23.173542,50.594616,64.475842,69.512386,9.933472,38.592167,54.201565,63.444958,-3.859406,21.347408,37.613468,47.649021,-16.206264,-5.3298,4.809322,13.880939,-21.814445,-30.55503,-34.103765,-37.111565,-13.080343,6.707021,12.299138,13.079293,7.535032,28.772913,31.523091,29.422219,24.168247,41.182647,42.752651,41.471885,37.582597,52.645005,51.869296,48.117465,25.371208,49.860363,72.610874,92.102394,51.487427,83.365059,100.934715,113.627129,42.379818,77.163734,97.275352,110.30777,32.399311,65.026016,83.362885,95.444183,22.866726,46.714211,60.976696,72.448196,-13.582127,-13.228359,-4.73107,0.967938,14.172831,31.718593,38.979207,43.052572,30.998522,47.113897,54.108119,56.716765,43.162612,59.919574,64.934387,65.102286,50.817502,68.355607,72.241375,71.166856,-31.54295,304.999827,-75.081825,287.335442
17,-0.537128,-2.159844,-0.301838,0.095713,21.122246,35.644684,43.327217,44.011574,22.887268,49.197006,63.641739,69.899483,9.252148,35.883179,52.706795,63.360672,-5.344105,18.91634,37.012138,48.72551,-18.193588,-7.734833,4.222126,15.09922,-20.673359,-28.225249,-31.175992,-33.272048,-12.13939,7.963024,14.994173,16.728619,8.427943,30.076341,34.46204,33.252967,25.233256,42.351397,45.399088,44.917744,39.051208,54.457565,54.853755,51.795505,25.032406,49.482193,72.229671,91.717701,51.963215,83.586788,101.169834,114.0061,42.90659,77.323666,97.257328,110.242023,32.801342,64.932632,83.076954,95.212269,22.964172,46.816006,60.94677,72.396355,-13.69056,-13.404903,-5.032473,0.91156,14.735192,31.950589,39.25591,43.39856,31.419906,47.221096,54.228409,56.907698,43.374416,59.867024,64.816011,64.966497,50.807683,68.184002,72.037722,71.069475,-31.996078,302.833515,-75.299664,287.424687
18,0.75325,-0.812635,-0.029354,-0.056131,20.564632,35.538597,43.042717,42.809601,21.509972,47.068405,61.660538,68.010864,8.324203,33.198738,50.107613,61.325455,-6.125164,16.406422,34.29863,45.92514,-18.735466,-10.097809,0.125313,9.767418,-19.631197,-27.04174,-30.14476,-32.501897,-10.910495,9.562484,16.634882,18.593049,9.234589,31.136595,35.643079,34.831864,25.223006,42.75969,45.697528,45.874196,38.463097,53.221507,53.841851,51.785316,25.03727,49.468174,72.136803,91.425705,52.053852,83.368492,100.861015,113.723488,43.078365,77.130203,97.030334,110.131416,33.062439,64.994659,83.045998,95.117226,23.199062,46.985893,61.067791,72.472172,-13.684385,-13.405953,-5.023581,0.933543,14.64553,31.961951,39.201199,43.271786,31.344324,47.257467,54.115591,56.638095,43.421161,59.967801,64.845898,64.933275,51.049127,68.345788,72.146588,71.153765,-31.170359,302.037521,-75.256548,287.385198
19,0.681267,-0.089106,0.156269,0.252683,19.717369,34.428406,41.60305,41.35334,19.088631,44.958229,59.787254,65.745277,6.98576,31.860065,48.355865,59.318504,-6.311016,15.796394,33.008995,43.798714,-17.586422,-12.034836,-5.926838,0.505886,-19.92729,-28.207835,-31.468627,-34.170023,-9.035135,11.57777,17.514578,18.455716,10.878694,32.782244,36.156286,34.609315,26.232501,43.654577,45.727477,45.420454,38.769255,52.634693,53.663763,52.61697,25.205669,49.877644,72.563095,91.983662,51.653309,83.398418,100.948048,113.6796,42.547073,77.165279,97.25584,110.280819,32.56937,65.085125,83.298512,95.233898,22.950268,46.993847,61.27779,72.731495,-13.945219,-13.745703,-5.418537,0.415025,13.830302,31.242374,38.555846,42.702324,30.777826,46.828363,53.834935,56.473469,43.038864,59.734076,64.587658,64.581051,50.790331,68.191227,71.928177,70.724476,-30.426035,301.961614,-75.037222,287.65108
20,12.763195,-0.048906,0.306759,0.138506,17.098331,26.399975,28.941135,25.634365,7.027073,28.719006,44.374752,52.415371,-6.325493,14.494629,33.033199,47.444515,-19.539471,-1.314526,18.019695,32.219868,-30.142879,-27.756901,-19.834385,-10.597229,-18.269415,-26.259116,-28.900922,-30.931893,-8.53119,12.219666,19.018509,20.021213,11.13996,32.301641,36.280961,35.260659,26.576328,42.805633,45.213281,45.674248,39.173967,52.355643,53.31018,52.344589,25.237083,49.594345,72.258453,91.574707,51.614456,82.83268,100.39135,113.291931,42.648582,76.823616,96.837387,109.771957,32.562675,64.776077,82.821693,94.65477,22.610092,46.543465,60.835762,72.28735,-13.719583,-13.748235,-5.687336,0.293623,14.004129,31.508518,38.865215,42.940495,30.859707,46.783965,53.742001,56.356575,43.208184,59.614712,64.386475,64.373508,51.201095,68.434894,72.014812,70.686746,-17.60087,301.916552,-74.668493,287.79343
21,6.997719,1.201354,0.444775,0.157031,15.771503,22.298527,22.665195,18.014088,2.109833,20.217648,36.544933,45.507603,-11.782894,5.341415,24.477825,39.631748,-24.924259,-9.816113,10.321026,25.333042,-35.617046,-32.597408,-20.224514,-7.615414,-18.106085,-26.745524,-29.969327,-31.550879,-9.971086,9.919586,17.528348,19.688872,9.410269,29.925423,35.241578,35.525197,24.933767,40.525746,44.482033,46.251182,37.682016,51.472735,52.825007,51.833728,24.942455,49.56213,72.284889,91.489735,51.506996,82.597446,99.967289,112.772999,42.527847,76.672611,96.61314,109.504108,32.376137,64.659176,82.558765,94.181499,22.372398,46.354065,60.522652,71.774254,-14.000053,-13.917678,-5.694376,0.251942,13.874453,31.262937,38.591908,42.748822,30.684891,46.551289,53.52711,56.21634,42.917339,59.278296,64.020048,64.03456,50.844054,68.012398,71.444671,70.017125,-10.530882,303.13217,-74.151449,287.964725
22,14.819584,-9.198897,0.28038,0.01976,-13.149204,-26.677666,-39.93742,-55.540295,-36.138725,-8.815327,11.455307,24.737091,-40.295162,-8.532944,15.169373,31.764221,-40.187817,-14.585209,8.491745,24.674492,-36.854095,-29.367828,-16.80788,-6.185188,6.003807,17.565707,33.291438,45.569025,20.588143,34.804385,40.607812,44.814003,27.560938,38.128101,44.334141,45.938046,32.891727,42.336453,46.459034,48.488647,37.957361,48.064545,46.88505,45.411068,24.844437,49.363976,71.961536,91.42725,51.126938,82.312946,99.702473,112.553387,42.019787,76.406994,96.366291,109.308872,31.825504,64.427719,82.36639,94.087543,21.923161,45.994091,60.280952,71.732998,-13.647026,-13.780531,-5.653868,0.379395,13.695068,31.232556,38.569863,42.652492,30.732254,46.547522,53.398051,56.081354,43.193672,59.367525,63.94601,63.917913,51.327251,68.40618,71.72298,70.167672,4.338398,293.931606,-73.821373,287.982818
23,-34.844971,8.489076,-0.139446,0.27411,20.116196,33.956795,40.769691,40.696678,21.049347,46.604004,60.475159,65.977592,8.519268,33.151131,49.103737,59.647865,-5.599709,16.230125,33.03875,43.909721,-17.872295,-11.436996,-4.345036,3.052082,-20.522873,-29.256789,-33.033012,-35.768494,-10.795022,10.291077,16.752022,17.886563,9.467944,31.185008,35.509821,34.445183,25.46482,42.099578,44.83012,44.830182,38.730291,52.593937,53.696182,52.570349,24.415283,48.882465,71.485462,90.981445,51.487427,82.719154,99.990234,112.744331,42.437325,76.618309,96.287956,109.034386,32.206421,64.439964,82.258301,94.031868,22.198906,46.168556,60.346699,71.824608,-14.255885,-14.432553,-6.207707,-0.213718,13.165805,30.733489,38.056717,42.244815,30.083627,45.920076,52.755909,55.38061,42.41432,58.75916,63.537345,63.61336,50.339553,67.599288,71.105476,69.751042,-30.458822,302.426008,-73.913069,288.262254
24,8.69339,1.105888,0.059853,-0.02365,17.305813,27.784996,31.207581,29.101639,10.705261,31.882896,47.947426,56.469498,-1.811714,18.972073,37.955933,52.305908,-14.765224,3.360157,22.150211,35.990524,-25.365429,-22.644253,-15.124512,-5.998249,-20.216529,-29.687869,-33.259698,-36.048532,-10.487134,9.570017,17.166182,19.178072,9.367723,29.240796,34.788453,35.428249,24.7755,39.417881,43.341379,45.210873,37.596306,50.008015,51.871334,52.015954,24.723186,48.938541,71.474075,90.797997,51.360226,82.246513,99.51725,112.429161,42.323284,76.333351,96.159439,109.121933,31.890678,64.00732,82.122574,94.153633,21.498184,45.71537,60.064259,71.71669,-14.316895,-14.577852,-6.32528,-0.515925,12.892622,30.507729,37.947172,42.276061,29.754374,45.679373,52.883053,55.87554,42.233886,58.634486,63.739208,64.209746,50.51159,67.758542,71.460047,70.363359,-21.751299,303.557569,-73.839083,288.264277
25,-17.177467,-0.628866,-0.086403,0.43392,23.140411,41.124001,52.489128,56.131439,30.535583,57.971764,70.545959,73.914871,18.535194,47.334824,60.199127,68.11203,4.889374,30.005035,43.302155,51.258659,-7.355003,0.540962,2.421284,4.967594,-23.38556,-34.11877,-40.537231,-45.820041,-11.746904,9.235392,13.339942,13.264544,9.746994,32.275705,33.723011,30.988703,25.683911,43.117781,44.030637,42.91524,37.785695,51.320459,51.891773,50.39093,25.075607,48.849449,71.383495,91.040039,50.940857,82.198219,99.500999,112.340469,42.219143,76.422729,96.370239,109.50016,32.456589,64.684238,82.839317,94.855843,22.952671,47.412643,61.600227,73.122826,-14.260702,-14.715555,-6.875476,-1.644537,13.201868,30.180205,37.594577,42.25062,30.002796,45.295039,52.267586,55.460947,42.424262,58.15765,63.147268,63.838379,50.599399,67.090526,70.582697,69.557825,-38.896008,303.001507,-73.892727,288.771001
26,-2.946911,0.122451,0.233402,-0.01976,23.849945,42.851257,55.04076,58.90955,33.187466,62.211971,74.020443,76.517315,21.316166,52.781239,64.092007,69.871731,7.90678,35.435028,46.984806,53.087711,-4.23317,5.387363,5.918198,6.628017,-23.873265,-34.415295,-41.133555,-46.732341,-12.377067,9.560631,12.901143,11.996067,9.519752,33.665398,34.182126,30.593995,25.586901,44.478637,44.388604,42.354731,37.599826,51.607166,51.554678,49.575083,25.346031,49.235687,71.696033,91.186695,50.661449,82.03474,99.302387,112.025242,41.696606,76.125355,96.146107,109.206333,31.896172,64.405804,82.686367,94.699688,22.528954,46.983891,61.347313,73.046894,-14.42045,-14.627623,-6.692139,-1.429399,13.096521,30.093322,37.367459,41.937916,30.124691,45.422183,52.254248,55.355786,42.696026,58.459856,63.262309,63.861967,50.898333,67.324683,70.803084,69.723625,-41.823206,303.143347,-73.639612,288.77063
27,1.063042,-2.000528,0.086517,-0.106952,23.142757,40.682259,50.919514,52.973156,32.202072,61.917858,73.377171,74.979,20.406418,51.981754,62.39336,66.572285,6.663837,34.203701,45.413303,50.265598,-5.657215,4.979324,5.952587,6.397476,-22.365382,-31.602811,-37.731416,-42.385174,-9.061873,13.909527,16.511998,14.714382,12.213984,37.483859,37.15584,32.598845,27.815905,47.583509,46.711593,44.050089,39.305681,54.426443,54.156532,51.928762,25.365829,48.930988,71.042061,90.322666,51.205101,82.47591,99.715748,112.516766,42.023563,76.065617,96.00729,109.233913,31.701794,63.763847,82.226086,94.533176,21.671734,46.091652,60.753365,72.833691,-14.670601,-14.990715,-7.031087,-1.507142,12.760229,30.078564,37.425751,41.967371,29.597096,45.322765,52.290558,55.478176,42.013931,58.246261,63.419217,64.272175,50.157019,66.95097,70.831242,70.097647,-40.742712,301.149349,-73.535643,288.670208
28,2.288933,0.727852,0.454502,0.122822,21.968822,38.489285,46.819096,46.717014,29.765453,60.219555,71.330853,72.437725,17.974377,50.154705,60.286388,63.536167,4.192886,32.606964,44.058208,48.094769,-7.593842,3.591614,4.877987,4.951286,-22.179575,-30.782148,-35.675807,-38.815815,-8.501673,14.18339,17.448135,15.954824,12.452465,37.505409,37.446932,32.968298,27.760762,47.873304,46.587166,43.68113,39.203546,54.86203,53.877975,50.882154,25.18301,48.663139,70.955544,90.134239,51.801453,82.565002,99.54174,112.112732,42.632275,76.158257,95.725021,108.642769,32.10434,63.613987,81.576233,93.599625,21.755733,45.93853,60.322094,72.273788,-14.4462,-14.847763,-6.946736,-1.358941,13.545076,30.602393,38.045355,42.822429,30.247575,45.473374,52.556517,55.977057,42.475885,58.166789,63.274721,64.194185,50.566239,66.909659,70.651734,69.977975,-38.435612,301.884056,-73.062973,288.799884
29,1.661224,0.018093,-0.795822,-0.387299,21.243153,37.301044,45.692768,46.187954,25.931282,54.242764,67.51379,71.454449,14.34803,42.919292,56.972752,65.871792,1.045475,26.28788,41.046467,49.490833,-10.37075,-4.055614,-3.162575,-1.890106,-22.456649,-31.145796,-35.22225,-38.471556,-9.348086,11.492369,16.685764,17.156364,11.404992,34.038433,36.420455,33.968346,26.685935,44.094796,45.330977,44.447638,38.830326,52.002862,53.519885,53.104922,25.216427,48.98386,71.287708,90.322609,52.212582,82.631264,99.572525,112.51545,43.381062,76.437721,95.946465,109.465485,32.947025,64.027405,82.279816,94.979668,22.454166,46.519375,61.047306,73.299007,-14.603911,-14.866165,-6.853616,-1.263043,13.046565,29.884544,37.259396,41.753344,29.806121,45.051742,52.223003,55.639776,42.219683,58.062677,63.484672,64.628413,50.597732,67.168517,71.016988,70.367558,-36.759596,301.905962,-73.844004,288.416399
30,1.477489,0.345617,0.137043,-0.343826,21.228333,37.062778,45.804863,47.010384,25.082359,52.804184,65.669518,69.424095,13.65675,40.994568,54.953156,63.967094,0.380402,24.869556,39.868813,48.926697,-11.053848,-4.443111,-2.977867,-1.05835,-22.329381,-31.054591,-35.303266,-38.667305,-9.824058,10.648612,16.18361,16.976979,10.678005,32.781873,35.510068,33.665151,26.134565,43.06165,45.073231,44.716623,38.680829,51.817302,53.55286,53.014519,25.532455,49.090118,71.287937,90.437794,51.748352,82.067699,99.131641,112.123661,42.913857,75.92474,95.597935,109.088345,32.726727,63.769913,81.820965,94.23254,22.589607,46.634846,60.868549,72.749348,-14.057852,-14.220749,-6.233395,-0.641772,14.095705,31.155923,38.57715,43.240417,30.692116,45.796514,52.861996,56.34015,42.986561,58.621951,63.829178,64.803105,51.236478,67.515801,71.283749,70.573496,-35.268059,302.266291,-73.692913,288.087285
31,2.086372,0.467821,-0.151005,0.013029,20.775375,35.803528,44.756699,46.299591,23.483505,49.827003,63.115425,67.43248,12.030659,38.295021,52.626572,61.79615,-1.332893,22.012596,37.034569,45.929489,-12.972622,-7.959709,-6.222038,-4.13681,-22.310609,-31.789915,-36.549328,-40.119243,-11.428272,9.710808,15.42834,16.219548,9.306713,32.163134,34.889662,32.667759,25.113522,42.990143,44.500928,43.704225,37.902403,51.598274,52.922017,52.103083,25.019531,48.864727,71.284847,90.556183,52.211437,82.660904,99.651604,112.584114,43.28722,76.449165,95.985947,109.406776,32.908516,64.30933,82.296753,94.686699,22.532845,46.833515,61.19236,73.288593,-14.644048,-14.830658,-6.559129,-0.578972,13.165126,30.273139,37.627428,42.143483,29.88016,45.21149,52.328225,55.586239,42.212149,58.279421,63.569332,64.432479,50.505415,67.24342,71.152221,70.555341,-33.16967,302.733108,-73.831902,288.09931
32,-2.326126,-0.590581,-0.29789,0.0494,21.405087,36.73748,45.481224,46.36116,26.65123,54.855309,67.066727,69.630432,15.228367,44.407883,56.473732,62.598381,1.705055,27.700939,40.769463,47.290306,-10.132542,-1.93388,-0.616608,0.346184,-22.772873,-32.27515,-37.584265,-41.574762,-10.731048,11.348614,15.543875,15.208447,10.4591,34.617898,35.554714,31.926383,26.346369,45.447006,45.414526,43.407576,38.904489,53.676299,53.645053,51.414072,25.313587,48.997765,71.354084,90.642815,51.893406,82.600937,99.87339,112.897911,43.065262,76.391945,96.268501,109.680748,32.948742,64.142075,82.190666,94.487572,23.017559,46.72657,60.862713,72.549076,-14.201421,-14.665846,-6.900794,-1.226672,14.07224,30.91485,38.357442,42.972853,30.683224,45.775086,52.885832,56.362627,42.866148,58.585703,63.725931,64.598958,50.88518,67.279112,70.891819,69.901775,-35.488157,302.218959,-74.122152,288.225142
33,-1.962547,0.578663,0.142994,-0.222548,23.174629,39.435081,49.318771,51.795387,27.867165,56.460686,70.855064,76.127129,15.379429,44.730606,60.355568,69.808617,1.689949,28.307419,44.28875,54.208145,-10.723801,2.028408,10.960579,19.049664,-23.145228,-32.579703,-37.44156,-40.814491,-13.907551,5.588289,11.158793,12.809197,7.313966,28.9841,32.228713,30.475125,24.428401,41.369503,44.028785,43.440859,38.400729,53.884459,53.886435,50.417174,25.697365,49.630737,71.926689,91.012859,51.053181,82.550297,100.059872,113.236942,42.176342,76.454372,96.517467,110.140972,32.443027,64.829693,83.23328,95.547009,23.047657,47.719631,62.196693,73.939247,-13.96041,-14.451696,-6.981193,-1.232538,13.082628,29.652177,36.855178,41.16091,29.870342,45.226743,52.229486,55.282242,42.338305,58.337034,63.328567,63.699008,50.484482,66.878166,70.523911,69.481564,-37.46315,302.859928,-73.991604,288.0649
34,-2.255516,-6.048885,0.144196,-0.878647,23.285923,41.48243,54.704361,59.810829,30.535927,58.297005,73.707848,79.767151,17.798538,46.500664,63.236732,73.302841,2.715225,27.807198,44.692383,55.20916,-10.736961,-1.790485,3.914623,9.343872,-21.466728,-27.554207,-28.318121,-30.102461,-7.774377,11.632728,18.302143,21.36836,13.411942,33.427289,37.503125,37.268535,29.348736,45.440399,48.454313,49.155798,41.955576,56.388438,58.167406,57.385831,24.942513,48.158855,69.992809,89.048138,51.376019,82.522717,100.055866,113.219776,43.041058,76.701679,96.54974,110.433025,33.440781,64.758797,82.763729,95.086269,23.863907,48.486328,62.623215,73.973465,-15.082476,-15.503861,-7.218191,-1.148928,13.702725,28.903948,36.217605,40.786888,30.300989,45.094535,52.224361,55.666576,42.281557,57.479692,62.602012,63.408596,50.197095,65.6284,69.032576,67.949659,-39.733858,296.885097,-73.8626,287.260308
35,39.378548,-8.750713,1.490078,-7.178856,11.858826,13.057022,8.025627,0.117416,-16.049309,1.160717,20.059319,30.488434,-29.902611,-8.297482,12.98172,29.321709,-40.82262,-21.944847,0.108147,15.111351,-48.257389,-46.25679,-37.224541,-28.607655,-12.082394,-12.943936,-5.106018,3.201141,2.102293,27.03149,36.851843,39.95159,18.631273,41.737721,50.036853,53.044221,30.788817,48.991727,54.616572,58.779106,40.579777,55.857632,60.109148,63.380129,25.649014,49.438705,71.613636,90.508232,50.912819,81.002312,97.37709,109.478073,41.550121,73.947372,92.94651,106.653671,31.286144,61.072426,79.050064,92.166481,21.293278,44.697189,58.480396,70.338821,-14.797004,-14.533947,-7.039238,-3.271907,11.360717,30.415659,41.05754,48.775045,27.734148,47.42586,57.891876,63.48918,39.84538,59.066122,67.572797,71.247749,48.04639,65.800683,71.787262,72.971203,-0.382433,288.217207,-72.399645,280.164274
36,19.481392,7.625064,3.421097,-17.267823,-17.525368,-36.455669,-50.864639,-61.964092,-59.226551,-69.138451,-55.973282,-41.883488,-54.096737,-50.509987,-29.889736,-13.108978,-44.829369,-37.663765,-18.315468,-2.021027,-33.636532,-31.954708,-18.790569,-6.086082,29.271486,42.551097,48.230592,48.909414,22.390761,32.759273,41.615455,45.6916,9.023896,21.665194,31.100533,32.713948,-3.780051,8.450976,18.269909,21.458083,-15.084576,-5.758102,1.810584,5.744147,28.976955,54.895821,73.896904,88.558273,51.727009,75.370903,87.58358,96.088257,40.984783,67.158566,80.382843,90.000229,28.655663,48.225689,56.864204,61.610699,15.687332,28.15361,32.903023,33.747883,-12.636975,-8.199158,2.663604,8.266528,13.487834,33.863926,46.028634,55.285082,28.117062,52.531137,66.176558,75.192365,39.843095,66.432266,79.171068,86.300276,48.116539,71.129126,78.049989,77.966317,19.09112,295.977706,-68.986387,263.031885
37,-12.187271,0.715193,-7.402439,-40.148327,-17.990227,-32.7705,-44.104843,-47.369499,-21.376534,-34.326324,-40.271015,-45.144711,-11.059685,-21.731987,-30.359173,-37.672749,-1.876945,-7.202854,-15.835648,-24.71386,5.54306,4.931946,0.372849,-5.287628,-5.587918,-7.198431,-5.713766,-2.478476,-6.947107,1.462682,9.846165,17.023848,2.602842,14.694869,27.020992,36.179628,12.719535,25.503661,36.68592,44.095352,20.966179,30.962583,38.337805,43.237268,30.986824,53.179665,66.510429,76.231956,89.460926,105.601444,96.381168,83.469715,79.541531,96.718998,83.871517,66.525879,64.247761,76.893539,65.244999,50.339813,43.775253,54.737206,49.089718,40.438614,0.189574,7.380347,13.581324,19.806753,37.004737,73.979402,92.01892,101.515207,40.844934,82.264022,99.896111,109.35294,44.024462,80.349451,95.919076,103.053966,45.415761,72.561859,83.633955,89.861608,7.13685,296.746746,-76.155825,222.937404
38,90.601959,-78.461123,-33.344479,-55.010849,-40.438728,-68.266754,-85.001907,-93.346252,-78.179512,-109.675255,-120.185623,-125.811081,-67.363472,-98.851719,-111.169796,-118.12397,-54.566689,-84.670258,-96.925964,-103.135071,-41.798058,-65.625,-77.292252,-84.797401,-6.308237,8.001927,27.506783,43.703669,15.506578,45.495048,62.663392,72.415943,31.784419,66.832594,83.266046,91.027888,45.854497,77.122127,90.424092,96.042762,56.790495,81.436814,90.879069,95.264151,36.599464,69.13084,90.423145,94.515209,71.153412,106.233101,95.854168,84.510384,58.158417,93.639565,87.667866,78.306026,45.133896,81.044827,78.660793,71.08778,34.005432,67.285767,70.333214,66.715279,-17.431586,-20.615684,-10.427792,7.003052,-14.070943,17.381135,19.95199,14.64411,2.712016,35.895638,37.287184,32.52703,20.766293,48.950169,50.697459,47.006204,38.261482,56.445372,56.420796,53.252444,97.773657,218.751853,-109.465456,168.392787
39,9.785271,-33.329661,-11.362953,-42.968654,-32.068062,-61.166153,-79.369469,-91.43177,-69.371681,-98.48877,-106.652412,-109.219151,-58.519135,-88.590088,-97.164001,-100.211449,-46.239395,-74.080811,-82.781639,-86.091156,-34.757996,-56.913872,-65.26371,-70.248756,-12.658587,-2.833973,15.046723,31.128012,0.138938,25.809202,43.368364,54.046863,15.364367,50.261192,66.588248,73.199865,29.911591,61.737197,74.223254,77.934701,42.209494,66.552618,75.959676,78.572397,28.839798,52.069187,69.22308,75.875931,62.295113,76.824703,70.29356,63.0336,54.321213,67.571526,60.792732,53.255653,42.541466,56.311855,50.596733,43.305302,28.885059,39.109898,39.906292,38.692245,14.977624,20.381403,22.080342,25.548554,-13.736379,-23.458179,-17.496578,-11.74357,-30.896016,-41.238006,-35.258034,-28.572132,-43.581403,-54.564331,-51.284088,-46.652282,-51.819865,-69.270779,-76.588048,-80.122117,107.200613,186.186925,-121.186724,126.188866
40,10.390091,-45.907171,-31.07357,-61.01799,-28.648338,-57.569618,-77.894783,-83.18058,-67.815285,-91.73687,-94.334679,-89.316216,-60.007553,-82.341843,-85.84671,-82.050819,-50.270348,-69.798546,-72.916832,-70.327034,-38.35041,-53.163986,-56.507835,-55.748634,-23.917787,-26.837285,-18.490049,-6.912526,-9.478318,10.510229,20.646559,24.74339,6.66466,32.948476,44.102453,47.854902,20.322555,43.904481,52.162673,52.879842,30.679828,49.847403,56.767462,57.773624,-0.630512,8.829517,17.695599,23.307323,21.56971,30.783577,31.412086,28.97747,30.434818,40.291958,38.738422,35.271835,36.310616,49.306355,45.923996,41.195869,40.130253,53.823452,51.341972,45.823803,-35.358224,-61.189409,-78.608367,-89.662277,-54.250207,-77.803018,-80.978965,-77.422944,-40.043413,-61.786351,-63.788268,-58.32416,-24.775871,-41.784559,-43.530428,-39.079551,-10.094494,-19.242972,-21.658031,-19.845409,117.349949,140.980945,-152.501049,65.872067
41,7.905693,-56.274077,-19.018192,-41.871411,-19.044571,-41.003036,-59.985237,-67.567749,-50.371399,-69.434166,-68.930969,-65.087013,-46.037178,-64.778366,-64.964561,-61.691093,-39.389877,-56.585884,-57.174568,-53.845596,-31.309204,-47.182159,-52.28405,-53.419418,-28.27008,-46.566665,-59.547528,-72.252552,-42.166269,-36.785431,-27.697808,-20.837491,-29.127206,-12.921582,-2.177196,3.854831,-14.971912,4.469155,16.79145,23.029353,-0.523983,15.987367,27.036615,33.779513,21.405144,32.419167,31.182518,22.318726,6.301346,-4.64716,-9.539509,-13.087292,-8.620033,-1.760159,10.283318,14.274502,-18.636818,-10.91383,-0.016766,2.81765,-26.228371,-20.969296,-10.800705,-7.314949,-22.968498,-50.674549,-68.369099,-78.433027,-80.690529,-118.287854,-137.146584,-149.443932,-72.745258,-83.118525,-66.784707,-55.747377,-59.978824,-64.576574,-50.43999,-40.872412,-45.898896,-53.393667,-45.103273,-37.278137,124.792757,87.229867,-171.982126,26.523654
42,9.622993,-37.264675,-28.51181,-46.802366,-31.744537,-46.14315,-50.494537,-50.783386,-34.315224,-42.968903,-52.978821,-58.972893,-22.608833,-43.207283,-53.359451,-56.043205,-12.977028,-33.999252,-42.315788,-44.286575,-5.203629,-22.385101,-29.996109,-32.680321,-13.076916,-33.217739,-49.433984,-60.012694,-64.466535,-83.208865,-88.654264,-87.692902,-64.483454,-58.37887,-41.71793,-26.044934,-57.501953,-45.5078,-28.717924,-14.028088,-46.74429,-36.897477,-23.569113,-11.937219,18.148842,21.627789,14.449139,3.71172,-3.074799,-13.800659,-19.918213,-26.84206,-18.004589,-15.287418,-0.570946,9.509697,-28.658237,-22.320957,-7.104492,2.801571,-36.455784,-32.992287,-19.614658,-9.515305,-29.679101,-58.648843,-78.679998,-92.186696,-81.101355,-113.221727,-134.474443,-152.621516,-71.900451,-88.161526,-78.32447,-67.674191,-59.963046,-71.711834,-62.873189,-53.16658,-45.631949,-57.492258,-52.603293,-45.146375,132.1243,52.074987,-202.785387,-18.168916
43,-2.820625,-39.330813,-26.722298,-38.217114,-26.879082,-40.250473,-40.639229,-35.999565,-26.69529,-24.864464,-25.533829,-26.379089,-12.727089,-22.783127,-33.22094,-37.777634,-1.242027,-12.23568,-23.016472,-28.165512,9.707222,-0.856934,-10.615654,-15.950317,-14.449782,-37.247293,-54.363735,-68.976723,-71.636838,-102.375607,-121.330637,-138.015505,-68.427731,-82.855437,-67.243389,-52.26382,-61.57643,-71.806837,-55.386816,-39.658029,-52.042414,-61.635988,-49.831502,-37.756826,16.117401,14.216251,3.462067,-8.405342,-10.728264,-22.001038,-29.692726,-37.463264,-23.311043,-22.948723,-7.661018,5.068188,-33.329544,-28.714714,-12.595711,-0.692883,-41.271286,-36.671848,-21.496124,-9.333744,-35.144413,-63.55479,-82.323179,-95.052888,-87.709807,-117.52255,-134.70945,-148.712097,-78.256513,-99.820853,-90.695238,-78.277231,-66.773468,-82.565889,-72.755941,-60.637484,-53.017761,-68.287218,-65.386647,-57.300245,127.751141,15.744117,-231.060219,-53.386087
44,1.077576,-42.910361,-9.631863,-12.055687,-22.121201,-33.514709,-31.955452,-28.399773,-17.768555,-13.984909,-13.093872,-13.371162,-4.367867,-15.805435,-27.272186,-31.910362,7.25853,-7.493019,-18.495941,-21.820221,19.434929,5.34771,-5.015488,-8.595314,-17.161088,-41.635154,-60.323854,-76.102257,-70.073102,-102.338124,-121.498613,-138.239042,-67.455224,-86.286259,-71.617202,-56.061779,-62.436058,-77.198296,-60.632513,-44.157627,-55.629619,-68.517887,-56.828534,-44.082755,8.19849,2.775707,-8.147049,-21.991825,-17.800312,-34.296284,-44.138546,-54.117393,-27.989216,-37.428646,-20.741673,-8.363342,-38.352642,-44.185181,-26.790848,-14.503727,-48.270721,-54.694691,-40.707092,-27.107105,-46.04651,-75.549236,-96.874432,-112.889124,-86.755732,-112.669277,-131.406729,-145.241199,-78.017678,-105.919324,-100.571784,-88.742181,-67.795777,-90.69158,-84.727601,-72.007588,-54.774314,-75.878366,-76.415625,-66.48636,129.111814,-25.927531,-240.408983,-64.203061
45,9.116135,-36.782961,2.753277,-15.311725,-22.810822,-34.056816,-32.733994,-26.541595,-16.078491,-12.763824,-12.309036,-10.623665,-4.398193,-11.834564,-24.417229,-28.40229,5.977478,-3.355179,-15.918503,-18.479118,17.485085,7.606544,-2.91584,-5.720215,-18.877595,-43.702619,-62.728384,-77.322044,-70.168568,-100.215701,-117.967678,-133.561371,-66.690352,-90.791554,-77.494359,-62.72928,-61.246529,-81.829624,-66.844142,-51.274516,-53.165098,-70.221581,-60.542975,-48.492938,4.45776,-4.102764,-17.260609,-32.270737,-30.980988,-52.219677,-65.464439,-78.385277,-38.567219,-48.281078,-27.992249,-12.097321,-44.489937,-50.413456,-30.219612,-15.836735,-49.251251,-55.785942,-40.989819,-26.615238,-47.191116,-74.951276,-95.098984,-111.317221,-82.4883,-105.035043,-122.301616,-136.867704,-72.511826,-97.857669,-94.712365,-84.926901,-61.36563,-82.008206,-77.681663,-67.618384,-47.180495,-65.919784,-66.581394,-59.142599,138.054743,-60.734757,-237.828913,-77.539051
46,18.337784,-12.199751,12.797127,-10.820154,-27.728691,-39.563026,-40.484848,-34.831123,-24.844551,-24.303932,-27.406769,-26.54686,-14.094887,-18.909874,-30.063972,-32.258034,-3.077774,-8.43338,-21.267815,-24.738808,9.36676,3.38047,-8.050461,-14.660683,-26.148521,-51.213877,-70.812547,-87.007488,-74.336134,-99.114166,-108.495875,-114.352439,-74.443379,-100.181908,-89.519541,-75.114621,-72.239862,-95.888973,-83.677211,-66.872146,-67.799405,-87.591369,-81.229224,-66.714898,9.05571,1.753178,-10.201492,-22.3633,-28.514671,-41.888752,-50.121346,-58.577614,-37.101288,-35.033627,-13.96471,2.890892,-43.24276,-37.246857,-15.916271,-0.637093,-47.349873,-43.375797,-25.876751,-11.021976,-39.899504,-65.185171,-82.593986,-97.604245,-80.923097,-108.615486,-126.154455,-140.642707,-71.423876,-94.952188,-91.530088,-80.56408,-59.722112,-78.685771,-71.910331,-61.04621,-46.475444,-63.400753,-61.493098,-55.5457,156.463423,-71.119215,-224.96089,-86.543913
47,11.273575,-38.67382,30.313797,5.404952,-21.499214,-32.744751,-31.797523,-23.989334,-15.99678,-12.259026,-11.451874,-9.579277,-4.34166,-8.334045,-20.347824,-25.733414,6.327896,1.96701,-10.233192,-15.866776,18.59539,14.14032,3.065186,-3.957939,-17.015141,-39.927971,-58.021382,-70.859601,-64.526942,-94.732928,-112.580804,-127.073425,-62.661354,-90.110941,-79.197759,-64.874705,-58.596139,-83.832375,-72.126349,-57.22721,-52.027686,-74.016082,-68.703493,-56.92082,20.12661,22.456799,12.708092,0.774765,5.68697,-9.265251,-17.407036,-25.761337,-7.548065,-8.174973,1.472168,5.15316,-19.020023,-15.071983,-4.555092,-0.794048,-28.861198,-24.951897,-14.881783,-10.448627,-26.890359,-54.377752,-74.317701,-84.634235,-79.135577,-109.331173,-127.352784,-142.419792,-73.475055,-95.694366,-82.593739,-71.464493,-65.873132,-82.861751,-69.053664,-58.59705,-56.013058,-71.860174,-63.112642,-53.303125,166.285858,-108.313403,-196.098232,-79.659328
48,18.19931,-8.869737,26.435966,17.178224,-22.227859,-33.619881,-31.420898,-20.825958,-18.377838,-13.403893,-15.630112,-16.755524,-6.528168,-4.689217,-11.711311,-15.262299,5.810394,7.63092,-2.139702,-8.003197,19.992027,19.064026,8.200607,-1.680107,-24.165375,-47.227425,-67.286892,-78.632342,-67.457879,-94.609041,-98.035062,-94.140788,-66.340968,-93.581159,-86.87332,-73.363889,-61.728722,-87.839807,-80.201929,-65.300196,-54.723863,-78.525869,-79.152604,-68.512345,27.410202,39.673004,41.484089,39.805584,23.050404,28.081684,38.030434,42.716045,10.694561,21.208706,31.818237,35.200939,-1.335411,11.680698,22.618275,26.094131,-13.134727,-1.009541,11.605568,18.257389,-20.419441,-44.537299,-63.750415,-79.266611,-74.40795,-99.653016,-89.65178,-78.322,-71.766205,-91.29766,-77.655419,-64.638448,-67.008398,-81.597658,-69.364408,-55.663211,-60.21366,-73.476445,-66.649196,-55.677753,184.299889,-116.016751,-169.847546,-61.314717
49,5.59742,-5.906797,0.347385,5.083448,-17.606621,-23.197746,-17.22805,-6.778221,-0.449295,12.604637,20.415459,28.229256,10.526733,14.092026,1.489449,-6.105194,21.279259,23.263664,7.856712,0.009384,33.362961,31.260109,18.115768,9.937248,-24.575522,-51.079524,-71.311892,-84.491174,-72.383416,-100.458596,-122.66531,-141.149593,-66.456349,-93.220599,-86.982603,-73.063967,-58.676909,-84.326687,-74.309844,-58.957441,-48.630842,-71.277574,-68.495487,-57.905214,31.113911,50.182056,57.701225,61.614876,46.153679,63.468761,72.688122,78.825588,32.10125,50.195045,53.757706,51.791325,17.445202,36.073036,38.283463,35.190582,1.846848,17.572117,25.60936,27.298336,-14.731024,-32.274223,-52.000547,-69.696918,-63.943478,-87.793185,-101.272204,-112.673044,-67.957378,-80.878374,-61.648616,-43.537375,-67.227519,-74.059986,-53.291223,-37.177113,-63.191636,-69.534978,-55.558081,-42.501604,190.359707,-122.216786,-169.037762,-56.524505
50,-4.484024,5.600299,-7.776604,-0.095435,-17.011757,-23.673935,-18.196793,-6.218719,-2.002831,9.225883,16.675072,23.89801,9.115219,10.609703,-2.130318,-9.894562,19.627762,20.259933,5.885925,-2.380028,31.062469,30.720177,18.831367,10.595741,-20.471095,-45.630158,-64.555147,-75.648685,-64.252631,-92.959919,-113.31622,-129.823757,-59.475187,-86.808251,-78.24881,-64.636889,-52.064721,-75.90055,-65.296507,-50.927958,-41.84776,-64.113554,-59.514322,-47.352979,27.609615,45.636921,52.921028,51.599178,43.022919,56.933041,63.31707,66.218262,29.23399,44.274502,44.563866,41.104946,14.882984,29.279251,31.48098,28.611431,-0.730591,13.745842,19.459991,18.884754,-14.024846,-31.99931,-49.971583,-64.930033,-61.775452,-87.139341,-98.224883,-106.970532,-65.300474,-83.412348,-66.561448,-54.68212,-64.448874,-77.519044,-61.495599,-50.427393,-60.36816,-71.816655,-60.123875,-50.262087,186.149082,-116.704543,-176.540966,-56.707997
51,-14.386253,8.368138,-16.384048,-1.310652,-16.895027,-25.294189,-25.982323,-18.476372,-10.411491,-4.369698,-3.159714,-0.460625,2.338715,-5.105209,-15.426064,-19.221954,12.976913,7.114792,-6.042137,-11.689453,22.795715,18.097,5.923805,-0.840912,-19.136329,-38.639132,-53.152732,-62.253369,-66.760516,-96.260587,-114.095665,-127.879561,-62.001304,-79.15421,-61.877649,-48.319018,-54.209328,-69.909062,-53.509495,-39.419966,-44.242333,-56.987865,-47.864736,-37.421769,19.08886,30.978298,30.570774,26.124115,37.234497,40.214767,36.196804,32.431641,26.379089,30.261555,25.754013,22.766132,13.070412,17.57103,16.667404,15.500507,-1.671352,2.511463,4.320145,5.415745,-21.619128,-47.080243,-67.233509,-80.408716,-66.952575,-93.356403,-94.406747,-89.044341,-66.686863,-95.226839,-97.565744,-95.102767,-63.857274,-90.375371,-89.986405,-83.108367,-59.810461,-79.326308,-81.154043,-77.347655,171.172285,-109.409256,-193.515558,-59.091501
52,-19.890862,25.902954,-31.998768,-13.94065,-21.774788,-34.737167,-36.895351,-31.095714,-21.656627,-20.67564,-22.06541,-22.024097,-8.234367,-19.128513,-27.922897,-29.683914,3.057919,-7.852535,-17.803058,-20.278644,14.109535,4.657517,-5.10252,-9.061889,-16.706172,-38.142758,-56.224051,-68.380731,-67.254511,-98.49027,-115.415526,-128.643506,-65.195097,-85.356645,-68.815948,-53.56646,-60.112837,-76.977245,-59.48475,-43.686432,-52.627012,-66.984353,-55.800937,-43.231309,17.947998,19.761658,13.246479,3.899918,1.046448,-9.235611,-15.775166,-23.30904,-12.654247,-6.259689,4.273567,7.833767,-23.418159,-12.334156,-2.090321,0.553436,-32.047863,-21.238403,-10.233078,-6.603012,-32.108609,-61.567384,-83.336735,-96.747257,-83.646274,-116.792182,-135.150008,-150.216152,-76.692946,-100.233778,-85.705311,-72.984649,-66.776216,-82.806994,-67.669359,-56.493352,-54.357406,-69.445409,-59.833494,-50.007274,150.14142,-84.284527,-226.654329,-73.810376
53,-19.890861,25.902955,-6.499729,-0.834032,-26.654549,-44.180145,-47.80838,-43.715057,-32.901764,-36.981583,-40.971107,-43.58757,-18.807449,-33.151817,-40.419731,-40.145874,-6.861076,-22.819862,-29.56398,-28.867836,5.423355,-8.781967,-16.128845,-17.282867,-14.276016,-37.646386,-59.29537,-74.508093,-67.748507,-100.719955,-116.735387,-129.407452,-68.38889,-91.55908,-75.754248,-58.813902,-66.016347,-84.045429,-65.460006,-47.9529,-61.011692,-76.980842,-63.737139,-49.04085,9.610634,5.511589,-6.001339,-21.063423,-21.53429,-42.56464,-55.170994,-65.417862,-30.604076,-43.848095,-28.792706,-16.004791,-37.973843,-45.55109,-28.782349,-18.239594,-45.608368,-49.431038,-35.061665,-24.092159,-36.097315,-64.413954,-81.828327,-92.342045,-84.22239,-111.355722,-129.413704,-145.160985,-72.819142,-97.792537,-86.111166,-74.985223,-58.749126,-78.752539,-68.10243,-58.073947,-41.079554,-60.817024,-56.87216,-49.102044,129.037571,-58.29594,-234.367046,-74.558775
54,1.743393,3.788882,-9.547234,-0.369669,-26.77002,-43.186226,-47.58728,-45.611458,-33.840981,-39.143028,-43.66951,-46.006622,-21.578865,-33.821869,-42.446365,-43.283157,-10.09964,-22.251892,-29.810944,-30.094414,2.814903,-8.520813,-16.098518,-17.935638,-15.867015,-37.589822,-57.368973,-72.190956,-66.469934,-94.773822,-110.35623,-124.193509,-66.571915,-90.251237,-78.02745,-63.7841,-65.08549,-85.387698,-69.926784,-53.266986,-61.397725,-79.458253,-69.57879,-55.067319,11.857109,7.85059,-2.222271,-15.072269,-19.966049,-39.015999,-48.934879,-58.253174,-30.571747,-37.000694,-19.364662,-6.911087,-38.174629,-39.410019,-21.334591,-10.144157,-43.75185,-44.163723,-28.643017,-17.625332,-30.710394,-58.265296,-77.166387,-86.078175,-79.13621,-109.463072,-126.817253,-141.281114,-68.208764,-91.450616,-83.099181,-72.410308,-55.9267,-73.140137,-64.677721,-54.599375,-41.401706,-56.862527,-53.958529,-46.974156,129.193668,-54.239246,-245.501575,-74.660632
55,11.690483,-9.028281,15.078793,4.8048,-25.514259,-42.766342,-45.071983,-36.297798,-32.362404,-32.444458,-33.709373,-33.508873,-20.659561,-26.241531,-32.902679,-34.296227,-8.543243,-14.670639,-22.236328,-23.690643,6.555519,-1.438179,-10.600777,-14.995537,-17.468821,-38.743937,-58.92919,-73.021653,-66.131635,-93.695398,-107.610637,-118.005531,-66.41933,-91.548783,-80.415663,-65.643714,-63.808893,-84.998253,-71.551916,-55.674758,-58.746687,-76.954629,-69.831935,-56.683111,15.381603,17.256775,11.172295,2.101994,-7.739925,-19.383774,-25.668812,-31.630898,-19.649734,-25.017357,-10.236454,1.406193,-29.502125,-30.61409,-14.22163,-2.66058,-38.234196,-38.017902,-24.308567,-12.817497,-25.395691,-50.64636,-69.464829,-84.394165,-74.704985,-102.290314,-122.011203,-139.715494,-66.424609,-90.417886,-83.740675,-73.617853,-55.568177,-73.409168,-64.599792,-53.436367,-42.285447,-59.619683,-56.541209,-47.284174,140.801067,-64.952711,-230.505867,-71.541017
56,14.926414,-8.9845,9.932671,5.9926,-22.915878,-34.573059,-32.493896,-24.285507,-27.576485,-24.897423,-20.558395,-14.833603,-15.204277,-17.626991,-22.442894,-24.081917,-2.8228,-5.797806,-13.86898,-17.257919,11.089668,4.239922,-5.55748,-12.024078,-22.284705,-45.608823,-65.10491,-80.455229,-67.242154,-95.424903,-103.412612,-108.167734,-65.674172,-91.12922,-82.84267,-69.194517,-61.44149,-84.43157,-72.561412,-57.538046,-55.016869,-73.266015,-66.474658,-54.741648,19.671307,25.400105,23.234596,15.183907,5.475826,6.028175,5.587749,2.234344,-7.236786,3.834629,18.101864,24.391251,-17.444973,-3.497543,9.343529,13.966141,-27.022877,-14.943123,-0.61615,6.440735,-27.737143,-51.915671,-72.58764,-86.892787,-76.460132,-106.975364,-124.675286,-137.820837,-71.160665,-88.118733,-74.968304,-59.697026,-61.310749,-73.700259,-58.484525,-44.795972,-48.837351,-60.453375,-51.149132,-41.45935,155.999651,-76.336955,-220.301027,-67.948162
57,16.179199,-8.692852,12.291813,3.711107,-21.73233,-33.516769,-31.831741,-22.404442,-19.778709,-13.270111,-8.805542,-2.940102,-7.525177,-9.176445,-16.462898,-18.912163,4.729958,1.977539,-8.100014,-11.315231,18.762589,11.404839,1.510391,-2.902451,-21.148528,-44.945161,-65.005492,-79.295016,-70.385651,-101.559482,-118.260205,-131.137096,-66.794031,-93.043282,-82.040023,-67.120645,-60.247839,-82.287318,-67.759391,-52.799041,-51.380326,-70.072978,-61.068857,-49.936292,21.110287,31.225262,33.815174,33.240967,14.193077,25.684662,34.549828,38.652077,3.708401,19.28112,32.776966,34.964848,-4.533978,13.42598,24.842033,26.002922,-12.154312,1.944294,13.949375,18.627892,-23.545679,-44.322562,-64.223639,-78.770416,-67.312025,-93.320928,-104.065191,-110.754211,-65.651278,-82.793301,-69.597593,-54.95623,-59.081065,-68.289163,-50.869403,-35.550052,-49.738876,-59.823583,-48.475586,-35.906352,173.458815,-85.61054,-206.72925,-64.817787
58,2.836876,-4.960812,18.22443,10.186688,-19.321861,-27.75341,-24.767189,-17.479591,-8.606071,-3.433685,-0.370903,3.899231,3.283081,-0.41256,-12.949562,-18.060493,14.072685,7.623253,-5.326195,-8.445625,24.526062,17.252998,6.311874,3.350029,-17.590994,-43.77039,-64.673646,-78.765985,-72.747697,-104.463867,-126.851309,-146.510973,-68.041698,-95.109312,-79.335308,-62.823372,-60.057169,-80.855773,-62.632424,-47.183721,-48.788892,-67.076123,-56.742284,-44.909593,24.408474,35.69252,39.150982,45.62748,19.930859,36.685581,48.359528,54.709225,9.271431,29.937115,41.730995,41.533585,0.349045,21.242523,30.467091,29.006138,-8.706322,8.963757,18.301563,19.239235,-19.109746,-37.279681,-56.875865,-72.564391,-64.270385,-87.956021,-101.110866,-110.286591,-64.425038,-77.342206,-61.86465,-44.543289,-60.0369,-68.476792,-50.485593,-34.696692,-53.095443,-63.330636,-51.764135,-39.678592,177.727261,-92.64828,-187.07325,-56.708028
59,-3.066788,-1.523753,18.47414,10.344213,-19.185448,-27.305374,-25.633163,-19.715195,-8.686409,-4.609222,-1.54026,2.020454,3.147583,-1.593819,-13.792305,-18.81649,14.431114,7.129097,-4.927597,-9.038658,25.869484,18.547668,7.741356,3.508873,-18.175802,-43.639387,-63.611863,-78.457094,-67.221977,-98.863166,-121.403054,-141.015773,-63.649669,-90.428029,-77.64838,-62.646055,-57.08083,-79.243192,-63.892951,-49.231319,-48.167544,-68.084291,-60.158641,-48.449327,25.113831,37.43288,40.852318,41.905346,23.018761,32.196693,38.078785,42.020645,10.02182,26.686993,36.588192,38.578033,-3.13036,15.843601,22.703362,22.088127,-16.927414,0.073013,10.750408,13.689938,-15.446989,-35.923086,-55.538845,-71.777753,-63.209759,-88.75785,-106.08375,-119.628378,-63.150325,-80.794146,-65.048285,-46.456379,-59.664082,-70.060999,-50.642007,-33.901285,-54.331748,-64.315092,-52.1954,-39.808916,175.382452,-94.294886,-167.877131,-46.486667
60,-3.48896,1.592296,9.362698,1.43897,-20.965004,-30.117989,-30.416222,-25.920868,-12.68589,-10.219002,-8.904305,-5.601196,-0.440483,-7.348251,-19.013557,-22.228775,11.321182,2.232056,-8.756905,-11.408272,22.578735,12.8405,3.192329,0.55069,-17.01934,-42.682873,-62.152145,-77.41961,-68.688395,-100.830827,-122.523871,-141.548401,-65.024527,-90.347522,-75.817048,-60.32478,-58.734182,-80.032718,-63.617837,-48.251432,-50.346979,-68.129121,-58.574789,-46.936056,21.492119,34.752846,36.893463,31.933994,17.138214,20.90332,23.524876,26.263561,4.036446,16.074886,24.47279,26.748047,-9.185543,4.812012,12.952251,14.58744,-22.833652,-8.955574,0.875416,3.955193,-13.801063,-39.290182,-60.151663,-77.25699,-64.372859,-91.3564,-110.21354,-127.543346,-62.729774,-82.123293,-63.661309,-46.867945,-57.732591,-71.436242,-51.855619,-36.078327,-50.516283,-62.71906,-50.280983,-37.466445,172.333117,-92.973798,-158.074808,-45.318905
61,-6.832924,3.185611,-3.588409,0.418637,-20.1297,-30.284729,-29.856033,-25.287895,-11.265564,-8.784943,-8.333473,-7.314034,0.375481,-5.293236,-15.380516,-19.555206,12.138634,4.32106,-6.718712,-10.910225,25.060158,17.037621,6.0569,1.402817,-16.964938,-42.57271,-62.382566,-77.860137,-63.246208,-90.779095,-110.8115,-128.254818,-61.206252,-87.325518,-76.124549,-61.63622,-56.254872,-78.735017,-64.092512,-48.382899,-49.086143,-69.441611,-61.764013,-48.656947,20.570698,32.776451,35.270405,32.240353,15.60854,18.981857,22.103062,24.669857,3.129673,15.131207,24.372883,27.08353,-9.264336,4.112663,12.911167,15.037022,-21.937923,-8.781509,1.251011,4.341831,-14.332271,-41.056707,-60.890815,-77.538109,-64.043359,-92.143625,-112.456176,-130.705368,-61.304574,-82.452979,-67.170956,-51.820668,-56.092592,-70.845291,-53.717424,-38.166479,-48.902189,-62.83089,-51.374799,-38.157988,165.785036,-89.853997,-161.378374,-44.966079
62,-2.521133,4.661971,-0.805779,-0.563102,-19.579124,-29.904099,-29.204865,-23.622208,-11.437683,-9.331398,-9.74556,-9.080658,-0.082741,-5.710831,-15.2005,-19.109116,11.881371,4.119759,-7.044525,-11.490669,24.824867,15.285416,4.111519,-0.784264,-16.397266,-42.183929,-61.851096,-75.785818,-62.701955,-88.861838,-107.443617,-122.640208,-61.044219,-86.452414,-76.425737,-62.361324,-56.084055,-77.142412,-63.416253,-48.231888,-48.464996,-67.199083,-59.503484,-46.481542,19.761715,31.112537,32.897644,28.664761,13.66127,16.547642,19.243069,21.545277,1.131363,13.069153,21.911602,24.311371,-11.281128,2.705555,10.941067,12.86499,-23.785858,-9.681416,-0.140705,2.395821,-15.329818,-41.894629,-61.242546,-77.181222,-64.423186,-92.925601,-113.495914,-132.148259,-61.390561,-81.938443,-65.955739,-50.312414,-55.684916,-69.657274,-52.243319,-37.019001,-48.032867,-60.884826,-48.909784,-35.683494,163.769131,-86.123238,-161.678925,-46.460392
63,-1.361847,2.382393,-0.305729,1.271781,-19.013329,-29.467278,-30.427895,-25.918236,-10.691986,-8.311386,-7.464523,-6.889915,1.402931,-4.481621,-16.454201,-22.884636,13.36647,3.147926,-8.051376,-12.912254,25.226212,15.865402,5.285797,0.204849,-14.175826,-38.319496,-57.144588,-73.174439,-61.582204,-93.190789,-115.772497,-135.293208,-59.153159,-85.74074,-74.010678,-58.398754,-52.960333,-74.412797,-59.269018,-43.615304,-44.254143,-62.134916,-53.894216,-41.829914,20.232067,31.923008,33.448906,29.033604,14.428253,16.377125,17.907372,19.026375,1.105957,11.34304,19.107628,21.90073,-11.850986,2.074471,9.968605,12.242603,-24.538937,-10.360394,-1.139717,1.693783,-14.602737,-41.230719,-61.041486,-77.592635,-64.630853,-94.359199,-115.145654,-133.433177,-61.433632,-80.356243,-63.580138,-48.065841,-55.377739,-67.615065,-49.638655,-34.723152,-47.423051,-59.179866,-46.736818,-33.932963,162.720594,-84.104972,-161.671343,-45.552739
64,-0.767784,11.768023,0.387211,4.099579,-19.888573,-30.792389,-29.974365,-26.740265,-13.244476,-10.509224,-9.316864,-8.47538,-0.770073,-7.505035,-18.385162,-22.960167,11.445694,2.661438,-8.281059,-12.273788,24.033508,15.058479,4.039078,-0.745583,-15.045611,-40.204767,-59.278142,-75.299471,-65.900318,-95.678527,-117.792014,-137.31964,-63.592643,-89.357755,-76.156196,-59.69647,-58.061597,-78.083566,-61.514556,-45.539663,-49.653043,-67.796333,-58.238141,-44.935219,20.749626,32.771015,34.214573,29.408283,14.54916,17.168255,19.086285,20.17107,1.228466,11.860771,19.730587,22.857685,-11.485176,2.469692,11.056938,13.853416,-24.10881,-10.780563,-0.788956,3.037148,-14.404611,-40.453065,-61.163104,-76.935363,-64.407501,-94.944871,-115.88354,-134.141871,-61.596808,-78.43809,-60.860372,-45.596689,-55.816043,-66.725272,-48.888851,-34.329462,-47.992142,-59.555401,-47.309615,-34.959069,162.077036,-73.120701,-161.159906,-42.236911
65,-2.715569,8.628786,1.526585,5.451697,-19.678574,-31.773605,-31.49437,-26.883316,-13.331566,-10.839958,-9.539909,-8.409576,-0.666618,-8.280945,-19.540901,-23.853035,11.91124,1.858292,-9.276695,-12.999916,24.609947,14.248352,3.35392,-0.936928,-13.033227,-37.391017,-56.583045,-72.102467,-64.593864,-95.071428,-117.553981,-137.104779,-62.542299,-87.133042,-72.981886,-55.755064,-56.926902,-75.707333,-58.896092,-42.926015,-48.241398,-63.728092,-53.919194,-41.234764,20.80101,32.888432,34.265156,28.428783,14.665604,18.216705,20.81028,22.204227,1.419754,13.678894,21.419506,23.510056,-10.990105,3.901691,12.133827,13.813877,-23.38068,-9.675121,0.265617,3.379154,-14.133805,-40.073609,-60.979149,-76.026366,-64.715512,-95.420133,-115.91653,-133.925143,-62.324228,-78.786671,-60.257874,-44.958561,-56.54689,-66.971842,-48.821512,-34.881048,-48.456752,-58.91968,-46.665342,-34.98553,159.547005,-66.395988,-159.447784,-38.689288
66,-4.366722,14.954375,1.000557,6.234723,-19.411125,-31.071968,-31.536598,-30.112152,-14.197426,-11.963997,-10.675049,-10.070572,-1.468391,-9.549179,-20.529671,-25.147018,11.050529,0.1054,-10.858154,-14.615707,23.475723,12.275391,1.393433,-2.572632,-14.481182,-38.847431,-57.552187,-73.922344,-66.252326,-96.353876,-119.155355,-139.343016,-64.344763,-87.795192,-73.502349,-56.18883,-59.243531,-77.118268,-60.238268,-43.702773,-51.026928,-65.726398,-55.456686,-42.166948,20.899258,33.445988,35.134392,28.909893,16.385193,20.455055,23.081703,24.248314,2.550488,13.51244,21.053009,23.504219,-10.374985,4.258633,12.542381,14.605751,-23.045025,-9.388046,0.175037,3.451424,-14.102991,-39.678962,-60.566626,-75.009213,-64.84948,-95.927073,-116.195843,-133.746329,-62.271647,-77.870048,-59.486827,-44.246486,-55.88085,-64.452857,-46.546936,-32.261811,-47.249254,-56.230141,-43.846961,-31.894798,155.365362,-52.940558,-158.262148,-33.95351
67,-4.966393,18.547446,2.47427,7.555039,-20.035744,-32.624931,-33.24646,-30.979958,-15.465431,-13.56308,-12.420845,-12.42382,-1.689262,-11.71154,-22.861862,-27.549248,10.909653,-2.186852,-13.8834,-17.888603,22.770081,9.792137,-1.132851,-4.811325,-14.199044,-38.764562,-57.406518,-73.172447,-68.828646,-100.252504,-123.232596,-143.806459,-66.391079,-89.244783,-74.7946,-57.524306,-60.585521,-77.430478,-60.849659,-44.169823,-51.625197,-63.757424,-52.781381,-39.858594,19.639835,32.590828,34.342575,27.405167,15.559273,18.963833,21.808205,23.602066,1.278477,11.511211,18.735294,22.000751,-11.747074,3.42802,11.223164,14.041557,-24.423294,-10.067883,-1.218224,2.205906,-13.606117,-38.060638,-58.949197,-72.745845,-64.286162,-96.637048,-116.888096,-134.252852,-61.190428,-75.749416,-57.580098,-42.515529,-54.800774,-60.744868,-42.379308,-27.420394,-46.616405,-53.391753,-40.055918,-27.880249,151.148844,-34.746617,-155.038004,-26.751977
68,-5.436172,20.183863,1.869278,10.069701,-21.98204,-35.210037,-34.748611,-29.41246,-17.964592,-16.921692,-17.111206,-18.138084,-3.537827,-14.518661,-27.074432,-32.679634,8.755074,-4.995689,-16.908989,-21.379852,19.688416,5.473251,-4.521561,-7.576447,-14.434622,-39.008754,-56.972319,-70.991052,-68.052813,-100.376653,-122.085813,-141.42754,-64.887673,-86.664233,-71.017296,-53.916415,-58.552111,-75.260074,-58.106335,-41.605853,-49.997888,-61.021603,-48.440759,-35.748394,19.023113,31.005421,33.306999,27.936974,13.207912,16.805477,20.75037,23.774128,-0.764694,12.447624,19.864597,21.988678,-12.64698,3.565292,11.020889,12.562637,-24.240246,-9.888325,-0.751076,2.719173,-12.476424,-35.639065,-54.969537,-67.52846,-64.438716,-97.509643,-116.929623,-133.297264,-61.249246,-72.882468,-53.337165,-39.292466,-53.875166,-59.730031,-42.501604,-29.817514,-44.455604,-51.297333,-39.084368,-28.589298,146.446638,-14.300145,-152.434759,-16.419666
69,-5.798149,26.783685,3.2654,11.416879,-25.738907,-38.315964,-37.273178,-32.261353,-21.177292,-21.245728,-23.436584,-26.02581,-6.248474,-18.905411,-31.090279,-36.210251,5.025902,-9.381409,-20.538826,-24.880028,14.656677,0.117989,-10.274277,-14.491653,-15.868991,-42.141661,-60.641405,-73.653699,-71.959855,-104.49167,-124.443043,-142.115702,-68.140252,-85.522869,-68.16699,-52.033954,-60.898256,-74.163449,-56.136836,-39.502263,-50.843313,-61.392043,-48.549532,-35.512322,19.106655,30.766754,33.196449,26.804123,11.818657,15.006809,19.586964,23.76709,-2.157154,12.920666,19.951172,21.490974,-13.819141,3.079262,10.057583,11.381836,-24.972382,-10.302887,-1.577053,1.468048,-13.523772,-35.460853,-53.945036,-65.208929,-64.429546,-98.451244,-116.841783,-131.846269,-60.910637,-66.664325,-46.608038,-32.331003,-52.338445,-53.365416,-35.867943,-22.865591,-41.878759,-46.345104,-34.057853,-23.313004,141.05793,13.901793,-148.759918,-3.584534
70,-0.585022,24.506917,5.288029,11.953552,-29.064445,-45.692825,-50.519142,-47.739601,-28.798943,-32.265015,-36.412239,-40.153427,-14.49646,-32.814331,-44.784851,-48.948326,-4.557953,-24.685478,-34.960327,-38.191566,2.796478,-15.127258,-25.169563,-29.283943,-11.929686,-34.844245,-52.117039,-64.302248,-68.78542,-97.940569,-115.18363,-130.093421,-66.32269,-75.170413,-61.170483,-48.425074,-58.206247,-60.998971,-47.275529,-34.616015,-46.285361,-49.281522,-38.484339,-27.469825,18.686829,28.919163,31.205864,26.947575,7.588749,11.103172,16.514111,20.933247,-5.831909,10.462303,18.505726,19.585648,-15.975666,1.436176,9.278584,10.423336,-24.487152,-10.490913,-1.471195,1.453857,-12.991824,-34.794505,-51.132614,-58.524478,-62.469804,-95.528196,-111.908172,-125.018834,-57.838338,-60.329813,-40.001732,-26.439273,-47.726924,-45.629788,-28.11524,-16.282565,-36.144338,-38.86009,-27.758292,-18.859811,140.634584,43.39325,-143.310213,13.353557
71,-11.004753,19.649537,5.161858,8.26662,-29.103012,-44.702682,-52.037773,-56.12812,-29.097404,-36.627617,-50.992126,-60.931549,-18.702049,-44.75235,-53.193054,-51.414185,-12.160378,-39.251518,-44.821243,-42.215424,-7.552528,-30.549889,-36.185074,-34.060593,-11.93268,-32.530055,-42.242222,-48.231765,-62.927838,-88.191167,-93.460267,-92.336935,-57.615851,-53.020911,-37.447704,-28.976504,-44.111036,-36.603421,-23.891636,-17.837625,-27.325885,-21.814321,-12.827814,-7.938509,18.316212,27.904873,29.465961,24.07402,9.263649,11.554241,16.123638,20.52618,-4.967937,9.034081,17.535725,19.179382,-16.160831,-2.192574,6.756248,9.59404,-25.063534,-14.29945,-5.564575,-2.24659,-11.682838,-29.574125,-42.103592,-47.297975,-58.004694,-87.348798,-100.587037,-111.728478,-53.066575,-49.210509,-28.667382,-15.475116,-40.716338,-33.151203,-16.278489,-4.718905,-27.166353,-24.370973,-14.800925,-6.773094,130.325546,63.487883,-137.452641,22.065275
72,-11.421318,19.564661,0.303154,50.97092,-19.957237,-41.171494,-56.895103,-68.265839,-28.170891,-51.296883,-67.106209,-75.00618,-21.828232,-55.659714,-64.913521,-63.902092,-17.516785,-50.169296,-57.030716,-54.135818,-14.535828,-40.471458,-45.985222,-43.791161,-26.628723,-45.342432,-57.451935,-64.966651,-51.590925,-64.623937,-60.588331,-51.91987,-39.593932,-28.403769,-14.874563,-6.71897,-22.915084,-10.096655,0.705715,5.272219,-5.454784,4.888996,11.444235,13.226444,23.349609,39.11871,43.633003,35.858402,14.429111,18.499889,22.821579,26.04063,-2.077446,18.558998,28.785324,31.409283,-14.09935,8.853378,18.498917,20.953846,-23.595943,-4.628849,7.707653,13.445663,-14.580569,-39.794621,-57.12651,-64.278134,-72.302384,-102.155652,-120.936298,-136.992764,-69.045204,-70.634598,-50.362802,-35.659535,-59.66896,-56.182593,-40.234839,-27.647049,-46.972087,-46.893819,-35.891408,-26.089333,119.213419,83.612713,-136.840296,73.596364
73,-10.944786,28.171619,6.683121,25.069865,-21.511574,-44.982033,-66.60965,-81.746979,-45.431442,-79.138298,-86.002693,-82.745247,-40.778618,-73.261757,-77.227592,-73.526459,-35.768852,-63.102379,-65.785675,-60.644188,-30.951118,-51.941071,-55.411949,-52.723274,-28.056732,-40.147864,-40.75413,-35.270693,-43.824175,-44.915274,-34.685299,-26.431121,-30.274745,-18.616452,-4.996535,1.780048,-14.71219,0.117882,12.260174,17.384346,1.431004,15.447915,23.237977,25.726457,23.970394,39.7966,43.545856,35.102634,15.49696,20.010567,24.642334,28.161564,-0.627537,19.315796,29.364109,30.922565,-12.512798,10.005856,19.772072,21.891174,-21.701889,-1.690807,11.1973,16.248093,-14.570318,-38.188585,-56.319926,-66.424887,-70.348694,-97.820618,-117.073718,-134.139401,-66.119377,-68.733118,-48.104127,-32.406894,-55.693098,-54.141526,-38.198126,-25.39779,-41.847729,-41.314237,-31.520992,-22.676789,109.222956,110.844321,-129.202852,97.726217
74,-7.282677,40.19606,-5.126381,26.682137,-21.609421,-46.917114,-69.524689,-85.853806,-55.479126,-87.831688,-101.748619,-108.344822,-53.397217,-84.418602,-93.004532,-93.493538,-49.272652,-76.573677,-83.132629,-82.455254,-43.146286,-62.935753,-67.645798,-67.309227,-28.367522,-36.814608,-31.827521,-22.956395,-39.064885,-36.317609,-25.864716,-16.339283,-22.969115,-4.165374,8.743426,15.254637,-6.159171,11.856573,22.741565,27.033713,9.744277,22.300729,29.631676,32.848626,31.243801,47.956467,56.168461,53.901215,27.180977,32.925224,40.392208,46.376324,12.639885,41.014023,50.877171,50.31229,4.276485,34.607964,39.774914,36.95343,-0.554237,24.933472,32.571487,31.80542,-16.146621,-37.48145,-54.03334,-63.241901,-69.807235,-95.313521,-110.767457,-124.340568,-67.801798,-58.418175,-39.954925,-28.290395,-56.908099,-42.438156,-29.16086,-21.590383,-41.648368,-30.425478,-21.986512,-17.317286,101.826639,150.147346,-134.442873,123.51532
75,0.538673,12.253752,3.675156,2.298659,-23.211136,-50.039978,-69.697838,-81.66996,-56.813622,-89.023476,-107.580585,-122.15189,-51.689415,-85.394897,-104.387913,-116.861343,-44.03904,-76.799812,-94.976463,-108.644028,-36.488571,-59.707947,-74.94072,-88.783951,-23.215253,-29.255246,-25.475997,-18.140974,-22.998323,-11.797416,-0.743845,8.487779,-9.380876,4.942379,16.801608,26.711005,5.059644,17.407441,28.694737,38.354045,18.745202,31.443186,42.897147,51.917647,15.023975,33.604774,51.724033,58.682156,22.778263,41.273746,52.969036,59.619427,18.042812,50.157223,50.789623,46.398296,17.727242,46.441555,45.272942,40.865078,19.406719,42.476177,43.09576,38.648014,-20.33546,-38.442287,-45.74983,-46.229971,-50.815217,-68.487166,-74.421874,-75.96335,-38.846968,-23.632284,-13.721713,-9.91656,-20.050421,-1.943285,4.059781,4.558354,-1.564694,9.646402,12.539039,12.769429,102.337303,160.988341,-130.795727,124.401222
76,-8.340225,37.689117,12.644348,33.672067,-30.571175,-59.862099,-83.307152,-99.113445,-66.656685,-103.340206,-117.101269,-124.068317,-63.558426,-103.077679,-118.13221,-125.286827,-58.042717,-94.218006,-108.541317,-115.088253,-51.056671,-80.265884,-92.586994,-98.819847,-19.248036,-19.174553,-9.550504,0.933419,-13.952135,-1.459533,8.344024,14.131582,4.100907,19.189496,26.02045,28.730676,20.981802,34.192129,39.130001,40.662832,35.264364,45.27991,48.179833,48.397318,15.112152,36.13472,55.143414,69.545345,30.308647,50.339241,64.149284,70.251961,28.420715,56.994438,66.000481,67.684593,27.58358,53.584385,57.942123,57.052631,27.521324,46.972561,48.528328,46.875572,-22.609975,-37.14664,-38.43642,-33.736597,-45.762798,-61.362218,-59.022927,-51.760801,-32.094406,-25.805744,-14.012774,-5.678753,-15.43538,-6.949824,1.508871,6.396602,1.36135,8.098505,11.93759,12.318096,93.675556,198.152688,-118.4729,157.548519
77,-3.422356,13.083924,0.835533,25.945609,-32.840881,-58.827553,-78.294296,-88.523941,-68.449402,-98.741627,-114.114189,-124.966278,-63.92807,-98.247643,-116.63229,-130.222664,-57.472801,-89.315872,-107.979412,-122.126141,-49.347954,-73.48423,-87.34005,-100.722084,-19.568088,-21.211081,-13.988691,-3.543177,-4.01248,8.187117,18.992945,27.81924,14.275337,29.293037,40.837585,48.437147,30.471791,44.758119,54.153012,59.029689,43.542747,55.879553,64.765252,69.412527,22.42075,48.307686,68.924332,82.588692,44.751606,75.140533,88.973751,92.058334,39.827385,76.464558,88.14497,88.35474,35.006676,69.633751,78.644199,78.572044,31.788139,59.717045,65.498085,65.124378,-24.26643,-35.458136,-35.285482,-26.356002,-40.489375,-43.765975,-33.976806,-25.385841,-24.155341,-13.053605,-2.023438,4.040144,-5.895868,9.325856,17.310555,19.735802,11.871578,22.855989,24.61921,22.562983,90.352478,210.659477,-117.53809,182.916993
78,-5.620193,16.013487,-0.749588,9.662087,-34.466171,-61.62426,-79.607964,-87.699795,-72.557373,-97.769623,-112.905922,-125.660591,-68.801079,-97.960796,-116.38258,-131.99049,-62.101822,-88.337231,-107.040482,-122.058334,-54.182739,-74.126015,-87.590275,-101.172752,-16.444629,-14.413411,-6.067595,4.019952,3.228806,12.671493,19.997747,25.483592,20.89424,32.811884,43.360954,50.618418,36.433484,50.90846,61.641052,67.795901,48.14976,60.633841,70.93628,77.585996,25.958004,55.710068,76.994419,90.568027,53.693676,86.117191,102.413063,114.503632,44.040356,78.150902,99.277439,113.474636,34.117413,65.953503,83.983269,96.588707,25.860844,50.855198,63.356152,72.202435,-19.035985,-23.038091,-15.7797,-6.817986,-23.996148,-13.31765,0.186424,10.43125,-9.788367,6.642121,23.464539,35.686489,5.637751,20.294026,31.694016,38.025348,21.672851,31.754408,38.340707,41.878944,85.225325,225.684371,-117.794638,191.590487
79,-4.099846,21.47951,33.352203,28.921485,-27.463417,-55.200005,-79.687443,-97.552414,-63.877487,-91.614704,-112.215443,-131.5658,-64.218979,-98.228645,-121.106758,-140.321445,-62.27726,-96.242065,-114.725304,-128.259716,-58.201447,-84.013596,-92.077503,-94.894581,26.595532,40.673391,47.705898,52.976049,44.500681,51.158549,56.019418,60.716587,27.803493,25.214175,22.108747,18.683699,8.669573,-0.876794,-9.931751,-17.786897,-10.990709,-22.703403,-29.331754,-34.170023,30.848637,53.950424,71.973782,82.521057,74.890652,95.320072,87.417927,74.395008,68.519154,92.074528,79.412785,60.383663,58.17524,77.11504,65.104809,48.392658,44.228325,60.611744,55.979404,44.88287,-9.648502,-9.717601,-8.02354,-5.861905,0.451581,31.612815,46.48781,51.772101,12.107218,53.50315,69.41901,73.308051,26.421211,64.330035,81.053035,86.47293,41.493066,68.469351,82.349917,88.241833,82.023125,246.640423,-83.544788,219.988513
80,-3.76545,4.914592,-8.93652,15.235556,-31.4431,-59.017525,-80.845642,-96.750698,-58.812447,-92.248707,-112.609291,-127.915821,-56.652031,-93.523865,-112.78141,-125.259476,-55.554771,-91.227779,-103.58242,-108.757095,-56.864204,-86.042404,-95.757637,-99.27927,18.192536,28.230806,31.287884,31.837957,50.561176,48.134817,45.472448,42.46298,40.937991,32.245942,21.939366,11.7905,25.835261,13.754657,1.899319,-7.98828,6.866646,-0.363648,-5.258727,-9.234959,32.016506,63.309231,86.743698,103.185196,61.121464,92.70956,106.691208,113.733215,47.82589,82.085609,99.398575,108.409767,34.751816,68.563957,85.384483,94.316826,23.267956,51.611767,65.325966,73.317547,-12.76134,-13.518832,-11.398509,-12.461171,-3.159645,20.363186,32.544073,39.468208,13.955099,39.347733,51.435747,56.494032,30.683965,53.190014,61.899292,64.35418,44.733727,61.16051,65.681999,66.190761,79.062424,251.143788,-91.676559,234.812842
81,-67.414284,17.588987,0.834904,15.520287,-13.711281,-27.699966,-43.90646,-55.815182,-24.648628,-38.41341,-45.913181,-47.205334,-23.395615,-41.347561,-44.64632,-37.711143,-22.468128,-36.542187,-38.976288,-34.412041,-22.730656,-34.272079,-34.872379,-31.813717,25.845326,44.833701,58.57218,68.55117,52.107097,52.493778,41.518075,32.96132,38.011825,34.842176,20.843543,10.97842,18.610154,12.930969,-0.26528,-7.426537,-2.63452,-11.277107,-18.963305,-22.841663,32.62888,62.451782,85.904903,103.299007,62.462883,90.99432,107.846432,119.668636,51.697655,83.305035,102.653332,115.846767,40.63242,70.383339,88.552208,101.087322,29.154396,53.711071,67.381496,78.633099,-12.828401,-14.022037,-11.948828,-15.933768,3.071959,19.745312,31.204212,41.790456,18.038777,37.814347,50.300527,59.651886,32.232171,50.990403,60.707818,66.978511,44.433991,60.661937,67.285904,71.087013,11.666136,268.697779,-90.82366,250.298132
82,-58.065033,10.546662,3.76133,12.716756,16.483612,26.278267,29.747715,27.720795,21.538696,51.174202,57.338676,57.171249,13.511295,47.43576,53.784027,57.250671,4.938641,34.071064,43.559303,46.873055,-3.261681,13.406467,19.483109,22.078629,5.186726,21.840071,42.076669,51.820946,25.919735,38.498541,37.211601,33.845586,26.463633,43.945236,43.096107,38.544669,22.328517,40.673329,38.756102,34.962281,16.712934,32.507763,31.594969,30.083874,31.113968,60.682869,84.119282,102.678738,59.797497,86.24239,103.831158,117.670383,50.411568,80.01709,99.145947,113.213482,40.405369,68.418789,86.729107,100.70303,29.602604,52.069645,65.676956,76.919746,-11.189545,-13.216996,-13.113503,-19.94458,8.691432,23.062791,34.115559,44.952818,24.499599,42.392769,54.290036,64.389563,37.79224,55.575186,65.901892,73.544061,47.667613,64.399134,71.662835,76.268798,-46.238022,279.102816,-86.901455,262.873264
83,51.198692,2.47261,4.806976,8.215337,-5.426331,-14.890766,-25.772552,-41.791134,-36.311417,-17.04546,3.103409,17.372017,-40.880756,-15.017967,5.746536,26.021576,-42.079067,-19.944592,0.647392,18.013802,-40.899982,-46.46862,-48.598366,-46.253185,20.230979,38.79482,58.904274,73.07624,29.371892,48.55367,57.483644,63.804601,26.374836,43.202749,55.285144,61.973022,22.858521,39.372063,49.033717,56.353055,21.474385,35.35489,48.206941,62.328272,30.703526,58.325443,79.703751,98.537807,57.806854,83.704433,101.378117,115.428257,48.029251,76.507988,96.86182,112.485638,37.850533,64.737968,84.311485,100.455494,26.733799,49.236717,63.97253,77.835789,-10.319605,-11.606793,-11.409809,-16.845636,16.191699,29.987853,40.921689,50.693198,31.328578,48.25523,60.032639,70.290741,43.121177,60.565854,71.536123,80.54452,51.503425,68.129847,76.451086,83.647787,4.961815,281.554832,-82.093334,271.068007
84,-17.972202,6.383264,4.14957,8.473762,0.769844,-1.186981,-3.160515,-10.049686,-16.300507,10.586185,27.421017,36.481991,-20.216103,14.836121,32.876644,47.475643,-22.694206,8.40374,27.832775,39.942799,-23.508911,-23.446026,-25.172596,-25.431805,1.998243,16.057824,36.3374,50.397413,30.150874,47.6594,53.770221,58.412308,31.946082,47.917579,54.994176,59.646884,30.716507,45.213343,50.023515,54.655598,31.215698,43.106913,54.922298,67.748847,31.038494,57.975883,80.201797,99.429131,59.019642,85.384254,103.348732,117.411232,48.288918,78.461494,98.583298,113.957748,37.63464,65.524921,84.260101,99.922142,26.449471,49.746895,64.592113,79.062138,-10.371352,-12.084617,-11.960067,-15.946797,18.277319,31.388167,41.015056,48.894408,33.572773,49.037484,59.500783,67.460226,45.152457,61.916644,71.530936,78.592528,52.964934,69.43698,76.81813,82.712022,-12.970963,287.92979,-77.904339,279.533463
85,-7.769966,9.71686,3.50275,5.893274,7.948036,16.189384,24.783382,28.039227,-3.999882,26.668453,44.331493,53.183498,-13.795681,22.853394,43.251629,59.677792,-21.329613,6.877098,25.996914,36.993885,-24.483948,-30.986652,-37.230206,-43.275032,-24.073769,-29.719609,-29.38134,-28.97953,4.21533,21.493281,27.508944,32.187032,22.557858,41.833805,46.337077,47.938327,35.010014,53.460913,53.390765,53.971527,45.616203,57.885577,65.618458,73.634217,28.190289,54.607487,77.58522,95.933475,56.911926,86.303043,102.784824,115.016499,46.472054,79.545994,99.063091,112.827015,36.100559,66.614628,84.982967,98.363743,25.99411,50.594788,65.26228,77.899933,-12.593009,-14.966694,-13.273189,-16.737758,14.333197,30.639072,39.234853,45.470101,31.091641,48.598747,58.003829,64.339236,43.600978,60.788773,68.879682,73.680962,52.077148,67.743969,73.507382,77.082175,-20.556049,297.719284,-74.216709,285.499371
86,12.688065,2.418825,3.068619,2.369919,5.344334,7.804756,7.595329,5.283222,-12.499294,13.613148,29.45715,37.538509,-20.987377,10.092602,26.939106,40.498066,-27.970448,-4.847317,10.545902,19.515324,-31.700363,-39.511814,-46.281223,-52.662964,-21.37225,-27.376057,-25.694099,-23.5048,7.040597,23.844181,29.044306,33.530041,23.34604,39.630303,43.827911,46.902402,33.534302,50.60508,49.649184,50.116387,42.889675,55.402593,62.434483,69.902578,26.866665,51.758537,74.485302,93.150845,56.177387,85.838757,102.378559,114.549007,46.465702,79.61237,99.620876,113.235798,35.932388,66.148281,84.561138,97.336063,25.49715,48.8657,63.35804,75.258808,-13.742554,-15.641935,-12.259248,-15.126751,15.128048,31.644987,39.547249,45.132882,32.005115,48.251525,56.174473,61.152544,44.102021,60.218137,67.395943,71.05058,51.846757,66.940287,71.72792,73.283475,-7.853193,300.317803,-71.133299,288.048984
87,3.103809,-1.186781,-1.281624,1.501091,-8.678455,-10.393696,-10.613308,-17.539673,-16.70351,5.246258,26.619873,44.046364,-22.50309,6.064396,30.36129,45.680809,-24.514103,-0.960503,21.385918,34.885483,-24.019489,-21.753101,-14.341335,-7.197018,8.530572,22.060952,35.981903,50.19197,21.628329,33.146818,40.620039,45.101822,23.19753,36.202785,44.988201,50.306208,23.423228,37.18159,42.874237,46.008441,23.972436,38.879233,44.408056,46.449216,26.732483,52.090588,75.452385,94.232998,57.010803,86.517277,102.618198,114.608746,47.833958,80.787449,100.233822,113.609333,37.462578,68.27837,86.684475,99.312458,26.980133,51.387691,66.192169,77.796535,-14.741491,-16.553927,-13.385575,-15.031038,14.025803,30.108389,38.481128,44.509265,30.700638,46.26557,54.265212,59.268416,42.660581,58.27621,65.332121,68.836148,50.702893,65.091356,69.610992,70.906763,-4.673653,299.41285,-72.339191,289.831904
88,11.636238,-2.443896,-0.216923,-0.790467,3.175163,1.363678,-4.6558,-11.617069,-27.105732,-8.404312,10.416069,20.547295,-35.187721,-11.037998,9.065781,25.187531,-40.989647,-21.414471,-1.58741,11.401176,-43.995094,-54.078598,-60.09819,-64.908657,-16.891022,-21.259741,-18.844744,-16.085427,9.789293,29.694229,36.236006,39.611901,24.773401,42.641809,48.303951,50.193699,33.976188,51.549367,53.519761,53.876123,42.116992,54.018828,62.2107,70.125806,27.289124,52.984257,76.643372,95.720787,56.98597,85.967331,102.21405,114.431076,47.503109,80.290833,99.615211,112.809105,36.791553,67.445297,85.797615,98.261948,26.086693,50.241852,64.727612,76.099091,-14.062668,-15.558757,-12.102154,-13.419847,14.519992,30.462034,38.399,44.052065,31.183032,46.689981,54.404706,59.121759,43.207381,58.964048,65.861878,69.156818,50.997627,65.637477,70.278576,71.481351,7.06584,297.291245,-72.45286,289.363727
89,-14.92321,14.518695,1.314526,-0.004137,1.719532,7.461605,19.924164,28.328934,-8.332043,18.24337,40.392723,53.926048,-16.510963,12.430458,35.759125,51.250076,-21.196346,-2.733364,18.47374,32.601471,-21.943188,-32.280006,-36.087284,-39.850273,-21.05689,-28.865662,-29.984642,-28.456998,-5.041736,10.953226,20.800009,27.976395,13.669071,26.086894,31.96825,33.271863,26.94578,37.358814,40.839993,41.002397,37.710297,47.513546,52.00138,53.840122,27.239513,52.440205,75.635204,95.084553,56.00029,85.630589,102.392063,114.703045,46.530018,80.179081,99.837399,112.957821,35.978451,67.190495,85.689983,98.206844,25.640888,49.537296,64.337368,76.25742,-13.87365,-15.197888,-11.359976,-12.630923,14.573838,30.387378,37.661206,42.451864,31.581137,47.029731,53.944048,57.775661,43.71676,59.898888,65.648036,67.80362,51.351704,66.467526,70.689772,71.190136,-7.676525,312.145338,-70.957489,289.694987
90,3.493366,0.226748,-0.323811,0.829123,1.482639,5.271664,12.99139,15.335941,-12.896461,15.095844,36.217403,48.350086,-21.196861,9.413509,31.873913,45.473843,-24.564056,-5.838547,13.512325,25.947933,-23.696709,-33.726425,-38.057957,-42.201748,-19.745559,-25.368737,-23.867522,-20.298966,-3.248319,9.143137,17.01477,23.781195,13.927682,24.028506,28.067044,29.419811,26.720021,35.725763,37.751423,38.511879,37.764267,46.120333,49.690186,53.031563,27.331409,52.546978,75.67028,94.992599,54.91333,85.852547,102.561264,114.499855,45.396996,80.927925,100.896149,114.028587,35.394516,68.660545,87.556114,100.084534,26.135159,51.266155,66.456642,78.189926,-14.446324,-16.021268,-12.128275,-13.006675,13.412807,29.188246,36.465718,41.224822,30.985183,46.111379,53.011,56.638157,43.549355,59.350606,64.572035,66.215831,51.545477,65.966298,69.742768,69.716956,-3.941116,312.507921,-71.039257,290.659946
91,-4.465599,0.360684,-0.154839,0.408294,4.818707,11.118736,22.040234,29.778843,-4.637203,22.933788,42.81744,54.108295,-13.22794,16.812115,39.73772,54.858227,-18.085899,4.061337,25.727634,40.572338,-19.282265,-26.704216,-31.048908,-34.844971,-16.541886,-19.884682,-16.853108,-13.870933,-1.118856,12.756832,21.029597,27.730072,13.524884,27.204268,31.647951,33.456188,25.372812,37.426554,40.479742,41.263972,35.713598,43.915967,48.083564,51.373626,27.185097,52.667828,76.121635,95.806274,54.934216,85.995483,102.610703,114.564972,45.629025,81.252594,101.018257,114.190865,35.813313,69.21072,88.152008,100.982666,26.630001,52.230263,67.602596,79.488831,-14.83603,-16.049611,-11.796552,-12.256284,13.535258,29.049246,36.13523,40.873956,31.046193,45.8687,52.632037,56.079192,43.424063,59.151152,64.245499,65.798398,51.131873,65.236099,68.973481,69.091795,-8.190937,313.049209,-70.978317,291.248844
92,1.528416,6.686273,-0.039597,0.326166,3.597336,10.327263,22.644653,26.789017,-3.141289,19.404373,35.97805,46.778641,-12.751808,14.066734,35.048218,48.778038,-17.027779,2.346954,21.028748,33.419037,-16.97382,-18.764305,-16.4958,-12.764339,-17.070284,-22.674937,-22.27961,-17.097516,-8.076522,-2.710781,2.375662,7.693052,7.679034,14.937301,20.459394,23.334184,19.769827,26.332969,30.314821,32.436071,29.811987,35.998576,38.870341,40.693213,27.393723,52.977676,76.455574,96.105881,54.636326,86.078796,102.672844,114.55101,45.245304,81.032181,100.69313,113.711815,35.259132,68.29937,87.305031,100.226555,25.940437,51.001053,66.31279,77.944221,-14.526414,-16.089008,-11.618525,-11.462791,13.356738,29.050605,36.311898,41.274469,31.024765,45.91384,52.633211,56.019542,43.582144,59.410627,64.374681,65.586842,51.179359,65.157367,68.788909,68.603843,-6.465168,319.808903,-70.82056,291.648431
93,16.576424,-18.665297,0.015221,0.242803,2.665443,1.025162,-6.454926,-15.546398,-25.730553,-5.005188,12.396469,21.192398,-35.95871,-10.001392,8.197517,22.097397,-42.763939,-23.889713,-6.264324,4.478188,-46.146126,-57.407513,-64.54216,-70.549908,-19.254087,-26.309319,-25.355707,-24.539181,9.448492,28.251863,30.587758,30.391021,26.474069,44.30555,44.665987,42.851698,36.402362,53.839443,51.461435,49.068483,44.299252,56.926593,62.872046,68.896725,27.152996,52.907639,76.333008,96.33213,53.542328,85.118866,102.294617,114.729309,44.058208,80.506096,100.708923,114.057198,34.362946,68.426685,87.758331,100.736046,25.539093,51.560955,67.294064,79.450035,-14.574641,-15.995641,-11.385294,-10.530298,13.389465,29.812605,36.789228,41.096875,31.36958,46.360048,52.381578,55.013566,44.082878,59.811696,64.054258,64.570306,51.811004,65.897508,69.159412,68.643919,10.148277,301.086364,-70.768318,291.833991
94,-8.331184,9.325856,0.074501,0.564584,1.219139,1.973076,4.701805,2.45779,-21.714191,8.545418,30.757828,42.700539,-30.613804,1.609039,23.817673,36.581841,-33.688259,-13.236752,7.038803,19.451752,-32.342949,-42.542953,-45.986881,-48.749256,-21.335076,-26.610043,-20.368188,-12.470434,-3.665628,12.422454,18.802321,22.537233,15.803104,27.705928,30.218552,29.922829,30.608444,39.647531,39.922135,39.761831,43.069307,50.861591,53.330496,55.310956,27.105846,52.683105,76.306229,96.751213,53.491173,85.744171,103.344154,116.203651,43.956642,81.025314,101.166573,114.424782,34.457359,69.432392,88.649597,101.498909,25.856209,52.966576,68.773556,81.064224,-14.784778,-16.390844,-11.535656,-10.009371,12.703542,28.928092,35.881003,40.219093,30.546262,45.548524,51.537697,54.273734,43.294202,58.900877,63.19321,63.848876,51.362264,65.432157,68.308614,67.686109,1.869507,310.396551,-70.641403,292.382906
95,-15.859222,13.823632,0.606194,-0.307332,2.433529,5.562172,11.370735,16.048622,1.400185,30.299492,50.326424,60.639153,-6.509857,23.34446,42.930794,55.17025,-11.594925,10.478897,28.074417,38.530083,-13.555527,-20.463982,-26.599388,-33.506699,-20.84027,-28.553885,-30.302162,-28.152877,-11.956053,-1.294659,7.444321,15.252661,4.287084,17.612947,22.907674,26.365326,16.930234,27.2541,29.628095,30.954988,26.692357,33.327253,37.090014,39.857421,26.625824,52.164001,75.498276,95.629578,52.403412,84.632034,102.40654,115.061646,42.865677,80.229378,100.66452,113.864594,33.182659,68.725491,88.264847,101.038399,24.462547,51.867886,68.013096,80.160713,-14.8272,-15.982242,-10.665037,-8.663521,13.554215,30.255108,37.040491,41.215745,31.477334,46.259457,51.904432,54.608174,44.18773,59.498436,63.375189,64.141635,51.988475,65.593202,68.275825,67.746439,-13.946886,324.162338,-69.99238,292.017729
96,29.601746,-19.830836,0.1264,0.596879,2.995262,-1.36734,-11.488209,-21.534519,-25.712528,-4.687042,10.929565,18.454399,-36.387806,-10.604954,5.417404,17.811356,-43.733082,-26.474075,-10.449715,-0.910263,-47.970829,-58.970547,-65.700989,-71.876335,-20.05215,-27.795034,-28.309168,-26.879893,4.740332,24.279459,27.156781,27.389827,23.038029,39.541074,40.119119,39.636354,34.516257,48.937078,46.669603,44.757501,43.844275,54.478189,58.964727,63.780827,27.021103,52.329426,75.943623,96.231823,54.225941,85.720997,102.756214,115.141125,44.802074,80.694523,100.384426,113.392582,34.766293,68.775387,87.590961,100.194111,25.271244,51.78297,67.497368,79.938412,-15.042524,-16.759,-11.322123,-9.233663,12.682423,28.849113,35.666359,39.863905,30.130126,44.904653,51.263216,54.317144,42.6817,57.735153,62.218912,63.054519,50.718145,64.738638,67.574155,66.80845,15.658178,304.187794,-69.862661,292.4709
97,-17.073498,6.256119,1.457577,0.079473,4.005489,6.843739,11.212292,13.017941,-14.506531,12.591648,33.357754,44.434834,-23.874321,6.566677,28.486691,42.510052,-28.132153,-8.196831,12.634335,25.733814,-28.125687,-39.299984,-44.588184,-50.591526,-20.381588,-25.808338,-20.078826,-13.028349,-3.105058,13.992026,23.573837,29.867007,14.745813,28.470398,33.857813,34.108643,28.026906,37.433964,40.157651,40.970781,39.511619,47.539172,50.724567,53.129869,25.594025,50.285053,73.108234,92.950401,51.799278,84.205284,101.107635,112.655983,42.709465,80.078087,99.985428,112.50309,33.239708,68.252277,87.288551,99.714775,24.46209,51.274738,67.019863,78.971901,-16.12717,-17.798012,-11.552267,-8.522792,12.134697,28.586365,35.619614,40.255341,30.69261,45.143318,51.114768,54.183887,43.682982,58.715873,62.767874,63.596935,51.458841,64.840217,67.71791,67.038594,-1.433973,310.275705,-68.423738,292.382165
98,-8.483963,5.991642,0.086231,0.595521,3.663082,9.634438,22.895679,33.971272,-5.764217,23.929424,45.221958,56.579762,-13.418999,17.369099,40.141468,54.204769,-17.627907,6.73542,28.692799,42.496777,-17.517643,-24.936733,-29.246349,-34.496269,-18.784846,-24.799521,-23.715554,-21.044602,-3.384787,10.439833,19.220186,25.810437,12.06072,26.09628,30.271781,30.954,24.1052,34.571462,37.068711,36.802011,33.570797,42.614453,47.847739,50.912412,25.599804,50.504265,73.5145,93.188953,51.977806,84.523144,101.379147,112.847729,42.543468,79.751186,99.473934,111.806316,32.622585,67.337837,86.297436,98.638287,23.329754,49.815331,65.594158,77.542362,-16.295193,-18.101763,-11.917212,-8.904903,12.146615,28.39568,35.012113,39.292652,30.207622,44.743484,50.622617,53.592689,42.808411,57.934545,62.046382,62.930339,50.135839,63.869995,66.92275,66.334269,-9.924088,316.101903,-68.343658,292.812241
99,7.683506,-5.416808,-0.054417,0.221746,-2.231712,-0.475502,5.310001,3.802929,-14.929733,12.465591,31.650581,43.867836,-21.703434,11.285591,33.854942,47.78801,-23.488941,0.748215,21.90033,36.145363,-20.852737,-24.542313,-26.047726,-25.821419,-8.26239,-5.43805,4.466222,16.682306,5.561983,18.429349,25.171259,30.933931,17.489507,27.738964,31.721001,33.181646,26.299809,35.506796,39.11833,40.565822,33.338059,41.883081,46.28286,50.654789,25.852089,50.4883,73.387413,93.049049,52.368908,84.31263,101.13636,112.699471,42.886791,79.500389,99.218216,111.639977,32.861996,67.125835,85.918121,98.146706,23.325291,49.417133,64.964962,76.804962,-16.045412,-17.958625,-11.961981,-8.908608,11.434571,27.751129,34.653961,39.085294,29.571223,44.464496,50.694865,53.834441,42.410862,57.925777,62.306598,63.239585,50.168566,64.273843,67.440527,66.736943,-2.244101,310.570733,-68.401594,292.919625
100,8.260918,-4.132832,0.13876,0.245026,4.535179,4.36718,0.429039,-5.574532,-18.277359,5.361328,22.936134,32.544479,-28.386097,-1.461868,16.72863,32.147255,-35.48069,-16.159973,0.754166,12.123871,-39.789333,-48.660965,-55.157318,-60.17395,-22.364394,-29.961423,-30.198915,-29.791857,-0.759962,18.106518,22.048787,22.994248,18.600089,34.394115,35.978445,36.067736,31.128259,44.834257,43.502733,42.835149,40.994987,52.055227,57.035645,61.777953,26.115246,50.401325,73.223877,93.275928,51.994915,84.34267,101.399517,113.311787,42.68692,79.601383,99.593067,112.340183,33.096943,67.698784,86.530781,98.80949,24.265308,50.520687,65.909615,77.884998,-15.718135,-17.825553,-12.201943,-9.378591,10.969714,27.295226,34.335637,38.804329,29.124026,43.768322,50.152141,53.423307,42.119153,57.354277,61.834207,62.976219,50.215929,64.16016,67.304306,66.659323,5.99905,306.231624,-68.280602,292.958373
101,-11.2183,6.446373,-0.190086,0.0134,3.09557,7.776947,18.471222,25.137291,-10.532856,18.640366,39.598503,51.058044,-19.253826,11.754913,34.531517,48.887329,-23.647499,-1.711178,20.638733,34.978752,-23.837585,-33.077431,-36.820107,-40.798988,-21.071711,-26.882548,-21.553796,-14.136275,-4.526552,12.040281,21.663403,29.162867,13.076823,26.602633,32.460895,34.712994,25.902569,35.422383,39.14124,40.926629,36.329435,44.143085,48.60554,52.189349,26.846352,51.206474,74.163723,94.54771,52.621078,84.093647,101.008015,113.183613,43.305016,79.414501,99.328709,112.349911,33.451023,67.374744,85.959606,98.185215,24.215984,49.843769,64.973946,77.010441,-14.986454,-17.382988,-12.125126,-9.853019,10.928773,27.050941,34.423508,39.264617,28.91074,43.626543,50.218276,53.675866,42.01813,57.351498,61.95178,63.091878,50.429091,64.745739,67.751317,66.773932,-5.251093,312.394115,-68.502531,292.687891
102,-1.486588,1.138369,0.695114,-0.142149,3.167381,9.068985,22.338066,32.71946,-7.153015,22.127953,42.714386,54.602623,-15.869236,15.813789,38.248329,52.331543,-20.901775,1.919346,23.015327,37.223282,-21.679344,-26.474247,-29.261913,-31.798553,-18.098366,-22.99468,-20.135142,-16.09543,-0.214953,15.433898,24.48904,31.548656,14.689497,27.978988,32.775204,34.992353,26.278258,37.155038,40.372913,41.037718,35.530508,44.084978,49.157527,53.290235,26.08326,50.126266,73.112926,93.557911,52.507725,83.725033,100.508709,112.377033,43.352909,79.218464,99.011364,111.732616,33.559456,67.323761,85.504017,97.212582,24.515877,49.892635,64.881878,76.905613,-15.316263,-17.401945,-11.58728,-9.158142,11.766541,27.605522,34.873977,39.58152,29.910541,44.054041,50.557285,54.015061,43.050967,57.864212,62.127707,63.002216,51.451617,65.517064,68.418715,67.43287,-6.91083,313.389068,-67.980566,292.402326
103,1.218853,1.064762,0.027409,-0.099665,3.154736,8.715363,18.924694,21.277828,-8.937664,20.121403,37.759037,48.076458,-18.362389,15.685215,37.583141,50.659275,-22.612152,4.017849,24.055195,37.308941,-22.422352,-17.06686,-9.593525,-2.405491,-13.523772,-16.034174,-11.840703,-5.8448,-0.409343,11.08988,17.655678,23.000485,13.626896,22.762252,27.415392,29.082283,23.940696,31.999063,35.616217,36.707409,32.281325,40.684815,41.579393,41.746551,26.216469,50.502434,73.539162,94.121704,53.371983,84.846382,101.622734,113.49884,43.82658,79.32003,98.848572,111.566391,33.518372,66.68272,85.028572,97.167664,23.84943,48.628235,63.675041,75.764122,-15.150896,-17.161057,-11.417095,-8.574292,11.534483,27.51728,34.749118,39.361936,29.371336,44.104306,50.776252,54.215997,42.227216,58.008461,62.76491,63.911553,50.363327,65.381336,68.559321,67.604413,-5.812197,314.396789,-68.073378,292.245619
104,-10.148506,-12.896635,-0.48769,-0.338516,10.002308,18.219852,23.454838,21.80563,-0.866432,25.920582,42.241459,49.0452,-10.123386,19.938469,37.080631,49.592686,-18.561745,3.95256,19.577579,28.04369,-23.659744,-30.217667,-36.698399,-43.484573,-23.43107,-30.475372,-30.178044,-30.309449,3.121545,20.760921,24.235863,25.811487,21.99457,41.343568,42.630447,42.378134,34.595668,52.755229,50.29429,49.524942,44.882978,56.911403,61.103453,65.837795,26.28027,50.71003,73.642673,94.134121,53.283749,84.283161,101.130466,113.082333,43.901424,79.064198,98.717823,111.453266,33.79034,66.555634,84.833393,96.790524,24.427242,49.005547,63.768711,75.484371,-15.193627,-17.175198,-11.314281,-8.341369,12.259001,28.901478,36.685735,41.859493,30.123703,44.869084,51.760369,55.591426,43.097712,58.528275,63.312697,64.512508,51.45526,66.0475,69.244565,68.273664,-16.030054,301.415108,-68.630419,291.822058
105,-4.089775,-0.685306,-0.046864,-0.136407,10.220146,19.359398,26.829243,27.922611,1.406536,28.641186,44.197941,50.688457,-7.504692,23.067398,39.180279,51.307468,-16.166382,6.919842,21.804943,29.577198,-21.542816,-28.641815,-36.11927,-44.598885,-24.438528,-31.243918,-30.411584,-29.240302,3.898736,20.791734,24.285449,26.578736,22.344634,41.958602,43.870765,44.252259,35.070529,54.411808,51.540414,50.192711,45.908406,57.304012,62.250714,67.914647,26.346817,50.721245,73.746071,94.286842,53.359966,84.698982,101.681442,113.733788,43.858166,79.198151,98.857155,111.566734,33.574448,66.639233,85.077896,97.169952,23.987675,48.88979,64.01041,76.180687,-15.053083,-17.108075,-11.151198,-7.749738,12.299138,28.986323,36.473992,41.379383,30.034042,44.683586,51.445009,55.150404,42.884488,58.41731,63.221677,64.55845,51.091118,65.858729,69.137058,68.395003,-20.192699,300.709779,-68.750153,291.665628
106,-0.909576,-0.278309,0.016537,0.444726,10.340137,19.851894,27.550678,27.999172,1.527557,29.400272,46.292553,53.414097,-7.413998,24.097023,41.852474,55.419102,-15.958157,7.95599,24.474392,33.543377,-21.32658,-28.312798,-35.006905,-42.44957,-24.402404,-30.793695,-30.328591,-29.4279,1.857514,19.543079,24.05901,26.358719,21.056026,41.785886,44.283073,44.453628,34.491434,54.236931,52.803518,52.295559,45.497951,57.411458,62.841542,68.537338,26.278553,50.637131,73.738003,94.18047,53.385487,84.807987,101.909466,113.896465,43.960991,79.515095,99.187145,111.715336,33.653469,67.070732,85.314274,97.13728,23.984814,49.19323,64.27866,76.474056,-15.339173,-17.498338,-11.17948,-7.340951,12.03003,28.7019,36.281455,41.264775,29.86676,44.251086,51.026588,54.875862,42.833791,57.952268,62.637395,63.995101,51.117053,65.64464,68.78613,68.012089,-21.199579,300.401027,-68.830919,292.079912
107,-5.099888,1.348011,0.706787,-0.218164,12.271729,23.634796,33.394775,35.639992,7.472248,37.658272,53.735962,59.744225,-1.23745,32.03167,48.492165,60.366554,-10.399418,14.835491,29.101524,36.197205,-16.211929,-21.962185,-29.51128,-38.07415,-24.804029,-32.340852,-32.664671,-32.666215,2.176764,18.908779,22.465356,24.361093,21.413746,41.071743,42.694297,42.754874,34.629816,53.709829,51.143544,50.526842,45.284232,57.108325,61.987472,67.531424,25.966358,50.195789,73.323841,94.070148,52.98008,84.338436,101.398945,113.386745,43.619785,79.229336,98.893604,111.315022,33.356094,67.027931,85.195599,96.82806,23.802509,48.85952,63.771629,75.718288,-15.224935,-17.265168,-10.966935,-7.049118,11.598456,28.918953,36.817386,41.905065,29.544917,44.77226,51.880597,55.720608,42.73641,58.454545,63.18543,64.408397,51.186028,66.157848,69.317801,68.4612,-26.422977,301.697261,-68.247643,291.80997
108,-1.360073,0.31573,0.035763,0.492954,12.623577,24.085751,34.501133,37.496853,8.474236,40.134144,55.541439,60.802174,0.561562,35.064411,49.741573,59.787312,-8.106022,17.97163,29.984264,35.11797,-13.472271,-18.974133,-27.203121,-36.873951,-24.855776,-32.435454,-31.972881,-30.982158,2.504535,18.258794,21.235226,23.043586,21.706752,40.771204,42.3099,42.714612,34.939309,53.825796,50.291944,49.082809,45.807197,57.32476,61.520577,66.578738,25.912285,50.188522,73.436737,94.259148,52.981453,84.402695,101.375656,113.354187,43.781204,79.555664,99.216957,111.605301,33.749256,67.41703,85.604782,97.266769,24.401264,49.699574,64.502792,76.328773,-15.472368,-17.75911,-11.687809,-7.763756,11.483848,28.499112,36.196795,41.280336,29.656376,44.517539,51.544366,55.379684,42.884179,58.29665,62.954854,64.128729,51.308973,65.925296,69.000775,68.121449,-27.867479,301.910222,-68.296309,292.200155
109,5.220795,-2.002689,-0.896645,-0.009324,12.572765,23.087997,32.341976,34.620495,2.813931,30.503139,48.171558,57.121639,-5.352745,25.77776,44.621372,59.052715,-12.970448,11.373768,28.979702,39.185085,-17.838993,-23.661976,-29.755726,-36.348896,-25.015586,-30.367432,-27.487887,-23.673317,2.983162,18.573351,22.441458,25.47081,21.309079,40.402739,42.914005,44.628875,34.424187,52.760293,51.511823,51.726282,45.657637,57.290735,63.626575,70.413316,26.429729,51.486282,74.847794,95.589981,53.174629,84.853477,101.692543,113.65139,44.01638,79.882736,99.083862,111.367607,34.272709,68.002796,86.111641,97.962914,25.401134,51.063309,65.949326,77.891808,-15.306507,-17.305553,-11.215974,-7.125565,11.313725,28.336647,36.219272,41.32319,29.460319,44.240218,51.273961,54.979109,42.740548,58.000556,62.906009,64.173807,51.212581,65.592893,68.641449,67.760333,-22.901659,299.890058,-69.447927,292.173356
110,-0.247536,0.856787,0.045376,-0.337837,12.050514,22.233181,30.817623,32.506542,4.168282,31.416607,48.948956,57.655392,-4.549427,26.815739,45.605221,60.184078,-12.74334,12.092113,30.102367,40.485134,-18.161716,-23.680229,-29.365139,-35.837059,-24.8672,-30.810492,-29.024978,-25.898679,2.238638,18.29498,22.108871,24.603525,20.76759,40.572058,43.020462,44.092696,33.885477,52.276664,51.628593,51.882634,45.003083,56.464268,62.799613,69.228263,26.450672,51.380482,74.763279,95.773487,52.767448,84.526806,101.729221,114.027271,43.728161,79.645672,99.24345,111.87109,34.146652,67.837658,86.23106,98.343716,25.492802,51.060448,65.989952,78.095798,-14.837018,-16.795062,-10.879558,-6.699179,12.034785,29.544114,37.332508,42.283595,29.781791,44.712115,51.795505,55.51183,42.692938,58.17284,63.183454,64.432418,50.926306,65.413323,68.752723,68.246,-23.288641,300.696688,-69.541998,291.785362
