takenoko1/special-research/HandMotion_SimilarSearch_自分用/NewProject/handData/key/d4_feature_d2/145.csv
,vel_0x_L,vel_0y_L,vel_0x_R,vel_0y_R,posFromWrist_1x_L,posFromWrist_2x_L,posFromWrist_3x_L,posFromWrist_4x_L,posFromWrist_5x_L,posFromWrist_6x_L,posFromWrist_7x_L,posFromWrist_8x_L,posFromWrist_9x_L,posFromWrist_10x_L,posFromWrist_11x_L,posFromWrist_12x_L,posFromWrist_13x_L,posFromWrist_14x_L,posFromWrist_15x_L,posFromWrist_16x_L,posFromWrist_17x_L,posFromWrist_18x_L,posFromWrist_19x_L,posFromWrist_20x_L,posFromWrist_1y_L,posFromWrist_2y_L,posFromWrist_3y_L,posFromWrist_4y_L,posFromWrist_5y_L,posFromWrist_6y_L,posFromWrist_7y_L,posFromWrist_8y_L,posFromWrist_9y_L,posFromWrist_10y_L,posFromWrist_11y_L,posFromWrist_12y_L,posFromWrist_13y_L,posFromWrist_14y_L,posFromWrist_15y_L,posFromWrist_16y_L,posFromWrist_17y_L,posFromWrist_18y_L,posFromWrist_19y_L,posFromWrist_20y_L,posFromWrist_1x_R,posFromWrist_2x_R,posFromWrist_3x_R,posFromWrist_4x_R,posFromWrist_5x_R,posFromWrist_6x_R,posFromWrist_7x_R,posFromWrist_8x_R,posFromWrist_9x_R,posFromWrist_10x_R,posFromWrist_11x_R,posFromWrist_12x_R,posFromWrist_13x_R,posFromWrist_14x_R,posFromWrist_15x_R,posFromWrist_16x_R,posFromWrist_17x_R,posFromWrist_18x_R,posFromWrist_19x_R,posFromWrist_20x_R,posFromWrist_1y_R,posFromWrist_2y_R,posFromWrist_3y_R,posFromWrist_4y_R,posFromWrist_5y_R,posFromWrist_6y_R,posFromWrist_7y_R,posFromWrist_8y_R,posFromWrist_9y_R,posFromWrist_10y_R,posFromWrist_11y_R,posFromWrist_12y_R,posFromWrist_13y_R,posFromWrist_14y_R,posFromWrist_15y_R,posFromWrist_16y_R,posFromWrist_17y_R,posFromWrist_18y_R,posFromWrist_19y_R,posFromWrist_20y_R,posFromBody_0x_L,posFromBody_0y_L,posFromBody_0x_R,posFromBody_0y_R
2,10.326233,-5.699254,0.311394,-0.715379,7.951927,11.509438,12.102242,8.932343,-10.125504,11.888695,31.266403,45.158272,-20.136738,5.244141,25.028,42.108192,-25.15852,-2.289276,17.440681,32.27108,-25.558949,-22.307453,-15.510693,-8.049088,-16.355585,-27.645845,-31.665673,-35.934664,-13.848765,0.697409,10.554998,15.062654,1.199255,16.989823,24.914624,27.833195,13.890879,29.233201,33.682441,34.573191,24.471071,38.148355,40.422561,40.171607,26.313915,50.341587,72.049084,90.567913,51.866226,83.697567,100.720425,113.005428,43.073215,77.964878,97.785931,111.59277,33.821869,66.792583,85.55357,98.369808,25.183811,51.04002,66.11578,78.07703,-14.080823,-13.455662,-5.146959,1.177086,16.27111,31.762498,38.507927,42.705597,33.17121,47.707813,53.852164,56.862126,44.878532,60.432967,65.243386,65.736525,52.075296,67.177964,70.343785,69.27717,-1.073856,329.363421,-67.961998,299.601266
3,0.153351,6.345349,0.378227,-0.415889,7.07222,8.510399,6.338997,2.627563,-10.647526,11.348763,28.274918,37.879829,-18.348427,6.162415,25.112457,39.762955,-22.451591,-0.145111,18.942375,33.381958,-23.293476,-18.910217,-14.144783,-8.479843,-19.116013,-31.748789,-39.09715,-42.520716,-14.567478,-2.625195,5.692894,10.337451,-0.089847,12.503409,19.737408,23.635526,11.14632,21.672233,26.563854,28.222223,19.335166,28.980086,31.826039,31.373408,26.08366,50.139656,71.891956,90.25629,51.127625,83.250675,100.482731,112.85677,42.195053,77.631397,97.778606,111.51392,32.934494,66.495266,85.408459,98.073063,24.385815,50.821381,66.177235,78.186436,-13.958804,-13.339262,-4.813815,1.69721,16.565968,32.426315,39.212994,43.583873,33.450445,48.414608,54.612805,57.713232,45.047852,60.864047,65.59419,66.075411,52.145444,67.416815,70.600543,69.637113,-1.046333,335.813838,-67.709599,299.290446
4,-1.903152,-0.877473,-0.031872,-0.088921,8.226929,11.095734,11.320839,8.765602,-7.800293,15.309219,32.456474,42.289009,-16.476288,9.573097,28.642616,43.999443,-21.12711,3.416405,22.541084,37.375603,-21.876354,-19.857788,-17.628536,-13.582249,-17.665187,-30.983948,-37.553945,-39.499269,-15.781615,-3.03281,5.673381,9.414591,-0.444232,13.594291,20.571038,23.690854,11.507313,23.986762,28.331213,29.48119,20.634085,30.596526,34.53824,35.712672,25.949821,49.790726,71.359406,89.570045,50.83952,83.199463,100.66864,113.230362,41.878166,77.502136,97.576904,111.412125,32.691879,66.334648,85.320969,98.195,24.180393,50.556221,66.093979,78.529358,-13.759783,-13.44819,-4.861363,2.050175,16.541453,32.045932,38.838292,43.269069,33.440627,48.103262,54.236992,57.511184,45.122446,60.657862,65.539973,66.16112,52.355704,67.630965,70.907998,69.978469,-3.068275,335.038346,-67.86026,299.303506
5,-0.648537,0.001853,0.085258,0.746501,7.848701,10.584641,11.114502,8.829575,-7.38018,15.655975,33.037491,43.168259,-15.846634,10.418243,28.809357,43.699493,-19.972401,4.854012,23.084793,36.706467,-20.512676,-13.739433,-4.882622,3.851509,-17.874645,-31.302828,-37.714064,-39.973944,-15.641071,-3.500075,4.592131,7.943264,-0.0649,13.260839,19.842198,22.273435,12.360086,24.746231,28.200425,28.189804,21.696995,32.56513,34.814512,34.240233,25.938549,49.57695,71.290054,89.324226,51.338882,83.520927,100.743828,113.024254,42.383423,77.768211,97.622108,111.161957,32.96957,66.361313,85.195541,97.79892,24.145718,50.291405,65.568581,77.626305,-14.403654,-14.524129,-6.231666,0.508144,15.936176,31.200939,38.046528,42.663113,32.649542,47.030287,53.335807,56.76456,44.292644,59.543699,64.447917,65.156009,51.570486,66.581394,70.014778,69.413082,-3.861837,335.127467,-67.920027,300.137275
6,-0.768814,-0.094478,0.382347,-0.423731,7.069702,10.396729,11.513557,10.437126,-4.129486,16.691551,32.96608,42.585297,-12.870941,10.877953,28.355713,43.573494,-17.856045,4.250107,21.949081,35.962143,-19.939156,-17.988796,-14.297848,-9.041805,-18.544266,-32.091195,-38.547448,-40.234716,-15.740365,-3.484823,4.711556,8.105236,-0.343394,13.068363,19.408957,21.872119,12.04627,23.736303,26.98493,27.259534,21.521624,31.761263,33.683368,32.87629,25.651073,49.278316,70.702286,88.978958,51.241894,82.93087,100.060158,112.364159,42.28466,77.14119,97.045441,110.599251,32.705269,65.624886,84.371567,97.010422,23.718109,50.004387,65.335007,77.328987,-14.125901,-13.850741,-5.438482,1.146582,16.266294,32.136829,39.134632,43.623146,33.181646,48.237384,54.775332,58.125786,44.766085,60.59358,65.602464,66.260045,51.888871,67.057366,70.390406,69.549119,-4.784861,335.134337,-67.691889,299.814892
7,-2.761574,-1.828738,-0.070095,0.34642,8.101158,12.672157,15.022202,15.35511,-2.490005,19.650764,36.277084,46.14727,-11.582336,13.493271,30.967598,46.082153,-16.722507,6.832237,24.969978,39.069901,-18.714924,-15.782375,-11.491814,-5.634499,-18.333142,-31.5255,-37.026288,-38.842368,-15.056788,-2.19393,6.317376,9.405452,0.421447,14.376669,20.920607,23.363577,12.867674,25.599313,28.848866,29.003551,22.48808,33.596732,35.502967,34.660136,25.430317,49.189339,70.809574,88.946514,51.528397,83.369579,100.362225,112.337208,42.605381,77.714825,97.549267,111.009808,32.998638,66.06966,84.852047,97.351856,23.952427,50.017433,65.299587,77.147198,-14.690794,-14.633057,-6.18171,0.529819,16.131554,31.613494,38.348303,42.695717,33.017637,47.533985,53.755216,56.986862,44.574597,59.91451,64.69992,65.256353,51.597594,66.715392,70.038244,69.183865,-7.618189,333.308856,-67.833738,300.164569
8,0.73082,0.179447,0.112495,0.09948,8.100128,12.464333,15.653687,16.864471,-3.696442,18.225746,34.512634,43.727875,-12.0924,12.729836,30.571632,45.414047,-16.985779,7.025757,25.205612,39.335175,-18.984833,-11.431446,-2.018166,7.646141,-18.691788,-32.173508,-37.286072,-36.875555,-15.289587,-2.845088,5.491588,10.055684,0.412987,14.743343,22.04218,25.947214,12.836676,25.648034,29.836502,31.182291,22.606455,33.631065,35.325188,34.393497,25.609646,49.33588,70.889568,89.256992,51.696339,83.449688,100.188274,111.97649,42.637539,77.874928,97.698841,111.103306,32.90514,65.995731,84.766102,97.222652,23.768406,49.604416,64.773502,76.562405,-14.693511,-14.723398,-6.067287,0.596571,15.986626,31.526735,38.143353,42.47922,32.984971,47.490636,53.742927,57.014279,44.522726,59.836149,64.649347,65.308841,51.496818,66.55762,69.91641,69.117668,-7.003641,333.51132,-67.837515,300.287066
9,0.243073,0.661717,-0.083885,-0.244099,8.289871,12.768745,15.48008,15.808182,-3.825302,18.530273,34.860649,43.749504,-12.440128,12.661629,30.1577,44.819298,-17.40675,7.145462,24.789505,38.497925,-19.340286,-12.300968,-3.910904,4.923477,-18.277072,-31.608369,-37.014617,-36.91242,-15.390734,-2.267599,6.012761,10.075382,0.290536,15.020108,21.803823,25.037693,12.608817,25.869224,29.642112,30.283205,22.130854,33.415062,35.072937,33.807733,25.55191,49.289989,70.906162,89.576855,51.280518,83.129025,100.136662,112.158909,42.27562,77.830982,97.855396,111.363888,32.7812,66.273251,85.108395,97.486782,23.939667,50.1828,65.441151,77.146397,-14.64269,-14.386611,-5.648434,1.006964,16.191143,31.764659,38.454081,42.896961,33.209063,47.731895,53.851361,57.141855,44.798751,60.196957,64.849542,65.451361,51.856946,66.895333,70.134512,69.225917,-6.785345,334.205611,-67.946177,300.07554
10,-1.068192,2.175097,-0.142879,-0.390201,8.782654,13.757973,15.16983,14.387169,-0.968628,21.204987,37.541771,46.331978,-10.237484,14.9049,31.371689,45.194664,-16.162491,8.23391,24.844208,37.450562,-19.391956,-14.618111,-9.33918,-2.824287,-17.751514,-31.200631,-38.397085,-41.578775,-16.087094,-3.569421,4.419971,8.035828,-0.955341,13.212056,19.2263,21.768317,11.196276,23.856963,26.656974,26.596273,20.545659,31.233111,32.559634,31.058049,25.727348,49.373817,70.779762,89.326744,51.284981,83.310814,100.495949,112.746506,42.33696,77.72644,97.716179,111.413727,32.962704,66.275139,85.246811,97.957191,24.196072,50.237103,65.645027,77.696915,-14.70938,-14.288737,-5.348697,1.292004,16.438886,31.69556,38.324343,42.721343,33.477121,47.663538,53.529333,56.771168,45.102501,60.290323,64.888815,65.601723,52.184964,67.281952,70.488219,69.611672,-7.888041,336.401363,-68.12356,299.705995
11,9.206657,-4.994126,-0.223904,-0.197046,6.016502,7.267342,7.315865,3.5923,-13.222618,9.09462,27.366371,39.458313,-21.61932,3.440666,22.75074,39.51416,-24.921684,-1.885643,17.945251,33.050652,-23.877525,-25.293903,-23.041706,-18.997192,-16.924615,-28.517514,-33.297428,-35.584292,-11.655761,2.776484,11.125448,13.694451,2.895662,18.526853,24.09569,25.175396,14.582236,28.816941,31.127889,30.109933,23.524313,35.011249,37.563455,37.182023,26.053391,49.834499,71.231174,89.666805,51.036015,83.149395,100.443363,112.860889,42.214909,77.469692,97.460003,111.264896,33.087273,66.137524,85.091343,97.959309,24.573498,50.084381,65.344448,77.535381,-14.494057,-14.227974,-5.522772,1.068282,16.315323,31.23978,37.802738,42.030418,33.261365,47.432591,53.443994,56.488165,44.951892,60.196833,65.053071,65.681073,52.037319,67.451889,70.960856,70.056151,1.306486,331.43206,-68.359594,299.533773
12,-7.308426,6.259639,0.42057,0.166047,6.516266,9.055023,7.815742,5.418892,-7.97533,17.586594,34.333305,44.390945,-15.445461,11.970406,30.438652,45.348129,-19.448433,5.61264,23.414154,37.538795,-20.717354,-12.768917,-6.021194,1.699333,-18.778486,-31.694819,-39.572011,-43.170392,-15.580061,-5.371483,3.110924,8.798322,-1.402969,9.838817,17.631842,22.049096,10.131637,19.197833,24.391351,26.216817,18.272564,27.978062,30.660685,29.550474,25.879097,49.707813,71.152668,89.632931,50.738754,82.8269,100.133343,112.622395,41.831417,77.077274,97.085781,110.769138,32.631912,65.816746,84.689884,97.439289,24.081001,50.072365,65.403957,77.612743,-14.37457,-14.142388,-5.331284,1.144606,16.085674,31.222676,37.901847,42.187387,33.15145,47.420364,53.468817,56.492982,44.996167,60.325151,65.029297,65.499218,52.233871,67.311222,70.426468,69.325953,-6.038074,337.789527,-67.975159,299.797648
13,-1.367455,-2.948459,0.082855,0.161354,8.16227,12.984123,16.107903,16.352463,-3.267403,17.708817,35.177193,46.831512,-12.763252,11.895447,30.842056,47.574692,-17.961559,5.495682,24.566002,39.528809,-19.499817,-16.694469,-13.219585,-8.060818,-17.554345,-29.698614,-35.791527,-38.981183,-15.133173,-4.034154,4.136043,7.035039,0.064406,12.88305,18.990722,20.686635,12.415847,24.78044,27.868393,27.561061,22.000252,32.696411,35.529767,35.37607,25.456181,49.048805,70.656567,89.372005,51.365376,83.844967,101.202564,113.522358,42.719936,77.697086,97.419605,110.988064,33.327141,66.234341,84.815426,97.521687,24.40979,50.22337,65.176563,77.296085,-14.578531,-14.866226,-6.348683,1.010792,15.885479,31.240336,37.976503,42.321571,32.734758,46.833921,52.909482,55.877145,44.431212,59.554938,64.213636,64.627611,51.691455,67.049524,70.115123,68.950757,-7.436771,334.827422,-67.923546,299.945355
14,-2.540016,0.60466,0.314255,-0.463375,7.994041,13.310623,16.81675,18.241653,-0.702324,20.859718,36.742516,45.97126,-8.69379,15.223045,32.788811,47.928772,-13.745499,9.125748,27.292671,41.541481,-16.054115,-10.632305,-4.199753,3.086815,-17.776956,-31.401937,-38.165521,-39.324885,-14.972067,-4.318268,3.271352,7.068693,0.097627,13.273745,19.935503,23.156775,12.211082,24.30243,27.653316,28.3724,21.610606,32.37253,34.641178,34.254497,25.152569,48.798923,70.479527,89.14175,51.125336,83.672504,101.015339,113.149281,42.188644,77.573261,97.26717,110.268917,32.586136,66.168652,84.584827,96.742229,23.647957,50.519943,65.742817,77.607021,-14.463799,-14.178389,-5.500294,1.418222,16.151561,32.340976,39.329393,43.819266,33.21956,48.195703,54.575693,57.831422,44.875568,60.529483,65.048007,65.552014,51.969764,67.044213,69.839284,68.698445,-10.01667,335.463744,-67.649174,299.513643
15,4.756393,-0.392115,-0.714169,-0.079288,7.226257,11.233635,13.231201,12.338562,-4.317513,16.518631,33.007851,43.074989,-13.847294,9.637184,26.921654,42.797241,-19.168682,1.485214,19.373932,34.013214,-21.082764,-22.550755,-24.363613,-23.696423,-18.284976,-31.462329,-38.502061,-39.57269,-15.277422,-3.259681,4.869329,7.908437,0.088303,13.308572,19.31732,21.510262,12.46006,24.105817,27.452072,27.671595,21.962522,31.118873,32.558769,30.873786,25.500469,49.296055,71.229973,89.957771,52.013855,84.559364,101.856651,114.048157,43.304901,78.34568,97.962456,111.456985,33.825188,66.667328,85.2491,98.074608,24.871445,50.548725,65.554047,77.79808,-14.553275,-14.486894,-5.825163,1.414331,16.640563,31.997952,38.735663,43.142913,33.346828,47.74758,54.014629,57.256094,44.715449,60.085559,64.95427,65.609257,51.632977,67.25083,70.699961,69.950743,-5.352974,335.07748,-68.456039,299.440206
16,-2.252083,0.073359,0.106544,-0.261945,6.596832,10.136833,12.344055,12.033806,-5.843182,16.8116,33.535423,43.233147,-13.341866,12.790375,30.621986,45.701981,-17.055187,7.82032,26.155128,40.291214,-17.445145,-9.604111,-0.374908,8.9114,-18.088672,-31.738724,-38.711951,-39.437209,-15.564624,-4.782878,2.790872,5.866351,0.258364,12.975985,19.418096,22.090716,12.778754,24.78254,28.281812,28.472312,22.391132,33.315459,35.624801,34.982535,25.425224,49.340973,71.241875,90.172806,52.151756,84.482574,101.591835,113.548393,43.298721,78.435974,98.146019,111.334076,33.662968,66.716881,85.227814,97.632751,24.696236,50.74831,65.908012,77.928314,-14.386673,-14.127568,-5.523636,1.475403,16.673352,32.764892,39.703477,44.136724,33.598708,48.573862,55.058582,58.290351,45.083914,60.800444,65.606046,66.211818,52.056894,67.415271,70.557997,69.645696,-7.675867,335.166833,-68.420305,299.194254
17,4.897499,1.002271,-0.308018,0.478998,6.339111,8.810921,9.679756,7.370796,-9.994755,13.674774,31.37558,41.249771,-17.990513,8.964043,26.839142,42.025108,-21.547737,2.989197,21.292191,35.373802,-21.849747,-23.134747,-24.665279,-24.334087,-18.468684,-32.083909,-39.096903,-41.679614,-15.804524,-4.168091,2.814769,4.695069,0.219893,13.476348,18.478008,19.573213,12.559478,23.791631,25.942213,24.928271,21.846925,30.538357,31.953924,29.842369,25.712013,49.621811,71.603336,90.101109,52.247601,84.966488,102.099667,113.991222,43.664474,79.269276,99.068127,112.499371,34.479218,67.811794,86.402721,98.940525,25.833778,51.756592,66.813068,78.871822,-14.945205,-15.012328,-6.211474,1.02376,15.675589,31.417745,38.17324,42.413517,32.758223,47.393379,53.613684,56.68978,44.440351,59.696099,64.555671,65.160578,51.620195,66.906016,70.334893,69.603335,-2.880249,336.165692,-68.830204,299.66984
18,-2.063141,0.820231,-0.291252,-0.545256,7.015228,10.190506,11.562767,9.982681,-7.844925,15.365181,32.946739,43.175697,-15.485458,11.44249,29.930649,45.424805,-19.290905,6.642723,25.213852,39.692116,-19.907913,-14.932365,-8.519211,-0.88932,-18.737977,-33.100753,-40.425525,-42.505402,-16.893245,-6.844971,0.317768,2.940246,-0.924959,11.159967,17.421211,19.967675,11.762898,22.724152,25.743376,25.599066,21.511868,31.330121,33.462857,32.668623,25.823765,49.949856,72.331638,91.527386,52.548294,85.013523,102.178288,114.219189,43.941193,79.410839,99.411907,112.925663,34.60041,67.880917,86.575871,99.155903,25.852032,51.969852,67.121601,79.202785,-14.205868,-13.920148,-5.344498,1.276628,15.970571,31.97177,38.935734,43.327671,32.988923,48.092826,54.723524,57.979808,44.603125,60.195598,65.173423,65.732881,51.656998,66.869892,70.258569,69.427902,-5.049534,336.95602,-69.2276,299.094681
19,0.515556,-3.127103,-0.027924,-0.458312,7.078171,11.242104,15.203476,16.043129,-7.506866,16.112823,34.854469,47.466316,-17.354736,10.314102,29.129105,46.591072,-21.74984,2.053642,21.498871,37.056656,-22.458801,-27.099323,-31.994934,-33.941803,-18.774781,-31.452387,-37.198201,-39.653953,-15.770623,-2.192016,6.372643,9.054772,0.763173,15.049872,20.251048,21.395777,13.685065,25.464388,27.426137,26.148027,23.097927,31.129803,32.477753,30.417018,25.861473,50.063267,72.593708,91.927929,52.870388,85.427227,102.642689,114.59753,44.053516,79.61935,99.687595,113.075466,34.43716,67.695179,86.442204,98.897152,25.442848,51.322746,66.542187,78.661938,-14.271879,-13.825361,-5.165545,1.568522,16.78827,32.505664,39.388241,43.893057,33.70109,48.691805,55.317686,58.776821,45.10281,60.83311,65.700771,66.344272,51.89307,67.419162,70.831428,70.195892,-4.66753,333.782574,-69.389076,298.590026
20,-6.951942,2.34701,-0.157242,0.341356,7.56031,11.964569,16.33255,20.01503,-1.982117,24.182167,41.392021,50.654182,-10.175686,18.746109,37.588348,52.001381,-15.179729,12.365799,31.148071,44.460068,-16.213646,-9.344273,-2.55352,5.032768,-18.507216,-33.09291,-39.983639,-41.250572,-17.326486,-5.2218,3.410414,8.251893,-1.356965,13.107019,20.421479,24.94482,11.060302,24.051291,27.928044,29.060423,20.596912,30.800056,33.633041,34.046275,26.052704,50.366192,73.010731,92.165852,52.821522,85.785999,102.854633,114.509296,43.837967,80.193729,99.984684,113.077641,34.276199,68.315105,86.87067,99.092274,25.481701,51.942844,67.296467,79.325352,-14.414152,-14.203398,-5.612804,1.193759,16.238259,32.300961,39.180389,43.476304,33.448346,48.500873,54.834489,57.955479,45.066624,60.650946,65.303098,65.849651,51.986869,67.15771,70.367991,69.62501,-11.754026,336.119225,-69.680872,298.921024
21,7.859573,-6.271928,-0.523109,-0.394462,6.618004,10.892258,15.552292,17.514267,-8.650818,14.477577,32.621498,45.444946,-18.409138,8.08445,27.405624,45.445518,-23.035297,1.008339,21.389694,37.918968,-22.958221,-23.793068,-22.659931,-18.910332,-18.198155,-29.363062,-32.543455,-33.087723,-14.078723,1.281815,10.960142,14.562167,1.98929,18.291522,25.525583,28.087051,14.724386,29.683732,33.090996,33.267479,24.483112,35.647278,37.649658,37.256988,26.228771,50.747566,73.395481,92.431011,53.468513,86.363811,103.48875,115.373096,44.651585,80.564747,100.473576,114.009991,35.100746,68.542843,87.351093,100.088367,26.158848,52.30505,67.633953,79.940472,-14.460403,-14.130717,-5.50437,1.49084,16.439195,32.448977,39.261776,43.423198,33.502624,48.549471,54.950457,58.054526,45.00123,60.611734,65.613641,66.222068,51.86695,67.255399,70.739728,70.031266,-4.080563,329.801448,-70.390091,298.480713
22,-5.004044,9.025131,0.049152,-0.066752,6.182899,9.574013,11.31031,11.512184,-4.316082,22.227173,39.449272,49.252396,-12.073917,16.513939,34.782028,49.754105,-16.536255,10.175629,28.370705,42.774925,-17.893066,-9.686565,-2.895927,4.935379,-17.86495,-32.33054,-41.00956,-45.412735,-18.357471,-8.071273,1.065071,7.108028,-2.983471,9.147521,16.53497,20.804949,9.191858,19.388765,23.677393,25.279445,17.776029,27.033281,29.47131,28.942789,26.525173,50.952358,73.703384,92.916298,53.639774,86.377716,103.641701,115.60524,45.131721,81.014786,101.078682,114.613724,35.734005,69.173813,87.798271,100.211678,26.873817,52.943115,68.153915,80.288773,-14.227542,-13.930769,-5.311276,1.33066,16.863235,32.150476,38.753324,42.933518,33.880166,48.540085,54.99609,58.329748,45.387788,60.496693,65.354722,65.985564,52.326373,67.215323,70.51897,69.829774,-9.18889,338.764968,-70.445223,298.352349
23,8.688354,-8.442022,-0.271626,-0.354694,7.039261,10.577774,12.899094,11.068268,-11.080627,11.179047,28.64994,41.292343,-20.114937,5.062637,23.405342,40.208015,-24.3437,-1.203117,17.425804,32.202072,-23.990192,-19.603786,-11.801491,-3.250351,-15.789333,-25.319213,-28.576917,-30.668157,-13.719274,0.603116,9.937123,14.653867,0.08219,15.768462,23.684062,27.108493,11.865095,27.559394,32.363082,33.53387,22.172597,34.172801,37.485958,38.884667,26.912727,51.603069,74.433002,93.825588,53.442249,86.263447,103.505459,115.637226,44.838066,80.998478,101.038456,114.504147,35.647774,69.436283,88.214436,100.921383,27.158947,53.698826,69.048901,81.342945,-14.253662,-13.910515,-5.255701,1.530052,16.58332,32.266381,38.953395,43.286854,33.904064,48.991665,55.325899,58.49141,45.566185,61.300992,66.228737,66.98166,52.529655,67.723468,71.047678,70.454565,-0.58136,330.266243,-70.797672,297.940952
24,-6.346321,8.379963,0.083542,-0.399402,6.567879,9.536476,10.663948,9.759521,-7.709198,17.71328,34.778481,44.560432,-15.540276,12.656136,30.751762,45.55481,-18.993759,5.918427,24.34227,38.951683,-18.828678,-11.342125,-2.573662,7.231064,-15.020602,-28.667567,-37.828735,-45.184073,-19.094956,-8.981474,-0.031307,4.870872,-4.664132,7.384855,15.394316,19.694738,7.680146,18.747055,23.416806,25.266601,16.606538,26.03737,29.963338,31.817023,26.827526,51.545849,74.276333,93.664684,54.571781,86.957417,103.854046,115.546246,45.834846,81.421337,101.077824,114.359837,36.187363,69.074306,87.580776,100.202122,27.120094,52.363586,67.425671,79.704609,-13.786273,-13.566689,-5.043341,1.60619,16.45772,32.35561,39.229234,43.5312,33.386533,48.812342,55.576112,58.612935,44.945284,61.06103,66.355819,67.009571,51.973408,67.721492,71.529516,70.896266,-6.970625,338.64653,-70.757074,297.541875
25,8.984184,-6.148056,0.874557,-0.653319,6.351471,6.428604,6.696739,4.808693,-18.9604,5.771942,24.351196,37.62394,-25.683403,0.978355,20.477829,36.090546,-27.330666,-4.068146,15.292969,29.359474,-25.131111,-19.383488,-12.117462,-5.082664,-15.347447,-23.66671,-27.239897,-27.668631,-12.763872,0.873521,7.908128,11.396224,-1.970826,12.684584,19.041481,22.154689,7.955059,21.822843,25.065357,25.873237,18.129489,27.771198,30.173907,31.981465,26.815968,51.645584,74.159946,93.577938,53.763599,85.982265,102.746716,114.189548,45.246906,80.97868,100.516949,113.712788,36.29179,69.613323,87.796612,100.166187,28.251629,53.828602,68.737049,80.820065,-13.871983,-13.213662,-4.242439,1.917103,17.46209,33.112053,39.700204,43.814202,34.660815,49.42398,55.342695,58.253795,46.187085,61.426963,65.937769,66.475924,53.036873,67.738905,70.78635,70.01237,1.944494,332.524409,-69.951582,296.914491
26,-31.388741,-28.356777,1.341476,-2.67651,17.047577,32.974434,42.234764,43.918877,21.978722,47.975235,64.667473,72.867622,11.292858,40.327721,58.24379,71.324844,-0.081253,24.596443,42.350235,53.937035,-9.821949,-4.322262,-1.63559,1.152077,-21.499023,-26.299315,-25.600548,-24.020849,-0.826097,20.755981,25.813092,26.985856,19.263535,41.081438,43.46982,42.364364,33.082104,51.133602,51.565114,50.852823,43.19182,57.041017,59.109409,58.984549,26.208515,50.798092,72.499409,90.397396,52.189465,84.955616,102.362423,114.986744,43.637009,80.35738,100.286465,114.337978,35.368252,69.359837,88.155613,101.702213,27.89875,54.375515,69.930668,82.221851,-15.076363,-13.900759,-4.878159,1.149175,16.496252,31.683828,38.488106,42.553382,34.031455,48.485682,53.951891,56.237891,45.751436,61.182123,65.8683,66.531005,52.613883,67.13443,70.031883,68.888142,-29.520979,304.121196,-68.686838,294.191544
27,59.753494,-18.277937,1.106815,-7.420177,-8.678169,-24.277382,-41.297264,-61.656418,-50.336666,-38.982811,-14.99794,2.620697,-56.689281,-39.30027,-12.958031,9.92569,-58.687763,-41.423721,-14.906273,6.153603,-57.307491,-55.534687,-43.202133,-29.514198,27.208652,44.350875,59.845535,71.104982,28.431248,50.168381,60.046842,64.34467,25.782403,47.636429,60.025044,62.748422,21.521439,42.727889,53.150185,57.788753,18.151534,35.686304,44.524147,51.426731,26.945915,51.637173,72.328033,89.114113,55.115089,84.850273,100.834007,112.372856,45.787983,78.441925,96.754417,110.375061,35.342216,65.786476,83.787231,97.159424,24.888668,48.126926,61.937599,73.045578,-15.422845,-14.43348,-6.938647,-2.25988,10.488925,28.922843,39.009526,45.766935,27.479242,47.735538,57.423437,62.316293,40.252253,60.265129,67.869507,70.326124,49.197418,66.503279,71.257691,71.316539,30.226278,285.841823,-67.58626,286.769932
28,28.408813,-7.944808,0.443172,-13.158951,-27.434349,-55.219345,-76.41901,-95.802097,-82.9949,-87.679482,-67.322845,-48.161888,-77.143879,-73.496704,-50.736809,-28.107491,-67.264824,-61.217079,-41.255722,-21.760826,-54.49379,-54.745789,-44.116745,-30.78392,38.516511,57.130987,66.810796,76.45158,37.406918,53.728169,66.990737,75.720208,22.768735,40.831719,59.610513,70.366262,8.127095,24.917094,43.235909,54.298743,-5.507025,8.023787,23.260824,35.305057,28.212776,54.605885,75.30241,92.171345,55.285549,81.38586,96.010494,106.350574,45.932293,74.366398,90.742664,102.800961,35.532589,61.171246,76.581173,87.503414,24.527836,45.669422,57.8829,67.139339,-16.575972,-14.502023,-5.619781,-2.130451,6.849109,25.481987,37.60915,47.121616,23.5429,45.919274,59.487939,69.462544,37.351589,59.32572,71.190321,78.639582,48.828459,67.458373,74.422585,76.832394,58.590631,277.906371,-67.187548,273.620336
29,-2.941246,-11.467299,5.16798,-23.390624,-22.494392,-45.689163,-58.824234,-62.404518,-70.774612,-85.66206,-77.968712,-65.861206,-65.051537,-75.795135,-64.514465,-47.760201,-54.765358,-63.740616,-53.492317,-38.237,-39.976845,-48.331261,-43.953209,-34.418106,29.837058,49.842524,64.066546,72.845973,30.801291,41.651888,53.167907,58.626212,20.602037,34.080485,48.108387,52.127166,10.386172,23.790334,35.408612,39.371445,0.896925,13.511052,24.670339,31.291527,29.269238,54.219131,72.039871,86.982307,48.542633,77.101936,89.079666,94.949341,37.760067,66.916695,79.844856,82.483978,25.666981,49.555435,59.90284,62.370529,13.739433,33.792858,42.181377,43.825836,-6.858742,0.700867,11.414564,17.530448,7.147363,26.863776,40.716678,50.847142,21.183108,51.461497,70.504706,82.403949,33.962727,66.991169,82.02616,90.613666,45.519069,69.56857,75.985364,76.480726,55.389605,266.571017,-62.279348,250.361658
30,-4.446945,-4.81363,-16.431141,-53.786029,-31.116257,-52.101173,-65.60051,-69.567261,-50.462379,-61.994591,-62.549858,-60.110664,-36.253052,-49.024887,-49.769096,-47.457848,-23.250732,-36.341629,-36.82045,-35.498199,-11.897507,-20.777092,-23.707466,-24.687881,1.530422,10.455703,22.026742,32.003818,17.399599,40.250092,33.826196,24.461932,21.077762,49.953737,44.627764,36.247986,25.424682,52.816609,47.525834,39.39806,29.103093,51.219435,48.570404,42.690406,46.506672,76.063328,90.20319,97.609234,93.953419,117.024021,114.398746,105.710621,79.158039,104.00671,98.132229,87.587872,59.186211,83.457584,80.021152,72.876377,34.944878,58.609314,62.399769,60.386353,11.28779,27.451084,44.64561,62.933241,32.033767,73.219193,98.570392,112.89692,34.845078,80.422749,106.150811,119.245418,40.402554,81.257182,104.026041,115.766647,47.997669,78.481254,93.339638,100.589507,50.879002,262.143945,-78.774147,196.962186
31,50.190697,-81.111204,-11.399403,-40.951391,-34.586678,-59.893684,-73.37265,-81.004829,-74.132767,-98.569908,-107.476959,-113.574371,-64.712334,-85.575371,-88.584366,-88.485718,-51.424828,-71.406555,-74.742165,-74.65416,-37.292061,-54.162941,-59.593849,-62.167969,-4.811654,9.558593,27.072739,43.972777,25.275308,55.324479,72.166842,84.371564,38.07691,75.619308,90.903461,96.616918,49.550383,83.584123,96.06419,99.240631,58.513702,84.492101,95.303919,99.676033,34.704094,64.411526,83.696365,91.971016,70.013008,103.928719,105.488892,99.575958,58.236523,90.21801,92.679863,89.420929,44.062843,71.951466,69.884834,63.281136,29.85117,52.973728,53.30143,48.01054,-10.081311,-3.217443,13.71242,30.947022,3.724291,26.753181,43.036888,50.143681,17.396882,56.966484,78.532754,89.007106,30.6584,65.711824,72.68746,72.060137,42.312309,65.269136,65.577209,60.983225,100.324173,181.791314,-90.919075,156.769368
32,9.142685,-31.465787,-7.588291,-41.969378,-34.943848,-58.787155,-71.206398,-77.161674,-71.551323,-97.312546,-108.041954,-115.165329,-62.55249,-82.300644,-81.75499,-79.027405,-50.916138,-69.236183,-68.779564,-64.934692,-39.114189,-54.254494,-56.000748,-54.068871,-5.839489,6.471011,24.231417,39.657103,12.729909,37.481142,53.308266,65.372815,26.510872,60.081731,72.033955,75.042065,40.036127,70.936095,78.854041,77.338809,51.331574,75.852909,84.187795,85.065762,32.934093,59.873371,80.659504,92.738514,67.774658,97.00304,99.86475,92.759914,62.015991,88.020229,85.934772,76.783104,52.262077,75.395565,72.986183,64.571056,41.530094,60.675716,60.635777,55.544872,-18.415084,-19.394168,-11.38199,-0.076015,-14.522616,-5.882066,2.539331,6.01659,1.49294,21.504241,27.347745,25.958484,17.749569,38.800779,42.834316,40.094326,32.686809,52.106819,53.018441,48.063835,108.782129,152.129396,-99.192095,116.603859
33,7.084236,-31.270964,-9.07299,-50.400316,-33.680248,-60.894985,-78.154679,-87.6511,-68.806458,-100.692845,-108.27713,-109.018707,-60.347958,-86.986485,-86.371479,-81.331616,-49.714222,-73.195954,-70.924702,-64.376049,-38.530712,-57.112026,-57.463303,-53.326321,-9.608518,-1.581212,13.311258,26.556907,-2.379969,15.405493,30.186365,38.997022,10.88774,39.579266,52.138744,54.351879,24.896485,52.665799,61.370184,59.832166,37.524243,60.417282,68.952826,69.390636,34.164963,67.289257,92.410297,107.722721,70.593052,104.810085,96.239948,86.547489,60.972061,93.68288,82.244568,72.159462,50.219822,80.994015,70.93277,60.929317,39.620533,65.549984,58.577385,50.129642,-19.169242,-25.835971,-25.380222,-22.647797,-27.2026,-10.572103,-4.425436,-6.535571,-13.305794,11.781979,15.670279,10.884035,3.304666,26.473297,31.088214,27.728436,21.398617,40.296127,41.377284,36.796484,115.820503,122.902262,-108.310947,68.247374
34,7.084236,-31.270964,-6.053295,-40.579376,-32.416649,-63.002815,-85.102959,-98.140526,-66.061592,-104.073143,-108.512306,-102.872086,-58.143425,-91.672325,-90.987968,-83.635826,-48.512306,-77.155724,-73.069839,-63.817406,-37.947235,-59.969559,-58.925858,-52.583771,-13.377548,-9.633435,2.391099,13.456712,-17.489847,-6.670156,7.064463,12.621228,-4.735392,19.076802,32.243533,33.661693,9.756843,34.395504,43.886327,42.325523,23.716913,44.981655,53.717857,53.71551,33.616219,64.134293,85.079269,95.083866,74.989243,107.297745,111.606102,107.673912,64.753189,99.547462,92.145939,81.995487,53.506107,86.064777,75.554123,64.536324,42.774868,72.153397,65.919285,56.926575,-17.360974,-25.879876,-23.483898,-16.185586,-40.99298,-47.846658,-54.352219,-61.619563,-27.484306,-17.648144,-11.512685,-10.833616,-9.805595,3.942517,10.199408,10.318062,10.17477,21.846308,23.605515,20.890134,121.74159,92.847611,-115.527391,28.884311
35,-0.590744,-29.922058,2.900963,-20.027928,-23.463936,-48.886986,-67.459488,-80.524979,-55.260086,-88.099022,-102.016068,-107.746239,-50.058746,-86.588173,-90.033188,-84.345589,-42.90287,-75.009499,-72.784309,-64.522018,-34.568253,-58.250999,-59.303055,-55.041733,-16.544541,-18.808157,-11.106553,-0.416599,-26.778622,-25.975403,-19.361101,-15.688248,-13.659963,4.914407,16.532376,18.585701,1.937851,21.882401,30.304293,29.195502,17.3799,33.897117,40.898533,41.029073,29.263372,57.761364,77.903838,87.238555,67.205214,96.910443,103.303299,101.874275,60.069337,93.88318,89.350104,80.669231,51.871948,83.456039,74.242859,63.696585,44.276161,71.771564,65.841436,56.755814,-20.18049,-31.214671,-31.121891,-26.170882,-43.487311,-53.937943,-59.596681,-64.688489,-30.432263,-21.6066,-14.682419,-12.216084,-12.527098,0.122698,6.72834,8.205603,7.531265,17.710404,19.489078,18.111635,120.221186,65.385226,-113.556089,11.316056
36,-4.775734,-25.888274,2.900963,-20.027928,-21.122589,-44.985008,-63.000298,-74.7155,-51.197319,-86.646309,-95.151215,-92.548141,-50.852852,-88.209343,-85.098267,-75.33989,-46.889648,-79.255142,-73.470612,-63.271866,-40.359077,-64.989967,-62.157669,-54.537163,-21.906545,-30.562471,-28.786097,-22.934165,-32.79197,-36.219982,-33.579967,-33.265101,-16.716207,-11.286648,-7.640903,-9.520215,-0.653752,5.375466,6.933552,4.410492,13.657339,19.8024,21.713915,20.45044,24.910526,51.388435,70.728407,79.393243,59.421186,86.523142,95.000496,96.074638,55.385484,88.218898,86.554269,79.342975,50.237789,80.847301,72.931595,62.856846,45.777454,71.389732,65.763588,56.585054,-23.000006,-36.549467,-38.759885,-36.156178,-45.981641,-60.029227,-64.841144,-67.757415,-33.380219,-25.565056,-17.852152,-13.598552,-15.2486,-3.697121,3.257273,6.093145,4.887761,13.5745,15.372642,15.333137,113.735504,40.966921,-112.365074,-7.241903
37,4.885597,-9.749093,2.900963,-20.027928,-25.547905,-50.29644,-71.684074,-87.265663,-57.334785,-89.057236,-89.428596,-84.239388,-54.679985,-87.160606,-83.444138,-75.446548,-51.534462,-81.356735,-75.808754,-66.352615,-48.248863,-72.756958,-70.894661,-63.478546,-20.990416,-29.64063,-34.579428,-39.900523,-31.538097,-32.145011,-28.406301,-28.121107,-21.899012,-18.773206,-14.255731,-13.055272,-10.399665,-6.180166,-2.936757,-1.545211,2.110444,6.466071,8.793259,10.144203,20.55768,45.015506,63.552975,71.547932,51.637158,76.13584,86.697692,90.275001,50.701632,82.554616,83.758435,78.016719,48.60363,78.238563,71.62033,62.017107,47.278747,71.0079,65.685739,56.414294,-25.819522,-41.884262,-46.397878,-46.141475,-48.475972,-66.120512,-70.085606,-70.826341,-36.328176,-29.523513,-21.021886,-14.98102,-17.970103,-7.516939,-0.213795,3.980686,2.244257,9.438597,11.256205,12.554638,116.578016,30.883928,-111.507196,-27.603731
38,-16.979141,-34.401741,2.900962,-20.027928,-15.99575,-37.460632,-53.358307,-63.514709,-53.034439,-82.542572,-95.559654,-100.243263,-56.665993,-84.204712,-76.140175,-65.690002,-56.470184,-78.503838,-69.24511,-58.880882,-53.899841,-72.553368,-64.571457,-55.254822,-24.879982,-37.580807,-38.15524,-33.355504,-42.356707,-53.095042,-56.95682,-60.087288,-27.260831,-25.029758,-21.112219,-21.824355,-9.977292,-7.925511,-6.442513,-6.705848,6.839013,6.047959,6.43183,5.943662,16.204834,38.642578,56.377544,63.702621,43.85313,65.748539,78.39489,84.475365,46.01778,76.890335,80.962601,76.690464,46.969471,75.629826,70.309067,61.177368,48.780041,70.626068,65.607891,56.243534,-28.639038,-47.219058,-54.035871,-56.126771,-50.970303,-72.211796,-75.330069,-73.895267,-39.276133,-33.481969,-24.191619,-16.363489,-20.691606,-11.336758,-3.684863,1.868228,-0.399247,5.302693,7.139768,9.77614,97.613096,-3.383074,-110.592012,-47.496919
39,-1.425819,-4.083925,3.79549,19.023079,-13.278236,-33.287315,-52.842865,-65.852966,-48.310661,-78.367653,-96.951485,-112.53994,-55.418816,-82.911186,-78.893623,-71.462631,-60.450325,-84.569664,-77.507401,-66.955147,-63.077774,-83.484421,-77.546883,-67.665138,-30.367957,-41.797526,-42.988229,-39.789248,-48.828027,-64.899806,-74.002805,-80.942533,-34.052882,-40.878649,-39.901572,-39.767914,-18.311899,-22.810695,-21.429462,-19.93365,-2.492308,-7.413013,-7.097098,-4.836169,10.254192,30.645962,49.392815,62.924194,36.970825,57.341366,71.795998,83.367119,42.823563,75.37817,96.32246,112.904263,47.162819,70.895119,62.036419,53.259544,51.016788,68.730068,60.441227,51.083164,-26.824626,-41.784806,-41.809475,-36.977073,-52.393125,-75.596614,-88.095886,-97.316009,-37.931549,-52.558431,-57.864459,-59.173413,-19.111259,-22.126902,-17.961713,-14.706355,1.306886,-2.975197,-2.243794,-0.817884,94.946308,-6.52197,-108.037491,-27.528812
40,-2.075958,-5.098268,2.14159,7.137946,-14.840813,-33.914108,-52.74868,-65.478859,-49.149628,-75.42057,-91.64772,-105.520935,-56.390648,-81.373901,-90.761032,-96.818047,-60.739861,-83.498039,-78.468933,-69.744759,-62.524567,-82.429848,-79.286842,-71.797028,-31.958833,-45.579585,-48.450516,-46.056174,-53.476937,-71.435717,-80.712142,-87.75033,-40.289797,-53.182388,-57.613227,-59.694864,-26.441434,-36.133377,-35.936085,-33.046999,-11.75768,-20.872535,-23.32276,-21.897591,16.811886,40.675392,60.638981,74.293442,45.972691,68.613167,82.516937,92.723122,50.116711,85.093002,106.906815,122.511063,50.833797,81.664352,79.651108,73.765755,49.095383,74.153366,71.737232,63.773746,-26.337076,-42.731007,-44.886838,-44.879458,-48.761398,-64.561414,-74.758877,-84.410281,-32.825716,-33.644064,-31.143666,-29.300663,-13.609328,-12.629904,-7.777063,-5.273547,6.481323,5.66452,7.180894,8.351064,93.124809,-10.795331,-105.641441,-19.565958
41,-0.562706,-7.767893,12.308178,20.918353,-12.48024,-32.709732,-51.838646,-65.28019,-44.064445,-68.916435,-83.267097,-94.854927,-51.979294,-77.045517,-84.878311,-88.763466,-57.802391,-82.575645,-78.750572,-70.853577,-61.323166,-80.494881,-77.566338,-70.540009,-33.542206,-48.647746,-52.21973,-50.017834,-58.438737,-80.790905,-93.957636,-105.793307,-46.479782,-62.293476,-68.699186,-73.676084,-32.671525,-43.054641,-42.70748,-40.65113,-16.934927,-25.664861,-27.277967,-25.877622,18.078747,35.37014,48.21682,54.763355,47.646561,67.084408,78.756008,86.678867,47.460423,66.313477,72.485104,75.847607,44.280396,57.40139,52.818203,48.020439,39.999847,49.003658,45.517273,40.769176,-21.128274,-34.21615,-37.456874,-37.148523,-47.67527,-62.082537,-70.062635,-77.215741,-38.862931,-48.279961,-50.172518,-51.874514,-26.302928,-28.013445,-22.819,-19.642096,-11.52133,-13.740794,-10.884004,-8.461227,93.113537,-18.644302,-92.78183,1.271317
42,2.337799,-10.864213,-18.886099,31.319546,-13.669739,-33.807907,-52.231865,-64.899216,-45.596352,-67.461662,-80.990639,-91.524239,-51.581955,-77.359085,-72.060242,-63.768082,-56.083832,-79.22596,-71.45771,-61.209412,-58.893013,-79.497299,-73.184395,-63.412056,-27.3169,-40.324131,-42.862937,-40.216376,-60.790224,-82.416916,-95.315358,-107.391994,-50.36765,-53.282053,-44.861613,-41.67878,-35.556844,-33.835181,-28.294224,-26.183533,-18.378528,-19.46904,-15.79696,-12.38704,23.566417,44.104271,57.418871,60.768328,48.320789,65.423269,76.768141,84.754171,39.773454,59.290752,58.693456,56.270084,30.340805,48.101034,42.716903,37.049732,21.788893,36.011009,33.698273,29.011774,-9.286166,-16.611262,-18.059957,-20.428472,-40.565296,-55.443966,-63.805095,-71.354268,-37.783116,-26.549528,-21.791072,-24.335451,-28.014325,-11.444466,-7.264195,-9.889822,-15.090596,-3.340141,-1.136393,-3.486814,95.882263,-29.505736,-111.237001,32.593642
43,-3.842182,-7.288632,-18.886099,31.319547,-19.292564,-39.794483,-55.712986,-66.126308,-49.324779,-71.255607,-84.258785,-92.5387,-51.156063,-77.859821,-72.712669,-63.883209,-52.481117,-76.479206,-69.117965,-59.194736,-53.670158,-75.021457,-67.8689,-57.588386,-21.198593,-34.637366,-37.697423,-36.383791,-59.560079,-82.122861,-93.231498,-102.702946,-52.352061,-47.543896,-38.641,-36.760144,-38.16106,-26.278892,-19.535901,-19.296881,-20.914448,-13.622512,-8.780708,-7.591503,29.054089,52.838402,66.620922,66.7733,48.995018,63.762131,74.780273,82.829475,32.086487,52.268028,44.90181,36.692562,16.401215,38.800678,32.615604,26.079025,3.577938,23.01836,21.879272,17.254372,2.555942,0.993626,1.336958,-3.708421,-33.455323,-48.805395,-57.547555,-65.492796,-36.703303,-4.819095,6.590374,3.203611,-29.725722,5.124512,8.29061,-0.137549,-18.659863,7.060511,8.611218,1.487598,92.364406,-35.184412,-129.798775,65.523146
44,-3.842182,-7.288633,-9.609718,1.675999,-24.91539,-45.781059,-59.194107,-67.353401,-53.053207,-75.049553,-87.526932,-93.553162,-50.730171,-78.360558,-73.365097,-63.998337,-48.878403,-73.732452,-66.778221,-57.180061,-48.447304,-70.545616,-62.553406,-51.764717,-15.080284,-28.9506,-32.531908,-32.551205,-58.329933,-81.828805,-91.147637,-98.013897,-54.336472,-41.805739,-32.420387,-31.841507,-40.765275,-18.722601,-10.777577,-12.410227,-23.450367,-7.775982,-1.764456,-2.795966,32.948971,59.474831,75.054646,75.093098,44.68523,62.642326,73.561249,80.296669,27.926617,61.471252,54.587288,42.370148,14.722195,47.11235,40.483589,30.116787,4.618149,31.136513,30.025578,23.55423,-0.812296,-2.005931,-0.472669,0.916469,-30.649323,-37.553822,-46.649225,-56.437407,-28.999259,0.074224,8.461474,5.413998,-18.366641,11.589379,13.771639,6.239601,-4.727056,17.013998,18.091049,12.167147,88.729734,-40.903411,-139.200983,68.768779
45,1.491508,5.939124,-3.928699,-4.722579,-32.741776,-52.218246,-64.428749,-73.740463,-57.37381,-78.537941,-92.165565,-101.887894,-51.758423,-80.651436,-95.738411,-102.745857,-47.392502,-83.620949,-79.328156,-68.461533,-44.285431,-76.619453,-72.024536,-60.044518,-1.736607,-11.914186,-16.394487,-16.898741,-49.383626,-71.56107,-82.927037,-91.905037,-50.780143,-63.187128,-73.074789,-81.115835,-41.324889,-27.480817,-13.730636,-11.320116,-25.541977,-13.626186,-3.613418,-1.386791,30.079308,56.356487,75.728073,80.839806,42.572193,63.495312,75.382118,84.767132,28.660183,64.134007,57.813721,46.005535,17.983074,52.770996,46.919746,37.239933,10.001564,35.374889,33.684483,27.240372,-6.077661,-6.934757,-1.766371,2.852684,-32.12454,-34.271973,-43.513447,-55.374188,-26.460793,-1.385031,6.471412,2.157436,-12.999882,10.058864,12.36342,6.905394,3.257272,19.080507,19.924357,15.019491,90.232744,-34.065464,-143.118181,64.945023
46,-5.853882,6.518682,-0.070438,-8.690166,-35.747566,-55.507393,-69.979477,-81.238289,-58.701096,-79.861679,-92.802773,-101.876564,-53.638115,-80.010338,-97.042236,-108.481007,-48.098259,-79.817276,-74.977112,-65.078773,-44.479065,-71.62056,-66.586075,-56.346703,2.827026,-6.668149,-12.725278,-16.340363,-44.028105,-60.869666,-73.507907,-85.15249,-47.503789,-64.25152,-75.121476,-83.992293,-41.812068,-26.971932,-12.599307,-9.632539,-29.008213,-13.253275,-3.078752,-0.913196,28.929691,56.114731,78.174076,88.40332,43.387299,64.796104,76.251125,84.754543,32.408009,67.7845,61.056232,50.994644,23.268986,58.617153,50.844498,40.768147,16.86945,44.530563,42.60561,37.586689,-10.329887,-13.145428,-5.255392,-2.395329,-37.703227,-34.202936,-41.539564,-52.049175,-30.169152,-5.267187,1.536319,-2.71989,-15.150217,9.300322,10.693998,4.414877,2.210047,16.886113,18.51052,14.780146,84.361324,-27.607405,-143.206158,56.194233
47,-6.779137,6.065218,-0.867119,-10.720119,-32.951088,-53.564072,-66.119156,-74.99691,-61.093483,-82.784729,-96.300659,-106.446362,-54.118767,-82.093964,-99.635582,-111.801624,-45.067406,-74.873428,-70.295563,-60.885544,-37.466583,-63.891792,-60.76561,-52.244568,6.004981,-3.003818,-10.709281,-17.131232,-39.597205,-54.70716,-66.822992,-77.77063,-44.715388,-53.335992,-65.048625,-76.23709,-40.455103,-26.106561,-12.851866,-9.333328,-29.647423,-14.860144,-4.288782,-0.607933,28.602448,57.863674,82.391281,96.71339,46.426678,67.065754,80.722733,91.557312,37.592754,73.412476,68.885422,60.327873,30.289192,65.542259,58.666248,49.633656,25.048141,52.915421,51.653709,46.998768,-12.094559,-15.492437,-8.506521,-5.991766,-34.391274,-33.305424,-39.588436,-48.233092,-25.833316,-6.399905,1.8443,0.131281,-10.649291,8.687789,11.268246,6.225244,6.645672,17.750959,18.854469,15.689576,77.652683,-22.968621,-144.002781,44.04768
48,-5.199852,9.480232,2.452126,-7.569458,-30.901337,-53.750267,-68.829002,-81.673622,-62.49321,-83.510857,-98.400307,-111.544704,-52.547836,-76.822243,-80.082779,-78.993073,-42.003708,-67.685051,-64.937096,-57.46376,-31.70002,-55.325775,-56.370621,-52.2789,7.93323,-0.48684,-9.038284,-16.451051,-37.809222,-53.837838,-67.006237,-80.163119,-43.726887,-29.950617,-16.579893,-9.925298,-41.692612,-22.807329,-6.278998,2.033812,-34.868698,-20.236845,-5.94959,2.273496,24.599018,52.524376,74.811459,90.975723,46.25885,66.249561,83.364944,97.592869,39.456825,72.098007,85.377617,88.492699,33.949184,67.174358,74.520206,72.684231,29.771061,57.19305,63.23885,61.714153,-18.332709,-22.35368,-18.069714,-15.21277,-33.023472,-36.103212,-40.11387,-45.055354,-21.246835,-10.679579,-2.123257,2.33219,-5.905346,6.989467,12.150598,12.375493,10.670255,18.335025,19.217284,17.882518,71.887121,-16.758352,-142.116365,33.20826
49,-6.019135,14.309052,3.066444,-6.985639,-30.297775,-55.147705,-70.899467,-79.46434,-60.932808,-82.984314,-98.776474,-111.275711,-48.650894,-71.507034,-73.010101,-68.083191,-35.633125,-56.797829,-54.418488,-46.78894,-22.496109,-42.334213,-42.770233,-36.892891,6.162753,-3.192033,-13.745734,-23.957493,-40.497248,-54.648096,-64.981224,-74.766287,-47.344844,-34.046244,-14.750908,-1.662445,-46.054384,-28.287678,-10.132502,1.661148,-40.024641,-25.145077,-9.634979,0.658877,20.702763,41.33646,59.063759,73.754768,47.995205,71.558361,89.300823,102.002277,47.358685,76.071281,91.980171,100.491772,45.191803,74.284229,83.576546,85.40926,42.587643,67.142315,74.710407,75.955238,-19.335382,-24.248677,-22.364023,-19.680813,-26.8237,-28.055929,-27.945365,-28.457461,-14.140319,-7.606107,-3.277774,-1.942977,0.407861,7.062302,10.569972,10.154824,15.24099,19.777916,19.818918,17.543971,66.375904,-4.079495,-138.542004,24.592426
50,2.636261,13.891928,7.354717,-11.84058,-26.378059,-51.728897,-65.567322,-73.350449,-61.207123,-81.769753,-96.277771,-107.335224,-47.685699,-65.556679,-63.963089,-59.037094,-31.195335,-45.669823,-42.19574,-35.015945,-14.118004,-25.946732,-25.71064,-21.27079,7.352313,-0.34114,-7.920417,-15.909839,-33.502254,-55.663643,-66.060529,-74.073324,-42.538531,-24.405461,-5.11562,7.32576,-42.151727,-20.085989,-4.075342,6.811626,-37.481512,-18.61883,-5.087894,4.237128,23.781166,52.701416,73.560677,85.802135,64.720402,102.817326,118.21352,121.619854,63.185349,101.963596,95.866756,83.433952,59.486275,90.303268,80.139256,66.895237,54.872818,79.99855,72.044449,61.813145,-20.040016,-29.056471,-27.212141,-20.523429,-38.387514,-49.952687,-49.860802,-46.314538,-21.726728,-15.282486,-10.506833,-10.779553,-1.820557,4.650671,5.93616,3.850694,19.805827,22.422593,20.373499,17.086154,69.060631,8.154605,-131.138821,11.094017
51,5.739555,8.779766,0.456848,-1.451814,-25.242004,-46.943665,-55.964699,-54.330139,-51.15303,-73.537445,-84.787674,-93.232727,-40.620575,-45.110207,-39.157333,-36.981354,-28.421402,-31.885071,-27.247581,-24.817886,-16.184235,-22.153587,-19.884796,-17.210312,9.005093,2.230548,-4.546312,-10.060531,-32.03,-55.403056,-65.834739,-75.99475,-38.072494,-33.553352,-21.62836,-16.795031,-36.23085,-26.119622,-17.706869,-15.011556,-32.020367,-25.807072,-18.239991,-13.658327,25.546188,51.988792,72.388859,84.53516,67.311516,98.879585,119.135571,132.809772,65.343876,99.747276,115.49818,122.183704,61.250496,87.246037,76.667747,64.153576,56.111126,79.410725,70.265408,58.289337,-24.74021,-34.305935,-32.726082,-26.425101,-47.368494,-56.280993,-59.453235,-62.605593,-32.995499,-30.892187,-26.510038,-24.550698,-14.52839,-2.763053,0.761877,-1.783784,6.141758,12.731422,11.946636,9.577335,75.393047,14.977686,-130.089111,7.685518
52,38.265038,21.652442,-3.11594,-4.213261,-29.572563,-50.009308,-61.658936,-67.552299,-63.146439,-85.370636,-99.195328,-110.491905,-49.330788,-58.025322,-54.051476,-50.233955,-33.574219,-40.906563,-39.361038,-35.856171,-17.62104,-24.881058,-28.105659,-29.27021,7.785739,6.079606,2.700037,-1.84819,-32.095888,-52.90235,-63.396678,-71.865593,-41.929981,-35.16547,-18.815567,-9.844405,-42.986716,-31.594104,-16.061931,-7.128838,-39.331493,-28.740927,-15.52603,-6.421672,25.352783,50.417519,70.25053,81.895981,60.580444,88.461514,105.548859,117.267036,60.988827,93.733578,86.434937,75.392075,60.194492,88.743725,79.157696,67.530384,58.906288,83.734131,75.892296,65.507526,-28.321363,-39.700081,-39.193419,-35.022858,-53.464495,-71.820237,-83.246471,-93.182051,-38.294981,-35.392156,-30.007798,-29.4145,-19.8338,-13.749161,-10.944365,-12.510911,-0.718096,2.005468,1.596403,-0.160644,114.232035,34.7192,-132.631102,1.561328
53,2.536583,8.796655,24.190178,-25.966635,-23.142586,-43.60096,-55.283318,-57.006454,-53.425369,-77.396965,-88.686447,-98.555717,-40.543442,-45.405579,-36.840477,-31.651039,-24.021263,-24.942398,-18.724937,-16.214333,-7.482147,-11.143112,-9.472733,-8.856697,8.294007,5.876015,3.667419,-1.459841,-33.874084,-52.510698,-61.617216,-69.707663,-44.177665,-18.389365,-2.766758,1.247235,-42.749193,-7.534878,0.192044,-1.583836,-36.270803,-7.728157,-0.021273,-0.546954,28.182106,54.971695,73.680782,84.22451,45.471325,67.93951,82.987518,89.666405,42.607956,73.381062,71.7132,63.215733,39.876595,68.973827,61.347084,50.743046,39.39497,62.307701,56.855679,47.430725,-30.046917,-50.34437,-63.878424,-74.194756,-44.287025,-61.777737,-66.674235,-67.530621,-28.552619,-19.993116,-16.008115,-13.699545,-8.801626,-0.40286,-0.315637,0.641062,11.456153,15.560363,13.114583,12.240259,117.014408,43.266599,-108.195133,-24.654562
54,5.138855,3.616259,-10.306721,4.370694,-23.090973,-42.836952,-56.458626,-61.154137,-53.169365,-75.871582,-87.340508,-97.372398,-39.826927,-48.51757,-40.68615,-35.412598,-23.204613,-28.828812,-23.854637,-21.435242,-6.065025,-13.496132,-13.024063,-12.799072,6.662375,5.392139,4.730668,1.146798,-32.520144,-48.673496,-58.185993,-67.63112,-42.871582,-17.287337,-1.931121,1.41958,-41.667233,-5.656122,3.49637,2.452819,-34.668009,-5.245852,3.508504,3.476579,16.262741,34.770641,51.10857,60.334454,41.589661,66.054955,81.938782,92.742348,40.30592,74.092197,65.617962,54.456882,38.665638,69.664936,58.934669,47.685642,37.755432,63.458004,56.846638,49.259892,-20.535871,-33.399964,-34.782741,-29.234992,-47.699538,-69.655484,-79.589674,-87.39894,-35.416794,-26.867172,-17.006804,-15.266153,-18.519535,-8.779025,-2.873154,-3.680664,-0.670671,5.913466,8.721134,7.688698,122.348757,47.365453,-118.30636,-19.801273
55,1.816978,2.230672,-9.314747,0.072464,-25.618172,-47.31823,-60.950546,-63.14621,-56.043892,-77.395935,-89.13929,-100.037498,-42.204094,-53.292503,-46.636848,-41.337433,-25.673103,-34.318085,-30.012131,-27.175484,-9.235954,-17.360687,-17.204132,-16.663971,6.966311,5.714939,5.204263,3.238593,-31.279146,-47.700433,-58.015037,-68.429306,-41.272679,-16.923874,-0.617041,4.81715,-39.362954,-5.567479,5.068319,5.002555,-31.695807,-4.309901,5.356941,5.706386,17.939587,37.18071,53.269444,61.195335,45.604248,69.090099,85.246067,97.770939,43.915844,75.276031,67.073135,57.221661,43.388386,72.256279,61.697388,51.034641,43.466778,68.550739,59.904385,50.225658,-19.580623,-31.954727,-32.262954,-25.264533,-48.146426,-70.22334,-82.359982,-93.381011,-34.637412,-25.132047,-15.121595,-15.984465,-17.631657,-8.618906,-2.982545,-5.688232,0.100036,4.567338,7.890931,6.150742,124.382858,49.334195,-127.403984,-19.990739
56,-2.218895,2.97356,-3.83812,1.781129,-27.060928,-48.36113,-61.486588,-66.183243,-56.102257,-76.966553,-89.409027,-100.727577,-42.321625,-55.448456,-50.030594,-44.160118,-26.130409,-35.525093,-30.543365,-26.835594,-10.168877,-18.481636,-17.501678,-15.846176,4.258123,2.723687,3.803393,4.868711,-32.869621,-48.052689,-58.072094,-68.141055,-42.256177,-18.6774,-3.51295,1.775355,-39.985985,-5.396554,4.372361,3.522182,-31.902486,-2.918324,6.162135,5.189937,15.890465,35.372601,50.693722,59.43409,47.13026,71.425896,88.258896,101.104603,47.488289,80.096684,71.900883,60.603504,47.914238,76.980515,67.087784,55.995255,47.713909,71.679211,63.585892,54.041004,-20.888466,-31.912675,-31.808409,-24.852287,-47.352809,-69.839469,-82.166549,-93.069295,-34.547935,-25.527836,-15.961277,-17.318798,-18.036801,-10.244733,-4.249262,-6.014428,-0.585301,3.063685,6.96239,5.767488,122.290764,52.130007,-131.115303,-18.387358
57,-2.058334,0.374701,1.050265,0.740374,-27.597313,-50.062408,-64.132919,-70.335732,-57.120438,-78.020668,-91.113281,-102.668037,-43.353767,-57.274933,-51.761856,-45.367699,-27.083244,-38.221893,-33.42144,-29.035492,-11.165771,-20.488129,-20.584373,-19.220467,5.717687,4.817181,5.532281,4.855558,-31.862132,-46.474749,-57.057504,-67.792288,-40.755951,-16.086013,-0.443584,4.923329,-37.862358,-4.509663,6.316357,6.821012,-29.420706,-1.800055,8.523471,9.459144,17.527518,37.425548,52.808664,61.721249,47.005986,71.468697,88.149131,100.11455,46.704279,80.30862,72.518717,60.948086,46.659712,77.055653,67.099441,55.650869,46.300515,70.92816,63.189166,53.774439,-20.708958,-31.837485,-31.854078,-25.524806,-47.271422,-69.90612,-81.609812,-91.251292,-34.780381,-25.965872,-16.341527,-17.027544,-18.156676,-10.226331,-4.077243,-5.481231,-0.318429,3.657927,7.319748,6.2465,120.250711,52.812472,-130.046756,-17.33922
58,-2.592888,2.153175,1.050265,0.740374,-28.210487,-50.29644,-63.224373,-66.824341,-56.806297,-77.082939,-89.787369,-101.558418,-42.878151,-56.683731,-50.351601,-43.405838,-26.641045,-37.981682,-32.039566,-27.354813,-10.937691,-20.392113,-18.865471,-16.263542,4.212829,3.043832,4.136691,4.587901,-32.278608,-46.408121,-56.606387,-66.958936,-41.823369,-15.28332,-0.275592,3.339401,-39.453944,-3.722747,5.989666,4.156976,-31.325119,-1.042779,8.025917,6.396139,19.164571,39.478496,54.923606,64.008408,46.881711,71.511498,88.039366,99.124497,45.920269,80.520557,73.136551,61.292668,45.405187,77.130792,67.111097,55.306484,44.887121,70.177109,62.79244,53.507873,-20.529449,-31.762294,-31.899746,-26.197325,-47.190035,-69.97277,-81.053074,-89.433289,-35.012827,-26.403907,-16.721777,-16.736289,-18.276551,-10.207929,-3.905224,-4.948034,-0.051557,4.252169,7.677107,6.725511,117.705774,55.057393,-128.94854,-16.507101
59,-1.737328,1.26434,1.050266,0.740375,-27.6931,-49.269905,-63.11142,-69.018517,-56.42292,-76.636276,-88.941765,-100.436783,-42.99305,-57.174339,-53.385658,-48.282509,-26.90712,-37.211723,-32.603989,-28.843117,-11.202507,-20.09388,-19.598694,-18.117943,4.538964,3.415786,3.876382,3.223094,-31.308416,-46.565461,-56.813374,-67.17287,-40.955127,-19.451318,-4.391381,1.924915,-39.34375,-4.923268,5.578378,5.89877,-31.735945,-3.066217,6.849387,7.496253,20.801623,41.531442,57.038546,66.295566,46.757436,71.554298,87.9296,98.134444,45.136258,80.732492,73.754384,61.637248,44.15066,77.20593,67.122753,54.962098,43.473726,69.426057,62.395714,53.241307,-20.349941,-31.687105,-31.945416,-26.869845,-47.108649,-70.039422,-80.496338,-87.615287,-35.245274,-26.841943,-17.102028,-16.445035,-18.396427,-10.189529,-3.733205,-4.414837,0.215314,4.84641,8.034465,7.204522,116.254063,56.60458,-127.612658,-15.483878
60,-3.335953,1.51977,1.050265,0.740374,-28.195496,-49.818649,-62.390556,-63.918686,-55.536232,-75.001144,-86.843147,-98.256569,-40.917892,-54.888496,-52.308197,-47.77771,-24.001579,-33.783875,-30.409126,-26.919136,-7.486267,-16.642799,-17.937584,-17.443314,3.146647,2.153854,3.340358,2.48215,-33.410585,-48.252451,-58.824554,-69.391099,-42.94843,-23.12695,-7.609256,0.347223,-41.344556,-8.258747,3.236401,5.985066,-33.596114,-7.209453,3.386485,6.27835,22.438676,43.58439,59.153488,68.582725,46.633161,71.597099,87.819835,97.144391,44.352248,80.944429,74.372218,61.98183,42.896134,77.281069,67.13441,54.617713,42.060331,68.675005,61.998988,52.974741,-20.170433,-31.611915,-31.991085,-27.542364,-47.027261,-70.106072,-79.9396,-85.797284,-35.47772,-27.279978,-17.482278,-16.15378,-18.516302,-10.171127,-3.561186,-3.88164,0.482187,5.440652,8.391823,7.683533,113.134718,58.563303,-126.345785,-14.304551
61,0.614204,-0.679347,1.050265,0.740374,-27.43,-48.878288,-62.387123,-67.993126,-55.827484,-76.021042,-88.107376,-99.526291,-41.326675,-55.991478,-51.691246,-46.459694,-24.484978,-35.312347,-31.58226,-27.86396,-7.723389,-17.246246,-18.519859,-18.261337,3.405381,1.897498,3.525455,3.805338,-33.086396,-47.568565,-58.238759,-69.557764,-42.131472,-20.448711,-3.727162,4.057342,-40.452541,-8.237227,4.988291,9.285502,-32.705334,-7.600982,4.200911,8.48463,24.075729,45.637338,61.26843,70.869884,46.508887,71.6399,87.71007,96.154338,43.568238,81.156365,74.990052,62.326412,41.641609,77.356208,67.146067,54.273327,40.646937,67.923954,61.602263,52.708176,-19.990924,-31.536725,-32.036753,-28.214884,-46.945874,-70.172723,-79.382863,-83.979281,-35.710166,-27.718013,-17.862528,-15.862525,-18.636177,-10.152725,-3.389167,-3.348443,0.749059,6.034894,8.749182,8.162544,114.105835,58.096347,-124.938608,-13.351787
62,-2.252197,0.69778,1.050265,0.740374,-27.117577,-48.758011,-61.435661,-64.943733,-54.765816,-74.749718,-86.594009,-97.680244,-40.379791,-54.338608,-49.974174,-44.359703,-23.578033,-34.041481,-30.612259,-26.837883,-6.715965,-15.997925,-17.967911,-18.235817,3.694959,2.113593,2.638595,1.28515,-33.473015,-48.373081,-59.232138,-70.351256,-42.934228,-22.105814,-5.762147,2.718006,-41.739419,-10.779893,2.485084,7.753104,-34.590203,-11.17278,0.949783,6.531773,25.712782,47.690285,63.383372,73.157043,46.384613,71.682701,87.600305,95.164285,42.784228,81.368302,75.607886,62.670994,40.387083,77.431346,67.157724,53.928942,39.233543,67.172903,61.205537,52.441611,-19.811415,-31.461535,-32.082422,-28.887403,-46.864487,-70.239373,-78.826125,-82.161278,-35.942612,-28.156048,-18.242778,-15.57127,-18.756052,-10.134323,-3.217148,-2.815245,1.015931,6.629136,9.106541,8.641556,112.381868,58.822192,-123.360112,-12.583347
63,-1.902809,1.467499,1.050265,0.740374,-25.744629,-46.852455,-59.761505,-63.831825,-53.569679,-74.262657,-86.689911,-98.143387,-39.154243,-53.536491,-49.841766,-44.786797,-22.593269,-32.704582,-29.674988,-25.935745,-6.079903,-14.921494,-17.102509,-17.631454,4.088186,2.154595,1.576889,-0.942342,-34.77564,-50.955668,-61.953324,-73.003159,-43.961045,-26.061144,-8.900859,1.365085,-42.865253,-13.14268,1.327819,8.646571,-35.804741,-13.885105,-0.969914,6.476136,27.349834,49.743233,65.498314,75.444202,46.260338,71.725502,87.49054,94.174232,42.000217,81.580238,76.225719,63.015575,39.132557,77.506485,67.16938,53.584557,37.820148,66.421852,60.808811,52.175045,-19.631907,-31.386345,-32.128091,-29.559922,-46.7831,-70.306024,-78.269388,-80.343276,-36.175059,-28.594084,-18.623029,-15.280016,-18.875928,-10.115922,-3.045129,-2.282048,1.282803,7.223378,9.463899,9.120567,110.729885,60.136935,-122.059021,-11.995728
64,0.348816,1.400129,-4.254169,9.776263,-25.044365,-46.824417,-61.076431,-66.047516,-54.263992,-76.106644,-89.439812,-100.989532,-40.018044,-54.732056,-51.544418,-46.964035,-23.936348,-34.745293,-31.509819,-27.710266,-7.72419,-17.700119,-18.463097,-17.54631,5.799784,3.733121,2.608337,-0.351144,-34.420822,-50.95996,-61.623669,-72.322577,-43.633582,-26.428312,-9.629112,-0.646156,-42.499721,-11.414409,1.680136,5.811455,-35.336673,-11.360038,0.218349,4.251454,17.620411,38.71851,56.974525,67.531357,46.363163,71.728077,88.238983,100.205669,45.510292,80.35429,71.865349,60.290108,44.912281,76.442242,65.68697,54.937019,44.048939,69.445152,61.227551,52.583542,-21.76665,-34.695086,-35.260319,-28.284714,-47.923476,-70.31365,-81.754211,-90.412638,-33.771115,-27.301648,-18.723589,-18.149588,-16.28451,-10.363386,-6.107671,-7.075208,2.192047,4.252782,6.004147,4.581016,111.471491,61.46531,-125.920401,-2.291218
65,0.566254,1.650434,-1.437778,6.686643,-26.948204,-49.148026,-63.601227,-69.696236,-56.221962,-78.195992,-91.918945,-104.157028,-42.514229,-57.54364,-54.232864,-49.851952,-26.738205,-38.468399,-35.112534,-31.342163,-10.848083,-20.697327,-21.679573,-21.258888,6.171429,4.124958,3.05223,0.357689,-33.995701,-50.158223,-60.435622,-70.598783,-42.747958,-23.06029,-6.530013,1.513286,-40.721618,-10.021567,2.662554,6.973227,-33.086025,-8.864827,2.582124,6.950225,15.196953,36.226673,53.241577,63.441467,46.276302,72.014809,88.989487,101.992893,47.202759,82.492275,75.070667,63.59951,47.853699,78.956795,69.771538,58.831444,47.898273,72.347431,65.024071,56.660957,-22.581107,-35.17393,-36.326748,-30.205986,-48.714499,-69.892235,-81.43987,-91.528807,-35.698284,-30.02197,-21.427733,-21.369625,-18.703397,-13.878714,-8.15053,-8.338251,-0.797476,0.947591,4.631929,4.234967,112.012911,63.134625,-127.383013,4.414305
66,-0.016251,3.783726,0.542221,6.203199,-26.96949,-50.0354,-65.817032,-73.330994,-57.579918,-80.138626,-94.366722,-106.69178,-44.32766,-60.060654,-57.523613,-53.38131,-29.137344,-41.797142,-38.123016,-34.569511,-14.102554,-24.498253,-24.585915,-23.453407,7.318968,4.158921,2.142029,0.060546,-33.341085,-49.472578,-59.356503,-68.368945,-41.671154,-23.166933,-7.608793,-1.3356,-39.26437,-8.898111,2.139189,2.968651,-31.376866,-5.4211,4.459954,5.265519,17.003574,39.978561,58.919506,71.02581,46.515255,72.995796,90.400143,103.825779,47.489777,82.976189,76.092281,64.88142,48.25882,80.199566,71.513386,60.199127,48.549557,73.338776,66.093292,57.293243,-22.629087,-34.663131,-34.756837,-27.790094,-48.038393,-68.890427,-80.342689,-89.609326,-34.461917,-28.69872,-21.064393,-21.321059,-17.05673,-12.739048,-8.257944,-8.961004,1.210864,2.100965,4.446215,3.474943,112.107067,67.553963,-126.730385,11.253117
67,3.364906,2.874976,-0.400715,8.863839,-29.531937,-53.255196,-69.420776,-79.795189,-60.380287,-84.863319,-101.509094,-114.785156,-49.476357,-69.320183,-61.164322,-52.877312,-36.850777,-55.060844,-45.649338,-37.721786,-24.209747,-38.083191,-32.904968,-26.041603,6.701216,3.19333,2.252717,3.193237,-33.425035,-45.019786,-53.198258,-61.955578,-38.669806,-6.907525,7.914365,8.253035,-32.968946,3.467378,11.300202,5.978613,-22.060427,7.900348,14.674924,10.469906,16.532192,39.241962,57.69453,68.833809,47.047234,73.991489,91.48407,104.910908,48.240852,85.201092,78.398552,66.892776,48.95319,81.761169,73.817768,62.834473,49.347439,75.351963,68.829746,60.336399,-22.514818,-35.028415,-36.067706,-30.448634,-46.578367,-65.156102,-75.439305,-84.244111,-33.336392,-28.807185,-21.897653,-22.052184,-16.330576,-12.577633,-7.938139,-8.413988,2.131346,3.143652,5.461608,4.220239,116.83156,71.440302,-125.771513,21.12832
68,1.174965,8.246057,1.94046,12.230842,-33.037949,-57.055893,-74.47094,-87.127762,-64.127655,-86.885605,-103.083572,-115.166473,-53.16925,-74.466934,-68.442078,-59.464531,-40.736389,-60.086746,-52.609749,-45.015106,-27.908592,-45.346756,-43.416252,-38.037643,5.356354,2.133384,1.328498,2.322093,-31.055023,-41.369936,-46.910707,-52.677517,-35.254329,-6.228702,9.123222,10.668619,-28.693564,4.329692,14.452468,11.177226,-17.596614,10.197247,18.762183,16.749645,17.481937,40.960808,61.024017,73.33128,45.313511,72.606525,90.514812,105.03479,47.459736,83.885136,77.655716,66.847801,48.600769,81.586189,74.235649,63.393803,49.34864,75.416222,69.459171,60.909119,-24.499538,-36.394365,-35.067688,-27.973523,-46.570648,-63.89065,-73.346337,-81.152916,-31.948058,-28.814409,-23.820345,-23.968268,-14.041982,-11.551742,-8.881994,-9.007224,4.618653,3.973299,4.642489,3.795674,118.313713,79.973545,-123.523865,33.646348
69,2.567253,7.077431,2.574062,14.293028,-31.749001,-57.999115,-77.285042,-92.278175,-66.030121,-92.017822,-109.791756,-123.93631,-56.474075,-81.429749,-81.306839,-76.747742,-45.242615,-66.337395,-61.639824,-54.347763,-32.392502,-52.796974,-53.056297,-48.28125,-0.24271,1.014251,6.852536,11.806648,-27.028433,-32.513599,-35.30941,-37.921144,-26.669632,-2.131748,13.861763,20.056596,-17.738701,10.954986,22.199767,23.467657,-5.418321,16.362686,25.67542,28.39287,17.915211,42.978401,64.559155,78.557167,43.382893,72.881756,90.649509,104.959888,44.567528,82.174988,75.118732,63.838406,45.592575,80.701962,72.695045,61.743393,46.593761,75.344009,68.440475,59.042645,-25.357282,-37.067321,-35.521523,-30.301545,-47.259505,-63.336934,-72.593321,-80.580552,-31.801153,-28.523164,-23.725682,-24.387522,-13.240122,-11.457696,-8.087019,-8.127558,6.00319,4.840491,5.756991,5.127507,121.492739,87.201415,-120.33803,48.089816
70,-1.085014,12.377314,3.615246,16.975219,-28.918762,-58.508263,-79.961128,-95.146751,-67.751312,-95.656815,-114.377289,-128.82843,-58.365784,-87.626495,-88.328705,-84.482231,-47.627449,-73.150749,-71.789932,-64.865112,-37.148209,-58.180733,-60.128632,-57.706146,-5.538919,-3.43039,7.139552,15.793409,-26.368136,-22.700131,-21.554105,-19.566081,-22.666785,1.017894,19.347793,29.003613,-12.387997,14.304359,28.474504,33.600746,0.392486,23.362435,35.575586,40.782627,19.801426,48.065987,72.838497,88.747272,41.583424,71.634064,88.305645,99.108067,42.119408,81.922474,75.044975,62.875729,42.529793,80.370598,70.907593,59.031429,43.524055,72.460499,64.990425,55.80637,-24.802053,-37.325932,-37.010943,-35.105418,-48.438629,-59.635213,-64.058581,-67.167343,-32.266505,-29.034457,-23.408593,-23.921646,-12.831118,-10.803173,-6.542518,-6.973104,7.402732,6.671731,7.993807,6.82694,121.840353,99.57734,-115.290155,65.063646
71,-0.481796,12.670752,4.339085,19.588682,-27.081413,-59.595566,-81.576233,-96.335449,-67.692604,-99.811249,-120.162392,-134.655304,-60.222702,-94.070435,-96.454926,-91.765594,-50.723763,-81.648445,-83.53775,-76.967239,-40.783997,-65.192528,-70.324516,-68.268814,-11.419473,-9.12103,4.135579,16.952464,-23.498008,-12.075262,-6.161518,-0.829555,-13.937315,9.504037,25.708364,34.078509,-0.324684,25.460251,37.760068,42.139654,15.095629,34.387322,44.413799,48.693164,19.155064,46.250725,70.772495,87.442532,39.649773,71.460514,89.02462,98.360538,38.785515,80.516338,75.89962,63.856201,38.449574,78.112164,70.548019,58.802547,39.299469,67.8899,62.710762,53.775043,-25.369632,-36.693021,-36.081568,-36.453831,-46.426553,-56.786729,-57.542214,-56.132174,-29.728346,-28.564691,-21.548516,-20.789295,-9.754496,-8.296384,-3.818923,-4.837682,11.062031,10.657812,11.599568,9.572302,121.425734,111.714893,-110.883894,84.119128
72,-4.071922,17.256369,5.208778,19.805518,-26.590347,-57.415924,-76.638908,-88.475647,-71.027985,-103.123398,-123.234444,-137.026806,-64.348412,-95.481606,-99.615097,-96.632538,-54.888496,-83.473663,-87.836838,-83.979034,-44.576683,-68.402367,-76.135712,-76.809425,-13.83129,-12.287282,-0.836255,12.507577,-18.532194,-2.172719,6.947755,14.275182,-6.287118,18.642357,34.949344,43.433171,8.080443,32.465989,46.083808,52.291515,23.724971,41.695206,53.164542,60.387488,24.380207,53.993282,80.435429,98.599491,37.84132,71.426697,89.377098,100.449886,34.493923,74.993019,72.697792,62.023716,32.527771,71.357746,65.759583,54.76387,32.660122,61.251183,57.047253,48.394375,-25.665138,-39.232754,-42.069197,-46.390491,-43.064305,-48.229264,-49.948982,-52.280245,-26.634466,-26.151269,-20.050204,-18.483596,-7.092374,-7.448458,-3.143219,-3.081623,13.563725,11.591695,12.742105,11.526394,117.307777,128.434759,-105.721149,103.388144
73,-5.138855,20.424288,6.511688,21.224049,-29.032402,-58.51593,-76.485558,-86.988373,-75.556984,-105.638123,-123.793373,-136.738472,-68.512115,-96.116409,-104.157944,-106.744881,-58.451042,-83.374557,-89.550934,-90.146027,-47.827148,-68.463936,-75.493126,-78.484039,-15.785505,-14.909143,-4.22731,9.240517,-11.820758,6.888073,17.763988,27.361052,1.377466,26.613934,42.556593,52.183853,15.919133,38.401964,51.25525,58.262749,30.463084,46.805207,57.804005,65.423759,22.266769,49.86208,77.464657,96.325207,36.812553,72.428112,91.432858,104.489651,33.557453,76.231327,78.384991,69.563999,31.636848,71.240845,69.718208,60.493412,31.220455,58.550835,57.418041,50.503979,-26.856829,-38.451271,-40.639953,-42.450105,-39.094248,-42.475422,-40.771327,-40.283962,-22.592808,-23.16894,-15.930742,-12.628299,-4.398482,-5.737601,-2.242528,-1.967553,14.146958,11.198746,10.973727,9.427497,112.14921,148.021743,-99.229174,123.774888
74,-5.661621,21.9582,1.636333,19.005357,-27.925415,-56.185684,-73.864746,-85.038757,-75.463371,-105.850296,-123.981571,-136.186981,-69.629288,-99.348793,-109.298859,-113.712044,-60.428123,-85.643578,-94.071579,-98.781967,-49.863052,-69.386101,-78.394775,-86.214867,-16.621729,-15.657496,-5.892286,6.703192,-4.943182,12.695144,24.45199,34.512429,8.878227,31.404407,46.595255,56.402888,23.337271,43.493964,57.159331,65.71627,36.935268,51.473785,62.488823,70.796477,19.220467,43.01342,65.149899,78.748169,38.414612,74.445477,93.37944,106.415863,35.359554,77.209053,85.326691,81.542816,32.781315,70.987759,75.507317,70.346546,30.608883,57.349262,60.275803,56.031532,-26.134905,-33.527077,-30.36842,-26.635021,-34.511626,-35.867881,-32.064982,-28.837473,-18.922642,-15.144505,-8.436465,-5.259036,-1.482936,1.294289,3.44734,2.959944,15.706773,16.773758,15.798102,13.336854,106.617222,168.687877,-97.463207,141.488179
75,-18.015633,31.243609,3.196507,12.916642,-29.306717,-56.908951,-76.270866,-89.618454,-68.50708,-103.350105,-116.358433,-124.051323,-61.914024,-96.947937,-108.074627,-111.750927,-52.884407,-85.086594,-95.579796,-98.903961,-42.959633,-68.833008,-79.297142,-85.335159,-15.388944,-10.763467,1.173443,14.619781,-3.453083,14.77286,27.263177,36.318567,13.559896,39.515694,52.094315,57.926332,29.450253,53.498828,63.709753,67.917796,42.880104,60.269328,67.521729,70.869095,23.056412,46.918659,65.631809,80.076084,40.32011,69.78178,86.467266,102.781849,32.746925,61.298962,78.185234,90.778027,25.592937,51.633854,66.692505,77.709675,19.919186,37.614613,48.161945,55.395355,-18.765456,-25.596503,-26.360942,-22.97208,-22.431516,-22.50327,-18.026736,-13.907366,-9.389212,-5.010861,4.099857,10.94841,4.85562,8.682725,16.23937,20.909307,18.669002,24.005534,28.226113,29.681818,88.785267,199.457582,-94.083023,153.930918
76,-1.132851,14.089468,7.447987,16.221339,-29.881325,-53.946533,-70.967102,-81.405602,-66.77227,-98.404999,-113.581581,-124.056416,-61.179771,-94.223557,-111.077785,-121.272755,-53.110657,-82.834625,-99.308624,-109.775276,-43.350677,-66.852493,-78.672295,-88.624306,-15.060493,-13.971772,-6.059506,4.823819,3.488096,21.447647,32.433354,40.464304,20.373437,41.809598,53.073862,59.089154,35.883041,55.341769,65.507307,70.487354,48.602391,62.609298,70.753993,74.769807,19.870262,37.963543,51.929798,64.103565,38.831577,59.871197,73.351135,86.564827,35.272751,59.172192,76.631584,94.810524,31.582661,53.140011,70.533714,87.648811,27.538662,43.788357,56.535816,69.532185,-13.11869,-18.988807,-20.774074,-20.300818,-17.029899,-19.122435,-16.488039,-13.946207,-9.192537,-6.934263,-2.029983,2.148791,-1.018573,1.756737,8.233121,12.632282,6.403765,10.131946,13.794548,15.900175,88.750248,212.881381,-85.537205,169.486587
77,-1.599884,16.832236,9.953442,36.016854,-30.836334,-54.073906,-71.653175,-80.709114,-64.956894,-95.751686,-111.701031,-123.458233,-60.401573,-92.822914,-111.514606,-124.884968,-53.312073,-82.136192,-100.162811,-113.204269,-44.804306,-66.852379,-80.189095,-91.945152,-15.683308,-16.687555,-10.708262,-3.144207,5.278796,20.716707,30.452957,38.08963,22.224961,40.088614,49.953119,56.383992,37.180602,53.337659,62.084976,67.323757,48.887554,61.97506,69.725478,74.259687,26.942425,51.325893,70.116291,79.835758,49.731102,81.955204,84.757633,76.293354,50.428619,86.812534,83.914318,65.940914,48.840981,80.759869,77.999439,64.997234,44.508076,71.789188,71.221218,60.213146,-14.953603,-19.429273,-16.135506,-8.267639,-21.529528,1.88771,21.136055,32.728089,-4.824436,25.818588,50.249027,61.984199,17.333588,47.845392,70.741025,82.595375,41.904694,65.035534,80.626895,88.672665,88.235779,228.669247,-74.498348,204.459072
78,0.240097,15.93562,-5.424213,17.110792,-32.834358,-60.515671,-83.246384,-99.001923,-63.198395,-93.41217,-112.826843,-129.949436,-58.231888,-88.735428,-112.059345,-131.280155,-52.228088,-79.85939,-101.431618,-118.247223,-45.519218,-67.572098,-83.763542,-97.902374,-12.677607,-17.939791,-17.065344,-14.841526,7.182252,14.936931,18.499188,19.842569,22.986406,33.336392,38.65619,40.939844,36.034762,47.131434,54.460529,56.96247,45.708025,57.857543,66.28388,70.939923,24.346561,52.314777,75.794907,92.131805,47.868462,80.997047,99.646568,112.213783,40.59082,74.246864,94.559097,107.766953,32.686729,63.761673,81.783371,93.676872,24.753284,48.933792,61.427536,69.212608,-19.617365,-25.614935,-23.769339,-24.456868,-12.986791,-0.938112,7.352807,13.100906,7.695398,20.511943,27.757551,31.237372,26.799,39.453326,44.019584,44.910889,42.068518,54.16672,57.598129,57.361563,88.85376,243.715631,-79.544678,220.680627
79,-3.313522,10.746609,7.254982,25.041089,-33.054771,-62.07653,-84.84169,-101.653061,-55.872803,-84.213066,-102.596512,-118.760891,-50.507698,-81.016846,-104.204121,-123.07251,-45.265045,-75.328789,-97.678356,-113.967247,-41.227341,-63.924065,-81.793556,-97.43557,-7.201271,-8.744044,-8.420842,-6.79378,19.146518,17.600041,14.570442,11.528802,29.292111,29.227643,28.961128,26.087635,35.897058,39.840501,44.180073,43.859959,38.502987,47.561402,53.942258,57.037003,27.346115,54.708881,75.215607,90.464516,65.507469,105.95787,110.996933,105.43705,59.425564,100.965042,104.446793,94.697456,51.688671,86.31546,87.719193,77.891464,41.866436,64.813042,66.430779,59.316845,-25.180459,-29.794142,-29.338917,-26.92991,3.482785,22.032856,23.702834,21.640679,25.333477,45.057176,42.442046,37.027029,42.245124,61.220902,60.546773,56.077278,54.157273,73.688187,75.423003,71.502346,85.727806,253.900219,-72.102127,245.159695
80,-2.543335,11.041715,-11.909409,7.055479,-29.203033,-57.784996,-80.945549,-97.255497,-50.551529,-82.454338,-99.195271,-111.432896,-47.871437,-77.083855,-98.286381,-115.336361,-44.447021,-71.38813,-91.783447,-107.394161,-41.490784,-61.32019,-77.530975,-92.904282,-14.31251,-21.422082,-22.769229,-21.238684,1.720181,1.341589,-4.965906,-11.744743,19.856339,22.004142,20.452107,15.901534,33.9773,41.951377,43.431658,40.090776,43.024785,53.632147,57.492474,57.189218,27.514458,57.730808,82.856026,102.655792,60.700951,99.11499,113.670387,120.043488,52.901402,96.032753,112.602997,117.91214,44.235649,84.12529,99.166603,104.41452,36.003628,66.777992,79.376678,83.67691,-19.802307,-23.11003,-21.388614,-20.960436,1.590444,20.428024,26.09239,29.009788,23.201482,41.503687,45.886608,46.955199,40.051996,57.384411,58.864568,56.954072,51.506019,64.882331,65.49329,62.809493,83.286324,264.82186,-83.909683,252.0951
81,-71.933441,15.104027,-4.338112,5.226925,-8.098984,-19.310532,-31.70929,-38.906536,-29.965267,-21.24836,-16.939087,-14.365768,-31.742764,-22.644997,-18.320961,-10.567589,-31.902866,-25.489712,-22.47963,-17.082939,-32.741032,-33.542118,-31.847591,-29.282627,-18.145297,-12.323097,2.849782,17.714649,7.880094,13.040699,5.715556,-2.634087,24.456436,26.986412,17.235404,7.206767,34.975248,38.350649,27.355371,17.5231,41.691902,47.119208,39.896694,32.407419,32.592487,61.859837,87.078552,107.242241,59.491825,93.285599,111.686554,125.654526,50.883694,86.734428,107.010841,121.111565,43.093872,74.216824,93.670006,106.566582,35.614986,57.554455,71.177731,81.360741,-13.996163,-16.302788,-13.948121,-15.918762,10.635026,25.692803,34.326807,41.424152,28.934576,46.635764,55.032399,59.598101,43.363362,61.849583,68.861775,70.55213,53.157101,70.796971,76.846967,77.935195,11.523685,279.899813,-88.076992,257.295951
82,8.468513,8.859517,2.348843,10.19876,1.200027,-8.958778,-19.307899,-25.823364,-31.505814,-10.722885,1.470566,8.503876,-42.44854,-22.668571,-5.818634,8.446655,-49.497414,-33.281937,-17.605591,-5.066071,-54.100513,-43.235493,-30.052643,-19.855499,-21.371571,-32.095024,-34.611847,-32.732597,-7.217203,7.306988,10.058401,8.915463,13.823262,28.31948,31.306718,28.789092,30.810183,41.695731,42.932344,40.630721,44.618439,58.774783,55.725424,50.117808,32.508831,60.378113,83.882389,104.604206,61.906815,92.394276,110.192013,123.271236,51.717281,86.41737,106.656818,121.450024,41.988888,73.394108,92.12923,106.193447,32.378654,56.852131,71.956959,84.870472,-11.510462,-13.312216,-11.574188,-13.890446,15.25865,28.765194,36.493752,42.523248,31.925642,48.295491,56.096606,61.462964,44.423864,61.942826,68.701224,72.27861,52.631049,69.074134,74.617778,77.539498,20.102606,288.759083,-85.617743,267.494464
83,-44.616737,9.121586,3.208637,8.204221,14.954453,23.648529,28.004036,31.157684,6.892948,32.550659,48.961716,60.035362,-3.176651,22.438545,43.448753,60.934753,-10.874119,12.265205,33.928986,50.894394,-16.326599,0.179729,15.811729,30.185852,-23.185242,-32.593843,-33.716713,-31.632081,-9.486222,5.469296,15.220427,22.13956,8.747625,24.563511,34.171813,40.092999,23.669797,36.788302,44.428742,49.889393,34.801235,47.238201,52.248567,53.720327,30.775509,57.727661,81.275597,101.413078,61.03981,91.617622,108.847733,121.308861,50.698757,85.73925,105.414276,119.740448,40.689983,72.464333,90.848122,104.49028,30.983448,55.662231,70.49881,83.499298,-12.306795,-14.735871,-11.849225,-12.903428,15.646566,31.010131,38.98322,44.823266,32.311829,50.399328,58.899395,64.350722,44.603866,63.191852,70.348231,73.942722,52.599186,69.693182,75.181188,77.786747,-24.403925,297.873675,-82.298899,275.691692
84,14.967613,5.747481,2.336483,5.850419,12.007942,15.714226,13.0513,7.28199,-1.602631,21.516609,35.43663,44.079323,-9.546947,11.833305,30.672455,46.749458,-18.296814,4.574089,25.461159,42.10968,-26.538391,-10.825195,6.082535,20.817833,-25.283274,-37.057719,-38.090186,-37.117555,-17.03027,-1.325411,4.838454,8.267701,3.487416,20.384181,26.202491,28.527332,20.982852,33.378691,36.708212,38.504222,36.880001,49.711613,48.64259,45.11658,28.288937,54.675064,79.098301,99.06023,57.911968,89.909191,107.041683,119.667606,48.172073,84.668026,105.778942,120.063686,38.61517,72.327518,91.486301,104.699421,29.938602,56.394596,71.672916,84.183712,-12.720955,-14.63139,-11.625627,-14.225257,15.785567,32.598228,40.485793,46.084765,33.665213,51.903753,59.186597,63.428356,46.255443,64.520288,70.3796,72.776319,54.031116,70.035774,74.048068,75.679699,-9.162455,303.637783,-79.688559,281.558738
85,-35.089588,14.542778,-1.252956,4.697477,12.852974,30.592289,43.364811,50.493107,26.941452,57.047138,73.485775,83.734417,19.998837,51.336651,69.60165,84.527378,13.763752,44.081554,62.991428,76.891994,8.277397,30.651798,46.073399,58.135014,-24.737215,-39.899967,-46.158989,-48.729164,-16.124206,-8.478332,-1.520851,2.080124,2.297301,12.215899,17.366068,16.991305,16.992911,25.086043,27.022104,25.643896,29.030783,35.679697,35.113199,31.330245,27.690639,54.511414,79.009094,99.452133,57.321625,89.544296,107.03064,120.692024,49.108486,84.933929,105.433159,119.702339,41.337719,74.921951,94.028549,107.646904,34.611111,61.041641,76.678391,89.512024,-13.973068,-15.741168,-12.797526,-15.646628,16.660385,32.576059,40.19322,45.303993,34.397696,49.870435,55.358565,57.160195,46.479535,62.416452,66.477036,66.355696,53.676607,67.372787,70.087335,69.559987,-44.146528,318.187724,-80.836,286.263378
86,44.468594,-9.245704,-0.67812,1.560989,8.322945,7.016487,-0.297318,-9.092789,-12.828541,7.560425,19.206963,24.802895,-18.664284,1.882896,17.668304,29.624176,-24.990921,-2.44606,14.225349,26.414108,-30.717716,-13.91161,0.678291,11.06266,-24.176336,-35.745584,-36.216678,-35.922746,-12.447401,3.871813,4.31444,0.893096,6.875106,24.705352,22.859015,18.344318,23.066805,38.126248,34.699039,30.010083,37.376042,51.359053,45.829674,38.595984,27.984409,54.55862,78.861179,99.339695,55.046196,87.793407,106.345196,120.332623,46.762905,83.981724,105.226421,119.22987,39.501228,74.132137,93.043499,105.171261,33.719101,60.338974,76.005306,87.986584,-14.182958,-15.275076,-10.89197,-11.296065,17.864888,34.055908,42.102481,47.560908,35.676671,50.609773,54.448488,54.733836,47.233075,62.068735,64.178068,62.175687,53.69081,66.655,68.789218,67.493756,0.390358,308.986079,-81.445827,287.868426
87,-5.859947,7.042017,1.028709,2.222212,5.345306,6.963272,4.472122,-1.67942,-17.126713,7.640991,27.129707,39.076538,-24.470673,5.171127,27.439957,45.258865,-25.875263,0.974693,20.392914,34.761543,-24.946346,-6.786804,8.192482,19.405746,-20.820139,-34.051771,-37.839417,-39.853222,-7.641243,5.722164,10.632803,12.94406,9.430091,21.018111,24.478728,23.483929,22.320366,31.366678,32.091195,30.832722,32.530982,40.483447,38.281118,33.260686,27.788544,54.978447,79.71056,100.662975,53.033237,86.531124,106.009998,119.794979,44.54052,82.618618,103.942738,116.572552,37.557392,73.453045,92.442913,103.881168,32.466545,60.806351,76.725025,88.093128,-15.379002,-15.631314,-10.543945,-10.799036,16.564301,34.846004,43.782524,49.411506,35.192116,53.7349,56.591659,54.651955,47.420735,64.365974,64.920431,60.52973,54.158508,67.916685,68.600941,65.391278,-5.312862,316.07464,-80.260391,290.137182
88,-16.093369,11.382639,0.013218,0.885501,8.253365,15.998611,19.335022,20.806274,4.646358,30.274429,46.104584,56.174927,-2.533836,25.761223,43.603592,57.866821,-6.116524,19.570427,34.138184,44.886932,-8.374901,8.277397,19.978867,28.444176,-20.641125,-35.998452,-45.077615,-52.489332,-16.106298,-6.351833,-1.723269,0.768484,0.007348,10.083225,12.750966,12.587204,13.134436,20.90202,21.462097,20.001082,24.168061,29.735664,28.48318,24.665893,27.344627,54.642563,79.383659,100.566788,55.266838,88.013306,106.235733,119.379616,46.438122,83.892174,104.714813,117.9245,38.519325,73.732224,92.010612,103.156586,32.185822,59.704742,75.092125,86.142197,-15.212461,-15.418152,-10.031293,-10.220496,17.686553,34.969197,42.694791,47.076476,35.486603,52.268019,55.970635,55.304966,47.205658,63.154925,64.771304,61.852918,53.915952,67.404033,68.82528,66.56151,-21.235142,327.514074,-80.076084,291.079478
89,41.899567,-18.394707,-0.759888,0.081078,2.998924,-5.77446,-19.276199,-33.331947,-35.0877,-21.699142,-5.520859,7.066269,-44.069366,-30.296059,-7.760353,12.216797,-49.738026,-35.702763,-11.71566,7.789307,-53.272877,-43.764496,-26.273003,-11.458626,-20.233881,-31.322773,-31.307521,-30.441471,-8.634869,4.691611,9.172159,9.542723,10.872766,25.195712,28.768282,27.843755,27.695183,39.85952,40.136409,38.209673,42.679971,54.663688,50.93421,45.367966,27.501469,54.868584,79.392815,100.560036,56.475964,88.95195,106.919861,119.795151,47.768097,84.560738,104.939232,118.028069,39.602966,73.99807,92.078247,103.098335,32.714424,59.653759,74.89151,86.025124,-15.155589,-15.229442,-9.422928,-9.036864,19.238897,35.752686,42.86973,46.800205,36.519008,51.560915,54.915815,54.282255,47.86929,62.633443,64.448226,62.056324,54.376857,67.731989,69.461556,67.545256,20.882006,309.220668,-80.618391,291.261858
90,-47.001858,13.973995,0.364838,0.373775,11.792564,22.204456,30.060368,34.304867,8.816872,33.706112,50.170956,59.730663,1.422729,29.812717,47.533665,62.747211,-2.312222,24.162312,38.95483,49.743061,-5.311546,14.767513,26.562824,34.385548,-23.509432,-38.304583,-41.572106,-40.085465,-13.92126,-1.966812,2.724181,4.921693,3.371325,15.148055,18.499991,18.57014,16.420484,26.313147,26.733668,26.055895,26.781092,35.604361,33.506885,28.950878,27.768745,54.878254,79.295425,100.956345,55.256081,88.095818,106.433029,119.459496,46.126957,83.374329,103.945656,116.686821,37.869473,72.810631,91.058693,101.927719,31.237965,58.220215,73.746986,85.232964,-14.619534,-14.636206,-8.715515,-8.48426,18.536733,35.921141,42.985697,46.594267,36.235018,52.780856,55.914689,54.604407,47.881455,63.902229,65.421103,62.249911,54.419959,68.60971,70.383861,68.05797,-25.897636,323.223995,-80.031338,291.664964
91,48.345623,-13.217984,-0.291023,0.97578,1.336784,-8.521729,-22.325706,-35.181141,-36.669731,-24.333687,-8.808403,4.38755,-46.267548,-33.810883,-11.606369,9.502029,-52.23278,-39.719925,-16.142006,4.033928,-55.917206,-47.475758,-30.511665,-15.442429,-20.180035,-30.666922,-31.002474,-30.408496,-8.681799,3.714411,9.064899,9.743165,11.252654,24.622915,28.895303,27.947804,28.652191,39.915034,40.652272,38.669652,44.085966,56.190096,52.594678,47.02862,27.479382,54.768677,79.257431,100.423279,55.643063,88.252945,106.546097,119.704056,46.636562,83.833809,104.291382,117.374496,38.320484,73.19664,91.353035,102.275047,31.492252,58.658009,74.078064,85.3545,-14.789409,-14.995408,-9.478565,-8.94887,18.723836,35.588306,42.235121,45.509807,35.938555,51.990512,55.233335,54.189198,47.252095,63.021421,64.812924,61.962586,53.721562,67.492706,69.44723,67.476342,22.613783,310.047522,-80.156565,292.682256
92,-56.566372,17.776647,-0.135326,-0.173148,14.48267,28.041286,37.924633,42.736073,18.211269,42.897549,57.902241,65.621738,12.12553,39.515362,55.457211,68.645382,7.669487,32.659435,45.244961,54.023838,3.096027,21.755619,31.840382,38.018131,-24.521336,-41.2431,-46.152134,-45.971576,-16.865026,-6.681086,-3.293026,-1.814845,-0.196737,10.92865,13.596947,14.042723,12.866192,21.99525,21.736392,21.132658,23.241435,30.890335,28.138366,23.704501,27.352982,54.606285,79.178638,100.369549,55.902386,88.500309,106.77,119.55637,46.870136,84.444866,104.915028,117.951565,38.337708,73.641644,91.737385,102.46027,31.180687,58.763981,74.202747,85.2915,-14.81874,-15.026654,-9.555938,-8.61128,18.520122,35.499386,41.891232,44.594727,35.793935,51.735113,54.877468,53.66469,47.163606,62.820053,64.615446,61.756031,53.622452,67.341974,69.326138,67.259228,-33.791885,327.829618,-80.131187,292.514558
93,66.494694,-19.696158,-0.368786,-0.170678,-2.517929,-16.744308,-32.2229,-45.03994,-46.028194,-33.378754,-19.142647,-8.392525,-53.889713,-40.374184,-20.426903,-2.600212,-57.564297,-44.424477,-24.299126,-7.728195,-58.475075,-49.602871,-35.654869,-24.298439,-19.032341,-29.038378,-29.145083,-28.859673,-2.559431,9.442502,11.194115,9.162032,16.615677,29.229928,29.700281,26.196439,32.855418,43.462348,41.658125,38.056223,46.304349,57.952144,52.928439,46.708259,27.544498,54.653492,79.315567,100.721626,55.49675,88.121681,106.306229,118.955841,46.530247,84.303474,104.886703,117.988014,38.291988,73.604851,91.665688,102.148018,31.503582,58.966084,74.643402,85.81707,-14.783851,-15.094765,-9.541241,-8.292833,18.763789,35.781029,42.261797,45.179133,36.253482,51.843793,54.927732,53.800479,47.711765,63.188888,64.841391,61.866688,54.124483,67.665731,69.499224,67.084598,32.79954,308.139218,-80.403242,292.349638
94,-48.935165,19.951496,0.038395,0.213718,13.063316,20.181999,23.09063,22.866325,3.535652,27.156601,44.072571,53.68309,-4.886112,21.529999,40.42202,55.269928,-9.604225,12.86293,28.910751,39.737206,-12.623234,3.711205,15.11673,22.937279,-25.127416,-40.095778,-43.096909,-43.063873,-19.457246,-11.345033,-8.030826,-5.833006,-1.65627,7.925727,9.993872,10.257978,11.975566,19.803234,19.618106,19.414206,22.911688,28.538509,25.583319,22.171732,27.308121,54.586258,79.331989,100.699711,55.473976,88.244991,106.704197,119.730434,46.523666,84.338207,105.02409,118.405209,38.25943,73.581791,91.769657,102.6087,31.484642,58.751278,74.343281,85.707264,-14.714753,-14.872463,-9.460595,-8.720949,19.0739,35.686551,41.899013,44.494259,36.316467,51.928453,54.885619,53.70211,47.615928,63.118739,64.706095,61.732504,54.068969,67.622814,69.499409,67.313321,-15.960474,328.0909,-80.189695,292.563541
95,51.707497,-19.216358,0.015564,0.042361,-3.823814,-19.384117,-36.149139,-49.76944,-46.478748,-36.697998,-21.899643,-9.791565,-54.605827,-43.99086,-23.581467,-4.702034,-58.672028,-48.487816,-28.045578,-10.63488,-60.034904,-53.238258,-39.375,-27.572823,-19.458049,-29.159224,-29.043565,-28.244206,-1.521962,9.20995,10.859613,9.568597,17.672844,28.709187,29.433704,26.566571,33.814093,43.35305,41.624347,38.264569,47.045786,57.392932,52.819079,47.291677,27.2085,54.192123,78.776836,99.883976,55.420303,87.785397,106.067562,118.824291,46.58638,84.275608,104.909191,118.179646,38.341427,73.578701,91.537342,102.04668,31.531506,58.794937,74.347057,85.51466,-14.912477,-15.261923,-9.868827,-8.512418,19.270945,36.072244,42.429573,45.026857,36.590639,52.363732,54.973613,53.375574,47.928385,63.424404,64.568083,61.133093,54.380068,67.875435,69.599507,67.09701,35.875998,308.879081,-80.045156,292.61044
96,-51.747322,23.332949,-0.343437,0.027849,12.29393,19.489288,21.329842,20.276871,6.927452,28.138161,43.780289,53.254967,-0.400429,22.650719,40.828285,55.636368,-5.574074,14.03389,29.148903,40.204926,-9.68502,3.617935,14.142723,22.157478,-26.560396,-42.902025,-47.600799,-49.629362,-21.868229,-15.796373,-13.202423,-11.515217,-4.329198,3.688414,4.996411,5.195741,9.198774,15.530043,14.902536,14.321156,20.045419,25.134208,21.942268,18.290966,27.304287,54.17181,78.727741,100.176144,54.989548,87.876034,106.281452,119.235477,46.316128,84.564114,105.30962,118.70573,38.456039,74.122639,92.332134,103.090153,32.138729,59.417782,75.026608,86.356716,-14.789162,-15.241854,-9.873212,-8.394722,19.453109,36.008641,42.058082,44.534644,36.756624,52.199352,54.452563,52.639077,48.015638,63.233595,64.284834,60.920857,54.343821,67.883092,69.658417,67.23848,-15.8004,332.244912,-80.317669,292.671172
97,30.411301,-23.317882,0.447807,0.67098,4.350471,-2.170944,-12.247581,-21.805115,-30.481853,-12.043533,4.869003,14.759903,-38.791637,-18.452454,2.700233,19.453011,-44.175568,-24.398746,-2.705498,13.779373,-48.120403,-34.033756,-17.363091,-4.602814,-21.549288,-32.117563,-32.601933,-31.014638,-8.861863,5.912849,7.3801,5.334742,11.339475,26.521431,27.626085,24.725729,28.332015,40.616333,39.177117,36.160794,42.791986,54.82535,50.21136,43.930355,26.755314,53.833694,78.395634,99.560795,54.980793,87.886448,106.195965,119.159946,46.388741,84.633808,105.410442,118.736401,38.572884,74.359646,92.595005,103.595867,32.356968,59.800758,75.28101,86.41943,-15.239569,-15.362885,-10.050003,-8.325746,18.93175,35.804247,41.899939,44.391877,36.495481,52.385839,54.690611,52.9955,48.04287,63.650163,64.341645,60.854228,54.484612,67.841226,68.721231,65.938757,14.805422,308.929469,-79.675341,293.344591
98,-35.748367,15.611924,-0.691452,-0.633744,8.387775,15.31002,22.620392,27.175598,-0.402718,25.443878,42.671356,52.232323,-7.365417,23.559265,42.788086,59.239311,-9.87505,19.33754,35.920601,48.479347,-10.868397,10.476322,23.384628,32.424202,-22.997521,-38.49354,-42.965937,-40.506912,-13.456835,-2.355346,2.857377,5.985961,4.528034,14.475099,18.622689,19.091869,17.754664,25.421965,26.334081,25.642908,27.691417,33.948462,31.792632,26.938802,26.965942,54.207973,78.950214,99.990978,54.977188,88.230801,106.735096,120.022602,46.332607,84.90778,105.946369,119.546986,38.654137,74.714756,93.245831,104.388828,32.589798,60.196495,75.924625,87.278652,-14.76897,-14.822878,-9.608364,-8.175631,18.954165,36.180863,42.532325,45.368336,36.553156,52.331004,54.808801,53.404535,48.170014,63.56501,64.436555,61.135254,54.665108,68.166342,69.385048,66.766398,-20.813484,324.545731,-80.237331,292.715185
99,45.253143,-16.716948,0.0741,0.917241,2.350273,-7.40593,-19.617577,-30.042572,-42.482586,-25.08007,-5.835571,6.600494,-51.630707,-30.767441,-7.301445,10.886993,-55.610504,-36.467972,-12.655106,5.145836,-57.20993,-44.314899,-27.056122,-13.948517,-20.078208,-30.947454,-30.972895,-28.908208,-7.086601,6.937227,9.712969,9.057242,13.445102,27.56489,29.754436,27.515428,30.538234,42.268404,41.580875,38.894855,44.936825,56.71164,52.684402,46.840343,26.813107,54.063835,78.789711,99.992752,54.618359,88.051758,106.573334,119.746399,46.129303,85.117149,106.163864,119.738045,38.693962,75.175552,93.599396,104.812202,33.024044,60.71909,76.311378,87.514343,-14.969164,-15.471195,-10.259831,-8.086031,18.621886,35.467893,41.3595,43.753501,36.60867,52.079989,54.300719,52.628332,48.415843,63.421193,63.927176,60.343738,54.929585,67.89396,68.72086,65.78716,24.513302,307.843665,-80.089588,293.647307
100,-37.792683,15.701401,0.211143,-0.519753,7.453022,11.717777,18.761044,24.397373,-7.90781,15.604992,34.306126,45.664387,-16.043472,14.124126,34.974232,52.496624,-17.921047,10.204525,28.154125,41.626339,-17.389584,3.48444,16.461582,25.810947,-20.991867,-36.813064,-40.646344,-36.818621,-12.468458,-1.09502,3.834392,7.117476,5.058161,15.531834,20.806122,22.460354,17.965171,26.641227,28.460641,28.946926,27.57761,34.756219,33.291994,29.370348,26.778488,54.200249,78.966637,100.314789,54.26548,88.06469,106.496315,119.425621,45.489006,85.239601,106.24157,119.432373,37.929497,74.970245,93.246918,103.981934,32.386837,60.554123,76.017151,86.787987,-14.973116,-15.159603,-9.709203,-8.050957,18.08966,35.929786,42.272727,45.030932,36.323815,51.926415,54.222234,52.613389,48.428378,63.29479,63.737972,60.308478,55.064139,68.040247,68.768902,65.852245,-13.173065,323.533349,-79.772129,293.115837
101,-9.032822,5.202904,0.031471,0.025194,7.877712,15.372448,25.419674,34.542332,1.055317,27.102757,44.978313,55.226498,-6.038704,25.572453,44.649067,59.534512,-8.235683,22.17905,38.486195,49.636059,-7.423782,12.65934,24.153728,31.754551,-18.941198,-34.836804,-43.540401,-48.204595,-16.46797,-6.322686,-1.479478,1.236552,0.100468,10.485343,13.94244,15.041598,13.46511,21.724104,22.499565,21.904415,24.440443,31.572739,30.454933,26.931578,26.758175,54.095078,79.02832,100.298309,54.624882,88.050499,106.480865,119.47998,45.955582,85.086365,106.071968,119.442787,38.378849,74.844131,93.093452,103.851242,32.651196,60.341549,75.911179,86.947632,-14.781752,-15.160282,-10.021413,-8.526867,18.734581,36.130351,42.502129,45.193706,36.60268,51.810139,54.245761,52.758255,48.572689,63.194754,63.750446,60.249939,55.402408,68.454592,69.466249,66.614492,-22.141857,328.73843,-79.676628,293.143208
102,-23.577576,-8.91466,0.019226,0.13653,13.860111,31.713181,45.42944,51.565762,24.623108,54.411793,71.398602,84.605541,19.307613,53.297253,70.935116,86.107922,15.280209,47.385921,61.662083,72.134571,12.649269,33.623314,45.302982,53.977375,-20.377945,-32.857024,-36.07774,-37.968414,-8.251028,7.478222,10.704496,10.007704,8.788133,25.152672,28.466878,28.526591,21.272214,34.601967,34.32903,31.575703,29.82372,42.593643,40.197727,34.836618,26.472588,53.835697,78.962173,100.047569,53.826656,87.834549,106.42971,119.65313,45.316486,84.725189,105.959358,119.570389,38.129883,74.894028,93.409882,104.531708,32.810497,60.655518,76.29673,87.509308,-14.71148,-15.190354,-10.192214,-8.905212,18.513515,35.970603,42.315334,44.959672,36.528703,51.749933,54.292568,52.833899,48.564167,63.147453,63.833933,60.362077,55.398024,68.457433,69.595246,66.887491,-45.679235,319.819586,-79.617205,293.275554
103,79.312077,-10.862206,-0.211945,0.834557,-1.700363,-15.869293,-32.24762,-45.42532,-51.537552,-37.928581,-16.886902,-1.575623,-60.730305,-42.946072,-17.166481,4.36306,-63.777924,-47.519703,-21.952858,-1.950302,-63.959541,-53.281231,-35.047531,-20.515823,-19.496025,-30.672788,-31.591264,-30.033116,-4.203536,9.72112,13.395702,13.103684,16.507367,28.952422,31.827459,29.896956,32.875055,42.651627,42.323053,39.712678,45.877098,55.950196,52.071467,46.26557,26.333084,53.626156,78.801613,99.94812,54.03883,87.797813,106.428452,119.698448,45.873299,85.082359,106.274643,119.981232,38.835869,75.394707,93.764076,104.685974,33.522778,61.242828,76.766624,87.87014,-15.284894,-16.02028,-11.112789,-10.212345,17.907619,34.568683,40.68852,43.203305,35.966713,50.595818,53.23219,51.96433,48.031014,62.108132,62.849014,59.539377,55.0797,67.799174,68.921055,66.312656,33.680992,308.961703,-79.780998,294.114434
104,-29.912338,11.648598,-0.005493,-0.337466,5.181198,2.289047,-1.640167,-7.594757,-25.500469,-0.021858,20.400009,32.451553,-33.011341,-1.195679,21.629906,40.036583,-32.763062,-4.423485,16.109047,31.28849,-29.836693,-10.663376,4.576149,15.691223,-21.118394,-34.170023,-36.022288,-35.1831,-9.389582,2.052831,5.771749,7.750788,8.07893,18.746499,22.000066,22.029212,21.22337,29.545473,30.282526,30.06609,31.326108,38.89078,36.67851,32.4759,26.128693,53.356705,78.439865,99.491043,54.318924,87.797585,106.237221,119.281197,46.149902,85.035324,106.409798,120.49427,38.757362,75.165596,93.451996,104.29985,32.922306,60.499763,76.045532,87.252502,-15.065989,-15.734499,-10.660221,-9.304243,17.637338,34.098948,40.159133,42.544058,35.632025,50.423349,53.689328,52.739545,47.682618,62.047617,63.200126,60.048694,54.679311,67.734274,69.25988,66.748182,3.820839,320.58631,-79.734306,293.752977
105,-22.434597,10.008692,0.403404,-0.773424,5.9828,12.161579,20.128384,26.78896,-3.561974,22.497654,40.770893,52.696095,-10.649185,21.003399,41.823292,60.345211,-11.905003,17.232342,35.479946,49.789982,-10.462589,7.322159,20.64291,31.228008,-20.318356,-36.633,-44.83364,-49.145547,-17.809869,-8.685319,-4.67216,-2.668976,-1.699001,8.579355,12.485254,13.637208,11.639088,20.347502,21.320132,21.181626,22.389773,29.858794,28.402905,24.85732,26.18597,53.153057,78.042412,98.952827,53.684349,87.368889,105.687332,118.548203,45.257778,84.305305,105.584793,119.571991,37.70731,74.346771,92.695198,103.635292,31.765766,59.580803,75.27935,86.728935,-14.75946,-15.320092,-10.056549,-8.155006,17.912189,34.843534,41.183141,43.738928,35.95745,51.065182,54.503569,53.639495,48.006067,62.617017,64.043822,61.019781,54.973984,68.110457,69.760737,67.25083,-18.593388,330.551885,-79.310532,292.936436
106,-23.447514,-11.070799,-0.085316,0.501784,14.092884,32.695999,45.894241,50.846329,22.452908,51.143646,68.887939,82.030792,16.736012,50.693207,68.930855,83.635712,13.038254,45.251884,59.419899,69.496651,11.390133,32.535095,44.0205,52.20623,-19.702086,-31.481904,-35.228795,-38.623339,-8.865568,7.060048,11.367942,11.895476,7.77024,24.346829,27.457444,28.208329,20.287357,34.770237,33.951735,31.093123,29.287541,41.690358,39.120059,34.550529,26.419888,53.315392,77.854786,98.71542,53.941383,87.42239,105.449581,117.983837,45.488892,84.517879,105.449352,119.194851,37.847614,74.368687,92.490292,103.2411,31.732292,59.623489,75.200214,86.550007,-15.153057,-16.018921,-10.762232,-9.031986,16.342555,33.590186,40.134248,42.961552,34.62784,50.228094,53.761946,52.967466,46.982307,62.086458,63.691536,60.894675,54.178576,67.503636,69.219557,66.982277,-42.038298,319.404145,-79.393244,293.361279
107,61.975479,-11.762589,0.462914,-1.055685,3.836975,-6.237144,-20.401268,-33.682365,-36.650677,-17.527885,-0.256004,9.778976,-44.850655,-22.861061,-0.759659,16.539001,-48.697071,-27.790718,-5.030937,11.845894,-50.291233,-35.989895,-18.9925,-6.115265,-20.08111,-30.415042,-31.426205,-31.607072,-5.06409,9.358831,10.502757,8.364217,15.339729,29.847617,30.2908,26.666298,31.877724,43.353235,41.177521,37.516339,45.293865,56.922888,51.902148,45.15011,26.697006,53.438416,77.900105,98.716335,52.501373,86.616039,104.856091,117.371464,43.945312,83.642635,105.036793,118.750248,36.359825,73.66293,92.292538,103.230114,30.443344,58.838711,74.79578,86.418514,-14.898398,-15.622051,-10.0739,-7.53213,16.591656,34.243876,40.696424,43.528545,34.998405,50.932666,54.586932,53.843086,47.371643,62.661725,64.483732,61.744299,54.39038,68.000418,70.058559,67.888773,19.910688,307.594533,-78.956823,292.258571
108,-20.289116,10.825218,-0.512238,0.99517,6.292191,4.981842,2.376938,-1.228867,-21.745834,4.301949,23.612823,35.460205,-29.610901,1.352348,23.878899,42.320824,-30.347214,-2.966309,17.023659,32.371788,-28.538361,-9.404926,5.364418,16.390228,-21.342671,-33.999098,-36.205069,-36.24885,-8.441096,4.236325,8.523286,10.741237,9.489186,20.624885,23.435393,22.558414,22.802019,32.221056,32.536786,31.550076,32.956689,42.094021,39.587325,34.758628,26.512642,53.269501,77.909145,98.931026,53.357105,86.931324,105.113583,117.723484,44.796181,83.880787,104.946384,118.716602,37.229061,73.927975,92.242069,103.140049,31.29118,59.196224,74.918461,86.562595,-15.250808,-16.415606,-11.236599,-8.786404,16.022071,33.427289,39.991543,42.914807,34.21084,50.009065,53.505065,52.824699,46.501518,61.696689,63.351538,60.555665,53.619426,67.080708,68.964033,66.759358,-0.408783,318.323544,-79.499416,293.157534
109,-23.616371,7.505701,-0.111923,-1.377713,9.221363,16.393204,24.771538,31.910934,3.772373,28.671227,46.265259,57.984352,-3.905354,24.182968,43.542824,60.522537,-6.928768,18.816032,36.234856,50.423813,-8.133888,9.625397,22.584,33.160515,-20.313786,-35.141912,-41.957058,-45.047049,-15.239446,-4.885569,-0.191735,3.141614,0.977015,13.133819,17.506242,18.654799,14.013391,24.059072,26.242443,26.803507,24.324475,32.814972,32.35629,29.113775,26.954155,53.573799,77.848377,98.75742,54.388618,87.484875,105.410557,118.026295,45.641613,83.576832,104.237309,117.605267,37.660503,72.895832,91.285,102.242031,31.056061,58.206024,73.80518,85.246067,-14.781443,-15.161579,-9.451086,-7.373678,17.795851,34.444503,40.776514,43.597582,35.379034,50.598164,54.522835,53.994004,47.013923,62.099858,64.637923,62.311291,53.758118,67.441268,69.872938,68.026045,-24.051933,325.79346,-79.638119,291.744036
110,-19.215603,-5.236497,-0.219784,-0.108619,13.057709,28.136044,41.501827,50.960026,20.794258,48.624058,65.801296,77.887402,15.864601,46.928387,65.70528,82.300587,12.562695,41.456852,57.953625,71.084576,10.043449,29.546299,42.965069,54.096966,-21.002488,-34.928935,-38.080368,-38.945059,-11.925857,-1.227351,3.127103,5.694808,4.910269,17.38836,21.360888,22.965287,18.23607,29.394555,30.852111,30.965485,28.355419,39.336988,38.466678,35.129562,26.920452,53.783855,78.40416,99.621735,53.86694,87.443047,105.646362,118.444176,45.356255,83.652992,104.499207,117.836609,37.616386,73.412132,91.837463,102.668266,31.368313,58.820171,74.408913,85.851402,-14.723089,-15.262788,-9.713155,-7.615123,17.459311,34.21368,40.706983,43.633582,35.181618,50.56167,54.629231,54.1385,47.029608,62.189457,64.593463,62.200572,53.976838,67.760518,70.216579,68.462064,-43.268709,320.518385,-79.859076,291.596838
