takenoko1/special-research/HandMotion_SimilarSearch_自分用/NewProject/handData/key/d4_feature_d2/146.csv
,vel_0x_L,vel_0y_L,vel_0x_R,vel_0y_R,posFromWrist_1x_L,posFromWrist_2x_L,posFromWrist_3x_L,posFromWrist_4x_L,posFromWrist_5x_L,posFromWrist_6x_L,posFromWrist_7x_L,posFromWrist_8x_L,posFromWrist_9x_L,posFromWrist_10x_L,posFromWrist_11x_L,posFromWrist_12x_L,posFromWrist_13x_L,posFromWrist_14x_L,posFromWrist_15x_L,posFromWrist_16x_L,posFromWrist_17x_L,posFromWrist_18x_L,posFromWrist_19x_L,posFromWrist_20x_L,posFromWrist_1y_L,posFromWrist_2y_L,posFromWrist_3y_L,posFromWrist_4y_L,posFromWrist_5y_L,posFromWrist_6y_L,posFromWrist_7y_L,posFromWrist_8y_L,posFromWrist_9y_L,posFromWrist_10y_L,posFromWrist_11y_L,posFromWrist_12y_L,posFromWrist_13y_L,posFromWrist_14y_L,posFromWrist_15y_L,posFromWrist_16y_L,posFromWrist_17y_L,posFromWrist_18y_L,posFromWrist_19y_L,posFromWrist_20y_L,posFromWrist_1x_R,posFromWrist_2x_R,posFromWrist_3x_R,posFromWrist_4x_R,posFromWrist_5x_R,posFromWrist_6x_R,posFromWrist_7x_R,posFromWrist_8x_R,posFromWrist_9x_R,posFromWrist_10x_R,posFromWrist_11x_R,posFromWrist_12x_R,posFromWrist_13x_R,posFromWrist_14x_R,posFromWrist_15x_R,posFromWrist_16x_R,posFromWrist_17x_R,posFromWrist_18x_R,posFromWrist_19x_R,posFromWrist_20x_R,posFromWrist_1y_R,posFromWrist_2y_R,posFromWrist_3y_R,posFromWrist_4y_R,posFromWrist_5y_R,posFromWrist_6y_R,posFromWrist_7y_R,posFromWrist_8y_R,posFromWrist_9y_R,posFromWrist_10y_R,posFromWrist_11y_R,posFromWrist_12y_R,posFromWrist_13y_R,posFromWrist_14y_R,posFromWrist_15y_R,posFromWrist_16y_R,posFromWrist_17y_R,posFromWrist_18y_R,posFromWrist_19y_R,posFromWrist_20y_R,posFromBody_0x_L,posFromBody_0y_L,posFromBody_0x_R,posFromBody_0y_R
2,0.857506,8.631473,1.108246,0.050574,0.282669,3.698959,12.86087,21.069031,-12.540264,11.443176,29.419785,42.537117,-17.751789,6.822853,29.593849,47.34581,-18.782215,1.593246,21.162415,35.620537,-17.58625,-2.753792,10.441475,20.69149,-18.835666,-31.310052,-34.46062,-32.787122,-10.462064,1.110272,7.091788,10.986757,8.677106,19.510351,23.224639,21.610421,22.995915,29.79939,30.560773,28.234141,34.788762,40.368838,37.023448,32.122379,26.619415,51.898785,74.907589,95.380383,51.342258,84.532413,102.579403,115.79813,43.260098,80.81068,101.720295,115.575657,35.979023,70.8288,89.885616,101.771793,29.904327,56.853104,72.663403,84.705219,-15.443037,-16.463957,-10.349184,-7.453398,17.297093,32.682764,38.374732,41.451199,34.936284,48.973387,51.971555,51.531954,46.720238,60.788526,62.829192,60.676264,53.409846,66.309321,68.507883,67.101394,-5.257845,315.779133,-74.113684,289.909354
3,50.685654,-13.194025,-0.200958,0.044893,-1.873512,-17.788467,-37.339325,-53.765602,-53.240776,-40.381165,-21.185989,-8.070831,-63.943119,-48.899803,-25.576401,-6.455727,-68.438873,-54.324417,-30.870094,-13.573494,-69.307823,-60.032558,-42.74025,-29.533768,-16.672117,-26.84982,-26.94893,-27.055511,-0.886118,16.428944,19.250876,17.450358,18.548156,33.049562,35.580464,33.035482,33.581171,45.305722,45.482883,42.949696,45.070144,56.313288,52.926216,47.222948,26.327419,51.734962,74.924984,95.245342,50.743904,84.381466,103.036709,116.675549,42.682743,80.702419,102.079296,116.129894,35.505066,70.813122,90.475674,102.833347,29.609871,56.755829,72.953396,85.472775,-15.462365,-16.488966,-10.47923,-7.041338,16.656865,32.29738,38.348735,41.682516,34.241962,48.673959,51.800383,51.419321,46.011961,60.397893,62.469496,60.188929,52.625924,66.111844,68.629655,67.294734,45.262985,302.582592,-74.479465,289.95173
4,-20.913162,11.157558,0.534611,0.28646,5.608978,-1.712723,-15.022774,-29.995766,-35.51136,-16.008568,5.717812,20.107841,-45.670967,-21.563988,2.210197,20.970726,-48.88773,-29.561234,-8.916664,6.579094,-48.847561,-37.651291,-23.167076,-10.932541,-21.174463,-32.303864,-32.347583,-34.7753,-9.190808,7.845452,13.086147,14.973981,8.831791,22.292516,27.048101,28.385491,21.992718,31.639244,33.920304,35.234476,32.996086,40.664931,39.756335,37.161027,26.388988,51.770496,75.24868,96.217575,50.382442,84.070015,102.710724,116.343956,42.524757,80.66391,101.96434,116.128693,35.418549,70.855179,90.253143,102.439156,29.50201,56.499252,72.487793,85.038986,-15.245065,-16.694533,-10.748771,-7.359167,16.230108,31.679937,37.863685,41.326463,33.837373,47.957469,51.147496,50.790146,45.740753,59.715859,61.78314,59.394387,52.687366,65.982106,68.517887,67.07305,24.154186,313.710232,-74.140491,290.208272
5,-29.79847,8.648577,0.623302,-0.114238,4.323235,6.833153,5.145149,1.777611,-4.829292,16.216621,32.425919,43.509521,-11.741238,13.065605,31.197166,47.646561,-14.40794,8.14167,25.271072,38.9534,-15.318546,-2.746239,9.505463,19.920502,-18.860861,-33.049623,-39.206695,-45.018706,-13.231199,-2.548254,1.417172,2.052831,2.214493,12.916334,17.098998,17.111163,14.589708,23.078228,24.675279,23.637131,24.323487,32.298429,32.71648,29.664466,25.765114,50.909157,74.420986,95.399723,49.901905,83.453236,102.229443,115.927105,42.185955,80.286427,101.785755,116.153812,35.170155,70.581951,90.16222,102.5453,29.232845,56.310768,72.413692,85.109539,-15.222959,-16.635005,-10.75297,-7.300381,16.693112,31.971708,38.01306,41.263169,34.087277,48.212437,51.330771,50.9649,45.816768,59.936123,61.932452,59.458422,52.562445,65.859593,68.440822,67.018648,-5.755005,322.350581,-73.627911,290.085806
6,-12.958374,1.042903,0.437336,-0.097998,9.45179,17.179871,21.067772,22.654724,6.266842,28.786125,44.738846,55.55088,-1.608524,24.85817,42.195854,58.333168,-5.299015,19.372215,35.324478,48.735466,-7.460804,7.670517,20.162086,30.909119,-18.859873,-33.858924,-41.341839,-48.118391,-15.460698,-4.764168,0.752182,2.680647,0.071322,11.931415,16.730471,17.501549,13.237683,22.679136,25.056835,24.370356,23.914144,32.000546,32.522336,29.620561,25.489082,50.371399,73.59169,94.250679,49.191742,82.792168,101.613808,115.357704,41.545544,79.704552,101.39225,116.016083,34.761086,70.145531,90.038338,102.890739,29.156971,56.130581,72.3452,85.223007,-15.205915,-16.636796,-10.724132,-7.125257,16.877931,32.139669,38.171017,41.470712,34.384173,48.694399,51.862566,51.512502,46.022212,60.482923,62.564221,60.180964,52.488776,66.078807,68.788909,67.479986,-18.790998,323.390597,-73.268194,289.984921
7,43.0616,-19.045618,-0.127258,0.46918,2.14119,-6.261292,-18.433342,-28.914185,-34.446487,-20.751457,-2.540359,10.016098,-43.81897,-28.777313,-6.121559,12.58358,-49.701405,-34.128571,-10.422134,7.714691,-53.537178,-41.738319,-23.972626,-9.9963,-20.224865,-29.699046,-29.670641,-27.354877,-7.000706,7.387758,11.354048,11.533433,12.736146,27.172837,30.894287,30.003784,28.916792,40.231814,41.276631,40.403109,42.581417,53.568668,50.602857,45.740012,25.377216,50.445328,73.742294,94.327812,49.742203,83.158493,101.867523,115.543327,41.972694,79.949799,101.501083,115.922356,35.037346,70.426483,90.255661,103.073158,29.406567,56.518993,72.713013,85.535202,-15.548692,-17.160007,-11.440684,-8.007979,16.123156,31.776021,37.862327,41.213336,33.737399,48.258811,51.515652,51.157746,45.573595,60.2542,62.39274,60.024303,52.146803,65.903745,68.665841,67.402365,23.988075,304.35469,-73.677979,290.463811
8,-27.496948,12.851928,0.139961,0.078547,5.648804,8.345833,10.913658,11.683731,-10.206699,10.910339,27.599144,38.209763,-18.414688,7.43969,26.459999,42.518234,-21.017418,2.158928,19.552002,33.161545,-21.419678,-6.474495,6.402054,16.866188,-20.671691,-33.806251,-38.089013,-39.809194,-10.490407,2.583081,7.934619,10.247234,7.258329,18.566929,22.340682,21.953815,20.473781,29.901464,30.949677,29.605556,30.376633,38.38912,37.575373,33.433587,25.185356,50.490017,73.873787,94.648476,49.871521,83.33416,101.757202,115.12207,42.104931,80.02533,101.400261,115.509911,35.029449,70.374527,90.060883,102.714157,29.207382,56.285019,72.484818,85.281372,-15.865595,-17.397561,-11.318542,-7.236593,15.758149,31.931447,37.976565,41.081438,33.495152,48.431466,51.564682,50.960207,45.316898,60.343491,62.43825,59.894133,51.788342,65.440555,68.193944,66.901137,-3.680048,317.223352,-73.709192,290.559092
9,34.028664,-14.723953,0.408554,0.137024,-0.161362,-10.865364,-23.742714,-33.836746,-42.676849,-29.201546,-9.568291,4.546051,-52.326279,-36.755562,-12.722282,7.36908,-57.248955,-41.627541,-16.524811,2.578926,-59.586124,-47.864914,-29.486504,-15.093613,-19.219692,-28.120211,-27.887227,-24.859419,-5.101696,10.242726,14.934028,15.248461,14.685668,29.618091,33.780069,32.741427,30.824324,42.658296,44.020448,42.988105,44.26251,55.657993,52.693726,47.731586,25.464249,50.555077,73.781662,94.395447,50.289459,83.227158,101.480942,114.742813,42.442417,79.950485,101.201363,115.342026,35.164833,70.162697,89.629898,102.146873,29.059982,56.007557,72.116203,84.777603,-15.827248,-17.253189,-11.218197,-7.281547,15.744132,31.848145,37.841887,40.818566,33.342444,48.514026,51.876706,51.43093,45.162769,60.338674,62.584598,60.175838,51.826874,65.397947,68.075013,66.74213,30.197639,302.525905,-73.451614,290.722622
10,-29.393005,14.307879,0.308819,0.152153,4.76223,5.095367,2.629623,-2.117958,-13.947372,7.676353,25.754471,37.07325,-22.092762,3.865814,23.966103,40.229759,-24.54134,-1.924553,16.203003,29.512711,-24.697094,-10.7761,1.944351,12.018013,-19.786808,-32.741859,-36.516909,-39.497169,-8.843277,4.402681,9.33518,11.198252,8.209285,19.991202,23.587299,22.964608,20.917829,30.552807,31.465602,30.160383,30.493897,39.076278,38.167744,33.811068,25.387516,50.353031,73.568745,94.102993,50.665226,83.457241,101.667881,114.933987,42.745914,80.111561,101.29446,115.435238,35.34771,70.279255,89.529476,101.816082,29.100323,56.065693,72.125759,84.601765,-15.913266,-17.2677,-11.225854,-7.327736,15.960752,31.878341,37.859054,40.750949,33.48836,48.536688,52.011508,51.674968,45.195312,60.181519,62.400335,60.05419,51.828912,65.22307,67.73168,66.292217,0.626421,316.893697,-73.321009,290.934689
11,-10.904846,6.416238,0.017509,-0.261389,6.094322,9.969864,12.007027,12.813263,-2.699947,22.268715,39.969063,51.66584,-10.017529,16.34388,34.730644,50.458717,-13.136959,10.415268,26.625595,39.775772,-14.601746,0.185165,12.474861,22.806129,-19.422728,-34.103579,-42.24216,-50.424151,-14.106943,-4.36384,0.548776,3.952953,2.116681,12.720894,16.757209,17.98876,15.116254,23.548458,24.81076,24.375049,25.600424,31.781702,31.821037,29.550104,25.354614,50.640335,74.022961,94.591541,50.522289,83.394299,101.580677,114.610691,42.665119,80.401669,101.723843,115.722599,35.328712,70.822277,90.144596,102.229671,29.136829,56.51104,72.616253,85.004253,-16.027752,-17.320497,-11.173181,-7.124639,15.623101,32.052539,38.156321,41.070446,33.236109,48.546877,52.126796,51.812856,45.064648,60.16849,62.350688,59.941187,51.743511,65.40616,68.071308,66.675254,-10.338335,323.317269,-73.363409,290.680632
12,-5.832767,-0.305047,0.102139,-0.642081,7.782154,14.564266,20.155506,23.594341,0.390587,24.428959,42.027225,54.011593,-7.008762,22.255497,41.186886,58.578587,-9.776058,17.391415,34.330273,48.723392,-10.420475,5.815144,18.908787,30.309849,-19.472869,-34.737324,-41.521595,-45.085087,-13.811159,-2.816128,2.645326,5.224826,2.02072,14.364257,18.720996,19.70326,14.572356,24.453348,26.279617,25.549356,24.411173,32.91723,33.271431,30.40016,25.348606,50.787964,74.308319,94.978638,50.66946,83.502846,101.506004,114.333229,42.660999,80.343361,101.417542,115.170593,35.226688,70.763969,89.825821,101.729851,29.023762,56.214809,72.209358,84.541512,-15.625386,-16.833471,-10.663555,-6.788346,15.79909,32.506281,38.64878,41.524497,33.541898,48.73713,52.463829,52.24937,45.464791,60.505277,62.884273,60.567645,52.272527,66.008165,68.804903,67.450778,-16.262283,323.025436,-73.352451,290.051766
13,-9.76553,1.671954,0.259953,0.155302,9.591122,20.904922,30.594292,39.370995,11.783524,34.833183,51.269417,63.142776,4.666786,30.842285,50.111389,67.447815,0.082684,24.735489,42.519379,58.047523,-2.781773,13.162994,26.633606,38.798904,-20.170587,-36.508387,-43.601719,-46.54604,-17.39435,-7.080302,-0.101332,4.077441,-1.183323,11.163363,16.955675,18.964601,12.400718,22.06441,25.405725,25.636857,23.500848,30.807466,32.376544,30.271102,25.112514,50.101719,73.578815,94.296627,49.714222,82.904263,101.283016,114.42255,42.102985,80.036945,101.44392,115.618,35.32877,70.913486,90.101109,102.07449,29.822788,56.792564,72.645092,84.99876,-15.515594,-16.820071,-10.766555,-6.957234,16.01534,32.301147,38.532072,41.515543,33.554309,48.604182,52.536571,52.441599,45.399644,60.428583,62.939787,60.745856,52.294818,66.142657,68.956253,67.647885,-26.081743,324.652127,-73.146429,290.161805
14,55.412178,-19.916546,0.687046,0.394523,2.278061,-6.732674,-20.034828,-32.737656,-38.186646,-22.771225,-4.772644,6.792068,-48.280163,-30.854645,-8.843651,8.932686,-53.753471,-37.113304,-14.391174,2.835388,-56.718063,-45.144424,-28.250885,-14.678993,-20.013926,-30.202374,-29.616856,-27.019696,-6.185292,9.857836,12.45265,11.118594,13.810727,29.029301,31.487708,29.40252,30.46506,42.385545,42.476935,40.302147,44.331115,55.425009,51.822181,46.090199,25.248127,50.332031,73.73703,94.268761,49.817162,82.876396,101.089325,113.983154,42.098351,79.80938,100.984154,114.83139,35.14698,70.52536,89.417496,101.040802,29.492168,56.394939,72.037125,84.057999,-15.634093,-16.798706,-10.961007,-7.747639,15.86541,32.128369,38.404434,41.342148,33.418458,48.492599,52.385098,52.258386,45.313996,60.266673,62.651042,60.378071,52.242145,65.950305,68.626073,67.250398,29.297447,304.692711,-72.492371,290.513458
15,-36.6782,11.419751,0.233402,-0.621147,7.941856,11.762466,16.368942,19.223557,-7.357006,14.161949,32.097816,43.606796,-15.393276,10.561867,31.919975,50.214958,-17.812443,4.905396,24.827042,40.295219,-18.225574,-3.203545,10.367088,21.963615,-20.6967,-33.738449,-35.938246,-33.753022,-11.466311,0.503945,5.431072,8.070347,5.90618,18.253175,23.263912,24.404133,19.624281,30.192493,32.052848,31.822457,30.317847,39.202558,38.288343,34.260055,25.00391,49.620838,72.807369,93.268604,49.753418,82.656956,101.050701,114.141254,42.022362,79.591312,100.82262,114.916592,35.069504,70.288868,89.283543,101.127148,29.353638,56.220818,72.008343,84.188862,-15.241792,-16.295625,-10.675164,-7.251351,16.764866,32.823431,38.993533,41.761557,34.04893,48.797769,52.691688,52.555035,45.759587,60.532941,63.081874,60.89943,52.659208,66.4779,69.172503,67.633744,-7.430248,316.104882,-72.308464,289.884731
16,38.632851,-12.314514,-0.18671,0.483567,0.747528,-9.102745,-22.689972,-35.159454,-40.787773,-26.686821,-8.660889,3.996277,-50.458546,-33.983688,-11.720352,7.106552,-55.298824,-39.681244,-16.690979,1.311493,-57.61591,-46.400414,-29.47998,-15.837593,-20.009356,-30.107463,-29.164967,-26.39157,-5.178143,9.037173,12.34082,11.890227,15.111931,28.387344,31.370753,29.777716,31.79504,42.334971,42.568882,40.658139,45.656958,56.100743,52.394731,46.749508,25.173054,50.094738,73.434792,93.869934,50.383415,82.981567,101.232033,114.326477,42.509422,79.797478,100.872574,114.869728,35.328255,70.269356,89.056664,100.861588,29.345112,56.077023,71.814079,84.105721,-15.441555,-16.717072,-11.159411,-7.972657,16.112967,32.312323,38.573383,41.390992,33.495461,48.138954,52.047879,51.936604,45.313687,59.952363,62.574656,60.383937,52.323409,66.058985,68.785883,67.266268,31.124525,303.786061,-72.573252,290.363991
17,-34.577637,14.169497,0.224934,0.209396,7.633324,10.295792,11.984024,11.521568,-10.739021,10.67379,28.482628,40.107079,-19.069233,7.012482,28.632774,46.969299,-21.600437,1.121864,21.395073,37.187576,-22.049789,-7.465553,6.123619,17.753334,-20.77253,-34.690085,-37.632986,-36.575201,-13.334754,-2.137244,3.023609,5.608049,4.267015,15.795508,21.037377,22.242992,18.216372,27.940024,30.235163,30.274066,29.244748,37.267609,36.74662,33.125885,24.985542,49.979324,73.434849,93.70451,50.01503,83.015957,101.357059,114.406528,42.133312,79.885654,101.108723,115.041332,34.915352,70.4072,89.286633,100.917606,28.854618,56.042347,71.94437,84.175014,-15.650271,-16.912573,-11.351763,-7.960616,15.649283,31.533033,37.721783,40.615592,33.20542,47.862436,51.785872,51.701829,45.081691,59.717527,62.175378,59.892527,52.072208,65.73461,68.442675,66.856924,-3.526039,317.941556,-72.421246,290.559385
18,-23.206387,7.526264,-0.006008,-0.052858,10.359364,21.473522,30.057964,37.038288,12.017612,35.685368,51.72266,62.771358,5.027733,32.500591,51.938953,69.866924,1.063728,26.854534,44.776096,60.454273,-1.439896,15.377827,28.702183,40.559063,-20.525219,-37.177083,-44.475487,-47.995137,-18.246938,-8.232935,-2.106554,1.257671,-2.444699,9.684008,15.164296,17.292771,10.801876,20.136624,22.809985,23.172768,21.746581,28.859734,29.448339,26.917869,24.842663,49.971027,73.344955,93.50853,49.975319,83.146706,101.586914,114.703331,42.172794,79.995117,101.316147,115.363541,35.063896,70.721054,89.691353,101.454277,29.180202,56.604824,72.482758,84.644852,-15.799399,-16.988403,-11.330645,-8.12796,15.440258,31.431145,37.719436,40.746195,33.194613,47.766599,51.753391,51.792973,45.190372,59.601559,62.059967,59.826269,52.135008,65.619631,68.230994,66.61585,-26.888494,325.4578,-72.583323,290.496508
19,59.36285,-21.656425,0.254459,-0.357411,0.375366,-10.388031,-24.571495,-37.48455,-42.157288,-28.859825,-10.070114,3.23513,-52.187347,-36.744118,-13.82309,5.429077,-57.361393,-42.827339,-19.132576,-0.766068,-59.811573,-49.732418,-32.23938,-18.383217,-19.264955,-29.203252,-28.041912,-26.068986,-5.639356,8.521557,12.455305,12.65834,14.128988,27.411193,31.235149,30.451907,30.684335,41.616567,42.485704,41.142509,44.65339,55.264334,51.943767,46.986074,25.208244,50.202656,73.298206,93.465786,50.066242,83.005085,101.388988,114.424267,42.00222,79.617748,100.916462,114.858227,34.650593,70.043507,89.019756,100.660458,28.527431,55.597172,71.565456,83.82082,-15.6047,-16.704907,-10.911113,-7.677861,15.514915,31.647642,37.97002,41.077177,33.258525,48.075783,51.942965,51.985387,45.247676,59.909262,62.261644,59.982251,52.254928,65.918627,68.577352,67.021242,32.414846,303.803521,-72.388372,290.141242
20,-44.99691,17.18761,0.252972,0.048659,8.507195,14.388771,20.688515,25.161209,-0.244675,20.671463,37.595673,48.746338,-7.243195,17.765808,38.177147,55.740967,-10.076466,12.171707,31.082153,46.201515,-11.482143,3.429451,16.420326,27.772179,-22.207918,-37.760624,-41.588532,-40.198715,-17.262575,-7.342309,-2.259324,0.55316,0.32913,11.301931,16.638031,18.583169,14.608851,23.79725,26.253805,27.010124,26.017795,33.581418,33.298292,30.305003,24.988918,50.074539,73.44429,93.775864,49.995117,83.031921,101.3237,114.305763,42.019615,79.779625,100.946388,114.738922,34.72681,70.199318,88.88134,100.151596,28.624306,55.708351,71.398315,83.282776,-15.514976,-16.717751,-10.909384,-7.960987,15.320339,31.431886,37.796871,40.998569,33.21709,47.592092,51.595371,51.793529,45.310538,59.588592,61.941283,59.62169,52.378058,65.833905,68.49615,66.925405,-12.636538,320.982238,-72.189875,290.181009
21,-18.739758,-8.836731,-0.163651,0.04693,12.321739,26.174412,37.600536,42.744312,12.81601,41.207371,60.108318,74.110508,6.735134,38.880444,58.908062,76.777554,3.471165,34.600124,52.536221,66.195545,1.573391,21.563587,35.511646,46.491566,-19.179925,-30.134139,-30.700144,-29.186023,-7.114882,6.95674,11.863489,13.155308,10.086189,25.111608,29.789016,31.026803,22.925767,35.93312,37.304721,36.233907,32.20179,44.328151,42.971494,38.831561,25.09037,50.220165,73.566628,93.948555,49.818478,82.951469,101.255493,114.260101,41.793823,79.750328,100.901413,114.661446,34.577579,70.351753,89.063759,100.439415,28.713627,55.981808,71.694717,83.548737,-15.452732,-16.861506,-11.274081,-7.874104,14.91081,31.302951,37.646139,40.855555,32.901175,47.396899,51.403822,51.661815,45.118927,59.4005,61.795058,59.588345,52.220965,65.654273,68.259646,66.596831,-31.451483,312.145307,-72.428713,290.227739
22,59.040928,-9.735632,-0.011101,0.334625,2.143822,-6.38546,-19.084625,-30.923538,-37.320213,-22.679787,-4.744377,7.397118,-47.011757,-31.142464,-8.397102,10.492973,-52.44215,-37.202225,-13.933868,4.008064,-55.317192,-44.295273,-27.21405,-13.378372,-18.474982,-28.10181,-27.525987,-25.671622,-4.675062,10.347764,13.91243,13.785532,14.907167,29.733688,33.070989,31.67086,31.386746,43.519653,44.168588,42.751045,45.488688,57.225342,53.687043,48.460735,25.043678,50.188923,73.357201,93.767853,49.992428,83.075867,101.261215,114.128723,42.000504,79.779167,100.850945,114.54071,34.787693,70.436668,89.214249,100.652275,28.910465,55.995369,71.706047,83.668213,-15.982365,-17.380024,-11.485638,-8.078683,14.668193,30.965053,37.197337,40.395885,32.569267,47.169843,51.144779,51.453284,44.675744,59.032221,61.403622,59.225499,51.706954,65.182747,67.842337,66.333157,27.571363,302.400999,-72.457895,290.553689
23,-35.092049,16.799879,0.199127,-1.148866,7.197762,10.159721,13.894386,16.4217,-7.393055,15.07473,32.42981,43.266106,-14.916515,11.817284,32.393761,49.747696,-17.315884,6.109657,25.021248,39.595985,-17.699146,-2.092896,10.892601,21.617088,-21.166868,-35.762998,-40.386931,-41.445703,-13.862412,-3.10938,1.882647,4.797204,3.539842,14.179006,18.949719,19.962488,17.153091,25.972779,27.87605,27.954226,27.917608,35.316975,34.646612,31.095037,25.145645,50.301991,73.43914,93.721046,49.270477,82.118912,100.380592,113.581696,41.372738,79.124107,100.51918,114.801407,34.298573,69.842491,88.868065,100.67276,28.48526,55.518723,71.272659,83.384857,-15.290328,-16.454694,-10.451689,-7.07141,15.191342,31.562118,38.073205,41.369256,33.144781,47.651867,51.86201,52.104565,45.367966,59.531349,62.182974,59.959897,52.568558,66.077325,68.897343,67.26812,-7.603512,319.209693,-72.341595,289.413637
24,-14.886303,2.057647,0.226536,0.364266,9.672146,19.156895,27.329006,33.717899,5.504494,28.93404,46.083813,57.775898,-1.283054,27.331638,47.698231,65.086155,-4.024887,22.73489,41.021976,55.757847,-4.774246,11.701984,24.888439,35.921803,-20.331817,-36.162029,-42.765124,-43.564854,-15.568946,-6.155034,-0.759839,1.816388,0.872657,12.726636,17.397314,18.552109,14.364937,23.911242,26.367796,26.092081,25.299761,34.227327,34.824886,31.572862,25.408802,50.189667,73.0723,93.358555,49.833755,82.640018,100.566502,113.505993,41.61787,79.098415,100.063076,113.881817,34.211025,69.49831,88.196812,99.767818,28.156071,55.198631,70.838871,82.874165,-15.710663,-17.0278,-10.84399,-7.975868,14.222787,30.779925,37.432112,40.955899,32.348015,47.226221,51.320829,51.58685,44.662529,59.085882,61.585168,59.43823,51.932714,65.263331,67.835236,66.338468,-22.615242,321.298107,-72.240486,289.80867
25,40.76437,-14.906117,-0.984364,-0.350434,7.758751,2.600212,-9.69841,-22.58297,-23.358765,-6.203041,8.288383,16.293755,-32.764721,-15.048981,3.285255,18.303909,-39.353828,-21.744232,-3.437691,10.24704,-44.383049,-32.279663,-17.096901,-5.864868,-21.851433,-33.334478,-32.311397,-30.533541,-10.685909,4.275537,5.186726,2.88924,8.597448,25.350767,26.13296,23.154799,24.394377,37.769948,36.326532,33.460634,38.040477,50.327512,46.230743,40.107016,25.419331,50.569267,73.955498,94.468231,50.486412,82.869987,100.689354,113.58078,42.461643,79.917412,100.737762,114.431648,35.182457,70.503731,89.180031,100.771408,29.040012,56.335716,71.81282,83.672104,-15.873931,-17.153153,-11.509906,-9.617503,13.153826,29.875776,36.550316,39.862237,31.224281,46.093657,50.643798,51.108655,43.677487,58.149251,61.179221,59.419766,51.216656,64.502504,67.397178,66.245471,18.088503,306.388964,-73.285475,289.455211
26,-19.70295,10.802308,0.417309,-2.923141,5.830765,6.567993,4.499245,-1.028481,-14.489307,9.352226,28.383636,40.48233,-22.697926,6.112175,26.617012,44.392433,-24.784184,-0.131493,18.314209,32.268219,-24.711685,-9.312057,4.711418,15.892868,-18.233538,-33.626125,-39.116972,-42.644896,-13.637887,-1.829356,2.812978,4.08022,2.387703,14.003758,17.559779,16.900903,15.082847,23.842328,24.533809,23.300283,25.49693,32.636513,30.209784,25.175766,25.469055,50.535679,73.168545,92.462254,50.784588,83.608303,101.497021,114.549465,42.560692,80.071735,101.027584,114.940052,34.861794,70.025654,88.886318,100.929165,28.217697,55.791721,71.244335,82.797718,-16.115623,-16.431229,-10.111815,-6.766054,13.83907,29.369299,35.627271,39.084182,31.800536,46.289467,50.38389,50.786873,44.048915,58.666349,61.370647,59.624716,51.111557,64.412596,66.658582,64.865412,-1.663771,317.247357,-72.91749,286.588154
27,-28.814507,-0.111706,1.372032,-6.742404,10.619431,22.579193,27.877007,28.411446,19.375191,43.670883,58.398056,67.568207,13.117046,42.023277,59.629097,73.796997,8.205643,33.25985,47.391357,56.808128,3.737984,18.794861,30.228424,38.463936,-19.079704,-33.580059,-42.12045,-48.604305,-15.976314,-6.451251,-3.500507,-3.411216,-1.838001,8.457398,10.500225,9.975532,10.18147,18.453987,16.771412,13.743789,20.364051,27.356791,24.185352,19.597605,24.873676,49.466801,71.606197,90.605106,51.218491,83.518467,100.957546,114.269657,42.561035,78.022671,97.758808,111.807117,34.209366,67.072735,85.751667,98.786144,26.801434,53.070774,68.022251,79.837933,-16.073138,-16.316373,-11.087595,-8.974496,14.069646,30.668466,37.136142,40.555201,31.290725,47.685459,52.5785,53.809865,42.626803,59.065689,62.598677,62.09041,49.111214,62.936946,65.592276,64.841514,-30.594292,317.188725,-71.661472,279.898825
28,28.668938,-33.388139,0.791073,-9.378529,10.779877,14.085503,11.317291,7.373428,-2.146225,12.670555,25.298882,35.034714,-10.077896,2.588768,21.091576,38.316307,-18.175049,-5.907211,13.948059,30.463028,-24.924603,-15.658665,-0.146713,13.381233,-18.647822,-28.534618,-29.628959,-28.281565,-5.471025,7.115006,11.983223,12.828216,12.344278,26.105419,28.815212,26.724405,27.305106,39.325873,39.592018,36.593171,40.537602,53.669321,50.996886,45.558342,25.133629,50.624256,72.523155,91.198769,52.829819,83.814468,100.124359,112.814026,45.691166,79.384003,98.099556,112.540283,38.184586,69.467468,87.756271,102.012634,30.729618,56.4077,70.759392,83.159409,-18.405204,-18.937925,-14.00487,-14.159061,8.057503,24.398082,31.90156,36.750449,25.600301,41.796075,48.617828,51.752279,38.482919,54.612929,60.121127,61.684524,47.001388,60.480885,63.703701,63.798117,-1.95219,283.861302,-70.897236,270.581012
29,12.628441,-22.306441,0.747814,-15.291625,4.026203,1.867733,-2.954464,-6.803055,-8.849774,-7.086926,-1.155224,5.592327,-13.372937,-15.945282,-4.356595,9.755229,-19.021798,-21.312905,-8.76915,5.094165,-24.443465,-26.925402,-18.12275,-7.896252,5.930509,9.92959,15.363008,18.927057,19.748924,27.955492,28.037404,24.84994,20.083148,29.189173,29.992792,26.455111,18.082929,25.498659,26.010848,23.623855,15.385733,21.487723,21.077144,18.525772,26.900253,52.910385,74.032574,90.648365,53.129196,82.961254,99.301815,112.264309,45.574207,76.564121,94.867229,109.760227,37.020264,65.269718,82.632008,95.714092,27.916203,48.80682,61.708889,71.538334,-18.395448,-18.918782,-13.683459,-13.170869,4.736565,21.468148,30.184466,36.592244,21.125742,40.413113,49.151846,54.427616,34.334649,54.372411,61.807222,64.832437,44.511302,62.486909,66.886441,66.285856,10.6384,261.778892,-70.187273,255.513417
30,12.62844,-22.306441,1.153736,-16.248324,-2.72747,-10.350037,-17.226219,-20.979538,-15.553322,-26.844406,-27.609329,-23.85006,-16.667976,-34.479332,-29.804764,-18.805847,-19.868546,-36.718597,-31.486359,-20.274696,-23.962326,-38.192139,-36.098785,-29.173737,30.508841,48.393798,60.354976,66.135679,44.968873,48.795978,44.091585,36.871665,27.822019,32.272927,31.170373,26.185818,8.860752,11.671445,12.429679,10.65454,-9.766136,-10.693875,-8.842597,-8.506799,24.495564,48.434372,67.622337,82.665253,54.492416,80.813828,95.433311,107.19223,47.817993,73.542366,89.814606,103.793221,39.887867,62.218437,76.976624,88.179474,31.335812,48.804016,59.466476,67.114906,-14.996335,-14.7665,-10.008939,-8.243433,6.12984,20.052026,30.496923,38.337002,21.333779,38.371768,47.989827,53.719092,33.259945,52.048373,59.632682,63.380129,43.129328,58.313014,61.595295,61.039973,23.266268,239.782253,-69.034109,239.574895
31,68.951569,-36.082495,-3.189697,-28.480155,-14.613304,-37.045097,-58.678322,-72.030945,-61.026878,-99.461632,-106.847763,-103.472214,-66.35067,-105.68058,-107.572517,-99.678841,-67.986374,-103.771362,-101.553383,-91.877975,-66.861305,-96.250076,-96.240578,-89.603348,34.517554,54.018087,66.763619,77.668433,56.251661,55.05463,53.662899,52.297474,40.269358,38.594131,38.977539,38.394986,20.763453,19.165661,18.752921,18.776633,-0.411381,0.004446,3.469694,6.316882,35.184917,66.2677,86.090355,95.790939,77.977867,111.999207,113.478813,106.559944,71.057968,110.125809,111.116066,100.037727,61.08078,97.499313,99.280815,90.888634,46.516228,78.478317,84.937592,82.792625,-6.642862,-2.019177,6.044439,14.03945,14.77817,33.475763,36.336845,36.432805,21.865697,45.414958,46.853496,45.213528,27.917917,50.016537,50.210618,48.479137,34.116732,48.349091,46.098967,42.849908,91.623802,205.324165,-72.817841,212.719147
32,18.108673,-32.163011,-1.929073,-13.122765,-24.50489,-49.858131,-69.70047,-80.373802,-66.976433,-100.675621,-107.791099,-105.938415,-65.694294,-99.794483,-104.652843,-101.526718,-61.6432,-93.705997,-97.061806,-93.650894,-55.740852,-82.313862,-87.772407,-87.683945,10.550274,24.317374,38.517623,50.699003,31.585861,41.626571,47.269261,49.294119,31.092753,42.475947,47.689442,48.708849,27.982385,37.846797,41.383861,41.693045,22.538129,31.080959,36.305507,38.939995,26.853848,54.782066,76.986294,92.486973,71.315517,104.121952,111.836758,107.965908,68.391666,101.873875,109.675884,108.225231,59.213047,90.106487,100.176029,99.906063,46.300449,69.29575,79.706898,82.137394,31.986281,49.082006,52.875828,52.710769,36.843692,42.11162,47.233446,50.484482,20.340524,27.826465,30.733859,31.874698,3.389604,10.433782,14.68925,17.502784,-14.120281,-15.512012,-12.91831,-9.536795,108.388052,175.431438,-76.091337,201.866666
33,18.108673,-32.163011,-17.483854,-39.236165,-34.396477,-62.671165,-80.722618,-88.71666,-72.925987,-101.88961,-108.734436,-108.404617,-65.037918,-93.908386,-101.73317,-103.374596,-55.300026,-83.640633,-92.570229,-95.423813,-44.620399,-68.377647,-79.304237,-85.764542,-13.417006,-5.383339,10.271625,23.729572,6.92006,28.198511,40.875623,46.290764,21.916147,46.357763,56.401344,59.022711,35.201316,56.527933,64.0148,64.609456,45.487638,62.157471,69.141319,71.563108,27.340307,57.009773,80.909614,96.247415,65.878086,104.199514,106.93345,100.281314,63.129043,103.101453,106.386365,100.875921,57.426538,94.374647,99.31283,94.082822,49.410238,78.165836,84.636812,82.631206,28.726924,40.881011,40.021785,35.650319,29.015391,34.388573,39.530776,41.275287,13.28858,20.740682,25.762966,26.847149,-0.973403,5.929274,12.432009,15.205498,-13.218278,-12.138773,-7.7094,-5.243953,125.264082,147.681344,-94.807834,167.043417
34,13.703384,-31.673731,-17.483855,-39.236166,-29.11068,-58.867722,-80.501404,-91.15036,-63.78582,-98.697624,-102.58564,-95.654068,-57.301712,-94.228706,-99.427414,-94.845543,-50.134277,-85.591736,-91.988869,-88.900223,-42.397842,-71.606026,-80.604057,-81.778564,-19.064174,-17.229878,-4.378012,9.154252,-5.248044,11.309248,16.94737,16.328106,13.928608,32.43672,35.106499,32.290865,30.220991,46.398364,47.619293,44.345842,42.692537,56.335055,57.307068,54.198553,27.826767,59.23748,84.832935,100.007858,60.440655,104.277077,102.030144,92.596722,57.866421,104.329033,103.096848,93.526611,55.64003,98.642807,98.449631,88.259583,52.520027,87.035923,89.566727,83.125019,25.467568,32.680016,27.167742,18.589869,21.187091,26.665526,31.828107,32.066094,6.236637,13.654899,20.792074,21.819601,-5.336409,1.424767,10.17477,12.908213,-12.316274,-8.765533,-2.50049,-0.951111,138.506699,119.396367,-112.752457,131.196006
35,1.788025,-13.503271,-13.317719,-34.21016,-22.953987,-45.33371,-62.728615,-70.811806,-64.85424,-87.257652,-78.985176,-69.037857,-67.556305,-87.157631,-77.128372,-64.344406,-66.08345,-83.500214,-74.220085,-62.835503,-62.0961,-76.8853,-69.879456,-60.712852,8.930406,15.959023,19.228553,19.953997,25.419156,23.704933,17.903112,15.091029,23.497452,19.515785,13.426948,10.657164,18.474643,14.062576,6.836203,3.568031,10.432022,8.130708,2.516607,-0.921532,33.050652,66.009579,89.351521,98.422508,66.697025,104.939346,98.711243,86.97567,60.139847,101.149979,94.837875,83.046913,52.856255,93.339958,86.239414,73.943539,44.879894,78.957539,76.503296,67.861519,-21.971939,-25.143101,-18.305817,-9.343053,-11.208811,-3.786968,-7.097438,-9.110965,8.344333,13.777783,7.967872,7.018922,25.816828,29.678514,21.653338,20.277014,41.554477,39.775633,31.088399,28.912315,139.775906,109.806173,-126.588993,100.898923
36,36.58699,-35.794336,-13.138332,-25.115807,-27.57637,-58.972778,-86.186714,-99.125977,-59.248352,-103.189545,-91.932335,-77.215347,-58.129349,-100.155373,-88.566284,-73.090897,-57.158432,-95.773659,-84.886322,-69.741096,-55.003052,-86.662445,-79.350357,-67.441521,-28.377278,-36.171415,-28.016872,-14.146495,-26.120332,-19.281535,-19.983576,-19.591738,-6.245653,-1.844639,-3.912321,-3.866903,12.294137,12.017248,8.627521,8.698842,27.694689,26.708566,22.149441,20.944721,27.184525,58.391476,85.061073,97.27787,52.090302,90.477905,84.390564,73.579388,47.789211,87.580433,79.134922,67.541027,44.374981,83.679085,74.594364,62.414303,42.189903,75.266991,69.023895,58.623333,-24.511209,-37.09869,-36.53281,-23.853875,-24.781367,-15.193627,-17.038853,-20.172717,-5.580817,1.11126,-1.931275,-2.564309,13.932128,17.027522,13.429109,13.958063,32.333967,30.564694,24.761267,24.194522,175.910769,76.638544,-140.179453,78.409824
37,6.55941,-7.682832,-8.844337,-15.823543,-27.171021,-51.79184,-74.883614,-88.137703,-68.57254,-97.583656,-80.58918,-68.203926,-68.62587,-95.194931,-80.882263,-67.560768,-66.067314,-89.499207,-76.503639,-63.518944,-61.134453,-82.700615,-72.710037,-59.564552,-26.805113,-36.431601,-36.998871,-34.195618,-20.64801,-33.733756,-35.153954,-31.840828,-10.377527,-21.097738,-22.121807,-16.979233,-1.065843,-11.781207,-15.427723,-12.572971,6.327287,-2.166945,-6.684606,-7.205872,20.515308,48.75761,71.782551,86.788845,47.601357,85.172024,77.159386,64.987907,47.411556,84.636211,75.227737,64.454613,46.827393,82.637672,71.330109,58.731251,45.978127,75.214806,69.283104,59.302311,-23.418041,-35.50942,-39.630519,-38.429782,-18.137455,-22.551528,-26.26032,-25.709136,-0.49246,-6.977364,-11.240335,-9.307485,14.84378,7.758878,2.45992,3.815681,27.624942,23.502917,17.699274,16.699843,182.105398,69.952102,-149.388571,63.58267
38,-1.152477,-25.248755,-16.836605,-20.308506,-22.403126,-45.743523,-67.251435,-79.894696,-60.340062,-91.967583,-76.828823,-64.346066,-62.388153,-92.15355,-78.120003,-64.843483,-62.148285,-87.338276,-74.585438,-62.361489,-59.638424,-81.090145,-71.239815,-60.163021,-29.597405,-42.248937,-43.617836,-38.816649,-30.973219,-42.361524,-41.146847,-37.287708,-16.646846,-28.059109,-27.750064,-22.34133,-3.333488,-15.991072,-17.299208,-12.683288,8.08759,-2.286525,-5.025264,-3.353156,19.2033,44.470482,68.671818,80.469818,52.318726,90.158329,77.072983,64.7085,53.413982,89.759674,77.833157,67.398891,54.009705,86.764526,73.652687,62.303696,53.551083,79.433041,69.001465,59.233074,-35.08572,-54.745754,-58.791517,-47.886271,-48.175665,-52.008019,-46.329482,-44.169143,-25.763353,-28.989534,-27.96775,-25.827666,-4.675463,-8.741666,-9.810597,-7.759989,14.843502,7.827544,5.090086,6.124097,180.548058,45.415375,-166.630039,43.986192
39,-1.152478,-25.248756,-5.168552,-9.215014,-17.635231,-39.695206,-59.619255,-71.651688,-52.107582,-86.351509,-73.068466,-60.488205,-56.150436,-89.112167,-75.357742,-62.126198,-58.229256,-85.177345,-72.667236,-61.204033,-58.142395,-79.479675,-69.769592,-60.76149,-32.389697,-48.066274,-50.236801,-43.437679,-41.298429,-50.989291,-47.13974,-42.734589,-22.916165,-35.02048,-33.378321,-27.703427,-5.601133,-20.200937,-19.170693,-12.793605,9.847894,-2.406105,-3.365922,0.499561,21.018848,45.13607,66.968994,81.723061,52.687969,86.742153,74.130192,61.004791,57.587414,88.479652,77.182388,65.980167,60.773678,89.218025,77.378597,64.913864,63.098202,86.881714,78.534794,67.947178,-37.641538,-58.909059,-70.27731,-68.850042,-41.656951,-57.435108,-57.013414,-52.234426,-21.36027,-38.002933,-39.88138,-36.247183,-3.764645,-21.573402,-23.70518,-19.824476,11.365781,-4.592224,-7.732417,-4.525194,179.174824,19.254118,-172.019348,33.858677
40,-5.598907,-4.807084,7.627544,-10.943624,-14.680367,-37.612038,-62.129402,-79.150658,-50.727997,-84.56028,-76.388397,-65.832367,-56.147804,-88.541107,-79.156036,-69.083977,-59.269066,-88.217125,-78.268776,-66.937752,-60.455246,-84.350166,-77.401428,-66.736221,-36.380502,-52.809415,-59.339182,-57.713417,-48.095667,-57.418157,-56.613426,-52.02642,-30.275146,-40.655421,-41.968421,-39.794744,-14.06486,-24.146788,-26.280574,-23.93801,-0.440157,-9.217607,-12.204722,-10.489203,15.289021,35.822983,58.496475,73.661385,54.908581,83.238373,71.606255,59.089794,61.173592,86.349049,74.781761,64.137669,63.775177,87.334385,77.508373,66.941872,64.229851,84.085808,76.473026,66.390839,-39.739694,-63.906088,-76.314895,-72.19395,-44.684049,-64.372767,-66.640828,-60.142802,-24.858431,-45.960585,-48.140868,-42.864573,-8.459035,-27.232611,-30.823768,-26.476662,4.527695,-10.290397,-13.965257,-10.873105,172.782469,11.943796,-165.185251,20.411815
41,-8.927994,4.238703,12.600746,-1.943409,-15.95993,-38.238258,-60.003891,-77.213974,-46.786308,-73.130035,-84.761009,-89.987183,-54.945374,-85.867424,-93.129272,-93.784447,-61.227379,-91.317902,-96.105194,-94.244385,-64.840851,-88.999786,-95.124321,-95.044441,-38.231625,-57.392531,-69.321939,-73.730239,-55.258221,-71.838639,-75.563979,-75.879462,-39.625517,-54.142205,-60.429478,-62.306135,-24.944419,-37.057595,-43.641332,-45.775364,-13.202794,-21.886847,-28.009678,-31.172164,12.730408,31.976223,55.515747,73.039055,55.499554,81.588707,73.83934,62.08374,64.564762,87.550049,79.863682,68.827744,68.9011,90.659752,83.603897,73.016281,70.068684,88.396912,81.635284,70.890141,-43.171967,-69.583205,-83.49406,-82.471843,-55.610352,-71.268898,-72.919456,-67.875682,-37.654815,-54.206735,-56.019017,-52.742787,-21.043491,-37.407257,-40.549983,-37.224291,-7.24286,-20.580424,-24.805048,-23.590479,162.859955,16.331826,-153.579025,18.617734
42,-54.6698,-28.416799,39.913101,-12.06884,-8.248672,-28.092728,-49.454155,-61.008339,-57.829628,-84.189606,-78.610268,-68.418617,-66.413841,-81.924362,-71.873245,-60.396767,-68.674965,-73.806725,-64.907455,-54.900284,-67.164116,-70.078468,-63.02639,-56.126518,-33.569253,-52.181414,-55.232965,-48.455517,-45.709075,-52.437832,-50.084092,-44.89502,-28.192243,-37.469193,-37.905614,-33.974305,-11.1495,-21.056551,-22.104579,-18.338853,3.837448,-6.764202,-8.405343,-5.679093,4.129314,22.277184,44.624748,59.845047,57.453918,81.563816,67.724876,55.762939,65.496655,78.05563,63.272038,53.868141,67.551498,75.237465,62.613087,52.73037,66.203384,73.083229,62.059307,52.716465,-37.779211,-64.358657,-78.359173,-79.450241,-52.262924,-71.61291,-71.878869,-65.255149,-32.398959,-55.168621,-58.164535,-50.718855,-15.216351,-36.144708,-40.167655,-33.241204,1.010113,-17.086493,-21.140284,-16.573934,107.423201,-8.351481,-114.432878,10.282385
43,-30.716858,-5.88148,18.905983,11.187785,-10.119209,-29.323311,-47.517242,-58.166771,-57.179489,-84.33506,-77.603989,-67.988205,-62.939873,-86.929665,-77.569313,-66.414528,-62.526512,-79.244499,-69.726448,-58.578415,-58.307419,-70.345459,-64.528656,-56.792221,-31.232216,-50.856497,-53.76312,-45.74063,-44.46746,-54.247552,-55.638171,-53.477401,-26.132188,-38.600213,-41.123675,-37.977708,-7.401991,-20.85932,-22.662339,-18.68481,8.872083,-2.180314,-6.061606,-4.364118,11.859798,30.570545,51.858387,69.679413,63.369141,72.486992,62.900562,53.763142,72.972221,81.05381,72.251186,62.851868,75.619926,84.744987,78.682251,70.56427,74.512939,83.920097,77.02034,67.576847,-42.620937,-71.045516,-87.293316,-84.152072,-59.31618,-81.590819,-81.518479,-74.156749,-42.518864,-62.70532,-65.28658,-60.256176,-27.464021,-45.935576,-49.400824,-45.61787,-14.32026,-26.203818,-29.961856,-29.942343,77.14036,-7.048701,-95.092878,28.65443
44,-1.888275,2.947131,21.830978,-21.168412,-9.869728,-28.546486,-48.982773,-63.797493,-50.366592,-75.861855,-77.457161,-73.553925,-57.703743,-75.391388,-70.177116,-61.70105,-60.867004,-72.896004,-66.587448,-57.038155,-60.342522,-69.61338,-64.126053,-55.829315,-34.483499,-52.278609,-57.910061,-56.415238,-57.24044,-62.075127,-59.058742,-56.866634,-42.113781,-42.194736,-40.195103,-40.679936,-25.091354,-23.358452,-21.557131,-21.745685,-8.604333,-7.557355,-6.929724,-6.910828,0.55687,13.830585,32.749214,44.720192,41.070614,56.083488,44.769173,35.877285,52.851219,61.965408,50.621567,42.908192,59.35318,66.120987,54.927521,46.309204,61.788597,70.027885,61.322021,53.383713,-34.552659,-59.153838,-73.229752,-75.914382,-55.065405,-76.155517,-73.22404,-65.808556,-38.151164,-58.88087,-57.699925,-49.86179,-21.230409,-36.668815,-36.424252,-30.048584,-5.519993,-15.158522,-15.163493,-10.885301,76.07048,-0.250907,-72.443504,11.336681
45,-3.487015,-32.941992,-11.199589,-17.625142,-16.854057,-42.493858,-62.401772,-74.811745,-73.674088,-105.883884,-110.220737,-105.405922,-72.799187,-102.750263,-98.371582,-88.157959,-67.081604,-87.920609,-80.07019,-67.564659,-58.017654,-72.7034,-68.306236,-59.646606,-28.854239,-48.979068,-54.44083,-55.655492,-51.663698,-60.042396,-64.542086,-65.048316,-37.193199,-41.422084,-42.515375,-42.06858,-20.642792,-22.60238,-22.252595,-21.070136,-3.301146,-3.365922,-3.953076,-3.285215,4.128571,19.504509,37.375431,51.574059,45.415878,65.734463,67.605572,64.546566,55.201321,70.978718,67.233295,60.196724,59.730492,71.571522,65.430393,56.930523,60.275459,71.148777,65.452366,57.165184,-32.388585,-54.064338,-65.708274,-73.213326,-47.989518,-60.673516,-63.836557,-64.220305,-31.212703,-40.042209,-41.514215,-43.103764,-14.280616,-20.17565,-21.686529,-21.414333,1.078625,-0.912146,-2.577431,-1.289843,74.362278,-33.145815,-81.864281,-6.241377
46,9.416656,0.973557,-14.779758,-13.163675,-12.332954,-39.121284,-61.311264,-76.780586,-58.896561,-100.566216,-112.653122,-115.121498,-61.133423,-101.548233,-106.844501,-104.280682,-61.203117,-94.344177,-96.68644,-92.585106,-58.366585,-79.913521,-81.41201,-79.191628,-32.148005,-49.36365,-53.021158,-51.530811,-54.150171,-58.488014,-59.558365,-61.661399,-39.192492,-41.272462,-41.633702,-41.976973,-22.716001,-24.842592,-24.636593,-25.672055,-6.243677,-7.112629,-8.343623,-10.378947,6.127739,21.798363,38.397675,52.442837,42.996826,67.818317,77.754421,83.267441,50.590725,75.696716,82.891388,88.026466,54.161224,72.4827,63.105068,52.57061,55.729752,71.606941,63.303852,52.692947,-27.364294,-44.404999,-51.533343,-50.479264,-46.594483,-54.257648,-54.914796,-53.75994,-31.865497,-34.649391,-32.848904,-33.154506,-15.402097,-12.536816,-8.939576,-7.431508,0.612224,0.930949,1.691869,3.820498,85.302143,-31.73505,-95.120831,-18.967843
47,14.670181,-6.912959,-23.984413,-4.502269,-16.727371,-41.520538,-60.733795,-72.489166,-63.850136,-97.159424,-115.880699,-126.982384,-63.712349,-101.791534,-118.968716,-127.492905,-61.328545,-92.372246,-103.761978,-107.712822,-56.177444,-75.960503,-81.210823,-83.015442,-25.360215,-41.81071,-46.687078,-48.643362,-45.205995,-52.842081,-54.102932,-54.680546,-32.034693,-32.09879,-30.513256,-28.012889,-18.634514,-19.620792,-17.7697,-16.730564,-5.841496,-6.518806,-5.371637,-5.014844,2.617121,16.490135,34.718714,49.46723,34.232683,60.840826,60.873614,58.866291,44.198914,68.806343,67.303591,65.590096,50.898113,69.88555,59.713555,50.038977,55.561838,69.851446,60.730047,51.365347,-32.474835,-53.924489,-63.808283,-61.527154,-53.409197,-65.956611,-61.954019,-58.814041,-36.791652,-46.089041,-43.301118,-40.587187,-19.337389,-25.599483,-22.634614,-18.663229,-2.690126,-10.701702,-9.669204,-5.366219,97.655897,-39.760226,-121.421671,-24.582329
48,22.519398,2.742104,-23.984413,-4.502269,-11.897278,-33.536739,-54.273205,-66.690159,-54.971752,-84.502373,-87.075977,-86.995983,-59.723625,-89.443188,-91.009054,-89.546471,-61.341534,-84.625626,-84.333057,-81.466427,-59.909477,-75.022259,-73.059483,-70.337734,-30.927571,-51.52124,-57.055961,-52.873142,-51.718517,-63.950518,-62.180674,-59.332822,-36.300273,-45.828717,-43.634601,-38.647128,-20.918724,-31.146661,-29.576549,-24.798595,-6.822479,-16.296783,-16.481031,-13.36651,-0.893497,11.181908,31.039753,46.491623,25.46854,53.863335,43.992805,34.465141,37.807102,61.91597,51.715794,43.153725,47.635002,67.288399,56.322041,47.507343,55.393925,68.095951,58.156242,50.037746,-37.585376,-63.443979,-76.083223,-72.575043,-60.223911,-77.655574,-68.993241,-63.868142,-41.717806,-57.528691,-53.753332,-48.019868,-23.272681,-38.662149,-36.329651,-29.894949,-5.992476,-22.334352,-21.030276,-14.552936,118.725271,-40.156694,-146.856108,-32.223171
49,22.519398,2.742104,-9.29678,-0.919001,-7.067184,-25.55294,-47.812614,-60.891151,-46.093369,-71.845322,-58.271255,-47.009583,-55.734901,-77.094841,-63.049393,-51.600037,-61.354523,-76.879005,-64.904137,-55.220032,-63.64151,-74.084015,-64.908142,-57.660027,-36.494926,-61.23177,-67.424843,-57.102922,-58.23104,-75.058953,-70.258415,-63.985098,-40.565853,-59.558643,-56.755946,-49.281367,-23.202933,-42.67253,-41.383397,-32.866626,-7.803461,-26.07476,-27.590424,-21.718176,1.953335,13.717747,31.93634,45.855904,35.083294,59.24612,48.746166,38.986359,45.67543,64.667301,54.867268,46.687088,52.42836,65.881519,56.830616,48.588181,57.101555,67.596874,59.100895,51.1623,-36.440493,-62.48024,-77.792073,-75.567854,-59.885395,-71.217985,-65.355185,-59.725091,-41.619006,-53.47632,-50.228032,-44.044191,-22.686391,-35.482281,-33.596886,-26.776121,-4.832248,-19.570712,-19.165259,-12.882093,140.946064,-39.236335,-156.451492,-34.963917
50,-5.241508,5.565318,6.49641,5.682427,-8.309555,-24.173698,-42.507133,-56.793938,-42.204895,-73.966713,-73.871155,-67.450333,-53.673592,-79.691048,-72.856865,-64.070778,-62.186279,-78.466873,-71.398087,-62.644272,-67.709541,-76.794662,-70.451202,-63.74073,-33.360043,-53.320524,-61.117192,-58.319837,-60.905481,-67.319527,-60.283932,-54.875492,-45.405973,-52.433695,-47.79803,-45.621482,-28.456442,-36.702716,-33.106928,-29.849161,-12.610113,-22.127149,-20.377451,-16.990965,0.822544,13.590031,32.498016,46.952076,25.273991,51.363087,44.650669,35.013599,39.463863,63.275642,55.034981,44.885502,50.510616,68.857212,60.159473,51.312046,59.434204,68.958893,61.00565,55.091,-35.221323,-60.403728,-69.984984,-66.676119,-62.864328,-76.97016,-68.963755,-61.680387,-46.4896,-62.252968,-56.906957,-49.67444,-28.675317,-45.000644,-40.763022,-34.208833,-11.612443,-27.410668,-24.988941,-19.082205,134.730349,-33.986377,-150.929289,-29.596849
51,-16.983948,11.106213,16.881065,6.998452,-13.20488,-30.093956,-47.425804,-61.728973,-45.336227,-73.296547,-83.3004,-86.677666,-49.394417,-73.794594,-70.27153,-65.199165,-52.48764,-70.850601,-65.487442,-58.204651,-54.392395,-68.374557,-64.230881,-57.983322,-33.122242,-50.154734,-58.128812,-56.373989,-56.022845,-67.4392,-70.440856,-71.129034,-42.747618,-54.394981,-52.560098,-49.289982,-28.61545,-40.331016,-39.768716,-35.765746,-15.786678,-27.495822,-28.598129,-25.807597,5.790367,18.597622,36.592541,50.479774,33.130245,54.2799,53.679256,48.65799,41.953125,59.607353,56.83548,51.059589,48.074169,61.952534,58.275146,52.099113,53.4902,62.935867,58.284988,52.352657,-33.264175,-55.560273,-65.648005,-65.435615,-66.657378,-72.877095,-65.302018,-58.618061,-51.790565,-56.74869,-50.192804,-43.80037,-34.552844,-39.248006,-32.710984,-27.414157,-16.456917,-23.086318,-19.063556,-15.387832,118.002806,-23.640806,-133.791819,-23.359038
52,-7.266147,1.494404,30.116329,10.496875,-12.551104,-29.507637,-46.444524,-60.160764,-46.118278,-73.716062,-82.652149,-84.936142,-50.264015,-74.273141,-70.597559,-65.047874,-52.831777,-70.492757,-65.001322,-57.497393,-53.99086,-67.234967,-62.945277,-56.58933,-32.88711,-50.481483,-58.236988,-55.795058,-55.609875,-66.803942,-69.227978,-69.390578,-41.894488,-53.093549,-51.376301,-48.246146,-27.245818,-38.539269,-38.031595,-34.158057,-13.8326,-24.762237,-25.914994,-23.294132,1.690436,13.739434,30.383978,43.454104,39.010077,56.889439,50.404444,43.677006,47.93581,62.667733,55.522499,48.805933,52.687998,63.85274,56.839772,49.911976,55.112143,63.19851,56.384755,49.643584,-32.659561,-57.223288,-70.538993,-72.203089,-60.601067,-72.824067,-68.329795,-61.986376,-44.549449,-56.063909,-53.001243,-46.657175,-26.910428,-36.527159,-33.410369,-27.92633,-8.988436,-17.772525,-16.100447,-12.348523,112.498391,-17.196921,-101.913758,-7.912683
53,-7.266146,1.494405,30.11633,10.496875,-11.897329,-28.921318,-45.463244,-58.592555,-46.90033,-74.135577,-82.003899,-83.194618,-51.133614,-74.751689,-70.923589,-64.896584,-53.175914,-70.134913,-64.515203,-56.790136,-53.589325,-66.095378,-61.659673,-55.195338,-32.651978,-50.808232,-58.345165,-55.216128,-55.196906,-66.168685,-68.015101,-67.652122,-41.041358,-51.792119,-50.192505,-47.20231,-25.876188,-36.747523,-36.294474,-32.550368,-11.878522,-22.028653,-23.23186,-20.780667,-2.409496,8.881245,24.175415,36.428432,44.889908,59.498978,47.129631,38.696022,53.918495,65.728111,54.209518,46.552277,57.301826,65.752945,55.404396,47.724838,56.734085,63.461151,54.48452,46.934509,-32.054948,-58.886304,-75.429981,-78.970564,-54.544756,-72.771039,-71.357572,-65.354691,-37.308333,-55.379128,-55.809683,-49.513981,-19.268012,-33.806313,-34.109754,-28.438504,-1.519956,-12.458732,-13.137338,-9.309214,107.506215,-10.413485,-69.523458,7.873224
54,-7.266146,1.494404,-3.329201,-0.828598,-11.243554,-28.335,-44.481965,-57.024346,-47.682381,-74.555092,-81.355649,-81.453095,-52.003212,-75.230237,-71.249619,-64.745293,-53.520051,-69.77707,-64.029084,-56.082879,-53.18779,-64.955788,-60.37407,-53.801346,-32.416846,-51.134981,-58.453341,-54.637196,-54.783936,-65.533427,-66.802223,-65.913666,-40.188228,-50.490687,-49.008708,-46.158474,-24.506556,-34.955776,-34.557352,-30.942678,-9.924444,-19.295069,-20.548725,-18.267202,0.526428,11.558247,29.084244,43.799114,44.637165,59.598541,52.31266,45.396309,54.459114,64.545364,57.106819,50.51302,58.312569,61.743622,54.513187,48.004589,59.057693,60.980759,53.564072,46.942406,-32.119353,-58.486285,-74.902509,-78.273927,-50.719936,-71.627236,-74.569118,-71.541279,-33.989835,-55.168158,-59.238127,-56.193616,-17.039285,-33.383106,-35.719711,-32.687519,-1.610543,-14.178543,-16.220506,-13.758609,101.557599,-6.527348,-71.53513,9.436358
55,-7.266147,1.494405,-1.872883,-0.978466,-10.589777,-27.74868,-43.500684,-55.456136,-48.464432,-74.974607,-80.707397,-79.711571,-52.87281,-75.708783,-71.575648,-64.594002,-53.864186,-69.419225,-63.542964,-55.37562,-52.786255,-63.816198,-59.088465,-52.407354,-32.181714,-51.46173,-58.561518,-54.058266,-54.370967,-64.89817,-65.589346,-64.17521,-39.335098,-49.189256,-47.824912,-45.114638,-23.136926,-33.16403,-32.820231,-29.33499,-7.970366,-16.561485,-17.865592,-15.753738,1.483154,13.137703,30.237007,44.384079,47.629395,59.419041,50.17765,42.385483,56.378517,62.429981,53.536606,46.155396,59.205036,60.637035,52.913475,45.724354,59.255733,60.815449,52.997189,45.461998,-32.537095,-58.771047,-75.420379,-77.659479,-49.381774,-70.404794,-72.148626,-67.53976,-32.690359,-53.669166,-55.684823,-50.2703,-15.59908,-32.870979,-34.585449,-29.966147,0.11112,-14.400721,-16.355523,-12.839177,95.410855,-4.382526,-72.288609,9.108309
56,-7.266146,1.494405,-0.667019,1.347548,-9.936002,-27.162361,-42.519404,-53.887927,-49.246483,-75.394122,-80.059147,-77.970047,-53.742409,-76.187331,-71.901678,-64.442711,-54.208323,-69.061381,-63.056844,-54.668363,-52.38472,-62.676608,-57.802862,-51.013362,-31.946583,-51.788479,-58.669695,-53.479336,-53.957998,-64.262913,-64.376469,-62.436755,-38.481969,-47.887826,-46.641116,-44.070803,-21.767295,-31.372284,-31.08311,-27.727301,-6.016288,-13.827901,-15.182458,-13.240273,1.162033,13.194008,30.003262,43.384724,47.770786,58.038025,47.266502,39.172211,56.322384,64.106026,54.7859,47.355709,59.058952,62.56073,54.317379,47.348385,59.204063,62.751732,54.879456,47.700005,-32.165975,-57.417633,-73.355198,-75.635579,-48.076895,-68.801784,-68.843774,-62.204648,-32.147295,-53.077258,-54.725963,-48.186316,-15.88517,-33.10736,-34.181601,-28.667289,-0.811555,-15.176028,-16.466427,-12.160601,87.944095,-1.409399,-73.156242,11.934579
57,-7.266147,1.494404,0.554924,0.015345,-9.282226,-26.576042,-41.538124,-52.319717,-50.028533,-75.813636,-79.410896,-76.228523,-54.612007,-76.665878,-72.227706,-64.29142,-54.552459,-68.703537,-62.570724,-53.961105,-51.983184,-61.537017,-56.517257,-49.619369,-31.711451,-52.115228,-58.777871,-52.900405,-53.545027,-63.627655,-63.163591,-60.698298,-37.628838,-46.586394,-45.457319,-43.026967,-20.397664,-29.580536,-29.345988,-26.119611,-4.06221,-11.094316,-12.499323,-10.726808,0.309906,12.80302,30.017738,43.359718,46.608353,59.554939,51.236229,43.033161,54.916706,60.493011,51.056728,42.788944,57.257652,57.947273,50.051422,42.459755,57.451515,59.49543,51.598606,43.680382,-32.24307,-57.708045,-73.035022,-74.553279,-48.978976,-65.389179,-65.725224,-60.460631,-32.460524,-47.519412,-47.50805,-41.672513,-15.607077,-28.517483,-29.00775,-24.690254,-0.025163,-10.62916,-11.7411,-9.036401,80.451211,1.580461,-72.828054,13.44538
58,-7.266146,1.494405,-1.28397,2.042889,-8.628451,-25.989723,-40.556844,-50.751508,-50.810585,-76.233152,-78.762646,-74.486999,-55.481605,-77.144426,-72.553736,-64.140129,-54.896596,-68.345693,-62.084605,-53.253848,-51.58165,-60.397428,-55.231654,-48.225377,-31.476319,-52.441977,-58.886047,-52.321474,-53.132058,-62.992398,-61.950714,-58.959843,-36.775709,-45.284963,-44.273523,-41.983131,-19.028033,-27.78879,-27.608867,-24.511922,-2.108132,-8.360732,-9.816189,-8.213344,0.593376,13.091698,31.158714,45.677204,45.088348,58.848553,49.708443,41.346874,53.630276,61.93594,52.587204,44.245777,56.54583,59.50304,51.912918,44.430313,56.977215,60.009441,52.371426,44.621029,-31.382702,-57.686,-73.705848,-74.038559,-48.96854,-65.306248,-65.906276,-60.912984,-32.410568,-46.74852,-47.804051,-42.327931,-15.346058,-27.268025,-28.291198,-24.135334,0.404002,-8.899037,-10.066737,-7.252956,72.90171,4.637429,-74.39538,17.050833
59,-7.266146,1.494404,-0.266933,0.770954,-7.974676,-25.403404,-39.575564,-49.183299,-51.592636,-76.652667,-78.114395,-72.745476,-56.351204,-77.622973,-72.879766,-63.988838,-55.240733,-67.987849,-61.598486,-52.54659,-51.180115,-59.257838,-53.94605,-46.831386,-31.241187,-52.768725,-58.994223,-51.742543,-52.719088,-62.35714,-60.737835,-57.221386,-35.922578,-43.983532,-43.089725,-40.939295,-17.658401,-25.997043,-25.871745,-22.904233,-0.154053,-5.627147,-7.133054,-5.699878,1.113796,13.73354,31.773434,45.766182,45.860653,59.447365,50.996017,42.638054,54.542599,62.607079,53.922386,45.67955,57.414036,60.144768,52.787418,45.268421,58.039799,61.25988,53.704605,45.656948,-31.708867,-57.956683,-73.794737,-72.61867,-48.309478,-64.398115,-64.815949,-59.782457,-31.758978,-45.807166,-46.438625,-40.907919,-14.748005,-26.058365,-26.832221,-22.843299,1.012799,-8.013845,-9.039643,-6.445261,65.330951,6.764157,-74.966927,18.454111
60,-7.266147,1.494405,-0.347328,0.818409,-7.3209,-24.817085,-38.594284,-47.615089,-52.374687,-77.072182,-77.466145,-71.003952,-57.220802,-78.101521,-73.205795,-63.837547,-55.584869,-67.630005,-61.112366,-51.839333,-50.77858,-58.118248,-52.660446,-45.437393,-31.006055,-53.095474,-59.1024,-51.163613,-52.306119,-61.721883,-59.524958,-55.48293,-35.069448,-42.682101,-41.905929,-39.895459,-16.288771,-24.205297,-24.134624,-21.296544,1.800025,-2.893563,-4.44992,-3.186414,1.375237,13.609314,31.234989,44.954224,43.989887,61.323395,55.06628,46.913624,52.975903,61.99791,53.907909,45.555611,55.938549,59.417038,52.888355,45.265903,56.540852,60.874557,53.585014,45.582104,-30.314358,-56.300753,-72.296178,-70.823338,-47.471463,-62.786183,-63.088513,-58.59123,-31.238916,-43.561458,-43.77814,-38.622197,-14.106604,-23.494241,-24.000811,-20.409468,1.922259,-5.197285,-6.019955,-3.638427,57.970476,8.557773,-75.408583,19.571731
61,-0.356483,8.54706,-0.583477,3.071929,-2.110748,-16.139946,-33.227119,-41.441803,-48.588295,-64.96582,-59.145126,-51.104851,-57.032547,-62.700462,-55.450401,-46.560745,-58.18737,-58.703957,-51.369095,-42.092171,-54.798203,-55.272446,-47.892036,-39.869156,-36.049458,-58.515154,-64.37536,-57.204316,-55.712951,-61.705921,-57.661053,-53.559065,-37.09199,-40.515155,-37.593064,-34.146403,-17.991384,-20.580918,-19.687822,-17.296537,-0.461214,-3.048062,-3.042535,-0.871761,1.627064,14.358444,32.057018,44.857292,45.784321,57.734127,48.047276,39.808159,55.199375,61.526012,52.638817,44.803391,58.426552,60.379658,52.725849,44.826279,59.087734,62.605762,54.743156,46.286201,-31.649186,-57.672878,-73.418461,-71.723937,-50.298458,-67.401223,-66.657439,-60.997829,-34.017777,-48.292774,-47.637973,-41.450458,-16.995134,-28.25106,-27.672984,-22.752804,-1.014621,-9.886611,-9.859596,-6.216167,57.594051,17.825244,-76.012001,23.364071
62,0.751648,2.489437,0.034218,-1.216452,-5.244827,-17.802887,-32.224388,-40.830116,-47.951431,-57.736015,-53.384514,-47.450867,-54.644165,-56.686821,-49.764633,-42.590103,-55.517578,-54.192238,-47.436562,-40.243149,-53.68618,-52.755203,-45.523796,-39.934845,-33.577589,-52.779158,-59.729414,-58.408202,-58.341141,-64.785259,-59.494978,-53.230306,-42.201744,-45.29791,-41.968915,-38.844097,-24.461345,-26.361714,-25.97386,-24.026066,-6.933861,-9.898653,-9.792627,-8.494171,1.79575,14.735069,32.614918,46.045933,47.284756,58.947029,50.21656,42.436123,56.289024,59.992275,50.517082,42.734299,59.098091,58.709621,50.618763,42.906532,59.542065,61.311436,53.013153,44.548416,-31.892143,-57.425815,-72.73263,-72.941069,-48.425198,-65.941906,-65.747701,-60.397121,-31.910637,-47.400789,-46.446684,-39.84152,-14.846775,-27.526697,-27.278337,-22.327066,1.038735,-8.930036,-9.277475,-5.884506,58.447151,20.84328,-75.876331,22.676218
63,0.378113,-2.407031,0.88274,0.993595,-4.538956,-17.052383,-31.836891,-41.698036,-47.565079,-56.975098,-51.84391,-45.418854,-54.69223,-57.359505,-49.992485,-42.463875,-55.914803,-55.580521,-48.768883,-41.291199,-54.322357,-54.949379,-48.132477,-41.930122,-32.018175,-49.965068,-56.503449,-54.354658,-55.67096,-62.157996,-56.411873,-49.194145,-40.260929,-44.470022,-40.774939,-36.753753,-22.932003,-25.064338,-24.109152,-21.714347,-5.532219,-8.324233,-7.898835,-6.769173,0.939159,13.144283,29.864044,43.119106,47.299919,58.482857,49.077702,40.929852,55.643291,58.630142,48.958855,40.868454,57.83535,56.785526,48.546124,40.565586,57.930908,59.249496,50.926094,42.487679,-31.975691,-57.136637,-72.968146,-74.908406,-49.511233,-66.398365,-65.781819,-60.183279,-32.95391,-47.992976,-46.656975,-40.019238,-15.954608,-28.666857,-28.105885,-23.078475,-0.200411,-10.391792,-10.625671,-7.33493,58.911495,18.605893,-74.90736,23.839457
64,-0.713081,-1.860108,-0.770245,-1.518998,-3.724594,-15.10128,-30.46978,-40.40062,-47.223015,-57.137032,-50.711746,-42.945786,-55.491028,-58.037682,-49.903679,-41.483688,-57.017326,-57.460785,-49.97303,-41.716919,-55.038414,-56.235809,-49.321747,-42.631874,-32.59653,-51.527076,-58.125292,-54.525861,-55.719867,-59.189499,-53.402713,-47.428176,-38.215941,-40.65326,-37.239389,-34.01966,-19.450577,-21.826578,-20.734739,-18.835481,-1.154177,-5.394238,-5.142358,-3.81562,1.861439,14.44376,31.456146,44.902039,48.125896,60.602245,52.167377,44.399986,56.338062,58.969975,49.498272,41.874447,58.466549,57.210102,49.28524,41.622562,58.65675,59.934711,51.823425,43.528004,-31.937128,-56.997637,-72.387384,-73.54647,-47.934313,-64.549188,-64.790755,-59.937883,-31.287328,-45.497889,-44.470578,-38.256202,-14.334617,-25.992354,-25.851779,-21.33486,1.449714,-8.067105,-8.61514,-5.60598,58.394279,17.151825,-75.481739,22.726498
65,-2.231255,1.135034,-0.189743,1.198112,-5.695953,-18.202629,-32.013359,-40.978546,-45.83622,-54.656982,-49.2136,-42.861671,-51.342659,-54.156075,-46.801758,-39.463806,-51.283836,-51.467056,-44.310379,-37.157021,-48.823357,-49.694023,-42.64492,-36.905823,-30.312135,-47.714759,-54.860548,-53.690933,-55.518344,-60.649464,-53.857042,-46.846055,-41.303523,-44.203785,-39.683964,-36.023369,-25.071871,-27.21106,-25.179749,-22.539796,-8.82577,-12.363637,-11.444204,-10.300247,1.908417,14.21505,31.078606,44.809341,46.772232,60.483341,52.306995,44.123898,55.375271,59.076748,50.017433,42.305088,57.966213,57.79438,50.22131,42.240543,58.594093,60.662441,52.65564,44.094601,-32.033335,-57.068527,-72.639603,-75.178626,-49.698399,-65.581068,-65.68663,-60.878373,-33.339819,-46.123667,-44.652155,-38.609167,-16.378926,-26.829443,-26.159327,-21.760907,-0.294488,-8.68183,-9.062089,-6.247258,56.426239,18.513453,-75.408268,24.151204
66,0.260582,0.234374,-0.710163,-0.961577,-12.091141,-26.098366,-36.490402,-43.26107,-48.01403,-54.657097,-49.547424,-44.187698,-48.989983,-51.668129,-45.559502,-39.549065,-45.432472,-46.188698,-39.973412,-33.448334,-39.804153,-40.735931,-35.238647,-30.275688,-20.256976,-36.523825,-45.41326,-47.289021,-52.184162,-58.897697,-52.79688,-46.255288,-43.962033,-45.391493,-39.957673,-36.05906,-32.364101,-32.844612,-29.69355,-26.330376,-20.141255,-21.53453,-19.236087,-17.667071,2.786865,15.253372,32.374363,45.938129,47.178783,63.260307,57.051945,48.881207,55.875034,61.463356,53.056355,44.94421,58.575897,59.377441,52.274837,44.067822,59.073143,61.863098,53.980751,45.21492,-31.008988,-56.233846,-71.737831,-73.173127,-48.204471,-63.01929,-64.528995,-61.469787,-32.002305,-43.010551,-42.057495,-37.228366,-14.913157,-23.259373,-22.980323,-19.660004,1.232693,-5.376053,-5.624258,-3.338073,56.786613,18.785216,-76.018639,23.227016
67,-0.884285,1.722095,-0.440426,3.455769,-13.859253,-28.209229,-37.596588,-42.703972,-50.973473,-54.268341,-48.101463,-43.51284,-50.139542,-49.557266,-42.847939,-37.888184,-45.084343,-42.717934,-36.469574,-30.965424,-38.205299,-36.592712,-31.025963,-26.53759,-18.306651,-33.725358,-42.99533,-44.885633,-48.299752,-57.894624,-53.483637,-47.564181,-42.397648,-46.49735,-42.754503,-38.484925,-33.262724,-34.983986,-33.050333,-29.198374,-23.43107,-26.718199,-25.29865,-23.015953,1.939373,14.743252,32.423744,46.640339,47.349701,58.833904,49.966908,42.431717,56.067066,62.469234,53.621521,45.964966,59.089565,61.422443,53.563385,45.875816,59.829655,63.43626,55.462246,47.102737,-32.700147,-58.250985,-73.779114,-75.095263,-49.099018,-67.847185,-69.12653,-64.8262,-33.18251,-50.407324,-51.398388,-46.218948,-16.882624,-30.13803,-30.85489,-26.713321,-1.485344,-11.730571,-12.893517,-9.818285,56.141853,20.396809,-76.21954,26.572283
68,-1.453056,2.916781,1.315784,3.779125,-22.420006,-37.852707,-44.291382,-45.574837,-55.613365,-56.256752,-48.495941,-43.27961,-49.015961,-46.675987,-40.028114,-35.36705,-38.835869,-35.606689,-30.406837,-26.319466,-27.508278,-25.539665,-21.195946,-18.296585,-6.831294,-20.257346,-32.285215,-38.981121,-40.038689,-51.245555,-48.43937,-43.600824,-42.74629,-47.910045,-43.628333,-37.626718,-41.392166,-42.209278,-38.740696,-33.227403,-38.206616,-39.265049,-35.313332,-31.316166,0.59166,12.497349,30.110378,44.593792,45.051327,55.63036,44.446907,36.093464,54.475994,59.181347,49.065857,40.798473,58.05479,58.933239,50.434284,42.525387,59.391232,61.833458,53.408604,45.163765,-32.788049,-58.000062,-73.882268,-76.912114,-51.424354,-69.939443,-68.06047,-61.484144,-35.330344,-52.28219,-50.999295,-43.948849,-18.987819,-32.818337,-31.693306,-26.153121,-3.771623,-14.502239,-14.142697,-10.1903,54.807415,23.111141,-74.785137,30.148959
69,-1.023331,2.539671,-0.196552,4.567524,-23.213425,-38.922729,-45.774307,-46.825447,-54.133873,-54.920197,-47.927284,-42.996025,-46.764793,-46.243172,-40.203438,-35.714035,-36.379166,-35.667229,-30.902138,-26.875877,-25.23262,-26.460915,-23.115005,-20.361671,-5.461237,-18.132422,-30.251527,-37.003193,-38.965652,-49.848607,-46.179058,-40.914248,-41.946684,-46.560922,-41.834947,-36.351603,-40.504226,-41.130437,-36.991553,-31.657306,-36.932057,-37.913209,-33.376067,-29.078115,0.008068,12.410946,30.240498,43.946114,44.718132,54.399261,44.313526,36.55798,54.638557,61.371632,52.360096,45.26659,58.591404,59.670696,51.250362,44.858665,59.753666,60.778484,52.712631,46.068707,-31.244566,-56.898682,-73.193813,-75.28107,-49.170742,-68.676184,-68.144822,-62.088341,-33.656198,-52.604929,-54.284942,-48.94384,-17.39892,-31.233019,-31.389216,-26.856211,-2.007815,-13.135301,-13.403946,-9.593637,53.585587,25.53097,-75.180187,34.596641
70,4.732132,10.192106,0.137558,6.269241,-15.407982,-32.105713,-43.90646,-48.665772,-56.225052,-73.140307,-72.787714,-68.408461,-55.356274,-64.687701,-59.134083,-52.272034,-49.714966,-54.1535,-48.934822,-42.362137,-41.614552,-47.328015,-42.836781,-37.340813,-19.560801,-35.796961,-42.629814,-41.315873,-45.865443,-54.974277,-52.091289,-47.333219,-38.402982,-43.828497,-41.197976,-36.973028,-28.474211,-30.819245,-29.526175,-26.224057,-17.778345,-21.055177,-20.105239,-17.543755,-0.414448,11.877823,28.73457,41.01265,43.872643,54.555931,43.9258,35.65464,53.385086,58.991203,49.214344,41.66914,56.990089,58.778687,50.422497,43.469868,57.882671,60.498104,52.448959,45.119019,-31.109333,-56.196858,-72.134794,-74.07919,-47.628834,-66.730675,-65.473838,-58.793216,-31.26022,-48.114995,-48.221823,-41.198208,-14.82859,-28.430168,-28.780076,-23.510667,0.384149,-10.258071,-10.888635,-7.236654,57.456408,35.414324,-75.90394,40.55713
71,4.732132,10.192106,0.372906,8.574446,-7.602539,-25.288696,-42.038612,-50.506096,-58.316231,-91.360416,-97.648144,-93.820896,-63.947754,-83.132229,-78.064728,-68.830032,-63.050766,-72.639771,-66.967506,-57.848396,-57.996483,-68.195114,-62.558556,-54.319954,-33.660366,-53.4615,-55.008101,-45.628553,-52.765233,-60.099947,-58.00352,-53.75219,-34.859281,-41.096072,-40.561005,-37.594454,-16.444196,-20.508053,-22.060798,-20.790808,1.375367,-4.197145,-6.834412,-6.009396,-1.392975,10.815983,27.444019,40.015526,42.375984,56.267052,48.655586,41.580791,51.672077,60.364037,51.178608,43.834763,55.410805,60.459938,52.569637,45.538101,56.070786,62.259521,55.056381,47.482681,-30.060996,-53.550112,-68.728764,-70.499056,-45.385719,-62.548289,-64.115144,-59.53842,-29.948981,-46.060466,-47.71831,-41.906763,-14.230352,-26.906939,-28.957084,-24.902861,0.784971,-9.23922,-11.15901,-8.80743,59.935484,43.224424,-77.78409,46.74957
72,0.471611,13.756355,-0.325527,12.577231,-5.219193,-21.692734,-38.143845,-47.176323,-50.925522,-78.663483,-82.508583,-79.821453,-59.182777,-70.735245,-63.414574,-55.304375,-60.777054,-64.332047,-57.758102,-49.257545,-58.775711,-62.10125,-55.753212,-49.207878,-32.133803,-53.273964,-59.592945,-53.668703,-52.446169,-62.732429,-62.883563,-60.592808,-35.765468,-46.793443,-46.457737,-42.965474,-18.241967,-27.567854,-28.548358,-25.980868,-1.648829,-10.791749,-13.042428,-11.887572,-2.688618,9.754658,26.922054,39.486408,40.974598,52.403069,42.612419,35.427532,48.792629,55.539494,45.164165,38.104019,50.457859,55.079784,46.455975,39.532413,48.911476,54.207916,45.555611,37.468987,-30.803421,-55.325035,-69.560851,-68.078687,-43.579643,-63.70966,-66.983142,-62.82138,-27.2989,-47.701267,-51.327653,-46.122741,-11.841043,-29.07725,-32.992782,-29.071168,2.009945,-10.071029,-13.435747,-11.38517,59.862843,54.637629,-78.65387,56.983651
73,-0.67749,16.789659,2.801113,15.689236,-3.117142,-19.410095,-36.906738,-46.58844,-41.778374,-74.002876,-77.513123,-73.442917,-50.094109,-69.387932,-61.191673,-51.638145,-53.085022,-63.969269,-58.141823,-48.836632,-52.441177,-59.339333,-53.945389,-47.698746,-32.954805,-54.66023,-59.556111,-52.017034,-53.895482,-63.141278,-60.131718,-55.970543,-35.512631,-42.458935,-40.877754,-38.572457,-17.156117,-24.828328,-25.733774,-23.517891,-0.846691,-9.460873,-11.425463,-10.044847,-7.477283,3.368626,20.735378,33.677616,26.152153,41.618729,33.280449,26.413593,37.986374,51.290932,41.709423,34.153118,44.357586,55.287323,46.314182,38.632965,47.239151,53.598518,45.68716,39.448071,-29.263458,-52.20034,-65.678263,-68.443724,-48.21994,-68.310313,-67.479121,-60.562211,-34.555191,-56.316808,-57.133704,-49.857468,-21.017339,-39.584762,-40.788216,-34.659889,-7.80553,-21.606809,-23.126703,-19.3272,58.964081,65.24882,-76.074028,66.494418
74,-4.329872,18.152429,-3.755779,3.065599,-22.280159,-40.111084,-47.395706,-45.922165,-51.324234,-71.174469,-74.139977,-69.477539,-43.423347,-52.123833,-46.625977,-41.887894,-33.055458,-38.723946,-36.043282,-31.108932,-21.349525,-26.945686,-24.659157,-21.05381,-9.724393,-25.729729,-38.491996,-42.27072,-43.911243,-61.878359,-58.782965,-52.519034,-44.933089,-52.245943,-45.009844,-40.011488,-42.634337,-47.006637,-40.438122,-34.823219,-38.788027,-42.11727,-37.31775,-33.416174,-3.88155,8.000221,23.874779,34.019165,29.030743,47.266846,42.195225,36.055698,38.704319,56.78793,48.857918,42.159977,43.626766,59.362164,51.293507,44.28463,44.89872,56.791363,50.238705,43.697891,-24.510591,-43.756033,-53.692909,-57.724347,-33.742308,-51.316414,-53.198196,-50.510015,-22.177907,-41.153716,-44.793471,-41.998863,-11.098834,-28.005572,-31.192541,-27.686785,-0.858176,-13.254263,-16.370034,-14.477477,55.239916,76.254935,-79.2241,62.413704
75,7.469216,26.432542,-12.590589,35.782974,-15.669709,-35.357666,-49.530888,-55.720883,-51.119442,-76.654244,-78.113423,-72.223835,-51.339054,-68.257256,-62.147827,-53.934689,-47.706242,-58.357888,-52.754975,-44.098377,-41.565857,-49.505482,-44.768887,-38.399048,-23.10807,-42.55525,-53.16144,-52.959099,-51.769431,-65.945766,-62.62557,-57.458203,-42.283549,-51.327282,-46.995136,-42.983212,-30.702475,-38.512281,-35.346615,-31.271474,-19.516851,-27.142039,-25.700753,-23.289863,2.221355,17.518473,36.533575,49.43161,36.888685,60.644617,53.722429,46.007023,47.507315,69.982023,59.954967,52.191553,54.044409,73.996439,63.531589,55.112371,57.146101,72.333498,63.730059,55.852318,-32.946299,-56.323138,-70.112221,-72.238303,-40.873138,-64.072891,-64.48117,-59.100702,-25.821769,-52.302182,-54.332644,-47.905121,-12.582681,-36.889449,-39.756258,-33.677378,-0.556773,-20.449791,-24.658067,-21.199642,63.422127,96.210106,-91.101694,91.719307
76,7.469215,26.432541,-12.59059,35.782974,-9.059258,-30.604248,-51.666069,-65.5196,-50.91465,-82.134018,-82.086868,-74.970131,-59.254761,-84.390678,-77.669678,-65.981483,-62.357025,-77.991829,-69.466667,-57.087822,-61.782188,-72.065277,-64.878616,-55.744286,-36.491746,-59.380771,-67.830882,-63.647477,-59.627618,-70.013173,-66.468174,-62.397371,-39.634008,-50.408621,-48.980427,-45.954934,-18.770612,-30.017925,-30.255108,-27.719729,-0.245674,-12.166807,-14.083756,-13.163551,8.324261,27.036724,49.192371,64.844055,44.746628,74.022388,65.249634,55.958347,56.31031,83.176117,71.052017,62.223129,64.462051,88.630714,75.769672,65.940113,69.393482,87.875633,77.221413,68.006744,-41.382008,-68.890242,-86.531532,-86.752258,-48.003968,-76.829369,-75.764143,-67.691388,-29.465629,-63.450648,-63.871817,-53.811378,-14.066528,-45.773327,-48.319975,-39.667971,-0.255369,-27.64532,-32.946099,-27.921807,71.634264,116.539592,-102.949362,121.399226
77,-4.711418,19.444803,2.967739,19.357581,-4.895897,-23.412094,-40.560036,-54.879684,-40.546532,-71.310081,-73.908234,-70.043793,-48.346481,-73.877106,-68.215942,-59.74205,-51.641121,-72.154655,-65.745049,-55.323143,-52.79274,-67.284851,-62.743378,-54.641876,-34.482295,-56.259596,-67.216929,-64.177913,-55.973815,-66.627676,-68.200212,-68.335476,-37.715392,-51.86238,-53.199863,-52.239984,-18.573443,-34.894139,-35.811441,-33.150338,-1.838526,-15.601674,-18.860953,-19.316579,6.27079,23.138008,44.08762,60.590744,42.063274,70.835896,59.656506,49.104023,52.791424,81.130314,68.570766,56.520309,59.297905,86.395397,75.126972,64.46228,63.174763,84.405727,75.731964,66.958752,-34.866845,-61.195585,-76.84388,-79.347489,-44.231944,-69.070831,-68.47392,-60.812948,-27.382911,-54.403008,-56.452597,-47.966207,-12.558891,-38.214304,-40.859908,-32.906764,1.848128,-20.654895,-25.0355,-21.211143,67.620678,132.46016,-99.283791,137.232572
78,-2.216892,20.190269,2.853756,18.626333,-9.755688,-30.808411,-51.319199,-65.372601,-52.60128,-91.162091,-94.012871,-85.502014,-56.397858,-88.653775,-81.467057,-69.180279,-55.93895,-82.265854,-74.438381,-62.08643,-53.086682,-73.005753,-67.660675,-58.431931,-31.054714,-52.517922,-59.604044,-53.585263,-46.58502,-49.991481,-57.334701,-62.51993,-26.940577,-34.008792,-41.373285,-43.889321,-7.906044,-18.218548,-24.69067,-25.431289,8.963088,-1.549256,-8.193986,-10.497971,4.111347,21.754818,43.382378,58.007812,34.908028,71.736317,62.303982,51.401138,44.446163,81.205788,70.732155,59.207954,50.923519,85.365372,75.693054,65.859833,55.45126,81.978378,75.073357,67.017632,-31.299246,-56.567052,-71.510219,-72.703021,-37.849915,-61.320104,-62.256148,-56.562297,-19.862298,-44.86859,-47.589777,-41.352429,-4.363161,-26.697513,-30.429769,-25.250083,9.398721,-8.987278,-14.242794,-12.435051,65.73226,149.759445,-96.101561,152.96792
79,-2.216893,20.19027,2.163734,19.326829,-14.615479,-38.204727,-62.078362,-75.865517,-64.656029,-111.014099,-114.117508,-100.960236,-64.449234,-103.430443,-94.71817,-78.618507,-60.236778,-92.377052,-83.131714,-68.849716,-53.380623,-78.726654,-72.577972,-62.221985,-27.627134,-48.776249,-51.991161,-42.992613,-37.196225,-33.355288,-46.469192,-56.704384,-16.165764,-16.155205,-29.546708,-35.538659,2.761355,-1.542958,-13.5699,-17.712241,19.764701,12.503162,2.47298,-1.679364,4.873295,23.970852,43.809242,59.697647,38.061676,73.637123,88.429871,97.936935,43.946171,80.917625,88.682556,90.204849,47.298374,81.980209,87.308922,85.293388,48.900948,75.247307,81.256027,80.474396,-30.61851,-50.649479,-63.333693,-70.143404,-30.061336,-44.995704,-51.951671,-55.116071,-13.744036,-32.75106,-44.17853,-49.928573,-1.569078,-18.107073,-31.046378,-37.803849,7.306926,-5.802007,-17.556445,-26.171739,64.659977,168.176089,-92.793217,170.521123
80,0.733337,14.44268,3.33292,11.195226,-13.790588,-38.234711,-59.661713,-68.630562,-75.46051,-113.192024,-109.446888,-93.988838,-73.420486,-106.183777,-92.580414,-74.801674,-67.728882,-96.427803,-82.900085,-66.249962,-59.291725,-81.438789,-76.278648,-68.259773,-29.841134,-49.368281,-49.938978,-36.995722,-32.325414,-28.636321,-42.197576,-52.666556,-13.032301,-9.303564,-22.376126,-30.419241,5.257801,9.480294,-4.449055,-11.840024,22.579841,22.042365,9.29424,1.388829,9.650345,27.732868,44.374065,60.938587,41.182709,66.745033,79.843769,90.467777,41.28376,69.049358,85.018902,97.011623,39.426899,65.234127,81.036129,92.890263,35.830307,54.338322,65.165405,73.194809,-28.680473,-43.994822,-54.017099,-59.793264,-24.31052,-33.123477,-38.72603,-43.045286,-10.887833,-16.297663,-23.300592,-29.418143,-0.242,-2.699605,-8.490435,-13.656042,8.309135,6.544679,2.563383,-1.931244,65.603542,180.174642,-89.250069,179.272221
81,-0.456047,20.173242,-2.71225,34.577637,-16.106415,-40.399818,-60.707474,-72.37072,-77.856445,-111.709785,-104.580002,-89.119205,-76.513367,-106.422501,-88.252258,-68.965416,-72.203064,-99.461346,-82.804813,-64.500504,-65.21965,-88.431072,-81.260548,-71.207428,-30.126729,-47.863177,-47.004784,-34.013424,-33.150462,-32.061864,-42.762037,-49.555076,-13.854014,-11.738692,-20.966241,-26.332043,6.064199,9.432437,-1.788601,-7.936039,25.870953,25.806917,15.411421,9.11152,12.575397,34.696655,58.013821,76.133595,54.190865,99.124317,106.237965,102.853832,60.515785,106.451969,110.091877,103.687305,62.591057,105.256634,109.077015,103.720608,61.642857,96.172199,101.062031,96.552944,-34.340577,-52.228066,-59.928219,-61.980803,-21.029844,-35.130242,-49.492893,-55.695228,0.858454,-14.843626,-33.513801,-41.41242,16.303838,2.482737,-14.088295,-21.238498,26.635608,17.473946,4.51414,-2.281554,65.329485,199.526279,-91.780329,213.028254
82,-0.326271,16.469514,-4.221611,10.689552,-19.667358,-44.858894,-66.566963,-79.148369,-76.538429,-110.355377,-102.103329,-86.871414,-74.680367,-103.878136,-87.888508,-68.701515,-69.968376,-96.667042,-82.678471,-64.358711,-63.080406,-87.732868,-86.679554,-79.821854,-29.908195,-47.664032,-47.440495,-36.750819,-27.99492,-28.558145,-37.362643,-42.827183,-7.765485,-7.055602,-15.478358,-20.860709,12.240228,12.723549,3.259742,-2.998291,31.592746,32.234456,23.745565,17.306788,18.014317,44.351063,69.587402,87.44997,52.561798,99.620762,106.617451,103.284588,54.717064,102.526646,109.860249,106.45174,55.672417,99.406071,105.03233,101.920452,55.335732,89.161549,94.594746,92.141247,-30.382438,-45.894018,-51.819772,-48.505628,-13.235522,-20.41518,-32.206483,-37.119099,8.121291,-2.683179,-18.067121,-24.526029,22.49339,13.599231,0.345432,-5.923841,32.116142,27.03995,16.949006,10.172825,65.538597,214.92535,-95.466557,222.647363
83,-4.479675,20.343797,-2.957439,11.792106,-18.894768,-43.330879,-65.37632,-78.874454,-73.199043,-103.334827,-97.182999,-81.960239,-74.313469,-94.14917,-77.904453,-58.268738,-71.518021,-88.449554,-73.55587,-54.762268,-66.260376,-81.570282,-73.460426,-62.767067,-29.009232,-47.896584,-49.108682,-41.018205,-27.923536,-33.034803,-38.169165,-40.20205,-5.059273,-10.740311,-14.144364,-16.325759,16.55405,9.936815,4.318268,-0.16969,35.778312,29.148541,21.804256,15.921726,21.912346,47.099133,70.514603,89.236107,51.572399,87.736359,107.695541,121.831627,50.938053,92.435989,113.153572,125.384903,50.797749,88.347359,108.364449,119.77272,50.46484,80.274181,96.656799,107.699432,-27.880929,-40.188897,-45.914766,-48.411582,-6.484226,-6.853246,-10.809965,-13.813382,13.946145,12.134079,4.901254,-0.689752,27.728776,28.886719,23.848441,18.450838,35.591949,40.11844,37.513005,31.587559,61.459837,234.465403,-98.023081,233.635725
84,0.38784,13.598861,-1.426849,12.480129,-21.472893,-47.362747,-70.082703,-85.420704,-65.139542,-95.43726,-89.745255,-75.754509,-65.733833,-91.560173,-81.086082,-64.904938,-62.828865,-85.68243,-75.546341,-60.105858,-58.398857,-77.270107,-71.676865,-63.667374,-26.935468,-41.387164,-41.785269,-36.974665,-23.606997,-25.431413,-29.528121,-30.668404,0.509132,-1.512021,-6.399998,-9.036247,23.059642,18.565261,10.921857,5.417734,41.943906,35.186867,27.031552,21.125495,23.431606,48.206921,71.19524,91.481209,51.991882,86.234436,107.777596,124.420509,49.949284,89.218941,111.233139,125.899086,48.765392,84.267368,104.966354,119.019928,47.801456,75.22665,91.406937,103.78521,-25.856133,-36.71803,-41.395438,-44.435164,-3.83081,-0.308135,-1.815462,-3.321987,15.219809,19.813855,15.893321,12.58813,28.429828,34.810498,33.052958,30.491304,36.026302,43.3654,43.189844,40.067743,62.193832,247.57304,-99.103775,245.624629
85,3.326912,13.150059,0.640812,9.170121,-21.902847,-45.654945,-66.331902,-81.578579,-48.220139,-84.797173,-97.269058,-101.827412,-49.631195,-87.407398,-103.138103,-109.25869,-49.808693,-84.96254,-99.081173,-105.704784,-49.337654,-77.738571,-90.001945,-97.801323,-24.125083,-36.955893,-40.663573,-38.969635,-15.054009,-16.102037,-20.025041,-23.748344,6.379126,8.550888,4.29153,-0.117573,24.826877,26.547737,22.222985,17.599855,38.927151,40.763793,38.168609,34.217632,25.397816,51.19051,73.947029,94.962444,56.900597,89.799213,109.685497,123.551159,51.986675,88.859081,108.892765,121.170101,47.819023,81.031666,99.558163,111.732616,43.638496,70.203609,85.250301,96.629505,-22.986838,-31.519448,-34.739547,-36.015681,3.046271,7.88139,7.734301,7.265059,20.515154,28.346341,27.377477,26.523716,32.678936,41.306518,41.632313,41.346779,39.309942,47.236966,48.40164,47.5204,65.700045,260.396269,-98.283663,254.467921
86,2.619209,6.422846,1.889305,6.488178,-24.542999,-49.982529,-72.200432,-87.450943,-44.871254,-77.397194,-93.059807,-102.822189,-44.855919,-77.982445,-99.332542,-113.112831,-43.48011,-74.516144,-94.715023,-108.207264,-42.157745,-66.157379,-82.964573,-96.931057,-21.896511,-31.746319,-32.626571,-27.75539,-17.79017,-16.742945,-16.574181,-17.536067,3.834454,9.530682,9.502956,6.937288,22.470975,29.856942,30.74411,28.231053,36.504621,45.286208,49.083982,48.697733,28.267765,54.245625,77.177639,98.344059,57.195568,90.348644,110.58466,124.554691,50.867157,87.600574,109.590626,123.423328,45.186539,78.792858,99.093761,112.87817,39.710941,67.465782,84.295063,97.823467,-19.973171,-26.615786,-27.355124,-27.551922,8.275111,17.181311,19.96786,21.947208,26.387186,37.299348,38.027756,37.661268,39.113514,51.659839,53.560393,52.91646,46.024126,58.712909,62.582993,62.589909,68.482561,266.640703,-96.23105,260.777686
87,-26.924458,11.202111,2.003918,6.364183,-14.062156,-32.332763,-49.16502,-62.077903,-44.051199,-54.066181,-50.754032,-47.873783,-49.228963,-57.012147,-55.067596,-50.66082,-51.639347,-59.018154,-55.887537,-51.984357,-52.547521,-62.154264,-62.163992,-61.351575,-21.796598,-29.901093,-28.69202,-22.058513,-13.059038,-2.469738,0.762186,0.671413,8.518161,19.96712,22.979768,21.479511,25.925232,36.095,37.820121,36.221094,39.890365,50.778723,51.981559,49.782936,29.478378,55.786972,79.346237,99.464493,56.144428,89.116745,109.572372,123.917427,49.238605,85.856438,109.481621,125.432396,43.172379,76.764851,98.177948,113.49575,37.46315,63.131046,79.536896,93.458061,-17.411825,-21.227198,-19.065193,-15.81249,13.914776,23.952182,27.853203,30.903549,31.389093,43.454691,45.534754,45.938231,43.158413,57.232875,60.031095,59.964034,49.626151,64.611926,69.726527,71.316539,41.661443,278.062985,-94.123793,267.36204
88,-26.924457,11.202112,3.995247,4.833328,-3.581314,-14.682999,-26.129608,-36.704865,-43.231144,-30.735168,-8.448257,7.074623,-53.602009,-36.041851,-10.80265,11.791191,-59.798584,-43.520164,-17.060051,4.238548,-62.937298,-58.15115,-41.363411,-25.772095,-21.696687,-28.055867,-24.757469,-16.361636,-8.327908,11.803468,18.098552,18.878892,13.201868,30.403556,36.456579,36.021732,29.379488,42.333057,44.896131,44.211134,43.276109,56.271236,54.879135,50.868137,29.668007,56.475105,80.527611,100.346375,54.52898,88.22834,108.649635,122.804718,46.055717,83.827744,107.233887,122.755051,38.596859,72.586956,93.800697,108.621597,32.088375,57.161808,73.341064,87.204437,-14.715061,-16.457782,-12.430173,-10.284222,16.361204,29.341449,34.633027,38.163175,34.004285,48.49513,52.43635,54.305474,45.978431,62.342969,66.825555,68.02129,52.681993,69.709052,74.933693,76.820785,14.726028,289.30068,-90.139503,272.230952
89,-20.684738,7.707192,3.629265,5.904821,0.61512,-3.839264,-9.657326,-12.85881,-28.316746,-1.0215,19.596634,34.386063,-33.575649,-2.830124,20.661507,39.169693,-34.148827,-10.211792,14.434204,34.258232,-31.80685,-31.343651,-34.119301,-35.041695,-6.748579,-5.229025,1.618725,10.871778,7.669648,23.872771,34.668287,42.873558,15.184488,29.077466,38.506322,44.696183,20.140638,34.65711,41.945202,47.626673,23.970769,37.229262,47.429195,55.400308,28.484058,54.765244,78.608093,97.227058,55.136719,87.297134,106.096344,119.391518,46.302452,82.708397,105.292511,120.915413,38.125534,71.149807,92.209282,107.560844,30.487289,55.033207,70.897751,85.174942,-13.524266,-14.709998,-11.042826,-10.062847,18.619169,33.403515,40.412557,45.238784,35.229536,50.597979,57.136606,61.198178,46.559255,63.155975,70.018113,73.375545,53.420652,70.465742,77.324236,81.450461,-5.957537,296.785494,-86.509066,277.913395
90,23.53775,3.014038,3.290348,6.082724,0.092583,-7.981339,-17.671852,-25.914345,-41.31815,-27.279282,-3.21579,14.084702,-51.970825,-31.848621,-6.32206,16.297188,-57.588673,-39.631748,-13.800774,7.499657,-59.107361,-62.494411,-57.849941,-49.799652,-18.399276,-26.329635,-27.006543,-24.053947,-2.091054,19.535669,27.016732,29.829463,17.6374,34.829888,41.081746,43.753563,31.75657,43.474451,47.949751,51.874792,43.496311,54.954717,59.118301,62.598307,28.857193,55.119209,79.034901,98.432407,55.966988,88.161678,106.104641,118.65984,46.905499,82.806873,104.533138,119.726086,38.508282,71.358089,92.053013,107.388325,30.454445,55.718594,71.562481,85.734844,-13.50074,-15.122491,-11.096611,-11.2211,17.555333,32.45966,40.148698,45.632628,34.571586,49.643564,57.084119,61.667666,46.615324,62.521489,70.180455,74.213621,54.522032,70.799873,77.625764,81.627437,17.706385,299.523631,-83.092546,283.720218
91,-35.231094,8.320621,3.7924,4.942935,5.202026,9.962883,13.164139,18.039894,-8.292046,24.610062,45.690994,58.493271,-17.490635,16.604004,40.191078,58.526115,-23.956203,4.344463,28.914642,47.713394,-26.821861,-21.084709,-18.854828,-15.31208,-20.896278,-25.304701,-22.863708,-16.689222,-1.545366,15.630017,26.585281,33.771733,16.318164,31.106708,39.22417,43.032071,28.51597,41.251683,46.529491,48.685692,36.866107,49.550877,57.974374,62.951025,28.104515,53.783112,77.177582,96.295509,55.289497,87.170792,104.823189,117.111282,46.850567,82.426987,104.211044,119.213562,38.986931,71.654892,92.262268,107.053528,31.413002,56.67881,72.473946,86.31443,-13.919654,-14.636515,-9.453741,-9.468932,18.028712,32.949402,40.352597,45.69444,34.875706,49.523707,56.271854,60.30891,46.946121,62.286282,69.118533,72.51814,54.858757,70.415662,76.395263,79.483957,-17.536612,307.827023,-79.312048,288.645925
92,-8.044739,4.983567,1.948013,5.239769,4.306755,14.234276,33.160629,45.562706,5.800037,33.854256,53.378563,66.792641,-1.200256,26.239586,49.62616,66.876297,-6.746979,14.911308,35.711403,51.005402,-9.922485,-2.44915,7.051907,15.958786,-16.716331,-22.672528,-24.099827,-24.340592,0.516913,14.073351,22.30394,29.984642,17.05849,29.015407,38.163669,43.856625,29.349415,39.820185,46.92173,51.247161,37.598776,50.077423,55.306139,59.245939,27.894173,53.789635,77.987823,98.436584,55.016212,87.240601,104.013863,115.782394,45.956841,82.169037,102.915573,116.827583,37.367992,70.352669,89.841843,103.449669,29.416695,54.246769,69.400978,82.158165,-13.825176,-14.487449,-9.369761,-10.451442,17.393115,34.045781,41.827197,47.143167,34.926836,50.764149,57.796224,61.992165,47.34367,63.520735,69.720229,72.769897,54.894078,69.807606,74.314645,76.233168,-25.60956,312.690918,-77.392244,293.766022
93,30.362091,-10.611006,1.096172,2.141504,0.105515,-2.072411,-7.394028,-12.908363,-30.655632,-9.988403,12.919579,26.787872,-39.880371,-14.378929,10.966988,31.530304,-44.636307,-22.235527,3.992157,23.459702,-46.18681,-37.984428,-24.527321,-11.78421,-11.323852,-13.059471,-7.745045,0.892046,8.461412,29.390109,36.571558,39.953505,24.534365,41.658742,48.712121,51.20869,35.86359,49.63177,53.269055,56.013613,45.252925,58.923663,59.899752,60.180593,27.60006,53.153687,76.895657,96.540356,54.5858,86.493702,102.71925,114.17696,46.180401,82.427273,102.484875,116.467266,37.566032,71.262188,90.494671,103.758259,29.247036,54.831104,69.923458,82.24474,-13.822212,-15.35461,-10.409637,-11.107788,17.415592,33.496634,41.258167,46.650337,34.212013,49.123441,56.233074,60.369673,46.255072,61.682178,67.564954,69.713869,54.257432,68.569757,72.889816,74.178238,4.663525,301.795042,-76.385078,295.622656
94,-22.561569,16.944498,-0.261555,0.127823,6.663094,12.676048,25.693474,38.408775,-0.869865,26.905403,45.258408,57.029343,-8.383827,17.279892,41.73912,60.776711,-13.226681,5.882149,27.056351,43.379402,-15.462513,-10.454464,-3.317242,3.45417,-18.271268,-25.527126,-27.08231,-25.385841,-5.594279,1.643672,7.079561,12.263447,11.381157,21.526811,28.069514,32.269716,24.600561,34.172925,40.444544,44.398114,34.75449,43.764246,48.985243,52.31427,27.655506,53.423023,77.04689,96.565933,55.489426,87.522812,103.602448,115.324516,46.627808,82.497597,102.231102,116.164856,37.541199,70.464935,89.46991,102.917404,28.720722,54.098454,68.984985,81.43261,-14.578408,-16.306864,-10.836518,-10.841458,15.703006,31.405025,39.370272,44.983446,33.095689,47.628957,54.591007,58.60182,45.289728,60.274639,66.186253,68.205615,53.262015,67.619171,71.914159,72.64936,-17.982473,318.51903,-76.731062,295.529969
95,0.644188,-8.196317,1.15963,-0.172222,3.212242,12.073174,24.018059,29.210129,-2.87384,25.443306,42.50473,52.917824,-9.79826,19.51561,42.1772,58.581276,-13.174725,8.081818,28.454132,44.291267,-13.585052,-10.764599,-5.881233,0.546799,-16.722073,-20.534544,-19.504917,-13.041749,-0.951389,12.566579,19.501459,26.386877,16.357128,28.294101,37.155346,41.914759,29.099449,40.088306,47.532071,50.649479,39.059482,49.938361,53.427383,55.318921,27.636223,52.898426,76.520233,96.593285,53.86425,85.836754,101.881485,113.351669,45.219326,81.610107,101.426468,115.122757,36.604614,70.07,88.936157,102.066193,28.502769,53.959866,68.74855,80.848274,-14.473432,-16.305629,-10.666334,-10.020363,16.264688,31.969794,39.635366,44.773433,33.848303,48.058123,54.789535,58.495733,45.969353,60.595432,65.93567,67.522408,53.527665,67.459176,71.204277,71.568851,-17.352219,310.222214,-75.585365,295.257248
96,29.234962,-3.455738,0.301094,0.112262,-1.690407,-5.799522,-13.430672,-19.081306,-32.876129,-13.485031,7.420921,20.416374,-42.080956,-19.370499,3.729858,23.854179,-46.636848,-28.788471,-5.834198,11.451302,-47.853241,-50.0774,-45.65237,-39.386559,-16.645071,-21.437458,-17.749847,-9.964849,5.877342,23.350116,27.704508,29.472298,24.057837,37.016655,41.034569,41.832817,36.028957,45.521848,46.593279,47.783272,45.540682,55.474224,56.972412,58.325425,27.721825,53.030205,76.488533,96.54808,53.061333,85.215912,101.526489,113.359566,44.307346,80.95459,100.83744,114.622993,35.685997,69.371223,88.300896,101.508636,27.666321,53.101215,68.06694,80.347252,-14.285958,-16.288771,-10.681895,-9.616639,15.771426,31.748357,39.349462,44.548476,33.42241,48.006252,54.771936,58.334564,45.693761,60.808842,66.147968,67.536549,53.311107,67.493633,71.278501,71.362234,11.867437,306.70914,-75.299578,295.312175
97,-25.605068,12.804442,0.396652,-0.725876,4.792385,8.567448,21.093693,31.822529,-7.726822,22.783642,43.283215,55.929279,-15.770702,14.608669,38.149853,55.41441,-19.812069,4.376621,26.537991,43.007412,-19.87421,-16.723766,-12.099037,-7.996044,-19.68529,-30.620733,-34.131429,-34.477293,-6.142437,7.170458,15.459895,22.142833,12.540891,24.91518,30.135127,31.973561,25.933135,35.408859,38.423391,38.634825,35.404537,43.715957,44.918793,43.512366,26.956444,52.066097,75.322151,95.348396,53.405228,84.873276,101.471214,113.731842,44.50161,80.307083,100.233078,114.124489,35.464439,68.587189,87.664604,101.15078,26.989346,52.535191,67.759438,80.295181,-14.232729,-15.281313,-9.453432,-8.18724,17.413925,33.863679,41.444592,46.419822,34.486988,49.579406,56.508543,60.066972,46.160471,62.000007,67.619727,69.20943,53.269857,67.552851,71.402372,71.852532,-13.744497,319.464274,-74.909792,294.536992
98,4.585018,-4.008096,-0.066948,-0.087439,2.401886,7.113647,19.006805,26.646996,-9.444866,16.639481,35.570412,47.916298,-17.167053,10.568619,33.637161,50.554733,-20.948753,0.488434,20.843925,36.309814,-21.21563,-17.923107,-12.180519,-7.10043,-16.998283,-23.56124,-21.750286,-17.90058,-0.782069,12.973329,20.341512,26.539154,15.446619,28.644102,36.948853,41.667881,27.331473,37.527701,44.11505,47.934313,36.452009,43.823465,44.780596,45.554143,27.337017,52.648659,75.737801,95.589294,53.118668,85.038757,101.869125,114.438286,43.909492,80.054741,99.987946,113.955231,34.795189,68.108368,87.247696,100.898781,26.373253,52.164001,67.592812,80.289917,-13.906872,-14.865424,-9.19266,-7.905226,17.41374,34.305503,41.875918,46.596923,34.569116,50.217596,57.139632,60.408946,46.256369,62.551932,68.15819,69.59043,53.225891,67.826035,71.607322,71.781025,-9.169264,315.394475,-74.986525,294.387849
99,-6.848888,3.438572,0.266361,-0.688023,5.666828,13.36607,27.065563,37.752743,0.112438,24.726162,42.295475,54.446697,-7.459488,18.816776,41.704731,60.301609,-12.049885,9.462032,28.488979,44.097691,-13.565598,-5.967579,3.048077,11.585255,-18.322582,-26.213853,-28.571669,-27.203218,-6.260442,5.445707,14.437926,21.896943,10.329424,23.011476,31.820605,35.843397,23.591251,33.327747,39.863164,42.896714,34.50329,41.826086,42.975755,43.14174,27.159119,52.677898,75.736141,94.898243,54.716091,85.56673,101.944256,114.230862,45.228939,79.935207,99.140797,113.065281,35.267487,67.088642,85.266323,98.632908,25.72998,50.197048,65.200481,78.085728,-13.115788,-14.303865,-8.871249,-7.904238,18.350926,34.319273,41.810401,46.318428,35.055771,50.445764,57.516557,60.810756,46.452488,62.199461,68.111507,69.592961,53.466656,68.380245,72.558648,72.703947,-16.022987,318.801198,-74.724998,293.667978
100,5.597134,-6.179611,-0.654316,0.052611,4.380226,13.79734,23.508339,28.962021,-1.115341,21.249962,36.097641,46.261024,-10.773239,13.139534,33.947525,50.830536,-17.00798,0.592346,18.94043,35.228348,-20.2672,-17.65337,-11.442318,-2.667732,-16.915229,-22.571258,-21.543916,-15.203754,-5.609346,5.163508,12.55213,20.006763,12.863599,23.095025,32.787678,37.947851,26.666051,35.783993,43.292596,45.85141,37.196163,44.868837,48.523103,50.484667,27.135372,52.725105,75.990601,95.438461,54.865093,85.565529,101.774254,113.743172,45.631714,80.532761,99.782066,113.628387,35.905094,67.955475,86.078568,99.126549,26.594696,51.275768,66.226273,78.722992,-13.421205,-14.797683,-9.399895,-8.018044,18.014756,33.974768,41.411247,45.860302,34.848783,50.112868,57.084613,60.623096,46.396913,61.796293,67.464301,68.88666,53.597752,68.220682,72.161902,72.189998,-10.444393,312.573268,-75.397854,293.67227
101,4.247475,-1.838557,-0.236835,-0.302268,5.796547,14.351006,22.771912,22.573929,-1.277504,18.742905,33.076286,42.570419,-13.002262,8.948708,29.442787,45.407524,-21.544018,-7.470474,10.873833,26.29097,-27.163639,-29.744625,-25.345974,-18.920975,-12.70984,-15.464897,-11.277663,-4.596824,-0.739523,9.845733,16.137667,22.231754,13.678025,24.435317,35.415158,42.347753,24.010783,33.899371,43.422766,48.822284,32.654915,40.303444,44.200636,47.67984,27.174969,52.79068,76.095142,95.571957,55.101357,85.496807,101.32719,112.985859,45.761547,80.395489,99.324245,112.793713,35.794373,67.851734,85.965099,98.791752,26.194897,50.744762,65.873623,78.450565,-13.679878,-14.700735,-9.101702,-7.546827,18.223967,34.687862,42.042089,46.436866,35.058858,50.722838,57.785295,61.306921,46.544558,62.389035,68.143062,69.678733,53.554774,68.25341,72.158629,72.332827,-6.313133,310.67858,-75.750904,293.31387
102,-8.640862,5.381487,-0.810871,0.200936,6.02829,14.992447,28.585052,36.04351,0.118504,24.836426,40.475922,50.660133,-8.722401,18.353233,40.86937,57.79438,-14.000359,6.868401,26.058311,41.255264,-15.860939,-11.679382,-3.601856,4.819794,-17.143829,-23.718024,-25.285435,-23.572355,-5.430022,4.372794,11.271117,17.979188,10.843496,21.978639,30.60443,34.781537,23.890802,32.225749,39.494637,43.078569,34.873483,41.776562,43.166502,44.454863,27.30423,52.987633,76.566353,96.35685,55.081272,85.863419,101.833649,113.505821,45.842285,80.994644,99.981308,113.464737,36.098614,68.560638,86.603279,99.419632,26.774254,51.657486,66.704865,79.254112,-13.641716,-15.123417,-9.645476,-7.817973,17.738547,34.109446,41.537403,46.033203,34.717934,50.322263,57.334146,60.773706,46.344425,62.129745,67.752243,69.127363,53.485058,68.293609,72.080021,72.023581,-15.041943,316.001744,-76.649723,293.456483
103,4.901161,-2.759379,-0.236034,0.154623,3.875542,13.170662,23.10482,27.100525,-3.64603,19.448204,34.295425,44.147415,-13.271141,11.678009,32.39502,48.985062,-18.63184,0.318031,19.156494,35.180511,-20.991039,-16.568413,-8.863735,0.334167,-16.962097,-23.157763,-22.942316,-18.186114,-6.514792,3.225842,9.552603,16.480753,12.416279,22.071265,31.290292,35.823946,26.822465,35.253372,42.508798,45.178701,37.957237,45.486156,47.742208,48.551817,27.624722,53.326263,76.877232,96.545391,55.193996,86.089153,102.118435,113.844624,46.242256,81.187649,100.147991,113.651218,36.683922,69.091587,87.1451,99.972324,27.475491,52.342358,67.398434,80.019093,-13.727734,-15.250932,-9.754033,-8.051698,17.337972,33.686702,41.200925,45.838566,34.150263,49.623866,56.679406,60.113285,45.846964,61.51681,67.222116,68.575253,53.226632,68.058772,71.887051,71.800971,-10.236712,313.158291,-76.981688,293.527033
104,-1.514969,0.349569,0.219612,-0.429968,5.572128,13.561821,23.445511,27.926331,-3.157139,21.130486,37.172012,47.357826,-12.470226,13.773994,35.06321,52.538681,-17.673912,2.868462,20.89222,36.353302,-19.662437,-13.337517,-4.61031,4.294853,-16.886947,-23.294725,-23.660658,-22.853951,-5.244462,6.830645,14.460588,20.844593,11.082902,24.975633,33.908324,37.78199,24.349052,35.510624,43.163908,46.420749,35.869271,44.818326,46.138673,46.26063,27.198029,52.618618,75.98917,95.67049,54.965973,86.028385,101.93922,113.700657,45.847721,81.200466,100.253735,113.566875,36.107769,69.044209,87.239056,99.931698,26.770992,52.180996,67.31638,79.797306,-13.63375,-15.064631,-9.309924,-7.026147,17.29382,33.931975,41.687518,46.766551,34.352248,49.581197,56.625684,60.122609,46.302991,62.04527,67.674376,69.050731,53.77831,68.424705,72.0962,72.080021,-11.871643,313.392511,-76.882038,292.981715
105,-2.836876,0.794666,-0.231972,-0.090526,6.486511,14.694786,27.294731,34.838905,-1.26852,23.572426,39.490585,49.894867,-10.03212,16.222916,37.76001,55.014153,-14.825821,6.124191,24.427528,39.276237,-16.223202,-8.848972,0.391331,9.276123,-17.262266,-23.326836,-23.359996,-21.483339,-5.483004,6.152441,13.789237,20.587649,10.989906,24.422782,33.150585,37.105946,24.324228,34.684095,41.937545,45.457998,35.627579,44.04237,45.382971,45.9851,27.380619,52.541199,75.838223,95.328426,54.824581,85.8605,102.109394,114.157963,45.966282,81.074696,100.306149,114.082432,36.335506,68.89452,87.109966,100.104504,26.857624,52.092075,67.210979,79.94379,-13.402865,-15.070065,-9.441391,-7.036583,17.239789,33.691025,41.453175,46.57037,34.024601,49.212979,56.441544,60.36288,45.804356,61.290618,67.178829,68.871284,53.343587,68.196043,72.13856,72.181847,-14.788342,314.119437,-77.193832,292.823449
106,4.045372,-1.344368,0.524426,0.105161,6.10611,16.429825,25.212135,27.645721,-0.466347,21.819649,36.453323,45.598183,-10.915604,13.117447,33.134308,49.180412,-17.553864,0.455475,18.614616,34.822655,-21.221924,-17.431011,-10.303001,-1.608925,-17.148275,-21.525267,-19.770444,-14.805279,-7.051403,3.021386,9.949659,17.408059,10.04531,21.688906,32.227787,38.779567,23.751246,33.902026,42.652739,47.408694,35.489012,43.647229,46.131263,47.925297,27.349033,52.412853,75.625877,95.173759,55.052662,85.677109,101.641731,113.401909,45.911007,80.722046,99.608345,112.901917,36.076355,68.26561,86.200447,98.89698,26.524487,51.345463,66.154404,78.450165,-13.523772,-14.970585,-9.303008,-7.181141,17.276407,34.004223,41.942671,47.104202,34.039421,49.516853,56.852802,60.623035,45.750077,61.680202,67.582553,69.259077,53.016742,67.834742,71.781705,71.988445,-10.768976,312.75168,-76.695414,292.905222
107,-1.005249,1.012336,0.130463,0.267194,5.093651,13.197212,24.809875,30.739403,-2.983704,21.047058,38.033867,48.563805,-11.88303,13.479881,35.532875,52.678299,-17.052841,2.3909,20.812569,36.094437,-18.9077,-14.517002,-6.851521,1.190071,-17.55768,-24.171828,-24.102668,-23.045501,-4.998325,7.45698,14.553214,21.149393,11.159967,24.905732,33.50213,38.136684,24.098839,34.903679,42.606179,46.694674,35.104183,43.23486,44.864144,46.36258,27.103329,52.308769,75.627823,95.196991,55.162525,85.671959,101.834564,113.759766,46.417122,81.077385,100.110741,113.738708,36.781254,68.86528,86.817513,99.590607,27.174683,52.012825,66.833153,79.398193,-13.626896,-15.353684,-9.778672,-7.559547,17.000382,32.871844,40.672712,45.937552,33.667807,48.634871,55.903265,59.938717,45.415576,60.82607,66.699955,68.453049,52.98525,67.720071,71.800106,72.126025,-11.782722,313.733481,-76.573448,293.14188
108,-1.41861,0.301651,1.090164,-0.361549,7.699242,17.190056,27.019615,31.736641,0.913467,24.498024,39.940338,49.679832,-9.39085,16.614647,37.393456,54.337234,-15.741177,4.691505,22.019463,37.054138,-18.829193,-11.381607,-2.581043,6.409721,-17.671918,-24.525596,-25.1184,-23.895927,-7.216832,5.453364,13.232002,20.440745,9.246877,24.040485,33.185783,37.622056,22.716001,34.278456,41.81954,45.024695,34.233132,43.407452,44.605595,44.579228,27.148705,52.087898,75.168228,94.954948,54.560795,85.073318,101.072273,112.770996,45.570145,80.452766,99.389534,112.642021,35.923119,68.199921,86.055336,98.663406,26.566315,51.295223,66.016617,78.326912,-13.768428,-14.969967,-9.1214,-6.985948,17.572191,33.833668,41.636389,46.8325,34.359473,49.312706,56.354105,60.123289,46.0211,61.46494,67.079473,68.683625,53.266399,67.846474,71.677779,71.849877,-13.235893,314.008517,-75.517845,292.753717
109,4.728012,0.442503,-0.458679,-0.106519,5.857887,13.497505,21.507111,24.294434,-4.353104,20.109901,35.05085,43.735886,-14.330349,12.257767,33.914337,50.915909,-19.883423,1.119576,19.92588,35.137939,-22.548122,-16.162834,-7.613583,0.3368,-17.226451,-24.19165,-24.179609,-20.808901,-5.642814,2.400177,7.789382,14.266321,11.342007,21.943071,29.692871,33.17967,24.606551,32.264282,39.326614,43.137232,35.726751,42.348,42.691518,43.183607,27.519264,52.602024,76.248779,96.255798,54.797401,85.77507,102.088509,114.084549,46.09417,80.804329,99.866753,113.484879,36.496181,68.492889,86.583481,99.574814,26.862373,51.678429,66.409035,79.03965,-13.317835,-15.002695,-9.237862,-7.714726,16.573872,32.492388,40.574343,46.388824,33.162318,47.743319,54.987383,59.444775,44.933984,59.832135,65.868053,68.02129,52.606473,67.262933,71.463567,71.723474,-8.519754,314.500128,-75.988398,292.696304
