takenoko1/special-research/HandMotion_SimilarSearch_自分用/NewProject/handData/key/d4_feature_d2/148.csv
,vel_0x_L,vel_0y_L,vel_0x_R,vel_0y_R,posFromWrist_1x_L,posFromWrist_2x_L,posFromWrist_3x_L,posFromWrist_4x_L,posFromWrist_5x_L,posFromWrist_6x_L,posFromWrist_7x_L,posFromWrist_8x_L,posFromWrist_9x_L,posFromWrist_10x_L,posFromWrist_11x_L,posFromWrist_12x_L,posFromWrist_13x_L,posFromWrist_14x_L,posFromWrist_15x_L,posFromWrist_16x_L,posFromWrist_17x_L,posFromWrist_18x_L,posFromWrist_19x_L,posFromWrist_20x_L,posFromWrist_1y_L,posFromWrist_2y_L,posFromWrist_3y_L,posFromWrist_4y_L,posFromWrist_5y_L,posFromWrist_6y_L,posFromWrist_7y_L,posFromWrist_8y_L,posFromWrist_9y_L,posFromWrist_10y_L,posFromWrist_11y_L,posFromWrist_12y_L,posFromWrist_13y_L,posFromWrist_14y_L,posFromWrist_15y_L,posFromWrist_16y_L,posFromWrist_17y_L,posFromWrist_18y_L,posFromWrist_19y_L,posFromWrist_20y_L,posFromWrist_1x_R,posFromWrist_2x_R,posFromWrist_3x_R,posFromWrist_4x_R,posFromWrist_5x_R,posFromWrist_6x_R,posFromWrist_7x_R,posFromWrist_8x_R,posFromWrist_9x_R,posFromWrist_10x_R,posFromWrist_11x_R,posFromWrist_12x_R,posFromWrist_13x_R,posFromWrist_14x_R,posFromWrist_15x_R,posFromWrist_16x_R,posFromWrist_17x_R,posFromWrist_18x_R,posFromWrist_19x_R,posFromWrist_20x_R,posFromWrist_1y_R,posFromWrist_2y_R,posFromWrist_3y_R,posFromWrist_4y_R,posFromWrist_5y_R,posFromWrist_6y_R,posFromWrist_7y_R,posFromWrist_8y_R,posFromWrist_9y_R,posFromWrist_10y_R,posFromWrist_11y_R,posFromWrist_12y_R,posFromWrist_13y_R,posFromWrist_14y_R,posFromWrist_15y_R,posFromWrist_16y_R,posFromWrist_17y_R,posFromWrist_18y_R,posFromWrist_19y_R,posFromWrist_20y_R,posFromBody_0x_L,posFromBody_0y_L,posFromBody_0x_R,posFromBody_0y_R
2,62.782974,-9.331105,0.459881,1.490717,-4.268646,-18.988037,-37.49588,-54.646797,-52.919769,-43.679695,-21.329384,-6.084824,-61.277905,-47.200928,-22.155647,-2.329559,-64.510231,-55.284004,-33.03463,-15.446892,-63.96801,-67.822609,-60.130806,-52.468987,-13.661229,-22.847282,-24.023442,-25.183732,1.231488,14.670169,16.99149,16.112967,19.606435,29.220542,29.376832,26.249668,33.721838,41.256562,38.541149,34.947584,45.215442,53.156978,49.249226,44.55953,24.665051,49.316711,72.532139,92.427692,52.143116,85.68655,103.775768,117.334614,44.403305,82.623539,103.159275,117.095318,36.307411,72.339191,91.72514,104.89912,28.80043,57.669697,73.53899,85.168362,-17.398673,-20.825512,-15.791001,-12.845259,9.718527,22.356119,27.296337,30.372805,27.844002,39.759855,43.897874,45.567173,40.770771,53.475425,56.029977,55.375917,48.963878,60.176888,60.825823,58.604537,44.100065,299.36927,-71.163969,290.666044
3,-17.276573,10.263783,0.236206,-0.891058,3.370628,-5.175362,-19.535751,-33.014946,-36.703262,-19.846115,1.628494,16.368828,-46.440296,-23.311386,0.758171,19.931374,-48.988438,-32.148056,-11.476936,5.363159,-48.33807,-46.861153,-42.060184,-36.630592,-22.360997,-32.545369,-32.891357,-35.489753,-7.174595,6.839908,11.391716,13.51488,10.554936,20.587773,22.809058,23.02148,22.732858,29.520402,30.774429,31.034584,31.770093,37.378265,35.560024,31.464305,25.194511,49.365578,72.189617,92.265644,51.343117,84.658642,102.932339,116.629429,43.597927,81.80048,103.033161,117.449055,35.676498,71.842976,91.757755,105.195866,28.505917,57.561779,73.724155,85.6703,-17.071889,-19.683129,-14.292195,-11.498853,10.953782,23.953911,28.758093,31.636589,28.883076,40.876426,44.976777,46.695291,41.562659,54.447685,56.955863,56.246227,49.532105,60.521023,61.552934,59.65627,26.179619,309.734077,-71.571636,289.876009
4,22.929497,-7.0908,0.447063,0.237924,-5.793343,-22.487755,-42.831917,-61.935883,-55.074921,-49.855843,-27.358131,-12.504387,-62.89341,-53.209877,-28.905602,-9.726791,-66.089287,-62.951775,-41.013565,-23.190651,-66.302891,-79.982243,-82.472019,-82.84132,-15.922652,-25.816674,-26.883536,-28.998796,0.355991,13.811406,15.196529,14.308805,18.732852,26.9359,26.42825,24.632486,32.406616,38.611483,36.185865,34.100862,43.573005,48.786592,46.438162,44.123325,24.636383,49.121933,72.186699,92.113037,52.100029,85.271416,103.316116,116.989059,44.149132,81.826057,102.431488,116.594696,35.803299,71.30619,90.87925,104.451599,28.162937,56.734085,72.665291,84.707565,-17.152844,-20.07685,-14.720742,-11.947223,11.185717,23.713393,28.364434,31.042488,28.994782,40.526672,44.634371,46.241055,41.512702,53.980049,56.710837,56.124085,49.390203,60.467053,61.410538,59.445269,48.671465,302.68607,-71.562223,290.156726
5,-20.059433,6.745739,0.308533,-0.21872,0.984993,-8.234367,-22.509613,-36.285324,-40.065422,-24.740639,-1.801071,12.923698,-49.247417,-27.66449,-3.946152,14.852715,-52.497139,-37.125893,-16.616135,0.232315,-52.449589,-53.991508,-48.156223,-41.22551,-22.677345,-32.494981,-31.915886,-33.888256,-6.942908,7.12149,9.957624,10.804655,10.881349,20.531703,21.633454,20.76302,23.714813,30.570344,30.083195,28.578214,33.798223,39.76109,37.916173,34.039853,24.826984,49.399395,72.492599,92.715797,51.696339,84.917793,102.96032,116.637955,43.645477,81.430779,101.999474,116.176987,35.410938,70.967789,90.477905,104.051514,28.01548,56.656609,72.588043,84.772339,-16.987847,-19.835838,-14.345732,-11.312675,11.573571,24.172446,28.837566,31.720631,29.411968,40.943302,44.957511,46.753028,41.878327,54.387108,56.95963,56.351079,49.613369,60.739743,61.690946,59.83689,28.296261,309.44192,-71.569462,289.948118
6,-24.16317,11.179912,0.911636,0.101765,5.750999,7.157135,3.28949,-0.899734,-14.153938,6.310043,23.841476,36.526337,-22.422123,2.857819,22.356834,38.911858,-24.819088,-1.777954,16.291809,31.760788,-25.027542,-13.815651,-1.792488,9.97879,-20.215294,-34.460188,-40.84376,-46.26841,-15.870412,-7.899236,-3.336931,-2.079507,-0.221622,7.559485,11.319592,11.745978,12.299447,18.460039,20.376277,19.258595,22.054654,27.49221,27.598791,24.181585,24.495678,48.659592,71.590004,91.614075,51.622353,84.746819,102.503471,115.771751,43.512611,81.087799,101.393509,115.151482,35.093937,70.528221,89.798813,103.031158,27.504044,55.955315,71.860428,83.972397,-16.962591,-20.003243,-14.525179,-11.259694,11.154347,24.130517,29.039119,32.067792,29.040601,40.806216,44.973998,46.684546,41.61033,54.268609,56.97303,56.324095,49.464674,60.779943,61.822907,59.910744,3.884211,320.615966,-70.906706,290.044016
7,-6.524162,-3.653648,-0.164509,-0.122451,6.417389,9.318924,10.212822,8.353844,-9.9123,11.769104,29.895973,42.470055,-16.943951,10.400391,30.295944,46.790428,-19.381714,7.887955,26.675262,40.830803,-18.912621,-7.339783,2.47982,10.641518,-18.757861,-31.32938,-37.225063,-40.18581,-13.281649,-4.52402,1.720119,2.749437,2.654341,12.596899,16.727569,16.670882,14.776688,24.609145,25.939063,24.067223,23.735129,32.576121,32.268851,28.785634,24.275494,48.646603,71.783695,92.107258,51.340199,84.614697,102.568188,116.060429,43.242989,81.026745,101.603336,115.555286,34.819736,70.525417,90.046749,103.450527,27.19923,55.900898,71.973896,84.293575,-16.941226,-19.876655,-14.501776,-11.257718,11.381651,24.408147,29.161385,32.085082,29.329037,41.060936,44.998143,46.614028,41.930876,54.587426,57.073806,56.299024,49.736499,61.108702,62.16803,60.236786,-2.825403,316.95199,-71.256666,289.911237
8,-3.077087,3.909172,0.325642,0.570265,7.329826,11.664619,10.560493,7.299271,-5.965118,17.072525,35.343933,46.745224,-13.013992,14.764252,33.99559,49.484367,-16.394749,10.534172,28.230286,41.787987,-17.659492,-8.403397,-2.490005,3.535881,-19.627862,-33.850835,-41.726297,-45.644793,-16.133407,-6.761114,-0.218226,1.59489,0.241629,9.937679,13.510558,13.394282,12.864155,20.918446,21.328345,18.747796,21.687856,29.408201,29.325271,25.256104,23.938236,48.328571,71.714745,91.86367,50.887985,84.530296,102.531052,115.69931,42.956429,81.160011,101.79039,115.529022,34.646473,70.764198,90.32135,103.611717,27.201748,56.105576,72.291069,84.556389,-17.23806,-20.148789,-14.802191,-11.504966,11.48039,24.386411,29.060238,31.915206,29.440188,41.163874,44.799553,46.069945,41.98534,54.809727,57.040893,56.074993,49.539762,61.161992,62.047184,59.909941,-5.973902,320.856715,-71.002436,290.477056
9,5.122261,-4.984123,-0.189857,0.118746,6.428146,8.563042,7.953987,3.401642,-14.698906,9.068184,28.564682,41.481514,-21.016045,7.619019,27.593307,44.200058,-22.670116,5.558624,25.443764,40.327492,-20.997963,-13.196297,-5.905952,0.515442,-18.698828,-31.31598,-37.085877,-40.105905,-11.844717,-2.429323,3.252332,3.799626,4.366186,14.527031,17.70409,17.222746,16.748379,26.184027,26.622826,24.457794,25.962775,35.14006,35.16723,32.068409,23.92313,48.422184,71.70948,91.86676,50.882149,84.55925,102.602921,116.009445,43.015594,81.142387,101.817398,115.796013,34.833984,70.815582,90.545197,104.0728,27.439213,56.372452,72.594223,84.920082,-17.129873,-20.091546,-14.760139,-11.34917,11.319962,24.327563,29.067586,31.96683,29.293407,41.072978,44.814744,46.184553,41.856776,54.634109,56.907327,55.93519,49.445716,60.960068,61.83958,59.70493,-0.933094,315.866448,-71.273746,290.589658
10,-7.255211,6.319043,0.105457,-0.616578,7.941513,13.069038,12.931366,12.288666,-2.372475,20.474739,38.162498,49.594231,-9.63501,17.361031,36.579323,52.170067,-13.061428,12.633934,30.3368,43.947258,-15.054245,-6.600494,-0.049553,7.26963,-20.10402,-35.071332,-43.065417,-48.216142,-15.6922,-6.891161,-1.789033,-0.506971,0.039891,9.918475,12.950482,13.052555,12.415414,20.280256,20.404312,18.156474,21.552685,28.228028,27.846287,23.873142,24.349308,48.743076,71.999073,92.20602,50.96117,84.395199,102.46954,116.101971,42.974052,80.808849,101.525173,115.649357,34.568653,70.352039,90.078678,103.698864,26.807499,55.606556,71.809673,84.179821,-16.455126,-19.096006,-13.832833,-10.629037,11.920608,24.855652,29.61383,32.48473,29.74789,41.687209,45.583722,46.944454,42.191154,55.198199,57.611899,56.551274,49.691421,61.503163,62.474189,60.233019,-8.244295,322.184828,-71.224279,289.972417
11,-4.197006,-8.222438,0.235863,0.316286,8.677368,15.851097,20.758324,21.039848,-0.567398,23.417244,41.080513,53.04554,-5.906239,21.895294,40.541496,56.311684,-7.978764,19.270706,38.399391,52.710457,-7.521057,1.976166,8.970909,14.869881,-18.887413,-30.785977,-36.486775,-38.554487,-10.009989,-2.532755,3.313774,4.546374,6.491142,15.841698,19.118483,18.755885,18.94268,28.258038,28.209132,25.958206,27.947248,38.426726,38.11044,34.685206,24.023838,48.593445,71.986256,92.221584,51.680946,84.864178,102.681141,116.091213,43.800888,81.232624,101.506062,115.318508,35.323563,70.791836,90.150204,103.608112,27.455463,56.141567,72.261372,84.613094,-16.764743,-19.550057,-14.170238,-10.750376,11.578387,24.134902,28.960881,31.886801,29.572211,41.071249,44.945593,46.198138,42.207765,54.855114,57.317473,56.217205,49.878278,61.589552,62.426826,60.054684,-12.483616,313.970356,-71.030731,290.296668
12,0.549202,6.075932,-0.153351,-0.22613,5.139885,11.00338,20.149269,25.386314,-0.999413,21.831665,37.671432,48.759613,-5.420666,18.89637,39.905319,56.198158,-6.7733,14.834976,32.856216,46.606293,-6.103134,7.987976,19.222527,27.924728,-21.331742,-32.187835,-35.945965,-36.485416,-16.210409,-12.199844,-8.374714,-4.944294,0.901062,7.678355,10.781684,9.786823,14.849369,19.131451,18.4107,16.2997,26.722244,29.182812,24.735548,19.966008,23.913574,48.381844,71.631718,91.697445,50.954418,84.538822,102.664433,116.296864,43.203964,81.221409,101.98946,116.084003,35.025158,71.106205,90.837307,104.368114,27.552624,56.823292,73.241558,85.686321,-16.610305,-19.340476,-13.92904,-10.326274,12.280798,24.740426,29.403076,32.231739,30.389477,41.692396,45.318442,46.556476,42.993354,55.4607,57.53854,56.133224,50.5211,61.914606,62.653265,60.241664,-11.982365,320.043632,-71.232033,290.067883
13,49.916725,-17.271961,-0.593319,1.954709,-3.197365,-16.716499,-33.099632,-49.039421,-49.829521,-36.765747,-14.916687,-0.762863,-58.111382,-40.658455,-16.083755,3.521118,-61.151733,-47.300491,-24.004326,-6.62693,-60.866089,-57.908878,-44.606323,-33.95977,-16.909362,-27.991153,-31.262196,-33.240309,-2.105319,11.077777,12.109812,9.858577,17.456656,28.523442,28.607607,25.494646,32.186044,40.344817,36.910753,33.394438,43.703607,52.324273,46.696341,40.408482,24.285393,48.51305,71.931038,92.778053,50.209007,84.672318,103.207397,116.777573,42.98418,82.172241,103.148575,117.182236,35.700302,73.012848,92.888489,106.162834,29.173508,59.423904,75.820312,87.957573,-18.170429,-21.814815,-16.556459,-13.077564,10.309417,22.399715,26.875755,29.665145,28.653179,39.656609,42.701892,43.42783,41.635771,53.40787,55.252848,53.874826,49.558164,60.310516,60.897145,58.631213,37.904406,302.776395,-71.855307,292.027316
14,-33.860435,12.68162,-0.649395,-0.363339,6.887054,7.447586,3.679733,-2.585564,-13.374939,7.651749,25.119438,36.595001,-21.675167,4.189796,23.615913,39.718666,-23.848972,-1.187782,17.074242,31.735497,-23.709469,-10.571709,2.42363,14.255562,-21.655437,-34.945361,-38.84175,-41.389696,-12.876752,-1.5776,2.234439,3.839826,4.170932,14.483683,17.11178,16.755727,17.30228,25.202998,25.703547,24.864977,27.574646,35.487159,34.195526,29.712569,24.880543,49.525909,72.953167,93.626347,50.553017,84.824009,103.472958,117.246838,43.086777,82.156849,103.290539,117.37936,35.627232,72.788715,92.751675,105.925426,28.938332,58.845463,75.264759,87.347088,-17.518468,-20.727946,-15.713195,-12.63716,10.126759,22.347845,26.986103,29.970809,28.489911,39.911514,43.303588,44.441772,41.479851,53.762255,55.748766,54.474423,49.372542,60.235304,61.010951,58.848698,4.028435,315.455654,-72.520237,291.661615
15,-9.931755,2.877075,-0.138187,-0.688702,7.999992,12.047424,12.874146,11.370392,-7.500114,17.710075,34.992485,45.464516,-14.139347,15.526314,34.478989,50.160942,-15.991573,12.410088,30.691566,44.439125,-15.823746,-1.987152,8.691902,18.009109,-20.622291,-34.782772,-42.21536,-46.450265,-13.104178,-4.579102,-0.333452,0.444665,3.066649,12.513906,14.735439,14.046675,15.168556,23.297442,23.194072,21.235164,23.923221,32.061431,31.319438,27.349566,24.778576,49.43264,72.887764,93.543777,50.61367,84.701958,103.296776,117.064247,43.116703,81.932716,103.064575,117.164955,35.56263,72.474861,92.341461,105.504227,28.700638,58.389587,74.875717,87.122726,-17.08004,-20.116864,-14.847825,-11.88856,10.93112,22.988073,27.51586,30.497602,29.312735,40.513087,43.994513,45.423541,42.266798,54.413352,56.516941,55.393825,50.181349,61.084743,61.897378,59.712401,-5.917139,318.342239,-72.672243,290.982422
16,-5.246086,0.285472,0.318947,0.303503,8.30452,13.811989,17.377281,18.56781,-2.751389,24.001236,41.078911,51.662178,-9.198074,21.584702,40.188904,55.843048,-11.794109,17.908287,35.450249,48.67733,-12.243633,3.459663,15.069809,25.085793,-20.984272,-34.865703,-41.899445,-46.266311,-13.366556,-4.243056,0.039891,1.114348,3.10339,13.807639,16.094319,16.039299,15.321697,24.654655,24.599759,23.080884,24.136631,32.743279,31.759966,28.148802,24.787273,49.163074,72.65007,93.170586,50.414772,84.761581,103.236008,116.813278,43.179646,81.977577,102.82711,116.797829,35.814056,72.659111,92.381744,105.525169,29.094601,58.795967,75.277519,87.603149,-17.052809,-20.403386,-15.370974,-12.292469,10.622244,22.575457,27.004752,29.786423,28.870047,39.811293,43.166378,44.21243,41.842758,53.813014,56.049923,54.902724,49.880377,60.91956,61.871566,59.718638,-11.186657,318.623666,-72.376728,291.28188
17,0.754395,1.654047,-0.292225,-0.710932,7.60025,12.906418,15.847664,18.087044,-3.50132,21.530914,38.925018,49.814529,-10.21677,18.51059,37.806244,53.937721,-12.612019,14.027824,31.681595,45.791931,-13.316288,0.771446,11.758804,21.557922,-19.477809,-34.109816,-42.604697,-49.42787,-14.064212,-5.814604,-1.937419,-0.77046,1.897158,11.251851,13.629613,13.83555,14.351537,22.527291,22.39885,20.979023,23.586373,30.464319,29.360098,26.117584,24.97364,49.633541,73.147373,93.676472,50.569954,84.669628,103.142109,116.833591,43.079567,81.670361,102.75404,116.96291,35.485325,72.154026,92.13335,105.601215,28.612633,58.169346,74.676418,87.153454,-16.751158,-19.565927,-14.238472,-11.289334,11.355345,23.275892,27.783672,30.729166,29.687252,40.788308,44.233055,45.398594,42.554802,54.817137,57.013167,55.832376,50.273913,61.696936,62.742432,60.59216,-10.474834,320.239613,-72.711525,290.532848
18,0.060425,-2.36325,0.125885,0.202603,6.963043,11.453133,15.18219,16.770973,-5.291519,20.181999,38.164215,50.065956,-11.778603,18.359299,38.24501,55.19165,-14.140892,15.256577,34.524078,49.619865,-13.752422,-3.314323,4.582672,12.722855,-20.936168,-34.81939,-41.591928,-43.730098,-11.200104,-2.172132,1.788909,2.215296,4.964857,15.685222,17.483703,16.86836,16.628274,25.806917,24.858369,21.986852,24.335467,33.969025,33.313545,29.067401,24.70602,49.209938,72.74786,93.339329,50.470905,85.067997,103.576641,117.187786,43.167973,82.016201,102.925129,117.040272,35.683193,72.50227,92.371731,105.838108,28.882027,58.553638,75.102139,87.69556,-16.923441,-19.910185,-14.614779,-11.630258,11.635074,23.403715,27.619539,30.257825,29.781112,40.356611,43.540709,44.437572,42.557766,54.358517,56.526018,55.419945,50.2636,61.606781,62.592008,60.427595,-10.434179,317.865047,-72.60541,290.724135
19,52.246742,-14.99053,0.001202,0.043719,-4.814072,-18.915825,-36.111031,-52.757378,-51.819077,-41.195412,-18.699303,-3.812256,-60.088062,-45.188484,-20.096626,-0.503998,-63.321533,-51.792183,-27.550278,-10.187874,-63.614731,-62.0854,-47.564163,-36.082191,-16.050661,-27.23539,-30.569356,-32.467255,-0.767805,12.914049,14.751926,13.584597,18.8319,30.017308,30.532491,28.028636,33.343864,41.395994,38.258579,34.678167,44.431644,52.86144,47.516016,41.211237,24.808502,49.436073,72.86499,93.145981,50.691776,85.142555,103.563194,117.015266,43.212376,82.072678,102.966156,117.033348,35.597191,72.401505,92.270164,105.68058,28.700924,58.354111,74.857292,87.26532,-17.174889,-20.003861,-14.691535,-11.692502,11.387887,23.234581,27.575634,30.362369,29.595737,40.466959,43.708979,44.747374,42.390238,54.516783,56.683235,55.608099,50.135283,61.527369,62.564591,60.496076,41.801033,302.859511,-72.615738,290.752849
20,-32.307129,11.575917,-0.44981,0.020254,5.831909,3.473625,-2.950287,-10.541725,-19.706383,0.872955,19.120674,31.049995,-27.906418,-2.275314,18.301048,34.932175,-29.89666,-7.625313,10.917664,25.582123,-29.577141,-19.567337,-8.648758,1.845131,-21.225469,-33.641563,-37.188259,-40.707601,-11.711274,0.32172,3.889597,5.394145,5.864498,15.851763,17.953006,17.888106,18.874075,25.868483,25.988772,25.56146,28.409203,36.045815,34.670016,30.693969,24.954929,49.697971,73.282642,93.637905,51.116066,85.641346,104.198284,117.760792,43.510437,82.333889,103.285618,117.372036,35.786934,72.657795,92.528973,105.767612,28.851757,58.545628,75.035534,87.318707,-17.159637,-19.962364,-14.767673,-11.839468,11.420183,23.363701,27.846904,30.829511,29.561404,40.649987,44.058795,45.354751,42.307677,54.563776,56.767401,55.757349,50.050067,61.425543,62.462518,60.464954,9.457741,314.432357,-73.101711,290.770031
21,-16.910248,4.652708,0.193977,0.044522,7.976074,13.351021,15.899162,16.734467,-4.816246,19.130859,36.736908,48.330917,-11.759033,16.81675,36.30558,52.669487,-14.006481,13.23555,31.788826,46.584778,-14.214764,-2.21283,8.2687,18.796463,-20.231349,-34.073198,-41.529128,-46.171154,-14.575999,-6.530044,-2.493111,-1.548824,1.254521,10.592419,13.256146,13.291591,13.61788,21.858905,22.38366,21.182923,23.214944,31.074907,30.66334,27.487023,24.974957,49.654198,73.282528,93.717213,50.958824,85.589619,104.078579,117.534199,43.375683,82.516994,103.421917,117.323055,35.729542,73.052502,92.845287,105.946598,28.932724,59.004536,75.569744,87.842274,-17.302342,-20.165091,-14.873513,-12.000081,11.480884,23.475963,28.03444,31.131408,29.828413,40.748232,43.936962,44.985854,42.655641,54.643681,56.660449,55.487809,50.34789,61.322914,62.23719,60.201279,-7.482004,319.085374,-72.937231,290.814862
22,3.471794,-3.703296,-0.061913,-0.011856,6.88797,10.051689,9.284477,5.42942,-10.949821,13.523941,32.113953,44.444618,-16.698189,11.788101,30.966454,47.249107,-18.155136,10.404396,30.026093,45.21698,-17.100563,-5.889359,3.586807,12.372208,-19.877766,-31.862163,-37.276871,-39.646173,-9.666409,-0.708956,4.481289,5.167707,6.503492,16.545652,18.834925,18.331166,17.995984,27.094969,27.15462,25.312297,26.13086,35.07584,34.847857,31.792694,24.968834,49.789295,73.436451,94.050121,50.840263,85.868053,104.541492,117.971706,43.184509,82.705479,103.709507,117.448368,35.595417,73.070354,92.81805,105.688877,28.96122,58.919964,75.404491,87.489567,-17.260969,-20.053138,-14.748468,-11.953151,11.775495,23.806575,28.314108,31.356242,30.019531,41.050501,44.262263,45.366484,42.726407,54.747977,56.673293,55.50479,50.246063,61.322049,62.275167,60.293473,-4.038019,315.384301,-73.026953,290.805229
23,42.805939,-12.065351,-0.11776,-0.425584,-4.00589,-17.355652,-33.746681,-48.987808,-47.649536,-36.930084,-15.579987,-1.863441,-55.974426,-41.687851,-18.471565,-0.791588,-59.69038,-48.708,-26.30619,-10.390091,-60.432873,-59.639969,-46.032944,-35.555992,-17.372737,-28.185173,-31.17099,-33.276865,-1.749513,10.880299,12.619561,11.95525,17.919167,28.031661,28.70153,26.927564,32.2607,39.152725,36.634605,34.132787,43.097033,50.512825,45.556737,40.330182,25.092888,50.00885,73.553295,94.172459,51.306038,86.393223,105.175838,118.572865,43.459511,82.884808,103.898907,117.630672,35.645542,72.922955,92.698689,105.611973,28.816109,58.630657,75.104198,87.170734,-17.056637,-19.772173,-14.567787,-11.735789,12.088816,24.344174,28.910802,31.823878,30.261469,41.532895,44.766332,45.773975,42.889551,55.151269,57.123454,55.927966,50.317138,61.704284,62.725698,60.739558,38.682861,303.309533,-73.229771,290.370228
24,-30.691338,13.555018,-0.499878,-0.25577,5.550728,3.897057,-0.803146,-6.106224,-18.787193,1.791229,19.36203,31.424904,-26.681271,-1.112251,19.248962,36.177063,-28.316517,-5.919914,12.801132,28.800659,-27.68034,-16.813087,-4.326782,8.15815,-21.985493,-35.370883,-39.28623,-42.614206,-13.920087,-3.651672,0.301527,2.253026,3.485317,12.619005,15.366652,15.664289,16.757827,23.704192,24.336455,23.541171,27.025932,33.877511,33.038323,29.100314,25.160522,50.04879,73.63924,94.052067,51.697483,86.411076,105.021114,118.376026,43.920193,83.061275,104.087391,118.031216,35.961685,73.030987,92.925854,106.027508,28.89164,58.489094,75.165424,87.551823,-16.813464,-19.416861,-14.355489,-11.388937,12.686313,24.852688,29.398692,32.228219,30.691807,41.988242,45.099846,45.923226,43.170145,55.67343,57.691063,56.391094,50.470711,62.227557,63.399889,61.400102,7.975245,316.865848,-73.745928,290.115755
25,-7.433968,0.632262,0.163078,0.487025,5.637474,7.327881,5.784416,2.198067,-14.56501,6.931114,24.661674,36.577835,-20.728798,5.985603,24.814682,41.034164,-21.851521,3.755379,22.599907,37.402611,-20.517826,-8.690987,3.148842,14.149933,-20.564307,-33.410369,-39.344769,-41.456942,-11.678608,-5.774281,-1.578835,-0.478072,4.431086,11.143541,13.689819,13.625475,16.833101,23.272866,23.597117,21.976848,26.045151,33.086797,31.94108,28.030056,25.387287,50.247116,73.799572,94.12096,52.180252,85.999775,104.276791,117.746029,44.820614,82.9109,103.53075,117.756557,37.120342,73.004093,92.359257,105.556126,30.016308,58.865261,75.00658,87.1562,-16.46056,-19.554194,-14.651891,-11.61093,12.643644,24.608095,28.819782,31.194826,30.529836,41.316398,44.773433,46.029066,43.042507,54.934278,57.30111,56.27068,50.744327,61.87805,62.645175,60.454456,0.481281,317.51063,-73.642845,290.6153
26,-7.423325,4.037551,-0.613232,0.02433,5.944061,10.0914,12.398529,13.103485,-8.631248,14.245148,31.596222,42.468796,-14.073086,13.58036,32.659492,48.929672,-15.460224,10.65136,29.260712,44.099693,-14.670067,-0.871468,12.259026,23.965187,-20.737394,-35.98777,-43.914299,-48.299752,-16.534352,-12.937205,-8.810302,-7.054738,-0.634671,4.899401,8.515629,9.747858,12.230287,17.948622,19.315529,19.062661,22.382301,27.590022,26.879028,24.49398,25.368347,50.399323,73.864288,94.259148,51.787548,85.823364,104.142609,117.640343,44.378986,82.617874,103.419228,117.812805,36.722488,72.771034,92.377281,105.884171,29.718647,58.707275,74.800415,87.062302,-16.519655,-19.55086,-14.427428,-11.169662,12.148159,24.699918,28.947173,31.419042,29.99588,41.342951,44.857722,46.190975,42.521519,54.750694,57.124627,56.123282,50.166467,61.55843,62.471719,60.343367,-7.025814,321.55874,-74.339848,290.650189
27,4.270592,-11.022881,-0.925827,-0.254597,6.219063,7.809906,6.986847,2.614632,-14.517632,9.140625,27.705803,40.809975,-20.692749,7.381668,26.584282,42.652473,-21.853123,5.112305,24.684792,39.537163,-19.890404,-5.990181,7.204514,18.753319,-17.718848,-28.192521,-31.853271,-30.803452,-7.3194,2.866701,9.081695,10.700173,8.277272,20.064808,23.874871,23.700055,19.949335,31.277016,33.218449,32.008511,28.809963,38.660327,38.420551,35.114989,25.594597,50.578823,74.071198,94.571342,51.752472,85.394897,103.764725,117.281685,44.202175,82.326164,103.311424,117.622032,36.335106,72.475204,92.181702,105.465431,29.044247,57.989388,74.080238,86.25412,-16.510516,-19.394878,-14.031793,-10.714314,11.497309,24.534735,29.125385,31.867288,29.415612,41.608292,45.648251,47.311622,42.01566,54.880802,57.463698,56.655756,49.782688,61.533112,62.643323,60.675337,-2.817793,310.570532,-75.328245,290.430265
28,29.394722,-10.980644,-1.809139,-0.100962,0.81768,-9.233437,-23.328323,-36.624641,-37.190208,-19.274483,-2.314453,5.475769,-46.570644,-23.788376,-7.463608,3.605461,-51.973,-32.996063,-16.744537,-6.085052,-54.34536,-48.118,-39.13662,-33.348656,-16.225106,-24.849416,-27.348393,-28.273044,-1.476885,16.237888,16.99606,14.074154,18.981027,33.814032,32.31572,27.6485,34.689591,45.719264,41.273975,36.559517,46.065807,58.395389,52.973023,45.957497,25.605297,50.694237,73.962193,94.325123,51.055012,84.766903,103.150463,117.048283,43.492012,81.798077,103.04163,117.702312,36.012669,72.134571,91.995907,105.588284,29.429569,58.161907,74.374523,86.903858,-16.338233,-19.327817,-14.381115,-10.771001,10.892402,24.465451,29.472237,32.349559,29.13545,41.756987,45.953792,47.52639,41.984723,55.113539,57.64333,56.553436,49.922738,61.826056,62.866118,60.615748,26.510553,299.631524,-77.20376,290.370938
29,-12.419472,22.02384,-3.061523,-5.578779,1.434174,-4.71611,-16.202087,-27.852173,-27.268867,-11.819572,3.560944,13.495216,-35.109043,-17.778282,-2.187309,11.527519,-38.15094,-26.032677,-13.038597,-1.655617,-38.328037,-34.683037,-29.236679,-23.096352,-26.040766,-40.352042,-46.090075,-52.819388,-17.130429,-9.187844,-5.150602,-1.661889,1.01987,9.526113,12.271289,13.870192,14.461267,19.099094,19.503497,20.795748,25.342925,27.915756,25.81513,23.408531,26.743698,52.049332,74.2523,94.656315,50.087585,81.115437,97.956333,111.146908,40.067768,75.118504,95.879002,110.276012,30.788155,63.790684,83.478642,96.999149,23.082275,48.556366,63.757153,74.800129,-15.513865,-15.256366,-8.022861,-5.282007,11.373253,30.895522,39.855013,46.010479,30.130002,49.494746,56.612963,59.709437,43.171442,62.462085,67.184139,67.195625,50.903211,66.980116,69.929192,68.801445,13.898335,321.733247,-80.458031,284.870042
30,17.721977,-30.05584,-2.326241,-6.296566,-16.884499,-42.085762,-61.305885,-77.665157,-64.323349,-64.7822,-48.905983,-34.780655,-60.192661,-58.557529,-42.918892,-24.899254,-49.442997,-51.885796,-38.73024,-24.33197,-34.946709,-42.328033,-45.348473,-46.185951,32.316275,48.976784,59.397845,71.453439,28.436188,48.117835,59.543885,64.87628,14.470653,33.00399,47.182625,54.605272,0.296958,15.694361,30.497787,39.204781,-12.891325,-10.680907,-5.928719,-1.369377,27.492371,51.598835,70.464535,88.282413,43.097591,70.578861,86.035709,99.061489,32.53212,62.980042,82.025814,97.293148,23.525963,51.034012,68.833523,82.699757,16.621914,38.253422,51.123161,60.896244,-14.068596,-11.17312,-1.654911,1.449653,5.323565,28.299411,41.625706,52.390408,22.94528,47.244129,59.980769,67.994243,37.119161,60.697197,70.563863,76.014881,47.1754,65.663597,73.788223,77.249024,31.404104,291.740269,-83.000479,278.636338
31,-3.310547,-13.950406,-17.392159,-33.155093,-24.528122,-44.844131,-58.36544,-68.857555,-52.148895,-67.710514,-77.887115,-85.693016,-42.989502,-58.694973,-67.577133,-75.182018,-30.678749,-44.558487,-51.215343,-57.807083,-16.639824,-27.150879,-33.209038,-39.310112,-3.273575,3.157546,8.986599,9.493138,24.504725,39.770291,50.106075,59.5416,32.782861,52.195462,64.261245,74.489522,38.926039,58.668017,70.897315,81.318932,42.450444,60.334413,71.523156,81.329306,42.26366,69.473705,86.052761,94.560757,86.938305,102.243748,97.336979,88.174267,71.284561,88.51862,81.682491,69.160252,51.931858,67.453823,61.870651,51.238575,30.82592,48.471851,49.703236,44.863873,2.57314,16.858665,32.433416,44.747992,38.136437,79.149085,98.787198,109.940372,44.997649,88.404669,107.981031,116.437935,50.781316,89.523895,106.191751,112.926498,56.019603,83.703486,94.639361,98.878279,27.833834,277.827948,-100.652361,245.519329
32,-8.872719,-14.433294,0.897102,-19.432484,-26.11908,-41.177101,-47.747383,-51.883106,-53.389206,-71.520596,-79.976749,-84.806328,-45.072613,-55.80946,-57.389946,-55.642548,-34.447403,-40.928936,-41.669083,-39.430447,-22.544975,-27.507248,-27.915115,-26.90918,5.224517,18.312887,32.520113,44.0244,21.260729,36.657206,49.970471,62.286467,28.439337,51.478848,66.750899,76.889637,35.195512,58.838695,69.953151,75.252448,40.84234,61.186569,68.773657,72.563033,30.250225,49.911861,58.364124,59.236565,75.888691,87.828999,85.103245,79.519444,69.963913,79.562702,73.626881,65.808907,58.396797,62.766438,56.934643,50.731144,42.773151,45.661411,43.152008,39.188519,18.68197,36.626454,52.686872,66.027184,56.67811,90.081007,104.63842,109.303046,55.833179,95.687203,108.469045,111.3941,54.957496,90.178449,101.909792,104.815705,53.159942,79.56627,89.912428,93.829628,19.309502,263.427551,-99.406872,226.119743
33,7.561569,-56.976611,-39.477882,-48.954677,-34.487457,-60.518131,-75.265274,-83.725376,-76.468849,-102.872944,-109.535694,-109.906368,-67.117367,-81.24836,-76.80685,-70.089512,-54.769535,-64.677486,-59.21917,-52.285309,-40.912628,-48.518772,-45.063686,-40.355301,-4.831723,5.582916,23.336098,39.006438,4.532604,28.386541,47.665822,61.943197,14.036116,52.798578,70.869157,77.658368,25.726024,62.056324,75.838707,78.518613,36.389765,64.326824,75.45925,78.644337,18.696613,38.902073,53.500614,59.898148,53.221607,71.139793,64.285069,56.192722,53.10379,69.191494,60.578327,50.335865,49.112778,62.913265,55.483475,46.010628,42.82917,55.669785,50.452023,42.974567,3.783818,3.456788,3.137477,2.039307,-9.454667,-7.611726,-4.317527,-2.359607,-13.391935,-11.405178,-8.171741,-6.008377,-15.087231,-13.695933,-9.390385,-6.529427,-15.10094,-15.287735,-12.338288,-9.503203,26.24033,206.501822,-139.515495,177.215948
34,-4.810982,-41.795952,-12.065735,-48.895582,-32.811699,-63.723221,-87.688351,-104.577427,-66.20945,-94.638004,-109.63829,-116.849384,-58.549519,-83.971653,-85.415726,-80.2771,-49.357052,-71.546001,-70.031948,-63.113708,-38.866539,-56.410675,-57.852859,-54.414539,-13.373163,-12.669703,-1.97484,8.004706,-30.236213,-24.039374,-14.332641,-6.595068,-21.052877,6.20851,26.497966,37.559503,-7.008054,22.449177,37.500593,42.985635,8.57034,30.553672,41.74297,46.541409,24.543686,39.01125,45.292225,45.385723,33.933449,35.339413,31.701279,28.464947,17.183704,17.826233,15.669365,15.048237,2.066631,4.528484,7.287827,9.046955,-10.35181,-7.26202,-2.814674,0.250969,-4.659316,-16.541392,-26.248742,-32.196881,-37.07257,-58.064036,-59.53842,-57.898637,-42.677871,-67.332093,-75.862728,-80.385451,-43.232698,-62.379031,-59.83936,-53.600438,-40.804302,-53.60896,-51.066634,-45.794044,19.778309,164.934594,-153.232269,128.54909
35,-5.761986,-47.355897,-4.091663,-52.404549,-32.232399,-58.737545,-77.611485,-87.885132,-63.74073,-93.98695,-97.248344,-91.544952,-57.509251,-87.496376,-84.130497,-75.69952,-50.663567,-76.332893,-71.284046,-60.791874,-43.355999,-65.753403,-61.106014,-51.705093,-27.488381,-44.024061,-53.891159,-56.502152,-55.410775,-53.63897,-40.536521,-34.44793,-42.166948,-24.233486,-11.344168,-10.571887,-26.335902,-4.405274,4.704393,2.761293,-9.617812,9.436327,15.889987,13.942873,22.811794,33.16864,29.952049,24.347534,12.452774,8.554001,7.684994,6.71608,-4.361687,-6.5522,-1.824875,2.663727,-17.298889,-11.569862,-1.684113,4.704323,-27.024822,-19.644012,-9.653034,-3.050365,-16.444073,-41.854398,-60.919437,-75.341462,-67.125353,-91.909745,-107.699573,-122.187177,-63.343295,-85.227394,-92.386644,-96.654277,-53.732646,-64.042742,-52.742879,-42.048356,-40.576813,-47.410453,-38.889699,-29.641278,12.959661,117.590939,-158.380594,76.156783
36,-16.330376,-43.782154,-6.720486,-39.497385,-31.987267,-49.298973,-57.378273,-59.568844,-36.324921,-49.634228,-58.733082,-63.026676,-28.208427,-44.990387,-50.019951,-50.332031,-22.009621,-39.302616,-43.353081,-42.153282,-17.520676,-31.864014,-35.379696,-34.469318,-13.782754,-29.231873,-37.283262,-40.827458,-55.615879,-75.698039,-83.400045,-87.17812,-48.556356,-49.545073,-39.759794,-35.19122,-36.033897,-28.246522,-18.163174,-13.357262,-21.142971,-14.461144,-7.729917,-4.73851,22.858772,33.882465,31.274986,24.320755,15.885429,11.584511,8.474178,5.606346,-0.444889,0.967598,7.09671,11.923485,-13.967915,-3.338528,8.38028,14.435463,-25.421562,-14.283943,-2.850323,3.695297,-21.425571,-46.919229,-66.259798,-84.255072,-77.716259,-109.154721,-127.828416,-144.7149,-74.66372,-102.850776,-111.525937,-117.086438,-65.702593,-75.997344,-59.719225,-45.895376,-54.044516,-60.492741,-49.101612,-38.134492,-4.949827,75.973817,-166.680193,38.824429
37,-3.515625,-25.409172,-2.843056,-35.939326,-25.975933,-39.548607,-46.368141,-47.690468,-23.538322,-34.284668,-42.548847,-46.513881,-16.89331,-35.023384,-39.629345,-38.877182,-13.164787,-33.861198,-38.042183,-36.000328,-11.114158,-27.941646,-32.285156,-31.307716,-15.494692,-31.924788,-39.805397,-43.32586,-58.448206,-81.756815,-91.370274,-96.648555,-52.64833,-58.798156,-50.621208,-46.164917,-41.408664,-37.025239,-25.187757,-18.467079,-27.446196,-25.622593,-18.306136,-13.53707,23.692017,33.002529,31.109734,26.731396,13.110466,11.822205,12.295475,12.404022,-2.174435,6.963329,17.521877,23.204613,-14.595108,-1.89291,8.318653,12.942238,-25.653362,-15.840397,-5.024242,1.409454,-26.930621,-55.662223,-77.814041,-95.00057,-82.992121,-116.366367,-134.407676,-148.975339,-78.667802,-94.304457,-76.516973,-61.435238,-70.565129,-79.525886,-62.394345,-48.628357,-59.802495,-70.819294,-60.24151,-49.255865,-10.148134,53.236971,-171.205931,5.557429
38,-3.515625,-25.409173,-7.960281,-11.31496,-19.964599,-29.79824,-35.358009,-35.812092,-10.751724,-18.935108,-26.364612,-30.001087,-5.578193,-25.056381,-29.238739,-27.422333,-4.319954,-28.419781,-32.731285,-29.847374,-4.707641,-24.019279,-29.190616,-28.146114,-17.206629,-34.617703,-42.32753,-45.82426,-61.280533,-87.81559,-99.340502,-106.118989,-56.740303,-68.051239,-61.482621,-57.138613,-46.78343,-45.803955,-32.212339,-23.576894,-33.74942,-36.784041,-28.882356,-22.335628,28.8731,38.723774,39.80072,36.203156,20.834084,22.429676,27.449226,31.986008,6.202183,14.855003,27.039013,31.125526,-6.575432,5.154533,17.941933,21.489429,-18.682022,-8.225269,3.980656,8.373699,-35.408149,-65.357315,-89.690096,-110.002616,-90.219606,-114.482917,-131.213481,-146.290107,-87.909338,-109.010194,-90.619563,-73.874457,-82.086397,-97.391484,-80.524945,-64.657251,-72.630155,-88.448048,-77.676152,-62.713873,-18.002558,29.430699,-183.505011,-4.154629
39,-3.515625,-25.409173,-3.724422,-12.157915,-13.953266,-20.047874,-24.347878,-23.933716,2.034874,-3.585548,-10.180378,-13.488293,5.736923,-15.089378,-18.848133,-15.967484,4.524879,-22.978363,-27.420387,-23.69442,1.698875,-20.096912,-26.096077,-24.984512,-18.918566,-37.310618,-44.849664,-48.322661,-64.112859,-93.874366,-107.31073,-115.589423,-60.832276,-77.304322,-72.344035,-68.11231,-52.158196,-54.582671,-39.236922,-28.68671,-40.052645,-47.94549,-39.458575,-31.134187,29.249268,42.425365,46.832771,44.960861,27.818756,30.198441,36.570282,42.223492,13.757801,22.03577,33.888531,37.147408,0.590286,10.781651,22.673607,24.723072,-12.816124,-3.322048,8.028889,11.03651,-36.329589,-64.992957,-90.235568,-111.797515,-87.17213,-109.389959,-123.195036,-135.429537,-87.009356,-110.634786,-93.595902,-76.862899,-83.320634,-101.728771,-85.185403,-69.1763,-76.06848,-93.430288,-82.81144,-68.228215,-26.89971,4.611768,-192.61096,-15.722303
40,-2.806435,9.028065,-4.592228,-11.395545,-24.089527,-28.805866,-29.785194,-28.103142,-0.44426,-2.452812,-5.70425,-5.627003,6.673851,-28.109207,-35.881004,-29.512024,6.400223,-27.245865,-32.590885,-26.015797,2.537613,-21.420021,-28.730621,-26.441345,-19.803944,-41.855942,-53.574318,-59.663217,-66.003996,-92.944312,-110.979322,-126.93143,-59.945725,-73.298851,-53.776026,-41.578436,-50.474694,-64.168095,-46.608099,-37.053242,-39.485128,-56.157276,-46.773004,-39.836457,30.191288,45.269337,51.585388,52.140255,34.704437,38.211422,44.756584,51.150856,20.901089,28.694916,37.880917,40.88316,7.091618,15.136986,24.410763,26.589031,-8.047428,-1.050968,9.024353,12.770061,-32.633148,-57.235747,-79.702615,-99.789499,-79.55991,-101.715325,-113.746142,-123.780569,-81.345763,-104.880342,-89.89344,-73.264888,-80.22913,-98.553997,-83.123959,-66.429735,-75.939236,-93.232316,-84.298297,-69.654125,-31.122093,13.600698,-198.619137,-27.156982
41,1.02253,7.827173,-6.737938,-11.691236,-23.013611,-32.345581,-41.801605,-47.155151,-3.042183,-11.154957,-18.345623,-21.81078,1.287117,-35.654755,-44.941349,-39.972267,-1.553421,-38.292503,-44.01432,-37.2365,-8.737278,-36.284866,-42.573109,-38.170509,-16.341104,-41.557441,-55.327474,-64.864948,-66.979684,-94.906184,-114.98183,-132.926623,-62.856238,-76.751656,-61.174775,-50.119135,-54.061652,-67.929035,-53.157997,-43.821983,-43.163569,-57.360143,-46.274308,-37.55836,30.627594,43.299465,48.612957,49.08268,31.875114,36.043625,42.64801,47.425747,19.302807,26.696663,35.110931,37.355347,5.810223,13.904343,23.026714,24.65641,-9.112473,-1.658077,8.953857,13.153038,-30.875576,-53.04734,-73.401233,-91.49486,-77.254458,-99.426283,-109.990451,-117.028053,-78.02004,-101.683354,-86.327138,-70.530178,-76.044922,-95.360575,-79.996269,-63.601041,-70.367034,-87.676446,-79.334675,-65.472603,-30.201359,21.41072,-205.45887,-38.86537
42,0.385323,8.54672,-6.723003,-10.151644,-15.645103,-28.511124,-43.760204,-55.673332,-15.319176,-30.489922,-39.138336,-44.11068,-13.358459,-56.955585,-63.9921,-60.872841,-16.891937,-59.654331,-62.006321,-55.664349,-24.5014,-56.070957,-58.184452,-53.007374,-17.85859,-41.792895,-54.764125,-65.580944,-66.057534,-97.373082,-117.17116,-135.028113,-62.260656,-69.756847,-51.214402,-40.426513,-53.015878,-60.731993,-43.334093,-32.427889,-41.283917,-50.640587,-37.337109,-27.630469,27.065907,38.874264,42.121181,36.515179,24.683762,24.952011,27.839527,29.170189,12.246094,14.806938,22.325134,25.011864,-0.716801,3.176594,11.04372,12.978287,-15.27935,-11.45462,-1.957626,3.304138,-27.976518,-50.076497,-71.084543,-88.539254,-75.165751,-100.336145,-115.295306,-128.099346,-74.449353,-100.324351,-85.202524,-70.035341,-71.158458,-91.800308,-76.394615,-60.158579,-64.471444,-84.39682,-76.920821,-61.894476,-29.950562,30.452864,-212.316399,-48.52159
43,-8.443851,6.940499,-3.798752,-7.510239,-30.765667,-47.612801,-60.661125,-70.286121,-31.396294,-41.547489,-48.352261,-52.143402,-23.986759,-63.747368,-70.697651,-64.854069,-22.321358,-63.217735,-65.566978,-56.163483,-24.701328,-58.597927,-62.080593,-54.638042,-19.92763,-43.510359,-57.370857,-68.559692,-72.41758,-95.127776,-113.91574,-130.724542,-66.509701,-69.288285,-51.567584,-41.100488,-54.252553,-56.028032,-40.244442,-32.724909,-38.535314,-41.602055,-31.389,-25.497085,20.621338,26.370106,22.207718,14.326515,6.754017,-3.661652,-9.452934,-14.34351,-5.404644,-9.159336,1.778297,9.253521,-17.247849,-17.501335,-6.417904,-1.41077,-30.33371,-29.461727,-18.999081,-12.572021,-31.841415,-56.80794,-75.908037,-88.930165,-78.461247,-106.433041,-123.875495,-138.418736,-72.062515,-97.85472,-82.713843,-68.68733,-64.181649,-84.631101,-70.005176,-57.060468,-53.588737,-73.026639,-65.831404,-54.398778,-38.799248,37.410129,-216.519985,-56.015065
44,0.37262,0.233756,-6.412296,-6.588831,-29.196453,-42.756958,-50.489845,-53.189049,-27.825108,-33.251266,-37.545948,-38.315964,-19.015846,-60.178986,-65.917854,-57.684345,-16.543522,-59.500637,-61.8437,-53.063793,-18.59642,-53.39653,-56.557732,-49.336166,-17.743116,-40.057369,-53.278163,-62.70532,-73.622793,-98.638225,-117.79595,-134.998504,-69.594135,-74.032415,-56.040568,-45.750077,-59.71907,-61.197375,-44.774297,-36.998809,-46.523007,-49.093677,-36.885157,-29.427375,15.656319,18.781586,12.819099,1.584663,-4.458675,-18.176708,-27.618828,-36.19772,-16.2323,-20.661449,-6.162758,3.315754,-26.84618,-25.06691,-10.286465,-3.111591,-37.075539,-34.703865,-21.1199,-12.551193,-27.950923,-52.925877,-72.928919,-86.455054,-75.001788,-104.427156,-123.241117,-139.237268,-67.206771,-91.58463,-76.92678,-62.98681,-56.886579,-74.493536,-60.357909,-47.204732,-43.605023,-61.379848,-54.478961,-43.982472,-38.269129,38.522593,-222.774782,-61.725187
45,2.034531,-2.313232,0.240383,-0.851507,-31.234188,-42.958889,-51.547623,-52.147179,-15.82489,-17.36824,-19.21217,-18.34465,-6.564503,-46.468163,-55.3759,-49.329014,-3.907871,-45.241699,-49.875584,-42.115345,-6.417274,-38.123016,-43.38541,-37.446442,-26.985949,-51.328455,-67.574032,-77.608937,-80.489871,-105.477824,-124.979036,-142.379654,-75.820923,-83.055879,-63.284169,-51.396751,-65.233413,-69.338642,-51.712358,-42.513522,-51.495861,-58.710624,-47.406532,-38.576223,18.528214,23.749008,19.183044,8.413181,-0.325241,-9.034424,-14.413033,-20.145435,-12.261086,-11.666164,1.620541,9.857197,-22.553158,-18.312492,-4.938698,2.423687,-32.076874,-28.801804,-16.5271,-8.373013,-25.916185,-51.856421,-72.532018,-86.47696,-75.319525,-103.496006,-121.756776,-137.85287,-68.836087,-90.445782,-79.624902,-66.37118,-60.002258,-75.927272,-63.202226,-49.744773,-48.694769,-64.540913,-58.041126,-47.275004,-36.422825,36.474317,-222.722626,-62.311739
46,4.28484,-4.403144,8.016872,2.088399,-27.515488,-37.41909,-43.815422,-42.222919,-4.310131,-4.649277,-4.329357,-1.543694,4.561272,-37.577991,-46.505241,-38.958778,5.684853,-38.765316,-44.129505,-35.02058,0.966682,-32.434444,-37.645741,-30.138245,-27.52713,-51.291065,-65.998809,-73.793317,-81.743559,-107.816405,-127.694047,-144.356254,-76.774503,-88.94375,-68.434122,-56.787068,-66.935224,-76.561125,-57.364589,-47.808311,-54.844586,-65.237087,-52.48748,-43.419154,20.131817,28.235722,27.217655,25.163326,10.739079,8.991737,7.739697,5.644627,-1.991558,2.437706,14.12859,21.075325,-13.823032,-7.10146,3.627777,8.657227,-26.002636,-19.117813,-7.329483,-0.685215,-25.45105,-46.689363,-64.740737,-79.470804,-75.329111,-103.490757,-119.297087,-131.454771,-71.932499,-93.900594,-82.182558,-67.462001,-64.846145,-80.865623,-66.170707,-51.553813,-54.667207,-69.322942,-60.959204,-50.090699,-32.679062,32.261534,-215.24683,-60.032979
47,-0.375252,0.161169,6.859303,4.216411,-27.968845,-35.074768,-36.289101,-31.082153,-0.067291,3.783646,4.648018,7.540398,10.121384,-24.747047,-37.347965,-33.452854,11.518822,-26.131382,-34.647045,-28.977528,6.35479,-22.097054,-31.349144,-28.886032,-28.803233,-56.117323,-72.845109,-78.730232,-80.230643,-106.920591,-126.115738,-142.363938,-72.895744,-87.691914,-69.334042,-56.27738,-63.303157,-78.885657,-61.088787,-49.689507,-52.332177,-68.443385,-58.279946,-48.417109,23.930283,35.678272,38.839245,38.335133,20.883636,26.161022,30.473728,33.501492,8.408489,18.98077,29.49892,33.36628,-3.996277,8.131542,17.639694,20.076942,-16.990643,-7.233353,4.56419,10.803394,-25.01608,-45.222389,-64.055709,-77.82247,-71.419245,-97.396439,-109.136258,-116.521638,-71.291067,-89.010008,-75.715314,-60.226937,-66.913179,-80.040313,-63.989111,-48.930903,-59.5102,-72.687614,-62.680497,-50.986512,-33.81094,32.681205,-209.144154,-55.558065
48,-2.981987,2.138386,5.549469,4.814278,-25.549507,-30.591946,-32.339859,-30.548916,4.091949,8.389435,9.319725,12.241516,12.181549,-19.81144,-32.89896,-29.967556,12.380905,-21.902218,-31.10281,-26.358433,7.211723,-19.80875,-28.191147,-25.097466,-26.380394,-52.927976,-68.230377,-77.660807,-76.606203,-103.641305,-122.35168,-138.630663,-69.723008,-87.040942,-69.939752,-55.88298,-61.368393,-78.682529,-61.22578,-49.581413,-52.190275,-69.13465,-57.543974,-47.885592,26.712685,41.291943,46.885586,49.053841,30.458794,38.461418,46.153507,51.703434,19.564533,32.050781,38.767548,39.234924,7.186317,20.152874,26.624451,26.934872,-6.589279,3.450794,13.279724,18.165722,-23.674274,-42.861239,-61.648339,-76.774889,-63.192222,-86.286321,-86.279127,-82.98712,-64.881003,-82.27821,-68.24603,-52.329738,-64.201378,-77.259321,-60.944693,-45.245885,-61.277095,-74.262589,-65.035565,-53.509603,-36.771441,35.347433,-203.573198,-50.215944
49,-5.251293,5.706139,6.374016,3.833527,-27.200832,-31.723824,-32.648163,-29.946384,3.597908,7.481861,8.357449,11.702099,12.20335,-19.974575,-33.158913,-30.801315,12.855663,-23.795471,-33.871651,-28.247738,8.182583,-22.223225,-30.260239,-24.345074,-21.910652,-47.072432,-60.87297,-69.941357,-72.98661,-101.665137,-121.460096,-138.095379,-66.860351,-88.903365,-72.620831,-58.693427,-58.121649,-78.338333,-60.560698,-48.829941,-48.683469,-65.381244,-52.599464,-42.866179,26.382866,43.179474,49.692822,47.442112,33.499489,39.606628,47.670708,53.647385,21.342945,29.6315,34.105282,32.817764,7.991581,16.111221,21.975975,20.657272,-7.192669,1.406078,9.920826,11.930408,-19.028698,-38.109205,-57.468577,-75.259951,-59.596372,-82.551115,-84.035549,-81.687304,-61.553675,-81.274534,-64.042742,-48.807865,-61.358853,-77.57096,-59.860602,-43.892008,-59.005236,-75.357918,-65.22273,-52.113982,-41.978989,41.644879,-197.155437,-45.791111
50,-3.748913,10.25838,-3.698959,-1.579452,-24.905148,-31.12936,-34.940186,-36.329041,-3.592987,-4.567852,-8.983269,-10.715733,3.305168,-32.821255,-43.053646,-38.211422,2.900162,-32.7808,-39.636784,-33.570671,-1.366997,-29.118404,-36.414986,-32.661552,-22.689695,-47.965034,-63.145107,-74.954626,-72.358176,-102.243337,-122.421859,-139.673936,-68.008662,-82.914038,-66.365792,-54.182652,-59.029751,-72.186293,-56.076352,-44.821166,-47.717847,-61.640095,-49.802788,-39.694925,25.531826,41.037254,47.44915,43.868237,31.205292,37.435627,41.512814,44.084415,19.290791,27.06522,31.594677,31.674957,6.12196,13.712254,19.695568,19.273911,-9.431877,-2.312622,6.901875,10.040359,-18.111766,-36.510394,-55.078218,-71.390979,-58.145701,-80.652753,-92.00376,-101.306306,-59.238807,-80.881894,-64.84843,-49.056843,-58.07969,-76.596539,-60.875193,-44.857475,-54.344469,-72.909977,-64.871741,-51.454364,-45.788956,51.970104,-200.915451,-47.303718
51,-0.897675,10.028576,-4.044285,-2.107325,-29.996166,-42.951565,-51.033154,-57.044048,-25.278282,-29.418812,-34.047546,-34.455986,-17.715855,-53.123188,-61.440468,-58.304729,-16.810055,-55.606155,-59.033146,-52.18935,-20.265427,-51.139984,-52.405243,-44.833889,-22.533682,-47.11331,-58.535747,-66.099247,-75.854793,-103.250579,-122.194401,-138.451247,-69.072961,-71.805293,-57.171187,-48.660313,-54.971699,-55.852198,-41.051026,-32.838684,-38.314124,-43.209141,-32.984199,-25.052605,23.879871,36.032295,37.479286,30.949917,19.076042,20.257931,23.644123,27.063389,6.346722,11.015282,17.395134,19.206047,-6.501217,-0.943279,7.031307,8.967533,-21.024628,-14.772949,-5.681248,-2.350559,-18.909119,-41.207347,-60.944693,-75.344117,-62.432445,-87.695527,-102.873222,-116.12872,-61.012618,-84.594946,-68.159889,-53.243366,-56.990351,-75.577364,-58.701949,-43.920073,-50.671987,-70.017125,-59.833278,-45.849866,-46.195564,62.128371,-204.46867,-49.281352
52,-9.258671,10.789495,-7.54034,1.288608,-28.524055,-44.833088,-58.496704,-67.475166,-26.47974,-33.409138,-39.878311,-42.787571,-18.720531,-56.794853,-61.251755,-53.261433,-17.607822,-56.004753,-54.183769,-43.328133,-19.363289,-50.613556,-48.623543,-37.5103,-25.644298,-46.635733,-57.421399,-64.172294,-72.223961,-99.514154,-114.60049,-126.161495,-64.722552,-64.728665,-48.159733,-40.066168,-50.155012,-45.532685,-32.057294,-28.909104,-32.157731,-31.414503,-23.097124,-19.387283,19.45055,26.386414,23.748322,16.650352,4.116955,-3.957195,-10.084133,-15.580101,-7.654037,-6.208019,4.392357,8.91758,-18.798866,-13.22731,-3.12933,-1.079407,-30.653515,-24.244595,-13.994808,-10.665894,-19.281103,-43.877033,-62.312619,-75.758894,-66.765533,-95.249655,-114.936088,-132.815287,-61.790334,-83.761609,-68.378948,-56.224892,-53.669877,-69.87266,-53.714213,-41.764274,-42.71736,-59.848438,-50.741394,-40.157929,-55.473347,73.047156,-212.028122,-47.863454
53,-0.657978,3.173354,-9.918823,0.837583,-31.175079,-46.663914,-58.985252,-64.698257,-26.602077,-31.740475,-37.530212,-40.184269,-17.112923,-54.755116,-59.993248,-52.189522,-13.625164,-52.125206,-52.382526,-43.341694,-13.620186,-44.500465,-46.198711,-38.832436,-20.755363,-41.433631,-54.925973,-63.506378,-71.66935,-98.955776,-115.298115,-129.458843,-65.996154,-65.857741,-47.828071,-39.179247,-53.755339,-48.552589,-32.763935,-28.031106,-38.51577,-35.19826,-24.818262,-19.999106,16.857834,22.555676,17.921448,7.909641,-3.292751,-15.764122,-25.068455,-33.361416,-15.589428,-17.699261,-3.433285,5.125122,-26.793365,-22.61879,-7.765903,-0.355396,-37.252235,-33.48793,-20.325508,-12.245178,-20.104977,-46.073464,-64.48472,-72.565348,-67.906928,-97.412062,-117.062356,-134.056038,-58.951358,-76.556648,-60.478323,-46.486019,-47.901184,-60.893687,-45.518544,-32.818306,-34.391027,-49.314064,-40.439295,-30.06433,-56.065207,76.430538,-221.880827,-46.815843
54,2.988396,-2.237866,-3.043613,0.381401,-31.750488,-47.866058,-60.579014,-64.569626,-24.833851,-30.120449,-36.009521,-38.690243,-15.046635,-51.704063,-58.306904,-51.562557,-11.775513,-50.912533,-51.725121,-42.897091,-13.424721,-45.153522,-46.786137,-38.845482,-20.668203,-41.923713,-55.890082,-63.650009,-71.028288,-99.76869,-117.549752,-132.042542,-65.22872,-70.154489,-52.46278,-42.532881,-53.779514,-51.788434,-36.497488,-30.573463,-39.035832,-37.263749,-26.338125,-20.339443,16.78442,22.090988,17.505512,7.223396,-0.799084,-10.038757,-16.3908,-22.558422,-13.645649,-11.552525,0.440483,8.25388,-24.717236,-18.049164,-5.801582,0.893955,-35.121231,-29.053001,-17.362804,-10.87904,-19.107029,-45.601043,-64.791404,-74.729947,-67.43429,-97.942421,-118.22104,-135.591462,-59.762296,-77.555276,-61.760323,-46.708012,-49.658292,-62.044128,-46.603468,-33.25658,-37.77353,-51.524266,-41.777087,-31.090684,-52.777605,74.213127,-224.625235,-46.413987
55,0.852356,-0.938112,5.514908,1.289441,-31.051369,-46.377583,-57.712612,-59.969215,-23.312244,-28.066349,-33.211555,-35.511189,-13.554325,-51.465168,-57.490768,-50.540886,-10.481358,-50.467014,-51.406403,-42.888966,-12.151566,-43.625393,-45.929031,-38.996429,-21.876257,-43.887685,-58.463468,-66.157971,-72.3181,-100.817057,-118.859663,-134.020902,-66.034131,-70.242421,-52.449071,-42.849537,-54.187716,-52.927143,-37.352732,-31.223139,-39.220527,-39.000325,-28.561572,-22.418055,17.466488,24.766159,21.426315,9.393539,1.676273,-4.840393,-10.152168,-15.774593,-12.363281,-8.827057,2.295399,9.096565,-24.452133,-16.972446,-4.716797,1.833687,-35.939541,-29.36348,-16.360817,-8.585701,-19.593313,-45.027659,-65.095771,-76.086696,-68.184095,-99.240199,-119.032533,-136.487553,-61.713794,-78.077838,-62.162719,-48.569848,-52.153904,-63.835754,-48.321581,-35.503554,-40.309187,-53.351059,-44.379157,-34.567603,-51.370668,73.24573,-218.555746,-45.153831
56,-0.708389,0.193186,3.803902,1.215279,-31.547241,-46.502552,-58.063774,-61.54335,-22.193298,-27.358074,-32.655373,-35.110245,-12.692642,-51.519756,-56.224422,-47.84729,-10.285664,-50.932159,-51.03344,-41.276836,-12.207413,-44.351349,-45.46257,-37.133732,-21.558798,-43.940821,-58.900075,-68.028144,-72.483436,-101.048899,-119.122442,-134.666595,-66.40346,-69.680956,-50.798853,-41.570655,-55.022488,-53.791185,-37.043331,-31.434819,-40.698369,-39.224695,-27.648315,-22.059748,17.863655,25.983181,22.989864,10.205326,3.449707,-1.763706,-6.56147,-11.840343,-10.088825,-7.174416,3.534966,10.488796,-22.259789,-15.351963,-3.418694,3.286514,-33.993988,-27.956257,-15.594807,-7.851963,-19.991727,-46.05991,-66.727711,-77.63586,-68.455704,-99.598258,-119.836971,-137.551451,-62.365539,-79.550586,-63.268515,-48.680073,-53.39024,-65.774131,-49.64906,-35.614674,-42.150708,-56.534571,-47.284236,-36.434688,-51.872377,73.429098,-214.545164,-43.94837
57,-0.937214,0.705776,1.855602,-0.48224,-31.009655,-46.527042,-58.527145,-62.485027,-23.03587,-27.95763,-32.882538,-35.300903,-13.626652,-51.545734,-57.473431,-49.95203,-10.854149,-50.371742,-50.969696,-41.515217,-12.091427,-43.848381,-45.153866,-36.81942,-21.039292,-42.967974,-57.128178,-65.774655,-72.759183,-100.484222,-118.582188,-134.245303,-66.654846,-68.644351,-50.355485,-40.587373,-54.926652,-52.056246,-35.875168,-30.376016,-40.479711,-37.867236,-26.610167,-21.211606,17.678604,25.466652,22.375259,12.154312,4.122734,-1.256618,-5.728855,-10.574684,-9.411221,-6.170712,4.078331,10.35656,-21.679401,-14.338303,-3.267345,2.55249,-33.662968,-27.026196,-16.019955,-9.908524,-18.911897,-45.168049,-65.57619,-77.885023,-68.492847,-99.388338,-119.733339,-137.729323,-62.383817,-78.686512,-60.951084,-45.508448,-53.590558,-65.277071,-48.284284,-34.276789,-42.735638,-57.237754,-47.022321,-35.865226,-52.571354,74.123234,-212.451324,-44.44225
58,-0.263157,0.272875,-0.141277,-0.275314,-31.299191,-46.643887,-58.288422,-62.104969,-22.869301,-27.99139,-33.215218,-35.798492,-13.098164,-52.02467,-57.091885,-48.804932,-10.015812,-50.580139,-50.761127,-41.13739,-11.384354,-43.477707,-44.734726,-36.455898,-20.514351,-42.255128,-56.175986,-64.313394,-72.40736,-100.727859,-118.920827,-134.655912,-66.22531,-68.842941,-49.849718,-40.320426,-54.576342,-52.715647,-36.141775,-30.711753,-40.086422,-38.339935,-27.168854,-22.001981,16.93119,24.240875,21.802139,12.016983,3.123379,-1.636791,-5.327969,-9.371452,-9.821892,-7.519741,3.184834,9.559879,-21.561527,-15.75634,-4.476986,1.263256,-33.010082,-28.003006,-16.94561,-10.888653,-19.355512,-45.989638,-65.795805,-77.081959,-68.789805,-98.544241,-118.707109,-136.286694,-62.318392,-80.004343,-62.316046,-46.273165,-53.171335,-66.393024,-49.424752,-35.162753,-41.911487,-57.141948,-47.028404,-35.822309,-52.793627,74.407857,-212.551718,-44.705816
59,-0.234833,0.429474,-2.642326,7.771969,-30.9902,-46.291752,-58.05439,-61.814632,-22.663193,-27.358932,-32.394505,-34.850807,-12.632904,-50.565834,-56.155472,-48.192673,-9.250374,-49.27248,-49.773903,-40.212078,-10.533714,-42.260227,-44.067307,-36.120872,-20.457819,-42.275907,-56.062674,-63.547442,-72.914269,-101.31881,-119.672268,-135.586337,-66.619401,-69.322772,-50.834823,-41.204537,-54.793178,-52.762362,-36.660818,-31.088893,-40.074813,-38.616238,-27.765301,-22.352136,18.161316,25.5336,23.40723,14.846764,5.66843,0.214577,-4.435387,-8.830032,-8.03524,-5.721703,6.248131,12.604523,-20.424557,-14.640312,-1.711864,4.559212,-32.325611,-26.594753,-14.571419,-7.883606,-23.703482,-49.449143,-69.500243,-84.355077,-72.157394,-101.494166,-122.419358,-140.670403,-66.808265,-88.638795,-72.116608,-55.567343,-58.882754,-74.269073,-58.253949,-43.045811,-47.792966,-65.492116,-56.851844,-43.867369,-53.009634,74.825506,-215.175219,-36.945673
60,0.768986,-0.160458,-0.299492,-6.132526,-31.007652,-46.816521,-58.666763,-62.381001,-23.118553,-27.77401,-32.942047,-35.390511,-12.895145,-50.852623,-56.824436,-48.992729,-9.113503,-49.087658,-49.665012,-40.090027,-10.035954,-41.748505,-43.841057,-36.029892,-19.850195,-41.428475,-55.216786,-62.842036,-72.921123,-101.551578,-119.783665,-135.572597,-66.633141,-69.664808,-50.958879,-40.872011,-54.672117,-52.506097,-36.114543,-30.402476,-39.929792,-38.503605,-27.677615,-22.265284,17.557468,24.686565,22.326164,12.230587,2.89032,-2.605419,-6.763573,-10.171337,-10.060558,-4.716339,6.605473,12.44545,-21.915207,-13.808727,-2.085342,3.489361,-33.353348,-26.674004,-15.159416,-9.248142,-20.539299,-47.401407,-67.49882,-80.127582,-69.993598,-100.156791,-120.882113,-139.245203,-63.386891,-81.070124,-63.095737,-46.779025,-54.325048,-67.380722,-50.32569,-35.436524,-43.048497,-58.278989,-48.660498,-36.839894,-51.820393,74.633153,-215.054455,-43.110093
61,0.550804,0.598825,-0.630112,7.677799,-31.834946,-46.957684,-57.837982,-61.981258,-23.874893,-27.814865,-33.046703,-35.915051,-12.983379,-49.358139,-57.737961,-51.943474,-8.588047,-47.103024,-50.118656,-42.305317,-8.938065,-39.278412,-43.654861,-38.158493,-20.766633,-42.633966,-56.442069,-64.733636,-72.72803,-101.434129,-119.540647,-135.106258,-66.559812,-70.590817,-51.449486,-39.323496,-54.573841,-54.542256,-37.852509,-30.142167,-39.7752,-40.106491,-29.71964,-23.629783,18.093681,25.333786,22.285309,11.827297,5.394802,-0.16571,-5.53545,-10.576687,-8.510571,-5.737953,6.511459,13.036995,-21.055813,-14.773693,-1.453857,5.026302,-33.117313,-26.800461,-14.382248,-7.463608,-25.134208,-51.204738,-71.739653,-85.617348,-73.665308,-103.091078,-124.026706,-141.896009,-68.057136,-89.890229,-73.448626,-56.654521,-60.053233,-74.865736,-58.520032,-42.991285,-48.839945,-66.169642,-57.349584,-44.096587,-50.747452,75.21583,-215.16243,-35.448442
62,0.492668,0.6523,0.018082,1.396146,-31.372547,-46.435204,-57.858295,-62.714825,-23.205643,-27.342453,-32.279949,-35.001068,-12.774525,-49.381542,-56.580505,-50.100288,-8.917351,-47.320061,-49.931202,-42.194252,-9.648399,-39.732342,-44.051228,-38.859329,-21.37966,-43.211117,-57.495191,-65.959876,-73.028909,-101.611229,-119.732845,-135.449529,-66.814224,-70.766744,-51.715754,-40.201865,-54.927053,-55.484814,-38.633682,-30.707708,-40.167871,-40.337098,-29.664219,-23.249431,18.490849,25.364513,21.546078,10.31353,5.474625,0.418053,-4.647617,-9.146976,-8.481331,-5.172272,7.044182,13.861542,-21.086826,-14.236851,-1.359558,5.186462,-33.277302,-26.39534,-14.157543,-7.395287,-25.962868,-52.199414,-72.48146,-86.148247,-73.863589,-102.502998,-123.505054,-141.312437,-68.483214,-89.788094,-73.620941,-56.113958,-60.584904,-75.088223,-59.158778,-43.406835,-49.377791,-66.540546,-57.945135,-44.515872,-49.927311,75.942108,-214.816875,-33.978319
63,1.13142,0.994367,1.672783,-5.840447,-31.300335,-46.905212,-58.163853,-60.824318,-22.809277,-27.488136,-32.871952,-35.643997,-12.802505,-49.587021,-55.940895,-48.897743,-9.259701,-47.828178,-49.465714,-40.870285,-10.324688,-40.459843,-43.742867,-37.551327,-21.878325,-43.749611,-58.594194,-65.867281,-73.543135,-101.513725,-119.486152,-135.378732,-67.258086,-69.968496,-51.233823,-40.517348,-55.219194,-54.643094,-38.443954,-31.252625,-40.187137,-39.65244,-29.278989,-23.581093,17.97472,25.441017,22.432995,10.158863,3.498058,-1.587753,-5.797691,-9.272346,-10.035324,-5.679588,5.105152,11.833076,-22.414169,-14.648724,-3.168068,3.403015,-34.0868,-27.374668,-16.081581,-9.496765,-21.623883,-48.727682,-68.971721,-81.190121,-71.279025,-100.784546,-120.574472,-138.662681,-64.69955,-81.650625,-63.20238,-46.102919,-55.374188,-67.675858,-50.449747,-35.209684,-43.682272,-58.217609,-48.187829,-36.012717,-48.771744,77.519754,-213.119946,-39.235486
64,1.273499,0.077312,1.225719,5.393065,-31.888733,-48.021297,-57.864304,-56.987343,-22.9109,-27.538834,-32.867718,-35.720558,-12.055893,-48.655701,-55.576801,-49.107456,-7.741814,-46.486702,-48.649521,-40.37241,-8.241005,-37.483578,-41.363239,-35.818806,-22.758361,-45.13773,-60.286742,-66.797736,-73.665864,-100.872015,-118.473939,-134.282786,-67.336509,-68.739324,-49.741871,-39.059482,-54.893955,-53.223267,-37.010418,-29.909584,-39.273818,-38.694043,-28.613566,-22.922123,17.193775,25.059071,22.590122,12.425995,3.869705,-1.85257,-6.55695,-10.614281,-9.396915,-6.381626,5.865154,12.768459,-21.443138,-14.554138,-1.677132,4.958553,-32.929401,-26.913071,-15.027409,-8.226814,-22.900665,-47.396467,-66.873936,-80.240492,-71.359702,-101.427522,-122.113061,-140.013656,-64.873408,-85.942093,-69.02001,-52.182062,-56.083638,-71.519636,-55.389656,-40.0553,-44.574134,-62.006244,-52.899231,-40.518706,-47.519302,78.033996,-211.915283,-33.405491
65,2.792702,1.092396,1.047649,0.455595,-29.882698,-45.378513,-56.066494,-58.449612,-23.558006,-27.751808,-33.172016,-36.44371,-12.830143,-48.692951,-54.925861,-48.429337,-8.428574,-46.850796,-48.344479,-39.85302,-8.684177,-38.570995,-41.716118,-35.565605,-20.515092,-42.963127,-57.64225,-66.125027,-73.167106,-100.108101,-117.680354,-133.287647,-66.982895,-68.481114,-48.932354,-38.079874,-54.530276,-52.932144,-35.691306,-28.396483,-39.06081,-37.989008,-27.166631,-21.712618,18.370399,27.148647,24.838428,14.609985,5.310173,0.408154,-3.703537,-8.043938,-7.925777,-4.993916,5.629177,13.087406,-19.894924,-12.630043,-1.217251,5.672321,-31.551476,-24.066639,-12.56155,-5.352688,-19.769333,-45.708149,-65.702037,-77.763035,-70.167024,-100.762331,-121.224997,-139.439933,-63.890743,-82.052435,-66.049043,-50.803268,-55.043298,-67.469488,-51.090099,-36.696664,-44.065866,-57.514828,-47.067523,-35.366962,-44.73321,79.364594,-210.874243,-32.711694
66,2.099876,1.931862,3.494053,10.051701,-30.546513,-45.928116,-55.187416,-54.855824,-22.311516,-27.113457,-32.649879,-36.169281,-11.362038,-46.387196,-51.691132,-44.284515,-7.026958,-44.604206,-45.348587,-36.257114,-7.205544,-37.011795,-39.475479,-32.306156,-18.652638,-39.528693,-53.198906,-60.466991,-71.494812,-99.049606,-116.342222,-131.699642,-65.564426,-66.156273,-46.860535,-37.564566,-53.085378,-49.525004,-33.203752,-28.149234,-37.862111,-35.430287,-24.981963,-21.033456,18.281937,26.656437,24.710941,14.711323,4.559498,-0.799656,-5.521088,-9.030075,-9.202023,-5.620995,7.780037,15.579472,-21.559696,-14.167042,-0.968742,6.100502,-33.057575,-25.724659,-14.244347,-7.529182,-21.659142,-47.024915,-66.556169,-80.410337,-71.690592,-101.598956,-122.915708,-142.136759,-65.876667,-87.829957,-72.356354,-56.582427,-57.404881,-71.661044,-56.06499,-41.744483,-46.020236,-60.97177,-51.524914,-39.122313,-42.589502,82.255609,-207.336359,-21.700839
67,2.36269,4.245835,3.950558,5.059397,-29.15823,-44.056377,-52.646885,-51.185474,-19.950371,-25.958061,-32.687588,-37.118969,-9.228458,-44.719734,-49.997692,-41.923084,-5.2775,-42.747574,-43.273029,-33.779926,-5.705452,-35.649948,-38.433037,-31.201973,-20.265034,-40.418979,-53.840308,-59.165447,-70.677793,-97.963879,-114.198186,-128.780237,-64.379683,-64.506858,-46.021471,-37.285485,-51.416326,-46.49136,-30.66334,-25.335854,-35.275942,-31.779109,-21.820095,-17.775443,18.075085,26.166344,24.030247,12.501469,4.738312,-0.548744,-4.615059,-7.867355,-8.779678,-5.699158,6.213226,13.432961,-21.225872,-14.818783,-2.371273,4.479046,-32.829151,-26.953354,-15.503597,-8.631477,-18.90492,-45.486249,-65.470782,-78.011488,-69.930983,-100.007355,-120.575352,-139.091938,-63.918345,-83.553896,-67.177038,-50.947301,-54.935204,-68.719409,-52.587268,-37.774425,-43.475192,-57.709959,-47.906896,-35.690781,-40.07844,86.790219,-203.237429,-16.352667
68,4.324436,5.357836,4.290104,8.705511,-26.875134,-41.097279,-48.849106,-48.55711,-19.165478,-25.844822,-34.010811,-39.405956,-8.719826,-41.451702,-46.966267,-40.75201,-4.501076,-41.936989,-43.297634,-34.87215,-4.111004,-33.345909,-35.982113,-28.961163,-19.78301,-39.933065,-52.031391,-56.672089,-67.999677,-95.879618,-110.785673,-124.77032,-61.667049,-62.852286,-45.380193,-36.794477,-49.204334,-44.154941,-27.506289,-20.543158,-33.313205,-29.381186,-19.059357,-14.673967,18.130245,26.771564,24.398232,12.219601,3.092308,-0.736485,-4.634628,-8.136578,-10.921612,-4.961128,6.951199,13.876476,-23.116379,-13.413563,-1.346855,5.323105,-34.031124,-24.492989,-12.684689,-5.780697,-18.778362,-46.005415,-65.993036,-76.511632,-69.335956,-98.881707,-119.481968,-137.966475,-63.410263,-78.371338,-61.02963,-45.039824,-54.128651,-63.819514,-47.423112,-33.20295,-42.295945,-52.52382,-41.858875,-30.39099,-35.174074,92.134332,-198.367395,-7.66088
69,7.061462,4.948894,3.816948,15.107979,-25.918808,-40.539722,-48.00024,-48.12521,-17.177238,-27.984409,-40.24744,-48.747711,-8.697052,-50.53894,-52.520313,-42.153854,-6.688385,-48.105698,-45.684357,-34.809036,-7.473392,-38.923473,-39.616756,-30.747185,-19.080383,-38.225481,-47.080212,-50.464629,-63.256134,-88.460861,-100.429789,-110.910378,-55.913454,-49.882261,-29.660359,-22.308293,-41.59727,-34.72871,-19.291878,-14.209634,-25.714601,-19.981137,-10.138306,-6.757131,19.473953,28.455734,27.470798,17.217121,2.761002,-1.034546,-4.384289,-8.344975,-12.003307,-0.569344,11.032848,16.1269,-23.89698,-8.483677,2.833214,7.243366,-34.158268,-21.076469,-8.564701,-2.195892,-20.05357,-46.379191,-65.431478,-75.420903,-71.850371,-103.103706,-123.177406,-140.810422,-66.364094,-78.65644,-60.591974,-45.280249,-56.759558,-63.911862,-47.180742,-34.006755,-44.202581,-53.346397,-42.631805,-32.506837,-26.68519,96.392177,-193.123026,6.756051
70,9.334831,4.99286,7.503319,18.768883,-20.033169,-37.707424,-52.817173,-60.363865,-17.834415,-37.767735,-54.727535,-66.564503,-13.384666,-56.983509,-56.429672,-46.532078,-13.348618,-55.58773,-49.291821,-37.354603,-14.720535,-45.835075,-42.106934,-31.064816,-20.488879,-34.48109,-37.874059,-40.76404,-54.911955,-74.834089,-83.187994,-88.72046,-46.007021,-35.88724,-20.392703,-15.287889,-29.643347,-19.882552,-9.289516,-5.791633,-13.060181,-4.631621,2.316721,4.428832,19.250107,28.129292,26.452103,16.539288,1.702194,-3.139572,-6.176205,-8.010006,-12.223434,-2.386208,10.204124,17.859764,-23.106937,-9.923515,2.776051,10.224094,-32.248192,-21.559124,-8.891144,-0.96983,-21.132041,-46.771738,-65.614043,-75.66031,-72.584923,-103.646862,-124.351899,-142.224259,-65.624355,-78.457079,-61.174806,-44.820147,-55.964491,-64.380269,-48.411613,-33.91663,-44.037615,-53.091924,-43.431936,-32.733801,-14.239111,100.029508,-182.508459,24.169405
71,2.071953,5.046985,9.073906,21.98114,-10.801048,-32.592659,-57.352066,-74.123955,-15.053215,-45.539474,-63.804474,-75.043774,-12.48745,-54.085407,-55.367374,-47.974491,-12.872314,-52.390537,-49.238434,-39.289856,-15.206451,-43.882256,-43.130779,-34.866486,-27.446483,-45.025653,-49.943239,-52.42786,-40.166636,-50.001223,-53.187266,-51.640418,-24.180906,-25.050845,-20.563011,-17.702639,-5.437247,-6.938801,-4.192946,-2.888283,11.18053,10.121294,11.417281,13.688893,19.88903,28.366299,24.826126,14.079037,1.333466,-4.456329,-7.434998,-10.446854,-13.486633,-1.047935,11.88612,18.018036,-24.127007,-8.081245,4.397335,9.992695,-33.019753,-18.607635,-5.375175,1.62775,-21.781254,-49.46949,-68.284192,-76.368371,-74.785368,-104.874677,-125.634486,-143.977569,-68.283173,-78.474245,-59.596094,-43.736242,-58.658137,-64.374465,-47.841749,-33.85877,-46.428375,-53.358963,-43.944187,-34.180459,-8.543501,101.725761,-169.810896,42.799813
72,16.624317,27.302358,6.259975,23.044204,-18.012199,-43.778486,-69.190893,-87.85881,-30.223674,-65.072994,-82.718124,-90.665559,-27.728576,-69.851875,-68.788976,-59.961547,-27.047767,-66.11927,-62.106571,-51.768808,-27.480812,-55.978231,-54.062175,-45.979814,-25.626745,-40.929856,-43.541404,-41.831674,-42.94085,-47.151086,-44.8199,-41.544643,-27.908716,-23.152391,-16.129022,-14.278656,-10.01076,-6.434563,-1.366521,-0.19246,7.194849,9.015761,11.689322,13.32154,21.861191,30.587597,28.800659,21.320858,1.914196,-2.740517,-4.715595,-7.037773,-13.752995,4.587936,17.041798,21.431808,-24.217415,-1.75518,9.849243,14.426765,-31.77309,-12.230244,1.11414,7.81271,-19.914817,-48.278325,-67.556062,-78.439325,-75.303022,-105.207079,-124.974034,-142.371719,-69.108035,-74.647325,-55.982522,-41.372498,-59.042687,-59.757664,-44.229937,-31.610406,-46.370206,-48.639626,-39.032929,-29.290042,11.277036,126.169522,-160.3547,62.98542
73,16.624318,27.302358,5.511131,27.670668,-25.223351,-54.964314,-81.02972,-101.593666,-45.394135,-84.606514,-101.631775,-106.287346,-42.969704,-85.618343,-82.210579,-71.948605,-41.223221,-79.848003,-74.974709,-64.247761,-39.755173,-68.074207,-64.993572,-57.093143,-23.807007,-36.834059,-37.139569,-31.235489,-45.715065,-44.30095,-36.452534,-31.448867,-31.636527,-21.253936,-11.695034,-10.854673,-14.584274,-5.930324,1.459903,2.503362,3.209169,7.910228,11.961364,12.954187,22.479687,32.960186,34.101048,25.47266,4.805317,1.483498,0.084,-2.091408,-10.141754,6.555462,20.46072,26.216583,-19.523506,0.929089,13.856506,19.04274,-25.268326,-6.954632,6.908798,13.599815,-20.150425,-46.928522,-66.317689,-75.220153,-74.41715,-102.933306,-121.859745,-138.033629,-68.261159,-74.715096,-58.110843,-43.325478,-57.40766,-57.862946,-43.46275,-30.540581,-43.649081,-44.775162,-35.846145,-26.49352,28.447523,149.891993,-154.2974,87.076201
74,-0.849495,10.985028,-1.211472,26.92988,-24.467239,-53.796215,-77.37545,-94.324551,-50.484352,-78.730774,-84.937477,-84.126377,-47.759972,-78.619995,-75.86483,-69.449501,-43.941078,-73.414192,-69.471474,-61.197338,-40.596886,-63.835602,-60.605736,-52.921944,-19.735432,-25.579614,-19.610511,-12.139699,-27.458185,-21.776962,-14.072795,-7.624447,-14.578037,-7.292538,0.07478,2.724552,0.849933,5.897844,10.435881,12.367187,16.225353,18.87988,21.903242,23.645777,26.860371,37.688942,42.515316,41.672173,13.745155,13.792133,14.717617,15.126858,0.715599,25.202007,41.145458,48.067989,-5.132103,23.929424,35.943146,40.635166,-7.054482,17.545967,30.624332,36.568966,-23.536139,-46.753954,-64.287983,-74.280219,-72.210994,-96.237986,-113.776647,-130.169282,-66.18403,-66.826821,-53.638137,-41.362587,-53.390888,-45.923318,-33.281249,-23.138929,-36.911895,-31.771451,-24.709613,-18.651187,27.481041,159.972624,-155.625858,113.101684
75,14.264888,24.122984,7.36559,23.981683,-26.007213,-55.474634,-80.132131,-97.54961,-53.984298,-85.998287,-96.524677,-99.612751,-51.979236,-87.497291,-93.533306,-92.83905,-49.06208,-82.677326,-87.333097,-84.979648,-45.777626,-73.032417,-77.70358,-76.509246,-22.405273,-28.608503,-21.981047,-13.669442,-22.753391,-15.269364,-10.20793,-7.059709,-5.642907,2.764967,4.750675,3.861623,10.656515,16.972317,17.048918,15.530414,24.718319,28.50612,27.941166,26.034591,13.797798,25.229473,37.6054,45.229911,15.876789,29.828767,34.064226,33.139629,14.853572,42.435979,51.201553,51.716852,17.035875,44.625349,49.228477,47.587995,20.325336,43.968973,48.69956,47.844142,-26.925171,-49.222612,-62.25976,-66.490219,-65.656156,-85.60316,-91.111096,-95.742161,-55.964522,-62.61129,-51.655161,-41.965348,-41.534006,-41.214865,-30.722528,-22.607536,-24.792559,-25.616911,-19.686834,-14.824467,41.879568,183.874341,-148.12663,136.8621
76,14.264889,24.122983,7.365589,23.981684,-27.547188,-57.153053,-82.888813,-100.77467,-57.484245,-93.2658,-108.111877,-115.099125,-56.198502,-96.374588,-111.201782,-116.2286,-54.183083,-91.94046,-105.194721,-108.761959,-50.958366,-82.229233,-94.801426,-100.09655,-25.075113,-31.637391,-24.351584,-15.199185,-18.048596,-8.761766,-6.343064,-6.49497,3.292223,12.822473,9.426571,4.998696,20.463099,28.04679,23.661955,18.69364,33.211286,38.132361,33.97909,28.423406,0.735226,12.770004,32.695484,48.787651,18.008423,45.865402,53.410835,51.152401,28.991547,59.669952,61.257648,55.365715,39.203854,65.321274,62.513809,54.540825,47.705154,70.391979,66.774788,59.11932,-30.314204,-51.69127,-60.231537,-58.70022,-59.101319,-74.968335,-68.445546,-61.315041,-45.745014,-58.395759,-49.672186,-42.56811,-29.677125,-36.506411,-28.163807,-22.076143,-12.673222,-19.462371,-14.664056,-10.997748,56.07851,207.923702,-140.826988,160.770162
77,5.249176,14.531601,6.345119,19.797985,-25.524788,-52.979965,-77.596664,-95.178623,-54.388847,-86.31403,-100.779076,-108.422241,-52.623138,-89.29081,-110.088673,-122.605705,-50.041237,-84.800777,-105.304356,-118.016338,-46.723022,-75.979614,-91.869392,-104.269295,-24.451619,-32.266999,-30.016258,-22.830115,-16.947895,-9.39619,-6.501886,-6.629277,3.418379,12.174649,13.76182,12.466111,20.818534,26.704892,26.631285,24.479778,33.700781,38.903871,39.889346,37.773777,14.949474,36.650219,58.171463,73.062229,30.324841,67.262192,67.93396,61.583633,31.230583,70.805225,69.586487,62.128887,33.225517,71.031475,71.175728,65.273151,36.468372,65.869617,67.74828,63.592186,-25.600177,-43.067393,-50.339059,-46.947974,-37.284281,-42.6415,-36.320049,-32.287994,-19.019991,-23.45046,-18.856353,-16.251844,-0.595521,-5.741245,-3.85619,-2.148791,16.017131,9.983807,7.926962,6.894433,61.510019,222.525035,-134.299536,180.637878
78,2.034645,16.765607,7.236557,4.198966,-23.010178,-48.041267,-70.993538,-88.690052,-53.490143,-84.051018,-98.572998,-106.42765,-51.479416,-87.753181,-108.446674,-121.960659,-48.698502,-83.536377,-102.756844,-114.698238,-45.612602,-73.217697,-88.939476,-101.422119,-24.44952,-31.411632,-29.707259,-24.291871,-18.631149,-11.160152,-7.113833,-6.344978,1.524803,11.969144,16.930234,17.919661,19.429211,28.416181,30.485746,29.015284,33.246484,40.179511,42.870841,41.316151,26.966801,48.963718,68.061619,81.033154,26.267853,52.48106,67.889042,80.217476,15.53112,46.967411,70.500412,86.673317,8.161812,38.107281,60.091038,74.89151,4.440365,23.444366,37.447929,46.98,-19.133056,-28.179986,-31.694819,-29.436483,-18.479737,-21.573556,-18.805841,-15.657311,-3.464877,3.423258,15.12564,23.38766,12.077146,21.600788,29.701269,33.223018,26.077755,37.044134,41.707957,40.736994,63.628778,239.265556,-126.978865,184.811758
79,2.656403,12.118086,21.078987,35.048175,-26.228828,-51.456985,-71.584511,-85.436325,-56.566086,-86.293945,-105.114269,-117.626953,-52.034798,-85.275993,-105.178585,-118.14703,-47.073212,-79.804916,-98.264923,-110.151443,-41.996727,-69.049759,-83.996773,-95.985031,-23.025308,-27.929526,-23.919578,-19.016039,-5.056309,8.514888,15.230801,18.761442,13.687041,25.984635,30.9632,32.371418,29.051963,38.036401,40.83882,40.474863,40.243361,46.783779,49.446581,49.467638,15.668621,36.693649,54.953671,67.442207,67.409363,99.484406,104.691582,97.455139,62.900162,95.244827,96.108284,84.411163,56.006985,84.25787,86.966858,78.016205,47.526798,69.329338,74.913425,71.089497,-22.394898,-30.395838,-28.707952,-24.274149,7.078264,24.265318,32.989602,33.583085,26.599546,47.117108,56.028125,55.94612,41.089403,60.516886,69.199302,69.468225,51.180594,66.225526,73.408581,73.823853,66.243439,251.341035,-105.94162,219.817326
80,2.448006,13.39175,-3.048134,16.190896,-23.8274,-45.990257,-64.91272,-74.976768,-54.626999,-86.055679,-106.197624,-120.710449,-53.485107,-87.41581,-111.86554,-131.343212,-50.48893,-82.018547,-103.777542,-120.115528,-47.059937,-72.394981,-89.181633,-104.397068,-18.435956,-25.328228,-19.317443,-7.357068,-0.753726,3.499211,4.409844,3.970984,16.752578,22.682841,23.097248,20.368373,31.193406,38.328604,40.921998,40.43102,41.90667,51.492989,55.853124,56.605738,26.318207,48.485413,68.786888,85.927219,45.983105,82.335892,102.791176,115.261002,42.228756,81.945534,105.894012,116.621704,39.444752,76.710663,98.664665,109.557838,37.581482,68.572884,85.164986,94.772186,-21.155568,-28.95378,-29.31113,-27.240762,0.852897,16.781909,23.26101,27.322828,22.906624,40.297825,45.511289,48.64327,40.368653,56.70423,62.196744,65.649951,52.877619,64.531898,68.059513,69.037825,68.531857,264.544029,-109.149342,235.819467
81,0.301208,6.341829,-1.680508,16.693483,-26.255379,-48.721733,-68.531113,-82.513618,-56.033134,-85.810661,-105.302925,-120.299206,-53.715591,-85.510826,-109.415245,-129.310741,-49.311333,-80.223312,-101.906261,-118.121567,-43.09845,-68.141899,-85.444221,-101.537361,-14.743096,-17.697792,-9.90489,0.186795,10.21852,12.745162,11.426914,8.557434,25.865642,30.315809,30.1878,27.724206,38.120197,46.282984,49.800287,50.094281,46.938649,58.115474,62.511609,63.27503,29.086475,55.175972,76.705742,93.909473,40.926247,75.681496,98.447742,116.290798,33.94043,75.095615,98.950024,113.891315,30.912895,68.544044,90.072842,102.927418,30.499477,58.159962,74.062271,84.45116,-18.440279,-22.433184,-21.880579,-20.44235,3.140441,16.912944,22.988752,28.189928,22.366555,37.158866,41.471021,44.166673,37.100697,51.803594,55.789027,56.701328,46.814284,59.423903,61.318159,59.219633,68.724203,270.67532,-110.938711,252.302411
82,-0.49942,11.712201,12.918949,27.61744,-25.118637,-49.463196,-70.924416,-84.71077,-56.024666,-87.395554,-105.327187,-119.139919,-54.015999,-86.450729,-108.081436,-124.387493,-51.452293,-81.282005,-99.812508,-113.035812,-47.335854,-71.844635,-86.063805,-96.782627,-14.998866,-18.86648,-10.074456,-0.773239,13.260592,13.988383,12.582943,10.713696,29.310327,29.749681,27.605275,24.374493,40.096395,43.044051,41.4717,37.83738,47.037327,52.790859,51.965997,49.304308,25.574856,51.05175,73.799,94.510803,42.564583,91.979599,114.697037,124.043541,40.978489,96.560555,119.099007,124.984818,43.317833,96.165848,114.732285,117.167015,47.320347,90.335541,105.825348,107.463455,-26.775349,-32.186476,-29.511572,-24.025727,10.697024,31.616767,26.58275,21.024657,34.092958,49.557237,37.701035,26.586084,48.952392,62.094794,48.948749,36.664492,56.608579,64.875415,55.230186,46.632059,68.107595,282.26754,-98.13695,279.79987
83,-3.427391,3.796168,-6.310959,-3.068934,-25.06794,-52.3629,-75.265274,-94.643211,-52.453995,-83.695564,-102.759247,-117.580833,-49.966621,-82.137794,-104.281483,-122.343063,-47.37751,-75.721664,-95.970554,-112.887611,-43.935127,-65.337868,-80.878372,-94.921932,-14.395194,-16.3533,-9.174567,-2.959203,16.108953,23.160357,20.880037,16.36812,32.114043,40.086206,38.366334,34.676685,42.381407,52.285,53.595406,51.773151,47.500763,58.020934,60.632544,60.284766,30.187683,57.903042,80.893707,97.93911,52.100315,91.371117,112.014656,125.200768,44.145184,89.676247,112.176361,124.712791,38.817215,81.410351,102.344856,113.522987,35.057201,67.210808,85.387001,95.993271,-15.653915,-17.62684,-16.368676,-12.556391,19.740742,39.525636,43.856563,44.803691,39.73886,59.343751,60.219311,57.458203,52.02287,70.755722,70.176256,64.788285,57.746083,73.170842,72.820285,68.454839,64.595261,286.081446,-104.532852,276.748674
84,-0.075874,3.153532,0.21801,4.347785,-27.313499,-55.519295,-77.965508,-98.037243,-69.106178,-84.579391,-81.921616,-73.747215,-64.35379,-79.811096,-74.739189,-63.732491,-58.1464,-73.497849,-68.643379,-58.570404,-50.004387,-62.571831,-64.436989,-60.492325,-14.219144,-17.253744,-14.076562,-12.66538,9.345369,24.159663,32.367837,35.043421,23.603169,37.504174,44.780843,47.069313,34.627099,47.838785,52.272465,52.646981,42.69158,53.146418,56.003857,56.752581,32.480736,62.191315,89.524727,111.606674,57.30257,91.92318,110.621681,125.194016,48.114109,86.804466,107.899475,122.598267,41.055222,76.085186,95.404587,108.968582,36.313877,61.523323,77.323151,90.152092,-11.663047,-10.945693,-6.120392,-5.142204,23.050935,37.755313,43.826243,47.963336,41.116512,57.233925,61.754302,63.299545,52.445798,70.166067,73.410248,72.429096,58.349014,75.329019,77.022956,74.643651,64.677773,289.195843,-104.156456,281.057324
85,-0.809326,3.217196,4.853039,7.315695,-29.987984,-58.293686,-79.117584,-96.319885,-62.484627,-82.873421,-87.618828,-86.806355,-55.944099,-75.024948,-76.264915,-72.793694,-47.549286,-64.349098,-63.846474,-59.548874,-38.449745,-50.941544,-53.262291,-52.865067,-18.066133,-20.940429,-13.382302,-10.392162,4.836972,11.760304,14.159863,14.086627,19.572781,28.513932,31.025012,32.8816,30.363974,40.788802,44.016867,45.565073,38.249502,47.168855,51.072716,53.292705,29.728661,57.280083,82.568951,103.021832,54.702759,88.778858,108.606777,124.287586,46.866703,85.542583,109.109058,125.768566,40.494404,76.550217,98.262348,113.683033,36.110058,63.601398,80.358524,94.103794,-12.456849,-12.987285,-10.448478,-12.780298,21.822287,37.073898,43.692863,47.775059,39.295122,54.873269,59.257548,59.962738,50.866531,66.941213,70.163844,68.913583,57.903053,72.918283,75.104062,73.677813,64.051065,292.237885,-99.120798,288.197864
86,-5.236816,-1.520974,4.464569,5.87407,-25.971565,-50.998306,-71.218414,-85.856438,-58.800659,-71.695862,-68.893089,-61.793861,-53.284836,-63.021011,-56.005096,-44.492226,-46.045189,-53.205528,-45.282669,-34.414101,-37.554474,-42.776299,-38.648415,-31.572189,-14.757237,-17.689579,-13.231693,-9.775522,9.519567,18.533522,21.851989,23.514927,22.577309,34.455186,39.63833,43.289879,32.426623,43.740719,48.104991,51.301625,39.27635,48.822222,52.757391,54.892226,27.939949,55.147533,79.677029,99.561138,56.524944,91.888676,111.544933,126.441364,48.487873,87.480526,110.092335,125.778179,41.693516,77.293911,97.814884,112.420406,36.339512,63.522663,79.832783,93.247318,-14.274657,-16.452656,-14.952801,-17.854514,18.656714,33.194984,40.384152,45.337091,36.430644,51.342812,56.437654,58.420768,48.294874,64.38487,68.033763,67.658444,55.407039,70.135809,72.58199,71.629058,59.077263,290.832384,-94.393215,294.187407
87,-47.290049,8.103259,4.275227,1.92334,-5.99081,-12.450227,-20.018549,-27.801218,-19.181127,-9.895105,-2.500963,3.078204,-17.980985,-6.129369,3.073912,11.43199,-16.965637,-3.892393,5.801325,13.021002,-15.631971,-5.141744,2.578268,7.475596,-21.204721,-27.661066,-25.845665,-22.039401,-1.363078,11.015193,13.690345,13.799797,15.965446,29.661224,32.486182,33.67037,29.88544,41.613665,42.840121,43.138468,40.342131,49.994585,49.64057,47.838693,26.817284,52.977276,77.172203,97.370567,56.424923,91.344795,110.031853,124.270363,49.159012,87.827339,109.226532,124.298286,42.35899,77.574463,97.177505,111.098785,36.51432,63.736954,79.784203,92.562447,-15.26427,-18.738348,-17.66809,-20.104267,18.904148,32.398156,37.823609,41.201419,36.434472,49.486595,52.749301,52.881694,47.710221,62.270968,64.986504,63.81868,54.138994,67.64029,69.624145,68.065503,12.064418,299.180838,-89.840784,296.355943
88,-47.290048,8.10326,4.491005,2.196956,13.989944,26.097851,31.181316,30.254002,20.438404,51.905651,63.891163,67.950268,17.322865,50.762272,62.15292,67.356205,12.113914,45.420742,56.885319,60.456104,6.290531,32.492809,43.804951,46.52338,-27.652205,-37.632554,-38.459639,-34.30328,-12.245724,3.496864,5.5287,4.084666,9.353582,24.867261,25.334033,24.050859,27.344256,39.48661,37.575249,34.97531,41.407912,51.166947,46.523748,40.785159,24.538422,50.069103,74.281883,94.68647,56.752625,92.026062,111.034355,124.718628,50.373173,89.317703,109.828949,123.374977,43.936672,79.802856,98.577003,110.895767,38.171711,67.060661,82.873764,94.442482,-17.043793,-21.381327,-20.749806,-23.699993,17.285793,28.555799,32.272309,33.622358,34.988463,45.498074,46.878258,45.398841,46.151764,58.312087,59.122932,56.408384,52.468708,63.682088,63.830475,60.972233,-34.767723,307.223166,-84.891872,298.491967
89,2.189198,-0.072618,-0.694828,0.29634,14.098778,25.307808,29.341278,26.782265,19.595032,50.263824,62.301521,66.697426,15.401459,47.612114,59.266891,65.289574,9.148293,41.034508,53.014412,57.00634,2.696686,27.347145,38.280945,41.295547,-27.275219,-37.615263,-37.540854,-33.176335,-14.017158,1.274282,3.045098,2.309404,7.293341,22.302705,22.412312,21.348599,25.100616,36.953793,34.839397,32.230689,39.18959,49.784726,45.505546,39.999879,24.844437,50.49551,74.329548,94.844112,58.28064,93.053112,111.812267,124.875011,51.840992,90.464458,109.452724,120.664272,45.101624,80.327282,96.840878,105.834332,39.041061,66.695194,81.52319,91.590099,-18.053721,-22.285168,-21.090544,-23.441136,14.695857,25.143718,29.617968,31.984614,33.320522,41.894876,41.193576,38.165954,45.262434,54.982258,53.127399,48.567687,51.916659,62.262385,61.809445,58.029332,-32.144852,307.090264,-85.153027,298.728023
90,2.769184,1.132503,-0.404434,-1.679364,14.575024,24.037228,26.167431,21.950855,17.78429,47.86005,58.151608,59.496517,12.250385,44.34351,54.564571,57.116261,4.702778,36.120472,46.112766,46.551991,-3.621426,22.156506,32.033443,32.133121,-26.353223,-38.268398,-39.155072,-35.478884,-16.556953,2.01436,3.306241,-0.087933,4.731193,24.066667,22.343584,17.260907,22.774787,38.336879,33.146386,27.546303,37.173501,49.917242,42.870038,35.178222,24.65395,50.498657,74.421215,95.308628,58.308392,92.474957,110.905666,124.33794,51.610851,89.700909,109.346409,121.677418,44.55677,79.742374,97.29887,107.51936,38.059731,66.206875,81.298656,91.507244,-17.782513,-21.21139,-19.068095,-21.329272,15.429822,26.40886,30.102276,31.731993,33.727087,42.454952,42.082906,39.357119,45.38328,55.189184,54.036921,49.966457,51.809028,61.572756,61.134946,57.695386,-29.029312,308.288592,-85.211105,297.114485
91,13.165684,-0.482085,0.844746,-0.094725,9.382095,14.203949,12.299995,6.433411,4.460106,27.385025,40.850143,47.141876,0.160217,23.290329,39.116135,49.830437,-6.578808,16.755867,32.339859,41.079254,-14.268951,4.243011,18.190956,25.039902,-25.65143,-37.358691,-37.341524,-34.052573,-15.38351,-1.581428,0.821836,-0.202233,4.708592,19.629838,20.294211,18.330178,21.707678,34.140444,31.298011,28.197338,36.281084,47.607406,42.039619,35.606955,24.072304,49.872265,73.969803,95.266113,57.144871,92.028008,111.10405,124.652023,50.539627,90.032043,109.997978,122.310791,43.623905,80.057487,97.612953,107.627335,37.502174,66.523361,81.329842,90.875359,-17.913054,-21.117715,-18.516911,-20.386466,15.763645,26.498399,29.882445,31.065583,34.160019,42.439823,41.409765,38.514843,45.690241,54.977071,52.81488,48.400467,51.666817,60.746968,59.16696,54.977565,-15.547915,307.961701,-84.050646,297.174954
92,-6.332016,0.778487,0.442314,0.142582,11.438141,19.444542,20.908813,16.815491,12.561493,34.864197,46.951103,52.671089,7.797089,31.491623,46.256332,56.754227,0.228653,24.441833,39.306221,47.896614,-8.68515,9.670486,22.948608,29.588013,-26.814869,-38.533122,-39.635181,-36.203093,-18.66258,-6.406358,-3.133957,-3.25542,2.239626,16.604686,18.525309,16.982351,20.318479,32.437244,30.23788,27.2541,35.675498,46.400433,40.958184,33.95507,24.283447,49.910088,74.039268,95.667801,57.007198,91.169128,109.957466,123.238449,50.282879,89.243088,108.816605,120.798111,43.422375,79.559898,96.624413,106.185608,37.345676,66.048546,80.710716,90.100937,-18.009631,-21.203486,-18.562174,-19.925314,16.212077,26.900023,30.246957,31.327096,34.588444,42.886526,41.413099,37.92136,46.126693,55.390675,52.476426,47.381709,52.215963,61.107343,58.991589,54.264471,-21.624928,308.915374,-83.353329,297.492721
93,0.445061,-0.428548,0.151291,0.305912,9.501915,16.924438,18.866272,15.606766,10.99205,33.301163,46.473083,53.210678,6.368523,29.968414,46.268005,57.900467,-1.165237,22.931328,39.824753,50.6353,-10.014668,7.836227,22.723961,31.856689,-26.54712,-38.051345,-39.152231,-36.632135,-18.157276,-6.259331,-3.475128,-3.781472,2.236044,16.806054,18.750945,17.124501,20.454762,32.625151,30.608074,27.671718,36.389209,47.149157,41.818861,34.745969,24.051533,50.059605,74.378014,95.879402,56.714859,90.939217,109.773674,123.321762,49.987965,88.606796,107.941933,119.703484,43.319321,79.065399,96.187134,105.894241,37.535934,66.298485,81.010666,90.514183,-17.844511,-21.049974,-18.228166,-18.737545,16.354535,27.028773,30.33384,31.452325,34.79259,42.938149,41.541787,38.126248,46.298174,55.193136,52.344404,47.32953,52.194412,60.643721,58.486717,53.858895,-20.717897,308.659373,-82.740068,297.971179
94,-5.806332,2.450627,0.283928,0.039829,12.556858,21.912289,26.082287,24.600735,15.95026,42.991276,53.98859,56.771221,11.445293,41.781864,52.902317,56.872158,4.989567,34.738712,45.054417,47.712994,-3.055172,20.711117,30.75388,32.57246,-27.695739,-39.882986,-41.041917,-37.766305,-19.885238,-6.524672,-4.830241,-6.765066,1.928959,16.533982,16.408258,13.024273,20.641557,32.569452,28.480463,24.370356,36.079345,46.089705,39.585163,32.303061,24.443951,50.199509,74.507561,95.902863,55.477123,90.044518,109.134521,122.947083,48.77243,87.704773,106.854172,118.088608,42.531452,78.523064,95.426216,104.855118,37.439976,66.187477,80.895309,90.403519,-17.348531,-20.800132,-18.230821,-18.459174,16.350212,27.018893,30.629192,32.2226,35.185199,43.723491,41.673624,37.433223,46.843369,55.885605,52.298276,46.472681,52.637163,60.80174,58.51222,53.582191,-25.952053,311.149381,-81.883965,298.050389
95,-14.87257,-0.882599,0.092125,0.955217,16.946869,32.545853,41.842918,41.599731,28.697548,61.935196,73.377914,74.840012,23.71582,60.384178,71.255493,72.920036,16.443157,51.349754,61.025276,61.82476,7.637615,35.770111,45.510063,46.186981,-26.92565,-38.749989,-40.573417,-38.414067,-22.496293,-6.832992,-4.66654,-6.506764,0.068234,16.518729,17.00736,13.114676,19.92198,32.929395,29.779507,25.572328,36.1469,46.566788,40.440283,33.235245,24.508095,50.418205,74.883728,96.39782,55.730667,90.079994,109.005089,122.67746,49.295139,87.894859,106.083069,116.036682,43.278351,78.740273,95.043526,103.650169,38.419647,66.980782,81.503334,90.631943,-17.838336,-21.658463,-19.133736,-19.012273,15.772537,26.307034,30.411954,32.581679,34.7619,43.278394,40.807019,36.163573,46.55839,55.198076,50.976138,44.631037,52.36262,60.120263,57.448323,52.14143,-40.352497,310.296391,-81.319714,299.035216
96,7.054367,0.798989,-0.278664,-0.581998,15.228539,28.868294,36.342316,35.656815,25.209961,54.081116,64.232597,65.874596,20.579681,52.916679,62.912979,64.759712,13.288937,44.829941,53.606186,53.980751,4.433384,30.298119,39.258957,39.227715,-27.735445,-39.735587,-41.17079,-37.130029,-22.746382,-8.417754,-6.066237,-7.825136,-0.34679,15.594943,16.050167,12.425665,19.372463,32.433045,28.606249,24.023257,35.436277,45.893832,39.427144,31.711739,24.170494,50.185719,74.510422,95.812111,56.583652,90.587196,109.131775,122.630539,49.890232,88.12294,106.79512,117.62043,43.430386,78.889046,95.549698,104.777985,38.052864,66.713791,81.376305,90.804062,-17.860874,-21.315686,-18.377108,-17.887057,15.679232,26.510255,30.491551,32.428599,34.515455,42.821132,41.114845,37.259396,46.343252,55.007514,51.792602,46.406917,52.373365,60.360719,58.08639,53.240279,-33.085842,311.090208,-81.386089,298.448047
97,0.383091,0.369082,-0.301723,-0.994552,17.185192,31.079121,38.90974,38.538036,25.693645,59.313869,68.951969,68.455067,20.130672,57.925014,65.387821,63.141117,12.513027,49.278316,55.30798,51.6786,3.472538,32.757053,39.722385,37.001095,-28.131141,-40.7231,-42.632731,-40.063482,-21.889471,-6.216599,-4.911134,-7.58468,0.860554,18.249099,16.624755,11.454763,20.470015,34.282285,28.861525,23.07298,35.992339,46.716533,39.254552,31.103312,24.788818,51.099987,75.68121,96.718197,54.955673,89.705601,108.733463,122.632999,48.26128,87.576313,106.744595,117.788486,42.194023,78.424358,95.424328,104.726429,37.37114,66.531658,81.363544,90.657063,-17.052376,-20.673853,-17.995676,-16.20479,16.483902,27.527284,31.520621,33.808536,35.206936,43.943754,42.307369,38.424132,46.92704,55.84522,52.68329,47.031152,52.744608,60.688428,58.437255,53.415218,-32.194147,311.476751,-81.179209,297.470954
98,-7.928123,-0.650973,0.096016,1.17264,18.977108,35.708714,46.308804,47.196293,29.940319,67.02673,77.322407,77.085285,24.718494,66.422367,74.337101,72.139149,17.597923,57.636967,63.695698,59.656391,8.935776,41.427441,48.59087,45.789928,-28.916977,-40.645665,-41.776377,-37.843987,-21.855262,-5.403593,-4.001982,-6.526154,1.537832,18.92928,17.590778,12.383489,21.477596,34.843473,29.728563,23.931557,36.867095,46.651819,39.080292,30.790484,24.202938,50.229836,74.424191,95.333805,55.626354,90.026264,108.967838,122.665501,48.994503,87.894688,106.785564,117.59531,42.851944,78.686199,95.481892,104.643917,37.970982,66.944904,81.478786,90.551662,-17.775968,-21.476299,-18.486221,-16.589927,15.415311,26.732865,30.940476,33.303664,34.128959,42.925799,41.519619,37.933155,46.00912,54.737912,51.626617,46.184739,52.088016,59.93038,57.457276,52.404672,-39.774342,310.791321,-80.735264,298.609138
99,7.805157,0.850303,-0.758114,-0.397734,16.253471,29.246979,36.504593,36.123962,22.615013,57.503929,67.659187,68.185043,17.806206,56.707649,64.833069,64.523964,11.152954,48.702164,55.384712,53.308296,3.262825,32.977638,40.234222,38.348694,-29.542447,-41.634166,-43.123091,-39.526192,-19.797738,-3.679151,-2.993166,-6.260319,2.861452,19.063464,16.884724,12.049605,22.097385,34.36855,28.564567,22.973068,37.05636,46.504359,38.761289,30.659265,24.68668,50.765991,74.865074,95.953445,55.716534,89.972878,108.64151,122.279549,49.071922,87.675819,106.208725,116.673775,42.867451,78.464584,94.909744,103.687706,37.809277,66.481819,80.820007,89.751091,-17.707795,-21.262952,-18.014015,-16.357005,15.291934,26.778004,30.961348,33.373689,34.237269,43.036641,41.473059,37.795513,46.359492,54.993311,51.879238,46.637801,52.618205,60.545044,58.080215,53.116531,-31.643085,311.613312,-81.167278,298.183091
100,2.587624,-0.771448,0.179043,-0.52562,15.005379,26.310196,32.119789,31.072426,20.010109,51.60965,62.706299,64.305725,15.489922,50.957909,60.501823,62.037964,9.04026,43.628769,52.277412,52.067299,1.259708,28.650742,37.552757,37.130241,-28.626256,-40.541862,-41.986143,-39.237509,-19.154793,-3.812717,-2.943642,-5.789163,3.000947,19.256125,17.761086,13.024829,21.924916,34.581836,29.190037,23.816331,36.878272,46.916234,39.644011,31.663327,24.089813,49.879303,73.887005,94.955006,55.125504,89.615879,108.290462,121.940174,48.233585,87.227726,105.832844,116.243534,41.760292,77.554035,94.163074,103.281384,36.510029,65.181141,79.701748,89.031658,-17.323461,-20.448958,-17.160131,-15.770191,15.86541,27.391742,31.640479,34.025095,34.949128,44.140059,42.466932,38.609383,46.999412,56.205842,53.102143,47.735044,53.02088,61.11395,58.819984,53.973627,-28.8307,310.871674,-80.763474,297.687281
101,3.250294,-2.156263,0.113125,0.916561,13.291225,23.349895,28.004436,25.954342,16.386738,43.926258,57.120037,62.047062,11.652431,41.193409,54.772854,62.012501,4.292336,33.846989,47.848263,54.08083,-4.136353,19.099102,32.091923,37.175159,-27.203712,-38.563812,-39.686064,-37.281688,-17.70162,-3.269684,-1.187522,-2.573881,3.612152,19.150655,19.989782,17.106408,22.043847,34.712624,31.586879,27.843878,37.478116,48.635365,42.820514,35.774422,24.386559,49.954147,74.045906,94.886169,54.103947,89.226952,108.301392,121.92009,47.472725,87.539177,105.727043,115.085907,41.447639,78.156738,94.329529,102.384796,36.729755,66.081276,80.536194,89.353065,-17.640302,-21.142044,-18.196364,-16.886268,15.13447,26.769112,31.488264,34.547812,34.530522,43.898244,41.446012,37.016284,46.794153,55.800636,51.3438,45.057547,52.946347,60.447602,57.511061,52.113025,-25.162811,308.750315,-80.232754,298.638747
102,-5.115452,-0.257376,-0.975494,0.010559,14.883385,26.606255,33.143692,31.722336,21.016159,51.339111,63.524094,67.125092,16.314812,49.492264,61.59359,66.913605,9.140511,41.351509,53.966446,58.682556,0.571346,25.753899,38.067627,42.357559,-27.280715,-38.821805,-40.263183,-38.18312,-18.787686,-3.887744,-1.442181,-2.851881,2.901961,18.923846,19.589824,16.210595,21.947455,34.796604,31.439049,27.300351,37.733207,48.882244,42.941298,35.670249,24.737835,50.562859,74.781189,95.644112,54.005013,89.409714,108.606834,122.421913,47.399197,87.881927,106.518517,116.483688,41.766014,78.889275,95.447617,103.938904,37.5424,67.10701,81.72821,90.576668,-17.713353,-20.942899,-17.927071,-16.898679,15.084329,26.418617,31.141227,34.388434,34.685145,43.801358,41.558645,37.334361,47.009724,55.740121,51.455198,45.320233,53.121965,60.213753,57.207805,51.874175,-30.081282,308.555045,-81.011267,298.711412
103,2.185421,-0.170369,-0.363407,-0.01834,13.223248,24.312458,31.362591,31.757641,16.427822,43.317204,57.793179,64.60413,11.881313,39.941425,56.333942,67.162228,4.740658,32.929058,50.380726,61.20203,-3.497143,18.627033,34.205875,43.158016,-27.420703,-39.582693,-41.441134,-39.004833,-18.843447,-6.732524,-4.185072,-4.616646,2.288347,16.910042,18.713586,16.586222,21.084616,33.108533,30.784248,27.655169,37.224754,47.766228,42.40654,35.55175,24.686909,50.578022,74.957371,95.83746,53.508625,89.292355,108.845501,122.857876,46.853313,87.948475,107.069492,117.442074,41.260872,78.931904,95.936565,104.818439,37.211781,67.072277,81.884365,90.973721,-17.464313,-20.824462,-18.028527,-16.430735,15.521151,26.88545,31.246943,34.04362,35.032614,44.016682,41.514555,37.078158,47.297975,55.746852,51.290942,45.003268,53.314379,60.232031,57.011809,51.50324,-27.585039,308.473334,-81.063852,298.78173
104,-5.260563,0.101518,-0.127888,0.19686,13.367271,26.295547,36.144562,38.67691,19.659233,45.29686,60.115929,68.29319,15.422058,43.296204,60.713539,72.704659,8.58633,36.083221,54.752083,67.789879,0.564594,22.220078,38.261261,49.299431,-27.373093,-40.738352,-44.180567,-43.077396,-20.534544,-11.873987,-9.125044,-9.120412,0.909584,13.618992,15.873746,13.598923,20.252036,30.671615,29.434384,26.845251,36.936935,47.136312,42.859355,36.640101,24.862919,50.592556,74.829369,95.855255,54.184113,89.738274,109.112091,123.090134,47.343979,88.002319,107.128944,117.831688,41.423435,78.598824,95.728569,104.927101,37.008648,66.567078,81.329956,90.527344,-17.263748,-20.621241,-17.863468,-16.472849,16.121427,27.216371,31.489931,34.229674,35.388482,43.927082,41.703326,37.631998,47.346758,55.471445,51.436735,45.642879,53.149012,59.892651,56.984947,51.791059,-32.468691,308.745329,-80.814829,299.149068
105,2.939587,0.150177,0.16777,-0.173457,12.404251,24.226398,32.791958,34.876957,16.66151,40.586185,55.035954,63.362904,12.169018,39.086781,56.80521,69.526005,5.331287,31.810284,50.451336,63.953419,-2.906799,17.494068,33.899975,45.419025,-27.838012,-41.345668,-44.561073,-42.712883,-21.126792,-11.722698,-8.560213,-8.439799,0.560632,14.048219,16.686999,14.236496,20.154346,31.042982,29.815198,26.735335,37.093658,47.704169,42.679044,35.547366,25.267639,51.236229,75.705757,96.746864,54.249401,89.73175,109.266815,123.120346,46.992302,87.925072,107.471581,118.482971,40.704575,78.235588,95.52784,104.671898,36.072578,65.864067,80.841637,89.996796,-17.205332,-20.210169,-17.334267,-15.928519,16.262836,27.588108,31.978439,34.635744,35.294683,44.188965,42.35788,38.571963,47.100991,55.756793,51.646069,45.650351,52.813398,59.827689,56.888432,51.543686,-29.328232,309.014283,-80.446186,299.094388
106,-3.411827,2.800196,0.112324,-0.174445,12.074776,24.53619,34.542332,38.325634,17.623386,40.221119,55.4809,65.052395,14.35833,41.297321,59.444904,72.381649,8.688812,35.086155,54.024296,68.013897,1.725254,22.590809,38.240719,49.494038,-29.054001,-44.046631,-48.106164,-47.014664,-22.833573,-17.153462,-14.63386,-14.865115,-0.250954,10.463978,12.714533,9.959724,19.883386,28.538817,27.02513,23.776749,36.914952,45.784164,41.010116,34.17558,25.240803,51.108055,75.279293,96.281376,54.274235,89.379902,108.808308,122.726841,46.831741,87.008915,106.294613,117.012348,40.414867,77.12225,94.459705,103.596897,35.644741,64.831409,79.773617,88.971691,-16.897691,-19.903516,-16.785182,-14.992074,17.251398,28.57278,32.493376,34.604807,36.045506,45.280157,43.098638,38.970994,47.536023,56.838722,52.958018,47.011453,52.923005,60.64792,57.976906,52.776595,-32.579212,311.962603,-80.173016,299.068067
107,0.449924,-1.145038,0.409184,0.900815,10.405769,22.881088,33.88401,39.440918,13.640385,36.520157,53.015442,63.256302,10.985928,37.271118,57.266235,71.994095,6.27697,31.741447,52.052307,66.998863,0.292568,21.200294,37.381897,48.887329,-27.608609,-41.988613,-45.299052,-42.762593,-20.85015,-14.629661,-11.960623,-11.165092,1.654355,12.859585,15.11576,12.311488,21.379598,30.885518,29.598763,26.436833,38.13162,47.832054,43.058068,36.030563,24.288883,50.504494,75.204735,96.385918,53.649731,89.155655,108.944893,123.163033,46.366825,87.195969,106.66935,117.477722,40.290871,77.431984,95.14389,104.82193,35.965462,65.330429,80.444298,89.990616,-16.884724,-19.919695,-17.214286,-15.675713,17.723047,28.416799,32.10935,34.120375,36.686784,45.362285,42.760802,38.33021,48.101533,56.748814,52.252025,45.845297,53.197795,60.338798,57.140805,51.580984,-31.948986,310.999512,-79.58353,300.15083
108,-5.626888,1.12713,-0.233631,-0.109298,14.959774,30.069637,42.193737,47.650166,19.750271,43.968601,60.480366,69.494762,15.772762,44.426937,63.809338,76.764278,10.066395,38.474407,58.437939,71.943455,3.669262,26.209316,42.583637,53.699512,-28.456195,-43.263327,-47.146378,-46.424083,-22.926075,-17.758245,-15.790815,-15.694114,-0.326289,9.02507,10.823859,8.469131,19.815831,27.632877,26.236639,23.549014,36.696109,45.324988,40.856913,34.762333,24.853821,50.904922,75.133953,96.341915,54.593296,88.990803,107.684727,120.970516,47.199154,86.829357,105.701466,116.79594,40.814152,76.861553,94.263668,104.30769,36.056557,64.71674,79.738941,89.447193,-17.169332,-20.070489,-16.843969,-15.443963,17.403613,28.227719,31.883281,33.47212,36.217296,44.918052,42.93395,38.836131,47.692498,56.341632,52.747264,46.976194,52.957709,60.079261,57.428315,52.336129,-37.418718,312.219654,-79.660006,300.134543
109,-0.438881,3.628269,0.167599,1.098355,16.038609,30.729046,41.689281,45.799198,22.875481,47.526913,62.950001,70.959492,18.044415,48.587551,66.462078,77.194347,11.476078,41.588116,60.044231,71.757145,4.118385,27.457523,42.917233,52.894192,-30.818951,-46.272548,-50.352027,-49.91292,-26.337909,-21.812469,-20.186024,-20.060486,-3.374784,5.133806,6.432417,4.655734,17.239171,24.109584,22.308016,19.848497,34.389298,41.819911,37.262236,31.749592,24.353313,50.203228,74.427567,95.893021,53.77739,88.632317,107.781944,121.511192,47.028809,87.144012,106.303711,117.369347,41.296577,77.895927,95.350685,105.034332,37.087097,66.296883,81.217003,90.58136,-17.217312,-20.269079,-17.05287,-14.963792,17.471291,28.166339,31.470356,32.944833,36.205131,44.1429,41.828,37.601925,47.604628,55.369618,51.262413,45.255271,52.930045,59.706041,56.665574,51.394683,-37.724962,315.914768,-79.35977,301.299742
