takenoko1/special-research/HandMotion_SimilarSearch_自分用/NewProject/handData/key/d4_feature_d2/151.csv
,vel_0x_L,vel_0y_L,vel_0x_R,vel_0y_R,posFromWrist_1x_L,posFromWrist_2x_L,posFromWrist_3x_L,posFromWrist_4x_L,posFromWrist_5x_L,posFromWrist_6x_L,posFromWrist_7x_L,posFromWrist_8x_L,posFromWrist_9x_L,posFromWrist_10x_L,posFromWrist_11x_L,posFromWrist_12x_L,posFromWrist_13x_L,posFromWrist_14x_L,posFromWrist_15x_L,posFromWrist_16x_L,posFromWrist_17x_L,posFromWrist_18x_L,posFromWrist_19x_L,posFromWrist_20x_L,posFromWrist_1y_L,posFromWrist_2y_L,posFromWrist_3y_L,posFromWrist_4y_L,posFromWrist_5y_L,posFromWrist_6y_L,posFromWrist_7y_L,posFromWrist_8y_L,posFromWrist_9y_L,posFromWrist_10y_L,posFromWrist_11y_L,posFromWrist_12y_L,posFromWrist_13y_L,posFromWrist_14y_L,posFromWrist_15y_L,posFromWrist_16y_L,posFromWrist_17y_L,posFromWrist_18y_L,posFromWrist_19y_L,posFromWrist_20y_L,posFromWrist_1x_R,posFromWrist_2x_R,posFromWrist_3x_R,posFromWrist_4x_R,posFromWrist_5x_R,posFromWrist_6x_R,posFromWrist_7x_R,posFromWrist_8x_R,posFromWrist_9x_R,posFromWrist_10x_R,posFromWrist_11x_R,posFromWrist_12x_R,posFromWrist_13x_R,posFromWrist_14x_R,posFromWrist_15x_R,posFromWrist_16x_R,posFromWrist_17x_R,posFromWrist_18x_R,posFromWrist_19x_R,posFromWrist_20x_R,posFromWrist_1y_R,posFromWrist_2y_R,posFromWrist_3y_R,posFromWrist_4y_R,posFromWrist_5y_R,posFromWrist_6y_R,posFromWrist_7y_R,posFromWrist_8y_R,posFromWrist_9y_R,posFromWrist_10y_R,posFromWrist_11y_R,posFromWrist_12y_R,posFromWrist_13y_R,posFromWrist_14y_R,posFromWrist_15y_R,posFromWrist_16y_R,posFromWrist_17y_R,posFromWrist_18y_R,posFromWrist_19y_R,posFromWrist_20y_R,posFromBody_0x_L,posFromBody_0y_L,posFromBody_0x_R,posFromBody_0y_R
2,-7.59819,4.546374,1.435032,1.462435,3.664284,11.502628,29.587727,45.055561,-7.864723,21.973171,42.643719,56.357174,-17.100391,14.515057,39.096737,57.546558,-21.238117,5.209408,28.532124,45.092182,-22.326908,-8.262749,7.853222,21.2784,-17.799248,-26.695876,-24.43013,-21.867859,-0.063047,16.010462,24.172508,29.196151,19.746114,32.894383,40.663696,42.228328,34.350828,44.146172,48.452152,48.08943,44.866614,53.99703,54.458738,51.458841,29.196854,54.973011,78.432713,99.028873,49.056816,82.175846,99.619045,112.228031,38.481445,76.125126,97.434139,111.75333,29.635334,64.269333,84.13805,97.727337,22.830448,47.993317,64.286957,78.256702,-11.860216,-12.074923,-6.544309,-3.794501,18.023216,36.392791,43.73121,47.369853,35.529088,53.612387,60.076852,61.407327,47.400851,66.41652,71.890015,71.520747,54.244835,71.876492,76.718897,76.00568,-18.51265,318.582201,-73.840942,300.39726
3,-0.883369,-7.703364,0.570889,0.260834,5.145779,17.591457,30.709019,35.332203,-2.890205,26.960506,47.087231,60.222645,-14.210358,19.679203,45.322895,64.41679,-20.212154,4.747238,27.443905,45.407352,-21.985588,-15.226078,-4.380226,8.410034,-15.527388,-19.324236,-15.107856,-9.234959,2.229066,18.530125,27.913903,36.857709,21.614188,34.885092,44.193844,48.051454,35.710819,46.468914,53.487281,55.764018,46.97076,58.400329,60.828478,61.19614,28.439026,53.965015,76.958885,97.252922,50.533218,82.604141,100.14164,112.870331,39.834538,76.233902,96.741486,110.889359,30.503654,63.187866,82.1315,95.319786,22.788219,46.426678,61.920147,75.459023,-12.082147,-12.093262,-6.25649,-3.809692,19.573893,36.334128,43.308837,47.08154,36.368831,52.753377,59.387347,61.831182,47.726338,65.164407,70.719165,71.170993,54.271079,70.98284,75.896382,75.742129,-19.710388,310.876475,-73.584423,300.655732
4,32.361317,0.021798,-0.037079,0.276765,2.215691,-0.633888,-9.898453,-19.318657,-35.71209,-17.19738,6.936722,22.150726,-48.876858,-24.374485,1.656532,22.935677,-55.971851,-35.99081,-9.196243,10.76088,-58.628025,-58.608055,-47.380829,-34.446087,-13.292208,-17.54286,-14.100768,-10.307008,1.191968,25.674772,35.351864,39.668588,21.108205,40.38304,49.666844,53.461963,35.543352,49.614233,55.637183,59.300588,47.116799,60.802234,62.694144,62.954483,28.471642,53.845711,76.848106,97.090187,49.649734,81.85936,99.531441,112.582626,39.584885,75.73288,96.405487,110.92701,30.869122,63.302193,82.41188,95.875053,23.73642,47.343636,62.856617,76.496086,-12.193113,-12.212317,-6.350536,-3.815805,19.274033,36.585575,43.52663,47.242338,35.97789,52.938134,59.360548,61.410476,47.209116,65.227639,70.872245,71.193285,53.600222,70.685264,75.66772,75.318213,12.476521,310.892592,-73.79591,300.926816
5,-35.848732,16.893431,0.013103,-0.551987,9.074936,17.929802,33.564034,47.376823,0.921192,28.661842,48.888931,61.731834,-10.093975,21.688614,43.986282,61.852798,-16.175423,10.047798,31.056061,47.0755,-18.308945,-10.685349,-0.358772,9.989662,-19.894439,-31.997767,-36.647017,-38.312858,-9.700125,7.870955,16.991367,23.737105,11.240366,26.207122,32.484607,35.285235,26.166922,36.481649,39.829633,40.724952,36.449292,45.110467,44.981902,41.398279,28.472786,53.95443,77.088146,97.381496,49.403172,81.585331,99.324017,112.44421,38.999405,75.405293,96.330929,111.029377,30.072384,62.641411,82.04298,95.769939,22.777004,46.494141,62.137527,75.917301,-11.991374,-11.737271,-5.851284,-3.35984,19.800023,37.121445,44.088436,47.917455,36.494555,53.27665,59.793418,62.006429,47.489093,65.511506,71.31129,71.784545,53.632332,70.781039,75.928245,75.721257,-23.466539,327.786223,-73.877134,300.37503
6,12.795925,-15.038078,0.935268,-0.015129,4.032269,13.473415,23.471661,26.343098,-10.403709,16.657848,37.062664,50.691204,-20.925179,8.379536,32.968998,51.418362,-26.092129,-6.769409,15.299778,33.362446,-27.380219,-27.370663,-21.583099,-12.240715,-14.791076,-19.683623,-16.209421,-10.616748,3.772333,20.694477,28.775754,35.228548,23.189379,37.23204,44.000874,45.499865,37.024312,47.632601,53.351924,54.260149,47.824891,57.718728,60.357261,59.731853,28.034248,53.175602,76.154709,96.272392,49.15781,81.283035,98.858528,111.843338,39.170208,75.29892,96.234627,110.942574,30.445061,62.849979,82.16938,95.881691,23.287697,47.003288,62.536869,76.236305,-11.958955,-11.842432,-6.031471,-3.587143,20.041034,37.130152,44.075715,47.831066,36.548896,53.183098,59.368699,61.103082,47.539543,65.492672,71.164818,71.396938,53.626343,70.727255,75.973508,75.980362,-10.773954,312.764139,-73.045206,300.375894
7,-9.426613,-3.267647,0.585938,-0.516419,4.800854,17.640438,33.375149,40.97929,-2.475929,27.317791,47.845974,61.561031,-13.503914,18.910389,44.5257,63.253841,-19.28587,4.161358,27.066135,44.516201,-21.295624,-15.719719,-4.781113,8.150883,-13.499505,-17.9937,-15.133914,-10.769704,7.690088,24.333306,32.520978,39.91664,26.035517,39.606158,47.968276,51.538005,38.982171,49.285721,55.600997,57.444432,49.109609,60.028255,63.168448,63.945639,27.329121,52.6371,75.639381,95.857086,48.908329,81.27285,98.959923,112.014885,38.486538,75.192261,96.114807,110.488358,29.526329,62.538757,81.653252,95.086212,22.275124,45.992031,61.559715,75.187912,-11.856017,-11.614264,-5.762301,-3.689278,20.34602,36.708088,43.499213,47.220849,37.382094,53.132339,59.33523,61.33125,48.64259,65.846008,71.17513,71.550882,54.775085,71.706678,76.561495,76.388779,-20.331631,309.498098,-72.590332,299.861081
8,44.081669,3.564604,-0.64539,0.418174,-2.494469,-10.570564,-25.677681,-40.403538,-46.210785,-30.39402,-6.209679,9.329681,-57.434006,-34.794617,-8.797874,12.871399,-61.872768,-44.671497,-17.675743,3.659821,-62.653255,-68.679371,-63.250751,-54.524174,-11.50367,-13.511978,-6.571602,1.575932,2.358989,25.718985,33.681021,37.251492,20.483847,37.637061,45.586315,48.828706,33.687629,46.448536,51.065059,53.866552,44.805481,56.179043,58.476035,59.958106,27.458553,52.762527,75.576496,95.424557,49.626503,82.14426,99.956875,113.038731,39.146347,75.818195,96.656284,111.235714,29.998627,62.996464,82.232151,96.156864,22.465096,46.650066,62.362518,76.290951,-12.069921,-12.209353,-6.383819,-4.014024,19.998303,36.25731,42.919377,46.505223,36.763911,52.435301,58.663324,60.955561,47.92925,65.020405,70.537496,71.313081,54.125039,71.110725,75.99685,76.117819,23.666439,313.07056,-73.319321,300.287113
9,-37.917709,13.461528,0.302925,-0.067802,9.225197,15.135612,22.614326,28.34095,-7.920971,21.04557,40.731354,52.443237,-20.575218,11.529579,33.519745,51.962357,-26.607056,0.089779,22.260933,39.520111,-28.50975,-20.176449,-9.173927,2.193775,-19.892216,-30.587511,-33.385916,-33.260377,-9.049029,10.112247,19.219754,25.143842,11.284764,27.410205,33.997554,36.748658,25.734052,37.103291,40.09868,41.297379,35.792021,45.551982,44.826909,41.490596,27.532425,52.750454,75.635891,95.605373,49.432697,81.873493,99.425411,112.356319,38.942642,75.455647,96.162014,110.580997,29.702511,62.67168,81.733532,95.289059,22.004585,46.05011,61.723423,75.494442,-11.836257,-11.883126,-6.131137,-3.74189,20.148048,36.453306,43.205775,46.855904,36.956263,52.659146,58.980103,61.090053,48.123022,65.246906,70.768442,71.233052,54.27855,71.275722,76.245395,76.139863,-14.358101,326.533338,-73.123226,300.220561
10,0.899734,3.765972,0.406895,-0.015067,5.384903,10.626526,22.966003,33.054314,-9.671688,19.508629,39.146004,51.282806,-19.832554,10.888939,34.14505,52.219276,-24.866924,-0.355453,21.111717,38.328094,-26.581364,-15.73185,-3.295956,8.765717,-19.041666,-31.127271,-33.517259,-32.741983,-10.163253,5.985529,15.13694,21.907749,9.029269,21.186381,28.238155,31.134434,23.435022,32.810032,36.03822,36.362656,33.875659,41.536909,41.199134,39.002363,27.377129,52.590523,75.436935,95.276527,49.711933,81.972542,99.51828,112.516594,39.206028,75.367126,95.87162,110.279732,29.792004,62.232113,81.134377,94.786377,21.741257,45.509262,61.112194,74.928474,-11.929933,-12.139019,-6.277053,-3.485626,20.657736,36.463124,43.013608,46.581053,37.290024,52.635557,58.924898,61.249122,48.202063,65.120749,70.671926,71.335002,54.214021,71.072378,75.973817,76.014078,-13.534212,330.296964,-72.792177,300.203148
11,0.656548,5.651151,-0.440369,0.076694,6.740112,12.723999,23.951797,33.970528,-9.995785,17.663155,38.951569,52.553558,-19.420624,9.317322,31.47789,49.524307,-23.976345,-2.444916,19.601097,37.303276,-24.723644,-24.625454,-23.591824,-21.971798,-17.981658,-30.586399,-40.653137,-48.196814,-13.122642,3.758809,12.12352,17.927688,4.843826,17.810795,23.229023,25.727074,18.152089,28.556355,31.868523,32.97262,27.532903,34.153968,36.712102,37.41087,27.228184,52.620163,75.666161,95.588036,50.155735,82.44278,99.961166,112.888184,39.725475,75.933609,96.547279,110.96981,30.337315,62.911377,81.864967,95.458832,22.378864,46.124153,61.657619,75.343895,-11.974146,-12.151184,-6.408211,-3.741272,20.273587,36.163326,42.938952,46.688128,36.916743,52.244986,58.696669,61.082149,47.961977,64.86677,70.339771,70.931278,54.10534,70.941837,75.82296,75.866124,-12.982893,335.990815,-73.337774,300.322542
12,44.216995,-20.423764,-0.474529,0.257376,-4.763718,-15.539818,-33.998566,-50.984859,-53.795872,-40.342255,-15.14019,1.832542,-64.8032,-44.467449,-17.045174,5.693779,-68.785,-54.136448,-26.174698,-3.678818,-69.219475,-76.155853,-69.629459,-60.01379,-9.22792,-12.941775,-7.806611,0.30585,2.201526,24.182635,31.838636,36.013952,19.31627,34.875768,42.796555,46.868748,32.071126,43.849832,48.102151,50.960639,42.898073,53.456529,54.357344,55.182268,27.525959,53.070774,76.350117,96.545162,50.158253,82.444324,99.735088,112.381725,39.785385,76.198483,96.730671,110.832424,30.531235,63.469276,82.381954,95.677586,22.724876,46.506844,61.901035,75.415249,-12.460307,-12.700825,-6.844045,-3.899724,19.1346,36.031489,43.207134,47.038809,35.952634,52.343725,59.190178,61.393989,47.142858,64.85726,70.471546,70.826364,53.37403,70.63679,75.653579,75.473638,31.160116,315.575372,-73.88629,300.588239
13,-49.080563,12.713051,-0.207882,0.164565,9.949665,16.918087,25.168819,30.755367,-6.210537,21.26009,41.245251,52.774487,-17.889805,13.855076,36.048717,55.404797,-22.940025,4.27002,26.071987,43.458538,-24.619789,-11.653461,0.859623,13.243504,-21.547189,-34.04998,-37.365545,-35.65759,-9.991649,6.914317,14.15832,18.987634,10.220372,25.019847,30.918678,32.922788,24.929135,35.638077,37.851891,38.707752,34.95839,44.860192,43.454876,38.841133,27.421875,52.694836,76.144295,96.589508,50.065727,81.66481,98.668213,111.271133,39.831905,76.114197,96.577492,110.720558,30.756569,63.599396,82.606201,96.020737,23.016129,47.250652,62.649307,76.00502,-12.487848,-12.562442,-6.621188,-3.885892,18.984794,36.447316,43.436722,46.996818,35.90101,52.43388,59.309418,61.617525,47.22159,65.052824,70.698788,71.140797,53.722303,70.634135,75.45394,75.337355,-18.109217,328.28441,-74.282942,300.74879
14,-1.152935,1.295524,-0.352421,-0.113003,6.568451,11.86821,26.927605,41.096535,-4.830666,23.394012,43.371849,56.748848,-14.325886,15.869522,39.8909,59.157829,-19.05859,5.868587,28.211746,45.820541,-20.432396,-7.081432,7.303448,20.164833,-19.556108,-32.956195,-35.308639,-33.298169,-10.918152,4.229347,12.906639,19.044012,8.977954,21.537679,28.492011,30.843837,24.408209,34.00095,37.102118,37.069205,35.89465,43.530644,42.800631,39.298888,27.261772,52.590637,75.989628,96.309414,50.2145,81.876812,99.136677,111.943645,39.959335,76.289692,96.956577,111.220264,30.835934,63.720016,82.875881,96.334591,22.994671,47.379398,62.90205,76.281681,-12.234053,-12.425912,-6.576481,-3.876506,18.914089,36.166908,43.179223,46.805392,35.75707,52.250482,59.182459,61.582019,47.060421,64.850591,70.548919,70.964808,53.602075,70.63395,75.514147,75.328031,-19.319372,329.590925,-74.692583,300.646778
15,4.526997,-4.287949,-0.030727,0.313075,3.686657,8.396015,23.737621,36.429806,-10.773697,19.870892,41.638012,55.559063,-19.291019,12.594395,37.266483,56.283245,-22.756863,0.516129,23.325176,41.300182,-22.082233,-19.135838,-14.23193,-8.923588,-17.01125,-27.467263,-28.659045,-27.611758,-5.205066,12.739727,21.385773,26.910397,14.396368,27.158881,32.567044,33.603216,28.559072,38.564429,41.802188,41.73099,38.276425,45.445771,45.661219,44.339513,27.212849,52.523975,75.803719,96.373672,50.089359,82.08744,99.349709,112.060204,39.748878,76.278419,96.992455,111.123962,30.685444,63.725967,82.926407,96.397705,23.091888,47.504311,63.004818,76.406822,-12.840504,-13.109118,-6.915429,-4.120852,18.60262,35.875322,42.924564,46.519117,35.722181,52.345948,59.12145,61.217938,47.130631,65.076413,70.713176,70.898118,53.618747,70.522058,75.387311,75.131912,-14.849854,325.312517,-74.780788,300.969393
16,4.129429,-2.068886,-0.68716,-0.466277,0.551033,5.219307,19.234085,28.799973,-15.392132,12.28569,33.140945,45.977669,-22.816086,5.512848,29.75132,48.357582,-25.57354,-5.653553,16.114426,33.912964,-24.005985,-26.40255,-25.791721,-23.460445,-16.524843,-24.815206,-23.632315,-22.551868,-2.77284,14.87481,23.770204,29.73307,16.046956,28.294224,35.068368,37.008936,29.33725,38.869908,44.20255,46.053643,39.036017,45.363335,48.490067,51.009978,27.456207,53.22155,76.795292,97.537365,49.507942,82.043552,99.731083,112.688656,39.141083,76.43549,97.688541,112.001209,30.25629,64.263268,83.841763,97.318668,23.041306,47.91647,63.73106,77.234516,-12.93103,-12.746829,-6.318611,-3.294261,18.733161,36.250456,43.352062,47.045231,35.993821,53.018904,59.516035,61.320876,47.424502,65.634204,70.992102,71.024645,53.746262,71.085098,75.962578,75.699892,-10.774183,323.23105,-75.521708,300.490534
17,-4.418278,-0.52562,-0.254517,-0.029455,2.740002,8.050861,23.915234,36.098843,-10.868282,19.395733,41.061916,54.324932,-18.92189,11.66502,36.644611,55.238743,-22.435055,-0.270767,21.980152,39.146862,-22.253208,-17.817249,-10.198231,-3.028507,-15.922529,-24.862321,-25.866815,-25.36497,-2.538868,15.376532,24.232899,30.001129,16.623396,29.273339,35.390458,36.183333,30.396949,40.202482,44.606028,44.74509,39.618015,47.704231,48.481545,47.912639,27.789059,53.512516,76.95837,97.63876,49.580956,81.858273,99.505177,112.506237,39.363499,76.261311,97.422924,111.878872,30.656147,64.407749,83.866596,97.350368,23.60693,48.374233,64.162846,77.639523,-12.696873,-12.688783,-6.51825,-3.777396,18.768605,36.357346,43.569053,47.30909,35.918671,53.129499,59.620146,61.31291,47.353797,65.56986,70.940726,70.851311,53.775408,71.048789,75.907805,75.589791,-15.206194,322.695504,-75.789957,300.451153
18,-1.956882,-2.770926,0.37159,-0.38736,2.853699,10.854263,25.872231,35.88707,-7.939396,19.393387,39.330482,51.76918,-16.137199,12.128334,36.199722,54.66053,-20.046787,2.168427,23.184929,39.27166,-20.63942,-12.951965,-1.694183,9.395256,-16.16632,-23.595326,-21.976478,-19.069453,-1.496706,15.561104,24.622792,31.020566,17.454124,30.794128,39.540765,41.874683,31.449979,41.026047,47.291615,48.591584,41.676094,49.919589,50.922539,50.353941,27.541237,52.921658,76.207981,96.850719,49.481049,81.490116,99.21999,112.403812,39.31818,75.964108,96.995831,111.359653,30.577412,64.066544,83.399906,96.777935,23.389034,48.080864,63.808422,77.146626,-12.36342,-12.276476,-5.974352,-3.262954,19.275823,36.8348,43.92066,47.576469,36.281269,53.59874,60.218508,62.073984,47.597032,66.05034,71.535074,71.615781,54.022348,71.159014,75.982709,75.823146,-17.203102,319.934921,-75.458393,300.074136
19,-2.182617,-2.362756,-0.382061,-0.359387,2.386208,12.231331,27.897949,36.749153,-5.935307,22.412224,42.720337,56.123314,-13.697376,16.276131,41.252174,59.662285,-17.135353,6.145649,28.361664,45.232086,-16.925182,-9.166775,2.039738,13.713799,-15.807303,-21.903736,-20.956855,-17.372676,0.190068,15.638477,24.385176,32.735993,18.409218,30.455674,39.821606,43.545403,31.939413,41.521903,49.503947,52.48433,42.539118,52.828404,55.189184,55.829782,27.874775,53.244953,76.361389,96.537552,50.192814,82.01786,99.315605,112.099113,39.737663,76.228752,96.822624,111.07235,30.633888,63.809109,82.826958,96.111488,22.971954,47.509861,63.07148,76.443672,-12.159397,-12.272524,-6.150526,-3.249615,18.766382,36.359939,43.891081,48.006067,35.73731,52.811361,59.934826,62.57972,47.210475,65.15039,70.931525,71.390454,53.942443,70.956966,75.791838,75.52415,-19.418821,317.584252,-75.873556,299.726836
20,-10.910797,-8.111287,0.399971,-0.091144,6.378994,22.270432,42.471199,56.62365,4.173775,35.858917,54.676437,67.653351,-5.610981,28.986168,53.173714,69.986572,-10.364571,15.267792,37.543831,54.894333,-10.532627,-0.794392,8.990479,20.280304,-14.334185,-17.320558,-14.167829,-8.922194,3.103452,21.342733,30.70601,39.487845,22.585337,37.355294,47.006143,51.018499,36.571126,50.385002,57.428192,58.460412,46.644841,60.528124,65.640997,67.911436,27.828598,53.142014,76.404419,96.731415,50.020351,81.831665,98.950768,111.584702,39.609318,75.853729,96.519928,110.752945,30.462799,63.551216,82.749023,96.232338,22.824097,47.352448,62.943306,76.369629,-12.256716,-12.009344,-5.781938,-2.80353,18.890933,36.46615,43.963823,47.938389,35.83432,53.059474,60.170651,62.528529,47.278462,65.676812,71.58151,72.015615,53.963623,71.192853,76.095218,75.845376,-30.403605,309.486813,-75.547571,299.64954
21,57.762451,9.609043,-0.624676,0.597744,-3.832512,-12.877464,-29.777298,-46.509705,-50.028419,-33.667831,-8.43441,7.675896,-61.742821,-38.427258,-11.626053,10.10788,-65.871677,-49.32415,-22.160683,-1.092567,-66.271305,-74.647522,-72.50639,-66.924591,-14.994729,-21.691067,-19.249518,-13.966338,0.079905,20.237524,25.941966,29.014481,19.192893,32.544752,37.315342,39.368975,32.76588,42.095256,43.46525,44.627578,44.020078,51.545107,52.414985,53.303882,27.69659,52.922974,76.154308,96.634083,50.39835,82.368565,99.510784,112.141399,39.914703,76.477146,97.018833,111.188793,30.667419,63.939342,83.110142,96.608105,22.914963,47.318459,62.867317,76.323338,-12.707864,-12.710767,-6.443964,-3.626231,18.625283,36.019262,42.98298,46.523131,35.580587,52.368116,59.165169,61.51187,46.874491,64.863003,70.553427,71.132646,53.345316,70.337054,75.206691,75.327475,27.28549,319.081638,-76.245604,300.233066
22,-56.653805,10.247851,0.02718,0.086265,13.01857,22.880001,33.762074,42.324886,5.819435,34.802456,53.067341,63.533306,-6.092606,27.56052,47.352619,64.933262,-12.627926,16.184464,35.639477,50.738125,-15.718632,-6.450405,1.344509,9.979877,-23.002214,-35.044162,-39.517732,-38.072711,-11.38585,5.996953,13.575025,18.4488,8.851489,25.285559,30.573617,32.289723,23.283116,34.638523,36.550872,36.956942,33.080066,43.449998,42.422718,38.011639,27.568989,52.799892,75.820084,96.326637,49.904194,82.258186,99.6492,112.360497,39.392281,76.54335,97.274208,111.286354,30.219955,63.988323,83.295364,96.681519,22.640934,47.132149,62.88929,76.545639,-12.7945,-12.978331,-6.814899,-3.700764,18.4622,35.864207,42.651689,45.969415,35.633137,52.627715,58.952624,60.515651,46.982801,65.153045,70.439065,70.382379,53.267264,70.439374,75.314137,75.110361,-29.377184,329.365582,-76.227293,300.355424
23,5.567036,-15.509913,-0.061626,-0.096516,6.748524,19.135094,30.029411,34.647331,-2.434616,30.924454,50.839577,63.466759,-13.083115,24.429131,49.915009,67.048187,-17.671165,10.934772,34.608536,51.752472,-18.597164,-6.169968,7.142544,20.348969,-16.105063,-23.755816,-23.351412,-17.417259,-0.68722,15.068521,22.700995,28.394754,20.170463,33.02517,39.141919,39.763252,35.44875,46.233645,48.724904,46.948653,46.916296,58.339504,58.631584,54.733404,27.619057,53.010464,76.064701,96.621609,50.297413,82.672405,100.091343,112.873135,39.688969,76.712208,97.3736,111.418934,30.32547,63.923779,83.107967,96.545048,22.495193,47.096443,62.811871,76.415119,-12.973268,-13.238733,-6.895175,-3.533112,18.831653,35.889772,42.63267,46.034191,35.988634,52.919794,59.155166,60.827799,47.164965,65.296491,70.53058,70.475869,53.271401,70.506373,75.253436,75.022243,-23.819218,313.906537,-76.297989,300.309775
24,0.326786,-2.044371,-1.129704,-0.197478,7.649002,20.536137,31.092968,36.372929,-0.163479,30.457363,49.416218,62.385235,-10.977116,24.322186,48.584919,65.209751,-16.808567,9.460144,32.077045,49.769382,-19.278488,-8.706322,2.774048,15.655804,-16.520335,-22.036561,-20.301559,-13.32932,-2.406722,14.230012,23.892284,31.838636,18.9935,32.801942,42.503179,45.630529,34.885834,47.700711,53.342538,52.923005,47.239683,59.554197,62.30419,60.674843,27.705631,53.217316,76.506157,97.141228,50.917912,82.990265,100.349693,113.038902,40.477581,77.344437,97.861862,111.998749,31.181889,64.560986,83.505135,96.778908,23.27734,47.603188,63.18306,76.591301,-12.999203,-13.393232,-7.050724,-3.556083,18.633002,35.378231,42.131071,45.609966,35.771767,52.372377,59.024255,61.302722,46.911417,64.612358,70.130622,70.504027,53.084977,70.243008,75.022428,74.8239,-23.460474,311.935525,-77.395735,300.185657
25,44.882984,5.380869,0.331593,-0.243358,-2.738228,-9.399147,-24.476852,-39.301758,-45.24519,-29.868393,-4.329643,12.360649,-56.908836,-34.346638,-7.335663,14.813232,-61.586895,-44.892426,-17.309303,4.108315,-62.471523,-69.025383,-65.784016,-59.448566,-14.883208,-20.895475,-17.31531,-11.092165,1.492322,21.826362,27.85592,31.238916,20.892326,34.504648,39.870759,42.206345,34.282408,43.909236,45.941442,47.420858,44.960475,53.300794,54.247922,54.782063,28.435936,53.440304,76.852856,97.708683,49.663868,82.22826,99.759235,112.451992,39.55719,76.863842,97.736721,112.200451,30.904541,64.721718,83.960781,97.321529,23.788948,48.067303,63.711948,77.239552,-11.861081,-12.052569,-6.276744,-3.216888,19.316455,36.344563,43.00626,46.35869,36.164808,52.610672,58.912795,60.807915,47.328171,65.072646,70.46852,70.562752,53.791957,70.83717,75.717676,75.293142,21.416731,317.403771,-77.069921,300.029675
26,-52.093334,9.376306,0.23798,0.048227,12.668095,23.067226,33.009052,39.6702,6.913662,37.222652,56.454792,67.417202,-4.771328,29.287663,50.613384,68.157063,-11.877995,18.167667,39.337864,55.374126,-16.097946,-2.718487,9.836769,21.379795,-22.412559,-33.176273,-36.748658,-36.691354,-10.537955,6.283722,14.520671,20.122916,9.464362,25.310568,31.162037,33.858924,24.344112,35.69921,37.746915,38.272041,34.782031,45.651647,44.593863,39.845071,27.984467,52.901573,76.326485,97.07016,49.516296,81.882248,99.545517,112.531357,39.439716,76.336784,97.19799,111.782341,30.724812,64.17326,83.353958,96.864052,23.522472,47.760773,63.36937,77.038078,-11.852683,-12.244551,-6.637675,-3.544535,19.571361,36.336165,42.919809,46.280205,36.308069,52.581587,58.708093,60.642054,47.385969,65.004041,70.293458,70.431408,53.798256,70.869898,75.666794,75.429425,-30.687504,326.833677,-76.842842,300.131502
27,53.875294,-9.267131,0.410156,0.411443,-2.801056,-10.171852,-25.76786,-41.00338,-47.085171,-30.77282,-5.161171,11.633377,-58.27137,-35.130959,-8.095093,14.366913,-62.580471,-45.651913,-18.11657,3.333664,-63.294582,-71.248512,-69.149208,-63.763561,-14.545124,-20.477178,-17.022983,-11.069564,2.453776,22.900511,28.369683,31.228048,21.145626,34.779685,39.75825,41.58211,34.070728,44.112827,45.69444,46.66491,44.523097,52.833899,54.179194,55.113601,27.791634,52.67395,75.959473,96.506653,49.674397,81.715164,99.182281,112.107239,39.596844,76.065674,96.665268,111.060677,30.711079,63.723564,82.869186,96.464653,23.161297,47.230053,62.780685,76.581917,-12.18101,-12.649572,-6.817122,-3.575164,19.24396,35.985794,42.552641,45.955768,35.972641,52.182927,58.365748,60.278838,47.041032,64.667131,70.082395,70.27623,53.467397,70.394049,75.333033,75.352669,23.182211,317.61258,-76.438265,300.58898
28,-60.426865,11.573447,0.733452,-1.795764,16.067505,28.835564,39.843979,46.59668,14.977455,44.180031,62.373276,72.145844,3.558083,36.48983,57.686806,74.615593,-4.306297,25.040703,46.543121,62.449036,-10.120068,4.085026,17.054958,28.79837,-22.958,-34.42709,-39.370766,-39.459501,-13.408176,1.913522,10.586305,17.317162,6.276188,22.520869,29.209489,32.813922,21.704035,33.484964,36.604471,38.679964,32.778539,43.752328,43.297166,39.305372,27.376785,52.510242,75.804291,96.115723,49.618664,81.119385,98.52951,111.561813,39.486122,75.219154,96.076126,110.924492,30.231628,62.482567,81.923676,96.025543,22.090874,45.68018,61.037006,74.866791,-12.54367,-12.22442,-5.656832,-2.908691,20.368867,37.088903,44.204279,48.57343,36.791142,53.86754,61.262954,64.807243,47.464084,65.923567,72.778727,74.764373,53.474869,71.204832,77.152508,78.432409,-37.308311,329.220207,-75.768471,298.827395
29,52.952156,-22.930089,0.544167,-0.966023,1.790771,-1.75827,-14.039268,-25.089798,-38.875065,-25.944557,-3.076515,12.743683,-51.887112,-32.043343,-7.501373,14.45343,-57.993851,-43.050785,-16.80027,4.104309,-60.423717,-68.310871,-65.76107,-59.200344,-9.331043,-11.564617,-6.515286,-1.690171,8.344827,33.669103,44.119311,50.218214,25.020711,42.708252,54.074712,61.811174,36.771815,49.808438,58.963492,66.683158,46.276191,58.354572,65.348917,72.219886,27.850628,52.974358,75.959244,95.523262,50.738125,81.084709,97.479172,110.047417,40.328636,74.566383,94.993172,109.747581,30.406437,61.282597,80.780067,95.368881,21.02457,43.875561,58.717747,72.265892,-12.59375,-12.013481,-5.07434,-3.489639,19.626319,37.335102,45.423109,50.733583,36.015125,54.469668,63.353267,68.027588,46.895795,66.61091,75.090415,78.839592,53.381687,71.712359,78.816682,81.540369,15.569572,306.300291,-75.298576,297.871545
30,4.650421,4.000624,0.216408,-9.866851,-16.46656,-38.664265,-58.310909,-77.460594,-58.06509,-55.60421,-36.761856,-20.805702,-55.059071,-42.958317,-20.530014,-1.619225,-48.053398,-33.045902,-11.717377,5.440979,-39.242649,-38.365288,-27.723083,-17.300949,29.281613,45.838936,52.419925,55.382895,30.079614,41.522891,48.367307,52.423568,18.27769,31.533465,41.102865,44.771395,5.967498,19.836949,29.078454,33.343493,-4.954668,6.679295,13.252256,17.552122,28.330479,53.191109,73.324699,90.694542,56.706161,82.580795,96.090317,106.281509,46.796608,73.937531,88.659325,100.446281,34.437504,55.699196,66.697083,74.013634,20.793743,32.723694,37.83474,39.91848,-15.700845,-12.858968,-3.245293,0.015067,12.99698,31.713283,43.814264,53.292149,29.895906,50.41915,62.728539,71.403298,42.718503,63.596502,74.495265,80.818569,51.586171,70.787276,77.334302,77.601249,20.098286,310.322867,-75.203876,288.026646
31,18.351345,-6.178932,3.296528,-15.176955,-23.640346,-48.736238,-70.327492,-87.204008,-63.497229,-78.431883,-75.891151,-71.958418,-57.973623,-69.622049,-67.080402,-62.730017,-49.565563,-58.371763,-55.834865,-52.29495,-40.179434,-52.432022,-53.842049,-53.579149,8.60066,18.105931,27.995229,37.146764,23.851776,38.553407,45.570106,49.708804,26.633756,42.496356,50.421867,54.01111,26.696587,42.530844,49.903966,53.355814,25.428264,38.896678,44.513464,47.874508,28.516216,51.884365,71.369076,86.143513,53.208904,78.365307,91.583805,99.714489,44.873543,68.305035,77.30444,81.178379,32.734509,45.004234,42.65831,37.207775,18.631496,25.430031,22.333088,16.126328,-8.749848,-1.876595,8.637277,14.367221,13.035944,35.236329,50.812685,61.439807,27.744522,55.400308,71.655857,81.276572,41.139915,71.15889,83.953143,90.031915,50.871471,77.25452,84.899221,85.543401,38.355446,304.248911,-72.001534,272.954667
32,18.351345,-6.178931,-18.671436,-76.06249,-30.814133,-58.808212,-82.344074,-96.947422,-68.929367,-101.259556,-115.020447,-123.111134,-60.888176,-96.285782,-113.630791,-123.840809,-51.077728,-83.697624,-99.952354,-110.03088,-41.116219,-66.498756,-79.961014,-89.857349,-12.080295,-9.627074,3.570532,18.910631,17.623938,35.583922,42.772905,46.99404,34.989821,53.459246,59.740868,63.250823,47.425675,65.224737,70.729478,73.368134,55.811196,71.114059,75.774672,78.196893,38.909225,72.928848,93.216248,98.505821,72.945385,107.082138,107.144394,99.531097,57.617283,92.391357,92.090836,84.334145,42.643948,74.002018,74.579945,66.990738,28.732281,57.85429,60.837479,55.370693,-9.684441,3.071898,24.434576,40.676293,19.450762,50.44774,50.871904,45.547351,35.877916,62.95578,58.168085,51.877324,49.027975,71.554648,63.419711,56.059618,59.38957,74.868299,66.790666,59.977866,56.798315,298.716028,-90.581446,197.538225
33,0.7267,-1.557654,-14.143238,-44.720389,-32.319717,-58.773308,-81.438961,-95.453281,-65.536766,-97.481003,-111.781826,-121.693897,-57.747803,-93.008595,-110.50478,-123.366623,-48.445473,-80.622082,-97.649517,-110.419407,-39.260216,-64.105339,-77.926769,-89.786682,-11.944567,-9.188276,6.262542,22.085282,17.516184,34.753379,42.217769,46.740554,35.197303,52.195462,59.240381,63.57242,47.958519,64.947231,71.340313,74.456053,55.950134,70.833836,75.398735,77.677325,36.432238,73.581076,100.27133,111.228791,70.738907,114.381924,118.402577,112.214527,61.429339,105.639782,110.174332,104.148674,51.817189,90.090094,88.813992,79.124394,43.246451,74.64449,74.189558,66.428175,-18.49783,-14.907291,1.681,18.07118,-4.281589,14.26118,19.91954,20.051671,14.829006,30.828383,32.205572,31.032237,31.969114,45.86907,40.854782,36.380239,46.985548,53.088959,46.39364,42.021556,57.564154,297.890641,-104.685545,153.550103
34,-2.268105,2.038505,-14.143238,-44.72039,-31.757812,-57.752495,-80.618248,-94.544907,-63.689461,-96.185818,-110.957394,-121.371574,-55.859184,-91.919231,-109.237862,-122.07756,-46.592216,-79.064884,-95.512676,-107.622929,-37.373886,-62.560158,-76.033287,-87.179604,-14.142326,-11.779879,3.125806,18.423174,16.179658,32.504182,39.998706,44.707545,34.119079,49.895938,56.805562,61.316986,46.868069,62.432445,68.415196,71.372917,54.683386,68.90994,73.047156,74.955923,33.95525,74.233303,107.326412,123.951759,68.532429,121.681709,129.660759,124.897957,65.241394,118.888206,128.257828,123.963203,60.990429,106.178169,103.048038,91.258049,57.76062,91.434689,87.541637,77.485657,-27.311219,-32.886479,-21.072575,-4.533931,-28.013939,-21.925379,-11.032823,-5.444009,-6.219903,-1.299013,6.243059,10.187151,14.910254,20.183493,18.289855,16.700862,34.581527,31.30962,25.996615,24.065247,55.290585,301.778015,-118.834248,110.678582
35,-0.851669,0.258611,3.440083,-54.75551,-31.30188,-56.511383,-79.093952,-93.112278,-62.414818,-94.461823,-109.521847,-120.48666,-54.717522,-90.050697,-107.622929,-120.980988,-45.574837,-77.443085,-94.175491,-106.753006,-36.614799,-61.268005,-74.714928,-85.954514,-13.970104,-11.454146,3.433508,17.687603,15.81249,31.530687,39.057012,43.936591,33.733818,49.321289,56.165643,60.54066,46.333681,62.445228,68.336587,71.167782,53.942937,69.095129,73.047341,74.485385,31.188434,68.950722,100.629352,117.542301,66.853741,118.420841,128.738537,125.589992,64.293354,118.485752,129.075199,125.18494,60.814293,107.111881,105.648479,94.77483,58.126797,93.41962,92.066974,83.832607,-28.275687,-35.573962,-26.397397,-12.135071,-34.217639,-32.107312,-21.354438,-14.982475,-14.212605,-12.498546,-3.96262,1.186268,6.865096,11.048791,12.359511,12.264663,27.754627,25.797756,23.044018,21.903562,53.013668,302.356184,-116.819412,56.242631
36,-0.894928,-0.030937,3.440082,-54.755511,-30.507889,-54.85096,-76.983776,-90.253544,-61.066017,-92.552032,-107.782345,-118.917332,-53.569107,-88.537216,-106.605663,-120.497417,-44.431915,-75.953178,-92.67437,-105.271111,-35.143433,-59.614792,-72.965641,-84.235554,-14.287872,-12.27734,2.634952,18.1059,15.721902,31.310176,39.023235,44.248678,33.325771,48.421153,55.727709,60.595371,45.703024,61.085113,67.432747,70.882989,53.356555,68.03222,72.485906,74.46828,28.42162,63.668141,93.932293,111.132843,65.175053,115.159974,127.816315,126.282029,63.345314,118.083298,129.892571,126.406678,60.638157,108.045594,108.248921,98.291611,58.492974,95.404553,96.592312,90.179558,-29.240154,-38.261444,-31.722218,-19.73621,-40.421338,-42.289245,-31.676053,-24.52094,-22.205306,-23.698079,-14.168298,-7.814613,-1.180063,1.91409,6.429169,7.828464,20.927727,20.285893,20.091423,19.741879,47.830267,304.223007,-117.667803,3.38488
37,0.901108,0.887971,3.440083,-54.75551,-29.920692,-54.291115,-76.722164,-90.814705,-61.586037,-92.610111,-108.076801,-119.658279,-53.986931,-87.98378,-106.044846,-119.947243,-44.791489,-75.505085,-92.267761,-104.769859,-35.436172,-59.557228,-72.729092,-83.586559,-14.526043,-13.356614,0.811894,15.760064,14.635774,30.346499,38.212946,43.79648,32.261873,47.20924,54.691352,59.906483,44.655922,59.825158,66.424054,70.23603,52.253754,66.651542,71.124186,73.239632,25.654804,58.385559,87.235233,104.723385,63.496365,111.899105,126.894092,126.974064,62.397274,117.680843,130.709942,127.628414,60.462021,108.979305,110.849361,101.808392,58.85915,97.389484,101.117649,96.526508,-30.204622,-40.948928,-37.04704,-27.337349,-46.625038,-52.471178,-41.997669,-34.059407,-30.198008,-34.897613,-24.373978,-16.815496,-9.225222,-7.220612,0.498826,3.392265,14.100827,14.77403,17.138826,17.580194,45.024261,306.288713,-117.934833,-50.192896
38,-0.555954,-0.169937,3.440082,-54.755511,-29.548874,-53.654137,-75.812473,-90.448837,-60.072899,-91.258907,-106.799126,-118.332367,-52.541428,-86.738949,-104.719162,-118.44595,-43.591003,-74.491196,-91.292782,-103.835449,-34.486313,-58.461685,-71.592808,-82.630062,-14.759954,-12.837478,1.46262,15.768709,14.813739,30.610605,38.204362,43.387445,32.482754,47.428824,54.352466,59.100764,44.756822,59.977434,66.259674,69.954386,51.946546,66.292772,71.12184,73.850343,22.88799,53.102978,80.538174,98.313927,61.817677,108.638237,125.971871,127.6661,61.449234,117.278389,131.527314,128.850152,60.285885,109.913018,113.449803,105.325173,59.225327,99.374417,105.642987,102.873459,-31.169089,-43.63641,-42.371861,-34.938488,-52.828737,-62.65311,-52.319284,-43.597872,-38.190709,-46.097146,-34.579656,-25.816378,-17.27038,-16.355313,-5.431517,-1.043934,7.273927,9.262167,14.186231,15.41851,41.952782,306.473516,-117.010277,-104.593666
39,-0.128288,1.024439,3.440083,-54.755511,-29.184952,-52.950325,-74.872112,-89.08968,-59.666634,-90.361576,-105.790272,-117.359619,-52.348824,-86.422062,-104.357815,-117.968731,-43.654747,-74.615021,-91.092854,-103.280697,-34.984245,-59.265976,-72.444935,-83.278999,-15.359674,-13.854508,0.444479,14.810034,14.163136,29.533555,36.852461,41.786133,32.073967,46.122988,52.481984,56.620744,44.4724,58.879574,64.549002,67.657518,51.929441,65.631858,69.600124,71.435902,20.121174,47.820396,73.841114,91.904469,60.138988,105.377369,125.049648,128.358135,60.501194,116.875935,132.344685,130.071888,60.109749,110.846729,116.050243,108.841953,59.591503,101.359348,110.168324,109.220409,-32.133556,-46.323893,-47.696682,-42.539627,-59.032437,-72.835043,-62.640899,-53.136338,-46.183411,-57.296679,-44.785335,-34.81726,-25.315539,-25.490014,-11.36186,-5.480133,0.447027,3.750303,11.233635,13.256825,37.838144,307.59194,-117.556543,-159.255192
40,0.067978,-0.151536,3.443298,-8.958209,-28.440285,-52.296066,-74.288177,-88.516617,-58.689423,-89.702682,-105.408955,-116.957874,-51.394386,-86.042519,-104.137917,-117.862644,-42.799759,-74.242401,-90.944767,-103.022861,-34.342232,-59.200516,-72.535172,-83.221722,-15.845835,-14.168632,0.185992,14.459415,14.313251,29.379488,36.691848,41.830964,32.036114,45.558219,51.742893,55.995521,44.372735,58.371738,63.92767,67.272628,51.792726,65.209361,68.85492,70.622217,18.573933,48.210182,78.182087,102.634678,59.573364,105.810642,127.384357,135.573864,65.573902,113.769207,124.541759,123.244114,68.950138,109.563847,103.538647,91.282368,71.046524,101.792965,97.959309,90.717945,-36.701141,-54.155482,-54.925247,-47.960433,-56.995306,-64.49196,-59.349973,-52.009439,-38.986586,-39.418453,-36.829073,-35.51189,-17.774702,-13.25803,-9.736095,-11.427933,2.23626,5.741785,5.747821,3.285415,38.568163,307.506199,-113.451204,-168.147607
41,-0.489807,0.01976,7.561626,-15.001305,-28.132095,-51.861305,-73.874874,-88.455391,-57.980347,-88.954353,-104.854145,-116.93716,-50.735893,-85.57394,-103.949203,-118.044262,-42.129478,-73.628483,-91.044559,-104.301281,-33.615189,-58.468666,-72.626209,-84.502544,-16.097283,-15.082353,-1.141765,13.255035,14.17598,29.208068,36.501163,41.419212,32.420078,45.695922,51.431177,55.198446,44.935898,58.723963,64.089579,67.04693,52.373797,65.501009,69.154286,70.812532,27.947159,54.469986,80.464668,100.890198,69.254436,100.099411,113.589478,124.236488,70.230789,107.168427,128.218803,145.288353,68.95792,102.069397,122.658348,138.414917,64.455585,87.738991,101.378288,113.68515,11.59736,26.41167,37.49854,46.705804,-15.178375,-14.700936,-14.530397,-14.889892,-32.407944,-36.853603,-36.681983,-36.090167,-44.820255,-52.822892,-51.831428,-51.077363,-54.140862,-61.93713,-61.425034,-60.878434,38.814898,307.902544,-105.153036,-182.772327
42,-0.04303,0.406132,13.47559,-9.869229,-27.93251,-51.763573,-73.757286,-88.6726,-58.170433,-89.577599,-105.572662,-117.79026,-50.810738,-85.962868,-104.511967,-118.735485,-42.140808,-74.476776,-92.297974,-105.952778,-33.475342,-58.897018,-73.209801,-85.028114,-16.305196,-15.052404,-1.342516,12.575533,14.269409,28.788845,35.791342,40.456338,32.464723,45.20655,50.432673,53.732491,44.85235,58.087501,63.16357,65.873425,52.196141,65.103336,68.620639,70.229546,19.98848,42.275219,65.293865,83.138866,65.062866,87.694416,87.747517,89.196339,67.327938,92.20499,101.358204,108.057003,66.393127,91.36076,99.965343,106.431141,60.833073,84.503918,96.893978,107.683125,9.671689,23.708422,39.047734,50.62325,-10.767481,-0.630055,2.656796,1.651036,-25.137805,-15.194553,-14.862305,-16.807876,-35.341119,-33.022222,-32.32489,-33.421886,-43.057003,-46.400217,-46.473978,-47.573274,39.439001,308.767513,-91.010313,-192.18272
43,0.224762,-0.191426,23.692589,22.697089,-27.938805,-51.990051,-73.885174,-87.83123,-57.976913,-89.678822,-106.06081,-118.606453,-50.684509,-85.970592,-104.654617,-119.09071,-42.109337,-74.449081,-92.294884,-106.082268,-33.587608,-58.848839,-73.216038,-85.183182,-16.488533,-15.21771,-1.851771,12.780174,14.554572,28.538756,35.043174,39.48556,32.52882,44.967021,50.032716,53.444611,44.70489,57.861309,62.915581,65.875895,51.827615,65.092406,69.100378,71.239968,31.341076,51.547222,70.790462,84.588947,27.37524,58.273602,79.159184,88.957958,19.842339,67.789478,94.50388,104.139233,17.679005,68.210163,84.188519,84.307079,17.282524,59.859982,73.828526,73.423862,-8.713076,-5.890526,-5.244215,-8.23062,-58.562254,-51.305793,-45.025591,-39.112232,-67.649552,-58.79212,-44.598556,-33.752621,-64.661187,-43.837544,-28.382373,-21.377051,-54.77297,-36.135322,-25.061358,-19.919942,40.087166,308.921241,-66.894321,-169.140476
44,-0.94471,0.424472,-9.105587,-3.995756,-27.477951,-51.214256,-73.16185,-88.013935,-57.559547,-89.492455,-105.892296,-118.236809,-50.596161,-86.184711,-104.849339,-119.001961,-42.268181,-74.739933,-92.408295,-105.734196,-33.968582,-59.643631,-73.799458,-85.098839,-17.525631,-16.433452,-2.973715,11.147184,13.295049,27.395138,33.906966,38.37183,31.475235,44.65302,49.654247,52.872432,43.890093,57.582444,62.502285,65.358303,51.220793,64.694363,68.14442,69.857191,27.257824,50.520611,73.423767,89.771958,38.7039,78.971444,96.829186,101.627388,35.073738,88.647538,108.090592,110.418167,34.690514,87.495003,98.990136,94.79435,34.692135,77.704392,88.158303,84.826279,-20.018017,-24.346834,-25.239523,-26.26491,-63.080371,-58.257037,-49.287938,-42.871649,-63.271978,-55.670548,-40.041679,-29.766431,-53.288398,-37.327769,-22.100642,-15.680997,-38.32864,-23.652435,-13.925248,-10.477264,39.245052,309.483833,-75.897313,-172.998112
45,0.649109,-0.702905,-9.105587,-3.995756,-28.078079,-52.022552,-74.299107,-88.729076,-57.884674,-89.897289,-106.463013,-119.18478,-50.625916,-86.43465,-105.339718,-119.58395,-42.002449,-74.756012,-92.694054,-106.081867,-33.633499,-59.82811,-74.376183,-85.880527,-17.107952,-15.922899,-2.120262,12.488959,13.118937,27.381862,34.424496,39.43795,31.65394,45.060634,50.525299,54.017902,44.519762,58.895814,64.039932,66.954243,52.117903,65.880156,69.023252,70.237327,23.174572,49.494,76.057072,94.954968,50.032559,99.669285,114.499188,114.296818,50.305138,109.505597,121.677304,116.697102,51.702023,106.779843,113.791752,105.28162,52.101746,95.548802,102.488079,96.228695,-31.322958,-42.803142,-45.234832,-44.2992,-67.59849,-65.20828,-53.550286,-46.631065,-58.894404,-52.548978,-35.484802,-25.780241,-41.915608,-30.817994,-15.818911,-9.984944,-21.88431,-11.169548,-2.789137,-1.034587,39.514933,308.580919,-85.382128,-177.193878
46,1.80439,0.34395,-9.105587,-3.995756,-28.262444,-52.798805,-75.394764,-88.894043,-58.82309,-90.550461,-106.952477,-119.590874,-51.597748,-87.168732,-105.937786,-120.10437,-42.850914,-75.474358,-93.243084,-106.473827,-34.252281,-60.08709,-74.333382,-85.60873,-17.177544,-16.303961,-2.462483,12.802898,12.498592,26.753736,33.782601,38.630872,31.069658,44.355444,49.859753,53.330682,43.985745,58.198405,63.282934,66.058923,51.83873,65.616173,68.947299,70.309945,19.09132,48.467388,78.690376,100.137978,61.361217,120.367126,132.169189,126.966248,65.536537,130.363655,135.264015,122.976036,68.713531,126.064682,128.593369,115.76889,69.511356,113.393211,116.817856,107.631111,-42.627899,-61.25945,-65.23014,-62.33349,-72.116608,-72.159525,-57.812635,-50.390482,-54.51683,-49.427407,-30.927925,-21.794051,-30.542819,-24.308219,-9.537181,-4.28889,-5.43998,1.313339,8.346973,8.40809,40.350266,308.16063,-95.456772,-181.953872
47,1.249237,-0.754158,-9.201908,-11.692302,-28.32653,-52.743416,-75.174007,-89.0518,-59.181519,-90.401173,-106.525841,-119.116116,-52.117424,-86.916161,-105.55212,-120.158329,-43.427353,-75.104885,-92.911091,-106.55405,-34.761772,-60.108833,-74.620857,-86.567345,-17.011127,-16.540774,-3.071095,11.793402,12.826857,27.01315,34.067702,38.966054,31.239719,44.082014,49.803992,53.73175,44.167476,58.000618,63.326962,66.400465,52.105492,65.475876,68.855167,70.190952,21.385345,50.350685,77.665443,96.993656,65.696697,116.814938,127.45142,123.16,70.224781,128.342686,133.254948,122.642269,73.5042,125.244083,130.405025,121.557484,73.766384,111.43301,115.118694,108.896885,-31.950111,-41.891634,-37.645645,-28.456859,-60.268541,-61.351057,-43.21141,-32.066402,-47.004197,-38.981383,-18.837071,-9.006637,-25.638061,-14.407622,2.082255,8.839201,-1.13772,10.235084,19.48718,21.654063,41.144829,306.996187,-105.113354,-194.056459
48,1.21685,0.07373,-11.291599,-10.278402,-27.933769,-52.376633,-74.621029,-88.450356,-58.899651,-90.188828,-106.479492,-119.054546,-51.786346,-86.722641,-105.584335,-120.392361,-43.043404,-74.807625,-92.600098,-106.111507,-34.241066,-59.699364,-74.210815,-86.245823,-16.772091,-16.136432,-2.492494,12.043492,13.179205,27.570262,34.575229,39.407199,31.562982,44.039097,49.778427,53.910024,44.380453,57.440727,62.852595,66.145312,52.154954,64.941365,68.6136,70.356505,22.50824,52.651806,78.38625,96.088715,69.245682,113.06488,126.5205,127.377319,71.77248,122.74601,132.950821,128.079071,70.405827,114.521828,125.960999,124.603157,66.375217,96.428146,106.123466,107.469406,-22.929148,-27.014169,-19.137086,-11.595909,-41.490025,-47.03092,-33.718071,-22.136288,-27.949749,-26.451067,-12.192742,-0.519383,-7.892737,-3.670599,8.813081,17.86813,13.706893,19.131991,25.464388,29.498172,41.893873,307.146349,-116.872759,-204.25843
49,1.446533,0.219831,-13.320351,-5.458335,-27.542839,-52.253494,-74.97694,-89.58807,-58.123741,-89.952049,-106.422787,-118.975525,-51.101418,-87.180576,-106.364994,-121.100922,-42.542381,-74.958057,-93.063869,-106.697903,-34.131432,-60.122566,-74.837666,-86.777458,-17.041508,-16.34941,-2.908074,11.908752,12.98605,27.01068,34.118646,39.449621,31.391625,43.990438,49.642453,53.77899,44.309008,58.044276,63.588042,67.116893,52.173973,65.602958,69.35516,71.32469,17.608051,45.737858,69.707279,84.640217,67.554245,110.543633,133.4095,146.61232,65.973186,114.333229,134.352493,144.553757,60.683041,101.149235,106.860809,107.742577,53.918495,81.752644,84.706993,85.206985,-22.538067,-26.159682,-17.771552,-8.55589,-32.609791,-33.567864,-26.690813,-20.41447,-18.409712,-14.175996,-4.070572,4.446477,0.215324,10.644891,17.877979,21.10308,19.507511,30.086607,34.062191,35.852166,42.549763,307.213008,-130.983753,-209.869937
50,1.022758,-0.074903,-32.304811,15.366235,-27.260857,-51.8153,-74.47546,-88.420944,-57.668266,-90.131664,-106.980457,-119.737759,-50.466156,-87.11277,-106.46347,-121.12896,-41.839943,-75.02924,-93.512592,-107.340775,-33.467903,-60.120621,-75.144367,-87.296848,-17.036321,-16.484952,-3.386269,11.712448,12.495505,26.821106,34.137604,39.482719,31.107696,44.083557,49.929901,53.990793,44.181802,57.859766,63.517771,66.953069,52.279257,65.514902,69.236476,71.025015,16.860237,43.139934,66.114092,79.818649,60.822973,101.330166,122.731705,136.148872,62.844114,106.77,127.467756,138.876829,61.693868,92.077589,89.590988,85.267553,58.713627,80.158853,77.780428,74.545498,-23.971309,-31.095709,-24.973186,-17.318296,-40.217032,-43.586127,-40.61719,-38.355288,-25.82802,-27.110345,-23.606071,-19.618499,-8.286341,-3.361322,1.321922,3.419692,9.921671,12.725857,14.50149,15.864036,43.131351,306.84476,-163.729734,-194.797047
51,0.409012,0.287695,-32.304812,15.366235,-27.009888,-51.604385,-74.247837,-88.236637,-58.002777,-90.459194,-107.120361,-119.656105,-50.715637,-87.301426,-106.424561,-120.941219,-41.945801,-75.124054,-93.439007,-107.237892,-33.23822,-59.651527,-74.469509,-86.492443,-17.079732,-16.464018,-3.237574,11.728626,12.790795,27.336166,34.591963,39.965608,31.109178,44.256582,50.020736,54.322455,43.97852,57.655866,63.471643,67.319064,51.976186,65.114698,69.095994,71.409164,16.112423,40.542011,62.520905,74.997082,54.091702,92.116699,112.053909,125.685425,59.715042,99.206772,120.583019,133.199902,62.704697,83.005943,72.321167,62.79253,63.508759,78.565063,70.853863,63.88401,-25.404552,-36.031736,-32.174821,-26.080703,-47.824274,-53.60439,-54.543568,-56.296106,-33.246329,-40.044694,-43.14157,-43.683476,-16.788007,-17.367535,-15.234135,-14.263697,0.33583,-4.634893,-5.059211,-4.124094,43.237238,305.812601,-196.337671,-180.750665
52,1.169128,0.159131,-8.360653,8.451161,-27.291412,-51.824799,-74.70892,-88.815479,-57.848053,-90.059166,-106.653042,-118.979416,-51.149597,-87.479725,-106.704884,-121.374664,-42.797928,-75.496216,-93.498116,-106.770115,-34.533691,-60.796967,-75.353966,-86.943626,-17.074483,-16.308531,-2.673175,12.848161,12.523972,27.17895,34.332488,39.588436,30.680445,44.047433,49.804239,53.929784,43.539289,57.632833,63.208216,66.743983,51.484406,64.963039,68.800271,70.784559,9.786644,30.882511,50.60297,62.610397,45.49902,82.72522,102.056007,115.715904,50.721817,88.838539,109.471893,123.341618,53.837299,73.362579,60.692654,50.965748,55.27771,70.824852,60.742722,52.996902,-25.154679,-38.09667,-35.776552,-30.979101,-49.442505,-54.687848,-56.07788,-58.213981,-35.783268,-45.404213,-47.5474,-48.182627,-19.656746,-16.022179,-11.896201,-11.057693,-2.007984,-1.921333,-0.78369,-0.54382,45.719604,304.20124,-203.385086,-174.069996
53,1.070023,0.116091,-10.455379,5.024847,-27.25502,-51.519585,-74.077606,-87.627754,-58.419228,-90.133095,-106.578026,-118.821602,-51.479988,-87.166214,-106.233044,-120.900249,-42.894745,-75.184078,-92.914295,-105.870495,-34.34761,-60.455589,-74.723053,-86.059399,-16.421596,-15.684419,-2.261115,12.897068,13.248613,27.668075,34.783328,40.147216,30.976106,43.757268,50.067481,54.818743,43.543735,56.999335,63.003019,67.003458,51.309035,64.493612,68.562038,70.781965,10.111599,28.830757,47.840366,59.475803,41.220016,76.338501,94.776535,107.738628,44.901524,81.83939,102.5984,117.463131,46.606522,69.128551,57.126675,47.24905,47.609539,67.730255,58.472099,49.899044,-23.261519,-35.266386,-32.518693,-28.075489,-44.996522,-53.482541,-56.126632,-59.201293,-32.126563,-44.315554,-46.56685,-47.041124,-16.726627,-13.791877,-8.225031,-6.89678,0.682635,1.050375,2.75711,2.668282,47.379398,303.675975,-213.250694,-169.686504
54,-0.33577,0.147707,-8.282948,6.826863,-27.070198,-51.343575,-73.541393,-87.057552,-58.18428,-89.675846,-106.051254,-118.085632,-51.095695,-86.703129,-105.753937,-120.358887,-42.489166,-74.803162,-92.592201,-105.859909,-33.75515,-59.584122,-74.036236,-85.94553,-16.690395,-15.718073,-2.027822,13.15716,13.348093,28.572039,36.042604,41.439034,31.393601,44.333832,50.256129,54.514066,44.108134,57.346249,63.039637,66.736079,51.876151,64.960631,69.49978,72.285465,10.53566,28.222275,46.612587,58.301182,37.561741,71.706104,91.025562,105.43745,39.187317,75.812759,98.632793,115.485363,39.411335,66.024685,55.939808,46.393776,39.572124,64.394302,56.578159,47.75013,-21.074999,-32.5588,-30.334519,-26.178099,-45.094057,-54.192347,-57.197014,-61.144687,-33.273484,-45.476168,-47.142503,-47.787779,-18.266714,-13.802329,-7.124407,-6.25314,-0.93115,1.077143,3.856051,3.983581,48.385763,303.598865,-220.191507,-163.084459
55,-1.220055,0.068296,-7.028847,4.866334,-27.346573,-51.495438,-73.493214,-86.829586,-57.496948,-88.73045,-104.742794,-116.588573,-50.418777,-85.676365,-104.308319,-118.613091,-41.885605,-73.747501,-90.963421,-103.763638,-33.160515,-58.722038,-72.834206,-84.391022,-16.678416,-15.341643,-0.952624,14.790335,14.256503,29.434569,36.871542,42.259759,32.15344,45.468681,51.622789,56.025778,44.676485,58.065271,63.779407,67.445282,52.383368,65.596104,70.146739,72.921741,9.777203,26.923542,44.545269,55.99577,37.429504,70.622807,91.121006,107.172661,39.481144,75.184479,99.493561,117.72131,40.398045,67.934132,58.347416,48.536625,41.248341,66.477184,58.732624,49.49049,-20.596819,-31.637484,-30.346422,-26.520629,-44.582007,-54.049981,-57.632246,-61.750011,-32.501588,-44.559915,-48.066598,-49.470061,-17.575773,-14.732954,-8.569027,-6.88267,-0.498527,-0.378314,2.407402,3.397137,48.175964,303.752515,-226.210098,-158.132771
56,-0.144424,0.508947,-2.847118,3.232233,-27.447281,-51.63002,-73.837738,-87.570705,-57.661285,-88.69257,-104.955769,-117.283058,-50.473137,-85.406342,-104.395523,-118.832531,-41.839828,-73.221588,-90.85247,-104.158173,-33.039894,-58.303871,-72.376328,-83.79221,-16.271542,-15.075252,-0.952191,14.400752,14.568157,29.428888,36.745571,41.956626,32.49776,46.290332,52.224052,56.168113,44.9296,59.484542,65.011019,68.121017,52.406154,66.166925,70.050902,71.926818,8.376617,25.299969,42.817268,55.980377,37.51894,70.361423,91.513882,107.527657,40.794353,77.260151,102.399445,121.039066,42.742424,69.999905,61.278191,51.500759,43.988914,67.961426,60.705299,51.37001,-19.784045,-30.714454,-32.002074,-29.278294,-46.269151,-55.613579,-60.0951,-64.369108,-34.621881,-46.026194,-50.969994,-54.138037,-19.868272,-17.082989,-11.081775,-9.624836,-3.010147,-3.239272,0.180496,1.974207,48.530445,304.248155,-228.558311,-154.913845
57,0.081596,0.202603,-0.619469,0.004029,-27.415466,-51.292648,-73.385811,-87.439957,-58.347702,-89.029541,-104.993649,-117.093773,-51.136208,-85.567818,-104.196568,-118.312454,-42.37072,-73.533154,-91.03672,-104.393749,-33.340302,-58.098221,-72.148876,-83.610764,-15.871832,-14.908464,-1.095885,14.195802,14.551485,29.25821,36.663257,42.20758,32.40569,46.23031,51.979212,55.954086,44.85976,59.574883,65.238137,68.663618,52.367684,66.355572,70.453021,72.600453,8.680801,26.47768,43.799114,56.022549,38.570023,71.91885,92.97781,109.425087,41.636639,79.021854,104.447365,123.590355,43.407383,72.637653,63.451653,52.962742,44.502583,70.076294,62.714825,52.898712,-19.638931,-30.437982,-31.337485,-29.092919,-47.08736,-55.36193,-59.453297,-63.099566,-35.171043,-45.031596,-49.70638,-52.497931,-20.104128,-16.92764,-10.874078,-9.426077,-2.914589,-2.843931,0.395758,1.990416,48.953876,304.37621,-228.835945,-154.984364
58,-0.287933,-0.085648,0.005894,0.081649,-27.685776,-51.572914,-73.275547,-86.117878,-58.434334,-88.965511,-104.836864,-116.999245,-50.995903,-85.328121,-103.849926,-118.133183,-41.990433,-73.427753,-90.743408,-103.760834,-32.783775,-58.000145,-72.034206,-83.458843,-15.985885,-14.952924,-1.330536,13.981714,14.67832,29.397889,36.836467,42.330525,32.499674,46.054569,52.232389,56.660696,45.01179,59.240505,64.93062,68.450517,52.645622,66.39077,70.617154,72.886667,8.417645,26.162739,43.360691,55.485077,39.597759,72.447796,93.299503,109.609737,42.708664,79.591484,104.718533,123.689518,44.340019,73.464317,64.367294,54.050732,45.210342,70.922012,63.914566,54.303932,-20.18553,-30.808176,-31.564402,-29.172299,-47.489756,-55.868562,-59.986373,-63.418846,-35.597028,-45.474408,-50.118718,-52.807409,-20.458189,-17.461905,-11.455165,-10.026183,-3.152173,-3.273698,-0.308675,1.187877,49.200182,304.110992,-228.295813,-155.082285
59,0.219727,0.482888,-0.262413,-0.755532,-27.692184,-51.762199,-73.519421,-86.577072,-58.47084,-88.351192,-104.11869,-116.079597,-51.133232,-85.113773,-103.446007,-117.555943,-42.305603,-73.43502,-90.56963,-103.342667,-33.318443,-58.219528,-72.284317,-83.903961,-16.600919,-15.768215,-1.826207,13.986592,14.491093,29.19047,36.810223,42.395363,32.578282,45.818867,51.955006,56.338235,45.12294,58.689135,64.197766,67.653134,52.740101,66.182733,70.547067,73.025728,9.83757,28.312283,46.33976,58.731823,40.876579,72.698765,93.329201,109.383545,43.183193,79.878502,105.012417,123.863297,44.303684,74.387856,65.45517,54.959908,44.884243,71.773796,65.014858,55.287037,-20.582694,-31.511112,-32.509971,-29.796812,-47.721351,-56.411564,-60.620333,-63.946411,-35.925988,-45.879105,-50.573834,-53.087864,-20.710702,-17.394582,-11.666629,-10.567966,-3.105413,-2.970318,-0.47412,0.679038,49.795189,304.551303,-228.182945,-155.880394
60,0.066719,0.104914,0.280094,-0.535314,-28.144684,-51.763344,-73.119564,-86.240158,-58.011131,-87.719765,-103.687534,-116.109638,-50.455399,-83.822193,-102.157345,-116.636696,-41.66954,-72.158604,-89.247723,-102.436752,-32.869949,-57.337189,-71.195297,-83.007431,-15.405431,-14.621633,-0.680922,14.736612,14.761621,29.951605,37.392406,42.508798,32.768968,46.519364,52.944618,57.184648,45.241872,59.232971,64.893508,68.077606,52.936405,66.924356,71.377795,73.564995,10.024109,28.050213,45.819511,58.119507,40.563126,72.93623,93.676815,109.780598,42.965813,80.151787,105.608997,124.777279,44.258194,74.388485,64.827061,54.229202,45.198326,71.552181,63.752232,53.806973,-20.903008,-32.021865,-32.988691,-30.348676,-48.167699,-56.901739,-60.934133,-64.11712,-36.310199,-46.698363,-51.144918,-53.61745,-21.07574,-17.743749,-11.742613,-10.754158,-3.457838,-2.856867,-0.018278,1.030198,50.376692,304.651369,-227.388067,-156.420555
61,-1.559944,1.011225,0.025921,0.516851,-26.79966,-50.420952,-72.093086,-85.780048,-56.8713,-87.596855,-103.426723,-115.359993,-49.522705,-84.145031,-102.468796,-116.341267,-40.675735,-71.643734,-89.079838,-102.548161,-31.520462,-56.232262,-70.661488,-82.92429,-16.540898,-16.080548,-2.566841,12.994386,14.533083,29.682435,36.841099,41.90031,32.590632,46.502939,52.235723,56.066657,44.987275,59.433166,65.169718,68.514676,52.492358,66.705821,71.389096,73.968596,9.371853,26.889439,43.799286,55.739422,40.253735,72.778873,93.691578,109.872322,43.397312,80.603027,106.187954,125.634556,45.242615,74.677563,65.477085,55.119381,46.561546,71.946659,64.45713,54.62122,-20.708649,-31.51829,-32.245062,-29.89444,-48.130386,-57.570696,-61.948476,-65.506072,-36.680856,-47.399879,-52.027177,-54.831433,-21.802866,-18.895842,-12.563137,-11.259138,-4.452297,-4.12959,-0.839605,0.660205,49.166479,305.643637,-227.012415,-155.922662
62,1.08181,0.169258,-0.202789,-0.199392,-27.293472,-51.344376,-72.999573,-85.19743,-57.163925,-87.501926,-103.490295,-115.649071,-49.818306,-84.298553,-102.878094,-117.058067,-41.061401,-72.431831,-89.83326,-102.852402,-32.319374,-57.669868,-71.946087,-83.566589,-16.591595,-15.807982,-1.652873,14.786136,14.063039,28.946061,36.22026,41.41032,32.159244,45.456948,51.576723,55.896411,44.726688,58.662706,64.436308,67.904273,52.597828,66.141546,70.618759,73.176955,9.350224,27.369633,44.846363,56.799316,40.561123,73.610172,94.62822,111.032124,43.295689,80.897713,106.598969,126.091518,44.733238,75.088863,65.847816,55.365601,45.564823,71.909924,64.699001,54.973297,-20.581659,-31.15032,-31.951886,-29.465892,-47.993887,-56.919924,-61.222569,-64.733791,-36.089195,-46.790309,-51.712558,-54.598263,-20.925254,-18.2874,-12.377994,-11.117019,-3.571551,-3.45546,-0.439786,1.080046,50.459318,305.80533,-227.004175,-156.129618
63,0.361633,-0.054155,0.244331,-0.302284,-27.114029,-51.224213,-72.924557,-85.552998,-58.120537,-87.848167,-103.693714,-115.597,-50.829506,-84.604225,-103.137245,-117.288151,-41.833076,-72.5564,-90.002918,-103.184109,-32.458763,-57.209702,-71.582222,-83.526936,-17.049783,-16.425671,-2.506387,13.964547,14.237916,29.157248,36.454294,41.617431,32.344495,45.558342,51.525408,55.642432,44.861366,58.630781,64.245808,67.462696,52.517243,66.252017,70.993275,73.560178,9.166718,27.232418,44.733353,56.635208,40.770264,73.995667,95.046902,111.532116,43.6619,81.111031,106.767712,126.302547,45.167141,75.654659,66.35994,55.787888,45.942192,72.558575,65.354176,55.566559,-20.896972,-31.868616,-32.724677,-29.782779,-48.111089,-56.636598,-60.664732,-63.853832,-36.169146,-46.582982,-51.372962,-54.231836,-20.826314,-18.310387,-12.405766,-11.14933,-3.22808,-3.223881,-0.301481,1.221855,50.97024,305.745046,-226.610556,-156.438031
64,1.178169,0.274789,0.105972,-0.342051,-27.306404,-51.384201,-73.086491,-84.72559,-58.816452,-88.616753,-104.307976,-115.968475,-51.600609,-85.130768,-103.487606,-117.285805,-42.614937,-72.979832,-90.101738,-102.848282,-33.232841,-57.687492,-71.598129,-83.046513,-16.515456,-15.904498,-1.934332,14.974228,13.607568,28.384688,35.940654,41.589582,31.484374,44.856487,51.341083,55.999534,44.043111,58.080091,64.05716,67.697409,51.836445,65.678973,70.606841,73.442482,9.833221,28.097591,45.603046,57.40099,41.291656,74.567013,95.554733,111.947021,43.970261,81.654396,107.304153,126.710014,45.323467,75.878162,66.405945,55.741768,46.100121,72.730408,65.289917,55.433807,-20.646899,-31.604355,-32.223418,-28.878429,-47.852108,-56.278739,-60.323514,-63.659735,-35.926143,-46.113247,-50.934364,-53.842345,-20.594812,-17.934296,-12.024472,-10.830405,-2.957829,-3.079092,-0.083533,1.349771,52.19264,305.991786,-226.460352,-156.808132
65,0.286674,-0.499252,0.591087,0.158374,-27.524071,-51.334763,-73.12088,-85.794239,-58.810043,-88.577957,-104.016781,-115.616283,-51.351929,-84.836426,-103.016796,-116.943913,-42.14653,-72.477379,-89.462471,-102.22229,-32.551804,-56.805496,-70.62458,-82.052708,-16.513048,-16.012376,-2.187817,14.027903,13.812826,28.853065,36.435398,42.015289,31.813195,45.20902,51.693061,56.47668,44.395706,58.372232,64.365974,68.244456,52.069182,65.847861,70.60468,73.378817,9.48246,27.294502,44.561634,55.897808,40.596886,73.9044,94.777336,111.09026,43.577156,81.551628,107.159729,126.499615,45.239697,75.890408,66.309414,55.658169,46.226692,72.731609,65.20752,55.315189,-20.958754,-31.834036,-32.703126,-29.517639,-48.097133,-56.844697,-60.913231,-64.324926,-36.352637,-46.615355,-51.473677,-54.401619,-21.07151,-17.797827,-11.574945,-10.357196,-3.444114,-2.813333,0.359017,1.580409,52.572355,305.459435,-225.776224,-156.682856
66,0.322151,-0.0381,1.112709,-0.755408,-27.263603,-51.136093,-73.022461,-86.222191,-58.343582,-88.412933,-104.101868,-115.963268,-51.150055,-84.627914,-103.046551,-117.268181,-42.127876,-72.472458,-89.673271,-102.730122,-32.555695,-56.553154,-70.33287,-81.924763,-16.221771,-15.814095,-2.375044,13.199212,14.056617,29.004292,36.60515,42.357695,31.884269,45.384021,52.069676,57.111351,44.282517,58.097937,64.576852,69.031094,51.776115,65.455684,70.654204,74.012809,9.954185,28.186512,46.046734,58.391018,41.17178,73.89473,94.596119,110.62849,44.272957,81.689358,107.250423,126.489658,45.819855,76.195679,66.761055,56.068668,46.486931,73.19355,65.957451,56.046181,-20.928342,-31.731993,-32.402803,-29.160721,-48.313152,-56.954705,-61.050456,-64.257911,-36.337107,-46.124501,-50.776376,-53.365802,-20.903333,-17.443071,-11.583281,-10.554272,-3.215622,-2.558057,0.233818,1.322617,52.939138,305.394675,-224.618883,-157.464925
67,0.215034,0.06138,0.336113,0.523736,-27.214966,-51.05381,-72.907219,-85.699539,-57.72995,-88.266563,-104.227638,-116.161308,-50.347252,-84.515533,-103.006554,-117.181377,-41.303787,-72.434578,-89.946213,-103.264904,-31.84742,-56.480026,-70.743484,-82.763786,-16.403441,-16.229676,-2.872814,12.992287,13.966338,29.044986,36.833503,42.571105,31.94639,45.232053,51.747833,56.625498,44.357914,57.89626,64.283723,68.671954,51.83416,65.270062,70.245478,73.413459,9.841175,27.98624,45.61924,57.523155,40.931339,73.855305,94.609051,110.772686,43.674545,81.372643,106.730862,125.856113,45.097561,75.681839,66.340885,55.820675,45.827923,72.675018,65.475998,55.54018,-21.009821,-31.773566,-32.739605,-30.161726,-48.553917,-57.274742,-61.29755,-64.645348,-37.002252,-46.935408,-51.514617,-54.170009,-21.923202,-18.174567,-12.145951,-11.068345,-4.487294,-3.541834,-0.603487,0.594826,53.184786,305.451578,-224.252157,-156.945665
68,-0.583649,0.409961,0.494041,-0.234389,-26.715317,-50.563545,-72.583237,-85.703144,-57.396698,-87.981663,-103.97707,-115.992851,-50.062866,-84.474163,-102.925301,-116.988602,-41.12812,-72.534256,-90.247993,-103.785152,-31.772804,-56.787186,-71.353683,-83.637371,-16.894233,-16.803646,-3.829946,11.91573,13.567615,28.316701,35.982521,41.694681,31.627141,44.933305,51.092044,55.700107,44.265165,57.759483,63.671776,67.683392,52.075604,65.462538,70.235536,73.182204,9.801178,28.204136,46.020012,58.107147,41.126518,74.428539,95.745964,112.616844,44.299679,81.680546,107.395363,127.069302,45.967598,76.268005,66.989994,56.308651,46.814976,73.201046,66.091805,56.31752,-20.869354,-31.371988,-31.698879,-28.224817,-48.102706,-56.496301,-60.402061,-63.601658,-36.080874,-46.314306,-51.1912,-53.942705,-20.885317,-17.796855,-11.900262,-10.713465,-3.53535,-3.433292,-0.553793,0.821003,52.639246,305.832454,-223.720007,-157.209139
69,-0.013847,0.22261,0.397396,-0.201785,-26.99913,-50.671806,-72.575798,-85.478153,-57.340164,-87.846737,-103.808899,-115.805912,-50.006218,-84.249516,-102.737045,-116.876564,-41.172981,-72.206612,-89.766426,-103.098335,-32.035675,-56.630287,-70.89386,-82.853279,-16.745785,-16.749676,-3.692057,12.090731,13.31413,27.94237,35.540573,41.259217,31.386376,44.493148,50.716416,55.386785,44.005814,57.492783,63.429714,67.508453,51.762098,65.329836,70.065105,72.985467,9.605141,27.840614,45.285873,57.495975,41.032619,74.341164,95.47514,111.932144,43.843517,81.534405,107.221928,126.426888,45.304298,76.536827,67.503662,56.868668,46.031799,73.643532,66.774158,56.780319,-20.862809,-31.409702,-32.557735,-30.107772,-48.247758,-57.030921,-61.071698,-64.121659,-36.357145,-46.727401,-51.457545,-53.840755,-21.041901,-18.114097,-12.097214,-10.77625,-3.468675,-3.1734,-0.431296,0.830265,52.629519,306.04398,-223.318491,-157.422008
70,0.624504,0.479862,0.659466,-0.00954,-26.86924,-50.599136,-72.415924,-85.300655,-57.259026,-87.775497,-103.855534,-116.111469,-50.128441,-84.334488,-102.997112,-117.353783,-41.369247,-72.356987,-89.977112,-103.348103,-32.179413,-56.74839,-70.940437,-82.717381,-16.735658,-17.207061,-4.534518,10.976877,13.013344,27.088732,34.564361,40.227553,31.198469,43.988585,50.342888,55.10156,43.854093,57.402751,63.599837,67.829061,51.661815,65.305383,70.177923,73.087047,9.37603,27.640514,45.564938,58.115845,41.017799,74.55637,95.743847,112.277298,44.333897,81.977348,107.698059,127.280846,46.032772,76.616993,67.111874,56.482887,46.863499,73.462372,65.945663,56.08881,-21.318373,-32.423459,-33.406819,-30.579931,-48.561512,-56.412537,-60.173214,-63.20712,-36.496207,-46.360465,-51.23847,-53.9949,-20.977109,-17.501888,-11.489976,-10.144466,-3.113749,-2.537463,0.282338,1.607518,53.259602,306.454852,-222.653446,-157.500539
71,-0.258408,-0.208655,0.154095,-0.001065,-26.802292,-50.671463,-72.456894,-85.593567,-57.304688,-87.778702,-103.623562,-115.692616,-50.017204,-84.039173,-102.548161,-116.941795,-40.99205,-71.904488,-89.725513,-103.587627,-31.359444,-55.938034,-70.437698,-82.732601,-16.934001,-17.186004,-4.177168,11.220297,13.164076,27.847645,35.294189,40.96652,31.238113,44.128759,50.397043,55.19011,43.843348,57.288574,63.618918,68.110581,51.580798,65.03047,70.148345,73.498737,10.112114,28.635464,46.564865,59.259624,41.612949,74.591732,95.35738,111.342945,44.582005,81.982727,107.473297,126.75642,45.908546,76.006908,66.602325,56.178818,46.43343,72.490025,65.225086,55.59454,-21.373608,-32.156681,-32.511839,-29.413759,-47.684687,-56.533274,-60.746829,-64.040117,-35.475751,-46.022536,-50.971245,-53.872958,-20.055083,-17.564534,-12.064085,-10.841396,-2.565081,-2.696579,-0.058848,1.268755,53.000822,306.260709,-222.499723,-157.487093
72,0.782661,-0.396005,0.039883,-0.157186,-27.3983,-51.351013,-72.917175,-86.686192,-57.758904,-87.84462,-103.786411,-116.166,-50.360069,-83.634624,-102.205353,-117.050514,-41.287193,-71.422348,-88.911037,-102.714901,-31.571274,-55.388145,-69.490814,-81.609707,-16.304579,-15.828421,-2.215728,12.531073,14.308805,29.208933,36.442006,41.706475,32.139422,45.162646,51.423767,56.196642,44.452207,58.073175,64.584756,69.120509,51.706152,65.265739,70.59091,74.028185,10.32526,28.916016,46.856804,59.126587,41.770077,75.023632,95.976391,112.062435,44.714699,82.531929,108.216362,127.492447,46.149502,76.397209,66.992626,56.290684,46.843357,72.980919,65.764503,55.89283,-20.783629,-31.476377,-31.917013,-28.728283,-47.465411,-55.817108,-59.627958,-62.725559,-35.379482,-45.401265,-50.021338,-52.786089,-19.997377,-16.447222,-10.557545,-9.369158,-2.456555,-1.624175,1.271673,2.496523,53.785458,305.865892,-222.457867,-157.64309
73,0.103912,0.159069,1.072769,2.011412,-27.29908,-50.978279,-72.78717,-88.664474,-56.743011,-87.194824,-103.604279,-116.602364,-49.235916,-83.439846,-102.253475,-117.045937,-40.309753,-71.369476,-89.317074,-103.255806,-31.051025,-55.780106,-70.514832,-83.04039,-16.485816,-15.832991,-2.564433,10.82849,13.9396,28.621501,35.646599,40.90619,32.323624,45.531358,51.400487,55.595563,45.107935,59.159179,64.987739,68.627432,52.731394,66.931395,71.48697,73.734808,9.2276,27.177887,45.119877,58.080425,40.78022,74.154053,94.975033,111.106281,44.6628,81.766548,106.734467,125.393944,46.748428,76.804161,67.338982,56.605968,47.622185,73.685818,66.479874,56.697006,-21.136379,-32.234549,-32.972003,-29.67663,-48.21131,-56.562559,-60.001934,-62.788035,-36.321608,-46.870786,-51.468675,-54.124807,-21.023051,-18.713617,-12.655716,-10.957549,-3.406184,-3.692922,-0.766106,0.891707,53.855267,305.961482,-221.419201,-155.695158
74,0.574951,0.769719,0.916214,2.357384,-27.368889,-51.416473,-73.433418,-90.193291,-56.744499,-87.413635,-103.743324,-116.790504,-49.322319,-83.650017,-102.178402,-116.683273,-40.515747,-71.717834,-89.849339,-104.080982,-31.266289,-55.431633,-70.157433,-83.024254,-16.756345,-16.526263,-4.432692,7.436849,13.538469,27.810471,34.689652,39.790669,31.802635,44.364089,49.707414,53.413118,44.551625,58.24515,64.477495,68.451628,52.090795,66.116845,71.290233,74.469083,9.29575,27.307835,44.937057,57.428112,40.900784,74.379387,95.450649,111.822681,45.497761,82.7635,108.119888,127.338409,48.004589,76.990814,67.37915,56.658955,49.246902,73.564739,66.594944,57.282314,-21.28194,-31.750178,-31.491521,-27.023879,-47.37504,-55.860889,-59.728611,-62.556594,-35.284216,-45.668382,-50.668791,-53.571693,-20.11109,-17.430474,-11.748325,-10.25449,-2.803345,-3.188205,-0.269386,1.506741,54.432278,306.718835,-220.500927,-153.350139
75,1.635017,-0.025132,1.759529,4.354562,-26.71154,-51.033783,-73.545799,-90.144138,-56.707649,-87.472401,-104.373264,-117.99242,-49.597435,-83.676395,-102.819042,-118.156071,-41.001778,-71.613121,-89.991589,-104.469051,-31.891708,-55.945587,-70.569992,-83.449116,-16.892937,-17.402069,-5.950764,6.001029,12.779557,26.974679,33.891281,39.180328,31.23342,43.498843,49.380384,53.737802,44.268376,57.663955,64.086677,68.313246,52.038245,65.962408,71.138512,74.369356,9.74699,28.672943,46.991901,59.590988,41.222363,74.663372,95.761757,112.185059,45.724812,82.584629,107.549973,126.746349,48.239994,77.346954,67.237415,56.599731,49.577694,73.193321,65.463238,56.294174,-21.559137,-32.4847,-32.005655,-27.190652,-48.195919,-56.255907,-59.783986,-62.278733,-35.736677,-46.554114,-51.648724,-54.598572,-20.106289,-17.089473,-11.637807,-10.199856,-2.30911,-2.7587,0.035352,1.61817,56.085148,306.707102,-218.723545,-148.982178
76,-0.093613,0.018896,3.458118,6.021159,-26.047096,-50.096741,-72.524643,-89.916458,-56.106033,-87.352066,-104.315014,-117.745514,-49.004173,-83.711529,-102.77195,-117.921181,-40.569191,-71.728249,-90.272198,-104.795666,-31.757812,-56.382294,-71.15078,-83.887253,-17.267021,-17.911448,-6.9384,4.129188,12.984568,26.509637,33.054069,37.886471,31.415646,42.968345,48.210029,52.366881,44.232993,57.100606,63.102067,67.312889,51.706337,65.069126,69.946668,73.070745,10.710812,30.463772,48.964405,61.905384,42.719021,76.51062,98.083534,115.068398,46.60017,83.545704,108.570843,127.684765,48.773403,77.748184,68.206043,57.654362,49.741058,74.417324,67.912502,59.151192,-21.712495,-31.739573,-30.480003,-24.810698,-47.941028,-54.523082,-58.286276,-60.476501,-34.261475,-44.903896,-50.350406,-53.602924,-17.75931,-16.687555,-11.951561,-10.720319,0.756087,-2.593471,-0.584252,1.363928,56.004982,306.743381,-215.25198,-142.943636
77,1.345482,0.086636,8.840733,18.503928,-26.109581,-50.463524,-73.570862,-91.166153,-56.490211,-88.043003,-105.444431,-119.146328,-49.646187,-84.383011,-103.885803,-119.20063,-41.483917,-72.404366,-91.399555,-106.168785,-32.978439,-57.972107,-73.158188,-86.110268,-18.581872,-19.865725,-8.922935,3.314515,11.342624,24.557521,31.139745,36.484922,30.035339,41.536847,46.685411,50.871842,43.186509,56.228567,62.160805,66.274679,50.99738,64.187948,68.81009,71.825362,9.116249,28.458424,47.784977,60.810642,42.734699,75.749245,97.445354,114.349365,48.369026,84.705734,109.793873,127.526493,51.382141,77.443485,69.426041,58.91367,52.988319,74.546413,68.387947,58.242531,-23.999853,-35.229799,-33.439145,-29.294118,-50.366477,-55.556537,-57.647529,-58.68773,-36.367164,-45.621868,-50.301253,-52.638259,-19.076416,-18.376305,-13.623005,-11.688241,0.130942,-3.813397,-1.657844,0.789572,57.382593,307.189358,-206.379118,-124.080367
78,-0.289078,0.116894,3.226662,9.938389,-25.521927,-49.504395,-72.32563,-89.813232,-56.763382,-88.349018,-105.664558,-119.210129,-50.111504,-84.973412,-104.521008,-120.002632,-41.770477,-73.18531,-91.806393,-106.108932,-32.888031,-58.149834,-73.001289,-85.560951,-18.438797,-19.862144,-9.175308,2.153854,11.172749,25.132232,31.837216,36.805777,29.501259,41.488126,47.147551,51.634274,42.49861,55.24797,61.348293,65.685457,50.329612,63.42286,68.32856,71.562429,9.48698,31.27573,51.595688,63.348656,42.487965,76.629467,98.219318,115.284805,47.935524,82.995243,106.252613,123.844013,51.438789,78.043442,68.636742,57.883701,53.269444,75.290394,68.594456,59.487019,-23.50497,-33.59173,-28.418821,-19.671119,-48.30991,-53.88026,-56.895409,-59.823521,-33.962526,-44.79801,-51.281726,-55.57057,-17.048856,-18.474535,-15.419232,-13.889582,1.397782,-5.099843,-4.349421,-1.458298,57.084188,307.477902,-203.161783,-113.970327
79,0.275574,-0.456089,9.505463,21.990711,-25.747147,-49.883537,-72.715874,-90.330334,-57.467422,-88.795795,-105.88932,-119.405537,-51.286697,-85.722885,-104.91045,-120.088863,-43.36235,-74.39827,-92.956581,-107.42569,-34.565735,-59.312439,-74.129219,-86.89642,-18.646772,-19.902899,-8.97005,2.416602,10.851153,23.842328,30.280117,35.553541,28.919262,40.134742,45.179071,49.176052,41.711415,54.204944,60.388939,64.853247,49.379581,62.296841,67.369761,70.894351,9.654808,30.524197,52.442951,66.159039,40.765171,74.262486,95.792141,112.21344,45.545654,81.708069,105.565681,122.339115,48.636761,74.483356,66.838017,56.237411,50.966148,72.370663,66.944447,56.783695,-22.29548,-30.433783,-23.945544,-17.071828,-51.789144,-56.769037,-58.779692,-60.320813,-38.664434,-47.674653,-52.895063,-57.352054,-21.560125,-19.688656,-14.858508,-13.703312,-2.988967,-6.403796,-4.712236,-2.972572,57.519693,308.886089,-193.496389,-90.11534
80,0.227394,-1.108482,7.123604,19.812867,-25.993767,-50.376091,-73.560104,-91.456375,-57.371292,-88.904343,-106.443214,-120.343323,-51.228104,-85.944843,-105.537357,-121.038494,-43.341637,-74.775925,-93.780441,-108.574047,-34.647446,-60.05825,-75.237808,-88.307934,-18.784537,-19.954213,-8.967518,2.265499,10.754637,23.773106,30.246402,35.316049,29.139772,40.10115,45.345736,49.417867,42.152251,54.133746,59.995651,63.912047,50.09107,62.641903,67.369267,70.314762,11.040859,30.893784,50.957451,65.143032,45.094929,78.850822,99.753113,115.928307,49.81636,86.726303,109.271107,124.341488,51.933918,78.223343,72.14756,63.538685,52.336979,72.847881,67.621937,58.317204,-23.611783,-32.251592,-30.533942,-26.152781,-45.64399,-49.243453,-48.443785,-47.049769,-32.330509,-40.756723,-44.174392,-47.086758,-15.494753,-16.848199,-11.83459,-10.182674,2.725138,-1.489605,-0.650448,-0.07901,57.902384,308.793031,-186.217489,-69.28705
81,-2.074013,-1.379875,9.641018,44.971004,-25.725517,-50.186005,-73.171349,-90.991631,-56.701927,-88.269997,-106.106815,-120.294628,-50.414658,-85.541954,-105.479965,-121.154594,-42.679825,-74.751205,-93.957825,-108.925152,-34.348297,-60.40638,-75.896473,-89.298306,-19.148185,-20.534976,-10.014064,1.08304,10.747042,23.465218,29.606112,34.160328,29.363556,40.182352,44.631654,48.075227,42.548689,54.801268,59.998676,63.365432,50.418532,63.064523,67.524817,70.422393,14.688549,39.558334,61.543894,74.840784,55.51652,90.692539,111.576576,127.493076,59.590015,96.736736,117.844992,132.023306,59.724512,84.312916,75.031271,65.534649,57.566185,76.42004,68.688011,59.145727,-26.82952,-36.877377,-32.586063,-26.382385,-45.541716,-48.457725,-46.640411,-44.56129,-29.721261,-35.319738,-35.873022,-35.56109,-11.42801,-11.940647,-8.846194,-7.46933,7.463,2.636897,2.39749,2.819354,56.742983,306.363832,-175.66186,-25.365371
82,-0.577011,-0.42861,9.641018,44.971003,-25.414124,-50.107956,-73.406525,-90.79113,-56.675262,-88.570633,-106.363277,-120.421658,-50.987434,-86.358776,-106.447392,-122.121391,-43.72879,-76.000843,-95.443153,-110.397034,-35.533905,-61.175194,-76.549129,-89.80917,-18.865677,-20.621797,-11.168365,-0.498573,9.962811,21.911701,27.723835,32.395378,28.13145,38.1034,42.349544,45.861166,41.096011,52.538547,57.84686,61.585909,49.037855,61.569854,66.382928,69.818844,18.336239,48.222885,72.130337,84.538536,65.93811,102.534256,123.40004,139.057846,69.36367,106.747169,126.418877,139.705124,67.515106,90.402489,77.914982,67.530613,62.795391,79.992199,69.754086,59.974251,-30.047256,-41.503162,-34.638183,-26.611988,-45.439442,-47.671997,-44.837036,-42.07281,-27.112012,-29.882753,-27.571652,-24.035422,-7.361267,-7.033094,-5.857798,-4.755986,12.200863,6.763399,5.445429,5.717718,57.26223,303.248493,-164.924583,16.918903
83,0.049438,-0.396252,2.660751,21.170017,-25.727692,-50.307884,-73.528061,-90.493469,-57.87426,-89.583721,-106.900406,-120.534496,-51.835213,-86.662731,-106.271553,-121.904984,-44.083328,-75.463829,-94.356308,-109.18745,-35.397034,-60.366211,-75.238152,-88.078709,-18.89612,-20.955805,-11.143479,0.024577,9.500301,22.262197,28.402658,32.852392,27.792564,38.325023,43.455803,47.579619,40.961333,52.387568,58.262255,62.420589,49.017601,61.216456,66.327538,69.898441,18.067818,44.651928,65.898514,79.565334,62.513981,96.938725,116.433334,132.06871,66.17506,102.538261,120.679951,133.863716,65.94389,90.383835,81.777248,72.689838,62.886543,82.199135,73.787727,63.817577,-28.233153,-40.479896,-35.690472,-29.472762,-47.232828,-47.721892,-44.660893,-40.589349,-30.164984,-34.177093,-32.628856,-29.312056,-10.399263,-11.245121,-9.447072,-7.793828,10.620515,4.446431,3.213059,3.671741,58.82618,301.133418,-160.749321,36.370097
84,-0.884628,-0.930887,12.872658,38.127761,-26.144714,-50.824127,-74.12178,-91.152306,-57.855606,-89.930363,-107.283497,-120.766754,-51.657028,-87.046051,-106.875057,-122.608337,-43.919563,-75.97744,-95.208321,-110.351715,-35.263252,-60.496216,-75.671711,-89.003048,-18.739151,-20.651005,-10.996081,0.267997,9.549022,22.294307,28.185976,32.252981,27.869319,37.948098,42.504661,46.048208,41.0794,52.359286,57.947698,61.772519,49.100593,61.485626,66.648578,70.292717,17.009296,46.948242,72.421989,86.730137,60.248623,95.742474,116.457653,133.239555,64.827232,101.88097,123.21722,140.71106,64.73671,90.732365,78.685455,68.584957,62.257462,82.324905,72.659569,63.055687,-29.096578,-40.270253,-32.140595,-23.509987,-37.37033,-38.955278,-37.840591,-37.524923,-18.467078,-23.647135,-23.522399,-22.543439,0.938483,-3.528388,-3.789036,-2.046409,19.898051,11.434663,8.255937,9.079626,59.774923,299.754099,-146.043291,74.049427
85,-2.26078,0.049153,12.644634,53.905948,-25.359764,-49.784317,-73.036022,-89.99073,-56.466866,-89.671726,-107.280178,-120.729904,-50.45517,-86.927147,-106.733208,-122.398911,-43.134727,-76.340847,-95.63118,-110.742073,-34.660721,-60.987167,-76.49271,-90.172749,-18.781944,-21.268015,-12.539039,-1.068653,10.710424,22.321292,27.490789,31.07219,29.125014,38.255059,41.953168,44.828329,41.941868,52.536695,57.223181,60.379182,49.435589,61.848966,67.216991,71.054841,26.046181,59.546471,86.548634,100.140781,71.745815,114.575901,129.500141,135.946941,70.761166,109.690418,111.10817,105.713654,67.425613,97.249088,90.624619,80.297356,63.182888,85.110283,78.947697,70.449657,-26.741448,-35.222898,-29.341851,-20.708371,-35.704181,-31.158085,-24.297645,-20.183338,-19.822253,-13.834223,-8.28002,-6.248895,-1.903271,4.740332,6.422907,5.756991,17.006002,18.009322,15.503614,12.927449,58.092442,299.856064,-132.820358,128.008187
86,0.368729,0.365501,3.510132,18.271885,-25.367432,-49.913864,-73.643246,-91.04353,-57.150078,-90.416336,-108.235645,-122.08683,-51.280861,-87.700939,-107.483768,-122.981472,-43.96843,-76.865673,-96.17775,-111.050549,-35.651436,-61.704369,-77.013874,-90.0737,-19.38648,-21.752385,-12.28228,-1.073654,9.372725,20.941417,26.226326,30.1405,28.011284,37.7224,41.760692,44.703964,41.156526,52.060784,57.262824,60.577401,49.21162,61.521565,66.549469,69.854166,39.298267,75.673199,104.291897,123.908443,81.620865,115.014095,125.935764,132.699451,73.692398,104.158344,101.39677,94.071579,65.40659,94.003029,91.816463,83.83913,58.226452,79.621754,79.078445,73.313942,-2.123844,-9.971271,-16.49335,-19.729318,-32.093542,-26.293603,-17.284558,-11.529975,-32.089682,-22.653664,-12.428814,-8.176434,-27.156257,-18.71692,-9.041063,-4.294309,-19.337327,-15.391908,-9.17747,-6.030792,58.729506,300.134898,-129.041891,146.193406
87,-0.38681,-0.75317,14.334526,34.958143,-25.539665,-50.440521,-74.180546,-90.895958,-57.428741,-90.835876,-108.514595,-121.973877,-51.334076,-87.883186,-107.76432,-123.386879,-43.645592,-76.663284,-96.055527,-111.099129,-35.040665,-61.189957,-76.47583,-89.492912,-18.905753,-21.174093,-12.031018,-0.184572,9.955463,21.882987,27.516107,31.403604,28.448538,38.215724,42.722949,46.100141,41.483248,52.706817,58.208532,61.783387,49.408666,61.755043,66.78659,70.10302,33.045588,67.475052,94.57469,111.209336,69.050875,107.110577,122.375794,131.570091,63.480721,101.570492,110.568238,113.065253,57.620316,93.852225,101.335316,101.461544,52.312374,80.054026,86.789675,87.668925,-10.570559,-16.639451,-18.936443,-17.270787,-16.497178,-10.816248,-6.038727,-2.440253,-9.063679,-3.042427,1.433351,3.44663,-0.534558,4.944695,7.152674,7.187779,7.981087,9.680767,9.606172,8.297372,58.88134,299.374334,-114.16872,181.144154
88,-2.220154,0.404218,14.334526,34.958143,-24.312286,-48.503151,-71.787815,-89.328003,-56.728477,-90.122051,-107.468262,-120.331879,-50.963058,-87.982922,-107.328987,-122.521477,-43.809013,-77.270966,-96.117268,-110.738983,-35.50209,-61.835289,-76.989555,-90.022659,-18.345492,-20.351269,-10.472067,1.181532,11.489096,23.091505,28.378266,32.031112,29.453588,39.065163,42.792171,45.653006,41.974287,52.390346,57.399046,60.854537,49.524201,61.449379,66.702919,70.510387,26.792908,59.276905,84.857483,98.510227,56.480885,99.207058,118.815823,130.440731,53.269043,98.982639,119.739704,132.058926,49.834042,93.70142,110.854168,119.083958,46.398296,80.486298,94.500904,102.023907,-19.017274,-23.307631,-21.379536,-14.812257,-0.900815,4.661106,5.207103,6.64947,13.962324,16.568809,15.295515,15.069694,26.087141,28.606311,23.346411,18.669867,35.2995,34.753441,28.389814,22.625536,57.79355,299.739016,-98.70183,216.062762
89,-0.702782,1.8824,-1.500092,20.983902,-26.179848,-49.448318,-71.588573,-88.578987,-56.70742,-90.489349,-107.500248,-121.09457,-52.121201,-88.001747,-107.042885,-122.366924,-45.505943,-78.6343,-97.304478,-111.954861,-37.422066,-63.400383,-78.202629,-91.048679,-14.585447,-13.603616,-4.4732,3.915532,11.627788,21.288331,26.298945,30.478089,28.926425,38.168732,41.529684,43.996242,41.087489,52.11883,56.938079,59.436007,48.051207,60.780745,66.593806,69.945865,29.073315,58.788185,82.523975,99.953899,60.608311,95.316982,116.882458,133.803234,55.917091,95.505581,119.377155,136.336842,51.568108,88.817768,111.872349,127.63464,47.462196,76.602917,94.022198,108.209553,-22.670305,-29.985691,-30.099497,-25.254128,-1.999911,7.260366,12.012369,15.333245,15.59377,25.92696,27.347096,27.93354,28.482563,37.804467,39.303643,39.007488,37.127867,43.796665,44.268623,42.246977,57.687893,301.534502,-99.604797,236.95975
90,-0.895386,0.443862,3.29195,9.543711,-30.235519,-50.084839,-65.832939,-73.539677,-57.502327,-89.259567,-105.780487,-119.537201,-53.528023,-87.007027,-106.281395,-121.891422,-46.908417,-77.392159,-95.767765,-110.66637,-38.582039,-61.711349,-75.535984,-88.577042,-7.087095,-3.172304,5.246315,16.101914,10.585873,20.582709,26.450295,31.386067,24.664905,35.312838,41.30658,44.589911,36.912729,48.538541,54.431938,56.641986,46.532702,58.770399,63.987382,66.694212,27.147331,55.536919,80.031853,99.120369,58.958244,93.840179,115.594711,132.986641,53.913689,92.714767,116.040802,132.923927,49.067688,84.973412,106.571274,122.216034,44.300079,73.167343,89.076691,100.990677,-21.53311,-27.136466,-25.535586,-20.489219,1.773781,11.271179,15.962111,19.902528,20.345402,29.125076,31.037857,32.545678,33.838176,41.820158,43.152979,42.727765,42.335341,48.865633,49.068483,47.01028,57.269068,301.705566,-95.836287,246.230663
91,-2.380943,1.147693,2.938957,15.396724,-28.06057,-51.52153,-69.210091,-84.555931,-57.737389,-84.459171,-101.385155,-116.850929,-54.086266,-81.470947,-101.574383,-119.405365,-47.258949,-72.136803,-89.253559,-102.293072,-38.163414,-56.34819,-68.217087,-77.137241,15.071855,31.978624,47.485943,63.266632,21.164583,26.873779,30.090173,32.293613,24.047401,34.221523,39.483399,42.511268,27.110592,40.472085,45.311835,48.284808,28.805085,42.363376,48.405283,52.429743,28.080311,57.636337,82.842865,104.35833,61.712322,94.971085,117.458267,134.549332,55.10931,91.510048,113.462448,128.29628,48.840866,81.570625,101.400375,115.689354,43.145428,68.846226,83.480072,94.329529,-21.393554,-25.07147,-23.189997,-18.889204,8.336861,17.413801,22.259048,26.69847,25.802039,35.645425,36.997204,37.528504,37.000723,46.812308,47.798462,47.172992,42.468228,50.343382,51.779449,50.848253,55.315189,302.716714,-92.470264,261.490842
92,-3.59951,1.876966,4.147224,12.135561,-16.442299,-43.037796,-64.967537,-81.718483,-61.814346,-79.176922,-95.468616,-109.928913,-65.231781,-72.474232,-69.100056,-68.709812,-63.031254,-62.252254,-40.388603,-23.12439,-56.932411,-63.918915,-52.107239,-38.928909,29.938082,50.133492,57.477283,66.710884,35.244603,39.721755,41.508627,43.2511,17.877485,21.89929,21.340942,21.529034,0.48647,8.034902,8.175693,7.327736,-16.951229,-8.302158,-4.106835,-2.394928,30.562363,59.712868,84.870644,107.5177,63.147182,96.015244,116.813393,131.268425,54.748135,91.601372,112.786331,126.183014,47.27932,80.905838,100.204582,114.108009,40.868797,67.344189,81.91143,92.577438,-18.079039,-20.322122,-17.907311,-15.398144,11.065303,22.410336,28.152877,32.833806,28.953842,40.635167,43.169898,44.311293,40.805722,52.601903,53.904899,53.557676,46.938341,56.490574,58.500735,58.383286,51.810236,304.458971,-88.228483,273.491695
93,-0.827408,1.245197,5.983257,1.206356,-24.692116,-48.632126,-63.263626,-71.70805,-61.560802,-76.086788,-82.274151,-89.599228,-59.459953,-70.814323,-74.659538,-79.801369,-53.356705,-66.616402,-60.161934,-54.979706,-44.326401,-64.115753,-73.067436,-80.161514,-8.022181,-2.566532,7.205656,17.921822,6.761176,12.079677,13.275289,13.490613,17.681181,20.901218,21.226272,19.738643,27.639731,33.524607,31.096519,27.876976,37.097116,45.320789,51.236355,56.258948,27.05246,54.964428,80.553989,101.643162,56.958961,91.680164,111.100559,124.389896,49.166737,87.961292,109.8353,122.835445,42.017384,77.822399,97.800694,110.37775,36.033096,62.888832,78.337269,89.196682,-16.549604,-18.330301,-12.932698,-9.83258,12.959065,26.585899,32.212596,36.880619,32.07372,44.072751,47.220293,48.196073,45.184444,58.023404,60.274515,59.4386,52.51502,65.508913,67.039273,64.968967,51.106539,305.457876,-82.121515,274.451759
94,-3.177681,4.903724,3.008423,6.635638,-17.728157,-42.6091,-62.533493,-76.20266,-54.718437,-64.836445,-71.146259,-79.917068,-53.782768,-54.644852,-41.146088,-31.673241,-48.363991,-48.551788,-32.830353,-20.007935,-39.370193,-47.58625,-46.705971,-44.561462,21.715582,36.956942,44.049471,50.854243,28.107676,32.154736,33.020601,33.579133,16.728989,20.134833,21.464567,21.62061,6.054504,11.533495,15.273779,16.915661,-3.444561,3.196881,9.532658,14.07403,26.90134,54.950638,80.780697,101.727619,57.656765,92.443829,111.508541,124.846973,49.229736,88.111095,109.799252,123.146954,41.184483,77.323551,97.23135,110.478802,34.223213,62.113609,78.155422,90.802288,-16.336318,-18.058167,-13.479497,-11.083211,10.9523,26.316358,33.276062,38.350711,28.867577,42.511824,47.561217,50.112188,42.026466,56.724422,60.909865,61.498347,50.184622,64.808107,67.572488,66.95696,47.96402,310.104842,-79.07793,280.830639
95,-6.015816,-1.353013,5.434914,3.521626,-13.1036,-35.793571,-54.985771,-71.498852,-57.658939,-48.343277,-30.052299,-15.94368,-56.288109,-38.239059,-17.780457,-0.440483,-49.917183,-30.439453,-11.24897,3.982086,-40.523071,-29.866562,-15.852585,-3.829994,28.67226,43.210962,51.12718,61.268018,28.84689,38.63853,39.578309,39.590536,13.94596,24.19622,28.300708,29.044492,-1.208888,11.351269,16.835262,18.54371,-14.237113,-5.562786,0.061565,3.191076,26.841316,53.877525,79.04623,100.249615,57.205238,91.260853,109.714108,122.405148,48.701077,86.447811,108.221111,122.290592,40.244408,75.373592,95.201054,109.098644,32.389412,59.411831,75.174923,87.910938,-15.257107,-16.839893,-12.317849,-11.087719,13.086271,27.841717,34.135195,38.293777,30.915097,44.576758,49.941201,52.35484,43.399857,58.074286,62.388849,63.036179,50.8732,65.017997,67.814364,67.495917,42.055435,308.61854,-73.535786,284.218976
96,-15.112839,2.273465,1.563721,0.663817,-10.209045,-27.807312,-42.142982,-56.60408,-48.240337,-32.480164,-14.267807,-0.769958,-44.395809,-19.53289,0.331306,16.132164,-35.22274,-9.925117,7.80407,21.71711,-24.04232,-8.538322,4.143219,14.511108,25.058688,40.82505,48.165445,59.296018,24.36838,36.123312,38.545966,38.993903,10.497694,21.673283,27.404092,28.648424,-2.301994,11.10964,18.425026,21.070229,-12.143095,-4.557798,0.849809,4.217306,26.374855,53.238716,78.571072,98.906651,56.920223,91.030827,109.039593,122.519016,48.614273,86.875019,108.088589,122.339001,39.894047,75.205822,95.032711,109.231853,31.704426,58.294773,73.962994,86.633778,-15.328675,-17.506365,-13.418612,-13.004266,12.632899,26.289559,32.651395,37.020669,30.834945,43.799011,49.562363,51.685157,43.582144,58.150733,62.629491,62.681485,51.168553,65.642664,68.827812,68.306824,27.016211,310.770619,-71.898451,284.761407
97,-1.361389,-7.741649,2.13604,1.397597,-12.50164,-25.925217,-36.196117,-44.481983,-40.63076,-22.289429,-0.856705,13.173981,-41.463833,-17.529831,1.189957,18.189468,-40.304146,-22.148438,-4.774361,8.491974,-37.607918,-49.203186,-57.649784,-61.990242,-8.249546,-1.537585,12.947518,27.503942,14.818308,26.252632,26.565583,25.315199,25.043497,34.437526,34.97815,33.562522,30.242264,40.842031,39.024593,38.100807,34.079003,44.485182,50.33307,56.910662,27.585468,54.742985,80.003757,100.268841,58.863888,91.87151,108.999882,121.570301,50.19453,87.288151,107.662525,121.381588,40.594769,75.3895,94.423313,107.613544,31.210556,58.463459,73.908062,86.430759,-15.516211,-17.510317,-12.378488,-11.68713,11.131623,26.276035,33.379926,38.494095,29.008615,42.79001,49.075831,52.279319,42.029986,56.500515,61.374352,62.637827,50.544873,64.330653,67.085833,66.908177,25.899611,303.091986,-69.517622,286.222021
98,1.478806,0.107878,0.972118,-0.176236,-10.978661,-23.641434,-34.611969,-43.857193,-41.470356,-26.439857,-5.722389,8.776016,-42.908249,-22.420578,-4.576492,12.352409,-42.868137,-27.529335,-10.598488,2.33551,-41.73357,-54.602795,-62.797737,-67.261906,-12.259989,-9.220572,4.079911,19.754513,12.703171,24.667993,26.186312,25.710525,24.271864,34.988648,36.263238,35.670002,30.686929,42.432722,41.072607,40.262318,35.891995,45.331595,50.875485,57.206508,28.15424,55.046997,79.996605,100.687637,58.425922,91.176682,108.186035,120.24147,49.606247,86.435165,106.696587,120.426979,39.766788,74.033203,93.154678,106.198425,30.161362,56.547489,71.722641,83.600235,-15.32744,-17.122586,-12.038613,-11.479896,11.78062,27.436264,34.700335,39.932818,29.744926,44.163833,50.75501,54.542595,42.685096,57.505133,62.711125,64.419697,50.910065,65.001324,68.3222,68.476884,27.682886,303.256983,-68.241034,286.102904
99,-22.4263,10.238404,-0.104542,0.383964,-1.398125,-6.341515,-9.397316,-14.875088,-16.938,7.349739,22.609177,30.799484,-20.954475,8.892059,29.748917,45.449638,-21.596317,5.43869,25.268097,40.053864,-19.026604,-17.296143,-17.83041,-16.841526,8.514764,17.780352,24.413025,31.426081,10.863009,22.651533,29.590365,36.47708,8.056267,21.122346,29.536704,33.40018,6.344793,19.392532,28.923399,33.95192,5.989913,15.862384,22.652027,26.910644,27.067509,53.90276,78.628521,98.815441,58.027554,90.874271,107.971973,120.196095,49.551659,86.461544,106.718388,120.578442,39.962482,74.279881,93.346996,106.519146,30.512295,56.79594,71.941853,83.657398,-15.740859,-17.59615,-11.90937,-10.187645,11.348305,26.42825,33.468291,38.440064,29.795068,43.748685,50.437181,54.321343,42.76673,57.17872,62.462394,64.212154,50.948968,64.399319,67.56446,67.516542,5.470591,313.637907,-68.131571,286.629388
100,21.764145,-12.390714,0.571575,0.176977,-15.351448,-30.719719,-42.167244,-52.618389,-43.531609,-28.349419,-6.865883,7.856255,-41.003094,-19.727554,-2.37648,13.698006,-37.953701,-20.982513,-5.368538,6.683578,-34.712563,-43.491669,-49.47916,-51.966133,-4.565825,4.94769,22.325059,39.566391,16.529721,29.369793,30.7995,30.661117,23.17178,35.446651,37.657254,37.792858,26.263438,39.253193,39.046268,38.92746,29.27445,38.30798,44.16303,51.022883,26.905746,53.523388,78.237991,98.451004,57.285175,90.795364,108.042984,120.410614,48.684483,86.289825,106.436691,120.104942,39.181309,74.228668,93.253784,106.362305,29.887447,56.618443,71.947403,83.684349,-15.703192,-17.603807,-12.061029,-9.955216,11.808099,26.296598,32.861778,37.61798,30.350883,43.764431,50.297193,54.052606,43.181199,57.24362,62.266892,63.807936,50.8753,64.064015,67.201183,67.01482,27.347345,301.451309,-67.447386,287.010481
101,-9.749222,-6.122306,-0.54554,0.506415,-10.969276,-23.789749,-33.968868,-44.031086,-33.17482,-15.383835,4.09481,16.637764,-31.437435,-6.032982,11.706963,27.751694,-29.021873,-8.222694,8.320084,20.927925,-26.436539,-30.466118,-34.365635,-35.968895,7.173978,22.301347,41.054082,56.821618,24.487805,40.854196,44.446279,45.243539,23.316523,40.415459,43.543735,44.132031,19.659726,36.233474,38.033684,39.152108,17.305676,28.441128,36.318505,44.817523,27.145214,54.218559,79.242096,99.4804,57.559605,91.083641,108.505325,120.981903,49.232311,87.108536,107.644844,121.615334,40.17025,75.304298,94.6978,108.161774,31.228409,58.034363,73.462143,85.256767,-15.923517,-17.675932,-12.028857,-9.889761,11.161881,25.705338,32.382101,37.218023,29.708617,42.616985,49.026369,52.612216,42.597966,56.541579,61.218988,62.339943,50.538451,63.738096,66.580282,66.045709,17.680864,295.624663,-67.910185,287.812557
102,15.627937,-3.982284,0.896416,-0.537846,-16.052284,-34.189453,-49.805374,-65.189552,-50.005188,-39.393425,-19.085312,-5.897026,-48.434315,-28.313141,-7.816315,10.954857,-43.268108,-23.803825,-2.931519,14.098892,-35.591469,-34.070435,-29.421844,-21.586876,30.601343,51.200539,66.703104,78.690032,41.060504,52.97926,55.063398,54.660785,25.249682,41.025121,46.506026,47.616298,9.006359,25.141124,30.964559,33.947474,-5.088234,4.098251,11.783152,19.225003,27.368317,53.961067,78.700104,99.383125,56.719952,90.165482,107.317657,119.558144,48.300705,86.322098,106.645546,120.304413,39.248486,75.054932,94.103851,107.110863,30.390873,57.885017,73.179588,85.115318,-15.643479,-17.641846,-11.628282,-8.411703,10.555615,25.790307,32.746182,37.798106,29.282725,43.220842,49.896803,53.576572,42.512009,57.039473,61.952892,63.160606,50.6446,64.211536,67.259537,66.798817,33.3496,291.78635,-66.972971,287.418682
103,-21.348839,14.492636,0.106144,0.367106,-2.082825,-7.018318,-10.085335,-14.972878,-25.340195,0.258064,18.739471,30.903053,-29.400673,0.551376,22.960854,40.666466,-28.81176,-3.846703,17.418137,35.193214,-24.763298,-24.248085,-26.64259,-26.350994,2.717389,10.77273,20.088459,30.615916,11.133538,25.269998,32.245262,38.049122,15.456005,26.911324,34.474391,38.8943,17.59578,30.322293,37.65923,42.330401,19.779274,29.30724,36.160115,42.621431,27.545929,54.28339,78.865528,99.454594,56.156845,89.900951,107.398853,119.798527,47.44772,85.731983,106.286602,119.970188,38.304234,74.203434,93.566151,106.659451,29.579372,56.940422,72.385998,84.289227,-15.736475,-17.850747,-11.967909,-8.358598,10.343441,25.994947,33.007448,38.213625,29.009109,43.120868,49.775402,53.46999,42.190784,56.797844,61.738988,62.922497,50.181349,63.724758,66.829322,66.367367,12.036953,306.422016,-66.830635,287.928818
104,29.6418,-10.657812,0.513039,0.231132,-17.641525,-38.649673,-56.070442,-72.516632,-57.20541,-47.197838,-26.503716,-11.862488,-55.358105,-36.380081,-14.514198,5.687256,-49.508514,-30.95295,-9.424782,8.131828,-40.712929,-39.746017,-33.470421,-24.324989,28.549871,48.241707,62.37687,74.131987,36.907604,49.710317,51.631434,51.1688,22.270657,37.664232,43.178976,44.323519,6.62551,22.724831,28.16004,30.949677,-6.933954,2.317555,10.341835,18.352284,26.85585,53.62112,78.421268,99.016628,55.469856,89.356556,107.083797,119.720478,46.840897,85.165501,105.949917,119.805393,37.678356,73.630199,93.199482,106.666775,28.886433,56.296005,71.864491,83.832378,-15.365355,-17.320867,-11.324038,-7.74381,10.518812,26.26492,33.18461,38.398506,29.074008,43.059365,49.679133,53.414847,42.188622,56.821062,61.567569,62.773122,50.080449,63.600948,66.51211,66.065716,41.688166,295.849744,-66.308184,288.245489
105,-11.522141,11.801492,0.776997,-0.514072,-7.747421,-22.458572,-36.360741,-48.937969,-45.751534,-25.496407,-6.816559,5.072365,-47.738171,-20.554962,1.900635,20.26268,-43.615608,-18.922005,3.057632,21.36097,-36.60038,-39.111271,-46.335182,-50.030136,12.695514,25.48458,35.611833,45.958053,19.420566,32.441382,36.125905,39.144945,14.969473,27.326039,30.780296,33.03363,9.671041,22.896065,27.33629,31.584162,5.899017,16.711946,24.899186,33.726408,27.009544,53.435726,77.907944,97.963943,55.380993,89.106331,106.824188,119.717789,46.551418,84.42215,105.096588,118.934555,37.212181,72.901268,92.508545,105.933723,28.216553,55.729809,71.417656,83.480873,-15.202396,-16.950612,-11.02566,-7.778205,10.93995,26.253496,32.987935,38.0561,29.309339,43.190399,49.614604,53.1366,42.27921,56.785247,61.280924,62.226137,50.043398,63.538519,66.422572,65.940177,30.20442,307.740403,-65.492792,287.820585
106,23.014984,-7.486929,0.471554,0.08818,-20.385818,-44.569016,-64.526424,-79.378223,-63.371315,-61.866989,-41.85482,-29.296074,-61.361847,-50.457802,-29.777412,-9.847641,-56.890068,-46.59153,-25.888138,-7.352142,-51.130714,-64.563332,-72.477951,-75.205822,18.909149,33.483049,48.171496,62.073243,26.372736,38.734428,40.660732,40.66629,20.255247,32.97861,37.918334,38.74968,12.850693,26.980608,30.061089,31.317154,6.603095,16.843228,26.307343,36.238662,26.627541,53.035069,77.328815,97.308941,54.770908,88.09782,105.67503,118.598728,46.005306,83.51263,104.198856,118.009014,36.838932,72.050343,91.646633,105.228252,28.114929,54.927807,70.345173,82.11977,-15.649777,-17.439737,-11.380601,-7.794199,10.921795,26.449924,33.045054,37.782175,29.415859,43.312356,49.592188,52.819882,42.399994,57.183784,61.741088,62.553723,50.064641,63.862153,66.854392,66.302158,53.231478,300.238423,-65.009165,287.893712
107,-7.186432,6.578271,-0.265217,-0.025318,-11.861343,-33.348999,-52.312202,-69.885063,-61.197395,-49.22802,-28.737717,-12.378387,-60.026665,-38.47847,-15.546913,5.190353,-52.897453,-31.159286,-10.123672,7.740898,-43.408012,-32.58625,-18.393402,-5.561028,27.850671,43.009841,51.665829,61.326001,28.896661,41.359438,43.611846,45.326593,14.83955,25.449259,30.773874,33.984833,0.214274,12.257333,19.350171,24.501637,-12.76591,-2.827243,4.182602,10.732036,26.284504,52.401466,76.612015,96.565361,55.105476,87.715302,105.266647,118.31131,46.488075,83.024483,103.69297,117.673988,36.996918,71.518135,91.253929,104.95903,27.721367,54.247742,69.959564,81.975861,-15.649901,-17.287213,-11.299708,-8.035828,11.059931,26.49914,33.158119,37.848248,29.151134,42.877325,49.087193,52.325447,41.988242,56.664586,61.2293,62.175564,49.855368,63.666774,66.545208,66.04256,46.063528,306.816694,-65.255899,287.868395
108,-13.332939,0.062677,0.201416,0.546923,-8.898811,-25.464821,-40.384598,-54.879341,-50.677586,-33.062553,-13.716774,-0.083313,-47.611485,-22.854767,-1.970673,14.385338,-38.459129,-15.360489,4.291992,19.611053,-26.592522,-13.809357,-3.028564,6.250877,24.760371,41.676218,51.240368,62.253616,26.952326,41.332391,44.180691,45.667826,14.797745,26.846733,32.328193,35.030329,2.648105,15.44384,23.075264,27.745757,-7.756531,0.330859,7.58116,14.371976,25.542812,51.996746,76.54232,96.410522,54.613152,87.905045,105.645447,118.430443,45.981617,83.339539,104.080124,117.704201,36.548138,71.79863,91.387253,104.6521,27.500267,54.931812,70.652046,82.517738,-16.616233,-18.126401,-11.943826,-9.000184,10.294226,25.566647,32.16264,36.941134,28.487194,41.956997,48.215154,51.641808,41.463858,55.734378,60.323607,61.603199,49.224341,62.516611,65.369912,64.951553,32.721004,306.903376,-65.064068,288.439324
109,9.519882,-10.047718,0.321751,-1.578835,-15.334396,-36.262894,-54.680614,-70.304432,-55.775585,-47.122879,-25.596085,-9.920197,-55.521011,-38.15609,-17.372017,2.876358,-52.475281,-37.032623,-15.476646,2.998123,-47.358055,-59.808712,-68.767891,-72.310524,20.970687,36.389518,51.799148,65.273458,31.317709,44.263683,46.547646,47.384055,23.858568,35.774298,40.57916,42.415493,14.874624,28.709063,32.072114,34.155141,7.568748,18.94305,28.774333,40.020072,25.999718,51.807003,75.902538,96.154003,54.002666,87.039013,104.824848,117.788601,45.18734,82.195072,102.927532,116.5872,35.654812,70.6077,90.433559,103.97501,26.494846,53.172741,68.649616,80.381527,-15.391537,-16.716022,-11.107047,-8.301231,11.488541,27.104849,33.894801,38.625685,29.437656,43.442835,49.934347,53.302894,42.20406,57.17236,62.052742,63.233904,49.746379,63.958545,67.11078,66.963691,42.264862,296.845006,-64.718342,286.849837
