takenoko1/special-research/HandMotion_SimilarSearch_自分用/NewProject/handData/key/d4_feature_d2/153.csv
,vel_0x_L,vel_0y_L,vel_0x_R,vel_0y_R,posFromWrist_1x_L,posFromWrist_2x_L,posFromWrist_3x_L,posFromWrist_4x_L,posFromWrist_5x_L,posFromWrist_6x_L,posFromWrist_7x_L,posFromWrist_8x_L,posFromWrist_9x_L,posFromWrist_10x_L,posFromWrist_11x_L,posFromWrist_12x_L,posFromWrist_13x_L,posFromWrist_14x_L,posFromWrist_15x_L,posFromWrist_16x_L,posFromWrist_17x_L,posFromWrist_18x_L,posFromWrist_19x_L,posFromWrist_20x_L,posFromWrist_1y_L,posFromWrist_2y_L,posFromWrist_3y_L,posFromWrist_4y_L,posFromWrist_5y_L,posFromWrist_6y_L,posFromWrist_7y_L,posFromWrist_8y_L,posFromWrist_9y_L,posFromWrist_10y_L,posFromWrist_11y_L,posFromWrist_12y_L,posFromWrist_13y_L,posFromWrist_14y_L,posFromWrist_15y_L,posFromWrist_16y_L,posFromWrist_17y_L,posFromWrist_18y_L,posFromWrist_19y_L,posFromWrist_20y_L,posFromWrist_1x_R,posFromWrist_2x_R,posFromWrist_3x_R,posFromWrist_4x_R,posFromWrist_5x_R,posFromWrist_6x_R,posFromWrist_7x_R,posFromWrist_8x_R,posFromWrist_9x_R,posFromWrist_10x_R,posFromWrist_11x_R,posFromWrist_12x_R,posFromWrist_13x_R,posFromWrist_14x_R,posFromWrist_15x_R,posFromWrist_16x_R,posFromWrist_17x_R,posFromWrist_18x_R,posFromWrist_19x_R,posFromWrist_20x_R,posFromWrist_1y_R,posFromWrist_2y_R,posFromWrist_3y_R,posFromWrist_4y_R,posFromWrist_5y_R,posFromWrist_6y_R,posFromWrist_7y_R,posFromWrist_8y_R,posFromWrist_9y_R,posFromWrist_10y_R,posFromWrist_11y_R,posFromWrist_12y_R,posFromWrist_13y_R,posFromWrist_14y_R,posFromWrist_15y_R,posFromWrist_16y_R,posFromWrist_17y_R,posFromWrist_18y_R,posFromWrist_19y_R,posFromWrist_20y_R,posFromBody_0x_L,posFromBody_0y_L,posFromBody_0x_R,posFromBody_0y_R
3,54.373569,-27.410514,-1.718216,-3.699035,-7.371368,-13.38913,-17.881966,-24.212036,-53.755875,-37.558079,-9.489784,8.238945,-61.486473,-42.820358,-13.966484,8.26252,-63.055,-50.257473,-24.431992,-4.068604,-60.982018,-67.669544,-61.066074,-51.725578,-9.557173,-8.164454,9.148138,24.816935,3.401089,30.666798,37.06056,39.034905,24.182635,46.738269,50.504489,48.986417,40.880255,56.142487,56.901893,54.913839,54.342153,64.402469,63.901858,63.701416,33.427963,61.999569,85.916405,106.533852,52.415142,87.394638,104.692726,115.852318,39.36533,77.78492,97.161827,108.769455,30.411816,62.607937,81.300087,93.434372,24.274178,45.943165,60.660782,70.971107,-8.7806,-0.77151,11.65786,20.601666,41.453175,58.420151,58.427067,55.626994,57.628201,76.417123,72.050998,64.877823,64.68757,83.461733,80.821656,74.134395,65.246226,81.949033,82.362267,77.830405,19.364004,342.99291,-82.184572,329.850755
4,-43.753223,12.754301,0.036221,0.828444,5.034885,13.977871,30.293484,44.6525,-13.605938,14.018154,34.35236,45.906544,-22.132759,7.650261,30.358372,46.282253,-24.030247,0.479679,20.655956,33.394375,-21.738167,-7.838345,4.433212,12.689838,-18.847275,-27.920325,-19.252914,-7.568007,-6.385857,12.537865,18.107567,19.054633,14.859434,33.548875,36.677892,34.693234,31.579778,45.841098,45.808308,42.719553,43.190832,54.562479,52.161314,46.291814,31.89291,61.463184,85.991306,107.324924,51.91721,86.807156,104.069538,115.838528,39.828186,77.790585,96.754589,108.053799,30.836964,62.750244,80.505352,91.544666,24.20723,45.662212,60.067062,70.096722,-8.328031,-1.659666,10.613352,20.20634,38.185837,54.796945,55.533072,54.097992,54.467815,72.902598,69.893439,63.916925,62.016742,81.447188,79.341993,72.787742,63.267187,79.712619,80.516918,76.006668,-23.616829,355.89075,-81.375961,330.822738
5,-5.027561,7.768449,1.572018,0.262748,5.786819,17.393131,35.169182,49.613342,-3.586807,22.347336,40.789032,53.254166,-11.598587,16.756554,37.93293,52.818031,-14.373951,9.398746,27.74334,40.092316,-13.691769,1.157455,12.31802,20.569496,-20.632356,-29.61099,-23.044513,-14.539196,-8.869891,6.374866,11.460691,13.033412,11.194732,25.212323,27.605522,25.371886,26.974803,36.391062,36.051867,32.118674,38.479707,45.81436,43.058315,36.433175,30.673141,59.63007,84.036369,105.055504,49.902649,84.073906,102.082443,114.468384,38.376045,75.130005,94.618721,106.160889,29.722824,60.430927,78.911934,90.51487,23.664551,44.458637,59.488106,70.404053,-8.160811,-1.334673,10.462928,19.297374,38.659278,54.958731,55.618843,53.554959,54.101203,72.761869,69.722267,63.03939,61.214233,81.549817,79.27839,71.995793,62.289678,79.303522,80.447696,75.942941,-28.093843,363.693331,-79.253397,331.119618
6,-2.530804,-0.332711,0.947342,1.234452,4.693909,19.010525,38.215427,51.790638,-1.288204,26.994724,46.549816,59.501095,-9.153156,21.733646,42.562695,56.965771,-12.062302,11.341438,27.727833,39.286709,-12.039356,-1.908817,5.015488,11.127949,-18.766876,-26.766704,-20.08111,-11.451429,-7.223069,7.65594,12.926584,14.92069,14.194505,27.081693,28.680905,25.892689,30.037562,38.733008,37.201721,32.646146,41.157082,47.949195,46.126878,40.746997,29.702854,58.266277,82.371025,103.373222,48.683395,82.704048,100.775757,112.999306,37.089901,74.416695,93.834801,104.85569,28.553352,60.354137,78.901978,89.975739,22.750397,44.777241,60.018196,70.409431,-8.66241,-2.170774,9.605524,18.453925,37.450699,53.609361,54.491281,52.638645,53.401695,71.776641,68.56,61.583933,61.177245,80.691054,77.594765,69.610745,62.759043,78.566778,78.864786,73.592103,-30.10314,363.40454,-77.784548,332.397991
7,-16.470051,-15.623657,0.6213,0.816032,10.006313,30.610371,49.596405,62.594032,10.581837,52.281761,73.079796,85.489998,0.516129,44.23851,65.14698,75.5896,-3.866673,28.98531,46.184006,55.305061,-4.80217,12.792377,21.2673,26.381149,-12.043245,-13.366988,-7.141867,1.330289,12.8326,29.941355,32.68968,31.640911,32.539627,48.080662,47.615434,42.640018,45.078912,58.964974,57.18928,52.16786,52.160635,66.592509,69.208009,68.388026,29.094028,57.265778,81.847458,103.637466,48.046589,82.833252,100.78434,112.995644,36.738338,73.8517,93.160973,104.406509,28.324356,59.55225,77.976723,89.229927,22.630291,44.099579,59.179287,69.646111,-9.069777,-3.26635,8.049228,16.203555,35.886437,51.556407,52.266104,50.517518,52.118583,70.089126,67.077126,60.532694,59.995033,79.450735,76.728715,69.329843,61.62512,77.751858,78.444636,73.824038,-46.156197,347.84938,-76.746254,333.282519
8,59.796295,-2.832306,1.583462,0.379209,-4.570084,-8.010635,-8.924217,-10.185699,-47.88271,-27.707062,-2.576637,12.790146,-56.967602,-35.866127,-9.607544,10.358505,-59.191303,-44.743767,-19.619064,-1.286201,-57.699223,-58.185081,-46.268635,-34.694653,-14.163074,-15.751233,-2.767468,10.080755,1.524865,26.648514,33.46156,35.090351,23.8879,44.169329,48.556201,48.406271,41.081932,54.67999,55.915307,54.492269,53.765219,64.61594,63.330976,60.458532,28.677521,56.194668,80.139828,102.175198,46.853943,81.024799,99.153385,111.18021,35.803013,73.21249,92.598667,103.342838,27.723656,59.636822,78.334522,89.428425,22.799721,44.781361,60.155067,70.735645,-8.890886,-3.057819,8.270171,15.785814,35.622701,51.122796,51.71455,49.630782,51.992427,69.453591,66.235838,59.277678,60.180346,79.064301,75.872731,68.187892,62.125916,78.101489,78.184358,73.200544,13.759689,345.096562,-75.043201,333.741217
9,-44.738445,17.618442,0.967598,-0.031184,7.945576,17.458363,35.170956,52.90266,-0.174122,28.07745,45.185566,54.025097,-8.710899,22.576389,41.396542,53.48608,-12.203922,13.292885,28.338032,36.639118,-12.511082,-0.643387,5.29707,8.852863,-21.545089,-31.309435,-23.031422,-10.641078,-9.778486,5.801389,8.401576,8.75133,10.872951,26.403056,26.885574,24.892332,27.272625,39.341805,37.402039,33.649096,39.117774,48.631228,45.553773,38.619016,27.666435,54.541111,77.932491,99.179592,45.356655,80.021725,98.609219,110.764675,34.06271,72.669468,92.273998,102.966557,26.006584,59.264317,78.22958,89.321995,21.34861,43.863487,59.409885,70.111713,-8.473515,-3.186198,7.6489,15.838116,33.612108,50.132072,51.642055,50.005978,50.149053,68.727221,65.988528,59.196662,58.992886,78.498853,75.668152,68.083472,61.73942,78.116618,78.326878,73.21876,-30.799799,362.848308,-73.896646,333.843336
10,-12.889137,-11.074936,1.055717,0.302454,9.636841,28.607082,47.866001,61.129017,5.968952,44.905643,66.735134,80.055714,-3.352146,37.591839,61.61562,75.247822,-6.435814,27.020073,48.280163,59.848537,-6.08511,15.279636,29.361191,38.778477,-13.035203,-14.822569,-8.587568,-1.839545,9.011546,22.632514,24.36591,24.162504,27.780955,39.772144,38.468839,34.195402,40.528833,49.724828,46.3125,41.331403,48.352981,60.170157,58.335861,54.405941,27.254848,53.77121,77.054043,98.27116,44.803448,79.384747,97.695293,109.754734,33.56678,71.917362,91.270123,101.825924,25.494289,58.540592,77.41991,88.548603,20.795174,43.221588,58.648853,69.304562,-8.651109,-3.577819,7.074498,15.230122,33.575366,49.889393,51.338922,49.733041,50.053217,68.066244,65.309335,58.599535,58.9454,77.77026,75.00946,67.642142,61.667049,77.746177,78.022757,73.072721,-43.521023,351.790275,-72.673016,334.162694
11,55.712299,-7.595733,0.690022,0.532536,-5.400352,-8.77121,-8.699226,-9.474335,-48.354206,-24.158249,0.571976,15.30899,-56.261845,-30.354366,-4.462624,15.393448,-57.371521,-38.528709,-13.053818,5.559998,-54.645252,-53.824711,-42.764969,-31.586494,-13.460108,-13.6595,0.626211,13.614916,3.601655,27.011915,32.760137,34.36818,25.772028,44.686488,48.339149,47.768266,42.627483,55.401914,55.690659,53.670432,54.932858,66.36959,65.247708,62.346983,27.306862,53.696022,76.831512,98.25016,44.246807,78.302765,96.526794,108.57399,33.063869,71.090012,90.560646,101.199875,24.982052,57.860813,76.791229,87.876434,20.226631,42.621975,58.053761,68.611794,-8.707796,-3.650129,7.044672,14.696845,33.198256,49.729953,51.164662,49.339938,49.594288,67.740819,64.850962,57.890455,58.491472,77.401795,74.390845,66.847476,61.237945,77.329732,77.505412,72.456884,12.204266,344.202385,-71.970005,334.703072
12,-40.692616,21.490811,0.283127,0.661903,8.473263,18.580742,35.788822,51.436443,-0.152664,25.93214,41.907749,49.346409,-8.951683,19.071407,36.732159,47.875271,-13.024921,11.135445,25.115032,32.448864,-13.800888,-2.4226,3.429794,6.171341,-22.497775,-31.957629,-24.685036,-13.854199,-13.13598,0.700929,4.363408,5.765018,7.976918,23.103423,24.505898,23.075326,24.932223,36.096512,34.606722,31.088368,37.280453,45.855547,42.979645,36.565815,27.033978,53.527508,76.642227,98.068085,44.131908,78.227692,96.374245,108.407249,33.20446,71.110611,90.582733,101.037712,25.345001,58.203564,77.284012,88.302841,20.815887,43.425579,58.947201,69.417114,-9.370996,-4.422009,6.376533,14.062545,33.091367,49.80461,50.994725,49.083797,49.496845,67.433426,64.134225,56.881886,58.427993,76.924032,73.347757,65.327675,61.195338,77.077173,76.91372,71.58997,-28.427839,365.707691,-71.626368,335.379471
13,20.927095,-10.487042,1.561775,-0.010251,3.125296,8.005142,17.831354,26.011992,-23.615684,-0.221786,20.554361,32.328787,-32.75774,-6.878843,15.28676,30.948286,-35.881805,-15.2948,4.460535,17.517214,-35.341759,-29.334326,-20.228262,-12.709179,-18.031707,-24.026714,-14.130779,-2.236044,-6.482805,12.924053,18.506784,20.543776,15.613252,33.57444,36.693083,35.956246,32.962278,45.648992,45.66724,42.939292,45.78685,55.679421,54.054706,49.324531,26.69838,52.630978,75.679321,97.147865,43.740177,77.499161,95.147781,107.091637,33.233356,70.600204,89.675331,100.210075,25.774956,58.00312,76.467705,87.226295,21.366863,43.491611,58.4198,68.541641,-8.851675,-4.060398,6.798782,13.751878,32.699128,48.594981,50.223463,48.969373,49.462451,66.491485,63.885618,57.347669,58.713527,76.758788,73.68337,65.995012,61.933564,77.540548,77.734691,72.62256,-7.336035,355.239005,-69.899883,335.387575
14,20.927095,-10.487041,-0.131149,-0.416198,-2.222672,-2.570457,-0.126114,0.58754,-47.078705,-26.375713,-0.799026,15.311165,-56.563797,-32.829094,-6.158638,14.021301,-58.738689,-41.725044,-16.193962,2.585564,-56.882629,-56.246052,-43.886318,-31.589699,-13.565639,-16.095801,-3.576522,9.382111,0.170369,25.147176,32.65016,35.322532,23.249586,44.045457,48.880268,48.837166,40.992332,55.201472,56.727757,54.790214,54.293247,65.503293,65.129765,62.083247,26.592579,52.808704,76.013947,97.040062,44.011688,77.675743,95.446014,107.232056,33.056831,70.461273,89.792976,100.217743,25.100498,57.574768,76.207123,86.908379,20.287056,42.556686,57.795582,68.096809,-8.70724,-3.635617,7.154279,14.360058,33.067346,49.375815,50.736115,48.968941,49.505552,66.719591,64.197766,57.539219,58.508268,77.095328,74.354721,66.86384,61.521688,78.150148,78.591108,73.56623,13.596039,344.782437,-70.026054,335.001851
15,-39.727535,21.352428,-0.154839,0.184942,7.008018,17.073841,33.362103,47.898045,-1.072598,23.170109,39.167805,48.273525,-10.350895,16.317387,33.405247,45.342693,-15.037079,6.287727,19.534092,27.818127,-16.009312,-8.18922,-4.081593,-0.931263,-21.66013,-32.128616,-25.797964,-15.359612,-12.415723,3.778508,7.639761,8.496116,8.143521,24.532698,26.453259,25.536327,24.584012,36.780768,35.969615,33.276988,36.579586,45.688204,43.163353,36.634049,26.45628,52.819233,76.259193,97.659531,44.289436,78.143921,95.971069,107.662125,33.514423,70.980949,90.274887,100.392265,25.590534,58.220043,76.72554,87.050171,20.842838,43.071041,58.177071,68.133774,-8.871373,-3.669765,7.31446,14.49134,32.453053,49.004818,50.645588,49.043165,48.839451,66.63172,64.120084,57.198974,57.961407,77.123362,74.140076,66.272456,61.086101,78.050606,78.485206,73.342076,-26.114731,366.169507,-70.164127,335.221436
16,-2.389069,-2.945124,-0.532608,-0.079041,6.414928,18.598766,36.176319,48.856144,-2.490406,26.460514,44.403477,56.193752,-10.536633,21.100788,41.442204,55.651875,-13.179417,14.447536,33.321247,45.526257,-12.586098,4.417305,17.140446,26.88406,-22.795597,-30.488587,-21.757819,-12.691686,-11.216654,2.200229,9.477391,13.653263,10.788167,23.74643,27.485788,26.550022,28.118112,37.115394,35.535263,31.577246,40.619112,47.730228,43.935727,37.276315,27.151279,53.670673,76.961517,98.349152,44.606438,78.496971,96.653938,108.393173,33.498402,71.018143,90.537415,100.62664,25.407658,58.082886,76.817322,87.21611,20.622654,42.799416,58.018398,68.073463,-8.820244,-3.279688,7.854961,15.398638,32.117254,48.73818,50.171283,48.274434,48.698721,66.828642,64.109525,56.992172,58.007164,77.336957,74.306988,66.378791,61.245602,78.152618,78.431668,72.949343,-28.494902,363.232303,-70.687838,335.150315
17,23.277139,-8.798292,0.42635,-0.021613,1.122408,5.721216,13.926058,19.332133,-26.764211,-1.945753,19.956007,34.241839,-35.269375,-8.026828,15.532809,33.300047,-37.428159,-15.797882,6.357279,22.197161,-36.05298,-29.397468,-18.411913,-7.976932,-17.866277,-22.928391,-12.264373,-1.922444,-4.959206,14.712962,21.656364,24.563882,17.286318,34.116424,37.946709,37.186623,34.650626,46.103074,45.801825,43.029509,47.658227,56.72822,54.498073,50.043275,27.464561,53.566589,76.447735,97.766018,44.071941,78.076,96.359882,108.30122,33.011627,70.600948,90.103397,100.211391,25.044479,57.660656,76.348858,86.703358,20.43869,42.623177,57.709522,67.687855,-8.907126,-3.318282,7.932581,15.924752,32.395131,48.765782,50.109471,48.404728,48.777885,67.28751,64.404692,57.264183,57.837412,77.330782,74.104385,66.180634,60.814708,77.7484,77.886659,72.453549,-5.208521,354.407844,-70.252247,335.102535
18,23.27714,-8.798291,-0.237522,0.06527,-4.170113,-7.156334,-8.324203,-10.191879,-51.038017,-30.35202,-4.491463,12.289925,-60.002117,-37.154446,-10.376587,10.948219,-61.676903,-46.043301,-20.606689,-1.131935,-59.519863,-63.212242,-53.964272,-42.837925,-12.936958,-15.368196,-2.770926,8.846796,1.298241,27.225695,33.835335,35.4745,23.784468,44.486417,48.40763,47.823224,41.183141,55.090754,56.068386,54.481771,54.697342,65.726212,65.060419,62.810234,27.055492,53.327065,76.582947,97.972412,44.079666,78.119087,96.285782,108.024559,33.098145,70.686722,90.071754,100.024338,25.280342,57.842503,76.533966,86.806641,20.809822,43.054161,58.22897,68.203926,-8.870014,-3.489825,7.483285,15.067162,32.491153,49.263058,50.631571,48.976845,48.879897,67.487519,64.459897,57.234049,57.922504,77.541413,74.192132,66.194713,60.906963,77.734506,77.781004,72.36432,18.107214,345.601279,-70.451174,335.159531
19,-43.818798,17.155746,-0.384579,0.372046,6.478043,16.664772,32.873211,46.504841,-5.272522,21.099529,39.055653,49.808979,-13.96059,14.150562,33.753719,47.668018,-17.369785,4.258575,19.659863,29.578114,-16.990356,-9.380665,-4.457417,-0.087547,-20.339412,-30.39979,-24.062592,-12.495381,-9.61244,7.57906,12.197312,13.152838,10.99534,28.146579,30.249057,29.039119,27.017287,39.866251,39.514027,37.399384,38.522377,48.754359,46.979466,41.39408,27.292614,53.988533,77.392902,99.046612,44.446449,78.395176,96.423283,108.188725,33.43214,70.909595,90.27277,100.191364,25.708866,58.282356,76.934338,87.048283,21.328754,43.548031,58.718662,68.463421,-8.986537,-3.003911,8.416272,15.610257,32.951996,49.609972,50.884809,49.181733,49.322339,67.784353,64.464837,57.036756,58.321412,77.572597,73.91512,65.62525,61.310626,77.609462,77.419764,71.851112,-25.695162,362.738716,-70.81933,335.513268
20,-1.455231,-3.484637,0.190086,0.203529,5.104408,17.423801,35.593128,48.871822,-3.916969,26.694317,45.615635,57.579632,-12.083759,19.839535,40.216198,53.555889,-14.902611,11.326504,29.183178,40.207615,-14.51025,1.472912,12.429543,19.823399,-19.873506,-26.246519,-17.794431,-9.373095,-4.359147,11.324717,17.7743,20.694724,16.507305,30.622832,33.131381,31.106894,32.154181,42.6302,41.379322,37.300151,42.948338,52.125622,49.240273,43.010335,27.217941,53.786888,76.977367,98.391209,44.792919,78.609066,96.300602,107.682781,33.802757,71.413822,90.444202,100.138149,26.009502,58.747902,77.220325,87.164211,21.547108,43.940048,59.103642,68.650074,-9.050573,-3.124015,8.121414,15.233827,33.14546,49.697102,50.825344,49.045388,49.520496,67.271455,63.964658,56.821,58.558039,77.117064,73.644035,65.684592,61.629505,77.671274,77.355235,71.645854,-27.121153,359.249247,-70.600004,335.711966
21,-15.07267,-13.042799,0.245419,-0.288683,7.573986,28.323669,51.18845,67.133503,5.164375,46.250668,68.470631,82.258587,-3.700218,38.245869,60.88995,73.473072,-6.800137,26.406498,43.725529,53.369007,-6.504135,14.580402,24.815197,31.114769,-11.768826,-12.47031,-4.726438,4.323332,11.898996,31.159999,34.840941,36.025684,32.065816,49.925393,49.562857,45.075269,45.685116,61.146493,58.769534,53.174268,53.70032,68.075198,68.085881,65.028556,27.330666,53.674164,76.726685,98.230934,44.735527,78.281136,96.079445,107.55558,33.478031,71.09127,90.18528,99.963226,25.418072,58.333111,76.911964,86.953697,20.706081,43.195381,58.431187,68.133888,-8.758617,-2.840581,8.274679,15.438529,33.382273,50.129849,51.365722,49.476777,49.612072,67.355806,64.207831,57.148401,58.585209,77.235748,73.993543,66.207001,61.581648,77.966502,77.798727,72.213834,-42.15703,346.204117,-70.317793,335.420951
22,63.14661,-2.657985,-0.043831,0.444171,-5.218391,-9.843292,-12.242203,-15.850067,-51.652679,-33.421211,-8.48259,7.762985,-60.802288,-40.120411,-13.639297,7.649689,-63.190899,-49.354591,-24.06395,-4.12674,-61.846561,-67.275925,-58.466949,-47.113552,-11.481439,-11.58765,3.820745,17.302898,2.446798,28.545733,35.532546,37.772851,24.287796,45.384515,50.169184,50.262983,41.747539,56.280066,57.895643,56.496687,55.690844,66.65358,66.439615,64.75352,27.026653,53.380737,76.533165,98.08548,44.752007,78.530617,96.242523,107.862968,33.785877,71.386414,90.308533,100.007401,25.907707,58.815536,77.227936,87.197571,21.229534,43.925343,59.081726,68.742256,-9.055883,-3.216208,8.095664,15.359242,33.455694,49.653445,50.870236,49.149932,49.655297,66.725828,63.587487,56.741527,58.562794,76.639548,73.25402,65.5388,61.521256,77.62212,77.418221,72.013454,20.99699,343.548047,-70.354214,335.867036
23,-49.19529,18.840977,0.310478,-0.065641,7.89957,19.099102,35.859489,49.940529,-3.625946,23.916206,42.579002,53.451691,-13.123341,17.592773,37.486038,51.86039,-16.50238,7.79068,24.05468,34.424744,-15.738087,-8.078957,-3.252296,1.144009,-20.478289,-30.126482,-23.412545,-11.543807,-9.565015,7.318597,11.120755,11.563197,11.872566,28.05173,29.310142,27.168699,28.154483,39.686249,39.195827,36.606323,39.46438,48.777638,47.1775,41.642872,27.081757,53.435612,76.695328,98.398933,43.999557,78.059464,96.036072,107.840424,33.064613,71.086693,90.286903,100.233192,25.245209,58.640041,77.244301,87.26841,20.572243,43.614407,58.848553,68.441505,-9.026922,-3.150815,7.980623,15.285079,33.707203,50.033024,51.206035,49.342469,49.922368,66.824011,63.542224,56.616421,58.884946,76.727419,73.079637,65.236778,61.88157,77.869493,77.441439,71.841232,-28.160019,362.378186,-70.005455,335.790558
24,0.874157,-8.630299,0.164394,0.376925,4.614429,18.989697,37.321758,48.526897,-4.902763,26.887608,47.253399,60.43848,-13.699951,19.581814,40.908337,54.983768,-16.581287,9.580135,28.315601,40.64455,-15.615578,-2.599525,7.335606,15.387955,-17.040952,-21.382686,-11.841136,-2.938826,2.081915,19.715857,26.008533,28.564444,22.812887,37.198633,40.002967,37.992805,37.435138,47.834401,47.343979,43.83106,46.899747,57.518533,56.542814,52.230598,26.513786,52.913132,76.353664,98.05933,43.992004,78.15382,95.946865,107.614689,33.186893,71.213551,90.236721,99.833279,25.493202,58.762894,77.194004,86.989346,20.912247,43.799686,58.998928,68.44614,-9.373157,-3.886633,7.208558,14.3947,33.285942,49.704574,50.988056,49.416508,49.549766,66.468884,63.169128,56.465009,58.567734,76.413294,72.795214,65.252093,61.650068,77.737964,77.35295,71.987951,-27.269697,353.733206,-69.824896,336.152802
25,-18.78931,-15.100816,0.095959,-0.730631,12.303543,31.763134,50.284996,63.190498,12.567101,54.863892,75.424347,87.97966,1.775322,44.845734,63.995705,72.715302,-4.019508,26.956272,41.620445,48.487473,-6.993942,8.814869,14.551392,16.416607,-5.91643,-3.581462,3.972836,11.243453,28.255198,47.52182,49.306098,46.941181,45.818867,64.659227,61.63747,55.705602,55.245747,73.472184,71.010195,65.698548,59.475095,77.757477,82.255377,83.79216,26.562138,53.113346,76.299706,97.870789,43.70224,77.398224,95.053482,106.466446,32.621326,70.512314,89.759331,99.528236,24.570293,57.813606,76.39286,86.353683,19.487572,42.278652,57.829857,67.813797,-9.949659,-3.908925,7.690829,15.468046,33.683491,50.31967,51.584071,49.7302,49.706365,67.046498,63.589401,56.569614,58.428981,76.865925,73.106498,65.455251,61.089621,77.781436,77.474846,72.057359,-46.041784,338.664222,-69.711714,335.454003
26,67.133102,3.760538,0.090294,0.212668,-6.555061,-11.718979,-15.299034,-20.723419,-51.773415,-34.236603,-8.612938,7.669487,-60.948372,-40.413036,-13.266792,8.22567,-63.221455,-49.800224,-24.115219,-3.712463,-61.626377,-67.663536,-59.605007,-48.74794,-11.41197,-10.046175,7.505454,23.524066,0.179632,27.856969,36.669309,40.786271,22.469555,45.191607,51.618466,52.819388,40.374148,56.050046,59.36876,58.960405,54.812506,66.050402,66.763928,66.179893,26.457596,53.165817,76.55983,98.209991,43.717175,77.467804,95.000038,106.510048,32.911148,70.781479,89.921608,99.987946,24.994125,58.366928,76.831512,87.074318,20.054111,43.129807,58.381176,68.256226,-10.042346,-3.723488,8.313828,16.03368,33.94556,50.104408,51.477922,49.947315,49.857283,66.667289,63.706974,57.302406,58.397612,76.396745,72.847949,65.575356,61.004344,77.281567,77.079643,72.145168,21.086855,342.43674,-69.625883,335.678651
27,-49.042454,16.345828,0.22459,0.144125,8.616085,19.773102,37.293377,52.360096,-1.034603,25.920353,44.159374,54.456768,-10.979748,17.817535,37.764187,53.125935,-15.616035,7.258644,24.468327,35.620823,-15.99329,-8.968849,-2.997551,2.43845,-21.679273,-30.560032,-23.783109,-13.262074,-9.854872,7.538305,12.17539,12.810432,12.318651,29.893683,32.870485,31.250031,29.527627,42.355781,43.483837,40.996284,41.626817,52.94752,53.026067,48.10178,26.1553,52.726822,76.076946,97.521801,43.687878,77.438221,95.005245,106.48035,32.93335,70.861301,90.003605,100.047855,25.004711,58.388729,76.851139,87.119007,20.116081,43.097191,58.28413,68.115406,-9.854069,-3.89781,7.829705,15.619273,33.672685,49.713466,51.105938,49.500983,49.637204,66.31173,63.463924,56.992296,58.290166,76.146903,72.805835,65.585483,61.054917,77.342947,77.318494,72.399332,-27.950163,358.798777,-69.395857,335.838986
28,-5.710144,-17.237504,0.370445,-0.179879,5.347824,18.877087,34.459248,41.742268,-2.089119,37.196102,59.477406,73.769817,-10.475006,29.059353,52.468243,66.895695,-12.890453,16.637764,37.91296,50.243282,-11.403294,1.705227,13.817825,22.982712,-9.921439,-7.248634,5.058903,14.862398,18.138751,35.433621,39.267581,39.348721,36.111703,51.126871,52.887067,50.374998,47.491871,59.695976,58.33654,54.59428,54.440275,67.838879,67.610835,64.635144,26.140022,52.534046,75.768528,97.042065,43.216324,76.878376,94.556408,106.116886,32.398968,70.322857,89.590015,99.779949,24.474392,57.860756,76.4641,86.786327,19.585705,42.584667,57.905788,67.860317,-9.641277,-3.684277,7.748503,15.233703,33.864976,50.099221,51.497188,49.76299,49.710502,66.483396,63.53222,57.0249,58.359265,76.304367,72.817383,65.472603,61.164339,77.608474,77.508191,72.455402,-33.711634,341.573855,-69.076738,335.671689
29,60.024776,-2.548316,0.151062,-0.154685,-19.536552,-36.410522,-50.178394,-63.023071,-61.351891,-46.797752,-20.638733,-2.382431,-64.987392,-47.127571,-20.1091,2.063255,-64.170341,-51.614685,-26.037483,-5.332375,-60.934296,-66.754704,-60.040684,-50.61739,1.644166,13.850988,36.463804,55.108105,10.6856,36.818066,44.623132,48.115489,25.722443,48.715394,54.754461,55.393331,38.58598,56.72856,59.981633,59.852204,49.01124,64.051418,66.098691,67.025935,25.815754,52.225113,75.365467,96.307926,42.978344,76.705456,94.232197,105.737171,32.114983,70.008488,89.302197,99.477596,24.159679,57.465191,76.186466,86.645336,19.273739,42.197514,57.547131,67.575588,-9.963305,-4.27776,7.249128,15.185908,33.862876,50.136518,51.630878,50.117252,49.746317,66.574478,63.611075,57.068002,58.50302,76.282569,72.877774,65.546766,61.429063,77.720057,77.771309,72.804724,26.244965,339.037997,-68.993855,335.529462
30,-32.440681,11.557948,-0.394764,-1.21568,-8.981266,-15.024605,-17.213345,-19.291134,-29.254189,-5.094624,13.806038,24.639931,-29.130478,-2.69434,17.675514,32.728386,-25.797615,-3.370514,16.522408,29.125328,-19.412842,-8.915062,2.464371,9.971581,2.078395,12.924485,27.193955,37.096066,18.427002,32.866101,35.668273,37.801935,22.388106,37.091929,40.125973,41.812686,23.427304,36.582611,36.737852,36.84116,22.348956,33.978782,36.646894,39.883233,26.11021,52.598648,75.88131,97.041435,42.955112,76.527328,93.913879,105.540962,31.810799,69.46106,88.829041,99.618645,23.636169,56.579132,75.446091,86.455765,18.430424,41.227741,56.723614,67.017403,-9.4396,-3.679645,7.614999,15.512938,34.70015,50.954526,52.668779,51.330524,50.482629,66.671858,64.15485,57.993826,58.930332,76.091575,73.400306,66.469255,61.431965,77.583526,77.836703,72.880183,-6.249075,350.637966,-69.441977,334.355803
31,30.653458,-6.493118,-0.632057,-1.66158,0.448265,-4.998093,-13.348274,-19.182014,-50.985889,-37.300129,-11.958733,5.034943,-62.290821,-47.993546,-22.273979,-1.307831,-65.702362,-58.787041,-34.328442,-15.314484,-65.253868,-79.952431,-81.573143,-80.739326,-12.349959,-14.248969,-4.36174,5.858509,2.491073,29.322801,36.340735,38.095311,21.285799,41.455645,47.049924,48.333097,35.522604,49.430958,53.457887,54.250824,47.423822,56.162617,61.565099,65.821184,26.025696,52.105064,75.389328,96.521873,42.467937,76.287918,94.12262,106.258965,31.418724,69.105606,88.670654,99.974213,23.982639,56.830101,76.360359,88.035278,19.581242,42.856979,58.534813,69.232407,-10.539375,-5.800587,4.915086,13.233793,32.356166,51.240615,54.830537,55.231606,48.417387,66.911697,65.950922,61.091659,57.573367,75.91818,74.100371,67.805781,60.786118,76.730197,77.261868,72.770205,24.260988,344.203234,-70.217428,332.752608
32,-14.141579,-2.130883,1.913567,-7.288031,-1.852112,-8.844681,-16.491966,-26.782894,-38.99929,-18.318729,4.301262,18.412743,-48.601055,-26.503773,-1.05114,18.395119,-51.567936,-36.043682,-14.344482,2.023888,-50.549641,-58.797169,-56.671257,-52.070675,-10.903517,-4.03576,18.749401,37.156273,5.351538,30.934301,39.477656,43.717748,21.200151,42.91419,51.054191,54.293864,33.776426,51.481504,56.970313,59.69647,44.255903,55.443472,60.591295,65.673416,28.78109,52.530441,72.498207,90.260696,45.73534,74.562721,90.66227,101.807213,33.100033,66.49498,84.689941,95.895653,23.367863,52.428474,69.149551,79.177322,15.970516,35.839462,48.461666,57.287006,-11.941233,-7.60339,1.481084,8.659816,28.151889,53.081951,63.771812,70.009962,43.241652,68.029132,73.544926,73.569811,52.513724,75.225896,79.415414,78.150395,56.656003,76.370563,80.586943,78.934872,9.601736,342.230679,-68.821535,325.622905
33,1.231499,21.412635,1.555653,-10.855414,-19.72681,-38.459301,-53.006802,-63.102665,-43.837051,-49.779053,-44.262028,-35.428333,-37.093449,-36.452465,-28.799458,-21.218433,-28.466434,-26.001606,-19.251137,-13.058968,-19.148827,-18.360443,-12.327919,-8.267097,-5.890742,-3.140873,6.190602,14.09731,-0.103247,6.261245,13.562058,18.49783,7.744181,15.13058,23.72315,27.56736,14.309423,22.274115,28.020176,29.226717,19.885238,26.211136,31.936757,34.741091,27.907963,50.404129,67.507954,81.416874,45.758114,70.302143,84.783268,96.938381,34.700031,63.062954,79.304752,93.032856,24.258385,46.987152,58.732624,67.572727,13.760777,26.87748,33.287544,37.941341,-15.355845,-12.623698,-5.773849,-0.951389,20.033316,45.501964,60.969331,72.907909,34.924613,61.378304,75.098999,84.800544,45.31943,70.057077,81.886357,88.35743,51.734866,73.289464,81.890062,84.323954,10.214596,363.894159,-67.884521,315.018337
34,51.199837,-58.84734,8.98819,-13.756139,-34.166679,-59.514771,-75.607395,-84.371967,-72.465191,-102.884045,-105.379314,-100.129852,-64.488945,-95.849648,-95.208549,-87.681599,-54.958878,-83.556976,-82.609634,-75.68882,-43.524971,-64.093323,-66.722603,-63.562775,-3.169402,12.016074,26.615169,35.009458,42.735237,66.212806,58.958367,50.746303,52.619193,76.827207,68.729876,60.359052,57.826914,77.386419,69.636866,61.869776,58.731681,75.979498,73.130519,69.005283,22.821693,39.885464,48.658619,54.145718,47.791958,67.498913,70.883732,68.730068,41.079826,58.203564,54.284306,44.550133,30.642586,42.421131,37.291603,28.417454,16.451168,23.77327,22.06192,17.485828,19.251,34.744549,49.957442,64.782172,27.288372,48.174337,65.059184,78.677064,28.095696,54.958608,74.801053,88.118023,31.587373,58.175434,73.370666,81.359564,36.966575,55.996817,64.900733,68.52153,61.160803,305.219026,-59.149961,301.434405
35,11.824608,-6.815208,-20.331268,-36.629069,-30.914955,-55.648155,-71.081772,-78.134079,-71.272087,-100.836353,-105.904713,-104.25024,-61.830368,-93.447533,-99.159851,-96.182785,-49.973488,-77.807236,-85.26083,-83.931198,-37.243309,-58.571205,-67.138023,-68.679428,-12.849396,-6.248154,6.975203,21.914418,22.544581,48.474382,55.756052,56.611481,39.010514,68.113174,71.761204,69.095994,49.939164,74.798274,77.519615,75.763556,55.947479,75.252078,76.942866,74.883798,13.060074,24.90179,29.995632,32.056713,38.705539,55.130558,60.062809,62.102737,36.889152,53.497944,55.186405,53.520565,31.804638,45.809803,47.304649,46.253166,23.653507,34.051761,36.994991,38.011093,5.744682,10.307708,15.526524,19.964053,11.25321,25.856359,37.905573,47.828535,15.9737,34.84512,48.906285,58.731929,21.701092,40.951536,52.132724,58.371224,28.258512,42.379679,49.270736,52.723181,73.190517,298.280163,-79.276123,264.681681
36,47.337456,-34.963454,-20.331269,-36.629068,-28.386154,-57.643318,-80.489502,-95.542374,-71.152382,-104.298019,-119.285431,-129.23933,-64.159126,-100.819817,-118.333168,-128.659859,-55.284233,-89.377556,-106.344795,-116.432304,-45.977669,-71.506462,-85.12001,-94.510345,-15.777539,-10.267241,3.021695,14.095334,21.259555,44.931576,56.60827,63.908157,36.730565,60.9245,71.929103,78.944073,47.353859,69.459889,79.363544,86.370116,53.050211,72.14807,79.448636,84.941891,3.298455,9.918118,11.332646,9.967709,29.619122,42.762204,49.241887,55.475407,32.698479,48.792324,56.088505,62.490998,32.96669,49.198475,57.317696,64.088879,30.855847,44.330254,51.928063,58.536358,-7.761636,-14.129132,-18.904395,-24.854067,-4.781952,3.538381,10.751961,16.980005,3.851703,14.731631,23.011518,29.345834,11.814809,23.727637,30.894781,35.382883,19.550448,28.762539,33.640739,36.924832,120.613575,263.679801,-99.52179,228.415705
37,2.498245,-5.805033,-20.331268,-36.629068,-29.009285,-48.665199,-61.478462,-71.218414,-73.947029,-102.738533,-107.323036,-104.506874,-70.658798,-101.394882,-103.415565,-99.788589,-63.581657,-90.482712,-94.15844,-93.241539,-54.317322,-75.425148,-81.717796,-82.853165,-12.406399,-10.911113,-4.714335,3.151679,16.925479,37.078405,43.624752,42.471625,29.160582,51.69269,56.41567,52.737198,36.876976,55.881035,61.080852,60.927773,40.748788,57.246646,62.511671,62.994189,-6.463165,-5.065556,-7.330341,-12.121296,20.532703,30.393848,38.420963,48.848076,28.507805,44.086704,56.990604,71.46143,34.128742,52.587147,67.330742,81.924591,38.058186,54.608746,66.861134,79.061623,-21.267953,-38.565973,-53.335313,-69.672187,-20.817114,-18.779597,-16.40165,-13.868525,-8.270294,-5.381857,-2.88325,-0.040261,1.928527,6.503739,9.656838,12.394543,10.842384,15.1454,18.010743,21.126483,123.138685,258.61301,-119.826193,192.524879
38,32.812386,-25.848167,-14.645748,-33.85738,-4.853325,-15.085373,-25.846252,-35.801582,-44.713326,-72.017326,-87.693329,-102.588387,-49.088402,-78.671379,-95.702362,-111.339684,-49.473953,-76.794777,-92.624474,-106.778641,-46.312981,-68.400078,-80.192757,-90.14122,-16.634943,-27.494988,-32.081377,-34.542501,-5.583102,2.856265,12.156865,20.9387,9.034271,19.387098,28.991695,38.189172,20.562949,29.670888,37.938527,47.523549,29.496381,38.206524,44.356062,51.746598,-11.861343,-17.916126,-25.037098,-39.779263,6.597576,12.686234,7.910328,6.843281,21.651821,29.58704,26.522198,25.546932,34.22533,46.00462,45.079479,44.950504,44.576912,57.520809,65.174904,72.022076,-21.368545,-42.821996,-59.836211,-73.856395,-30.500474,-31.67861,-26.594235,-26.063552,-20.088397,-18.347715,-15.712207,-16.76005,-12.290864,-12.296545,-10.484541,-10.632618,-6.624152,-7.913315,-12.947394,-18.522901,156.268044,232.743709,-134.154968,158.646364
39,-5.595818,-17.103012,-22.16074,-14.985158,-23.552284,-40.775414,-51.784172,-59.135513,-54.905891,-69.912071,-71.805267,-71.446609,-50.2565,-65.060806,-65.406761,-65.236473,-44.217796,-56.615067,-58.32859,-58.848038,-37.23587,-47.031898,-49.724236,-49.63028,-1.569325,3.262213,8.642773,12.49359,14.573406,17.544404,17.287892,16.979573,16.124453,21.531998,20.737517,18.771075,16.492732,21.512362,20.471805,19.063278,15.666759,18.791144,18.606078,18.117509,27.070026,49.315968,66.07584,71.316719,41.46452,49.927197,48.388882,47.334366,25.409832,30.536556,30.843372,31.362019,9.246826,9.61338,7.55619,7.123661,-5.238647,-9.49379,-14.133797,-16.930275,-5.422551,-12.03497,-18.273058,-23.04618,-11.073948,-15.987583,-22.517041,-27.536114,-18.228907,-24.407097,-32.415014,-37.341864,-25.138222,-33.012233,-39.628852,-43.027378,-31.2747,-43.096878,-53.432014,-61.463643,150.836849,216.474699,-156.151085,144.495208
40,21.380081,-25.665509,-8.272791,-30.949754,17.584419,27.911453,36.368637,45.805435,-4.258804,-16.081352,-26.532669,-35.25341,-21.035385,-38.456383,-49.144363,-56.695518,-34.959297,-55.405769,-66.180725,-73.627396,-44.076462,-62.680435,-72.892342,-79.772873,-16.08413,-28.469719,-41.384509,-54.474052,-22.039093,-25.7795,-27.040197,-27.694689,-14.033275,-14.766685,-14.058099,-10.904444,-6.527513,-7.484088,-6.706589,-3.881631,0.472638,0.487828,2.237711,5.75767,3.200855,8.492003,11.505804,8.22278,17.42589,23.350411,22.44009,21.604643,19.790669,25.851917,23.682203,22.169895,20.520373,26.381722,22.062779,19.227877,20.791226,24.795628,19.685955,15.40987,-10.705885,-23.933858,-35.722135,-44.400121,-26.683511,-35.762505,-37.087375,-37.507556,-27.82435,-37.803031,-36.776199,-35.450526,-27.529631,-38.851306,-38.331028,-37.013321,-25.98056,-38.707243,-42.979816,-45.474609,171.68169,191.715254,-164.959116,114.451518
41,29.318161,-19.128672,-8.272791,-30.949755,15.917358,22.003098,25.28492,32.617378,-13.026123,-25.416183,-33.523293,-38.312416,-29.021301,-49.263268,-60.38784,-66.607361,-39.928665,-62.329216,-73.399429,-79.649277,-46.396523,-67.196274,-77.505341,-84.697495,-16.514345,-34.34385,-48.775601,-62.249571,-36.388345,-47.172653,-49.494252,-48.765998,-27.557233,-39.049602,-41.89574,-39.879713,-17.919476,-27.543092,-30.962089,-30.334581,-6.526216,-13.077935,-14.153503,-12.419675,-20.668316,-32.331963,-43.064232,-54.871159,-6.61274,-3.226376,-3.508701,-4.12508,14.171505,21.167278,16.521034,12.977772,31.793919,43.150063,36.569366,31.332092,46.821098,59.085045,53.505707,47.750015,-15.989219,-35.832745,-53.171211,-65.754062,-42.293073,-55.537425,-51.657709,-47.478996,-37.419793,-51.198965,-41.137383,-33.559188,-29.921039,-44.690379,-37.033204,-30.999263,-20.686419,-34.317606,-32.527616,-29.485575,199.606333,173.44959,-174.625425,84.364771
42,-1.460838,-21.233373,-9.920368,-4.812734,16.854172,24.705276,33.386307,42.394867,-7.396774,-18.939857,-21.6259,-20.679131,-26.393051,-46.580315,-53.029175,-53.279686,-38.922844,-60.272026,-67.250748,-68.541756,-45.994263,-65.270233,-73.030243,-77.045517,-17.630545,-35.728912,-50.492417,-62.073058,-36.918348,-56.5095,-61.239983,-60.472055,-30.55469,-53.4435,-60.016646,-59.973112,-22.712481,-42.968252,-48.822438,-48.446687,-13.36001,-27.454171,-32.128894,-32.553767,-13.423634,-23.945446,-37.07674,-53.227043,-12.434406,-4.234543,4.094009,10.715103,6.097469,20.417919,31.573162,38.766975,22.582569,40.000477,50.730515,58.643188,36.605701,52.21859,58.65778,63.207035,-26.808447,-52.253384,-69.440685,-84.22148,-42.323825,-62.861055,-76.584868,-87.049556,-33.43158,-53.754722,-69.119706,-78.807512,-25.400569,-44.145246,-59.006502,-68.42699,-17.107519,-30.710579,-41.12281,-48.83377,197.953548,154.273324,-184.73774,81.609144
43,-5.121002,-2.62112,11.007957,-34.177989,18.378639,24.929008,32.360687,43.508034,-3.438721,-16.760445,-25.341339,-32.125282,-19.101448,-34.802513,-45.601845,-56.048927,-31.095314,-47.181587,-58.422432,-68.157806,-40.617027,-58.110123,-69.473076,-80.142288,-22.748265,-47.320329,-64.476847,-76.317087,-52.668625,-69.666228,-81.066435,-92.453489,-44.938893,-63.910071,-77.456568,-89.591758,-36.236006,-54.481092,-67.643192,-78.507127,-26.236669,-39.222997,-48.620329,-56.103831,-19.599667,-32.308846,-45.081196,-60.307159,-13.412876,3.573647,13.704929,16.856747,7.627544,32.359371,40.992107,39.274406,25.90662,51.415215,58.970261,57.839756,40.627327,63.197308,69.203854,68.33353,-21.632867,-46.046232,-62.981067,-75.052902,-45.141774,-78.494468,-88.420137,-91.317868,-35.726164,-72.519344,-84.387434,-86.554009,-25.549202,-57.727249,-69.311349,-73.639219,-15.274211,-39.792212,-48.193757,-51.374521,192.035093,153.513948,-174.527235,49.292899
44,-25.059586,-25.094997,7.984943,0.694383,16.100121,25.92144,34.677429,46.924782,-16.10836,-34.310646,-41.36879,-44.606438,-31.776009,-53.7854,-59.81163,-62.352791,-42.886162,-65.09697,-72.397499,-77.390556,-50.26577,-71.904945,-81.862221,-89.548645,-21.674086,-41.614375,-56.562328,-66.183351,-57.517884,-78.160275,-84.983449,-87.156909,-50.949061,-75.617702,-85.396374,-88.658772,-41.89642,-63.938353,-74.7544,-80.337842,-29.596478,-42.416667,-50.51088,-56.870123,-14.219627,-22.66428,-34.160442,-49.503765,-0.9795,10.519009,21.725693,31.768284,15.386868,37.644939,54.070187,67.095394,29.530735,54.29163,69.305649,80.714092,41.050758,63.682079,76.517658,87.836895,-32.512395,-61.347491,-81.424865,-94.87605,-61.031637,-84.350507,-97.883233,-107.650636,-50.611996,-76.008273,-90.960919,-101.516226,-40.759131,-64.544618,-79.547961,-91.350379,-31.377762,-50.78993,-61.868664,-71.431456,163.861856,130.68516,-169.655943,52.253492
45,-19.344406,7.155082,43.826122,-49.060208,13.208542,19.423714,21.818275,19.957581,-19.793472,-37.560196,-52.117882,-65.898972,-32.505913,-52.946205,-67.566376,-82.619019,-40.478325,-59.911079,-73.821831,-86.200676,-43.888664,-61.465416,-75.025177,-88.810616,-31.95979,-58.803127,-75.357856,-78.928111,-64.135738,-79.240475,-88.680168,-97.328498,-52.017837,-68.625301,-81.203953,-92.364722,-38.32351,-55.630637,-67.774165,-76.661593,-24.991905,-40.051749,-49.91647,-58.678144,-23.448486,-37.902946,-48.898773,-59.099178,-2.878361,6.626587,11.506577,14.649639,17.43948,31.474743,39.012165,43.319263,33.86404,49.751816,57.243347,62.945023,46.687546,63.458233,72.183495,79.567394,-18.415671,-39.499639,-55.25078,-65.071318,-45.941936,-60.810941,-62.189581,-61.966446,-37.203697,-56.083237,-61.890771,-63.313315,-26.972487,-46.83355,-53.976498,-57.369992,-16.392233,-31.55551,-38.386156,-43.552257,145.853634,141.095925,-124.493637,6.448966
46,-56.743584,-11.835238,34.935837,-5.762054,7.068214,7.434998,13.04718,23.309097,-42.738075,-71.731682,-84.747849,-90.13401,-53.949394,-88.231659,-101.547203,-107.62167,-59.763451,-93.03154,-107.068233,-116.575584,-60.210571,-88.456421,-102.387543,-112.988491,-23.727874,-45.643836,-57.026938,-62.280972,-63.280124,-75.873997,-76.913071,-74.354011,-54.06934,-66.395093,-68.793139,-67.374794,-42.130114,-54.252029,-58.179509,-58.359573,-27.711393,-37.27684,-42.076391,-44.944914,-17.508831,-28.203392,-38.691559,-49.33588,27.179089,46.579971,49.137955,46.032143,42.22744,59.607697,57.861328,52.425442,52.377663,69.046555,65.960083,58.998871,59.171906,74.871082,76.978168,75.074673,-22.600651,-43.638213,-56.737946,-64.424081,-65.421814,-82.610133,-85.916683,-83.336071,-56.378589,-75.377678,-76.795221,-73.65407,-44.737865,-61.823154,-61.651766,-55.275789,-30.620053,-41.129665,-45.040504,-45.915816,90.871124,132.697452,-87.796726,4.123677
47,-49.075699,12.084401,52.227345,-9.620436,6.318626,3.878059,5.318527,6.287842,-47.541847,-74.550247,-85.338249,-88.349476,-59.254532,-93.854485,-102.497005,-105.75491,-65.537567,-98.288269,-109.971428,-116.468811,-65.375748,-92.862625,-104.84436,-112.245369,-25.173945,-46.866679,-58.772437,-60.335556,-48.371722,-61.388277,-68.670719,-71.233083,-41.079739,-53.640792,-62.13135,-64.93732,-34.479948,-46.014709,-54.609934,-57.553854,-27.13591,-34.240573,-41.174928,-44.796806,-17.663383,-24.600048,-29.560776,-34.565907,29.913368,53.808289,56.106834,52.586975,43.365898,72.673302,74.668236,71.702728,50.894737,78.084412,82.657814,81.760826,54.756775,78.355637,86.805725,89.235878,-21.778845,-39.714592,-50.771096,-59.078842,-60.92944,-73.513094,-75.144972,-72.837544,-51.979089,-64.008594,-63.625124,-60.297548,-39.699988,-50.400131,-51.547114,-49.600061,-24.732831,-31.166977,-33.743513,-34.27892,41.871386,147.645544,-35.493422,-2.633068
48,6.416679,22.859558,36.220665,16.331363,3.505714,-0.984764,-1.935448,-2.624176,-49.941696,-76.97208,-89.740047,-95.82922,-60.530388,-94.323372,-105.602978,-112.436485,-66.130463,-98.05616,-111.34148,-120.189354,-66.047562,-92.974434,-105.772705,-114.640629,-23.145277,-41.876227,-51.744487,-52.661962,-40.873289,-51.796876,-58.285671,-60.824885,-34.572833,-45.183406,-52.51675,-55.102844,-29.030067,-39.033695,-46.364692,-49.046413,-23.196579,-29.392949,-35.617984,-39.013898,-19.284839,-25.9451,-30.340976,-33.681249,28.324929,54.979592,60.99123,62.277775,44.391575,74.61422,78.188153,76.594677,53.917237,81.850548,86.938878,86.811562,59.333497,83.813553,90.981102,92.731705,-24.718397,-44.68936,-58.899211,-68.774892,-50.086578,-62.694761,-66.498695,-66.929466,-41.402092,-57.551199,-61.85917,-60.918603,-32.513259,-47.816478,-51.804875,-51.468475,-23.265317,-33.500618,-37.852601,-39.197124,48.093172,173.630692,0.53235,16.823885
49,6.416679,22.859558,36.220665,16.331363,0.692803,-5.847587,-9.189422,-11.536193,-52.341545,-79.393913,-94.141845,-103.308963,-61.806244,-94.792259,-108.70895,-119.118061,-66.723358,-97.824051,-112.711532,-123.909896,-66.719375,-93.086242,-106.701049,-117.035888,-21.11661,-36.885775,-44.716536,-44.988368,-33.374857,-42.205474,-47.900622,-50.416686,-28.065927,-36.726021,-42.902149,-45.268369,-23.580185,-32.052682,-38.11945,-40.538973,-19.257249,-24.545326,-30.061039,-33.230991,-20.906296,-27.290154,-31.121178,-32.796593,26.736488,56.150894,65.875626,71.968575,45.417252,76.555138,81.708069,81.486626,56.939735,85.616684,91.21994,91.862297,63.910217,89.271469,95.156479,96.227531,-27.657948,-49.664127,-67.027324,-78.470942,-39.243714,-51.876428,-57.852417,-61.021387,-30.825096,-51.093804,-60.093216,-61.539658,-25.32653,-45.232825,-52.062637,-53.336887,-21.797803,-35.834258,-41.96169,-44.115328,54.278537,199.196415,36.521702,35.861413
50,6.41668,22.859558,4.832554,25.051864,-2.12011,-10.710411,-16.443398,-20.448212,-54.741394,-81.815747,-98.543644,-110.788708,-63.0821,-95.261147,-111.814923,-125.799637,-67.316254,-97.591942,-114.081585,-127.63044,-67.39119,-93.198052,-107.629395,-119.431149,-19.087942,-31.895323,-37.688586,-37.314774,-25.876424,-32.614073,-37.515574,-40.008487,-21.55902,-28.268635,-33.287548,-35.433893,-18.130304,-25.071668,-29.874207,-32.031532,-15.317919,-19.697702,-24.504095,-27.448083,-4.244098,1.073971,5.32425,7.545605,50.269833,71.908779,74.359761,75.595551,63.718243,86.954899,85.577889,81.882305,70.316449,92.013188,90.070439,85.873833,72.984925,91.381359,91.86184,89.118119,-22.299093,-38.22562,-50.453668,-60.396472,-29.349168,-49.858564,-56.92948,-57.49445,-26.117923,-51.560668,-60.185518,-59.481038,-26.19011,-50.502065,-57.046806,-55.951292,-28.120721,-46.532702,-51.433462,-50.188296,60.522326,221.261986,41.181364,60.11929
51,6.416679,22.859558,4.832554,25.051864,-4.933021,-15.573234,-23.697372,-29.360229,-57.141243,-84.237579,-102.945442,-118.268452,-64.357956,-95.730034,-114.920894,-132.481212,-67.909149,-97.359833,-115.451637,-131.350983,-68.063003,-93.30986,-108.557739,-121.826408,-17.059274,-26.904871,-30.660636,-29.64118,-18.377991,-23.022672,-27.130526,-29.600289,-15.052114,-19.811249,-23.672947,-25.599418,-12.680423,-18.090654,-21.628965,-23.524092,-11.378588,-14.850079,-18.947151,-21.665176,12.418098,29.438095,41.769676,47.887802,73.803177,87.666664,82.843895,79.222527,82.019234,97.35466,89.447708,82.277985,83.693161,98.409691,88.920937,79.885368,82.059631,93.491249,88.5672,82.008705,-16.940238,-26.787113,-33.880012,-42.322003,-19.454622,-47.840699,-56.006543,-53.967514,-21.410751,-52.027532,-60.277819,-57.422418,-27.053689,-55.771305,-62.030975,-58.565696,-34.443639,-57.231146,-60.905234,-56.261263,66.714329,242.885857,45.789242,83.935467
52,6.41668,22.859558,-33.401489,25.917307,-7.745934,-20.436058,-30.951347,-38.272247,-59.541092,-86.659412,-107.34724,-125.748196,-65.633812,-96.198921,-118.026867,-139.162788,-68.502045,-97.127724,-116.82169,-135.071526,-68.734818,-93.421669,-109.486084,-124.221668,-15.030606,-21.914418,-23.632685,-21.967586,-10.879558,-13.43127,-16.745477,-19.19209,-8.545207,-11.353863,-14.058346,-15.764942,-7.230541,-11.10964,-13.383723,-15.01665,-7.439257,-10.002455,-13.390206,-15.882268,7.570953,22.358837,33.126774,39.316482,65.972557,86.427765,89.433098,91.462021,73.668861,95.486755,96.029816,95.637474,75.891609,94.883079,94.371452,92.834473,75.452309,89.85054,90.227508,88.871384,-17.703586,-28.008649,-35.067349,-41.62126,-18.02016,-40.066045,-48.03933,-48.133417,-17.650429,-40.832563,-48.52863,-48.333283,-20.89107,-42.198163,-47.893702,-46.887273,-25.735863,-42.590937,-46.015615,-43.794946,74.016867,263.465743,13.273611,107.573103
53,38.201866,-2.845891,-33.401489,25.917306,-2.843742,-12.125816,-18.953934,-24.359436,-54.371109,-76.582489,-91.073685,-101.79039,-63.399696,-91.88839,-108.750343,-122.527084,-69.295235,-96.768608,-113.985786,-128.21537,-72.21817,-96.792526,-111.705437,-124.016361,-9.631459,-12.338844,-14.794781,-15.250376,-2.953337,-5.454476,-7.919058,-10.691405,-2.182321,-5.088913,-7.946228,-8.931703,-1.970209,-5.046923,-7.218067,-8.947202,-2.291681,-3.667048,-5.829795,-8.208297,2.723808,15.279579,24.483871,30.745163,58.141937,85.188865,96.0223,103.701515,65.318489,93.61885,102.611923,108.996963,68.090057,91.356468,99.821968,105.783577,68.844986,86.209831,91.887817,95.734062,-18.466934,-29.230185,-36.254685,-40.920516,-16.585697,-32.29139,-40.072116,-42.29932,-13.890106,-29.637594,-36.77944,-39.244146,-14.728451,-28.625021,-33.756428,-35.208849,-17.028087,-27.950727,-31.125995,-31.328629,112.282305,260.178846,-20.064306,133.049403
54,0.888176,-16.109571,-33.40149,25.917307,-25.13237,-47.181816,-62.686615,-74.619484,-66.3731,-84.399948,-88.904915,-91.193161,-67.013741,-88.591576,-91.315155,-91.273727,-66.238632,-85.534515,-85.349121,-82.365417,-65.218506,-79.395905,-80.04982,-78.513107,-3.043493,0.62794,3.290432,4.843023,16.687617,18.573165,15.254143,13.025447,14.625276,17.041323,12.187988,9.558038,11.21863,12.247762,8.213855,6.50979,6.079143,4.90323,2.840334,2.194857,-2.123337,8.200321,15.840969,22.173843,50.311317,83.949966,102.611504,115.94101,56.968117,91.750946,109.194031,122.356453,60.288506,87.829857,105.272484,118.732681,62.237663,82.569122,93.548126,102.596741,-19.230282,-30.451722,-37.442023,-40.219772,-15.151235,-24.516735,-32.104904,-36.465224,-10.129785,-18.442625,-25.030252,-30.155011,-8.565832,-15.051879,-19.619156,-23.530427,-8.320312,-13.310517,-16.236375,-18.862312,113.474779,242.6938,-53.161497,157.591235
55,22.452964,-22.314962,-58.223934,19.190917,-4.4664,-10.520668,-14.794635,-18.248748,-43.684158,-62.223701,-65.793285,-65.545406,-53.987331,-75.481567,-75.864372,-73.334369,-60.157814,-79.759998,-78.228721,-74.758014,-62.681007,-78.884067,-80.023098,-78.120174,-11.186118,-16.561862,-22.210821,-26.644346,-11.181518,-18.440973,-21.169076,-21.219094,-9.258919,-16.832946,-20.709483,-20.66459,-8.690167,-16.388652,-19.712152,-19.21713,-9.306806,-15.604021,-18.098089,-17.539834,7.347336,16.79203,21.35891,24.362297,63.168354,91.323624,110.194759,128.249416,68.448372,101.372967,121.579571,141.038303,69.152756,99.571724,119.437466,136.465816,67.144032,90.079365,105.725269,119.567127,-13.69797,-22.393849,-29.361456,-32.08397,-8.851057,-16.972039,-21.363234,-25.162799,-7.366515,-15.26359,-21.383303,-27.3931,-8.840992,-15.358192,-20.027202,-24.617172,-12.387565,-16.914117,-19.96996,-23.513816,136.058549,218.441558,-111.254625,174.844871
56,22.452965,-22.314963,-14.493027,0.911313,16.19957,26.14048,33.097343,38.121986,-20.995216,-40.047455,-42.681656,-39.897652,-40.960922,-62.371559,-60.413589,-55.395012,-54.076996,-73.985481,-71.108322,-67.150612,-60.143509,-78.372231,-79.996376,-77.727242,-19.328743,-33.751664,-47.712073,-58.131714,-39.050652,-55.455112,-57.592294,-55.463633,-33.143113,-50.707215,-53.606953,-50.887218,-28.598962,-45.025066,-47.638158,-44.944049,-24.692755,-36.11127,-39.036511,-37.274525,21.588879,39.443035,51.079617,62.012444,53.487911,73.236122,86.379948,96.29076,53.699856,77.687874,91.332493,101.563396,52.178764,74.513855,88.799915,99.640789,49.339428,66.751842,78.818493,88.281784,2.341205,2.06444,0.610712,-1.320471,0.914153,-3.247392,-5.509619,-6.40253,-0.302392,-3.410722,-5.888952,-7.79741,-2.137614,-4.092941,-6.300209,-8.170753,-3.864217,-4.90218,-5.154801,-5.990284,157.626085,196.032734,-126.633081,175.662323
57,-0.674515,-10.893328,-19.360814,-17.216246,12.100182,13.642616,16.435204,22.254066,-19.073524,-37.491646,-49.86351,-62.518387,-31.643143,-51.331215,-64.363632,-78.889732,-40.146217,-60.354996,-73.568459,-86.463089,-45.103798,-64.769096,-77.272911,-89.378128,-23.708268,-46.05003,-62.619611,-78.146567,-50.080263,-59.996947,-67.330241,-76.061626,-39.948194,-50.288486,-59.925533,-70.794192,-29.927646,-41.475127,-51.003463,-60.755026,-19.608411,-29.905725,-37.393765,-44.433528,12.051673,22.335906,27.066136,30.748158,41.043163,58.232117,67.086783,73.541723,46.104284,67.180281,76.029869,82.089329,48.776336,68.597517,77.757869,84.230805,49.631324,65.120731,72.55723,78.060093,-3.111573,-7.976116,-12.467354,-16.228263,-9.735223,-14.001127,-14.540841,-14.327022,-9.137826,-13.777914,-14.246168,-13.940063,-8.966932,-12.814338,-13.62952,-14.156182,-8.704022,-11.462367,-11.347758,-11.488942,155.646887,185.114937,-147.29858,158.421609
58,-31.644287,-31.654002,-19.360814,-17.216247,11.800919,17.570572,19.70192,24.865379,-25.789032,-50.519142,-65.545235,-79.34063,-40.901413,-67.84481,-82.299271,-95.371742,-50.409393,-77.83699,-92.45842,-105.817451,-55.564156,-80.400581,-94.219551,-107.761688,-23.00808,-41.265207,-55.050894,-64.240436,-44.598741,-51.551313,-56.539171,-58.87698,-33.564406,-43.829918,-52.091845,-57.257946,-23.746461,-36.197628,-45.286425,-51.027546,-14.218187,-25.961818,-33.020755,-37.964277,2.514468,5.228777,3.052655,-0.516128,28.598414,43.228112,47.793618,50.792685,38.508711,56.672688,60.727244,62.615261,45.373907,62.681179,66.715823,68.82082,49.92322,63.489619,66.295967,67.838402,-8.56435,-18.01667,-25.54542,-31.136055,-20.384598,-24.75486,-23.572062,-22.251514,-17.97326,-24.145106,-22.603383,-20.082716,-15.796249,-21.535734,-20.958831,-20.14161,-13.543826,-18.022552,-17.540714,-16.9876,122.248163,153.589191,-168.41383,141.333617
59,-15.718689,9.434351,-19.360814,-17.216246,-1.194649,-4.348869,-6.495781,-6.593742,-37.887955,-56.869354,-74.988327,-92.357712,-43.585052,-65.633583,-83.264122,-101.198158,-45.400314,-63.393631,-79.013672,-92.694511,-43.606682,-57.837067,-69.970322,-82.782898,-30.573524,-56.341107,-72.935233,-76.852741,-53.769758,-63.766748,-69.702445,-75.139445,-41.488805,-51.83061,-60.111,-66.598807,-28.040028,-38.341479,-46.022119,-50.724135,-15.903325,-25.505884,-30.582509,-34.124019,-7.022738,-11.878352,-20.960827,-31.780414,16.153665,28.224106,28.500452,28.043647,30.913139,46.165095,45.424619,43.141194,41.971479,56.764841,55.673776,53.410835,50.215116,61.858506,60.034704,57.616711,-14.017128,-28.057226,-38.623486,-46.043848,-31.033974,-35.508594,-32.603284,-30.176006,-26.808695,-34.512298,-30.960599,-26.225369,-22.625567,-30.257131,-28.288142,-26.127039,-18.38363,-24.582739,-23.733671,-22.486258,106.121864,163.314541,-188.182254,124.40837
60,-40.106049,4.936884,-19.360814,-17.216247,-5.576019,-13.594666,-20.944977,-26.783066,-71.234779,-101.454048,-116.769905,-127.865067,-75.298805,-109.32003,-125.065269,-137.29969,-74.40731,-106.574707,-124.004173,-138.400841,-67.31987,-96.337051,-111.726208,-124.088001,-33.468291,-55.051048,-68.143432,-73.397342,-53.746169,-60.808965,-66.131233,-66.70474,-43.71324,-49.6314,-53.94056,-53.336579,-34.618145,-39.317105,-45.434533,-48.526314,-27.109234,-31.898843,-37.371411,-40.79541,-16.559944,-28.985481,-44.974308,-63.044701,3.708916,13.2201,9.207287,5.294609,23.317566,35.657501,30.121994,23.667126,38.56905,50.848503,44.631729,38.000851,50.507011,60.227394,53.773441,47.39502,-19.469905,-38.097781,-51.701551,-60.95164,-41.68335,-46.262328,-41.634505,-38.100498,-35.644129,-44.879489,-39.317815,-32.368022,-29.454885,-38.978527,-35.617452,-32.112468,-23.223435,-31.142925,-29.926627,-27.984916,65.943289,167.630123,-207.615595,106.570822
61,-9.531212,12.533419,17.091694,-21.527089,-18.257103,-35.366592,-44.917831,-42.176399,-75.614204,-107.455502,-133.303871,-154.945507,-74.689579,-106.937485,-132.319794,-154.642982,-69.440575,-99.562855,-124.455013,-144.837627,-61.014404,-86.124744,-105.485573,-123.93425,-33.375357,-54.895005,-66.151364,-62.737431,-51.286897,-53.337042,-51.711061,-50.718794,-39.496891,-42.364457,-42.758054,-42.028627,-27.411811,-32.534193,-35.271527,-37.238401,-17.012239,-23.052355,-24.896963,-25.815068,-20.569668,-34.488659,-48.240108,-63.294239,-14.315586,-4.471951,1.940174,4.821568,5.995274,24.532471,28.662758,27.508793,23.713474,44.80442,48.934422,47.873211,38.805256,58.734398,61.792717,60.852871,-19.642065,-38.675395,-53.535816,-64.093964,-36.745602,-58.902082,-63.447591,-62.280138,-29.380167,-57.096901,-60.504906,-56.330486,-21.327203,-48.077605,-52.504368,-50.091286,-13.227803,-36.104941,-41.46216,-40.755241,54.380779,176.510882,-192.555199,81.391072
62,-37.637444,20.851323,21.166706,-20.202357,-9.060287,-28.006554,-40.404282,-43.140163,-67.525635,-99.29884,-120.463371,-139.413185,-72.40551,-107.059822,-128.355217,-148.368073,-73.872128,-107.640495,-128.894806,-148.495045,-71.388302,-100.838184,-118.51862,-135.053673,-25.344407,-39.626783,-44.645486,-41.515172,-24.137495,-25.439996,-26.463942,-26.338403,-15.009487,-14.880244,-16.646429,-17.365019,-7.413507,-6.431182,-8.702362,-10.602052,-2.134218,-1.112434,-3.172057,-4.740332,-18.672237,-31.282196,-44.806595,-59.036007,-1.890049,4.554176,7.294121,9.77726,16.167469,27.152081,34.644928,40.349064,30.715313,45.042686,54.472275,62.893753,42.593536,57.470798,67.190781,76.1689,-18.752736,-38.2177,-51.918604,-61.807562,-44.612511,-54.022595,-54.007188,-53.544863,-35.675683,-49.319251,-55.971006,-59.697612,-24.884613,-39.962397,-46.909071,-51.825577,-13.020784,-26.211259,-33.457824,-40.469707,15.595465,195.647381,-172.536364,59.47389
63,3.995705,30.841397,36.647301,-16.632196,-11.626739,-30.90683,-44.483585,-47.797337,-69.035339,-100.770464,-122.610769,-142.22105,-72.027025,-105.505714,-128.605328,-150.417538,-71.312084,-103.581161,-125.59845,-145.983553,-66.978435,-95.440893,-113.115692,-129.883318,-23.544351,-34.292566,-36.939776,-33.128417,-16.925726,-17.139753,-16.654518,-14.789007,-8.933895,-8.092484,-8.23803,-7.172001,-2.766171,-1.970641,-2.803993,-2.590275,0.953056,0.631645,-1.327572,-1.823644,-22.102604,-36.535435,-49.897213,-62.902737,7.535076,15.705528,11.261902,10.061131,26.656322,37.848701,35.285625,33.428993,41.018143,54.371109,52.554531,50.965691,50.785446,63.94907,67.619362,69.163914,-14.396368,-32.874221,-47.217144,-56.08546,-50.496677,-48.016287,-38.622073,-33.234844,-44.936547,-43.6254,-36.282566,-30.352921,-35.896441,-39.229851,-34.85326,-32.701011,-25.626421,-30.446813,-29.620129,-29.636894,20.014343,225.597658,-135.465889,41.950575
64,3.995705,30.841398,28.587799,5.006631,-14.193192,-33.807106,-48.562889,-52.45451,-70.545044,-102.242088,-124.758167,-145.028915,-71.64854,-103.951607,-128.855438,-152.467003,-68.752041,-99.521828,-122.302094,-143.472061,-62.568569,-90.043602,-107.712765,-124.712963,-21.744296,-28.95835,-29.234065,-24.741661,-9.713957,-8.83951,-6.845095,-3.239612,-2.858303,-1.304724,0.170369,3.021015,1.881165,2.4899,3.094375,5.421501,4.040329,2.375724,0.516913,1.093044,-16.652641,-27.094173,-38.744144,-53.874207,12.273502,23.0797,22.916737,21.898899,28.603134,47.007179,54.591408,57.737789,41.500797,63.233185,71.971149,75.680237,51.739597,70.609989,79.887943,85.584641,-19.189188,-38.335675,-51.883622,-62.243767,-44.778898,-50.081807,-46.161891,-42.25979,-36.315541,-47.466492,-51.855279,-52.608109,-27.513637,-40.396965,-46.377462,-47.931164,-18.838939,-28.699368,-35.232222,-40.291156,24.939165,256.338557,-105.948973,46.856707
65,23.908539,18.937925,31.048679,1.348969,-15.794678,-35.999107,-48.488045,-53.618546,-65.491333,-100.928364,-123.891392,-146.02541,-64.503593,-100.042763,-124.130688,-147.686405,-59.857292,-91.952133,-112.737808,-130.697823,-53.487396,-76.737957,-86.87645,-95.497341,-14.341595,-18.180927,-22.627265,-21.144514,5.643,4.321417,4.505989,5.882653,7.694225,8.497104,9.728283,11.162313,6.464342,5.274288,7.324463,10.14868,2.111988,-0.442318,0.113744,1.95897,-8.89698,-14.695358,-25.98278,-40.361538,41.9561,68.988705,81.044941,88.281269,52.289944,81.615314,80.783787,76.034718,56.085262,82.899227,85.78577,83.944073,55.81461,78.83543,87.761478,91.976452,-18.220324,-38.723189,-50.828987,-59.326986,-65.332276,-88.626847,-102.859174,-113.798692,-53.265535,-62.800601,-62.447605,-62.226477,-37.130368,-43.448948,-45.18608,-45.651616,-18.478564,-23.434189,-27.512155,-32.663035,50.564289,275.282503,-73.183708,48.211696
66,30.339088,4.822522,15.407867,8.800453,-17.759171,-37.890015,-49.898415,-59.296646,-68.299026,-97.807732,-118.231602,-134.868679,-69.558678,-100.925446,-122.423687,-140.930214,-67.951927,-97.178421,-116.435337,-132.412262,-63.978195,-84.986687,-100.464649,-114.283447,-10.517577,-9.072185,-7.590608,-2.893501,11.580981,15.735919,18.242183,20.478474,13.274239,18.731185,20.379612,22.446584,12.792586,16.846871,18.202416,19.943469,10.028329,13.427751,14.805464,17.339886,-7.261791,-10.105648,-17.154064,-23.634338,39.339638,64.108486,78.717213,93.527584,46.824703,75.529003,93.912792,112.858257,48.339443,75.534267,94.656773,112.398205,44.842587,66.55386,81.711788,96.294765,-28.844914,-50.188851,-64.507475,-71.015197,-53.01171,-66.71144,-72.202194,-77.747227,-38.413202,-47.124302,-51.079972,-55.604548,-24.764262,-32.992967,-38.320947,-44.700629,-11.469151,-18.252557,-23.374538,-30.152634,81.211052,279.855816,-57.468166,56.762939
67,36.060905,-3.044295,20.968952,13.907953,-28.30719,-50.993614,-65.703621,-80.777664,-67.11628,-94.754677,-113.640289,-128.559608,-65.571327,-98.032608,-118.897591,-135.572605,-62.097359,-91.827164,-112.171326,-128.650589,-56.250458,-77.375336,-94.472466,-109.281235,3.231955,8.161428,11.007937,14.304421,20.25889,26.147162,29.914061,31.897422,19.573954,25.001939,28.284035,30.325627,18.031182,21.690758,25.056465,27.754587,15.318548,18.732481,21.117962,23.253785,-10.493231,-11.262703,-13.262158,-15.334997,33.886671,60.071182,75.696087,90.718746,43.198299,73.353367,92.09507,109.948368,47.580585,76.667347,95.71043,112.605686,47.915039,71.913242,86.47007,99.815712,-27.297125,-48.635165,-64.816212,-76.267363,-42.789377,-53.303774,-59.759764,-66.01136,-30.438198,-39.380291,-44.605225,-49.590691,-19.611915,-28.374453,-33.395441,-38.934823,-9.717477,-16.966234,-21.747785,-27.495791,117.277422,277.593126,-36.493749,71.452498
68,11.718235,-15.310737,20.968952,13.907953,-25.765686,-46.349029,-60.298805,-72.347717,-62.279548,-81.821079,-92.335624,-100.800705,-61.688003,-84.257984,-95.182628,-103.209657,-59.542121,-80.882034,-90.523624,-97.312145,-55.807514,-73.013191,-82.082233,-88.496246,0.970901,5.229673,8.26205,10.808143,16.46479,18.610679,19.270451,20.100438,16.205407,18.829862,18.658566,18.726955,14.877249,16.431846,16.81862,17.481974,12.264774,13.794116,14.287841,15.055429,-13.72467,-12.419758,-9.370251,-7.035656,28.433704,56.033878,72.674961,87.909908,39.571896,71.177731,90.277348,107.038479,46.821728,77.800426,96.764088,112.813168,50.987492,77.272625,91.228352,103.336658,-25.749335,-47.081478,-65.124949,-81.519529,-32.567044,-39.896108,-47.317334,-54.275494,-22.463194,-31.63628,-38.130478,-43.576833,-14.459569,-23.755939,-28.469935,-33.169018,-7.965803,-15.679912,-20.121032,-24.838949,128.478126,262.316183,-16.042328,85.394243
69,11.718235,-15.310737,-4.788065,19.754065,-23.224182,-41.704445,-54.89399,-63.91777,-57.442818,-68.887482,-71.03096,-73.041801,-57.80468,-70.48336,-71.467667,-70.84671,-56.986885,-69.936905,-68.875923,-65.973701,-55.364571,-68.651047,-69.692001,-67.711258,-1.290151,2.297918,5.516164,7.311866,12.670691,11.074195,8.626841,8.303454,12.836861,12.657785,9.033097,7.128282,11.723316,11.172934,8.580775,7.209361,9.211,8.85575,7.457721,6.857074,-11.783466,-8.619633,-3.24935,1.488047,33.99127,62.227392,79.194632,94.582872,45.740805,77.693853,96.348867,113.250647,53.22238,84.138823,102.822218,118.603621,57.280626,83.694906,98.287382,111.007376,-23.667328,-42.137,-56.933865,-67.350063,-27.77302,-35.303452,-42.461282,-49.333269,-18.637849,-28.170477,-35.271558,-41.914204,-11.932712,-21.182059,-26.490788,-32.046411,-6.504665,-13.880582,-18.882813,-23.666834,140.221024,246.961912,-20.805731,105.104775
70,7.737236,-20.672772,-4.788065,19.754064,-4.824829,-12.296447,-16.802272,-20.051021,-36.847343,-53.308582,-61.569614,-68.644123,-45.297374,-64.746093,-72.829799,-78.781986,-51.009292,-70.703887,-77.856502,-82.819919,-53.622837,-71.733284,-78.269348,-81.911544,-10.848436,-16.797532,-21.050932,-25.057792,-6.829688,-11.410828,-15.474684,-18.382696,-2.548038,-6.543537,-12.433199,-16.231806,-0.547201,-4.840954,-10.17335,-13.298569,0.039736,-3.616506,-6.729066,-8.44051,-9.842262,-4.819508,2.871552,10.011749,39.548836,68.420906,85.714302,101.255836,51.909714,84.209976,102.420387,119.462814,59.623032,90.477219,108.880348,124.394073,63.573761,90.117188,105.346413,118.678093,-21.58532,-37.19252,-48.74278,-53.180597,-22.978996,-30.710796,-37.605229,-44.391044,-14.812504,-24.704673,-32.412637,-40.251574,-9.405854,-18.608178,-24.511641,-30.923804,-5.043527,-12.081252,-17.644594,-22.494718,148.349676,226.027951,-25.202379,124.59765
71,7.737236,-20.672772,-6.335335,8.273475,13.574524,17.111549,21.289444,23.815727,-16.251869,-37.729683,-52.108269,-64.246445,-32.79007,-59.008827,-74.191933,-86.717262,-45.0317,-71.470871,-86.837082,-99.666138,-51.881104,-74.815521,-86.846695,-96.111832,-20.40672,-35.892983,-47.618027,-57.427451,-26.330067,-33.895851,-39.57621,-45.068847,-17.932937,-25.744858,-33.899494,-39.591894,-12.817718,-20.854843,-28.927474,-33.806498,-9.131527,-16.088761,-20.915853,-23.738093,-5.612812,-0.342121,7.190208,12.347832,42.293587,69.693031,87.527618,104.853973,50.417747,83.630333,103.285561,123.85231,55.116577,85.838242,104.724884,121.753349,56.765785,81.738739,97.38636,112.363243,-20.544208,-34.205622,-44.610288,-49.051965,-20.065457,-27.312454,-32.866132,-37.842937,-11.551835,-19.618723,-26.438068,-32.934798,-6.447268,-13.038445,-17.808572,-23.119848,-2.886708,-8.223827,-12.560651,-17.324665,157.138681,205.250898,-30.485945,132.766844
72,-19.653053,-13.264235,-2.991085,5.048621,11.10363,11.356544,12.92942,12.992706,-37.786674,-77.863312,-80.634613,-77.972145,-51.794014,-92.55558,-98.613853,-101.992035,-59.630241,-95.720329,-100.816841,-103.150864,-62.452126,-90.453873,-97.480888,-100.997543,-22.580582,-39.330258,-52.163105,-57.079765,-35.511797,-55.435722,-67.933666,-71.309252,-27.746745,-48.210831,-59.213026,-62.440164,-23.893457,-41.802127,-52.999267,-56.238169,-23.937053,-38.242895,-49.392179,-54.232917,-7.158051,-3.358269,3.355808,8.755245,37.825298,65.567951,84.183483,102.026997,46.366253,77.484684,97.00613,116.949062,50.780354,77.832241,96.269131,113.091602,51.870632,73.641644,87.896175,101.144886,-15.918762,-26.921512,-37.043949,-41.750719,-15.061913,-21.047134,-24.39768,-27.27667,-7.273365,-14.01194,-18.973493,-22.743263,-2.817517,-8.624587,-12.560466,-16.096387,-0.258765,-5.54105,-8.910955,-12.407202,137.596464,191.939701,-33.366194,137.768504
73,-3.904839,-8.928554,10.852627,10.918825,-3.83091,-9.804726,-15.920677,-15.273972,-54.940453,-84.202881,-104.293327,-125.658302,-60.776482,-92.54425,-115.147934,-138.872223,-61.887932,-92.956581,-114.426956,-134.08596,-59.913826,-85.330582,-101.697006,-118.215179,-29.01516,-51.095255,-62.068581,-54.894603,-49.233387,-53.039003,-53.389437,-53.425561,-36.90359,-43.332981,-45.238167,-46.046912,-24.594695,-30.645062,-35.095661,-38.406657,-14.134855,-21.893732,-26.712425,-30.250848,-7.916084,-8.292,-4.556774,1.18277,22.346958,41.545315,56.166252,70.483429,29.391426,47.761986,59.414337,72.387978,33.459389,48.534142,59.46167,69.909599,35.278244,47.368744,55.813294,63.786049,-19.001923,-32.013673,-42.85544,-47.210672,-19.498544,-26.184422,-30.497837,-33.810092,-9.263401,-16.57901,-21.166559,-23.945241,-2.316986,-8.846524,-13.561131,-17.113287,2.500805,-3.57567,-7.812328,-11.724958,133.998041,182.915573,-22.207151,148.591754
74,-37.121544,-14.187713,10.852627,10.918825,-0.225334,-8.324089,-15.208282,-20.107727,-58.502998,-87.976913,-107.185249,-126.654053,-64.87072,-95.668373,-116.196041,-137.865944,-66.494637,-96.489487,-116.331367,-134.930592,-64.767494,-89.985809,-105.680237,-121.674213,-22.503023,-41.721666,-51.35155,-46.418001,-35.297801,-35.765345,-35.724805,-36.5861,-23.878452,-25.323535,-25.365278,-26.285668,-13.279241,-14.446632,-16.067889,-18.769964,-3.755784,-6.303359,-7.782466,-9.851599,-8.674118,-13.225731,-12.469357,-6.389706,6.868618,17.522678,28.149021,38.939861,12.416599,18.039287,21.822544,27.826893,16.138424,19.236042,22.654209,26.727596,18.685856,21.095844,23.730411,26.427212,-22.085084,-37.105834,-48.666932,-52.670625,-23.935176,-31.32171,-36.597993,-40.343514,-11.253438,-19.146079,-23.359625,-25.147219,-1.816456,-9.068461,-14.561796,-18.130186,5.260376,-1.61029,-6.713702,-11.042715,97.453823,168.882993,-10.777199,159.665712
75,-15.514984,12.806294,10.852627,10.918826,-8.398705,-19.055786,-30.280266,-34.37748,-60.453072,-86.306763,-105.767899,-124.680119,-64.537926,-91.773148,-112.069473,-131.78587,-65.160599,-90.123596,-109.38961,-125.393314,-63.148384,-84.999733,-100.063648,-114.920483,-30.00718,-50.113362,-59.424706,-54.805899,-44.453905,-44.887795,-45.039207,-45.589403,-32.155663,-33.008312,-35.343095,-37.087915,-20.076109,-21.904847,-25.083203,-28.036107,-9.280408,-12.878975,-14.765018,-16.95691,-9.432152,-18.159462,-20.381939,-13.962181,-8.609722,-6.499958,0.13179,7.396293,-4.558228,-11.683411,-15.769249,-16.734192,-1.182541,-10.062058,-14.153252,-16.454407,2.093467,-5.177056,-8.352471,-10.931626,-25.168246,-42.197997,-54.478425,-58.130579,-28.371808,-36.459,-42.69815,-46.876936,-13.243475,-21.71315,-25.552691,-26.349198,-1.315926,-9.290399,-15.562463,-19.147086,8.019946,0.355089,-5.615077,-10.360472,82.289114,181.751964,0.425703,170.647215
76,-15.469322,13.801032,10.852626,10.918825,-15.82695,-29.118462,-36.801682,-38.921471,-57.339249,-82.53994,-104.372807,-125.297127,-56.188545,-84.081974,-105.439224,-125.554905,-53.346176,-75.428696,-94.733276,-110.832539,-49.153748,-63.704453,-75.920906,-88.777313,-30.540581,-50.089649,-59.449962,-55.809467,-42.70288,-47.487672,-48.180944,-49.058232,-31.405086,-37.685721,-41.584333,-43.244122,-19.560616,-29.038625,-33.992367,-35.871185,-9.394584,-23.024197,-27.8884,-30.044725,-10.190185,-23.093193,-28.294521,-21.534656,-24.088062,-30.522594,-27.88544,-24.147274,-21.533054,-41.406108,-53.361042,-61.295276,-18.503505,-39.360157,-50.960712,-59.636409,-14.49892,-31.449955,-40.435352,-48.290462,-28.251407,-47.290158,-60.289916,-63.590531,-32.808439,-41.596288,-48.798307,-53.410358,-15.233512,-24.280219,-27.745757,-27.551175,-0.815396,-9.512336,-16.563128,-20.163986,10.779516,2.320469,-4.51645,-9.678229,67.618132,195.545277,12.076669,181.558321
77,-15.872612,7.144461,10.852627,10.918825,-14.311409,-26.876335,-33.591728,-40.299797,-50.364304,-64.52076,-76.546268,-90.256577,-48.168068,-63.219109,-78.42041,-95.600109,-44.527473,-57.039185,-67.304649,-77.031727,-39.029503,-51.703033,-64.239979,-78.530159,-27.688823,-44.104244,-55.473977,-62.808999,-36.46263,-45.174502,-48.335999,-49.675057,-25.878795,-37.240006,-44.024586,-47.053752,-15.888011,-31.465972,-39.46228,-42.211594,-8.564473,-18.927057,-23.243905,-24.491942,-10.948219,-28.026924,-36.207104,-29.107132,-39.566402,-54.545231,-55.902672,-55.690842,-38.507881,-71.128807,-90.952835,-105.856361,-35.824471,-68.658257,-87.768173,-102.818413,-31.091309,-57.722855,-72.518234,-85.6493,-31.334567,-52.382319,-66.101408,-69.050484,-37.24507,-46.733576,-54.898463,-59.94378,-17.223548,-26.847288,-29.938823,-28.753153,-0.314865,-9.734273,-17.563793,-21.180885,13.539087,4.285849,-3.417824,-8.995985,52.99613,202.626536,24.179907,192.413944
78,-14.015121,4.83549,-95.652866,-6.16195,-4.520874,-18.430481,-29.802933,-39.44561,-56.693344,-86.348934,-103.472443,-115.5019,-63.395233,-96.927109,-112.843609,-124.612713,-64.588795,-96.348495,-115.229359,-129.771881,-61.502552,-89.489536,-106.586838,-121.724396,-31.343027,-50.240444,-61.36651,-69.907394,-30.731389,-28.907406,-31.06373,-30.486487,-19.513439,-18.498756,-23.497329,-24.648603,-12.418996,-14.758472,-18.311158,-19.018571,-9.363956,-13.724461,-14.566305,-13.901438,-5.007248,2.821083,11.467896,17.56937,48.013,76.948528,96.447315,114.043293,52.838631,66.639118,65.844212,59.771404,47.849579,33.957367,8.524647,-12.667866,38.873291,24.927807,6.056957,-10.090427,-29.178428,-54.02383,-63.273764,-61.895309,-37.106193,-43.423692,-48.190083,-52.431472,-14.241251,-11.026586,-15.765992,-20.596665,3.971848,7.514593,5.95805,2.924129,16.938941,20.318911,16.669091,9.398968,39.765673,207.412239,-70.688295,186.202208
79,5.90126,3.170143,-3.873253,-23.476086,-0.978355,-14.218597,-27.471313,-38.276253,-55.117722,-86.571293,-108.54063,-128.680916,-62.311192,-94.376678,-116.461716,-136.165009,-65.256157,-95.577164,-116.0919,-132.218685,-65.649719,-90.157356,-106.998081,-122.380714,-24.508245,-37.880728,-46.482746,-51.689232,-21.188172,-20.767158,-22.720879,-24.390548,-11.164289,-11.121867,-12.408375,-14.363887,-4.437508,-5.129483,-7.786109,-11.56542,-0.491348,-2.730665,-4.152159,-6.188503,-1.835117,5.522461,14.457836,22.098541,43.332767,73.068752,93.918171,112.297039,51.723175,84.168606,105.092525,122.943935,55.626926,79.916096,94.714451,105.138416,56.554585,75.67709,88.4091,97.968922,-19.597358,-32.842914,-40.559153,-45.984513,-16.341629,-22.931324,-27.832948,-33.491478,-4.413858,-10.896539,-16.840511,-22.518337,4.344265,-0.056316,-5.324738,-11.019361,10.907655,6.742033,3.151371,-2.849288,46.442327,210.322721,-73.786154,162.466461
80,2.541504,1.528631,3.099461,-2.867566,-0.513954,-12.874832,-25.509224,-32.89959,-54.00753,-85.239315,-106.88673,-127.806644,-61.433144,-95.574245,-118.896103,-142.101917,-63.659878,-95.352688,-117.395897,-137.062969,-62.509689,-88.391991,-105.836678,-122.257061,-21.00255,-31.872537,-37.7379,-39.900955,-14.89809,-17.22361,-20.130449,-21.587018,-5.567541,-8.868594,-10.929144,-13.816778,0.540378,-2.705903,-5.270027,-8.76578,3.123583,-1.071246,-2.804704,-4.511856,-2.71883,3.30471,11.230431,19.030437,40.815868,67.147636,88.187943,107.41642,49.944191,81.381912,104.046707,123.357811,54.955273,83.197174,103.566399,120.170288,57.043705,79.063454,95.271149,108.532791,-19.045247,-31.546093,-41.078041,-43.740719,-13.555512,-21.238807,-26.61733,-31.865683,-3.937083,-10.852882,-17.494324,-23.530921,1.871717,-3.951656,-9.95219,-15.732893,5.100399,0.749527,-2.261238,-5.555067,49.67989,211.725938,-69.990635,159.47348
81,4.752617,3.74436,3.296528,0.093614,0.194778,-12.007256,-25.613251,-34.505882,-52.555962,-83.969994,-105.665932,-125.904522,-60.266991,-94.992828,-118.146172,-141.116867,-63.533535,-95.628262,-118.01405,-138.027534,-63.023243,-89.799957,-106.969986,-122.686272,-22.135114,-33.890355,-41.129541,-45.448488,-18.214087,-21.321244,-23.797683,-24.983723,-8.665188,-11.687192,-14.342953,-17.595101,-2.377576,-5.701416,-8.304751,-11.583636,0.514751,-3.583129,-6.365726,-9.130416,-4.177151,1.127357,8.467598,15.508804,40.026569,65.996418,86.449986,106.18269,49.265041,79.848919,102.102985,122.115383,53.943615,81.677227,101.279011,118.023548,55.372696,77.363834,93.272152,107.033443,-19.780262,-32.698016,-42.345376,-44.466842,-14.510421,-21.968543,-27.255736,-32.209262,-4.826042,-12.629256,-19.590318,-25.467043,1.210679,-5.59539,-12.159027,-18.209888,4.672036,-0.887292,-4.668949,-8.35588,55.101786,215.272171,-66.024828,159.368968
82,7.813683,-0.137889,-1.337814,0.750515,-1.322937,-13.749962,-28.503914,-39.927406,-53.523788,-86.651287,-108.048992,-127.187519,-60.820198,-95.366249,-117.629871,-138.50069,-63.623543,-95.099831,-116.603394,-134.487991,-62.715111,-89.163895,-105.601158,-120.15461,-22.428861,-33.14194,-39.320007,-43.474822,-16.422584,-19.612795,-22.478261,-23.938288,-6.525907,-9.428115,-12.556144,-15.954577,-0.210754,-3.235104,-6.672317,-10.479786,2.742212,-1.52647,-4.68383,-7.966421,-2.733078,4.132919,12.982235,21.531773,37.643108,67.521229,88.655033,108.635845,47.705498,81.759167,105.594006,126.039791,53.434639,84.251575,105.025234,121.540661,55.567188,78.790798,94.827061,107.891521,-21.840009,-36.157491,-47.339811,-52.706694,-13.79319,-23.390963,-29.629299,-35.468819,-2.152125,-13.095286,-22.051875,-29.083116,4.432939,-4.686609,-13.783309,-22.128878,7.326563,0.045572,-5.925261,-11.3848,63.135481,214.99678,-67.14263,159.981979
83,6.416245,-0.744154,0.329418,1.197402,-3.566666,-19.273911,-34.117928,-43.083229,-57.017212,-87.33387,-107.894154,-127.806816,-63.114624,-95.914478,-118.316689,-140.449791,-64.531746,-95.474911,-116.575298,-135.390415,-62.370071,-88.692284,-105.085373,-119.993477,-20.407647,-30.70144,-36.040628,-41.729385,-15.774266,-16.736461,-20.42012,-23.559758,-7.403936,-7.792964,-11.327557,-14.805094,-0.41064,-0.052117,-3.728119,-7.677243,4.391813,4.777568,2.247653,-0.321967,-2.499104,6.322002,17.71574,27.653217,36.000309,65.820351,86.155128,104.660912,46.245861,81.112633,104.42688,124.300919,52.853851,84.455566,105.093613,121.652756,55.865822,80.06813,96.437416,109.696198,-24.779946,-40.944938,-53.345131,-62.819589,-15.96242,-24.715078,-31.915515,-38.359109,-3.622958,-14.369444,-23.878884,-31.675677,3.614005,-6.307372,-16.097653,-24.852843,7.216709,-0.525681,-7.257958,-13.756942,69.756374,213.956378,-66.608562,160.883134
84,5.26268,4.593304,-0.723724,-1.85597,-5.893364,-24.339638,-42.00016,-53.652878,-57.304115,-87.999172,-109.925537,-131.323471,-63.12664,-95.693035,-118.45293,-140.927753,-65.036888,-95.388451,-116.397228,-134.90593,-63.33744,-88.339062,-104.733925,-119.940548,-20.823721,-30.691128,-36.013643,-39.748987,-11.247961,-12.395654,-15.27168,-17.222499,-2.315702,-3.217258,-7.136989,-10.760565,4.265718,4.133079,-0.003335,-4.149936,8.281348,7.738994,4.826227,2.29304,-0.232716,11.303558,25.547791,39.506779,35.090904,67.920227,87.429428,103.868523,44.583435,82.038116,104.419785,121.748314,50.758095,85.596199,105.838737,120.910492,53.340282,80.269203,95.035858,105.614204,-26.66636,-43.655071,-57.461475,-69.075555,-16.537501,-24.743637,-33.144873,-40.99826,-1.755317,-13.3928,-24.524608,-33.751602,7.524782,-3.268511,-14.805217,-24.996999,12.156186,3.317417,-6.057777,-14.822507,75.259609,217.79571,-67.091732,158.273191
85,2.983704,4.009948,-2.681122,0.099171,-9.918137,-30.493011,-50.075569,-64.935951,-59.616508,-89.341965,-112.051678,-134.046707,-63.923378,-96.156292,-119.450855,-141.360054,-64.79393,-94.603214,-116.085892,-134.640598,-62.531204,-86.645794,-103.714428,-119.599857,-19.599396,-27.790958,-31.345374,-34.662915,-4.435594,-3.548364,-4.475855,-4.493454,2.462545,2.503485,0.102567,-2.586601,7.394612,7.633586,5.172709,1.583404,9.956883,9.595891,6.753272,3.880458,3.786392,19.595947,36.596661,52.313976,31.111221,68.895836,89.422302,105.034218,38.522129,81.32,104.612274,120.025978,44.524326,85.290527,107.124596,121.782074,48.69112,80.869102,96.306496,106.130905,-28.09017,-46.153894,-60.447108,-75.198417,-17.588926,-26.658239,-35.912897,-43.611105,1.088475,-12.765971,-25.874565,-35.973289,13.052987,0.814117,-12.037934,-22.756293,19.00406,9.936074,-0.511664,-10.513378,78.702421,220.97192,-69.313745,157.538624
86,1.885872,11.100872,-3.172474,3.700023,-14.740105,-37.014656,-58.480682,-76.545067,-60.303955,-89.395123,-112.884636,-134.921894,-65.27916,-97.174244,-120.675373,-142.160854,-66.91555,-96.583672,-117.534027,-135.445518,-65.26577,-89.675446,-105.473442,-120.63406,-21.676803,-28.566729,-29.652424,-29.160891,-2.241416,1.781005,2.437721,3.277774,7.062456,9.646773,9.100714,6.593462,13.329073,14.569948,14.469727,11.242218,16.415112,16.366082,15.60859,13.485858,9.736404,29.011917,48.397236,65.135365,30.860023,69.938564,89.265003,103.564625,35.460434,78.799839,101.064091,115.607815,39.706764,81.637516,103.015995,116.44186,43.237495,77.065487,93.931217,105.112667,-30.964744,-49.518026,-61.879656,-74.867527,-26.548046,-33.968809,-40.319036,-44.687723,-5.408904,-17.37496,-27.326286,-34.736274,10.19487,0.415766,-10.518812,-19.976382,20.172439,12.485439,3.173662,-6.716284,80.994558,230.794774,-72.079954,159.960629
87,-0.79628,8.616467,-1.387825,2.781424,-22.048759,-48.057976,-69.367676,-87.943497,-62.263527,-92.387238,-115.361137,-136.095486,-63.188553,-94.783344,-118.848953,-140.294724,-61.541061,-90.983391,-112.691288,-130.719051,-57.223206,-79.373817,-94.852867,-109.902077,-20.187383,-23.186786,-19.93118,-16.085056,3.866379,13.023594,14.826336,15.949637,14.255885,22.7068,24.587964,24.70918,20.868119,26.727801,29.052766,29.665948,23.332393,26.643944,27.939468,29.052766,15.533009,37.319698,57.519035,73.158245,29.929504,63.723679,83.267155,99.400578,29.326401,67.667828,90.560818,107.532749,30.129032,67.912731,89.89809,105.273113,31.789398,63.357925,80.34399,93.144779,-27.081569,-45.007004,-54.625835,-65.333603,-33.86229,-35.655985,-36.334529,-36.268796,-13.819927,-17.753737,-20.260681,-22.736872,5.571987,0.904829,-3.228435,-7.043128,22.723225,17.939853,12.692056,6.477124,80.415487,238.1689,-73.25057,161.499712
88,-4.100876,9.829863,-0.260696,10.187459,-22.426186,-47.959785,-70.342712,-91.092739,-58.164253,-90.632915,-114.354057,-134.218597,-57.405624,-91.220512,-115.144215,-134.255333,-56.620331,-87.852573,-109.506397,-126.402054,-54.967346,-78.521118,-93.675098,-107.69886,-21.072822,-22.510619,-15.643108,-8.266157,8.506552,22.031929,26.99092,30.699094,21.264372,34.245605,38.163792,40.237248,29.196768,37.97428,42.541156,45.11059,32.517273,37.944208,39.453882,41.312569,16.979027,41.594696,63.230667,79.106197,28.654003,60.705643,82.788105,100.236225,23.419933,62.141991,86.126461,103.912983,20.874424,59.025135,83.032551,100.301342,20.811138,51.868687,69.585629,83.2794,-22.266272,-38.883833,-48.110734,-54.353793,-34.330327,-34.425608,-32.05186,-29.709729,-16.103705,-14.434468,-13.393047,-13.937624,2.721464,3.681498,3.062079,0.875497,20.444203,19.468361,17.737065,14.259714,76.140432,246.955212,-73.685446,170.64362
89,-2.607765,5.013701,-0.321064,7.702438,-23.715134,-50.606575,-73.33889,-94.410725,-59.308205,-87.787971,-108.55545,-126.838818,-56.099968,-86.141224,-108.352547,-128.032322,-52.404213,-79.039192,-99.209518,-117.085419,-47.308731,-67.392654,-82.171097,-97.06049,-16.795124,-15.675527,-6.27131,1.410256,14.988369,29.765057,37.117308,43.003913,27.818869,42.116683,48.844452,53.061573,36.212232,49.094974,56.360342,60.525778,40.046809,49.228293,53.924906,57.68248,25.655537,53.057213,75.955925,90.507088,34.681721,72.960548,93.186378,105.847321,23.708439,63.533649,88.990402,103.632317,15.742321,52.732944,77.231483,91.701508,11.653633,39.093933,57.94487,70.614624,-20.469212,-30.782951,-35.273256,-36.001725,-27.326966,-21.508904,-13.030572,-7.105435,-10.262363,-0.849809,8.308086,11.850954,8.088563,16.061406,20.503977,20.656439,26.098997,30.002055,31.843205,30.685138,73.513842,250.72032,-74.025335,177.097465
90,-4.021568,6.548322,3.160229,7.296923,-25.849228,-50.441895,-71.691399,-92.14262,-55.885048,-83.823223,-104.739075,-123.349171,-50.33432,-80.944576,-105.11507,-125.970726,-44.33075,-72.630501,-95.725765,-114.798832,-37.949066,-59.614449,-76.315441,-92.468033,-15.051972,-13.105352,-1.093909,7.632413,13.591636,31.139621,41.339863,50.184313,29.282725,46.918025,56.720162,64.229444,40.315362,57.309014,67.28294,73.228393,46.743395,59.887526,65.980871,70.128831,33.874969,59.891453,79.714794,93.800411,46.981888,70.501499,85.190907,98.615971,31.121922,54.408875,73.585339,88.924084,15.069065,36.350613,55.955486,70.800304,1.287518,13.347473,26.515732,36.470146,-17.575958,-19.611869,-18.905877,-17.26807,-10.646636,-1.152571,9.821588,19.713696,1.843435,14.849369,28.164239,37.995584,12.892622,25.460189,37.15547,44.878347,22.17093,35.042124,42.357757,45.436879,69.904661,256.099876,-70.452719,183.225622
91,-5.132904,13.525316,24.651089,49.560572,-24.647484,-46.46656,-62.467232,-75.861053,-56.227684,-77.831612,-97.897396,-119.565697,-50.304222,-73.148232,-93.697243,-115.540237,-42.695045,-64.280205,-84.677982,-103.866463,-33.992386,-52.292061,-67.337494,-82.787991,-12.922756,-17.018352,-15.968286,-15.512197,12.939737,24.828976,32.357401,38.889421,27.030934,39.762572,47.919555,56.274447,36.226064,51.0277,61.207564,69.321568,41.628855,54.408844,65.163419,73.035917,13.86898,30.359859,47.593918,58.627167,37.39357,54.161797,56.047897,52.38327,40.017872,53.199463,47.077904,33.770256,38.162785,46.308632,39.011707,27.462387,33.423157,37.420292,29.205551,17.609825,-15.156083,-18.596013,-17.49982,-14.946378,-17.375825,2.519355,15.354919,25.14378,-0.133134,28.594331,43.357805,50.466883,19.724255,51.960625,67.053784,74.456671,38.289393,64.654719,79.717065,87.259569,65.154648,268.642759,-45.418739,231.80376
92,-5.46627,6.811811,-20.207176,9.233971,-13.574295,-35.887299,-56.115074,-70.909824,-45.088005,-67.302074,-84.636726,-99.286938,-47.568512,-69.44355,-79.482307,-88.310051,-45.886116,-65.905094,-63.794746,-59.402962,-41.930809,-60.626678,-62.270737,-60.930862,32.063963,51.002074,59.268478,70.977097,38.997114,41.371171,47.330456,51.154412,20.935921,19.642991,19.811446,17.545268,1.728888,-3.554354,-5.573283,-8.723172,-16.580974,-23.131025,-25.532746,-29.549857,24.000664,49.818192,71.648712,87.968102,47.920589,71.237526,85.517921,96.884193,37.64637,60.229168,77.070007,91.315842,25.724831,46.377869,62.675743,77.214088,13.64851,29.731636,39.608746,47.973003,-15.3493,-17.476849,-14.518139,-14.0539,2.759688,15.869424,24.789271,31.898472,18.338637,31.625165,42.512195,50.582109,31.238237,45.520551,55.082232,62.033661,41.419336,55.435506,63.043589,68.15992,59.770546,274.985885,-65.543747,240.569046
93,-24.415512,14.416066,-9.587975,14.512767,-13.411217,-29.500809,-43.467922,-50.397263,-60.264416,-64.639835,-57.072945,-50.038891,-62.823715,-69.448814,-67.08601,-59.731007,-60.216579,-70.178375,-65.867386,-59.264088,-56.25,-66.646843,-67.889671,-67.078972,-14.225319,-11.317122,0.129244,12.538545,10.01604,17.015203,15.477,14.426069,25.539291,33.151203,32.700301,29.604136,36.227361,44.736383,43.398931,40.851232,44.774297,54.758475,57.200271,58.45998,29.583435,56.44495,77.389526,97.910957,51.964645,74.263,90.768356,105.811272,41.938019,65.050564,83.836555,99.360237,30.832672,50.364075,67.126637,81.245728,19.371185,32.557526,43.974667,55.180206,-12.921521,-12.509584,-10.139047,-9.666718,13.426577,28.790142,40.056566,49.957504,24.009239,42.774634,55.26773,65.647419,31.197914,48.622336,59.678253,67.332958,34.505266,47.06956,55.736107,61.459197,35.411568,289.379335,-75.075188,255.059197
94,-1.414948,-1.430325,0.355225,28.557466,-15.639267,-40.164299,-60.802116,-77.893066,-64.723549,-58.360634,-40.266666,-24.531784,-59.539375,-51.870174,-31.950989,-13.289223,-49.60144,-41.25515,-22.531128,-6.558151,-37.166977,-36.453896,-29.472084,-21.78257,34.240295,56.162617,66.812402,78.662244,40.932434,61.164154,70.005948,74.687988,25.894727,47.299828,58.736313,64.426675,9.51191,29.746902,43.567139,51.865838,-5.702404,7.481062,18.723836,27.56878,32.354851,60.978813,82.106781,97.92675,64.4874,104.462242,113.010063,111.024628,51.302319,94.928627,103.335915,99.947319,38.698139,77.374649,86.579475,85.268898,27.274532,55.519524,64.153576,64.092636,-19.787796,-18.146347,-12.828463,-9.212853,22.957012,50.488187,51.137554,46.987926,42.267972,69.538127,66.641477,59.606438,54.339128,78.604446,76.290411,70.32211,60.128167,82.52924,80.634429,74.188612,33.993301,287.868472,-74.723282,283.536125
95,-14.405136,6.386413,-8.554688,4.504693,-4.821053,-12.125244,-17.296028,-19.903336,-39.393082,-33.778095,-15.588112,0.941849,-41.463261,-34.203472,-12.889824,7.849503,-39.476395,-31.960373,-13.16906,4.147453,-35.038834,-33.485012,-24.355202,-12.186127,10.026229,23.249648,37.75624,51.16386,23.610517,43.721947,56.679468,64.396788,24.454213,46.281872,61.741458,71.15747,25.494152,44.636038,59.307936,67.496041,25.345086,41.961813,53.713966,61.833652,33.652439,63.963547,87.901382,106.224632,67.831593,97.884178,112.40696,122.45224,56.367817,88.977928,106.830368,117.705574,45.257549,73.509178,90.388412,100.72094,35.002041,56.249943,70.13689,79.952774,-9.789478,-7.735659,-4.496789,-7.571836,29.703245,50.495473,58.605093,62.207365,46.688004,68.31232,74.735906,74.531327,57.664017,78.696948,84.53971,83.034297,63.538889,82.448965,87.916285,88.512361,19.40237,294.079884,-83.463764,287.865817
96,-60.647049,14.668872,0.495815,14.321526,19.884682,39.168549,52.12944,56.828957,25.379677,50.601425,65.997391,75.477448,15.913811,40.795898,61.29055,77.555351,7.655811,32.316456,56.596413,72.257538,0.550976,20.601082,39.694748,53.992653,-18.209517,-22.040389,-20.333917,-17.6085,7.341136,28.666888,37.905429,43.487728,25.915042,51.31169,59.675104,60.37381,39.629377,61.431718,67.032295,67.843696,49.59966,69.58833,72.161284,70.077764,34.064827,62.667732,87.189045,106.853657,68.091431,96.934032,113.360538,125.766163,56.468983,87.886562,106.488361,120.02718,46.086903,73.472729,90.33205,103.400402,37.187004,56.385155,69.428673,80.72485,-9.540006,-10.104096,-9.313135,-14.616323,31.411941,47.891705,54.509867,56.54337,46.741233,66.660434,70.859956,69.686884,56.074005,77.474784,81.345053,79.991792,60.394682,78.897699,84.317409,85.704817,-41.563253,308.752924,-83.286524,302.191511
97,22.729568,2.505646,3.396149,9.471834,10.103989,15.522423,18.503494,18.235359,-3.670406,22.547379,40.172081,49.670792,-13.227997,14.442673,36.092148,51.536865,-18.988495,5.806675,30.579987,47.059021,-22.242336,-7.834053,13.24625,29.491425,-9.62022,-1.575068,14.3566,27.444538,14.626079,37.250319,46.756424,51.197267,28.484601,51.614391,63.298618,64.756669,40.462575,60.395423,67.650417,68.129724,50.523384,67.977077,71.147651,70.380958,32.156239,60.41256,84.59444,104.040699,62.73016,93.41383,110.649891,122.511005,51.447544,85.934887,105.590458,117.578716,41.579704,72.519035,91.265316,103.649883,33.689404,55.689583,70.574455,81.523991,-10.204441,-9.737175,-7.812168,-11.984335,31.15827,48.005141,52.994018,53.368535,47.127914,67.407305,68.998799,64.886345,56.499033,78.176824,79.346686,74.951724,60.702569,78.798219,81.37,79.483216,-19.171915,311.276108,-80.228605,311.680882
98,31.335297,12.083691,2.731304,5.9993,3.30986,0.570145,-9.935074,-20.333977,-34.824314,-11.557961,10.895462,24.209747,-48.507957,-21.482105,3.856544,23.305435,-55.121384,-32.115669,-6.287155,12.14653,-56.614094,-49.266644,-32.863312,-16.744194,-12.221827,-14.802562,-7.338975,3.047012,4.637271,29.672493,39.689892,43.086103,26.539401,47.588511,56.844218,58.065827,43.484331,58.949413,63.213712,62.890201,56.513792,71.847469,71.962325,67.806522,30.943737,57.856464,82.045441,101.411934,59.04768,90.73597,108.526039,120.603104,48.201942,84.523773,104.557114,116.242676,38.806286,71.897964,90.720062,102.185783,31.09726,54.035397,69.480057,80.676842,-9.514997,-8.810055,-7.038744,-10.601928,31.585583,47.221096,51.615255,52.035837,48.030273,66.122403,67.029578,62.52186,57.60733,77.707398,77.544871,71.91311,61.95073,79.477288,80.816963,77.335413,11.815453,323.379374,-77.84523,317.699756
99,-21.365032,18.240331,-0.95644,3.925041,-3.517456,-2.182159,-0.107632,-0.598011,-12.996712,11.408558,26.125431,35.121403,-20.832653,5.457058,21.930828,34.550686,-25.106621,-2.834415,15.151119,27.952595,-26.720181,-16.822529,-5.515194,4.92651,-17.513528,-20.818349,-9.81708,-1.551788,-0.827085,16.120316,21.928065,24.686765,18.934158,34.332118,38.05542,38.444263,33.602845,44.860563,43.312912,40.814305,44.078803,52.272527,48.833708,44.230956,28.5882,55.745716,79.688702,98.873806,57.094231,89.527073,107.271023,118.871784,46.958027,83.427258,102.75095,114.633236,38.138981,70.93317,89.502239,101.30476,31.143951,54.719582,70.321026,81.842709,-10.717031,-10.049633,-7.676317,-8.910399,31.91638,47.203373,50.075015,48.556881,48.553361,64.330591,63.826337,59.312382,57.8744,75.91398,75.499882,70.212935,61.848101,77.890241,78.028994,73.669662,-9.772968,341.658623,-79.025059,321.663716
100,39.293346,-18.722601,0.165367,1.680661,-5.672493,-17.194862,-32.60376,-44.64735,-52.724533,-35.601883,-14.765511,-2.379456,-63.545952,-42.277794,-19.066315,-0.898819,-67.263336,-48.62915,-22.921944,-4.60762,-67.269859,-59.868107,-41.62159,-26.144028,-6.186712,-7.120749,1.582725,11.639335,15.629338,41.781317,47.415671,46.400371,33.22802,55.739997,61.154027,60.070739,46.610508,64.749691,65.730844,63.019753,56.547569,73.686273,71.102821,65.266419,27.349606,54.078197,77.993946,97.902775,56.084805,89.546413,106.82127,118.253345,45.710678,83.830662,102.857494,114.554501,36.629448,70.853062,89.243259,101.082745,29.662056,54.580593,70.533371,82.109699,-12.708667,-12.780483,-10.044507,-10.462064,28.801874,43.677919,46.281316,44.776273,46.216972,61.457962,60.174356,54.871354,55.912528,73.844292,72.870858,67.321102,59.96459,75.921391,76.162588,72.076316,29.203749,323.053239,-79.176321,323.461595
101,-8.122902,11.423023,1.137657,0.038532,-19.805031,-39.302845,-54.32373,-67.496452,-53.184586,-38.29771,-20.040779,-5.536537,-49.654713,-32.008438,-12.384567,6.373901,-43.719692,-26.154671,-7.085953,9.605026,-36.046371,-27.108879,-14.477234,-2.73468,15.38104,28.229757,42.614083,51.011892,31.28387,45.150604,47.090864,47.275189,31.098742,44.371129,45.986211,45.300287,28.911728,41.844117,40.983872,39.498095,25.468834,38.08117,36.99813,36.870615,27.36414,53.394184,76.967068,96.963329,53.866024,88.324299,106.099033,117.931995,43.469982,83.013783,102.76228,114.571667,34.752674,70.403194,89.377613,101.360035,28.319378,53.828602,70.055866,81.865253,-12.76344,-13.236324,-10.0873,-9.87562,26.647649,41.601253,44.49253,43.319705,44.701679,60.231167,58.89921,52.995809,55.262852,72.932362,71.789362,65.753815,59.899382,76.053104,76.310974,71.581386,20.6248,334.640241,-78.494711,323.664105
102,9.046669,-7.161134,-0.115356,0.867038,-3.9394,-15.145454,-31.502151,-43.923969,-49.728642,-35.346794,-14.794807,-1.291695,-62.131462,-43.523426,-20.811996,-2.153435,-67.332287,-51.733589,-27.361336,-9.160652,-69.325275,-64.845371,-47.591057,-31.764908,-9.527718,-13.645791,-7.465748,2.339353,8.995183,32.977375,39.300679,39.193419,28.634222,48.656114,54.55513,54.231991,43.730654,58.721616,60.850832,59.057971,55.561662,70.259804,68.177951,62.635048,27.102871,53.156948,76.925297,96.700802,53.841476,87.397556,105.000401,116.977673,43.796597,82.287884,101.873302,113.926563,35.272179,69.972553,88.892727,100.838642,28.810272,54.210033,70.344086,81.97237,-13.675987,-14.316833,-11.168921,-10.300957,26.56336,40.975968,44.164759,43.322854,44.338154,58.996776,57.895519,52.33403,54.973428,71.818508,70.637346,64.50448,59.854798,75.322782,75.458818,70.518415,29.264946,327.544023,-79.01659,324.596058
103,-26.023865,18.975284,0.596867,0.114177,1.060638,-0.963135,-6.678772,-12.850857,-25.535717,-4.343834,13.275833,23.040504,-35.828991,-10.925674,8.950081,23.985672,-41.103973,-20.813828,-1.963005,11.029472,-43.438797,-33.024216,-21.542702,-12.359619,-15.14293,-22.516979,-18.536733,-15.068274,1.464164,17.296352,20.480018,21.662415,21.018482,33.603957,33.665831,31.99258,34.730161,43.080731,39.199964,35.781029,43.897565,50.476516,44.973813,40.077685,26.649399,52.601566,76.000443,95.388451,52.567291,86.060829,103.921738,115.958176,42.186756,80.765305,100.362167,112.111015,33.438034,68.41404,87.404709,99.329224,26.975899,52.402439,68.533745,79.922676,-13.159013,-13.592624,-10.016473,-7.688853,26.357855,41.204321,44.492777,43.501189,44.462643,59.246248,58.377481,52.931589,55.391046,72.243598,71.292765,65.21955,60.375724,75.861554,75.46839,69.790871,2.996321,346.51838,-78.664484,324.709308
104,-23.836498,23.66776,0.570831,0.826344,8.27734,14.343739,17.356396,19.280262,2.685242,25.080585,38.203869,45.893612,-6.937923,15.807438,28.277035,39.733715,-13.70327,4.601212,13.030357,20.764332,-18.030567,-8.7743,-3.574905,1.481495,-19.713943,-33.164232,-39.059667,-44.067749,-17.222005,-6.58951,-2.665086,-0.301836,0.643872,10.295893,10.765999,10.744263,14.575197,20.195904,16.124206,14.126889,25.141248,28.068032,22.492526,17.965665,26.286278,51.965332,75.541191,95.104408,51.275425,85.461617,103.275833,114.890213,41.038971,80.028534,99.6912,111.275368,32.608223,67.843552,86.730194,98.423195,26.568031,52.459431,68.560009,79.963875,-13.751631,-14.221614,-9.942372,-6.185662,25.883673,40.805907,43.74535,42.822676,44.166488,59.329055,58.477887,53.10449,55.207771,72.387723,71.127583,64.88122,60.200044,75.689765,75.487162,70.060103,-21.153517,370.208787,-78.406992,325.558299
105,48.756809,-43.40455,-0.088921,0.499437,-4.314766,-16.057892,-31.99791,-45.190659,-52.600937,-35.78064,-15.791473,-3.102722,-64.845314,-43.590202,-20.471764,-1.408653,-69.595985,-51.791954,-26.366959,-7.608833,-70.92247,-65.41523,-47.874126,-32.126198,-9.482702,-11.860278,-3.448328,6.903079,11.298843,36.353826,42.226043,41.766682,30.813888,52.083632,56.830695,55.688868,46.182207,62.469743,62.82067,60.013126,58.287881,73.38351,69.836258,63.891299,25.851574,51.499443,74.960518,94.258118,51.942272,85.610161,103.313828,115.058784,41.612434,79.756508,98.888283,109.99752,32.845001,67.423725,85.97271,97.187462,26.371021,52.063866,68.108768,79.160042,-13.770218,-13.512966,-8.873843,-4.830117,26.520505,41.252486,44.272514,43.437833,44.520874,59.014622,58.308753,53.537792,55.23951,71.731563,70.45864,64.403271,60.051658,75.201072,74.733374,69.305698,27.176342,326.891676,-78.922863,326.145175
106,-29.333611,20.05462,-0.111122,-0.092687,3.787079,3.551903,0.009155,-6.004372,-22.633839,2.339973,19.115067,26.949692,-33.945637,-4.794731,14.171448,27.50267,-39.802494,-15.432472,2.14119,13.686562,-42.751808,-28.128147,-16.263599,-7.220078,-15.315399,-22.331975,-17.868346,-14.18654,-0.126033,17.001247,21.00749,22.645482,19.888696,33.384619,33.902705,32.37358,34.89454,44.145925,40.500428,37.415933,45.52722,52.725775,47.241103,42.51343,25.244236,50.596619,73.646965,92.62413,50.496311,84.031105,102.052917,114.143143,40.146446,78.482208,98.138695,109.473953,31.632385,66.439762,85.515862,97.109756,25.51466,51.082649,67.344475,78.894997,-13.610223,-13.613002,-8.594114,-3.619315,26.610476,41.493992,44.793317,44.103626,44.506177,59.665965,58.812266,53.557923,55.135893,72.347647,70.854584,64.268594,59.831827,75.499635,75.267639,69.798158,-2.546196,347.033209,-79.422913,326.139401
107,-17.660351,17.890329,-0.643387,0.280903,7.185745,11.32061,15.938473,17.919903,-4.376221,20.290318,35.178165,42.145901,-14.622917,13.324184,27.24329,36.100674,-20.151215,2.613487,13.749561,21.159496,-22.925663,-10.016212,-1.87706,4.099617,-19.050558,-32.393896,-33.365106,-33.312186,-14.828682,-1.248655,3.254802,5.925693,3.808148,15.49781,16.494029,15.948711,18.400203,25.776289,21.90565,19.292249,29.898932,33.541589,27.557974,22.675863,25.568905,51.176262,74.273987,93.358498,51.371498,84.761124,102.427025,114.276123,40.96796,78.677788,98.277054,109.86042,32.333279,66.37476,85.260086,96.974373,25.87532,51.196461,67.381668,78.868675,-13.909713,-13.881616,-8.873905,-4.21144,26.059291,40.949662,44.505745,44.230709,43.718674,59.413838,58.96269,53.937071,54.327148,72.14066,71.167041,64.819716,59.189993,75.060528,75.398797,70.372622,-20.651722,364.891922,-80.511475,326.388688
108,39.205112,-39.048367,-0.137615,-0.236072,-4.149857,-13.412018,-25.702171,-36.379223,-50.690346,-32.552719,-10.408516,3.91674,-61.920319,-40.055866,-13.830528,7.277184,-65.765762,-47.232857,-19.644585,0.800171,-65.782013,-58.533611,-39.553242,-22.617416,-8.947882,-9.632385,0.384149,10.233155,8.930653,35.370265,44.640052,46.307931,28.841888,51.02875,58.796643,59.106383,44.984558,61.981297,64.876774,63.5689,58.07336,73.29212,71.056755,66.078128,26.111698,51.734276,74.768772,94.022999,50.265141,83.294048,101.02541,112.813854,40.168934,77.298832,97.053623,108.6973,31.954479,65.06979,83.981152,95.490475,25.824337,50.25816,65.999622,76.89291,-13.063917,-12.409919,-7.292477,-3.188791,26.355508,41.205865,45.094597,45.228225,44.088991,60.442847,59.839484,54.46269,54.763353,72.960582,71.807578,65.337617,59.751983,75.567375,75.3841,69.715042,18.25716,325.803371,-80.94532,326.112432
109,-44.59053,30.207005,0.37365,-0.386249,9.126492,16.385994,24.641647,30.584564,-3.098259,24.328766,40.373383,48.684425,-12.568016,17.261581,35.55027,49.24427,-17.264099,8.733387,24.843178,35.310745,-19.809208,-1.795578,8.781338,15.613461,-23.404826,-37.306758,-39.466726,-38.285255,-14.279598,-0.541489,4.672839,7.644701,7.198554,20.70411,21.577817,19.929266,23.624843,33.083215,30.484264,27.908901,35.761578,42.889428,37.80953,32.119786,26.88818,52.049217,74.606152,92.971172,48.971672,82.118168,99.791279,111.660404,38.997746,75.88995,95.341816,106.910419,31.129818,63.847275,82.286167,93.377666,25.70343,49.588909,64.822197,75.339146,-12.220345,-11.078827,-5.593785,-0.927368,27.095031,42.162008,45.774407,45.818867,44.714894,60.46341,59.912102,55.142192,55.243339,72.795276,71.856299,65.990998,60.066355,75.813513,75.942571,70.827661,-26.512384,355.96959,-80.750685,325.685397
110,-6.620979,11.142862,0.062656,0.678884,9.553871,17.540989,24.75563,30.336914,5.188065,30.175667,45.025063,53.391609,-3.568096,23.708496,40.196457,53.524246,-9.112644,14.542637,27.17514,36.729012,-12.507648,1.734638,10.42963,16.912365,-24.267418,-40.402801,-44.67136,-45.974664,-21.238251,-11.024733,-6.126382,-2.976802,-0.82832,10.20265,10.974715,10.796319,15.049687,22.154319,18.31968,15.674107,27.578043,32.621446,26.872236,21.202868,25.942841,50.912361,73.71151,92.27417,47.815647,81.385231,99.514275,111.666641,38.222408,74.866905,94.639664,105.895844,30.623989,62.864742,81.45813,92.415276,25.462189,48.792057,64.25251,75.065575,-12.299941,-11.875098,-6.012329,0.008028,26.759356,41.553828,45.306957,45.699813,44.530816,60.805692,60.06901,54.649732,55.219009,73.188873,71.796216,64.868252,60.113532,76.026675,76.141654,70.461666,-33.260851,367.053001,-80.815516,326.304831
