takenoko1/special-research/HandMotion_SimilarSearch_自分用/NewProject/handData/key/d4_feature_d2/16.csv
,vel_0x_L,vel_0y_L,vel_0x_R,vel_0y_R,posFromWrist_1x_L,posFromWrist_2x_L,posFromWrist_3x_L,posFromWrist_4x_L,posFromWrist_5x_L,posFromWrist_6x_L,posFromWrist_7x_L,posFromWrist_8x_L,posFromWrist_9x_L,posFromWrist_10x_L,posFromWrist_11x_L,posFromWrist_12x_L,posFromWrist_13x_L,posFromWrist_14x_L,posFromWrist_15x_L,posFromWrist_16x_L,posFromWrist_17x_L,posFromWrist_18x_L,posFromWrist_19x_L,posFromWrist_20x_L,posFromWrist_1y_L,posFromWrist_2y_L,posFromWrist_3y_L,posFromWrist_4y_L,posFromWrist_5y_L,posFromWrist_6y_L,posFromWrist_7y_L,posFromWrist_8y_L,posFromWrist_9y_L,posFromWrist_10y_L,posFromWrist_11y_L,posFromWrist_12y_L,posFromWrist_13y_L,posFromWrist_14y_L,posFromWrist_15y_L,posFromWrist_16y_L,posFromWrist_17y_L,posFromWrist_18y_L,posFromWrist_19y_L,posFromWrist_20y_L,posFromWrist_1x_R,posFromWrist_2x_R,posFromWrist_3x_R,posFromWrist_4x_R,posFromWrist_5x_R,posFromWrist_6x_R,posFromWrist_7x_R,posFromWrist_8x_R,posFromWrist_9x_R,posFromWrist_10x_R,posFromWrist_11x_R,posFromWrist_12x_R,posFromWrist_13x_R,posFromWrist_14x_R,posFromWrist_15x_R,posFromWrist_16x_R,posFromWrist_17x_R,posFromWrist_18x_R,posFromWrist_19x_R,posFromWrist_20x_R,posFromWrist_1y_R,posFromWrist_2y_R,posFromWrist_3y_R,posFromWrist_4y_R,posFromWrist_5y_R,posFromWrist_6y_R,posFromWrist_7y_R,posFromWrist_8y_R,posFromWrist_9y_R,posFromWrist_10y_R,posFromWrist_11y_R,posFromWrist_12y_R,posFromWrist_13y_R,posFromWrist_14y_R,posFromWrist_15y_R,posFromWrist_16y_R,posFromWrist_17y_R,posFromWrist_18y_R,posFromWrist_19y_R,posFromWrist_20y_R,posFromBody_0x_L,posFromBody_0y_L,posFromBody_0x_R,posFromBody_0y_R
2,-30.316257,-1.733025,-6.784515,-9.445034,-5.041008,-9.070816,-12.503414,-17.42506,-17.431355,5.91362,22.691975,31.135311,-18.402843,8.711014,25.619717,36.345348,-15.605907,7.732143,24.565487,35.362072,-10.119381,3.594131,15.466805,24.009762,-7.087589,-8.990489,-5.642753,-3.401151,-8.161181,3.286666,7.650259,8.07751,0.723344,12.908553,16.193181,15.772105,9.921994,21.523538,20.542139,17.831975,18.087128,25.540588,23.485719,21.435482,22.137394,46.102066,68.534374,89.43409,46.461697,79.872093,97.769165,110.573158,37.830734,74.984493,96.116409,109.109802,30.031071,64.742203,84.513474,96.447945,24.026871,51.395016,66.990623,77.517185,-18.956882,-20.43352,-16.360772,-13.75157,13.180749,28.167142,33.515777,36.782991,31.009328,44.868529,48.361688,49.253117,42.678241,57.344397,58.935581,57.158219,48.98796,61.790735,62.714521,59.626013,-18.014574,328.206944,-78.456488,297.449373
3,41.823635,-29.255554,-2.542877,-1.083226,-1.277618,-11.1866,-24.49894,-36.697884,-40.227013,-30.645504,-11.111412,0.664558,-50.33289,-36.891861,-16.414032,-0.295372,-56.328564,-46.638794,-27.008057,-12.503357,-59.409542,-67.140141,-61.535969,-54.798031,-15.306136,-21.213922,-20.657365,-18.003271,0.946325,23.561919,27.8637,26.356867,19.149853,39.081342,41.125157,38.647298,32.568588,47.786297,48.232074,46.375362,42.473354,55.977675,57.080599,56.54831,23.537407,48.021641,71.205311,91.246948,48.213043,81.912689,100.635681,114.013939,38.963757,77.33551,98.899384,112.536049,30.839539,66.639919,86.661873,99.270287,24.805984,53.532257,69.566803,80.559883,-18.038777,-20.278156,-15.700104,-11.908258,12.777025,27.522097,33.05234,36.068848,31.02705,45.564888,48.980056,48.924604,43.219546,58.225513,59.567535,57.134507,49.71396,62.640297,63.243846,59.899073,25.690584,297.441252,-79.117842,294.85601
4,-40.198517,11.452725,-2.201271,-1.180853,5.825157,8.154602,7.411652,4.428062,-9.640675,12.913342,29.059639,37.426414,-18.45583,6.72884,26.427155,40.980835,-23.498268,-2.478046,17.457619,31.85154,-26.488838,-14.088535,-1.197681,9.273663,-21.03077,-27.463187,-25.347988,-19.77489,-6.092851,6.452795,12.091595,16.44784,11.151075,24.191465,28.692576,30.908428,24.36097,34.816735,35.500868,36.364138,33.659779,44.40114,42.898752,40.044833,24.836884,50.340271,73.849468,93.78685,49.254799,82.949181,101.694603,115.4179,40.392094,78.553219,100.295448,114.436111,32.680092,68.13961,88.236237,101.157646,26.819229,54.965687,71.009502,82.195415,-17.306047,-19.208515,-14.496588,-11.299708,14.395318,29.153543,34.48779,37.322073,32.574516,46.796315,50.452063,50.459596,44.524579,59.09323,60.86664,58.578602,50.822997,63.769218,64.610938,61.115741,-13.558359,308.032837,-80.369539,292.814016
5,36.25248,-12.219666,-0.35717,-0.598423,-1.186752,-11.523857,-24.758892,-35.729828,-38.651733,-29.874516,-10.845108,1.296387,-49.119186,-35.79855,-15.658493,0.92411,-55.08007,-44.923439,-24.472389,-8.891716,-58.327332,-62.882595,-54.195671,-44.535599,-14.05532,-17.279927,-12.508843,-6.182019,2.622725,23.483002,28.922287,29.11217,19.528753,38.308103,42.479035,42.186955,31.880379,46.486451,48.619681,48.14482,40.995975,55.108044,55.769452,54.326716,25.284004,50.604515,74.028854,93.957939,49.134865,83.253365,102.064934,115.561752,39.965572,79.142132,100.97065,114.772453,32.265244,68.865509,88.922081,101.506462,26.5341,55.268841,71.43465,82.436199,-17.203912,-19.053584,-13.928485,-10.513749,14.223281,29.696576,35.390334,38.530219,32.744329,47.481436,50.899568,50.835718,45.062116,59.865975,61.305871,58.947376,51.632669,64.434332,64.905735,61.391642,23.085222,295.121583,-80.335608,291.524004
6,-40.801449,17.686491,-0.214806,-0.056996,8.810062,13.621788,16.578884,16.385994,-3.097858,21.012325,36.764202,44.601917,-13.278866,14.26815,33.686657,48.491879,-19.587078,3.858604,21.862164,35.019321,-24.22966,-10.056725,1.998425,11.58783,-21.805367,-34.281606,-37.827438,-37.16677,-9.883586,3.664393,9.188276,13.668021,7.84045,21.615608,24.900854,26.356249,21.27067,31.843885,31.513088,31.56008,31.22953,40.991282,37.997684,33.487681,25.259628,50.527725,74.177914,94.289017,49.860363,83.852234,102.613792,116.278496,40.730209,79.746437,101.37886,115.312042,32.882824,69.212379,89.17408,101.819229,26.794338,55.396099,71.455708,82.427959,-17.070346,-19.125152,-14.268544,-11.169106,14.893335,29.978467,35.530508,38.444201,33.141631,47.803402,51.246914,51.15188,45.172341,59.922229,61.498347,59.106815,51.591358,64.365604,64.839909,61.363299,-17.435188,312.514374,-80.269375,291.173308
7,55.403194,-18.938049,-0.511265,-0.836656,-8.925934,-23.356247,-39.403496,-53.122902,-53.030605,-50.627518,-29.638939,-14.585266,-61.94046,-55.20092,-32.587967,-13.437424,-65.877743,-62.063255,-40.270386,-22.359238,-67.288113,-77.072525,-68.124676,-57.350407,-8.653085,-11.686451,-6.907154,0.177285,4.251145,25.026083,31.605652,32.668747,19.935997,37.86807,43.901332,44.954485,31.850183,45.820411,49.695991,50.259648,41.39408,54.195928,55.757164,56.060173,25.61285,51.130028,74.670467,94.856586,50.126667,84.393368,103.161106,116.85751,40.863819,80.212784,101.887836,115.882816,33.018379,69.661903,89.561405,102.245121,27.041759,55.432606,71.431961,82.485867,-16.772462,-18.477823,-13.347846,-10.077111,15.092048,30.500257,36.076875,38.964201,33.562893,48.418807,51.908384,51.825515,45.755018,60.549119,62.155248,59.762419,52.223435,65.150081,65.799572,62.466099,38.060188,293.453812,-80.688457,290.214139
8,-33.939056,13.494565,-0.297375,0.036433,2.946396,0.883255,-5.228119,-11.562481,-28.226166,-6.053524,14.720535,26.828728,-38.282375,-11.35128,11.855965,29.670753,-41.975269,-20.747852,0.248108,15.708733,-42.34108,-34.658718,-25.426998,-16.862125,-20.423949,-29.958645,-29.773579,-24.633845,-3.21837,11.640879,14.692276,16.165455,15.186464,28.679979,30.004278,29.800502,28.16813,38.088642,36.283307,35.275479,37.533815,47.357688,44.044593,39.835191,25.909138,51.578178,75.28759,95.496712,50.492134,84.896736,103.746986,117.234192,41.234951,80.821495,102.39933,116.214638,33.500347,70.274734,90.045776,102.453117,27.707233,56.283188,72.224064,83.020363,-16.548369,-18.318754,-13.410646,-10.158869,15.676577,30.714223,36.210133,39.222935,34.055661,48.693287,51.88035,51.644772,46.147997,60.83243,62.167042,59.637066,52.587577,65.265554,65.681073,62.299497,4.440193,306.848557,-80.666771,290.150752
9,31.609955,-12.307783,-0.508289,-0.649429,-7.372398,-20.765533,-36.269073,-49.242268,-49.803944,-45.529003,-25.39856,-11.16291,-57.865791,-49.093666,-27.815437,-9.380379,-61.665001,-56.3447,-35.603657,-18.954506,-63.202801,-73.985825,-69.367275,-62.734509,-12.247391,-16.265861,-12.742198,-7.70781,4.382735,24.96668,29.92709,29.665886,20.555045,38.412832,42.16806,41.763409,32.616074,46.821818,48.692485,48.030952,42.18819,54.73081,56.549731,57.220093,26.113529,52.053394,75.72773,95.893764,51.610737,85.705662,104.280682,117.901897,42.229729,81.076813,102.269611,116.187801,34.253311,70.033836,89.474773,102.050686,28.132553,55.800018,71.375542,82.255039,-16.504033,-18.079347,-12.86224,-9.703892,16.440738,31.607936,37.098104,40.135051,34.515578,49.320672,52.978519,53.360198,46.309413,61.06066,62.875504,60.917769,52.580846,65.271544,66.027431,63.172894,36.391497,294.516969,-80.833712,289.477518
10,-37.354488,11.743323,0.088348,-0.48752,0.238724,-2.125511,-5.47205,-8.86591,-23.119469,0.172062,17.75465,27.360821,-30.316658,-4.01619,17.148113,33.344593,-32.957611,-12.398586,8.350925,23.68372,-33.253841,-23.364601,-10.765057,-0.11198,-19.40766,-25.246162,-22.093989,-14.870672,-1.196723,12.563307,16.170395,18.933356,15.112858,27.851474,30.960977,32.446013,26.929355,37.115147,36.396557,36.461457,35.180259,45.739518,43.473093,41.050562,26.746159,52.813454,76.425133,96.545963,51.80357,85.731525,104.054775,117.411404,42.233219,81.137753,102.239285,115.902157,33.954449,70.082245,89.410458,101.940823,27.545013,55.256939,70.816441,81.760082,-16.221648,-17.712365,-12.303893,-8.618814,16.095245,31.789174,37.458479,40.586755,34.491804,49.778674,53.464927,53.67599,46.582658,61.632036,63.41193,61.264251,53.153396,65.980006,66.756456,63.81726,-0.684986,306.179013,-80.467358,288.908719
11,15.841541,-6.558944,-1.092396,-0.408232,1.805534,-4.749756,-14.489937,-24.067726,-30.986652,-15.223103,3.480606,15.05127,-41.038685,-22.640305,-1.969528,15.763435,-47.957668,-31.829281,-10.236511,6.277771,-51.949883,-51.461277,-41.364498,-31.077919,-18.981397,-27.377354,-29.00633,-27.927735,-1.702768,16.547814,19.820709,19.191225,17.521865,34.526755,35.727059,33.990453,31.361799,44.003097,42.922464,41.559262,42.082474,55.46916,53.428618,49.675119,27.305546,53.644695,77.432098,97.479858,52.604427,86.818771,105.07473,118.305473,42.82608,81.783314,102.90699,116.722984,34.226818,70.272675,89.527359,101.928062,27.480583,54.950409,70.488396,81.346722,-16.036705,-17.272702,-12.016445,-8.293389,15.633228,31.259355,36.997759,40.368406,34.032011,49.403726,53.323704,54.020989,46.150282,61.46142,63.43237,61.610362,52.86601,66.058862,66.90688,64.020542,15.32527,299.58041,-81.391039,288.460828
12,-25.571709,13.275536,0.338173,0.181484,1.477318,0.693569,0.02449,0.197926,-14.019585,9.70356,26.420288,35.834427,-20.589294,7.065926,28.011475,44.439926,-22.629204,0.858479,21.094551,37.00367,-22.254066,-10.113144,2.51049,13.540649,-17.052932,-25.883117,-24.68306,-18.29146,-7.525276,1.889192,7.747392,13.406447,7.442098,17.837224,24.348434,28.797675,19.183383,28.177516,31.226813,32.792248,28.045617,35.753427,35.633631,33.637858,27.596111,53.854923,77.56382,98.016243,51.874466,85.718193,104.09111,117.378731,42.557945,81.654968,103.078079,116.953011,34.450378,70.683632,90.205193,102.83535,28.078022,55.628929,71.24548,82.1632,-15.590682,-17.070593,-11.956177,-8.343654,15.72394,31.651717,37.272055,40.286339,34.094996,49.583049,53.434114,53.728045,46.278476,61.662726,63.575075,61.479019,53.076393,66.192675,67.014141,64.050677,-10.1019,312.726316,-80.908327,288.512683
13,23.887367,-17.974495,-0.791988,-0.520926,1.389771,-3.134995,-12.196198,-22.100887,-35.756607,-17.201958,4.648247,17.887459,-46.654301,-23.864651,-0.264816,19.530716,-52.398434,-32.817478,-7.552872,11.289482,-54.362183,-52.707939,-41.847267,-30.578156,-15.307248,-21.921767,-21.501617,-19.019374,1.128983,23.037782,27.540128,26.916264,20.045295,39.232569,41.492695,39.298456,33.522384,48.270112,47.804143,45.761995,44.276404,58.595892,58.934408,56.76845,27.418842,53.793182,77.596951,98.042049,51.287556,85.771923,104.500751,118.22073,42.152882,81.345634,102.937031,116.950436,34.605846,70.797157,90.530148,103.335514,28.985825,56.569233,72.233734,83.400707,-15.797978,-16.832668,-11.364484,-8.044103,15.769758,31.863151,37.989533,41.44842,34.337366,50.652628,54.779161,54.94175,46.51782,62.41108,64.480645,62.130548,53.140737,66.255413,67.29671,64.280635,13.813133,294.4588,-81.672649,287.698736
14,-32.71162,20.947469,-0.521793,-0.410764,7.506065,11.228542,17.488804,25.418873,-7.75795,18.744564,36.931973,47.618237,-15.628052,14.094772,37.194157,55.630016,-18.546066,7.269344,29.320736,46.684628,-18.511734,-6.809864,4.468918,14.674301,-21.921458,-35.088251,-36.460654,-30.345758,-14.800215,-5.482078,0.041805,4.28554,3.738679,14.340236,19.148185,21.441966,18.410144,25.799199,27.465348,27.417306,29.59055,36.513945,34.922945,31.083675,27.37524,53.838444,77.793388,98.33519,51.752014,86.256409,104.794121,118.428726,42.6404,81.858902,103.426781,117.601204,35.05188,71.146545,90.944595,104.044647,29.303455,56.897049,72.692814,83.992195,-15.872449,-17.024403,-11.28427,-7.880526,16.317176,32.274532,38.108711,41.374752,34.874533,50.667942,54.438546,54.354874,47.019542,62.683708,64.695474,62.367669,53.446958,66.707859,67.800223,64.753149,-18.851194,315.20859,-82.14715,287.090293
15,0.830727,10.111939,0.008755,-0.263798,4.90242,6.806259,9.702816,14.383793,-4.975719,23.481045,41.339893,51.083393,-11.000862,18.122921,38.206959,53.743801,-14.83366,10.886993,30.916729,44.936771,-15.006008,-13.953209,-16.205521,-17.62476,-20.1499,-35.114434,-44.080532,-47.564737,-19.117557,-9.466647,-2.39888,1.811942,-3.218987,9.4664,14.279721,16.898,9.220572,18.350432,20.088212,20.634888,18.38106,23.767178,24.385546,22.788928,27.27087,53.782253,77.970028,98.651104,51.508255,86.279469,104.824734,118.23801,42.542267,82.181854,103.63306,117.495747,35.192242,71.873646,91.670666,104.651928,29.765511,57.837582,73.847694,85.199718,-15.54721,-16.65211,-11.149531,-8.234603,16.104013,32.157453,37.957669,41.253042,34.816056,50.589272,54.106267,53.756698,47.243449,62.978195,64.81632,62.521242,53.923547,67.009386,67.822639,64.770192,-17.913008,325.157477,-82.030935,286.663444
16,-8.612995,-10.558518,0.054417,-0.36124,11.92194,22.664051,32.259865,37.49279,3.861408,32.30175,50.512161,63.801842,-3.549728,27.598,47.567368,63.556252,-7.532616,20.439663,39.459686,52.648544,-7.672062,-0.093555,6.043224,11.325474,-16.929802,-26.524025,-30.06325,-34.559421,-11.345094,0.84419,6.541098,8.48179,4.173896,17.441219,22.020629,23.381485,16.210162,29.647978,30.149639,28.576423,25.66872,36.455097,35.991228,35.401017,27.093716,53.411064,77.43639,97.872963,51.243839,86.091843,104.821587,118.403778,42.125988,81.90073,103.38398,117.212219,34.82626,71.651745,91.447563,104.400673,29.537945,57.547474,73.549519,84.911327,-15.291872,-16.439997,-11.167686,-8.138951,16.293772,32.476579,38.124828,41.22229,35.143024,50.823738,54.209328,53.756636,47.604813,63.217911,64.959643,62.540879,54.349008,67.384087,68.142938,65.051095,-26.500711,314.535156,-81.951227,286.2384
17,5.523949,-3.241464,0.133438,0.404033,10.135574,20.807362,28.820114,31.741104,-0.280037,23.259201,39.659271,48.942719,-9.588146,19.362373,40.94799,56.794395,-13.570347,10.24435,28.295403,42.824707,-13.618526,-4.761429,2.061939,9.486523,-14.351722,-19.941369,-15.609269,-8.922626,-15.855221,-8.616529,-2.802419,3.283578,2.771173,12.68514,20.550537,22.842898,18.927675,25.662607,29.907824,30.612828,32.71895,37.100389,35.012731,32.333133,26.978073,53.048573,77.190971,97.69146,51.102962,85.771465,104.599457,118.164825,42.078953,81.872635,103.278694,117.095375,34.8559,71.694546,91.386337,104.089737,29.652157,57.779503,73.692398,84.760265,-15.200667,-16.653222,-11.659836,-8.648639,16.529906,32.250202,37.577472,40.318017,35.126537,50.426313,53.643756,53.261027,47.49854,62.912802,64.456315,62.021064,54.253356,67.243482,67.749403,64.448534,-20.96489,311.151403,-81.805916,286.500145
18,54.119797,-19.314479,-0.105457,0.066011,-4.572716,-16.237679,-31.916256,-45.259209,-54.989491,-42.719364,-19.248047,-3.533592,-64.754562,-47.497501,-22.793999,-2.058563,-68.105736,-55.185356,-28.947716,-8.932228,-67.807789,-76.679993,-73.031616,-67.050476,-13.300359,-18.367969,-16.7837,-12.632344,3.846989,27.427927,31.654867,31.102015,21.234423,41.343383,43.363918,41.860851,33.656692,49.671723,49.469243,48.042747,43.472846,56.566774,60.331573,62.873343,27.008457,53.091087,77.105598,97.449818,51.923161,86.030445,104.563694,117.94733,42.833176,81.705093,102.933826,116.684475,35.277443,71.168518,90.497646,102.835178,29.596996,57.25296,72.751637,83.31871,-15.497439,-16.936162,-11.858302,-9.095218,16.574922,32.054701,37.605754,40.635106,34.874657,50.331711,53.820177,53.627269,47.029237,62.530134,64.203262,61.830132,53.675496,66.721999,67.263983,63.990038,33.209152,291.735236,-81.857128,286.464468
19,-48.127613,11.337561,0.375423,0.448493,6.726322,11.103001,14.626408,16.734123,-12.081642,13.60754,33.150272,43.428555,-20.92907,9.198933,30.585537,47.200642,-25.003681,0.438023,21.550999,36.544247,-26.384296,-17.010384,-8.166561,-0.473671,-20.748571,-29.316687,-30.722435,-28.071429,-2.279022,12.89361,15.443099,16.073879,16.171321,31.733043,32.231245,30.641419,29.434754,41.688197,39.271039,37.554625,38.038377,50.390436,48.638083,44.643325,26.814537,52.769737,77.009811,97.56752,51.851349,85.933056,104.360161,117.512283,43.028469,81.998291,103.065262,116.566429,35.662422,71.863117,91.143494,103.500252,30.018883,58.173752,73.852215,84.537792,-15.660028,-17.13611,-12.137908,-9.701298,16.462228,31.852962,37.307191,40.128629,34.892441,49.779477,52.973764,52.497175,47.245487,62.133944,63.406558,60.799764,54.119667,66.672784,66.777945,63.335545,-14.869909,302.983753,-81.433153,286.823917
20,-2.460423,10.92797,-0.460567,-0.014326,5.500145,9.852219,16.306572,20.300674,-6.88797,18.869476,37.182884,47.97924,-15.067635,14.283199,35.838203,52.708969,-18.114452,6.544132,24.976158,39.490471,-18.337154,-8.456612,1.103039,9.894161,-21.343351,-32.709687,-31.917059,-28.060252,-17.209655,-9.330055,-2.636434,3.311613,3.136736,12.556761,17.952389,19.507264,19.579944,26.161488,27.574276,27.34864,32.58668,35.827342,31.384462,27.061377,26.942711,52.901688,77.103195,97.634983,51.797218,86.011047,104.709492,118.087749,42.705803,81.999149,103.38438,117.085476,35.158424,71.854877,91.164722,103.204708,29.491024,57.794094,73.419743,83.783398,-15.786555,-17.081646,-12.192001,-9.801643,16.209236,31.781579,37.469038,40.415336,34.801791,50.027714,53.302029,52.904295,47.208375,62.245095,63.2373,60.314221,54.119605,66.762446,66.563116,62.554464,-17.284412,313.908188,-81.847801,286.806056
21,50.534248,-21.557995,-0.352707,-0.534944,-4.455185,-16.439095,-31.690807,-45.543709,-53.024311,-42.369347,-19.0662,-3.659477,-62.936897,-46.850052,-22.00882,-1.782532,-67.050591,-54.860859,-28.690166,-9.057541,-67.281361,-75.056534,-68.116264,-59.580002,-13.73218,-19.620699,-18.281642,-14.987257,3.885398,26.90731,31.175189,30.142908,21.685571,41.473676,43.698482,41.68758,34.534103,50.338318,49.726742,47.395541,44.533594,57.565895,58.917921,58.991218,27.064018,53.292446,77.477474,97.813625,52.257156,86.523857,104.860668,118.186398,43.188457,82.175789,103.298893,117.02425,35.576077,71.884289,91.089993,103.405666,29.623547,57.78986,73.276176,83.847656,-15.768709,-17.154203,-11.915236,-9.136961,15.853554,31.528834,37.097733,40.142152,34.355768,49.476036,52.859773,52.468584,46.7944,61.71929,63.268422,60.734494,53.747312,66.453385,66.727063,63.277808,33.283968,292.28991,-82.166376,286.210828
22,-50.644741,10.536596,0.428066,-0.153882,6.237259,9.852161,12.919807,14.60907,-8.602524,17.662067,36.041737,45.036106,-16.180515,13.64439,34.811611,50.3932,-19.711819,6.399822,28.318119,43.171635,-21.029263,-5.498257,8.852692,19.476528,-21.88873,-28.807061,-27.255891,-21.41566,-2.693491,10.644721,13.639493,15.127863,14.844182,29.821003,31.934596,31.534886,28.103354,40.323266,38.576594,37.140835,37.003626,48.975487,45.82319,40.647085,27.17165,53.442078,77.649307,98.014984,51.574459,85.586758,103.993034,117.104301,42.678623,81.812096,103.122711,116.69426,35.165577,71.892357,91.32122,103.723183,29.350605,57.81435,73.647938,84.513187,-15.369863,-16.766348,-11.671816,-8.396451,15.898199,32.185797,38.077712,41.137322,34.381024,49.902978,53.318208,52.778201,46.895795,62.228792,63.738528,61.104256,53.912062,66.799743,67.227118,63.909145,-17.322693,302.83319,-81.70023,286.063631
23,-9.152927,13.961892,-0.008869,-0.229094,8.92622,17.253399,27.701626,35.779953,6.112461,29.138374,47.350616,59.436264,-1.548386,24.297409,46.963577,65.497742,-6.406116,15.749302,33.36525,48.361931,-9.264793,-0.751362,8.071232,16.6856,-21.206388,-30.765784,-29.253084,-25.494893,-23.366232,-16.799447,-9.213285,-1.889686,-4.366063,7.00509,14.369506,16.874535,13.213785,21.542681,24.849601,24.853553,27.977136,32.692459,30.17897,26.920401,26.717663,52.786503,77.026634,97.580166,51.807976,86.318035,104.812374,117.864819,42.634392,82.302189,103.519535,116.965771,34.840908,71.984768,91.566639,104.018726,28.819485,57.353668,73.386669,84.254322,-15.79205,-17.117399,-11.896279,-8.627027,15.965816,31.771822,37.320282,40.184081,34.69274,49.89001,53.034835,52.397262,47.158357,62.574965,63.814481,61.031884,53.869577,67.092996,67.283064,63.572975,-26.418371,316.774766,-81.65185,285.814221
24,52.321472,-23.402171,-0.811157,0.055699,-2.631912,-12.711067,-24.848614,-35.058517,-43.689308,-32.8018,-11.805153,2.387009,-53.930225,-38.333645,-15.744095,4.043198,-59.511852,-46.622543,-22.199821,-3.06324,-61.528072,-67.366161,-58.914528,-48.886814,-15.399935,-20.723747,-19.521837,-15.461994,0.958984,21.289319,25.968765,25.814266,18.58638,36.69685,39.811726,39.240164,31.782505,45.850607,46.547893,45.983803,42.493793,56.043748,57.29018,57.103879,26.994724,53.148422,77.520103,98.328495,51.993771,86.614437,105.310879,118.672771,42.78265,82.579136,103.887348,117.625408,35.187721,72.308636,91.88982,104.460926,29.458523,57.901611,73.717861,84.53825,-15.966989,-17.661668,-12.555526,-9.326535,15.505775,31.32407,36.778978,39.680753,34.2172,49.593423,52.798702,52.370463,46.694365,62.071885,63.256072,60.482614,53.532111,66.728236,66.802831,63.013455,26.049299,293.40577,-82.316809,285.903095
25,-70.170078,18.673819,0.006981,0.830605,16.24649,29.520664,42.578545,51.651249,20.012398,49.155121,64.800053,72.560635,11.988316,44.763851,63.843441,77.600956,6.370697,36.85318,56.684017,70.241833,1.605778,24.212379,39.763699,51.17712,-25.165022,-39.737996,-42.670214,-38.857497,-16.526325,-4.524391,-0.176297,3.217814,1.644352,16.218993,18.664433,19.868319,17.023662,29.106736,28.73506,28.381848,29.162003,40.422128,36.77731,30.715643,27.287807,53.403397,77.391014,97.891674,51.943188,86.658783,105.025806,117.935886,42.79707,82.867069,104.038525,117.399044,35.191727,72.429886,91.934452,104.445477,29.502583,57.923412,73.569431,84.29884,-16.088205,-18.216742,-13.41009,-9.638313,14.764524,31.220267,37.104588,40.289983,33.460325,49.343334,52.62049,52.219606,45.901922,61.375093,62.998758,60.615378,52.748252,65.816059,66.534587,63.564269,-44.115887,312.05035,-82.304935,286.704461
26,58.227482,-15.90104,-0.362148,-0.237986,0.022659,-7.039261,-16.240597,-25.665379,-33.790741,-16.427994,3.516655,14.952507,-43.74733,-21.714878,-0.001144,17.822914,-49.643383,-29.995022,-6.492462,10.529938,-52.455769,-49.571171,-37.344131,-25.914631,-19.183815,-27.375069,-30.094804,-29.797785,-4.275969,16.663472,20.726279,19.392902,15.770252,35.735396,37.430136,34.206023,30.900338,46.148059,45.514932,42.438712,42.731223,58.072496,57.072695,52.760478,27.352123,53.615284,77.585278,98.085938,51.916351,86.876163,105.60894,118.794823,42.820415,83.003197,104.437523,117.914658,35.311203,72.764168,92.370872,104.780846,29.729633,58.172722,73.954983,84.768677,-15.899928,-17.9535,-13.437569,-9.656468,14.693511,31.344386,37.235437,40.234716,33.57549,49.661657,52.942271,52.265857,46.108168,61.62969,63.129546,60.460508,53.038602,66.245657,66.984192,63.842639,14.135056,296.117725,-82.643623,286.43489
27,-29.511967,18.297697,-0.402489,-0.658753,6.527195,9.376774,12.735672,18.298931,-8.764858,17.998066,35.948925,46.937885,-16.379242,13.006783,34.706898,52.432423,-19.861794,6.725578,27.307148,43.211117,-20.033283,-10.111313,-0.652599,8.375359,-21.714841,-37.234634,-42.318916,-40.182475,-14.103979,-2.267599,2.183989,4.786089,3.922757,17.079176,20.088768,21.06745,17.48926,27.657454,28.197214,27.185928,27.195499,36.195992,35.857106,32.282621,27.392406,53.751526,77.854729,98.167534,53.079643,87.70031,106.229553,119.326172,43.72261,83.202095,104.241371,117.548332,35.627232,72.254963,91.654015,104.02668,29.203205,57.11998,72.805138,83.658028,-15.613098,-17.42646,-12.969192,-9.716921,16.086785,32.246003,38.044614,40.975721,34.580107,50.178076,53.609361,53.167228,46.673617,62.071638,63.842084,61.450614,53.284739,66.251153,67.216064,64.393391,-15.359945,314.411871,-83.029146,285.772586
28,-16.609325,2.155089,-0.311623,-0.961577,10.656281,18.353691,26.984825,36.741028,8.430862,36.04517,52.890244,62.590256,1.963634,33.855686,53.722,69.465523,-2.668934,26.907177,45.981216,60.340233,-5.009594,8.724804,20.568867,31.199169,-21.729044,-36.349998,-43.504524,-42.742338,-13.820236,-2.478229,3.739049,6.993913,3.257087,15.732214,19.362027,20.764194,16.325636,26.374218,26.710079,25.345518,25.723616,35.582872,35.123511,31.225207,27.503643,54.109898,78.266373,98.55011,52.989807,87.688465,106.419067,119.881897,43.549461,83.004456,104.456863,118.349533,35.486698,71.737976,91.382332,104.322853,29.195251,56.502399,72.098808,83.129539,-15.154539,-16.606724,-12.095177,-9.106272,16.751714,32.844365,39.054851,42.576539,35.124869,51.276986,55.376164,55.532393,47.070795,63.139611,65.336505,63.101943,53.59238,67.089353,68.390928,65.437591,-31.953936,316.585949,-83.325434,284.829997
29,45.453415,-23.419585,1.180573,-4.327531,3.315926,-2.092323,-15.196724,-29.872341,-35.209637,-16.786308,4.360771,17.015076,-47.064171,-23.660774,-0.815964,19.316254,-54.386845,-32.718315,-7.691002,11.838455,-58.598156,-57.664833,-48.122807,-37.249546,-16.328106,-24.970693,-25.213619,-23.028643,2.605497,26.156919,31.047798,30.75436,20.785559,42.043633,44.486108,42.746476,32.824234,49.502527,49.177102,47.589067,42.080251,56.768574,57.834324,56.653224,27.804909,54.157219,77.199955,96.384888,53.863792,86.265621,104.001617,117.552795,43.721809,80.70282,101.799202,116.334457,34.232597,67.010937,86.219273,99.62162,25.989361,50.228977,64.872608,75.140476,-14.97361,-14.756681,-8.681737,-7.426166,18.928848,36.593418,43.969751,48.709528,36.717412,54.064585,60.660579,63.56538,47.816432,65.036769,69.493234,69.566964,53.652895,67.713896,70.185827,68.535362,13.498793,293.165361,-82.145548,280.501463
30,-6.241264,25.861258,0.01236,-10.284284,1.49334,-3.034573,-12.236195,-24.430618,-25.309639,-10.909595,3.93322,13.150864,-35.928955,-24.764843,-18.646259,-11.323471,-41.658325,-40.540867,-39.769478,-36.990566,-43.500481,-54.614239,-59.598312,-60.93029,-23.261442,-38.250675,-43.151991,-42.631249,-23.574393,-16.549851,-8.863345,-3.029907,-5.183453,-0.838138,4.630602,8.651047,9.140666,11.144035,12.84705,15.352079,21.365334,20.728255,21.030832,23.022962,27.129478,54.159622,77.397881,95.957336,53.937778,84.425755,100.648041,113.022423,43.063889,78.525467,98.102531,111.668129,32.113895,64.283924,82.13871,93.898659,22.454796,45.411072,57.711525,65.369682,-14.35518,-11.951669,-4.712483,-2.605126,17.636844,40.207484,51.303724,59.099282,34.582145,56.626733,66.151981,71.211748,46.138549,67.052488,73.538319,75.116289,52.84767,70.413686,74.189847,73.32707,7.219963,319.02543,-82.170753,270.21599
31,7.227173,-34.769063,8.578835,-14.175486,-10.69725,-19.621811,-26.762123,-28.964195,-38.178864,-44.08968,-44.186954,-44.970989,-41.472988,-50.188866,-58.752022,-63.406277,-41.783924,-52.686768,-62.566624,-72.091827,-39.686451,-49.414444,-58.677635,-66.311588,-22.343275,-31.591387,-35.353716,-36.823253,11.754314,19.778595,18.317086,16.917513,28.036046,40.291156,39.903857,36.69827,37.814038,53.560517,54.218344,51.56956,42.472119,57.230529,59.285212,58.259291,25.481586,49.554005,66.631622,81.856728,50.176907,75.677147,85.000534,87.438583,39.933758,63.726082,66.156235,60.527287,27.508392,41.801262,37.561283,28.618069,14.705544,21.371155,16.052742,7.146835,-14.642875,-13.292455,-5.442681,1.150225,10.082793,34.943755,50.40612,60.640201,27.845916,59.670535,75.998085,83.211397,41.624841,71.371929,83.256228,87.546955,50.101073,72.078477,78.035539,77.443909,14.445305,284.27151,-73.59375,256.055648
32,14.025421,14.743281,21.259918,-21.444374,-18.414574,-37.785759,-53.212967,-63.53714,-48.888531,-72.662601,-86.638012,-98.240833,-43.984108,-70.249615,-87.648239,-102.137833,-36.680889,-60.505028,-75.409184,-88.963051,-28.175697,-46.952877,-57.783508,-68.405972,-20.892696,-35.123696,-47.853544,-58.806523,-7.313657,2.22462,7.401157,10.491333,8.518222,18.401685,24.605625,29.509225,21.693414,31.424785,37.875109,43.238009,31.698956,40.311286,46.287306,50.869434,7.972069,19.679832,24.356346,26.999416,48.607807,39.445152,24.631119,9.50695,48.394203,32.027721,8.370895,-12.507992,42.593021,24.754086,0.337315,-19.126453,32.751389,22.105293,5.683765,-9.347534,24.755555,46.023879,63.79997,81.794843,54.654178,84.94115,99.32245,103.838752,53.375821,85.707843,96.501074,98.069411,51.392892,79.881753,88.527058,89.977699,47.159654,70.794439,79.640494,83.208618,28.350334,299.780235,-52.454224,235.376716
33,14.920692,-14.32554,-49.573402,-61.264498,-20.889015,-43.234234,-64.853096,-82.572441,-55.610104,-86.430759,-102.853718,-114.50798,-50.636387,-83.579121,-102.81023,-116.722012,-42.105274,-71.812706,-90.55275,-103.7883,-31.536484,-55.50024,-70.129967,-81.923275,-21.084431,-23.58946,-14.026483,-6.322007,7.333417,17.988451,23.311336,28.183382,24.101865,35.87526,41.047166,45.118247,35.954363,48.689027,54.779346,58.655667,43.821736,55.973043,61.746645,65.028186,32.265644,65.0774,87.937031,93.444157,57.048569,94.990654,84.057426,72.80508,46.136913,82.247772,73.634548,62.021255,35.842667,70.982666,63.511505,51.885853,26.187057,56.571178,54.752712,48.884583,11.399064,21.600479,24.829161,26.486851,24.605934,43.72806,39.373421,33.256734,18.980595,36.316158,31.668575,27.964415,13.898659,28.739136,26.159018,24.157811,9.507279,19.322754,18.87673,17.685812,43.171349,286.648809,-102.127304,175.306332
34,2.180443,0.876115,-10.448685,-39.72756,-23.259315,-46.283112,-68.387547,-86.130524,-57.189617,-87.493744,-103.767757,-116.359749,-52.793541,-85.564957,-104.62429,-119.607239,-45.309792,-75.536385,-93.125381,-106.604633,-35.907898,-59.912968,-73.843861,-85.412922,-21.496121,-24.991009,-15.8199,-7.434194,6.522634,18.323261,23.571861,27.140232,24.114092,34.872804,40.225392,44.546747,36.649796,47.781481,53.632518,57.869028,44.580648,55.184614,59.83158,63.095336,26.477566,55.964241,79.341431,90.610027,48.910789,89.459438,79.116325,67.798805,37.50761,78.448105,70.823421,59.374466,28.427467,68.743229,61.734352,50.419865,20.530815,51.616974,48.941116,42.425823,-12.977775,-16.878425,-14.241745,-7.148783,-12.848964,4.449426,3.533297,-2.532384,-1.363202,13.781704,11.559924,7.762644,8.844512,19.64719,16.677366,13.672653,18.080274,21.050654,18.328819,16.330329,45.020313,288.372818,-112.907467,136.426667
35,0.238037,-1.140839,2.905998,-34.782124,-23.991623,-47.087688,-69.350624,-87.062302,-57.87466,-88.040428,-104.130478,-116.563854,-53.341599,-86.378345,-105.463371,-120.587196,-45.852184,-76.379757,-93.881435,-107.302551,-36.445885,-60.820541,-74.713383,-86.203537,-21.331001,-24.504848,-14.794225,-6.043945,7.033619,18.859564,24.216783,27.654181,24.611368,35.7412,41.456448,45.975219,37.151147,49.005559,54.75372,58.67308,45.054027,56.185774,60.877076,63.954963,27.324657,51.820736,66.702003,70.40514,48.493938,70.436382,65.823784,58.923111,37.436714,58.378487,53.329296,45.19249,26.102371,47.216606,43.027496,35.280361,15.645847,33.459663,32.974663,27.756557,10.645339,11.65644,3.12278,-6.930465,-9.915202,-30.629501,-24.375049,-17.806194,-24.771672,-42.370107,-34.721269,-28.074609,-36.182932,-51.322404,-42.630817,-35.029187,-44.164944,-57.436034,-50.712371,-43.373459,45.099392,288.419517,-110.160427,102.832081
36,-0.102768,-1.613477,-1.308918,-42.554123,-24.350624,-47.837219,-70.337391,-88.282185,-58.385296,-89.302597,-105.734196,-118.262501,-53.293247,-87.138004,-106.495457,-121.771431,-45.337887,-76.31052,-94.188423,-107.861881,-35.784302,-60.3685,-74.431629,-86.000862,-20.677805,-23.333381,-13.65067,-5.051369,8.276284,20.453342,26.03101,29.711766,25.91177,37.341524,43.391768,48.049786,38.356207,50.738029,56.782036,60.779881,45.863204,57.652716,62.511671,65.541826,30.741463,50.06155,58.534412,55.253277,39.357262,51.198635,49.846058,45.192089,25.591736,37.35878,38.899555,36.131744,12.939148,25.912971,29.749203,28.655376,2.245274,10.415726,17.271366,20.69561,-3.894321,-15.259577,-29.324314,-39.856093,-31.895755,-43.386364,-36.779811,-28.808296,-38.295012,-49.804455,-44.391105,-35.732308,-41.202252,-52.852208,-49.344476,-43.305934,-41.32001,-55.399475,-59.836273,-60.904678,44.475374,287.89152,-111.990595,61.363438
37,1.740417,-0.898592,0.899792,-36.450867,-24.934845,-49.527454,-72.426395,-90.28616,-59.408855,-90.342407,-107.374592,-120.58548,-54.31097,-87.883587,-107.888832,-123.858719,-46.369514,-77.453957,-96.016159,-110.186062,-36.756477,-61.248093,-75.538616,-87.335186,-20.167993,-22.845121,-13.498208,-5.352217,7.676811,20.517562,26.553109,30.72472,25.284632,37.416242,43.886018,48.981477,38.109576,50.422608,56.984762,61.506004,46.367335,58.024454,62.809679,65.610368,25.634937,41.639671,48.889561,46.845989,23.71685,26.847725,32.579327,34.4244,13.194809,17.879906,22.643108,22.997475,4.308701,13.292599,18.734035,19.615574,-2.114525,4.485283,8.3428,8.518753,-13.73888,-29.710593,-39.549564,-49.019762,-57.479537,-80.130546,-86.636476,-86.27817,-52.089467,-71.798223,-73.481107,-72.309979,-41.656704,-54.029665,-53.706649,-52.269933,-29.028714,-33.583209,-32.913711,-31.854938,44.646521,287.318276,-112.660074,25.237918
38,-0.095787,-1.974037,-12.033691,-8.829815,-25.31456,-49.906654,-72.773724,-91.100121,-59.58149,-90.135841,-107.136784,-120.359917,-54.364185,-88.013477,-107.841797,-123.697872,-46.636047,-77.489777,-96.130886,-110.155678,-37.423439,-61.887188,-76.367741,-88.407269,-19.521343,-21.485809,-11.814645,-3.844951,9.326597,22.392922,28.754265,32.856715,26.972827,39.145315,45.92656,50.990526,39.704589,52.248135,58.807696,63.113799,47.589499,59.581305,65.119823,68.657443,30.430584,44.420986,54.62368,58.808384,18.913536,31.764851,34.936295,33.493767,8.472061,42.509823,45.60133,39.94772,2.807522,38.307209,40.191422,34.249763,0.732422,28.278522,32.088318,26.780148,-26.780536,-47.593142,-62.006614,-74.75474,-69.213999,-73.552027,-71.832155,-74.451484,-61.981389,-55.719959,-43.109352,-39.583156,-49.115969,-42.130052,-30.75433,-27.3324,-33.253461,-30.538975,-22.703311,-19.89518,43.090954,286.691741,-126.153545,17.755605
39,0.227394,-0.289177,2.611942,-28.523009,-25.594025,-50.666771,-73.736916,-91.466274,-60.119534,-90.82386,-107.846031,-121.040783,-54.929981,-88.497276,-108.15897,-123.985863,-47.327442,-77.883453,-96.367607,-110.401669,-38.229904,-62.005234,-76.207409,-88.223877,-19.036849,-21.294444,-12.063807,-4.060522,9.456149,22.395886,28.838801,32.841957,27.109419,39.49896,46.257419,51.544674,39.762881,52.375156,59.081868,63.602739,47.545532,59.536227,65.057208,68.675721,31.186581,46.194191,54.526634,52.03949,17.506599,20.262852,25.180206,26.731682,3.360157,39.98909,45.650425,38.36586,-2.610168,36.965618,37.478142,27.729893,-4.607277,28.050442,31.993046,25.102901,-21.420415,-40.707354,-53.114555,-61.17178,-63.005458,-84.438532,-92.865302,-95.584173,-54.676347,-52.411341,-38.83891,-32.642287,-39.857946,-34.623765,-24.119155,-20.750917,-23.538331,-20.647115,-15.859574,-14.448485,40.898981,287.570557,-125.96097,-9.59941
40,0.277061,-0.364142,0.188828,-6.881281,-26.132011,-51.294765,-74.328232,-92.213745,-60.505829,-91.047592,-108.120174,-121.484814,-55.09798,-88.480453,-108.250351,-124.227791,-47.362347,-78.073883,-96.505165,-110.407448,-38.223724,-62.284527,-76.372948,-88.161449,-19.406364,-21.560959,-12.446722,-4.451896,8.782329,22.249476,28.803109,33.031036,26.581206,39.590412,46.56086,51.937654,39.424859,52.355334,59.009867,63.537716,47.387637,59.557037,65.081353,68.667261,25.996971,41.144772,53.233166,55.543556,20.36047,23.475952,24.826355,24.177246,6.873722,37.403755,47.834358,48.106556,-0.757599,31.217365,38.392925,36.095009,-3.52232,20.52578,30.000343,31.277561,-23.876414,-42.739251,-54.479795,-61.675385,-64.670558,-75.940626,-86.586119,-97.908242,-57.535638,-50.416247,-39.465769,-33.707327,-42.024737,-33.482308,-25.98022,-22.977297,-23.613512,-18.504221,-16.012808,-16.065327,38.804169,288.434739,-128.144016,-15.252367
41,-0.337372,-1.02586,4.715023,-3.522521,-25.939522,-51.028576,-73.953838,-91.648407,-60.59063,-90.852356,-107.721119,-120.940533,-55.336304,-88.755569,-108.602886,-124.618492,-47.750988,-78.389339,-96.751785,-110.684166,-38.540955,-62.543049,-76.533566,-88.484402,-19.106565,-21.348599,-12.189284,-3.914544,8.806844,22.506358,29.161509,33.483729,26.287027,39.558178,46.601616,51.911225,38.982912,52.115433,58.992145,63.692092,47.018369,59.143618,64.855964,68.746857,24.738808,41.476479,53.91798,52.412224,18.522949,21.710014,23.836327,23.862076,4.164104,35.081406,43.654346,41.80481,-3.575478,28.9991,33.635387,29.01804,-6.178093,18.777809,26.599846,26.223907,-20.631986,-39.067417,-49.594566,-51.576352,-59.844578,-68.338162,-77.419332,-87.03455,-53.594294,-43.990808,-32.995623,-27.227146,-38.650015,-27.525833,-20.708032,-18.643684,-21.153561,-13.497806,-11.849595,-12.450056,36.844082,287.699137,-125.051708,-18.484631
42,0.236778,-0.45331,4.713535,0.904983,-26.032906,-50.51136,-73.568516,-91.508617,-60.75531,-91.879406,-108.613358,-121.479836,-55.298653,-89.357815,-108.933334,-124.383602,-47.316227,-78.48959,-96.724319,-110.448933,-38.014069,-62.974777,-77.072983,-88.742695,-19.81688,-22.127025,-12.557873,-4.018099,8.183226,21.730711,28.323864,32.770944,26.095539,39.385524,46.316391,51.506574,39.111785,52.575659,58.934902,63.309054,47.286922,59.723455,64.812183,67.857466,25.913601,43.508091,52.521,47.083054,12.290611,16.327515,26.815338,31.667976,-2.591057,30.854015,39.403954,33.887215,-10.281887,25.681915,28.343067,19.867744,-13.092728,18.280678,22.650547,16.223145,-15.946982,-33.563325,-40.563938,-37.961652,-50.912072,-67.409714,-62.510127,-54.53111,-40.687779,-31.130606,-19.045247,-16.764094,-25.803212,-14.586806,-10.399202,-12.183233,-9.609939,-2.833232,-1.747351,-3.393278,36.275253,287.453478,-121.14378,-17.371996
43,0.551605,-0.4685,11.156502,1.460922,-25.849571,-50.209465,-73.566513,-91.861668,-59.944324,-91.68354,-108.722363,-121.742821,-54.576359,-89.259968,-108.770313,-124.204731,-46.769085,-78.452225,-96.762085,-110.417004,-37.837029,-62.808266,-76.869564,-88.384552,-20.039182,-22.170189,-12.68866,-4.49296,8.458818,21.499579,28.109961,32.519311,26.642771,39.755656,46.745988,51.995144,39.643147,53.040084,59.269466,63.568838,47.552078,60.327127,65.311867,68.17122,20.750713,36.161041,41.237755,34.296684,6.330814,12.759132,22.536278,26.372795,-7.117195,8.77224,19.568081,21.219749,-15.629597,4.083881,13.274345,13.620644,-20.167408,-4.582901,3.61845,5.282249,-8.493831,-21.836582,-30.548176,-30.256282,-43.247642,-56.920665,-45.129486,-36.173144,-34.18086,-29.232151,-16.102408,-10.527118,-20.344476,-9.835204,-3.906115,-2.489684,-4.891435,4.198843,7.344162,9.132577,34.816074,286.94288,-111.998062,-15.953173
44,1.351433,0.552419,1.644287,7.826278,-25.842934,-50.000381,-73.289452,-91.895485,-59.703941,-91.288433,-108.450794,-121.658192,-54.517021,-89.129677,-108.836861,-124.41473,-46.921978,-78.646545,-97.044239,-110.460606,-38.233452,-63.349228,-77.465343,-88.914356,-19.681091,-22.181242,-13.533035,-6.145957,7.912019,21.014591,27.541795,31.854259,26.053919,39.1589,46.078837,51.130885,39.162235,52.169712,58.207359,62.270721,47.315883,59.873693,64.53517,66.892122,19.016647,34.727325,41.476593,35.589809,5.171928,8.796673,17.543793,22.407932,-8.353214,1.407623,14.367714,20.437031,-17.134266,-3.730946,9.13044,14.927731,-21.438732,-11.869469,-1.689835,4.048119,-8.698472,-20.725229,-27.019232,-25.686226,-41.777581,-52.864651,-41.344741,-32.600482,-32.741427,-28.681059,-16.589186,-10.737162,-19.292527,-10.358879,-2.527475,0.758882,-4.555081,4.611089,9.65301,11.942128,34.292994,287.267208,-112.228289,-8.354985
45,1.59153,0.190068,-0.274315,9.99662,-25.690155,-49.904881,-73.181992,-91.223888,-59.919319,-91.797123,-108.895111,-121.87706,-54.749393,-89.593334,-109.332047,-124.934807,-47.092266,-78.914852,-97.418404,-110.977764,-38.281746,-63.41383,-77.527771,-88.968487,-19.745065,-22.521857,-13.783124,-5.461515,8.160934,20.746718,27.164994,31.4338,26.103999,38.50626,45.339808,50.438107,39.072326,51.502499,57.689026,61.876383,47.143105,59.117189,63.833933,66.377803,20.952644,36.907482,43.362522,33.995819,5.297928,11.043377,20.838032,24.439259,-9.416142,7.676125,18.903122,21.062565,-18.534737,3.328686,13.640728,14.521465,-23.225441,-6.102505,2.15086,3.462181,-9.479028,-22.760461,-29.061257,-26.831913,-45.233751,-53.355968,-41.36623,-33.904342,-36.065513,-23.345237,-12.294106,-10.09647,-21.4541,-5.351198,-0.821373,-2.376434,-5.322052,8.552926,10.768932,9.043193,34.723463,285.936332,-113.663664,0.120691
46,1.562576,0.318817,0.42841,12.763038,-25.878181,-50.060749,-73.552551,-92.225418,-59.783993,-92.127056,-109.370441,-122.506599,-54.515877,-90.062599,-109.950542,-125.602455,-46.931419,-79.417763,-98.225269,-111.997089,-38.369865,-63.815746,-78.205433,-89.702682,-19.562654,-22.073858,-13.049776,-5.037166,8.077386,20.701702,27.133069,31.417992,26.126538,38.262531,44.793317,49.544764,39.086035,51.388199,57.303271,61.252642,46.992125,58.996591,63.581991,66.027554,22.016373,37.613926,44.875889,33.569641,5.247517,13.937416,21.523247,21.914692,-10.692501,18.985519,24.530239,17.369099,-19.018307,15.632973,17.59758,7.764816,-22.514534,4.967766,7.403469,-0.618782,-15.228022,-32.240909,-40.845026,-36.285407,-53.161671,-59.517949,-51.717205,-47.246444,-43.143747,-21.380771,-13.425836,-17.830555,-26.907588,-4.384434,-5.021451,-13.443343,-9.581009,7.953144,6.596889,0.114609,36.287727,284.904159,-113.233566,11.532739
47,0.731964,-0.50623,-1.380615,4.733972,-25.653648,-50.019379,-73.47044,-92.110176,-59.493313,-91.771431,-109.073982,-122.144222,-54.357891,-89.874229,-109.867287,-125.542145,-46.822357,-79.291191,-98.136292,-112.02055,-38.204269,-63.474712,-77.971802,-89.697475,-19.523813,-21.904044,-12.762143,-4.581325,8.574847,21.187987,27.459605,31.387426,26.721009,38.79587,45.068476,49.564771,39.599057,51.780561,57.6839,61.572694,47.367877,59.322139,63.85184,66.192181,21.611137,37.631721,46.076546,36.434441,6.515751,14.06456,20.067101,21.340141,-9.83139,23.282604,28.015995,19.704037,-17.841854,18.258476,18.842869,7.961597,-20.547581,8.936749,11.172009,2.737484,-17.941397,-35.398794,-43.949188,-38.619356,-54.864469,-61.158503,-55.2702,-50.537834,-45.384731,-24.432137,-17.813357,-23.717654,-29.005651,-7.520397,-9.020161,-18.524784,-11.270438,6.11363,3.213028,-5.561057,36.8888,283.831076,-114.745073,15.699857
48,1.086044,0.08077,-3.264828,0.807201,-25.597916,-49.958267,-73.58614,-92.19738,-59.460869,-91.830769,-109.061966,-122.120991,-54.294434,-90.079193,-110.226688,-126.091175,-46.721878,-79.626503,-98.559494,-112.698441,-38.026657,-63.61948,-78.240509,-90.288334,-19.322136,-21.849148,-12.631788,-4.066512,8.769855,21.337484,27.380071,31.155306,26.763617,38.644025,44.78992,49.278064,39.562563,51.699236,57.520632,61.488961,47.347993,59.287003,63.952987,66.662287,20.578423,38.222008,48.734779,39.890385,8.60527,16.201515,23.076267,25.960293,-6.723804,26.16457,30.146484,21.687813,-14.41761,20.974159,21.189137,10.386715,-16.701393,11.699467,13.393822,5.009308,-19.058925,-36.545962,-43.623115,-35.702081,-55.453815,-61.755537,-56.243078,-51.389156,-45.022843,-24.995548,-17.880171,-23.714443,-27.84323,-6.909254,-7.927364,-17.623876,-9.833506,7.224397,4.374924,-4.814124,38.034868,283.445074,-117.949877,16.040287
49,0.891609,-0.040014,-0.818253,-2.087812,-25.3862,-50.452194,-74.560776,-92.802887,-59.652443,-91.381474,-108.605461,-121.690807,-54.627342,-89.874344,-110.13588,-126.191769,-47.295227,-79.6245,-98.444138,-112.653351,-38.843536,-64.128628,-78.613358,-90.662212,-18.9935,-21.693167,-12.77863,-3.990435,8.529523,21.305127,27.448923,31.436641,26.376503,38.673419,45.087928,49.883527,39.280919,52.12976,58.220264,62.34476,47.4957,59.728148,64.297431,66.946586,20.788364,38.912029,50.739384,42.587757,8.263893,18.274155,24.865036,26.893158,-7.069302,25.685349,31.578312,25.320911,-14.707432,20.140457,22.284851,13.210888,-16.749401,11.000919,13.78418,6.283951,-19.69162,-36.470534,-42.253244,-32.648863,-55.400216,-58.913567,-52.328534,-48.617828,-43.677981,-23.92458,-16.620587,-21.920686,-25.389083,-5.479515,-6.475241,-15.447545,-6.584724,8.790233,5.398622,-4.061078,39.00547,283.212769,-118.689137,13.760184
50,-0.286446,-0.82196,-2.581043,-0.55634,-25.57148,-50.383072,-73.674202,-91.796322,-60.272827,-91.542091,-108.479519,-121.376495,-54.97427,-89.704857,-109.734821,-125.668945,-47.398338,-79.403458,-98.014755,-112.109699,-38.429718,-63.566208,-77.974148,-90.136356,-18.318939,-20.628281,-11.584254,-3.624193,9.549639,22.465047,28.569816,32.418905,26.9895,39.511742,46.084703,51.122178,39.664636,52.404549,58.592125,62.877234,47.916282,59.89086,64.894805,68.005729,21.165733,40.714645,53.429775,45.058193,11.124973,20.435257,27.454433,30.304356,-4.739742,28.536301,33.187866,25.70303,-12.834435,21.847801,23.394356,13.783264,-15.238724,12.097435,14.677048,7.201138,-19.458018,-35.766796,-41.635648,-32.120187,-55.401142,-57.816478,-52.117008,-48.718852,-44.50979,-23.848349,-17.07686,-23.022344,-26.537579,-5.539228,-6.916942,-16.694533,-8.019897,8.996572,5.367099,-4.769447,38.780737,282.148161,-121.208467,12.961195
51,-0.088234,-0.49036,-0.663128,0.912331,-25.647354,-50.875397,-73.87413,-92.189198,-60.570488,-91.545811,-108.524551,-121.620255,-55.084763,-89.402161,-109.343662,-125.360241,-47.333794,-78.885441,-97.517452,-111.694508,-38.185387,-62.893353,-77.159672,-89.344711,-17.931826,-19.573707,-10.175295,-2.675707,10.030922,23.281387,29.803651,34.145446,27.405203,40.341915,47.266544,52.607893,40.009142,53.206625,59.721787,64.231235,48.082699,60.179729,65.35361,68.685354,21.317768,40.800304,53.605213,45.248852,10.414295,17.638721,25.375271,30.209541,-5.305939,29.811573,33.908157,25.851345,-13.241043,21.899986,22.202568,11.865063,-15.812531,11.440315,13.281269,5.282078,-19.847478,-36.125689,-42.349976,-35.576821,-55.979435,-60.074907,-55.203973,-50.86471,-45.110683,-24.452978,-16.274475,-21.525792,-27.187379,-7.564858,-8.007423,-17.313395,-8.680533,7.013581,4.364118,-5.575105,38.921213,281.722562,-121.642885,13.938288
52,0.254173,0.56903,0.15192,-1.803915,-26.003494,-51.26627,-74.334526,-92.656174,-60.939217,-92.244072,-109.241924,-122.189083,-55.205154,-89.889736,-109.717083,-125.55582,-47.267189,-79.066086,-97.555618,-111.584301,-38.178177,-63.548126,-77.796936,-89.767399,-18.471215,-20.037021,-10.413157,-2.999588,9.616886,22.878898,29.560972,33.894616,27.430521,40.068731,47.07765,52.405166,40.314374,53.212306,59.624098,64.02715,48.427946,60.414257,65.392822,68.527767,21.46946,39.94812,51.843624,43.761406,9.474449,15.666389,23.914032,29.266434,-6.525135,28.584652,33.050308,25.51815,-14.656105,20.458946,20.699387,10.321884,-17.339172,10.295506,12.367744,4.677715,-19.089615,-34.678846,-40.544147,-35.189306,-53.762286,-58.500457,-53.352387,-47.91761,-43.111699,-22.040142,-14.754736,-19.79533,-25.288831,-5.481306,-7.191885,-16.461332,-7.02309,10.107462,6.436678,-3.855171,39.495621,282.266675,-121.170731,12.109456
53,-0.645332,0.116153,-2.040596,2.508703,-26.190834,-51.017876,-74.048996,-92.19738,-60.777912,-92.297401,-109.143333,-121.832428,-54.913445,-89.668121,-109.172802,-124.526825,-46.833916,-78.608723,-96.967735,-110.713921,-37.748222,-63.220882,-77.506256,-89.346428,-18.601015,-20.379674,-10.98404,-3.077394,9.975223,23.075017,29.782038,34.130935,28.077974,40.859198,47.819149,53.072997,41.009992,54.035563,60.154658,64.30021,48.966533,60.998477,65.65557,68.289966,21.197605,39.778061,52.316666,45.568657,10.770836,16.902351,25.298939,30.980072,-4.982071,28.550377,33.891449,27.176857,-13.296947,20.55685,21.847515,12.03907,-16.507244,10.83601,13.458996,5.60154,-18.905383,-34.5354,-40.840673,-37.184246,-55.918178,-60.101305,-54.865334,-49.686759,-45.796637,-25.646768,-17.561755,-22.108562,-28.100544,-8.614738,-9.056377,-17.945133,-9.728222,6.837469,4.05657,-5.643401,39.239216,282.44004,-122.822399,14.675371
54,1.140862,-0.19192,-2.530746,0.288868,-26.718063,-51.929283,-75.120735,-93.306713,-60.490322,-91.820412,-109.052467,-122.341347,-54.834938,-89.334068,-109.256859,-125.297413,-47.056274,-78.627377,-97.304134,-111.418076,-38.28804,-63.210526,-77.541676,-89.5047,-17.976039,-19.67504,-10.235995,-2.394496,10.05908,23.537466,30.161309,34.225845,28.066242,40.965038,47.876391,53.071577,40.973436,53.906566,60.433584,64.887395,48.91917,60.948706,65.832485,68.751921,21.338139,40.593109,53.921871,46.766911,12.261372,19.354076,28.125229,33.70285,-3.211269,30.512981,34.81041,27.638569,-11.504116,22.898884,23.235455,13.094959,-14.800072,12.885532,14.718876,6.653481,-18.692652,-34.423354,-40.725601,-37.223797,-55.654195,-60.24645,-54.087186,-48.217809,-45.507429,-24.352263,-15.896254,-20.975596,-28.097642,-7.345366,-7.591472,-17.004736,-10.00332,7.361575,4.933858,-4.925398,40.708952,282.346364,-125.024271,15.062485
55,0.773277,0.249225,-0.843315,-0.650571,-26.390533,-51.822166,-75.068436,-93.649235,-60.628281,-91.868763,-109.136295,-122.499905,-54.902744,-89.516945,-109.759541,-126.071377,-46.921234,-78.432426,-97.219563,-111.572227,-37.850304,-62.985077,-77.663898,-90.037193,-18.397979,-20.142737,-10.332017,-2.871826,9.786267,23.279103,29.819583,33.913326,27.833072,40.478692,47.306744,52.583378,40.733783,53.788746,60.269637,64.693498,48.551694,60.685032,65.450373,68.290398,22.327881,41.807728,54.308338,46.446648,12.014694,20.247688,28.015938,32.207909,-3.618336,29.928646,34.908543,28.63884,-11.813278,22.595387,23.607788,14.598598,-14.781303,12.325859,14.649696,7.830906,-19.014341,-35.717581,-42.408608,-37.646972,-55.279802,-60.292176,-53.692755,-47.56801,-44.374988,-24.384929,-15.501607,-19.319604,-26.748766,-7.062642,-6.697697,-14.199847,-8.324542,7.554113,5.3382,-3.222383,41.826925,282.627251,-125.52289,14.443576
56,0.047035,0.245705,-0.838966,1.131731,-25.634193,-50.955963,-74.424248,-93.294811,-60.073872,-91.910019,-109.355564,-122.86829,-54.83242,-89.667549,-109.882164,-126.092205,-47.265472,-78.887329,-97.846127,-112.332859,-38.35968,-63.31152,-77.934437,-90.345898,-18.131588,-20.010283,-10.478057,-3.357555,9.69784,22.901437,29.545967,33.894554,27.606139,40.079846,46.691401,51.928824,40.504565,53.206748,59.863628,64.59019,48.399602,60.506388,65.696757,69.192078,22.095108,41.958733,55.579548,48.394489,11.801033,21.709156,29.419155,33.550415,-3.848591,32.689762,35.519257,26.936703,-11.674919,25.000648,24.041691,13.423519,-14.004478,14.585609,15.35614,6.698227,-20.444141,-37.304813,-44.261985,-40.004881,-57.289871,-61.663498,-55.646013,-49.960498,-46.471075,-25.565134,-16.450032,-21.063807,-28.638791,-8.307221,-7.207385,-15.340377,-10.105146,6.138794,4.547794,-4.203752,42.375898,282.784684,-125.859919,15.487034
57,0.35717,0.545565,-1.098747,-0.73236,-25.765114,-50.823784,-74.529991,-93.327999,-60.071869,-92.093582,-109.64756,-123.188667,-54.662018,-89.761848,-110.074711,-126.303406,-47.005234,-78.896141,-97.915077,-112.349682,-38.09269,-63.170815,-77.862968,-90.341034,-18.454666,-20.635629,-11.351393,-3.647041,9.383099,22.294183,28.657255,32.943104,27.332894,39.533602,46.052408,51.274455,40.328391,52.989264,59.420692,64.060433,48.430539,60.566039,65.799695,69.375847,22.114105,41.854706,56.054134,50.746536,12.549534,23.343487,30.645103,33.895569,-2.583218,33.691521,35.868759,27.03764,-10.242519,26.152096,24.698868,14.088135,-12.705803,15.252514,15.638237,7.055397,-19.486145,-36.13841,-43.588566,-40.132272,-56.500546,-61.654143,-54.934155,-48.831361,-46.021162,-26.532917,-16.579893,-20.94435,-28.696466,-9.363431,-7.095246,-14.700118,-10.32189,5.04822,4.462918,-3.419151,43.255949,283.411713,-126.435785,14.836139
58,-0.003891,0.648873,-1.219769,-1.416184,-25.67791,-50.49408,-74.194221,-93.346996,-59.990616,-91.837463,-109.378796,-123.008652,-54.66608,-89.687862,-109.838505,-126.019821,-47.240639,-79.170113,-98.085766,-112.45451,-38.559723,-63.841667,-78.651295,-91.200027,-18.721552,-21.061707,-12.125249,-4.700935,9.566744,21.815803,27.720254,31.561562,27.612191,39.024161,44.943308,49.687284,40.575146,52.518849,58.361364,62.619858,48.632278,60.417962,65.358118,68.588776,23.1744,43.317375,57.975826,53.057556,14.422188,26.601448,33.73415,36.116867,-0.47699,34.674568,36.559753,27.663517,-8.405628,26.952381,25.938034,15.603962,-11.417713,15.918331,16.716785,8.465939,-18.16339,-34.386087,-42.444979,-41.305098,-56.167804,-60.818907,-53.291223,-47.091389,-46.006126,-26.760159,-16.459912,-21.106013,-28.997746,-10.340106,-7.274909,-14.60919,-10.758311,4.212675,4.405707,-3.056892,43.966141,284.118493,-126.941471,13.477861
59,0.586052,0.173025,0.917645,-2.572677,-26.011505,-50.636673,-74.344025,-93.550587,-59.410229,-91.599255,-109.388409,-123.417778,-53.918266,-89.182148,-109.607048,-126.017761,-46.446877,-78.519287,-97.565002,-112.035828,-37.945404,-63.105755,-77.822456,-90.232716,-18.824304,-21.202066,-12.307536,-4.514943,9.337095,22.191431,27.961883,31.537417,27.411502,39.200952,44.945902,49.300109,40.398972,52.857241,58.876301,63.093422,48.417757,60.723997,65.944932,69.303105,22.729111,42.272816,55.974998,50.97084,14.270554,23.664036,32.679005,37.284508,-0.401402,35.639248,37.35878,27.944183,-8.033237,27.366772,25.811005,14.906273,-10.860329,16.46616,16.772118,8.210621,-18.873025,-34.381333,-39.783907,-34.793609,-54.064431,-60.772316,-54.491311,-46.751546,-43.633459,-23.687643,-13.367204,-16.858974,-26.689825,-9.00321,-6.160777,-12.406121,-8.591273,4.82598,4.944448,-2.077716,45.342379,284.347849,-125.233641,10.961516
60,0.656776,-0.243111,0.647793,-2.437196,-25.750237,-50.478973,-74.116516,-93.235073,-59.10862,-91.484013,-109.135723,-123.113365,-53.491402,-88.962879,-109.514923,-126.037846,-45.883026,-78.18655,-97.541428,-112.259789,-37.108269,-62.489319,-77.373734,-90.011272,-18.507216,-20.537261,-11.513488,-3.674211,9.741992,22.655856,28.290025,31.774477,27.516107,38.994397,44.557121,48.837845,40.43065,52.690021,58.756814,62.991225,48.454252,60.937653,66.373789,70.003231,22.969894,42.575684,55.68821,49.727669,14.858494,26.350079,33.783588,35.999393,-0.091038,34.238033,37.370224,29.420815,-8.123245,27.243404,27.766914,18.314781,-11.037254,16.627522,18.095112,10.443077,-16.94774,-32.113858,-37.252912,-31.015843,-51.948584,-58.399279,-51.559772,-45.603729,-41.974256,-23.496464,-13.159599,-16.250084,-25.741647,-7.293681,-4.649003,-10.32859,-8.094275,5.073476,5.019567,-0.818965,46.620169,284.400878,-123.964834,8.82046
61,-0.246277,0.820231,0.290623,1.070227,-25.182266,-49.90963,-73.69978,-93.63905,-58.9678,-92.139587,-109.628906,-123.081665,-53.265896,-89.527702,-109.731388,-125.705166,-45.581245,-78.378239,-97.69249,-112.230835,-36.89106,-62.789726,-77.673626,-90.109291,-19.416738,-20.94012,-11.144961,-3.467347,8.922996,22.118998,28.056423,31.884455,26.953376,39.043674,44.742126,49.158577,39.929545,52.770667,58.697657,62.876431,47.926039,60.748079,66.277273,70.126053,23.129025,42.253475,55.043964,50.251064,14.445248,24.29266,31.481438,34.621181,-0.417423,35.118828,40.641575,34.695568,-7.499142,29.314556,31.410427,23.406601,-9.257584,20.806446,24.02504,17.627907,-18.03958,-34.005859,-38.314741,-30.329209,-51.758856,-59.406984,-56.954937,-53.308297,-41.911116,-24.55289,-14.443915,-15.500403,-25.372472,-7.893277,-5.68675,-10.834357,-7.059678,4.83762,4.431549,-0.803929,46.703911,285.411439,-123.344193,10.081017
62,0.763092,0.661223,1.534538,4.011029,-24.932327,-49.833527,-73.859425,-93.67281,-59.664459,-92.964191,-110.709972,-124.338856,-54.149265,-90.287819,-110.618477,-126.61869,-46.41861,-79.219666,-98.587475,-113.145504,-37.513046,-63.009624,-77.763348,-90.148029,-19.315344,-21.435853,-12.646731,-4.957076,9.013769,21.914418,27.684377,31.21508,26.996292,38.97544,44.505251,48.596463,39.992346,52.78876,58.922614,63.019568,48.052195,60.893996,66.575404,70.432149,23.7006,41.904144,54.547462,51.506538,13.542309,23.259945,29.045849,31.041355,-1.574593,35.354919,42.649899,37.547264,-8.260288,29.925556,32.491493,24.403324,-9.394855,21.563816,24.572926,17.586422,-16.841313,-32.525764,-36.759619,-31.150736,-51.885104,-61.032008,-61.119817,-59.55784,-42.260376,-28.497753,-18.190405,-17.676611,-25.72445,-10.28342,-8.003687,-12.610947,-7.424499,2.636681,2.478569,-2.023962,48.040352,286.828163,-121.236305,14.847547
63,0.671997,0.004137,4.104939,5.317112,-25.225639,-50.04879,-74.146957,-93.983974,-59.613647,-93.240509,-110.967636,-124.417992,-54.2799,-90.462914,-110.690746,-126.354218,-46.701279,-79.447403,-98.751354,-113.136234,-37.953987,-62.983074,-77.45779,-89.584408,-19.101193,-21.353786,-12.731144,-5.011972,8.964801,22.07781,27.666963,31.044155,26.910644,39.117033,44.453195,48.179153,39.836241,52.704532,58.981277,63.093669,47.74758,60.647364,66.506429,70.37324,21.992168,37.356148,48.565121,50.236588,10.957603,16.683426,22.375088,26.232548,-3.60775,30.960846,45.587082,48.331547,-9.300613,24.924545,33.412685,31.896515,-10.024166,17.646961,24.915504,23.541641,-15.933891,-30.648767,-34.17663,-31.526395,-50.479572,-61.130901,-64.489907,-64.495465,-41.548116,-30.137937,-19.082174,-13.281001,-24.990855,-12.48371,-8.638234,-8.982493,-7.092189,0.312982,0.705468,-1.655559,49.394588,287.692622,-116.449127,21.024981
64,1.988297,-0.408788,5.121059,0.057675,-25.601807,-50.749397,-75.030384,-94.964676,-59.798241,-93.382988,-111.312504,-125.209351,-54.61647,-90.665932,-111.111488,-127.273865,-47.235832,-79.94791,-99.583168,-114.304962,-38.806229,-64.001541,-78.645573,-91.022129,-18.994921,-20.913568,-12.052631,-4.359703,9.064096,22.043909,27.726367,31.095902,26.980299,39.066892,44.372302,47.949936,39.938129,52.723675,58.894764,62.835799,47.829584,60.655268,66.534957,70.419552,17.643814,30.907116,41.279526,48.064957,14.821129,19.413013,23.049316,26.703472,1.241341,23.173313,37.504635,47.625389,-6.48262,15.157814,27.104073,34.80051,-10.321941,5.92947,16.706028,23.143387,-9.358769,-18.894051,-23.504214,-22.536677,-39.541753,-56.766629,-56.590393,-52.828188,-33.26964,-22.714333,-8.724253,0.822145,-20.284053,-6.966187,1.968356,7.667333,-6.07059,5.152362,10.653459,13.730976,51.912088,287.360065,-110.798864,21.158887
65,0.934753,-0.473132,-4.606104,24.531385,-25.663719,-51.042595,-75.197525,-95.004787,-59.768085,-93.064785,-110.970783,-124.908714,-54.81205,-90.723724,-111.269245,-127.762413,-47.677689,-80.154934,-99.689026,-114.539909,-39.283905,-64.045486,-78.633671,-91.327057,-19.379996,-21.473768,-12.153407,-4.380265,9.205751,22.065028,27.723465,30.829634,27.237427,38.854841,43.855081,47.047762,40.196986,52.446107,58.339998,61.91825,48.105362,60.732827,66.685073,70.642286,17.763777,34.343004,47.10145,55.198174,20.834484,33.586722,42.204895,48.14272,12.773609,36.441536,53.484764,64.494124,8.692589,32.534151,48.55299,58.763008,7.838688,27.723513,40.785141,49.608164,-17.845545,-30.792908,-36.163496,-34.812119,-40.62379,-51.333627,-48.236087,-43.20383,-29.798402,-24.685931,-13.845909,-5.183839,-13.997027,-6.012514,2.37188,8.45039,2.868523,8.36008,12.931015,15.801452,55.231447,286.887875,-113.020363,45.691214
66,1.009254,0.153573,-4.606104,24.531386,-25.00946,-50.427933,-75.018883,-95.087299,-59.729061,-93.093624,-111.071548,-125.083065,-55.100441,-91.272869,-111.95652,-128.578892,-48.183861,-80.85062,-100.40451,-115.210705,-39.894562,-64.797707,-79.432526,-92.165165,-19.24501,-21.8171,-13.825732,-6.647123,8.809437,21.017061,26.723232,30.156987,26.970974,37.941367,42.884056,46.075502,40.097568,51.718255,57.321734,60.764134,48.139201,60.485578,66.344519,70.334893,17.883739,37.778893,52.923374,62.33139,26.847839,47.760429,61.360474,69.581966,24.305878,49.709759,69.464893,81.362858,23.867798,49.910488,70.001907,82.725506,25.999317,49.517555,64.864254,76.072941,-26.332321,-42.691765,-48.822778,-47.087561,-41.705827,-45.900625,-39.881781,-33.579473,-26.327165,-26.657529,-18.967565,-11.189823,-7.710002,-5.058841,2.775403,9.233446,11.807636,11.567797,15.208571,17.871928,58.20365,286.838954,-115.663519,70.020104
67,0.862198,-0.618307,-1.854,29.100746,-24.98291,-50.238991,-75.026894,-94.95306,-59.158745,-93.314209,-111.454639,-125.482349,-54.663162,-91.551189,-112.148209,-128.317223,-47.882767,-81.406574,-101.022091,-115.678997,-39.85508,-65.587807,-80.345535,-92.751102,-19.432546,-21.925101,-13.7625,-5.83282,8.063122,20.030413,26.1358,30.389107,26.422384,37.367212,42.444393,45.985594,39.771217,51.485765,57.104064,60.820327,47.992976,60.281493,65.55152,69.204736,21.681061,45.769558,65.256501,76.768685,33.312006,60.360174,73.214093,79.18705,29.129076,60.444746,77.582131,85.181294,26.83754,57.795096,75.905142,85.176916,27.436695,52.876311,67.812996,77.325583,-24.414322,-37.302204,-40.183185,-36.554469,-36.220152,-35.689191,-27.957453,-22.214695,-19.49567,-14.860576,-6.693035,-0.861063,-0.417788,5.980682,13.051582,17.514933,18.733238,21.285382,24.465328,25.683139,59.448824,284.760296,-117.134543,97.6605
68,0.412216,-0.794357,-1.854,29.100746,-25.196457,-50.200539,-74.726715,-95.030594,-59.150505,-93.076572,-111.233654,-125.346508,-54.69738,-91.494427,-112.389793,-129.064236,-47.980957,-81.372414,-101.158104,-116.220474,-39.845467,-65.141945,-79.948654,-92.658691,-19.172577,-21.763809,-13.932684,-7.332429,7.893679,19.67998,25.534104,29.349724,26.234786,37.049506,42.032394,45.452502,39.496243,51.154844,56.707256,60.3798,47.666193,59.999417,65.266295,68.936616,25.478382,53.760223,77.589626,91.205978,39.776173,72.959919,85.067711,88.792133,33.952274,71.179733,85.699368,88.999729,29.807281,65.679703,81.808376,87.628326,28.874073,56.235065,70.761738,78.578224,-22.496323,-31.912644,-31.543592,-26.021377,-30.734477,-25.477757,-16.033124,-10.849918,-12.664176,-3.063623,5.581496,9.467697,6.874426,17.020204,23.327762,25.79642,25.65884,31.002968,33.722085,33.49435,60.19701,282.384047,-118.652573,125.179355
69,1.246033,-0.220078,2.840681,29.691729,-25.597801,-50.621796,-74.893112,-94.74226,-59.267693,-93.232841,-111.692619,-126.052322,-54.781265,-91.380215,-112.526207,-129.314518,-48.060379,-81.373558,-101.25824,-116.411133,-39.967117,-65.404987,-80.334091,-93.237019,-19.254396,-22.130298,-14.360058,-7.352992,7.775612,19.605571,25.116424,28.546968,25.942336,36.466829,41.292686,44.597321,39.133397,50.486087,55.957729,59.456878,47.413016,59.419519,64.593648,68.046978,26.939163,56.070271,79.886542,93.647518,44.480639,79.443541,90.408068,92.352906,39.440489,77.368698,89.888277,92.089377,35.997277,71.815911,84.814139,88.35145,33.898173,61.827479,74.410486,80.352717,-1.058356,-0.587972,0.056347,1.368821,-1.822286,7.78878,14.378521,16.957033,2.169153,14.619688,21.347179,24.083525,6.834103,18.422556,24.195725,26.651014,11.416385,17.342726,20.201215,20.347378,61.665258,281.453685,-115.589676,154.160799
70,0.392189,0.53729,2.840681,29.691728,-25.158348,-49.957581,-74.409885,-94.410667,-59.132996,-93.037491,-111.302204,-125.336323,-54.696922,-91.567841,-112.437572,-128.997231,-48.264656,-81.494007,-101.135387,-116.118221,-40.50087,-65.846272,-80.594387,-93.396378,-19.252235,-22.702539,-15.139904,-8.07399,7.732942,19.206539,24.324908,27.530248,25.702559,35.695999,40.063667,43.46136,38.643778,49.661966,54.866538,58.516358,46.713384,58.519198,63.722844,67.574217,28.399944,58.380318,82.183456,96.089058,49.185104,85.927162,95.748425,95.913677,44.928703,83.557663,94.077187,95.179024,42.187271,77.952118,87.819901,89.074574,38.922272,67.419891,78.059235,82.127209,20.379612,30.7367,31.656287,28.759019,27.089906,41.055317,44.790167,44.763985,17.002482,32.302999,37.112862,38.699354,6.79378,19.824908,25.063689,27.50561,-2.826069,3.682486,6.680345,7.200407,62.369986,281.089419,-112.436457,182.950971
71,-0.820999,-0.404465,-4.650879,16.648096,-25.272789,-47.962303,-69.430904,-84.23893,-59.569931,-92.372417,-110.037918,-124.102192,-55.702972,-91.337414,-112.124634,-128.566017,-49.192886,-81.064682,-100.776958,-115.905304,-41.298866,-65.61121,-80.242882,-92.813129,-18.789107,-23.824729,-22.965534,-23.076685,6.9137,17.431215,22.797943,26.531065,23.809353,35.173776,39.838525,43.286236,36.774099,49.475912,54.554451,57.572503,45.53815,58.38662,63.430888,66.393919,38.141899,66.413784,86.405525,104.999714,65.775776,86.462574,101.135273,114.556046,53.627758,76.551361,95.063782,112.162971,40.541267,60.285358,77.023087,91.566181,26.51207,40.505161,52.234726,63.003502,-9.012967,-5.076625,-1.89018,-3.545709,9.707659,26.840866,38.913998,50.045498,16.342864,35.518466,47.44278,58.960775,21.877553,40.213659,52.189349,61.860081,25.34311,38.707443,47.087777,53.849941,61.843042,280.131979,-116.79328,199.046093
72,0.199814,-2.948829,8.110542,36.667456,-24.782181,-47.100449,-63.824959,-72.059784,-61.079922,-90.145111,-108.470535,-121.337929,-58.041229,-90.317287,-111.590595,-128.450089,-51.948967,-81.542873,-100.197659,-116.011162,-43.213348,-65.670376,-79.955921,-93.166466,-16.3801,-17.9669,-9.732976,-2.22283,13.433802,23.262492,25.312605,25.842609,27.559271,40.182784,44.339822,47.064435,37.905614,50.916426,56.366826,60.371217,45.16172,57.219537,63.249094,68.301945,31.201859,58.811474,79.815159,94.625072,74.019413,104.077148,99.140854,88.162537,69.683762,99.136505,89.097691,72.540035,62.440681,88.666077,79.717312,65.409794,53.224182,75.149059,72.398415,62.275715,-12.759735,-9.231007,-2.675398,1.918771,26.470302,60.546526,73.683123,77.733889,41.19901,75.505934,88.505445,90.237915,52.26561,82.340346,93.760838,94.457197,60.248951,83.945177,92.675574,93.169948,61.923151,276.980686,-108.802443,235.511085
73,-0.53936,0.072371,-12.339592,8.750466,-26.125832,-53.376732,-73.197327,-91.041641,-63.29298,-87.702827,-104.651241,-118.038597,-61.098289,-86.293259,-106.820526,-123.750229,-55.334129,-79.803486,-101.015396,-118.982391,-46.231613,-65.325394,-81.565533,-97.436142,-15.001089,-17.799371,-14.45608,-9.417185,16.563745,17.595595,9.031615,-2.285444,30.879035,34.750662,27.648932,17.553666,41.300652,51.357632,49.582123,42.863616,47.407706,62.091336,67.655727,68.70993,37.415257,70.024796,95.688,114.748306,68.689384,100.989532,116.477623,126.295967,56.920795,90.379486,107.53006,116.319981,45.659351,74.714527,91.045418,99.750423,35.753403,56.972752,69.660759,76.541233,-9.666656,-5.180983,1.864245,4.000562,26.563298,52.399979,62.815854,68.673992,44.71866,71.528713,79.767144,80.541371,56.431911,81.301889,88.540334,87.346822,62.003959,82.490955,88.207067,86.886843,61.291237,276.449601,-121.234589,243.658095
74,-3.595848,0.991712,0.55521,14.571986,-26.182709,-53.417587,-76.549644,-100.055809,-54.060059,-79.408722,-97.285137,-112.547836,-51.007805,-76.928215,-97.3312,-114.777145,-46.460266,-70.408974,-89.605122,-105.679607,-40.085449,-60.022316,-74.153137,-86.932755,-15.034188,-17.806966,-15.017885,-14.943661,17.278321,24.025418,21.551079,16.832668,34.19108,43.228252,40.33364,35.06176,45.012222,57.48809,56.043809,51.073581,49.785714,62.494443,63.84338,61.512117,37.853851,69.491844,96.631737,119.24509,68.293247,98.223839,114.275036,125.954647,56.204395,89.850597,109.616432,123.795376,45.51796,74.955425,92.612457,105.885429,36.68541,58.742523,72.479839,83.293133,-9.065454,-6.13867,0.373899,1.931244,27.005246,47.303903,56.650878,62.412994,43.578192,67.09244,76.410701,81.068534,54.228471,77.266253,84.795172,87.659156,59.420507,77.814349,83.181078,85.203589,57.470369,276.736941,-120.904398,257.525709
75,0.869751,-0.526855,5.481319,9.096206,-27.563324,-57.078667,-77.988167,-96.97443,-67.576103,-83.861847,-83.34074,-76.483383,-59.85054,-76.633415,-75.022945,-66.95406,-49.693222,-66.006603,-66.385002,-60.611057,-37.542686,-51.310387,-54.72187,-53.333359,-13.958989,-15.098037,-11.402152,-12.452094,10.530977,26.673399,37.466198,43.413504,23.874809,40.262504,50.666707,55.788718,33.812858,49.525004,57.471849,60.739558,40.891802,53.429914,59.972309,63.918839,35.496941,65.931587,93.096256,115.249958,65.142803,96.749668,113.782482,126.259003,54.194298,90.203991,111.53635,126.949539,44.503212,76.652527,96.136322,110.707169,36.274338,61.065845,76.145382,88.424091,-9.872038,-7.717196,-2.395051,-4.185875,25.679526,44.529951,53.113382,58.743352,42.273468,63.253664,71.639123,76.605462,53.285604,73.416238,80.979984,84.734224,59.68165,77.072789,82.219439,84.875262,58.270855,275.820133,-115.492344,266.231961
76,-0.829353,1.316457,5.803986,7.596227,-27.303658,-52.973557,-70.351982,-83.836842,-64.291477,-80.104065,-80.106125,-74.114971,-57.723484,-73.443146,-69.21833,-58.725643,-48.084526,-62.454643,-58.963337,-50.298271,-36.661263,-47.055702,-49.341888,-48.074112,-14.738774,-17.044966,-12.025954,-8.789801,10.844175,23.204014,30.083133,34.207937,23.399948,37.336213,46.177143,51.727888,32.808797,46.600442,54.022286,58.089107,39.883727,51.636312,58.894208,63.749026,33.547668,62.67128,89.277248,110.865669,61.465931,94.949284,113.191681,126.843109,51.928482,89.852486,112.550926,129.061089,43.500652,77.85244,98.696823,114.12117,36.351643,62.625618,78.41589,91.865215,-11.351146,-10.805643,-6.714431,-9.456643,22.176981,39.84186,48.060346,54.131461,39.5265,59.320225,67.295537,71.886372,51.134837,70.394235,77.539684,80.862659,58.07441,75.258747,80.352044,82.955318,57.175198,276.95262,-109.954662,273.644218
77,-2.054787,3.498964,9.381008,1.792306,-25.047798,-49.982643,-67.108727,-79.701233,-58.892097,-72.396297,-71.695061,-65.76725,-52.882576,-65.998707,-59.790745,-48.616791,-44.277191,-55.953941,-49.69883,-39.624367,-33.939972,-42.69928,-42.559433,-39.088326,-15.527203,-18.302884,-13.796092,-11.768888,7.138718,18.089227,25.519408,31.003462,19.351097,32.765386,42.298662,49.075646,28.911111,41.840103,50.703078,56.789631,35.814868,47.620991,55.34745,60.900726,30.70919,58.647766,83.870888,104.228954,61.095943,95.559139,113.533916,126.484509,51.209393,89.045563,111.005573,125.870647,41.935215,76.197853,96.02932,109.990826,33.858547,60.809727,77.086315,90.516701,-13.704578,-13.080837,-7.895408,-10.166773,24.026159,41.304418,49.974361,56.483164,40.55483,58.031185,65.443828,68.838124,51.090994,68.708634,74.967964,76.793986,57.066767,72.260332,76.884635,78.36751,55.05209,280.378348,-100.641975,275.363288
78,-2.358055,2.181766,4.607391,0.886365,-23.583641,-45.810356,-61.798382,-73.547058,-46.303024,-61.159229,-63.472137,-61.148529,-39.807816,-52.685795,-51.980324,-45.648193,-30.837936,-42.149162,-40.432205,-33.733063,-20.584831,-28.345528,-29.973679,-27.456207,-15.409507,-18.632631,-14.126889,-11.767776,5.245883,12.677854,15.608096,17.286904,16.787776,26.782944,31.953615,35.873099,24.973904,35.323026,41.87246,46.942416,30.05584,39.961347,47.201768,51.798283,28.560219,56.01162,80.278873,100.833378,59.032288,92.901936,110.793629,123.777294,49.350758,87.55085,108.756809,123.027134,40.358448,75.472355,94.576149,107.391186,33.231697,61.01778,77.091293,89.51025,-14.128803,-12.969316,-6.171707,-6.821753,24.34405,43.423569,52.225843,58.486594,41.536662,59.393275,65.342433,68.051671,52.117903,68.852759,72.921309,73.314473,57.716258,71.053853,73.808538,74.017317,52.705078,282.552796,-96.02354,276.242336
79,-14.779129,12.123458,-0.382519,-1.490778,-7.380409,-24.104004,-41.255322,-52.353287,-59.403934,-56.015739,-39.101086,-24.607315,-68.587017,-63.339272,-40.161438,-18.504181,-71.892128,-66.31731,-43.026295,-24.272919,-71.902542,-68.690643,-51.883392,-38.937149,-22.223973,-29.718683,-23.990591,-15.221909,-3.940047,13.362851,19.987806,22.422254,15.160838,29.325456,36.31974,39.466973,30.5977,41.260884,44.922498,46.481326,42.844165,52.944803,51.332129,49.275656,28.74424,56.535645,80.127754,100.27771,59.185638,92.356625,109.77253,123.144379,49.123936,86.5448,106.93222,121.112022,39.925461,74.029999,93.001556,106.061325,32.4757,58.963852,74.908791,87.555485,-13.083492,-11.312428,-4.206994,-4.494812,23.225565,41.755073,49.906806,55.901969,40.657892,58.134123,63.881233,66.713478,51.287607,68.726912,73.347942,74.146437,56.998471,71.375387,74.876635,75.53792,37.849503,294.649316,-96.482506,274.724619
80,-11.099052,3.525022,1.372662,-0.320546,-1.342278,-12.263145,-28.146,-39.756889,-46.455574,-43.383007,-23.914375,-6.759224,-54.745388,-47.556152,-24.279099,-1.295357,-56.774139,-52.209549,-30.287476,-9.768105,-55.773125,-58.875217,-50.49305,-39.267941,-21.960978,-29.872935,-25.238814,-20.318109,-6.868807,11.954077,21.890645,27.285037,11.455381,26.325744,35.556196,40.901929,25.380222,34.601349,42.082659,46.871712,36.395569,44.616772,47.447905,48.436591,28.64439,55.854492,79.446259,99.619503,57.587299,91.006565,108.527584,121.222858,47.95023,86.353855,107.637691,122.209797,38.837986,73.68948,92.625275,105.107632,31.245518,57.681656,73.503857,86.026382,-12.905836,-11.712509,-4.694452,-5.264531,22.01538,40.353524,48.715394,54.444968,39.364159,56.725163,63.470099,66.686987,50.425386,67.663014,72.405878,72.761931,56.929372,71.49049,75.600721,76.444725,26.707191,298.166403,-95.153103,274.396138
81,-24.339867,3.940294,0.534954,0.578787,5.927582,5.926552,1.11454,-1.895714,-23.870945,-12.635193,4.387207,18.344421,-32.234802,-18.897743,2.03968,20.71701,-34.983444,-24.66711,-4.527512,11.591148,-34.40815,-30.652885,-21.835384,-13.220501,-18.131218,-25.519037,-25.339837,-24.74092,-6.300642,7.393006,14.737292,18.518702,9.267502,20.963894,29.038069,32.316769,20.752893,29.342993,35.527173,38.173549,29.904181,37.362519,40.816961,41.000668,28.736286,55.679169,78.744621,98.781853,58.291283,91.259308,108.611984,120.955696,48.347282,86.363869,107.396049,121.528244,38.740482,73.352051,92.309418,104.706345,30.708332,57.137775,72.854805,85.127678,-13.817025,-12.408437,-4.920149,-4.74978,22.077254,40.700746,48.926827,54.16635,39.257639,56.378558,62.692847,65.449632,50.142693,66.731385,71.152962,71.410955,56.312732,70.657724,74.483038,75.058058,2.355652,302.103455,-94.629822,274.971682
82,41.902199,-11.407586,-0.072269,0.319311,-11.974068,-31.676445,-50.345192,-62.489948,-70.907707,-67.835026,-46.689606,-29.163322,-79.848919,-73.410645,-46.268291,-22.208633,-82.172356,-75.625362,-48.280792,-27.123528,-81.244011,-78.145237,-58.277893,-42.863617,-16.319522,-23.110771,-19.031662,-12.111911,-0.694445,19.859982,29.154222,33.052587,16.507861,32.729509,42.131133,46.084579,30.532923,42.631249,47.535158,49.322709,41.276569,52.881756,52.027624,50.127935,28.946285,55.986671,79.062481,99.06641,58.555355,91.238079,108.730145,120.985737,48.128471,85.868168,106.888676,120.760059,38.240719,72.578316,91.603947,103.725986,30.220184,56.829987,72.567501,84.294033,-13.816655,-11.962969,-4.597442,-4.556192,23.062791,41.818985,49.693335,54.515919,40.031248,57.313521,63.149985,65.384053,50.487322,67.238048,71.357726,71.29999,56.109512,70.466544,74.0125,74.291674,44.253874,290.666275,-94.706068,275.2614
83,-3.674355,5.6409,-1.393375,-0.05397,-8.318138,-27.267494,-47.713223,-62.659721,-59.414406,-59.879951,-41.177788,-24.481659,-67.689056,-65.70528,-42.980919,-20.180397,-69.620934,-67.42836,-45.235634,-25.882645,-67.977161,-67.851791,-54.454079,-41.57095,-22.187726,-30.220775,-25.048252,-19.250567,-6.890358,10.632865,20.737703,25.958515,12.025831,26.284433,35.429608,40.048909,26.952017,36.730318,42.77661,45.91279,38.739615,47.455253,49.122267,48.884961,28.87928,56.141052,79.532204,99.426727,58.559818,91.430798,108.78891,121.191788,48.466759,86.003838,106.887589,120.891953,38.843651,72.665749,91.744652,104.084358,30.818424,57.002277,72.667694,84.4911,-13.463319,-11.833602,-4.806899,-4.916753,23.394144,41.40433,49.160861,54.271202,40.138941,56.717753,62.611213,65.14088,50.388892,66.840004,71.333829,71.565146,55.881282,70.256469,74.053688,74.58011,40.581808,296.302251,-96.097155,275.202505
84,-2.399025,0.48647,-0.226994,-0.278433,-5.998192,-20.485268,-38.168678,-53.268585,-47.779942,-51.323376,-37.912331,-24.261703,-53.978291,-56.454163,-39.646397,-21.152916,-55.372524,-57.923756,-39.849358,-23.532143,-54.026299,-59.96933,-54.455624,-47.243671,-20.430618,-23.852764,-16.155513,-10.306576,-3.813891,12.855016,20.93728,25.119759,11.02072,26.208727,33.2894,36.25694,23.544629,33.863617,38.994459,40.660609,33.722764,40.880378,45.439782,47.986369,28.732853,55.703831,79.249363,99.665165,56.963825,90.492039,108.443928,121.359386,46.652641,85.006027,106.309032,120.812473,37.274666,71.981277,91.244602,103.859653,29.845333,56.383839,72.295017,84.563656,-13.150553,-11.689909,-4.367174,-3.862797,23.049576,41.578405,49.279855,54.028091,40.230579,57.501675,63.437001,65.797657,50.804904,67.554889,71.842035,71.770466,56.505764,70.968884,74.774932,75.133826,38.197889,296.788736,-96.309042,274.924088
85,2.690849,-3.319733,1.556625,-0.099665,-9.158077,-26.663646,-44.541149,-57.312927,-59.114856,-60.211086,-44.176225,-28.978614,-66.225671,-65.113878,-43.45705,-21.906681,-67.733058,-66.031579,-43.458538,-24.541168,-66.129512,-67.386159,-54.741611,-43.185396,-18.008026,-22.164971,-16.077924,-10.012861,-0.227921,17.741387,26.021284,29.874231,14.78453,30.404698,38.51438,41.772918,27.234401,38.44099,43.570164,45.192224,37.307993,46.762166,48.729133,49.048012,27.740593,54.897823,78.781757,99.486408,54.538879,88.703213,106.790257,120.189571,44.662571,84.040833,105.409069,120.117588,35.968151,71.823292,91.20409,104.267406,29.167957,56.596127,72.59119,84.994869,-12.89892,-11.104144,-3.916829,-4.020569,23.236804,41.208458,48.798448,53.849694,40.883466,57.732189,63.082183,65.125443,51.933393,68.390804,72.236558,72.244895,57.796965,71.399655,74.559917,74.816614,40.881614,293.469713,-94.759541,274.825133
86,2.69085,-3.319733,-0.081539,0.826221,-12.317963,-32.842026,-50.91362,-61.357269,-70.449772,-69.098797,-50.440121,-33.695526,-78.473053,-73.773594,-47.267704,-22.660446,-80.093594,-74.139404,-47.067719,-25.550194,-78.232727,-74.80299,-55.027599,-39.127121,-15.585433,-20.477178,-16.000335,-9.719144,3.358049,22.627759,31.105288,34.628705,18.548342,34.60067,43.739361,47.288898,30.924174,43.018363,48.14587,49.72384,40.893222,52.643955,52.018485,50.109657,27.337303,54.941311,78.944321,99.292488,54.944115,88.473415,106.514854,120.024033,44.795723,83.620892,104.823761,119.549561,35.960941,70.967445,90.323467,103.615379,29.087734,55.664806,71.517563,83.828602,-13.499937,-11.917644,-4.711803,-4.276587,23.336222,40.67512,48.064977,53.002293,40.935213,57.164332,62.155495,64.100077,51.652552,67.336725,71.059595,71.19063,57.038115,70.099376,73.076179,73.300024,43.529119,290.115569,-94.884424,275.616943
87,-0.1894,5.207165,0.724411,0.561743,-7.386932,-26.342468,-46.393032,-60.094528,-59.295502,-60.981388,-43.748646,-27.462158,-66.165504,-66.508884,-45.193806,-23.336792,-67.345161,-67.347794,-46.615562,-28.051529,-64.913235,-65.493793,-53.688011,-41.916161,-20.726217,-26.872977,-20.420058,-12.418317,-5.458489,11.870158,21.843344,27.646153,12.088569,27.919893,36.827266,41.524929,26.460793,37.804405,43.610117,46.183565,38.322985,47.081108,49.327896,50.02265,27.221489,54.51582,78.411598,98.826027,54.620075,88.142509,106.099777,119.411888,44.6418,83.244095,104.269638,118.749962,35.824928,70.59351,89.905243,103.126831,28.918304,55.367031,71.051159,83.359509,-13.783001,-12.418317,-5.292813,-4.906935,23.071559,40.295293,47.659585,52.57109,40.420708,56.556647,61.514278,63.449289,51.014424,66.94992,70.848656,71.148763,56.386524,69.886338,73.094333,73.632303,43.328876,295.327134,-94.170856,276.183086
88,-0.042858,-2.441858,0.528374,0.869755,-9.541512,-28.905087,-47.492266,-59.073429,-63.188868,-63.841181,-46.446533,-29.846077,-70.341454,-69.342556,-45.983448,-22.701244,-71.780148,-70.001793,-46.672125,-26.616497,-69.644022,-69.10821,-54.086666,-40.417786,-19.149359,-24.132339,-18.148971,-10.933374,-1.564818,15.716437,24.73777,29.505149,15.176584,30.469413,39.090974,43.114014,28.949642,40.21369,45.256691,47.205534,40.328514,50.18987,50.721016,50.113176,27.260742,54.32991,77.988281,98.61248,54.147778,87.612877,105.636978,119.044189,44.507217,83.26498,104.459381,119.038811,36.094437,71.163197,90.534267,103.694344,29.475975,56.344185,72.057838,84.407444,-14.365245,-13.345129,-6.06105,-5.806021,21.76208,39.152108,46.543632,51.422285,39.336556,55.409077,60.470017,62.440102,50.374751,66.136173,69.887079,70.014717,56.227702,69.597222,72.696167,73.188626,43.277378,292.855822,-93.651123,277.023386
89,-0.042858,-2.441859,0.528774,0.243111,-11.696091,-31.467705,-48.591499,-58.05233,-67.082233,-66.700974,-49.144421,-32.229996,-74.517403,-72.176228,-46.77309,-22.065697,-76.215134,-72.655792,-46.728687,-25.181465,-74.374809,-72.722626,-54.485321,-38.919411,-17.5725,-21.391701,-15.877883,-9.448431,2.328855,19.562716,27.632198,31.364146,18.264599,33.018933,41.354683,44.703099,31.438493,42.622975,46.903266,48.227504,42.334045,53.298633,52.114137,50.203702,27.044449,54.300785,78.26128,98.937778,53.72921,87.672157,105.805836,119.338017,44.029427,83.1003,104.398212,118.851871,35.664024,71.163654,90.786209,103.944683,29.231815,56.695919,72.600975,84.888897,-14.747542,-13.554462,-6.204743,-5.606135,20.687808,38.367136,46.044195,51.146755,38.647916,55.160964,60.3283,62.321171,50.047968,66.12407,69.810446,69.868059,56.001078,69.53646,72.472383,72.782308,43.23864,290.410983,-93.118229,277.263518
90,-0.368843,4.79671,0.258179,0.024515,-8.164558,-26.840286,-45.958385,-58.085804,-58.750591,-59.432087,-41.547203,-25.159378,-65.008049,-64.327469,-42.725544,-20.805588,-65.660992,-65.683937,-44.154968,-24.756889,-62.922821,-65.062695,-53.701344,-41.354713,-20.814273,-25.424188,-16.496129,-7.109016,-5.251996,13.252256,22.806094,28.155039,11.981062,28.433348,36.85703,41.337825,26.390582,38.036463,43.334031,45.749892,38.348117,47.438951,49.942313,51.368253,26.928177,54.15596,78.101921,98.93137,53.69545,87.874889,106.242657,119.836979,44.024391,83.192368,104.774723,119.37418,35.619278,71.18866,90.931091,104.133396,29.082699,56.492958,72.426281,84.753914,-14.836895,-13.914776,-6.671638,-6.106745,20.363063,38.235176,46.022891,51.175777,38.290998,54.931376,60.384616,62.590094,49.675428,65.801733,69.670458,69.70016,55.61909,69.394187,72.635898,72.946194,42.878323,295.183148,-92.851524,277.263487
91,-5.174103,3.726699,0.810299,0.06916,-2.862396,-13.428154,-29.227295,-44.912739,-40.987873,-44.415207,-33.25676,-20.822983,-48.64048,-50.204773,-35.145836,-18.315239,-51.286526,-52.050304,-35.044785,-19.887428,-51.011009,-52.614498,-43.344612,-33.746223,-17.094367,-20.600864,-13.82073,-7.25592,-4.587994,8.604796,15.771734,19.92198,9.531238,21.581954,28.330472,31.644863,21.220035,29.818101,34.342183,36.427186,30.678531,37.21932,40.659312,42.351705,27.112484,54.233837,78.025188,98.623581,52.961197,87.238312,105.670624,119.297218,43.455448,82.770939,104.552879,119.340706,35.341415,71.191177,91.026936,104.296646,29.081612,56.570091,72.659512,85.208702,-14.74217,-13.555821,-6.305458,-5.583349,20.073947,38.140945,45.906244,50.826085,38.142612,55.303484,60.575981,62.194459,49.715627,66.237567,69.826563,69.363312,55.842318,69.80316,73.041166,73.259207,37.735806,298.861203,-92.00964,277.284004
92,9.502373,-11.626738,0.883999,0.448864,-14.576454,-37.415428,-55.435009,-67.194099,-71.438255,-71.626568,-51.972027,-33.314552,-78.657475,-75.354652,-49.500961,-23.490601,-80.116482,-76.105042,-48.93465,-25.6287,-78.275757,-76.049995,-56.585884,-39.513931,-9.438674,-8.797211,-0.96874,7.320388,7.503725,27.672459,37.755252,42.627236,19.995154,36.939405,47.033683,51.909311,30.571579,44.039406,49.560942,51.826812,39.018109,51.762345,52.216642,51.736965,26.936131,54.012508,77.886715,98.695507,53.657684,87.554569,105.711651,119.087849,43.991547,82.877998,104.149647,118.41116,35.53339,70.97723,90.403633,103.338947,28.879223,56.273975,72.124729,84.364071,-14.901609,-13.753608,-6.698499,-6.59902,20.113159,38.153727,45.890189,50.750379,38.073328,55.218083,60.366524,61.831182,49.541738,65.985502,69.576474,69.201587,55.606184,69.196524,72.176907,72.319551,47.299547,287.222347,-91.064272,277.720749
93,-1.2323,6.688866,0.321922,-0.498696,-9.693604,-28.951149,-47.066345,-58.201847,-63.572044,-62.474899,-43.701668,-26.683731,-70.211449,-66.396103,-43.536758,-21.673508,-70.698738,-67.476254,-44.884529,-25.492172,-67.074509,-66.345634,-53.049717,-40.166473,-19.986941,-25.336812,-16.244063,-7.187501,-5.180427,14.444842,24.507689,29.501198,12.940787,30.17261,38.442534,42.118906,28.22105,41.188698,45.548524,46.863931,40.892605,50.858998,51.521703,50.769645,27.037296,54.376144,78.318214,98.874035,54.589691,87.977829,106.009769,119.172077,44.705143,82.973499,104.101467,118.243504,35.809536,70.531883,89.84808,102.670155,28.622189,55.473118,71.287479,83.294849,-14.657201,-13.138203,-6.165346,-5.999361,21.270053,38.926595,46.46558,51.137492,38.967474,55.643358,60.74493,62.248676,50.055872,66.298206,69.906468,69.48848,55.793473,69.520466,72.576,72.479793,46.1271,293.896825,-90.682497,277.207665
94,-2.858047,3.151062,0.52145,-0.424596,-1.707916,-13.37471,-30.654945,-48.162346,-45.515156,-50.129128,-37.660561,-24.254837,-53.435154,-55.610619,-39.01165,-21.351013,-55.57972,-55.475121,-37.249718,-21.917267,-54.705334,-54.518909,-43.218212,-32.613831,-17.16328,-20.23419,-11.702135,-3.703357,-5.759029,9.395757,18.474118,23.8004,9.192969,23.802314,31.932867,35.400647,21.686498,32.131148,37.600073,39.422636,32.360612,39.977525,43.416468,44.397249,26.970348,54.449043,78.556194,99.125633,53.862476,87.809887,106.065674,119.519691,44.007626,82.963543,104.17614,118.262787,35.375061,70.823193,90.228767,103.15773,28.638954,56.028614,72.054348,84.125175,-14.379386,-12.683164,-5.78484,-5.42076,21.451167,39.391946,46.936365,51.735915,39.31729,56.162,61.11605,62.288814,50.6065,67.03106,70.425974,69.804889,56.432528,70.003169,72.779406,72.480534,43.290453,297.025086,-90.139647,276.760268
95,2.328186,-10.124659,-0.092525,0.520741,-14.796982,-36.287956,-53.04142,-65.012569,-70.412922,-69.550381,-49.733276,-31.722908,-76.528702,-72.868595,-48.348942,-23.830261,-76.842899,-72.738762,-46.112137,-23.295708,-73.885345,-71.962624,-52.649632,-35.34565,-8.954674,-7.722074,-0.164503,8.073434,9.000925,28.76081,37.497258,41.715244,20.47125,37.287616,47.049738,51.601361,29.319898,43.359781,48.921146,51.115694,36.121644,49.846229,51.074816,50.773103,27.152481,54.651546,78.881493,99.720325,53.918266,87.805481,105.978527,119.398556,44.223804,83.220234,104.435978,118.603077,35.882893,71.418743,90.7481,103.663044,29.495316,56.818314,72.740421,84.951611,-14.173078,-12.951902,-6.377953,-6.258713,20.953212,38.754435,46.257234,51.08272,38.796117,55.417537,60.190473,61.287469,50.290215,66.477653,69.797787,69.135638,56.437715,69.98767,72.928842,72.90902,45.691452,286.909581,-90.159359,277.290163
96,0.863914,5.723893,0.474358,0.170678,-9.531097,-28.208313,-45.958843,-57.909107,-61.452541,-60.750217,-42.174568,-25.653992,-66.656399,-64.393501,-42.487907,-20.684738,-65.930843,-64.501247,-42.568016,-22.988548,-61.535568,-61.253643,-49.109573,-36.680832,-16.290561,-18.314369,-9.183954,0.157217,0.955217,21.169461,29.870403,34.81655,15.305519,32.550433,39.98932,44.420221,27.205811,40.124924,44.681363,46.963782,37.070748,47.11717,49.120044,50.229144,27.213249,54.507866,78.610268,99.290257,53.735676,87.651272,105.723782,119.095173,44.192276,82.961369,104.170933,118.504658,35.89674,71.166973,90.485744,103.509922,29.39518,56.525631,72.476063,84.860744,-14.456451,-13.288009,-6.481694,-5.613236,20.706642,38.579681,46.233954,51.212951,38.549485,55.606308,60.498793,61.629443,50.017587,66.628509,69.990943,69.246047,56.181513,69.85855,72.761622,72.602553,46.596251,292.641393,-89.644117,277.468761
97,-2.027035,-2.585706,-0.124626,0.306776,-10.384998,-29.101524,-45.622701,-56.698923,-62.754822,-61.775293,-43.2096,-26.137676,-69.138336,-66.150169,-42.827883,-19.851436,-70.029945,-67.159567,-42.798614,-21.789322,-67.317781,-66.834383,-50.934648,-35.667744,-14.026174,-15.294898,-8.025238,-0.207636,3.965118,22.987734,32.135872,37.200517,17.384625,33.812025,42.616244,47.315821,28.338376,41.125713,46.573365,49.136285,37.457491,48.703538,50.44808,50.942516,27.106991,54.685364,79.115524,99.810963,54.001751,88.047695,106.183949,119.588184,44.29533,83.230362,104.364567,118.548145,35.934277,71.193466,90.621128,103.737202,29.498692,56.621132,72.468395,84.468327,-14.342274,-13.162471,-6.708688,-6.109339,20.361272,38.569801,46.203264,50.87178,38.3475,56.043068,60.737088,61.407821,49.72594,66.879031,70.139576,69.168983,55.604208,69.199055,71.906996,71.463814,44.570618,290.030477,-89.767342,277.750327
98,-2.027035,-2.585706,0.143394,-0.530066,-11.238899,-29.994736,-45.28656,-55.488739,-64.057102,-62.800369,-44.244633,-26.621361,-71.620274,-67.906837,-43.167858,-19.018135,-74.129047,-69.817886,-43.029213,-20.590096,-73.099995,-72.415123,-52.759724,-34.654655,-11.761786,-12.275426,-6.866522,-0.572488,6.975018,24.806005,34.40134,39.584484,19.46373,35.073617,45.243168,50.211421,29.47094,42.126502,48.465367,51.308788,37.844234,50.289906,51.776115,51.655887,27.442875,55.127277,79.358139,99.941769,54.554787,88.244133,106.116657,119.15823,44.656677,83.185387,104.076862,118.053074,36.014271,70.980206,90.219555,103.136501,29.249153,56.174126,72.092857,84.157047,-14.222849,-12.689092,-5.947059,-5.381487,21.014097,39.315685,46.799834,51.150398,38.935179,56.671688,61.354592,61.946655,50.138124,67.26176,70.563307,69.588639,56.001325,69.65076,72.421501,71.971649,42.525673,287.429195,-89.641857,277.204685
99,-5.705566,10.497076,-0.695,-0.246878,-5.139084,-20.928955,-37.256413,-45.880051,-53.368664,-47.918415,-31.774979,-16.432343,-61.586266,-54.571781,-33.60775,-11.719894,-63.390999,-57.294617,-35.342789,-15.705185,-61.249752,-59.198914,-45.470524,-32.16156,-22.278684,-28.009369,-20.012629,-11.336882,-8.489138,7.154711,16.34731,22.073982,9.485419,23.916243,32.253537,36.566988,24.706896,35.113199,39.747258,41.94829,37.528381,46.21018,47.211648,47.404186,27.760963,55.567932,79.994946,100.839329,55.159264,88.874416,106.790028,119.934139,45.342464,83.605442,104.548016,118.622189,36.853065,71.571465,90.79771,103.595753,30.218468,56.975727,72.802849,84.846554,-13.970351,-12.637407,-5.980651,-5.522216,20.925486,39.055283,46.654536,51.243518,38.674777,56.286056,61.064427,61.726391,49.8713,66.981351,70.541324,69.600927,55.869056,69.866886,72.929768,72.589215,36.799164,297.911929,-90.3578,276.943466
100,2.289619,-4.226692,-0.189114,0.259722,-7.554988,-24.270572,-40.165615,-49.874696,-57.859554,-54.166746,-36.720914,-20.290546,-66.029148,-60.261325,-37.449417,-14.392776,-68.321485,-62.525682,-38.201551,-17.235717,-66.85358,-65.130043,-48.344278,-32.625961,-18.274077,-22.662802,-16.744643,-9.275931,-2.277417,14.425421,23.602768,28.793939,13.677099,28.653982,37.70755,42.133912,26.946151,38.194483,43.372038,45.696417,37.986662,48.287248,49.136192,48.836518,28.234177,55.825939,79.970741,100.54493,55.654335,89.512482,107.568855,120.833817,45.795422,84.020348,104.997139,119.142494,37.177162,71.722927,90.957928,103.858109,30.381832,56.828384,72.72995,84.930954,-14.176289,-13.049282,-6.280449,-5.377164,21.364099,38.960867,46.41408,50.849365,39.0312,56.361701,61.123954,61.798948,50.010794,66.983451,70.398248,69.287544,55.844232,69.960932,73.092666,72.62997,39.081516,293.672872,-90.55418,277.190822
101,2.28962,-4.226692,-0.109348,-0.363216,-9.970894,-27.61219,-43.074818,-53.869343,-62.350445,-60.415077,-41.666851,-24.14875,-70.472031,-65.950871,-41.291084,-17.065659,-73.251972,-67.756748,-41.060314,-18.766251,-72.457409,-71.061172,-51.218033,-33.090363,-14.26947,-17.316236,-13.476657,-7.21498,3.934304,21.696131,30.858225,35.513897,17.868778,33.391721,43.161562,47.700835,29.185406,41.275766,46.996818,49.444543,38.444942,50.364315,51.060736,50.268849,28.455276,56.290741,80.345592,100.593052,56.15078,89.739704,107.555065,120.691509,46.013088,83.964844,104.794178,118.999844,37.01643,71.35952,90.560875,103.536816,29.873943,56.288853,72.140408,84.173412,-13.829067,-12.365829,-5.765142,-5.298185,21.48797,39.358972,46.74216,51.106926,39.124444,56.718988,61.499644,62.127151,50.024441,67.233478,70.75424,69.653477,55.79724,69.908259,72.918715,72.325047,41.372738,289.405748,-90.661926,276.787175
102,-11.839371,8.785972,-0.909176,0.01976,-3.928871,-16.316299,-29.802761,-36.703033,-47.831726,-40.386887,-22.670288,-6.343803,-55.763683,-46.950703,-25.286522,-2.790985,-57.709637,-50.469646,-28.574982,-8.536949,-56.122398,-53.980923,-40.616856,-26.948547,-20.776297,-28.160534,-23.744454,-17.930097,-5.722472,10.619651,18.814363,23.24125,11.857191,25.792406,33.806683,38.162804,26.128822,35.802827,40.850429,43.601781,37.747903,46.838181,48.202557,48.098013,28.464947,56.571007,80.923691,101.449471,56.057739,90.05825,108.049507,121.267319,45.827351,84.342442,105.302353,119.519005,36.975574,71.847839,91.197968,104.154282,30.18116,56.892128,72.91666,84.997787,-13.844689,-12.456664,-5.893583,-5.056803,21.621845,39.621164,46.897771,51.151324,39.3896,56.894668,61.519342,62.030018,50.348692,67.421446,70.730342,69.499101,56.016886,70.052631,72.997447,72.385438,29.523325,298.161401,-91.581144,276.776616
103,-31.116199,8.753306,-0.549717,0.352163,3.112736,3.937283,4.085712,6.07378,-16.199112,-4.550457,10.785084,22.673664,-21.96373,-7.048416,11.30373,26.986141,-23.480301,-10.947475,6.491833,19.583645,-22.169266,-14.853516,-4.442883,3.930645,-16.450927,-23.874994,-26.132713,-30.708727,-4.747927,4.2672,8.92843,11.231412,9.317026,17.51254,22.800475,24.334232,19.555491,26.150805,29.906219,31.78621,27.107752,33.340653,36.436139,37.37771,28.71769,56.686077,81.031151,101.51247,56.680813,90.273628,108.084927,121.135426,46.214619,84.515705,105.085659,119.027538,37.163601,71.796799,90.910149,103.807697,30.215607,56.85173,72.752781,84.613724,-13.834254,-12.616968,-5.969474,-4.577373,21.987469,40.030569,47.136374,51.099763,39.563859,57.099124,61.551082,61.982038,50.292253,67.274974,70.500322,69.330152,55.761548,69.435745,72.161778,71.42417,-1.597338,306.883153,-92.135324,277.097224
104,40.493717,-16.293525,0.235462,-0.544639,-7.959595,-24.914017,-41.032677,-51.857128,-58.665104,-56.380062,-39.585972,-23.409348,-68.162212,-63.849277,-39.468842,-15.902481,-72.458553,-66.956863,-40.611591,-19.092407,-73.046837,-70.772152,-51.293335,-34.489403,-17.480368,-21.9448,-17.737868,-12.849705,-1.109902,17.006063,26.210209,30.008354,15.092789,31.673948,41.288734,45.405201,29.249688,41.891912,47.571962,50.051488,41.501587,53.683215,53.462951,51.782043,28.885975,56.495647,80.282135,100.626755,57.21405,90.336285,108.126984,121.259422,46.674213,84.243221,104.865532,119.038353,37.325592,71.157131,90.214462,103.097992,29.839153,56.003723,71.866493,83.860645,-13.654066,-11.95877,-5.063904,-4.509139,23.28466,40.703093,47.803402,51.831382,40.493327,57.725767,62.155124,62.576138,50.823059,67.794295,71.120543,69.979642,56.154713,70.067143,72.995903,72.400567,38.878069,290.579161,-91.918173,276.542119
105,-12.885361,9.494805,-0.59927,-0.657765,-1.582375,-12.936745,-26.991978,-35.256844,-48.193188,-38.499355,-19.451408,-2.596321,-57.357845,-45.159531,-22.09259,0.734367,-59.709778,-49.092636,-26.218643,-6.152687,-58.238811,-54.155903,-39.743156,-25.443821,-20.201586,-28.769085,-25.838781,-21.202313,-7.676749,8.090045,16.396463,21.128521,9.915511,23.503812,31.576691,36.170489,24.527634,34.463275,39.295369,42.200479,36.720129,46.086185,47.169225,46.676334,28.678951,56.53656,80.813026,101.452961,56.465321,89.802475,107.625675,120.899334,46.062984,84.085693,104.808941,119.069309,36.980381,71.36467,90.54554,103.539791,29.890652,56.358891,72.317219,84.473991,-12.994448,-11.15762,-4.784484,-4.893226,23.738155,41.492201,48.684334,52.890154,40.953614,57.873536,62.233918,62.663639,51.469462,68.275022,71.668454,70.570347,56.907389,71.055767,74.085242,73.567527,26.00461,300.043168,-92.505541,275.853555
106,-28.520622,8.269306,-0.869865,0.557606,3.994446,3.769684,1.174107,0.503998,-20.429192,-4.129429,12.982635,25.214539,-27.729549,-6.985645,12.764397,28.965797,-29.322739,-12.398129,5.730858,19.195061,-27.835407,-20.56057,-11.937618,-4.650593,-16.872868,-25.227575,-28.059634,-32.705056,-6.337013,4.336731,9.205628,11.191521,7.973645,17.305121,23.094531,25.502241,18.788736,26.227499,30.120245,31.996038,27.065576,34.751218,36.742668,36.290038,28.529892,56.598759,81.07481,101.74387,56.556129,89.879379,107.72604,120.992832,46.572876,84.591694,105.33308,119.706631,37.801208,72.220287,91.303196,104.224148,30.93647,57.178402,73.077507,85.444565,-13.520129,-11.947284,-5.661895,-5.287009,23.0342,40.527783,47.762276,52.080853,40.202544,56.85027,61.288272,61.901639,50.945634,67.583109,71.021804,70.082889,56.699784,70.977159,74.095616,73.775255,-2.51049,308.236691,-93.369884,276.335378
107,52.067986,-19.526962,0.883484,-0.11819,-13.419228,-34.516068,-53.21434,-65.099602,-72.79747,-71.886005,-52.02261,-33.064613,-81.224899,-76.404247,-51.044941,-25.834694,-82.983055,-77.860394,-51.424828,-28.933868,-81.047115,-79.903965,-60.913582,-43.718605,-14.139362,-18.609042,-13.726376,-7.331626,1.879065,24.162998,34.643278,38.994829,17.035951,35.77683,46.305028,50.993861,30.562193,45.0439,50.924886,53.102884,41.927665,55.21586,55.068462,53.365447,28.271084,55.979977,80.285053,101.121197,55.412407,89.175396,107.179127,120.323009,45.462914,83.965244,104.997768,119.493542,36.850662,71.828957,90.994892,103.924198,30.288334,56.887093,72.796497,85.168533,-13.311413,-11.677435,-5.242486,-4.964733,23.436628,40.934472,47.94654,51.903259,40.685988,57.670068,62.047246,62.394345,51.348246,68.22062,71.395394,70.135439,56.979328,71.241883,74.35188,73.971004,49.578123,288.658661,-92.465773,276.166121
108,-4.151573,4.155432,-0.637436,0.250521,-7.88063,-28.118935,-48.472824,-62.681637,-66.250763,-64.252625,-43.738976,-26.142883,-73.895016,-69.115505,-44.306488,-21.172485,-74.636822,-70.709496,-47.020798,-27.249298,-71.51516,-70.563354,-55.362625,-41.709366,-18.899084,-25.980621,-19.722155,-14.105585,-5.597737,16.843969,27.094661,31.38687,12.623575,31.529452,40.038658,44.329262,28.482439,42.449271,47.978835,50.193081,41.996579,52.808705,54.134116,53.777569,28.197327,56.081829,80.327454,100.88316,55.816669,89.463387,107.393703,120.607281,45.731277,84.192524,104.921894,119.097462,37.118454,71.959877,91.069679,103.82658,30.696545,57.192478,73.002377,85.022964,-13.589413,-11.913322,-5.490908,-4.955409,22.99079,40.650975,47.496688,51.346579,40.339753,56.961791,61.070663,61.346132,51.104888,67.603301,70.799132,69.693553,56.670576,70.7493,73.662437,73.220798,45.431471,292.791755,-93.098288,276.394304
109,-3.720131,7.633215,0.549946,0.29739,-2.658005,-17.576523,-36.886139,-53.46714,-46.788197,-50.278015,-37.001724,-23.109512,-55.136204,-55.817928,-38.872375,-19.800682,-58.071613,-57.290783,-39.103546,-22.962685,-57.631302,-58.143997,-46.873226,-35.741501,-21.794746,-29.924558,-24.352819,-17.979991,-9.422001,3.054052,11.651623,16.418694,8.65395,21.360332,29.120445,32.067359,23.28818,31.872352,36.74026,38.017012,35.615723,41.917168,44.414046,44.528037,28.131409,55.389977,79.784431,100.559349,56.253891,88.997612,106.704483,119.783592,46.542721,84.035454,104.384422,118.201103,37.736778,72.179203,90.776539,103.032646,30.534725,57.510681,73.292942,85.282745,-13.741566,-12.423751,-6.061976,-5.286144,22.299247,40.430897,47.797968,51.999343,39.319204,56.312177,61.126671,62.033044,50.352212,66.77986,70.27907,69.59469,56.619694,70.223557,73.023011,72.775331,41.721468,300.409224,-92.538214,276.675947
