takenoko1/special-research/HandMotion_SimilarSearch_自分用/NewProject/handData/key/d4_feature_d2/18.csv
,vel_0x_L,vel_0y_L,vel_0x_R,vel_0y_R,posFromWrist_1x_L,posFromWrist_2x_L,posFromWrist_3x_L,posFromWrist_4x_L,posFromWrist_5x_L,posFromWrist_6x_L,posFromWrist_7x_L,posFromWrist_8x_L,posFromWrist_9x_L,posFromWrist_10x_L,posFromWrist_11x_L,posFromWrist_12x_L,posFromWrist_13x_L,posFromWrist_14x_L,posFromWrist_15x_L,posFromWrist_16x_L,posFromWrist_17x_L,posFromWrist_18x_L,posFromWrist_19x_L,posFromWrist_20x_L,posFromWrist_1y_L,posFromWrist_2y_L,posFromWrist_3y_L,posFromWrist_4y_L,posFromWrist_5y_L,posFromWrist_6y_L,posFromWrist_7y_L,posFromWrist_8y_L,posFromWrist_9y_L,posFromWrist_10y_L,posFromWrist_11y_L,posFromWrist_12y_L,posFromWrist_13y_L,posFromWrist_14y_L,posFromWrist_15y_L,posFromWrist_16y_L,posFromWrist_17y_L,posFromWrist_18y_L,posFromWrist_19y_L,posFromWrist_20y_L,posFromWrist_1x_R,posFromWrist_2x_R,posFromWrist_3x_R,posFromWrist_4x_R,posFromWrist_5x_R,posFromWrist_6x_R,posFromWrist_7x_R,posFromWrist_8x_R,posFromWrist_9x_R,posFromWrist_10x_R,posFromWrist_11x_R,posFromWrist_12x_R,posFromWrist_13x_R,posFromWrist_14x_R,posFromWrist_15x_R,posFromWrist_16x_R,posFromWrist_17x_R,posFromWrist_18x_R,posFromWrist_19x_R,posFromWrist_20x_R,posFromWrist_1y_R,posFromWrist_2y_R,posFromWrist_3y_R,posFromWrist_4y_R,posFromWrist_5y_R,posFromWrist_6y_R,posFromWrist_7y_R,posFromWrist_8y_R,posFromWrist_9y_R,posFromWrist_10y_R,posFromWrist_11y_R,posFromWrist_12y_R,posFromWrist_13y_R,posFromWrist_14y_R,posFromWrist_15y_R,posFromWrist_16y_R,posFromWrist_17y_R,posFromWrist_18y_R,posFromWrist_19y_R,posFromWrist_20y_R,posFromBody_0x_L,posFromBody_0y_L,posFromBody_0x_R,posFromBody_0y_R
2,-24.139538,6.103472,0.368042,0.091823,4.242954,12.185726,19.473839,26.6189,-5.870533,7.967663,25.032749,38.459988,-9.528522,11.17321,33.201885,51.807575,-8.863621,10.555172,31.003017,47.768383,-6.210079,10.17683,25.718708,38.082333,-22.53007,-35.169021,-34.591161,-25.955551,-14.451017,-10.480712,-5.600515,-2.131315,4.169326,10.895984,15.878501,18.203713,18.763665,25.255054,26.027922,24.771363,29.83712,35.727245,32.901978,28.021658,26.669998,52.554646,76.335297,96.675854,52.93602,87.670269,107.305698,121.997852,44.825592,83.969193,106.265202,121.759701,37.845554,73.24688,93.54578,107.647419,32.334194,60.554981,76.662483,87.965984,-16.505329,-16.373369,-8.864951,-4.544583,18.112322,30.073068,34.424311,36.741063,36.574769,48.085108,50.468735,50.578651,47.507618,58.64733,59.292252,56.747579,52.050102,60.695406,59.876472,55.932103,-17.752132,303.708363,-83.101902,282.638197
3,6.149769,7.967285,0.491409,0.505489,3.5606,7.846012,13.139534,18.559341,-12.425022,0.091038,17.031784,30.513382,-14.327316,5.449562,27.832832,45.877876,-11.798515,8.151855,29.638939,47.016449,-6.553917,7.772598,22.868385,35.351715,-22.229346,-36.690428,-38.619572,-35.190448,-21.027189,-22.20199,-18.211123,-15.345039,-3.400842,1.243345,6.683371,8.443628,11.517193,16.217943,18.960835,18.889945,23.741181,25.740042,24.660089,22.250032,25.979004,51.932659,75.720749,96.01656,52.79377,88.118992,107.584248,122.072582,44.705029,84.401951,106.592274,122.092152,37.648315,73.57687,93.995762,108.443356,32.136555,60.795708,77.025204,88.544827,-16.905843,-16.844895,-9.090216,-5.250514,17.418433,29.334965,33.365291,35.463756,36.084594,46.880234,49.133444,49.423424,47.236595,57.847415,58.668881,56.451424,51.880967,60.362633,59.888761,56.361392,-12.66263,311.902659,-83.670759,283.370695
4,22.144432,-13.99042,0.112381,0.020686,-1.521034,-4.747925,-9.913101,-11.910095,-26.686535,-20.975647,-3.501778,12.024536,-30.769043,-22.209949,0.868378,23.711014,-34.043484,-23.684864,-0.430183,20.859947,-36.981869,-29.203548,-11.50074,4.014359,-27.319062,-37.894437,-34.570474,-26.583305,-14.901424,-7.958702,-5.300717,-5.508322,6.069139,15.739995,18.280345,17.673832,23.841217,32.747972,31.71989,29.507496,38.638406,47.020654,42.750922,38.175957,25.592594,51.685009,75.575981,95.604,52.667313,88.225307,107.67889,122.064228,44.533138,84.26897,106.35561,121.594219,37.455254,73.371677,93.847675,108.203144,32.014675,60.727043,77.002201,88.42535,-17.017611,-16.650937,-9.096144,-6.183378,17.175074,29.032203,33.311074,35.673337,35.839939,46.529059,48.809316,49.083118,47.126618,57.694521,58.48715,56.158727,51.914992,60.433955,59.81676,56.042821,8.707895,298.116524,-84.332285,283.595668
5,-16.327858,2.72202,0.22047,0.260772,2.354794,4.861336,8.800621,13.088493,-20.344448,-4.259605,15.488777,30.155754,-25.989819,-1.275558,23.077927,43.206139,-24.812508,-2.280235,19.921532,37.197075,-20.816059,-2.553062,14.461899,27.35939,-21.273326,-32.735869,-30.707801,-22.30499,-12.260915,-4.892485,0.288127,3.416156,7.332367,15.818603,20.519538,21.888854,22.375385,30.140314,30.945354,29.4392,33.604821,40.813441,37.662194,31.971708,25.102215,51.08923,74.879265,95.048904,52.90987,88.712082,108.100204,122.418823,44.614792,84.503689,106.441612,121.462669,37.120857,73.290195,93.636589,107.87281,31.200943,59.970016,76.244545,87.663918,-17.411023,-17.185819,-9.37785,-6.602045,16.368305,28.247479,32.192775,34.20238,35.118077,45.995906,48.162728,48.388549,46.517635,57.3297,58.1298,55.935623,51.419445,60.10322,59.657011,56.219983,-8.066082,300.977313,-84.557934,283.995208
6,-1.829052,9.627198,-0.245132,0.112633,1.448822,3.928814,9.884491,15.529232,-20.534821,-4.397049,15.570316,30.813503,-23.932343,1.47995,26.589031,47.178669,-21.524105,3.341045,26.563625,45.086918,-15.833359,0.719662,17.209797,31.063442,-20.896278,-35.238305,-37.009492,-32.753592,-17.433006,-15.828298,-10.557344,-7.367812,1.044693,6.223207,11.417651,12.988582,15.500403,20.019237,22.084664,21.61462,26.996169,29.51892,27.32783,23.837388,25.069828,51.074352,75.062542,95.432739,53.091145,88.589172,107.793961,122.070122,44.795666,84.38776,106.23745,121.292496,37.318954,73.172951,93.413773,107.627907,31.305256,59.675503,75.741863,87.030258,-17.255412,-16.947215,-9.230143,-6.932966,16.337554,28.051792,32.108176,34.348481,35.054844,46.208019,48.547803,48.955541,46.422354,57.462031,58.375196,56.343978,51.349667,60.060118,59.62521,56.316623,-10.19002,310.676542,-85.097952,284.179873
7,-21.495495,1.236614,0.237465,-0.268861,8.584442,18.334408,26.236153,31.255932,6.516266,27.573853,46.282768,61.281166,3.401299,30.027523,52.300873,71.261902,2.245445,28.595924,48.894539,65.036888,2.041283,19.233913,34.942017,46.994476,-20.072342,-32.578221,-36.959721,-37.592354,-14.405383,-10.273972,-5.994668,-4.533962,2.224682,9.980349,13.762067,15.280016,14.915874,21.98679,22.248488,21.192124,25.079374,29.40567,28.047346,26.12098,25.174942,51.450806,75.624847,96.217117,53.507309,88.940048,107.958755,122.11235,44.905243,84.430904,105.788727,120.553322,37.018433,73.11121,93.007507,107.098732,30.547085,59.167557,75.103855,86.296635,-17.121351,-16.796359,-9.304243,-7.251166,16.874041,28.526838,32.243163,34.117041,35.455296,46.379932,48.610912,48.746948,46.808109,57.859827,58.76268,56.715469,51.775744,60.601299,60.300018,57.228306,-31.827736,311.943939,-85.002708,283.941794
8,38.37616,-14.865238,-0.13504,0.090773,-1.901665,-4.753075,-9.918995,-12.11586,-27.9245,-21.456413,-3.193245,13.029213,-32.13707,-22.573185,1.621284,25.639343,-35.468216,-23.942871,0.487633,22.628632,-38.445396,-29.830685,-11.233349,4.944191,-27.291459,-37.283849,-33.052958,-24.293168,-14.763474,-6.413398,-2.492494,-1.971814,6.291379,17.922131,21.236893,20.373005,24.262787,34.871137,34.094625,31.527105,39.267704,49.054898,44.753982,39.750037,25.164299,51.245155,75.123425,95.437775,53.363228,88.663445,107.66304,121.913223,44.848194,84.291286,105.704498,120.570602,37.075653,72.895145,92.757683,106.880493,30.796337,58.949089,74.710464,85.857925,-17.34285,-16.951785,-9.136406,-6.451621,16.444629,28.309662,32.261688,34.422767,34.954994,46.2116,48.694646,49.258612,46.323492,57.598253,58.641155,56.731524,51.44575,60.42531,60.087906,56.871574,6.415815,297.105454,-85.270357,284.059321
9,-32.298489,5.762116,-0.006123,0.415642,7.113934,16.317329,24.519711,31.303768,-2.273712,14.459267,31.837292,45.243473,-7.052135,17.485657,40.102215,59.457264,-6.625557,16.606808,38.536777,56.590748,-4.224072,15.924568,33.309231,46.917171,-22.978316,-35.948311,-34.605301,-25.522001,-16.338048,-12.01521,-6.826199,-2.849041,3.927017,11.056473,16.563437,18.792256,19.96891,27.066502,28.739877,28.040615,32.518384,38.952283,36.205996,31.244967,25.29459,51.240635,75.240211,95.981197,52.964916,88.301525,107.303181,121.666775,44.673958,84.139309,105.604076,120.619297,37.280674,73.130722,92.998981,107.204533,31.323395,59.675274,75.566597,86.88303,-17.489693,-17.347975,-9.481591,-6.857445,16.30637,28.293051,32.227108,34.416469,34.924736,46.059941,48.392378,48.77912,46.370607,57.493277,58.404342,56.35744,51.462793,60.280258,60.020659,56.934127,-25.984211,302.847686,-85.378017,284.455079
10,38.169422,-7.907758,-0.139847,-0.048783,-5.087013,-11.464806,-17.842598,-20.161457,-38.275623,-31.468849,-11.711655,5.599709,-42.041988,-31.465588,-5.608635,19.826546,-44.277306,-31.912022,-5.558281,17.884941,-45.726986,-36.90239,-17.582073,-0.942879,-25.911461,-34.490199,-29.796612,-20.717448,-11.57178,-2.141196,2.574128,3.5588,8.744414,20.857931,24.910363,24.162566,25.799754,36.699258,36.339685,33.897086,39.863472,50.409825,46.244451,41.096319,25.34277,51.424541,75.318718,95.753117,53.541298,88.654461,107.58997,121.827335,44.929218,83.943901,105.243816,120.08234,37.045269,72.538204,92.256603,106.208897,30.51733,58.488293,74.20229,85.378418,-17.096343,-16.927764,-9.233416,-6.256984,16.130875,28.502879,32.805894,35.186435,34.437649,46.042836,48.638885,49.223476,45.795711,57.417139,58.599227,56.750913,50.976324,60.437783,60.228203,57.155811,12.12224,294.905873,-85.580835,284.372241
11,-23.503132,4.312587,0.006466,0.066443,2.945309,6.142845,10.704632,15.15398,-19.662209,-3.028278,15.420971,29.524784,-25.061874,-0.353966,23.60384,44.367428,-23.315392,0.92474,24.216213,43.284245,-18.496456,0.190315,17.866802,32.163334,-20.196831,-31.725324,-29.582708,-20.803899,-14.006537,-7.058504,-0.730446,3.514525,6.243584,16.380717,22.981157,24.992676,22.686484,32.283918,34.729234,33.612849,35.609116,43.607029,41.271691,35.938308,25.408115,51.41819,75.383949,95.957565,52.337551,87.859497,107.147369,121.9804,43.829155,83.451691,105.395966,120.858536,36.376648,72.428341,92.58934,107.085571,30.368614,58.679409,74.618969,86.241188,-16.887194,-16.904916,-9.041125,-4.997708,16.168851,28.681214,32.982995,35.646105,34.508044,46.283725,48.973017,49.944042,45.917545,57.719654,58.900013,57.13216,51.085992,60.629766,60.533682,57.623076,-11.467152,299.22215,-85.660629,284.442374
12,0.60133,7.051588,0.430241,0.298193,1.853657,4.334278,9.933186,14.614906,-22.051449,-5.00988,14.98455,29.670067,-25.425682,0.137558,25.113487,44.999657,-22.683964,2.811584,26.366959,44.854774,-16.687546,1.125126,18.23925,32.532005,-19.390247,-32.302382,-32.452682,-25.533795,-14.734636,-11.025907,-5.287811,-1.081805,4.04774,11.146382,16.282843,18.28158,18.718958,25.416717,27.373896,27.337834,30.163779,34.994205,32.733832,29.240364,25.294361,51.091232,74.998569,95.92741,52.264881,87.856121,106.953793,121.327229,43.759174,83.487968,105.11301,120.224705,36.127396,72.274475,92.309933,106.723537,29.976482,58.383408,74.207611,85.573139,-17.101715,-17.187795,-9.412307,-5.743282,15.852257,28.393086,32.251005,34.320817,34.203244,45.773419,48.14377,48.647283,45.592058,57.225157,58.357227,56.542259,50.61107,60.147124,60.20696,57.436281,-10.937262,306.282784,-85.301828,284.749613
13,22.987175,-8.243124,0.831585,1.563829,-3.375435,-8.467369,-14.691639,-17.501793,-35.484638,-29.226723,-9.959106,7.226372,-39.265022,-29.839096,-5.360756,19.306641,-41.388245,-29.928532,-4.922447,18.116455,-42.465019,-33.718643,-14.902725,1.575165,-25.85039,-35.288817,-32.054824,-25.038248,-10.365424,-2.201402,1.452431,1.983114,9.376677,20.19294,23.346843,22.775466,25.583319,35.798937,34.651738,32.161344,38.600306,47.928015,43.623146,38.847987,24.140797,49.695625,73.556671,94.600067,49.865284,86.076736,105.740089,120.491867,42.27087,83.804913,106.091194,121.246948,36.137524,74.516144,95.034256,109.303665,31.902523,62.551517,78.954906,90.452957,-17.021254,-17.86001,-10.525172,-6.566045,14.942859,27.74162,31.740515,34.064059,33.741228,45.443734,47.410423,47.20924,45.528208,56.861261,56.850393,53.785473,51.031034,59.413097,58.877289,55.470272,12.034092,298.123209,-84.486065,286.396991
14,-21.352329,8.40806,-0.462856,-0.364451,0.008125,1.683769,5.516567,9.206886,-21.757736,-4.337254,14.509907,28.579617,-25.116978,1.31813,25.215282,46.322079,-22.389908,3.654842,26.039944,45.612545,-16.73996,2.655716,19.501476,34.371357,-21.533233,-35.293757,-33.136383,-22.755891,-13.554895,-6.570182,-1.014745,2.49379,5.879257,14.342645,19.154793,20.242897,20.370843,26.320619,26.791589,25.198861,31.048231,36.499372,32.770758,27.205132,24.019718,49.532318,73.373451,93.766994,50.814285,86.749249,106.350918,121.114368,43.046265,84.137077,106.354351,121.792202,36.426258,73.759232,94.501705,109.174175,31.577911,61.099548,77.497387,89.13168,-17.454063,-18.069529,-11.079629,-7.814206,15.186958,27.586256,31.434232,33.273407,33.974274,45.411994,47.434876,47.272287,45.580264,56.914058,57.311731,54.585388,50.7229,59.62805,59.434833,56.139523,-9.338179,306.592463,-84.968863,286.093734
15,-6.251965,4.243735,-0.27729,0.049771,2.602386,4.55864,10.4603,15.992603,-15.754452,2.953892,21.980438,35.038605,-19.116783,7.420292,30.727386,50.250664,-17.503052,9.02401,31.085587,49.221039,-12.977829,4.951687,21.373444,35.661278,-20.492492,-34.867617,-36.133871,-29.405299,-13.877726,-8.36397,-3.303585,-0.069099,4.021125,11.683981,15.687445,17.358226,17.536005,23.371852,24.12885,23.821271,27.709015,32.162393,29.551586,26.211815,23.726807,49.172001,73.290367,94.234486,50.428619,86.177444,105.757427,120.51218,43.097706,84.144573,106.375637,121.828709,36.938095,74.363365,94.990025,109.55389,32.416821,62.222958,78.597107,90.22356,-17.372923,-18.139122,-10.938838,-7.370529,15.452485,27.711485,31.645357,33.669103,34.344838,45.587303,47.580545,47.363863,46.035303,56.989393,57.188415,54.268362,51.244073,59.577415,59.088907,55.545916,-15.600243,310.891526,-85.256252,286.198833
16,-2.908058,3.828093,-0.376225,-0.045448,4.334507,7.204571,11.132469,12.916546,-11.620274,9.033508,26.927147,39.79351,-13.939819,13.84552,35.436401,54.362411,-12.588043,15.054703,35.387077,52.64225,-8.709526,9.659443,25.794411,39.850616,-19.823797,-33.883933,-38.479152,-38.703553,-13.895139,-9.330055,-5.550312,-3.642225,2.522875,9.963182,12.742198,13.896807,14.779097,20.565851,20.778767,20.187568,24.462673,28.205303,25.546145,22.837525,24.248314,49.708729,73.566456,94.152489,51.058731,86.50795,106.025734,120.600357,43.498993,84.348907,106.788712,122.35611,37.021523,74.191418,95.070534,109.65374,32.137127,61.664944,78.036804,89.651871,-17.571512,-18.370254,-11.346638,-7.807969,15.561227,27.765393,31.945032,34.099689,34.13995,45.612189,47.710036,47.594748,45.61787,56.798152,57.303518,54.586685,50.642995,59.22377,58.998937,55.615262,-18.511333,314.742483,-85.635509,286.176248
17,2.56422,-1.432177,0.060654,-0.573908,3.843269,6.380482,11.038685,13.046494,-15.659981,5.230122,24.281216,37.761211,-18.695412,9.776058,32.14674,51.36446,-17.004032,11.379318,32.22765,49.461079,-12.024136,6.072464,22.022266,35.846615,-18.798369,-32.161035,-36.108183,-35.03107,-13.247254,-9.704818,-5.549324,-3.182863,3.659082,10.667322,13.815852,15.701277,16.21078,21.849395,22.147156,22.345683,26.143581,29.945368,27.037727,24.758148,24.156189,49.78672,73.774395,94.902878,50.814171,86.390476,105.824318,120.561333,43.155327,84.038086,106.218224,121.728859,36.725693,74.164867,94.684639,109.234886,31.896687,61.628437,77.945194,89.737129,-17.168899,-17.717613,-10.07952,-6.036659,15.82379,28.593343,32.607676,34.775053,34.5107,46.110206,48.089183,48.061519,46.118851,57.376754,57.722927,55.188566,51.335649,60.09087,59.806015,56.69225,-15.964279,313.317469,-85.592022,285.609503
18,39.937191,-17.162848,-0.393963,0.308011,-8.079872,-18.826675,-27.828312,-32.193489,-48.326168,-44.403076,-23.476067,-4.585991,-51.848888,-44.265747,-17.649193,8.747635,-52.404327,-42.686119,-15.445862,8.866196,-51.26318,-44.518204,-24.493103,-7.138023,-24.899557,-33.081733,-29.571531,-23.24656,-8.635548,0.274048,4.768367,6.190849,11.1047,22.07923,26.185447,25.852427,26.902925,36.733776,36.471646,34.57492,39.441902,48.634501,45.012098,40.436702,24.193325,49.75359,73.897305,95.011425,50.809994,86.67841,106.447964,121.401386,43.261986,84.409676,106.89703,122.558155,36.868744,74.408455,95.255756,110.028934,32.147655,62.041683,78.518372,90.338917,-17.677661,-18.323509,-10.79953,-6.986936,15.694608,28.022954,32.014748,34.056278,34.43135,45.950396,47.94654,47.796548,46.015975,57.279373,57.629745,54.814482,51.17059,59.888328,59.625025,56.26574,23.956976,296.157091,-86.001921,285.919984
19,-19.711761,7.559918,0.265789,-0.20248,-1.461411,-4.788265,-7.339211,-8.843765,-29.929161,-18.587551,0.542564,15.336456,-34.129944,-13.391876,11.659012,33.621597,-32.070408,-10.777874,12.08622,31.515541,-27.746658,-12.075405,5.245857,19.719315,-22.32722,-35.042803,-30.546015,-21.100795,-13.496232,-7.390042,-1.169059,2.922029,6.061791,14.120467,20.209057,22.09226,20.904737,26.128143,28.098537,27.693454,32.419275,36.881175,33.741475,28.972985,24.248142,49.742718,73.640385,94.634628,50.809021,86.655006,106.354294,121.11145,43.267593,84.472218,106.814461,122.261696,36.87109,74.565697,95.347595,109.968681,32.110634,62.091351,78.544064,90.346756,-17.470427,-18.105036,-10.396114,-5.778851,15.681888,28.268783,32.169927,34.075792,34.409059,46.062843,48.021443,47.86719,46.007268,57.411087,57.814564,55.084517,51.139468,60.024364,59.801507,56.506382,4.238863,303.716931,-85.742483,285.717427
20,-18.639393,5.239893,0.388241,-0.156105,1.221256,3.936996,8.233852,11.182995,-15.38538,2.197037,20.170727,33.837261,-18.868446,6.360741,28.713856,48.904552,-17.20459,7.753143,29.032803,47.053585,-12.800846,5.719872,21.846371,35.360584,-21.470248,-34.426102,-35.314628,-29.478103,-15.080006,-9.981151,-5.510607,-3.052632,3.063438,11.662059,15.568452,16.093084,17.186683,23.695856,24.269641,22.843577,27.79139,33.010782,30.237448,25.673475,24.285908,49.651279,73.376427,94.194088,51.286926,87.050457,106.410885,120.974293,43.498592,84.537621,106.57156,121.940861,36.715107,74.210587,94.761028,109.334164,31.48819,61.210556,77.525826,89.303684,-17.356744,-17.907249,-9.999059,-5.56717,15.737092,28.232412,32.010426,33.897024,34.468833,45.900872,47.874353,47.819272,46.022335,57.30253,57.91108,55.492563,51.142741,60.123227,60.101738,57.089306,-14.406939,308.93657,-85.360651,285.541068
21,-15.311222,6.109401,-0.117817,-0.24589,6.4575,14.06496,23.156319,29.366455,0.21349,20.778465,37.598305,50.394287,-1.812515,25.557575,46.185722,64.785233,-1.140003,26.709995,45.588684,61.883354,1.430397,20.599823,35.486755,48.334923,-20.924992,-35.254422,-39.101349,-36.736123,-14.954962,-11.062833,-6.907339,-4.113071,2.03659,9.876546,13.062373,14.719075,14.56544,20.386775,20.950556,20.950865,23.813799,28.383947,26.218546,23.741737,24.396286,49.809952,73.500309,94.238319,51.591167,87.2089,106.508331,120.995636,43.741894,84.623566,106.701164,122.105141,36.790981,74.166412,94.756393,109.374847,31.343079,61.071453,77.457619,89.272499,-17.462399,-17.845313,-9.856354,-5.286638,15.730979,28.447736,32.327761,34.220596,34.469883,46.076799,48.145376,48.164951,46.073588,57.567377,58.232923,55.831203,51.241171,60.40697,60.433955,57.408308,-29.718962,315.040243,-85.479269,285.289451
22,48.853226,-18.62837,-0.123768,-0.11819,-6.078072,-14.135742,-22.383842,-26.272945,-42.227726,-38.496552,-18.583946,-0.192261,-46.076431,-39.189091,-13.687134,12.03907,-47.608223,-38.44471,-12.343597,11.45771,-47.62064,-41.05854,-22.065182,-5.009651,-24.823295,-33.159292,-29.494837,-22.891804,-9.528891,-1.412664,2.763331,4.229594,10.00579,20.836503,24.722271,24.839165,26.132589,36.081445,35.730209,34.093884,39.292899,48.616779,44.963315,40.8106,24.384556,49.904594,73.635521,94.614086,51.777077,87.286434,106.520634,120.913525,44.019527,84.765415,106.653843,121.909275,37.199993,74.614277,95.0144,109.426403,31.86882,61.848335,78.112278,89.728832,-17.409602,-17.788873,-9.792195,-5.485227,16.168543,28.738209,32.654729,34.62605,34.831555,46.118233,48.188478,48.142968,46.424762,57.47716,58.05712,55.605567,51.663359,60.476316,60.388074,57.312348,19.129457,296.401159,-85.607843,285.160547
23,-23.088913,7.949563,0.174694,-0.083425,-0.415764,-1.296616,0.021572,2.505512,-24.763184,-9.669514,10.16304,25.183296,-28.341122,-4.751644,19.940987,41.835022,-25.994511,-2.636147,19.873352,39.238815,-21.224442,-3.840694,12.762337,26.860542,-22.104116,-35.255286,-31.258306,-20.812544,-13.33247,-5.90902,-0.232737,3.301115,5.904945,15.179239,20.581412,22.003833,20.650573,27.113741,28.689488,27.600767,31.986775,37.552031,34.470068,29.315638,24.280014,49.702721,73.408413,94.361115,51.761456,87.217026,106.453285,120.90889,43.910809,84.60062,106.496315,121.780815,36.957436,74.234447,94.635544,109.175606,31.491795,61.132679,77.356052,89.050369,-17.336737,-17.755281,-9.660049,-5.350797,16.083759,28.758217,32.686654,34.660383,34.796172,46.222839,48.325934,48.359773,46.412351,57.664387,58.340431,55.970635,51.645451,60.620997,60.531953,57.447458,-3.963833,304.3487,-85.437527,285.075099
24,-11.386414,1.906606,-0.220242,-0.021798,1.118202,4.054413,11.639156,18.687286,-18.294353,-0.142879,19.024315,32.793503,-21.665955,4.974747,29.07383,48.951759,-19.34721,7.814083,30.613976,48.409195,-13.85519,5.956249,22.555504,35.80925,-20.940923,-33.727334,-32.353943,-23.826026,-14.073042,-8.568178,-3.45296,-0.281705,4.560885,14.34814,18.573351,19.465891,19.127128,27.385258,28.128115,27.064094,30.034906,36.73674,33.973656,29.727328,24.348049,49.731731,73.383865,94.268017,51.878014,87.574711,106.864185,121.315212,44.061928,84.872131,106.901951,122.24287,37.052422,74.404621,94.969082,109.566135,31.557598,61.261654,77.581959,89.284344,-17.485679,-17.814562,-9.737793,-5.636825,16.051093,28.459962,32.330293,34.208246,34.748007,46.070747,48.164272,48.155935,46.331211,57.492845,58.121217,55.66318,51.543995,60.518183,60.442909,57.360513,-15.356283,306.255707,-85.663805,285.053703
25,-3.776665,6.186527,-0.912437,-0.408788,2.462368,5.008621,11.74015,18.047791,-13.9781,5.055943,23.662834,37.28199,-15.858021,12.009773,34.292908,53.545761,-13.099709,15.579128,36.189308,53.343201,-8.215027,11.709995,27.538376,40.535889,-21.651238,-35.918362,-38.552388,-35.143086,-12.873108,-8.613194,-4.212057,-1.831332,4.848642,11.975813,14.28003,14.791385,17.616281,23.008945,22.251143,20.8625,26.955907,31.966892,28.747596,25.223129,24.658928,50.707912,75.0947,96.170597,51.786976,87.628384,107.14674,121.749973,43.938446,84.936676,107.127857,122.672024,37.043953,74.236851,94.941387,109.767895,31.785049,61.203575,77.485142,89.095402,-16.886453,-17.247322,-10.274466,-7.356944,17.679822,29.031462,32.435701,34.104197,36.087805,47.270064,49.298256,48.959123,47.01522,58.594534,59.123982,56.480508,51.377022,60.927217,61.107034,58.069593,-19.133492,312.445815,-86.576786,284.648497
26,-2.152977,2.408019,-0.269909,-0.256079,4.281578,7.969837,14.935513,20.739441,-12.162437,6.728096,25.187187,39.054108,-14.851913,13.576469,36.441422,56.503716,-12.68034,15.784264,37.079315,54.929466,-7.894192,11.577015,27.27253,40.716019,-21.602641,-36.403288,-40.438184,-38.879171,-16.1226,-12.501433,-8.265601,-5.09972,1.220929,8.950352,12.291728,13.56249,14.351228,20.002132,20.203932,19.908395,24.5109,28.250566,25.634449,22.785964,24.762154,50.609379,74.722195,95.731888,51.777134,87.812119,107.403259,122.19532,43.87516,85.235825,107.595406,123.443871,37.131786,74.658051,95.55336,110.591927,32.188396,61.737671,78.066216,89.696503,-16.988835,-17.471415,-10.085633,-6.848244,17.671301,28.837072,32.133618,33.795259,36.330608,47.383067,49.303505,49.021244,47.400851,58.709698,59.164613,56.562945,51.910978,61.210343,61.245664,58.196058,-21.28953,314.889912,-86.849756,284.428495
27,-18.819294,-2.112729,-0.26001,0.211804,8.854408,20.617332,32.461109,41.128178,9.496422,34.787636,53.861675,68.478413,7.516422,38.254852,60.709248,79.784031,7.507439,39.30891,58.942852,74.495029,9.304504,31.510792,47.253056,59.67207,-21.579175,-35.898046,-37.380921,-35.118941,-15.228331,-7.958702,-3.199598,-0.124674,2.84867,13.128693,17.298637,20.14743,16.224056,24.028876,24.693681,24.620075,26.477959,31.909772,29.942528,28.150654,24.935074,50.72216,74.837151,95.822296,51.773129,87.931252,107.489433,122.266502,43.85788,85.49715,107.848778,123.682594,37.127323,74.828796,95.756836,110.865669,32.22353,61.784706,78.190556,89.93557,-16.979634,-17.644192,-10.311948,-6.786494,17.485247,28.571545,32.059085,33.928085,36.222421,47.249624,49.271827,49.067433,47.328295,58.563411,59.167454,56.625437,51.82885,60.968034,61.108455,58.126589,-40.102959,312.782448,-87.103901,284.645564
28,44.949474,-14.525241,0.219212,-0.083301,-0.568657,-2.638092,-7.456741,-9.493504,-28.695889,-20.983257,-1.254158,16.079063,-33.247089,-22.935162,2.522964,27.458496,-36.654854,-24.15556,2.042198,25.446625,-39.451962,-29.377956,-9.547348,7.508011,-26.661543,-36.123188,-33.861332,-27.071257,-13.829128,-4.613373,-0.400884,0.046004,6.208448,18.800036,22.872291,22.082503,23.215438,34.448085,34.070605,31.650235,37.316515,47.550905,43.741769,38.717014,24.90097,50.722446,74.854774,95.993099,52.227173,88.236179,107.641354,122.161274,44.264717,85.706863,107.980442,123.606434,37.272205,74.875603,95.727711,110.682392,31.992702,61.582603,77.955437,89.609585,-17.02039,-17.519765,-9.924526,-6.14676,17.688838,28.766862,32.129604,33.803225,36.310786,47.33836,49.409901,49.258983,47.374793,58.585642,59.157389,56.646926,51.871643,60.924315,60.910853,57.84828,4.849148,298.250754,-86.882057,284.555809
29,-39.970894,5.128557,0.020142,0.028529,6.667442,17.807407,31.945496,42.329178,-0.19392,22.120285,40.913544,54.934616,-1.77515,28.649025,52.528152,72.920723,0.968857,31.940002,55.116577,73.614693,5.617104,29.481583,46.860008,60.512466,-23.950021,-36.712411,-34.808398,-24.991194,-15.303543,-10.538696,-6.277115,-3.32773,4.907737,15.077351,18.972382,20.161139,21.124507,30.258011,29.968463,28.094029,33.736535,41.750009,37.656821,31.894397,24.905376,50.687656,74.807568,95.925694,52.420864,88.492184,107.856846,122.461109,44.370346,85.870228,107.98296,123.558483,37.298069,74.938259,95.631924,110.448933,31.860123,61.341705,77.571316,89.063931,-16.918007,-17.525384,-10.093969,-6.169916,16.796112,28.487688,32.139731,34.081658,35.602879,47.087777,49.264973,49.354696,46.984592,58.649615,59.336465,57.006992,51.813165,61.057634,61.110986,58.209643,-35.111418,303.369199,-86.851587,284.574226
30,36.422882,-3.077517,0.127258,0.095343,2.253342,2.148743,-2.440624,-5.355263,-19.063396,-10.890484,5.212097,19.423141,-23.715534,-13.53796,8.351898,30.172462,-28.200588,-16.150532,6.031723,26.482201,-32.545338,-22.300472,-4.80526,10.212364,-27.441636,-37.974589,-34.771348,-28.571977,-16.629077,-8.930592,-5.892101,-6.007204,4.1035,15.035917,17.672412,17.128453,22.272077,32.630029,31.35371,28.726539,37.557218,47.301742,43.135874,38.191951,24.895935,50.845928,75.014477,95.909443,52.461433,88.672543,108.185978,122.865543,44.353409,86.011906,108.238506,123.70142,37.233982,75.10397,95.806332,110.503178,31.717129,61.486931,77.847061,89.28194,-17.064171,-17.627211,-10.450084,-6.999594,16.434131,28.268104,31.971585,33.928764,35.4364,47.045725,49.140299,49.027419,47.023062,58.693952,59.322139,56.831065,51.975816,61.146925,61.061586,57.927197,1.318188,300.283099,-86.717606,284.660986
31,-37.55888,3.756772,0.219383,0.068111,8.111286,21.217861,34.529514,44.128246,5.922432,26.814823,45.614948,59.979916,3.676357,31.728058,55.45023,75.871296,5.289917,33.370686,56.227741,75.128117,8.434067,31.582718,49.317799,63.778324,-24.525967,-37.150468,-34.675512,-25.516876,-14.426131,-9.010682,-4.570271,-1.468981,5.281636,14.558401,17.861121,18.196673,20.626861,28.404202,27.985719,26.005816,32.532464,39.644753,35.659628,29.744926,24.864807,50.83889,75.198097,96.43507,53.340626,89.452,108.822727,123.371601,45.026493,86.220417,108.199596,123.555737,37.391911,74.826908,95.301189,109.905224,31.286316,60.542278,76.767998,88.171864,-17.008225,-17.689147,-10.786438,-8.008411,16.502983,28.062907,31.72872,33.570735,35.306786,46.729316,48.830373,48.834634,46.772109,58.450408,59.086005,56.691633,51.754626,61.079309,61.01021,57.987589,-36.266642,304.027922,-86.524172,284.717148
32,47.465343,-5.540741,0.66061,0.318138,-1.479263,-4.750099,-11.637669,-14.334927,-24.375858,-19.780369,-5.750084,6.71711,-28.352795,-21.010952,-1.769714,17.802315,-32.195549,-23.310413,-3.930931,13.752365,-35.724621,-28.791847,-13.585739,-0.779114,-26.536252,-36.186606,-33.057466,-26.739534,-16.04745,-7.223007,-3.884101,-4.07034,5.483745,16.444011,18.005247,16.229614,24.021404,34.159278,32.165851,28.735801,38.940798,49.072929,44.622885,39.439803,25.230217,51.119328,75.295372,96.352615,53.209305,89.044189,108.196564,122.560501,45.084572,85.994453,107.419739,122.211113,37.653751,74.949932,94.919014,109.064369,31.63868,60.809097,76.716614,87.832031,-16.76888,-17.951277,-11.262781,-7.661497,15.907091,27.357964,30.828276,32.64133,34.835136,45.994424,48.105423,48.182364,46.549869,57.791593,58.590335,56.408816,51.870778,60.824526,60.544179,57.478518,11.196098,298.462805,-85.866165,285.01091
33,-39.694805,8.898111,0.064144,-0.090773,7.311974,17.501106,25.978718,31.592274,4.738827,24.393883,41.425266,54.160366,1.219082,28.361549,49.191685,67.351856,1.615734,26.866779,46.454258,62.652569,3.506298,25.28183,41.396313,54.25478,-25.485754,-39.708664,-38.797784,-29.888805,-17.784674,-13.571876,-9.284051,-6.137991,1.976384,9.134121,12.974935,13.748112,17.49488,23.069522,23.078784,21.641358,29.583264,34.719601,30.477225,24.529116,25.16161,51.005516,75.017166,96.139355,53.402767,89.130306,108.40868,122.866459,45.353165,86.170177,107.910175,123.077488,37.814598,74.948559,95.231266,109.652081,31.592331,60.673828,76.556568,87.657108,-17.44338,-18.526173,-11.851139,-8.905274,15.569193,26.687972,30.095298,31.952565,34.217138,45.839801,48.115551,48.239298,45.709754,57.447643,58.64801,56.77055,50.867519,60.192634,60.197451,57.257082,-28.505116,307.316193,-85.80843,284.875414
34,15.714684,-8.483889,-0.399456,-1.296388,5.833168,11.914101,13.80621,14.856663,-2.229023,11.996441,26.492329,37.418118,-5.958767,10.146103,29.067478,46.304913,-11.381149,5.910587,26.289196,43.992405,-17.581158,-2.46191,14.165554,27.274876,-26.172665,-36.133686,-35.337414,-31.071758,-16.76783,-8.876004,-5.011169,-4.014827,3.353356,14.033831,18.306218,19.459284,20.726094,30.362616,30.444312,29.786361,35.206812,44.720575,41.850539,38.588573,25.611019,51.906452,75.985165,96.674652,54.212894,89.119148,108.682938,123.553619,45.982761,85.91114,107.866745,123.409081,38.238888,74.362106,94.831123,109.523506,31.724281,60.070381,76.035175,87.75238,-17.084239,-17.762259,-10.98015,-8.032061,15.719123,26.794862,31.251513,34.137789,34.049609,46.988173,50.844919,52.693973,45.271944,58.26843,60.39073,59.544132,50.527336,60.547143,60.902455,58.579961,-12.800245,298.810892,-86.217699,283.557614
35,0.081196,6.889926,-0.919876,0.465351,7.383728,10.548763,13.227081,16.645546,-14.010487,5.26022,23.314476,36.667671,-20.104637,3.896198,25.615654,43.471985,-20.261307,1.544437,23.266983,40.690384,-17.41539,-3.005848,12.176685,25.350609,-20.419997,-33.282361,-36.169625,-33.083895,-14.402728,-9.894454,-3.374228,1.274158,3.47025,12.122285,18.15104,20.557824,18.424223,26.480367,30.080355,30.626352,30.121604,35.667161,36.326965,34.694531,26.051388,51.952744,76.050739,97.285652,54.029331,88.62236,108.046188,122.6334,46.548214,85.025997,106.748886,122.002831,39.583626,74.12178,94.034271,108.106728,33.710976,60.594177,76.696529,89.394722,-17.039594,-19.18153,-13.363345,-10.682019,14.134916,24.765064,29.407337,32.356351,32.58279,47.010095,52.195956,54.524317,43.786106,59.019932,62.695564,62.859758,49.630844,62.337905,64.896719,64.284711,-12.746344,305.673586,-87.164869,283.995733
36,-2.40818,-4.978256,-3.962288,-5.500788,8.489227,14.737186,17.86377,19.609108,-10.536804,9.185371,25.65937,36.930656,-19.120789,4.659977,24.700699,40.947533,-21.367836,0.482883,20.019035,34.029694,-20.53299,-4.561729,10.006428,21.714134,-18.005494,-25.989452,-27.415454,-29.353861,-8.279866,4.390022,10.743892,12.825746,7.540713,21.277031,27.358458,29.052581,20.136007,32.443419,35.200081,35.589541,30.14791,39.405223,39.37126,37.85257,26.79245,54.496536,78.172531,98.265724,54.349422,88.546028,106.853027,120.925484,46.595306,84.134445,105.276604,120.724068,39.280243,72.77544,92.490349,106.367798,32.684155,59.991932,75.854187,88.25037,-16.812229,-17.521803,-11.451676,-11.513364,12.426715,24.634154,30.321243,34.656184,30.468086,45.19173,51.85639,56.046588,41.923713,57.283819,63.184195,65.801363,48.791594,62.421515,66.650616,68.184434,-15.201473,300.71387,-91.174107,278.513485
37,24.737206,-22.359145,-1.610413,-12.180392,-12.380962,-28.773136,-43.330879,-53.25634,-34.139385,-42.86047,-41.605682,-36.855412,-31.490993,-41.740093,-37.525978,-27.331867,-28.951263,-40.401249,-38.215256,-29.960518,-26.86655,-35.755177,-37.972813,-35.559196,22.582496,36.562419,47.344288,53.999747,27.228906,37.933525,37.983049,33.235924,14.690361,25.783761,27.17401,24.035113,1.825466,10.84893,11.078086,9.379826,-11.136008,-9.880189,-10.85918,-11.152804,27.841415,55.7127,76.542835,94.737968,49.567623,84.648743,103.615494,114.901199,42.367458,79.951572,100.807228,112.937393,36.448631,70.337963,89.280453,100.13443,31.315269,58.787041,73.260555,81.181297,-18.552664,-19.702827,-11.59259,-3.956349,4.338028,22.604294,26.987215,28.316084,22.720632,41.788418,47.990815,50.376912,36.650599,55.051542,59.278852,60.095007,47.310387,62.486971,64.530971,63.217911,9.552441,278.338114,-92.767811,266.316482
38,15.797424,2.081545,15.051842,-11.36788,-22.545891,-43.039169,-60.093613,-68.4482,-48.198853,-72.097721,-70.437012,-64.899845,-47.206593,-79.744892,-80.538025,-70.072346,-46.180058,-79.69717,-82.668514,-74.780388,-44.771862,-70.91692,-75.762348,-72.500839,-27.350678,-34.081411,-35.272329,-29.631985,-3.042196,-7.221649,-17.607512,-24.465143,18.490173,13.904587,5.84091,0.590396,33.265441,31.381374,20.098833,11.919806,41.098419,45.804603,37.196287,29.604815,20.40453,39.176502,53.434467,66.206131,32.678032,51.551857,58.178616,58.540306,26.923027,48.622456,52.161884,48.27507,21.561241,39.855881,42.37072,39.761467,17.586594,29.289093,34.176178,35.014915,6.867881,17.22997,29.360098,37.393085,15.94939,36.069712,44.728973,47.464639,17.40423,39.231642,46.697452,47.703367,17.933925,37.40593,42.599448,41.624965,17.717305,30.920037,34.199663,34.151065,25.317936,280.429848,-77.747898,254.958791
39,12.385712,8.151548,-20.673008,-39.266593,-17.562103,-38.111629,-57.869854,-72.323227,-48.700733,-77.923393,-93.481121,-103.583736,-46.17857,-78.851166,-97.11565,-107.970085,-41.689682,-70.862846,-87.454662,-99.887352,-36.543159,-58.990917,-71.158276,-81.949139,-23.817751,-30.673282,-26.06664,-17.378974,-4.388293,1.582663,3.761218,4.808381,12.646855,19.560678,20.605927,19.916113,25.666929,33.401971,35.879212,36.141158,33.849044,42.832988,45.430581,45.539015,25.714016,55.185928,77.306156,85.92144,46.820641,84.697838,77.335224,65.151215,42.934055,86.316319,79.132576,65.529785,38.916264,80.591011,71.522884,57.159233,34.210396,67.430477,62.553692,51.627903,29.554488,40.0352,31.396318,18.190066,19.008382,15.680159,18.915386,20.897821,-4.318515,-8.170444,-2.351023,-0.205073,-24.902459,-26.797518,-17.906199,-13.928732,-41.910252,-43.011323,-33.969828,-29.292358,37.582855,288.530575,-98.541698,215.641377
40,6.789665,-1.955265,-11.560993,-44.861119,-16.117172,-37.270432,-59.238853,-75.024719,-48.167439,-78.89534,-95.337696,-107.607079,-45.969486,-79.979439,-99.195499,-112.921543,-40.632935,-72.244034,-90.56282,-104.144154,-33.494225,-58.912067,-73.291168,-84.943371,-21.913986,-27.119237,-20.796304,-10.600076,0.594409,6.364985,7.867682,8.708228,18.422988,22.548904,22.577556,22.275411,32.025307,38.536086,40.564401,41.831952,41.418286,48.704773,50.638981,51.482059,26.948547,50.215187,68.559437,76.255131,47.431812,73.837624,67.066212,58.522339,42.442303,70.600033,63.52129,53.097324,36.147194,62.518902,56.458797,46.854115,28.594894,50.402184,48.723335,42.168732,20.862191,25.117474,19.848311,13.151726,3.994511,-5.1477,-4.562244,-2.8081,-15.118168,-23.376174,-18.269477,-14.009254,-30.942329,-40.198221,-33.340221,-28.053274,-43.163908,-52.399609,-46.404941,-40.260775,43.921738,287.047655,-110.553474,171.252603
41,4.678802,-0.124674,-7.337723,-38.277537,-17.653198,-40.544014,-63.076286,-79.819508,-52.045097,-83.078499,-99.646912,-112.36599,-49.356136,-83.318768,-102.448311,-117.157631,-43.866119,-75.26619,-94.269962,-109.119244,-36.436958,-62.656803,-77.81805,-90.400887,-22.789792,-27.952806,-21.99068,-13.579163,2.024673,6.504171,6.769389,6.645456,19.884127,21.982467,20.916347,20.323728,32.819109,37.191841,38.700959,39.496181,41.256068,47.536455,49.02816,49.695311,-5.395947,3.355808,17.928886,29.23296,14.394207,33.900719,30.972576,23.786087,28.999214,48.455372,41.819515,33.167839,40.977917,59.916859,52.161369,42.806454,50.497627,67.437687,62.299976,53.447342,-29.837274,-53.35989,-69.814429,-76.358892,-47.206461,-63.929059,-60.353834,-52.622837,-33.148393,-45.669648,-39.780943,-32.587514,-17.311296,-29.037514,-24.292118,-18.047916,-1.474662,-9.728716,-7.168976,-2.442476,48.098917,288.379982,-118.39282,134.432067
42,0.671768,-1.658369,-12.027283,-36.717536,-19.662094,-42.759361,-65.415916,-81.760311,-53.273106,-85.460758,-101.939278,-114.23481,-50.158424,-84.991322,-103.664875,-117.857208,-44.515228,-76.433659,-95.178223,-109.65992,-37.028732,-63.253841,-78.768597,-91.563892,-22.365443,-27.459791,-20.781484,-10.494606,3.495135,8.18971,8.500994,8.496486,21.449376,23.647135,22.874205,22.774293,34.255362,38.672986,40.334752,41.31646,42.423459,48.999322,50.589149,51.243888,-8.438816,-5.049133,4.417019,14.331665,7.397518,22.445698,17.758026,10.919037,20.005531,32.213802,25.522156,19.055271,31.796436,42.737274,36.070518,29.496231,42.800446,57.315559,59.337902,57.860985,-30.137783,-57.068805,-76.425644,-83.968087,-54.625433,-77.840779,-72.682489,-65.62596,-42.996627,-58.297422,-50.491645,-44.384189,-29.942775,-44.317591,-37.347545,-31.639491,-16.482019,-33.505002,-40.508641,-45.715189,48.784075,287.152383,-130.406713,98.145302
43,0.892525,-1.434956,-0.199184,-35.777355,-20.90229,-44.120293,-66.792355,-83.516064,-54.319096,-86.694775,-102.875118,-114.728794,-51.127911,-86.235123,-104.846478,-118.994122,-45.272141,-77.739029,-96.198921,-110.464153,-37.678642,-63.697929,-78.843956,-91.125183,-22.127149,-26.744844,-19.318802,-8.784552,3.946098,9.51049,9.741251,9.287385,22.082441,25.10673,24.373814,24.064012,35.088004,39.928681,41.373023,42.178681,43.432276,50.312754,51.499535,51.81298,22.266598,34.392128,40.6073,40.689869,6.40543,2.500706,5.908184,8.207874,-2.813702,-7.094307,-3.371029,-1.557941,-9.836712,-12.776127,-9.021263,-6.89558,-15.447979,-18.560486,-16.84021,-16.099148,-20.286523,-42.362573,-59.002704,-71.503457,-72.104011,-97.103326,-102.61739,-97.985492,-70.390931,-96.678143,-101.818834,-98.71319,-64.851796,-88.702522,-95.087483,-93.342386,-56.002684,-73.974431,-82.61532,-85.937307,48.884554,285.91367,-131.397943,62.56419
44,1.091995,-1.176901,-12.106991,-37.501519,-21.641693,-45.185623,-68.013268,-84.710197,-55.259056,-87.449856,-103.471012,-115.345173,-52.080917,-87.097378,-105.383892,-119.465389,-46.180801,-78.783703,-97.120171,-111.39101,-38.490601,-64.322262,-79.438992,-91.824303,-22.044959,-26.621097,-18.922673,-8.462029,4.747989,10.411675,11.020411,11.019114,22.858088,25.862369,25.303034,25.036149,35.654441,40.248116,41.507577,42.020044,43.794751,50.785638,52.045841,52.179777,-9.789906,-9.077682,-2.873554,4.092808,-10.345974,-7.241535,-8.078556,-7.892361,-0.219669,0.801029,-3.063412,-4.644871,10.383968,14.003792,10.08791,8.466339,21.825027,27.76886,26.642933,25.321426,-25.792993,-50.257302,-68.408156,-81.656182,-70.46179,-91.411883,-90.115278,-82.833052,-66.437145,-89.072252,-87.576503,-81.706694,-58.39616,-79.719133,-77.105856,-71.153672,-49.546709,-65.716023,-68.694956,-69.278466,48.279133,287.273584,-145.202351,27.599486
45,1.540833,-0.469735,-13.974953,-5.556889,-21.628075,-45.509377,-68.793468,-85.960693,-56.362038,-88.315315,-104.478607,-116.546631,-53.352928,-88.045292,-106.463299,-120.611515,-47.682037,-79.994774,-98.502502,-112.808876,-40.141296,-65.560913,-80.713234,-93.237362,-21.762327,-26.701434,-19.595258,-8.783626,4.641099,10.866838,11.654217,11.574188,22.783617,26.070653,25.208432,24.434453,35.638324,40.183587,41.257612,41.530919,43.900035,51.128538,52.475562,52.491555,-12.516689,-13.644676,-9.568005,-4.548283,-14.250755,-6.45853,-2.382202,-1.490192,0.358143,9.97015,12.570305,10.007515,16.354694,25.135975,23.667927,19.595833,31.936626,40.733414,43.412189,43.453217,-32.574732,-60.622726,-86.405869,-104.052192,-53.735919,-88.347025,-96.569802,-98.001485,-48.946742,-87.470385,-85.947311,-79.570408,-44.90456,-79.816699,-76.508699,-69.014051,-42.68525,-72.829764,-90.4847,-105.533646,45.369415,288.899935,-163.627853,24.138684
46,0.8424,-1.323435,-3.285255,-32.086224,-22.097282,-46.330833,-69.818745,-86.826954,-56.965542,-89.033089,-105.223389,-117.200146,-53.62381,-88.793507,-107.340946,-121.551361,-47.696686,-80.626831,-99.300385,-113.70306,-40.079956,-66.260147,-81.831722,-94.852123,-21.702306,-26.013164,-18.348641,-7.802041,4.95121,11.840147,12.805121,12.56059,23.197283,26.954858,26.326918,25.539538,36.089534,41.029258,42.269269,42.599633,44.373908,51.473353,52.933565,53.213912,-16.811886,-22.137165,-14.414463,-2.894783,-23.968506,-13.189259,-7.985401,-9.162884,-8.314705,5.965061,9.765072,7.37114,8.863678,19.956207,22.537193,20.153847,26.495705,33.078976,38.297596,40.372639,-29.018309,-60.868863,-85.672522,-92.826338,-55.909688,-99.732627,-85.557357,-72.328258,-46.182608,-88.978145,-76.375287,-64.366252,-38.376739,-78.138323,-67.731433,-57.040924,-33.627453,-68.648304,-86.367893,-97.619466,42.459869,288.273184,-170.665054,-7.250857
47,1.499634,0.197416,-3.527699,-3.580227,-22.084351,-46.712151,-70.545616,-87.506905,-57.280369,-90.210743,-106.418495,-118.229027,-54.040718,-89.96664,-108.510761,-122.548313,-48.285484,-81.86388,-100.611076,-114.927464,-41.069527,-67.62228,-83.096695,-95.921688,-21.77795,-26.185694,-18.808805,-8.252572,4.661786,11.273896,12.024905,11.725106,23.050379,26.493767,25.691197,24.763274,36.021856,40.782319,41.992627,42.289893,44.394779,51.558877,53.154322,53.59627,-16.905899,-23.538265,-22.190838,-16.033058,-28.680668,-15.47533,-8.997231,-9.889812,-11.709023,3.295097,7.488384,5.907555,7.218018,19.193859,20.885582,18.441696,25.857754,30.06752,31.933022,33.053799,-28.298701,-60.87791,-88.342949,-104.55765,-57.286073,-99.361229,-88.019717,-77.17477,-49.004571,-89.09087,-77.482966,-67.484432,-42.81647,-78.66632,-69.082563,-59.097614,-40.149902,-72.322515,-91.87921,-107.948365,39.906006,288.585981,-178.24625,-10.715703
48,1.420898,0.006978,-2.125511,0.031647,-21.764946,-46.707916,-70.878067,-88.35474,-57.989273,-90.917645,-107.155952,-119.036865,-54.966316,-90.993862,-109.622097,-123.726597,-49.377365,-82.960453,-101.902657,-116.389961,-42.132568,-68.518581,-84.106979,-97.127895,-21.87848,-25.984882,-18.239034,-8.039348,4.783372,11.094079,11.713868,11.344724,22.968189,26.48222,25.711698,24.813662,35.796776,40.828014,42.275444,42.804459,43.979323,51.467425,53.294681,53.924906,-18.761959,-25.730267,-26.527634,-25.629616,-30.393505,-17.77216,-10.975113,-11.432648,-13.359432,0.795307,5.407677,4.051666,5.584087,15.822487,19.273453,18.565178,24.149666,26.694374,28.042717,28.55999,-27.571065,-59.531967,-86.707582,-103.039177,-57.307068,-98.887666,-88.59662,-77.444001,-49.963586,-91.439115,-80.144779,-69.562487,-44.591609,-81.856501,-72.518171,-62.323394,-42.234904,-75.424547,-95.147968,-110.638398,39.654121,288.918831,-182.044544,-10.358184
49,1.205063,0.538896,0.202503,2.547081,-21.431007,-46.979141,-71.92503,-89.078121,-58.785095,-92.437935,-109.090805,-121.071053,-55.618629,-92.371273,-111.407604,-125.825787,-49.933548,-84.17347,-103.444061,-118.095303,-42.568016,-69.548492,-85.343456,-98.554001,-22.423489,-26.949609,-19.765936,-9.121524,4.046072,10.630766,11.77778,11.861451,22.341917,26.09523,25.565165,24.834719,35.262141,40.337407,41.695051,42.13138,43.544538,50.909263,52.703297,53.348033,-19.320145,-28.126087,-29.040413,-26.379719,-33.616447,-19.571571,-12.686291,-13.533268,-17.451267,-1.736355,3.164463,1.353607,1.491909,12.819557,17.171345,16.324139,20.102005,23.383026,25.454235,25.956287,-26.691276,-58.432223,-86.236859,-101.413072,-53.53452,-97.155937,-85.681383,-74.088113,-46.294346,-90.870671,-79.571149,-68.427546,-41.606995,-81.567601,-72.25073,-61.609436,-40.291248,-74.402855,-94.408198,-109.458194,39.201794,289.713651,-183.499432,-7.555178
50,0.982704,-0.165676,0.084915,5.793022,-22.237816,-47.305527,-72.135201,-89.390945,-59.145298,-92.893696,-109.458275,-121.512337,-55.924988,-93.181286,-112.091045,-126.547279,-50.311775,-85.105762,-104.126816,-118.631287,-43.375626,-70.786457,-86.386929,-99.343586,-22.104486,-26.386816,-19.386418,-9.131898,3.989571,9.796579,10.872519,11.076418,22.342905,25.594373,25.121179,24.563141,35.285544,40.167531,41.450335,41.916303,43.528977,50.885859,52.431966,52.914731,-20.426788,-31.958027,-33.692551,-29.935856,-33.942947,-23.877697,-16.738586,-17.337284,-16.667919,-4.660606,-0.164738,-2.494984,2.153492,9.991035,13.436451,11.805954,19.639149,20.806046,22.019176,21.895123,-23.416497,-53.16516,-81.642227,-97.830529,-48.040925,-92.717719,-81.069214,-70.19793,-41.981357,-86.60804,-74.580172,-64.572004,-38.799111,-78.768332,-69.160369,-59.1359,-38.823626,-73.293725,-92.78972,-106.731265,40.171537,289.714207,-183.427477,-1.595924
51,0.944939,-0.005311,-1.14006,5.957649,-21.994057,-47.535896,-72.493858,-90.282154,-59.48307,-93.364563,-110.077972,-122.288189,-56.163483,-93.56884,-112.643166,-127.072449,-50.458145,-85.497723,-104.789371,-119.364567,-43.44326,-70.993996,-86.621075,-99.56789,-21.778815,-25.903866,-19.12824,-9.643438,3.768257,10.108048,11.41938,11.629826,21.982653,25.882068,25.687677,25.234862,34.906273,40.338086,41.697151,42.239628,43.15798,50.69468,52.267154,52.808644,-19.514065,-31.263885,-33.554363,-30.106945,-32.972889,-24.051762,-16.387196,-16.197109,-16.229267,-5.281219,-0.351562,-1.934967,2.077732,8.797417,12.815323,12.157516,19.174461,19.96851,21.308384,21.549511,-22.900912,-52.430638,-80.627667,-96.514412,-44.940221,-89.72622,-78.632944,-67.812728,-38.045818,-84.719836,-73.573455,-63.537469,-34.521012,-76.489927,-67.99591,-58.434631,-34.758288,-69.582124,-89.634984,-103.996802,39.558907,289.819029,-186.125107,4.471857
52,0.328102,-0.368465,-2.030296,1.427947,-22.275352,-47.671623,-72.4193,-89.849339,-59.795322,-93.825989,-110.571442,-122.763805,-56.368904,-93.850651,-113.042622,-127.797604,-50.557365,-85.620461,-105.021172,-119.928074,-43.324242,-70.846825,-86.625881,-99.958649,-21.654079,-25.687554,-18.957253,-9.391188,3.655501,10.243838,11.513611,11.523985,21.917012,25.704967,25.404366,24.974398,34.94073,40.204396,41.655531,42.35646,43.293399,50.705425,52.390593,53.108195,-19.523907,-32.107601,-35.059032,-31.600742,-34.654999,-25.727978,-17.097874,-16.537228,-17.727757,-7.521057,-1.693954,-3.140945,0.921021,7.741985,11.987514,11.607342,18.728771,19.120789,19.364319,19.130516,-20.426017,-50.390775,-79.044356,-95.030241,-42.488205,-86.961314,-75.923644,-65.156935,-36.223872,-82.399503,-70.843222,-60.282111,-33.179484,-73.873222,-65.04668,-54.858387,-34.119233,-67.84666,-87.453959,-101.652417,39.679499,289.440205,-188.362913,5.889446
53,0.406723,0.075459,-1.055088,-1.215804,-22.459717,-47.684441,-72.554798,-90.284443,-60.348129,-94.24427,-110.828533,-122.864914,-57.076263,-94.249306,-113.459759,-128.142586,-51.319771,-86.085091,-105.447178,-120.276375,-43.96122,-71.220131,-86.882572,-100.095119,-21.566949,-25.819453,-19.024561,-9.344875,3.383984,10.174801,11.487861,11.452911,21.676988,25.501623,25.123402,24.569686,34.74776,40.093987,41.51616,42.150214,43.123709,50.631756,52.434436,53.254914,-20.111504,-32.592487,-36.065254,-32.776508,-33.78788,-26.729565,-18.257275,-17.527599,-16.811886,-8.083248,-3.277473,-4.946136,1.620884,7.480087,11.057396,11.283932,19.164562,19.159069,18.102379,17.235432,-20.532074,-49.540194,-77.722866,-93.591858,-41.627219,-84.488396,-75.064295,-64.759787,-36.10633,-82.058857,-71.802144,-60.321878,-33.912215,-74.826741,-66.826697,-55.786032,-35.582347,-68.868598,-87.977819,-101.672486,39.79517,289.470447,-189.709053,4.628425
54,-0.05722,0.055575,0.80595,-8.261248,-22.539139,-47.733879,-72.719421,-90.816078,-60.187397,-94.193687,-110.898056,-122.935009,-57.075348,-94.492092,-113.527393,-127.926235,-51.529999,-86.642246,-105.925713,-120.468807,-44.407196,-71.743526,-87.436008,-100.552711,-21.582386,-25.673598,-18.561433,-9.088796,3.779496,10.357026,11.552699,11.484095,22.155554,25.719788,25.067394,24.308791,35.069479,39.904536,41.01839,41.508503,43.286854,50.407788,52.026513,52.722317,-22.569637,-34.513378,-39.730167,-40.395184,-32.863998,-27.852974,-21.273079,-20.440292,-16.388397,-11.437454,-8.047256,-9.015427,1.404476,4.159298,5.768795,5.451393,18.330345,17.823887,16.115398,14.690838,-23.419183,-50.365612,-76.45337,-95.064574,-42.704269,-83.590143,-77.714622,-67.98742,-37.840899,-81.836833,-74.243539,-63.727413,-35.862849,-76.312857,-69.743818,-59.730278,-37.688036,-72.328937,-90.088664,-104.290086,39.133158,289.52417,-189.507895,-3.634676
55,-0.713882,-0.231255,0.057621,-9.945954,-22.925606,-48.014374,-72.827454,-90.999355,-60.216694,-94.299889,-110.923004,-122.989712,-57.067795,-94.574375,-113.525963,-127.849503,-51.462708,-86.367359,-105.360489,-119.731922,-44.392204,-71.607399,-87.088737,-99.997101,-21.654017,-25.980868,-19.146703,-9.673881,3.812223,10.510785,11.642917,11.515773,22.136411,26.345937,26.082633,25.644884,35.107517,40.712788,42.306195,43.078631,43.403809,50.748341,52.459507,53.229781,-23.766289,-34.829979,-41.139221,-41.028614,-30.60585,-33.010826,-29.278679,-25.526505,-15.542049,-14.662399,-12.91769,-12.398815,1.10733,1.668777,0.515213,0.221214,17.154751,16.781044,14.682541,12.815609,-27.261263,-51.948121,-76.278771,-96.322399,-46.246458,-78.066816,-84.550918,-82.98959,-44.5084,-82.609516,-84.77183,-79.104161,-44.082291,-81.545865,-81.842761,-75.87199,-45.91245,-79.588006,-98.060766,-112.823653,38.396387,289.158716,-189.473162,-13.714828
56,-0.68367,0.677526,-2.492352,-31.091147,-23.392296,-48.378983,-72.876549,-90.892696,-60.750732,-94.759712,-111.352215,-123.459721,-57.564926,-94.967365,-113.846169,-128.437786,-51.984215,-86.80933,-105.664845,-120.093727,-44.949303,-72.083588,-87.542439,-100.635509,-22.09757,-26.724282,-19.769333,-10.706966,2.964082,9.670362,10.829108,10.711659,21.195458,24.840709,24.429574,24.065432,34.141124,38.840577,40.107881,40.734092,42.611181,49.376679,50.920748,51.669534,-23.034954,-35.252666,-38.439102,-37.741127,-36.702862,-28.910179,-22.728252,-22.256927,-19.359913,-9.731083,-6.304722,-7.752171,-0.430927,5.312176,8.096981,7.763901,17.573147,16.431484,14.821587,11.574154,-21.722035,-51.582342,-78.54285,-92.627223,-46.008719,-90.716851,-77.941895,-65.2093,-39.095822,-85.395046,-74.051712,-63.374386,-35.048669,-77.62953,-67.985814,-57.334764,-35.171491,-71.899586,-92.092094,-106.768624,37.330914,289.756367,-192.347317,-44.88585
57,-0.434761,0.00599,0.945683,-11.524943,-23.253479,-48.279419,-73.170891,-91.061897,-60.536785,-94.961472,-111.763115,-124.181156,-57.545013,-95.335064,-114.056511,-128.437901,-52.250519,-87.268295,-105.869064,-119.877777,-45.544281,-72.753811,-87.996426,-100.678139,-22.157468,-26.830863,-20.164659,-10.793972,2.926784,9.172777,10.613167,11.178677,21.287961,24.542269,24.098654,23.892222,34.31211,38.836007,39.805489,40.337469,42.664039,49.320733,50.720615,51.430374,-22.161942,-33.50235,-39.403553,-40.919209,-30.909863,-25.296593,-19.588108,-18.766479,-16.41283,-10.416355,-6.738453,-8.414783,-0.091152,4.553432,6.820908,6.159554,16.843872,17.9496,17.038536,15.124283,-30.184559,-56.391711,-81.907198,-103.006372,-57.844421,-91.352849,-88.470294,-79.913555,-54.32653,-92.011973,-87.233927,-76.834679,-51.306225,-88.348661,-83.518852,-73.510099,-51.009792,-84.718725,-104.105946,-120.086273,35.846558,289.459873,-192.451229,-56.713277
58,-0.692596,-0.46319,-0.824833,-33.19838,-23.535004,-48.666229,-73.599129,-92.01685,-60.304012,-94.851494,-111.716366,-124.132633,-57.302971,-95.213127,-114.11293,-128.774872,-52.037773,-87.064877,-105.847092,-120.062428,-45.356941,-72.402534,-87.770519,-100.672932,-22.065892,-26.505253,-19.306019,-10.617551,3.072083,9.529262,10.821513,11.209244,21.354219,24.890541,24.525596,24.397217,34.341257,39.03367,40.133075,40.80424,42.674475,49.47937,51.046966,51.877324,-23.03318,-35.252609,-37.758579,-32.590942,-34.211369,-26.918564,-21.456299,-20.881691,-17.032127,-8.003998,-4.754734,-5.43829,1.257877,6.59111,9.126949,9.356403,18.37429,17.167053,16.041813,13.205223,-26.704213,-55.337323,-83.54204,-98.327142,-53.623255,-97.8062,-85.176372,-72.360846,-48.312256,-93.864208,-80.941174,-68.384228,-44.954979,-85.939191,-74.314166,-62.649004,-44.082261,-80.102171,-100.604296,-115.530482,33.638163,289.019839,-194.791861,-89.8885
59,-1.927528,-0.210445,0.244217,-27.589961,-22.590523,-47.181129,-71.932297,-90.232258,-60.006523,-95.081863,-111.524391,-123.383789,-57.2925,-95.284367,-113.658371,-127.619762,-52.018433,-86.880798,-105.272541,-119.320335,-45.213089,-72.140007,-87.330093,-100.158978,-21.800365,-26.470055,-19.749758,-10.557283,3.353974,9.44065,10.55506,10.870481,21.630552,25.088204,24.428216,23.977067,34.634448,39.308336,40.369641,40.980105,42.980201,49.78028,51.386285,52.233377,-23.036728,-34.71817,-34.962902,-28.101883,-35.189209,-26.88549,-21.569881,-21.695824,-17.618408,-8.11655,-5.506325,-7.18317,1.116772,6.679859,9.538708,9.478912,18.383503,17.08952,16.959114,15.401115,-23.614917,-52.043278,-79.808317,-93.379729,-51.911348,-93.964907,-82.257801,-70.748389,-47.712042,-90.958326,-79.312059,-66.876684,-45.143596,-84.031335,-73.038264,-61.192343,-45.069958,-79.811234,-99.82215,-114.105221,30.9167,288.295445,-195.341578,-117.992409
60,-0.066261,0.319435,1.704483,-9.68583,-23.119812,-47.93026,-72.829914,-90.636864,-60.683956,-95.390453,-111.695538,-123.423958,-57.985668,-95.364132,-113.52911,-127.31432,-52.727737,-87.355042,-105.42429,-119.125042,-46.233788,-72.98893,-87.681141,-99.778576,-22.281895,-27.235019,-20.717819,-10.879373,2.541956,9.266761,10.730122,11.244194,20.9161,24.778403,24.262787,23.834609,34.12229,38.81952,39.54305,39.849332,42.785131,49.211373,50.20784,50.491398,-22.44009,-32.316399,-34.486256,-32.034187,-31.817036,-24.845695,-18.226147,-17.46563,-15.813389,-8.430176,-4.534092,-6.542072,2.140388,7.032051,10.49263,10.033779,20.243797,18.36462,16.545067,14.315357,-28.606619,-55.47728,-82.29462,-101.310289,-61.490921,-94.573411,-87.243699,-76.476311,-58.61397,-94.649194,-85.537489,-74.740707,-55.577671,-90.337549,-81.580507,-70.803841,-54.112318,-87.800626,-106.655929,-123.259133,29.75853,288.01533,-194.729004,-128.27779
61,-1.078033,-0.71544,1.547413,-10.13809,-22.703247,-47.461967,-72.274361,-90.006351,-61.17136,-95.153561,-111.508999,-123.135796,-58.301754,-95.325451,-113.723488,-127.440605,-52.808647,-87.00119,-105.016537,-118.407726,-45.979958,-72.600231,-87.356014,-99.400063,-21.316674,-26.292337,-20.211466,-10.415257,2.414194,9.455038,11.187569,11.707755,20.239315,24.802917,24.871646,24.814588,33.382334,39.003907,40.334505,40.987392,42.154474,49.024825,50.367341,50.735806,-23.013725,-31.187267,-31.988297,-29.604549,-34.235401,-29.254475,-23.104935,-20.952129,-18.014488,-12.655277,-8.631592,-9.285278,0.398426,4.979267,8.294678,8.544788,19.041939,18.313866,16.105328,13.246307,-29.175912,-55.385936,-79.5077,-96.296973,-63.714785,-94.64427,-91.68343,-83.990564,-61.526829,-97.024301,-88.811557,-78.894796,-59.390558,-93.000011,-83.723864,-73.186557,-58.56724,-92.60277,-112.296135,-130.169189,27.985897,286.740554,-193.87619,-138.975215
62,-0.363922,-0.360993,-1.514568,-9.575127,-23.230247,-48.162575,-72.979145,-91.281452,-61.043472,-95.360413,-111.885052,-123.667889,-58.044434,-95.371399,-113.676109,-127.342358,-52.571983,-87.244377,-105.276146,-118.61166,-45.912323,-72.883701,-87.850685,-100.099468,-21.310376,-25.600795,-18.822884,-9.762431,3.066896,10.197772,11.893685,12.293025,21.213984,25.77209,25.74455,25.417828,34.341257,39.788569,40.87797,41.255883,42.841633,49.432069,50.760135,51.112545,-22.225456,-30.138474,-31.343651,-30.049438,-34.586334,-25.088367,-18.497143,-17.898617,-18.324738,-9.608517,-4.963303,-6.545334,0.481739,6.214485,9.613781,8.487968,19.906025,19.629593,18.131676,15.017395,-28.171418,-56.069482,-81.01952,-98.327528,-63.908728,-96.364914,-88.613817,-77.955403,-61.251638,-96.353907,-86.167853,-75.414126,-58.308768,-92.675373,-82.611044,-71.242145,-56.776849,-90.00527,-108.980585,-126.354172,27.16733,285.807675,-195.845404,-149.122228
63,-0.469894,0.548838,-0.382118,-5.722642,-22.777061,-47.616119,-72.47612,-90.547142,-61.105843,-95.441608,-112.00985,-123.872795,-58.444977,-95.638504,-114.031563,-127.767048,-53.161697,-87.724056,-105.794563,-119.211845,-46.582947,-73.575268,-88.529835,-100.714531,-21.843776,-26.55348,-20.184542,-10.66936,2.277664,9.035197,10.713635,11.184111,20.409437,24.694731,24.386164,23.932669,33.67182,38.848728,39.765351,40.039708,42.50744,49.124305,50.26854,50.487507,-21.28006,-29.53331,-29.581661,-27.353668,-35.972557,-26.883774,-18.964405,-17.939358,-17.854729,-9.310856,-3.346367,-4.111176,1.809654,7.169666,11.203594,10.357533,20.70116,19.323292,18.156395,15.648651,-25.211396,-51.928762,-75.942525,-91.80159,-58.877829,-95.237707,-85.562328,-73.64737,-56.297418,-93.683758,-83.001044,-72.368087,-53.462997,-87.813995,-77.836024,-67.002285,-52.109119,-84.435368,-104.078868,-121.391368,26.175814,285.908221,-196.749144,-155.293163
64,-0.010071,6.2e-05,-0.657749,1.31868,-22.993011,-47.653313,-72.480412,-91.064186,-61.305313,-95.923862,-112.374172,-123.991528,-58.647938,-96.184216,-114.731483,-128.657455,-53.384056,-88.148575,-106.625404,-120.226822,-46.743851,-73.628483,-88.775425,-101.157074,-21.686498,-26.448875,-20.173921,-11.060363,2.450442,8.981597,10.275392,10.488246,20.461802,24.373814,23.806019,23.234457,33.634647,38.56023,39.347795,39.525759,42.31552,48.925654,50.14646,50.326215,-20.119228,-27.866707,-26.657295,-23.583527,-36.694221,-26.133442,-18.39426,-18.179855,-19.088573,-8.141613,-2.091465,-3.302135,0.293083,8.025112,13.808899,13.664131,19.457417,17.86005,18.135395,17.474613,-23.34357,-49.571965,-72.413303,-86.457694,-57.841534,-95.521867,-85.897417,-74.352621,-54.815038,-93.231683,-82.586452,-71.525749,-52.191201,-87.22468,-77.523644,-66.710823,-51.351056,-84.743672,-105.00037,-121.106251,25.905333,285.827111,-197.667303,-154.055653
65,0.062828,-0.22261,0.682011,3.202685,-23.297653,-47.911034,-72.724686,-91.242828,-61.319103,-95.969238,-112.25956,-123.61599,-58.643818,-96.445599,-115.16098,-129.112644,-53.263893,-88.20322,-106.667576,-120.212402,-46.54129,-73.522739,-88.592319,-100.943413,-21.424985,-26.174826,-19.80453,-10.625579,2.747152,9.514874,10.996884,11.32978,20.803837,24.812983,24.526523,24.134346,34.063318,39.216328,40.215697,40.500984,42.787787,49.441579,50.754701,50.961689,-22.957592,-32.690964,-32.869778,-29.420242,-35.735893,-26.530666,-20.32196,-20.720444,-17.828751,-8.412609,-4.190769,-4.846516,1.334553,7.754116,11.443291,11.595268,19.363976,17.407093,16.789284,16.379185,-25.174748,-53.15741,-79.54279,-94.999968,-56.536948,-94.953454,-85.4668,-74.480306,-53.106636,-92.164049,-81.976883,-71.239104,-50.69522,-85.933448,-77.252452,-67.101116,-50.208118,-82.79682,-102.283599,-116.954292,25.752182,285.673631,-197.201271,-150.783839
66,-0.060539,0.065394,-1.089077,3.250866,-23.675766,-48.450966,-73.342953,-92.17392,-61.80027,-96.173687,-112.706451,-124.326267,-58.996868,-96.455097,-115.076122,-129.123344,-53.613968,-88.493214,-106.892395,-120.506001,-46.924667,-74.235764,-89.379616,-101.67366,-21.854953,-26.290917,-19.527333,-10.581921,2.882324,9.696729,11.268524,11.719611,21.153221,24.855405,24.420559,24.069631,34.390966,39.020579,39.833832,40.054219,43.039605,49.433304,50.602795,50.805337,-22.562256,-31.893997,-32.630367,-31.034832,-34.176579,-25.846252,-19.696712,-19.76429,-16.594963,-8.322144,-4.052181,-4.283295,2.285328,7.393112,11.464806,12.12862,20.108986,17.402,16.660252,15.990486,-25.171274,-53.473387,-79.505817,-95.506244,-56.098119,-95.022074,-85.68816,-73.818974,-53.019413,-92.453442,-81.8632,-70.61473,-50.940153,-86.64154,-77.48539,-66.972845,-50.578142,-82.906983,-102.466735,-117.507391,25.575142,285.871788,-198.406849,-147.400209
67,-0.547142,-0.097813,-0.080338,0.746686,-23.372726,-48.300476,-73.389988,-92.252998,-61.926441,-96.127911,-112.63979,-124.43779,-59.060326,-96.494236,-114.966145,-128.891201,-53.472576,-88.318233,-106.639824,-120.295601,-46.570015,-74.135571,-89.256363,-101.604652,-21.916147,-26.347481,-19.652316,-10.489789,2.707138,9.371798,11.018188,11.544301,21.254986,25.089439,24.742834,24.391907,34.721948,39.700204,40.630536,40.850676,43.475316,50.10484,51.225363,51.304898,-21.768665,-30.816422,-31.221485,-28.758144,-35.584545,-26.71629,-20.136166,-19.975376,-18.681335,-9.676609,-4.441051,-4.873409,-0.008755,5.916996,10.54882,10.951996,18.401756,16.964664,16.886215,16.46347,-24.297475,-52.22731,-77.740249,-93.803075,-55.412041,-94.260151,-85.290796,-73.857769,-52.263017,-92.656663,-81.809092,-70.345467,-49.908319,-86.781019,-77.232661,-66.420688,-49.565929,-82.491773,-102.504804,-118.484637,25.039501,286.15002,-198.475685,-146.277479
68,-0.407524,-0.110842,-1.007309,-0.517607,-23.939552,-48.867302,-73.912926,-92.732334,-62.052841,-96.244698,-112.559795,-124.235973,-59.189816,-96.648216,-115.042191,-128.894463,-53.645325,-88.372879,-106.583576,-120.169373,-46.784248,-74.133739,-89.156113,-101.341782,-21.825992,-26.181804,-19.429458,-10.035553,2.683241,9.539327,11.163363,11.654341,21.168659,25.36886,24.987366,24.539243,34.602646,39.873291,40.72557,40.830237,43.341009,50.098047,51.083522,50.977188,-22.081261,-31.205521,-30.493984,-26.381607,-35.231667,-26.868725,-20.104752,-20.25713,-17.524624,-9.094105,-3.725681,-4.239693,1.555367,7.330513,11.622677,11.891098,19.877186,18.134422,17.654915,17.394333,-25.029418,-53.040347,-78.926953,-93.812909,-55.828331,-93.667394,-84.006001,-73.001461,-52.247795,-91.48109,-80.791553,-69.650914,-49.624113,-85.427496,-76.017135,-65.487825,-48.96309,-81.602614,-102.086692,-118.604865,24.677839,286.271931,-199.437132,-146.562334
69,-0.045319,-0.054155,-0.282726,-0.937495,-24.079857,-49.300575,-74.401016,-93.022785,-62.676487,-96.431179,-112.451305,-123.832512,-59.717617,-96.691589,-114.880543,-128.636341,-54.092731,-88.437824,-106.408367,-119.904728,-47.138557,-74.099121,-88.888092,-101.016712,-21.641852,-26.093316,-19.60378,-10.578587,2.758576,9.764407,11.32058,11.577214,21.170696,25.503846,25.279198,24.8023,34.485629,39.970424,41.055255,41.206482,43.124512,49.984056,51.197452,51.253706,-21.782913,-31.113682,-31.400928,-29.666805,-35.87986,-25.576344,-18.706856,-19.331989,-18.257961,-7.833939,-2.16568,-3.199482,1.024132,8.064079,12.886734,13.122196,20.027905,18.357639,17.89793,17.454643,-24.59715,-52.865006,-79.076312,-95.464454,-56.183813,-93.701063,-83.584864,-72.412995,-52.457345,-91.392802,-80.621245,-69.622632,-49.535918,-84.727447,-75.015913,-64.421766,-48.65721,-81.363038,-101.827834,-118.623406,24.994698,286.312238,-199.357681,-147.405366
70,-0.292397,-0.071013,-0.182476,-0.571886,-23.547821,-48.785477,-74.102383,-92.518845,-62.492752,-96.461563,-112.554703,-124.002171,-59.691868,-96.925964,-115.264606,-129.071217,-54.140682,-88.440971,-106.468334,-120.020199,-47.249451,-74.441471,-89.330235,-101.676292,-21.724783,-26.206381,-19.424765,-9.941261,2.574436,9.508514,11.125016,11.553996,21.157914,25.424003,25.422336,25.171506,34.581157,40.073177,41.267739,41.50875,43.265858,50.113485,51.534177,51.816994,-21.754818,-30.633831,-30.389614,-28.639641,-35.401611,-25.393867,-18.802986,-19.392986,-18.036919,-8.157749,-2.69228,-3.403416,1.039352,7.982254,12.845535,13.263645,19.715309,18.52272,18.457317,18.46384,-24.225042,-52.163414,-78.09607,-93.750108,-56.212064,-93.339406,-83.359212,-72.451589,-52.554633,-91.173804,-80.228096,-69.452031,-49.728332,-84.831512,-74.981194,-64.576389,-48.822392,-81.424402,-101.909453,-118.912182,24.987173,286.234788,-199.255285,-147.983689
71,0.025635,0.372046,0.01894,-1.141132,-23.796272,-48.92601,-74.183693,-92.510319,-62.710533,-96.45813,-112.613583,-123.880863,-59.880295,-97.040749,-115.234966,-128.67691,-54.397602,-88.725414,-106.578197,-119.717445,-47.721062,-75.046406,-89.82336,-101.736088,-21.590229,-26.320125,-19.721229,-10.213642,2.821932,9.331599,10.738397,10.992932,21.552191,25.470686,25.152301,24.627238,35.013533,40.281214,41.097801,40.995234,43.723799,50.545244,51.644401,51.50713,-21.164703,-30.146542,-30.391273,-27.852287,-35.736237,-25.742455,-18.618622,-18.869877,-18.347454,-8.114147,-2.046547,-3.017235,0.729332,7.995415,13.442402,13.700237,19.481907,18.266945,18.409996,18.199368,-24.024337,-51.494178,-77.031694,-93.074173,-56.257867,-93.003731,-83.591394,-72.94692,-52.662774,-91.04913,-80.168923,-69.515542,-49.661765,-84.371039,-74.427555,-64.039299,-48.588991,-81.619055,-101.957896,-119.011538,25.214396,286.582504,-199.034758,-149.149151
72,-0.11776,-0.156043,0.340576,-0.872364,-23.829689,-48.750801,-73.985424,-92.751045,-62.472668,-96.495781,-112.815514,-124.226246,-59.817581,-97.129269,-115.387974,-129.024467,-54.469814,-89.138832,-107.190113,-120.555611,-47.911263,-75.355053,-90.277405,-102.259369,-21.724165,-26.353409,-19.640151,-10.271872,3.225348,9.524013,10.448787,10.414145,21.907255,25.343728,24.266121,23.263541,35.267204,39.998335,40.271149,39.79635,43.780733,50.803237,51.790009,51.46304,-21.500931,-30.752678,-30.578728,-27.677536,-36.210537,-25.820274,-18.946495,-19.564362,-18.521633,-8.050575,-2.35033,-3.383617,0.811157,8.210392,13.538818,13.870525,19.644241,18.101063,17.899132,17.624817,-23.422564,-51.273822,-77.100499,-92.728108,-56.483781,-93.233257,-83.945733,-73.483716,-52.490752,-90.709889,-79.955638,-69.589797,-49.274945,-83.588476,-73.666435,-63.502287,-48.116014,-80.962169,-101.097944,-117.840056,25.126448,286.397793,-198.66437,-150.050182
73,-0.329933,0.343765,1.142006,0.131482,-23.329124,-48.869934,-74.517345,-92.93169,-62.574806,-96.852322,-113.357162,-124.825058,-59.795322,-97.274609,-115.715904,-129.310226,-54.298267,-88.849983,-106.881351,-120.017166,-47.480621,-74.663773,-89.454975,-101.318321,-21.948566,-26.462707,-19.390617,-9.576377,2.554121,9.4664,10.863935,11.229992,21.407262,25.306924,24.724,24.095381,34.882869,39.969621,40.653878,40.574096,43.479762,50.600758,51.912769,51.952289,-21.972771,-31.372776,-32.242756,-30.678577,-37.009277,-28.164196,-20.547066,-20.174904,-19.34721,-9.423523,-3.620396,-4.702721,-0.140762,6.883621,12.177658,12.555943,18.386021,16.46307,16.268177,15.908089,-23.758425,-50.933839,-75.987988,-91.911598,-55.716795,-92.429344,-83.914796,-73.34115,-52.124109,-90.063485,-79.590044,-68.888883,-49.387563,-83.480845,-74.026795,-63.548136,-48.761089,-81.664765,-101.483653,-117.568555,24.849472,286.686415,-197.469406,-149.973843
74,0.584793,-0.013523,-0.417595,-0.14851,-23.601494,-49.207077,-74.996338,-93.473625,-62.565479,-97.02198,-113.53735,-125.050163,-59.893742,-97.46172,-115.908852,-129.496193,-54.564972,-89.269581,-107.339344,-120.4109,-48.014717,-75.181103,-89.826679,-101.335258,-21.704714,-26.232316,-19.356408,-9.443305,2.914372,9.574587,11.015409,11.440128,21.671801,25.517308,25.082894,24.454707,35.024278,40.164506,40.930149,40.90372,43.519653,50.647194,51.757528,51.553258,-21.532173,-31.243172,-32.99921,-33.065529,-37.506008,-27.134113,-19.24118,-19.083195,-20.133476,-8.778534,-2.580872,-3.72076,-0.894585,7.46521,13.185768,13.285217,17.972889,16.50507,16.815948,16.902294,-23.458781,-50.416,-75.208621,-91.259807,-56.394336,-92.73047,-84.327304,-73.835107,-52.556609,-89.899013,-79.312322,-68.808947,-49.506633,-82.735518,-73.163494,-62.952754,-48.573152,-81.216457,-101.099226,-117.403079,25.539064,286.671456,-197.782202,-150.123789
75,0.348358,-0.197725,0.813503,0.770228,-23.665924,-49.458504,-75.055733,-93.622169,-62.957783,-97.361412,-113.889885,-125.506268,-60.010529,-97.606316,-116.169777,-129.977188,-54.447041,-89.205837,-107.529373,-121.029682,-47.645073,-74.548931,-89.285717,-101.232662,-21.359468,-25.708117,-19.068404,-9.615095,3.080358,10.087486,11.410612,11.470386,21.598318,25.95413,25.555346,24.774636,34.75517,40.395082,41.188328,41.045993,43.088696,50.545306,51.980262,52.110864,-21.92688,-32.062054,-33.321018,-31.393032,-37.288399,-27.069569,-19.308529,-19.094067,-19.52322,-8.981209,-3.123951,-3.911591,-0.297489,7.166977,12.57288,13.023777,18.255043,16.47995,16.287918,16.117916,-22.917878,-50.932373,-77.154284,-93.371331,-55.972472,-92.966249,-85.36539,-75.213623,-51.897887,-90.334492,-79.922416,-69.338195,-48.98336,-83.192671,-73.727105,-63.493842,-48.363386,-81.183992,-100.752621,-116.640291,26.239271,286.530927,-196.61685,-149.296364
76,0.028381,0.24058,-0.488777,1.891739,-23.856125,-49.542274,-75.093327,-93.472309,-63.088646,-97.501602,-113.933544,-125.622425,-60.004406,-97.76619,-116.172066,-129.78693,-54.360409,-89.206295,-107.431068,-120.890636,-47.589569,-74.452286,-89.115143,-101.089668,-21.274437,-25.674278,-18.990907,-9.536857,2.534175,9.827516,11.351084,11.513982,21.074798,26.022241,25.876078,25.342307,34.331068,40.468256,41.617678,41.805399,42.744314,50.518321,52.186138,52.582452,-21.580124,-30.984077,-33.150959,-34.365749,-36.136551,-26.651859,-19.205647,-18.837833,-18.902092,-8.211365,-2.530117,-3.182087,0.110092,7.71904,12.971764,13.524742,18.677502,17.530403,17.857533,18.139687,-23.762531,-51.396211,-77.070751,-93.763894,-56.527053,-93.427725,-85.787501,-75.504791,-52.785178,-90.850741,-80.873758,-70.218493,-49.832536,-83.91336,-75.096945,-64.831464,-48.851677,-81.270458,-100.714351,-116.269665,26.564856,286.772603,-196.808424,-147.403529
77,0.162163,-0.216188,1.253529,2.417961,-23.876495,-49.771042,-75.4636,-94.138985,-63.369198,-97.800293,-114.193211,-125.749969,-60.118103,-97.927437,-116.345673,-129.755802,-54.273319,-89.068451,-107.315769,-120.647392,-47.40818,-74.53886,-89.233017,-101.062145,-20.95068,-25.039113,-18.079841,-8.479875,3.102773,10.385864,12.075664,12.499271,21.715953,26.692357,26.851796,26.549281,35.013101,41.475405,42.755183,43.034233,43.405353,50.961195,52.326743,52.49032,-22.745705,-32.735538,-34.248104,-32.41785,-35.417404,-26.389961,-19.91478,-19.959068,-17.412128,-7.82753,-3.380127,-3.969154,1.706715,8.028717,12.267094,13.096161,19.855614,17.791443,17.186222,17.305756,-24.010289,-52.046396,-78.870775,-95.572687,-55.864965,-93.403117,-85.536146,-75.236733,-52.381902,-91.070187,-81.177894,-70.275998,-49.83303,-84.147317,-75.264814,-64.821677,-49.284656,-81.904388,-101.701508,-117.33114,27.31945,286.547384,-194.962463,-144.994599
78,-0.214577,0.809857,-0.161476,2.537494,-24.438286,-50.44075,-75.904598,-94.167824,-63.579311,-98.296623,-114.533787,-125.534363,-60.177383,-98.102474,-116.240158,-129.365959,-54.238644,-89.342995,-107.518787,-120.838108,-47.402802,-74.802876,-89.622688,-101.543941,-21.444374,-25.631176,-18.841471,-9.287447,2.817301,10.241244,11.613523,11.696269,21.749421,26.603868,26.265785,25.638154,35.103133,41.044387,41.855479,41.741426,43.413936,51.042458,52.347986,52.500509,-22.66737,-32.469177,-33.113995,-30.934925,-35.303993,-24.263363,-18.456059,-19.447632,-17.299919,-6.340599,-2.35405,-3.666401,1.868649,9.324188,13.345013,13.683128,20.061951,18.995419,19.186592,19.859104,-23.788096,-52.499938,-79.825113,-96.127932,-56.420441,-93.838844,-84.523856,-73.880678,-52.426547,-90.361091,-79.898812,-69.045945,-49.359158,-83.419126,-74.206829,-63.867185,-48.318694,-80.505077,-100.206978,-115.696004,27.877979,287.414823,-194.350834,-142.399522
79,0.675545,-0.471711,-1.420498,6.989298,-24.492188,-50.527267,-76.062069,-94.067173,-63.598995,-98.189163,-114.507923,-125.821152,-60.427895,-97.745304,-115.897751,-129.223022,-54.711227,-89.210587,-107.311478,-120.686531,-47.904053,-74.570675,-89.37149,-101.397915,-20.851015,-25.029294,-17.779796,-7.76036,4.05021,11.486194,12.750534,12.993645,22.649619,27.673262,27.412552,26.900888,35.739965,42.021402,43.148965,43.391459,43.852981,51.533992,53.046012,53.505744,-21.303291,-30.22974,-30.036564,-27.559547,-33.768311,-21.510429,-15.61552,-16.509762,-16.342449,-4.533348,-0.579357,-1.934681,2.62619,10.733013,15.205307,15.638466,20.875511,21.16436,21.88036,22.176075,-23.276849,-51.854075,-79.34542,-94.981072,-55.528626,-94.276052,-84.816846,-74.25927,-51.520854,-90.895263,-80.913186,-70.622835,-48.429906,-83.926699,-75.7494,-65.914072,-47.302143,-80.665212,-100.680496,-115.980689,28.980017,287.039951,-195.344839,-135.313384
80,-0.425835,-0.02223,-0.199184,7.777711,-24.36367,-50.313263,-75.716228,-94.130058,-62.912979,-97.448502,-113.743801,-124.966908,-59.77541,-97.309456,-115.516777,-128.878727,-54.263821,-88.946285,-106.928215,-120.252171,-47.633858,-74.349461,-89.117489,-101.174583,-20.61167,-24.286005,-16.533549,-6.926667,4.273561,12.135438,13.703404,14.144611,22.791768,28.07853,27.770519,27.280344,35.827836,42.282977,43.322422,43.67656,43.979137,52.007926,53.793871,54.591316,-20.710087,-29.258652,-28.395138,-25.553055,-31.584492,-21.908569,-15.701351,-16.132507,-13.78521,-3.908272,-0.392704,-2.08786,5.059948,11.846409,15.629883,15.444775,22.566147,22.98151,23.459301,23.084564,-22.009653,-50.837308,-78.5531,-93.668675,-51.883823,-91.666109,-81.707435,-71.27407,-47.927104,-88.468688,-77.865386,-67.398738,-45.210719,-81.786028,-73.067163,-63.219547,-44.598031,-78.292421,-97.929809,-112.785645,29.132938,287.168778,-194.965267,-127.384616
81,0.449753,0.948425,2.58173,10.385462,-24.751167,-50.499001,-76.026764,-94.444256,-62.713165,-97.151184,-113.412724,-124.807034,-59.740849,-96.954746,-115.032463,-128.684235,-54.642792,-88.791218,-106.653557,-120.017853,-48.49102,-74.90324,-89.483814,-101.280327,-20.683856,-24.73246,-17.098072,-6.892334,4.590464,12.089434,13.396628,13.705627,23.183945,27.976642,27.515304,26.97048,36.122509,42.158118,43.042939,43.282655,44.172416,52.11531,53.776273,54.408288,-21.491776,-31.556854,-31.365166,-27.338448,-29.975052,-21.669559,-16.97937,-17.387295,-11.952381,-3.522491,-1.516342,-2.838306,6.562958,11.976986,13.711452,13.541737,23.499241,23.906593,24.426556,24.905033,-21.556266,-49.240767,-76.662673,-91.893891,-48.813732,-88.258845,-77.005882,-66.482454,-44.066761,-84.882796,-72.73439,-62.357357,-40.712355,-77.500488,-67.188601,-57.356577,-39.563242,-73.175998,-92.211612,-106.536581,30.39156,288.322183,-191.574669,-116.794173
82,0.059853,0.332032,3.799953,11.006857,-24.56852,-50.117111,-75.695171,-94.628162,-61.520863,-96.546936,-113.097496,-125.021381,-58.555584,-96.460991,-114.821949,-128.82637,-53.57357,-88.340034,-106.496201,-120.063,-47.721176,-74.466019,-89.269524,-101.285019,-20.448031,-24.301813,-16.862926,-7.295564,4.484809,11.827736,13.102758,13.458441,22.8211,27.710127,27.214642,26.670126,35.826539,41.915192,42.790318,43.010212,44.082816,52.100058,53.861118,54.447253,-22.201538,-31.574993,-27.255993,-19.301605,-29.597397,-22.742729,-18.081551,-18.577023,-12.231045,-4.276886,-2.003517,-3.144093,5.608006,10.966988,13.113213,12.916317,22.888184,23.893719,25.590134,27.519608,-20.052397,-46.238415,-72.185352,-84.115423,-41.107543,-81.071776,-68.795887,-58.87417,-35.97596,-76.894762,-64.439102,-54.629756,-33.124681,-70.121236,-59.240165,-49.576519,-33.193316,-66.833366,-85.317858,-99.104533,33.425016,288.886551,-184.801111,-105.554981
83,0.077591,0.281335,2.365036,-0.309246,-24.213638,-50.211182,-75.885372,-94.526825,-61.499062,-95.930386,-112.568321,-124.523163,-58.275547,-95.746422,-114.032707,-127.934074,-53.121185,-87.675133,-105.972576,-119.690094,-47.106171,-73.857536,-88.821545,-100.926762,-20.293841,-24.103162,-16.352682,-6.689916,5.141895,11.986866,13.047183,13.122889,23.50937,27.850239,27.20822,26.584417,36.365867,42.042336,42.750119,42.847623,44.45017,52.66001,54.385317,54.928967,-21.802597,-28.97501,-22.977791,-12.511082,-26.969833,-19.166965,-14.69799,-14.901695,-11.101971,-0.125828,1.553135,-0.35471,6.148624,14.476776,16.184406,14.30809,23.268986,27.365341,31.682053,34.977722,-14.49452,-34.213155,-48.861557,-53.277051,-23.483002,-53.685824,-44.49341,-36.053426,-20.060331,-53.119418,-44.358825,-35.739641,-17.994718,-48.683438,-40.043953,-32.160664,-18.938265,-47.585608,-62.325123,-73.683586,37.553301,289.420708,-178.385382,-105.611405
84,0.18219,0.720874,1.968727,66.335257,-23.867912,-49.6661,-75.368328,-93.663769,-61.128445,-95.823383,-112.324505,-123.998222,-58.031845,-95.756607,-114.05365,-127.916336,-52.875023,-87.504101,-106.057892,-120.06031,-46.818237,-73.818398,-89.16172,-101.669655,-20.505212,-24.656137,-17.601955,-7.125874,5.686163,11.861637,12.464321,12.250541,24.041103,27.70284,26.75139,25.850575,36.749276,42.048264,42.794209,42.699051,44.60504,52.831491,54.752732,55.371533,-18.471909,-23.736248,-15.4739,-3.172016,-22.829418,-12.106533,-6.454582,-7.512531,-5.676441,6.254139,9.119968,7.114792,12.906361,22.309399,23.888969,22.487755,31.181374,35.253124,38.831863,42.082901,-28.459715,-60.497681,-88.229421,-97.73213,-53.151327,-95.477931,-81.946008,-71.192791,-43.02639,-88.119196,-76.714389,-65.150853,-36.613672,-75.743086,-66.438102,-56.822513,-33.472459,-68.348968,-89.410984,-105.296123,41.237583,289.720568,-172.914562,-39.697163
85,0.379829,0.100715,12.364082,0.541829,-24.330025,-49.862022,-75.240669,-93.133221,-62.258434,-96.019821,-111.969566,-123.393517,-59.117432,-95.472107,-113.917809,-128.129997,-53.753014,-86.808472,-105.312653,-119.60844,-47.154236,-73.065491,-88.334656,-100.859184,-20.56474,-24.799336,-17.731137,-7.106917,6.059444,12.162608,11.84058,10.72617,24.279027,27.95472,26.420778,25.123464,36.834368,42.667312,43.329029,43.104566,44.511735,53.03181,54.899698,55.400864,-25.117321,-31.784706,-25.840988,-17.883167,-26.818485,-17.080879,-14.765854,-14.963264,-10.854492,-0.169888,-0.165424,-0.920563,7.580967,16.958027,16.945038,16.068249,25.764999,34.295883,39.820118,44.684772,-22.572678,-43.683229,-59.375491,-62.432198,-41.363483,-63.936932,-55.645581,-47.47276,-37.900087,-62.097758,-53.06429,-43.45994,-32.419028,-55.699582,-47.081787,-39.173659,-26.659752,-51.003,-61.437121,-67.425769,45.421686,290.096705,-156.746206,-38.879912
86,0.259895,0.099727,3.642282,53.330913,-24.093246,-49.740372,-75.301723,-93.667831,-61.903496,-95.63879,-111.967621,-123.607235,-58.78149,-95.218849,-113.767834,-127.673264,-53.480873,-86.72905,-105.415535,-119.494457,-46.900406,-72.762623,-88.109837,-100.718079,-20.513425,-24.703993,-17.672227,-7.38961,6.077661,12.641359,12.895771,12.107095,24.240927,28.479043,27.124177,25.761778,36.809112,42.943089,43.640436,43.279011,44.531248,53.28616,55.515473,56.322921,-19.517927,-23.599548,-18.526239,-11.049814,-13.24851,-1.036548,-1.435232,-4.273367,2.68776,14.584179,12.090197,9.170523,19.733591,30.644303,27.758589,24.395228,36.585932,48.735237,53.611622,56.747046,-30.057769,-56.72152,-76.613504,-83.470486,-59.579329,-83.620524,-72.902907,-62.527757,-53.011277,-75.189401,-65.829922,-55.702036,-43.329121,-65.230032,-56.747331,-48.068558,-32.824234,-56.893325,-67.269602,-73.018333,52.025471,290.573078,-146.760035,14.827647
87,0.394249,0.176112,3.642283,53.330914,-24.443207,-49.928398,-75.480137,-93.903294,-61.744251,-95.378265,-111.894379,-123.987064,-58.563023,-94.859848,-113.362312,-127.027359,-53.282318,-86.515102,-105.214462,-119.055519,-46.756439,-72.573795,-87.852345,-100.395241,-20.499346,-24.712391,-17.589914,-7.288525,5.863819,12.230534,13.040205,12.906454,23.990653,28.233338,27.197598,26.151793,36.690736,42.915795,43.792713,43.537437,44.616896,53.56947,56.058012,57.085539,-13.918533,-15.414391,-11.211491,-4.216461,0.321465,15.007782,11.89539,6.416531,16.230011,29.338245,24.345818,19.261608,31.886215,44.330578,38.57214,32.722206,47.406864,63.174591,67.403126,68.809319,-37.542861,-69.759811,-93.851518,-104.508775,-77.795176,-103.304117,-90.160233,-77.582754,-68.122468,-88.281044,-78.595554,-67.944133,-54.239215,-74.760483,-66.412877,-56.963458,-38.988716,-62.783651,-73.102083,-78.610899,58.521595,289.673992,-137.015877,67.083363
88,0.039825,0.084351,6.153488,35.797655,-24.095421,-49.566193,-74.880524,-93.090763,-61.206379,-95.440922,-112.215042,-124.181442,-58.001575,-94.649792,-113.059044,-126.436958,-52.703362,-86.207829,-104.763565,-118.603821,-46.184235,-72.227268,-87.493458,-100.116119,-20.191458,-24.573268,-17.823701,-7.334529,6.430379,12.633949,13.146971,12.803516,24.556842,28.424764,27.136527,25.962034,37.161583,43.375836,44.161178,43.973086,44.902738,54.006602,56.30384,57.195269,-9.780264,-7.4261,-0.375938,6.805058,24.34968,36.254282,28.47187,21.713648,40.816698,50.165463,41.280155,35.83992,53.533258,62.751617,54.13579,47.557497,64.296684,74.56564,71.47645,68.396931,-38.116769,-68.530762,-90.717345,-100.103269,-76.128393,-96.299474,-85.306064,-74.35381,-63.725082,-81.821519,-74.352251,-64.343497,-48.174599,-66.051899,-59.861884,-50.376634,-31.265963,-51.712049,-55.444136,-54.048345,60.389786,287.57295,-129.034023,100.695625
89,0.169487,-0.683824,6.153488,35.797656,-24.258728,-49.511833,-74.427567,-92.34827,-60.93441,-94.720345,-111.343975,-123.435459,-57.611389,-93.606892,-112.084751,-125.789566,-52.144432,-85.116863,-103.627338,-117.647266,-45.366669,-70.805626,-85.861816,-98.446541,-19.788846,-24.0784,-17.151794,-6.755372,6.455635,13.403236,14.142079,13.676419,24.514852,29.146503,28.195423,27.089659,37.295211,44.131723,45.188272,45.013272,45.292816,54.962745,57.397811,58.200257,-5.641994,0.562191,10.459614,17.826576,48.377895,57.500782,45.048351,37.010765,65.403385,70.99268,58.214493,52.418232,75.180302,81.172657,69.69944,62.392788,81.186504,85.956688,75.549774,67.984543,-38.690678,-67.301712,-87.583172,-95.697763,-74.461611,-89.294832,-80.451895,-71.124866,-59.327696,-75.361994,-70.108948,-60.742861,-42.109983,-57.343316,-53.310891,-43.789811,-23.543209,-40.640447,-37.786189,-29.485791,61.74036,286.172126,-121.699448,135.776281
90,-1.174622,0.306529,0.038481,36.339623,-23.749123,-48.926926,-73.580132,-92.236004,-59.947758,-94.471149,-111.227303,-123.185349,-56.239071,-93.679104,-112.163601,-125.779495,-50.533104,-84.633579,-103.354282,-117.746258,-43.791161,-69.976158,-85.121555,-98.047428,-20.248578,-23.892655,-16.485075,-7.04282,5.789533,13.352168,14.29874,13.906872,24.386287,29.331631,28.377402,27.223163,37.433903,44.325187,45.541361,45.542843,45.374573,55.060866,57.58936,58.573477,4.384804,17.909689,31.20306,41.201162,48.190699,76.447763,73.011532,66.864281,56.871614,83.686409,80.623798,76.280708,60.60565,86.025524,83.164387,78.763161,61.341562,79.995317,78.619251,75.907431,-29.05201,-54.473219,-75.654922,-87.873461,-42.254819,-65.283632,-70.787708,-70.058127,-32.044203,-56.602805,-64.910273,-64.522373,-23.679477,-46.033898,-53.151497,-51.615132,-16.50252,-36.050431,-41.501804,-40.628637,61.549816,284.740505,-120.676889,170.377754
91,0.812416,0.07268,0.038481,36.339623,-23.598976,-48.902664,-73.740635,-91.542206,-60.175266,-94.019051,-110.665684,-122.912636,-56.829815,-93.132648,-111.786175,-125.92123,-51.270332,-84.506721,-103.05851,-117.192593,-44.444962,-70.073891,-84.865093,-97.332001,-19.946001,-24.177633,-17.482159,-7.436293,5.775022,13.80733,14.983058,14.743775,23.902473,29.456923,28.847816,27.907358,36.861044,44.05719,45.330669,45.439349,44.998266,54.664923,57.051514,57.805363,14.411602,35.257187,51.946507,64.575748,48.003502,95.394745,100.974712,96.717796,48.339844,96.380138,103.033104,100.143185,46.030998,90.878391,96.629333,95.133533,41.49662,74.033947,81.688728,83.830318,-19.413342,-41.644725,-63.726672,-80.049159,-10.048027,-41.272432,-61.123522,-68.991389,-4.76071,-37.843616,-59.711599,-68.301884,-5.24897,-34.72448,-52.992104,-59.440453,-9.46183,-31.460415,-45.217418,-51.771484,64.019823,284.274536,-118.980818,206.178728
92,-0.375366,-0.509564,4.291077,7.340457,-23.653107,-48.504753,-72.981434,-91.011086,-60.106201,-93.562832,-110.206261,-122.638664,-56.588058,-92.846661,-111.476555,-125.519199,-50.78373,-83.924046,-102.604923,-116.798515,-43.656349,-69.443665,-84.561996,-97.423439,-20.262471,-23.833992,-15.709552,-5.53401,5.933844,13.900944,15.222465,15.282424,24.350472,30.01811,29.450871,28.497445,37.258778,44.801962,46.238153,46.299718,45.133561,55.006341,57.709589,58.61275,10.894661,26.681728,45.161991,60.713997,41.6605,75.906601,94.772758,108.912163,44.712467,82.411022,102.618313,117.375584,47.132835,83.040905,102.88147,116.417027,48.978767,77.613659,93.652325,106.554966,-32.192219,-46.699243,-58.253918,-64.280882,-21.929053,-28.553514,-36.058103,-43.025773,-6.043019,-12.597949,-21.729476,-30.407447,5.844368,0.605031,-6.497131,-13.54273,14.113551,10.992623,7.236099,1.328066,64.490948,282.693757,-113.84325,212.44797
93,0.281982,1.051671,30.281067,34.449505,-21.253967,-41.687851,-59.213448,-68.421535,-60.762806,-93.66457,-110.492134,-123.174362,-58.603878,-93.075829,-111.833324,-125.883293,-52.948608,-84.544315,-103.01405,-116.825523,-45.755882,-70.625668,-85.146618,-97.382755,-21.075601,-28.335967,-28.63132,-25.999887,3.861377,10.391421,12.890213,14.3566,21.149578,26.909409,28.209008,28.370548,34.182496,41.926368,44.539152,44.885942,42.801928,53.12283,56.282969,57.000756,2.624159,12.383452,27.969532,44.41289,26.164685,60.099678,72.969561,79.698115,32.162848,68.740454,80.897055,85.261603,37.77174,70.818672,82.55888,85.452833,41.402092,65.779896,74.893513,77.586365,-35.373322,-52.886202,-63.717286,-67.644118,-24.955996,-31.162623,-36.995845,-40.180962,-2.49873,-10.435819,-19.27996,-24.166054,15.494105,10.545242,3.935786,-0.533029,28.879958,29.667924,25.887193,21.282774,65.349798,283.481507,-82.985316,246.633553
94,-0.558014,-1.779647,30.281067,34.449505,-29.295158,-57.607441,-84.270687,-105.359917,-58.415852,-92.240124,-110.441322,-123.334408,-55.179062,-90.216351,-110.817146,-126.148853,-50.252037,-81.695824,-101.625652,-116.926346,-44.506531,-68.969021,-84.142857,-97.635784,-19.228523,-27.426445,-29.172685,-27.884942,-1.732902,3.115741,3.749485,3.00601,17.044843,24.715849,27.124177,28.041974,32.377841,42.116498,44.54366,44.391939,42.503426,51.097354,54.791326,55.946491,-5.646343,-1.914825,10.777073,28.111782,10.668869,44.292755,51.166363,50.484066,19.613228,55.069885,59.175797,53.147621,28.410645,58.596439,62.23629,54.48864,33.825417,53.946133,56.134701,48.617764,-38.554425,-59.073161,-69.180654,-71.007354,-27.98294,-33.771733,-37.933587,-37.336152,1.045558,-8.273691,-16.830445,-17.924663,25.143842,20.485452,14.368703,12.476671,43.646364,48.343224,44.538287,41.237481,64.929285,281.751708,-52.566748,281.132907
95,-3.143578,0.59762,-32.20768,-3.019101,-25.067139,-52.973499,-77.704926,-97.057228,-52.568436,-86.286507,-103.290825,-111.732044,-50.691605,-87.205524,-107.256718,-118.281956,-48.107986,-81.639862,-98.707466,-106.882725,-44.941635,-72.735329,-87.7458,-96.041393,30.520079,44.331115,49.775278,53.841604,24.217462,23.645221,24.593769,23.66177,7.482236,5.440211,2.994463,-2.443032,-7.137421,-9.663507,-9.366241,-11.114333,-19.619526,-20.280379,-19.383701,-19.412909,7.817402,28.843517,50.578709,70.096722,42.634907,81.515408,95.157738,101.758919,48.449478,89.443531,105.921822,110.062981,52.311344,89.097176,106.081123,110.1717,53.261776,81.164074,95.599651,99.501915,-30.849518,-41.96348,-46.047406,-51.539796,-5.322762,-10.591863,-18.385444,-22.055024,18.55569,10.578031,-1.585689,-7.39103,33.994528,29.05536,19.240317,13.449795,42.066171,44.898292,40.905758,36.71309,61.679335,282.551947,-84.8808,278.316424
96,-1.536484,0.608797,-10.278969,-3.297904,-24.937134,-50.961628,-72.212963,-88.088436,-45.817566,-77.121105,-94.137383,-106.006565,-43.608055,-77.645473,-99.536934,-113.964672,-42.495918,-74.791431,-95.660419,-109.429665,-40.665092,-66.395187,-82.99799,-96.17775,-21.486488,-29.459022,-25.430363,-18.874322,-5.363517,-0.507835,-1.911669,-5.090333,14.751,19.062908,17.075286,14.286637,31.037363,35.921326,34.768384,31.853518,43.42326,50.814538,52.453085,51.727209,19.874096,45.656834,69.084892,89.446335,52.091675,89.950218,109.6035,123.690605,47.981586,89.977055,112.020607,125.461693,44.131908,81.512661,103.132095,116.265678,40.210419,69.037399,85.372181,96.03384,-22.137029,-29.176637,-29.838849,-31.253921,4.888965,12.04448,13.668392,15.078216,25.150449,31.363343,31.519386,31.359144,38.47452,47.013182,48.032743,46.645767,45.574892,53.853769,55.028694,53.320678,59.885874,283.374184,-95.416746,275.23196
97,-4.774132,2.602224,4.594803,3.0346,-22.181625,-49.98642,-71.729279,-89.966927,-55.416527,-69.457169,-63.315296,-55.909939,-51.513405,-65.006618,-61.969986,-54.829903,-46.695442,-63.377552,-62.347012,-58.718376,-39.900513,-60.137272,-70.407486,-78.670235,-22.997582,-31.560512,-26.589789,-22.007291,-3.688352,2.71955,1.570313,-0.027108,14.481027,18.709819,17.938371,15.60013,28.854115,34.279444,34.7259,33.139655,40.421758,45.531913,46.92457,46.980516,24.808331,50.644512,75.376968,95.988693,54.821033,90.471268,111.815414,127.469788,48.298016,88.367043,112.631607,128.649788,42.028885,78.676815,100.689526,116.253548,36.48365,65.011311,82.397289,96.462479,-19.071553,-23.738587,-23.246004,-22.750457,12.76239,20.894981,22.868956,23.66424,30.869525,39.283451,39.778504,39.163779,42.264267,53.119989,53.557738,51.835087,48.007117,58.484927,58.867224,57.050218,54.822407,286.185835,-91.111279,278.475987
98,-4.395103,0.182411,4.04583,2.718006,-15.810013,-37.928581,-56.988258,-70.826168,-43.855762,-54.419575,-50.737095,-45.406322,-42.128162,-51.329441,-39.438629,-24.885979,-38.693619,-45.788841,-30.677376,-15.928688,-33.918228,-41.314545,-31.909218,-21.568222,-21.248502,-28.878136,-23.878267,-21.12568,-3.513537,3.916952,3.488343,1.24353,12.662107,21.295803,23.163506,23.04828,25.486803,30.916455,32.205125,33.113597,35.574659,40.33821,39.881874,39.369901,25.214252,51.582413,76.292553,96.410294,57.320766,92.988968,113.040047,127.97081,50.231895,89.44519,111.726265,127.09568,43.110466,78.635044,99.119568,114.25621,36.618004,64.180241,80.074711,93.034229,-18.572239,-22.260468,-20.104514,-21.582201,11.297794,20.720906,24.569192,26.919969,29.308166,40.157898,43.436475,44.224657,40.972016,53.130919,55.440693,54.517648,47.666316,58.500303,59.346283,57.582383,50.250292,286.678387,-87.24246,281.504135
99,-8.595199,4.158828,5.260963,0.163268,-9.406357,-25.68655,-40.468884,-51.157036,-42.219401,-43.131323,-32.35282,-23.162127,-44.691868,-42.454291,-25.350037,-8.638058,-44.765625,-42.139035,-22.70319,-6.215058,-43.046036,-43.97152,-31.441469,-20.073452,-21.524125,-29.293932,-26.24235,-22.091179,-2.281832,6.713011,7.861476,6.898046,14.527557,23.500231,25.550098,25.646336,27.276022,33.424665,33.316447,32.865638,37.026165,43.127291,41.034878,38.753139,26.572323,53.12336,77.201843,96.691017,58.196926,93.628006,112.850647,127.382698,50.874424,89.567585,111.532974,126.784058,43.293343,79.111633,99.325218,113.999863,35.976448,64.6772,80.637074,93.113136,-17.562743,-20.167685,-17.003902,-19.621008,11.403016,22.28665,26.899961,29.729551,29.776357,41.88938,45.499371,45.739765,42.021341,54.698947,57.26196,55.788101,49.296404,59.311456,59.603041,56.76314,41.448069,290.97248,-82.18852,281.802667
100,-8.5952,4.158829,2.433872,1.241677,-3.002701,-13.444519,-23.949509,-31.487904,-40.583038,-31.843071,-13.968544,-0.917931,-47.255573,-33.57914,-11.261444,7.609863,-50.837631,-38.489227,-14.729004,3.498573,-52.173843,-46.628494,-30.973721,-18.578682,-21.799748,-29.709729,-28.606434,-23.056678,-1.050128,9.509069,12.234609,12.552562,16.393005,25.704659,27.936689,28.244391,29.06524,35.932873,34.427769,32.617679,38.47767,45.916371,42.187881,38.136375,26.670628,53.360081,77.849865,98.034954,57.654591,93.361874,112.637272,126.885166,50.423298,90.259151,112.411594,128.044453,43.123512,79.582672,99.942455,114.828815,36.480618,65.491791,81.494236,93.8978,-17.384038,-19.764701,-16.131616,-17.70162,12.247206,24.350287,29.622784,33.145151,30.015332,42.515838,46.536469,47.43185,41.581307,54.58829,57.17236,56.298777,48.294688,58.449729,59.511466,58.008584,32.869091,295.131015,-79.738426,283.044051
101,-22.312202,9.117387,0.532494,-0.323943,5.781441,5.869675,4.032097,4.231453,-20.166779,-2.542706,17.036819,32.301636,-25.824852,-5.557995,17.33139,36.905594,-26.337318,-9.160595,12.435722,30.510979,-24.477882,-17.280865,-8.667927,-0.031471,-18.353396,-28.451935,-33.000593,-35.790354,-7.875277,1.556975,6.08785,7.318227,6.415497,14.45713,19.459901,20.786424,17.612885,24.21456,28.393889,29.433519,26.187794,31.531798,33.130331,31.451831,26.05608,52.949009,76.874828,96.94376,58.624706,93.251438,111.814327,125.315952,51.076984,90.175152,111.537724,126.59174,43.07848,78.762188,98.60178,113.005772,35.620079,63.596649,79.216175,91.07626,-18.075581,-19.706841,-14.588905,-14.641825,12.932512,26.753057,32.425574,35.869456,30.995928,43.771347,47.666255,48.791224,42.299403,55.503123,58.034704,57.358661,48.549718,59.169615,60.105072,58.548344,10.469742,304.284572,-79.293079,282.756279
102,32.949142,-7.739488,-1.254215,-0.372108,-9.904747,-25.992966,-39.868011,-50.181656,-51.391697,-46.364651,-28.665619,-14.586067,-55.855007,-46.514282,-24.164543,-3.801613,-57.483158,-48.518085,-24.024353,-4.234657,-56.861744,-55.210648,-39.0168,-25.653763,-20.769875,-27.591072,-25.534475,-22.866733,-3.475807,6.053949,11.121928,13.895263,13.574531,21.513905,25.727877,27.614661,26.548725,33.129899,33.861209,33.332193,36.988929,44.564902,42.083091,38.555537,26.958961,54.16523,78.015289,97.957764,59.085217,93.535652,111.977692,125.682678,50.919399,90.006237,111.281776,126.689758,42.408428,77.679634,97.72522,112.411194,34.325638,61.657391,77.166653,88.704987,-18.099108,-19.134477,-13.147095,-12.467779,13.216873,26.750402,32.202531,35.629988,31.593487,44.730763,48.667537,50.03568,42.992613,56.677924,59.373886,58.607378,49.16611,60.049497,60.719921,58.513147,43.384352,296.621747,-80.581827,282.460834
103,-25.333328,4.251516,-0.622101,-0.13159,4.89727,4.239693,1.455688,0.514984,-20.957966,-8.613625,7.641563,20.479546,-27.403851,-12.354412,6.873436,22.148895,-29.043961,-16.622086,1.923409,15.661697,-27.567043,-22.149181,-11.978016,-3.321304,-16.808339,-23.988862,-24.733942,-25.688233,-5.221985,2.633408,6.190047,7.718616,8.812957,17.326733,21.388675,22.134929,19.660961,26.793566,29.701084,30.724967,28.354122,33.824529,35.715759,35.753921,27.666149,54.908981,78.609066,98.448486,59.273472,93.912621,112.298355,125.737152,51.048374,90.322609,111.674881,127.100601,42.42239,77.898674,97.845612,112.151413,34.118786,61.541462,76.957397,88.08672,-17.973569,-18.767679,-12.600357,-11.494222,13.991408,27.602496,32.909759,36.248233,32.004868,45.629664,49.502403,50.824726,43.019104,57.070595,59.673437,58.933543,48.749357,59.728395,60.356335,58.055206,18.099833,300.875579,-81.155119,282.33156
104,34.860535,-6.11786,-0.399971,0.043843,-13.55278,-31.927185,-47.917728,-59.330578,-62.319775,-60.112782,-39.650459,-22.849731,-66.072178,-59.474602,-36.023827,-15.464172,-66.098156,-60.544224,-36.196747,-16.602402,-63.397522,-66.718369,-52.935963,-40.786171,-16.130072,-20.47761,-17.060527,-12.849581,-1.044508,11.11952,16.838782,20.579622,13.499505,22.98974,28.78409,32.186846,25.027998,31.942068,34.29056,35.10443,34.52694,41.140224,39.95474,38.958273,27.634048,54.783325,78.494453,98.359337,59.894485,94.638519,113.280602,126.883965,51.608562,90.820885,112.175674,127.546806,42.849598,78.25407,98.127136,112.310257,34.364319,61.752777,77.104111,88.190861,-17.888292,-18.578167,-12.038305,-9.995477,14.730252,28.366534,33.739314,37.147813,32.622249,46.042466,49.806586,51.096737,43.530768,57.129814,59.684799,58.90977,49.20878,59.840225,60.368623,57.997407,53.183441,294.674263,-81.332016,282.291947
105,-8.032494,6.392341,-0.418224,0.38205,-3.955879,-17.887802,-32.032585,-42.410545,-46.312981,-41.703072,-23.383827,-7.56031,-50.744419,-44.189987,-23.013954,-3.738213,-50.007305,-44.27021,-23.160782,-6.681633,-46.20615,-42.465591,-28.900681,-18.514595,-22.045885,-30.86619,-27.146593,-22.885876,-9.005124,-2.122176,2.835702,5.481275,7.056899,13.709147,19.061982,21.815186,20.255308,25.171629,27.816399,29.707444,30.97413,35.338773,35.14043,34.669954,27.71307,55.005798,78.756523,98.848972,60.28513,94.697628,113.044453,126.215458,52.143402,91.290321,112.404156,127.532444,43.471355,78.914452,98.628559,112.629833,35.094967,62.622471,78.018665,89.214363,-17.876127,-18.46115,-11.912395,-9.476156,15.284524,28.881285,34.196637,37.521218,32.96836,46.238894,49.940522,51.141815,43.889538,57.110116,59.582849,58.682405,49.756382,60.033195,60.477242,58.067617,45.272226,301.017666,-81.628962,282.625059
106,4.789581,-3.319887,-0.542107,-0.598423,-8.746662,-24.111156,-39.053106,-49.391012,-55.073347,-51.86737,-31.582374,-14.901008,-59.506674,-53.445139,-30.22419,-9.437771,-59.311809,-54.50798,-31.702709,-13.149318,-56.142053,-58.498792,-47.87899,-38.492918,-17.994935,-24.641718,-21.544627,-17.946492,-4.797452,5.233748,10.351684,13.684261,10.25063,18.817913,23.948477,27.127882,22.435468,28.51634,30.836272,32.514741,32.257674,37.411826,37.090539,37.325407,27.998428,55.718422,79.254456,99.023952,60.432243,94.871464,113.097668,126.404629,52.222538,91.28809,112.411594,127.729969,43.520622,78.855057,98.66621,112.808132,35.008621,62.444801,77.770042,88.94743,-17.758677,-18.177778,-11.356642,-8.57213,15.110326,28.519304,33.785873,37.152382,32.974041,46.311265,50.137568,51.467301,44.040517,57.332973,59.962676,59.014066,49.999247,60.675955,61.136675,58.44411,50.338669,297.714931,-81.894207,282.043787
107,4.789582,-3.319888,-0.197353,-0.011547,-13.537445,-30.334511,-46.073627,-56.371479,-63.833714,-62.03167,-39.780922,-22.241707,-68.268929,-62.700291,-37.434425,-15.137329,-68.616314,-64.74575,-40.244637,-19.617004,-66.077957,-74.531994,-66.8573,-58.471241,-13.943984,-18.417246,-15.94266,-13.007107,-0.589778,12.589674,17.867667,21.887248,13.444361,23.926679,28.834972,32.440579,24.615628,31.861051,33.856145,35.322038,33.541218,39.484881,39.040648,39.98086,27.989559,55.588017,79.333534,99.323387,59.850082,94.580956,112.950897,126.383972,51.631565,91.254387,112.679672,128.127022,43.107891,78.885098,98.73745,112.945633,34.916954,62.41436,77.656746,88.724327,-17.785601,-18.032108,-10.855661,-7.783886,15.341766,28.751177,33.831136,37.164794,33.523372,46.730983,50.396858,51.71949,44.688341,57.903979,60.353309,59.411368,50.583097,61.018052,61.336067,58.636586,55.328636,294.336534,-81.891174,281.973731
108,-10.557518,6.473851,0.224533,-0.148448,-3.321304,-17.2332,-32.530632,-42.896061,-48.677616,-42.560635,-22.760353,-6.113548,-55.626984,-46.206608,-22.823753,-1.351891,-56.64814,-48.279247,-25.142899,-5.553818,-54.461174,-49.907799,-34.308243,-20.656128,-23.102311,-33.733015,-29.795377,-23.926556,-13.168214,-5.446633,2.38159,7.668228,4.743481,12.822411,19.957548,24.119711,19.607608,25.910782,29.409745,32.094097,31.607442,36.902478,36.177467,35.143086,27.748775,55.356789,78.998966,98.83152,60.086403,94.639435,112.777519,126.289902,51.705837,91.359272,112.699356,128.30452,42.89772,78.693581,98.524475,112.796288,34.454269,61.962318,77.33654,88.674946,-17.691802,-18.36624,-11.253025,-7.605489,14.630834,28.303672,33.913635,37.67757,32.934891,46.173562,50.266811,52.017559,44.316418,57.373049,60.106369,59.382592,50.434093,60.775867,61.235846,58.67308,44.909706,300.772749,-81.528053,281.787646
