takenoko1/special-research/HandMotion_SimilarSearch_自分用/NewProject/handData/key/d4_feature_d2/21.csv
,vel_0x_L,vel_0y_L,vel_0x_R,vel_0y_R,posFromWrist_1x_L,posFromWrist_2x_L,posFromWrist_3x_L,posFromWrist_4x_L,posFromWrist_5x_L,posFromWrist_6x_L,posFromWrist_7x_L,posFromWrist_8x_L,posFromWrist_9x_L,posFromWrist_10x_L,posFromWrist_11x_L,posFromWrist_12x_L,posFromWrist_13x_L,posFromWrist_14x_L,posFromWrist_15x_L,posFromWrist_16x_L,posFromWrist_17x_L,posFromWrist_18x_L,posFromWrist_19x_L,posFromWrist_20x_L,posFromWrist_1y_L,posFromWrist_2y_L,posFromWrist_3y_L,posFromWrist_4y_L,posFromWrist_5y_L,posFromWrist_6y_L,posFromWrist_7y_L,posFromWrist_8y_L,posFromWrist_9y_L,posFromWrist_10y_L,posFromWrist_11y_L,posFromWrist_12y_L,posFromWrist_13y_L,posFromWrist_14y_L,posFromWrist_15y_L,posFromWrist_16y_L,posFromWrist_17y_L,posFromWrist_18y_L,posFromWrist_19y_L,posFromWrist_20y_L,posFromWrist_1x_R,posFromWrist_2x_R,posFromWrist_3x_R,posFromWrist_4x_R,posFromWrist_5x_R,posFromWrist_6x_R,posFromWrist_7x_R,posFromWrist_8x_R,posFromWrist_9x_R,posFromWrist_10x_R,posFromWrist_11x_R,posFromWrist_12x_R,posFromWrist_13x_R,posFromWrist_14x_R,posFromWrist_15x_R,posFromWrist_16x_R,posFromWrist_17x_R,posFromWrist_18x_R,posFromWrist_19x_R,posFromWrist_20x_R,posFromWrist_1y_R,posFromWrist_2y_R,posFromWrist_3y_R,posFromWrist_4y_R,posFromWrist_5y_R,posFromWrist_6y_R,posFromWrist_7y_R,posFromWrist_8y_R,posFromWrist_9y_R,posFromWrist_10y_R,posFromWrist_11y_R,posFromWrist_12y_R,posFromWrist_13y_R,posFromWrist_14y_R,posFromWrist_15y_R,posFromWrist_16y_R,posFromWrist_17y_R,posFromWrist_18y_R,posFromWrist_19y_R,posFromWrist_20y_R,posFromBody_0x_L,posFromBody_0y_L,posFromBody_0x_R,posFromBody_0y_R
3,-14.885101,22.080095,-0.260696,0.14252,3.525009,1.42067,-4.783745,-7.778091,-29.723797,-16.080494,0.494957,12.997513,-38.542614,-23.652534,-4.141731,13.243561,-41.878166,-31.454716,-14.07732,1.189957,-42.400246,-40.82737,-33.756123,-24.773312,-18.045076,-26.034097,-25.474083,-24.326266,-8.010819,4.570086,8.767015,11.558195,8.583801,19.658861,23.130531,24.715047,21.953445,29.626674,31.860804,33.068766,32.243657,39.123641,39.657905,38.807973,30.543194,57.134628,81.162815,101.566429,52.866383,84.430618,101.239357,114.054909,42.999172,78.641911,98.647385,113.285751,34.256287,66.789265,85.690899,99.250031,26.838169,50.324821,66.163216,79.40855,-9.596817,-8.778315,-3.003355,0.244285,24.586421,41.953847,48.025333,51.474217,41.06106,58.310173,63.270584,63.788484,51.772904,70.887744,75.787516,75.305368,57.933804,76.029269,80.073241,79.02157,13.394623,341.883086,-81.712189,306.791747
4,12.873688,-19.596431,1.939087,1.244086,-8.865509,-23.040504,-41.54108,-56.21973,-53.830547,-38.883705,-16.767426,-2.282524,-62.318745,-42.975082,-19.129944,1.094856,-64.442425,-49.051723,-24.874077,-5.885696,-63.249722,-61.574593,-49.566708,-37.840977,-5.846282,-4.179824,5.08916,16.307605,7.847551,28.948717,36.541053,40.802326,23.065199,39.848714,47.442533,51.131749,34.692616,47.445435,51.456186,53.321975,43.476551,55.57463,54.79713,53.084483,29.777927,55.805454,79.910088,100.315247,50.423241,81.715393,99.085922,112.17556,41.001778,76.529675,97.111359,111.334991,32.835503,65.786877,85.10313,98.371468,26.080627,50.312462,66.307697,79.34166,-10.237601,-9.991649,-4.230829,-0.018896,23.35345,40.924159,47.599194,51.043076,39.95616,58.101889,63.684805,63.885618,51.087968,70.597023,75.285547,73.859236,57.69341,75.69594,79.451909,77.705792,26.510696,322.443701,-79.530716,308.192879
5,-25.355072,24.250251,1.280022,0.94262,7.467842,8.96656,6.77433,5.374374,-19.722061,-0.665188,16.76342,28.440399,-30.555096,-8.897381,11.773453,28.809586,-35.381069,-18.645172,-1.345825,13.126831,-37.540398,-28.739147,-18.805275,-8.981209,-20.929005,-34.199292,-40.17136,-45.558775,-15.236976,-2.355284,3.856437,8.397994,2.930181,15.267728,20.109207,22.276708,17.343591,26.631718,29.131683,30.290121,28.881347,35.763801,34.860578,32.801819,29.074059,54.942055,78.842354,99.285164,49.492321,80.807991,97.969093,110.741043,40.061989,75.887718,96.574059,110.616875,31.998196,65.276413,84.487896,97.466698,25.553341,50.157337,66.326809,79.339256,-10.670409,-10.551231,-4.855991,-1.000665,22.058235,40.002411,46.923891,50.417606,39.103634,57.003905,62.171179,61.921646,50.642871,69.941048,74.25203,72.466949,57.446594,75.285176,78.634951,76.312888,1.292696,346.763576,-78.113623,309.205123
6,-10.627155,-0.507465,0.276833,0.07268,9.27206,14.121895,15.029411,16.851482,-9.820633,10.162983,27.749119,39.703274,-20.207634,3.08567,23.247356,40.458469,-25.635395,-4.919128,14.240799,29.319248,-27.414322,-26.163082,-23.438187,-19.203072,-18.392051,-30.47247,-37.611497,-40.60738,-10.815091,4.456404,10.557036,11.985323,4.449426,20.470385,23.834856,24.353683,15.919812,28.839418,30.059607,29.880283,23.946625,34.393189,36.411254,35.744782,28.795795,54.31612,77.732334,97.86747,50.150356,81.010323,97.943573,110.855484,40.542984,75.589771,95.993042,110.234642,32.115555,64.417992,83.509769,96.761398,25.149765,49.013729,64.951286,77.898102,-10.754946,-10.654107,-5.176969,-1.708202,21.694463,39.769427,46.849914,50.589457,38.485327,56.600181,62.040701,62.266151,49.708835,69.235056,73.994963,72.942365,56.269692,74.291365,78.159966,76.534572,-9.260101,346.337359,-77.762432,309.359051
7,39.229145,-23.843316,1.127872,0.345864,-14.034348,-31.307545,-53.182011,-72.464275,-59.642601,-47.090492,-23.338051,-6.995659,-65.12907,-47.120075,-22.793198,-0.92617,-64.827633,-52.386932,-27.612476,-5.974388,-61.808281,-68.327522,-64.107285,-56.64402,2.283407,5.105277,14.46417,26.216076,11.163301,31.381189,39.892001,45.856597,21.98926,37.948469,46.627242,51.024365,29.990631,43.044915,48.474073,51.169788,36.054337,48.500997,50.551975,51.72974,28.3564,53.696079,77.213917,97.393742,49.36964,80.1717,97.372227,110.461979,39.766903,74.655418,95.074368,108.928471,31.400928,63.685055,82.719555,95.75346,24.533215,48.430824,64.270763,77.109375,-10.822624,-10.745868,-5.101202,-1.268909,21.979318,39.404482,46.473731,50.320287,38.637603,56.385351,62.159941,62.684572,49.716492,68.958785,73.626128,72.388217,56.176882,74.053935,77.753217,75.999999,30.022831,322.540155,-76.580772,309.751027
8,-18.852654,15.635637,0.26041,0.100159,4.039536,1.593933,-3.729973,-6.33585,-32.263985,-14.651756,3.109932,15.091782,-41.979904,-21.606503,0.502739,17.680321,-45.764408,-30.869694,-11.124401,4.0448,-46.436977,-40.830116,-30.857849,-21.293106,-19.158559,-28.601309,-29.600554,-29.634825,-4.85704,8.927381,13.793313,17.406083,11.774754,24.187636,28.752165,31.795411,24.432477,34.348852,36.77342,38.904797,33.634214,42.695964,43.378368,43.999453,28.155613,53.408546,76.579571,96.233597,49.273567,79.971828,96.848831,109.774017,39.524574,74.521523,94.890518,108.939056,31.128674,63.198452,82.30917,95.600052,24.21833,48.194046,64.071236,77.000999,-11.312922,-11.287358,-5.73087,-1.900307,21.255048,39.08727,46.36116,50.413222,38.108402,56.017318,61.721451,62.206809,49.29486,68.615205,73.48052,72.640715,55.746605,73.668489,77.5311,76.040816,11.209288,338.221333,-76.281252,309.896727
9,17.919273,-13.004822,0.486603,0.721121,-6.477013,-18.42968,-38.478756,-56.400661,-54.529095,-42.702484,-19.359055,-3.809624,-63.052483,-45.389614,-21.557465,-0.533066,-64.985847,-54.050388,-29.731464,-8.872719,-63.755894,-75.331535,-75.873985,-72.276077,-6.625263,-9.737855,-3.834701,5.275276,4.210761,23.970275,32.680541,38.874478,19.832009,33.557953,42.095626,47.107043,31.492463,41.711539,46.685781,49.767992,40.827952,50.370861,53.290667,55.526279,28.249054,53.380795,76.52813,96.353874,49.344521,80.199108,96.95652,109.629364,39.467754,74.416237,94.46743,108.128815,30.939274,62.863998,81.922302,95.0354,23.870258,47.824631,63.606148,76.362019,-11.682437,-11.712324,-6.008809,-1.959896,20.995078,38.420674,45.555008,49.518582,37.818299,55.644964,61.336808,61.994017,48.887863,68.164674,72.959903,72.177401,55.258653,73.017701,76.829924,75.41621,29.169617,325.248204,-75.753593,310.649542
10,-34.538269,10.931861,0.59166,0.283002,5.679073,6.804371,7.254295,7.24205,-18.795948,6.467857,24.655838,33.091278,-29.451942,-0.9799,20.200996,35.011368,-34.185333,-11.120338,9.144859,22.786903,-36.12711,-24.76965,-12.122383,-2.074127,-19.054325,-28.018014,-27.445835,-25.071223,-5.18123,10.85881,16.878858,19.771741,12.524651,28.489726,33.319905,35.148643,26.128637,39.028854,39.713295,39.531934,35.721625,46.754139,45.49474,42.929566,27.93663,52.824383,75.756741,95.313492,49.146709,80.065784,96.445541,108.77552,39.103088,74.092083,93.851624,107.157555,30.342178,62.372475,81.136436,94.082909,23.094349,46.887302,62.430611,75.180016,-11.75839,-11.76722,-6.027087,-1.838989,20.247096,37.936551,45.1963,49.231133,37.157816,54.969846,60.862318,61.740038,48.296479,67.292758,72.344066,71.9798,54.599467,72.39186,76.449789,75.324017,-5.343075,336.208917,-75.136356,310.961397
11,32.982559,-13.652646,0.848465,0.091391,-9.02607,-22.949867,-42.690582,-59.57571,-55.150108,-40.218658,-16.94561,-1.094398,-63.443012,-43.287163,-19.041481,1.859322,-64.832153,-48.936138,-23.823452,-3.460236,-62.965965,-63.066101,-51.034298,-38.154888,-3.168352,-2.295819,5.878516,16.797347,7.954379,29.553438,37.595195,42.557766,21.809505,38.989642,47.761968,51.982794,32.093974,44.950657,50.065073,52.891142,39.751087,52.250049,53.079357,52.795985,26.849213,51.794357,75.102882,94.566307,48.76482,80.107956,96.543045,108.785248,38.871117,74.035664,93.78788,106.720161,30.201416,62.533035,81.159668,93.848877,23.061676,47.312565,62.82692,75.380688,-12.238685,-12.229299,-6.25297,-1.973667,20.213133,37.757475,45.072367,49.139064,37.330285,54.820349,60.683365,61.446353,48.578432,67.585702,72.349067,71.668146,54.827079,72.588783,76.43009,75.160193,27.70154,322.567927,-74.225836,311.064443
12,-21.07069,17.487902,-0.457878,-0.5849,6.926594,6.75333,2.52943,0.143108,-25.249958,-5.598564,11.209316,21.873837,-36.035213,-13.113098,7.638073,24.158077,-40.759163,-22.38018,-4.081306,9.859028,-42.366543,-34.056244,-23.87043,-13.847065,-19.835282,-30.22553,-32.331034,-33.802423,-7.950304,7.607157,12.767021,15.80193,9.289238,22.775219,27.685859,30.220652,22.59287,33.369861,36.17123,37.796933,32.455337,41.905435,42.49614,42.412344,26.588287,51.708584,74.959145,94.178238,49.071064,79.65271,96.244698,108.840523,39.162025,73.908348,93.709831,107.120132,30.381546,62.179871,80.962887,94.057388,23.107624,46.95734,62.585335,75.459023,-12.389541,-12.375771,-6.74296,-2.43099,21.082455,38.41382,45.348268,49.128443,38.159717,55.497998,61.020584,61.706013,49.271086,68.256497,72.961755,72.46417,55.390305,73.156454,77.025673,75.874522,6.636429,340.057234,-74.678135,310.480948
13,24.358578,-19.575498,-1.260052,0.928911,-14.514999,-32.26965,-52.82135,-71.409473,-63.283424,-48.863525,-24.221649,-7.139053,-67.665939,-48.801785,-23.99437,-1.211243,-65.882549,-53.123989,-27.536201,-5.214729,-61.554909,-69.770279,-67.955418,-62.356625,5.892595,11.880224,23.128679,35.194709,12.16267,34.291671,43.421531,49.660608,20.939318,39.049417,48.794311,54.128867,27.55501,42.26439,49.256513,53.634123,32.939522,46.441867,51.320397,56.067645,27.325172,51.900215,74.880581,94.912891,48.859921,80.659962,98.130856,110.894566,38.933201,74.915314,95.041065,108.288288,30.291023,63.050022,81.868114,94.505024,23.355389,47.43845,63.072453,75.753136,-12.135623,-13.210883,-8.151363,-3.16971,20.089879,37.245193,43.892687,47.227209,37.198139,54.181973,59.706103,60.645388,48.375149,67.018216,71.803379,71.583054,54.728649,72.374694,76.188029,75.095232,31.00462,320.483403,-75.928574,311.411527
14,-19.125938,10.242973,-0.274086,1.024192,-2.724953,-9.209404,-15.496273,-19.981327,-38.140583,-19.677887,-1.404419,9.982567,-44.139462,-23.783913,-2.676315,14.585037,-43.961849,-30.20153,-9.956474,5.766335,-40.684605,-44.370346,-44.435463,-42.908707,-11.653476,-11.46347,-2.883929,4.37761,5.054209,22.570393,27.318382,31.047119,17.385396,31.171546,36.07916,41.358697,25.721764,37.956126,40.701611,44.025203,30.867425,41.030864,46.114652,52.577574,27.926788,52.653751,75.772705,95.981426,48.699245,81.137638,98.76749,111.543217,38.73682,75.312424,95.618305,108.800755,30.253372,63.903179,82.895908,95.34708,23.638744,48.629036,64.445972,76.942635,-12.2364,-13.249662,-8.340011,-3.949062,18.687836,35.769852,42.742894,46.453909,35.907309,53.201438,58.75916,59.614897,47.40505,66.043362,70.63926,70.158533,54.041985,71.2291,74.850268,73.451559,11.869211,330.728707,-76.21213,312.43805
15,17.625389,-11.090312,0.289421,0.163515,-15.270424,-32.786179,-52.769222,-70.05415,-61.073627,-46.322308,-22.361298,-5.675354,-65.628777,-46.709919,-22.194099,0.266762,-64.363976,-50.58054,-25.528965,-3.899231,-60.645905,-65.035343,-58.621159,-49.473953,5.977749,13.401568,26.286903,39.958692,12.108762,34.545218,44.237254,51.112607,21.433383,40.302641,50.426745,56.024358,28.708014,44.099427,51.044867,55.567775,34.645377,48.936337,52.248012,55.43952,27.493858,52.057114,75.11404,95.227261,48.438148,80.745335,98.295765,111.052723,38.749924,75.104027,95.59885,108.753719,30.408611,64.203014,83.181553,95.475826,23.741798,48.911247,64.70747,77.087975,-12.361136,-13.387736,-8.481604,-3.968205,18.604782,35.636966,42.612292,46.319355,35.756144,52.920968,58.525126,59.063158,47.211957,65.71837,70.326988,69.522195,53.836417,71.1148,74.83199,73.329108,29.534798,319.648322,-75.882511,312.611492
16,-16.827049,10.054326,0.340233,-0.312087,-7.434139,-16.606693,-24.996014,-31.231785,-41.378975,-24.674721,-6.355991,6.201324,-44.542007,-25.62109,-4.911461,12.569962,-42.342567,-29.544411,-9.307194,7.229576,-37.608776,-42.597141,-45.09819,-45.390759,-2.469893,3.128646,13.474496,21.695266,11.563938,29.140081,33.984092,37.79471,18.396559,32.532402,37.469594,42.534301,22.543161,36.312886,39.688472,43.634941,24.671513,35.714771,42.316137,50.173939,27.478352,52.096939,75.024662,95.113392,49.348927,81.16848,98.138981,110.550213,39.374428,75.187683,95.191898,108.017864,30.503139,63.853741,82.41188,94.441967,23.197289,48.070679,63.603516,75.717087,-12.121421,-12.928499,-7.744057,-3.202623,18.793182,35.788069,42.965196,46.928028,35.84914,52.943815,58.793,59.580564,47.183675,65.686568,70.485255,69.868615,53.680189,70.955546,74.782034,73.421672,12.725945,329.7045,-75.524082,312.301257
17,13.792534,-6.262048,0.192719,-0.158513,-6.19812,-18.707886,-36.955261,-52.104607,-50.583115,-35.320644,-13.591576,0.952606,-59.370632,-40.61697,-18.203087,1.314468,-61.938629,-49.759655,-26.048756,-7.119713,-61.385651,-71.461716,-70.701599,-66.695881,-7.034422,-6.20851,3.678904,14.812133,2.731715,23.603477,32.16332,38.156012,17.999936,33.49188,42.924379,49.234159,29.492614,41.151463,47.183737,51.775868,39.193048,49.499377,53.560887,57.498217,27.171879,51.74612,74.835835,95.173931,49.330444,80.896225,97.869244,110.393429,39.443092,75.042114,95.13216,108.020267,30.592976,63.864498,82.401752,94.437618,23.267326,47.965622,63.384018,75.522137,-12.380464,-13.198163,-7.929123,-3.380773,18.567855,35.70273,42.866148,46.78205,35.717179,53.219778,59.135467,59.905063,47.105931,65.769191,70.580412,69.919559,53.515748,70.739605,74.61963,73.386783,26.521826,323.440244,-75.328016,312.140537
18,-45.410786,11.987113,0.542679,-0.230638,11.694145,20.018463,28.028584,33.905239,-1.536484,23.350697,40.063992,48.595219,-13.327961,14.103527,33.932934,49.956493,-20.202312,2.592144,22.192726,36.679287,-23.994484,-13.989716,-3.344021,6.670074,-21.071278,-31.69309,-33.865161,-33.728693,-10.454777,6.058024,12.969871,17.432388,9.253608,25.893183,31.292083,33.346828,24.50985,37.206599,39.612457,40.313448,34.902444,46.441744,46.670776,43.83742,27.558346,52.155647,75.224361,95.660992,49.107971,80.6357,97.612209,110.096226,39.290314,74.769688,94.612598,107.326641,30.60997,63.624859,81.884594,93.66457,23.449059,48.078747,63.480835,75.565853,-11.959326,-12.711755,-7.577023,-3.122286,19.133736,35.97295,43.112409,47.041217,36.264288,53.171921,58.986772,59.780327,47.609815,66.004954,70.765293,70.074985,54.096819,71.492713,75.219721,73.752531,-18.895798,335.440711,-74.792175,311.923252
19,12.237282,-6.30799,-0.247707,-0.106087,-1.294899,2.100563,8.127079,6.316509,-17.791271,8.660488,27.091084,37.325878,-27.043877,1.286488,22.823467,38.617458,-30.715656,-11.012878,8.537464,24.318523,-29.285374,-32.049809,-31.002502,-26.912327,-11.763083,-12.274315,-1.754514,6.642862,0.661594,20.547758,29.752151,37.044319,17.014894,32.596746,39.623634,43.857798,29.16861,41.771807,47.164532,50.89012,39.086158,46.96971,48.189404,50.34968,27.311096,52.289886,75.418739,95.700531,48.888988,80.716381,97.916794,110.476685,38.717651,74.609642,94.699974,107.333679,29.942207,63.372402,82.03331,93.96389,22.937679,47.925167,63.635674,75.841885,-12.454564,-12.955175,-7.596721,-3.037997,18.530311,35.74015,42.924934,46.830957,35.979495,53.510437,59.170974,59.789651,47.485388,66.272333,70.737567,69.908074,53.975356,71.363901,74.977597,73.536713,-6.68601,329.116203,-75.067377,311.800647
20,31.793003,-8.466969,0.168686,-0.654616,-5.450249,-15.583649,-31.107101,-43.489437,-46.376953,-34.419136,-13.212433,1.196938,-55.307236,-39.175987,-17.849922,1.229553,-58.515129,-48.08979,-24.722958,-5.608635,-59.454002,-72.452145,-75.505943,-74.222488,-7.783454,-6.568762,4.730329,16.814328,1.631816,26.185324,36.343328,42.52121,16.99254,36.10985,46.311574,52.644943,28.995091,43.144519,50.32708,55.293851,39.442396,49.171359,55.775566,62.296039,26.880627,52.091789,75.591545,95.535393,49.112892,80.772114,97.639847,110.099831,39.21484,74.719391,94.49295,107.036476,30.552406,63.41217,81.81839,93.824844,23.470001,48.234615,63.683109,75.686188,-12.224914,-12.418008,-6.977056,-2.553318,19.432361,35.862478,43.04226,47.29674,36.673384,53.664813,59.409701,60.248827,47.913194,66.407319,71.088803,70.546264,54.049086,71.190259,74.958702,73.808847,25.089741,320.592562,-74.915943,311.089359
21,-33.243141,11.1562,-0.431786,0.039088,4.242096,6.81181,8.358536,8.808174,-14.128819,9.18972,26.875992,36.555862,-24.526749,1.048851,22.245712,38.656998,-29.548931,-9.047127,12.367458,28.472099,-31.631641,-23.524361,-10.375443,1.853943,-19.440326,-26.01409,-21.639506,-15.602971,-7.529907,9.358892,17.594113,22.701304,11.251666,27.68944,35.85198,40.163271,26.226203,39.793386,43.410478,44.736753,36.738655,48.235038,49.639921,48.69619,27.106533,52.457256,76.078033,96.267128,49.41988,80.985603,97.805328,110.11631,39.488125,75.091324,94.854355,107.515526,30.706615,63.595104,82.125549,94.349213,23.454723,48.232155,63.73558,75.855503,-12.608446,-12.943936,-7.246658,-2.956239,19.419146,36.14937,42.993601,46.78273,36.765701,53.702666,59.298427,60.169478,48.089121,66.634561,71.260161,70.901082,54.322887,71.321664,75.026812,74.091788,-8.168907,331.726347,-75.363235,311.106032
22,34.656143,-10.449528,0.818367,-0.636276,-7.03228,-19.347038,-36.969795,-51.089859,-48.715668,-35.808907,-14.255104,0.954437,-57.897434,-40.718708,-18.553047,1.800385,-61.069965,-50.102119,-26.120796,-5.726967,-61.7906,-73.122482,-73.050156,-68.235912,-5.531849,-3.045222,8.866433,21.293086,2.988535,26.374095,35.8555,41.772363,17.695877,35.877175,45.477079,51.485271,29.177193,42.812672,49.592312,54.683695,39.152355,49.274606,54.76607,60.296931,26.898136,52.017574,75.552921,95.470505,49.103966,80.732002,97.3312,109.559669,39.135303,74.743366,94.345551,107.012215,30.233288,63.086586,81.45298,93.775177,22.84481,47.447205,62.782974,74.981518,-12.232139,-12.46006,-6.633476,-1.954709,20.245181,36.994672,43.86564,47.718434,37.343376,54.295346,59.971506,60.859354,48.36811,66.924417,71.832711,71.600961,54.346723,71.485426,75.49099,74.761718,26.480742,321.251547,-74.551363,310.444484
23,-38.793068,11.828168,-0.079937,-0.153573,8.30658,14.688091,20.699959,25.921669,-9.344902,15.536728,33.045845,42.496033,-20.699673,6.621723,27.808228,44.739189,-26.647854,-3.843555,17.923679,34.080963,-29.771233,-18.507214,-4.641609,8.063335,-21.45586,-31.717111,-31.239904,-27.322828,-9.193278,6.858927,14.333753,18.521666,10.619712,26.557741,33.639957,36.190434,26.358472,39.006809,41.805029,42.04814,37.307438,48.755964,48.614988,45.296027,27.264633,52.663422,76.445503,96.137066,50.086842,81.332817,98.016644,110.425358,40.08625,74.92115,94.252911,106.963177,31.013317,62.974491,81.125507,93.597622,23.321056,47.249622,62.487831,75.051727,-11.873925,-12.146491,-6.675837,-2.193992,20.549302,37.119346,44.123819,47.979514,37.420441,54.303189,60.036221,60.904431,48.30321,67.105222,72.045564,71.632516,54.314119,72.108611,76.234095,75.345136,-12.375383,333.078017,-74.694357,310.289213
24,2.675571,-0.410764,0.250168,0.157217,5.056114,9.183311,14.78817,17.003117,-13.60033,13.753853,32.720318,43.099766,-23.541985,5.131989,28.17976,45.696659,-28.458138,-5.745792,15.025234,31.145382,-29.757214,-23.832722,-13.878822,-4.302635,-16.007559,-21.987716,-17.585962,-12.535581,-4.883717,12.806912,22.576198,29.94401,12.492602,28.359309,35.995303,40.175683,26.088129,39.148835,43.403685,45.41607,36.620403,46.587043,47.101732,47.026397,27.287807,52.480316,76.021442,95.952358,49.90202,81.201153,97.776318,109.960842,39.944515,75.228138,94.464397,107.203045,30.9585,63.257446,81.282635,93.602428,23.399849,47.368755,62.461681,74.966068,-12.173476,-12.677607,-6.900794,-2.238144,20.622229,37.160966,43.640683,46.867389,37.646015,54.046616,59.45731,60.267044,48.553917,66.943251,71.691055,71.409411,54.494306,71.826041,75.851798,75.158155,-9.779406,332.657389,-74.523783,310.436565
25,29.107418,-13.601022,0.340576,-0.633065,-5.73246,-16.413574,-32.531948,-46.29118,-43.037167,-27.571621,-5.748253,9.006958,-53.138294,-32.929001,-9.204941,11.426468,-57.385941,-42.095947,-16.396523,4.277687,-58.552322,-63.177681,-54.561539,-43.169403,-5.671837,-2.685093,8.861616,21.195026,5.105524,29.463159,38.892632,43.767272,20.852311,40.014699,50.021971,54.501593,32.605082,46.458972,53.711805,58.141533,42.480393,54.827759,58.625038,61.279689,26.70084,51.87355,75.519218,95.75346,50.095711,80.96529,97.4156,109.655628,40.002823,74.567585,93.785877,106.406307,30.851669,62.793388,80.646801,92.647991,23.186588,46.867104,62.03619,74.405136,-11.66737,-11.742829,-6.19017,-1.931368,21.298211,38.086728,45.019261,48.554164,38.16052,55.228148,61.07054,61.907135,48.912748,67.726308,72.666403,72.194938,54.716299,72.308189,76.577303,76.173332,19.201641,319.053557,-74.309578,309.80069
26,-36.699371,18.72433,-0.321293,0.007904,8.554859,15.408611,24.676895,32.888947,-3.354149,24.96769,43.322754,52.893105,-14.009743,15.524483,36.638374,53.077812,-20.448132,5.489445,25.209389,39.842606,-23.549938,-14.202404,-3.531132,6.340542,-20.261298,-31.309373,-33.082783,-31.533527,-8.383298,7.427154,15.114957,20.395605,10.470523,26.215149,31.552361,33.114399,24.586235,37.012147,38.999646,38.1951,34.396461,44.106343,44.18242,41.032099,26.375885,52.022209,76.066704,96.261635,50.127983,81.321259,98.089027,110.516167,40.151768,75.032101,94.543648,107.322807,31.137486,63.212585,81.117439,93.09494,23.633194,47.462769,62.562332,74.864502,-11.721463,-11.869047,-6.339606,-1.96638,21.309388,37.881902,44.90984,48.614247,38.213069,55.303545,61.168908,62.071885,49.053045,67.852649,72.675604,72.087307,54.941997,72.754459,76.891551,76.261821,-17.624245,337.774275,-74.757385,309.804982
27,6.497211,-10.527642,0.38126,-0.253794,4.128742,11.016026,21.120701,25.15852,-12.269955,15.475445,34.739628,46.259594,-22.019806,7.132988,31.924496,50.193157,-26.675491,-4.560356,16.609783,32.811413,-27.184696,-21.149082,-9.445324,2.134609,-14.0158,-16.4542,-9.161415,-2.227461,3.185642,19.688563,28.038269,34.006075,18.887413,33.937594,40.756816,43.192499,30.702675,43.062391,47.812541,49.889084,40.346114,51.774077,52.74078,53.721623,26.457767,51.904278,76.038551,96.282177,50.624313,81.8997,98.698139,111.09621,40.749607,75.549774,94.995975,107.64616,31.614933,63.655701,81.491833,93.343678,23.810406,47.627392,62.712135,74.90427,-11.722204,-12.094621,-6.403765,-1.596186,21.155259,37.583586,44.695998,48.259491,37.990644,54.912727,60.765863,61.363669,48.807093,67.65795,72.444966,71.58009,54.758536,72.672207,76.818624,76.053722,-11.236324,327.240349,-74.485416,309.544904
28,-9.468384,8.20348,0.300179,-0.427745,8.760166,19.315338,31.7803,39.841518,3.219509,29.558544,47.363949,58.106289,-7.51133,21.142216,43.68433,61.424274,-13.751278,9.082947,27.585926,42.791462,-16.785278,-8.525677,1.13863,10.627842,-17.304565,-22.196309,-19.050805,-14.760016,-8.162293,5.803736,14.361232,21.467098,8.020761,22.919592,31.323637,34.454816,21.93529,33.382211,39.217748,41.540737,33.769757,43.299759,43.708177,43.375404,26.759319,52.022324,75.870094,96.166134,50.90023,81.593342,98.269558,110.755062,40.82777,75.201645,94.374905,107.28075,31.591587,63.216248,80.907841,92.979641,23.667297,47.089348,61.882153,73.924141,-11.639212,-11.756105,-5.903772,-1.712154,21.732008,37.724623,44.543227,47.939747,38.500085,55.211476,61.074986,62.033105,49.133197,67.664434,72.554943,71.979121,55.005106,72.60317,76.792689,76.237676,-20.807133,335.423205,-74.287663,309.096535
29,1.456833,-0.623494,0.006752,-0.392794,7.377548,20.20752,33.620625,41.196957,3.537769,27.251873,43.225651,53.67445,-7.053051,18.605118,39.935818,56.705189,-13.575153,4.602242,22.50103,38.41444,-17.082596,-14.347572,-8.965416,-1.103783,-17.292338,-23.047847,-22.710196,-20.019237,-9.024082,3.115123,11.424258,19.424827,8.696866,21.22232,30.036882,34.674277,22.728351,32.915316,39.861496,42.916536,34.09549,42.751292,46.545979,49.234406,27.385883,52.615528,76.254902,96.298199,51.172543,82.1311,98.581867,110.747395,40.953655,75.616837,94.927883,107.702923,31.638851,63.514824,81.225529,93.049679,23.677769,47.484627,62.297459,73.847637,-11.768023,-11.830823,-5.879689,-2.013249,20.250245,36.623799,43.943384,48.132594,37.248219,54.708704,60.847868,61.82902,48.263999,67.175186,72.253972,71.783248,54.352651,72.029386,76.176049,75.242568,-19.460306,334.772263,-74.390917,308.676292
30,3.528042,-5.691721,0.603218,-2.140393,6.389408,15.666733,24.803467,28.762894,-4.50016,22.477226,38.636856,47.753906,-15.680923,15.750618,35.383301,48.138542,-20.922775,3.559284,22.134933,35.51239,-22.655983,-12.545357,-2.240925,7.794571,-18.16728,-25.097529,-24.999531,-21.620486,-5.160791,7.240051,14.895249,21.141983,13.665119,26.701681,34.589432,37.792364,27.844805,38.17219,42.36492,42.903013,39.093136,49.298503,50.120957,48.790359,27.2402,51.71648,74.519863,94.048748,49.695396,80.075397,96.902561,109.665585,39.6385,73.85685,93.348141,106.275959,30.478077,62.071381,80.31435,92.927341,22.550697,45.868778,60.865631,72.773438,-11.461803,-11.397274,-5.448424,-1.503067,20.688858,37.912592,44.785968,48.60517,37.659539,55.673863,62.028165,63.327579,48.706255,67.828876,73.068151,72.713518,54.998931,72.616323,76.809732,75.875633,-16.014175,329.095054,-73.86961,306.550411
31,9.680157,-1.498559,1.461697,-3.798021,2.747669,5.829277,8.983898,5.218792,-13.407154,9.75626,26.654835,36.056614,-22.521057,3.151474,24.367046,39.63644,-25.937347,-8.452263,10.036526,24.986172,-24.582138,-25.078926,-19.632511,-12.138233,-13.634738,-17.872792,-14.865547,-12.101722,-4.673209,9.326165,17.934481,24.630078,11.395236,25.102469,32.223403,35.206009,23.352771,34.142976,40.119613,43.668533,33.481876,41.399205,43.317544,45.816397,26.564255,51.160355,73.987541,93.425674,48.901749,79.351616,96.090202,108.650665,38.549767,73.067951,92.491837,105.391502,28.964825,60.998898,78.913078,91.188011,20.5093,44.370804,58.904171,70.349407,-12.566332,-11.511512,-4.794487,-0.797754,20.415551,38.05789,45.610583,50.115646,37.265386,55.946676,62.421207,63.918839,48.338778,67.706054,72.889137,72.630464,54.404706,71.737677,75.685072,74.7096,-6.666527,327.576611,-72.740421,302.732506
32,15.500278,-14.209634,0.204506,-4.990792,-0.101738,-5.084839,-16.959057,-29.286518,-34.541473,-17.443428,4.73156,18.458405,-45.783005,-24.874477,-1.373978,16.986008,-51.410751,-37.513618,-15.157127,1.658249,-53.221149,-61.428795,-59.021873,-53.486423,-13.971833,-13.206437,-1.92192,8.605784,-0.157278,21.38497,30.482782,35.348159,17.441219,32.269345,40.618804,44.581019,30.24529,41.187834,47.20714,51.320767,41.019317,50.421928,56.581779,61.671063,27.705746,51.758995,73.30759,92.761574,50.203114,80.482979,96.139297,107.118416,39.068298,73.935642,92.348671,104.792519,28.585796,60.980358,78.465271,89.847336,19.301605,43.970661,58.489723,69.153042,-14.700365,-13.583053,-6.750123,-4.463258,17.20774,35.886561,43.770174,48.889839,34.413813,52.316061,59.204257,62.477153,46.30756,64.274707,69.585181,70.923189,53.351924,69.395792,72.883394,72.179254,8.0476,313.370003,-73.322067,297.74474
33,-30.420799,9.682835,2.259235,-11.400485,7.566547,14.012146,19.297028,22.953358,1.165009,21.179008,37.877541,48.350487,-8.093891,14.44622,33.827477,47.745552,-14.716587,1.441727,20.013256,32.627907,-18.829651,-25.727921,-26.230717,-26.124344,-20.448834,-28.35863,-31.505369,-35.906444,-15.901287,-0.200442,10.867702,18.896305,0.28541,16.395661,25.993527,31.135113,14.295467,27.228412,33.009671,36.38149,26.861985,34.907199,41.083661,47.692066,27.944069,51.84866,71.870899,89.238682,52.18111,79.881992,93.352261,102.949963,40.124416,71.02993,87.379704,99.478626,27.166901,54.749393,71.057968,82.345905,14.475574,32.771244,44.67001,53.395958,-16.689778,-13.572988,-4.005132,-0.33654,14.309423,33.803534,43.790984,50.718886,31.458562,51.198996,60.548193,65.656187,43.473587,63.737231,72.316957,76.11047,50.19339,68.792367,75.556754,76.660481,-22.863894,323.059615,-71.553526,286.351033
34,22.221336,-20.124583,5.490017,-15.93068,-16.223087,-28.857079,-38.466625,-43.755455,-41.426582,-46.45649,-51.021996,-54.003468,-36.953602,-28.869667,-15.300522,-3.546581,-27.333241,-12.159634,9.036598,25.661888,-15.887203,-5.157166,9.797401,23.655167,18.146223,33.359857,43.444379,52.150014,20.465198,30.828646,38.318971,46.928769,8.652776,23.215253,38.344474,51.383197,-0.60713,18.214828,30.046948,38.393133,-6.143178,9.576254,21.030647,30.821545,26.132355,47.759914,65.571384,81.985817,50.078201,73.694572,87.100868,99.386444,37.633781,61.966667,76.470337,89.93248,22.786102,40.730438,52.740154,62.787209,7.532501,14.558029,18.654385,20.99493,-13.647397,-9.936876,-0.768731,4.393171,13.753484,33.123106,45.801454,56.934683,29.568382,51.611365,65.157182,76.743783,40.713961,63.216305,75.674821,85.821155,46.768218,66.170198,74.456547,78.643843,-0.899019,303.142097,-66.319971,270.627417
35,29.295044,-45.540558,10.995598,-24.051415,-37.137051,-66.33316,-85.563755,-96.057529,-64.143734,-84.923058,-92.40675,-98.600693,-48.744164,-68.415871,-79.436703,-85.503044,-32.096901,-46.185093,-55.510311,-63.601685,-15.297089,-17.360229,-19.594231,-22.942772,-9.430893,-10.306391,-11.15163,-9.221004,30.331185,50.300774,59.671276,65.789568,40.835362,61.953015,72.476335,78.805814,46.262112,64.604887,73.799893,80.196619,45.628676,60.246604,66.050958,69.765554,30.552349,47.651539,54.730968,59.032917,45.119934,56.143398,54.51622,52.130871,33.172932,38.50153,32.153664,24.052219,18.227577,15.187912,5.947208,-1.532364,1.689949,-1.573048,-8.021393,-12.868538,16.938262,40.241138,62.397186,78.327434,33.582838,55.653794,70.526998,83.210965,31.730449,58.708648,76.880436,90.536663,31.146537,59.464288,75.111966,86.156645,32.218524,54.852273,67.118252,76.586072,27.967186,258.170707,-55.753212,247.145171
36,0.617638,-5.988061,-4.369411,-39.745159,-29.453716,-52.325077,-64.715424,-73.006725,-60.573521,-82.473507,-91.650066,-98.540611,-51.115494,-74.01226,-85.477753,-93.81134,-39.176502,-58.199787,-69.314404,-78.033199,-24.26445,-37.612667,-46.273727,-53.238602,-1.703941,5.51882,14.831893,22.022111,14.328319,30.912565,42.099702,51.917462,23.005486,37.093534,48.239175,58.33722,30.108389,43.739175,53.253679,62.063795,35.799616,47.97019,55.580373,62.920829,29.1996,53.568649,70.289555,84.42358,69.448872,82.306995,78.23061,68.296452,56.969376,66.166248,55.558376,41.795654,40.788746,42.789803,31.253529,17.410526,23.006001,23.035469,14.821358,4.100704,-12.148591,-12.592329,-12.803516,-17.180508,25.598325,53.058733,70.575472,78.408944,37.632924,71.916012,89.988875,99.655779,45.400755,78.064686,95.020422,104.325222,48.867547,77.864676,92.769002,102.551626,28.683901,253.928655,-60.023546,209.146021
37,2.277031,-0.120784,0.202675,-33.004175,-23.971939,-43.575783,-57.092056,-70.211334,-55.378876,-77.272282,-88.429985,-96.992226,-49.085655,-71.684303,-83.521385,-92.467518,-39.223709,-58.011703,-69.901886,-79.700203,-26.21418,-36.408463,-44.89912,-52.264194,12.997535,21.211946,27.646215,35.296597,13.443126,18.842088,23.081748,28.818053,12.432457,17.090168,22.71773,28.178813,11.546648,16.342617,20.776111,25.910164,11.922276,14.886728,18.930577,24.196405,27.442875,55.693302,73.21352,77.448864,57.890797,87.229328,82.827816,72.436581,52.716122,83.363056,77.782001,65.685596,45.477047,73.531437,70.111027,59.828224,37.722988,64.048405,66.690044,61.010685,-9.477144,-9.669806,-10.880608,-14.717531,-0.207481,20.74184,27.024327,28.299782,10.674485,32.460895,38.326875,40.662893,21.417019,41.473553,45.713768,47.003796,30.981664,43.04615,45.852274,48.178659,31.392117,256.699272,-59.389687,179.033247
38,15.738201,-43.663161,-9.515018,-34.298155,-34.177093,-63.213758,-82.682075,-98.378391,-77.805748,-102.510881,-113.111686,-119.202347,-70.530653,-97.233238,-107.356167,-113.649273,-60.956497,-83.77284,-94.194889,-100.059099,-49.096698,-64.601726,-71.723814,-75.266018,13.713624,22.535226,28.317381,33.402712,20.427561,25.174038,27.611357,31.081175,19.441438,24.975726,28.149172,30.48516,18.47878,24.067717,26.025823,27.978649,18.138906,21.815587,24.296811,27.700988,27.317791,54.801922,74.131966,81.408463,64.508114,89.467964,83.125877,74.808311,61.996422,86.412048,77.841568,68.202381,55.81358,79.012299,71.015854,62.204132,47.795448,67.045841,61.11866,52.361526,-23.003819,-37.651634,-52.84486,-68.87218,-26.043823,-18.492581,-16.093145,-17.624741,-7.319585,2.682808,3.370276,1.709498,11.253704,21.370521,21.044849,18.601756,29.204796,36.428853,32.935755,28.227287,47.092666,215.872076,-68.942356,147.571057
39,15.738201,-43.66316,2.494611,-24.580801,-44.382248,-82.851734,-108.272095,-126.545448,-100.23262,-127.749481,-137.793388,-141.412468,-91.975651,-122.782173,-131.190948,-134.831028,-82.689285,-109.533978,-118.487892,-120.417995,-71.979218,-92.794991,-98.548508,-98.267841,14.429713,23.858507,28.988546,31.508827,27.411996,31.505986,32.140966,33.344296,26.450418,32.861284,33.580615,32.791507,25.410912,31.792817,31.275534,30.047133,24.355536,28.744446,29.663045,31.205571,25.153714,50.079603,66.962185,73.880368,59.950905,82.45059,79.685355,73.788214,57.887736,80.082751,75.264559,67.388935,53.683834,76.250124,71.941653,64.84397,48.309346,67.476569,63.766079,56.010447,-27.738316,-44.776428,-59.659806,-73.677165,-35.443224,-36.607219,-38.258718,-41.292779,-19.541783,-19.199855,-21.859523,-24.832203,-2.95695,-1.252067,-3.919345,-7.084949,14.345006,17.053395,12.975614,8.51674,62.735996,174.453389,-66.542616,125.234729
40,-2.64679,-17.765655,2.494612,-24.580802,-52.063408,-87.268353,-111.087856,-131.244278,-93.262424,-119.863987,-127.52203,-131.256409,-83.315792,-109.145908,-115.357704,-118.911724,-74.228096,-96.377678,-102.903671,-105.546227,-65.824699,-83.40786,-89.275188,-92.170773,5.504246,18.026366,25.84335,26.85087,39.040648,41.128491,33.196651,27.858884,36.43651,40.045389,29.624081,20.538681,31.821778,34.443454,25.766533,18.316654,25.958823,28.671396,24.919811,20.798095,22.989635,45.357285,59.792404,66.352272,55.393696,75.433216,76.244831,72.768116,53.779049,73.753452,72.68755,66.575489,51.554089,73.487949,72.867451,67.483807,48.823242,67.907295,66.413498,59.659367,-32.472813,-51.901221,-66.474751,-78.482149,-44.842624,-54.721857,-60.424291,-64.960816,-31.76398,-41.082518,-47.08932,-51.373904,-17.167603,-23.874654,-28.883539,-32.771654,-0.514782,-2.322062,-6.984527,-11.193806,59.916372,159.272869,-64.220839,103.239063
41,-2.26676,-16.027898,-4.523964,-11.234716,-49.61689,-83.455596,-105.923724,-124.338684,-92.780857,-120.544724,-129.825025,-133.975596,-83.640189,-112.543831,-120.361276,-123.838634,-74.154868,-99.722128,-108.359656,-112.259474,-64.007063,-83.673949,-91.95312,-97.211337,2.117684,11.103998,16.028145,16.11996,30.612558,31.167949,23.109698,17.729184,28.754488,30.310074,20.009874,11.457349,24.705591,25.704211,16.924013,9.659555,18.917933,20.139048,16.295309,12.576236,30.536385,51.60078,67.590065,75.799427,54.524632,71.066093,78.069363,81.389065,51.560783,70.469398,80.124607,86.443806,47.200985,65.658875,74.760075,81.151485,42.255077,55.222778,62.391014,68.046741,6.962359,2.98801,-6.424698,-14.948818,-16.734084,-28.019805,-37.413617,-45.991614,-29.683238,-44.505313,-56.145049,-66.679855,-40.329595,-55.102054,-65.781757,-75.101499,-48.585379,-62.646657,-73.091894,-82.562802,57.831316,147.983867,-68.563099,96.743244
42,-2.26676,-16.027898,17.812729,-16.702282,-47.170372,-79.642839,-100.759592,-117.43309,-92.29929,-121.225462,-132.128019,-136.694784,-83.964586,-115.941753,-125.364847,-128.765545,-74.08164,-103.066578,-113.815641,-118.972721,-62.189426,-83.940039,-94.631052,-102.251902,-1.268879,4.181629,6.21294,5.389051,22.184468,21.207407,13.022745,7.599484,21.072467,20.574758,10.395666,2.376017,17.589404,16.964968,8.081492,1.002456,11.877043,11.6067,7.670806,4.354376,20.995159,39.104347,52.231064,60.651226,36.341114,51.742058,56.61478,57.035122,37.449703,56.287937,59.670696,57.653904,39.499168,61.395321,62.352848,59.063129,43.47393,61.330547,60.038395,55.203838,-34.51601,-58.200072,-75.318923,-87.68364,-55.605598,-72.46099,-81.101355,-87.121742,-41.495196,-57.041295,-65.595826,-70.032933,-24.77621,-35.662715,-43.482818,-48.678035,-5.418784,-12.099777,-18.558531,-23.473061,55.761394,136.540736,-50.553532,84.625729
43,-2.26676,-16.027899,-5.358067,-3.084773,-44.723854,-75.830083,-95.59546,-110.527496,-91.817722,-121.906199,-134.431014,-139.413972,-84.288983,-119.339676,-130.368418,-133.692455,-74.008412,-106.411028,-119.271626,-125.685968,-60.37179,-84.206128,-97.308984,-107.292466,-4.65544,-2.740738,-3.602264,-5.341858,13.756379,11.246865,2.935792,-2.530215,13.390446,10.839444,0.781459,-6.705315,10.473218,8.225726,-0.761027,-7.654643,4.836154,3.074353,-0.953696,-3.867482,18.476257,39.258213,56.419601,66.40892,34.891319,49.65271,56.145115,60.880737,35.377293,51.230278,60.642929,68.827286,37.103004,55.523758,63.687057,68.824539,40.039959,55.655823,61.769485,64.813156,-32.959313,-54.719541,-67.854039,-79.927263,-50.244828,-68.424489,-82.587934,-96.163947,-36.602526,-52.237483,-64.045119,-75.178965,-20.419472,-33.481043,-42.31305,-50.804133,-2.437289,-12.398309,-19.804376,-26.689948,53.881244,123.667218,-55.524988,84.695337
44,-2.26676,-16.027898,-1.524181,-3.345051,-42.277336,-72.017326,-90.431328,-103.621902,-91.336155,-122.586937,-136.734009,-142.13316,-84.61338,-122.737598,-135.37199,-138.619366,-73.935184,-109.755478,-124.727612,-132.399216,-58.554153,-84.472218,-99.986916,-112.333031,-8.042003,-9.663106,-13.417469,-16.072768,5.328289,1.286323,-7.151161,-12.659915,5.708424,1.104128,-8.832748,-15.786647,3.35703,-0.513516,-9.603548,-16.311742,-2.204737,-5.457995,-9.578199,-12.089341,18.037319,39.307079,55.951767,68.125248,37.888412,53.056812,59.757671,62.181873,34.590054,48.344078,59.706631,65.455341,30.185051,46.143322,58.523941,63.990612,26.572323,40.99926,49.609852,52.500858,-29.245427,-50.879561,-65.9378,-83.920323,-45.629602,-58.696051,-72.38266,-86.802369,-28.475832,-32.361075,-43.780023,-57.07464,-9.389088,-8.290579,-17.412227,-29.005898,8.379624,12.953199,8.711748,1.229543,51.844625,109.757621,-56.819029,83.468588
45,5.245972,1.004926,2.817307,6.949978,-40.0597,-68.548107,-86.315746,-100.276165,-85.42923,-114.917049,-130.880756,-141.028633,-79.619064,-114.857483,-131.81488,-143.2897,-70.54533,-102.570705,-120.62479,-133.757057,-56.806755,-79.920216,-95.225945,-108.686714,-5.09867,-3.560621,-6.041815,-9.333667,12.956626,8.512016,0.761537,-4.430314,13.388632,8.548202,-1.034536,-8.017519,10.212036,6.322501,-3.025338,-10.022648,2.986096,1.202497,-3.245663,-5.939618,15.841827,36.89146,52.280617,63.608837,33.490105,47.777939,54.738693,57.761993,31.048794,46.19379,56.861858,62.861767,28.419285,45.606022,57.433319,64.100246,26.164799,41.623478,51.849174,57.811546,-30.820001,-54.071038,-70.440177,-87.785559,-47.735075,-63.671251,-77.405778,-90.967743,-31.841446,-41.589026,-52.461452,-63.018858,-13.433308,-17.883321,-26.464899,-36.320666,5.136492,5.871198,0.634856,-6.717735,57.442131,111.142992,-53.650188,90.79901
46,4.174919,7.36457,2.91481,7.536236,-36.742172,-65.846786,-84.09874,-100.405598,-81.725693,-108.083324,-123.911362,-134.79681,-76.554737,-107.721004,-123.251724,-134.369431,-68.699741,-97.234154,-113.458557,-125.606804,-56.729794,-78.046303,-93.764992,-108.117943,0.932308,2.010748,-0.941786,-5.125408,13.743172,9.367754,2.24861,-3.888948,12.040126,6.506178,-1.234329,-7.357407,7.749183,1.89654,-5.185614,-10.993673,0.265033,-2.691855,-4.453965,-6.349455,15.161934,33.712177,48.292122,58.618641,29.684887,41.912498,47.419796,49.835415,29.290237,43.400345,51.941986,56.936703,29.359818,45.850754,54.263191,58.316288,30.16983,44.759331,51.3414,53.69276,-32.028518,-57.067384,-74.23582,-89.165248,-49.696546,-65.891148,-78.868583,-92.009688,-35.575092,-48.02169,-58.620191,-69.275749,-19.377495,-28.257205,-36.94274,-46.582257,-2.224404,-6.036751,-12.735189,-20.894765,61.975279,118.552671,-50.37715,98.380355
47,2.734222,12.541323,2.380142,2.997766,-35.38044,-61.147385,-78.57748,-94.248791,-77.759972,-104.694729,-120.084457,-130.051403,-71.361637,-98.164501,-106.836319,-111.907425,-62.06274,-85.947762,-91.06636,-93.882408,-50.53093,-72.036724,-85.177402,-96.242352,-8.127095,-10.19913,-16.196207,-23.945112,13.429912,10.029101,1.529619,-7.383003,13.764414,1.45345,-14.28605,-26.663797,10.07529,-5.939649,-24.604822,-38.375411,3.383892,-0.732113,-4.515252,-8.246953,16.185207,32.021484,44.653015,52.793941,26.303101,39.700298,45.31929,48.629551,26.173496,41.838226,49.861736,53.536835,26.56168,44.463844,51.968422,54.209461,28.560047,44.022102,48.191071,48.131733,-33.301441,-58.346606,-77.188138,-94.542351,-47.386062,-58.004354,-65.632877,-74.157953,-30.524989,-38.347716,-46.017333,-53.624737,-12.388028,-17.917747,-25.293741,-32.577974,4.91981,3.377902,-2.029798,-9.241073,64.878101,130.596425,-47.828407,100.880552
48,-0.795937,9.3701,2.585621,3.743433,-34.23111,-61.60532,-78.551445,-92.436161,-77.834129,-97.450962,-99.738808,-96.3307,-71.138649,-88.757114,-81.661949,-70.834694,-61.582947,-77.678547,-73.5993,-66.457214,-50.699501,-66.211967,-73.133526,-76.790886,-0.71189,-2.314622,-6.779825,-12.654728,14.126364,0.397827,-17.958378,-30.945818,11.670859,-13.947195,-37.907312,-54.311618,6.365263,-20.47727,-42.855928,-58.067432,0.103679,-17.595039,-29.257469,-37.099184,15.664616,31.424503,43.541679,51.755676,27.957516,39.437599,43.760834,45.632,28.897133,43.461742,50.15831,53.063507,30.124912,47.677345,53.850517,55.293961,32.441597,46.655903,50.977192,51.264381,-33.468816,-57.758464,-75.820243,-92.398253,-48.313615,-61.585693,-71.437323,-81.562754,-33.170808,-43.16749,-51.104579,-58.787257,-15.763089,-23.834362,-30.996793,-37.716689,2.371525,-1.443941,-8.737375,-16.647849,64.176064,139.640498,-45.148888,104.297959
49,2.619553,1.036944,-0.276833,1.571826,-32.282639,-57.973595,-74.058666,-88.663216,-70.183983,-92.251682,-107.265759,-119.20927,-65.474453,-92.48148,-108.489933,-120.676174,-58.543167,-84.10738,-100.542126,-112.739468,-49.194374,-67.110329,-80.675182,-92.645588,-3.532741,-2.512439,-2.921288,-4.997893,9.471587,12.77758,12.528973,12.137105,10.11268,13.721744,12.732688,10.565434,10.415257,13.520314,12.775357,11.51886,10.103973,12.462159,12.760229,13.140179,23.891144,39.232979,49.07095,54.500198,35.867615,47.622986,49.723263,49.209881,34.946823,50.799122,53.797874,53.623123,34.2346,51.913147,54.991379,54.528236,33.801899,47.273483,51.585732,52.721786,-15.562524,-32.33477,-45.200468,-58.100036,-43.3654,-60.339415,-72.402543,-84.011436,-38.422496,-54.210471,-64.477959,-74.336443,-30.924668,-44.182883,-53.147252,-61.151526,-21.048678,-30.064917,-37.261989,-43.282716,66.836329,140.557199,-45.385008,105.749541
50,2.93335,3.766652,12.149792,-13.542452,-31.065331,-56.239014,-72.714272,-88.238754,-66.246414,-90.19598,-107.599926,-123.274155,-61.128845,-89.430256,-109.737682,-127.654667,-54.162254,-80.749855,-100.424767,-116.977844,-45.182533,-64.322834,-79.30006,-92.84008,1.285088,4.311352,6.116749,6.247783,12.468581,16.773388,16.91776,16.125256,13.307708,16.671932,16.200035,13.506174,13.798068,16.703548,16.799694,15.447668,13.583794,17.16328,18.031923,17.918179,20.40247,32.868977,39.372768,41.665134,36.673851,46.203747,43.919735,38.610821,33.448849,44.074917,42.10825,37.810822,29.721394,42.437153,43.340092,41.262417,25.509281,36.13512,38.1003,37.159939,-24.944419,-48.268475,-64.834228,-81.705366,-44.694485,-64.151577,-78.299368,-89.358188,-37.90302,-58.351916,-72.996644,-85.163359,-30.567967,-50.971723,-66.290889,-77.970979,-22.174141,-38.567393,-51.397925,-61.909358,69.687853,144.014542,-33.317041,91.897781
51,-3.174362,6.482064,23.555031,-33.138791,-29.505043,-55.590477,-72.88868,-88.861656,-66.854324,-89.103928,-108.277931,-126.20327,-60.976982,-87.008686,-109.167137,-130.594025,-51.803741,-77.102451,-98.021679,-116.37989,-39.802208,-58.189545,-73.505974,-87.640743,5.238596,9.532041,12.084864,14.440025,10.880176,15.759446,16.546579,15.110449,10.952918,15.158368,15.142066,14.080514,11.440684,15.062284,15.464773,15.153489,11.912704,15.762472,17.389534,18.582428,20.412426,24.760494,22.334118,17.563648,20.63158,23.894863,21.51392,17.74538,14.447765,13.947029,11.999531,8.920498,8.602753,8.910313,7.035141,4.601269,4.358139,5.124149,2.842426,0.957813,-25.210902,-52.669983,-71.438249,-82.353344,-75.847599,-102.909871,-112.095369,-114.2269,-69.586694,-98.674102,-106.04142,-107.983254,-59.70354,-83.779779,-86.478117,-83.873176,-48.107461,-65.554515,-69.084972,-67.96661,65.867643,149.541868,-10.407858,57.804252
52,-2.37236,4.657587,9.120498,-53.941095,-30.375137,-57.565498,-75.655918,-92.529488,-65.531902,-88.163395,-107.165165,-125.030651,-59.151249,-85.442333,-107.38884,-129.011478,-49.28833,-74.053802,-94.199753,-111.851807,-36.25351,-54.018173,-69.591007,-83.341255,5.923594,11.137737,14.197963,18.237058,7.482174,12.569976,13.885939,12.904169,7.846254,12.950729,14.164433,13.997028,9.63504,14.969535,16.360278,16.840017,12.488465,17.448567,19.554071,20.997425,6.889886,4.803957,-0.453229,-4.811998,6.647987,7.571268,5.877513,2.327599,8.033652,6.343345,5.822196,3.807349,8.867712,8.030018,7.240219,5.607962,9.522485,10.352196,9.199233,7.936434,-16.056447,-32.098308,-44.849402,-53.871207,-38.898025,-48.885212,-56.379875,-60.792528,-35.977516,-44.656459,-52.950859,-58.66843,-31.800077,-39.233244,-43.972365,-45.593869,-27.41183,-32.419133,-36.787241,-38.774709,63.021584,155.340047,-1.761059,5.003748
53,-1.377068,4.414907,9.120497,-53.941096,-32.080193,-59.011059,-77.594776,-95.57991,-64.460735,-87.099609,-106.339531,-124.952602,-57.210274,-82.365646,-103.439369,-124.831982,-46.387138,-69.592609,-88.694744,-106.134052,-32.388039,-48.556023,-63.553276,-76.721821,3.722932,8.91361,12.577386,16.475689,6.423093,12.328532,13.928732,13.033536,7.758322,14.256256,15.214684,14.686533,10.065626,15.999038,17.300181,17.791776,12.991854,17.706684,19.593159,21.072143,-6.632652,-15.152578,-23.240576,-27.187643,-7.335605,-8.752327,-9.758892,-13.090181,1.619539,-1.260338,-0.355139,-1.305799,9.132672,7.149725,7.445297,6.614657,14.686833,15.580244,15.55604,14.915056,-6.901991,-11.526633,-18.260554,-25.389068,-1.94845,5.139448,-0.664381,-7.358156,-2.368337,9.361184,0.139702,-9.353605,-3.896614,5.313291,-1.466611,-7.314561,-6.716199,0.71625,-4.48951,-9.582808,61.233387,160.525136,6.948309,-48.167166
54,-1.916885,4.269423,9.120498,-53.941096,-31.942062,-57.9986,-75.951691,-92.962132,-63.310204,-86.023979,-105.13979,-123.513565,-56.468296,-80.703449,-100.656052,-121.095715,-46.081696,-68.453865,-87.091141,-104.408398,-32.442741,-47.774162,-62.344208,-75.399342,1.505537,6.612111,10.669668,13.965103,6.488733,12.578065,13.717607,12.188667,8.398303,15.730609,16.364168,15.293601,10.868073,17.340689,18.389828,18.375688,13.446523,18.911496,20.71504,21.948443,-20.155192,-35.109115,-46.027923,-49.563289,-21.319199,-25.075922,-25.395298,-28.507962,-4.794574,-8.864021,-6.532474,-6.418948,9.397631,6.269431,7.650375,7.62135,19.851179,20.808291,21.912846,21.893678,2.252466,9.045042,8.328293,3.09307,35.001125,59.164108,55.051113,46.076216,31.240841,63.378828,53.230263,39.961219,24.00685,49.859826,41.039142,30.964748,13.979432,33.851633,27.808221,19.609094,59.182377,165.995821,15.934682,-100.907
55,-1.313438,5.36185,9.120498,-53.941096,-31.382332,-57.102127,-75.142879,-92.161388,-62.59037,-85.137634,-104.239597,-122.679176,-55.750294,-79.852123,-99.974899,-120.228996,-45.459023,-67.851791,-86.543369,-103.584137,-32.059135,-47.456818,-61.676617,-74.48267,1.858132,6.209251,9.899826,12.934797,5.059891,11.34071,12.647596,11.180777,7.001817,14.07014,14.452746,13.00087,9.45899,15.508863,16.202814,15.721223,12.078381,17.159637,18.877904,19.689736,-33.677731,-55.065651,-68.815269,-71.938934,-35.302792,-41.399517,-41.031704,-43.925743,-11.208687,-16.467705,-12.709808,-11.532097,9.66259,5.389137,7.855453,8.628044,25.015526,26.036339,28.269653,28.872299,11.406922,29.616717,34.917141,31.575209,71.9507,113.188768,110.766608,99.510588,64.85002,117.396472,106.320825,89.276044,51.910314,94.406361,83.544896,69.244056,34.675064,66.987017,60.105952,48.800996,58.345957,171.571065,25.532198,-154.634702
56,-1.954079,4.421391,0.699958,8.267011,-28.683815,-53.001995,-69.674149,-83.929081,-61.149845,-84.310112,-102.838898,-120.506344,-55.548763,-80.932617,-101.47356,-121.219711,-46.628151,-69.581966,-88.251171,-104.825306,-34.628677,-49.961929,-63.820438,-76.081238,1.806941,5.835229,8.766829,10.55296,4.729217,10.205305,11.217024,9.865678,6.059136,12.721326,13.355194,12.148838,7.965247,14.207905,15.650765,15.330775,10.716166,16.443085,18.811831,19.647129,-33.326778,-54.556026,-69.132728,-73.179245,-34.156551,-39.628982,-40.647697,-44.414463,-11.284446,-14.263572,-12.885971,-12.985267,8.638726,6.586724,8.026925,8.56247,23.447724,27.467766,29.826317,30.474587,7.009119,21.09339,24.824546,20.256404,63.326596,102.083574,100.424288,90.202259,60.362299,109.884215,101.15987,85.701436,51.384993,92.090895,83.215293,69.379557,37.41037,69.338905,63.967308,52.982075,56.606598,175.7677,26.446876,-146.592447
57,-0.399742,4.157902,0.699959,8.267011,-29.005737,-53.01075,-70.051117,-84.197845,-60.038624,-83.426685,-101.398602,-118.972034,-54.029617,-79.034214,-99.106407,-118.389645,-45.063515,-67.747192,-86.206627,-102.5984,-33.253098,-49.071465,-62.757454,-74.909706,-0.318076,2.505708,5.481831,7.773451,2.633223,9.205072,10.80589,10.237786,4.696736,12.374721,13.536617,12.858597,7.551273,14.236928,15.657928,15.505837,11.465137,17.25078,19.410439,20.081543,-32.975826,-54.046402,-69.450187,-74.419555,-33.010311,-37.858448,-40.263691,-44.903183,-11.360206,-12.05944,-13.062134,-14.438438,7.614861,7.78431,8.198395,8.496895,21.879921,28.899193,31.382981,32.076874,2.611317,12.570063,14.731951,8.937601,54.702493,90.97838,90.08197,80.89393,55.874578,102.371959,95.998915,82.126829,50.859672,89.77543,82.88569,69.515058,40.145677,71.690793,67.828665,57.163154,55.905218,179.742868,26.845197,-138.508171
58,-1.860695,5.127507,0.699959,8.267012,-27.268753,-49.829693,-65.300961,-77.219353,-59.663429,-82.808418,-99.987202,-116.614494,-54.284592,-79.2976,-98.881931,-117.452374,-45.884743,-68.367348,-86.597614,-102.784252,-34.481049,-49.96027,-63.186436,-75.166111,-2.000158,0.631707,3.631109,5.466579,1.335785,6.986997,8.341369,8.184523,3.852485,10.641263,11.760983,11.38128,7.078326,13.059656,14.298061,14.286699,11.262287,16.728989,18.678141,19.396607,-32.624874,-53.536777,-69.767647,-75.659866,-31.864071,-36.087914,-39.879684,-45.391903,-11.435966,-9.855309,-13.238297,-15.891609,6.590996,8.981895,8.369865,8.43132,20.312119,30.33062,32.939644,33.679161,-1.786486,4.046736,4.639355,-2.381204,46.078389,79.873185,79.73965,71.585601,51.386856,94.859702,90.837959,78.552221,50.334351,87.459964,82.556086,69.650559,42.880984,74.042681,71.690021,61.344233,53.710928,184.506989,27.211561,-130.604545
59,1.08284,3.435855,0.525208,-12.979417,-27.745743,-49.70192,-65.366421,-78.651638,-59.094429,-82.86993,-99.884834,-116.339779,-53.118553,-77.978325,-97.187119,-115.337563,-44.1259,-66.415787,-84.233379,-100.25671,-32.158699,-47.485542,-60.369987,-72.328434,-4.071822,-1.868135,1.151275,3.233005,0.725629,6.667501,8.623383,9.222115,3.907319,10.43125,11.874975,11.966983,7.458524,12.836182,14.084343,14.349746,12.093015,16.987353,19.036479,20.130079,-31.977406,-51.001034,-64.345112,-67.029763,-34.780922,-36.173878,-36.728211,-39.862481,-13.941575,-10.479165,-10.757447,-12.031861,5.040664,8.892898,10.119209,10.346527,19.973259,29.408874,32.589683,33.38211,9.023649,24.080942,31.970154,30.719379,56.558664,92.891042,93.334821,86.36708,54.649269,102.23391,97.850547,85.715881,47.4322,89.490086,85.146326,73.468067,35.646573,69.131222,68.05515,59.151461,54.36779,187.007155,27.310791,-144.51965
60,0.054703,2.535101,0.525207,-12.979417,-28.259583,-50.956707,-67.143459,-81.362514,-58.824463,-82.197418,-99.350624,-115.953999,-52.527866,-77.079792,-96.17815,-114.537563,-43.322754,-65.173531,-82.815228,-98.768005,-31.200714,-45.7061,-58.463802,-70.231934,-2.525901,0.097998,2.936356,5.013578,1.932911,7.433021,9.470043,9.994736,4.543163,10.825156,12.358233,12.292284,7.261848,12.65939,14.067361,14.398899,10.990215,16.035285,18.128439,19.340167,-31.329937,-48.46529,-58.922577,-58.399658,-37.697773,-36.259842,-33.576736,-34.333057,-16.447182,-11.10302,-8.276596,-8.172111,3.490334,8.803902,11.868553,12.261734,19.634399,28.487129,32.239723,33.08506,19.833785,44.115148,59.300953,63.819962,67.038939,105.908898,106.929993,101.148559,57.911682,109.608119,104.863135,92.879541,44.530049,91.520208,87.736565,77.285575,28.412162,64.219765,64.420279,56.958688,53.540154,188.152903,26.953659,-158.888421
61,1.923752,0.745019,0.525208,-12.979417,-27.864189,-51.620178,-68.292847,-82.350769,-58.195095,-82.003212,-99.99321,-117.185383,-52.23793,-77.615891,-98.0476,-117.025337,-43.465919,-66.354618,-84.766216,-100.726318,-31.942291,-48.418007,-61.979256,-73.723698,0.553098,3.545091,6.519361,9.035691,1.895738,8.064727,10.52931,11.194362,3.59338,10.874618,13.081948,13.40305,6.191405,12.575904,14.99547,15.834535,10.277924,15.973288,18.730567,20.035724,-30.682468,-45.929546,-53.500042,-49.769554,-40.614624,-36.345806,-30.425262,-28.803635,-18.952789,-11.726875,-5.795746,-4.312363,1.940002,8.714905,13.617897,14.176941,19.29554,27.565384,31.889763,32.78801,30.64392,64.149354,86.631752,96.920544,77.519213,118.926755,120.525164,115.930038,61.174095,116.982327,111.875722,100.043201,41.627898,93.55033,90.326805,81.103084,21.177751,59.308307,60.785407,54.765916,54.920254,188.274366,26.935215,-172.491393
62,1.402702,-0.336354,-3.238507,1.768779,-26.845551,-50.185547,-66.736565,-80.297413,-57.477436,-81.855011,-100.736046,-118.564739,-52.059517,-78.251209,-99.531212,-118.96534,-43.531151,-67.126236,-85.943012,-101.936417,-32.335052,-49.346809,-63.212585,-74.989643,2.495025,6.376965,9.185868,11.704173,3.013544,9.089167,11.521639,11.998723,4.066265,11.554861,13.836538,13.84049,6.330652,12.994386,15.763522,16.593447,10.442921,16.788579,19.956128,21.381636,-30.138874,-48.248119,-57.301597,-56.572609,-39.237814,-34.000425,-29.41206,-30.596695,-16.805706,-8.850288,-4.340286,-5.825958,4.473324,10.816956,14.843788,13.458195,21.808834,30.807495,34.18253,33.495255,22.242838,47.580661,60.796877,63.384274,70.420247,113.5411,115.697594,111.160297,58.517083,115.020223,109.671032,98.225917,43.022176,93.246503,88.584872,79.449701,25.480829,63.496837,63.736583,57.956606,55.690584,187.355906,23.064337,-171.30472
63,-0.323181,0.065208,-3.238506,1.768779,-28.274574,-53.126907,-70.850487,-86.620617,-59.143982,-82.03949,-101.088181,-120.057106,-52.729912,-77.605991,-98.56842,-119.092541,-43.134499,-66.028633,-84.76347,-101.785641,-30.561104,-47.344208,-61.242542,-73.624992,2.376032,6.214253,8.628632,11.969144,3.498037,8.602265,10.767728,10.825959,4.437076,11.300696,13.006057,12.873788,6.423093,12.537063,14.53333,15.309718,9.981151,15.279398,17.90836,19.487874,-29.59528,-50.566692,-61.103153,-63.375664,-37.861004,-31.655045,-28.398857,-32.389755,-14.658623,-5.973701,-2.884827,-7.339554,7.006645,12.919006,16.069679,12.739449,24.322128,34.049606,36.475296,34.202499,13.841756,31.011968,34.962003,29.848003,63.321281,108.155445,110.870024,106.390557,55.860071,113.058119,107.466341,96.408633,44.416454,92.942675,86.842939,77.796318,29.783906,67.685368,66.687759,61.147296,54.802437,187.03712,19.260864,-169.919936
64,1.410027,-0.761074,-1.161232,27.757289,-26.257553,-50.008278,-66.633282,-79.848347,-57.854519,-82.250805,-101.262131,-119.232903,-52.42939,-78.662281,-100.044136,-120.005493,-44.223404,-67.873249,-86.874218,-103.559475,-33.175392,-50.525665,-64.529343,-76.843987,1.235626,4.645113,7.494709,10.701964,0.423361,6.399874,8.483704,8.175755,1.930565,9.141963,11.12094,10.723638,5.034635,11.054003,12.698046,12.715954,9.77861,14.687953,16.411345,16.821738,-30.2635,-47.12019,-54.755344,-53.929539,-33.20509,-37.256355,-35.291805,-36.78669,-12.204895,-8.472519,-7.147179,-9.223251,7.519798,12.360077,15.059052,14.478836,23.280029,33.505898,34.840965,32.412987,6.773464,11.907378,10.172871,4.135996,37.981551,73.88355,71.999452,67.224601,38.060993,84.436386,79.003462,69.960052,36.224443,77.384428,74.445108,64.603636,30.957319,66.052239,67.018664,60.459473,55.39547,186.177755,17.282639,-142.260939
65,0.090866,-3.088694,-3.038963,13.567298,-28.055992,-53.514748,-71.337433,-86.226425,-58.31274,-81.981869,-101.886234,-121.176624,-52.119942,-77.873783,-99.718952,-120.57724,-43.009872,-66.669159,-85.924931,-103.176041,-31.119232,-48.595161,-62.708187,-74.898548,1.73426,5.072426,7.947402,11.440437,0.639117,7.177806,9.286336,8.671055,2.384986,10.287495,11.782473,10.985398,5.337644,11.93407,13.558291,13.628748,9.711117,14.984417,16.871077,17.299316,-27.758728,-42.543045,-48.908246,-47.744846,-28.152949,-30.658992,-28.757693,-30.464976,-8.16617,-3.157491,-1.983614,-4.416609,10.312027,16.129039,18.521656,17.525136,24.858294,35.247539,36.314453,33.633013,4.531217,8.533218,6.36519,0.265407,33.383043,66.855226,65.47129,61.278535,34.274824,77.937331,73.177167,64.971515,33.41863,72.373703,69.763844,60.57699,29.383135,62.657608,63.599372,57.380919,54.69944,183.046206,13.45678,-128.736496
66,-1.448479,-2.480514,-3.038962,13.567297,-26.839943,-51.707039,-68.785629,-82.002811,-58.267479,-81.694565,-101.131554,-120.162964,-52.408676,-77.719803,-99.246483,-120.218296,-43.412704,-66.498871,-85.486965,-102.899437,-31.591415,-48.323593,-62.187538,-74.593506,0.622012,3.984013,6.900115,10.140344,0.500117,6.683185,8.768435,8.350632,2.769691,10.205614,11.867565,11.446056,6.082354,12.169215,13.809059,13.992458,10.497323,15.543937,17.5231,18.03674,-25.253958,-37.965902,-43.061149,-41.560154,-23.100809,-24.061629,-22.223581,-24.143264,-4.127446,2.157535,3.17995,0.390033,13.104254,19.898001,21.984259,20.571435,26.436557,36.98918,37.787939,34.853038,2.288971,5.159058,2.55751,-3.605182,28.784536,59.826903,58.943128,55.332468,30.488655,71.438276,67.350872,59.982978,30.612818,67.362979,65.082581,56.550344,27.808951,59.262978,60.180082,54.302365,52.58955,180.504883,9.756407,-115.230008
67,-1.933594,-2.566779,-3.038963,13.567297,-28.208427,-53.412952,-71.22757,-85.912857,-57.913799,-80.489502,-99.885979,-119.011002,-51.333961,-75.514641,-96.745777,-117.696018,-41.519623,-63.596592,-81.709785,-98.602123,-28.964195,-44.538231,-57.923355,-70.154343,2.003245,5.610148,9.07342,12.187926,1.11336,7.241841,9.273615,8.771461,3.160818,10.790329,12.544534,12.148344,6.479347,12.350762,14.121022,14.694005,10.790205,15.178066,17.173037,17.770225,-22.749186,-33.388758,-37.21405,-35.375462,-18.048668,-17.464266,-15.689468,-17.82155,-0.08872,7.472563,8.343515,5.196676,15.896482,23.666963,25.446863,23.617735,28.014822,38.730822,39.261427,36.073065,0.046724,1.784898,-1.250171,-7.47577,24.186028,52.798581,52.414966,49.386402,26.702486,64.939221,61.524578,54.994441,27.807005,62.352254,60.401317,52.523699,26.234768,55.868348,56.760791,51.223811,50.275984,177.909992,6.337471,-101.690823
68,-2.924423,-1.024748,-3.038963,13.567297,-27.845192,-52.7952,-70.042191,-85.034981,-57.80714,-79.003429,-97.244968,-115.041904,-51.386719,-74.225864,-93.954105,-113.859615,-41.939392,-62.53664,-79.8563,-96.399822,-29.53949,-43.513985,-56.347446,-68.411407,1.165663,4.537235,8.090477,10.808854,2.115446,7.438763,8.480308,6.943031,3.916952,10.468918,11.254939,10.109036,6.110389,11.792785,13.157407,13.395887,8.62431,13.723288,15.900608,16.735226,-20.244414,-28.811613,-31.366952,-29.190769,-12.996527,-10.866902,-9.155356,-11.499837,3.950005,12.78759,13.50708,10.003319,18.688711,27.435926,28.909467,26.664035,29.593086,40.472463,40.734914,37.293091,-2.195522,-1.589262,-5.057851,-11.346359,19.58752,45.770258,45.886805,43.440336,22.916317,58.440166,55.698283,50.005904,25.001193,57.34153,55.720054,48.497053,24.660584,52.473718,53.3415,48.145257,46.982689,176.906224,2.929636,-88.102546
69,-0.631371,-1.735928,-3.038962,13.567297,-29.044647,-53.315506,-70.410519,-86.598186,-55.742569,-77.438107,-96.22427,-114.570179,-47.450066,-70.046196,-89.618683,-109.04583,-36.182098,-55.470257,-72.988129,-89.739876,-22.423439,-35.321503,-47.851524,-59.845619,-0.550628,2.731406,6.843983,9.493385,-0.316162,6.587596,8.35761,7.151686,2.341576,10.220866,11.140948,9.90736,5.298988,12.446043,13.697476,13.862041,8.210582,13.38644,14.685606,14.997014,-17.739643,-24.23447,-25.519855,-23.006077,-7.944387,-4.26954,-2.621244,-5.178125,7.988729,18.102617,18.670644,14.809961,21.480938,31.204888,32.37207,29.710334,31.17135,42.214104,42.208401,38.513116,-4.437769,-4.963422,-8.865532,-15.216947,14.989013,38.741935,39.358643,37.494269,19.130148,51.941111,49.871989,45.017367,22.19538,52.330806,51.03879,44.470407,23.086401,49.079088,49.922209,45.066704,46.233988,174.953614,-0.226656,-74.751931
70,33.736038,-7.594868,-3.038963,13.567297,-32.270851,-61.851196,-81.155205,-96.34409,-84.040833,-110.049534,-124.686012,-136.157913,-85.465508,-116.224995,-130.769691,-142.57061,-86.5238,-115.83601,-132.757874,-144.955502,-85.615711,-110.805531,-124.741516,-136.472225,6.391415,10.872951,12.297533,14.532157,16.795371,20.140947,17.828455,14.041488,16.454262,20.573138,17.830555,13.622203,15.448656,17.975298,14.789285,10.524864,12.234053,14.5626,13.286589,11.203686,-15.234871,-19.657326,-19.672756,-16.821385,-2.892246,2.327823,3.912868,1.143589,12.027454,23.417644,23.834209,19.616604,24.273167,34.97385,35.834675,32.756634,32.749615,43.955746,43.681888,39.733143,-6.680015,-8.337582,-12.673212,-19.087536,10.390505,31.713612,32.830481,31.548203,15.343979,45.442056,44.045694,40.02883,19.389568,47.320082,46.357527,40.443762,21.512217,45.684457,46.502918,41.98815,79.963961,167.626325,-3.271685,-60.917054
71,0.72258,-2.180778,-3.038963,13.567297,-30.958099,-58.690109,-76.15963,-90.401115,-80.967979,-107.684383,-125.813999,-141.628418,-78.828964,-110.969238,-130.556431,-148.775826,-75.011787,-105.25589,-125.200481,-142.179623,-68.986931,-92.147942,-107.073898,-120.735626,8.165689,13.026002,15.482372,17.749168,10.101503,16.194478,16.630806,13.936389,10.638608,17.9803,17.686553,14.926742,12.357678,17.670868,16.830507,14.733772,13.894275,18.006297,17.902618,17.311049,-12.730099,-15.080182,-13.825658,-10.636692,2.159894,8.925187,10.446981,7.465302,16.066179,28.732672,28.997774,24.423247,27.065395,38.742813,39.297279,35.802934,34.327879,45.697387,45.155376,40.953169,-8.922262,-11.711742,-16.480892,-22.958125,5.791997,24.685289,26.30232,25.602137,11.55781,38.943001,38.2194,35.040293,16.583755,42.309357,41.676263,36.417116,19.938034,42.289827,43.083627,38.909596,80.805473,165.960654,-6.191715,-46.834651
72,-2.884941,-1.275702,-3.038963,13.567297,-30.939445,-56.810532,-74.087448,-89.261684,-77.161446,-104.535885,-123.498116,-139.966335,-74.200859,-106.478634,-127.187634,-146.021748,-68.374901,-97.661591,-117.605953,-134.524269,-59.341507,-78.775978,-93.279877,-106.974792,11.695034,16.550345,18.876175,20.430186,11.235858,16.595114,17.13259,15.294589,10.204688,16.658347,17.313581,15.357204,10.772915,16.024664,16.486187,15.408333,11.545536,16.807721,18.091759,18.753847,-10.225327,-10.503037,-7.97856,-4.451999,7.212035,15.52255,16.981094,13.787016,20.104905,34.047699,34.161339,29.229889,29.857623,42.511775,42.759883,38.849233,35.906144,47.439029,46.628864,42.173195,-11.164509,-15.085902,-20.288573,-26.828713,1.19349,17.656966,19.774158,19.656071,7.771641,32.443946,32.393105,30.051756,13.777942,37.298633,36.995,32.39047,18.363851,38.895197,39.664336,35.831042,77.911377,164.970486,-9.239833,-32.98182
73,-2.394791,0.709883,-3.038962,13.567297,-31.089706,-56.044922,-72.601547,-87.829742,-75.193291,-101.543083,-120.806065,-137.888603,-71.331482,-101.981049,-123.804474,-143.988533,-64.394188,-92.292595,-112.969551,-131.010361,-54.343071,-72.776184,-87.975311,-102.621632,7.372629,11.975813,15.045982,17.13611,7.391339,14.767982,15.810081,13.99783,7.727879,15.363256,16.021268,13.988938,9.477762,15.851701,16.379729,15.329602,11.736098,17.346246,18.618058,19.135465,-7.720556,-5.925894,-2.131462,1.732693,12.264175,22.119913,23.515205,20.108728,24.143629,39.362726,39.324903,34.036531,32.649851,46.280737,46.222486,41.895532,37.484407,49.18067,48.10235,43.393221,-13.406755,-18.460062,-24.096253,-30.699302,-3.405018,10.628643,13.245996,13.710004,3.985472,25.944891,26.566811,25.063219,10.97213,32.287909,32.313736,28.363825,16.789667,35.500567,36.245045,32.752488,75.47945,165.625226,-12.315931,-19.469666
74,-2.567482,0.080214,-3.038963,13.567297,-30.291023,-55.97477,-73.200417,-88.533669,-71.779518,-98.577175,-118.019657,-135.695801,-67.553558,-97.803841,-119.854374,-140.072021,-59.901009,-87.177486,-107.839394,-125.547066,-48.92704,-66.379166,-81.481647,-95.637817,8.996294,13.354823,15.401232,16.765422,8.105297,14.500726,15.302925,13.246575,7.283461,14.99053,16.254561,14.781814,7.926283,14.90235,16.416594,15.884799,9.732297,16.678231,19.138799,20.231658,-5.215785,-1.34875,3.715636,7.917385,17.316316,28.717276,30.049318,26.430442,28.182354,44.677754,44.488468,38.843174,35.442079,50.049699,49.685091,44.941832,39.062672,50.922311,49.575838,44.613247,-15.649002,-21.834221,-27.903934,-34.569891,-8.003525,3.60032,6.717835,7.763938,0.199303,19.445836,20.740516,20.074682,8.166317,27.277185,27.632473,24.337179,15.215484,32.105937,32.825754,29.673934,72.706232,165.105812,-15.56063,-6.501996
75,-2.29351,1.36561,-3.038963,13.567297,-29.999313,-56.362038,-73.778172,-88.953438,-69.732857,-95.621223,-115.296421,-133.539162,-65.188179,-94.007607,-116.353455,-137.557125,-57.2192,-83.978806,-104.385796,-122.523479,-46.173477,-63.615074,-78.578739,-92.522335,7.471121,11.286926,13.570085,15.307557,5.544569,12.702245,13.698341,11.556096,5.521104,14.511285,16.060912,14.864436,7.073263,14.923654,16.691877,16.327982,9.610587,16.627286,19.052287,19.976011,-2.711013,3.228395,9.562734,14.102078,22.368457,35.31464,36.58343,32.752155,32.221079,49.992781,49.652033,43.649817,38.234307,53.818662,53.147695,47.988132,40.640936,52.663953,51.049325,45.833273,-17.891248,-25.208381,-31.711614,-38.440479,-12.602033,-3.428003,0.189673,1.817872,-3.586866,12.946781,14.914222,15.086145,5.360505,22.266461,22.951209,20.310533,13.6413,28.711306,29.406463,26.595381,70.087824,165.659189,-18.924491,6.253067
76,-1.891365,1.401796,-3.038962,13.567298,-30.092583,-56.703873,-74.795437,-90.142593,-67.546806,-93.833141,-113.968678,-132.746201,-62.339401,-91.532822,-114.378605,-135.879192,-53.868599,-80.887127,-101.510811,-119.387283,-42.49752,-60.273399,-75.619411,-89.164524,6.646135,10.349493,12.359715,13.943552,4.269423,10.461508,11.999155,10.873383,4.831043,12.946221,15.086305,14.917294,6.821136,14.099842,16.400601,16.662114,10.121572,16.460313,18.795837,19.483799,-0.206242,7.805538,15.409832,20.28677,27.420597,41.912002,43.117542,39.073868,36.259804,55.307808,54.815597,48.456459,41.026535,57.587623,56.610298,51.034431,42.2192,54.405594,52.522812,47.053299,-20.133496,-28.582542,-35.519295,-42.311069,-17.200542,-10.456326,-6.33849,-4.128196,-7.373036,6.447725,9.087926,10.097607,2.554691,17.255735,18.269945,16.283887,12.067116,25.316675,25.987172,23.516826,67.58666,166.217351,-22.573251,18.976731
77,-0.627022,1.407539,-3.038963,13.567297,-32.443542,-60.113068,-79.317284,-95.903492,-66.915665,-93.075657,-113.378391,-132.510338,-60.803032,-88.957672,-111.614914,-133.01136,-51.748695,-77.816334,-98.535404,-116.5975,-39.69223,-58.288994,-74.271412,-87.88393,1.899257,5.531849,8.517296,11.062648,2.491382,8.856491,10.97169,10.585256,3.97685,12.244551,14.665352,15.035176,6.829843,14.738094,17.32414,17.804805,11.115259,17.851982,20.174045,20.589131,2.29853,12.382682,21.25693,26.471462,32.472738,48.509366,49.651655,45.395581,40.298529,60.622835,59.979162,53.263102,43.818763,61.356586,60.072902,54.080731,43.797464,56.147235,53.996299,48.273325,-22.375742,-31.956702,-39.326976,-46.181658,-21.799049,-17.484649,-12.866652,-10.074262,-11.159205,-0.05133,3.261631,5.10907,-0.251121,12.245011,13.588681,12.257241,10.492932,21.922045,22.567881,20.438272,65.7726,166.432937,-26.799253,31.352075
78,-1.236076,1.741856,-3.038963,13.567297,-29.438324,-54.155159,-71.429558,-84.969578,-63.846016,-92.049694,-112.203026,-130.076523,-58.788528,-89.383106,-112.892303,-133.630314,-51.188164,-78.732376,-100.603352,-118.471527,-40.937805,-60.927086,-77.03001,-90.533867,-0.333452,3.145319,7.012562,10.608103,-0.007472,7.754555,11.404004,13.449919,2.816683,11.137366,15.01134,17.183966,7.383682,15.22407,18.741929,20.15305,13.853149,20.722512,23.606997,24.676514,4.803302,16.959827,27.104028,32.656155,37.524879,55.106729,56.185767,51.717294,44.337254,65.937863,65.142727,58.069745,46.610992,65.125548,63.535506,57.127031,45.375729,57.888877,55.469787,49.493351,-24.617989,-35.330862,-43.134656,-50.052246,-26.397557,-24.512972,-19.394813,-16.020328,-14.945374,-6.550385,-2.564663,0.120533,-3.056934,7.234287,8.907418,8.230595,8.918749,18.527415,19.14859,17.359718,63.56904,166.919052,-30.805699,43.663631
79,0.003891,2.253273,-3.038962,13.567297,-30.200615,-54.763298,-72.811546,-87.230015,-63.218536,-91.999512,-111.987019,-130.009689,-56.992378,-88.00415,-111.094894,-131.68293,-47.400169,-75.882282,-97.342701,-115.189705,-35.363617,-57.850914,-74.007282,-87.994194,2.347874,7.041214,13.761203,21.036575,-0.75706,8.27789,14.457933,19.377403,3.330076,13.187788,20.260187,24.694854,9.685984,17.713908,23.911983,27.481589,18.51055,24.650085,29.607655,32.622619,7.308073,21.53697,32.951126,38.840847,42.577018,61.704092,62.719879,58.039007,48.375978,71.252889,70.306291,62.876386,49.403219,68.89451,66.99811,60.17333,46.953993,59.630518,56.943273,50.713377,-26.860236,-38.705022,-46.942337,-53.922835,-30.996065,-31.541295,-25.922975,-21.966395,-18.731543,-13.04944,-8.390958,-4.868004,-5.862746,2.223563,4.226154,4.20395,7.344565,15.132785,15.729299,14.281164,62.881708,166.354514,-34.535885,54.413118
80,-4.230194,3.656242,-3.038963,13.567297,-28.762093,-53.510284,-70.510769,-82.611809,-62.746582,-92.252254,-109.995003,-125.845356,-55.17334,-88.830528,-110.551643,-128.843365,-45.309448,-76.780987,-98.11718,-115.512028,-33.247032,-57.850571,-73.730221,-87.88908,-0.694692,5.485351,17.335564,28.873999,-2.223447,10.945755,21.932079,31.839006,4.250404,17.991415,30.189159,40.611517,13.727117,26.42788,36.550439,44.426704,25.2461,32.961999,40.229282,46.186035,9.812845,26.114114,38.798224,45.025539,47.629159,68.301455,69.253991,64.36072,52.414703,76.567917,75.469856,67.683029,52.195447,72.663473,70.460714,63.21963,48.532257,61.372159,58.416761,51.933403,-29.102482,-42.079182,-50.750017,-57.793423,-35.594572,-38.569618,-32.451137,-27.912461,-22.517712,-19.548494,-14.217252,-9.856541,-8.668559,-2.787162,-0.455109,0.177304,5.770382,11.738155,12.310008,11.20261,58.379059,166.444994,-37.847303,64.414653
81,-1.68457,6.888197,-3.038963,13.567297,-31.827621,-60.115471,-81.249733,-98.188591,-63.976364,-92.282696,-108.666115,-122.354965,-55.22747,-87.633648,-107.813358,-124.487,-43.814735,-75.460224,-96.494751,-112.810993,-29.670753,-54.352913,-70.362225,-84.911671,-6.830028,-3.488343,2.271427,5.179748,-0.693889,16.546949,28.296941,38.529972,8.400773,26.288509,40.141905,52.425421,18.782005,35.821908,48.449064,58.837336,29.718127,42.599571,52.941654,61.269685,12.317616,30.691258,44.645323,51.210232,52.6813,74.898819,75.788104,70.682434,56.453429,81.882944,80.633421,72.489672,54.987676,76.432435,73.923318,66.26593,50.110522,63.113801,59.890248,53.153429,-31.344729,-45.453342,-54.557697,-61.664012,-40.19308,-45.597941,-38.979298,-33.858527,-26.303881,-26.047549,-20.043547,-14.845078,-11.474372,-7.797886,-5.136373,-3.849342,4.196199,8.343524,8.890717,8.124057,56.498909,169.430611,-41.081845,74.07937
82,-1.014519,12.746767,-3.038962,13.567297,-29.6101,-57.103043,-78.352776,-95.742531,-63.587379,-92.501965,-109.539413,-123.50481,-56.478424,-88.461628,-108.822727,-125.252438,-46.758156,-78.461037,-99.172382,-114.511414,-34.193573,-59.269524,-74.304028,-87.525158,-10.812374,-7.258082,0.449914,2.49978,0.382173,17.760715,29.033623,39.219601,11.991498,31.132582,44.286284,55.250008,23.563154,41.167456,52.937331,61.333164,34.631916,47.42586,57.472158,64.454154,14.822388,35.268402,50.49242,57.394924,57.73344,81.496181,82.322216,77.004147,60.492153,87.197971,85.796986,77.296314,57.779903,80.201397,77.385921,69.312229,51.688786,64.855442,61.363735,54.373455,-33.586975,-48.827502,-58.365378,-65.534601,-44.791588,-52.626264,-45.50746,-39.804593,-30.09005,-32.546604,-25.869841,-19.833615,-14.280184,-12.80861,-9.817636,-7.875987,2.622015,4.948894,5.471426,5.045503,55.747175,179.534738,-43.858023,85.004027
83,-3.225174,16.790369,3.892365,13.469278,-27.639885,-53.578377,-74.393978,-91.338387,-63.563862,-91.796951,-108.680706,-122.752304,-57.383423,-88.496532,-108.687572,-125.125751,-48.412743,-79.067287,-99.646168,-115.490456,-36.983528,-61.303768,-76.229095,-89.613132,-12.851249,-11.196152,-3.245293,-0.422682,0.2152,16.255364,27.319679,37.720177,13.052926,30.277092,42.458101,52.658837,25.110126,41.48757,52.936714,60.939073,35.955351,47.663105,56.526265,63.229396,17.198467,35.536251,49.718113,59.898548,47.157955,69.682903,78.010883,82.473507,44.03326,67.716122,74.685802,76.16312,35.915394,56.950779,65.967579,70.635509,26.576271,36.559124,42.32523,45.106945,-27.236316,-38.551029,-47.074686,-55.255318,-27.887875,-25.832142,-19.820277,-13.826288,-13.403421,-7.77944,0.592495,7.536576,0.146595,6.45545,13.395764,18.666192,12.262397,21.21951,26.51785,28.448044,52.424269,193.493125,-40.063391,95.641323
84,-0.519104,14.581063,-27.876377,53.073738,-27.183037,-51.794128,-73.045349,-90.898418,-60.033875,-90.988255,-108.609009,-121.97937,-54.026642,-86.988831,-107.359142,-123.307858,-45.415421,-77.782803,-98.464622,-113.915863,-34.979668,-60.359917,-76.047421,-89.461155,-14.867832,-13.549522,-5.299853,-1.313555,-1.368945,14.956444,26.639004,36.82282,13.603863,31.198161,43.351938,53.230584,27.359014,43.150879,54.586253,62.366125,39.031324,50.672265,59.586739,65.849219,27.633705,58.504772,80.018463,86.836853,88.209915,121.128616,112.1521,100.159264,84.698639,113.169365,104.760361,92.569885,74.810371,97.843094,90.169144,78.480263,62.212257,81.647758,74.733353,64.643784,-25.076719,-37.883754,-49.255803,-64.107333,-27.569645,-9.54544,-0.247804,-0.020748,-10.842508,11.734678,16.618518,13.194643,5.777801,23.45577,25.469266,20.666937,21.505198,33.256981,33.713564,29.721585,52.088213,205.744978,-67.75672,146.385851
85,1.314812,23.400689,0.729618,21.834359,-16.20575,-31.978111,-42.621231,-49.698372,-60.438137,-85.882874,-102.802448,-118.343925,-57.661972,-86.271458,-105.432358,-124.337368,-50.870705,-76.775951,-95.456257,-112.715607,-40.850372,-61.800385,-76.04496,-89.221401,-20.058078,-31.820296,-36.706297,-40.873647,-6.062532,1.681093,9.930022,19.230684,8.849266,19.671211,28.102118,37.892338,21.913986,33.154043,40.650914,49.233542,34.389298,44.406203,52.240416,60.331882,30.911465,59.664488,78.940716,85.463848,85.673905,108.080578,96.129112,81.652336,76.340904,95.223198,82.014599,66.051121,60.730562,73.879538,62.274199,47.767382,42.432375,52.629633,43.861513,31.290293,-10.230253,-10.05553,-9.767294,-12.464552,-9.342158,22.732488,39.264061,43.351074,0.504593,38.931319,52.823741,54.277007,12.623359,46.712705,59.720336,62.410153,24.261058,48.53181,58.49033,61.227479,53.592482,227.977797,-66.837645,167.05234
86,-7.003784,4.848766,0.729618,21.834359,-19.727669,-43.468552,-58.84037,-62.003803,-56.833019,-78.805504,-95.379581,-111.543388,-50.94841,-79.24902,-99.553814,-119.863873,-43.732567,-67.473965,-87.812634,-105.687618,-34.179726,-55.675564,-71.023808,-84.418888,-22.685064,-30.651855,-31.022728,-30.279562,-8.691247,3.118211,15.280819,25.365525,8.887613,21.179218,33.100012,43.511131,24.55289,37.027523,45.77064,52.435054,37.408153,49.106089,59.175173,69.159782,34.189224,60.824203,77.862968,84.090843,83.137894,95.032539,80.106125,63.145409,67.98317,77.277031,59.268837,39.532356,46.650753,49.915981,34.379253,17.054501,22.652493,23.611507,12.989674,-2.063198,4.616214,17.772695,29.721214,39.178228,8.885329,55.010416,78.775927,86.722896,11.851695,66.12796,89.028965,95.35937,19.468917,69.969639,93.971406,104.15337,27.016917,63.806639,83.267096,92.733372,46.842871,232.075508,-65.853853,188.135644
87,-33.026504,11.799145,-10.453548,30.793695,-8.443423,-24.265738,-37.171526,-43.409558,-28.930607,-33.474284,-40.718565,-48.314495,-25.743056,-33.35269,-42.840529,-51.475554,-23.967419,-31.838322,-40.421591,-47.000828,-21.909829,-32.583647,-38.914204,-42.935343,-2.307613,3.53305,12.609712,17.94748,13.225981,25.299947,28.771709,30.304447,16.720067,29.08923,34.191883,37.751022,17.743055,29.688333,33.167443,35.148335,16.748071,23.337395,29.000217,35.176092,26.115017,55.069542,77.085056,90.147228,58.5462,89.300938,104.221058,115.116405,48.661251,80.277729,98.563442,111.134777,37.21962,68.069572,87.012119,99.671001,24.952068,50.173931,64.039993,74.22369,-15.950131,-21.792091,-22.873835,-25.747822,-1.523877,17.30617,27.272502,33.687073,15.621496,33.219066,43.553615,49.956392,31.718346,47.295073,54.718337,58.924404,44.75639,57.05065,62.702295,65.921405,13.579159,242.584579,-76.544609,217.639265
88,-33.026505,11.799146,-7.92469,17.859825,2.840824,-5.062923,-15.502682,-24.815311,-1.028194,11.856937,13.942451,14.914398,-0.537701,12.54364,13.872757,16.912766,-4.202271,3.797321,6.969452,11.685963,-9.639931,-9.49173,-6.8046,-1.451797,18.069838,37.717954,56.242152,66.17452,35.143209,47.481683,42.262599,35.243368,24.55252,36.999241,35.283753,31.990912,10.933219,22.349141,20.564246,17.861615,-3.912012,-2.431299,-1.17474,1.1924,29.430542,55.273247,75.78661,92.924938,54.196129,83.340511,99.386501,111.808262,44.101009,74.73856,94.797306,111.864109,34.211998,61.66523,81.864567,99.057026,24.350681,46.180229,60.756054,74.620285,-16.356079,-20.05215,-19.875235,-20.837306,3.299139,17.818205,29.045047,40.840858,15.281189,34.144335,47.940612,59.920315,26.561199,46.452241,59.397907,68.895984,36.513513,53.807703,63.511842,70.034045,-20.020723,253.068456,-85.042677,234.183822
89,29.116631,13.646718,-5.162716,17.445294,-10.070229,-21.117783,-31.265717,-35.553646,-28.395138,-34.531231,-30.837536,-27.372437,-27.287121,-38.285408,-36.659946,-28.007812,-27.947388,-40.090141,-40.649185,-34.748383,-30.674458,-47.028008,-51.401882,-50.763645,-21.81463,-23.620644,-15.235432,-4.554155,4.282947,20.523737,16.098147,7.159343,24.653667,39.459254,32.614592,21.471236,39.352179,55.068153,47.599688,36.411007,49.305543,65.809267,61.047137,52.673781,27.524815,53.541412,74.544182,92.000999,53.902073,80.940628,97.9953,111.731071,44.271469,73.900166,94.620781,110.463638,35.396461,61.71936,81.837158,97.423096,27.060814,47.802143,62.364464,76.39698,-16.967408,-18.325546,-16.970989,-19.356593,6.131569,21.383241,32.5027,43.269749,19.6546,39.070906,51.97242,62.599912,30.588128,49.01581,61.061586,70.058251,38.051468,52.698604,61.457839,68.279098,9.222164,265.686751,-90.079136,250.600694
90,0.444489,-0.476157,-4.111462,13.668392,-12.556572,-31.25845,-47.222099,-61.639881,-61.163979,-50.546494,-31.557484,-12.812119,-60.65609,-43.936386,-19.69677,2.774849,-55.751266,-38.593254,-17.458878,1.874428,-47.520103,-38.564587,-24.719639,-10.228729,29.980937,48.454746,59.870853,72.459415,41.481086,58.199825,67.130972,71.20335,29.954754,46.566665,55.821631,60.939197,17.065714,32.165049,42.197391,48.803327,4.255468,16.86237,25.679465,33.436737,27.663288,52.857227,72.969189,90.182362,52.003784,80.81749,98.980923,113.882847,42.792778,73.075562,93.659649,110.209866,34.116726,61.339245,81.627331,98.01012,25.546188,47.624073,63.056087,77.56937,-16.101173,-17.154017,-13.994928,-14.779467,9.986215,23.644109,33.175594,42.710413,23.879378,41.730126,53.06497,62.49648,34.728555,52.012619,63.255887,71.89903,41.934149,57.138706,65.876636,72.180242,9.900684,264.831771,-93.956566,263.890262
91,-12.17308,14.928965,-3.249035,11.06802,1.17588,-7.24371,-17.342834,-24.158478,-42.23299,-22.640591,-0.370789,15.819397,-50.928669,-28.92271,-2.774506,19.754105,-52.584457,-34.41988,-11.554642,7.149239,-49.717426,-42.364883,-28.288651,-14.478092,-12.759488,-13.035512,-4.465481,3.272957,2.190658,20.030784,29.369978,35.84667,17.300922,33.793716,43.571955,48.995926,30.329765,44.962883,54.255517,60.319593,40.639675,54.936316,61.176998,65.847058,27.108021,52.573185,73.557644,93.15937,50.512676,81.334305,100.637054,115.500183,41.913528,75.796452,97.612381,112.95845,33.60157,64.807377,85.38105,100.89592,25.028114,50.450878,66.80912,81.278915,-15.033694,-17.385952,-14.713765,-16.351756,9.404155,24.281744,32.770758,40.078549,25.647848,42.191092,51.109643,58.32487,38.032264,55.130336,63.320231,69.029489,46.40914,62.309747,69.212147,73.382214,-1.604719,279.623665,-96.537924,274.821212
92,39.991493,13.093804,-1.920433,7.608145,-15.848351,-41.508522,-62.464943,-75.935898,-76.260109,-76.896515,-56.130066,-34.992943,-82.547379,-81.315022,-53.494492,-25.620689,-82.452793,-80.741673,-54.61338,-30.264015,-78.739414,-80.83643,-63.679676,-46.622944,-17.020698,-23.504183,-21.045528,-17.147101,-3.569544,12.082641,23.8477,30.63018,15.625015,27.067182,39.582138,46.608161,32.419584,39.708294,47.039982,51.730852,47.508853,56.688731,55.789398,54.345241,26.315632,51.879616,73.822975,92.96917,50.548782,81.682892,99.418488,112.620964,41.474075,76.173191,97.914848,112.65461,32.949142,65.418148,85.868912,100.184097,24.624882,50.653267,66.772728,80.272064,-14.71395,-16.214053,-13.021248,-14.625029,12.571334,28.418651,35.669817,41.315595,28.92871,46.051358,53.732924,59.094836,40.941943,58.332094,64.492871,68.04105,48.783011,64.375484,69.915669,73.00072,38.781967,292.790937,-98.063164,282.502824
93,-1.604805,4.247317,-2.498531,7.396279,-12.404594,-38.948479,-60.88131,-75.506687,-71.622562,-73.387642,-52.867069,-33.752289,-76.63805,-75.533752,-50.819035,-26.399345,-75.849438,-75.223331,-51.559582,-30.418282,-71.152267,-74.370403,-59.179688,-44.178715,-15.371962,-19.235006,-13.955593,-10.794404,-0.437934,20.227582,31.999187,37.640828,14.602984,30.432332,42.184979,49.453003,28.628047,40.878958,50.507453,56.053998,41.650221,53.466841,57.812897,59.992007,26.073532,51.747952,74.764881,93.637505,50.718842,82.517338,100.531712,114.15041,41.63744,77.467861,98.992252,113.586903,33.43586,66.288185,85.754414,99.150181,26.366444,52.101288,67.256184,79.563847,-15.156824,-17.036753,-13.299865,-14.370865,11.411353,27.31795,35.045273,40.803561,29.583881,46.680347,53.728786,58.199146,42.186338,58.919032,64.704243,67.2018,49.9588,65.095061,69.048631,70.156681,37.781725,297.165352,-99.957132,290.026201
94,1.568298,2.549922,0.780716,4.100968,-13.645477,-37.589493,-59.154854,-76.656647,-67.336178,-69.912357,-50.745277,-33.066788,-69.95945,-71.929951,-49.597836,-25.878983,-67.349167,-69.405899,-48.509903,-29.348145,-61.577339,-65.536251,-53.079929,-40.772209,-16.54664,-20.658909,-14.909699,-11.213196,3.707556,23.53654,33.885909,38.639209,18.864072,34.835569,44.496976,49.589718,32.306025,44.57367,52.275738,55.81663,44.28826,55.553202,59.606129,61.193794,25.069942,49.927368,72.793407,91.557655,51.65062,84.042034,102.308979,115.605068,42.352524,78.375549,100.175686,114.75523,33.564148,66.522846,86.494331,100.313015,25.872574,52.025642,67.510014,80.215359,-15.336147,-16.977658,-12.591712,-13.61998,14.618793,30.028855,37.105576,42.007262,32.312509,48.111784,54.866723,58.842585,44.071084,59.93285,65.697807,68.187645,50.974162,65.096667,69.162623,71.002291,40.151138,299.790207,-98.375301,294.202104
95,-0.047836,1.18746,0.60236,3.111603,-15.195122,-36.16642,-54.503345,-71.065464,-56.055565,-63.365936,-52.864666,-39.757576,-56.100769,-63.694725,-48.857803,-30.059738,-52.34539,-60.987911,-47.010727,-31.444702,-45.985451,-57.362194,-55.103531,-49.957638,-16.88917,-19.158374,-11.905726,-9.844806,7.258884,21.183355,29.00281,32.853072,21.836304,35.222558,43.936097,48.127901,34.725838,45.576929,52.698419,55.560921,45.511783,55.487438,60.905234,63.839181,25.554428,50.416889,73.141479,92.052441,52.451935,84.902573,102.913399,116.447067,42.778988,79.159641,100.923042,115.59906,33.693237,67.118969,87.199116,101.381149,25.796242,52.513218,68.527565,81.620064,-15.875475,-17.337972,-12.301176,-12.568802,14.402913,31.242065,39.153713,44.495741,32.5295,48.449311,55.618349,59.360115,44.754476,61.278021,67.501475,69.880162,52.251655,66.328896,70.144022,71.288566,41.067123,301.007308,-96.80912,297.343347
96,-5.763473,1.4298,-0.010529,2.71566,-12.793007,-31.853314,-48.901377,-65.150614,-60.209685,-61.240597,-44.79744,-29.41824,-64.326439,-63.954449,-43.840685,-22.91914,-63.151932,-64.134207,-44.050656,-25.061532,-58.717776,-64.934865,-55.978976,-44.922438,-9.690925,-9.917178,-3.481705,1.394602,9.751285,27.890222,37.552123,42.190505,22.282636,37.841609,48.902158,54.31702,32.702987,44.979895,53.657742,57.842845,41.477751,52.798331,57.137718,59.537833,26.13184,50.042152,72.196026,91.490879,52.136021,83.667011,101.256866,114.674492,42.988014,78.922005,100.173111,114.632149,34.266415,67.308369,87.185955,101.092987,26.740322,52.355404,68.063622,80.798206,-15.431119,-16.800249,-11.058326,-9.31789,15.4142,32.763966,41.364748,47.508544,33.509973,50.143496,57.947945,62.193224,45.606693,62.853768,69.04295,71.178774,52.689157,67.416815,71.633998,72.844429,36.199122,302.509464,-95.924177,300.131363
97,-5.763474,1.429799,1.217995,1.581119,-10.390892,-27.540207,-43.299408,-59.235764,-64.363804,-59.115257,-36.730213,-19.078903,-72.552109,-64.214172,-38.823566,-15.778542,-73.958473,-67.280502,-41.090584,-18.67836,-71.4501,-72.507534,-56.85442,-39.887238,-2.492679,-0.675982,4.942318,12.634011,12.243686,34.597089,46.101437,51.52794,22.728968,40.460661,53.868219,60.506141,30.680136,44.382862,54.617066,60.124771,37.443721,50.109224,53.370202,55.236485,25.709438,49.33382,70.644493,88.62442,51.801167,83.825912,101.983109,115.539436,41.90546,78.149643,99.808044,114.752197,32.563076,66.125793,86.595612,101.629257,24.35051,51.000538,67.9109,82.002296,-15.014304,-15.046414,-9.097194,-7.852923,19.303673,36.251753,43.527495,47.922395,36.293805,52.576339,58.57817,60.704422,47.190653,64.4699,69.498174,70.259187,53.39694,67.841967,71.646163,72.195432,30.965309,304.016791,-94.176521,301.79001
98,3.321419,10.026353,-0.659523,0.896554,-9.402351,-27.473946,-46.449451,-63.216019,-55.759163,-58.036366,-39.894676,-24.350052,-60.025635,-59.598656,-39.836826,-19.75605,-59.841728,-63.727856,-45.750389,-28.387985,-57.619171,-73.506145,-79.398708,-81.081047,-19.016286,-23.580198,-17.835433,-16.596226,2.649772,23.179808,31.741256,36.437189,18.745017,34.058995,41.138371,45.635222,31.668699,42.559804,48.564291,52.407575,42.384618,49.636834,51.9689,53.00396,25.539379,49.616318,71.090412,89.02977,53.213253,84.918709,102.123756,115.032806,43.549175,79.6245,100.141754,114.7118,34.127769,67.442837,86.960907,101.067009,25.898609,53.018932,69.179592,82.423782,-15.985885,-16.351262,-9.522037,-7.535341,17.830431,34.497176,41.607675,45.769344,35.07516,51.418642,57.463266,59.791565,46.264952,63.23625,68.062107,68.762171,52.63247,66.998703,70.495938,70.731639,35.100117,314.084903,-94.022655,302.728323
99,-4.905624,1.411553,-0.120335,-0.291215,-7.65255,-22.623482,-39.186459,-51.743774,-52.553501,-50.342045,-32.460651,-17.249107,-59.283371,-55.249443,-34.449177,-13.24688,-60.961246,-60.749702,-41.626339,-23.376503,-59.625092,-68.618603,-66.419334,-60.476131,-19.210924,-24.355042,-18.474488,-13.821039,-0.958613,18.191177,26.79832,31.951577,16.244928,29.991372,38.66749,44.496915,30.116479,38.601726,46.08495,51.355039,41.48615,48.680629,50.811882,51.962107,25.988789,50.475254,72.070999,90.27174,52.720814,84.534016,101.886463,114.521885,43.256035,79.688015,100.568333,114.922199,34.156723,67.840004,87.398071,100.796299,26.198559,52.950954,69.144917,82.313519,-15.18208,-15.042894,-8.080659,-5.653868,19.00511,35.335191,42.607723,47.053629,36.027413,52.210529,58.194947,60.488542,47.01312,63.431073,67.898654,68.042655,53.331855,67.366303,70.880149,70.754548,31.098003,315.545856,-93.239479,302.486508
100,-10.828972,7.322487,-0.87347,-0.899889,-1.562462,-11.644936,-28.114471,-41.818199,-43.086777,-37.593784,-19.561958,-4.515839,-52.100029,-42.768688,-22.159882,-1.133194,-55.430946,-49.454956,-29.954739,-11.7556,-55.846138,-61.420498,-58.564053,-52.058201,-18.77441,-26.017301,-23.109289,-21.958323,-5.147576,12.395222,20.854534,25.83594,11.901095,25.427893,33.343555,38.570913,24.840709,33.144657,39.50779,44.38879,35.176616,42.177384,44.025635,44.161301,26.540108,51.301918,73.015995,91.269321,53.190308,85.339336,102.925987,115.99411,43.272171,79.724751,100.58773,115.270615,33.935795,67.582226,87.037983,100.489883,25.948391,52.810192,68.83049,81.546078,-14.544383,-14.238719,-7.493227,-5.358392,19.793662,36.216246,43.527557,48.156553,36.744768,53.071639,59.07878,61.691687,47.569306,64.199186,68.746795,69.297115,53.581512,67.683453,71.013159,71.007849,21.174059,322.903633,-93.207922,301.62191
101,-21.486855,5.607061,-0.622959,0.227427,4.648361,1.131248,-8.436928,-15.514126,-30.87822,-16.698246,2.525826,17.232971,-39.701099,-19.437103,2.459679,22.169952,-41.916389,-27.935772,-8.391552,9.425468,-40.978718,-43.317604,-43.431759,-41.104832,-16.092096,-24.96316,-25.897197,-25.836187,-6.746356,7.904361,15.677689,20.29946,9.218287,20.283837,27.952621,33.057774,20.839406,28.409636,34.65958,39.550274,30.097954,36.06539,37.858745,37.665775,26.620731,51.653023,73.333683,91.297131,54.322586,85.653248,102.675648,115.11755,44.750061,80.413857,100.792294,115.301342,35.274239,68.114548,87.097092,100.484104,26.800232,53.188362,68.994884,81.849174,-14.815653,-14.224763,-6.465762,-3.261719,19.912655,35.979001,43.167675,47.730413,36.812446,52.73232,58.74823,61.594863,47.669527,64.106005,68.775139,69.455443,53.896933,68.007519,71.371991,71.508583,0.806122,328.516221,-92.711964,301.854863
102,40.344887,-20.180467,-0.962448,0.015376,-11.802864,-28.970947,-46.706142,-62.776051,-70.9762,-67.933331,-45.18465,-26.578789,-78.845959,-71.346474,-45.293655,-21.918526,-79.485168,-75.135269,-50.079689,-27.934456,-76.92255,-79.423485,-63.737869,-47.96751,-7.188551,-10.137689,-6.86714,-0.454174,7.947525,28.521589,39.926211,45.887287,21.848716,36.656959,49.562177,56.534849,33.685344,45.439473,54.442498,58.418977,43.207443,54.503198,56.626919,56.938264,26.754112,51.852036,73.491325,91.59811,54.423008,85.840816,102.947216,115.170307,44.990215,80.574188,100.927792,115.19125,35.54615,68.225899,87.346458,100.486851,27.019901,53.171425,68.914547,81.685753,-14.529254,-13.656845,-5.571184,-1.253657,20.263027,36.637631,44.039468,48.760534,36.889943,53.082198,59.646637,62.927313,47.443274,64.048454,69.292113,70.346563,53.48938,67.987018,71.645607,71.805355,42.437582,308.274992,-92.387838,301.809477
103,-3.169212,3.665196,0.143166,-0.081511,-8.149338,-22.886467,-40.968876,-56.635551,-63.647289,-61.614361,-39.822407,-22.711029,-70.789318,-63.847504,-40.025482,-17.725868,-71.39986,-68.22567,-45.905228,-24.774284,-68.407001,-74.046421,-68.163929,-58.799057,-14.577482,-19.593838,-13.718039,-7.936904,1.670472,24.405739,34.676438,39.632279,18.720317,35.937443,44.527666,49.226749,32.89747,44.42374,51.155153,54.440583,44.579351,54.518636,56.522993,57.10147,26.439686,51.541443,72.99654,91.216335,53.617058,85.628929,102.689838,114.720898,44.086018,80.460835,100.959263,114.944973,34.776306,68.196831,87.32151,100.214138,26.615009,53.290958,69.000893,81.44228,-14.643184,-13.736009,-5.246686,-0.927306,20.041899,36.728775,44.070899,48.934237,37.046172,53.74725,60.213691,63.241067,47.705775,64.587164,69.558875,70.366138,53.547117,67.979917,71.483512,71.578916,40.636225,311.965521,-90.876818,301.753299
104,-2.218323,2.376465,-0.132637,-0.348952,-5.203285,-20.120316,-40.038586,-57.626667,-58.29443,-57.302628,-37.170353,-20.371513,-65.291348,-60.589314,-38.987217,-17.377625,-66.037731,-65.21513,-46.037121,-26.823807,-63.286457,-69.135818,-63.5812,-54.733601,-16.277964,-22.823693,-18.425458,-14.272928,-1.748092,19.496272,30.564416,36.505423,15.41315,31.424661,41.241618,47.092778,29.362012,39.501121,47.918628,52.842545,41.079523,50.067852,53.086644,54.342153,26.684589,51.611195,72.928848,90.653057,53.845768,85.918293,102.994709,115.180836,43.998127,80.580254,100.919666,114.96912,34.568367,68.26355,87.365227,100.308895,26.431675,53.259602,68.892288,81.165104,-15.088034,-14.349993,-5.918406,-2.162685,19.819474,36.078049,43.292288,48.230592,37.17381,53.438683,59.681897,62.862537,48.154206,64.36653,69.103528,70.073194,54.004317,67.791825,71.125854,71.416204,39.443436,314.41201,-89.983921,301.474373
105,-1.280479,0.380815,-0.858707,-0.863518,-6.790237,-22.895164,-41.931896,-58.142509,-56.873131,-55.640717,-36.669102,-20.458603,-62.31657,-58.442402,-37.93705,-16.641541,-61.63868,-61.237965,-42.52058,-24.064293,-57.715702,-63.276215,-58.791161,-51.685066,-16.432773,-21.921643,-17.116041,-13.824929,-2.677745,16.969137,26.996971,32.071435,13.986283,29.139093,38.412338,43.804878,27.963304,37.799527,46.034068,50.551666,39.551448,47.81989,51.193932,52.192066,26.54171,51.388493,72.726746,90.555038,53.226357,85.665493,102.97554,115.842476,42.928791,79.734478,100.114403,114.442406,33.307571,66.92585,86.323814,99.860573,25.184898,51.698627,67.400093,79.672966,-14.830658,-14.214142,-6.039376,-1.870543,19.830527,36.349565,43.238997,47.881887,37.342821,54.241438,60.264018,63.17907,47.999707,65.07067,69.646437,70.247639,53.267449,67.379024,70.512487,70.220778,39.187374,314.86163,-89.818211,300.67966
106,-1.910248,0.67382,-1.076202,-0.940459,-6.971741,-21.849861,-37.999821,-53.408546,-47.844887,-49.875183,-36.390381,-23.38028,-51.535492,-53.406658,-37.331085,-19.880333,-50.723305,-54.57922,-39.306221,-24.320755,-47.242641,-53.372612,-47.266388,-39.700584,-14.023025,-17.458817,-13.064782,-9.821465,1.034011,16.686382,25.529596,30.323837,14.414213,28.602976,37.470644,41.774771,26.072135,36.573472,44.310984,47.543927,35.822526,43.993772,48.853097,51.26266,26.529293,51.395073,72.836151,90.769215,53.577347,85.885334,103.11573,115.984726,43.24831,79.638634,99.632721,113.968849,33.597679,66.921673,86.203594,99.984741,25.402622,51.909771,67.820835,80.620651,-14.835351,-13.963744,-5.673504,-1.835716,20.370226,36.739704,43.248321,47.617101,37.564505,53.511425,58.950216,61.779002,48.245288,64.599576,69.188126,70.068007,53.688649,67.68617,70.870269,70.890955,38.092861,315.530819,-90.078678,299.73457
107,4.052696,-11.939566,-0.618725,-1.153312,-11.988487,-28.970375,-46.038952,-60.810471,-72.415352,-66.380482,-42.186584,-23.446312,-80.561142,-70.16058,-42.738075,-18.917427,-81.14994,-73.41053,-47.247276,-24.737091,-78.389339,-77.70195,-60.569572,-44.01289,-2.104516,-3.665751,-0.756875,6.049009,11.522318,33.616369,45.149184,50.321954,23.74785,40.482644,53.426827,59.621752,34.128341,47.08401,56.625128,60.598335,42.124896,54.382476,57.211757,58.13931,26.664619,51.637173,73.000603,90.602131,52.944031,85.159092,102.439442,115.455837,42.690525,78.932934,99.000721,113.514347,33.12561,66.436672,85.601749,99.490986,25.104904,51.595116,67.567406,80.628719,-13.718719,-12.68409,-4.639802,-0.913783,20.738629,37.194805,43.850944,48.10425,37.772851,54.044763,59.849611,62.532975,48.492105,65.331874,70.182245,70.948877,54.081875,68.619157,72.193827,72.286514,43.016882,303.600547,-89.826078,298.590551
108,-1.08799,6.096803,-0.672512,-0.104296,-9.524002,-25.479584,-43.403664,-58.738518,-63.447189,-62.155781,-40.222034,-22.866325,-69.829617,-64.452038,-40.76889,-18.270149,-70.065823,-68.155117,-46.555653,-25.831833,-66.932774,-72.574539,-65.421238,-54.907951,-15.938584,-21.284379,-15.584384,-9.332402,0.431635,24.738759,35.249667,39.700698,17.922501,36.220569,44.729837,48.791347,32.620334,44.803814,51.691455,54.562479,44.655304,55.228395,57.461228,57.615357,27.170391,52.053566,73.309822,90.743065,52.760239,85.076294,102.441101,115.634079,42.556458,78.642254,98.927307,113.645439,33.107758,66.105137,85.425396,99.494076,25.035095,51.381969,67.213154,80.221252,-13.787323,-13.03014,-4.981035,-0.890873,19.515353,36.390506,43.535461,48.062692,36.514748,53.616401,59.89543,62.748113,47.226715,64.696277,69.825266,70.638149,52.880027,67.776141,71.589846,71.877356,42.705088,309.711831,-89.722395,298.500735
109,-0.804062,1.455025,-0.019569,-1.151398,-7.773743,-24.92054,-45.183678,-63.715954,-62.297859,-61.105099,-40.356731,-23.825798,-66.778564,-61.314125,-39.924717,-19.14196,-65.521717,-65.125637,-44.9263,-25.738106,-61.550903,-74.918346,-80.511074,-82.69495,-15.850281,-21.369656,-16.59215,-14.564082,1.936431,25.771967,34.048992,36.895686,18.422741,36.906739,42.541217,45.484365,31.645851,43.808398,48.79073,51.210234,42.665027,49.881674,53.686426,55.753335,26.956043,51.991539,73.71912,91.959915,50.887527,83.360996,101.169434,114.637642,40.531425,77.611084,98.737335,113.354645,31.258507,65.31601,85.208473,99.330425,23.711243,50.260849,66.593571,79.979839,-13.251762,-11.900478,-3.399175,1.042656,20.337622,37.734627,44.542857,48.737501,37.409882,55.218515,61.332238,63.733465,47.982108,66.463512,71.215947,71.638258,53.306414,68.802865,72.751124,73.164976,42.660856,311.172259,-88.982134,297.35474
110,-3.244972,0.92144,-0.478363,-0.106705,-6.227188,-21.758537,-41.579533,-59.096489,-58.403549,-56.180019,-35.515022,-19.271965,-65.196877,-59.438725,-37.333488,-16.063156,-65.758038,-64.095039,-43.210888,-24.049301,-62.952461,-69.794197,-65.849648,-58.577785,-16.953823,-23.24514,-18.911496,-18.059834,-0.639673,21.239486,30.184528,33.91876,17.029096,33.570797,40.816034,44.511302,31.20168,41.637562,47.681075,50.890491,42.948091,51.363437,53.61498,54.049518,26.642017,51.738167,73.805923,92.394276,51.293907,83.698139,101.380234,115.095406,40.958004,77.477646,98.118668,112.888527,31.756496,65.201969,84.750595,99.112701,24.265537,50.398006,66.444912,79.794903,-13.260036,-12.319639,-4.615164,-0.935148,20.109022,37.423837,44.507783,48.92479,37.042467,55.163866,61.247023,63.733959,47.62235,66.55657,71.530751,72.116762,52.996118,68.972864,73.168619,73.822679,39.933929,312.09461,-88.942451,297.248946
111,-4.916267,4.496233,-0.303555,-0.598917,-3.791428,-19.290047,-38.396587,-53.73436,-56.039829,-51.128368,-30.759258,-14.475746,-63.558025,-55.17271,-32.459507,-11.309395,-64.165821,-59.836979,-38.340397,-19.310989,-61.070251,-63.866844,-56.834908,-47.412243,-17.173222,-24.524608,-21.465122,-20.380291,-3.808148,15.317992,23.523017,26.982892,13.504136,28.690291,35.875137,39.738798,27.622194,37.004367,43.419617,46.919939,39.273941,47.325454,50.187709,50.84745,26.661015,51.66235,73.638382,92.389011,50.766621,83.317795,101.251087,115.048199,40.623322,77.310677,98.124332,112.751369,31.749344,65.476856,85.103416,99.21793,24.576759,51.122704,67.1842,80.348454,-13.293752,-12.199782,-4.021804,0.399031,20.433644,37.627737,44.519577,48.957209,37.433903,55.56901,61.800368,64.476754,48.037189,66.89595,71.866426,72.450956,53.398175,69.165154,73.338988,73.982428,35.377579,316.580561,-88.886089,296.639748
