takenoko1/special-research/HandMotion_SimilarSearch_自分用/NewProject/handData/key/d4_feature_d2/23.csv
,vel_0x_L,vel_0y_L,vel_0x_R,vel_0y_R,posFromWrist_1x_L,posFromWrist_2x_L,posFromWrist_3x_L,posFromWrist_4x_L,posFromWrist_5x_L,posFromWrist_6x_L,posFromWrist_7x_L,posFromWrist_8x_L,posFromWrist_9x_L,posFromWrist_10x_L,posFromWrist_11x_L,posFromWrist_12x_L,posFromWrist_13x_L,posFromWrist_14x_L,posFromWrist_15x_L,posFromWrist_16x_L,posFromWrist_17x_L,posFromWrist_18x_L,posFromWrist_19x_L,posFromWrist_20x_L,posFromWrist_1y_L,posFromWrist_2y_L,posFromWrist_3y_L,posFromWrist_4y_L,posFromWrist_5y_L,posFromWrist_6y_L,posFromWrist_7y_L,posFromWrist_8y_L,posFromWrist_9y_L,posFromWrist_10y_L,posFromWrist_11y_L,posFromWrist_12y_L,posFromWrist_13y_L,posFromWrist_14y_L,posFromWrist_15y_L,posFromWrist_16y_L,posFromWrist_17y_L,posFromWrist_18y_L,posFromWrist_19y_L,posFromWrist_20y_L,posFromWrist_1x_R,posFromWrist_2x_R,posFromWrist_3x_R,posFromWrist_4x_R,posFromWrist_5x_R,posFromWrist_6x_R,posFromWrist_7x_R,posFromWrist_8x_R,posFromWrist_9x_R,posFromWrist_10x_R,posFromWrist_11x_R,posFromWrist_12x_R,posFromWrist_13x_R,posFromWrist_14x_R,posFromWrist_15x_R,posFromWrist_16x_R,posFromWrist_17x_R,posFromWrist_18x_R,posFromWrist_19x_R,posFromWrist_20x_R,posFromWrist_1y_R,posFromWrist_2y_R,posFromWrist_3y_R,posFromWrist_4y_R,posFromWrist_5y_R,posFromWrist_6y_R,posFromWrist_7y_R,posFromWrist_8y_R,posFromWrist_9y_R,posFromWrist_10y_R,posFromWrist_11y_R,posFromWrist_12y_R,posFromWrist_13y_R,posFromWrist_14y_R,posFromWrist_15y_R,posFromWrist_16y_R,posFromWrist_17y_R,posFromWrist_18y_R,posFromWrist_19y_R,posFromWrist_20y_R,posFromBody_0x_L,posFromBody_0y_L,posFromBody_0x_R,posFromBody_0y_R
2,2.261295,0.342036,-1.217022,-0.48647,12.575684,20.615101,21.646271,19.543247,6.762772,28.72261,42.312241,49.282608,-1.239738,19.262238,36.504135,48.887901,-10.234852,11.051788,29.225693,40.377045,-18.729801,-2.703896,12.212334,20.933132,-22.490735,-29.496443,-30.618139,-30.146057,-10.075074,11.887572,17.313642,17.184399,8.95066,30.641666,33.497808,31.833325,25.018118,43.197871,43.638831,41.599709,38.575235,54.320355,51.801,46.566603,27.197685,53.643551,77.335682,97.54755,53.057041,88.059711,106.523151,119.058552,43.730907,83.782368,103.365269,114.411678,35.636387,73.457508,91.635876,101.81757,29.524727,59.466305,75.402203,86.143627,-15.907956,-17.188474,-12.220407,-7.978215,14.081687,29.977726,35.91583,39.567441,32.876722,47.630131,49.207113,47.972969,45.577979,60.107728,60.138232,57.238803,52.54077,64.804464,64.572838,61.566952,-20.060234,302.069014,-82.065754,292.502887
3,3.493309,-0.60608,1.050282,-0.647638,10.869083,18.053055,18.583031,16.427364,1.838379,20.697327,36.763344,46.951103,-6.844597,11.630173,31.969414,47.772217,-15.839596,2.691078,23.686867,37.985229,-23.922443,-11.451931,4.88245,16.501865,-21.178292,-28.077727,-28.942171,-27.401931,-10.093228,10.213333,17.019278,18.457569,8.329019,29.141007,33.936544,33.735547,24.039929,41.760939,43.741584,42.801372,37.327074,52.894477,51.94562,47.782345,27.356701,53.317394,76.892796,97.764931,52.594986,87.597771,105.970001,118.341522,43.487206,83.641663,103.373795,114.91539,35.327454,73.027039,91.135597,101.705704,29.041214,58.639126,74.62326,85.674477,-15.460945,-16.8846,-11.435188,-6.822309,16.038249,31.229653,36.617377,39.813949,34.72732,49.150302,50.79027,49.595523,46.910615,61.379292,61.545339,58.606205,53.164141,65.465687,65.520336,62.617882,-16.790972,301.454659,-81.239519,291.846974
4,4.880219,8.603067,-0.962334,0.71754,-0.699463,4.58868,12.288094,14.279594,-6.315022,13.217239,27.706604,37.697639,-12.920265,8.028545,26.544342,42.155457,-16.692924,-1.465588,12.954597,24.936905,-18.8867,-14.151134,-4.613972,5.844727,-18.574277,-25.754738,-21.569172,-17.782637,-5.353452,1.873507,6.518003,9.656653,12.916766,19.910926,22.83203,22.74879,27.172898,32.468552,32.947982,31.58583,39.008168,45.029512,42.118042,38.480078,26.730595,52.706509,76.474457,96.93203,53.39613,88.322067,106.690178,119.297905,44.414864,84.382324,104.004021,115.490685,36.484108,73.823318,91.841927,102.171249,30.390987,59.952908,75.761604,86.512642,-15.971127,-17.780969,-12.648152,-8.21299,15.529549,30.709591,36.204452,39.651545,34.246037,48.068003,49.30758,48.067694,46.557094,60.357076,60.134157,57.273816,53.1006,64.905673,64.64805,61.841,-12.041159,310.062326,-82.332258,292.569114
5,-16.992359,11.833355,0.284843,-0.042423,9.473305,20.103951,31.961231,41.843548,7.788734,29.350147,44.380245,54.615154,0.598869,26.515388,48.424473,66.667728,-2.775364,21.620407,38.392925,51.857357,-4.571342,12.493973,24.62019,34.425488,-19.990214,-27.271081,-23.407543,-17.641784,-17.958193,-14.199322,-6.626992,-0.626087,-1.223152,9.392793,15.616309,15.766547,14.32307,22.683767,24.731225,22.796153,27.671409,33.636499,31.118009,26.18625,27.079239,53.111057,76.916656,97.568893,52.829361,87.909279,106.676216,119.6315,44.098778,84.501686,104.718475,116.94809,36.488171,74.252529,92.557869,103.151894,30.700951,60.291424,76.251526,87.27459,-15.433589,-17.214286,-12.222938,-7.813465,15.854665,30.540334,35.614797,38.504346,34.363178,48.015268,49.437627,48.220835,46.525724,60.351086,60.278776,57.196504,52.963575,64.892396,64.818975,61.860081,-29.121294,321.895928,-82.135191,292.526938
6,4.530544,-15.453102,0.192947,0.196181,13.029728,23.278885,27.160492,26.550407,10.515919,30.416107,45.904999,56.386757,2.411556,21.318054,40.747604,57.022362,-6.655769,12.786713,33.336868,48.690948,-15.426178,-0.989456,14.857464,26.963997,-24.653667,-34.717872,-39.381387,-39.888852,-16.710217,0.03668,6.835524,8.822467,2.682747,21.12636,26.358843,27.356853,19.862267,35.051819,37.080505,37.353071,34.846869,48.244609,46.8974,43.343046,26.676521,52.633209,76.422787,97.129097,52.559166,87.864304,106.630554,119.499664,43.999043,84.645538,104.819641,117.004623,36.537666,74.349003,92.486458,103.013535,30.926971,60.354996,76.19688,87.186813,-15.47206,-17.564966,-12.659822,-7.995382,15.652494,30.369161,35.527112,38.480819,34.379727,47.944378,49.203593,47.755113,46.643482,60.358681,60.056536,56.820753,53.088064,65.008611,64.853247,61.772395,-24.672976,306.486036,-82.024469,292.766329
7,-0.064144,0.488446,-0.333824,-0.270837,13.04678,23.599033,28.046894,28.392849,9.803181,29.828854,46.001186,57.333927,1.645546,20.51302,41.196384,58.494358,-7.336063,11.883373,33.413715,49.682751,-16.01326,-0.854244,15.987225,29.155025,-23.953726,-34.925848,-39.582138,-39.708047,-18.259103,-2.360101,5.077551,7.654149,1.54833,19.786561,25.640871,26.567991,19.070874,33.916414,36.700555,37.408461,34.578378,47.69855,46.683064,43.312727,26.778774,53.010578,76.928215,97.563858,53.023338,88.353996,106.950188,119.409142,44.276333,84.913216,104.839897,116.410217,36.593628,74.523354,92.604561,102.798386,30.778084,60.540104,76.298618,86.880798,-15.666821,-17.50618,-12.566332,-7.915415,15.988478,30.917567,36.061314,38.976551,34.6497,48.307409,49.358957,47.702564,46.788843,60.480824,60.021833,56.654089,53.091522,64.966065,64.746665,61.623515,-24.804268,307.022215,-82.425442,292.543225
8,14.365311,-4.276834,0.215607,-0.392918,7.575703,12.072086,10.872173,8.533344,-6.081276,8.178291,25.708866,38.775387,-14.398785,0.431385,22.459774,41.923885,-22.010994,-7.661934,15.886402,34.323521,-28.641357,-19.04171,-0.683441,14.318447,-21.4876,-29.981492,-31.383782,-27.734457,-11.751783,5.121764,13.708221,16.679774,6.558388,24.352139,31.804303,33.690346,22.545569,37.83491,41.919329,42.81823,36.397051,51.336329,51.633039,48.341495,26.836052,53.195686,77.215462,97.757378,52.943745,88.261986,106.737556,119.073372,44.155483,84.871788,104.536171,115.923729,36.518784,74.596596,92.450523,102.522469,30.814533,60.76498,76.453056,86.859169,-15.396539,-17.086462,-12.156371,-7.378063,16.585296,31.554893,36.723773,39.71169,35.203416,48.721075,49.749405,48.180574,47.287539,60.89449,60.372946,57.022306,53.555021,65.216895,64.813294,61.566952,-10.496778,302.777754,-82.267656,292.18268
9,-19.821167,19.318678,-0.562763,0.095837,10.648727,21.537552,29.832687,38.451748,11.017056,35.32465,51.597805,62.078304,3.309803,28.840542,48.108273,63.556309,-2.068405,21.815643,37.009106,48.543949,-5.989723,8.980007,19.259605,27.273273,-22.226073,-34.885957,-37.547029,-36.670112,-20.556403,-11.785437,-4.812457,0.237616,-5.053962,7.904732,13.713037,16.688358,8.791406,19.571484,23.061062,23.767116,20.146751,28.322197,29.212885,26.685749,27.149448,53.564873,77.595921,98.119869,53.918152,88.972721,107.200413,119.495373,45.059052,85.247784,104.695415,116.034679,37.222252,74.780045,92.486286,102.565784,31.251984,60.672798,76.278992,86.833363,-15.659657,-17.445973,-12.259062,-7.465625,15.990084,31.248734,36.516106,39.631723,34.608512,48.367801,49.657026,48.344645,46.735058,60.584379,60.373501,57.227441,53.079666,64.967053,64.798104,61.75035,-30.346384,322.175658,-82.858858,292.357742
10,10.568504,-15.322006,0.569859,-0.19155,11.012306,19.442196,21.422482,20.445328,5.879745,24.475765,39.064808,48.999424,-2.118816,14.606323,33.270092,48.794003,-11.164112,6.15612,25.932713,40.095577,-20.048103,-7.642937,8.406944,20.308914,-25.147608,-35.768,-38.535962,-37.606186,-15.297985,0.532783,6.772044,8.385459,4.451772,22.221874,26.506426,26.877484,21.649139,36.414156,37.868996,37.885483,36.539201,49.561745,47.819704,44.099983,27.595081,53.953972,77.765179,98.663521,53.810577,88.695488,106.618767,118.586082,45.093555,85.096664,104.552078,116.012421,37.24823,74.643688,92.270164,102.420845,31.123409,59.997482,75.67955,86.683731,-15.41352,-17.145434,-11.793032,-7.104941,16.337121,31.389031,36.526233,39.374841,34.820255,48.581951,50.202344,48.875204,46.861276,60.800999,61.188298,58.357103,53.210515,65.45908,66.050402,63.493935,-19.797306,306.880775,-82.308426,292.193316
11,0.731335,-0.820725,-0.531349,0.287263,10.363369,18.553562,20.309715,19.45713,5.39732,22.45594,37.460518,47.731018,-1.961918,13.548374,32.619553,48.75206,-10.416069,5.733261,25.950165,40.542068,-19.002399,-7.080631,9.11253,21.210136,-25.168603,-35.734037,-39.116231,-38.840947,-14.923716,0.603363,7.071595,8.891504,5.112934,22.550633,27.109234,27.426445,22.319192,36.949285,38.434321,38.361702,36.998006,50.118796,48.423253,44.451281,27.770691,54.127693,77.890263,99.113846,54.172382,88.812447,106.620369,118.619385,45.734196,85.45372,105.062027,116.855507,38.116093,75.204563,92.998695,103.304443,32.107372,60.613861,76.255474,87.323112,-15.486139,-17.551505,-12.33131,-7.966668,15.639712,30.464875,35.579846,38.406039,34.117967,47.038315,48.857296,47.631798,46.307066,59.293919,60.109765,57.656421,53.031316,65.107473,66.165196,64.033757,-19.077215,306.063015,-82.851019,292.483543
12,0.568485,-1.111446,0.767899,0.021551,9.965057,17.643528,20.141544,19.795132,4.308357,22.242565,38.058987,48.552303,-2.921906,13.354111,33.551273,50.417004,-11.232319,5.504208,26.654034,41.816196,-19.70026,-6.751842,9.991894,22.339039,-24.609453,-34.491248,-36.341476,-34.708363,-13.377301,2.707756,8.600227,10.112494,6.505715,23.959407,27.943173,27.617687,23.563463,38.1951,39.37163,39.043303,38.177624,51.340713,49.31425,44.964736,27.428799,53.57357,77.57,99.200363,53.537121,88.305473,106.062813,117.842789,45.435619,85.400734,105.211487,117.136803,37.791824,74.993362,92.771759,103.139534,31.527271,60.113583,75.777397,87.037811,-15.392463,-17.587258,-11.959635,-7.283214,15.384745,29.740851,34.910348,37.957608,33.865964,46.683188,48.907376,48.143709,46.025484,59.184682,60.18084,57.862977,52.750722,65.112784,66.324697,64.197396,-18.550787,304.971406,-82.125177,292.524932
13,1.67038,3.680263,0.090065,0.324622,12.262516,18.877544,20.330601,18.854771,6.398849,25.262775,39.63335,48.219166,-2.321949,14.750118,33.099918,47.731762,-11.629486,5.886269,25.463848,38.957233,-21.327038,-6.678257,9.827442,20.789509,-27.608609,-39.477285,-42.083894,-40.641898,-17.227624,-0.780772,4.168709,4.766947,3.027437,21.887001,25.029727,24.394315,20.608027,35.357113,35.337476,34.479331,35.447145,48.013848,44.414848,39.380214,27.540722,53.24255,77.057018,98.980637,52.983341,88.490181,106.882896,119.210129,44.480438,84.989204,104.941177,116.61747,37.057114,74.530392,92.696571,103.063316,31.250954,59.95039,76.081696,87.714386,-15.842253,-18.18667,-12.983889,-8.737498,15.499168,29.501445,34.649453,37.90407,34.409861,47.46785,48.348844,46.525477,46.529738,59.762728,59.623913,56.376212,52.972714,64.929879,65.754988,63.306522,-16.915054,308.722312,-82.069759,292.920196
14,3.806705,-0.629175,-0.423717,-0.058045,4.3606,10.273533,17.4543,20.156479,-7.358379,13.732338,29.81472,39.566002,-15.94511,8.26086,30.625534,49.664497,-20.03334,-0.910149,18.435631,33.641167,-22.629776,-14.875774,-2.214088,10.097065,-22.834747,-29.932215,-23.029816,-15.112734,-16.352682,-7.676996,0.482085,7.381459,6.824656,18.500176,26.01656,27.242244,26.222559,33.969334,36.138996,34.489705,41.71617,46.582782,43.025402,38.569616,27.115803,53.402195,77.421284,98.945446,53.95277,89.100552,107.258892,119.577312,45.241585,85.165386,104.780445,116.304989,37.541485,74.508591,92.39336,102.548161,31.432514,60.048351,76.108303,87.635021,-16.159898,-18.6146,-13.643692,-9.553715,15.604267,29.811802,35.009273,38.183861,34.427398,47.479892,48.351561,46.539186,46.493491,59.735311,59.586986,56.317734,52.852425,64.948219,65.844341,63.365926,-13.112297,308.147678,-82.497425,292.916692
15,-7.217674,-0.830358,0.321293,0.0,12.899265,20.399895,23.243752,23.617516,7.624626,29.650497,44.68071,53.093719,-1.050339,19.583645,38.209648,52.239532,-10.162525,10.399017,30.374794,43.703957,-19.378052,-2.756996,13.816166,24.762268,-26.635546,-37.359864,-39.567379,-38.318354,-16.729854,0.895134,6.313115,6.989282,3.35348,23.523696,26.595347,25.113275,21.058187,36.9893,37.187642,35.964922,35.988696,49.268431,45.894512,40.856543,26.707649,52.863636,77.173462,99.067497,54.213009,88.912239,107.049179,119.383507,45.927544,85.521469,105.20256,116.814537,38.313389,75.116444,92.799454,102.839355,32.062912,60.451698,76.285057,87.797127,-16.153043,-18.483319,-13.293629,-9.418173,15.78322,29.544979,34.791294,38.010343,34.470562,47.184972,48.354525,46.793474,46.617053,59.586307,59.624901,56.572393,53.269055,65.361638,66.336862,64.06562,-20.330315,307.354725,-82.176476,292.954097
16,4.834499,0.127391,0.057678,-0.16438,11.496391,16.799641,17.781544,16.855488,2.712307,22.521687,37.412739,46.292095,-5.815029,12.697849,31.64629,46.619968,-14.494629,4.297428,24.65086,38.435154,-23.160038,-8.272934,8.636856,19.874096,-26.897244,-37.758833,-39.360515,-37.305276,-16.048562,0.520865,5.941872,6.755804,4.115665,22.949849,26.127896,25.12439,21.698416,36.719203,36.86092,35.791897,36.47004,49.237432,45.805159,40.563599,26.893787,52.968006,77.202816,98.940468,53.692417,88.723183,106.909332,119.247208,45.318375,85.494461,105.393333,117.204323,37.785072,75.217266,93.203087,103.623276,31.783791,60.535011,76.551647,88.190575,-15.814466,-18.147088,-13.074847,-9.227117,15.70208,29.611546,34.72133,37.780261,34.653034,47.230852,48.336123,46.654042,46.971871,59.828245,59.838928,56.755051,53.592195,65.470689,66.269986,63.843442,-15.497532,307.484679,-82.120514,292.79228
17,0.031185,10.215371,-0.185165,0.228168,7.700386,11.514301,15.774651,21.263237,-7.818146,15.730877,32.893753,43.750534,-16.176224,10.723228,34.348526,53.525162,-19.122734,4.837761,25.756302,41.957817,-19.311275,-5.510044,8.890171,20.849075,-23.122195,-36.315047,-36.171107,-30.694771,-17.994255,-12.46889,-6.551966,-1.635583,1.908026,11.240242,16.419064,17.524643,18.480046,25.76857,27.872839,26.758862,31.609789,36.758538,34.55374,29.340708,26.773453,52.869072,77.045288,98.701859,54.260502,89.139748,107.403831,119.909821,45.750046,85.667381,105.536156,117.461243,38.029461,75.02346,93.0756,103.528633,31.837349,60.332966,76.405792,88.061371,-15.792606,-18.237305,-13.449795,-9.465721,16.208495,29.697564,34.542933,37.317873,34.838224,47.144649,48.147969,46.43983,46.763216,59.581676,59.520358,56.379176,53.124559,65.041524,65.87534,63.472199,-15.473785,317.726957,-82.313118,293.047356
18,-14.38282,4.985481,0.104713,0.217238,10.584126,20.358295,28.716087,33.170013,7.759094,36.81221,53.066483,62.973862,1.004047,35.700417,52.56031,66.023026,-2.837505,29.963665,45.68058,56.739235,-3.783073,12.263546,24.172554,34.537811,-19.357951,-32.785578,-38.057829,-39.741515,-14.434715,-2.49342,2.520281,5.019876,2.535534,14.753223,18.470289,21.878233,15.575862,26.753675,27.9399,28.313305,25.561089,35.533348,34.564731,32.04902,26.72184,52.767563,76.946411,98.614426,53.998432,88.918762,107.211227,119.729691,45.652485,85.729637,105.659866,117.658768,38.085136,75.324898,93.272324,103.644333,32.028809,60.731564,76.738243,88.253517,-15.923332,-18.407674,-13.709888,-9.845486,15.993048,29.46106,34.255115,36.934527,34.750847,46.883136,47.827855,46.046479,46.786743,59.399574,59.171097,55.858558,53.244972,64.940871,65.611542,63.043898,-29.861841,322.71761,-82.21364,293.269765
19,13.575726,-16.080054,0.604248,-0.152894,12.561378,18.606892,19.176235,17.340832,3.415604,24.775829,40.225697,49.710674,-5.5196,14.322109,33.63905,48.488789,-14.506474,5.914707,26.143513,39.653606,-23.460617,-7.189178,9.860973,21.169338,-25.371886,-35.318333,-34.790059,-29.944072,-16.544541,0.350063,6.012267,6.84917,3.83538,23.287871,27.259596,26.793566,21.783261,37.931981,38.324899,37.309722,37.000168,49.983192,46.689178,41.80719,26.618443,52.41806,76.49929,97.936592,53.298798,88.387527,106.772575,119.444733,44.962921,85.093918,105.014648,117.100182,37.52203,74.804707,92.740517,103.131866,31.566868,60.2631,76.287918,87.833176,-15.741786,-18.205503,-13.674752,-9.884327,16.696694,29.883062,34.458644,36.940887,35.306169,47.287477,48.15328,46.406978,47.147675,59.650157,59.44317,56.194295,53.462766,65.077648,65.776292,63.267867,-16.277504,306.637602,-81.60078,293.116917
20,0.205536,11.359174,-0.122509,0.424719,7.406731,11.365471,14.489193,17.929859,-7.02261,17.468204,33.849506,43.210545,-14.883728,12.703114,35.238705,53.160496,-17.635403,7.305393,27.338276,42.750721,-18.006134,-3.625202,10.650558,22.460346,-21.681434,-33.649343,-33.935062,-32.00104,-16.005275,-9.714698,-4.895449,-0.965159,2.493729,12.200832,15.911414,15.990331,18.381307,26.477836,27.211801,25.531572,31.277325,37.264645,34.616108,29.714298,26.377316,52.414627,76.453457,97.640476,53.917923,88.739834,106.849766,119.322453,45.361633,85.111828,104.720478,116.533756,37.641277,74.573364,92.290249,102.552052,31.485157,60.064201,75.908089,87.319164,-15.990022,-18.463558,-13.950344,-10.213827,16.357622,29.659032,34.445368,37.226236,34.862986,46.858559,47.764685,46.165781,46.68115,59.199255,58.923169,55.787792,52.995809,64.727461,65.28093,62.800231,-16.102209,317.997347,-81.753531,293.542208
21,-2.548885,7.331688,-0.067806,0.144928,9.102287,13.762379,16.766911,18.660393,-1.773262,26.279182,43.543625,54.569435,-9.489727,22.151756,39.882774,54.718094,-13.387699,16.076431,32.473068,44.53949,-14.410057,-1.711063,9.421177,19.761086,-18.792997,-32.627806,-39.979069,-44.435226,-14.309793,-0.350125,5.972562,9.173456,1.325411,14.691782,18.094723,20.159472,13.929843,25.079127,25.617035,24.760063,23.283116,32.606502,31.644554,27.958919,26.748619,52.416687,76.27224,97.565575,53.562126,88.535728,106.886101,119.426651,45.157928,84.999161,104.826393,116.755371,37.61055,74.54504,92.549057,102.93045,31.612473,60.080509,76.073742,87.571564,-15.984835,-18.544143,-14.157826,-10.44465,16.331193,29.544485,34.122104,36.620958,34.8289,46.773591,47.62519,45.989175,46.60637,59.040927,58.872719,55.779332,52.877866,64.60606,65.346262,62.929783,-18.653269,325.337819,-81.823511,293.69592
22,0.619583,-3.341994,0.130749,0.013276,7.813282,12.950878,16.75272,17.286472,-4.668789,22.197762,39.936676,51.090317,-11.936474,20.072708,37.127724,51.609421,-14.22924,15.123253,31.693268,43.312111,-13.597298,-0.779457,10.993423,21.474953,-18.312393,-30.155875,-36.155978,-40.272384,-11.757155,-0.094416,5.249711,6.962297,4.052865,15.79804,18.91341,19.44749,16.631732,27.332338,27.517404,25.368675,25.77913,36.241934,34.945237,30.404483,26.841831,52.791996,76.767883,98.060246,53.44059,88.368015,106.661625,119.109478,44.96521,84.839115,104.647579,116.422977,37.41251,74.315929,92.271824,102.612705,31.442127,59.9786,75.916615,87.308064,-16.166875,-18.588665,-14.098854,-10.353321,16.178361,29.580053,34.287904,36.949224,34.738559,46.944639,47.679469,45.842456,46.572408,59.232601,58.822701,55.491328,52.807594,64.606677,65.140571,62.519822,-18.01157,322.000225,-81.670647,293.713596
23,2.044201,5.217107,0.002918,0.032542,7.22311,11.175098,11.856823,11.262531,-5.606747,22.445011,39.327335,48.231525,-12.394352,17.610569,35.518742,50.236645,-14.503098,11.649456,27.359447,39.607716,-14.237309,0.843716,12.656307,22.194042,-17.39083,-31.041315,-40.549581,-48.696807,-14.252921,-4.365322,0.381124,2.085003,-0.060639,10.590381,13.517968,12.986112,12.048246,21.515326,21.692179,19.537707,21.649386,29.00985,27.153323,22.796523,26.64259,52.307224,76.100693,97.415085,53.648472,88.205566,106.311951,118.624878,45.282784,84.798431,104.574623,116.37394,37.737007,74.393349,92.324181,102.504959,31.655388,59.989529,75.964851,87.310066,-16.310322,-18.878459,-14.430145,-10.700914,16.184351,29.607161,34.205097,36.668691,34.58338,46.793721,47.560908,45.761316,46.3372,59.003692,58.652332,55.32133,52.605546,64.390366,65.043314,62.488268,-15.966883,327.21744,-81.667242,293.746247
24,5.933361,-2.419937,-0.269451,0.100962,4.443054,5.683365,5.952129,3.337898,-12.565727,13.626366,31.785164,43.565254,-18.697414,13.900223,30.706329,44.836235,-19.702148,9.949036,25.868568,37.418976,-17.762089,-7.181911,3.918571,13.950233,-15.920738,-27.774903,-34.265859,-38.999708,-11.322988,-2.041469,2.371648,2.411601,3.947889,13.570271,16.547011,16.479703,16.095986,25.21504,25.300502,23.026111,25.099752,34.776782,34.356447,30.677481,26.501312,52.305107,76.30434,97.829075,53.642464,88.502483,106.916027,119.444447,45.367527,85.218716,105.239582,117.196941,37.911644,74.925041,92.987194,103.197269,31.949444,60.371361,76.389999,87.754612,-16.152735,-18.992821,-14.703638,-10.858563,15.869177,29.070427,33.637672,36.035441,34.326931,46.495837,47.308226,45.430519,46.176464,58.827703,58.468501,55.032585,52.520084,64.419265,65.161196,62.536248,-10.021763,324.799603,-81.924934,293.849308
25,-9.803581,2.565421,-0.484943,-1.306021,8.236599,13.553982,14.709034,14.257736,-0.558414,26.368675,42.920609,51.30661,-8.145103,20.633011,37.387505,51.281662,-11.465263,13.494987,29.107819,40.706062,-12.760506,0.755482,11.582565,20.877228,-16.920169,-31.221749,-40.287821,-51.381406,-16.157119,-7.054738,-2.666198,-0.583233,-1.685292,7.921775,12.136611,13.651596,11.214986,20.166573,21.212193,20.823042,21.497727,28.886225,27.375995,23.72562,26.948605,52.974987,76.992359,97.891045,53.725662,88.641014,107.132607,119.89048,45.102482,84.804497,105.052299,117.389145,37.170982,73.96534,92.383347,103.068695,30.72052,58.786697,75.152206,87.186356,-15.490832,-17.796654,-13.307831,-9.13091,16.124453,29.963029,34.776103,37.366039,34.338848,47.231038,48.734166,47.123036,46.228334,59.757047,60.547946,57.607886,52.679709,65.211214,66.858036,64.714988,-19.806261,327.311625,-82.390795,292.489888
26,2.668591,-10.950324,-0.175781,-0.471403,8.841705,15.672054,19.284954,17.160015,-3.708458,20.596905,38.937321,53.129025,-9.918137,19.356594,37.808132,53.154202,-11.810932,15.353279,32.239666,45.106602,-10.800934,2.039223,14.178371,25.185871,-14.983676,-23.962556,-27.164747,-30.685509,-8.052562,3.683474,9.909397,12.456849,7.153476,19.086744,23.892037,24.464031,19.39846,30.951159,32.12207,29.837676,28.76575,39.136917,37.769022,34.008607,27.314472,53.267498,77.076817,97.895393,54.011421,88.987541,107.418365,120.174522,45.232601,84.610634,104.528732,116.679039,37.184772,73.428955,91.679649,102.321167,30.647621,58.365097,74.552593,86.384239,-15.239446,-17.449802,-12.76838,-8.510936,16.974077,30.352736,35.142839,37.795451,34.958328,47.900042,49.69667,48.412941,46.434025,60.304835,61.300066,58.611947,52.569361,65.260367,66.942942,64.912404,-17.140732,316.328542,-82.569637,291.985727
27,-14.216194,-9.862652,-0.031528,-0.144311,15.457077,28.217239,35.983143,38.132229,17.199955,38.863392,53.748493,63.208637,9.491501,29.18232,47.983074,62.977581,0.882854,21.117039,41.319981,55.791378,-8.274422,9.527721,26.377831,38.523617,-26.013596,-37.260013,-37.643669,-32.897902,-18.653873,-4.874084,1.008446,2.695158,1.932911,19.273477,24.874301,25.434562,20.299275,34.716761,36.651278,36.721735,36.302017,48.142288,45.876419,41.491028,27.490597,53.379707,77.117901,98.143215,54.212494,89.34557,107.616749,120.116787,45.227623,84.666996,104.445248,116.309223,36.955547,73.34713,91.535511,102.082272,30.324955,58.13982,74.357357,86.17487,-15.335653,-17.727308,-12.918495,-8.473577,16.411222,30.192246,35.258127,38.287911,34.600485,47.8746,49.753665,48.583186,46.304596,60.360719,61.411032,58.894147,52.574177,65.359785,67.022539,65.091665,-31.364193,306.443536,-82.608433,291.819063
28,8.195915,-0.804855,-0.057049,-0.362043,13.324699,23.206215,27.78986,27.893887,8.507938,27.433834,43.019657,54.191952,-0.061054,16.898174,36.782169,53.847027,-8.83358,8.889542,30.400944,46.608181,-17.776222,-2.856159,15.105,28.752995,-25.597831,-36.809297,-37.345476,-33.28693,-17.685935,-4.012912,2.640633,4.820608,3.108763,19.907962,25.811734,26.741572,21.399852,35.763739,37.886965,38.158297,37.490651,49.286832,47.41209,43.396399,27.384624,53.23082,77.008209,98.087883,54.495392,89.457092,107.588539,120.057449,45.840626,84.740639,104.229927,116.024208,37.780151,73.728447,91.572762,101.99192,31.138573,58.679581,74.609699,86.245422,-15.224008,-17.682848,-12.978269,-8.690938,16.597399,30.335075,35.415899,38.542384,34.540402,47.691387,49.74817,48.751024,46.131325,60.111309,61.404239,59.131021,52.470128,65.283153,66.904842,65.006635,-23.236742,305.621885,-82.733946,291.440224
29,-3.055058,0.582862,0.501938,0.212854,14.396839,25.095749,30.704384,31.553307,11.757259,33.4132,48.346138,57.554169,3.640537,24.106808,42.596626,56.593895,-5.060005,15.850811,35.780869,49.320602,-14.09277,3.346539,20.395317,32.172089,-25.996244,-37.031784,-37.693872,-33.628966,-18.836222,-3.852114,1.990586,3.166685,1.859675,20.142676,24.88307,24.741661,20.427407,35.990054,37.168746,36.648993,36.784041,49.149376,46.515906,41.932173,27.502041,53.448429,77.365093,98.66272,53.253651,88.218613,106.625404,119.172821,44.739017,84.695206,104.819641,117.166672,37.03331,73.998127,92.050781,102.567101,30.937557,59.011745,75.143108,86.882286,-15.337197,-17.93127,-13.447572,-9.413542,15.937473,29.919495,35.133391,38.168053,34.290374,47.819766,49.813563,48.629129,46.251923,60.217952,60.970751,58.120723,52.779497,65.270124,66.604056,64.363751,-26.346703,306.196612,-82.286911,291.644942
30,8.408203,-2.971677,0.055161,-0.419532,11.685333,20.028076,22.564659,21.604385,3.009396,22.096825,37.76207,48.552361,-5.84713,11.391449,31.049194,47.683868,-14.757614,2.798023,24.127464,39.869041,-23.194027,-9.340096,8.267212,21.583328,-23.2917,-33.097789,-33.26365,-29.205969,-15.294404,1.023451,8.317966,10.467374,4.92651,24.018934,29.507064,29.705036,22.767192,38.992298,40.921566,40.61232,38.414005,51.968097,50.273048,45.926807,27.573051,53.556519,77.360916,98.313103,53.770123,88.921051,107.389069,120.10952,45.243015,84.791679,104.74102,116.911011,37.518539,73.974953,91.922379,102.388916,31.262169,58.939705,74.979229,86.797256,-15.414076,-18.033837,-13.339077,-8.564659,15.71937,29.516882,34.694778,37.845963,34.120252,47.636614,49.418608,48.057567,46.021965,60.145581,61.065785,58.231688,52.546019,65.407271,66.91182,64.640949,-18.054657,303.240203,-82.347908,291.240677
31,-2.888775,9.666471,0.156612,-0.732298,8.22298,16.930733,25.960064,31.936283,1.288376,22.011623,37.578793,46.926441,-7.583542,15.097504,37.285824,55.210133,-12.37318,6.867657,25.829601,40.459385,-15.724697,-5.611839,7.898483,19.518185,-24.193626,-33.950932,-28.712213,-21.280118,-19.504732,-12.785052,-5.42076,0.366983,2.350591,12.86045,20.431729,22.295851,20.980752,28.261558,30.677358,29.477918,36.092992,40.702105,38.059805,33.603154,27.746029,53.790836,77.829552,98.874493,52.99696,87.859898,106.328373,119.167156,44.6842,84.490528,104.812946,117.519779,37.331142,74.107132,92.288074,103.075161,31.585579,59.64632,75.672283,87.327404,-14.906673,-17.364833,-12.740098,-8.347915,16.256228,30.014838,35.200205,38.234682,34.623641,47.970808,50.340603,49.41904,46.455391,60.490518,61.677608,59.04278,52.88367,65.667179,67.160613,64.958099,-21.236086,312.965877,-82.48395,290.567582
32,-10.862103,8.864827,0.817051,-0.031184,11.854191,24.029388,32.485428,39.975929,13.699265,38.726234,55.35656,66.532402,5.031281,31.145611,49.701462,65.924149,-1.054974,22.585487,39.36161,52.854652,-5.302505,9.248714,22.229691,33.557281,-20.132116,-34.352742,-42.504908,-47.928632,-16.794445,-6.138855,1.31621,5.056124,-1.198575,11.144344,16.076782,17.626779,12.295927,23.18234,25.483407,25.193489,23.03488,31.423982,31.968003,29.706394,27.255764,53.162956,77.069321,97.942085,54.090672,88.283157,106.164436,118.666763,45.849953,84.54792,104.481239,117.102699,38.290043,74.094887,92.059593,102.937889,32.1175,59.662743,75.226021,86.620903,-15.880353,-18.423729,-13.43584,-8.959182,14.979662,29.19294,34.657604,37.924139,33.310766,46.638666,49.533649,49.227367,45.485415,59.522642,61.2808,59.283236,52.470251,65.550347,67.067184,65.033373,-32.626677,321.969705,-82.195387,290.675399
33,16.941147,-21.003168,0.614033,-3.116605,12.63073,20.659332,22.866325,22.158051,-0.638866,20.945892,39.379807,53.289642,-12.545242,7.750511,29.778328,49.23111,-22.619591,-2.801571,21.453323,41.216583,-30.955009,-16.438408,2.148285,18.847504,-22.50537,-31.739959,-32.755568,-29.212761,-14.071684,4.252813,13.58861,17.414481,5.67122,25.033494,34.529534,38.208623,23.832819,39.736946,46.862758,50.645527,39.993395,54.846901,58.473935,58.996529,26.848526,52.622223,76.714897,97.794056,53.437901,86.513386,104.272099,116.64259,45.22522,82.649975,103.250828,116.847439,37.346363,71.443748,90.375881,102.728519,30.350933,55.769749,71.009331,83.600521,-15.970509,-18.05792,-11.591602,-7.33317,15.895853,31.176919,37.687079,41.797742,33.893134,48.451658,53.597011,55.407286,45.678385,60.780004,65.014662,64.707701,52.678165,68.092735,72.610086,72.879936,-16.506128,301.201605,-82.401953,287.793862
34,-29.521809,6.830831,0.599041,-7.25203,17.393875,33.261051,50.392513,62.487087,23.458443,49.764118,65.839634,76.068478,11.107178,39.049187,60.332279,78.154278,0.641155,24.819202,44.990215,61.930447,-7.203083,8.772926,23.793755,37.261734,-20.791425,-28.95977,-29.004848,-24.428772,-14.377842,-1.130774,12.352738,24.165406,3.595912,19.494235,32.871288,40.300295,19.560802,32.970644,42.566905,48.835807,32.845291,47.749062,52.752574,54.254035,28.2617,53.625755,76.469021,96.558151,55.060329,84.16523,99.933586,111.95652,45.349445,77.499619,96.528854,110.098801,34.790897,63.861523,81.853638,95.33329,23.839588,46.175995,59.828796,71.918507,-15.112858,-14.520177,-4.825795,-0.181484,14.646951,32.929025,43.148903,50.94761,32.028827,51.152806,61.791291,68.561729,44.616957,64.22438,73.970078,79.41455,53.376994,73.260812,81.340607,85.304304,-47.069378,308.38852,-82.844353,280.897916
35,91.760845,-17.583245,2.159557,-14.845046,-34.364319,-64.229679,-84.782524,-104.431343,-81.710072,-90.766811,-79.563961,-64.366035,-71.65987,-75.266819,-61.236706,-43.035851,-58.007412,-61.482983,-49.413986,-33.017921,-42.394867,-49.943962,-45.544739,-36.224442,24.030235,36.056498,41.994788,50.326586,20.026585,36.421196,53.928487,66.0588,10.165229,29.319651,50.147942,64.713753,0.323819,16.878178,37.08421,51.385976,-8.84976,3.611164,16.136988,27.562173,30.050468,55.366631,75.589542,94.118671,53.866138,79.204044,91.147442,98.579578,40.780907,68.399563,82.341671,92.918186,26.524029,50.91156,64.701805,75.541363,12.550449,30.185623,40.831718,50.431995,-9.675857,-3.445364,8.991663,13.358899,15.873314,39.941895,53.440412,63.006971,29.580917,56.789631,72.708084,83.56498,41.249769,67.204517,80.301409,88.401581,50.43576,73.42476,83.797717,89.751754,43.725986,291.485842,-81.650276,266.733436
36,7.755203,2.370043,9.433479,-13.700996,-21.718483,-48.514824,-71.805954,-88.174896,-49.089203,-78.538685,-93.418751,-103.605022,-52.468529,-87.911968,-106.245575,-117.379532,-52.156563,-86.703014,-106.552048,-121.339989,-48.307571,-74.190903,-89.941807,-103.268795,-18.968986,-26.217187,-25.07499,-20.036218,8.939731,-7.097531,-21.930597,-33.799829,26.139814,15.554373,1.041729,-11.460382,37.034069,35.839754,28.209194,19.035861,41.378889,51.225548,52.790674,51.568387,29.611187,51.331844,61.92524,68.061733,39.905033,62.116699,68.18779,69.294949,24.662933,47.472897,51.08511,46.41655,10.294704,28.576927,32.429981,30.11198,-1.988411,10.152054,14.491081,14.545212,-1.953413,11.91326,31.607134,47.234002,7.268085,30.618016,46.513374,55.520907,21.256344,58.151474,76.219769,82.429513,34.609562,70.026017,86.842692,94.024018,45.212787,70.576151,81.33968,85.307144,49.901705,294.635978,-73.796282,253.812533
37,-2.685814,-6.631191,-30.069981,-62.433989,-23.222923,-47.480278,-69.249687,-84.627399,-59.410343,-89.063988,-105.761547,-117.995739,-55.233822,-88.30759,-108.78994,-124.282951,-47.999382,-79.29697,-98.444881,-113.013325,-38.624382,-63.377495,-77.203617,-88.542824,-17.82475,-23.242793,-24.639711,-29.683547,8.593187,20.048259,25.725963,28.622551,24.347138,34.96154,39.672293,43.163476,36.711608,47.98396,52.471363,54.992756,45.48628,56.540283,60.523184,62.738666,35.082035,59.52301,70.206299,69.733372,60.236034,87.535858,83.99231,74.629326,43.248425,69.202538,63.125839,51.925907,23.528023,47.04792,46.61974,42.526531,3.286457,23.715706,29.999599,31.262741,12.058003,33.413889,56.021888,74.903003,42.460201,81.600082,104.326395,112.597615,49.299985,101.720033,127.694665,134.485852,54.556057,102.633569,123.675516,129.842715,58.310173,92.563188,107.107572,110.21794,44.676876,289.992825,-106.405277,193.366583
38,-0.107574,-1.60761,-18.441925,-49.721926,-24.410019,-48.252869,-71.297092,-87.410889,-57.480354,-88.868408,-105.504284,-118.074532,-52.741756,-87.910995,-107.734108,-123.06181,-45.461311,-77.734909,-96.285782,-110.774517,-36.832466,-62.650509,-77.199326,-89.172935,-18.756008,-21.103759,-9.187473,2.107171,7.197628,19.572905,25.513973,29.807294,25.474577,35.768988,40.49839,44.049718,38.920111,49.836102,54.320788,57.372617,47.990629,58.737054,62.174205,64.164606,34.635773,58.772907,71.746559,78.053913,56.299438,82.58709,95.563545,103.970261,39.601593,57.922153,65.195847,68.749695,21.809177,36.853523,46.483097,53.434868,5.369568,19.716225,30.570717,38.592682,10.486146,31.425958,51.55264,69.677374,33.537575,60.97563,78.089139,89.571443,40.596882,82.823666,102.421024,110.146927,47.422464,88.491057,105.755176,111.838085,53.869948,84.709092,97.445485,102.262079,43.046236,290.592977,-126.370268,145.85242
39,1.086845,0.969667,-6.47913,-41.638612,-25.382881,-49.793701,-71.807213,-86.64402,-61.133308,-92.198753,-108.407478,-120.613346,-55.75819,-89.436607,-108.619137,-123.46653,-47.560844,-78.855629,-96.990337,-111.176376,-37.577248,-62.579613,-76.981144,-89.239483,-19.55228,-21.681558,-10.696221,0.80362,6.753334,19.149976,25.020094,29.19541,24.737462,34.616355,39.353846,42.85034,38.122975,48.221576,53.623873,57.187242,47.03393,57.051823,60.91604,63.183639,34.774475,57.768745,67.50309,69.893932,54.828129,75.077019,86.327076,94.585304,36.189251,51.533318,56.6082,58.557072,16.217537,29.151649,35.552559,38.894634,-2.207794,9.794941,17.646275,23.488312,11.102755,33.95649,55.297926,73.17924,28.908579,54.961942,72.524933,87.287974,32.438294,70.052755,88.339769,97.817716,37.362396,74.105187,88.133646,93.921821,42.66867,69.847188,81.359132,87.919557,41.983795,293.089408,-134.998684,105.740572
40,1.504555,0.001482,-14.556313,-38.826127,-25.638199,-50.186806,-72.852631,-87.498379,-61.195679,-92.738171,-109.138069,-121.288376,-56.293945,-90.09716,-109.234715,-124.10511,-48.564262,-79.935436,-97.808304,-111.806889,-39.155045,-63.945866,-78.045444,-89.923096,-20.048012,-22.449177,-11.132303,1.347579,5.891854,17.718046,23.408284,27.359323,24.2421,33.925676,38.656499,42.211655,37.795513,47.865461,52.923252,56.325453,46.822435,57.126973,60.873186,63.012837,34.721718,55.800018,62.596092,62.547913,59.569187,78.965206,90.687103,99.476109,41.904373,53.797073,57.748604,59.421616,22.082005,31.445847,33.456802,33.660049,3.619137,11.799946,17.812271,22.97184,8.258099,30.573833,53.988694,74.455498,26.99762,53.357728,73.764263,90.726052,29.763359,67.364142,84.948992,94.373463,33.950222,70.923683,79.167239,79.734725,37.534278,65.105312,74.800312,79.512918,42.672701,293.904652,-150.370646,67.728207
41,1.572876,-1.276319,-1.578541,-32.212998,-25.960236,-50.695267,-73.107719,-88.170033,-61.111679,-92.44297,-109.219608,-121.874371,-56.481514,-90.021343,-109.60825,-125.064697,-48.908958,-79.980469,-98.347263,-112.96875,-39.422264,-63.869305,-78.115196,-90.441513,-19.457308,-21.943256,-10.959772,1.043582,6.194431,18.284112,23.974289,27.545747,24.254203,34.433512,39.256219,42.716218,37.585932,48.033978,53.337659,56.642356,46.35764,56.957901,61.190768,63.553215,30.324612,49.094009,54.773598,53.8484,54.363384,72.558517,83.632107,91.43343,37.288742,46.791801,49.786606,51.21254,17.780113,24.774971,26.69426,27.975426,-0.457706,6.123047,11.217155,16.258278,8.669048,30.898609,52.935973,71.911473,28.874832,56.575079,77.919232,95.529277,30.493156,68.11759,84.97891,93.67837,32.957461,69.160091,78.475974,80.487185,35.02187,61.480995,70.352491,74.489707,42.969961,293.305951,-153.224802,36.192827
42,1.270409,-0.157834,-0.447636,-25.967932,-26.113014,-50.974846,-74.089222,-90.038338,-61.424961,-92.593346,-109.399052,-122.508659,-56.993523,-90.581417,-110.516853,-126.471519,-49.688187,-80.483265,-99.036312,-113.993683,-40.201492,-64.621239,-79.0341,-91.840725,-18.841224,-21.822163,-11.481872,0.247063,6.036597,18.079533,23.55099,26.937382,23.765819,33.741413,38.334903,41.706414,37.104588,47.316562,52.45574,55.607728,46.10928,56.496687,60.83984,63.296395,28.495445,44.850769,46.045189,41.96743,52.620564,69.713058,79.632397,87.998886,34.517441,42.132854,43.345585,44.10038,14.801846,20.615845,21.23909,21.714592,-3.081379,5.420723,8.724804,10.438042,13.555481,40.451089,65.550995,85.33805,32.198239,60.983781,81.335018,97.934455,32.811915,69.558319,84.975298,93.35841,34.731581,72.572882,73.088313,67.394986,36.790772,64.485585,66.090447,63.242024,42.936459,294.091555,-154.976349,11.168334
43,0.69397,0.314371,0.92165,-14.888858,-26.170921,-50.810165,-73.969574,-89.590588,-61.248722,-93.044758,-109.875584,-122.911205,-56.827469,-90.829468,-110.758266,-126.599121,-49.499474,-80.632324,-99.11047,-114.140797,-40.047913,-64.75359,-79.206047,-92.286701,-18.982077,-22.630229,-12.743803,-0.532844,5.37068,17.320682,22.654682,25.827666,23.086256,32.715615,37.221419,40.432194,36.449724,46.595132,51.812795,54.900624,45.503817,55.924693,60.27575,62.627885,25.33493,40.048027,40.108795,37.039547,49.034729,67.457714,76.818638,85.197945,32.276344,38.591824,38.825169,38.982868,14.042015,18.652897,18.06942,17.754936,-2.474327,4.319401,7.144203,8.033638,15.716838,41.074182,65.530093,84.891595,33.223173,61.821641,80.672035,96.041713,34.978521,73.784548,93.474069,105.334285,37.227533,75.905335,71.741227,62.580585,39.630056,68.476421,65.666592,59.323034,42.55846,294.09614,-155.126667,-4.03031
44,-0.382118,-0.258981,3.702221,-10.372371,-26.21006,-50.636559,-73.763981,-89.737072,-61.677246,-92.957382,-109.655228,-122.581615,-57.231216,-91.050167,-110.712662,-126.39473,-49.912949,-80.926208,-99.193954,-113.941727,-40.483475,-65.00227,-79.279861,-92.017994,-18.771693,-22.004512,-12.106724,-0.495424,5.531046,16.902014,22.298568,25.656987,23.209325,32.550309,37.067043,40.221995,36.576992,46.189061,51.131255,54.006849,45.555811,55.806997,59.796567,61.74189,23.954029,36.412354,35.400696,30.671368,46.685944,62.612343,70.800076,77.417965,30.32959,32.844028,32.272739,31.356468,12.140579,11.977444,11.450615,11.681499,-4.625874,-2.720261,-0.739689,0.432873,15.434361,39.625733,62.458874,80.688831,39.170077,67.70062,85.607992,100.287084,39.356934,80.049653,104.081987,122.136541,39.308182,79.543855,75.8882,67.6163,39.785173,70.51579,68.604059,61.99377,41.192923,293.103795,-152.407866,-15.136045
45,-0.820084,0.163762,4.073124,-0.334409,-25.902786,-50.114136,-73.20385,-89.018497,-61.472511,-93.231354,-110.107613,-123.05048,-56.8507,-91.001415,-110.514793,-125.780182,-49.569397,-80.556736,-98.58181,-112.93293,-40.55809,-64.930515,-79.029007,-91.41655,-19.187953,-22.25843,-12.092768,-0.690555,4.52013,16.398069,22.309251,26.330746,22.497342,32.410383,37.056546,40.494129,36.083359,46.318861,51.303539,54.449723,45.071255,55.488179,59.212779,61.11395,24.138851,34.618778,31.709633,25.698223,43.348904,56.220245,63.495026,68.493004,25.485477,25.849342,25.539036,23.982754,6.69754,6.892776,8.932343,9.09399,-10.01976,-7.71492,-3.992786,-3.076286,15.344483,41.762359,65.571342,83.267621,42.770836,74.85987,94.326811,110.635836,43.481583,84.539865,108.086532,125.081943,42.667867,81.348511,79.063251,71.707079,41.687858,70.827229,69.369178,63.055198,37.966719,293.397527,-150.740862,-15.340485
46,-0.931549,0.351175,2.584591,2.046687,-25.787773,-50.402985,-73.565426,-89.301796,-61.680851,-93.519459,-110.390739,-123.194618,-57.192822,-91.398811,-111.018848,-126.345806,-50.044785,-81.198006,-99.257011,-113.464909,-41.09127,-65.346394,-79.305153,-91.567383,-19.446316,-22.557611,-12.491923,-1.27953,4.080344,16.117784,22.101152,26.042125,22.012046,31.75904,36.417429,39.89478,35.662715,45.419095,50.213397,53.260039,44.756575,54.532159,58.16895,60.136441,23.377647,33.207378,29.073372,22.051105,41.13945,48.67939,52.200279,54.833279,23.391151,24.730682,24.535046,24.66774,4.681206,6.970539,8.639603,9.357948,-12.471828,-7.684879,-4.257259,-3.847446,15.552459,44.604052,70.819911,90.419091,45.447037,82.031254,104.847754,123.269353,44.914286,83.519655,103.827359,117.432148,43.436444,80.679754,85.019048,82.175719,41.119815,70.231646,72.291825,68.774429,34.528999,293.756065,-150.662441,-13.286435
47,-0.64579,-0.422373,3.517342,-0.043534,-25.762482,-49.963303,-72.759991,-88.979015,-61.153393,-93.258648,-110.11734,-122.752419,-57.201233,-91.44968,-110.841694,-126.427631,-50.460091,-81.785889,-99.729538,-113.925533,-41.781464,-65.841465,-79.686642,-91.899204,-19.45138,-22.098743,-11.646251,-1.457371,4.748915,15.759199,21.270917,24.715541,22.778121,31.747554,36.069527,39.237632,36.300721,45.463247,50.112868,52.967095,45.322703,55.004056,58.759963,60.683735,22.989006,31.110821,25.605583,18.233471,39.52652,43.912468,44.546185,44.463329,21.83733,25.300026,26.309681,27.336388,2.71059,4.199181,5.263653,5.946007,-15.353794,-11.249657,-8.551769,-8.005371,19.252945,50.732842,78.104484,97.664884,48.982248,87.049648,110.149582,128.874962,47.203065,85.356359,105.825448,121.023614,44.450694,82.866953,87.811216,85.776664,40.472115,70.335911,72.61058,69.250741,30.981703,293.556256,-150.046606,-13.107405
48,-1.07254,0.148571,0.710564,2.124554,-24.961281,-48.968468,-72.032776,-88.526058,-60.613232,-93.427505,-110.275841,-122.977467,-56.779289,-91.977367,-111.584072,-126.809635,-49.968567,-82.163486,-100.596542,-114.953728,-41.32988,-66.667213,-81.242867,-93.954391,-19.74667,-22.135485,-11.795996,-1.924452,3.735715,14.634107,20.265127,24.236728,21.904106,30.554474,34.654084,37.739505,35.595654,44.724156,49.233171,52.074678,44.706002,54.228841,57.410593,58.931382,23.287525,30.254459,23.811493,15.744267,38.577633,41.615295,41.556988,41.217785,20.478058,23.182182,24.09977,24.740295,1.12484,1.391945,2.859936,3.903122,-16.65556,-13.376713,-10.50951,-9.951725,19.548482,51.907551,79.265638,98.297548,50.602301,90.177554,112.410326,130.03553,48.00758,87.049618,105.688609,118.860898,44.898539,84.309289,84.802088,79.197991,40.670643,71.382643,70.455306,64.473914,26.531868,293.825534,-152.713337,-10.862144
49,0.752563,1.449714,0.500908,-4.094207,-25.4702,-49.496956,-73.033447,-88.669281,-61.659107,-94.382629,-111.192513,-123.65696,-57.807312,-92.930145,-112.34951,-127.289371,-51.072693,-83.523617,-101.67635,-115.339794,-42.595825,-67.809563,-81.876583,-93.397236,-20.418391,-23.851591,-14.369444,-3.041702,2.95698,13.359887,18.746684,22.458748,21.429986,29.565974,33.463413,36.293928,35.336056,43.957895,48.056332,50.650405,44.647709,53.598431,56.455129,57.807092,22.493877,28.265877,21.136951,11.701298,35.457859,39.168434,39.201679,38.774128,17.000942,16.559143,15.921478,15.844803,-2.266445,-4.397678,-2.399368,-0.064201,-19.330559,-17.705555,-14.37767,-12.738419,21.047257,53.139626,81.149119,100.524268,51.013343,90.548797,113.663088,131.506611,48.518225,91.116592,110.537498,122.604177,45.142268,87.201894,88.576149,82.817985,41.157298,73.318796,73.953096,68.554412,24.090929,295.798506,-155.405931,-14.433094
50,-1.16272,-1.278604,0.843716,-1.935073,-25.373383,-49.168739,-72.321911,-88.418827,-61.800156,-94.815903,-111.423512,-123.546524,-57.776299,-93.245487,-112.388477,-126.722374,-50.729027,-83.340054,-101.387787,-114.943199,-41.896706,-67.18586,-81.245441,-93.020782,-20.198375,-23.002152,-13.144131,-2.215667,3.501434,14.186601,20.013926,24.106743,21.647657,30.592636,34.935234,37.884557,35.405525,44.531186,48.903115,51.495089,44.676423,53.96881,56.939437,58.30091,22.263565,24.8279,13.889294,2.867775,31.695614,35.753918,37.15004,36.806545,12.641373,9.233265,6.715965,3.178711,-6.61726,-10.216942,-5.307426,-2.347012,-23.795815,-23.129253,-17.496929,-15.102367,23.361632,54.71809,81.59119,99.455121,53.107145,89.582187,109.449425,124.199406,51.317742,94.50175,118.365413,134.93663,46.934728,87.909492,81.915935,71.012542,41.504582,73.979093,70.022991,61.329429,20.538425,294.418616,-156.952,-16.469452
51,0.104713,-0.478813,1.868019,-2.020998,-25.132141,-49.15947,-72.797298,-88.755569,-61.784363,-95.272636,-112.285881,-124.741688,-57.871628,-93.715324,-113.240032,-128.047371,-50.817032,-83.93383,-102.295132,-115.983982,-41.955643,-67.593613,-81.771011,-93.579998,-20.148727,-22.980107,-12.749361,-1.966936,3.49285,14.182649,19.847817,24.035422,21.650806,30.467221,34.825071,38.01059,35.360818,44.587935,49.111832,51.958958,44.424296,54.013332,57.197184,58.862283,21.028175,24.793224,15.358944,5.33329,26.649914,34.39127,36.945591,36.954689,7.615013,2.953606,-1.030827,-6.34243,-11.199646,-15.687103,-10.764942,-7.932987,-27.635765,-28.229885,-22.367992,-19.387951,23.233068,51.736101,76.81776,94.421227,51.723133,85.951109,104.32692,118.149626,49.833076,93.353285,118.676048,136.226905,44.94831,86.77347,81.617928,70.338783,39.446626,72.140042,69.09269,60.812979,19.661922,293.928611,-156.065197,-18.501643
52,-0.228767,-0.770892,0.063171,-5.286175,-25.452576,-49.377708,-73.222733,-89.103928,-61.907845,-95.420666,-112.32914,-124.729729,-57.762794,-93.979683,-113.699226,-128.61042,-50.584488,-83.941956,-102.501469,-116.439114,-41.753654,-67.957764,-82.34602,-94.288158,-20.06876,-23.011291,-13.05379,-1.805891,4.303818,14.888827,20.353245,24.24914,22.547792,30.892496,35.203539,38.340893,36.327953,45.487947,49.850367,52.398436,45.463988,55.036228,57.961221,59.305404,20.771885,24.930096,15.184708,4.908772,25.065536,29.99176,32.075729,32.49567,5.125008,0.510464,-2.57143,-6.716251,-14.041557,-18.420525,-12.872829,-9.71386,-30.121994,-31.112938,-25.064335,-22.156906,20.85015,49.464396,73.627054,89.556376,50.286325,88.058434,108.376728,123.379577,48.238773,92.058595,117.049326,133.959893,43.420327,85.259751,80.054901,68.88206,38.036247,70.562134,67.26,58.962381,18.79323,292.804414,-156.641951,-24.141123
53,-0.47184,-0.473502,-0.743065,-7.952712,-25.212708,-49.146996,-72.918549,-88.394623,-61.723766,-95.136051,-111.890659,-124.239521,-57.480526,-93.882694,-113.651276,-128.63348,-50.242538,-83.751011,-102.304459,-116.30785,-41.461143,-67.54612,-81.990452,-94.255886,-19.613042,-22.962199,-13.743851,-2.743262,3.954249,15.105756,20.621859,24.512197,21.889657,30.717557,35.139381,38.381833,35.653762,45.06261,49.546061,52.201946,44.961092,54.715126,57.656668,58.870435,20.690918,24.624195,15.004406,4.079819,23.648872,25.620117,25.924988,24.850101,4.0131,-1.790714,-4.644699,-8.08279,-14.937687,-19.671249,-13.530922,-9.627972,-30.98362,-31.591587,-25.297737,-21.940842,21.680261,50.691901,73.753766,88.065628,49.246725,90.768598,114.167712,131.524209,45.386059,89.330956,110.8272,124.113542,40.677899,84.338373,82.262417,72.902166,36.275033,70.169,69.078056,61.782646,17.37977,291.962771,-158.326635,-32.461975
54,-0.645561,-0.499623,-16.091537,-10.14232,-25.072403,-48.888702,-72.790661,-88.258324,-61.392975,-94.763203,-111.447029,-123.642483,-57.219887,-93.733406,-113.391037,-128.11306,-50.173416,-83.900414,-102.386055,-116.065121,-41.675034,-67.914104,-82.302132,-94.395103,-19.196721,-22.474742,-13.16809,-1.870296,4.541558,15.332319,20.688735,24.771054,22.229222,30.827596,35.125178,38.523427,35.800542,45.076874,49.153637,51.91104,45.023707,54.747236,57.498279,58.885131,28.909893,36.517124,31.007996,24.274464,41.049099,38.081818,37.068443,36.544476,23.641491,10.731182,5.714035,2.660065,5.585117,-3.041611,-5.946751,-6.382828,-11.723442,-16.095085,-14.800472,-12.589188,18.453092,46.55098,72.241035,89.826904,49.421541,92.779377,116.799546,135.004987,44.204928,91.726563,109.472304,117.85804,39.534219,81.300778,83.083389,77.577197,35.508926,68.084769,70.26567,67.200133,15.678949,291.392429,-175.473433,-42.675015
55,-0.300865,-0.089847,-24.508095,4.999437,-25.083847,-49.070435,-72.57391,-86.980305,-61.986465,-94.877815,-111.482449,-123.557568,-58.125401,-93.762302,-113.366718,-128.2267,-51.217804,-83.949966,-102.343826,-116.299267,-42.481499,-67.725105,-81.916523,-94.167881,-19.029377,-22.549645,-13.547299,-2.007074,4.293012,15.118662,20.555477,24.482309,21.830006,30.697303,35.103195,38.446733,35.365696,44.880446,49.37495,52.294571,44.636656,54.557971,57.735524,59.271874,35.813828,51.737022,51.357021,45.798969,63.890705,62.668877,62.571259,61.159744,46.803074,38.614712,33.004646,27.938118,27.566299,23.732815,19.408493,16.830425,8.294735,8.540955,10.147018,11.637268,17.080071,43.889538,72.783914,92.176754,29.288776,69.778243,94.886301,114.457229,21.364346,72.086659,92.036087,101.588876,17.759202,61.988058,71.718843,72.07823,17.339886,49.935675,55.855316,55.637677,14.715586,291.106,-200.644026,-37.872161
56,0.071754,-0.029887,1.566296,-7.727848,-25.137863,-49.089432,-72.703056,-87.571392,-62.299061,-95.140915,-111.800365,-123.877487,-58.268452,-93.786163,-113.39407,-128.419933,-51.232452,-84.031734,-102.449226,-116.437626,-42.409973,-67.995071,-82.135506,-94.319744,-19.013816,-22.309251,-13.139314,-1.781746,3.798577,14.62151,20.037947,24.097913,21.233929,29.911344,34.361573,37.837627,34.848969,44.027179,48.523782,51.614144,44.295361,54.18753,57.599735,59.39451,31.40522,49.035931,52.374859,52.042236,60.309734,64.32106,65.945263,66.494179,43.503914,35.662422,30.980129,27.712326,24.209518,20.2145,14.444504,12.654476,4.949512,5.978622,6.367664,7.692947,9.387236,30.379011,54.113121,71.123013,22.065059,59.677945,82.236173,99.537218,18.128748,70.616474,94.856382,109.695377,17.532424,62.816903,62.624088,56.441482,20.171204,55.502567,54.67187,48.915558,13.786554,291.020337,-200.078516,-45.655785
57,-0.942307,0.452384,-0.755196,-2.975104,-24.82338,-48.523521,-71.800861,-86.371536,-62.395649,-94.9823,-111.215,-122.719917,-58.449955,-93.646603,-112.896481,-127.665367,-51.354446,-83.743172,-101.695862,-115.535831,-42.217255,-67.313862,-81.035786,-92.8965,-19.471634,-22.818568,-13.494812,-2.062711,3.470682,14.311769,19.791872,23.815714,20.802849,29.562639,34.236343,37.786065,34.331068,43.51533,48.250352,51.394127,43.753501,53.642953,57.278694,59.070876,30.49221,49.768295,55.592766,57.085304,59.629555,63.95153,66.115723,66.845169,42.839584,37.524376,34.119587,31.21027,23.666096,22.37812,17.465,14.775696,5.034657,7.543201,8.075924,8.7216,8.248558,27.460655,49.638532,66.956558,13.192296,48.765319,70.174156,85.847553,9.575513,61.646023,86.133087,101.202935,9.774133,55.137529,60.008001,58.060794,13.576446,47.591938,48.665469,44.914471,13.082113,291.784035,-200.595846,-48.319574
58,0.921822,-0.3048,4.312763,-1.729814,-24.991379,-49.105225,-72.577286,-87.800674,-62.074356,-94.659061,-111.306095,-123.437233,-58.195553,-93.178825,-112.421436,-127.581253,-51.280289,-83.598404,-101.552811,-115.417328,-42.481041,-67.688885,-81.491661,-93.390198,-19.637496,-22.602997,-12.596899,-1.496089,3.619562,14.511162,19.82781,23.711973,21.196014,30.026014,34.511317,38.0787,34.860207,44.170687,48.909105,52.202378,44.275478,54.300101,58.147708,60.265809,30.047264,47.510662,52.957993,53.104305,55.933628,57.430916,59.620857,60.613403,37.969666,32.002888,29.210529,26.5131,17.563591,15.683899,15.046577,14.322224,-1.625462,1.476517,3.420868,4.409008,12.220005,31.122702,51.131842,66.424424,9.711333,39.518411,60.155831,76.499436,3.181752,48.833862,67.496658,78.059993,2.407896,44.212832,56.928353,61.522646,5.537561,36.980624,42.512226,41.984753,14.323454,291.889443,-195.963564,-49.63918
59,0.597038,-0.676352,24.352226,0.927707,-24.933586,-49.422455,-72.764111,-87.449398,-62.133808,-94.76841,-111.445999,-123.599968,-58.124599,-93.327999,-112.928181,-128.286324,-51.007004,-83.636456,-101.840229,-116.069183,-41.840744,-67.25956,-81.283207,-93.468018,-19.243404,-21.844023,-11.842741,-0.392177,4.042182,15.222403,20.448525,24.051415,21.525638,30.377065,34.883487,38.08926,35.076087,44.542672,49.493264,52.747634,44.452331,54.338387,58.187043,60.248765,23.050575,31.294441,31.256962,30.177956,24.771366,23.172054,26.865749,29.769859,5.887585,1.363163,0.845776,-0.445175,-11.389275,-14.222031,-12.636395,-11.273804,-26.442146,-25.811462,-22.900543,-20.235786,12.259309,28.328773,46.137963,60.010687,4.363315,32.009345,53.047093,69.290755,-3.125559,31.138695,47.995168,56.857495,-3.433169,29.903563,45.997666,53.236821,1.131669,26.969709,36.513574,39.772514,15.329075,292.24071,-171.202755,-47.683853
60,0.969772,-0.147336,-0.124283,-1.394942,-25.361938,-50.02121,-73.375797,-87.803764,-62.126083,-94.635773,-111.336765,-123.530502,-58.218899,-93.318043,-112.892818,-128.293076,-51.24012,-83.863163,-102.166843,-116.504059,-42.203407,-67.628517,-81.682606,-93.905468,-18.997699,-21.808331,-12.059114,-0.713156,4.028165,15.205483,20.584562,24.221846,21.541446,30.481115,34.953327,38.101733,35.144197,44.672224,49.619111,52.817165,44.621774,54.568469,58.552482,60.671632,19.534893,28.262043,30.691853,33.144836,22.008076,21.391125,26.287136,29.492626,3.919716,2.188053,1.160488,0.332794,-12.48476,-13.377228,-11.521339,-9.545918,-26.410332,-25.991535,-23.830833,-21.121502,15.398608,30.400253,46.645366,59.880085,7.330083,33.221135,52.699994,69.452109,-0.19155,33.515715,51.82922,62.043912,-1.652812,30.800889,47.142673,55.718539,0.929128,25.271665,35.961402,41.15032,16.64566,292.791307,-170.980225,-48.380861
61,0.567856,-0.564646,-18.248749,-7.2545,-25.188789,-49.685097,-72.78574,-87.147274,-62.440624,-95.19104,-112.016315,-124.394131,-58.317146,-93.758183,-113.822365,-129.351368,-50.883751,-83.635139,-102.349319,-116.877708,-41.305161,-66.508312,-80.945377,-93.219738,-18.761072,-21.87848,-12.181072,-0.284608,5.384018,16.142607,21.272214,24.736845,22.84722,31.636712,35.988511,39.004586,35.960105,45.629788,50.604401,53.803381,44.743731,54.716978,58.730879,60.937591,30.309505,45.423031,49.993343,51.0145,48.171329,48.474197,50.076942,52.698097,30.010586,25.677223,22.611523,19.69574,10.701485,8.701916,8.130455,8.455009,-7.472477,-4.508286,-1.449909,0.689278,9.496997,27.61605,47.645414,63.817414,6.371191,37.314354,58.090403,74.2612,0.102938,42.779574,62.656939,74.383867,0.091205,39.524864,54.552815,60.417962,4.366526,35.758923,43.965491,44.984774,17.450438,292.983073,-188.992052,-54.87895
62,0.811729,0.515678,2.802029,-3.51011,-25.719795,-50.332489,-73.736515,-88.408184,-62.611084,-96.03653,-113.136806,-125.685081,-58.170433,-94.122276,-114.148979,-129.614296,-50.70488,-83.987503,-102.90699,-117.392635,-41.412621,-67.10146,-81.576347,-93.750286,-19.018695,-22.108747,-12.480993,-0.812265,4.734157,15.911537,21.0664,24.577343,22.629303,31.568972,35.831912,38.944565,36.026672,45.625589,50.376295,53.405523,44.81425,54.861536,58.511973,60.397028,28.724842,42.514515,43.21106,41.945114,45.906944,44.449825,46.352234,50.20483,26.310081,21.344891,19.424114,17.294025,6.345291,4.055901,4.168568,5.458775,-12.567444,-8.639774,-5.307655,-3.43689,8.051791,27.92332,50.231212,63.74387,7.441326,40.187508,61.457715,77.982805,-0.343579,44.082662,65.976765,79.871997,-1.565249,40.658447,59.641234,69.009821,3.144732,36.49224,47.182224,50.665935,18.555107,294.437604,-185.897083,-57.450206
63,0.167999,-0.262625,0.509834,0.019174,-25.705833,-50.365105,-73.747673,-89.076633,-62.686672,-96.032066,-112.92984,-125.328884,-58.405552,-94.152546,-114.091129,-129.454937,-51.046028,-84.0172,-102.880726,-117.437096,-41.704445,-66.772556,-81.081619,-93.358612,-18.409959,-21.317045,-11.756846,-0.875127,5.31918,16.474269,21.602949,24.979585,22.866116,31.815788,35.881374,38.671443,35.950534,45.555564,50.478368,53.418923,44.492777,54.644483,58.505737,60.365968,28.767986,39.967289,39.975357,38.758678,41.322899,40.978546,44.106674,48.004246,22.27375,19.194145,18.558884,17.76226,3.560371,2.500935,2.981415,4.858418,-13.730907,-10.066051,-7.802067,-6.37413,5.300964,24.059196,45.987755,59.402939,4.021187,35.163432,57.699214,74.368676,-2.105319,38.213069,60.790533,74.01849,-2.180901,38.177069,58.711396,68.22414,3.270055,34.908774,47.693363,52.41236,19.759254,295.107766,-184.351101,-56.498246
64,-0.713997,-0.018031,22.46006,0.100746,-25.256767,-49.855957,-73.493557,-89.031258,-62.086487,-95.905838,-112.797432,-124.969368,-57.779446,-94.212227,-114.003983,-128.919525,-50.434685,-83.769321,-102.496891,-116.748848,-41.261444,-66.63208,-80.925579,-93.032684,-18.471586,-21.245414,-11.562579,-0.226933,5.425021,16.636981,21.847296,25.380407,23.125406,32.302073,36.396557,39.191875,36.314862,46.226605,51.116435,54.027226,44.840741,55.095508,58.828568,60.628222,10.843563,10.148563,7.218761,5.034313,-1.988068,-6.692619,-1.315613,4.333992,-13.128548,-14.890423,-11.613293,-10.015697,-19.963303,-21.641579,-17.992516,-14.326286,-24.316521,-23.327751,-21.271534,-19.741631,7.113308,23.789099,39.551695,51.304218,4.864728,33.388046,52.68752,68.703231,0.141347,35.513557,56.235575,70.357431,0.805966,35.595006,53.977764,65.333418,5.05353,32.720401,45.837115,53.755741,20.529785,296.028002,-160.406513,-55.459234
65,0.0103,0.661162,-26.72287,-8.080535,-25.106621,-49.996834,-73.970203,-89.498005,-62.488174,-96.275711,-113.449745,-125.952473,-58.230515,-94.621696,-114.522858,-129.583454,-50.964775,-84.200077,-103.015709,-117.170563,-42.010803,-67.532215,-81.912003,-93.980198,-19.13954,-21.977466,-12.1983,-0.915018,4.765835,15.862261,21.206944,25.010399,22.67716,31.633933,35.639003,38.639579,36.156595,45.898958,50.541909,53.464309,45.052854,55.04617,58.464487,60.166143,29.959488,44.852486,46.734867,46.068821,45.434074,47.014103,48.949356,50.562172,28.859825,22.806931,17.889462,13.000259,11.692829,9.480915,6.148338,5.735607,-4.498615,-2.723923,0.124168,2.11195,12.088878,35.633569,60.001177,78.463439,21.054112,57.166648,76.454451,89.95377,17.364864,66.078097,89.734772,104.32516,16.319646,60.848671,59.908891,53.739377,18.565941,54.738251,53.834843,48.170941,21.794701,297.025379,-185.874767,-63.203554
66,-0.265732,-0.557359,2.638836,-1.697735,-25.43438,-50.184517,-74.054718,-90.330505,-62.170658,-96.11372,-113.192482,-125.514908,-57.687149,-94.177551,-113.858013,-128.713646,-50.342903,-83.637199,-102.277679,-116.295834,-41.436882,-66.701431,-80.841064,-92.830181,-18.86506,-21.374473,-11.481686,-0.66888,5.090889,16.435243,21.89083,25.799878,23.089714,32.211794,36.46368,39.60091,36.605274,46.605444,51.421729,54.421503,45.358395,55.633972,59.273973,61.11815,27.037067,40.021992,39.944115,35.264568,41.335487,42.865105,44.122524,46.184978,23.477383,18.179169,15.151463,12.126503,5.224857,2.186794,2.06068,3.023758,-10.829716,-10.402107,-7.526608,-4.838963,9.396807,31.419814,54.230231,71.406602,17.959397,53.485428,75.028171,91.447327,15.277361,65.007777,90.004869,104.902711,15.928611,62.742062,74.966112,76.987542,19.049014,55.16189,62.135518,61.525301,22.05554,296.628092,-182.70936,-64.741216
67,-0.298576,0.362537,1.25679,5.401679,-25.12722,-49.894753,-73.928089,-90.400314,-61.828823,-95.812283,-112.976017,-125.438519,-57.455921,-94.166737,-113.760796,-128.468227,-50.207634,-83.700771,-102.538776,-116.684246,-41.542053,-67.320099,-81.728725,-93.916798,-19.215987,-21.671678,-11.88714,-0.717849,4.776703,16.12328,21.698292,25.757888,22.957445,32.17814,36.212788,39.149576,36.631579,46.624463,51.213816,54.021854,45.558775,55.650706,58.99023,60.648167,24.618759,35.770454,35.077801,31.192703,40.481758,40.668068,40.54121,41.167946,23.311958,17.122364,14.569187,12.824936,4.87421,-1.468506,-1.621971,0.526085,-11.805096,-13.034935,-11.643562,-8.643379,9.827331,30.468147,50.122408,64.608653,16.379389,47.65233,69.095099,86.279189,11.294212,54.441788,79.21136,94.573319,10.128951,50.315749,71.107174,82.56555,11.757248,44.149198,56.533398,62.0248,22.156191,297.055328,-181.053343,-59.274838
68,-0.240211,-0.588852,0.597553,2.978932,-25.361023,-50.142975,-74.110336,-90.180531,-62.146568,-95.812054,-112.898254,-125.413456,-57.719364,-94.025917,-113.600407,-128.254051,-50.320816,-83.539238,-102.457695,-116.700268,-41.335945,-66.744347,-81.251736,-93.690605,-18.867221,-21.450858,-11.887016,-0.59126,4.969426,16.551766,22.109118,26.133639,23.023579,32.519743,36.66795,39.573863,36.757427,46.965634,51.703805,54.560873,45.901119,56.356761,59.957736,61.726576,26.927376,35.715065,31.992073,27.480755,39.377403,36.955948,37.351971,40.27771,22.238274,12.75547,11.568203,10.402622,3.339787,-5.040264,-4.658718,-2.482166,-14.9053,-16.062069,-13.876076,-11.125774,10.598933,30.577878,49.607934,61.211146,14.078106,47.195315,68.720274,86.995154,6.347078,48.644968,71.638999,85.180031,3.533142,43.801574,66.31809,78.249258,4.434451,38.858268,53.518897,59.360331,22.275209,296.49309,-180.09656,-56.269291
69,0.226707,0.034024,-1.159687,2.643319,-25.538979,-50.438347,-74.471684,-90.288448,-61.928387,-95.586433,-112.749023,-125.412254,-57.42033,-93.676758,-113.502617,-128.618546,-50.042381,-83.235798,-102.205639,-116.63784,-41.114044,-66.530457,-81.060905,-93.542805,-18.785525,-21.429554,-11.681202,-0.065332,5.405693,16.824517,22.294801,26.157413,23.577789,32.883206,36.993252,39.933374,37.216665,47.255182,51.910299,54.763847,46.220307,56.588325,60.191893,61.952892,30.029926,39.080772,34.882565,31.408653,38.354015,35.883579,36.643124,41.420689,20.484238,12.238712,10.896492,10.026569,2.015133,-6.401367,-6.041393,-4.349785,-15.904999,-17.124424,-15.407867,-13.70224,7.925943,28.562807,49.366305,60.31632,11.740112,45.464235,67.643655,86.01008,3.614344,45.976238,68.4612,81.494087,0.758851,41.791135,65.047112,77.234019,2.664067,36.76036,51.730512,57.460055,22.738838,296.195515,-181.019325,-53.957572
70,-0.572548,0.413419,-0.267506,1.581737,-25.084305,-49.737396,-73.845348,-89.763107,-61.223259,-95.144577,-112.430534,-125.151787,-56.695633,-93.552246,-113.457069,-128.459644,-49.414444,-83.134918,-102.241173,-116.578217,-40.757217,-66.965046,-81.614056,-94.12508,-18.848943,-21.56664,-12.128213,-0.702102,4.918914,16.706512,22.607258,27.142949,22.929348,32.552038,37.033883,40.52377,36.680053,46.702392,51.301872,54.45139,45.957312,56.258639,59.59063,61.415725,28.912811,37.353115,34.98745,31.574821,33.134708,31.436634,33.717842,38.858929,14.832058,8.305149,8.805656,9.458771,-3.098202,-9.240189,-6.221123,-3.261108,-19.079704,-19.042683,-15.597897,-13.467178,6.058456,26.171523,47.168268,58.607625,9.141006,42.738263,65.30739,84.357732,1.584886,44.907956,68.213056,83.078696,-0.660575,41.409734,63.6003,75.952945,1.220157,34.818309,49.283899,55.513466,22.572212,296.215491,-180.880909,-52.769278
71,0.608711,0.819181,-11.764355,4.582282,-25.895576,-50.780411,-74.641571,-90.445747,-61.992188,-95.106411,-111.944618,-124.250851,-57.296104,-93.302193,-112.823353,-127.928352,-50.065498,-83.267841,-101.826153,-115.976028,-41.550865,-67.249718,-81.374817,-93.229065,-18.92397,-21.422021,-11.527011,-0.252683,5.167089,16.445308,22.140795,26.058797,23.402665,32.651518,37.002329,40.321784,37.048456,46.919013,51.335093,54.303559,46.023076,56.293158,59.627618,61.372191,30.762062,43.480453,45.33205,44.388657,43.357029,45.741749,48.095741,51.895638,25.272274,22.614384,24.822407,26.84864,7.184772,4.641781,7.956734,10.88625,-8.693333,-6.400852,-3.157368,-0.636692,2.6938,20.023312,38.663353,49.687222,5.829548,36.050415,57.789185,75.30435,1.076186,40.771605,64.184181,78.678516,0.536395,39.086992,60.811404,72.689744,3.47451,34.344313,50.33909,58.112417,23.915434,296.492318,-191.910753,-48.72935
72,0.085716,0.580392,8.983097,3.446352,-25.491943,-50.388794,-74.160461,-90.663643,-61.950817,-95.548325,-112.31432,-124.34412,-57.06831,-93.467045,-112.658958,-127.172928,-49.574547,-83.228188,-101.591492,-115.269985,-40.89798,-66.828289,-80.891991,-92.464542,-19.163191,-21.239178,-10.904999,0.047918,5.112872,16.80593,22.536863,26.527792,23.360984,33.143731,37.325407,40.443494,36.969539,47.162186,51.557271,54.581066,45.843012,56.204978,59.649786,61.625923,29.076176,42.944469,43.698521,40.111256,43.414993,50.051708,55.64558,60.643272,27.15723,25.625153,21.513519,14.997253,10.049171,11.951809,10.31765,7.633839,-5.998707,-2.275772,2.076988,3.425331,11.134896,34.391305,58.748261,75.741728,22.246512,54.776135,72.381764,86.271192,19.886257,66.352084,87.971397,100.159014,20.944319,63.657728,67.335521,63.595761,24.510375,58.491966,59.045065,54.741586,25.131254,296.482253,-181.797552,-45.873455
73,1.785851,0.017846,5.268974,2.446798,-26.217957,-51.385345,-74.817467,-91.041298,-63.120174,-95.287628,-111.825714,-124.207706,-58.45356,-92.815933,-111.930771,-126.724205,-50.840378,-82.70668,-100.829601,-114.722271,-41.546173,-66.591053,-80.769768,-92.905998,-18.20291,-20.385602,-10.53814,-0.79868,6.09563,17.417506,22.503888,25.781476,23.803178,33.717392,38.123284,41.093417,37.175662,47.897448,52.635248,55.273967,45.979974,56.864843,60.628963,62.308697,24.019947,36.214943,38.840504,37.171154,42.234821,49.340343,53.972626,57.890053,25.56015,23.949223,20.951843,16.78688,7.374287,5.342331,6.352673,5.756264,-10.115891,-9.475479,-6.617889,-4.546394,10.268908,31.642949,52.991919,68.600138,26.033572,56.132514,75.598127,92.228563,23.106973,66.044659,90.601779,107.056473,22.526674,63.960583,78.774136,84.445325,23.184902,55.902,66.335071,69.960438,28.922024,295.867512,-174.523659,-44.059243
74,1.8536,0.997146,1.398926,8.572594,-26.750336,-51.64341,-75.396309,-93.335438,-61.899776,-95.077972,-112.139854,-125.059776,-56.931953,-92.201614,-111.558323,-126.677742,-49.355621,-81.775303,-100.386429,-114.781952,-40.543785,-66.229477,-80.573101,-92.754078,-18.810534,-21.327481,-12.05683,-2.722884,4.460973,15.780441,20.926597,24.281126,22.949726,33.067716,37.414575,40.301715,36.948421,47.978773,52.868912,55.85405,45.998129,57.127961,60.998971,62.936143,24.766502,36.905937,38.275223,37.584629,40.788231,48.937283,55.839844,62.708187,23.89492,25.715446,24.979305,23.482761,5.735836,7.347164,8.748608,8.662548,-11.917477,-8.147793,-4.317627,-2.080479,10.660684,31.287143,53.003343,68.404235,28.11277,55.847567,74.239556,90.722594,27.193739,66.506305,91.065679,107.943209,27.359508,66.138427,78.565759,82.25053,28.529925,59.45941,68.081527,69.606886,33.271465,296.050355,-170.628891,-36.300952
75,-0.136528,0.688764,-0.742607,10.85174,-26.583252,-51.130486,-74.862556,-93.623142,-61.238708,-94.384689,-111.360912,-124.364834,-55.830345,-91.20472,-110.240421,-125.136738,-48.135681,-80.935135,-99.595184,-114.139366,-39.288139,-65.106068,-79.628963,-92.131405,-19.511092,-22.291652,-13.334631,-4.486106,4.045702,15.567402,21.023422,24.65379,22.814245,33.054131,37.341215,40.340988,37.005108,48.00051,52.722996,55.786619,46.174426,57.400219,61.340328,63.565442,24.77417,37.605286,42.743454,44.286919,40.417042,48.459206,55.237255,62.009583,25.094547,27.426395,29.382534,31.901493,7.245884,9.111443,13.592777,17.185307,-10.304489,-6.061134,-1.681595,1.951218,12.961411,32.589027,52.45855,68.197927,28.959183,54.785676,74.172279,90.347151,29.322585,65.7272,91.852904,110.91538,29.852403,65.405419,83.237641,92.449845,31.22564,59.940199,72.423168,78.461216,36.586447,296.319865,-167.919989,-25.868467
76,1.297417,0.486531,-4.758911,15.058949,-26.037941,-50.699272,-74.397411,-93.191414,-60.331306,-93.376865,-110.74379,-124.177895,-55.2388,-90.415936,-109.799423,-125.20031,-47.819138,-80.733833,-99.789162,-114.57201,-39.126091,-65.231438,-79.98476,-92.845573,-19.636755,-22.516855,-13.562243,-5.369075,3.752758,14.954036,20.383626,24.299837,22.525377,32.14146,36.404214,39.597822,36.850114,47.060792,51.675215,54.939712,46.464777,57.32229,61.444624,64.040673,25.245609,41.167603,49.502335,53.831348,41.637211,49.98436,55.908852,61.962662,26.722126,31.4641,34.603615,38.222179,9.542656,13.883972,19.054012,23.381882,-7.072849,-2.977695,0.858021,4.852695,13.356614,30.927015,48.052071,64.195327,25.897536,49.66456,68.450857,85.062644,26.940964,58.007133,81.226554,99.175361,28.060993,58.710192,77.918985,90.789408,29.484,53.219099,67.180805,77.329331,40.763311,296.069405,-169.799452,-11.546509
77,0.210686,-0.196552,0.366325,28.479259,-26.118393,-50.177422,-73.455219,-91.77412,-59.263058,-92.107201,-109.493866,-123.192558,-53.942757,-89.05283,-108.454399,-124.100647,-46.482353,-79.327755,-98.32283,-113.46714,-37.784157,-63.858089,-78.710175,-91.90155,-19.531223,-23.208151,-14.954159,-6.103658,4.441522,15.238581,20.687932,24.428648,23.531538,32.996888,37.481389,40.604292,37.954458,47.924989,52.689959,55.854174,47.717013,58.488693,62.730453,65.270618,26.874332,44.424992,50.294266,49.873981,46.961861,61.118431,70.126877,77.514496,29.088707,37.090874,41.001549,42.612877,10.751381,18.735752,22.721901,24.830246,-5.296841,3.026447,8.166389,11.760006,7.942029,26.846547,47.7536,64.177049,21.420415,52.22362,70.193083,84.63317,22.508797,65.786265,89.486536,105.882876,26.125889,67.454792,79.156031,82.889369,30.95826,63.138222,71.047863,73.074203,43.060513,295.821199,-167.346611,16.881096
78,0.722809,0.181731,-2.083511,14.130162,-25.411148,-49.575806,-73.159103,-91.288834,-59.090538,-91.700649,-108.840408,-122.388439,-53.745346,-88.93301,-108.393574,-123.883266,-46.122551,-78.657818,-97.700787,-112.859058,-37.136307,-63.172016,-78.138199,-91.356983,-19.931242,-23.78842,-15.620569,-6.249883,4.207426,15.130333,20.324222,23.934892,23.272495,32.580752,36.719635,39.570282,37.698565,47.875465,52.782091,56.084626,47.448708,58.598424,63.109106,65.896582,28.447781,46.041355,51.041737,55.04591,47.038593,60.813732,70.157776,78.387394,29.877491,38.990879,43.750362,48.231983,11.222763,18.585663,24.920197,31.189899,-7.156677,-0.498562,6.031494,13.464146,8.983573,30.171776,51.999404,68.078255,26.314321,52.43033,72.352556,89.925519,26.881128,62.696521,88.316335,107.52096,28.143213,63.813617,86.47716,103.525276,30.462837,57.668278,74.019231,88.215898,46.177082,295.644779,-167.036362,30.653105
79,0.809555,0.428857,1.105957,26.838489,-25.746574,-49.799194,-73.402863,-91.587696,-58.75145,-91.270351,-108.512993,-122.152462,-53.61248,-88.809814,-108.537025,-124.199638,-46.216278,-78.717098,-97.902374,-113.145218,-37.406616,-63.272896,-78.263798,-91.509418,-19.886103,-23.816887,-15.770438,-6.494106,3.906825,14.802068,20.036156,23.541789,22.776084,31.976031,35.98283,38.628155,37.033266,47.196828,52.023117,55.218639,46.657994,57.845748,62.365384,65.212511,29.815407,52.06398,61.957684,68.478012,51.569996,72.323399,80.47245,85.713844,34.448776,51.673679,58.490925,61.987324,15.629826,28.515129,35.454597,41.221504,-1.813087,9.14669,16.741047,23.431263,7.872529,29.890194,52.979383,70.509893,28.500162,60.388044,78.414687,90.441074,34.319366,75.969618,98.004696,111.615475,39.311022,80.156604,100.268899,111.559838,43.746647,74.073324,87.349725,95.324173,48.514795,293.843596,-164.402246,55.261555
80,0.010529,-0.621703,-5.582256,17.315618,-25.736504,-49.752846,-73.112984,-91.375523,-58.381348,-90.594921,-107.737026,-121.195049,-53.288498,-88.206425,-107.860565,-123.329945,-46.06041,-78.348541,-97.518711,-112.680187,-37.550468,-63.708401,-78.886757,-92.127628,-20.013926,-23.47269,-14.83708,-6.099026,4.276031,15.317437,20.759377,24.264577,23.363268,32.530241,36.678695,39.441161,37.758957,47.704108,52.394298,55.40988,47.452907,58.166974,62.414352,65.007067,33.409367,55.126076,62.426491,65.691261,57.298794,75.537758,86.674919,95.395947,40.616112,56.483574,66.097584,73.956642,23.089542,37.704391,46.181488,53.664036,5.709286,18.099289,25.712013,33.971558,8.317009,28.506491,50.539378,67.780093,30.554196,56.612654,74.833287,90.971139,38.223876,71.977515,95.084952,112.804418,45.184598,79.571766,101.201392,117.241555,50.599893,77.724688,90.705612,100.638537,48.608265,291.827167,-169.901562,71.182448
81,-1.316299,0.009324,4.420967,34.097095,-25.102615,-49.138985,-72.639141,-91.035461,-58.255577,-90.751762,-107.471809,-120.421028,-52.968636,-88.275661,-107.660007,-122.825375,-45.469551,-77.686787,-96.608391,-111.638832,-36.537437,-62.653484,-77.676945,-90.84549,-19.879804,-23.134298,-14.48146,-5.55624,5.191789,16.208186,21.346747,24.568019,23.88154,32.990281,36.959906,39.823273,37.795142,47.841317,52.53651,55.633787,46.879801,57.560708,61.766282,64.424637,32.537041,55.985756,67.424812,74.430313,61.365681,87.41415,99.220333,106.175709,46.429768,69.381924,80.190239,86.017056,28.904228,47.726212,58.515644,66.30312,12.162838,28.393993,38.676109,46.767197,3.689927,22.704824,44.399287,61.459074,30.793387,59.039322,74.031519,84.644686,40.514384,78.415119,98.556807,111.908172,48.255847,85.037419,101.680698,110.265426,54.492516,81.988554,92.200652,97.200274,49.632883,290.570238,-163.139677,104.013289
82,-1.171875,-0.638932,-2.357082,18.52605,-24.908752,-48.922005,-72.147388,-90.068779,-58.616123,-90.449009,-106.809082,-119.572678,-53.37204,-88.052788,-107.104855,-122.030811,-45.834274,-77.379227,-96.029091,-110.893764,-36.758766,-62.084942,-76.857662,-89.762993,-19.885794,-22.657646,-13.510126,-3.801108,6.193011,16.605365,21.463517,24.597597,25.021884,33.753516,37.57247,40.397675,38.78599,48.777144,53.492653,56.669773,47.649705,58.473318,62.874084,65.634142,36.460819,60.784035,70.704288,74.423561,66.537609,89.831028,104.500065,115.441132,51.044254,72.567959,86.900311,97.53273,34.952259,56.805897,70.212708,80.379009,18.830738,37.385674,47.988853,57.492886,4.868835,22.31592,44.173034,60.507314,32.103854,56.896274,74.539787,89.365937,43.353482,74.716763,96.780865,113.518746,53.198042,83.787343,101.772151,114.123159,60.582588,84.745524,94.966947,101.794813,51.06019,289.137844,-162.897577,121.745877
83,-0.803719,-0.704325,14.758701,39.439494,-24.980736,-48.889275,-72.31699,-90.713825,-58.17358,-90.243416,-106.822815,-119.669781,-53.359909,-88.383865,-107.155609,-121.522522,-46.249466,-78.146496,-96.900616,-111.612282,-37.705994,-62.8438,-77.955208,-91.29427,-19.870727,-22.96751,-14.334741,-5.243351,6.664598,16.853849,21.756893,25.284509,25.303034,33.943522,37.355912,39.823952,39.051887,48.943685,53.31617,55.999287,47.918381,58.748477,62.88946,65.38183,34.379025,59.588814,72.780933,78.019466,62.640839,91.461697,105.951462,115.636826,48.249035,77.508774,92.10577,101.315231,32.09095,58.463345,73.64851,83.912201,16.144981,38.82843,51.817188,60.021286,-0.133319,13.978441,31.619422,45.268054,24.282115,49.671661,63.386674,73.530168,36.317146,67.931134,84.812956,96.308042,46.515474,77.188138,91.041535,98.064533,54.480474,76.183274,82.832435,84.911077,50.79051,287.974019,-147.604837,160.725871
84,-1.14418,-0.535376,-4.958897,23.561425,-25.01667,-47.973289,-68.518295,-82.023468,-58.543739,-89.822044,-106.386166,-119.250755,-54.477654,-88.813305,-107.636204,-122.248878,-47.76947,-79.337769,-97.897968,-112.634869,-39.284248,-64.346752,-79.321232,-92.652569,-20.141749,-23.639416,-14.972314,-5.525797,5.360615,15.964272,20.806863,23.651519,24.206223,33.563881,36.630653,38.298532,38.107908,47.910539,52.116792,53.952014,47.216156,58.274234,62.746137,64.746542,40.576801,70.745831,91.714153,111.065426,67.749424,93.593044,112.780495,129.328365,56.3237,85.717049,107.362289,125.327053,44.44685,74.332123,95.685253,111.413841,31.894054,57.046165,72.400932,83.684006,-2.126993,11.828662,27.102812,35.059229,21.120926,39.401888,51.356459,62.37335,35.103442,56.228875,71.390207,84.335872,45.847396,67.560323,80.752619,90.005116,53.736135,70.463457,77.260263,80.821656,50.21656,287.317118,-151.993504,184.165772
85,0.144539,-0.148695,27.173367,37.764391,-23.170052,-44.735069,-63.766022,-77.301922,-58.160706,-88.143368,-105.776024,-119.419498,-55.873146,-88.597469,-108.73764,-124.615288,-50.58506,-80.107155,-99.492989,-115.058956,-42.864647,-66.117382,-80.87265,-94.101162,-17.664261,-22.993445,-24.872448,-30.93708,9.391373,14.921617,17.647897,19.412724,25.003545,33.44038,35.621219,36.820783,36.764466,47.460132,50.862703,52.86144,44.7617,56.486066,60.695406,63.094904,32.355595,65.023727,87.928562,100.209961,60.265903,99.706879,108.010654,104.69862,49.903564,92.216434,99.419289,94.207649,39.569321,79.953632,88.994007,87.861671,28.581676,61.504154,72.017212,72.897606,-4.495492,5.374818,14.345609,19.91389,25.92591,46.462615,52.962958,55.703132,41.388769,70.131178,78.333547,78.948457,51.714797,76.416999,82.470948,83.235295,57.977524,72.274967,74.862,74.044425,50.78928,286.960942,-124.391956,221.722681
86,1.982002,-0.080955,-4.118328,15.958344,-24.667854,-47.998009,-68.958149,-84.606972,-51.453896,-82.744789,-100.682087,-114.088554,-53.181496,-87.281799,-109.021912,-126.683407,-52.111816,-82.531815,-103.705559,-121.451111,-48.725395,-71.083546,-85.539665,-98.914547,-15.604391,-18.235267,-16.497981,-13.385699,6.144475,-1.874187,-9.622875,-15.537515,21.286046,17.363969,12.083753,7.06894,33.225735,37.743334,39.128828,38.07444,40.875685,51.904988,57.747195,60.505832,37.188549,68.587933,94.422398,114.470673,74.907646,107.584362,122.230625,130.824223,64.402199,101.218014,117.894173,128.304577,52.430191,85.250759,100.47781,109.760742,40.839958,64.167595,75.080681,80.891476,-8.756332,-2.519602,5.561551,6.455326,15.366837,36.046309,46.383945,51.960069,33.362451,55.479349,64.174733,67.485729,47.788829,67.709203,74.280003,75.881562,57.837906,73.653113,73.862076,70.162856,53.551111,286.739011,-127.730455,237.540049
87,-5.427246,4.411882,23.845482,25.980189,-18.139229,-41.685905,-65.002842,-84.778633,-31.351433,-61.064129,-81.215687,-97.821751,-35.023956,-68.275967,-93.304596,-112.700043,-38.163414,-69.683189,-93.658504,-113.640232,-40.092545,-63.449593,-81.6049,-98.756046,-20.120939,-30.734292,-35.938246,-35.258868,4.384094,-2.539609,-11.951422,-19.223212,22.701674,16.57696,6.487807,-2.44297,35.192486,37.786559,33.998851,28.908394,41.930073,54.339066,58.206,58.83499,35.089016,68.460217,92.308559,105.560017,67.935848,117.392406,125.412998,119.77644,56.91473,109.099674,117.704487,111.19875,47.245274,94.571228,102.793865,96.988735,38.091202,74.837437,84.43285,81.99337,-15.761854,-13.271893,-5.940266,-0.026244,20.068081,46.747655,41.467378,33.226106,39.682853,62.921756,52.275676,42.733076,53.149629,73.121318,64.424699,56.459019,61.510141,78.819276,72.789965,65.721519,50.082493,290.997551,-101.926346,263.366897
88,-4.35688,-1.748031,-7.820377,1.443354,-17.66304,-40.153198,-62.374134,-80.458946,-28.403778,-60.52042,-81.031437,-97.309685,-29.624748,-62.326183,-85.376816,-101.772881,-32.112808,-62.023487,-82.537766,-97.244682,-35.288429,-59.22575,-73.39365,-84.652691,-19.440759,-27.880373,-29.784261,-26.662716,3.350824,4.461653,2.009235,0.228971,23.036485,27.480354,24.490769,19.840469,36.254778,43.045348,40.596882,35.638509,43.404797,53.152593,53.050088,50.358511,35.093708,68.208733,95.170441,115.182152,72.288151,113.558235,130.66967,139.572601,62.397251,107.584877,125.42141,133.245163,52.182198,93.617935,110.56366,117.984924,42.834606,73.255291,88.925457,98.249531,-11.503114,-8.438626,-3.088323,-1.952795,21.819199,42.5138,46.563639,45.924955,40.684135,60.658603,62.378475,59.1606,52.900466,72.454414,73.08433,68.432918,59.645773,76.793862,78.064068,74.762891,47.256031,288.932046,-108.216305,264.492776
89,-15.27317,7.107658,0.705357,6.232284,-6.270103,-22.127037,-39.719181,-56.186371,-44.243603,-35.404243,-20.500603,-7.448044,-48.49514,-40.111313,-21.853867,-2.597237,-48.384876,-45.192833,-32.204247,-17.51255,-45.64127,-49.440594,-44.312267,-35.651436,-23.648864,-30.796165,-29.092966,-29.202511,-8.907806,4.951827,13.066943,18.38847,11.182876,23.211795,30.557253,34.339775,26.990735,36.028093,41.812377,45.008826,38.99872,46.857818,50.307937,52.457963,36.92276,69.65641,97.227745,118.541508,73.587914,110.101032,126.4678,137.517414,64.427032,104.993992,124.525166,138.508244,54.964428,91.171646,109.153118,121.36797,46.152763,72.570477,87.449169,99.821949,-10.592172,-10.489234,-5.602059,-6.448472,20.950248,35.838951,42.124649,45.441202,38.785187,54.533456,60.006086,62.209279,50.976818,66.964246,71.649188,72.113181,59.149114,74.899236,78.255927,78.195782,32.389097,296.116258,-107.104712,270.801615
90,-9.562111,5.381425,7.229919,5.08317,3.362732,-4.676857,-16.019325,-25.198345,-37.812366,-24.332314,-4.184074,11.400375,-45.806179,-28.242931,-3.394203,17.634201,-47.314911,-34.42646,-11.465034,6.812325,-45.96405,-43.035679,-31.822414,-21.514549,-21.693167,-30.829264,-29.24024,-27.021239,-11.221223,1.799839,9.587678,13.3815,5.647754,16.236715,24.507257,28.855288,19.944519,27.884819,34.218744,38.685213,31.632575,40.165061,43.115928,44.882175,35.603714,65.748825,92.50288,114.300556,70.056667,106.545124,123.320904,134.822903,60.950089,102.50227,122.772274,136.876659,51.765347,89.577885,108.895626,122.155895,43.462029,71.54417,87.407227,100.831432,-11.531334,-13.604913,-10.138368,-13.366556,17.038482,31.219218,37.906787,42.3367,35.419789,49.735634,55.344362,57.782578,48.421709,62.753424,66.981351,67.308937,57.046389,70.648029,73.722026,73.733882,23.178663,301.574856,-99.523115,275.961958
91,-22.047043,1.028638,6.274567,1.796011,6.747093,10.607986,13.166542,15.542221,-18.116226,2.153893,21.497612,36.403427,-25.589333,-0.01339,21.857185,40.348434,-26.237011,-3.641281,17.760773,33.942947,-23.694477,-9.653835,5.524063,17.706985,-16.606785,-22.976402,-24.648233,-25.7661,-7.333602,2.312676,7.882934,10.071245,6.345472,16.875029,23.289168,25.511812,18.084967,28.05315,32.228219,33.229996,27.695616,35.956277,37.192644,35.977828,33.133335,62.651939,88.904629,110.886097,66.467171,103.687649,121.158657,133.147945,57.59222,99.564571,119.806881,133.917332,48.812084,86.895676,105.964565,119.085331,40.980778,69.332027,85.438042,99.083462,-13.048974,-15.776736,-12.210465,-15.74228,16.85706,30.383055,37.058398,41.904324,35.38842,48.106041,52.867615,55.260382,48.206694,61.175022,64.848245,65.043191,56.561154,69.390358,72.048343,71.462702,1.345053,302.706015,-93.035116,277.86049
92,15.927429,-4.075033,2.934036,1.153745,-0.062828,-9.666252,-19.902935,-30.051613,-32.691879,-17.993145,0.248108,12.840729,-39.311028,-18.299103,2.07962,20.387764,-42.741795,-23.313446,-0.439224,17.458191,-44.689178,-33.104668,-15.957527,-2.796478,-22.780097,-30.781839,-29.796859,-23.668007,-3.391888,9.810905,13.786644,15.026222,14.392169,25.470563,29.315761,30.764858,27.122819,35.719032,35.499633,34.590975,36.930081,45.939219,43.381208,38.987543,31.225319,60.213947,85.62664,106.026936,64.301891,100.656567,118.155041,130.184269,55.792065,96.91103,117.492657,131.983624,47.275143,84.405098,103.339634,116.589603,39.884834,67.64946,83.297939,95.781384,-13.750396,-16.279508,-12.937699,-15.152069,17.786095,30.547929,36.673199,40.773118,36.071256,48.87576,53.497284,55.175907,48.08906,61.607151,65.065545,64.787174,55.195421,68.027527,70.130313,68.698507,17.455988,298.647145,-89.917574,279.030398
93,-17.378769,3.752634,1.605034,-1.413467,5.890388,8.3741,9.295349,13.212547,-20.358295,1.516457,21.364632,35.739212,-27.0084,-2.875671,20.607605,39.570007,-27.981434,-7.438889,14.640427,31.870651,-26.10569,-16.220226,-5.630035,4.06517,-16.567636,-23.368023,-26.56194,-28.090139,-3.428753,7.465254,13.255035,16.739857,10.083842,19.156645,25.049857,27.937368,20.892264,29.714483,34.311246,36.137761,29.178799,37.274648,38.855026,37.806134,30.169315,59.051743,84.13187,104.206524,63.264484,97.887897,115.160007,127.354832,54.143486,94.134464,114.519825,128.721256,44.650097,80.976219,100.429058,114.248028,35.92947,62.976437,78.397808,89.586353,-14.507086,-15.763336,-11.860031,-13.03156,18.734025,33.511269,39.73781,43.572387,36.794662,51.215051,55.908206,57.501181,48.234358,63.539877,67.04199,66.50754,54.385811,67.773918,69.583143,67.788429,0.405035,302.313715,-87.984724,277.530866
94,-1.453686,-7.529104,-0.09573,-0.17852,-1.450424,-4.525223,-10.018272,-16.020298,-16.581745,-0.831585,17.715168,29.526958,-17.890491,3.365536,22.718296,38.650875,-20.242939,-1.261883,20.361156,36.647243,-23.245754,-12.651615,3.111935,14.793377,-13.762067,-14.848134,-9.944657,-2.882262,4.101524,18.986029,22.303014,23.015737,15.226046,28.497815,32.324303,33.727396,21.919482,33.359549,34.25036,33.582406,26.981287,37.935069,37.485773,35.887116,30.119877,58.822575,83.867855,103.864288,62.478905,96.339226,113.790894,126.555061,53.616886,92.695999,113.026428,127.604141,44.442787,79.957237,99.458885,113.787003,35.828247,62.32029,77.76226,89.313126,-14.141709,-14.982996,-10.650464,-11.288408,19.001528,33.433526,39.189837,42.966245,36.844371,50.893763,55.319786,56.906401,48.337049,63.269904,66.441035,65.828162,54.626761,67.370934,68.624962,66.405467,-0.907717,294.776568,-87.93952,277.344303
95,-18.53651,-0.799606,0.349674,0.301651,8.859043,14.479465,17.722263,17.54694,4.554806,27.260857,41.412277,48.666916,0.258522,27.252846,41.953239,52.012825,-6.018219,19.598808,36.933403,48.06427,-13.421459,5.364876,20.585289,29.237709,-21.7409,-26.627951,-24.929815,-20.113406,-0.704202,13.444855,15.809464,15.337444,16.000026,30.330567,31.764535,31.08738,27.57267,40.931075,38.840021,35.515008,36.121521,49.813502,46.68325,41.137754,29.869537,58.656635,83.698997,104.033489,61.293411,95.024357,112.550869,125.498829,52.793255,91.699047,112.14941,126.788464,44.102268,79.519672,98.844967,113.054295,36.227074,63.09042,78.57542,90.542736,-14.333506,-14.842206,-10.105084,-10.663987,18.789477,33.363315,39.300309,43.21195,36.435522,50.308431,54.868946,56.724669,47.860274,62.482154,65.624571,65.462538,54.169129,66.748182,68.068961,66.442517,-19.206076,293.844183,-87.351694,277.513175
96,18.768482,2.314344,0.347271,0.731681,4.089832,3.26643,-1.585121,-8.561554,-10.328465,2.961788,18.17625,28.257122,-14.406681,2.505741,19.041653,33.062611,-20.46999,-4.611568,14.371204,29.107418,-26.860428,-20.033855,-6.199322,4.54565,-19.399201,-25.377567,-25.419742,-23.939461,-1.704805,10.887709,15.051663,15.255316,13.532356,25.891701,29.422281,29.827487,24.233208,35.754477,36.27281,34.371391,32.906856,44.708904,43.204232,39.184959,29.265289,57.716217,82.450104,102.725487,61.104183,95.141258,113.012123,126.00872,52.409019,91.40316,111.920242,126.241722,43.287163,78.971043,98.362427,112.41291,34.911404,61.977196,77.474957,89.231415,-15.137249,-15.857444,-10.421061,-9.598299,17.45326,32.072176,38.049986,41.7652,35.272021,49.432934,54.243847,56.013181,46.791622,61.664208,64.920863,64.606492,53.235895,66.09548,67.517839,65.835263,-0.27895,295.954009,-86.845779,278.040338
97,10.636768,0.189389,-0.417023,0.080646,3.473282,-0.46051,-8.816528,-19.527454,-18.222141,-8.469429,7.191124,17.849579,-25.223122,-12.998943,5.150528,20.880432,-33.013916,-21.022854,-1.315155,14.410973,-39.693775,-36.924019,-23.972111,-12.722912,-18.535621,-25.372133,-26.748488,-25.762025,-3.711262,9.945768,15.744564,16.980622,11.686883,25.403502,29.921656,30.742998,23.076129,35.879521,37.746113,36.679189,32.848873,45.02451,45.174378,42.096676,29.637337,57.68034,82.182426,101.822433,60.273342,94.416733,112.562141,125.950356,51.773529,90.396309,111.455383,126.651192,42.984695,77.893238,97.705879,112.081833,34.82975,61.453457,77.186279,89.188385,-14.727535,-15.239508,-9.91619,-8.289808,18.33166,32.141645,37.71005,41.216424,35.605411,49.557176,54.083851,55.725671,46.347636,61.23986,64.440692,63.860918,52.187249,65.170212,66.703721,64.8015,10.579462,295.752919,-87.041159,277.730505
98,-0.583878,-1.12182,0.995121,-0.310234,4.462967,0.895157,-7.201881,-17.697887,-18.766308,-8.799477,8.505363,20.223427,-26.005955,-13.657036,5.647545,22.25132,-34.001427,-21.830235,-0.653801,16.317329,-40.66721,-38.332615,-25.35593,-13.556042,-17.059231,-23.722903,-24.726285,-23.414521,-2.678918,12.029845,17.662717,18.75749,11.960067,26.84488,31.761571,32.882527,22.658573,36.203711,38.60043,38.327307,32.046797,44.616587,45.762922,43.90831,29.684315,57.7355,82.090244,101.839314,60.024605,93.90192,111.939411,125.294552,51.240349,89.594822,110.645657,125.718327,42.121181,76.772232,96.500759,110.819492,33.576679,60.001488,75.752163,87.918491,-14.402481,-14.66455,-9.30764,-8.24121,18.378466,32.756865,38.792226,42.611551,35.490432,49.819862,54.561676,56.246907,46.309474,61.505695,64.801376,64.227221,52.335697,65.481434,67.043349,65.128221,10.270729,294.233257,-85.770893,277.022429
99,-16.494656,13.191185,1.069736,0.05681,5.069046,7.169666,7.537594,8.954716,-10.567188,13.493443,32.912464,46.70454,-16.374435,7.194271,28.053532,46.935368,-18.313065,-1.120548,17.797909,33.879032,-17.945366,-21.744118,-26.112499,-29.353466,-19.192399,-30.718051,-37.714929,-45.45843,-11.147246,-3.584488,1.211975,3.79765,4.673703,13.51346,17.529954,18.998688,16.963394,23.719754,27.286025,29.031709,25.992539,30.980367,34.936901,35.92818,29.485302,57.477322,81.867542,101.495018,60.295429,93.795891,111.61068,124.591713,51.172371,89.170761,109.849663,124.558067,41.577415,75.937614,95.214157,109.098358,32.626705,58.647308,74.037724,85.732212,-14.219329,-14.327763,-8.978016,-7.783022,18.557419,33.283843,39.819444,43.799505,35.448195,49.927493,55.159667,57.120737,46.192951,61.447032,65.014909,64.483856,52.161499,65.452349,67.094478,65.129271,-6.016245,307.014481,-84.493475,276.669278
100,7.509441,-12.230534,0.590858,0.513084,8.947449,8.898582,2.861023,-5.768738,-7.178535,7.839775,23.400879,33.444214,-15.71188,1.512909,18.792572,33.21785,-25.14061,-9.230576,10.308838,25.649185,-33.368168,-29.663486,-18.552132,-8.673935,-18.632384,-26.270416,-27.642078,-27.2407,-3.979258,10.1141,15.587471,16.729236,11.639953,25.965184,30.468641,31.649865,22.983627,36.041492,37.539002,36.761379,32.524312,44.409106,44.772568,42.527632,29.321079,57.199059,81.529541,101.424408,59.62429,93.237305,111.156464,124.227905,50.819321,88.979073,109.759827,124.529572,41.540794,75.991516,95.357208,109.270248,32.862282,59.070797,74.56295,86.352539,-14.298431,-14.463984,-8.970235,-7.560412,17.93973,32.630214,38.996064,42.866518,35.034714,49.482519,54.545991,56.414065,46.004736,61.346564,64.81879,64.229259,52.208121,65.398812,66.921144,64.878688,1.597853,294.312699,-83.79796,276.711114
101,-11.18288,12.281292,0.905685,0.729458,6.198578,10.356331,15.159588,18.604259,-5.468445,15.558186,32.690563,44.926128,-12.728806,9.290543,32.059078,51.219349,-15.869465,2.392044,23.009777,39.999905,-16.634903,-10.182667,-0.605907,7.815285,-21.590105,-32.703759,-35.180321,-36.504559,-14.311708,-9.727666,-3.724291,2.176702,2.507746,11.067279,17.658518,21.261531,15.9476,22.495737,27.249778,29.474089,27.285902,31.481101,30.506371,27.925265,29.093685,57.141724,81.687241,101.865921,59.800701,93.191757,110.813484,123.721161,51.020851,88.924141,109.48185,124.199638,41.761322,76.23436,95.266571,109.055672,32.927628,59.469566,74.842529,86.442261,-14.646889,-15.230122,-9.611328,-8.278507,17.104741,31.786766,38.171326,41.960146,34.682428,48.982959,54.060571,55.820149,46.05321,60.969763,64.395182,63.750199,52.665074,65.19732,66.536933,64.461317,-9.509325,306.220849,-82.816572,277.06743
102,-5.585747,5.540432,0.866489,0.798618,9.395084,16.742649,21.053295,26.589031,-0.424919,21.398792,39.566975,52.969379,-8.629131,16.824017,37.947292,54.978848,-12.878437,9.632835,29.424076,44.37933,-15.024776,-6.321487,2.435474,10.928249,-18.717167,-30.876318,-39.173165,-46.014493,-16.065234,-7.422214,-0.851847,1.977495,-1.692394,8.106285,13.672838,15.447298,10.427298,19.146456,22.889149,23.325909,19.518132,26.552368,29.318787,28.266251,28.767014,56.462288,80.694523,100.723858,59.337215,92.719288,110.441151,123.457432,50.758781,88.76318,109.315166,123.892307,41.7136,76.373119,95.4352,109.046459,33.100777,59.881725,75.289135,86.778316,-15.016218,-16.097962,-10.609894,-8.674821,16.011882,30.794375,37.087174,40.712664,33.74765,48.345139,53.357543,55.050554,45.434595,60.533126,63.839367,63.05316,52.394545,64.839353,66.047376,63.701416,-15.052385,311.565548,-81.907396,277.670314
103,-12.733612,-10.136083,0.376339,-0.264045,14.351234,27.112198,37.783298,45.207424,13.683357,34.267788,51.309414,65.324535,8.065453,29.816494,49.613171,66.798306,4.99752,26.691628,46.948757,62.428722,3.81403,11.687164,19.733276,26.563683,-15.66046,-23.977191,-28.667876,-30.331247,-6.253155,3.735159,9.748538,12.35107,7.745972,21.336682,26.192796,28.469719,19.062414,32.788296,33.589384,32.185241,27.375007,38.261296,39.168348,38.559057,28.835907,56.654205,81.174545,101.307449,58.91922,92.656746,110.295982,123.229523,49.910088,88.290138,108.825531,123.280106,40.60358,75.654659,95.046043,108.767395,31.900806,58.893013,74.577198,86.212006,-15.137434,-16.142299,-10.610759,-8.870323,16.02522,31.013897,37.038638,40.539763,33.847377,48.524956,53.413489,55.058643,45.354443,60.746165,64.137065,63.401371,51.887883,64.766611,66.285053,64.151824,-27.80159,301.220933,-81.54665,277.197738
104,11.967945,-10.114903,0.68676,-0.079288,13.225765,20.425758,21.762314,19.706383,13.435192,32.909546,46.374664,53.437843,4.887943,27.629242,41.509438,50.498314,-5.395718,15.280724,30.565109,39.75872,-14.935226,-4.276371,5.864067,12.206726,-19.530729,-25.247212,-25.193612,-22.811405,-3.808827,11.202636,16.436231,17.763432,13.423058,28.997438,32.703697,33.439207,25.439502,40.05811,40.529451,38.584251,33.957787,46.800205,46.664292,43.712129,28.676033,56.330967,80.928783,101.017342,58.58551,92.28344,110.066414,122.900276,49.784317,87.939148,108.461151,122.760086,40.701027,75.809898,95.038605,108.618622,32.208138,59.623833,75.417824,87.259941,-14.665846,-15.418954,-9.833568,-7.916712,16.753998,31.798622,37.998548,41.493066,34.298093,48.775909,53.770653,55.461627,45.722043,60.982854,64.493118,63.929646,52.310627,65.073449,66.696249,64.893693,-15.859766,290.813658,-80.886011,276.826078
105,-2.527943,2.474957,0.455933,-0.04162,15.322838,24.059658,26.367245,24.061947,17.168827,38.725147,51.675053,57.892513,7.573071,31.727886,44.896488,53.877926,-3.747196,18.250866,32.552891,41.727734,-14.024734,-2.707787,6.505795,12.625866,-22.208659,-29.940614,-31.795349,-31.181488,-7.989392,7.109016,11.93512,12.916581,11.048692,27.263857,30.382067,30.468703,24.710848,39.197927,39.288082,37.164547,34.67156,47.551769,46.425627,42.418211,28.873672,56.366844,80.652809,100.561066,58.666248,92.12883,109.743919,122.408066,49.689789,87.59491,107.94651,122.250023,40.249271,75.085945,94.210968,107.704468,31.346798,58.42289,74.132195,85.847969,-14.767796,-15.542332,-9.750575,-7.530092,17.071025,31.915762,38.154962,41.680046,34.446912,48.794002,53.952632,55.88789,45.666653,60.836506,64.584941,64.220181,52.107468,64.781554,66.455917,64.550546,-18.431654,293.218991,-80.474024,276.714835
106,8.552971,1.349988,0.394707,0.151906,12.423306,18.19067,16.733723,12.756443,10.256996,29.850941,42.367229,47.264385,0.503025,22.46973,34.846745,43.292255,-10.609646,8.368778,21.625729,30.184078,-20.899029,-16.142292,-10.856209,-6.980896,-22.198594,-29.64168,-30.949245,-31.143635,-9.146348,7.707995,11.975443,12.598875,10.131699,27.2943,28.802121,28.273105,23.583903,39.195704,37.791437,34.93264,32.917786,46.52134,45.247491,41.37679,28.941593,56.39225,80.560741,100.151367,58.782806,91.938744,109.740486,122.824631,49.915123,87.508736,108.001328,122.614746,40.492001,75.038166,94.160156,107.765465,31.398239,58.166313,73.771019,85.457382,-14.127198,-15.115328,-9.472328,-7.026888,17.372367,31.889148,38.040045,41.693446,34.538302,48.703044,53.977147,56.221095,45.803924,60.720168,64.489969,64.284587,52.536077,65.209238,66.806783,64.893384,-9.993124,294.402221,-80.193758,276.699984
107,-12.987957,-0.146966,0.478077,0.698521,16.860466,27.151108,29.922638,27.105789,22.148151,48.877373,59.844818,62.114983,12.963924,43.674774,53.651505,58.035393,1.87191,30.051155,41.450272,46.598969,-8.519497,6.656742,13.537159,16.889248,-23.740255,-31.732981,-34.466548,-34.542131,-9.435648,8.302713,11.024548,10.329424,10.072418,29.315823,29.644706,28.06161,24.058084,40.735821,38.558069,35.250037,33.817428,47.802538,44.963748,39.668897,29.038296,56.650944,80.96632,100.91589,58.675632,91.971874,109.660091,122.535954,49.571514,87.520237,108.019238,122.469692,40.037098,74.864788,94.032955,107.457905,30.967541,57.820759,73.498535,85.002766,-14.701291,-15.652618,-9.808744,-7.291612,16.779192,31.583854,37.787732,41.428598,34.186695,48.560586,53.723229,55.797672,45.590082,60.617168,64.105634,63.572049,52.281048,64.704366,66.089552,63.95978,-23.072348,294.088529,-79.806948,277.231778
108,15.550518,-1.000974,0.40678,0.865,10.403881,14.353352,11.669254,6.767406,6.711617,23.633938,36.47089,42.718105,-0.636635,19.829922,33.13036,42.024937,-9.972897,8.491802,23.557262,32.854557,-19.45158,-11.578617,-1.586552,5.034542,-20.772592,-26.651787,-26.075593,-24.043017,-4.47672,10.272922,14.852333,16.413877,12.692735,27.292509,29.835885,30.940538,24.766299,38.831808,38.20393,36.613548,33.421237,46.253467,44.826538,41.655161,28.571091,56.054764,80.606117,100.665436,58.452473,91.983032,109.762688,122.613602,49.82254,87.992706,108.591614,123.001099,40.615826,75.8325,94.99054,108.209953,31.884842,59.507217,75.37262,86.99398,-14.953356,-16.345025,-10.6877,-8.181436,16.327797,30.773071,37.10607,40.941511,33.842993,47.722262,52.956227,55.281007,45.431569,59.757788,63.200312,62.787572,52.318222,63.987815,65.347188,63.480659,-7.73984,292.913126,-79.618177,277.922349
109,-10.152454,-1.821143,1.379929,-0.33654,11.856079,19.091606,20.96077,17.899532,13.832874,35.823669,50.348854,57.506905,6.227016,32.366524,46.891365,55.932655,-3.154335,19.632683,36.253853,46.528931,-12.503414,-1.140232,10.991592,19.28524,-19.55722,-24.577528,-22.583608,-17.935839,-5.355304,9.12103,14.417239,16.790061,11.328298,27.194017,31.771575,33.536649,23.64695,39.281475,40.267814,39.044168,33.188685,47.106487,47.147798,44.658701,27.960148,55.14576,79.681206,99.822006,58.163567,91.685715,109.311218,122.174034,49.479904,87.222862,107.432671,121.575623,40.322571,75.247822,93.980598,107.007179,31.741562,59.155197,74.593506,86.125832,-14.506036,-15.629215,-9.631953,-6.965014,16.017748,30.910712,37.319232,41.115647,33.625755,47.996249,53.391197,55.528132,45.403905,59.958724,63.567912,63.24928,52.583872,64.565181,65.940239,64.133731,-18.009768,290.942392,-78.355722,277.436218
110,20.192757,5.384451,0.040398,0.622691,7.687912,8.825455,4.639778,-1.146698,-4.586678,12.184525,27.819099,36.919327,-12.806797,6.609993,22.76619,35.775032,-21.286125,-4.485111,13.24482,26.211777,-28.848782,-25.25631,-15.268478,-7.499943,-22.265778,-29.830451,-30.461108,-28.647869,-9.231748,4.017235,9.845733,12.084185,8.846611,22.388909,26.616959,28.46799,22.179698,34.93758,35.282703,34.519901,32.363082,44.613499,44.476043,42.107853,28.014393,54.927177,79.102192,99.041977,58.106575,91.687317,109.365692,122.201385,49.372272,86.998558,107.170601,121.268692,40.162296,74.742622,93.571358,106.679649,31.565151,58.502483,73.921738,85.429688,-15.068644,-16.264132,-10.316271,-7.267282,15.824408,30.676555,36.843136,40.378347,33.292735,47.623276,52.858353,54.802811,44.767505,59.456137,63.190617,62.9057,51.571783,63.953605,65.609874,63.879319,2.102938,296.131017,-78.395376,277.863084
