takenoko1/special-research/HandMotion_SimilarSearch_自分用/NewProject/handData/key/d4_feature_d2/24.csv
,vel_0x_L,vel_0y_L,vel_0x_R,vel_0y_R,posFromWrist_1x_L,posFromWrist_2x_L,posFromWrist_3x_L,posFromWrist_4x_L,posFromWrist_5x_L,posFromWrist_6x_L,posFromWrist_7x_L,posFromWrist_8x_L,posFromWrist_9x_L,posFromWrist_10x_L,posFromWrist_11x_L,posFromWrist_12x_L,posFromWrist_13x_L,posFromWrist_14x_L,posFromWrist_15x_L,posFromWrist_16x_L,posFromWrist_17x_L,posFromWrist_18x_L,posFromWrist_19x_L,posFromWrist_20x_L,posFromWrist_1y_L,posFromWrist_2y_L,posFromWrist_3y_L,posFromWrist_4y_L,posFromWrist_5y_L,posFromWrist_6y_L,posFromWrist_7y_L,posFromWrist_8y_L,posFromWrist_9y_L,posFromWrist_10y_L,posFromWrist_11y_L,posFromWrist_12y_L,posFromWrist_13y_L,posFromWrist_14y_L,posFromWrist_15y_L,posFromWrist_16y_L,posFromWrist_17y_L,posFromWrist_18y_L,posFromWrist_19y_L,posFromWrist_20y_L,posFromWrist_1x_R,posFromWrist_2x_R,posFromWrist_3x_R,posFromWrist_4x_R,posFromWrist_5x_R,posFromWrist_6x_R,posFromWrist_7x_R,posFromWrist_8x_R,posFromWrist_9x_R,posFromWrist_10x_R,posFromWrist_11x_R,posFromWrist_12x_R,posFromWrist_13x_R,posFromWrist_14x_R,posFromWrist_15x_R,posFromWrist_16x_R,posFromWrist_17x_R,posFromWrist_18x_R,posFromWrist_19x_R,posFromWrist_20x_R,posFromWrist_1y_R,posFromWrist_2y_R,posFromWrist_3y_R,posFromWrist_4y_R,posFromWrist_5y_R,posFromWrist_6y_R,posFromWrist_7y_R,posFromWrist_8y_R,posFromWrist_9y_R,posFromWrist_10y_R,posFromWrist_11y_R,posFromWrist_12y_R,posFromWrist_13y_R,posFromWrist_14y_R,posFromWrist_15y_R,posFromWrist_16y_R,posFromWrist_17y_R,posFromWrist_18y_R,posFromWrist_19y_R,posFromWrist_20y_R,posFromBody_0x_L,posFromBody_0y_L,posFromBody_0x_R,posFromBody_0y_R
2,-16.517029,-2.882756,0.393333,-0.090464,9.471703,16.248779,19.576378,19.79599,-2.806835,19.191971,37.509384,50.672035,-9.866295,16.830826,36.700974,53.268356,-13.084145,12.168732,30.895042,45.61821,-14.296703,-1.725254,10.365486,21.572113,-19.921486,-31.044773,-35.873902,-38.081109,-14.101942,-4.525441,2.871888,4.839812,2.074629,13.284057,19.70468,20.386281,14.903338,25.909114,29.707197,28.875975,24.750553,33.772844,34.939556,32.527091,27.531567,53.699455,77.859764,98.818874,54.598789,89.613132,107.895069,120.874271,46.676159,85.969448,106.860409,120.859165,38.774014,75.846634,95.132961,107.796192,31.795006,60.758171,76.719189,88.619213,-16.155884,-18.873272,-13.334322,-9.957995,11.889795,25.402514,30.681742,33.99496,30.370149,43.046027,47.428824,49.292699,43.461237,56.455685,59.164181,58.300725,51.600744,63.640469,64.734995,62.462518,-14.159431,308.089509,-80.202198,283.40861
3,2.224388,9.30801,0.103226,-0.180002,8.508797,13.32613,15.917473,18.85746,-4.849377,18.909073,37.643738,50.416832,-13.32922,14.878807,34.286156,50.336494,-16.732121,9.127235,26.744385,40.623322,-17.465057,-10.286407,-4.920731,1.596909,-19.966008,-34.405415,-43.702619,-50.004125,-18.416813,-10.145901,-3.241835,0.152709,-2.59148,6.051911,11.489776,13.814987,9.980781,17.340133,20.418391,20.932896,19.190731,26.198106,27.265771,25.093391,27.78471,53.661404,77.937584,99.552097,54.514217,89.546528,107.782116,120.582447,46.436176,85.830288,106.689205,120.58279,38.405285,75.414219,94.634457,107.254772,31.326714,60.187054,76.156197,88.112812,-16.415236,-18.565817,-12.759796,-9.909953,12.33341,25.959873,31.433306,34.778326,30.67816,43.115002,47.605245,49.528276,43.472661,56.317672,59.269527,58.640846,51.370168,63.359875,64.718446,62.661972,-11.154642,317.273323,-79.318571,283.104412
4,-13.749104,-13.809924,0.784836,0.679193,13.089752,25.159721,34.072323,37.605801,8.142242,37.139912,54.71529,67.975903,1.427879,31.190586,49.565678,66.690044,-2.260437,25.229244,44.357586,60.022945,-2.782974,-1.71833,-3.66148,-3.794746,-19.047347,-28.369436,-31.380139,-32.018885,-8.847599,2.722205,9.410022,11.808161,7.90467,21.415166,26.935097,28.322259,20.437225,33.527633,35.285976,34.155573,30.026632,40.676725,41.308494,39.746394,27.421761,53.051147,77.174149,98.631763,54.612064,89.531307,107.522106,120.126629,46.755867,85.789661,106.405621,119.982662,38.827229,75.611,94.530201,106.731548,31.753864,60.37096,76.025105,87.794437,-16.720777,-19.465829,-13.696859,-10.559691,11.061537,24.304036,29.929745,33.582097,29.609137,41.925689,46.613842,48.532613,42.720849,55.286317,58.281768,57.509147,51.037086,63.187468,64.7098,62.611213,-24.288168,303.399812,-77.918158,283.720018
5,2.580757,-5.151775,0.058823,-0.348396,15.184307,24.14217,26.087437,21.875896,16.899834,43.317432,56.681614,61.481838,8.339081,37.014027,49.98064,57.9883,-1.371231,24.836311,38.240032,45.807323,-10.695934,5.905266,16.45546,22.871189,-24.617357,-34.317297,-35.876557,-35.656973,-9.997145,4.832958,6.981255,6.237162,9.491965,24.376593,25.108891,24.046537,24.565487,37.145713,35.741447,33.644094,36.417861,47.846133,44.914039,39.772452,27.334671,52.616901,76.488533,98.067913,54.664936,89.004879,107.230854,120.131321,46.645432,85.168247,106.102009,120.187168,38.375187,74.640713,93.782673,106.211758,30.921307,59.106503,74.788513,86.631832,-16.482173,-18.983188,-13.219899,-9.969481,11.662739,25.367501,31.08454,34.666126,29.804577,42.331822,47.037018,49.076634,42.583887,55.418278,58.531054,58.054959,50.799532,62.942812,64.533935,62.605717,-21.243525,298.178552,-77.395449,283.302137
6,2.971573,-0.739276,0.168285,0.326474,12.559032,20.837574,22.731228,18.752689,15.556583,43.492985,55.614223,59.020443,8.524303,39.82378,50.249577,55.112858,0.14637,28.201389,39.703503,44.726772,-8.734818,9.377804,19.096699,23.995457,-24.419015,-34.005705,-35.460606,-34.727382,-8.694829,5.526785,7.917329,7.032569,11.351269,25.839769,26.453938,24.433094,26.299068,39.24319,37.135031,33.614454,37.084395,49.274235,45.642076,38.881456,27.518063,52.668858,76.514683,98.093376,53.62524,88.654747,107.119789,120.06443,45.758286,84.945717,106.169701,120.082397,37.97287,74.998112,94.398422,106.667976,31.003189,59.752979,75.474758,87.144241,-16.605303,-19.364991,-13.778431,-10.510044,10.798974,24.353374,29.879728,33.425807,29.152246,41.720122,46.344487,48.227381,42.246297,55.175105,58.136099,57.429242,50.669609,63.025434,64.593895,62.5536,-18.041067,297.416105,-76.996279,283.60544
7,-4.838276,0.884575,0.338745,-0.169752,13.891811,24.139538,28.47393,26.593494,19.270248,47.626534,60.306587,64.15947,12.283287,44.103928,54.761009,59.49749,3.923492,32.46769,44.226379,49.497185,-5.024757,13.285046,22.850876,27.776184,-25.79185,-36.037664,-38.559427,-38.063263,-10.249272,2.93617,5.160358,4.558354,10.082422,24.282609,24.71659,22.686916,25.442528,37.891844,35.880015,32.671958,36.419837,47.999027,44.514081,37.992188,27.220287,52.429848,76.1586,97.623253,53.499241,88.355827,106.923866,120.035019,45.434246,84.389534,105.698662,119.589043,37.407303,74.257851,93.814888,106.240311,30.238209,59.018497,74.900093,86.745644,-16.650875,-19.033576,-13.259048,-9.963614,11.250802,25.351385,30.887186,34.279506,29.48576,42.115633,46.550054,48.167606,42.426176,55.543384,58.482457,57.6973,50.647256,63.01327,64.594327,62.653203,-22.594557,298.28359,-76.372747,283.418598
8,-3.396263,0.167776,-0.037823,0.465536,15.971661,28.263588,34.466057,33.57708,21.151543,50.539513,63.560486,67.226143,13.653946,46.54335,57.862015,62.865829,5.015202,34.687157,46.663628,51.919556,-4.013844,15.535583,25.727692,30.903511,-25.942336,-35.974246,-39.004215,-38.466369,-10.725861,2.941296,4.851236,4.092756,9.565015,23.760941,24.034804,22.237373,25.145509,37.36289,35.386135,32.607058,36.461889,47.183366,43.661493,37.975515,27.287292,52.577076,76.423073,97.582684,53.565044,88.626995,106.914768,119.819126,45.60339,84.657154,105.720577,119.533253,37.699528,74.714184,93.994846,106.244602,30.550003,59.501781,75.223331,86.823292,-16.634943,-19.433225,-13.968437,-10.580995,10.353259,23.925259,29.533925,33.10736,28.65744,41.03673,45.597307,47.301865,41.853256,54.762982,57.750097,56.909921,50.399513,62.731441,64.263716,62.071638,-25.745831,298.445762,-76.165581,283.878531
9,-1.089363,-0.064838,0.301952,-0.420026,16.152134,28.497162,34.267159,32.523994,22.265396,52.436371,64.875641,67.526321,14.793949,48.285942,58.635292,62.129974,6.401024,36.854553,47.860336,51.563187,-2.647476,18.870449,29.614162,34.216461,-25.497918,-36.024943,-38.663291,-37.722277,-10.409143,5.187158,6.780751,5.072488,9.731309,25.906459,25.70435,22.728412,25.325573,39.201446,36.647264,32.869621,36.79812,48.771402,44.956708,38.686324,27.573051,52.946548,76.781158,98.231621,52.366219,87.320595,105.983047,119.229927,44.393005,83.730698,105.300293,119.243546,36.742687,74.271069,94.042053,106.499176,30.045605,59.379387,75.472813,87.233047,-16.052514,-18.466275,-13.092322,-10.111506,10.681154,25.443763,31.156541,34.41474,29.091237,41.980832,46.410375,47.775862,42.486136,55.774639,58.690556,57.685012,51.124525,63.29831,64.699365,62.42979,-26.624737,298.371337,-75.653172,283.448918
10,-3.063755,0.784477,0.321522,0.842955,16.573048,29.62635,37.100773,36.658115,24.665451,52.449818,66.574001,71.945515,17.781029,48.012714,61.259708,68.841305,9.245968,37.022266,50.608006,58.17152,0.039654,19.13023,30.606709,37.479229,-25.964134,-37.281996,-40.874018,-40.446643,-11.070614,1.78928,3.795674,3.491368,8.79647,22.960964,24.157379,23.274965,24.386967,36.509499,35.653762,33.974768,36.172095,46.955013,44.530383,39.890087,27.204323,52.361813,76.434402,97.616673,53.532429,88.083286,106.235447,119.016323,45.545483,84.207859,105.166912,118.785267,37.512474,74.334183,93.460178,105.44672,30.203476,59.175854,75.006466,86.512356,-16.432587,-19.461877,-14.254712,-11.129709,10.000973,23.753099,29.510522,33.110447,28.327199,40.704143,45.399582,47.121678,41.726729,54.729267,57.760841,56.825446,50.589457,62.810173,64.187021,61.747757,-29.507875,299.163796,-75.151033,284.299854
11,-0.578613,-0.9638,0.307961,-0.436205,16.873226,30.535641,38.393497,37.469273,24.358063,51.408634,66.43404,73.290653,17.187881,46.076946,60.531864,70.030231,8.465481,35.028591,49.904881,59.231586,-0.634861,18.681622,31.32946,39.501972,-24.551964,-35.588615,-38.912084,-37.948222,-10.559506,1.874063,4.079788,3.744792,9.052549,22.736687,24.284585,23.344311,24.877697,37.07575,36.552971,34.797901,37.328001,48.540887,46.384254,41.498006,27.155113,52.174244,76.039009,97.526035,53.192654,87.315159,105.628681,118.647938,45.33308,83.830547,105.014362,119.031773,37.249546,73.948174,93.357868,105.788555,29.811172,58.845005,74.567528,86.082058,-16.213312,-18.938357,-13.554401,-10.397102,10.459964,24.9568,30.726449,34.242209,28.600815,41.15912,45.847211,47.72572,41.879562,54.887842,58.145793,57.646603,50.685294,62.875566,64.359552,62.248614,-29.981689,298.211898,-74.738274,283.875551
12,1.314583,-0.418297,0.075188,-0.30869,16.741333,29.96418,37.087383,36.454868,23.047199,52.126293,66.310787,71.647739,15.787239,47.820911,61.243114,68.453121,7.500744,36.515179,50.595875,58.260784,-1.51268,19.68298,32.787781,40.492229,-24.71517,-35.438006,-38.125939,-36.938108,-11.181394,2.521578,4.981406,4.780655,8.687418,23.73939,24.928147,23.513569,24.660398,37.761488,36.560937,34.216706,36.906986,48.825372,46.262668,41.111263,27.058239,52.298927,76.322422,97.772198,53.687267,88.010731,106.354122,119.447651,45.4949,83.871861,104.946499,118.836422,37.058601,73.677349,92.964191,105.361004,29.380417,58.305874,74.047623,85.597057,-15.950317,-18.624357,-13.286404,-10.079211,10.87363,25.321683,31.315301,35.115916,29.067586,41.582727,46.2744,48.178289,42.253275,55.365111,58.540379,57.872857,50.789529,63.131336,64.67417,62.504385,-28.631744,297.862498,-74.627724,283.635759
13,8.922443,3.89818,0.127831,-0.821651,14.237251,23.103619,24.755173,20.461807,17.073898,45.350876,57.496834,60.914955,9.691772,42.379303,53.432922,58.035049,1.828594,31.077347,42.87117,47.794876,-6.467228,12.81641,23.949165,29.629784,-26.177729,-37.908207,-40.279855,-39.033362,-12.818645,-0.044707,1.956068,1.448479,7.079314,20.840764,21.024225,19.678498,22.735267,35.098564,32.61737,29.477794,34.333044,46.162879,42.232589,35.754785,26.756001,52.371311,76.690521,98.075924,54.012222,87.82774,106.336842,119.823017,45.854015,83.751812,105.099621,119.437809,37.217617,73.729019,93.398266,106.295414,29.186325,58.387413,74.401531,86.292286,-15.907277,-18.196117,-12.624378,-9.429535,11.932279,26.27795,32.017897,35.586083,30.005204,42.588703,47.36448,49.191737,43.137109,56.446607,59.723763,59.118856,51.581786,64.007266,65.546025,63.462689,-19.720516,301.747788,-74.511108,282.801218
14,-3.25304,0.957255,0.061684,-0.158081,16.297016,26.832619,29.540005,25.551109,21.414814,48.374805,60.852299,64.687443,13.026752,44.434605,55.996227,61.228352,4.193401,32.456875,44.374752,49.708729,-5.126667,13.620987,24.610176,30.597324,-26.913423,-39.441655,-42.717515,-42.10421,-14.567725,-2.261238,0.452754,0.862159,5.448671,19.469287,20.234066,19.282122,21.249799,33.663114,31.722607,29.071106,33.093898,44.359273,40.774168,34.717255,27.221432,52.599678,76.710205,97.974415,53.769779,87.732067,106.185093,119.646893,45.582218,83.574772,104.692783,118.998814,37.073078,73.343296,92.749157,105.499363,29.237423,57.957573,73.888779,85.773182,-15.494907,-17.790726,-12.26993,-9.292634,12.626415,26.356928,31.889333,35.364337,30.539901,42.744067,47.476249,49.386003,43.432399,56.550904,59.866036,59.291572,51.75864,64.444768,65.924925,63.57526,-22.979422,302.705691,-74.45529,282.643785
15,3.921261,0.922922,-0.00309,0.431882,15.144939,24.570694,26.00132,21.786003,17.291164,42.587814,56.000175,61.130447,8.527679,37.983398,50.995102,58.047523,-0.157814,26.026039,39.427643,46.631813,-9.128895,7.240791,18.794518,26.177101,-27.041308,-39.705762,-43.038987,-42.417161,-15.415002,-4.081826,-1.23297,-0.332896,4.447882,17.030331,18.133749,18.14153,20.320146,31.221441,29.963399,28.233647,32.483928,42.702324,39.403,33.984277,26.907349,52.386532,76.723423,98.205242,53.817673,87.872601,106.309376,119.621029,45.73431,83.869686,104.967556,119.275761,37.342815,73.756886,93.089733,105.77322,29.678764,58.45459,74.26981,86.130466,-15.972732,-18.520863,-12.921027,-9.85938,12.288949,25.823837,31.366431,34.820255,30.245043,42.265687,46.996695,48.940227,43.159401,56.087652,59.303984,58.638809,51.472735,64.053641,65.432774,63.055198,-19.07238,303.646057,-74.472599,283.093112
16,-1.92049,-1.087116,-0.579987,-0.302886,15.975552,25.978603,27.842846,23.052406,17.17495,43.474903,58.272686,65.482693,8.079357,37.955303,53.150539,63.535824,-0.679779,26.31094,41.951008,52.098942,-9.324703,8.757877,22.082233,31.631184,-25.878239,-38.187443,-41.061986,-40.321352,-13.78652,-2.119892,1.316334,2.472733,5.562601,17.699521,20.059127,20.944752,21.198731,31.603305,31.553411,30.969746,33.919007,43.969134,41.608416,36.913594,27.289524,52.931213,77.198982,98.608875,53.463993,87.740078,106.519833,120.253086,45.270138,83.792782,105.11507,119.497318,37.030506,73.765354,93.346882,106.127071,29.632587,58.833733,74.822903,86.62611,-15.490214,-17.830493,-12.483587,-9.435031,12.595602,26.208542,31.906314,35.577623,30.551202,42.785008,47.706516,49.903101,43.475625,56.644394,59.907594,59.355114,51.757096,64.1136,65.478223,63.239029,-21.012526,302.55025,-75.072241,282.781535
17,2.298374,-0.619295,0.533066,0.241691,15.172863,24.540939,26.241875,21.267014,13.485775,39.1008,55.058784,63.274612,4.08926,33.321877,50.25547,62.205505,-4.394417,21.419506,39.118767,51.343346,-12.652473,4.523392,19.620781,30.8535,-25.678724,-37.505656,-40.063297,-39.681494,-14.353204,-2.234253,1.578588,2.759688,4.721745,17.419421,20.377574,20.992053,20.467421,31.679752,32.166531,31.16426,33.284337,44.090659,42.117424,37.404324,27.581234,52.910271,76.865959,97.922459,53.181667,87.574596,106.069736,119.401646,45.091496,83.602123,104.852886,119.085102,37.080631,73.808155,93.298817,105.851383,29.973507,58.895016,74.844418,86.623249,-15.522695,-18.048596,-12.837293,-9.762864,12.352367,25.765421,31.36359,34.872804,30.267829,42.474712,47.217576,48.993086,43.186324,56.172374,59.387841,58.554149,51.469215,63.97602,65.399676,62.939601,-18.804245,301.941576,-74.629269,283.033847
18,-5.719643,2.602039,-0.312195,0.090835,17.24699,28.301067,31.755066,27.069283,20.760441,48.407593,63.000641,69.511414,11.404781,42.399445,57.138062,66.505394,2.468147,30.412674,45.850067,55.638771,-6.601982,12.81538,26.940079,37.094307,-26.62579,-40.199148,-43.810806,-43.75134,-17.225092,-5.92804,-2.73684,-1.793232,2.085064,14.255885,16.832051,17.503772,18.688577,28.973355,29.380908,28.606619,32.312817,41.875177,39.744479,35.204651,27.069511,52.589035,76.632328,97.813396,53.62215,87.874088,106.445103,119.772091,45.49284,83.880329,105.134869,119.37521,37.214069,73.809071,93.273067,105.721035,29.771347,58.814621,74.77644,86.390133,-16.07215,-18.527841,-13.299865,-10.306761,12.21207,25.854465,31.546433,35.08325,29.975749,42.385915,47.24277,49.257069,42.81718,56.092469,59.427176,58.921687,51.180656,63.701416,65.137422,62.833514,-24.575758,304.544757,-74.993334,283.125824
19,0.619469,-2.088584,0.433559,-0.612564,17.226219,29.342766,33.777695,30.326614,18.484039,44.155884,61.551476,70.955086,8.591709,36.798363,54.694633,67.231865,-0.170002,24.938278,43.291855,55.868912,-8.889084,9.440117,25.497265,37.245026,-26.342726,-39.132348,-42.206715,-41.710489,-17.046139,-5.686472,-1.415443,-0.053229,2.561037,15.029433,18.644487,19.05062,19.274835,30.110551,31.309373,30.610852,33.016772,42.902642,40.987083,36.551613,27.121353,52.464352,76.71627,97.822151,54.279671,88.252373,106.860924,120.250854,45.887604,83.84079,104.929504,119.076691,37.113762,73.074188,92.602158,105.296516,29.062443,57.674217,73.74321,85.677795,-15.569564,-17.666669,-12.425665,-9.38668,13.106895,26.942199,32.683937,36.185803,30.587326,43.304699,48.364837,50.443418,43.012126,56.714172,60.304958,59.880177,51.038506,63.87475,65.700339,63.769095,-24.0061,302.470669,-74.609585,282.527756
20,5.148296,-0.898345,-0.141335,0.38699,15.783234,25.024624,26.761723,22.0891,13.21106,38.33971,55.343113,64.248219,3.602428,32.120647,50.044956,62.255344,-5.190353,19.947624,38.617916,51.062679,-13.824177,4.094296,20.408134,31.896572,-25.384853,-37.152135,-39.386512,-38.973526,-14.691535,-2.490826,1.660901,2.812855,4.503828,17.227006,20.385355,20.793463,20.608274,31.714085,32.350917,31.347658,33.884736,44.299313,42.188437,37.557218,27.582893,52.928295,76.856575,97.871361,54.135418,88.223305,106.63044,119.689064,45.800972,84.175072,105.171547,119.221458,37.206573,73.57235,92.969513,105.541306,29.322624,58.048153,74.008541,85.811348,-16.061282,-18.427002,-13.050085,-9.853945,11.993844,25.890095,31.768117,35.448565,29.877319,43.034788,48.226948,50.389324,42.672252,56.573381,60.057154,59.500659,50.967308,63.680112,65.385473,63.328259,-18.970356,301.570919,-74.863472,282.913341
21,3.247204,1.56809,0.075703,-0.779105,15.078621,23.623123,25.397644,21.150284,10.649357,33.096428,50.19516,60.215378,0.714741,26.246567,45.017853,58.65509,-8.167019,14.346428,33.61187,47.486229,-16.595592,-1.351662,14.888935,27.309036,-26.497596,-39.161679,-42.492805,-42.559187,-16.23017,-6.22969,-1.731482,-0.077435,3.076035,13.668886,17.318706,18.415084,19.469843,28.828612,30.108328,29.682188,33.143175,42.270504,40.555695,36.341414,27.101498,52.473106,76.565838,97.599964,54.130096,88.197155,106.491566,119.59219,46.054802,84.22102,105.271626,119.448795,37.566605,73.575439,93.039837,105.789013,29.642029,58.162251,74.149761,86.132984,-15.888566,-18.020808,-12.25863,-9.14536,12.861993,26.393423,31.983502,35.499818,30.786471,43.411034,48.387499,50.455397,43.453086,56.965681,60.36535,59.784279,51.545662,64.302618,65.969694,63.780827,-15.78927,303.143996,-74.853888,282.139222
22,3.826733,-1.428349,-0.745983,0.3182,12.761765,19.484425,19.634113,15.637493,7.827873,29.381504,45.666103,54.580936,-1.528244,23.683834,41.236439,53.708897,-10.11343,11.848755,29.932079,42.424107,-18.103237,-5.995846,7.667828,17.916927,-26.12839,-37.602049,-40.191985,-40.367973,-14.375372,-3.715522,0.546553,2.229993,5.301582,16.216831,19.342699,20.490207,21.027868,30.915344,31.271767,30.302656,33.260748,43.610117,41.472626,36.927858,27.795696,53.278828,77.172661,98.085823,53.574314,87.965126,106.516571,119.7892,45.544281,84.375229,105.767784,120.121193,37.53376,74.274044,94.021111,106.900635,30.317745,59.288292,75.423031,87.422447,-16.144336,-18.424285,-12.756771,-9.518394,12.547004,26.125488,31.637021,35.193042,30.537987,43.106295,47.761412,49.643317,43.29519,56.748011,59.875114,59.182459,51.386593,63.839984,65.403381,63.229087,-12.030659,301.703683,-75.667992,282.445458
23,-5.360584,-0.220264,0.557442,-0.572365,13.791218,22.168751,24.154472,21.122246,13.398628,36.464539,51.881905,59.720879,4.239063,31.325684,47.625275,58.011475,-4.590855,19.524651,37.122917,48.456688,-13.301411,2.486515,16.967411,26.87748,-26.819995,-37.821325,-40.93935,-41.160972,-14.682148,-4.238054,-0.035753,1.642993,5.416437,16.643403,19.331275,20.240056,21.704035,31.772686,31.571812,30.193975,34.227759,44.207367,41.596374,36.833194,27.362537,52.727108,76.546669,97.334404,54.237957,87.864532,106.01738,118.926201,46.282597,84.211922,105.222816,119.293213,37.976074,73.792191,93.030968,105.492096,30.366898,58.427925,74.339905,86.208229,-15.657434,-17.85859,-12.613386,-9.383222,13.847098,27.495235,33.0629,36.397978,31.44473,44.176183,48.763312,50.138309,43.862614,57.641478,60.805569,59.810646,51.674165,64.467986,66.162047,63.907971,-17.468662,301.475638,-75.187969,281.865313
24,-8.786373,-2.035664,0.01688,-0.641957,18.715267,31.353321,36.528912,34.638462,21.79184,48.838291,64.063396,70.991764,11.433334,41.73254,57.818356,67.45348,1.424217,28.567715,45.684071,55.887051,-8.430061,11.282787,25.993652,35.521488,-25.57029,-36.107504,-38.962472,-38.871452,-14.984849,-1.858811,2.200105,3.566704,4.600467,18.943915,21.649324,21.937143,20.93728,33.35467,33.536587,32.546481,33.867446,45.047543,42.756973,38.42969,27.113686,52.631435,76.560974,97.13522,53.996601,88.517132,107.043629,120.295773,45.655575,84.411907,105.403805,119.306087,37.076225,73.54311,92.959728,105.690708,29.404335,58.00478,74.163494,86.157818,-15.524486,-17.794554,-12.445487,-8.756147,14.335235,28.200857,33.782786,37.44051,32.030494,44.988942,49.5171,51.265007,44.298387,58.547789,61.772025,61.050718,51.666384,64.803229,66.584852,64.502875,-26.335545,299.435142,-75.251598,281.218524
25,5.515995,0.45331,-0.270596,0.653319,15.594749,25.833893,29.006195,26.061745,15.338173,39.786415,56.484146,65.878143,6.33173,31.861725,50.203056,63.838921,-2.662468,20.262909,39.076767,52.247658,-11.676006,4.490833,20.167637,31.811714,-24.093467,-35.418554,-38.297173,-38.063139,-14.121208,-1.432424,2.930798,4.031252,4.756017,18.529878,21.924854,22.218601,20.857128,32.569761,33.769818,33.20826,34.360276,45.13597,43.637411,39.392873,27.276764,52.866783,76.860695,97.368393,55.030575,88.896103,107.120819,120.249367,46.99482,84.742126,105.435905,119.490051,38.558292,74.137573,93.180313,105.756912,30.819969,59.128819,75.02615,86.954613,-15.757594,-18.196117,-12.740777,-8.732064,13.763796,27.420147,33.170222,36.904948,31.393415,44.193905,48.93998,50.95434,43.851005,57.466971,60.664407,59.961441,51.764629,64.329109,65.808834,63.611878,-20.957794,299.849596,-75.660439,281.832987
26,6.411781,-0.495671,-0.105171,-0.290597,13.704815,21.800308,23.32695,19.801369,10.82428,31.254387,47.455788,57.372551,1.231728,22.638588,41.283531,55.573196,-8.849945,10.107708,29.145241,42.950592,-18.688316,-7.204742,7.499771,18.89534,-24.084698,-34.376578,-37.095078,-36.765454,-13.48487,-1.174925,3.836121,5.783358,5.229951,18.582366,22.277079,23.445952,20.968773,32.539256,33.768769,33.582159,34.206147,45.195929,43.94573,40.220266,27.163982,52.729397,76.58638,97.389336,54.542198,88.760605,107.359314,120.518646,46.462955,84.843292,105.782318,119.75441,38.117523,74.329262,93.624344,106.147041,30.638351,59.210987,75.178471,86.879311,-15.629709,-17.609488,-11.974022,-8.346062,14.538702,28.098105,33.578577,37.092484,32.124355,44.623935,48.952824,50.688567,44.396817,57.974621,60.910483,60.18047,51.901777,64.347079,65.789877,63.665601,-14.705458,299.322185,-75.925055,281.51065
27,-2.896442,0.973742,0.369587,0.405206,14.495144,23.202381,24.677296,20.924263,14.987583,37.258015,52.559338,60.650883,6.026974,30.848064,47.148113,59.23296,-3.537312,18.139057,33.936367,45.010014,-12.753582,-1.789684,9.050102,17.46809,-25.305381,-36.053534,-39.029965,-39.499145,-12.411092,-0.212977,2.848917,3.423011,6.485214,19.926487,21.529899,21.645187,21.7543,33.072224,32.872708,32.222168,34.288769,44.814682,42.698743,38.480757,27.034779,52.788906,76.876259,97.37978,54.805698,88.907604,107.256832,120.405178,46.765366,85.032291,105.87347,119.940777,38.414383,74.616051,93.7187,106.310062,30.737228,59.400959,75.311165,87.149334,-15.877822,-18.521233,-13.210698,-9.285286,13.644742,27.148692,32.545802,35.917683,31.383103,44.14185,48.712801,50.565375,43.943137,57.494141,60.58302,59.826763,51.878127,64.233767,65.668476,63.487266,-17.761173,300.302689,-75.714741,281.922617
28,-1.715412,-0.175495,-0.398769,-0.125168,14.973679,24.5121,27.198257,24.571152,16.848106,39.840431,55.047684,62.913094,7.83823,33.583946,49.703178,61.555023,-1.735497,20.661221,36.171455,47.072296,-10.808086,0.106945,9.941368,17.999439,-25.356572,-36.197968,-39.769612,-40.379829,-13.289677,-1.071802,1.983794,2.29094,5.98627,19.624343,21.367372,21.297594,21.716385,33.313421,33.368255,32.620087,34.20522,45.350491,43.573437,39.397133,27.077236,52.899227,77.041454,97.878456,54.016514,88.847122,107.48806,120.640526,46.064816,85.3759,106.589241,120.713425,37.987232,75.102482,94.550171,107.087746,30.806293,59.942551,75.963936,87.597771,-15.858309,-18.291337,-12.825437,-9.130786,13.639246,26.548169,31.539764,34.853291,31.541802,44.062933,48.427822,50.438231,44.010383,57.521373,60.400733,59.732162,51.517319,63.844801,65.296429,63.249403,-19.644728,300.139823,-76.281652,281.810077
29,-4.751644,-0.756813,0.634632,0.387731,16.913452,28.913326,33.951015,32.234287,22.297268,45.667133,61.027966,69.593639,12.661572,38.478985,54.850445,66.744404,2.22187,24.841862,40.995083,52.458515,-7.703247,5.066872,16.391487,25.708637,-25.076472,-35.665185,-39.726448,-39.841057,-14.049145,-2.963711,0.655419,2.132242,5.138931,18.052177,20.472176,21.08017,21.296606,32.54185,33.485149,33.589816,34.333167,44.977889,43.74356,40.256699,27.259197,52.688828,76.693325,97.564716,53.77264,88.576641,107.110691,120.433788,45.932636,85.039043,106.036892,120.191174,38.152142,75.093842,94.391041,106.944866,31.279221,60.277977,76.164207,87.828884,-15.86294,-18.687836,-13.354082,-9.70346,13.177723,25.611477,30.5081,33.716342,31.273867,43.615366,47.940735,49.809488,43.987906,57.211386,60.040667,59.219201,51.803717,63.955519,65.223564,62.990854,-24.672375,299.482906,-75.923023,282.297705
30,4.949226,1.565682,0.218353,0.005187,15.361404,25.395184,29.743938,29.263515,17.010612,39.339008,53.914661,61.535854,8.36134,34.03101,49.215488,59.782047,-0.660553,21.499043,36.652393,46.909161,-9.121513,1.331406,10.985413,18.661251,-26.157413,-37.064759,-41.514864,-42.134282,-15.215055,-5.060385,-1.970517,-0.972507,4.843764,16.123218,18.052856,18.333203,21.254492,31.381498,31.297764,30.241956,33.589198,43.811979,41.401428,36.679868,27.180119,52.618675,76.531105,97.305508,53.87455,88.696117,107.281322,120.677662,45.840054,84.794712,105.699291,119.878864,37.811165,74.548416,94.078388,106.992702,30.703983,59.699764,75.790329,87.667065,-16.112103,-18.770458,-13.489686,-10.270946,13.106401,25.037754,29.559058,32.473554,31.201742,43.433881,47.791546,49.832829,43.849894,57.04466,59.889563,59.209074,51.593642,63.655165,64.970325,62.874146,-19.96851,301.067298,-75.950031,282.321602
31,-0.452671,-2.509351,1.212101,-0.362351,15.084229,25.293846,30.583534,30.991516,18.343163,41.145744,55.170479,62.107086,10.438614,36.008148,49.598236,58.958931,1.422043,23.211308,36.961899,45.936012,-7.147923,2.492294,10.099125,15.505371,-24.890788,-34.263575,-38.498356,-39.748184,-11.914742,-0.839312,1.557901,1.231612,8.160502,20.60037,21.364655,20.154779,24.093096,35.539338,34.327116,31.929471,35.932318,47.301248,44.658268,39.645,26.74633,52.046356,75.951805,96.550713,53.880386,88.496132,106.976852,120.167313,45.839024,84.678497,105.484657,119.520721,37.583656,74.376755,93.845673,106.759529,30.123825,59.181633,75.44981,87.745285,-16.09895,-18.632508,-13.130114,-10.099836,12.706321,24.639711,29.174291,32.025801,30.959001,42.792603,47.066288,49.019021,43.963885,56.627721,59.324485,58.625038,52.080606,64.137683,65.365219,63.167831,-20.565605,298.598625,-74.882355,281.999929
32,3.661537,0.612008,-0.59927,-0.567425,14.550133,24.204826,28.321266,26.654205,12.499409,34.698601,50.984344,59.766197,5.090103,30.498962,46.561203,57.437325,-2.396965,19.899216,36.28933,47.06955,-9.687252,2.84071,14.824791,23.151627,-25.320756,-36.444167,-40.033348,-39.758373,-12.460122,-2.926229,-0.442812,-0.426942,7.303345,18.343145,19.731541,19.146827,22.919653,33.380358,32.313435,30.216267,34.829208,44.692972,41.504798,36.411871,25.83149,51.78772,76.082897,96.235485,54.714031,89.40691,108.05872,121.599827,47.169571,85.460987,106.373348,120.96674,38.862476,74.605694,94.038448,107.320461,30.912323,58.96265,74.972019,87.603436,-16.559608,-19.140158,-13.815049,-10.747783,12.058806,23.226059,28.091683,31.412558,29.954137,41.457992,46.450327,49.11461,42.683984,55.193074,58.68401,58.694075,50.882031,63.67863,65.610615,63.984912,-17.051926,299.25531,-75.629482,281.477181
33,-13.66785,-8.534524,1.109219,-2.621799,17.194176,31.27882,39.261074,38.593311,19.253769,46.660366,64.993801,75.92989,10.221348,38.067341,57.215824,72.892399,0.921593,25.000877,43.522053,56.444492,-6.702061,0.369873,6.958809,13.039227,-21.579175,-30.177303,-32.123923,-32.714504,-5.852766,10.391112,14.343386,14.123863,13.502283,30.832104,33.006521,30.93955,27.473499,42.829962,43.906581,42.325153,38.534048,52.383368,53.866799,51.653602,26.224308,51.122475,74.166584,93.5812,54.498882,88.76049,106.910706,119.914398,46.790543,85.02697,105.783577,119.817696,38.216,73.427868,92.573776,105.212402,29.800129,57.39006,72.608814,84.12014,-17.000197,-19.624343,-14.001844,-11.268462,8.90972,21.182985,27.299795,31.54773,27.590269,40.025012,46.15973,49.554026,41.23779,53.783065,57.787024,58.491966,50.31473,62.245712,64.149786,62.729774,-30.798683,290.759812,-74.599171,278.894408
34,73.013134,-10.194561,-0.56282,-6.061482,-11.742096,-27.8722,-44.071712,-58.298206,-59.127388,-54.597359,-29.095001,-9.754372,-62.676601,-51.93758,-25.664062,-2.602158,-61.728687,-54.415169,-29.996338,-8.577576,-58.379745,-71.123085,-72.229557,-69.23996,-7.050106,-6.242164,0.729087,9.011361,7.451113,27.060204,31.886245,33.392215,19.174985,34.430424,40.13783,42.938272,26.997157,38.85762,42.848611,46.258592,33.787726,43.906148,51.519357,60.853302,24.66568,49.732704,72.876606,91.866646,56.414223,89.545784,107.538414,120.169258,49.084625,85.506477,106.579514,121.203232,39.746246,73.431759,93.510132,107.164879,29.786453,57.081871,72.887764,85.827713,-18.873519,-21.397938,-14.953789,-13.446893,5.459663,20.017569,27.96812,33.929567,23.710861,38.422094,46.181157,51.545415,37.28601,51.042891,56.90708,59.589395,47.199977,59.727036,63.602616,64.167879,42.178202,280.840858,-75.19824,273.108533
35,-6.443367,-3.24554,-0.344868,-11.600309,-13.051186,-35.890274,-54.370937,-69.645195,-60.269966,-66.394558,-70.508251,-72.957058,-59.449768,-50.863781,-27.589874,-4.8983,-52.182312,-37.509556,-15.376511,4.094696,-42.058182,-35.281105,-21.751213,-9.309082,29.918754,44.862971,51.836754,60.616674,32.645652,40.568353,47.493106,54.432185,16.649825,25.54559,37.363754,45.31449,0.203653,10.547526,23.418411,31.519757,-14.91575,-9.221251,-1.03327,5.016295,24.450188,50.144234,72.861614,90.128231,56.763039,88.648739,105.480709,117.56052,49.609165,83.884106,103.453159,118.292255,40.103016,71.914387,91.230984,104.940319,28.955269,54.169235,69.530525,81.671162,-21.127533,-24.235493,-19.809779,-19.402288,4.760154,18.9441,27.115656,33.591915,21.993582,37.265818,45.870553,51.68176,35.671607,50.852082,58.434724,62.183159,46.043083,60.615933,65.464452,65.641985,35.633583,277.872115,-75.64436,261.785021
36,-1.750145,-0.832704,-1.177025,-15.077783,-9.106064,-29.117203,-45.159645,-56.910839,-52.975101,-65.894966,-70.864391,-68.5952,-53.397503,-52.880173,-33.135624,-12.772751,-47.212486,-41.195068,-22.422295,-4.87484,-38.232651,-36.363544,-23.358421,-11.046181,23.8096,37.816755,43.280123,45.501409,22.134929,23.356846,29.003057,35.68192,6.9631,10.764641,20.240427,26.289373,-7.984328,-1.574389,7.075115,12.272215,-20.916285,-16.905163,-11.203377,-6.806007,21.95858,45.293312,66.22467,83.490314,57.416668,86.752453,102.049084,113.132915,51.637917,82.435284,99.862118,113.702145,43.472557,71.132355,87.097149,98.316593,33.543606,53.16021,64.666328,72.881012,-22.550448,-27.051867,-26.306602,-28.639965,0.632509,14.039944,23.087923,30.186318,18.376305,32.826828,42.011522,47.830449,33.032765,49.184759,57.178164,61.348293,44.81777,61.185643,66.893419,67.504562,33.587122,277.202431,-77.117701,246.870259
37,54.40155,-50.029752,0.018368,-15.339358,-35.17868,-68.729782,-89.323254,-103.036308,-93.239136,-124.998608,-111.853409,-92.197609,-89.227581,-120.88995,-103.912468,-79.556808,-81.59317,-111.088085,-97.992039,-75.378342,-69.543228,-93.332806,-94.231567,-84.558678,1.444836,15.721902,34.656801,50.849674,9.405885,21.635307,29.159286,31.222614,18.469548,28.165474,37.413525,36.893401,28.81336,38.163484,43.740163,41.353695,38.998164,50.522829,54.066623,54.653808,22.628689,45.885143,62.370014,77.573547,52.059803,80.541,95.606232,106.653442,47.898331,76.910305,91.933823,100.532227,41.871357,66.063709,77.071724,83.425484,34.200153,53.507767,60.540276,61.874313,-14.216736,-15.756976,-11.735975,-11.526579,-2.56079,7.922578,16.284139,23.982625,13.937871,28.507325,38.962657,47.181267,27.797133,44.856673,54.762488,62.278687,41.348261,55.012639,58.667461,59.689492,87.92161,227.468526,-77.166395,231.826747
38,20.365276,-26.196994,-23.87352,-32.145041,-32.363262,-64.425888,-86.26914,-98.820248,-85.739651,-118.171091,-116.996441,-107.436905,-81.47584,-114.561682,-111.053124,-98.397102,-73.710766,-104.814291,-103.576498,-93.256931,-62.271881,-86.810732,-93.482838,-91.720963,-9.775121,-4.14546,7.512462,18.692127,6.065712,21.162452,27.712442,29.184634,19.366071,35.971683,42.587746,42.274393,31.696548,46.365667,51.012509,49.787319,41.624223,55.281747,59.683903,60.83348,25.65731,50.037746,69.464321,83.461475,88.324814,124.074326,123.430367,112.82238,87.487221,124.168739,119.164696,104.45137,80.291233,114.212265,111.065025,98.759022,68.529224,97.004128,99.193096,91.358757,-25.785243,-36.987756,-44.154756,-47.947898,-1.386606,21.012245,34.967035,39.904907,16.395722,44.11962,57.743119,61.777212,31.620472,56.364788,69.040542,72.959223,45.025498,64.635453,72.668996,74.047327,107.060108,202.569016,-102.266693,200.979189
39,20.365276,-26.196995,-3.972359,-25.816242,-29.547844,-60.121994,-83.215027,-94.604187,-78.240166,-111.343575,-122.139473,-122.676201,-73.724098,-108.233414,-118.193779,-117.237396,-65.828362,-98.540497,-109.160957,-111.135521,-55.000534,-80.288658,-92.734108,-98.883247,-20.995078,-24.012821,-19.631876,-13.465418,2.72554,20.689599,26.265599,27.146654,20.262595,43.777893,47.761968,47.655386,34.579737,54.567851,58.284855,58.220944,44.250283,60.040667,65.301184,67.013153,20.799122,44.242573,55.44548,68.791924,90.482254,124.709587,137.016907,139.854813,86.524944,120.206108,135.476646,139.641953,75.711136,107.475758,122.907028,127.74868,59.069309,87.290268,101.808128,109.314995,-22.731747,-31.637638,-38.258394,-48.356686,2.681635,25.723369,37.275636,42.244136,18.104542,42.941792,52.420172,55.036043,29.972785,51.017449,57.93646,59.359189,40.177844,53.335004,58.488261,60.073024,126.155491,178.724742,-107.508945,177.515669
40,3.785362,-18.08367,-5.345535,-20.171019,-25.20916,-49.890747,-68.431206,-82.038918,-76.595421,-108.612671,-117.473488,-117.975769,-72.431488,-104.081383,-111.289558,-110.429306,-63.696442,-91.553764,-99.383469,-100.000648,-52.236786,-74.672127,-83.052864,-84.77726,-21.223925,-24.891406,-23.737785,-26.0483,1.579823,16.333107,21.707246,21.878294,16.548369,34.073877,37.713755,37.190112,28.387282,45.583351,46.931054,46.038205,36.927179,52.139948,54.762921,54.693204,21.593113,44.528046,54.721928,64.470692,87.163525,118.589516,131.347046,136.696014,83.004856,119.099121,134.265175,140.90641,71.485291,104.304199,117.34623,123.041039,54.225998,78.736553,88.73188,93.478718,-20.126188,-31.691052,-40.027111,-48.172299,-12.589983,4.006984,16.035841,23.128926,4.019767,21.691746,31.308632,36.254964,18.639609,34.668163,37.845901,39.00156,33.057157,41.08224,40.386313,38.909737,128.734818,163.450593,-114.060516,160.15417
41,2.301521,-23.34567,-7.959194,-19.969033,-25.187302,-46.22715,-62.074127,-72.808914,-70.617599,-105.301208,-111.06411,-108.067818,-68.413811,-104.838867,-105.637894,-99.184456,-61.513252,-94.408722,-94.145622,-87.040787,-52.807274,-78.821754,-79.857445,-73.549347,-8.856429,-7.251166,-0.990477,-0.956699,-2.279825,9.617874,13.65493,13.848888,9.291523,22.357354,26.036629,24.918329,20.23808,32.129974,32.324303,29.938884,29.681447,39.126975,37.944517,34.60808,21.491489,45.174122,59.832916,68.585186,82.093277,116.830788,119.96767,111.794529,81.435184,114.519768,113.661003,103.861713,73.863945,103.494587,99.739838,89.759045,61.821728,85.787487,85.380192,79.020252,-24.706772,-35.609023,-42.946609,-54.863821,-22.690436,-13.844566,-8.815304,-6.259639,-3.094128,3.385158,2.107912,0.092564,14.76088,21.518598,15.831632,12.101352,31.902609,37.274648,29.677186,22.538345,130.105276,143.495715,-122.950773,143.575929
42,30.268478,-40.443988,-10.250988,-15.426982,-19.966965,-46.848564,-69.801979,-83.742828,-70.664291,-108.672867,-126.012383,-136.40522,-68.177376,-108.246231,-126.110802,-134.296646,-61.644974,-98.696938,-115.965042,-124.22802,-52.666283,-82.340355,-96.133575,-103.901939,-24.185691,-37.305709,-41.990404,-50.561917,-17.760993,-9.756905,-3.747169,0.985876,-0.288035,8.074391,11.166234,13.539828,16.226187,23.683197,24.852194,25.269257,31.090653,39.762819,41.691408,40.989676,20.489044,47.392044,65.595474,77.022572,67.81414,108.407364,119.917831,120.564995,69.164944,108.822041,116.631889,113.348408,66.766205,104.009628,106.873169,103.259926,61.332951,89.649124,94.079819,92.831497,-27.306711,-39.277924,-45.421967,-56.576932,-32.487756,-31.504751,-26.935406,-21.314637,-13.791584,-16.143132,-16.655753,-15.226972,3.791599,4.443374,-0.657395,-3.380218,22.034523,24.363378,16.613207,10.319852,159.369993,105.223073,-134.205523,130.320292
43,7.322502,-9.339132,-11.853905,-16.594497,-18.96389,-43.973465,-64.241295,-78.264656,-66.363602,-100.654907,-118.621101,-131.363869,-67.61261,-103.431358,-123.048019,-138.611526,-64.808235,-96.516266,-114.00856,-127.37812,-58.545113,-83.24501,-96.389236,-106.432457,-28.053305,-42.394344,-50.358171,-61.332917,-24.295885,-24.446463,-25.282842,-27.557881,-9.234064,-10.258102,-11.587866,-14.084559,5.353699,5.741924,4.084481,0.991187,19.998674,23.211115,23.083076,20.793154,20.102921,43.865089,58.687935,69.349594,63.250809,98.48259,116.095047,130.300426,65.235443,100.769463,119.675674,132.680283,63.9921,97.477856,114.603481,126.436672,59.625607,86.47831,98.746262,107.521019,-23.207256,-40.137027,-51.018684,-66.343531,-31.020011,-33.753887,-34.498813,-34.596286,-15.540201,-20.343056,-23.067268,-24.177231,-0.148016,-2.255063,-6.576635,-9.958859,16.371207,16.808339,12.776839,9.066813,166.577024,99.199768,-146.174898,117.041623
44,1.112595,-17.587968,-5.861435,-16.672179,-19.220009,-41.203079,-59.686546,-71.875305,-63.752174,-95.146866,-113.174744,-127.872963,-65.279045,-97.912674,-118.659782,-136.249809,-63.407364,-91.657677,-110.954704,-127.044525,-57.70546,-80.911674,-94.242096,-105.620613,-28.012241,-43.65643,-52.498471,-64.284803,-27.023956,-27.347745,-29.377048,-31.89347,-11.87303,-13.47005,-15.295484,-18.271515,3.014161,1.960051,0.105809,-3.276168,19.005295,20.881705,20.116432,17.362147,16.769314,37.797489,54.65538,64.706783,63.247147,92.734852,110.228806,126.180897,65.888844,98.559036,119.133511,136.942577,65.158482,95.702991,114.927063,129.714775,61.036835,86.563282,100.572166,112.24577,-28.032464,-46.050462,-58.708031,-76.282476,-33.167103,-38.271485,-39.066182,-39.395775,-16.699318,-21.431561,-23.633982,-26.23917,-0.420366,-3.429433,-6.673182,-10.389846,16.525861,14.329615,10.607548,6.828978,168.019667,85.568318,-151.706285,104.325963
45,-2.894669,-13.838391,0.00246,-10.977062,-16.528473,-39.187775,-59.443703,-72.571678,-64.723091,-94.617691,-111.895981,-125.847015,-65.477371,-96.656113,-117.191162,-133.869553,-62.304611,-91.653442,-110.635529,-126.387062,-54.712029,-78.341446,-92.958412,-107.029724,-26.534368,-42.23969,-51.96291,-63.742388,-24.369677,-25.169993,-27.087034,-29.759685,-8.776463,-10.118608,-13.742739,-16.995936,5.968085,5.473989,1.143926,-3.517983,20.847557,22.729339,21.483987,18.720471,14.269924,33.044987,49.868317,57.349777,58.724327,90.898819,109.475327,124.937611,61.51823,96.815987,119.539146,137.398281,60.178986,93.047962,114.453163,130.477924,55.594311,82.908897,99.170837,112.874794,-27.51657,-48.168718,-64.137806,-83.208495,-31.507839,-36.330701,-36.609535,-35.627641,-14.272805,-20.454546,-22.376806,-23.504986,2.541894,-3.705148,-5.991365,-7.897909,19.383238,14.211826,11.470355,8.101006,165.452499,74.326238,-151.376324,95.945212
46,-2.701607,-2.351178,1.013889,-2.35479,-15.300522,-37.332916,-57.594566,-68.608818,-61.766396,-94.251366,-112.841949,-128.322487,-62.767181,-96.099815,-118.060913,-135.88028,-59.476776,-91.18309,-110.993614,-127.188606,-52.394028,-77.412529,-92.325668,-106.253929,-25.103488,-40.664715,-50.847852,-64.330715,-23.958357,-23.258478,-25.11556,-26.990426,-9.161754,-10.150317,-13.892052,-16.582116,5.704071,4.806189,1.006223,-1.88981,20.731589,21.866438,20.293748,18.402765,14.939117,34.261608,49.965878,57.157917,59.309807,90.712681,109.514637,125.255642,61.505871,96.480217,119.020557,136.872139,59.944096,93.451824,114.915848,131.340122,55.090771,83.81012,99.962311,113.453808,-26.367951,-46.947943,-62.883995,-80.684756,-29.491101,-33.488823,-34.821397,-35.058395,-12.044356,-19.451133,-21.876843,-23.175949,4.880722,-1.920222,-4.928856,-6.84528,21.771497,17.147626,13.680742,10.913922,162.799444,72.683477,-150.313883,94.298838
47,-3.379784,1.572474,1.81406,5.144859,-14.872513,-36.761742,-56.555328,-67.523003,-62.432213,-93.391571,-111.414871,-126.394157,-63.832626,-96.668015,-117.755928,-134.942322,-60.7584,-91.492081,-110.986519,-127.171898,-53.604813,-78.341103,-93.056259,-106.652641,-23.652507,-39.602978,-49.795841,-61.717993,-21.318002,-20.258056,-21.292098,-22.067312,-6.279029,-6.295763,-8.926269,-11.062061,8.497258,8.787516,6.185384,3.627219,22.675338,24.494536,23.522893,21.368668,14.843445,34.249535,49.600239,55.922356,60.672512,90.649624,108.855801,123.960171,63.175735,97.079487,118.944511,136.344109,61.616077,94.451981,114.288712,129.524803,56.374054,83.711128,98.919411,111.756077,-27.596599,-48.55367,-65.01636,-82.841728,-29.781359,-32.26669,-31.703989,-30.371662,-12.163473,-17.698316,-19.069639,-19.593437,4.675896,-0.744494,-3.439405,-5.122042,21.068747,17.576823,14.884227,13.111341,159.271889,74.112227,-148.647594,99.299973
48,-1.002045,5.738404,0.513439,7.386399,-18.010368,-40.090828,-58.548088,-69.858398,-63.733177,-93.978996,-111.975975,-127.715263,-63.857918,-95.543976,-116.722069,-135.632515,-59.700508,-89.856033,-109.587479,-127.000237,-51.141014,-75.506516,-90.760803,-105.488892,-23.166562,-38.009447,-47.580483,-59.284533,-18.260214,-17.169054,-17.841763,-18.551707,-3.68511,-3.191632,-4.957508,-6.661233,10.874001,11.415027,10.069207,8.443535,24.953341,28.021256,28.212034,26.752594,15.153694,35.516624,51.042194,57.669067,61.596107,91.700993,109.374104,124.798622,63.318272,96.499157,117.981949,135.731964,60.625534,92.628536,113.490829,130.203838,54.226227,80.985432,97.249603,110.832424,-27.347034,-47.647513,-63.954222,-80.6013,-26.783685,-29.307456,-29.979763,-29.647947,-10.177641,-14.413812,-16.436138,-17.043762,5.687398,2.464953,0.419841,-1.049541,21.160786,20.037607,18.020777,16.127232,158.132286,79.71884,-148.271713,106.554581
49,-4.239006,12.426005,0.618439,10.554041,-16.254616,-39.555931,-58.235435,-69.185715,-66.423798,-93.711548,-110.448189,-125.377693,-67.099342,-96.066971,-116.086578,-133.873215,-62.894669,-90.292511,-108.973389,-125.057716,-54.176903,-75.382347,-89.781418,-103.353882,-25.036828,-39.800024,-48.604027,-60.201526,-16.344037,-14.447126,-13.789207,-13.580892,-1.142166,1.064978,0.421477,-0.393813,13.183157,15.370172,14.74782,13.733323,26.310338,30.542587,31.165309,30.864338,17.601299,38.705921,52.745247,57.987328,64.913464,92.889862,110.178566,125.655212,64.324265,95.776978,116.393795,134.348946,59.988785,90.017281,110.749512,128.784027,52.501431,77.370472,93.737869,109.01413,-27.240144,-46.374992,-62.183252,-78.872227,-21.774585,-23.393217,-23.213832,-21.558551,-6.787204,-8.488428,-8.906231,-8.244267,7.562882,7.83588,7.480044,6.751512,21.402353,23.69107,24.0336,23.310811,154.051952,92.166272,-147.494602,117.130049
50,-0.290565,17.661884,1.499062,17.447795,-20.342102,-44.145927,-61.781387,-73.822861,-67.684708,-94.927826,-113.927994,-130.542526,-65.739098,-94.6558,-115.880356,-133.505974,-59.808311,-87.784081,-107.261009,-123.85643,-49.751816,-71.420403,-87.044106,-102.246437,-25.263452,-39.727869,-49.899798,-61.501033,-16.389516,-11.536428,-9.200503,-8.076769,-2.256669,2.768765,5.786322,7.076165,11.249875,16.062239,19.186162,20.374518,22.875409,28.914816,32.522213,34.754676,19.077072,39.893589,53.444939,59.958515,64.345036,91.64669,108.209152,123.004417,62.754879,94.765205,115.365772,133.049812,58.006496,87.233047,107.699547,124.896698,50.932102,74.246922,91.095142,106.931419,-28.523565,-48.427174,-64.813016,-80.54486,-20.728378,-21.59909,-19.509116,-16.636425,-6.348097,-5.212723,-3.897223,-2.038505,6.327132,10.152262,11.391778,11.947099,17.964924,23.54111,25.996059,26.923056,153.859491,109.51329,-145.897436,134.262979
51,-0.895844,18.680766,2.883511,17.657345,-22.463264,-47.059021,-64.935951,-77.487144,-65.170555,-93.479576,-115.082016,-133.769531,-60.679779,-88.361435,-110.773087,-128.415756,-52.006073,-78.043213,-98.352699,-114.39743,-40.511169,-57.994308,-72.999344,-87.440987,-22.657646,-34.292289,-43.384728,-52.906549,-14.250019,-5.736397,-0.602283,3.435947,-1.498312,7.716239,13.404008,19.404604,7.944407,16.977936,24.367114,31.550601,13.053574,22.897701,30.39945,36.947155,20.620537,39.337292,51.920986,61.608639,63.28434,91.75478,109.895039,125.989037,58.321323,91.459122,112.573013,131.33194,51.056099,79.212456,100.153885,118.097019,42.707291,62.238293,77.54694,92.127285,-28.591676,-45.130968,-59.466851,-72.137881,-19.712183,-16.819886,-11.501199,-7.065544,-7.76036,-1.676832,5.15443,9.81214,2.570176,9.484369,15.369678,18.251446,10.1882,16.228749,19.989349,21.204474,152.972116,125.122915,-143.005457,148.849183
52,-2.155037,39.116694,-4.353275,33.747465,-21.27285,-46.704254,-65.927925,-77.832413,-77.66201,-116.370277,-126.577263,-123.994102,-73.287735,-114.62986,-124.459991,-120.987167,-65.450249,-104.156685,-110.844269,-106.612473,-55.086479,-87.838898,-96.008148,-94.47052,-23.678381,-36.095493,-44.225769,-54.751744,-5.956198,4.993015,8.408862,8.218856,13.58577,24.441554,22.925458,20.324407,30.145131,39.909353,34.679464,29.357072,43.328226,54.398902,49.846785,42.83342,21.573801,43.534326,58.95441,67.367362,71.789388,109.650278,120.514268,124.826259,67.511615,108.632526,118.729362,122.298374,59.469423,95.460948,104.51972,107.369813,49.438562,78.239336,86.196699,88.744211,-27.41496,-43.517924,-57.211402,-69.8349,-18.915155,-8.463512,-1.053802,2.339229,-2.660301,8.936705,15.478759,18.08756,12.236245,21.924761,25.26691,25.801113,24.642088,30.554598,30.448233,29.393042,151.330891,160.654611,-146.844921,179.01165
53,10.202522,17.404354,-4.353276,33.747464,-30.477905,-57.126961,-76.27224,-89.1362,-81.285667,-110.296783,-125.458145,-135.896187,-75.729103,-105.942192,-122.464027,-131.709824,-65.402985,-93.637848,-109.378624,-119.132652,-51.388435,-73.570061,-87.996025,-100.61451,-20.033254,-30.622215,-39.210894,-46.320898,0.922242,12.311921,20.44056,27.030378,16.16138,28.881409,37.010295,40.937189,29.235424,42.199552,49.691359,53.265782,40.142029,52.076778,59.257301,63.9252,22.527065,47.731361,65.987835,73.126087,80.294437,127.545776,131.133499,123.663483,76.701908,125.805931,124.885712,113.264809,67.882748,111.709442,108.885555,96.642609,56.169834,94.240379,94.846458,85.361137,-26.238244,-41.904879,-54.955952,-67.531918,-18.118127,-0.107137,9.393596,11.744002,2.439759,19.550242,25.803089,26.36298,21.902315,34.365154,35.164143,33.35078,39.095977,44.880446,40.907116,37.581609,163.162022,172.413017,-149.569588,207.113167
54,1.348915,23.571553,-8.053207,16.268208,-31.52504,-59.474831,-78.812714,-93.166466,-74.869652,-99.062233,-116.080284,-130.937805,-69.418259,-95.50415,-113.575058,-130.476379,-60.374565,-86.146774,-101.918678,-117.198601,-48.217278,-68.682404,-82.141685,-96.435013,-22.027236,-30.788261,-36.99214,-44.597197,-0.989921,9.868704,18.908347,27.726676,14.692276,25.940669,33.986006,41.015735,27.676102,38.241536,46.473916,53.386627,36.763911,48.912501,56.963088,63.577236,27.473202,54.929752,74.663944,85.526104,81.61108,120.37096,134.51128,141.495438,76.587811,118.446465,135.698891,142.483921,68.155632,106.01635,122.480507,128.402767,58.283672,88.592892,101.373425,106.920891,-22.791521,-38.020593,-51.774262,-64.531095,-8.659816,3.434002,11.934379,17.339145,10.382097,22.17093,27.479613,30.224974,25.930851,36.710188,38.975625,39.020271,38.326258,47.029114,46.959768,45.597677,166.276875,192.469087,-155.856857,219.865893
55,-3.447762,13.302459,-3.111076,9.95182,-26.101799,-52.471848,-71.146317,-84.757347,-71.050529,-95.271835,-111.082764,-125.580711,-66.65966,-92.990799,-110.851593,-126.849289,-58.601646,-83.316536,-100.167274,-114.637871,-47.334709,-66.201096,-79.735222,-93.530502,-20.024485,-29.57079,-33.816687,-40.300295,3.631912,13.779234,21.557933,29.114887,19.322815,29.852681,36.845853,43.945175,32.324673,43.245975,49.636216,55.268039,41.744143,51.723689,58.282138,64.567651,29.056377,54.83448,74.653759,83.910198,76.755123,109.57243,125.406132,136.919632,73.106747,109.044056,128.062134,141.213169,66.947021,99.28442,117.638111,129.028416,58.941135,85.214024,98.883762,108.544521,-21.227507,-35.756761,-48.340878,-62.291654,-3.19756,3.619871,9.666471,14.658004,14.349375,21.936155,27.230326,30.9519,28.670037,36.74378,40.030631,41.860543,39.440914,47.859225,49.627571,50.179805,163.983536,203.079058,-157.813511,227.125225
56,-4.85527,7.065482,1.82436,-1.520048,-21.999321,-47.051926,-67.304306,-81.273308,-67.261848,-93.797264,-109.264526,-123.382416,-63.025017,-90.895844,-109.706612,-126.973343,-54.718437,-80.461349,-97.697067,-113.331871,-42.775612,-62.834473,-76.500206,-90.038223,-17.621221,-27.575264,-32.825531,-40.336913,3.656489,13.260283,18.744708,23.661585,19.561296,28.60699,33.23401,37.775074,32.887899,42.210112,46.690536,50.370861,43.927514,53.820239,58.363649,61.567075,26.722183,50.889988,69.537678,79.59486,70.883217,102.492256,120.320892,133.485832,67.439117,103.59993,124.835415,140.270519,61.551247,95.514221,115.256538,128.860073,53.70369,80.533848,95.976734,108.23822,-19.633605,-32.477135,-41.661768,-56.063508,-1.487567,6.396169,12.141057,16.863235,16.669585,23.384387,28.469101,32.739698,31.247931,38.463591,42.095256,44.932934,42.668855,50.477627,53.068613,55.336767,159.906864,208.882563,-155.210552,224.343199
57,-2.33448,0.992144,1.196194,0.070642,-21.645126,-46.601486,-67.210121,-81.859245,-67.810478,-94.294395,-110.767365,-125.163803,-62.94342,-90.455246,-109.593658,-126.183701,-54.16111,-80.187607,-97.74353,-113.15609,-41.642532,-62.197151,-76.347656,-90.033188,-18.452814,-28.135587,-32.471639,-41.496647,3.533544,13.479683,18.520678,23.406247,18.933047,27.341724,31.303939,35.975173,31.587867,40.689137,43.867122,47.858175,42.173494,51.792355,55.913763,60.174665,25.268669,49.837303,69.713116,80.528526,66.213055,100.340538,118.683186,133.04924,62.991314,100.613136,122.722549,139.454269,57.404881,92.883053,113.608818,128.036385,50.199738,79.153461,94.742947,106.810513,-20.032451,-33.381779,-44.025388,-60.500769,-4.948863,2.582464,9.049893,14.696166,13.526489,19.816325,26.05923,31.410088,28.128918,33.528498,37.551661,40.80214,39.887246,45.610398,47.743134,49.801213,157.877884,209.149078,-153.708858,223.688212
58,-1.685829,0.800779,3.54372,-3.803517,-21.097298,-45.138931,-66.059875,-80.505753,-65.785904,-93.592758,-110.036201,-124.26075,-61.843529,-91.349602,-111.426888,-128.066025,-54.029617,-81.845055,-100.272331,-115.290871,-42.700195,-64.566994,-78.980713,-92.462196,-19.873382,-31.532107,-36.839308,-46.116998,-0.142088,8.842474,13.228791,17.369588,16.312853,23.892593,27.223101,31.452387,30.13982,37.945752,40.371184,43.725467,41.5726,50.059886,53.354455,56.914984,23.522987,47.26759,66.249561,76.447392,64.944019,98.820934,117.30526,131.339493,61.007538,98.572826,121.171074,137.921162,54.767475,89.775181,110.793056,125.434742,47.133923,75.629253,91.126041,103.13118,-20.799083,-33.407714,-43.520764,-59.658432,-4.266459,3.303091,9.338083,14.643431,14.868079,21.220467,26.933862,31.99048,29.622661,35.183964,38.914924,42.43476,41.024504,46.019865,47.833598,50.232293,156.374102,209.730149,-149.983091,219.664988
59,-1.645432,-0.980844,0.303783,-1.157944,-21.108398,-45.123596,-65.675468,-79.67926,-66.705437,-93.798294,-110.538139,-125.054741,-62.589226,-91.0532,-111.133919,-128.413467,-54.375687,-81.32,-99.437714,-114.898109,-42.450371,-63.744049,-78.095627,-92.079735,-19.877766,-30.846863,-35.528532,-45.176601,0.324437,10.057907,14.577914,18.719205,16.429438,24.832866,28.230004,32.044265,29.811308,38.862745,41.680602,45.174131,40.90162,50.165973,53.906257,57.469503,23.357334,46.602516,65.858974,76.7486,63.99313,97.725163,116.578388,131.162739,60.166168,97.390366,119.998055,137.234402,53.815556,89.145527,110.655613,125.981884,45.641842,74.837151,90.810642,103.367214,-20.506262,-33.528251,-43.85082,-59.539068,-4.427258,2.523986,8.742191,14.277683,14.139301,19.546722,25.546022,30.808392,28.665962,33.23753,37.549005,41.485594,40.364886,45.423171,47.949318,50.831704,154.953461,208.669647,-149.454517,218.427386
60,-0.821114,-0.361178,-0.237923,-1.715488,-20.340729,-44.997597,-65.56057,-79.665184,-67.099228,-94.008293,-111.03447,-126.064339,-62.939873,-90.922279,-110.995216,-128.593025,-54.466667,-80.929871,-98.830833,-114.400864,-41.962166,-63.131104,-77.56073,-91.741676,-19.498866,-30.008786,-34.746092,-44.467336,1.133861,10.595691,15.080315,19.465274,16.984019,25.310938,29.046591,33.222833,30.131793,39.318957,42.786737,46.809715,41.184067,50.321893,54.437866,58.378654,23.342743,46.898518,65.843868,76.123409,64.529915,97.25338,116.055908,130.68203,60.41153,96.786118,118.971462,135.822487,53.861961,88.553638,109.66198,124.825916,45.432358,74.459667,90.451298,103.131466,-20.216838,-32.343631,-42.028689,-58.163886,-2.794268,4.095287,10.493309,16.337677,16.027196,21.708481,27.695369,32.998741,30.746889,35.778374,39.925408,43.886388,42.394745,47.893558,50.457929,53.395828,154.267159,208.330946,-149.557629,216.734375
61,0.11364,0.626396,0.130291,0.830667,-20.211296,-44.377327,-65.494652,-80.101433,-64.969139,-93.605919,-111.266098,-126.491661,-61.523895,-91.719246,-112.796974,-130.277252,-54.122429,-82.583427,-102.018356,-117.62352,-43.07991,-65.502777,-80.610237,-94.764061,-19.662196,-30.615854,-35.206195,-45.102933,0.259352,9.800284,14.195864,18.340119,16.613146,24.707575,27.859501,31.311843,30.35323,39.003536,41.796569,45.150049,41.830408,50.641822,54.257555,57.676429,23.119526,46.533966,65.834885,77.19017,64.332218,96.960354,115.395927,129.621849,60.057163,96.193085,117.991905,134.808655,53.201809,87.531967,108.60569,124.049721,44.571991,73.058681,88.683701,101.108837,-20.26914,-32.637686,-42.379493,-58.059899,-3.414366,3.698356,10.304909,16.288277,14.839921,20.612411,27.045754,32.520237,29.341017,34.431783,39.387624,43.755477,40.930581,46.56543,49.509196,52.467473,154.361286,208.972564,-149.44685,217.580263
62,-0.785637,-0.257746,0.917931,-0.884081,-19.91581,-44.60907,-65.716324,-80.39257,-66.058502,-94.459076,-111.784859,-126.761398,-62.397881,-92.489548,-113.161469,-130.217972,-54.660072,-83.028946,-102.238083,-117.730408,-43.169174,-65.573502,-80.534592,-94.491119,-19.538139,-30.221887,-34.545897,-44.026685,0.90452,10.009186,14.379448,18.604349,17.01193,24.932285,28.204995,31.96226,30.570406,39.020641,41.722036,45.151531,41.95218,50.488619,53.966402,57.488646,23.099899,46.138344,65.032196,75.949116,63.886642,95.880489,114.001179,128.085995,59.453201,95.265198,116.988716,133.752308,52.368736,86.379089,107.459564,123.081379,43.359375,71.976528,88.081455,100.961838,-20.164659,-32.281448,-41.585444,-56.81359,-2.375662,5.086999,11.242712,16.77382,15.938769,22.277079,28.519428,33.583332,30.366383,36.233968,40.992455,44.983693,41.878265,48.289316,51.603708,54.712841,153.605089,208.779826,-148.499479,216.76119
63,-0.900993,-0.167344,0.210285,0.882599,-19.931259,-44.535484,-65.610352,-80.165062,-66.745605,-95.000496,-112.071304,-126.898155,-63.186264,-93.104782,-113.421364,-130.296021,-55.610046,-83.929253,-102.820702,-118.098106,-44.290009,-66.479416,-81.229134,-95.072479,-19.668926,-30.309572,-34.587332,-44.324507,0.917735,10.060933,14.543642,18.845485,16.946783,24.905732,28.18085,31.986096,30.402074,38.749742,41.310223,44.643325,41.771498,50.295031,53.729898,57.406456,22.752743,45.792332,64.753819,75.864773,63.663197,96.176891,114.587746,128.713989,59.153652,95.226803,116.994381,133.436508,52.121143,86.468983,107.464256,122.624474,43.30822,72.26429,88.320065,100.87389,-20.790005,-33.061109,-42.227587,-57.223366,-3.475869,4.402496,10.913644,16.617283,15.086861,21.910096,28.367151,33.517444,29.7193,35.771396,40.713467,44.807643,41.29954,47.527995,50.70456,53.820548,152.774534,208.678632,-148.218756,217.709939
64,-0.291481,0.290289,0.548401,0.231935,-19.849091,-44.596939,-65.993729,-80.564575,-67.441521,-95.843468,-113.021736,-127.811852,-64.131203,-94.038506,-114.28196,-131.201935,-56.705818,-84.952354,-103.737602,-119.09626,-45.422745,-67.516823,-82.097168,-95.765762,-20.399249,-31.549582,-35.936764,-45.48523,-0.093428,9.08046,13.616954,18.079594,15.88554,23.931372,27.147642,31.054776,29.264261,37.554686,39.996236,43.28142,40.609356,49.086082,52.485442,56.175832,22.828274,45.7271,64.807777,76.173077,63.566608,96.007576,113.89658,127.65152,59.188614,95.236301,116.83754,133.143024,52.159081,86.478081,107.439709,122.58831,43.213921,71.914787,87.933254,100.599346,-20.916717,-33.272295,-42.306628,-57.154576,-3.537805,5.036487,11.393198,16.633091,15.011031,22.1085,28.149172,32.798855,29.779815,36.206922,40.912674,44.759601,41.515172,48.148896,51.508118,54.705678,152.682467,208.926961,-147.470942,217.899914
65,0.381203,-1.585257,0.327702,0.100406,-21.126251,-46.454887,-67.647743,-82.614555,-68.565559,-96.135063,-113.249359,-128.86322,-64.650307,-93.032341,-113.17234,-131.133041,-56.68396,-83.929482,-102.760162,-119.17717,-44.575424,-66.424599,-81.189308,-95.665855,-19.789772,-30.029719,-33.942102,-43.123585,1.066183,10.528445,15.058517,19.662628,16.57344,25.007373,28.556787,32.770017,29.579991,38.015159,40.685556,44.065958,40.892481,49.774105,53.628998,57.408617,22.772427,45.369759,64.280663,75.526714,63.604832,96.010666,114.059029,127.828445,59.334354,95.44384,117.09137,133.306274,52.284679,86.736546,107.648106,122.673168,43.255634,71.925259,87.948189,100.748005,-21.015394,-33.352386,-42.444825,-57.268999,-3.074615,5.090766,11.57036,17.061515,15.49818,22.021185,28.017767,32.75458,30.292961,36.349874,40.955405,44.9162,42.097726,48.710083,52.028057,55.403334,153.166237,207.391121,-147.040672,218.049736
66,-2.068977,0.49777,0.302811,0.053229,-20.569267,-45.634346,-66.7313,-81.563187,-67.623024,-95.060806,-112.120628,-127.486496,-64.031525,-92.455788,-112.282333,-129.827042,-56.182137,-82.992897,-101.139565,-117.04628,-44.305229,-65.431824,-79.635315,-93.422928,-19.774026,-30.563058,-34.620615,-43.740163,0.60855,9.858206,14.4864,18.989301,16.726458,24.475208,27.898774,32.117192,30.106846,38.293777,40.980784,44.61282,41.508874,50.192155,53.779607,57.444988,22.226028,45.027523,64.044113,75.367527,63.373718,96.282463,114.658527,128.920956,59.003849,95.033569,116.882458,133.337345,52.208576,86.39185,107.60519,122.795792,43.750305,72.559662,88.545742,100.886936,-21.331556,-33.617295,-42.687936,-57.267332,-3.471423,4.477893,10.993611,16.619938,15.271247,21.958941,28.383453,33.499599,30.011565,35.63289,40.543777,44.722427,41.607428,47.241165,50.337516,53.625725,151.266804,207.901519,-146.568317,218.115593
67,-1.529846,0.364389,0.253487,-0.091082,-20.294838,-44.732666,-65.861549,-80.555649,-65.592613,-94.370499,-111.84906,-126.802711,-61.74202,-91.95179,-112.711716,-129.884949,-54.005928,-82.248688,-101.372566,-117.017441,-42.699738,-64.993629,-79.606819,-93.303909,-19.60909,-30.063003,-34.07678,-43.703237,0.863888,11.190101,16.393623,21.325134,17.266403,26.712487,30.519153,34.465807,30.897745,40.646159,43.98488,47.908007,42.096553,51.277172,55.036722,58.696978,22.028732,44.617825,63.672752,75.031414,62.83247,96.039391,114.731369,129.179935,58.437252,94.763031,116.815052,133.505459,51.58802,86.091499,107.542534,123.017063,43.121681,72.459984,88.735085,101.354599,-21.386514,-33.729248,-42.654159,-57.096901,-3.759983,4.019149,10.567039,16.483037,15.076116,21.562565,27.881423,33.010967,29.810382,35.2099,40.049588,44.239909,41.42372,46.806998,49.773673,52.975308,149.914484,208.307914,-146.137304,218.066516
68,-1.246262,1.579884,0.633202,0.332464,-20.674553,-45.113754,-66.424141,-81.137123,-65.371056,-94.035187,-111.32515,-125.768738,-61.283913,-91.827049,-112.506523,-129.200821,-53.54599,-81.873322,-101.344986,-116.9133,-42.545242,-65.454941,-80.397377,-94.141502,-19.574448,-29.827672,-33.538501,-42.395178,2.106245,12.166684,17.777141,23.069954,18.537103,27.73316,32.044512,36.046679,32.042412,41.88444,45.656093,49.434169,42.783958,52.409983,56.650631,60.515898,22.243252,44.647579,63.383389,74.539719,62.167683,95.536366,114.213753,128.691101,57.574368,94.161072,116.286793,133.073959,50.690918,85.580406,107.464714,123.304653,42.185898,71.990204,88.467121,101.248226,-21.30204,-33.744192,-42.96007,-57.417324,-4.549462,3.382008,9.616268,15.185538,14.101077,20.865032,26.972765,31.882726,28.878877,34.501746,39.288576,43.27932,40.777749,46.194001,49.100099,52.170824,148.698521,209.878952,-145.473804,218.390135
69,-2.968025,2.164969,0.689106,-0.324128,-20.414772,-44.638023,-65.554161,-81.491432,-65.881577,-93.558884,-110.07328,-124.144363,-61.519203,-91.330376,-111.068001,-127.60025,-53.046112,-80.512505,-99.141541,-114.77005,-40.870628,-62.76638,-77.417336,-91.536484,-19.355605,-29.360962,-31.816282,-37.856584,3.242391,13.639802,19.575869,25.172988,19.113235,28.870664,33.66052,38.500641,32.168507,42.422657,46.827746,51.259881,42.860899,52.792341,57.343285,61.212134,22.224083,44.241199,62.668934,73.826466,60.863972,94.179039,113.176289,127.972813,56.288967,93.187695,115.786743,132.777271,49.599724,84.741955,106.7589,122.56073,41.540108,71.766701,88.664474,101.662502,-21.732378,-34.012374,-42.897332,-56.415609,-4.740394,3.584797,9.655727,15.119156,14.164248,21.320812,27.350122,32.221056,29.022385,35.125425,39.412509,43.038123,40.830546,46.550116,49.350312,52.312232,145.801277,211.952577,-144.713917,217.974663
70,-1.465988,1.694123,0.601444,0.22823,-21.092377,-45.727844,-66.667442,-83.264008,-64.964104,-92.564278,-109.186821,-123.627319,-60.386925,-89.760818,-109.667358,-127.186089,-51.701431,-78.83297,-97.7211,-114.340668,-39.286652,-61.022301,-75.585938,-90.086288,-18.575018,-27.355,-27.941753,-31.286155,5.699872,17.173284,24.060245,30.593501,21.137598,32.678936,39.115798,45.830168,33.571352,45.267992,51.330153,57.314386,43.624628,54.44435,59.831641,64.386722,22.197876,44.296703,62.988396,74.317932,59.453773,93.344994,112.343044,127.196617,55.062733,92.461452,115.386086,132.569275,48.60466,84.24963,106.65184,122.667561,40.911942,71.438427,88.409042,101.711483,-21.377993,-33.693804,-43.033677,-57.01255,-5.603047,2.719118,8.853712,14.456759,13.523525,20.179108,26.025823,30.859336,28.615511,34.186201,38.231965,41.669425,40.735265,45.790215,47.866882,50.045807,144.430618,213.595323,-144.017143,218.151516
71,-4.182587,1.359621,0.176754,0.354818,-22.281075,-47.674599,-68.939095,-84.719353,-62.122192,-89.828453,-106.034775,-120.076332,-56.843605,-86.32473,-106.006851,-122.824516,-48.432999,-75.993576,-95.088844,-111.317368,-37.178764,-59.182549,-73.322639,-87.068024,-16.493165,-21.718608,-18.577303,-20.978035,10.452863,24.161454,32.936373,41.178447,26.071271,40.289303,48.765597,57.107707,38.201213,51.815697,59.904013,67.382852,47.548126,59.266872,65.733746,71.376437,21.65554,43.845406,63.754807,77.220325,57.378674,92.432499,111.884937,127.118168,53.025227,91.48613,114.693832,132.01086,46.986809,83.564987,106.248665,122.656517,39.954414,70.818272,87.766171,101.140995,-20.795933,-32.890925,-41.964962,-55.00912,-6.04166,1.839792,7.149648,11.637297,13.178341,19.58581,24.329662,28.090201,28.216913,33.967049,37.407659,39.854148,40.17593,45.636518,47.20856,48.54663,140.292463,215.000346,-143.795958,218.551736
72,-4.97097,4.335435,1.277332,-0.167652,-24.139481,-49.45816,-70.845909,-88.051643,-59.238396,-86.612892,-103.122253,-117.655334,-52.576675,-82.260933,-102.504616,-119.65313,-44.12796,-71.635094,-91.463585,-107.723122,-34.278717,-55.88562,-69.754715,-83.305893,-15.27205,-17.042373,-8.415099,-6.284216,12.079986,29.498666,40.311904,49.741562,28.761489,46.92278,57.778934,67.196243,41.241495,58.320115,68.958044,77.429336,50.238283,64.542519,72.350735,79.01453,23.555717,47.224731,68.681316,84.503345,54.856167,90.02718,109.64962,124.837074,49.910259,89.631214,112.845211,129.916878,44.256935,81.891003,104.686089,120.578957,38.259315,69.622765,86.885033,100.234222,-20.764441,-32.08465,-39.344275,-49.361489,-6.125332,2.575548,7.814947,12.461851,13.091828,20.463963,25.162428,29.098091,28.345539,35.208356,38.410547,40.783554,40.171978,46.596058,48.248561,49.446889,135.372305,219.614661,-142.467813,218.662964
73,-5.425529,6.499601,1.554279,1.059946,-27.814178,-53.422966,-73.954468,-91.744881,-60.237465,-85.786629,-101.512184,-115.910339,-51.663094,-79.872208,-99.653206,-116.701469,-41.940308,-68.306351,-87.815437,-103.902168,-31.209869,-52.926865,-66.763687,-80.684166,-13.406632,-11.890227,-0.065023,5.976822,13.59954,33.644465,46.483302,57.459808,30.600602,51.497991,64.473358,74.871881,43.381332,63.472693,76.561742,86.085076,52.024846,68.428472,78.085001,85.978557,25.563297,49.62553,72.053547,90.143623,54.423466,88.175068,106.34594,119.912968,48.836746,87.78368,110.166836,126.304722,43.066692,79.924793,102.078667,117.746716,36.639576,67.20726,84.661446,98.742657,-19.510537,-28.724377,-32.602303,-40.662399,-4.710507,5.126828,10.424828,15.352696,14.050627,22.395269,26.716872,30.14581,29.444634,38.285564,41.44206,43.567077,41.463364,49.617444,51.719119,52.778633,129.7435,226.26853,-141.11681,219.877177
74,-6.175117,7.316992,4.431152,1.802309,-29.500809,-54.876823,-74.67144,-92.291336,-61.250038,-85.422592,-100.507278,-113.660545,-51.71196,-78.657074,-97.827072,-113.152657,-41.093674,-66.557579,-85.187073,-100.101585,-29.601746,-51.056671,-64.055328,-76.888275,-12.215219,-8.652529,5.294789,13.833636,15.28403,37.375672,51.947658,64.723818,32.588039,55.016344,69.293904,81.128185,45.207291,66.404726,80.949603,91.993479,53.654501,70.209477,80.311042,88.839762,27.334785,52.399006,75.471268,95.161457,52.71349,86.911182,105.517616,119.061813,45.507832,85.214252,108.536053,125.005531,38.973026,76.28952,98.270245,114.451447,32.372189,63.056259,80.588036,95.563774,-17.744351,-25.424497,-26.978014,-33.013685,-4.355998,7.733251,13.97276,19.47009,14.621757,25.785552,31.498885,35.903666,30.837662,42.100752,46.377276,49.057738,43.422828,54.286887,57.063556,57.916576,123.512907,233.67787,-136.741133,221.771834
75,-6.537781,6.444643,4.89893,4.039341,-30.172462,-56.495476,-77.072639,-95.476685,-62.837906,-87.4189,-103.652687,-118.474331,-53.088341,-80.098114,-99.695778,-115.219688,-41.965485,-67.463951,-86.408272,-101.764984,-29.869194,-51.803169,-65.21347,-78.753433,-11.764318,-7.289821,6.436678,16.252153,16.78864,38.420612,52.398497,64.686459,33.581294,55.77291,69.281369,80.988321,45.670913,67.105531,80.97523,91.74728,53.644559,71.488205,81.889444,90.639416,28.210258,54.553928,77.57103,97.568092,53.475494,86.975555,105.778427,119.318848,44.823704,83.470745,106.391201,122.112236,36.671047,73.229485,95.014286,111.268272,28.634262,58.523483,76.11517,91.723137,-15.7571,-21.606222,-21.362432,-25.846993,-1.97768,10.889994,17.925651,24.808846,15.958282,29.105439,36.599037,42.66126,31.723965,45.024942,51.073828,55.227407,44.40503,56.924123,61.036268,62.957509,116.80275,240.07708,-132.01458,225.765743
76,-7.258759,5.308683,4.995174,6.950379,-30.28038,-57.109909,-78.133049,-96.143417,-63.133049,-89.268494,-105.339203,-119.54361,-54.076424,-81.98822,-101.042747,-116.162224,-43.428268,-69.533272,-87.833519,-103.153496,-31.236305,-53.358879,-66.396332,-79.733391,-10.735494,-5.917048,7.654211,17.635732,18.884079,39.835376,52.903739,63.623117,34.564299,56.182254,70.099068,82.030112,46.068092,67.340739,81.632069,92.569055,53.573793,70.675137,81.515793,90.787926,28.948059,56.297836,79.246674,99.670086,53.864422,85.049343,104.181976,119.751492,45.264816,81.078014,104.150963,121.320477,37.180023,70.534286,92.298775,109.807777,29.262085,57.075062,73.790016,89.117432,-15.16905,-19.186841,-18.26077,-22.962138,0.368959,12.743865,21.762265,31.264234,18.337835,31.869326,41.404022,49.470849,33.676019,47.656868,56.08086,62.136043,45.935637,58.135666,63.137203,66.253623,109.401197,245.134068,-127.162199,232.464428
77,-9.773598,3.580906,5.156136,7.951107,-32.594604,-61.113625,-81.955376,-97.082348,-64.339371,-87.277794,-100.515289,-110.882835,-54.101601,-82.596703,-102.846394,-118.040771,-42.946358,-70.928192,-90.8004,-106.534424,-31.228523,-55.455437,-70.25219,-84.365044,-9.211926,-3.40183,10.241615,21.256159,19.919571,45.539694,59.53913,67.776511,35.189954,59.694617,75.325499,88.385588,47.301371,70.053743,85.278677,96.990508,55.937846,72.97676,83.47149,92.965739,29.629154,57.359734,79.87175,100.748405,54.046669,84.181767,105.222301,122.534866,45.15089,80.09594,103.995152,121.916428,36.66893,69.578018,91.899605,110.025101,28.72736,56.963482,73.830013,89.21711,-14.917171,-18.30381,-16.926776,-20.687253,1.993365,14.178883,24.185352,34.492113,19.826946,34.601102,46.219689,56.309151,34.869284,50.290956,60.924377,68.797246,46.818298,59.47281,65.847922,70.328285,99.656096,248.546118,-121.977568,240.246678
78,-6.356506,3.707989,7.342758,14.006784,-34.529114,-62.299347,-82.566032,-92.184906,-66.880302,-83.441505,-86.855164,-88.896446,-60.134811,-82.002411,-97.141571,-108.652267,-50.898285,-72.424965,-88.201332,-101.637783,-40.037155,-59.343338,-72.267494,-84.512672,-10.766925,-3.39547,9.750328,19.959833,24.944141,39.743738,42.460571,41.714935,40.285722,60.974148,73.589942,81.339989,51.259943,72.163754,84.644068,92.795617,57.695633,74.514407,83.884971,90.834671,31.732922,61.467762,84.853649,102.226124,74.157143,118.214722,127.070675,124.051151,64.936867,111.675568,119.273529,112.847672,52.622051,95.197277,105.013905,102.496605,40.172768,75.731964,88.92231,90.612545,-21.449561,-22.469184,-17.949301,-14.29485,7.275372,32.100828,40.273742,43.239738,27.154744,55.451005,61.26388,60.099206,41.795766,67.35525,71.80659,70.236401,50.970519,68.429398,70.630924,68.227474,93.481207,252.008603,-114.453192,254.007958
79,-7.938766,3.547129,-4.919243,0.583974,-39.680099,-66.225243,-81.873779,-91.983261,-61.287346,-84.391308,-100.227528,-112.512474,-55.309982,-80.492821,-100.303974,-116.232033,-48.141174,-72.194366,-90.736599,-105.273457,-39.793625,-58.275948,-73.292999,-86.833534,-6.694486,6.960136,22.146291,32.91686,33.571167,43.834827,46.584387,46.797735,42.823664,56.812726,60.330523,60.14027,48.227998,65.519657,72.276387,75.165565,49.511233,65.767462,74.13137,79.757882,34.848747,65.896912,93.053341,115.111713,70.323257,108.022842,125.070362,136.569729,61.987724,104.198341,123.674297,134.550877,52.613983,91.80582,111.377449,122.942047,41.92543,71.962166,88.190002,98.681717,-16.464265,-19.417047,-16.246904,-17.114991,8.09233,26.003469,34.362684,39.912317,28.001095,47.922827,56.704909,60.237774,43.337304,62.193595,68.242233,68.228648,54.582301,68.575438,72.272867,71.676976,85.979862,255.458151,-118.935013,254.49435
80,-6.846771,6.275262,6.454525,3.048556,-33.386078,-62.364464,-82.84029,-98.291531,-57.533913,-88.853931,-105.582619,-119.597397,-53.886681,-86.415882,-107.851067,-125.048103,-49.450264,-77.833958,-98.158607,-115.698452,-43.607712,-64.117699,-79.095325,-93.958225,-14.238842,-10.752352,-1.203207,5.202163,19.360113,18.082435,13.100165,7.678293,36.164252,38.941539,35.976469,31.549026,47.059371,57.638884,59.093477,56.467602,52.412762,68.05729,73.911785,76.163946,34.681549,64.139786,90.908031,112.811222,68.027172,103.081799,120.82283,133.329048,59.578972,99.227829,120.024948,133.930435,51.055584,86.732197,106.441097,119.333954,42.387943,69.21381,84.087696,96.088943,-13.413424,-17.031443,-13.248366,-15.594202,10.975024,27.925389,37.017952,44.187298,30.127656,48.221391,57.555521,63.898647,45.353516,63.462319,70.885706,74.632104,56.607282,73.46712,79.130374,81.85894,79.561558,261.428196,-112.052021,257.23769
81,-6.999893,-1.248038,7.91605,2.830701,-33.265686,-62.897186,-84.000607,-101.573238,-62.443314,-83.722115,-98.591881,-111.034184,-55.004768,-75.842457,-91.459293,-102.900867,-46.646233,-66.743889,-80.807934,-89.55019,-37.524147,-52.958107,-63.273582,-70.5966,-12.60647,-12.33835,-8.736325,-7.224428,23.574084,35.062254,38.404434,38.121617,37.654413,50.068654,51.267786,49.154625,46.107242,59.429955,59.177828,55.028015,49.362044,60.870654,62.515623,60.891402,33.047047,61.951561,87.906075,109.426918,65.713062,100.462646,118.179417,130.410748,56.504173,96.011124,118.247852,133.293171,47.054558,82.411366,102.667923,116.781979,37.896709,64.992085,79.727669,91.612644,-12.38244,-15.475827,-12.203178,-14.799042,13.655363,29.641495,37.917285,44.280541,32.654976,50.152388,58.768732,64.7634,46.858127,64.030608,70.830687,73.989467,56.899547,72.785211,77.015978,78.351331,72.713242,260.06626,-103.984394,259.954492
82,-5.098801,-0.889206,7.270889,3.429124,-29.66526,-58.202248,-78.084812,-94.51807,-68.057728,-80.113106,-74.609127,-64.28421,-60.432243,-71.524029,-62.846775,-49.039078,-50.619392,-60.704842,-52.218475,-38.924904,-39.786644,-47.87281,-44.339561,-36.856499,-9.707412,-8.623075,-4.613991,-6.593338,18.329807,34.182682,45.258668,52.053868,29.023496,46.557217,57.467959,63.069524,36.112505,52.527988,60.589628,64.08007,40.184142,53.311971,59.660161,63.27398,32.285442,61.100464,86.549835,105.94305,64.993286,100.111485,116.727848,128.500042,55.438099,95.027275,115.887737,130.451717,45.609341,81.625099,101.501598,115.507565,36.19194,63.46344,78.490448,90.988026,-12.935229,-16.452409,-14.915195,-19.868998,12.089249,27.03748,34.766779,40.664375,30.599676,47.019789,55.148984,60.161203,43.970925,60.053511,67.007039,70.235783,53.37897,67.201677,71.087939,72.090704,67.719212,259.094972,-96.608734,263.301534
83,-4.822311,3.475004,7.038288,1.648489,-21.581841,-46.515198,-65.393543,-79.785118,-66.734848,-69.028301,-54.697952,-38.13446,-65.310116,-67.84481,-46.862869,-25.411949,-60.686531,-60.626049,-41.771393,-23.921013,-53.397102,-54.202194,-41.673889,-29.545212,-6.49497,-7.825444,-4.051383,-0.450963,13.794795,33.106372,44.221384,49.654124,22.55829,40.959481,53.1366,60.072592,30.012923,44.265659,54.04569,59.341961,35.115175,47.37751,52.730838,55.352699,30.16531,57.900867,83.098927,102.532082,65.247803,99.066582,115.053635,126.321259,56.941566,94.715595,114.479027,128.345261,47.563362,82.519398,101.471901,114.694862,37.982426,65.117054,80.258846,93.303909,-14.854309,-19.038825,-17.739473,-23.348263,11.382886,24.529672,32.623298,39.863164,29.126496,43.323225,51.660518,57.544962,42.232589,56.368802,63.443855,67.471896,51.98477,64.708071,68.9925,70.967402,62.894211,262.628022,-89.573135,265.008068
84,-9.907494,6.212524,5.265141,1.58396,-14.587212,-32.62619,-47.154236,-58.274345,-48.237934,-49.427776,-35.621338,-21.581497,-47.945824,-48.997421,-29.855003,-10.636368,-45.009155,-45.897789,-28.552208,-12.11071,-40.411148,-43.265877,-33.554993,-23.682175,-12.773196,-17.249607,-15.199432,-11.81236,5.451079,20.959942,29.771232,33.59525,17.460114,31.924531,42.004483,47.228074,27.621206,37.46626,45.278613,49.602871,35.020264,43.848103,49.18408,51.980447,27.978115,54.859543,79.982357,99.85754,64.798164,97.907467,114.500942,126.109486,57.360077,94.190998,114.083233,128.190136,48.580055,83.283405,102.433834,116.110325,39.495106,66.693821,81.99091,95.190754,-16.675575,-21.697489,-21.601529,-27.445526,10.922722,23.838808,31.101274,37.017087,28.286443,41.779526,48.941771,53.70279,41.366416,54.480659,61.001379,64.480336,51.287793,63.479856,67.283805,68.928095,53.03195,268.957732,-84.262762,266.709215
85,-91.033859,11.74462,2.271309,2.056597,15.133896,31.829109,41.867352,43.409843,29.207783,61.452942,74.827881,79.010239,23.031635,58.384552,71.152039,78.983688,12.772465,44.55368,57.010345,62.389297,3.233128,9.938908,4.761543,-0.963993,-28.21259,-39.481237,-41.83893,-39.681865,-8.341863,10.630086,12.531505,12.404176,13.747309,34.717872,36.319061,36.868269,27.784721,44.909346,44.639373,44.407994,38.223752,49.83919,53.63826,56.040845,27.847939,54.211178,79.018307,98.553143,64.793015,97.765903,114.88203,127.230663,58.326817,94.87112,115.404911,129.994869,50.278072,84.769306,103.94331,117.407742,41.790333,68.916492,84.12077,96.77496,-17.503895,-22.997088,-23.370061,-30.040958,9.656406,21.216824,27.945519,33.351212,27.03007,38.328357,43.825502,47.281488,40.027482,51.22104,55.715668,57.353103,49.659373,60.591604,63.010553,63.065881,-37.999706,280.819585,-81.98925,268.883045
86,12.039471,4.685127,2.426319,0.58348,11.047897,21.28458,26.529408,26.923714,16.082325,47.122135,60.347042,64.461422,12.481842,46.94109,58.213062,65.120945,4.531574,34.678173,46.273098,51.246128,-3.164062,-2.870007,-10.949249,-20.08976,-28.425258,-40.274298,-42.728753,-42.278099,-5.517338,11.63705,11.455566,8.445542,14.571492,33.406479,30.688287,28.132191,26.374404,43.443391,37.985704,33.630633,35.128945,46.545114,48.638515,50.174248,27.141895,53.670673,78.315411,97.691917,64.428635,96.481705,113.453064,125.911789,57.649899,93.599968,113.773613,127.715836,49.541187,83.576546,102.208557,115.035782,41.363239,68.830147,83.865623,95.615959,-18.175678,-23.262121,-23.370925,-29.247959,9.723467,23.14177,29.973032,34.699841,28.034811,40.485917,45.752918,48.356315,41.441751,53.380885,57.274742,58.190871,50.688752,60.938456,62.504508,61.661491,-25.966187,285.612729,-79.568882,269.574542
87,-4.390297,-2.866763,3.385849,1.397412,13.19006,25.792236,34.747467,38.55978,13.996811,43.693485,63.415661,73.75288,10.119896,41.423435,62.067776,77.379856,3.285198,31.573105,51.793041,63.734608,-3.555508,-2.907772,-6.151085,-10.220604,-26.460237,-37.628602,-38.818717,-35.508833,-3.207316,11.927092,14.562291,14.11281,16.292414,35.025451,36.74872,36.53636,27.849745,45.42842,44.358655,42.185411,35.991351,48.863472,53.088249,55.112613,27.779961,54.480915,77.717056,95.246429,63.418236,95.926437,113.007431,125.570412,55.743542,92.009926,112.044182,125.862579,46.622028,79.950371,98.055496,110.750198,37.478771,62.336369,75.755882,84.879112,-17.134257,-21.843899,-21.490193,-26.430041,10.935998,25.095738,31.994679,36.22131,29.789016,43.273515,48.533601,50.466327,43.28883,56.545655,60.000714,59.676463,51.838792,63.082801,63.9478,61.378119,-30.391073,282.763426,-76.217623,270.989414
88,1.303253,1.663803,1.619453,2.346948,14.89769,28.159561,35.239849,35.479374,16.659737,48.296757,62.874813,68.53426,12.42548,45.607281,60.164967,69.418087,4.749985,35.905323,51.092777,57.780132,-2.034874,6.314793,5.394745,2.407837,-26.287583,-35.519393,-33.866952,-26.610846,-1.886475,15.243336,16.34095,15.341334,17.511491,36.862155,36.153446,35.026563,28.91037,45.716979,42.145891,38.809702,36.124423,48.810428,49.095838,47.616669,26.925201,53.345261,77.076073,95.247917,62.371387,95.106697,112.083778,124.586906,54.756546,91.754379,111.543732,125.009766,45.94059,80.296497,98.625412,111.449203,37.321587,63.578281,78.111134,88.606682,-17.769793,-21.592267,-20.237092,-23.480409,12.530208,26.278197,32.674736,36.684438,31.19001,43.013917,47.220725,48.641479,44.060586,55.684052,58.054526,57.136359,51.847622,61.411032,62.08726,60.180099,-29.114428,284.430734,-74.624777,273.339866
89,1.185837,0.92922,0.291939,2.627604,15.563965,26.785297,32.018337,31.468563,15.229912,46.190815,62.034931,68.851604,11.493816,43.334026,60.240498,70.365543,4.619923,36.718082,54.686909,62.89381,-1.796265,13.929234,20.342388,23.172798,-25.28914,-32.910685,-33.362513,-30.970487,2.209677,17.075903,18.084967,18.123314,19.405252,37.081122,37.233708,37.359123,29.600183,44.53662,42.309221,40.382423,35.955042,48.235223,47.445373,45.072861,26.366215,53.018131,76.68108,95.362816,62.293797,94.634514,112.191811,125.145149,54.793968,91.320534,111.204529,125.218277,46.209412,79.87999,98.478355,111.811523,37.792454,63.815517,78.742619,89.877434,-17.76442,-20.846136,-18.901616,-20.753017,14.435641,27.617625,33.375295,36.769345,32.520052,43.93653,47.316747,48.415905,44.559962,56.043501,57.732621,56.644456,51.632792,60.961612,61.077518,58.928603,-27.907019,285.364462,-74.311266,275.971977
90,-13.719749,2.923697,-0.595665,4.601208,17.631168,32.846661,42.713127,47.120819,27.421532,64.444599,80.46175,85.771122,23.355732,63.842411,79.28484,86.895618,17.363663,54.853992,69.322186,74.089451,11.369877,34.388466,41.576729,43.576241,-24.010351,-29.005836,-24.324475,-16.58048,1.429954,16.027443,16.840881,16.753134,18.623863,35.042865,35.727986,35.305675,29.089878,42.00263,39.514521,36.801084,36.22872,46.046418,42.809276,38.788583,26.822891,54.042149,78.528614,97.466583,63.506756,95.25856,113.217659,126.467514,55.695934,92.034988,112.224083,126.641922,46.926441,80.267086,98.898582,112.214813,38.568363,64.671764,79.755878,91.323738,-17.053982,-20.195843,-19.267178,-20.939009,15.169483,27.31338,32.704624,35.778868,32.545555,43.261845,46.204746,47.011762,44.15173,55.108846,56.293899,54.642569,51.159414,60.258152,60.07747,57.670871,-41.609001,288.26085,-74.889164,280.545877
91,0.753136,0.558841,1.226807,3.008357,21.263008,38.54147,50.341816,55.500698,28.943882,64.336452,79.59692,84.405727,21.407661,64.207706,79.82317,87.486019,13.001175,53.66106,69.670658,76.4221,3.841095,34.245358,46.720219,51.387691,-22.989925,-30.642716,-31.161357,-27.971269,-3.114197,11.99792,14.417671,15.87387,15.798349,34.276172,36.649919,36.181789,28.977369,44.724218,42.475083,38.996126,38.512373,51.716835,48.152354,42.455817,26.161022,52.74416,77.034817,96.40274,63.061123,94.967079,113.017387,125.402756,55.26844,91.965866,112.075424,125.817719,46.182518,79.951744,98.094063,110.494194,37.55785,64.209881,79.071579,89.818382,-17.59368,-20.579128,-18.41953,-18.250767,15.391599,26.887488,31.868029,34.667608,32.321956,42.944386,45.560442,46.051605,43.31106,54.223222,54.990224,53.006924,49.964296,58.675674,57.830558,54.859251,-40.817614,288.709713,-73.624105,283.444256
92,4.162388,-0.507835,0.183964,-0.048412,18.097801,33.240166,41.78936,44.787712,27.950935,61.474915,74.672813,77.694969,20.545292,61.525497,74.78096,79.392357,11.556473,49.722404,63.573418,67.882347,2.279034,29.51231,40.609074,43.759232,-22.640418,-27.469856,-24.322067,-17.489569,-5.419031,9.533214,13.459984,15.791371,14.050318,30.51409,33.788405,33.769942,28.574262,42.909126,41.233961,37.934945,39.856371,51.899801,47.894361,41.927418,25.653191,52.005157,76.623173,96.861248,62.534637,94.740543,112.422695,124.766865,55.224323,92.10062,111.770725,125.599651,46.118088,80.422497,98.861446,111.700115,36.807976,64.102993,79.225903,90.723553,-17.923736,-20.694848,-16.813834,-15.186279,13.517042,26.459372,31.796769,34.612773,30.658215,41.804164,45.056003,45.943789,42.01708,52.89176,54.597738,53.541065,49.021367,57.411211,56.969325,54.499555,-36.659117,288.06013,-73.444033,283.254095
93,0.383892,0.924218,0.588341,-0.529016,18.587494,33.725281,42.304173,44.442959,29.128704,62.082195,74.908161,77.920475,20.976105,61.796665,75.545025,81.109829,11.394939,49.778881,64.044399,68.875866,1.440754,29.664345,41.549435,45.414333,-23.226676,-29.19189,-26.791528,-21.240907,-7.877747,6.449275,10.810768,13.290047,12.294384,29.213502,32.299726,31.89452,27.816523,42.687257,40.970287,37.354924,39.80975,52.898058,48.911822,42.499227,25.509911,51.779079,76.736069,97.570438,62.035446,94.410496,112.162228,124.664783,54.904175,91.619282,111.27943,125.167294,45.954094,80.029392,98.393154,111.278629,36.658516,63.880806,78.900032,90.340748,-17.802273,-20.17281,-16.010585,-14.104473,13.810356,26.260906,31.520683,34.334464,31.011674,41.747231,44.962945,45.941133,42.439761,53.11332,54.951259,54.022904,49.58484,57.995061,57.590101,55.051913,-36.280031,288.812975,-72.860498,282.553707
94,0.172577,7.604872,-0.789299,0.914585,20.256672,37.094765,47.421856,50.23138,31.927872,65.569553,78.784618,82.472706,26.767616,66.327953,78.674641,83.60384,20.178394,57.704945,68.491688,70.630932,13.143997,42.299366,50.509701,52.063122,-27.621824,-39.825249,-43.495385,-41.824542,-13.80449,-4.760463,-2.412774,0.112139,7.78932,19.207836,19.708138,19.907221,24.126442,33.639525,31.02421,28.990089,36.207478,43.76511,39.421463,34.44932,25.551796,52.039719,77.145653,98.043995,62.30175,94.847775,112.594585,124.95203,54.945545,91.816692,111.815701,125.827389,45.905113,80.184345,98.993168,112.068272,36.636772,64.262238,79.586391,91.279392,-18.539944,-20.493974,-15.843735,-13.504568,13.591266,26.03774,31.154935,34.060292,30.668095,41.305406,44.423493,45.639235,41.877956,52.485565,54.298187,53.564345,48.744478,57.195455,56.935918,54.6493,-36.145391,296.26395,-73.687735,283.314395
95,11.342697,-3.56621,0.130177,0.155055,13.708591,26.060486,33.228321,36.587048,18.210068,44.505787,62.34724,71.551952,13.538532,44.197483,62.709103,75.06918,7.520943,34.850407,51.527538,61.633244,1.3591,18.278046,28.020515,33.901234,-24.862877,-34.450308,-35.474871,-30.403124,-8.760716,2.616241,5.83844,7.131864,11.40351,23.092493,25.145818,25.779994,26.112397,36.020312,35.144382,33.778587,36.494987,45.241007,42.216101,37.4712,25.568104,52.095566,77.302437,98.424339,62.39645,94.710045,112.204399,124.375877,55.147705,91.801643,111.741142,125.719986,46.171818,80.194473,98.723488,111.607704,36.87521,64.305611,79.428177,90.917702,-18.09707,-19.968354,-15.217957,-13.083739,13.509199,25.925416,31.263493,34.38547,30.663464,41.120155,44.385208,45.641088,42.031653,52.396954,54.254221,53.400768,49.088861,57.393735,57.067322,54.663811,-24.847183,292.561704,-73.602047,283.333414
96,7.424698,-1.785945,-0.086975,0.103864,10.182323,20.519772,25.043392,27.755413,10.664635,33.84676,52.668972,62.686558,6.133862,34.730244,53.725033,66.776676,0.257206,24.915562,41.791134,51.920414,-5.728168,1.824017,4.938412,5.619678,-23.680665,-30.97308,-29.988347,-24.644651,-7.03473,7.635747,11.55696,12.036514,12.630923,26.890514,28.784399,28.440264,26.331364,39.096594,37.588587,34.558124,35.884399,46.373386,45.41434,41.902595,25.442963,51.861019,76.942005,98.156548,62.223415,94.521561,111.819763,123.874855,54.956646,91.736183,111.520958,125.450363,45.810871,79.918327,98.440132,111.321602,36.217461,63.599968,78.7076,90.140991,-18.180865,-20.004355,-15.09884,-12.98994,13.11128,25.610675,30.797339,33.839226,30.309696,40.923542,44.237563,45.576929,41.785886,52.212011,54.122816,53.442079,48.97314,57.254735,56.888185,54.528331,-17.486343,290.584641,-73.75288,283.24616
97,-11.731796,1.951066,-0.25383,0.085648,15.656433,29.692097,38.744373,43.075504,23.717022,51.819248,69.353771,77.280979,16.910534,50.630207,68.842793,80.301189,8.602867,37.978878,54.76656,64.93681,0.625019,18.203545,28.696632,35.120544,-25.470316,-34.710462,-34.982473,-29.947344,-10.5064,0.551987,4.793499,7.214671,10.038209,22.42071,25.940607,27.375316,25.32582,35.941272,35.592443,34.289448,36.46084,45.929215,43.180272,38.291369,25.551796,51.76609,76.625519,97.983513,62.124023,94.43264,111.848717,124.02626,55.055351,91.791115,111.611595,125.450363,46.177311,80.181656,98.487511,110.864525,36.972599,64.46909,79.263783,90.05825,-18.338267,-19.884188,-14.307138,-12.216331,13.774294,25.926651,31.040944,34.27963,30.861497,40.904955,44.165315,45.826833,42.221659,51.749377,53.648017,53.359951,49.347842,57.02243,56.198926,53.615166,-29.260712,292.435471,-74.049282,283.231572
98,8.583126,-2.62606,-0.355797,0.017414,10.320683,21.205788,27.04731,30.187683,14.48204,37.68116,55.813293,65.225601,8.201752,36.891289,56.483917,69.848328,0.92205,25.277767,43.841515,55.940208,-6.305752,7.144432,19.261723,26.900253,-21.456292,-26.34322,-21.987284,-13.817396,-6.498119,5.276758,10.090388,12.774431,11.611115,23.556424,27.908654,30.222875,24.995826,35.492902,35.34748,34.725097,34.982473,44.469559,42.650022,39.283636,25.691357,52.017632,77.038479,98.639946,62.246761,94.708099,112.145691,124.509315,55.061932,91.930962,111.616287,125.419235,46.176968,80.146236,98.348465,110.788651,36.986217,64.376793,79.025345,89.89872,-18.226066,-19.758835,-14.176536,-12.223741,13.63764,26.010076,31.25281,34.573315,30.72682,40.798621,44.056819,45.665973,42.11304,51.773027,53.751202,53.425036,49.128443,56.932707,56.314029,53.903602,-20.643854,289.698214,-74.371347,283.137788
99,3.603287,-1.42452,-0.219612,0.1545,6.941242,15.098248,17.553463,18.532848,8.57254,32.59964,51.612053,60.792618,4.392757,34.329529,53.773155,66.001053,-0.771503,24.818802,42.475204,53.231049,-5.95047,6.773872,16.859894,22.424297,-19.044198,-20.297237,-12.788634,-2.788093,-2.167563,10.323187,14.211055,16.007436,13.995484,25.82359,29.885656,32.401429,25.513356,36.651278,35.924722,34.704411,33.757098,43.501189,41.679737,38.91196,25.703373,51.927567,76.967754,98.468056,61.979084,94.732018,112.320442,124.723434,54.647713,91.916313,111.762772,125.601082,45.667305,80.020466,98.337708,110.658989,36.480732,64.00692,78.886013,89.704857,-18.222979,-19.822623,-14.484053,-12.335077,14.323379,26.26634,31.07608,34.120128,31.340619,41.172766,44.069972,45.499803,42.452976,52.043926,53.73175,53.267202,49.195565,56.879786,56.123282,53.672655,-17.023659,288.213255,-74.574051,283.23185
100,6.912861,1.784402,0.34441,-0.360561,6.324749,13.100967,13.942966,14.075317,3.528042,24.168606,43.094845,53.299656,-1.531277,24.539051,44.756184,59.214191,-7.182484,13.648624,31.924038,44.251385,-12.795525,-6.932087,-0.304928,3.395863,-20.871022,-24.323981,-18.581996,-10.453542,-4.903662,8.627644,12.964128,14.575876,12.330569,24.932593,28.756611,30.752508,24.707328,36.146653,35.77294,34.37417,33.878005,43.854402,43.128587,40.871116,25.466938,51.740456,76.620312,97.942142,61.433372,94.515095,112.376575,125.08215,54.215412,91.583805,111.633968,125.55788,45.406723,80.047245,98.559208,111.144619,36.492062,64.570084,79.483166,90.425205,-17.74361,-19.424271,-13.929102,-11.727762,14.74853,26.599607,31.446521,34.588814,31.989924,41.581245,44.603249,46.245563,43.364536,52.513909,54.33993,54.062671,50.296328,57.493215,56.702439,54.299484,-10.085449,289.915853,-74.204292,282.789485
101,-12.230301,1.22309,-0.164051,0.089538,13.071671,25.47884,32.576237,36.333904,16.644917,41.245708,59.020557,67.546062,10.480385,40.134029,58.977757,71.446095,2.971573,28.09782,44.411716,54.498425,-4.411755,7.768993,15.265789,19.786491,-23.69141,-32.095579,-31.432997,-27.528828,-9.421878,2.48249,6.725361,9.310727,10.542771,23.531971,26.554777,27.840358,25.34805,36.85209,36.336968,34.682181,36.263979,46.501704,44.638385,40.424228,25.398045,51.691704,76.509647,97.767105,61.360359,94.825058,112.913475,125.81234,54.1646,91.879463,112.21859,126.416016,45.370445,80.096169,98.882332,111.727295,36.431293,64.322262,79.34309,90.522652,-17.984869,-19.705483,-14.13257,-11.689847,13.899153,25.967592,31.046749,34.382876,31.318944,41.398279,44.708286,46.445758,42.875287,52.383801,54.271696,53.863835,49.914093,57.294502,56.616421,54.151283,-22.303476,290.990804,-74.35607,282.730884
102,0.959072,0.727049,-0.035477,-0.080646,11.984997,23.509426,30.70816,34.807091,13.484001,38.519669,56.953468,66.304893,8.106594,37.983742,57.958832,71.429443,1.768684,27.570419,45.33989,56.734772,-4.404945,9.971752,19.862423,26.307907,-24.714861,-33.225612,-32.595017,-27.46788,-8.6642,2.478847,6.336148,8.350693,11.20418,22.910823,25.864901,27.360681,25.815562,36.058906,35.230524,33.596547,36.227793,45.467261,42.897394,38.170338,25.203724,51.549168,76.258335,97.231522,61.548328,94.887772,112.888412,125.779953,54.439316,91.737442,111.734734,125.691261,45.648823,79.971199,98.437157,111.093979,36.695881,64.178696,78.86713,89.778442,-17.769484,-19.555861,-14.363269,-12.29673,14.254897,26.233983,31.386993,34.772521,31.368098,41.376049,44.662653,46.419637,42.728692,52.373241,54.436693,54.216491,49.672896,57.455609,56.873364,54.478683,-21.322432,291.614947,-74.369574,282.547331
103,-0.908489,-0.734151,-0.295029,0.209643,10.810776,21.786919,27.961292,31.392345,15.210686,40.545101,58.453159,67.175274,10.402164,40.98032,59.832058,72.369976,4.042854,30.417881,47.168713,57.734699,-2.59552,11.583023,20.210438,25.543098,-23.875056,-31.707725,-30.257331,-24.134902,-6.694794,5.264778,9.173024,11.240366,12.910776,25.285312,28.177392,29.741036,26.973691,37.601864,36.593109,34.993958,36.800961,46.357578,43.8494,39.228184,25.239372,51.599064,76.444588,97.777977,61.574306,95.062866,113.111801,125.839577,54.218388,91.915741,111.910629,125.665398,45.251713,80.064011,98.601494,111.061821,36.287155,64.283123,79.314079,90.469093,-17.626408,-19.269834,-14.076253,-11.935243,14.574023,26.347172,31.359576,34.789873,31.827706,41.580628,44.611215,46.450574,43.125438,52.698481,54.440275,54.151406,49.886614,57.676923,56.878675,54.481462,-22.180252,290.794484,-74.613934,282.670662
104,1.237679,1.339058,0.262413,-0.283434,11.704445,22.037258,27.007313,28.815937,14.048939,40.949078,58.294773,65.998478,9.012909,41.679211,59.98415,71.253147,2.641754,31.5172,47.29826,56.636753,-3.832397,13.427639,23.875351,29.965954,-24.703499,-32.888825,-31.762992,-26.318705,-5.638368,6.066237,9.078113,10.760442,13.924656,24.699239,26.785291,28.269956,27.364695,35.926884,34.528607,32.842698,36.299177,43.771162,40.062494,35.091092,25.321026,51.992912,76.97176,98.388405,61.179199,94.996033,113.152428,126.01284,53.924217,91.968613,112.433739,126.665611,45.219498,80.323792,99.033623,111.725464,36.556263,64.839249,79.915123,90.943222,-17.587814,-19.338871,-13.990297,-11.815077,14.601811,26.333648,31.284241,34.659395,32.109411,41.87456,45.041862,46.717892,43.71077,53.012543,54.793178,54.30677,50.527769,57.737253,56.905598,54.227359,-20.91548,292.010319,-74.324427,282.264005
105,-2.629852,-0.532659,-0.451527,0.138197,13.447037,25.346775,31.488476,33.352718,17.824516,46.794949,64.24284,71.72224,12.013779,47.062511,64.613056,74.79578,4.544392,35.071735,50.477543,59.08865,-2.784863,14.214077,22.886009,28.004436,-24.749318,-32.987996,-31.803438,-26.1873,-6.360848,5.893706,9.398536,11.29168,13.555944,25.412518,27.56384,28.740062,27.368771,37.182393,35.865566,33.899371,36.750511,45.311464,42.031344,37.01332,25.044308,52.007103,77.175808,98.719997,61.630669,95.300846,113.472347,126.418934,54.486237,92.331448,112.720127,126.960468,45.766239,80.753059,99.517536,112.358265,36.975803,65.270748,80.566521,92.005863,-17.643081,-19.495655,-14.248105,-11.88646,14.573406,26.261709,30.978638,34.082831,31.998878,41.714688,44.921757,46.740431,43.474945,52.858353,54.698083,54.352589,50.271566,57.749912,57.092825,54.641025,-23.521128,291.37801,-74.751749,282.302552
106,7.982082,-0.692778,-0.099277,-0.046683,11.093502,20.493336,23.457413,23.417702,9.122429,34.410896,53.377419,63.013458,3.578568,33.656845,53.488426,67.562256,-3.312263,22.420807,39.622536,50.914078,-9.848843,-1.46925,2.970028,5.843925,-23.453609,-31.787939,-31.447385,-28.414761,-6.776305,8.069482,11.554367,12.451909,12.751645,27.140232,28.844605,29.230916,26.219657,38.519783,37.295026,35.344701,35.965539,46.634837,45.246009,42.022884,25.40062,52.29578,77.364864,98.809891,61.759186,95.490532,113.632622,126.540756,54.475822,92.408524,112.75898,126.807747,45.747814,80.832596,99.525604,112.109756,37.075424,65.299358,80.433083,91.544037,-17.653146,-19.522578,-14.431627,-12.281478,14.752853,26.571573,31.354636,34.579181,32.153995,42.013437,45.058102,46.731045,43.548243,52.985497,54.709568,54.282255,50.219264,57.486361,56.692868,54.148442,-15.519676,290.629564,-74.831657,282.200201
107,-6.481018,-0.390386,-0.105457,-0.032357,13.493042,26.228027,33.218193,36.402283,15.617867,41.334343,60.684929,70.957947,9.739723,41.023636,61.088448,75.342522,2.380943,29.572678,47.846375,59.958,-4.656601,6.27634,12.110653,16.027222,-23.970275,-32.326402,-32.014872,-27.956573,-7.812353,5.619843,9.804916,11.657119,11.867503,26.433746,29.065919,29.982913,25.866445,38.964016,38.013739,36.253543,35.994933,47.256849,46.288418,43.137665,25.469627,52.328281,77.38203,98.888111,62.142391,95.669117,113.787975,126.567364,54.847755,92.569256,112.829304,126.796246,46.027107,80.929699,99.607487,112.122517,37.217731,65.337753,80.507812,91.704769,-17.702238,-19.658861,-14.505604,-12.283577,14.742787,26.647588,31.559895,34.845263,32.039881,42.108964,45.29016,47.044613,43.350271,52.920597,54.744766,54.387478,50.014499,57.357055,56.660449,54.191112,-21.990738,290.210665,-74.927158,282.139331
108,-2.999496,0.056193,-0.127487,0.061071,14.477978,28.113613,36.024857,38.961182,18.948212,46.501579,65.367737,75.203247,12.64864,45.254631,64.350243,77.937813,4.773502,33.166122,50.33844,61.731377,-2.635345,9.100399,14.261169,17.954292,-24.297861,-33.300021,-33.758641,-30.147971,-9.080954,4.68698,8.690753,10.648859,11.342871,25.939187,28.438349,29.312612,25.927207,38.697501,37.960942,36.509499,36.568347,47.558809,46.312747,42.861146,25.798588,52.632351,77.707787,99.055195,62.090034,95.818577,113.901958,126.70435,54.853077,92.64822,112.816257,126.766262,46.143665,80.922375,99.558392,112.25893,37.490101,65.543747,80.676785,92.008495,-17.619986,-19.649166,-14.552411,-12.300065,14.371173,26.356558,31.400455,34.796357,31.839377,41.864989,45.095461,46.833488,43.184718,52.76548,54.70469,54.313378,49.795594,57.253191,56.555906,53.988756,-24.96932,290.240012,-75.033731,282.173556
109,3.622684,-0.31116,0.011559,-0.069222,12.588615,24.338036,30.58691,33.05563,15.048752,41.625195,60.355396,70.425625,9.237499,41.085262,60.425549,75.146313,2.014332,29.211102,46.853542,59.008541,-5.010738,4.30727,8.365459,11.159019,-23.325415,-32.237482,-32.18697,-28.27045,-7.088762,6.798412,10.806754,12.407016,12.566579,27.824612,30.184528,30.663711,26.277703,39.830868,38.579064,36.942801,36.197598,47.993346,47.451857,44.644622,26.524944,53.376217,78.036575,99.104862,62.097931,95.880833,113.875637,126.366291,54.400005,92.212887,112.094593,125.632038,45.229912,79.892521,98.639088,111.175289,36.144161,63.942318,79.422569,90.724697,-17.369465,-18.90316,-13.7604,-10.97595,15.538071,27.015496,31.973931,35.105974,32.864372,42.761975,45.744335,46.901414,43.634694,53.873282,55.538074,54.53253,49.779292,57.945907,57.165938,54.243847,-21.334763,289.880208,-75.0103,282.05569
110,-2.079334,1.33313,-0.080853,-0.294858,13.48772,26.418629,34.321289,38.463478,16.86842,43.713226,62.290306,72.318192,10.723343,43.733482,62.640953,77.354279,3.352489,31.526184,48.720589,60.868034,-3.833542,4.285011,6.22673,7.509899,-24.211163,-34.154153,-34.901209,-31.603923,-9.501474,3.346625,7.409123,9.233601,10.832134,25.387756,27.682092,28.002947,25.070544,38.273646,36.971639,35.040333,35.308762,46.918395,46.49454,43.493409,26.583824,53.745575,78.709373,99.654808,61.916428,95.958939,113.944588,126.651878,54.108639,92.224846,112.525063,126.630936,44.829426,79.699287,98.708954,111.762543,35.582314,63.303452,78.836975,90.533524,-17.382185,-19.173256,-14.155726,-11.03801,14.989974,26.42473,31.180377,34.303959,32.429402,42.611366,45.843753,47.251539,43.466486,53.975912,55.944082,55.109279,49.860247,58.333885,57.830125,54.994238,-23.405027,291.169711,-75.082083,281.717205
