takenoko1/special-research/HandMotion_SimilarSearch_自分用/NewProject/handData/key/d4_feature_d2/31.csv
,vel_0x_L,vel_0y_L,vel_0x_R,vel_0y_R,posFromWrist_1x_L,posFromWrist_2x_L,posFromWrist_3x_L,posFromWrist_4x_L,posFromWrist_5x_L,posFromWrist_6x_L,posFromWrist_7x_L,posFromWrist_8x_L,posFromWrist_9x_L,posFromWrist_10x_L,posFromWrist_11x_L,posFromWrist_12x_L,posFromWrist_13x_L,posFromWrist_14x_L,posFromWrist_15x_L,posFromWrist_16x_L,posFromWrist_17x_L,posFromWrist_18x_L,posFromWrist_19x_L,posFromWrist_20x_L,posFromWrist_1y_L,posFromWrist_2y_L,posFromWrist_3y_L,posFromWrist_4y_L,posFromWrist_5y_L,posFromWrist_6y_L,posFromWrist_7y_L,posFromWrist_8y_L,posFromWrist_9y_L,posFromWrist_10y_L,posFromWrist_11y_L,posFromWrist_12y_L,posFromWrist_13y_L,posFromWrist_14y_L,posFromWrist_15y_L,posFromWrist_16y_L,posFromWrist_17y_L,posFromWrist_18y_L,posFromWrist_19y_L,posFromWrist_20y_L,posFromWrist_1x_R,posFromWrist_2x_R,posFromWrist_3x_R,posFromWrist_4x_R,posFromWrist_5x_R,posFromWrist_6x_R,posFromWrist_7x_R,posFromWrist_8x_R,posFromWrist_9x_R,posFromWrist_10x_R,posFromWrist_11x_R,posFromWrist_12x_R,posFromWrist_13x_R,posFromWrist_14x_R,posFromWrist_15x_R,posFromWrist_16x_R,posFromWrist_17x_R,posFromWrist_18x_R,posFromWrist_19x_R,posFromWrist_20x_R,posFromWrist_1y_R,posFromWrist_2y_R,posFromWrist_3y_R,posFromWrist_4y_R,posFromWrist_5y_R,posFromWrist_6y_R,posFromWrist_7y_R,posFromWrist_8y_R,posFromWrist_9y_R,posFromWrist_10y_R,posFromWrist_11y_R,posFromWrist_12y_R,posFromWrist_13y_R,posFromWrist_14y_R,posFromWrist_15y_R,posFromWrist_16y_R,posFromWrist_17y_R,posFromWrist_18y_R,posFromWrist_19y_R,posFromWrist_20y_R,posFromBody_0x_L,posFromBody_0y_L,posFromBody_0x_R,posFromBody_0y_R
2,0.490723,-13.934907,-0.683098,0.418112,0.14328,-8.750954,-20.734978,-32.415276,-35.95293,-21.469116,-1.639366,8.884048,-44.193878,-21.387405,-2.547455,11.687393,-49.202785,-32.479134,-14.04808,-0.586624,-52.042465,-62.206478,-66.054382,-68.604183,-18.475044,-24.848675,-26.405279,-29.270436,-3.870825,12.921582,15.651321,13.265779,14.932299,29.162003,28.056361,23.274718,28.614462,41.007152,37.143429,31.475173,38.499653,47.835512,45.864501,41.273728,25.568848,51.559238,74.427109,94.049149,51.565647,85.915375,104.356956,117.649612,42.928047,81.563301,101.97052,115.833549,34.389725,70.941753,90.138359,103.307877,26.78278,55.415611,71.055164,82.778664,-16.184845,-16.312668,-8.391325,-2.556899,12.474015,25.729668,30.229173,32.902225,30.195272,42.083462,45.335423,46.636752,42.432845,55.155036,57.154761,55.87733,49.396872,61.81914,62.301102,59.472625,27.518091,298.159348,-71.27223,285.027814
3,-19.204674,11.948581,0.245018,-0.669621,4.91272,2.948341,-3.967323,-10.742283,-21.691761,0.167084,19.416389,30.79628,-31.523895,-3.987122,16.907501,32.494812,-34.380398,-13.132839,6.742172,21.654968,-33.892193,-33.690147,-34.635029,-34.772701,-21.2075,-30.778814,-30.357058,-27.67919,-10.013756,-2.78198,1.210987,4.144749,5.552165,12.755227,14.476334,16.39245,17.224969,22.680803,21.907564,23.087491,26.21657,31.1156,28.181097,25.924428,25.79464,51.432037,74.048882,93.526955,51.617031,85.831833,104.090195,117.465363,43.075905,81.473465,101.998215,116.122856,34.351215,70.849171,90.203934,103.600044,26.454449,55.125103,71.014652,83.154144,-15.435442,-15.588953,-7.709539,-2.057709,12.602395,25.987105,30.551263,33.237653,30.183787,42.13774,45.728156,47.196766,42.463782,55.287182,57.547802,56.438086,49.659743,62.258494,62.95967,60.262474,8.345947,310.111495,-70.994682,284.361759
4,5.478745,-11.81094,-0.017738,0.376739,4.57077,2.377968,-4.916039,-13.108807,-23.244724,-4.547081,14.202232,23.702202,-31.891365,-4.358253,13.788071,26.935959,-37.709827,-15.339832,2.828407,15.660896,-41.56929,-43.625679,-43.262444,-42.616081,-19.485343,-27.015743,-28.806073,-31.769661,-6.61878,9.616083,12.188173,10.304724,13.015567,28.496889,27.342897,22.684261,27.491654,41.154612,37.196472,31.540134,38.278525,49.625842,47.421414,42.289708,26.023293,51.594086,74.147415,93.395691,51.838245,85.959206,104.191017,117.596169,43.269024,81.458931,101.922684,115.998573,34.571629,70.958805,90.348587,103.791389,26.773281,55.623207,71.5975,83.700027,-15.507257,-15.721161,-7.970373,-2.500398,12.506064,25.634696,30.147786,32.857765,30.088197,41.855664,45.308439,46.625637,42.452297,55.04654,57.221452,55.971006,49.804733,61.815929,62.320615,59.467932,13.844118,298.311841,-70.992994,284.749783
5,-10.106964,12.822658,0.004463,-0.137148,4.499931,4.884224,5.064926,5.739555,-17.30484,3.017578,21.662636,34.232025,-25.548248,-0.715141,22.276726,40.359192,-27.600918,-9.418087,11.485634,28.531609,-26.179333,-31.333866,-36.034527,-38.79982,-19.153496,-27.939838,-26.521061,-21.142415,-12.137908,-4.823633,1.334179,5.505296,3.050285,11.257409,15.209435,17.644686,15.188625,20.405362,21.844332,22.730388,24.543936,29.158421,29.248824,28.228028,25.919437,51.368237,73.80352,92.981758,51.712017,85.801392,104.14135,117.825394,43.078651,81.269531,101.842575,116.177101,34.306812,70.597286,90.06546,103.728676,26.383553,55.166016,71.133041,83.313217,-15.381595,-15.576356,-7.813465,-2.289088,12.925905,25.783267,30.327974,33.085871,30.504086,42.044065,45.475473,46.850346,42.685343,55.019432,57.263442,56.165087,49.823567,61.480748,62.024893,59.278666,3.798208,311.15889,-70.927477,284.637027
6,29.061813,-11.54955,0.593948,0.171172,-0.639725,-8.40271,-20.78064,-31.255932,-42.200718,-29.122925,-6.786919,7.413368,-51.235714,-30.231857,-7.582283,10.195885,-55.65691,-40.657997,-18.853912,-1.88427,-57.518749,-66.434212,-66.23497,-64.374962,-17.607636,-26.442329,-28.588218,-29.91721,-7.91208,7.166691,10.595877,9.229587,11.634642,25.283644,25.061219,20.966241,26.397869,37.867267,35.15488,30.332852,37.49874,46.663181,45.332768,41.068841,25.804424,51.104164,73.365898,92.527084,51.57589,85.350838,103.493843,116.79348,42.887478,80.829163,101.183052,115.199432,33.986435,70.236053,89.453201,102.787857,25.882416,54.789333,70.71619,82.713432,-15.590435,-15.940992,-8.034346,-2.0821,12.614127,25.860208,30.391639,32.990652,30.240597,42.037334,45.456331,46.684485,42.52757,54.813865,57.086712,55.926422,49.807882,61.32631,61.802097,59.003198,32.88537,299.644677,-70.30818,284.843535
7,-23.665352,11.9584,0.086803,0.376616,4.706955,4.276543,1.575165,-1.310921,-21.218491,-2.98027,16.159058,29.251556,-29.572277,-7.794399,14.055977,32.351074,-31.822357,-15.57169,5.169182,21.853867,-31.373291,-37.55127,-42.081757,-44.607811,-21.827968,-34.076718,-36.291582,-32.792371,-17.514763,-10.555121,-4.652708,-1.302254,-0.378839,8.326611,10.898454,12.343352,13.505618,19.822067,19.583093,19.976258,24.338987,30.023544,27.573103,24.272296,25.482788,50.786304,73.264561,92.420254,51.158581,85.182781,103.371105,116.564541,42.663631,80.980396,101.325359,115.243206,34.00589,70.535259,89.857464,103.113041,26.166916,55.232162,71.25309,83.209133,-15.74407,-16.129208,-8.337602,-2.364238,12.646423,25.477911,29.755609,32.257427,30.306979,41.709563,44.93207,46.167387,42.600745,54.605457,56.63155,55.446251,49.791889,61.223866,61.602829,58.778365,9.239559,311.635804,-70.201836,285.252879
8,-15.127258,-0.977077,0.968571,-0.13264,7.897568,12.662201,14.745255,13.356857,-6.916351,16.179657,34.525909,46.820412,-14.106846,12.351723,33.355064,51.132431,-17.577667,9.299011,29.358215,44.589844,-17.674599,-17.084942,-18.177166,-18.21722,-16.83236,-28.530234,-32.864249,-32.490288,-11.031649,-0.81739,5.504926,5.947676,4.019396,16.207631,19.188755,18.49394,15.441308,26.563545,26.301723,23.413286,23.907228,32.367405,33.996504,32.397971,25.164814,50.496197,72.917747,92.229424,51.085281,84.847984,102.787743,115.752182,42.490482,80.585747,100.673103,114.303017,33.708229,70.008717,88.961105,102.024879,25.754013,54.640102,70.316277,81.924019,-15.890913,-16.241964,-8.223796,-2.245368,12.632344,25.663595,29.964634,32.394451,30.431282,41.888701,45.088237,46.13435,42.795073,54.705493,56.703921,55.368013,50.009497,61.142911,61.416651,58.552235,-5.870619,310.710459,-69.216185,285.17197
9,42.990074,-11.680955,-0.181446,0.59515,-2.50946,-12.150879,-26.442604,-38.423996,-45.412731,-34.160385,-11.444664,3.127899,-54.723644,-35.578022,-12.153511,5.91259,-59.528732,-46.500778,-23.896065,-6.645012,-61.814461,-71.422119,-69.269199,-65.772114,-16.980375,-25.935544,-27.636644,-27.763973,-6.111871,9.623802,13.196557,11.662183,13.104425,26.497843,26.609982,22.648013,27.466645,38.400049,36.010494,31.684075,38.089136,47.631057,45.789104,41.561856,25.099754,50.745049,73.463573,93.186436,51.653767,85.462017,103.419056,116.433506,42.836037,80.974102,101.022091,114.64468,33.88401,70.41132,89.473858,102.55846,25.802479,55.043049,70.777588,82.226086,-16.307975,-16.872683,-8.954057,-2.994277,11.575856,25.076966,29.758512,32.510604,29.598578,41.155106,44.329139,45.408474,42.304219,54.156223,56.07487,54.700367,49.939719,60.693554,60.640201,57.597944,37.157993,299.027929,-69.359093,285.765546
10,-24.391708,6.672564,0.365753,-0.673759,2.823143,0.481911,-5.177536,-11.085548,-27.441788,-9.131927,11.620216,24.99527,-35.365849,-12.775898,10.724945,28.346443,-36.42128,-18.14312,4.163361,20.466957,-34.468861,-29.143524,-19.729156,-11.857109,-19.915866,-28.393519,-27.65943,-24.200727,-6.765684,0.76941,4.190012,6.19653,8.775475,16.527374,18.579834,19.991264,20.545721,26.236145,25.12649,25.374541,29.531517,35.474747,31.654373,28.024869,25.089397,50.38353,72.688808,92.081623,51.252251,84.901028,102.626438,115.676708,42.559719,80.442181,100.348721,114.135876,33.615074,69.713917,88.690166,102.094746,25.387802,54.048843,69.729652,81.52319,-15.97125,-16.39739,-8.36928,-2.52658,12.01379,25.235664,29.616424,32.182339,30.000264,41.464105,44.732369,46.005539,42.51522,54.561244,56.684285,55.625203,49.946018,61.011939,61.299016,58.587865,12.785454,305.718478,-68.974171,285.109772
11,26.804237,-6.557647,0.354137,0.249904,-2.743149,-13.793678,-29.250412,-42.802906,-48.411369,-38.20919,-15.427322,-0.53627,-58.171234,-39.748363,-16.348457,2.243271,-62.598839,-51.265411,-28.243332,-10.141068,-64.235859,-76.978626,-77.97163,-76.765194,-16.801608,-24.616308,-25.240296,-24.37931,-6.133607,10.120707,13.662958,12.279872,12.246836,25.80735,26.467215,23.152699,26.363783,37.410376,35.397436,31.2567,37.023448,45.879445,45.074466,42.036099,24.553413,49.736195,72.195511,91.525955,51.04517,84.957161,102.991447,116.241188,42.536201,80.681534,100.95726,114.88369,33.716812,70.227642,89.529305,103.041458,25.55666,54.735718,70.719452,82.891731,-16.346507,-17.133022,-9.074717,-3.020645,11.660269,25.079004,29.318663,31.662277,29.670023,41.093726,44.299005,45.553341,42.239937,54.25947,56.326441,55.221417,49.732547,60.999095,61.544104,59.156833,39.604139,299.185964,-68.605585,285.384809
12,-47.420311,5.656276,-0.030727,-0.132393,9.229317,16.293297,19.65271,19.572372,-6.429577,15.011673,33.836861,45.458565,-14.145012,12.213936,34.191055,50.87059,-16.977139,6.129341,27.311211,42.957115,-17.718945,-1.73584,14.074516,26.413994,-21.342548,-31.807267,-32.182647,-28.876963,-11.852992,-4.195138,0.565757,2.898811,5.266322,15.576912,18.238972,18.620219,19.154299,28.462432,28.024807,27.039394,29.736158,38.533863,35.731135,31.555881,24.698124,50.032883,72.524128,91.807995,51.222153,85.143528,103.064632,116.390476,42.669983,80.728397,100.915775,114.960308,33.761959,70.083561,89.493313,103.307247,25.533371,54.60022,70.641689,83.0369,-16.375036,-17.050956,-9.085585,-3.076961,11.851386,25.207568,29.354417,31.71353,29.758079,41.095455,44.340748,45.629232,42.161391,54.34697,56.536701,55.529984,49.449174,60.996872,61.717931,59.394881,-7.785158,304.841823,-68.605299,285.251999
13,19.504967,-2.440253,-0.575123,0.101703,3.984718,2.349243,-4.335823,-12.413979,-15.64167,-1.125755,16.587982,26.850815,-24.686337,-2.988052,15.808182,29.734726,-32.157211,-14.286289,4.7089,18.135452,-39.078941,-34.942932,-22.413998,-13.130207,-22.824434,-32.440579,-35.82129,-36.258422,-10.451134,1.913522,4.928177,3.8749,8.788689,21.243562,21.826856,18.885314,23.489486,34.017993,31.662709,27.73705,34.391645,44.87563,40.945525,34.502796,25.180092,50.256958,72.838898,92.525139,51.682835,84.825211,102.538033,115.940781,43.422604,81.031265,101.037712,115.070915,34.768639,70.665607,89.997482,103.628311,26.764297,55.823135,71.786957,84.107208,-16.162182,-17.084178,-9.464547,-3.508164,11.576597,24.993788,29.436854,31.993444,29.339597,41.101753,44.388851,45.517402,41.717158,54.287504,56.466244,55.430257,49.113869,60.378874,61.088077,58.976213,11.74181,302.397093,-69.158421,285.349225
14,-14.892941,9.449727,0.105114,-0.022662,7.35815,10.831432,12.833805,15.129375,-11.257553,12.03661,29.978199,42.004452,-18.793888,9.022579,31.667576,50.691891,-21.234112,3.970528,24.826183,42.399044,-20.091362,-14.086075,-8.888226,-1.923981,-20.766293,-34.830443,-38.446733,-36.112876,-18.13412,-15.059567,-9.694012,-6.260504,-0.803002,7.041646,12.344093,14.822631,13.685188,20.319097,23.480409,23.626634,24.197146,31.208164,31.46838,27.515798,25.374241,50.042095,72.465992,91.996021,51.763859,85.013065,102.879009,116.293545,43.582706,81.140156,101.229572,115.129452,34.921646,70.949764,90.061741,103.254261,26.881084,55.885448,71.743412,83.875294,-15.756729,-16.724976,-9.390076,-3.634135,11.550847,24.89579,29.366458,31.91076,29.141934,41.072237,44.552984,45.818126,41.489855,54.053655,56.1867,55.088345,49.029148,60.38511,61.035527,58.783243,-3.150644,311.8521,-69.05282,285.331842
15,-14.573994,-3.808395,0.531807,0.709142,7.839432,14.499207,19.926567,21.077843,1.179943,29.36245,47.45533,59.019928,-3.401012,28.050499,48.384933,64.507599,-4.76944,26.929436,47.031898,60.866318,-3.00539,8.935318,18.623829,26.594582,-18.743041,-30.65099,-33.952414,-29.299706,-9.405576,1.849116,7.645566,8.553852,6.596488,19.469411,23.202038,23.710738,18.05403,30.397381,30.361257,27.800097,26.019154,36.674064,36.695923,34.314025,24.729195,49.34927,71.946316,91.715641,51.142673,84.913616,102.745686,115.76128,43.04203,81.449375,101.575298,115.140896,34.621296,71.729221,90.921535,103.772106,26.935902,57.231102,73.25552,85.048313,-16.444752,-17.444677,-9.85129,-4.532418,11.344353,24.343,28.575312,31.15722,29.286183,40.624855,43.852179,45.093053,41.861345,53.590836,55.291504,54.091755,49.476591,59.736731,59.907533,57.50328,-17.722721,308.072543,-68.519096,286.069821
16,36.958466,-8.196441,-0.067921,-0.813994,1.360359,-4.028778,-12.639656,-21.051292,-25.902328,-11.229515,8.221092,19.838791,-35.436287,-12.648468,8.174629,23.881531,-41.982651,-23.452148,-2.594032,12.560806,-46.586781,-44.81266,-33.334694,-23.902817,-21.920532,-30.54268,-32.717838,-32.62299,-9.417308,3.812285,6.853863,5.470592,10.231302,23.161777,24.201962,21.050468,25.163602,36.020065,34.183423,30.292344,35.943248,47.063385,43.92103,38.159099,24.643764,49.660263,72.333183,92.082367,50.872936,84.609146,102.489281,115.903473,42.722626,80.992241,101.217842,115.225525,34.341373,71.032677,90.391502,103.830299,26.65123,56.413651,72.385025,84.405212,-16.161133,-16.820689,-9.120906,-3.4177,12.423689,25.538674,29.709173,32.248659,30.195766,41.575811,44.638261,45.632999,42.440996,54.339251,56.259812,55.005291,49.651777,60.11662,60.606856,58.292142,19.235716,299.897174,-68.587046,285.2769
17,-20.627518,11.240242,-0.11198,0.076385,7.031479,9.711227,11.400146,13.275833,-13.75391,10.125732,27.229385,38.331985,-20.828133,7.663879,29.52713,47.668076,-22.727051,3.681679,24.169579,40.873718,-21.059418,-11.395283,-1.802902,7.701645,-20.435681,-34.901889,-38.177439,-35.47098,-18.608054,-15.578394,-10.240133,-6.985948,-1.175172,6.868931,12.35848,15.048205,13.466283,21.476238,24.280694,23.966138,24.558448,32.334183,32.234765,28.798787,24.613895,49.772129,72.639599,92.201099,50.130215,84.393597,102.461529,116.055279,42.10556,80.857143,101.251774,115.364857,34.124165,71.202793,90.627995,104.185238,26.909065,56.719093,72.720509,84.757977,-16.494029,-17.477281,-9.646958,-3.376698,11.01368,24.413149,28.6525,31.316968,29.281243,41.009684,44.191929,45.354998,42.109582,54.176539,56.236224,55.147255,49.739772,60.427162,60.996069,58.807202,-1.431255,311.170113,-68.73848,285.385982
18,-11.033421,-3.107157,0.287247,-0.178397,7.725964,13.097076,15.674686,13.223076,-4.909687,22.809277,41.784496,53.822193,-10.586357,21.637173,42.163525,58.586826,-12.01252,20.043125,40.127392,54.279156,-9.873848,6.663265,21.491146,33.357525,-18.012225,-30.543792,-33.5448,-29.368187,-11.622601,-0.338763,5.95521,6.927593,4.812333,17.060095,21.703232,22.341917,17.373478,29.208254,30.220343,28.116692,26.710573,37.040305,35.787204,31.822457,24.744701,49.618378,72.251415,91.705914,49.744434,84.157391,102.358303,115.829144,41.7132,80.623455,101.114788,115.104046,33.659363,70.966587,90.611172,104.135914,26.478481,56.518536,72.728062,84.930439,-16.092157,-16.90751,-9.234527,-3.482044,12.159521,25.316434,29.379488,31.731375,29.992484,41.610886,44.705384,45.855362,42.369675,54.61015,56.477977,55.36684,49.574466,60.562766,61.109566,58.951081,-12.464991,308.119319,-68.451548,285.263948
19,33.90192,-7.990874,-0.124569,0.583912,2.278061,-2.021484,-9.692574,-18.064957,-26.787357,-14.051857,6.270218,19.425888,-37.224541,-17.907028,4.06723,21.411781,-44.362106,-28.819084,-6.801567,9.729538,-49.49913,-47.378483,-33.283081,-21.427231,-21.101968,-30.48377,-33.642242,-33.300083,-10.04179,1.988919,5.864684,5.377967,9.415271,21.504334,23.697523,21.260852,24.529981,34.431474,33.784083,30.894163,35.719094,45.89198,43.074679,37.648115,24.990978,49.935036,72.63176,91.941948,50.294552,84.579506,102.624779,116.00956,42.012691,80.770569,101.03405,115.011864,33.842926,70.873032,90.288391,103.829956,26.540337,56.320152,72.246552,84.229889,-16.602339,-17.678217,-9.871359,-3.686067,10.903147,24.55431,28.760934,31.351734,28.96576,40.708774,43.885894,45.166536,41.653432,53.666233,55.707887,54.768046,49.2483,59.77267,60.258213,58.220758,21.418133,300.179127,-68.594913,285.898541
20,-23.892517,12.268325,0.080566,-0.073545,7.731056,11.036339,13.385468,15.845032,-12.448597,11.736488,29.35833,40.410461,-19.085655,9.776001,31.731606,50.049934,-20.833797,6.592255,27.057953,43.736343,-19.183788,-10.239944,-2.239094,6.24321,-20.104823,-35.127648,-38.729241,-34.889045,-19.214382,-15.864113,-10.186039,-6.848985,-1.893823,6.35844,11.999896,15.044562,12.491244,19.951682,22.656905,22.805292,23.490721,31.003956,30.737873,27.356976,24.828243,49.787693,72.472229,91.893311,49.760685,84.03614,102.051888,115.429459,41.585083,80.608749,101.052475,115.082932,33.444443,70.903931,90.504684,104.064903,26.123085,56.411304,72.550507,84.675751,-16.416347,-17.452704,-9.757491,-4.002662,10.851709,24.400675,28.524924,31.040944,28.943344,40.713282,43.900159,45.119421,41.643181,53.675805,55.496392,54.349563,49.278558,59.779462,60.198439,57.983822,-2.477674,312.48549,-68.517637,285.863035
21,-9.030304,-6.798597,0.351677,0.388781,7.261906,12.169647,14.731522,12.665462,-5.53957,21.823196,40.916634,53.032494,-10.461559,20.29438,41.06884,56.85482,-11.591492,18.743134,39.413795,53.48465,-9.552956,3.301334,14.589157,23.301544,-17.22077,-27.727849,-30.381944,-25.572328,-8.51779,2.257286,7.959875,8.972458,6.909192,19.122806,22.956333,23.591683,18.743535,30.7748,30.757757,28.742779,27.645598,38.245612,37.643051,35.050892,24.579506,49.491692,72.203178,91.539459,49.220753,83.89698,101.997757,115.236969,41.024609,80.570641,101.041603,114.906807,32.991886,70.959663,90.604591,103.991776,25.897808,56.570091,72.799187,84.831963,-16.991429,-18.062613,-10.145963,-4.020446,10.618416,24.213016,28.250813,30.878664,28.771616,40.494747,43.49205,44.699456,41.478184,53.343958,55.011898,53.870812,49.067063,59.382716,59.82065,57.712923,-11.513872,305.727587,-68.171854,286.292509
22,31.033974,-6.51578,-0.156784,-0.21483,1.847305,-2.099075,-8.448143,-15.780602,-27.334328,-14.453773,6.627388,20.805359,-37.384243,-19.153805,4.127426,22.754173,-44.262428,-29.064674,-5.161285,12.556,-49.250164,-44.456177,-27.714615,-14.377098,-21.645681,-30.731451,-33.196774,-31.512841,-10.907099,1.400191,6.496637,7.100062,8.875942,21.256591,25.106915,23.771562,24.51689,34.866629,35.262388,33.029554,36.230881,46.333557,43.584614,38.001327,24.320812,49.344578,72.17308,91.65081,49.27002,83.807144,101.93161,115.338821,41.22036,80.54718,101.032333,114.945946,33.36771,71.08532,90.669136,104.034004,26.475334,57.022018,73.104515,84.981537,-17.123698,-18.144371,-10.101256,-3.880519,10.874803,24.117673,28.227534,31.075957,29.121803,40.533958,43.403191,44.536558,41.867273,53.402744,55.008502,53.819621,49.401626,59.383086,59.674363,57.519768,19.518871,299.329796,-68.329868,286.195669
23,-24.609375,13.074044,0.539932,0.175309,7.06089,10.545044,14.563522,18.580971,-10.490284,11.832161,29.056091,40.304375,-16.253414,12.328835,34.479218,52.639847,-17.506485,10.694389,31.407738,47.92614,-15.413933,-1.916485,10.940323,22.587776,-21.204968,-36.420763,-38.867685,-32.973917,-18.90742,-15.595252,-9.798555,-6.1517,-1.38605,6.146698,11.63458,15.229936,12.752016,19.468361,21.861066,22.401691,23.726731,29.712878,29.060361,26.145927,24.235783,48.929214,71.542168,90.739746,49.687786,83.868256,101.862717,115.26947,41.602535,80.578079,100.798187,114.5755,33.519573,71.015625,90.383492,103.512955,26.33234,56.622562,72.669868,84.462318,-16.934433,-18.309676,-10.4323,-4.091644,10.732098,23.926,28.106256,30.917567,28.898946,40.127085,43.180766,44.474005,41.668808,52.927945,54.63979,53.553786,49.433613,59.085449,59.287867,57.065408,-5.104694,312.47862,-67.804127,286.445758
24,-8.878326,-6.402344,0.173779,-0.382729,9.620647,16.993561,21.631508,20.220108,-0.249138,26.838341,45.206337,57.524872,-6.394787,23.644638,44.28772,60.808067,-8.974457,21.322746,41.215668,55.475349,-7.963943,2.882423,11.740723,19.775734,-17.669757,-27.841223,-30.644259,-27.400449,-9.616021,2.743818,9.553777,11.005282,6.373198,19.774396,24.628473,25.137543,18.388593,31.331171,32.305469,30.141611,27.118867,38.208438,38.000339,35.207677,23.872833,48.376293,70.99268,90.279636,49.040051,83.280087,101.324558,114.726276,41.018429,80.211468,100.526562,114.3326,33.025761,70.669727,90.133381,103.351078,25.888538,56.17384,72.334728,84.407787,-16.687555,-17.939174,-10.232908,-3.976418,10.990894,24.269579,28.318986,30.893052,29.099017,40.401813,43.353297,44.430101,41.737721,53.198968,54.911307,53.740149,49.346174,59.28762,59.70178,57.519891,-14.033575,306.18244,-67.680902,286.169193
25,8.261433,-2.390173,-0.616035,-0.420767,11.40604,18.396435,18.802929,15.153866,3.791256,20.172672,37.142658,47.323437,-5.940285,15.485058,33.896542,47.931232,-15.481224,2.945194,21.331615,34.885197,-25.121784,-16.705627,-3.507729,6.157436,-24.612603,-35.940345,-41.856714,-43.758935,-13.889026,-3.629751,-0.771139,-0.822268,5.283303,17.351495,18.194821,16.449569,20.440683,31.495612,29.61099,27.027229,32.221674,42.274085,38.531948,33.219684,24.222336,49.461994,72.346859,91.626949,51.095352,84.84026,102.525158,115.630245,42.284031,80.563374,100.623264,114.236126,33.337898,69.705219,89.048023,102.316303,25.365314,54.595814,70.487881,82.413425,-16.834212,-17.562435,-9.422681,-3.544288,11.552946,24.950563,29.070056,31.654867,29.565912,41.127318,44.164203,45.532963,41.768349,54.035007,55.939204,54.969908,48.83167,59.590197,60.06302,58.01266,-5.765705,303.811996,-68.290501,285.768155
26,-4.416733,-0.901988,-0.347843,-0.552913,9.203053,17.886143,28.048038,33.489017,-1.503696,20.328541,37.030277,47.262325,-10.932369,15.203991,39.257755,57.147274,-14.812374,8.126106,28.656864,44.153194,-16.344566,-3.789597,10.660973,22.499943,-21.534406,-25.909176,-17.23559,-9.458558,-12.992287,-10.317321,-4.484871,1.541846,4.790597,12.431531,18.265031,19.790019,20.525528,26.489321,28.665529,28.166586,34.052635,38.365654,36.438177,34.398067,24.478455,49.772358,72.526817,91.848106,51.603527,85.282974,102.906303,115.876579,42.987843,81.093864,100.998344,114.450417,34.125938,70.324287,89.374809,102.319336,26.180134,55.225639,70.933685,82.65358,-16.32051,-17.098195,-9.148509,-3.35527,12.150196,25.477541,29.749496,32.414829,30.043243,41.589643,44.795354,46.142069,42.182818,54.453119,56.439074,55.352575,49.195256,60.029181,60.525963,58.340369,-10.19268,302.936669,-68.648586,285.241903
27,45.142078,-4.063115,-0.791416,-0.225204,-6.617088,-18.059235,-30.945168,-42.558174,-40.740509,-29.5158,-10.207672,1.628838,-47.669792,-29.594421,-9.180107,4.951973,-51.059647,-37.891273,-17.470894,-3.859863,-52.575302,-52.984028,-40.608101,-31.556396,-18.781944,-25.669585,-25.352805,-23.566489,-5.639789,6.446743,9.574587,9.191487,12.861561,23.004807,24.975695,23.503874,26.512292,34.345641,33.802546,31.417251,36.018213,44.563543,42.015845,38.079441,24.579906,49.965591,72.917004,92.313595,51.849117,85.644665,103.395023,116.46944,43.434849,81.721973,101.628284,115.075893,34.716167,71.02272,90.117817,103.129635,26.874619,55.93998,71.739635,83.480701,-16.177126,-17.089427,-9.402241,-3.576831,12.369534,25.224735,29.357072,31.919591,30.325751,41.682825,44.838641,46.131263,42.599077,54.700059,56.59944,55.41624,49.685061,60.516454,60.950868,58.582739,34.952803,298.902452,-69.436598,285.045598
28,-12.173653,-1.696716,0.074615,-0.591939,-0.935555,-7.515335,-16.489792,-26.421089,-29.108791,-14.646378,4.523964,15.80246,-36.677284,-15.109406,5.465469,19.821053,-41.512699,-24.082432,-3.222427,10.562897,-44.642143,-38.43092,-23.790321,-13.78418,-19.250567,-26.000628,-25.960614,-24.281682,-5.783791,6.936177,10.139171,9.723652,12.502421,25.062393,27.067058,25.230416,26.601954,37.47719,36.477944,33.676575,36.781262,47.318661,44.735086,40.508456,24.898052,50.429535,73.349133,92.937527,52.010822,85.818157,103.450298,116.247654,43.568344,81.944675,101.740208,114.955158,34.806347,71.564426,90.529804,103.295574,26.987801,56.173897,72.043476,83.783169,-15.995024,-16.588754,-8.666176,-3.085112,12.412512,25.647169,29.758759,32.107065,30.501184,42.061849,45.146035,46.017025,42.939446,55.229815,57.006931,55.558513,50.122748,61.041703,61.399546,58.871855,22.765217,297.227874,-69.375916,284.475796
29,-19.458046,-0.513516,0.302982,0.620159,3.593559,3.535995,-1.099205,-8.866482,-8.998375,7.09671,24.518967,33.897972,-14.74062,7.86438,26.840744,39.565544,-20.676613,-1.529617,18.048363,30.879135,-26.443748,-16.484528,-1.465645,8.240662,-17.354706,-22.767253,-21.330198,-18.49783,-4.476473,8.151425,10.828799,10.363263,11.678361,24.533933,26.48858,24.71727,24.425993,36.025746,35.044779,32.11219,34.161192,45.362347,42.928392,39.084676,24.79929,50.247574,73.144684,92.616119,51.455154,85.671844,103.404579,116.13945,43.165684,82.353058,102.023964,114.934044,34.751244,72.305832,91.126099,103.514442,27.369576,57.080555,72.911682,84.385643,-16.131184,-17.055896,-9.431326,-3.844519,11.849534,24.900174,29.033685,31.468751,30.081651,41.519989,44.396261,45.076936,42.630076,54.533456,56.031459,54.530492,49.901558,60.35016,60.413763,57.89027,3.241224,296.786173,-69.13888,285.167771
30,10.067139,0.219276,-0.378971,-0.461523,3.429108,0.417824,-6.730957,-16.310291,-16.589928,0.283928,17.295113,26.200676,-25.191021,-1.90567,16.738815,29.231987,-32.00243,-12.213821,6.947823,18.973045,-37.690773,-28.320637,-13.651085,-4.281349,-19.588651,-26.49914,-26.223362,-24.220858,-7.025962,5.510113,8.065901,7.005584,11.366769,24.876153,26.266279,23.669736,26.180569,38.512188,36.839493,33.140767,37.136698,49.473936,46.370854,40.979858,24.925003,50.345879,73.254032,92.653713,51.839161,86.079197,103.810101,116.593494,43.373852,82.429218,102.274876,115.508366,34.744549,71.855564,90.904255,103.601475,27.111511,56.381035,72.261715,83.951969,-15.876093,-16.746279,-9.135109,-3.566025,12.162979,25.176446,29.287294,31.902177,30.184219,41.603476,44.815917,46.025793,42.540785,54.49937,56.357069,55.160346,49.735202,60.454024,60.830763,58.364637,13.302097,297.096562,-69.524117,284.797362
31,-8.574257,4.341548,0.316372,-0.163639,7.608604,9.754143,6.531601,0.531807,-7.265911,7.270775,24.877739,35.83065,-16.479607,2.388268,22.12944,37.098427,-24.652405,-8.634281,11.479111,25.902214,-32.200012,-25.631275,-11.293144,-0.756454,-22.331357,-31.950898,-34.943138,-34.810004,-12.296854,-2.357322,1.350482,1.700359,6.784703,18.779968,20.858548,19.62144,22.408669,33.34831,32.511345,30.405841,34.615428,45.090583,42.297859,37.626749,24.985886,50.334492,73.208084,92.650795,51.971283,86.014595,103.649712,116.442604,43.499393,82.309914,101.983566,115.08007,34.728069,71.807899,90.604591,102.981377,26.851616,56.124744,71.950035,83.530884,-15.854604,-16.823035,-9.308504,-3.512857,11.915977,25.217942,29.508237,32.226614,29.988717,41.705796,45.095647,46.466135,42.473354,54.687215,56.528365,55.266619,49.88717,60.625505,60.891896,58.403354,4.72332,301.480177,-69.212265,284.67579
32,-12.446938,12.202067,0.578041,-0.001853,6.027088,10.882988,17.630882,24.426041,-5.517712,17.212143,34.550629,46.858406,-12.563953,15.934868,38.211708,57.071342,-14.920177,11.405411,30.867577,46.865616,-14.450684,-0.843258,12.483559,24.419975,-20.094078,-34.278024,-36.817695,-34.332365,-18.302328,-13.457144,-7.675144,-3.681127,-2.476747,6.07976,10.737594,12.029783,10.885054,18.661345,20.947592,19.852943,21.605358,28.001157,28.248529,25.094194,24.887066,50.465412,73.247566,92.335167,51.973515,85.870285,103.303757,115.957603,43.485489,82.097969,101.697235,114.665794,34.74741,71.777,90.471153,102.807083,26.871872,56.132984,71.845894,83.391037,-15.951922,-16.87929,-9.28862,-3.551204,11.396533,24.700844,29.216034,32.110523,29.723499,41.21735,44.734098,46.050493,42.469896,54.292259,56.249253,55.053827,50.139606,60.681018,60.891896,58.358153,-7.736177,313.722706,-68.646784,284.7144
33,-6.254539,-7.672736,0.009098,0.238295,8.780193,17.680435,25.59906,28.592262,1.769371,29.200974,46.989326,59.369202,-3.851795,25.080986,45.171204,60.058136,-6.543102,20.679932,39.272118,52.074165,-5.669518,2.147083,8.391151,13.286133,-17.847722,-27.939591,-30.10487,-26.474501,-11.476623,0.381432,6.2907,8.398982,4.599788,16.934001,22.48666,24.340963,17.424114,29.765304,31.493575,30.819754,27.378712,37.60069,37.262298,35.721749,24.950409,50.550098,73.463345,92.854786,51.044941,85.600605,103.348217,115.983639,42.339478,81.958179,101.867809,114.797688,33.622627,71.801205,90.703411,102.956829,25.976086,56.208286,72.145672,83.524761,-16.117969,-17.033913,-9.439106,-3.741334,10.715425,24.373258,28.690847,31.21156,29.326876,41.30343,44.596395,45.53463,42.261117,54.38754,55.999226,54.612188,49.932062,60.382949,60.40203,57.760471,-13.988886,306.07731,-68.635855,284.980035
34,4.763832,-4.467519,0.360889,-0.239036,12.35218,19.964218,21.308212,17.120476,6.85318,27.480125,43.369331,52.58812,-1.667004,22.802238,40.24189,53.015785,-10.363541,11.314316,29.814262,42.763824,-19.515381,-4.374046,11.622963,22.208405,-23.221675,-33.211718,-37.197584,-37.399816,-12.507052,-1.749945,1.202713,0.759345,6.180722,18.910199,20.064994,17.71502,21.829326,33.675217,31.990418,28.297497,34.367501,45.114727,41.354992,35.011681,25.025082,50.305653,73.303871,92.922821,50.555534,85.005569,102.959976,115.857925,42.075691,81.550941,101.643105,114.85199,33.627148,71.586456,90.636635,103.091583,26.200848,56.361866,72.403908,83.967819,-15.906227,-16.854837,-9.352594,-3.679028,11.524232,24.654222,28.865292,31.375137,29.972971,41.58989,44.901503,45.889633,42.822367,54.612188,56.307916,54.876109,50.406861,60.744127,60.86065,58.178768,-9.254637,301.636884,-68.304548,284.768092
35,7.939396,-0.119487,-0.095787,0.121587,10.398731,14.749546,12.854633,6.784115,-0.360146,18.557568,34.284611,42.436352,-8.91489,14.704685,31.389942,43.130894,-16.812744,3.142376,19.797306,30.754795,-24.632492,-12.913685,0.703754,8.971081,-22.39706,-32.187155,-35.082138,-35.442637,-11.514785,-0.8135,1.921241,1.293795,7.756778,19.738766,19.687822,16.980993,23.22785,34.666867,31.636836,27.395076,35.342848,45.817756,41.17289,34.137851,24.927063,50.389709,73.387871,92.733536,50.925293,84.825439,102.518578,115.3862,42.700596,81.639633,101.462746,114.62574,34.399738,71.641502,90.496902,103.037796,26.897793,56.283817,72.050743,83.404083,-16.200653,-17.652343,-10.443168,-4.834872,10.398831,23.012773,27.212172,29.846568,29.024608,40.204458,43.572881,44.600594,42.28026,53.831601,55.949578,54.764588,50.330476,60.763332,60.967479,58.229527,-1.331177,301.527015,-68.416271,284.899296
36,-11.660213,11.71325,0.727158,0.216867,6.16951,13.025436,25.348778,35.61161,3.362389,26.848984,42.794037,53.567734,-3.851395,21.673508,42.801704,59.207497,-7.512703,13.583851,30.627937,43.875046,-9.127579,1.73893,11.689453,19.584389,-22.760831,-34.575414,-34.580107,-31.045637,-16.092034,-10.893699,-6.068707,-1.239701,1.052906,8.952019,11.870282,11.653167,14.990592,20.207699,20.574867,19.501645,26.491112,29.904984,26.422384,22.353958,24.862232,49.905224,73.043289,92.622528,49.959641,84.042778,102.147789,115.439873,41.891899,80.836601,101.059456,114.286995,33.841209,71.230202,90.283241,102.614708,26.679096,56.548862,72.602463,84.167175,-15.711528,-17.49278,-11.13045,-7.014044,10.943346,23.525919,27.753105,30.265853,29.330952,40.751505,44.202489,45.230077,42.388385,54.050753,55.880047,54.354195,50.285769,60.700037,60.897207,58.039891,-13.014536,313.298511,-67.712259,285.17441
37,52.504807,-16.757703,-1.259823,0.094849,-2.30072,-12.390175,-26.866951,-40.911198,-45.634346,-38.087425,-16.090622,-1.01841,-54.687538,-41.87582,-18.091164,1.604233,-59.447422,-50.633297,-26.853905,-8.420906,-61.17445,-70.655537,-64.724808,-57.888565,-15.517508,-24.384311,-25.741647,-26.277641,-4.56317,11.44618,15.869053,15.319845,13.519759,27.818437,29.752707,27.608486,27.028588,38.286367,37.648423,35.448627,37.791437,47.961483,47.17256,44.439116,24.6381,50.065956,73.691082,93.606777,50.782013,85.250759,103.338947,116.634235,42.291126,81.375332,101.569805,114.759693,33.815231,70.792408,90.063915,102.612705,26.284847,55.651531,71.771107,83.498554,-16.520458,-18.281148,-12.956842,-10.161216,10.190547,23.488498,28.395433,31.331542,28.339117,40.765708,44.271958,44.946766,40.953552,53.775655,55.794894,54.355862,48.409297,59.614403,60.373995,57.961839,39.430218,296.554239,-69.032135,285.282689
38,-30.164452,7.152797,-0.633488,-0.199763,7.75795,6.962013,2.702522,-3.184204,-22.533073,1.924782,20.777092,31.638794,-30.988369,-2.776451,18.254242,34.278488,-32.529716,-8.336163,10.856209,25.19989,-30.906887,-15.777912,-1.652412,9.419403,-21.291048,-32.354252,-33.733571,-33.63477,-5.674122,6.516891,9.211124,9.990043,11.372697,22.493143,23.885924,23.57674,22.924099,31.710936,30.376942,29.242402,31.300296,39.554165,36.363644,31.920826,25.097008,50.216331,73.779373,93.397636,51.725121,86.032791,104.387398,117.692299,43.334599,82.280045,102.709351,115.707893,34.860306,71.841888,90.97126,103.086319,27.434521,57.025337,73.164597,84.454079,-15.895853,-18.013274,-14.771995,-15.198938,10.196599,22.733291,28.082914,31.415584,28.267671,40.612011,44.371314,45.189816,41.089836,53.861303,55.948096,54.723462,48.936152,59.926799,60.491753,57.958381,9.233608,303.748208,-69.697781,285.124098
39,-37.690887,-4.296964,0.775394,-1.929453,16.038494,30.447006,37.707253,36.171112,21.662979,54.831047,64.222412,63.924522,14.287434,53.466339,59.521408,56.533241,7.602367,44.305801,50.270691,46.643028,0.268593,29.41618,36.586533,34.411011,-25.298032,-37.717954,-40.115044,-37.618227,-5.409336,15.857259,13.019148,7.38115,14.941562,34.973519,27.701544,19.82003,28.860414,45.514376,35.41806,26.984436,37.860166,51.974581,41.823492,31.585583,24.36945,48.234901,71.019115,89.749775,52.208004,85.787716,104.0835,117.32008,44.429913,82.358036,102.91975,115.976887,36.141872,71.988888,90.720577,101.972637,28.574924,57.054577,73.005581,84.594326,-16.976979,-19.27922,-15.979957,-15.985514,11.09377,24.797175,30.853655,34.305133,28.648177,40.850059,45.006788,45.836837,41.201233,53.751511,56.360589,55.384253,49.299121,60.977173,62.752065,61.159708,-28.510952,299.543669,-68.976059,283.28707
40,-25.364399,-11.633716,-1.051884,-4.117703,19.724693,44.049911,62.696514,71.945515,37.703705,76.485958,88.488865,91.903782,30.792332,76.910648,83.791409,82.685795,23.578205,63.898716,70.278339,68.880215,16.201916,40.479698,43.50563,41.678352,-22.803192,-35.866739,-40.221378,-42.464832,-0.909275,24.784516,23.200988,19.229202,21.358603,48.722495,43.334648,37.02777,35.912805,58.213781,49.977634,43.236774,45.014383,62.231077,53.913852,46.604024,24.244022,48.191872,70.381622,87.610703,50.150642,83.300972,101.240959,114.92363,43.618183,80.404587,101.908493,117.759361,36.484623,70.500641,90.095215,103.034134,29.531651,56.314945,71.937675,84.508324,-16.911585,-21.469445,-22.950529,-28.543634,9.456767,22.919283,30.690511,36.496469,26.910027,40.145548,46.319169,49.740266,39.493402,52.586219,57.362551,58.376184,48.04744,60.820019,64.978785,65.209361,-53.94556,287.981321,-70.098152,279.240735
41,32.605305,4.392986,2.161102,-11.942653,7.792397,11.843548,18.387909,27.268753,0.325584,24.071274,30.523224,34.210167,-0.826263,19.095669,17.75671,18.481922,-1.599026,8.890743,5.80925,3.800468,-0.742378,-9.111385,-19.211197,-25.75367,-27.553837,-44.752685,-57.603934,-69.969886,-9.622381,1.262858,-0.020378,-4.419847,13.956643,24.564993,20.741037,12.418749,30.491674,40.904646,36.685055,30.488772,42.505217,52.882621,52.872741,50.497696,20.345879,43.241272,61.439323,76.399956,50.349483,77.682037,94.289017,107.653656,43.481712,71.895447,88.900452,103.420143,34.670277,55.941353,67.391281,74.286461,25.491886,40.499668,46.254101,47.072983,-17.06522,-24.291995,-29.159224,-37.097919,6.440506,22.832215,32.753221,40.383411,22.699451,41.357585,50.719257,57.977894,35.513835,54.774406,63.251935,67.070642,44.706743,62.954422,68.463917,67.685306,-21.352329,292.316972,-67.949123,267.240747
42,47.202759,0.081819,21.07172,-15.728077,-16.804047,-31.160202,-40.041275,-45.948486,-34.039192,-57.740307,-69.538765,-76.213017,-30.683441,-59.886189,-75.037251,-82.225685,-27.564983,-56.161995,-70.857811,-79.71508,-23.834839,-46.798325,-60.412159,-69.216213,-28.465211,-49.534698,-68.90253,-89.358836,-13.488513,-5.039081,-3.74615,-3.667233,9.527162,20.426789,21.029041,20.305944,26.829504,37.192211,37.764267,37.400434,39.009711,48.140868,50.272184,50.878017,6.612167,18.637447,28.092728,32.094555,31.824245,32.74847,20.13382,5.756607,31.929703,31.424274,12.839584,-7.196846,27.10659,28.368359,10.38866,-6.81284,19.08617,19.303722,11.756401,3.132362,11.809211,25.383557,35.72496,46.121012,27.630654,53.730021,64.186466,66.476974,24.263836,52.244615,59.861652,60.902888,20.836936,44.651599,49.806894,48.308706,17.406885,30.329394,30.684582,26.085535,25.893288,292.693464,-46.834545,251.807343
43,35.15316,-11.90128,-31.359501,-39.407446,-31.65596,-59.51683,-82.098141,-97.96772,-69.726562,-102.987442,-119.415894,-128.795185,-63.15239,-99.768734,-118.292599,-128.659744,-54.289742,-88.300266,-106.513996,-118.040142,-45.111809,-71.696663,-87.235336,-99.827213,-19.723514,-21.703047,-11.980506,3.370399,8.058738,20.443153,25.784193,28.82361,26.757133,39.26684,42.441923,42.747896,39.975735,50.947795,54.363704,55.640517,49.101828,58.502032,61.787524,63.561428,19.929829,42.681599,58.67609,63.753719,40.567989,77.288532,84.936333,83.325577,42.833004,81.395988,82.366791,73.534756,44.991474,82.604141,86.576843,80.664368,47.445374,76.989784,86.136017,87.680168,-8.879647,-18.341848,-32.339308,-49.947191,3.160016,7.290315,7.011698,9.434413,6.165902,7.167988,4.49086,6.740675,6.716654,7.972102,5.924582,7.875586,6.495526,8.903607,9.565262,11.972726,60.304155,281.39689,-78.936338,213.004604
44,3.606262,1.774398,2.938328,-40.275965,-28.57132,-55.196915,-79.869061,-94.912148,-67.013226,-100.611935,-117.035809,-128.265953,-62.096786,-98.902359,-117.650242,-131.052647,-54.975243,-89.468765,-107.01416,-119.468765,-47.216034,-74.016209,-88.179245,-99.039688,-17.148151,-19.011593,-7.441048,5.647446,10.591122,21.392566,25.179595,27.209949,28.784275,37.820707,40.352783,41.307506,41.598659,51.479466,53.588181,53.51161,49.692409,59.419581,60.858736,60.409131,7.782326,20.25919,29.002476,31.538944,49.760742,65.735493,63.491592,58.004436,55.165043,76.89497,79.242611,75.624161,57.062073,79.988651,83.925304,81.549511,57.159805,75.635548,83.297939,86.480312,-27.283617,-47.014479,-64.327627,-81.302074,-19.190423,-17.395029,-15.046785,-13.035821,-3.992473,-0.601326,0.355806,1.708757,8.9598,12.984815,14.550311,17.079423,19.605262,25.191019,26.79301,28.125707,62.075529,284.70452,-77.832899,174.26187
45,-2.369614,0.872286,-14.070511,-33.559496,-28.679466,-54.700813,-79.053211,-95.551987,-64.782257,-99.438629,-115.842476,-127.34745,-59.604149,-98.129597,-116.236897,-129.655781,-52.571869,-88.171577,-105.474815,-118.235664,-45.202332,-73.244305,-87.470684,-98.620377,-18.65764,-19.180604,-6.907957,6.403332,10.234513,20.830699,24.409073,26.098194,28.341587,36.927611,38.255553,38.499776,40.990726,50.263415,51.430066,50.997319,48.953318,58.201739,58.561744,57.675132,35.842552,61.426792,78.376694,85.110683,73.962822,90.477676,80.625458,74.452915,64.608765,77.841053,68.529339,65.055313,50.864639,65.415688,57.320309,52.758522,34.830837,42.979946,42.421646,44.700794,4.059966,-2.83175,-14.125592,-24.145337,-6.3782,-28.415594,-27.967163,-20.240303,-20.328606,-39.387562,-38.072433,-29.306807,-34.016635,-51.946361,-49.88754,-41.039602,-45.748935,-68.401456,-75.34495,-76.315883,57.382708,286.272857,-94.226618,141.398424
46,-0.069923,-0.30443,-6.738968,-33.77871,-28.582535,-54.214211,-78.219337,-94.910431,-64.78775,-98.667355,-115.011463,-127.105293,-59.971619,-97.602196,-115.718994,-129.990177,-53.205643,-88.165512,-105.76292,-119.281082,-45.999413,-73.290825,-87.704887,-99.285793,-18.745758,-19.18573,-6.923024,6.310583,9.707968,19.044815,22.667588,24.850959,27.590949,35.560889,36.995351,37.464839,40.257872,49.432069,50.796136,50.513072,48.497168,58.110225,58.59583,57.646171,18.311377,33.956709,45.15152,49.288902,42.016268,52.642164,49.083824,45.667992,42.04236,50.619593,47.290821,45.699921,40.676508,53.496008,51.264668,48.375092,39.008675,52.541828,55.799074,57.389803,-14.91998,-33.272898,-50.23129,-64.046524,-31.531891,-47.830573,-48.193696,-44.470517,-31.129309,-45.407564,-45.010555,-39.914232,-30.120061,-43.814233,-43.718813,-39.104483,-27.806689,-41.018051,-45.27707,-46.138272,57.256765,288.343487,-101.021605,109.994774
47,-1.991959,-0.270096,-6.738968,-33.778711,-28.538361,-54.169121,-77.893753,-93.951073,-64.146767,-97.399693,-113.398705,-125.674667,-59.150391,-95.833797,-113.698654,-127.903748,-52.146606,-86.615353,-104.129848,-118.036423,-44.712753,-72.50885,-87.136059,-99.31303,-18.569584,-18.983991,-7.152488,5.338261,9.060267,19.132809,23.282067,25.618702,26.817339,35.661233,37.458479,37.906787,39.489882,49.049773,50.455582,50.045621,47.83119,57.281596,57.978759,57.357179,0.780201,6.486626,11.926346,13.467121,10.069714,14.806652,17.542191,16.883068,19.475956,23.398132,26.052303,26.344528,30.488377,41.576328,45.209026,43.991661,43.186512,62.10371,69.176502,70.078812,-33.899926,-63.714044,-86.336987,-103.94771,-56.685581,-67.24555,-68.420228,-68.70073,-41.930012,-51.427565,-51.948676,-50.521655,-26.223486,-35.682105,-37.550086,-37.169364,-9.864443,-13.634645,-15.209188,-15.96066,55.934572,288.941509,-107.090807,77.084182
48,0.112953,-0.405947,-3.066845,-2.634026,-28.103943,-53.9217,-77.736454,-93.753777,-64.145737,-97.437572,-113.653164,-126.014042,-59.30563,-95.467472,-113.240719,-127.312202,-52.340012,-86.130409,-103.528175,-117.222977,-44.849739,-72.020988,-86.390877,-98.223896,-19.02419,-19.66905,-8.052377,4.775036,7.884478,18.113989,22.331604,24.880352,25.882129,34.817105,36.777063,37.461999,38.903254,48.770846,50.639105,50.518383,47.422587,56.668538,57.479074,57.07782,16.341705,26.448555,33.39695,38.722286,20.039349,22.382641,25.214138,29.08659,16.76405,13.477707,16.516571,18.701992,13.608742,13.521137,15.573349,16.569614,12.354584,16.878376,18.625088,18.960743,-27.239434,-49.743569,-66.40874,-78.097599,-52.855728,-75.333094,-88.413468,-97.655004,-48.129815,-75.590532,-98.48388,-116.257964,-41.335911,-66.59362,-87.844963,-103.355833,-32.671124,-49.119334,-62.472305,-73.352234,55.279684,288.991156,-110.925493,74.905751
49,-1.375694,0.310419,-10.053978,-11.271241,-26.896591,-52.667198,-76.526184,-93.851509,-63.645344,-97.108727,-112.981396,-124.288788,-59.214993,-95.958996,-113.704777,-127.200394,-52.441521,-86.519222,-103.947258,-117.375526,-44.8312,-71.649799,-85.858612,-97.666569,-19.334918,-20.108404,-8.447765,3.701073,6.887209,17.437699,21.883482,24.613776,24.637303,33.41074,35.292275,36.113432,37.779396,46.399507,48.206385,48.526376,46.579262,55.151701,56.403135,56.681321,28.273945,41.449356,48.529758,52.209206,27.966843,26.719952,28.939819,32.81971,15.043888,14.153824,17.943878,21.671791,3.557224,3.672867,7.461662,11.386528,-4.934635,-4.384174,-2.107143,1.315327,-19.101008,-37.320035,-53.185228,-65.902633,-50.941373,-72.821829,-87.963802,-99.995437,-52.941036,-77.434492,-95.678527,-110.038709,-52.089313,-75.336028,-92.43873,-104.025886,-48.057104,-66.144139,-78.621458,-87.691853,52.596502,289.126714,-122.286959,63.459648
50,0.356827,-0.451828,-4.54565,-21.024379,-27.146301,-53.201408,-77.237206,-93.814316,-64.065456,-96.835384,-112.625828,-123.969784,-59.595051,-95.432053,-113.052864,-126.660862,-52.94529,-86.125259,-103.086948,-115.90519,-45.618668,-71.63372,-85.386143,-96.506081,-19.276379,-20.127115,-8.203666,4.088186,7.169346,17.337972,21.643643,24.192638,25.017377,33.528745,35.896749,37.229694,38.07444,46.887211,49.171791,49.883218,46.702825,55.395677,56.805562,57.066458,0.143623,7.272434,19.204273,27.114143,0.093899,15.11507,24.011822,27.576256,7.889843,13.900108,22.591953,28.151608,19.548168,30.021114,32.732506,31.268864,34.509315,44.595966,43.93198,40.668983,-32.641144,-59.36521,-73.367301,-79.199041,-73.046415,-101.727289,-112.661095,-115.928031,-64.967763,-101.784779,-116.237339,-123.297078,-53.932192,-86.07041,-88.084585,-87.19257,-40.08105,-65.311342,-71.357634,-73.674756,51.486168,288.620206,-128.29977,42.380589
51,-0.247192,-0.842584,-2.30484,-8.765193,-27.276192,-52.625656,-76.374722,-92.494068,-62.581444,-96.023312,-112.23484,-123.891621,-57.834778,-94.422226,-112.652092,-126.720371,-50.957565,-84.802895,-102.194366,-115.356731,-43.518448,-70.148964,-84.109898,-95.606918,-18.601077,-19.574448,-7.841623,5.017344,7.471862,17.862912,22.35649,24.945252,25.545281,34.106976,36.816831,38.30199,38.76308,47.550102,49.933791,50.553642,47.174474,55.909749,57.50927,57.844637,-6.37104,1.537628,16.868534,29.677849,-5.072536,11.220016,20.830822,27.827682,7.59779,15.686073,22.286739,27.394867,21.883564,31.399384,31.024017,27.572136,36.211052,39.417915,35.718784,30.868835,-32.894815,-57.396082,-73.580155,-82.639187,-68.308553,-100.12008,-117.551789,-129.382118,-60.265654,-95.533414,-114.419531,-128.826056,-49.948766,-81.43984,-85.408106,-84.213575,-38.632694,-63.533363,-71.043231,-73.015015,50.557938,287.724007,-131.285648,33.561781
52,-0.252342,0.525805,3.688374,-6.042926,-26.750221,-51.985817,-75.853386,-91.741104,-62.114754,-95.869789,-112.327538,-124.073467,-57.429771,-94.746437,-113.166504,-127.109699,-50.588036,-85.191822,-102.719307,-115.9132,-43.168831,-70.808315,-84.95636,-96.314907,-19.312935,-20.160954,-7.932952,5.392293,7.219426,17.226883,21.877615,25.073014,25.189105,33.462734,36.170242,37.94112,38.372509,47.035968,49.397242,50.329982,47.057828,55.662439,56.876761,57.174953,19.256859,28.456192,36.581726,41.86655,-1.360073,9.138165,17.880478,26.298351,-1.660995,9.799862,18.118057,25.478153,2.894669,15.334511,21.552773,26.080971,10.693989,17.511806,21.287041,24.87299,-24.014025,-47.401469,-64.232346,-77.22065,-67.332742,-96.592187,-116.278094,-132.01778,-63.944126,-94.916713,-117.771713,-138.225673,-56.428947,-84.767044,-105.349753,-121.969229,-45.659027,-65.695584,-79.3038,-91.345594,49.067345,288.586367,-128.835526,27.85541
53,0.023232,-0.18099,-2.766209,-4.383353,-26.234779,-51.111031,-75.003376,-90.727615,-61.744194,-95.645599,-112.028217,-123.579426,-57.195053,-94.675484,-113.037815,-126.741657,-50.376892,-85.007,-102.306576,-114.955559,-43.034019,-70.653877,-84.5961,-95.479145,-19.257792,-20.330212,-8.463697,5.365432,7.160701,17.181558,21.82945,25.040471,25.04572,33.471626,36.248233,37.691957,38.311623,47.263086,49.647578,50.323622,47.10834,55.811813,56.943266,56.96105,-8.941727,-2.222271,15.022545,27.856636,-11.619301,6.496181,19.579983,29.836178,1.416836,15.927773,28.048382,38.766918,16.98658,27.010918,34.858646,41.182423,33.538513,36.610165,37.546978,38.280373,-24.936669,-49.16929,-63.770083,-70.007708,-58.015222,-90.794996,-107.987175,-118.705225,-52.061711,-92.834365,-116.629207,-135.180297,-43.813183,-82.149753,-105.114083,-121.698206,-34.313716,-61.777551,-73.904282,-82.930495,48.16678,288.353383,-132.52553,23.420063
54,-0.175095,-0.389645,1.446075,-0.111243,-26.241074,-50.863037,-74.31324,-89.564152,-61.428051,-95.01812,-111.309185,-122.649136,-56.810532,-94.15678,-112.264881,-125.832024,-49.943161,-84.538479,-101.670685,-114.238529,-42.740593,-70.581722,-84.603596,-95.635357,-19.173812,-20.114579,-8.003471,5.773417,7.468898,17.5972,22.092877,25.107779,25.548615,33.940496,36.447748,37.685165,38.843541,48.168965,50.188697,50.490224,47.510458,56.549731,57.466477,57.040893,-8.942242,1.432629,22.985287,38.097496,-10.137463,9.103317,16.076317,14.869537,3.67979,22.383041,34.518986,41.997471,19.577866,33.151588,42.914028,48.975792,35.015087,40.797844,42.518349,42.495461,-25.929492,-53.6746,-69.676355,-75.231638,-60.413207,-91.107021,-86.160041,-76.831715,-51.224622,-90.086009,-106.628697,-117.348538,-41.237296,-79.420848,-99.072608,-111.930094,-31.926322,-60.910452,-73.321822,-80.406601,45.92185,287.889143,-133.14929,23.234225
55,1.020699,-0.100777,3.490276,2.905326,-26.178474,-50.962143,-74.542179,-89.252815,-61.303425,-95.343704,-111.984043,-123.386078,-56.481056,-94.602871,-113.005886,-126.383457,-49.48185,-84.956703,-102.369347,-114.750881,-42.169762,-70.90868,-85.174999,-95.900288,-19.205798,-20.345217,-8.239728,6.158863,7.794816,17.411208,21.645928,24.598215,26.165255,34.471982,37.107737,38.379672,39.450609,48.785666,50.815155,51.136381,48.053738,57.212868,57.733918,56.910723,-12.708607,-5.842381,11.791019,23.35247,-14.634418,6.280289,14.467621,13.56411,-0.300465,21.725464,29.281483,28.454075,16.758442,36.438389,46.795406,51.302319,33.42453,43.508205,48.520489,50.854511,-28.446408,-59.634565,-83.021916,-93.324478,-55.76621,-90.240817,-85.658134,-76.544174,-45.045536,-83.643743,-85.373557,-81.263017,-35.391446,-75.108354,-88.483925,-94.705958,-28.057288,-58.517716,-72.851901,-82.333955,46.03961,287.375318,-130.561953,25.726503
56,0.078163,0.009448,3.732319,4.60655,-26.481171,-51.30558,-74.750748,-89.804535,-62.38512,-96.342201,-112.605858,-123.720932,-57.444077,-94.871407,-112.638931,-125.536251,-50.389023,-85.053978,-102.117805,-114.414997,-42.978745,-70.987072,-85.023651,-95.801239,-19.44786,-20.169537,-7.843414,6.66608,7.802844,17.918858,22.54878,25.830074,25.909053,34.803458,37.348255,38.581163,39.129137,48.759607,50.596559,50.815773,47.768328,56.807662,57.219599,56.584867,-14.230843,-10.146275,9.922943,23.631649,-18.590012,3.906555,9.191952,5.561943,-2.930145,20.280018,22.673721,17.357769,14.971848,34.900017,36.451206,32.951202,32.39748,44.617081,50.332432,53.468571,-24.419355,-55.463294,-78.850213,-86.928957,-49.844037,-90.893179,-78.177102,-67.972445,-39.174153,-82.789457,-71.33176,-61.618173,-31.257842,-72.507612,-65.024666,-56.060081,-26.460978,-59.35289,-74.190496,-83.980066,45.695887,285.974077,-127.25152,28.922365
57,-0.049553,-0.486284,1.724167,7.052947,-26.233864,-51.760025,-75.70261,-91.389141,-62.020798,-95.878487,-111.986847,-122.699146,-56.830559,-94.939842,-112.890186,-125.765934,-49.689217,-84.919109,-102.033405,-114.099827,-42.403221,-70.845108,-84.918251,-95.533504,-19.346528,-19.674916,-7.059986,7.114203,8.797581,19.87826,24.339789,27.346108,26.930466,36.129116,38.941786,40.431453,40.027358,49.917428,52.034417,52.475191,48.448138,57.61369,58.459486,58.247496,-15.157127,-14.731922,0.123425,12.123928,-19.210854,2.379684,7.579365,5.074196,-2.747841,20.653267,23.449745,18.860035,15.016308,35.165977,37.916164,35.366135,31.861153,45.693455,50.617447,51.931915,-25.519624,-55.630668,-79.396611,-89.133138,-50.116418,-89.13391,-78.06024,-67.23956,-38.690987,-79.571735,-70.891233,-61.663714,-29.57431,-70.084031,-66.413587,-58.899426,-23.499829,-55.100325,-66.583339,-72.846899,45.154552,283.758889,-126.019135,34.246408
58,0.349846,-0.144187,1.417522,7.114821,-26.880569,-52.233696,-75.737171,-91.351604,-62.915268,-96.48983,-112.499828,-123.590813,-57.916489,-95.427532,-113.288269,-126.624241,-50.763588,-85.483646,-102.520065,-114.974213,-43.361893,-71.014595,-85.006428,-95.914249,-19.153681,-19.293669,-6.520226,7.200222,8.706685,19.142442,23.377471,26.29067,26.592012,35.276096,37.557774,38.833599,39.730215,49.095036,51.070616,51.636621,48.511988,57.458697,58.185931,58.055453,-16.459465,-18.652668,-5.757351,7.498741,-19.159012,1.071739,5.04467,2.043228,-1.828136,19.254742,20.394287,15.585308,16.118031,34.685612,35.641937,32.106113,32.908745,47.178841,47.56897,44.273243,-25.145138,-53.397588,-75.034469,-84.287676,-49.462451,-88.232817,-77.575591,-65.962006,-39.572103,-80.952135,-71.98684,-61.305747,-31.39746,-71.996442,-65.982044,-56.019912,-25.67153,-59.001407,-62.660181,-59.539778,45.693111,281.783293,-124.412899,39.52982
59,0.066032,-0.278556,-0.174065,5.931467,-26.919022,-52.228889,-75.907402,-91.84885,-62.69783,-96.292133,-112.385902,-123.541203,-57.69413,-95.395088,-113.28558,-126.649189,-50.618935,-85.5023,-102.636852,-115.152569,-43.391533,-71.205311,-85.234337,-96.260262,-19.033144,-19.473795,-6.944451,7.106731,8.81024,19.512204,24.000841,27.114297,26.878287,35.556196,37.89382,39.305743,40.093369,49.480111,51.580366,52.307539,48.779059,57.705884,58.530746,58.503205,-16.130104,-17.816505,-5.750599,7.776489,-19.506168,1.725998,6.087685,3.120174,-2.839165,20.18795,21.787148,17.243328,15.276432,36.078472,37.122402,33.185349,32.678604,48.033257,48.205948,44.457951,-25.98939,-53.052218,-73.396416,-82.426117,-51.486228,-89.205355,-79.631139,-68.451999,-41.679552,-81.847732,-73.780133,-63.491527,-33.33244,-72.693295,-67.361116,-57.980271,-27.462322,-60.134435,-63.195495,-59.760567,45.782833,280.584764,-124.563274,44.541313
60,0.269394,0.279729,0.047264,3.403775,-27.052917,-52.536621,-76.20575,-91.635303,-63.150101,-96.771069,-112.706394,-123.545151,-57.831001,-95.291805,-113.027458,-126.074638,-50.617905,-85.277596,-102.34417,-114.66116,-43.263702,-70.678997,-84.428787,-95.046158,-18.646278,-19.231487,-7.050786,6.762102,9.073853,19.619094,24.140891,27.143073,27.115347,35.987337,38.625685,40.180499,40.159874,49.622199,52.005518,52.885276,48.598377,57.815058,58.624915,58.363834,-17.401085,-19.162903,-7.166004,7.446442,-18.634415,1.056061,3.991871,0.577927,-0.841484,20.25135,20.332146,15.936012,17.685814,36.541443,35.71209,31.417751,34.846859,48.275585,46.787453,42.73138,-27.290903,-53.641842,-73.054906,-80.67784,-51.859694,-90.658497,-81.238101,-70.110739,-42.222925,-83.371207,-75.869829,-65.315726,-34.241777,-74.890097,-69.593826,-60.079384,-28.526653,-61.816207,-64.903728,-61.309205,46.287174,280.417853,-124.281063,47.498448
61,0.972519,-0.299984,-0.695915,0.552234,-27.938805,-53.515434,-76.67244,-91.978397,-63.209324,-96.407089,-112.149582,-123.16412,-57.522583,-94.009266,-111.316853,-124.265785,-50.028534,-84.321556,-101.22242,-113.516464,-42.588844,-69.257183,-82.921829,-93.731976,-18.083485,-18.193833,-6.075067,6.478915,9.585269,21.037871,25.498351,27.652761,27.710868,37.27261,40.418856,41.829729,40.586323,50.287066,52.929242,53.728107,48.656175,58.175495,59.110952,58.74891,-18.121033,-20.437202,-10.53154,1.464386,-17.786751,2.258034,5.465412,2.11916,-0.167255,20.993156,21.082478,16.75993,18.114681,37.068272,36.344604,32.083569,35.098801,48.269863,46.537113,42.514858,-28.033298,-54.24573,-75.376011,-86.172082,-51.631742,-91.253647,-82.853399,-71.602011,-42.747309,-84.405743,-76.979576,-66.208514,-34.876262,-75.625205,-70.83646,-61.140843,-28.89734,-62.431519,-65.854653,-61.893055,47.811384,280.027405,-124.425287,47.960217
62,-0.46051,0.747797,-0.920048,-0.020007,-27.780075,-53.161812,-76.455288,-92.391529,-62.274113,-95.702133,-111.539783,-122.622414,-56.658554,-93.523407,-110.786076,-123.531761,-49.462509,-84.15659,-101.39637,-114.059258,-42.432747,-69.880428,-84.059486,-95.316639,-18.550256,-18.878089,-6.954578,5.474977,8.984932,20.06382,24.499846,26.986536,27.265833,36.627072,38.985011,39.996298,40.336172,49.854319,51.739373,52.011816,48.565588,58.02927,58.756999,58.338393,-17.714596,-19.341946,-9.084778,2.668705,-18.142376,2.461796,5.661335,1.823845,-0.677547,21.352844,22.048988,17.530518,17.694397,37.005501,37.164745,33.227234,35.047016,48.354092,47.314739,43.636036,-28.639532,-55.837934,-78.009789,-89.246111,-53.553817,-91.756851,-82.414168,-71.400797,-44.537732,-85.142827,-77.356748,-67.037637,-36.365806,-76.363276,-71.269361,-61.845569,-30.091315,-63.16922,-66.504638,-63.023675,47.888002,280.798158,-124.808207,47.963166
63,-1.532936,0.633559,-1.030369,-0.758202,-26.855621,-51.950455,-75.072041,-90.974007,-62.114925,-95.16758,-110.162659,-120.466805,-56.49147,-92.874813,-109.174347,-120.995064,-49.114952,-83.283005,-100.033836,-112.651348,-41.783066,-69.232006,-83.41135,-94.850178,-18.703335,-18.834864,-7.08339,5.361356,8.829197,19.844359,24.30558,27.131093,27.010433,36.648067,38.942712,40.051255,40.059839,49.933606,51.744684,52.092709,48.392378,57.930717,58.880685,58.818502,-18.511219,-21.038532,-10.447311,4.195232,-18.395004,0.835133,3.36525,-0.264244,-0.465546,20.231209,20.011997,15.209999,18.027592,36.31937,35.098801,30.535755,35.243225,48.09145,45.567741,40.825424,-28.899193,-55.405063,-76.672955,-85.599934,-52.657633,-91.630603,-82.219068,-70.958819,-44.376347,-85.278153,-77.390587,-66.511276,-36.802999,-76.96099,-71.009794,-61.056924,-30.846986,-64.544649,-65.805562,-60.350592,46.609869,281.124123,-125.583773,46.897369
64,-0.198097,-0.074039,-0.988312,0.604629,-26.991692,-51.708412,-74.581089,-90.57003,-61.90567,-94.593658,-109.506969,-119.987869,-56.498451,-92.197437,-108.278675,-120.062027,-49.322205,-82.882462,-99.557991,-112.09671,-42.181892,-69.239216,-83.399849,-94.79147,-18.488444,-18.511168,-6.624152,5.373521,8.758987,19.726972,24.167753,27.044334,26.946398,36.784041,39.226579,40.288068,40.045266,50.163997,52.154398,52.598507,48.502355,58.181362,58.967938,58.641587,-18.456402,-20.500431,-9.547005,4.764061,-18.923378,-0.475388,3.33189,0.211315,-0.905571,18.518143,19.239063,14.868679,17.865429,35.100574,34.923134,30.859222,35.407391,47.61097,46.310349,42.271557,-27.900473,-54.716577,-76.186701,-85.098675,-52.302259,-91.841666,-82.521552,-71.297118,-44.405339,-85.846349,-78.057739,-67.386773,-37.343994,-78.121619,-72.717779,-62.891498,-32.067143,-65.949224,-69.013928,-64.986411,46.656876,281.187818,-126.326981,47.639733
65,-0.239754,-0.658877,-0.705013,-0.380105,-26.86924,-51.80706,-74.514771,-90.590401,-61.640453,-93.891964,-108.709145,-119.292412,-56.156387,-91.538944,-107.664642,-119.728432,-48.763046,-82.166634,-98.94104,-111.884251,-41.382294,-68.472233,-82.794914,-94.649048,-18.463126,-18.320544,-6.516274,5.318007,9.318384,20.311378,24.698621,27.407303,27.548464,37.183937,39.503406,40.289736,40.665919,50.867334,52.974382,53.182357,49.130295,59.021538,60.178185,59.918339,-18.389626,-20.47348,-9.392567,4.69162,-19.373531,0.049667,3.023243,-0.787868,-1.419353,18.626404,18.790569,14.022903,17.378883,34.888859,34.237804,29.976311,35.052509,47.326584,45.203876,40.758419,-27.90214,-55.331827,-77.09894,-86.470615,-52.003912,-91.859264,-82.110202,-70.891819,-44.044315,-85.671472,-77.089616,-66.333126,-37.170784,-77.839451,-71.24849,-61.118211,-32.143961,-65.908561,-66.55833,-60.944013,46.526957,280.726589,-126.922159,47.457276
66,0.283928,0.562793,-0.042629,0.475077,-27.380447,-52.256355,-75.076103,-91.301537,-61.298561,-93.427849,-108.307514,-119.265003,-55.846024,-91.110992,-107.347412,-119.812202,-48.575134,-81.932659,-98.869343,-112.188206,-41.363869,-68.247013,-82.617989,-94.619064,-18.526606,-18.675301,-6.881713,4.896314,8.939731,19.578277,23.737846,26.034344,27.276948,36.654859,38.727574,39.398924,40.303135,50.262489,52.27475,52.501682,48.64117,58.316286,59.259215,58.943609,-19.125137,-21.832867,-10.950966,2.740173,-18.691921,-0.1161,2.696686,-0.951805,-0.333538,18.101521,17.746525,13.412991,18.424015,34.246502,33.249493,29.142094,35.675697,46.694641,45.274086,41.764927,-27.045445,-54.223438,-75.760716,-84.943033,-52.132662,-92.265953,-82.552798,-70.828464,-44.007697,-85.620651,-77.415164,-66.424702,-36.913686,-77.771371,-72.130687,-62.156822,-31.60241,-65.264134,-69.109672,-65.585143,47.036705,281.565638,-126.738968,48.208608
67,-0.514526,-0.151906,-0.544968,0.735262,-27.050056,-51.403198,-73.974781,-90.508461,-60.533295,-92.612343,-107.503452,-118.713512,-55.348549,-90.455475,-106.667004,-119.084129,-48.216133,-81.469746,-98.518353,-112.178364,-40.847511,-67.692947,-82.082348,-94.428062,-18.485974,-18.901925,-7.529969,4.111034,8.429116,18.875742,23.390377,26.134503,26.770347,36.023955,38.122605,38.783581,39.935906,49.986094,52.17811,52.564297,48.388858,58.34747,59.656456,59.749699,-18.554878,-20.757065,-9.388161,4.739857,-18.59396,-0.26144,2.258892,-1.528816,-0.12743,18.68391,18.282108,13.67466,18.737698,35.042324,34.056873,29.874401,36.123676,47.32996,45.804863,42.025166,-28.073899,-55.596983,-76.873675,-85.327954,-52.73337,-92.731396,-83.071255,-71.685745,-44.27767,-85.972104,-77.831609,-67.097535,-37.11524,-78.473597,-72.801019,-62.950655,-31.862317,-65.856938,-69.759502,-66.524645,46.761503,281.493545,-127.044611,49.023683
68,-1.570587,0.474058,-0.923138,0.14851,-26.492157,-50.719872,-73.183079,-89.603577,-60.672112,-92.348671,-107.097473,-117.970219,-55.367661,-90.004978,-106.11454,-118.463516,-48.010712,-80.685139,-97.37051,-110.70116,-40.317078,-66.921959,-81.16642,-93.263569,-18.808805,-19.311021,-7.75227,4.077256,8.323091,18.772187,23.111203,25.723122,26.421828,35.521307,37.877209,38.812851,39.344831,49.072497,51.485209,52.009223,47.656992,57.316671,58.969791,59.285706,-17.99778,-19.736996,-7.979736,6.332359,-18.433685,0.334969,2.922134,-0.854645,-0.264816,18.976765,18.750744,14.084988,18.638649,35.37426,34.407978,29.995995,36.258316,47.834187,45.778542,41.261272,-28.6504,-55.978539,-77.108203,-85.874723,-52.415942,-93.025545,-82.754907,-71.011924,-43.885925,-86.349522,-77.984811,-67.100715,-36.823067,-78.700746,-72.739762,-62.788992,-31.857377,-66.372307,-69.333486,-65.262189,45.312538,282.063841,-127.846127,49.268431
69,-0.659752,0.083363,-0.485229,0.590951,-26.328621,-50.515251,-72.873631,-88.992348,-60.11673,-92.001171,-107.062683,-118.202305,-55.011864,-90.135956,-106.576023,-118.974209,-47.758713,-81.05484,-98.209476,-111.697884,-40.01255,-66.984444,-81.558323,-93.86776,-18.789292,-19.308489,-7.752332,3.952891,8.160193,18.130106,22.610469,25.554543,26.295981,34.923872,37.389133,38.613212,39.390464,48.65562,51.106555,51.788712,47.858978,57.12969,58.693952,59.001963,-18.690434,-21.407433,-10.045052,4.434071,-17.621384,1.155338,2.697659,-1.535568,0.773335,19.503651,17.878246,12.966213,19.360542,35.792828,33.577709,28.955498,36.288872,47.814503,45.138645,40.640831,-28.609522,-56.128222,-77.603348,-86.06723,-52.532403,-93.60816,-83.216955,-71.06293,-44.054288,-86.445729,-77.583588,-66.224384,-36.930421,-78.681572,-72.207165,-61.737877,-31.797757,-66.379532,-68.48837,-63.447499,44.761791,282.180194,-128.222351,49.892372
70,-1.032715,0.132269,-0.221386,1.130403,-26.200447,-50.539513,-72.930107,-88.895473,-59.949989,-92.031097,-107.268391,-118.561649,-54.660473,-90.132122,-106.959114,-119.545956,-47.201271,-80.832996,-98.083935,-111.676998,-39.240875,-66.396561,-81.014614,-93.326111,-19.203575,-19.559134,-7.338604,4.969982,8.127033,18.282012,22.782691,25.544663,26.549898,35.091956,37.359679,38.34009,39.684149,48.933373,51.181397,51.660271,48.019343,57.283078,58.683022,58.828815,-17.804947,-19.738026,-7.977905,6.549911,-18.640079,0.156212,1.937714,-2.359829,-0.41502,18.616104,17.58585,12.345657,18.371315,34.854012,33.206577,28.507004,35.878716,47.36515,44.208755,39.039574,-29.12628,-56.676967,-77.138923,-85.006482,-53.880847,-94.505825,-84.411424,-72.887932,-45.10389,-87.270591,-78.394865,-67.307177,-37.94217,-79.317077,-72.29025,-61.909018,-32.930785,-67.892602,-68.017338,-61.740316,43.896761,282.328302,-128.276052,51.038614
71,0.234146,0.019019,-0.437565,0.260988,-25.956917,-50.800323,-73.406296,-89.446735,-60.788441,-92.175808,-107.424889,-118.867092,-55.593166,-90.185394,-107.038536,-119.882183,-48.137627,-80.884838,-98.074665,-111.828804,-40.193138,-66.925449,-81.548996,-93.981171,-19.123115,-19.114346,-6.936671,5.116083,8.734966,19.126758,22.979366,25.058626,27.112445,35.400894,37.020545,37.54388,40.206249,49.447877,51.454951,51.636559,48.462279,57.882922,59.451321,59.54901,-17.296429,-18.822613,-7.946377,6.063595,-19.051666,-0.782146,2.472382,-0.789013,-1.399612,17.711906,18.187809,13.592949,17.287788,34.031582,33.701191,29.382706,34.999466,47.012787,45.069408,40.325432,-29.533215,-56.531946,-76.64174,-85.082527,-54.004626,-94.501997,-84.19363,-72.61796,-45.690272,-87.641897,-78.433274,-67.276395,-38.68654,-79.699528,-72.994359,-62.929567,-33.6009,-67.987512,-69.443309,-64.430596,44.21648,282.358328,-128.628044,51.310609
72,-0.281754,0.158575,-0.270882,0.050882,-26.128922,-50.606346,-72.977657,-88.882885,-61.16581,-92.612114,-107.794132,-119.250126,-56.053848,-90.46566,-107.288589,-120.178356,-48.558655,-80.998421,-98.017273,-111.789894,-40.442734,-66.698399,-81.215401,-93.601112,-19.23019,-19.560308,-8.158526,3.91195,8.449309,18.752427,22.72693,24.703376,26.853402,35.4117,37.350107,37.828673,39.96888,49.32166,51.627296,51.891897,48.241274,57.704648,59.377591,59.413468,-17.157326,-18.110619,-6.274452,7.450962,-19.410267,-0.194893,2.933235,-0.750103,-1.727543,18.084812,18.36319,13.533897,17.110119,34.599266,34.211884,29.782619,35.073509,47.64101,45.554638,40.609932,-29.132023,-56.576993,-76.651744,-84.986999,-53.910086,-94.700216,-84.20632,-72.705522,-45.429902,-87.894919,-78.670859,-67.700373,-38.502617,-80.119832,-73.380793,-63.459756,-33.569778,-68.213303,-69.557856,-64.612667,44.074974,282.511732,-128.758678,51.35632
73,0.725212,0.9525,-0.523052,0.267966,-26.014595,-50.490417,-73.016281,-88.313828,-62.016048,-93.547096,-109.322033,-120.889435,-57.224979,-91.778412,-109.270535,-122.521191,-49.92382,-82.558708,-99.753799,-113.09166,-41.785812,-68.101158,-82.681732,-94.675884,-19.691589,-21.267768,-10.66479,1.847943,7.344285,16.64717,20.627231,22.866363,25.716268,33.233948,34.890527,35.386444,38.973773,47.72819,49.649246,49.811587,47.440989,56.637787,58.017847,57.645183,-16.852798,-18.212986,-7.543488,5.10046,-18.770714,1.068935,4.324207,0.539246,-1.498833,19.458332,19.757538,14.868336,16.993389,35.398235,35.308113,31.024017,34.678516,47.762947,45.622501,40.652332,-29.239685,-57.1392,-77.831887,-86.212467,-54.074651,-95.820152,-85.66366,-74.01957,-45.061993,-88.391083,-79.230101,-68.006007,-37.818608,-80.461373,-73.897706,-63.796605,-32.7807,-68.390959,-69.693831,-64.597106,44.983349,283.41213,-129.098568,51.572184
74,-0.785065,-0.918229,-0.015793,0.328944,-25.663948,-50.018005,-72.455978,-87.516918,-61.28809,-93.657074,-109.853954,-121.521606,-56.445465,-92.010612,-110.008621,-123.416977,-49.124908,-82.660847,-100.298996,-113.863678,-40.810318,-67.430649,-82.130871,-94.305267,-19.070688,-20.283158,-9.293437,3.464816,7.603081,17.649009,21.842479,24.11156,25.951413,33.960998,35.931762,36.604841,39.307904,48.418622,50.805028,51.329289,47.827485,57.296972,58.948055,58.874819,-16.84433,-18.489761,-7.459888,6.618233,-18.652153,0.781403,3.842869,0.17189,-1.207523,19.190712,19.416618,14.602947,17.315311,35.400352,35.074539,30.610142,35.015831,47.918301,45.577126,40.330467,-29.907299,-57.212096,-76.998132,-84.326363,-54.507614,-96.367292,-86.085632,-74.213004,-45.555409,-89.082132,-79.919236,-68.410287,-38.393782,-80.811159,-74.164653,-64.068059,-33.288412,-68.878509,-69.511883,-63.823775,44.239168,282.487479,-129.073477,51.894707
75,0.01545,0.654801,-0.017796,0.232429,-25.63076,-49.621925,-72.073975,-86.602592,-61.595249,-93.913651,-110.1091,-121.706085,-57.059383,-92.710876,-110.765419,-124.282379,-49.922562,-83.453522,-100.848484,-114.03986,-41.808701,-68.469486,-82.895279,-94.587536,-19.286815,-20.901465,-10.121757,3.132228,7.21745,16.522619,20.554798,22.873526,25.473959,33.066358,34.957773,35.69816,38.758511,47.513855,49.56403,49.878463,47.30378,56.623522,57.97635,57.502848,-16.831741,-17.984333,-6.268959,7.35918,-18.595848,1.373692,4.158382,0.338631,-1.323109,19.358597,19.31591,14.458237,17.153492,35.483494,34.904594,30.552006,34.936066,47.748184,45.262871,40.189018,-30.233557,-57.889931,-77.840562,-85.120782,-54.713706,-96.652084,-85.894453,-74.059523,-45.749707,-89.534392,-79.90528,-68.377744,-38.649058,-81.375125,-74.354443,-64.235187,-33.713625,-69.463718,-69.725941,-63.961169,44.319105,283.138761,-129.026785,52.123615
76,0.131836,-0.70803,-0.597668,0.367446,-25.987587,-49.929543,-72.337303,-86.803665,-61.883297,-93.872509,-109.914608,-121.658592,-57.356815,-92.572403,-110.614986,-124.29657,-50.10704,-83.190594,-100.443478,-113.585815,-41.916389,-68.176346,-82.29744,-93.712234,-18.784105,-20.245922,-9.176482,3.827167,7.430489,17.316236,21.5123,23.610394,25.794382,33.900173,36.290285,37.134104,39.207127,48.466046,51.019858,51.56604,47.863485,57.492536,58.769349,58.033778,-16.765194,-17.794418,-5.643196,8.877182,-17.17598,1.771889,4.127483,0.517159,0.328674,20.165977,19.527855,14.742222,18.693066,36.568222,35.189495,30.637207,36.129799,48.238163,45.107632,39.89193,-30.682267,-57.876778,-77.161401,-83.545714,-54.713675,-96.785712,-86.503806,-74.658656,-45.874535,-89.749191,-80.538932,-68.683439,-38.908657,-81.682858,-74.769838,-64.406482,-33.877295,-69.802882,-69.836875,-63.56501,44.472342,282.427581,-129.603052,52.487912
77,0.334511,0.076756,0.734138,0.433303,-26.248856,-50.313034,-72.902126,-88.073902,-61.719189,-93.782043,-109.785862,-121.550961,-57.137032,-92.62722,-110.559654,-124.284439,-50.04364,-83.206615,-100.392494,-113.514805,-42.146988,-68.50914,-82.625713,-93.991013,-18.802506,-20.011765,-8.724901,4.125483,7.632227,17.647527,21.609742,23.472628,26.007051,34.149151,36.359754,37.130152,39.385895,48.641849,51.086425,51.562829,47.933943,57.612085,58.837151,58.004261,-16.745281,-17.447491,-5.568008,8.580379,-17.052784,1.715698,4.17532,0.812416,0.488834,20.511646,20.11734,15.449352,18.884583,37.156105,35.857544,31.129475,36.176376,48.902435,45.978012,40.538692,-31.196339,-58.489311,-78.271364,-84.978694,-54.818836,-96.558841,-87.249071,-75.755004,-45.761779,-89.947256,-82.059073,-70.456695,-38.670146,-81.828713,-76.186454,-65.931934,-33.547332,-69.672835,-71.535135,-66.14065,44.848766,282.505588,-128.827,52.922465
78,0.989799,-0.060021,0.330906,-0.067709,-26.395569,-50.788879,-73.360748,-87.961807,-62.439423,-94.293766,-110.541973,-122.871323,-57.64143,-92.668877,-110.722904,-124.640694,-50.33638,-83.185844,-100.626755,-114.021492,-42.183609,-68.520927,-82.760925,-94.435043,-18.785896,-19.985397,-8.517667,4.656475,7.391401,17.428683,21.561268,23.588719,25.660507,34.051338,36.619909,37.520291,38.985567,48.383362,51.08272,51.66836,47.635009,57.102705,58.538217,58.039089,-16.898289,-18.454056,-7.607117,6.547565,-16.726799,2.622356,4.835701,1.187096,1.046734,21.513119,20.940857,16.174393,19.481678,37.791538,36.218719,31.390686,36.735821,49.499187,46.190071,40.752125,-31.688305,-58.750762,-79.129417,-87.246293,-54.515981,-95.933248,-86.419949,-74.970589,-45.727539,-89.556931,-81.33471,-69.732023,-38.612965,-81.090981,-74.955583,-64.464373,-33.366279,-69.008957,-69.581198,-62.984957,46.050825,282.478402,-128.283834,52.887591
79,0.14637,0.36476,1.305771,0.233972,-26.57547,-50.92289,-73.807411,-89.012833,-61.931534,-94.089203,-110.224972,-122.071152,-57.205811,-92.679634,-110.657845,-124.255486,-50.119286,-83.291645,-100.680542,-113.851891,-42.31739,-68.865337,-83.146362,-94.718456,-18.934035,-20.112603,-8.79684,3.912074,6.985207,17.444306,21.656425,23.561796,25.443393,33.975879,36.293558,36.978678,38.955186,48.256897,50.824912,51.25031,47.608827,57.191997,58.744772,58.263243,-16.977139,-17.796135,-5.331516,9.32991,-16.461754,1.924152,4.326439,0.92371,1.532593,20.281048,20.139256,15.754395,19.997463,37.017059,35.678787,31.230698,37.247028,48.448963,45.110836,39.996758,-30.803884,-58.124057,-78.127856,-84.775381,-53.733696,-95.416428,-86.088411,-74.801022,-45.379266,-89.746011,-81.311707,-69.786425,-38.655881,-81.604343,-74.757364,-64.217434,-33.564097,-69.652273,-69.04542,-61.803733,46.239052,282.885847,-126.936207,53.164249
80,0.908203,-0.051747,0.342979,0.665484,-26.58474,-51.619492,-74.466248,-89.766197,-62.167683,-94.344177,-110.693665,-122.787666,-57.232075,-92.878475,-111.175632,-125.07328,-50.022697,-83.365974,-100.825939,-114.022179,-42.205811,-68.967419,-83.234596,-94.75668,-19.009123,-19.597481,-7.639452,5.154924,7.725594,18.30838,22.246265,23.884133,26.156919,34.636979,36.8708,37.424825,39.448818,49.180622,51.662865,51.958587,47.774997,57.644318,59.188017,58.702226,-16.328259,-16.523037,-4.410095,8.977947,-15.052128,4.653168,6.252308,2.289848,2.841454,22.300987,20.928783,16.226578,21.16991,38.306179,36.27737,31.979771,38.384914,50.015316,46.507416,41.542912,-30.653615,-59.058341,-80.438124,-89.498917,-53.877142,-95.660126,-85.241535,-73.799461,-44.558974,-89.001425,-79.634443,-68.2058,-37.279032,-80.512873,-73.160622,-62.416452,-32.244768,-68.356348,-67.853823,-60.917708,47.20459,282.928516,-126.535892,53.924149
81,0.879593,0.379827,0.899048,2.330399,-26.21109,-51.224785,-74.309978,-89.70583,-62.119217,-94.949341,-111.670475,-123.986206,-57.322998,-93.32531,-111.806545,-125.692577,-50.272636,-83.719769,-101.27552,-114.537106,-42.691612,-69.625111,-83.993855,-95.528011,-19.250938,-20.136995,-8.252634,4.453254,7.220846,17.56546,21.602208,23.712776,25.848722,34.334402,36.450527,37.016099,39.372371,48.938807,51.16528,51.389619,48.073004,57.872857,59.166404,58.588235,-15.920734,-15.939503,-2.868519,11.91576,-14.258766,5.652924,6.38483,1.838665,3.483181,22.764931,20.727596,15.74192,21.72781,38.893261,35.940857,31.261883,38.814068,51.207962,47.090206,41.661472,-31.378935,-60.01291,-80.602504,-88.103882,-54.839584,-95.279805,-84.689764,-73.358069,-45.17268,-89.03196,-79.866069,-68.776899,-37.493646,-80.352631,-72.612371,-61.953941,-32.167951,-68.454809,-67.736559,-60.663111,48.44327,284.049085,-125.277758,56.995291
82,0.600929,0.532721,-0.671883,2.396595,-26.467781,-51.638603,-74.713669,-90.279408,-61.993046,-95.204144,-112.097454,-124.219608,-56.999016,-93.552818,-111.903648,-125.231609,-49.885712,-83.862648,-101.406555,-114.225025,-42.530479,-69.767246,-84.138851,-95.400295,-18.925822,-19.270204,-7.107349,5.604961,8.095417,17.78665,21.219726,23.046118,26.771644,34.562879,35.782449,35.793256,40.086515,49.48888,50.919822,50.518938,48.22664,57.972213,58.919897,57.93189,-14.392605,-13.497963,0.969944,16.447105,-13.052158,8.008404,8.71582,4.075356,4.265327,24.955788,22.756805,17.389355,22.46624,41.471272,38.435612,33.409309,39.81617,53.757763,49.884224,44.245605,-30.705948,-59.740714,-80.086826,-86.788074,-54.039021,-95.076492,-83.761562,-72.24792,-44.014798,-87.749064,-77.750777,-66.654414,-36.161906,-78.862964,-70.336714,-59.430974,-30.596804,-66.467711,-65.23789,-58.134308,49.540844,285.063784,-125.452995,59.873863
83,1.292038,0.256388,0.318661,2.891401,-26.370392,-51.399078,-74.670238,-89.802818,-60.934639,-94.439735,-111.347466,-123.837204,-56.504402,-93.2444,-111.671791,-125.587006,-49.919472,-83.959637,-101.375084,-114.457741,-43.056564,-69.95676,-84.133244,-95.51096,-18.877286,-19.804654,-8.038236,5.363332,8.342789,17.413863,20.217332,21.56806,26.849079,33.950624,34.781228,34.516504,40.019639,48.732808,50.137506,49.816527,48.244053,58.123502,59.325535,58.615652,-13.685074,-11.4921,5.006504,21.137466,-11.250629,10.15274,9.38839,4.381657,6.229534,27.214394,23.564701,18.017349,24.362469,43.980789,39.421692,33.862038,41.155415,55.564499,50.786934,44.570217,-30.48905,-60.148884,-80.306534,-86.4528,-51.438989,-93.635608,-81.736334,-70.266257,-41.044696,-85.671595,-75.299101,-64.317562,-33.486384,-76.954259,-67.875281,-56.391804,-28.598715,-64.226696,-62.527572,-55.332815,52.170467,285.663565,-123.796749,63.108659
84,0.269165,0.252621,0.721035,3.961227,-26.033363,-50.595131,-73.634319,-88.89616,-60.034332,-93.190899,-110.108299,-122.39027,-55.547447,-92.115269,-110.656357,-124.66753,-48.867416,-82.98769,-100.216484,-113.195457,-41.897049,-69.033394,-83.305836,-94.661694,-18.508574,-19.660961,-8.247879,5.139981,8.656173,17.923057,20.813347,22.060211,27.285346,34.621603,35.600533,35.192857,40.301592,49.175002,50.68375,50.269158,48.269371,58.549826,59.977187,59.29503,-11.962681,-7.632236,10.063763,25.252476,-9.25066,11.335831,10.740337,6.16642,7.215042,27.951164,24.397259,19.134064,24.982624,44.578686,39.931126,34.661407,41.87376,56.014423,51.172314,45.097961,-29.051531,-59.470093,-79.230626,-86.479383,-50.064517,-92.605302,-79.883637,-68.294443,-39.32788,-84.507507,-72.673566,-61.349528,-31.477087,-75.526311,-64.967361,-52.637317,-26.240992,-61.943259,-59.291758,-51.39669,53.463478,286.336599,-122.051868,67.490298
85,0.790672,1.005729,1.625004,4.986253,-26.088867,-50.814171,-73.73909,-89.745083,-59.962578,-92.905197,-109.29285,-121.050854,-55.618629,-91.870022,-109.8769,-123.61805,-49.058075,-82.727337,-99.973068,-113.284035,-42.157173,-69.165287,-83.4795,-94.974174,-19.034379,-20.064067,-8.683158,3.804628,7.998716,17.000691,19.720426,20.974454,26.637831,33.840708,34.528546,34.396647,39.691806,48.690817,49.82968,49.461092,47.795189,58.094232,59.297253,58.69988,-12.397499,-6.009636,14.763279,30.548458,-6.514549,14.894371,12.869282,7.117767,10.025826,30.78598,25.764198,19.809608,26.96743,46.835403,40.699482,34.715996,42.509823,55.952511,50.448017,44.139347,-27.380596,-56.478254,-73.110882,-76.548929,-48.901047,-90.881539,-77.520263,-65.418911,-37.625668,-81.21019,-69.489097,-58.053971,-29.283435,-71.292703,-61.443358,-49.780002,-23.576678,-56.843076,-54.425485,-47.384765,54.68133,287.862498,-119.999685,72.996721
86,0.103455,0.346605,2.536869,7.685178,-26.319122,-50.947037,-73.813591,-89.476376,-59.013405,-92.250996,-108.675613,-120.535183,-54.678497,-91.330261,-109.643612,-123.643398,-48.139114,-81.899242,-99.288139,-112.935734,-41.254692,-67.895679,-82.221622,-94.090061,-19.06828,-19.826267,-8.054415,4.496603,7.669154,16.848785,19.740804,21.056396,26.311851,33.749441,34.451728,34.454816,39.469567,48.763312,50.161403,50.114103,47.627167,58.175372,59.716106,59.527829,-11.362896,-0.130062,28.827839,47.458591,-3.657761,21.710644,17.507057,9.874649,12.155743,38.61042,31.316414,22.972298,28.301296,52.86129,44.171391,37.201538,42.709694,57.09692,49.1399,42.988071,-28.612609,-58.494344,-73.152718,-75.868903,-49.521237,-89.533837,-77.359743,-66.330162,-35.749814,-78.457449,-69.231227,-58.387485,-25.115745,-67.764439,-59.751119,-48.337327,-17.357794,-52.110185,-50.878418,-43.991827,56.515646,289.140314,-115.731955,81.613111
87,1.024818,0.143014,2.470436,9.389027,-25.789719,-49.857559,-72.682285,-88.794193,-58.860054,-92.222672,-108.630066,-120.521107,-54.944916,-91.398926,-109.805946,-124.019909,-48.529816,-81.915836,-99.518852,-113.453407,-41.4188,-68.133831,-82.653351,-94.765778,-18.767988,-20.244193,-9.318137,3.144269,7.284511,16.278026,18.932121,20.280009,25.677736,32.892901,33.708562,33.880722,39.009279,48.16952,49.892419,50.024441,47.580915,58.147955,59.926675,59.895985,-9.675007,2.064571,29.977226,48.040295,-0.98299,28.578873,25.852718,18.077145,15.192032,45.556297,40.488052,32.060795,31.367111,59.764652,51.691246,43.423748,45.377254,64.32169,57.477837,50.616589,-28.499359,-58.298286,-73.519423,-76.0854,-47.169164,-87.085742,-79.139915,-69.39783,-32.478555,-77.004987,-73.708503,-64.940037,-21.195335,-63.655474,-61.510388,-53.12391,-12.96101,-48.156584,-51.024304,-46.889774,58.116961,289.747846,-112.685022,91.466655
88,0.964737,-0.17358,5.952644,10.96181,-25.75779,-49.807091,-72.573223,-88.827381,-59.036636,-92.561703,-109.197521,-121.333122,-54.811478,-91.361103,-109.960957,-124.467602,-48.195763,-81.785316,-99.641533,-113.837643,-40.808144,-67.742214,-82.554932,-94.999695,-19.037467,-20.254876,-9.403044,2.584872,7.2926,16.620247,19.26829,20.594812,25.631917,32.885923,33.808536,34.107346,38.918321,47.936721,49.822641,50.167393,47.373928,57.724038,59.65874,59.948597,-8.378677,4.8456,32.522621,49.380112,1.372375,38.894005,35.74276,26.54789,15.964794,52.434139,47.205448,38.784599,30.747242,62.490292,54.716034,47.291851,43.647881,63.619537,57.021217,51.745148,-29.528213,-59.507544,-74.245639,-78.737858,-47.860027,-85.886024,-79.376974,-70.654883,-30.609803,-73.25825,-71.403916,-64.121937,-16.740321,-56.837364,-55.971716,-48.426155,-6.247567,-39.456012,-41.664084,-37.163528,59.57531,289.611933,-106.238766,102.466133
89,-0.334854,0.402798,7.879372,12.605575,-25.160294,-49.038048,-71.918736,-87.943668,-59.18232,-92.488232,-109.375992,-121.805019,-54.667511,-91.144924,-109.837761,-123.936996,-47.835045,-81.450748,-99.214382,-112.978764,-40.431175,-67.236328,-82.029362,-94.386921,-19.358692,-21.126977,-10.924018,0.864629,6.92852,15.557152,18.414714,19.781127,25.727753,32.400997,33.423151,33.499475,39.151861,47.843972,49.787937,49.829495,47.503542,57.806104,59.548639,59.30806,-8.572998,3.10873,27.554054,44.021759,13.546829,47.615089,42.573109,34.157009,28.439255,61.139145,52.092648,44.150047,40.670242,69.276924,56.273346,47.377396,49.581642,66.419792,56.111927,49.564877,-33.702757,-61.663313,-76.18701,-81.118737,-45.481371,-77.844607,-79.825097,-74.942492,-27.368246,-65.242274,-70.408808,-65.440277,-14.088511,-50.483679,-56.216741,-52.047971,-4.988198,-36.670606,-41.460832,-37.221018,59.437351,289.984736,-98.162498,115.041712
90,1.396294,-0.249719,-2.280407,23.239598,-25.023537,-49.132233,-72.185154,-88.905487,-59.122696,-92.087517,-109.20536,-122.15229,-54.99939,-91.09148,-109.974232,-124.553318,-48.444672,-81.753445,-99.823322,-113.654308,-41.118507,-67.784958,-82.777519,-95.04055,-19.499236,-21.699404,-12.145133,-0.382173,6.815208,14.892038,17.937939,19.669173,25.400785,31.631772,33.025047,33.389189,38.684101,47.088332,49.175743,49.284856,47.046836,57.023541,58.822578,58.502155,0.211659,15.370073,39.688139,55.881557,26.350136,63.215447,60.444145,51.679745,36.869545,72.582521,66.291018,58.359461,45.088434,76.865559,66.278744,56.812563,50.618935,71.66316,63.614874,56.713686,-33.717207,-58.89671,-69.879499,-69.696965,-38.845008,-64.127263,-69.679644,-67.834897,-19.617535,-49.710904,-58.0446,-56.234603,-5.142127,-35.766951,-44.613639,-42.433602,5.562508,-22.557766,-30.368822,-28.09244,59.960918,289.525097,-101.315632,138.07139
91,-0.39402,-0.234405,-2.280407,23.239597,-25.285149,-49.148827,-71.960106,-88.363609,-58.981247,-91.86842,-108.873425,-121.425591,-54.780807,-90.888977,-109.721031,-123.912678,-48.242111,-81.649189,-99.547405,-113.191566,-40.963326,-67.619591,-82.503433,-94.615231,-19.898638,-21.561885,-11.357753,0.430586,6.611925,15.322932,18.03816,19.176096,25.482543,31.990665,32.765695,32.568341,38.677309,46.825029,48.544222,48.426093,46.724375,56.517188,58.218659,57.936213,8.996315,27.631416,51.822224,67.741356,39.153442,78.815804,78.315182,69.20248,45.299835,84.025898,80.489388,72.568874,49.506626,84.454193,76.284142,66.24773,51.656227,76.906528,71.117821,63.862495,-33.731657,-56.130106,-63.571987,-58.275191,-32.208644,-50.409918,-59.53419,-60.7273,-11.866824,-34.179532,-45.680392,-47.028929,3.804258,-21.050221,-33.010535,-32.819232,16.113214,-8.444925,-19.276811,-18.96386,58.452873,288.952964,-104.710064,160.973259
92,1.048737,0.035506,4.124851,13.360813,-24.948006,-48.931389,-71.98019,-88.890266,-58.873558,-92.339573,-109.647274,-122.320175,-54.892502,-91.594505,-110.510216,-124.569511,-48.623886,-82.508926,-100.503159,-113.820992,-41.615524,-68.411865,-83.130455,-94.854984,-20.181825,-21.721695,-11.82014,-0.357103,6.304161,14.434776,16.736585,17.783378,24.966494,31.097569,31.632143,31.312461,38.272288,46.098597,47.471123,47.162803,46.529429,56.183798,57.866249,57.758371,6.424828,22.882862,40.477409,54.224281,40.990734,68.725948,83.295422,94.185791,42.546673,71.493931,88.876133,102.506332,41.985455,69.346848,86.809788,100.415382,40.125561,60.509319,73.045235,83.56287,-26.350692,-41.346347,-48.973511,-50.957428,-24.267727,-32.525486,-37.80706,-42.567214,-11.511821,-18.89612,-26.41695,-32.978178,-0.880561,-7.96074,-14.833437,-20.74221,7.862309,1.862022,-2.526271,-8.523471,58.501997,288.801938,-101.584826,174.147539
93,1.01944,-0.60077,-9.452477,36.143134,-25.002708,-49.127426,-72.15889,-89.136887,-59.730721,-92.662067,-109.728985,-122.830582,-55.573311,-91.351318,-110.199223,-124.456444,-49.084053,-82.302818,-100.447998,-114.103432,-41.685905,-68.368378,-83.148079,-95.141258,-19.754883,-20.871207,-10.626752,-0.076447,6.461934,14.997199,17.884772,19.655033,24.624706,31.101151,32.088602,32.171656,37.803602,45.900995,47.823224,48.045217,46.214132,55.797178,57.781096,57.980611,17.554836,44.174824,69.400692,84.504833,50.714378,102.731609,115.093346,113.528824,51.206989,104.564896,116.278381,115.524788,50.590267,100.275707,110.678101,110.040665,49.612999,86.599789,97.732601,99.215813,-28.938898,-43.22745,-46.137191,-40.013958,-15.008808,-20.493665,-31.821408,-38.286676,5.904327,-2.615994,-17.118264,-25.235788,20.702752,11.588206,-3.660441,-11.979765,29.020965,20.702567,8.234603,0.475231,58.243818,287.510983,-112.31492,209.600489
94,0.184021,-0.5736,-5.085239,14.315351,-25.424538,-49.609222,-73.221874,-90.44981,-59.479408,-92.506313,-109.030266,-121.848221,-55.344658,-91.655788,-110.067673,-123.993645,-49.020996,-82.803783,-100.770435,-114.339409,-41.679153,-69.034939,-84.042091,-96.093292,-19.426,-20.606792,-10.288607,0.01871,7.005214,15.138175,18.497953,20.914309,24.799212,31.434665,32.724878,33.470514,37.859486,45.831773,47.719854,48.208053,46.391911,55.346956,57.151982,57.665993,23.419647,50.445156,75.370102,91.776237,57.691326,98.714275,117.613163,130.003796,55.845222,99.860287,119.742107,131.685276,53.534145,94.654312,114.461918,125.575619,51.004829,82.304935,98.449974,108.998051,-26.007298,-34.621789,-36.394211,-35.383171,-8.96474,-8.265848,-10.554133,-11.194547,8.920465,7.88102,1.636942,-2.749128,21.565837,21.723918,15.255563,9.612007,29.290258,28.290148,23.117316,17.305059,57.770519,286.616174,-118.05748,223.594629
95,-0.76149,0.891614,-0.387211,17.44622,-25.520668,-46.949615,-66.008949,-79.937668,-60.092583,-91.266918,-107.940903,-120.186081,-56.40255,-89.7472,-108.982029,-122.980843,-49.809952,-80.846615,-98.868771,-112.292347,-42.223892,-66.403828,-81.063995,-93.837204,-17.402686,-23.52771,-26.126476,-25.640191,7.619136,17.232193,19.923215,20.617907,23.617989,31.506789,32.541232,32.069397,35.860934,44.708101,46.311821,45.228348,44.51087,53.283937,55.183379,55.309906,29.723396,56.47316,78.649921,97.334862,60.866032,93.722763,113.946075,129.408302,56.097679,94.242611,116.211319,132.186584,52.045269,86.446381,107.561531,121.782074,47.78944,73.226452,89.680367,102.823677,-22.55582,-28.323123,-29.55492,-28.214689,-1.319915,3.165573,4.694637,6.008068,12.259989,18.097378,16.743933,15.969521,21.887372,28.70931,27.545253,26.399166,28.185852,33.043201,32.730435,31.328084,56.451445,287.439986,-119.002275,240.973048
96,-0.103569,1.99602,7.008247,15.152594,-23.454666,-49.835243,-74.626122,-95.415001,-56.703072,-85.011005,-102.322769,-114.270458,-55.530167,-88.187485,-107.763519,-122.022285,-51.491203,-82.654781,-100.363083,-112.424641,-46.022186,-70.963554,-84.957104,-94.522591,29.835082,43.519776,49.719147,55.431863,28.237414,31.969547,32.870918,32.525362,12.353973,14.141894,13.305732,10.259152,-2.556961,-3.919854,-5.334495,-7.177065,-16.522619,-18.757676,-19.024499,-18.822822,27.789402,55.799246,80.9727,101.654549,58.210802,101.850986,122.806892,134.433861,54.059515,102.709207,123.766251,134.152336,51.782427,95.071449,115.471859,125.429535,50.237017,82.391596,99.763298,110.089703,-21.895028,-26.135244,-24.114554,-19.334486,9.721831,18.066967,13.463041,10.326614,27.869906,34.040594,25.988865,20.449637,39.147662,46.184616,39.981478,34.442435,44.763924,51.32191,47.541241,43.005149,55.334902,289.691884,-113.007002,256.38152
97,1.766396,0.547417,7.008247,15.152594,-24.105377,-47.89753,-69.466724,-87.5354,-47.867088,-80.337925,-98.856239,-113.632679,-48.083153,-82.451248,-104.045563,-120.849552,-46.895256,-78.664227,-100.00351,-116.670055,-43.844719,-67.599621,-83.294907,-97.162971,-16.929987,-24.46434,-26.450171,-26.329696,3.015334,5.202225,1.469104,-3.327112,20.779261,23.568465,19.9883,15.573639,34.111916,39.732438,38.798834,35.592382,42.487556,51.82743,54.106267,53.549525,25.855408,55.125332,83.295479,105.974236,55.555573,109.97921,131.667709,139.459419,52.021351,111.175804,131.321182,136.118088,51.519585,103.696518,123.382187,129.076996,52.684593,91.55674,109.84623,117.355728,-21.234238,-23.947366,-18.674189,-10.454283,20.763576,32.96836,22.231445,14.64516,43.479824,49.983809,35.233797,24.929753,56.407952,63.65992,52.417702,42.485704,61.341995,69.600618,62.352046,54.682213,56.244793,290.709871,-106.855259,272.004683
98,-5.112648,-2.101367,-4.934006,0.759962,-24.730568,-48.910789,-68.473721,-84.782467,-44.218712,-67.618675,-84.611435,-101.064148,-42.711983,-68.628902,-89.486561,-107.593975,-41.290398,-66.980152,-86.074219,-102.637196,-38.780022,-59.892998,-74.514084,-88.293457,-17.528719,-23.035868,-21.120864,-19.14695,5.542964,16.241099,16.557694,13.802761,21.98222,31.67685,30.253132,26.946336,33.457299,44.128759,42.974643,38.610186,40.802326,50.884871,51.400734,49.025072,31.971703,63.44244,90.922909,112.791367,66.672821,107.636719,127.251549,139.725609,59.001961,105.252228,125.692863,137.673111,52.61364,94.723492,114.548836,126.554489,47.917557,79.765949,97.23238,109.366837,-15.384004,-12.825869,-4.97486,-0.667522,26.161797,39.746579,39.955295,38.106673,45.490664,56.845886,53.93034,49.36365,55.175969,67.02365,64.449522,59.237788,58.306036,68.39346,67.065826,64.21518,50.185776,288.743491,-112.735634,272.899632
99,-15.593319,5.412979,0.023689,5.007464,-14.985237,-32.880764,-48.223314,-59.065933,-47.619209,-53.264608,-51.655655,-51.916466,-49.865455,-54.823408,-52.523489,-50.550642,-49.386263,-54.785242,-52.200451,-50.540571,-46.939773,-52.174186,-50.601311,-50.595131,-21.697674,-29.137302,-26.520443,-21.479726,-1.398276,8.559935,10.726355,9.944904,17.894806,27.545871,28.127374,25.836064,32.828619,42.205357,41.013142,37.531067,43.764925,53.020262,50.687733,46.732372,34.34166,65.696697,92.890263,113.595543,69.602966,106.97113,126.054726,139.772186,60.705242,102.01149,123.728485,139.640121,52.447872,89.12962,109.175377,124.188538,45.836792,72.649326,88.432388,100.532055,-11.801553,-8.541626,-1.990216,-2.025661,26.845189,38.028991,41.198949,43.525087,43.941408,56.645011,58.888466,58.956762,53.483576,67.518518,69.565297,68.502511,57.985983,70.2385,71.152344,69.452232,33.392343,294.426875,-113.912058,278.177501
100,-15.593319,5.412979,7.237644,4.97733,-5.239906,-16.850739,-27.972908,-33.3494,-51.019707,-38.910542,-18.699875,-2.768784,-57.018929,-41.017914,-15.560417,6.492691,-57.482128,-42.590332,-18.326683,1.556053,-55.099525,-44.455376,-26.688538,-12.896805,-25.86663,-35.238737,-31.920023,-23.812503,-8.339517,0.87877,4.895017,6.087047,13.807392,23.414892,26.001616,24.725791,32.199938,40.281955,39.05164,36.451947,46.727525,55.155653,49.974732,44.439672,33.42144,63.276844,89.063587,110.11179,67.756176,105.118275,123.951473,137.199841,57.994137,99.377232,120.503368,135.140247,48.695412,85.931511,105.472927,119.446621,41.256924,69.580879,85.523129,97.418575,-12.278081,-10.015608,-3.727378,-2.242157,25.210285,38.015591,41.663559,43.584244,42.510095,56.745171,59.75822,59.107618,52.399053,67.063109,69.252778,67.45473,57.141855,68.864862,69.656194,67.370132,16.873083,299.960824,-107.600355,283.275801
101,-63.215446,12.297286,6.154919,0.612008,15.4426,32.566624,44.126015,52.668228,22.054996,40.884819,56.480484,68.400879,14.828224,39.332657,59.474258,76.851997,10.573769,35.945778,56.821289,73.823318,6.944561,27.671528,43.858566,57.50267,-24.72999,-38.480387,-38.909676,-31.215698,-21.941774,-18.305786,-13.007601,-9.353705,-1.73247,9.373527,15.692879,18.148446,16.379297,26.94646,30.077267,29.696576,31.024024,40.221687,39.37867,34.810498,33.266487,63.183689,88.250484,108.692894,67.102032,102.981377,121.471481,134.669724,56.737347,96.26152,116.321297,130.569191,46.537857,81.731873,100.440674,114.212151,37.775917,64.21463,79.484425,91.329002,-11.475203,-9.182163,-2.973035,-1.922229,25.235109,38.962225,44.123942,47.047639,42.709487,57.627522,61.786598,62.836972,52.870332,68.757478,71.831722,71.271091,57.656854,70.323777,71.192729,69.095376,-47.038651,312.258495,-102.141724,283.888195
102,-8.934174,-8.61937,5.73595,2.132427,19.187679,37.603569,50.028534,54.006844,34.576035,66.136093,77.498016,81.300774,29.947929,69.417686,82.086639,89.16584,24.135647,62.966309,76.916542,84.82338,17.241154,48.970299,62.580872,69.997559,-26.804742,-40.104793,-42.894738,-38.5246,-20.32379,-9.946077,-7.871078,-6.881157,2.932836,19.062846,21.189345,19.614277,22.632946,35.294806,35.111161,33.175224,38.074687,49.39329,45.843259,39.673034,31.741161,61.150818,85.393124,104.476948,65.90807,101.441975,119.294186,132.243633,55.721855,95.394802,115.3438,129.654408,45.314369,80.566235,98.965816,112.562084,36.00111,62.332878,77.461281,89.050999,-12.152481,-11.469583,-6.24167,-4.49543,23.816825,37.099895,41.817441,44.333832,41.094343,55.330963,58.803991,59.084029,51.179359,66.525263,69.233142,68.33949,55.850284,67.923848,68.529928,66.231454,-56.58185,303.669384,-97.014799,286.050879
103,3.806534,-0.557668,1.65041,2.34207,20.475712,38.385944,50.753174,53.669472,32.927113,65.903549,78.725166,83.402824,26.382408,62.614288,77.934036,88.345528,17.974949,53.199005,69.304161,79.235458,8.935719,36.187248,50.180511,58.724785,-25.603079,-38.293962,-41.94372,-40.078981,-19.196659,-7.846934,-3.901206,-1.414517,3.214356,18.989734,22.25102,21.222567,21.993027,34.259314,34.543242,33.41111,37.199313,48.087084,45.045938,40.192787,30.055676,58.843517,83.749695,104.180031,66.156464,101.742783,119.72683,133.025093,56.985683,96.4888,116.147003,129.820518,47.408638,83.115463,101.302643,113.810806,38.534203,65.480061,80.56509,91.476173,-13.790658,-13.8881,-9.223906,-7.833657,22.993692,34.614687,37.9912,39.983515,39.856495,50.875423,52.092771,51.031714,49.366984,61.429927,62.402867,60.602163,53.586699,63.383525,63.292382,61.082026,-53.247728,303.102715,-95.836802,288.383949
104,3.686371,2.091795,0.767212,1.7279,19.625015,37.10289,49.424858,51.985817,32.75362,65.611839,77.552948,80.599022,26.442318,63.739815,76.49334,81.889343,17.511292,53.25737,65.817833,70.243607,7.572842,35.303764,45.511665,49.082222,-26.400956,-38.785743,-42.578391,-41.603908,-19.801628,-4.900451,-1.739941,-1.21037,3.115555,19.832503,21.287405,18.613797,21.916394,35.058302,33.25093,29.905107,36.479179,48.648704,44.23182,38.085493,29.369488,57.762966,82.737122,103.694229,65.495224,100.658913,119.210587,132.559547,56.730652,96.068344,115.922699,129.823036,47.515984,82.781181,101.050301,113.856697,38.961124,65.388279,80.639648,91.840553,-14.299358,-13.761882,-8.463326,-6.786247,22.652398,33.246792,36.383157,38.152616,39.68841,49.439171,50.500413,49.516853,49.261762,59.631508,60.020845,57.619495,53.347107,61.600914,60.62217,57.353289,-49.969969,305.250688,-95.478201,290.168026
105,7.076454,-0.761136,1.30291,0.769101,18.252182,33.723221,43.013649,44.966125,23.531456,52.103462,66.589622,73.679008,16.593361,47.316513,65.296211,76.96209,7.134132,36.821022,55.104103,66.10611,-3.357983,19.723492,34.205933,43.179474,-24.569316,-35.671793,-38.378252,-38.616238,-17.830123,-2.791674,2.904739,5.382969,3.451601,20.467174,24.424202,24.725791,20.900353,35.199217,35.188905,34.201948,35.278443,48.101286,45.124546,41.215436,28.933926,57.123928,81.827202,102.230415,64.538212,99.237671,117.281799,130.043678,55.69931,94.848404,114.472961,128.15815,46.234016,81.564331,99.506493,111.831436,37.452106,64.255886,79.32415,90.335312,-14.420882,-14.327145,-8.263255,-4.959731,20.451736,31.967818,35.918794,38.343239,38.011207,48.556819,50.476145,50.383952,48.215524,59.1585,60.085744,58.230392,53.003466,61.669395,60.934072,57.783072,-43.260813,304.583367,-94.542589,291.030942
106,4.750443,0.569895,1.33009,0.32351,16.944523,30.536957,38.105049,39.374313,21.603184,47.186394,59.789772,65.805931,14.160519,43.006439,60.2314,71.774483,3.857174,32.252541,49.435616,59.91497,-7.561398,13.775883,27.600861,35.755692,-25.776845,-36.577177,-38.742517,-38.195162,-18.498571,-2.718994,3.116296,5.621387,2.825761,20.60673,24.538626,24.77161,20.100747,34.993094,34.576155,32.842512,34.071963,47.184231,43.643894,38.937031,28.074932,56.209717,81.018734,101.589146,62.808838,97.54858,115.67728,128.654308,54.071503,93.787823,113.895779,128.184757,44.828968,80.811481,99.064465,111.858501,36.291676,63.681335,78.928928,90.091267,-14.362343,-14.387414,-8.037557,-4.660427,19.543264,31.290972,35.341675,37.593836,37.368138,47.776232,49.740204,49.493943,47.928138,58.535624,59.491582,57.41788,53.170377,61.330818,60.531521,57.220093,-38.851461,305.165812,-93.553591,291.367003
107,8.544731,0.243667,1.244831,0.163453,12.501469,22.768707,26.698036,25.57148,10.256367,31.31424,45.938301,54.315605,3.526211,28.017082,48.227005,63.269463,-5.278759,18.101349,37.115936,50.394745,-15.3372,1.499977,16.592102,26.930923,-24.680405,-35.624924,-37.716966,-37.119469,-17.09943,-0.463499,5.769897,8.453755,3.01342,21.228865,25.298465,25.938384,19.587292,35.155992,34.90195,33.546344,33.62452,47.895225,44.349022,39.501986,28.240585,56.391563,80.816116,100.662689,62.230625,96.587677,114.596443,127.429161,53.132687,92.170143,111.94931,125.745964,43.641701,78.966637,96.905594,109.33754,34.909172,61.924381,76.801987,87.429085,-14.324861,-14.080082,-7.529228,-4.122087,19.736543,31.461403,35.740397,38.343116,37.569939,48.047255,49.936755,49.857715,48.128209,58.636647,59.357584,57.255291,53.33414,61.506127,60.321322,56.762522,-30.494614,305.378465,-92.496643,291.499443
108,2.568111,-0.351607,0.942535,-0.000247,10.864735,20.037174,22.474766,20.972157,5.829735,26.351223,41.417942,50.627804,-0.691051,23.022251,44.053631,60.712566,-8.909683,14.326,34.753361,49.934292,-18.254356,-1.788197,14.470539,26.283817,-24.485644,-34.718243,-35.94121,-34.126427,-15.918886,-0.063973,6.306817,9.041125,4.000377,22.082071,26.197427,26.98635,20.273154,35.922376,35.481293,34.068258,33.900791,48.252883,44.527111,39.632711,28.112984,55.693531,79.966507,100.084419,60.96056,95.258675,113.35865,126.174545,51.883049,90.846634,110.817719,124.745293,42.587528,77.795219,96.00975,108.697929,34.098587,61.070881,76.044846,86.699295,-14.318871,-14.399146,-8.073681,-4.099301,20.154902,31.796893,36.037726,38.606419,37.728822,48.054973,49.834558,49.614912,47.980564,58.486347,59.444775,57.589299,52.846064,61.433324,60.565236,57.227009,-28.093586,305.005863,-91.721191,291.4782
109,-19.284325,1.350296,-0.200214,0.494497,19.845142,37.372227,48.046131,50.442753,29.100666,58.078938,70.626698,75.989056,21.255226,53.860989,70.160122,79.931202,10.923843,41.833134,57.661343,66.476727,-0.746899,23.527565,36.501331,43.162022,-26.229661,-37.593898,-39.801537,-37.876591,-20.926782,-7.733313,-2.298165,0.18766,0.962195,17.003346,21.188851,21.358356,19.071862,32.34536,32.571737,31.547421,33.527263,45.453182,42.134591,37.656327,27.876434,55.08831,79.056301,99.398861,60.693226,94.315052,112.472591,125.583515,51.971283,89.843273,110.062008,124.388866,43.058281,77.28693,95.654697,108.599224,34.689102,60.980244,76.091022,87.096806,-15.181586,-15.634031,-9.505982,-5.843997,18.679561,30.560094,34.917758,37.374993,36.357099,46.894313,48.67291,48.435356,46.80391,57.500131,58.41836,56.424254,51.851883,60.478909,59.612057,56.323662,-47.551088,306.314679,-92.094584,291.931217
