takenoko1/special-research/HandMotion_SimilarSearch_自分用/NewProject/handData/key/d4_feature_d2/34.csv
,vel_0x_L,vel_0y_L,vel_0x_R,vel_0y_R,posFromWrist_1x_L,posFromWrist_2x_L,posFromWrist_3x_L,posFromWrist_4x_L,posFromWrist_5x_L,posFromWrist_6x_L,posFromWrist_7x_L,posFromWrist_8x_L,posFromWrist_9x_L,posFromWrist_10x_L,posFromWrist_11x_L,posFromWrist_12x_L,posFromWrist_13x_L,posFromWrist_14x_L,posFromWrist_15x_L,posFromWrist_16x_L,posFromWrist_17x_L,posFromWrist_18x_L,posFromWrist_19x_L,posFromWrist_20x_L,posFromWrist_1y_L,posFromWrist_2y_L,posFromWrist_3y_L,posFromWrist_4y_L,posFromWrist_5y_L,posFromWrist_6y_L,posFromWrist_7y_L,posFromWrist_8y_L,posFromWrist_9y_L,posFromWrist_10y_L,posFromWrist_11y_L,posFromWrist_12y_L,posFromWrist_13y_L,posFromWrist_14y_L,posFromWrist_15y_L,posFromWrist_16y_L,posFromWrist_17y_L,posFromWrist_18y_L,posFromWrist_19y_L,posFromWrist_20y_L,posFromWrist_1x_R,posFromWrist_2x_R,posFromWrist_3x_R,posFromWrist_4x_R,posFromWrist_5x_R,posFromWrist_6x_R,posFromWrist_7x_R,posFromWrist_8x_R,posFromWrist_9x_R,posFromWrist_10x_R,posFromWrist_11x_R,posFromWrist_12x_R,posFromWrist_13x_R,posFromWrist_14x_R,posFromWrist_15x_R,posFromWrist_16x_R,posFromWrist_17x_R,posFromWrist_18x_R,posFromWrist_19x_R,posFromWrist_20x_R,posFromWrist_1y_R,posFromWrist_2y_R,posFromWrist_3y_R,posFromWrist_4y_R,posFromWrist_5y_R,posFromWrist_6y_R,posFromWrist_7y_R,posFromWrist_8y_R,posFromWrist_9y_R,posFromWrist_10y_R,posFromWrist_11y_R,posFromWrist_12y_R,posFromWrist_13y_R,posFromWrist_14y_R,posFromWrist_15y_R,posFromWrist_16y_R,posFromWrist_17y_R,posFromWrist_18y_R,posFromWrist_19y_R,posFromWrist_20y_R,posFromBody_0x_L,posFromBody_0y_L,posFromBody_0x_R,posFromBody_0y_R
2,-12.472687,-9.317643,-0.51836,-0.639611,1.568928,1.381187,-3.381443,-11.39225,-16.944237,-0.456333,19.577179,31.124496,-25.590649,-5.676899,15.971947,32.931633,-32.081852,-15.228424,7.047043,23.63903,-36.49601,-29.661999,-14.038353,-0.961418,-10.020795,-9.390756,-0.719763,8.455299,3.116235,21.677297,28.587353,31.004264,18.609166,33.518556,40.807266,42.061478,30.361813,42.79884,46.085938,46.440324,39.527241,51.341701,51.230612,49.125849,28.171005,55.014725,77.54488,96.010323,54.311428,88.548775,105.927658,118.295174,43.868923,82.351799,102.707634,115.9655,34.321175,70.319767,89.748917,102.439384,26.252918,54.160309,69.969063,81.7202,-15.298973,-13.555759,-4.154074,2.317678,15.611122,33.365909,39.311053,42.81261,34.136122,51.36566,55.950875,56.768327,46.245686,63.250329,66.120859,64.513928,52.654885,67.382852,69.495643,67.66536,-0.899277,298.034782,-79.19323,287.861093
3,-27.180862,1.634966,-0.413132,-0.269726,12.921581,24.413853,27.369232,23.936577,12.590504,37.061577,54.169807,62.062569,2.854328,31.153107,50.858002,64.302292,-6.742115,17.635632,38.977089,52.939224,-15.783348,-0.15873,17.218494,29.617653,-13.277265,-15.016959,-7.662176,0.499746,-2.636681,16.90541,24.010598,26.709461,13.667898,30.744419,37.744384,38.471371,26.827528,41.50696,44.041382,43.141802,37.915556,51.594322,50.647503,47.229556,28.545113,55.139923,77.776051,96.355934,54.726849,88.590202,105.839424,118.162422,44.574909,82.309113,102.593422,116.091843,35.140514,70.588646,89.902611,102.845535,27.070713,54.676037,70.606155,82.857971,-14.736242,-13.32438,-4.109552,2.657861,16.029295,33.714922,39.279005,42.31058,34.314704,51.011954,55.614582,56.611049,46.42044,63.194754,66.266528,64.856705,53.013593,67.815105,70.00002,68.25483,-28.686075,299.574914,-80.212297,287.496534
4,17.310619,-0.799174,0.338631,0.98177,8.665581,13.369389,11.13699,5.159798,-4.254971,17.867031,36.358166,45.083828,-14.477634,11.533413,32.265415,47.341518,-22.97802,-0.999012,20.631237,35.558224,-30.093498,-18.246689,-1.36282,11.370792,-15.389746,-17.965233,-11.759193,-4.125916,-0.466771,18.702347,24.779267,26.42436,16.997418,33.977238,39.596402,39.290367,30.823336,45.205377,46.518808,45.255148,41.701165,55.380795,53.47172,49.389029,28.45459,54.916763,77.637291,96.30558,54.204998,88.47084,105.753593,117.838898,44.144783,82.371941,102.606583,115.901413,34.846516,70.852776,90.164566,103.070869,27.007027,55.396385,71.436939,83.643379,-15.143795,-13.86377,-4.795475,1.920314,15.570922,33.304899,38.990075,42.161205,34.027812,50.655407,54.848074,55.39401,46.215799,62.775345,65.48872,63.852273,52.743003,67.027973,68.877398,66.959183,-11.809645,298.809317,-80.307856,288.51188
5,-4.736767,12.421281,-0.278206,-0.930393,4.49873,12.651672,21.977119,23.708725,-4.372902,15.660496,30.939217,41.086578,-11.869354,14.151649,34.667473,50.275841,-14.923611,3.284855,19.594002,32.456017,-14.871655,-12.766457,-7.657242,-0.856133,-16.25876,-21.484636,-13.576631,-3.631109,-11.128289,-2.004912,5.752174,12.386021,7.252524,17.841114,25.350582,27.75681,22.122703,30.449931,33.967852,34.414678,34.816982,41.357338,40.451151,37.960634,28.439999,55.041447,77.578068,95.918884,54.41391,88.543396,105.876503,118.276176,44.021645,82.130356,102.381821,115.811005,34.366951,70.113258,89.639511,102.768974,26.158962,54.046726,70.086765,82.317467,-14.887654,-13.17198,-3.855634,2.894304,16.50218,33.95192,39.459007,42.664903,34.759616,50.927417,55.37851,56.295381,46.664107,63.170795,66.203605,64.89888,52.992783,67.532535,69.586231,67.776017,-16.888475,311.384974,-80.928125,287.735863
6,15.275745,-14.163815,-0.035305,1.047843,4.533062,5.226116,0.441227,-7.225285,-16.503582,3.831654,23.523731,33.804073,-26.626625,-1.925354,19.65414,35.921574,-33.987923,-13.023148,8.936176,24.570751,-38.862591,-28.458138,-12.272758,0.288334,-11.968094,-13.325245,-7.215844,0.384026,4.118752,23.937177,30.350389,32.080018,20.450254,37.108725,43.00027,43.034974,32.793359,47.005772,48.438629,47.318106,42.494349,56.084873,54.277686,50.564448,27.864132,54.419289,77.155037,95.8148,53.612709,88.630314,106.323338,118.900394,43.56823,82.738438,103.288021,116.849957,34.671879,71.399117,90.921307,103.895588,27.52676,56.082859,72.112541,84.322186,-15.39623,-14.370371,-5.305719,1.564447,15.674292,33.048635,38.677865,41.946129,34.104444,50.314915,54.382353,54.913468,46.204128,62.572804,65.317239,63.822632,52.506931,67.007286,69.03165,67.200874,-1.800585,297.320283,-81.151285,288.882831
7,-10.344887,24.796804,0.224934,-0.791579,4.990025,7.973957,10.265179,10.26123,-8.388977,16.779385,34.358082,44.470882,-15.682354,10.600204,31.708088,47.778339,-19.136009,1.407509,17.316341,29.799671,-19.915695,-11.677723,-4.367695,1.907959,-19.338994,-31.390513,-33.928393,-33.45063,-13.782136,-4.351922,1.506648,6.819839,3.966538,12.592576,16.122539,17.279927,17.896998,23.489918,23.848935,23.581556,28.864489,32.930198,28.424641,23.801326,28.062115,54.674721,77.185879,95.814972,53.650017,88.084259,105.735283,118.237152,43.49041,82.13665,102.713127,116.365929,34.335194,70.569134,90.172691,103.208656,26.755886,54.942341,70.947018,83.060303,-14.723027,-13.171486,-3.901947,2.732394,16.966173,33.949883,39.199347,42.192451,35.125549,51.006026,55.223579,56.290564,46.9757,63.137635,65.880218,64.594698,53.282701,67.823627,69.753389,67.996157,-12.266264,322.166457,-81.047144,288.140621
8,14.999599,-26.461719,-0.46257,0.027602,2.694511,0.590973,-5.67152,-14.415264,-22.986603,-1.246262,18.698387,28.435135,-32.782631,-5.398693,16.382332,32.22599,-38.947506,-16.26812,5.815544,21.054955,-42.475777,-31.860752,-16.155567,-4.180698,-10.807804,-11.011827,-3.839208,4.209279,7.655075,27.67956,32.521781,33.47354,23.425513,40.051688,44.735827,44.118693,35.04058,49.141163,49.50018,47.759806,43.804384,57.43554,55.161705,51.150151,28.121395,54.87545,77.463799,96.021767,53.27837,87.914886,105.762863,118.742752,43.101654,82.148209,102.929993,116.949463,34.136524,70.439816,90.275574,103.760262,26.776886,54.888954,70.937119,83.201065,-14.834919,-13.381994,-4.079109,2.828972,16.215041,33.091984,38.715162,42.186955,34.566646,50.757171,54.943788,55.979465,46.628354,63.004254,65.737389,64.410558,52.977531,67.565325,69.588207,67.867964,2.657433,295.717181,-81.585617,288.180667
9,-14.794407,28.37203,0.486832,0.092934,3.304539,5.986805,10.653419,13.401089,-5.428391,18.048306,34.758854,45.554523,-11.888065,11.377773,30.846233,46.195965,-15.497532,0.989399,16.096058,28.402004,-16.525326,-13.068295,-8.002281,-2.817307,-20.821251,-33.372701,-36.770271,-36.218531,-13.199089,-4.330495,1.305218,6.32176,3.686808,12.032006,15.272606,16.620741,16.750973,22.119368,23.142881,23.42187,27.533891,31.659313,28.621563,25.177866,27.85675,54.240704,76.584549,95.272293,52.841949,87.51709,105.328789,118.099136,42.791634,81.751671,102.567329,116.492157,33.962631,70.164814,89.834976,103.09536,26.793594,54.757347,70.688152,82.96875,-14.75242,-13.313512,-3.954126,2.905913,16.506935,33.284892,38.852927,42.269948,34.741276,50.683627,55.026533,56.38566,46.71289,62.804739,65.597524,64.419821,53.04206,67.590704,69.64514,67.991156,-12.197485,324.132003,-81.159296,288.316394
10,37.658329,-27.859254,0.110779,-0.001544,-9.832191,-22.58503,-36.475067,-51.26976,-45.982418,-32.949028,-12.166214,1.425018,-53.261204,-35.927639,-13.397942,5.331802,-55.982265,-42.225895,-20.185318,-2.396049,-56.102943,-53.344688,-39.319382,-26.38979,-1.223399,0.897542,8.72274,18.865121,8.871496,28.456936,35.196994,37.497135,20.632356,37.272672,44.272452,45.464111,29.555353,44.28369,47.342621,47.462416,36.702839,50.350977,49.823937,47.919493,27.736301,54.113674,76.543522,95.257988,52.495422,87.064705,104.929962,117.948418,42.693901,81.391525,102.078667,116.010818,34.129486,70.123558,89.695129,102.968788,27.137089,55.177059,71.085548,83.435326,-14.793361,-13.464554,-4.106402,2.977234,16.408258,32.93205,38.571345,42.108223,34.637844,50.44527,54.616819,55.722954,46.787114,62.733108,65.485633,64.24587,53.293446,67.715564,69.707447,68.038518,25.416698,296.297249,-81.092663,288.33935
11,-25.433006,24.86121,-0.020485,0.325548,2.586937,1.836205,0.585823,-0.05722,-18.596821,0.310135,18.134193,30.338173,-23.182526,-3.46899,15.982132,32.951546,-24.716377,-12.228928,4.281235,18.894196,-23.926678,-26.55899,-29.211617,-29.414463,-19.412477,-30.771157,-35.177481,-40.803684,-10.205305,-4.295853,0.506662,4.561009,5.449721,10.568707,13.750582,16.621544,17.405218,21.24313,23.107498,25.673845,26.819501,31.115724,31.069596,30.496923,27.146587,53.479385,75.898132,94.396591,52.448273,86.891899,104.612503,117.417755,42.645435,81.470604,102.012062,115.69519,33.962059,70.06794,89.505959,102.570648,26.896019,55.128307,70.982323,83.044968,-15.125455,-14.073783,-4.686486,2.621737,15.995209,32.406801,38.006267,41.589582,34.336872,49.797879,53.989867,55.430998,46.588463,62.207983,64.917714,63.851964,53.150556,67.25188,69.0821,67.300971,-0.026751,321.198427,-81.12359,288.704866
12,10.385399,-27.735259,-0.012302,0.708462,-3.307571,-9.548149,-18.27919,-30.073128,-34.144993,-17.745323,4.295998,17.837334,-42.457294,-21.525021,2.790184,22.092133,-46.558399,-28.914871,-4.208908,14.490852,-47.601471,-39.576931,-22.493019,-7.944374,-1.745499,0.700682,8.183659,17.125427,11.212146,31.211746,38.302052,40.706921,23.11781,39.651545,47.440248,48.431033,31.682654,46.66528,50.354682,50.339183,38.310388,52.477847,52.716512,50.64528,26.886005,53.054981,75.541019,94.222927,52.21653,86.761265,104.488964,117.334499,42.721252,81.633854,102.311153,116.144314,34.317627,70.581608,90.178928,103.457623,27.417469,55.972767,71.890926,84.12878,-15.683555,-15.038881,-5.708517,1.559877,15.289155,31.737118,37.30398,40.864879,33.645268,48.97808,53.180999,54.630034,45.952001,61.404857,64.1919,63.215255,52.553491,66.561881,68.505598,66.839078,10.353327,293.479593,-81.141214,289.429754
13,-0.128975,4.687536,0.9692,-0.10337,0.167427,-4.812927,-13.359032,-22.704849,-33.37595,-14.804592,5.845299,18.467331,-43.009701,-20.036602,4.060478,23.630219,-47.248306,-27.477837,-2.835617,15.425949,-48.992271,-38.623466,-21.005001,-6.700859,-14.227604,-19.60026,-16.215473,-9.561557,2.410551,21.165818,27.691046,29.859782,20.725229,35.710943,42.225734,43.25604,34.798951,47.271793,48.544407,47.720163,45.666035,59.17826,56.190714,50.932172,27.067051,52.826786,75.138931,93.929615,51.932659,86.635265,104.511395,117.207012,41.871758,81.10033,102.001476,115.636997,32.842197,69.805584,89.472027,102.404194,25.422649,54.322701,70.410404,82.548351,-15.004609,-14.285587,-5.228778,1.543575,14.208832,32.026728,38.310573,42.147311,32.633178,49.647949,54.464049,55.91543,45.082988,61.808519,64.876156,63.741925,51.989833,66.414915,68.667199,67.06317,10.18012,298.210107,-80.216246,289.369362
14,-26.80069,25.099813,-0.379372,-0.246755,5.539455,6.846313,14.911938,25.526962,-9.786873,15.565453,34.214058,45.999756,-16.601944,12.246552,36.262093,55.684204,-18.795147,5.34565,26.568146,43.158188,-17.693081,-7.802181,4.341202,15.298977,-22.011861,-37.453292,-38.998102,-33.849662,-18.082435,-11.495827,-5.843997,-1.24248,-0.280285,9.849005,14.43737,15.72394,14.374817,22.708838,24.406356,23.945575,26.592691,32.198888,30.581089,26.701743,26.481228,52.548409,75.14883,94.079189,51.985073,87.088108,104.980602,117.539349,41.856995,81.495495,102.263317,115.513515,32.720718,69.859257,89.48885,102.227612,25.125675,54.207058,70.235138,82.02364,-15.197517,-14.043834,-4.71909,1.77588,14.340854,31.966336,38.275005,42.250188,32.980648,49.947376,54.873392,56.226529,45.368645,62.140613,65.129456,63.816457,52.055597,66.320807,68.534374,66.974312,-16.605349,323.316913,-80.580397,289.129601
15,-13.783894,-3.084186,-0.272999,-0.310852,9.577675,17.007694,25.76992,31.733837,4.00034,32.430782,49.964733,60.416508,-2.736797,31.248493,51.259975,66.831608,-6.248989,25.556145,44.103413,56.861057,-6.582355,8.59766,21.630993,32.296314,-20.284146,-34.010151,-36.411686,-31.638503,-13.76676,-2.310392,3.835318,6.161703,3.626108,16.900409,22.235829,24.891838,16.928752,29.252405,30.860818,30.272831,26.737249,37.651573,37.031599,34.388063,26.947002,52.968864,75.363865,93.916397,52.047386,86.989403,104.958916,117.871513,41.960278,81.542702,102.340851,115.7967,33.036461,70.094204,89.701767,102.434349,25.574856,54.550781,70.551624,82.288628,-15.086058,-13.79813,-4.554402,2.214308,14.586806,31.788309,38.057952,42.018685,33.439021,50.068099,54.771936,56.001696,46.005724,62.549154,65.509407,64.06667,52.832911,67.010991,69.064563,67.212298,-30.370245,320.260515,-80.834398,288.846537
16,5.117226,-8.122464,-0.817165,0.32419,4.145908,14.411888,28.094387,36.212482,-5.02676,21.845856,38.768749,50.611782,-12.001305,19.011326,43.373966,61.39349,-13.528748,12.308693,33.514423,49.431095,-11.5028,1.211472,11.469612,21.210308,-16.638463,-24.289833,-19.880175,-11.851695,-13.303015,0.066011,9.198835,17.206691,6.08328,19.826575,27.728652,29.702813,22.059408,30.360887,35.649995,36.284851,34.465869,40.930767,40.160986,37.454774,27.303314,53.37759,75.927601,94.176006,51.955147,87.000904,104.881725,117.714901,42.162495,81.803455,102.598629,116.249371,33.620052,70.540409,90.141506,103.034992,26.584167,55.366459,71.356144,83.18922,-14.889136,-14.321526,-5.477817,1.629346,14.23205,31.254292,37.393085,41.395809,33.046103,49.282139,53.927685,55.28817,45.648683,61.965983,64.963471,63.66449,52.497977,66.596646,68.742782,67.019513,-25.258856,312.152995,-81.6574,289.18567
17,26.277065,-13.728043,0.706158,-0.217114,3.690491,2.4123,-2.295685,-8.964844,-24.125805,-2.850609,17.287445,29.17305,-33.811283,-8.136921,15.451241,34.799538,-38.836212,-16.417236,7.135391,24.773941,-41.721725,-28.816166,-12.418728,0.777283,-15.362329,-20.888806,-18.667582,-13.962386,2.028686,21.000821,26.812708,28.585192,20.196522,36.040319,41.490411,42.357819,34.137666,47.413201,47.661685,46.888138,45.090954,59.049078,55.497071,49.97924,27.12822,53.039074,75.602016,94.00898,51.922531,86.881599,104.721336,117.449112,42.094402,81.542015,102.475319,116.160851,33.379612,70.351238,89.854317,102.584152,26.193352,55.180836,71.151295,83.052864,-14.839859,-14.127877,-5.2084,1.759084,14.027347,31.666723,38.057088,42.205172,32.540553,49.3894,54.394765,56.032571,45.075886,61.621354,64.774453,63.654486,52.107282,66.38583,68.663432,67.093675,1.049623,298.454098,-80.919828,288.997702
18,-17.842884,21.939736,-0.013676,-0.197478,4.341202,4.030151,13.486462,24.875278,-12.377987,13.882427,32.135181,43.50832,-18.481293,12.001133,36.709385,55.71619,-19.876041,5.579052,26.598644,42.788715,-18.310089,-4.888115,9.255066,20.964947,-21.424367,-36.391309,-36.088979,-29.331075,-15.250623,-6.966311,-0.489187,5.015554,2.959821,12.313835,16.974385,18.695493,17.746389,25.17379,26.110668,25.462597,29.941108,34.38442,31.320303,27.739211,27.181892,53.051205,75.469208,93.984318,52.097054,87.034206,105.045719,117.793064,42.064705,81.409779,102.42754,116.035595,33.071079,69.828644,89.461498,102.151966,25.723572,54.571609,70.575657,82.414799,-14.632625,-13.673085,-4.834687,1.68733,14.729141,32.074399,38.463467,42.598089,33.170901,49.897544,55.039686,56.751654,45.534692,62.077072,65.322859,64.252786,52.342922,66.743118,69.047335,67.502895,-16.754866,320.424061,-80.895109,288.830451
19,-1.999798,4.058669,-1.109447,-0.426325,7.485123,10.641003,14.746513,18.143978,-9.459572,19.862366,38.603096,48.265686,-15.886345,16.678104,37.617531,53.939667,-18.423901,11.894188,31.878777,45.723495,-17.367496,-4.745178,8.986816,20.171356,-19.705483,-34.972469,-40.753172,-38.485821,-16.197565,-6.00566,0.602437,4.533098,-0.0134,11.151939,16.676934,20.439695,12.754486,22.197668,24.607292,25.083758,22.710073,30.413436,29.915234,27.529569,27.280083,53.369865,75.921764,94.615631,52.519341,87.141495,105.183105,118.283386,42.72028,81.643524,102.467194,116.312943,33.856258,70.010948,89.384537,101.948433,26.43362,54.883347,70.639687,82.158737,-14.528637,-13.70291,-4.982641,1.643919,14.808737,31.436949,37.741296,41.862333,33.154043,49.501045,54.721054,56.755915,45.477635,61.939615,65.256662,64.250933,52.356878,66.697423,68.936369,67.247619,-18.694439,324.487748,-81.944332,288.409143
20,-12.566071,-4.760833,0.093498,-0.000926,10.239201,18.821583,26.664734,30.694828,5.859089,36.049461,52.798462,61.885414,-1.103783,33.689003,51.662292,65.456772,-5.334663,26.362724,43.210945,54.307938,-6.74572,8.811722,21.334934,31.150589,-18.767185,-32.237914,-35.795355,-33.892455,-14.027038,-1.156338,4.336793,6.215982,2.949385,16.716763,21.964066,24.793037,16.02769,28.76044,30.203547,29.78562,25.533425,37.103414,36.232054,33.435193,27.386456,53.343601,76.196594,95.108414,52.096195,87.668266,105.98568,119.098434,42.536602,82.177277,103.302841,117.148018,34.100246,71.121883,90.720863,103.556099,27.181263,56.284389,72.182751,84.278412,-14.786136,-14.046984,-5.239769,1.419704,14.936869,31.586756,37.752967,41.740747,33.275383,49.374641,54.181232,55.637615,45.579152,61.750782,64.914812,63.783483,52.32452,66.723667,69.094141,67.596262,-31.10281,319.702924,-81.693134,288.384227
21,49.692993,-20.313354,0.178757,-0.608859,0.796738,-6.156807,-18.212585,-29.271526,-38.884335,-20.497856,-0.227966,12.112999,-50.404587,-26.788673,-3.444214,15.270767,-56.061172,-36.220264,-13.60096,3.619881,-58.696404,-51.293793,-36.578064,-23.704891,-14.725868,-21.136302,-19.278108,-14.751741,-0.904335,19.243034,25.166566,26.810238,18.050263,34.575476,39.929916,40.647703,32.820591,46.148306,46.781062,45.761378,44.466101,57.720518,54.716484,49.993442,27.487049,53.654251,76.309547,95.226288,52.204285,87.400589,105.59269,118.578186,42.462902,81.842537,102.838783,116.53656,33.882523,70.611019,90.09819,102.72995,26.841373,55.573483,71.42292,83.30761,-14.363393,-13.153394,-4.271276,2.0461,15.34047,32.116142,38.392392,42.527015,33.698188,50.03006,55.011713,56.660017,46.076922,62.33173,65.458709,64.273287,52.909914,67.369267,69.508981,67.808189,18.749771,299.36751,-81.35479,287.753307
22,-36.919613,19.902405,-0.129719,0.068111,9.416027,13.359432,16.803474,18.783474,-8.722172,19.418278,37.778606,47.933292,-16.524754,16.54089,38.760738,56.989346,-18.830967,10.055351,30.672855,46.801815,-18.473682,-1.632557,13.201504,25.758762,-19.729504,-35.407254,-39.935473,-37.972366,-15.206039,-6.895483,-1.708325,2.990078,1.977248,12.057262,17.186992,20.146504,15.614394,24.338369,26.239047,27.339563,26.441094,33.97236,31.974055,28.129659,27.597656,53.897095,76.654243,95.579739,52.248631,87.296391,105.408268,118.292484,42.479668,81.896152,102.790203,116.284046,33.938656,70.752411,90.081196,102.450771,26.940308,55.691013,71.427841,83.114491,-14.288243,-13.198101,-4.376005,2.121374,15.198999,32.117377,38.602097,42.871335,33.521088,49.886552,54.901736,56.56313,45.890066,62.122211,65.326687,64.223269,52.770482,67.14746,69.266857,67.599041,-18.079634,319.198948,-81.3943,287.750452
23,-13.458996,1.78434,-0.030327,-0.079041,11.43116,19.635258,28.095303,33.568268,3.581829,33.328629,51.895523,62.593002,-2.819881,32.662468,53.817215,70.011177,-5.616989,27.78059,46.977654,59.669151,-5.402813,12.515888,27.037868,37.857056,-19.601125,-34.038741,-38.615188,-37.812556,-16.32261,-5.280525,0.659741,3.525146,0.560385,13.72193,18.584836,21.990001,14.100521,25.842177,27.791946,28.333806,24.573576,35.041383,33.896654,31.063421,27.594681,53.75782,76.628723,95.89056,52.533302,87.666149,105.827236,118.590603,42.698135,82.197361,103.059139,116.546116,33.921261,70.844193,90.390301,103.070354,26.640587,55.578861,71.513729,83.507938,-14.536788,-13.5318,-4.586635,1.930935,15.240434,32.240508,38.55776,42.74135,33.434946,49.77534,54.748286,56.557388,45.723895,62.101648,65.422771,64.659474,52.616106,67.077064,69.405487,68.128427,-31.377754,320.957477,-81.263752,287.645599
24,-2.703838,-5.835599,0.056705,0.541675,10.308495,20.541401,31.077518,39.007931,7.992382,38.916492,56.347218,67.231808,0.732193,36.066113,53.864536,68.050861,-3.508301,28.282299,45.366154,57.127018,-4.770298,9.418545,21.784229,32.670765,-18.695308,-29.940428,-30.736329,-26.754045,-9.5941,4.808381,10.32084,11.449761,7.401404,22.457884,27.225448,29.064252,20.171575,34.023118,34.687923,33.359363,29.525342,41.915747,40.860248,37.660341,27.529736,53.602467,76.637707,95.853539,52.059288,87.546501,105.798569,118.37677,42.325401,82.383728,103.254776,116.482773,33.761787,71.325989,90.743752,102.972908,26.87376,56.305046,72.234821,83.823967,-14.475099,-13.734712,-5.04328,1.335353,15.048514,31.772625,38.008058,42.199738,33.488175,49.691977,54.423479,56.093765,45.922732,61.954559,64.817246,63.795339,52.800554,66.716874,68.631199,67.093243,-33.914938,315.121924,-81.040392,288.18732
25,35.812054,-20.481747,-0.201244,0.812697,3.529015,1.064186,-6.012154,-14.910851,-21.219406,-1.447392,18.630638,28.928604,-31.186867,-7.704792,15.128174,32.42981,-38.085594,-17.577896,5.791168,22.056084,-42.764397,-33.222141,-16.878262,-4.120445,-13.514448,-15.521151,-9.739522,-1.540488,3.068872,24.279953,30.795424,32.631202,20.911901,39.079304,44.683524,45.096264,34.901456,49.811587,50.817934,50.464104,45.77311,60.270934,57.630919,53.447513,26.558533,52.940426,76.276417,95.685368,52.122402,87.536602,105.62582,118.262272,42.926044,83.27528,103.938961,116.969891,34.857445,72.747173,91.776524,103.667965,28.037739,57.611389,73.277721,84.523716,-15.407222,-15.230739,-6.443161,0.4572,13.773306,30.143711,36.194263,40.296219,32.686531,48.281721,52.664024,54.360431,45.444104,61.003479,63.478559,62.447204,52.487356,66.112461,67.811956,66.230775,2.188711,294.639883,-80.950041,288.999724
26,-21.853294,23.646826,0.366554,0.01834,7.027359,9.153671,16.134396,23.798218,-8.439903,16.6852,34.398994,44.926414,-16.10899,15.498219,40.026054,59.073143,-18.231239,9.986572,30.825119,46.220856,-17.34827,-0.07164,15.040283,26.486664,-21.376819,-32.787431,-30.406953,-22.147588,-18.863578,-11.643411,-3.648029,2.714672,0.027047,11.029426,17.85649,19.679301,16.583999,25.428573,27.603978,26.70588,30.378856,35.064477,31.824125,27.764158,26.674519,52.663593,75.702095,95.185604,52.312088,87.573109,105.418911,117.757702,43.267651,83.203983,104.123096,117.409115,35.137653,72.692471,91.816349,103.724957,28.296719,57.735329,73.370075,84.698582,-15.19937,-14.944649,-6.293478,0.216373,13.969425,30.554907,36.606817,40.540627,32.700548,48.477223,53.062314,54.703702,45.270771,60.88745,63.477201,62.276217,52.230536,65.926469,67.842769,66.234974,-19.473782,318.301746,-80.392685,289.0331
27,-23.238201,3.140194,0.103111,-0.081325,14.013634,27.480354,37.355633,43.837452,23.322887,54.115734,70.425396,79.842968,16.007137,49.055843,67.323589,80.056858,8.984928,39.80587,56.789532,67.459202,4.110031,21.222668,33.929844,43.790417,-19.350541,-33.235492,-37.29799,-37.742099,-15.695411,-2.244319,4.894955,9.316408,1.118794,16.048315,22.053727,26.395275,14.172399,28.307006,30.447955,30.341929,24.113906,35.597939,35.372365,33.280323,27.080097,53.07312,76.153221,95.673809,52.54755,87.781277,105.671711,118.167171,43.496876,83.256168,104.184437,117.621174,35.428276,72.686462,91.86739,104.058552,28.703156,58.041515,73.700981,85.030346,-15.202828,-15.025666,-6.454894,-0.052364,14.421253,30.935166,36.944036,41.004929,33.092663,48.84507,53.361989,55.003932,45.592799,61.290557,63.817445,62.574101,52.461853,66.096468,67.950894,66.316731,-42.522011,321.404102,-80.099602,288.913937
28,36.358509,-23.760509,1.162434,-0.213471,8.752098,11.598816,8.946877,4.067917,-10.4702,11.342697,30.294571,41.329765,-21.214142,2.409611,25.357018,44.057121,-29.809971,-8.554459,15.318947,33.217506,-37.036686,-23.455696,-5.069218,9.409904,-16.098209,-21.442584,-18.724083,-13.37341,-0.95108,17.552863,24.863865,27.401251,17.454618,34.896084,40.807513,41.633178,32.680294,47.916467,48.991171,48.849022,45.198585,60.010779,57.2669,52.60814,27.028027,52.746906,75.803776,95.610008,52.803726,87.33387,104.992332,117.382851,43.871098,82.835312,103.440285,116.84967,35.732861,72.312069,91.104698,103.172379,28.691254,57.553139,73.012505,84.293976,-15.068089,-14.893767,-6.145092,0.35136,14.782925,31.407742,37.383205,41.208335,33.334972,49.2864,53.954052,55.593587,45.766812,61.521874,64.105943,62.752806,52.711819,66.065778,67.856601,66.11561,-6.020308,297.625608,-78.793974,288.682481
29,-11.945515,14.942241,1.110821,-0.300231,3.401184,8.143845,14.909706,16.169186,-6.80294,16.734009,32.987995,43.160191,-14.315643,15.944366,40.18198,58.7253,-17.102566,9.070358,29.771061,44.663258,-17.136097,-5.39732,8.798218,21.51289,-20.401039,-26.381567,-16.073879,-3.182987,-17.463325,-10.964094,-1.331956,7.094937,2.825946,13.077379,23.42082,26.738546,20.264077,27.58817,31.286093,30.873477,34.727197,39.433319,36.62701,32.210806,27.09549,52.67767,75.556812,94.809093,52.409477,87.284145,105.190029,117.96896,43.339062,82.588177,103.346157,116.801662,35.144577,71.987572,90.93298,103.089695,28.130608,56.762352,72.171421,83.283634,-14.75983,-14.859187,-6.439642,0.149189,14.05495,30.915159,36.877037,40.606515,32.772055,49.173335,54.049148,55.739442,45.361173,61.57288,64.385673,63.001414,52.424741,66.259365,68.202774,66.309013,-17.855616,312.591469,-77.572947,288.40587
30,45.689793,-16.601969,1.327972,0.350248,-8.6269,-19.66301,-33.047504,-46.24958,-48.137226,-35.94698,-12.742882,2.98336,-56.075535,-38.814297,-12.791405,8.429947,-58.694572,-44.218884,-18.37738,1.985893,-58.658123,-53.182583,-35.643253,-20.357552,-6.967731,-6.427415,2.04468,12.364964,5.182403,23.718086,31.131779,34.210469,21.116541,35.218853,42.897332,45.171785,33.444085,45.395568,48.453572,48.907376,42.793777,53.986224,52.753192,50.375924,27.268581,52.949982,75.921021,95.245457,52.120285,87.210217,105.065632,117.598629,42.99202,82.374859,103.062572,116.376743,34.835644,71.885376,90.952663,103.292942,28.058853,56.95015,72.605209,84.12077,-14.56192,-14.655102,-6.364924,-0.046004,13.835859,31.320612,37.423281,41.094837,32.441629,49.120044,53.894957,55.273782,45.083976,61.326434,64.040488,62.620228,52.16082,65.839771,67.798247,66.118636,27.993364,296.019573,-76.085787,288.786191
31,-29.049282,24.645577,1.75724,0.251633,6.968136,7.608318,8.456669,9.875736,-17.18399,7.761211,26.06432,37.054539,-25.254192,2.546711,24.570866,42.544384,-27.238941,-4.437332,15.042057,30.613689,-26.130238,-16.081467,-6.291733,2.811871,-21.04312,-35.7659,-38.848419,-37.259396,-16.106854,-6.848862,-0.737362,4.31376,1.303304,11.42889,15.60896,18.268489,14.925013,23.324304,24.161145,24.942041,25.328043,31.810601,29.450006,26.232007,27.063675,52.845783,75.733566,94.781399,52.160683,87.186756,104.731464,116.865063,42.989216,82.332745,102.783451,115.893345,34.702148,71.806526,90.691395,102.88496,27.753868,56.530781,72.153854,83.61105,-15.032459,-15.189799,-6.899682,-0.352163,13.039402,30.557006,36.540312,39.908859,31.913601,48.815862,53.451033,54.478375,44.655181,61.203427,63.942428,62.34476,51.720293,65.72825,67.762123,65.917392,-0.817595,320.727626,-74.090223,289.1003
32,-9.011765,0.034395,2.48457,0.657333,8.141212,11.715717,15.447063,16.92667,-8.058357,20.829678,38.139439,46.14275,-15.380173,19.550457,38.539639,51.756077,-18.097343,16.185436,33.872395,44.386082,-17.193604,2.274628,16.203747,25.641117,-18.93811,-33.455323,-36.831651,-35.209282,-16.241655,-3.539595,2.477859,4.773183,0.869075,15.145585,19.301079,21.725339,14.236928,26.916819,28.735739,28.676583,24.846081,35.256398,34.270861,31.778985,26.789188,52.579536,75.575409,94.50943,53.445168,88.20797,105.448952,117.061272,43.977871,82.786217,102.835464,115.694275,34.884109,71.708679,90.120964,101.811676,27.030201,55.91629,71.336918,82.320786,-15.631005,-15.52498,-6.984898,-0.510552,12.439559,30.18249,36.239958,39.46123,31.153639,48.11728,52.940666,54.165794,43.867122,60.497373,63.190555,61.579116,51.15645,65.157367,66.987526,65.03893,-9.490271,320.752928,-71.266565,289.74854
33,-3.754635,-2.426915,1.785336,0.113374,10.496979,16.846275,22.077026,24.057655,-0.124912,28.341866,45.557785,53.910141,-7.659588,26.212921,44.820671,57.949677,-11.537991,21.475296,39.308052,49.715309,-12.192764,5.584259,19.651909,29.313812,-18.734272,-31.648074,-34.204356,-32.968668,-13.90891,1.190116,7.388128,9.826343,3.486614,19.00653,23.262368,25.326067,16.795618,30.687299,31.677282,30.618324,26.7454,38.39795,37.426863,34.634324,26.655006,52.384243,75.189571,93.57336,53.757133,87.902355,105.354595,117.280369,44.738274,83.146076,103.514843,116.636982,35.87019,72.507992,90.961018,102.448139,27.960835,57.174911,72.50433,83.087826,-15.77791,-15.602353,-7.170952,-1.313987,12.357245,29.471866,35.692726,39.167792,31.175498,47.619015,52.504646,54.011603,44.06355,60.054931,62.679817,61.148407,51.63693,65.056282,66.562683,64.459032,-13.007183,318.36382,-69.243507,289.899721
34,28.049469,-22.34414,3.408051,0.792073,2.647476,0.861511,-5.310402,-13.288765,-19.991169,-1.838608,17.929802,28.306618,-29.652557,-6.748238,14.118576,29.449081,-36.252766,-17.144279,4.067459,18.303337,-40.66761,-33.810253,-20.394402,-9.784241,-16.498784,-19.017027,-13.371805,-6.630265,3.842049,22.758053,27.532656,28.131512,22.370569,39.164396,42.133973,41.432612,36.307575,50.025553,49.189328,48.079674,46.627921,59.763037,56.483287,51.930367,26.477852,52.568436,75.578671,94.559727,54.536762,89.30563,106.122952,117.086163,45.119877,83.928623,103.541622,115.952969,36.001053,73.02721,90.894527,102.008228,27.988415,57.486992,72.43166,82.790966,-16.259686,-16.268084,-7.97982,-2.167872,11.485206,28.50609,34.671004,38.101239,30.672665,46.518253,51.157623,52.258262,43.736952,59.156895,61.54219,59.918648,51.41327,64.530107,65.726521,63.47578,15.407925,296.02513,-65.469818,290.697243
35,-18.965378,16.233936,3.19622,0.310172,7.828217,13.508835,21.592484,25.613365,-5.478973,22.732773,40.817642,50.79277,-14.384537,18.688316,41.61541,57.532539,-17.669678,11.308937,30.714569,44.15863,-17.908173,-1.488876,12.7248,24.103432,-20.772345,-29.500333,-25.408751,-19.351468,-12.043924,-2.169539,5.926002,12.745717,6.741972,18.416628,23.613605,25.033185,22.045576,31.619854,32.642194,31.395391,34.137233,41.381359,38.024113,33.436366,26.476536,52.857571,75.980473,94.282551,56.155472,89.680424,105.974751,116.650257,46.737442,84.2803,103.078709,115.172138,37.165947,73.270626,90.579472,101.458912,28.438969,57.257423,71.827183,82.141743,-16.11519,-16.626669,-8.624865,-2.781239,10.788044,27.645783,34.07431,37.513375,29.829092,45.604655,50.622185,51.793343,42.933765,58.13968,60.900726,59.471513,50.981264,64.201348,65.618581,63.55797,-3.009052,312.175456,-61.725197,290.923805
36,-4.840107,-10.946681,3.60363,0.707413,14.029713,25.058384,29.619541,28.111095,15.049496,40.622921,55.506878,61.481724,4.625702,31.404018,48.445873,59.257565,-5.984402,17.290707,35.05228,45.684986,-16.085186,-2.341576,10.827141,20.199108,-19.07779,-25.222882,-23.162456,-18.77546,-7.201271,12.106662,17.601646,18.902295,12.068562,31.120293,34.154091,33.137618,28.111072,43.43277,42.751786,41.509059,40.988009,55.483116,52.032688,46.827807,26.440887,52.968922,76.092968,93.826847,57.456551,90.760059,106.499462,116.530895,48.021755,85.001392,103.243618,114.492245,37.905636,73.828983,90.690022,100.905704,28.575268,57.458096,71.738949,81.672993,-16.434069,-16.922083,-8.874584,-3.112159,10.080631,26.909039,33.547826,36.978308,28.943715,44.527358,49.624854,50.452742,41.905373,56.729609,59.576365,58.151474,50.070692,62.948185,64.504913,62.594231,-7.395115,301.192528,-57.667522,291.59497
37,52.454624,-0.98955,3.903179,-0.647206,-7.367592,-17.430954,-29.76059,-41.136246,-37.593269,-26.035995,-7.048645,5.174446,-44.98661,-29.647522,-9.716835,6.143761,-49.217892,-37.50721,-17.513008,-2.889404,-51.365147,-50.489044,-37.644539,-26.458626,-14.242053,-16.413754,-9.916005,-1.946496,2.644894,18.45516,23.275027,25.263514,19.7823,32.673563,37.732589,39.800178,32.763287,43.709288,44.944482,45.498939,42.504723,53.649005,51.871705,49.121341,26.788158,52.965088,75.443573,93.361244,58.110924,90.198555,105.486717,115.284348,48.623142,84.784126,102.65934,113.833351,38.221607,73.263016,89.806938,99.793739,28.386269,56.126804,70.19886,79.847031,-15.662868,-15.386844,-7.264936,-2.453653,11.699048,27.829367,34.307541,37.490651,30.058001,44.828638,49.84697,50.961504,42.737892,56.905228,59.86227,58.964172,50.86332,63.546484,65.068509,63.372904,45.579214,300.16812,-53.244638,290.912906
38,-36.239662,19.318863,4.215031,1.361905,9.550552,17.024117,21.17157,25.58075,3.456116,27.233505,43.123741,51.004829,-5.310688,20.92392,40.644264,55.423965,-11.520481,12.09549,29.182892,41.907349,-15.778999,-4.116898,7.069016,16.358185,-19.104713,-29.284268,-31.656287,-29.83323,-15.376223,-7.16101,0.626396,6.925679,0.053044,11.767653,17.590593,20.001576,13.538593,23.460525,25.962343,26.183718,23.659547,32.815836,33.159662,30.571147,26.529636,52.454109,75.313854,93.849735,58.986111,90.416164,105.143909,114.587803,49.912262,85.408573,102.726116,113.780766,39.685078,74.150677,90.01894,99.79311,29.535999,57.144756,70.629787,79.922161,-16.428141,-17.052623,-9.368587,-3.848533,9.634485,25.546331,31.930829,34.828714,28.142009,42.233824,47.339657,48.22065,41.389696,55.089766,58.164257,57.25986,50.211545,62.709334,64.323552,62.704209,9.983368,319.506002,-48.385792,292.293831
39,-12.077065,0.829493,3.94043,0.945337,14.347458,26.83445,31.946297,33.053741,21.154861,45.30899,61.423531,72.451286,13.745384,38.907509,55.860786,67.960625,7.000179,30.776711,46.721764,56.129036,2.21735,10.149994,18.24852,24.940567,-17.414295,-27.654799,-32.728768,-38.360714,-13.163274,-1.140036,5.316957,7.942276,1.427978,14.08885,18.143136,19.700049,13.350069,26.263438,26.680871,24.718937,22.013528,33.402959,34.776412,34.062701,26.283016,52.062893,75.11095,93.535366,59.460354,90.609913,104.867764,113.663006,50.682621,85.517864,102.479153,112.863522,40.397186,74.233875,90.128345,99.698811,30.073357,57.558804,71.141567,80.421467,-16.966852,-17.881067,-10.166341,-4.747927,8.593311,24.192329,30.460737,33.437972,27.286643,41.167518,46.252355,47.2269,40.694757,53.92787,56.600983,55.452179,49.75453,61.44697,62.629985,60.800567,-1.249294,320.512472,-43.60096,293.416144
40,41.900024,-22.505679,2.509918,0.48894,-5.968437,-10.622406,-15.973892,-23.618088,-27.619171,-8.503189,10.414925,21.525421,-31.64257,-7.876282,11.700897,25.854492,-32.920418,-14.111252,5.614243,19.63726,-31.741104,-23.190765,-10.080757,0.530663,-6.101929,-0.83536,11.17806,20.38449,8.387929,23.195493,27.090832,29.079751,20.528863,34.12229,38.142056,38.645013,29.484216,41.67665,42.324288,41.965271,35.710943,47.59129,48.074548,48.229048,26.386185,51.876354,75.198727,94.537411,59.411945,90.677204,104.986553,113.639431,51.200581,85.886936,102.856236,113.219547,41.427727,75.179958,91.25227,100.801792,31.635532,59.362164,72.95763,82.133961,-17.351557,-18.662024,-11.471312,-6.420437,8.55978,23.421561,29.303967,32.14393,27.195808,40.253365,44.839568,45.578844,40.557177,52.898552,55.289034,54.148875,49.708958,60.483911,61.17601,59.08372,41.554012,298.288236,-40.187759,294.186527
41,-1.089935,-3.858413,3.322964,0.524693,-11.326103,-20.715523,-29.025764,-40.456638,-29.084015,-12.948418,3.792229,15.327759,-27.37175,-4.500504,12.817268,28.22113,-24.388733,-3.868561,14.968185,30.298462,-20.236588,-9.457626,4.705811,18.273125,15.467799,31.243609,44.611029,53.709953,23.442,37.420688,42.992489,45.846408,20.148418,35.168095,42.636128,44.8266,15.536095,29.831315,35.162784,37.65608,9.846041,23.422611,27.861662,30.677111,26.263161,51.948967,75.277863,93.536339,59.343452,90.796509,104.607925,112.62886,50.729828,85.448799,101.510353,110.73967,40.395184,74.000587,89.947472,99.25724,30.05722,57.360191,71.060257,80.216904,-17.559779,-19.39142,-12.450736,-6.745677,8.173038,23.557782,29.010405,31.204891,26.700384,40.138879,44.582995,45.023522,39.841304,52.591344,55.095817,53.863526,48.533724,59.724937,60.781486,58.794296,41.437941,294.650566,-35.890932,294.931963
42,7.738152,6.71332,1.406479,0.28294,-4.883766,-8.186302,-12.620316,-19.172401,-26.045494,-11.96331,5.935593,18.4021,-32.03167,-15.440483,3.26992,18.651695,-34.769554,-22.456055,-3.932762,11.135559,-34.779396,-31.011086,-19.355164,-8.262978,-10.913521,-10.104714,-0.392486,7.936904,0.401933,11.818288,18.530372,22.647087,15.417472,26.501054,33.265194,36.793365,27.583909,37.067414,40.420276,42.52967,36.799417,47.074377,48.696066,49.605464,26.487007,52.44278,76.091537,94.749298,60.171661,90.966454,105.017624,113.182411,51.681747,85.961151,102.338791,112.039604,41.285019,74.568787,90.665703,99.886894,30.777283,57.715073,71.261215,80.181541,-17.886377,-19.47892,-12.60894,-7.667734,7.53213,22.825669,28.457554,30.763376,25.707005,39.123641,44.094364,45.108614,38.929806,51.787724,54.386922,53.443994,47.803834,59.619529,60.974518,59.275085,50.558653,301.563941,-33.101892,295.414959
43,-34.497643,10.54308,2.762318,0.48542,8.873749,21.746178,30.851097,33.262711,13.861198,34.082336,50.043526,60.036507,7.481461,29.054832,45.814476,57.971992,1.132965,19.664383,37.420235,50.247917,-3.77964,8.56739,21.849174,32.705383,-19.456876,-25.118956,-19.81441,-14.557907,-15.126628,-6.75142,0.800038,6.048391,1.458421,12.166807,18.612562,21.950913,16.016204,25.995627,28.503249,29.98069,28.061734,38.053074,38.259506,37.514549,26.463604,52.11565,75.669079,94.195118,60.632572,90.894642,104.613934,112.518826,52.104893,85.91692,101.631031,110.623798,41.453991,74.14896,89.58601,98.172855,30.559216,57.040501,70.117207,78.535595,-17.7609,-19.802554,-13.22206,-7.856628,6.779948,22.249106,28.00622,30.519894,24.733078,38.21239,43.065293,44.359582,38.044305,50.769336,53.335375,52.73479,47.277783,58.745884,59.940446,58.367477,17.464914,311.999174,-28.935671,295.792532
44,45.72258,-12.031697,3.884354,-0.465351,-11.208,-21.92173,-31.211243,-40.521698,-35.748596,-22.275124,-5.574074,5.835571,-37.679443,-21.483994,-4.150085,10.296593,-36.807404,-25.194969,-7.692032,6.296997,-33.992043,-30.93853,-20.188065,-10.299797,-5.308312,-0.725444,11.086422,21.392257,5.428108,18.663136,24.266121,28.031291,17.189833,29.35806,34.876818,37.137748,26.613995,37.622921,39.976229,40.379335,33.40722,44.888474,46.315711,46.62292,26.472359,52.304821,75.9165,94.609051,60.271168,90.018482,103.414936,111.210423,51.87006,84.849186,100.155773,108.761387,41.573696,73.658237,88.688221,96.927738,30.873928,57.204266,69.908466,77.765522,-16.835077,-19.354802,-13.319687,-7.249437,7.421226,22.465911,28.67084,31.387179,25.151622,38.790806,43.754428,44.736074,38.415611,51.19881,53.643818,52.599495,47.874724,59.415197,60.567027,58.65227,64.388924,299.610915,-23.849888,294.970618
45,19.382973,-15.208262,5.096855,-2.402523,-20.917511,-41.594238,-60.339432,-78.488274,-61.747055,-56.87645,-38.801765,-21.880531,-56.87645,-45.145226,-25.644493,-6.244583,-48.777237,-35.506439,-16.154022,1.600914,-39.354973,-33.627205,-20.739098,-6.326408,34.019413,53.634617,64.310399,73.764078,36.29893,54.938971,65.549483,71.177971,23.034077,43.9256,55.571419,61.233191,9.696791,29.828475,41.154859,48.21361,-2.457975,14.987689,25.208185,33.297551,26.939163,52.225513,75.157871,92.926998,60.240612,88.016338,100.278797,107.626247,51.690159,82.76041,96.753902,104.499493,41.189175,70.865536,85.070972,92.939243,29.946041,54.144802,66.608448,75.618954,-16.03368,-18.4107,-12.199782,-5.477323,7.712379,23.277559,31.07077,35.152163,25.204295,40.428797,47.043008,49.815231,38.250799,52.666494,56.522931,56.862805,47.751161,61.736271,64.690781,64.497935,85.015612,284.260997,-17.509317,292.42644
46,-8.508224,5.288614,8.984814,-16.16422,-18.772545,-36.94725,-51.885567,-68.537464,-46.054573,-48.140717,-49.82563,-51.110916,-39.737549,-27.394295,-12.736473,0.402145,-29.120522,-13.29071,1.000099,13.061256,-17.524796,-8.079414,1.511993,10.527763,28.793291,51.049745,61.900712,67.643192,33.281496,46.260012,53.772506,58.916377,17.70761,38.716644,51.643166,59.531596,1.565558,22.597316,35.476785,43.078261,-13.75793,4.265286,15.216537,22.16037,32.455559,61.326485,80.900116,96.252594,62.150688,82.56958,94.725266,104.385452,49.644127,70.180435,81.91246,92.985535,34.084969,49.689102,60.027809,69.148865,16.716328,25.554886,33.148499,39.620247,-8.731385,-5.468802,0.292326,4.069229,17.496176,33.383137,44.780473,54.355677,30.686929,49.230084,62.126781,72.284724,39.944798,59.768409,72.4236,80.857348,45.008702,63.528083,71.635974,74.685703,77.7808,289.590151,-7.251091,276.302759
47,26.353111,-6.801684,15.491982,-22.099484,-43.211975,-72.735786,-94.515381,-106.384907,-79.362488,-106.417294,-107.662525,-105.694656,-74.111137,-106.660252,-108.673611,-104.924126,-68.561668,-99.585857,-99.562969,-94.596863,-62.185249,-83.851547,-87.75856,-86.886063,-16.057207,-13.588734,-7.173237,3.216455,27.409155,42.396598,36.973244,31.398911,42.069135,56.540591,50.128799,43.660814,51.68034,61.034848,53.325865,47.138659,57.969928,63.453797,58.825048,56.080242,22.654381,36.994858,39.04541,39.373283,54.320183,56.795769,53.942871,51.664696,46.57608,37.848816,22.875023,10.802078,33.661194,21.090546,1.939602,-11.477165,18.092766,6.333504,-4.952946,-13.817883,15.678059,37.55975,58.623433,75.485803,39.530699,67.12912,77.283543,82.137372,36.086817,70.412328,82.448409,88.350081,33.21215,66.835373,76.703398,79.592823,29.992237,54.714014,64.060063,69.111123,104.394579,282.84838,8.501558,254.263188
48,4.542503,-9.201676,11.892242,-28.135402,-35.111389,-62.186623,-82.849731,-97.31535,-68.020821,-103.414593,-118.086491,-125.359554,-59.145813,-97.10598,-114.630032,-123.422184,-48.749084,-83.468857,-102.050228,-113.226471,-38.411064,-65.119858,-81.031265,-92.598953,-8.54107,-2.579006,12.327111,28.247849,25.932765,45.407733,52.30439,55.895547,42.31484,62.710878,68.544995,70.580165,52.851745,72.562106,78.281862,80.182663,58.819058,76.416567,81.736797,83.813711,35.893021,69.601936,93.918686,101.150208,81.299057,122.670135,116.675262,104.351578,74.590416,115.664978,110.115051,96.925278,66.601639,102.760849,99.224167,85.82325,56.915817,87.028542,87.140579,77.837448,-18.355495,-22.646284,-19.567347,-13.896436,-13.952135,-6.883133,-1.654294,1.290028,-4.549276,2.281986,3.582327,3.888856,4.221073,8.479134,8.997961,8.946153,12.177366,11.18973,9.541982,9.857157,109.931202,273.648217,21.38792,226.129299
49,3.922234,3.111356,16.188812,-51.008002,-33.513451,-60.98774,-83.897667,-98.515491,-66.730385,-100.905704,-116.208115,-126.806602,-58.779144,-96.393471,-113.845882,-126.658516,-51.036987,-85.87738,-103.74567,-116.934643,-43.592491,-67.770653,-81.694565,-93.18821,-10.404821,-6.743948,9.290658,25.04572,22.744097,39.485622,46.470705,50.667572,39.051763,55.982306,61.034416,63.858571,50.11188,66.537736,71.73144,74.449075,56.586657,72.779962,77.58365,80.469185,18.235474,44.826736,66.630707,75.926514,56.019173,102.163696,102.102585,92.864685,59.130936,104.337616,101.271515,91.82476,59.678078,101.903572,97.633553,88.108978,56.193695,90.647278,90.978241,84.464722,-30.563737,-49.923356,-63.731087,-69.99684,-25.063195,-29.8202,-37.750065,-40.691422,-6.456438,-15.30027,-26.683156,-28.946802,9.948115,-0.158081,-12.05331,-13.840923,23.735562,13.805293,1.394633,-3.752696,114.210749,277.465596,37.934046,175.82732
50,-3.222885,0.632633,7.65564,-38.928077,-32.105827,-59.759903,-83.694534,-100.365887,-63.891907,-98.466911,-114.990292,-126.685123,-55.948563,-94.317055,-113.241692,-127.287827,-48.1493,-83.086052,-101.368217,-114.797802,-40.942039,-66.005287,-79.874954,-91.382675,-11.731343,-8.334947,7.320264,23.404518,21.451476,39.130866,46.506088,50.526966,37.908887,54.15931,59.740683,62.619858,48.891753,65.116118,71.161669,74.330515,55.11286,70.982716,75.970173,79.061461,6.334763,19.030037,31.963806,40.551109,62.091751,86.582794,76.554909,65.362587,71.720352,92.561188,82.369537,71.891556,74.715385,94.981041,85.462189,74.568329,72.829971,91.130104,84.484749,74.181862,-35.312961,-60.050361,-78.884638,-89.65036,-37.026257,-56.848603,-64.635885,-63.622129,-19.701407,-41.93452,-52.366078,-52.54253,-5.331901,-24.475054,-33.80727,-33.469619,7.388313,-7.449817,-15.207768,-15.823111,111.834841,278.085215,46.436663,136.886229
51,-3.454056,0.722048,12.216225,-38.292295,-30.673714,-57.774811,-81.362915,-97.729912,-60.803719,-95.666428,-113.058586,-125.390511,-53.474007,-92.159557,-112.194901,-126.667099,-46.207352,-81.153831,-100.27113,-114.056282,-39.416428,-64.511833,-78.838577,-90.4319,-12.187247,-8.446036,7.334776,23.162827,21.463208,38.717879,45.793118,49.62047,38.294703,54.130596,59.198514,61.773198,49.080709,65.184599,70.837294,73.528562,54.792005,70.606409,75.413864,78.236599,-5.532188,-3.102951,4.447289,9.85302,37.37114,54.774742,45.364723,37.095795,53.016357,68.101501,56.684761,47.495613,62.535667,74.690437,63.627892,54.982109,67.535477,75.964394,66.504021,57.880211,-34.815562,-59.05794,-78.515988,-92.686689,-44.012267,-69.37208,-73.585897,-68.438229,-31.266179,-60.046409,-65.513976,-59.342609,-20.197973,-46.962454,-51.773645,-45.784997,-10.148773,-32.147203,-36.299949,-31.787352,109.384575,278.592603,59.656677,98.379274
52,-3.350029,-0.634856,-5.320129,-16.958763,-30.989113,-57.469025,-79.725952,-96.445599,-61.213875,-94.44334,-110.462437,-121.849251,-52.983971,-89.708519,-107.944279,-121.455345,-44.951477,-78.465729,-96.560154,-110.250492,-37.665367,-61.99688,-76.013947,-87.714272,-12.169709,-7.543677,8.660125,23.389451,22.13215,39.724102,47.035474,51.328054,38.875034,54.847704,59.741548,62.477461,49.763237,65.970435,71.478387,74.534291,55.621745,71.739467,76.412986,79.309944,32.929344,53.911629,63.006248,63.794861,52.741241,74.932938,74.158516,67.976646,39.746475,62.716026,64.826088,61.410942,23.139153,43.437767,47.340202,46.263885,4.875069,10.810661,10.3022,8.665466,-3.416805,-16.352466,-31.638781,-46.395091,-19.297251,-44.254112,-62.640699,-71.925027,-27.812941,-58.712878,-77.966286,-84.742684,-35.82373,-66.559534,-83.488687,-88.711259,-42.368594,-68.854241,-86.169859,-95.639007,106.681395,278.2018,54.983397,81.664565
53,-0.513496,0.330735,15.586853,-48.3159,-30.90168,-57.091026,-78.878632,-94.965477,-61.370659,-93.72551,-108.993015,-120.104942,-52.956505,-88.770218,-106.141262,-119.404736,-44.705544,-77.518501,-95.210838,-108.886242,-37.263336,-61.457634,-75.51796,-87.341309,-12.28932,-7.806796,8.276408,22.752125,22.093309,38.80717,45.536977,49.883156,38.65866,53.693218,58.283682,61.243873,49.444852,64.981441,70.418503,73.66009,55.393701,70.890708,75.643575,78.699233,-14.228096,-19.180527,-18.600998,-15.713196,21.155205,35.7304,29.210014,23.749924,38.998375,53.434753,41.344299,31.304283,50.834427,65.712662,54.07093,44.293442,57.72274,69.922142,61.859779,53.62278,-24.005874,-43.284384,-61.35382,-76.193741,-35.80681,-58.034396,-62.949451,-60.45813,-30.042872,-58.836132,-65.446823,-61.418596,-25.414432,-53.290019,-58.442381,-54.261075,-21.216392,-42.996287,-47.331567,-44.668735,106.281052,279.485113,70.683403,34.301242
54,-0.324783,0.026244,-5.127525,-9.982572,-29.578972,-55.341454,-77.154579,-93.394089,-59.415321,-92.838879,-109.488659,-121.894341,-51.147308,-88.656693,-107.570972,-122.112465,-43.050156,-77.199783,-95.90332,-110.10664,-35.650177,-60.809555,-75.364151,-87.402534,-12.880148,-8.575218,7.515087,22.421575,22.055703,38.868365,46.067228,50.671585,38.486747,53.333831,58.652023,61.988954,48.983947,64.131014,70.124077,73.599884,54.588229,69.556961,74.448211,77.677758,-12.930336,-15.241585,-13.656235,-8.870544,14.239197,36.933746,34.77356,29.66629,32.336082,54.686279,47.127457,37.999191,44.53846,65.719414,59.568558,50.616531,50.99144,68.5009,65.035515,57.237511,-23.328812,-43.171226,-59.863042,-74.343668,-26.723602,-54.219486,-68.221639,-70.969532,-18.57616,-51.880844,-66.883199,-69.670242,-14.878762,-45.566586,-59.970302,-63.096633,-15.026685,-37.032309,-48.571824,-51.843886,106.072454,281.376203,65.672064,26.183518
55,0.560532,0.51611,0.16777,-11.629918,-29.280052,-54.647942,-76.670723,-91.771259,-58.276749,-92.648563,-110.165691,-123.205948,-50.030022,-88.688679,-108.563862,-123.71973,-42.073517,-76.830139,-96.1306,-110.657616,-34.902878,-60.523567,-75.313225,-87.347145,-12.73454,-8.992651,6.769821,22.360195,22.692103,38.708246,45.381304,49.762125,39.153219,53.322222,58.388226,61.777335,49.550568,64.44625,70.171563,73.690657,54.958546,69.755735,74.323784,77.378886,-12.432632,-14.39209,-11.404266,-7.370567,16.020927,39.204369,37.400665,31.935883,32.466431,56.025925,48.847504,38.710442,43.35743,65.233269,58.869324,49.080849,49.250793,66.486282,63.678703,55.702515,-22.510186,-41.894413,-57.973757,-73.412039,-26.943959,-53.24207,-67.693673,-71.88489,-18.241504,-49.019669,-64.789119,-68.316766,-13.891805,-41.284751,-56.183612,-59.915437,-13.23546,-32.775915,-44.732462,-49.176206,107.109604,283.187899,66.316452,15.849185
56,1.521492,1.154794,-0.78289,-10.275824,-28.874359,-54.36161,-76.706429,-91.314526,-57.838211,-93.144035,-111.050777,-123.985004,-49.853325,-89.350204,-109.714565,-125.286369,-42.126846,-77.303696,-96.946106,-111.640549,-35.066986,-61.105728,-76.100349,-88.084831,-13.053667,-9.623431,5.961323,22.479743,22.180377,37.571235,44.022116,48.425167,38.834402,52.682117,57.93578,61.479204,49.385139,63.968425,69.815078,73.49003,54.899389,69.51318,73.972177,76.927799,-12.555885,-14.769745,-11.644478,-7.681046,18.149529,42.984467,40.295677,33.665543,33.410912,57.687721,50.955849,41.042862,43.523598,66.013069,60.475388,51.399422,49.111061,67.054367,64.892349,57.486534,-21.82593,-40.284765,-55.347512,-70.311026,-26.486388,-52.137386,-66.005633,-69.317184,-17.710605,-47.293529,-62.540663,-65.865737,-13.264297,-39.30812,-53.784084,-57.447551,-12.696286,-31.329133,-42.978472,-47.401191,109.395933,286.572346,66.298399,7.803014
57,1.512451,0.132825,-3.460579,-6.831942,-29.103699,-54.246712,-76.381645,-91.572704,-57.079124,-92.519875,-110.308056,-123.27301,-49.193573,-88.770103,-108.598022,-123.739414,-41.740379,-76.928787,-96.364689,-110.857029,-35.126953,-60.622101,-75.216637,-87.074661,-12.415229,-9.037235,6.088961,21.732193,23.070448,38.042823,44.546315,49.22959,39.50001,52.879039,57.948501,61.207008,49.882292,63.945145,69.721217,73.215179,55.443842,70.012741,74.531883,77.30355,-11.485405,-13.484344,-10.394554,-6.227417,22.089157,45.444603,41.72184,34.207993,35.985031,59.872742,52.727051,41.866379,44.686661,67.3946,61.423187,51.469116,49.201927,67.738953,65.301132,57.33078,-22.614421,-41.063499,-56.210381,-70.010024,-28.927722,-54.903279,-68.612797,-71.499197,-19.770444,-49.291618,-64.756113,-67.779568,-14.742293,-40.184822,-54.650504,-58.506663,-13.228791,-31.274268,-42.583084,-47.36624,111.597176,289.414548,63.526611,3.680448
58,1.206436,-0.869137,-2.247963,-7.595856,-29.467964,-54.32579,-75.663414,-90.452499,-56.208115,-90.817337,-108.429451,-121.541176,-48.522949,-87.110481,-106.736012,-121.648521,-41.297722,-75.697975,-95.044498,-109.567966,-34.809723,-59.216766,-73.66333,-85.729866,-12.106724,-8.408307,7.082217,22.238423,23.404456,38.396406,44.866553,49.510184,39.633637,53.304252,58.218968,61.174342,49.932803,64.322317,69.953584,73.06105,55.494169,70.602025,75.394598,78.01053,-12.109337,-14.403763,-10.860214,-6.564217,23.033752,46.957397,42.101326,33.823471,36.822739,60.957642,52.492905,40.676422,45.204048,67.600365,60.258522,49.326897,49.431381,67.344589,64.280434,55.625153,-21.365643,-39.59458,-54.462165,-68.420136,-29.267102,-55.574506,-69.240953,-71.753917,-20.488818,-50.152758,-65.636458,-68.488617,-15.917651,-41.405164,-56.181544,-60.103189,-14.873297,-33.37159,-45.242149,-50.313248,112.832365,290.391887,61.307402,-2.068932
59,1.38176,-0.017784,-1.857147,-7.951662,-29.134254,-54.293976,-74.958344,-89.480095,-55.521812,-88.778458,-105.702038,-118.313828,-47.96917,-84.668999,-103.808327,-118.275375,-41.124916,-74.004936,-93.17173,-108.081608,-35.028648,-58.41465,-72.904701,-85.481186,-11.482119,-7.887195,7.266233,21.905712,24.509603,38.852495,44.340624,48.180388,40.19007,53.227003,57.403615,59.84146,50.026232,64.273596,69.748264,72.602615,55.339484,70.71614,75.90126,78.79439,-12.238884,-14.367485,-11.113129,-8.721771,23.402824,46.140404,40.511856,31.380272,36.66172,60.199013,50.909615,38.684349,44.356728,66.092949,58.666077,47.787552,48.211899,65.267029,62.460594,54.061203,-20.145393,-38.570728,-54.928782,-70.466761,-30.379844,-58.988532,-72.397696,-73.933398,-22.619207,-53.213294,-68.327819,-70.577541,-18.392854,-44.282672,-58.710439,-61.984847,-17.222036,-36.06258,-47.891397,-52.631358,114.042978,291.189641,59.279108,-9.205057
60,0.42572,-0.064097,-2.981644,-8.917408,-29.034691,-54.242134,-74.646149,-89.480553,-55.296021,-86.684532,-102.34417,-114.208374,-48.006935,-82.611809,-100.788803,-114.913216,-41.252174,-72.349091,-90.756569,-105.591774,-34.965248,-57.565956,-71.736946,-84.592667,-11.233079,-7.447841,7.659027,22.161791,23.848935,38.032264,43.427706,47.23641,38.935055,51.99854,56.267778,59.288423,48.657843,63.328382,69.271242,73.112797,54.366421,70.509646,76.222486,80.082813,-13.539619,-17.038422,-14.547501,-12.244606,25.149078,45.592461,39.104462,29.732666,37.706223,59.20372,48.946609,36.163559,44.153252,63.282051,55.086479,44.076233,46.644516,60.225677,57.281685,49.696541,-18.001326,-35.18699,-50.431129,-64.797363,-32.518755,-60.543531,-73.326916,-75.321671,-25.532313,-55.325158,-70.061307,-73.297616,-21.495041,-46.835032,-61.46954,-65.409031,-19.919973,-39.20509,-51.221998,-56.415856,114.233551,292.444764,56.062317,-16.803244
61,0.173035,0.369638,-12.848434,-14.173417,-28.664589,-54.63604,-75.597954,-91.51062,-54.098167,-85.632591,-100.889568,-110.914993,-46.444931,-81.427689,-99.124775,-111.727066,-39.349136,-70.390091,-88.353882,-102.244377,-33.132477,-55.921669,-70.269356,-82.574043,-11.373191,-7.233443,8.206321,22.67506,22.205695,37.183999,41.802188,44.17501,37.766058,51.420865,55.037031,57.293144,47.848356,63.182342,69.011519,72.471086,53.381687,69.985076,75.781835,79.439867,-16.497746,-22.041912,-16.366386,-8.545361,19.447174,36.011772,30.446358,22.069244,34.928207,50.671806,40.854874,29.467926,45.383835,58.322334,47.512436,36.306725,52.413712,62.069664,54.859352,45.570335,-24.374771,-47.669455,-63.737679,-74.616733,-51.455769,-78.810322,-91.947784,-95.431243,-43.118285,-70.812306,-81.12904,-82.564829,-34.915855,-57.083892,-63.625649,-62.614115,-26.793226,-44.737958,-51.2616,-52.561817,114.109783,293.930865,42.91708,-29.860199
62,-0.073814,0.283126,-12.848434,-14.173418,-28.81588,-54.551811,-75.169716,-90.926743,-55.329895,-86.03302,-99.872704,-108.731632,-47.202873,-80.989609,-96.758595,-107.656403,-39.472389,-69.400635,-86.078796,-98.844337,-32.694397,-55.181465,-69.287453,-81.40377,-11.499779,-6.955134,8.382804,21.963201,21.203548,36.267622,41.253165,43.99439,36.655477,50.517765,54.253109,56.780986,47.045292,62.560022,68.393768,72.023025,53.113999,69.139405,74.964074,78.985693,-19.455872,-27.045403,-18.185273,-4.846116,13.745269,26.431083,21.788253,14.405822,32.150192,42.139892,32.763137,22.772293,46.614418,53.362617,39.938392,28.537216,58.182907,63.91365,52.437019,41.444129,-30.748216,-60.15192,-77.044229,-84.436103,-70.392783,-97.077112,-110.568651,-115.540815,-60.704257,-86.299453,-92.196772,-91.832043,-48.336668,-67.332752,-65.781757,-59.819199,-33.666479,-50.270825,-51.301203,-48.707778,113.773699,294.267111,29.806376,-43.980496
63,-2.287445,1.663494,-12.848435,-14.173418,-28.108864,-54.239845,-74.48204,-89.892883,-54.161911,-86.174011,-96.874809,-100.1334,-45.192947,-79.886513,-93.337841,-100.053406,-36.913147,-67.773399,-83.48568,-94.485569,-30.127029,-53.501358,-67.622795,-79.480476,-11.996561,-7.26543,8.616097,22.228419,21.023731,37.023077,39.031262,38.454946,36.627689,51.328918,53.652278,54.25348,46.95841,62.624119,67.579095,69.960191,52.67446,68.674362,74.818219,78.795625,-22.413998,-32.048893,-20.004158,-1.14687,8.043365,16.850395,13.13015,6.742401,29.372177,33.607979,24.671402,16.07666,47.845001,48.402901,32.364349,20.767708,63.952103,65.757637,50.014687,37.317924,-37.121662,-72.634385,-90.350779,-94.255474,-89.329798,-115.343903,-129.189519,-135.650387,-78.290229,-101.7866,-103.264504,-101.099257,-61.757482,-77.581612,-67.937865,-57.024282,-40.539732,-55.803693,-51.340805,-44.853739,110.665283,296.118173,16.136971,-57.966347
64,1.185951,0.743784,13.279266,3.561146,-28.19046,-54.276924,-74.948387,-90.487747,-54.008446,-87.710838,-94.640408,-92.579155,-45.398941,-80.918427,-91.675644,-93.829536,-37.404099,-69.728394,-82.936592,-89.779243,-31.027222,-55.153999,-68.9748,-79.069176,-12.015272,-6.937412,8.809437,22.692659,20.124212,35.420839,33.6725,30.018481,36.349689,50.51616,49.231689,46.479226,47.442409,61.776594,62.587562,61.760169,53.451589,67.589284,72.551177,75.608131,-15.645332,-19.988823,-18.173962,-13.327332,21.373558,31.301079,20.653267,10.1754,36.864853,47.002373,33.056259,21.531029,44.831657,54.995155,42.120895,32.105598,48.368568,55.961952,46.401672,38.083878,-24.805573,-45.456578,-62.778278,-76.740201,-48.624343,-75.817248,-84.213498,-86.792072,-49.529542,-79.09584,-86.129475,-86.512173,-49.185222,-80.259095,-85.911341,-84.451376,-46.773961,-70.833496,-77.292034,-78.287635,110.885239,296.804606,28.450241,-54.462551
65,1.730003,-1.714068,2.413101,6.292521,-28.865433,-55.07,-75.831642,-88.976669,-52.860832,-87.221146,-91.006393,-85.992737,-45.200729,-81.315765,-87.712784,-85.201721,-37.942543,-71.481972,-80.735893,-82.547722,-32.075157,-56.469269,-69.263306,-76.690636,-11.679288,-5.923285,10.915682,26.66389,21.908737,34.030158,28.547154,23.923468,38.672431,49.68469,42.982301,36.534817,49.596696,61.946346,57.289377,52.791662,55.320959,68.765321,70.848285,71.408794,-14.682026,-16.702709,-13.439941,-8.917351,23.477783,47.053528,41.665878,33.895798,39.29409,61.618538,50.807304,39.804153,47.984047,67.397232,60.120506,51.931572,51.508827,67.120514,62.784576,55.760536,-22.715846,-43.297969,-61.559572,-78.779138,-42.890972,-72.126334,-83.678416,-84.883923,-37.549314,-69.372296,-80.437692,-80.329783,-33.997461,-63.530676,-74.017965,-74.156656,-31.731962,-55.303947,-64.497904,-66.70968,112.080002,295.025962,30.328102,-48.234605
66,0.279465,-0.568351,4.156494,4.892856,-28.315201,-54.35154,-74.79847,-86.94397,-51.295395,-85.172882,-88.978729,-83.778076,-43.660583,-79.465141,-85.695305,-82.533073,-36.534691,-69.724388,-78.431625,-79.107513,-30.702667,-54.624825,-66.824112,-72.983551,-11.397274,-5.943601,10.501831,26.256152,22.355069,36.335116,28.894438,22.90366,39.100978,51.143173,42.554864,35.108011,49.873029,62.96566,56.36133,50.617615,55.440878,69.315146,69.399312,67.965406,-14.001846,-17.077789,-13.933182,-8.202667,24.561768,48.10009,41.711197,33.238106,38.898468,60.709305,50.45826,40.194397,46.728172,65.256157,59.515686,51.927223,49.688988,65.121346,62.58007,56.719437,-21.163286,-42.102172,-61.122904,-76.753076,-44.035763,-72.20522,-83.618487,-84.037031,-37.757413,-68.715148,-80.644494,-81.390717,-32.821919,-60.308015,-72.105308,-73.248493,-29.948456,-51.235706,-62.260625,-65.706607,112.023983,294.455558,34.149113,-43.343803
67,0.781059,0.264107,0.24971,1.268137,-28.384094,-54.023323,-74.858437,-87.318764,-52.256126,-84.335175,-87.058754,-81.236916,-45.075874,-78.991814,-84.405212,-80.722961,-38.288155,-69.620705,-76.951904,-76.521378,-32.559128,-55.419502,-66.799393,-71.868439,-11.159473,-6.333925,8.720702,24.149475,22.878466,35.291719,26.678771,20.451613,39.586769,50.160662,40.545815,33.24741,50.441874,62.680003,54.925139,49.260218,56.089875,70.135686,69.514785,67.648688,-14.622116,-17.266731,-12.988701,-7.070847,21.672821,45.056877,37.605629,28.302269,36.830406,58.9571,47.141418,36.158638,45.918961,64.912376,56.330795,47.150803,50.407219,66.178093,61.206665,53.129997,-21.911331,-43.17771,-61.856715,-75.306202,-41.964685,-72.57106,-84.779549,-84.511706,-35.07763,-68.529403,-80.348185,-79.348168,-30.34548,-60.308756,-71.777444,-71.214774,-27.892846,-51.258523,-62.013654,-63.718521,112.407417,294.765422,34.001198,-42.029908
68,0.563965,-0.043966,0.565681,1.339058,-28.573952,-54.124031,-75.066833,-87.941895,-52.401009,-83.334045,-85.608215,-79.39476,-45.704041,-78.410454,-83.233795,-78.351173,-39.456825,-69.468498,-75.456734,-73.536873,-34.074898,-56.460342,-66.57795,-69.831848,-11.182197,-6.546099,8.129256,22.641591,23.68752,35.016189,26.235404,20.246787,39.974129,49.981092,39.746455,32.484854,50.638425,62.413797,53.937132,48.579234,56.397639,70.155075,67.908719,65.010957,-15.280151,-17.587166,-13.263702,-8.052292,21.329613,44.448166,37.742958,28.777657,36.593628,58.170891,46.459351,35.206947,45.551376,64.127312,55.648041,46.204147,49.720459,65.373459,60.698776,52.430534,-20.487027,-42.031931,-61.194566,-76.344319,-40.941017,-72.252675,-85.810163,-87.734368,-34.232144,-67.889206,-80.337996,-80.619702,-29.845981,-59.270021,-71.311321,-72.198119,-27.707626,-50.194162,-61.483341,-64.662747,112.923059,294.699194,34.518557,-40.713112
69,0.883484,-0.777993,-0.060425,0.093614,-29.318848,-54.735489,-75.191116,-87.503357,-53.802567,-84.080658,-85.357475,-78.743248,-47.260323,-78.837204,-82.598305,-77.415276,-40.731812,-69.870529,-75.324898,-73.393364,-34.986763,-56.535416,-66.1203,-69.167747,-11.198437,-6.420067,8.441714,23.287377,23.83887,33.740363,25.004039,19.463792,40.073918,48.653829,38.810813,32.3122,50.776746,61.558677,53.557059,48.964989,56.71374,69.908259,68.206418,66.125676,-14.636192,-16.202431,-11.222076,-4.843712,21.285095,44.039955,38.871689,30.904427,36.469116,57.78511,48.736038,38.57048,45.524826,64.368896,58.437424,50.322418,49.672165,66.070404,63.33744,56.497192,-20.694416,-42.21181,-61.019071,-75.648268,-40.512932,-71.359764,-85.177808,-87.944381,-33.620074,-67.425522,-80.878991,-81.870734,-28.89592,-59.058248,-71.969796,-73.953034,-26.539154,-49.4275,-61.384819,-65.568872,113.790493,293.859806,34.442081,-40.680894
70,-0.618668,0.950833,1.005707,-0.660915,-29.297791,-54.321327,-74.14547,-85.285034,-53.513374,-83.23494,-83.09864,-75.530663,-47.232628,-78.187408,-80.934448,-74.933968,-40.918579,-69.427872,-73.279037,-70.284805,-35.330544,-56.54892,-64.318771,-65.790138,-11.467237,-7.067335,7.691014,23.05359,23.441815,33.063579,24.692014,19.225559,39.427453,47.865832,38.309647,31.739156,49.971644,60.116249,51.914004,47.23536,55.724869,68.202157,65.45908,62.594787,-14.969902,-16.562576,-11.345215,-4.974174,21.575775,44.921951,41.03714,33.785362,36.487198,58.08094,50.658302,41.606255,45.144997,63.70388,58.908234,51.89621,48.899689,65.137596,63.000755,57.050056,-20.387331,-42.017605,-60.603244,-74.916897,-40.183587,-70.187834,-83.703085,-86.826915,-33.151666,-66.063493,-79.339801,-80.880504,-28.219599,-57.538787,-70.039448,-72.378584,-25.663255,-48.002177,-59.436192,-63.554234,113.109198,294.654225,35.38516,-41.498222
71,-0.266075,0.447073,0.336571,0.760364,-28.802147,-54.06395,-74.16893,-84.989433,-54.545059,-83.031578,-81.71711,-73.616638,-47.900505,-78.283768,-80.062065,-73.173981,-41.209373,-69.498596,-72.898521,-69.314003,-35.297241,-56.154671,-64.677429,-66.935921,-11.508424,-7.729237,6.233457,20.65224,23.708206,32.638674,23.53549,18.151657,39.50495,47.077711,37.175107,31.257194,50.051426,59.605635,51.585306,47.539728,55.845467,69.140393,67.804052,66.297465,-15.804634,-17.968597,-13.948402,-9.228745,21.623154,43.209686,38.297997,30.790215,36.593285,57.161407,49.021797,39.95945,44.948158,63.213959,57.516747,50.30262,48.36525,64.395676,61.99379,55.921211,-20.392857,-41.765725,-60.635477,-76.271886,-40.859537,-71.87186,-85.016084,-87.436268,-33.938304,-67.540841,-80.693678,-82.004701,-28.960202,-58.561929,-70.942578,-73.074604,-26.20953,-48.405654,-59.713914,-63.623642,112.822237,294.958546,35.700846,-40.88061
72,-0.537872,0.434476,0.272713,1.096842,-28.579216,-54.007416,-74.137802,-83.904076,-53.189392,-82.793427,-82.111359,-74.356956,-47.007408,-78.387451,-80.621109,-73.642845,-40.655365,-69.484863,-73.279953,-69.841118,-35.016975,-56.337204,-64.625816,-66.420135,-11.596172,-7.749121,6.500898,22.022482,23.716172,32.237605,22.751692,17.375022,39.698784,46.803416,36.427,30.056149,50.20222,59.485283,50.994787,46.472372,55.734749,68.423532,66.323277,64.231667,-15.688362,-17.992516,-14.445992,-9.484863,20.727196,42.955971,39.208717,32.320061,35.579109,56.557388,49.743233,41.270256,44.158173,62.434502,58.023033,51.452065,47.862053,63.997879,62.370758,56.869125,-20.772684,-42.572401,-61.767517,-77.290119,-42.712698,-72.452005,-85.422803,-88.11756,-35.626468,-68.267427,-81.5337,-83.03933,-30.204103,-59.297716,-72.035499,-74.381644,-26.871927,-49.195503,-60.847837,-64.999039,112.268229,295.293017,35.957422,-39.883773
73,-0.365639,0.194699,-1.223259,-0.195872,-28.277664,-53.166389,-73.4412,-85.367088,-53.381195,-82.026443,-82.639275,-75.814476,-47.109489,-77.838936,-80.886383,-74.521751,-40.615311,-68.94413,-72.988129,-69.834824,-34.838219,-56.120682,-64.206505,-65.64949,-11.864477,-8.042127,5.544199,19.509919,23.655965,32.735437,24.315336,18.910199,39.588127,47.759621,38.255183,31.892791,50.149547,60.31737,52.230721,47.632601,55.983603,68.813795,66.241581,63.55266,-14.939346,-17.116928,-13.669167,-8.614426,21.073151,44.223175,41.552353,35.176849,35.840492,58.042717,52.334862,44.504356,44.470139,63.718071,60.816307,54.874306,48.392944,64.717941,63.71933,58.625221,-19.879465,-41.806696,-61.011352,-77.016102,-40.425957,-70.30834,-84.605691,-89.20023,-33.858338,-66.207958,-80.307985,-83.22279,-29.292728,-57.686463,-71.382303,-75.342141,-26.782142,-48.707737,-61.004097,-66.43696,111.898499,295.463989,34.730072,-40.103373
74,-0.109634,-0.017043,1.181145,-1.110581,-28.326645,-53.187904,-73.564682,-85.555687,-53.11821,-81.82457,-83.028259,-76.643829,-46.724167,-77.861252,-81.556664,-75.746384,-40.240517,-68.998375,-74.022217,-71.77597,-34.545021,-56.040001,-65.557137,-68.574371,-11.402831,-7.584371,5.926064,19.293916,23.671032,33.081795,24.906843,19.356037,39.732253,47.940056,38.637789,32.183882,50.45657,60.818413,53.153273,48.621533,56.418511,69.743756,68.279654,66.31667,-15.761261,-18.559456,-14.893227,-9.946404,20.769539,42.94693,38.089256,30.61821,35.809021,56.434822,47.879448,38.621292,44.561462,62.219467,56.317978,48.808594,48.434486,63.801842,61.133652,54.638901,-20.429321,-41.973114,-61.011043,-76.508266,-39.953474,-71.041719,-84.376473,-87.181825,-33.208229,-67.025626,-79.754115,-80.690745,-28.580159,-58.363958,-70.72111,-72.775269,-26.395244,-48.764022,-60.639615,-65.029822,111.787519,295.444615,35.909872,-41.216285
75,0.391388,-0.18346,0.162392,-0.711426,-28.45356,-53.44986,-73.950462,-85.579033,-53.33622,-82.100601,-83.039246,-76.517372,-46.900063,-78.219681,-81.694107,-75.562706,-40.509453,-69.403725,-74.249268,-71.652489,-34.933891,-56.446953,-65.818977,-68.601036,-11.368807,-7.550902,5.986826,19.963908,24.080067,33.365415,24.871028,19.376538,40.036868,48.185575,38.666873,32.192651,50.686776,61.035898,53.177726,48.644319,56.578321,69.995512,68.429769,66.478085,-15.899506,-18.780327,-15.245132,-10.449142,20.150871,42.843132,39.358749,32.336197,35.02018,56.372681,49.872665,41.610031,43.647308,61.943665,57.328835,50.600166,47.628937,63.35289,61.532478,55.781136,-20.421201,-41.676959,-60.437876,-76.309245,-40.271334,-70.355949,-84.048239,-87.326352,-33.482247,-66.520817,-80.008218,-81.493964,-28.607453,-57.863347,-70.850539,-73.37644,-25.951846,-48.237168,-60.381899,-64.998576,112.23464,295.257912,36.127996,-41.930953
76,0.056534,-0.075521,-1.354179,-0.281428,-28.703728,-53.672218,-74.154396,-85.84774,-53.57769,-82.162399,-83.144531,-76.758614,-47.132034,-78.237419,-81.607246,-75.528145,-40.704002,-69.4907,-74.284859,-71.75251,-35.081978,-56.509323,-66.00666,-69.011879,-11.116433,-7.478654,5.847208,19.488245,24.232344,33.167196,24.823172,19.33992,40.117637,47.949565,38.471618,32.035311,50.75217,61.002614,53.288444,48.904227,56.71658,70.216208,68.805891,67.046066,-15.836906,-18.17276,-14.281082,-9.587975,20.950699,43.443489,38.274307,30.281754,35.479317,56.809959,48.77243,40.059586,43.884087,62.618752,57.508507,50.713348,47.858276,64.06414,62.171516,56.366272,-19.801659,-40.915205,-59.557439,-75.836638,-39.640399,-70.698386,-84.04651,-86.70823,-33.089174,-66.258285,-79.104563,-80.062497,-28.446439,-57.54172,-69.917521,-71.896684,-25.869965,-47.952313,-59.857577,-64.211969,112.226486,295.17705,34.709129,-42.217722
77,-0.528831,0.844684,-0.306129,0.356825,-28.716774,-53.81424,-74.478264,-85.859528,-53.696365,-82.742386,-83.555832,-77.106628,-46.866989,-78.825302,-82.365646,-76.574707,-40.413666,-70.123444,-74.995995,-72.606468,-34.893608,-56.785583,-66.798363,-70.56633,-11.437782,-7.998593,5.935635,19.977246,22.777442,32.277434,24.153427,18.82838,38.730846,47.577766,38.412153,32.054762,49.648937,60.588022,53.339882,49.124243,56.058444,70.283269,69.431669,68.0019,-15.453186,-17.489548,-13.907433,-10.155602,21.74572,42.949562,36.761513,28.656349,36.119614,56.821861,47.497101,38.161926,44.276733,63.056488,56.811447,49.398422,47.890778,64.236603,61.444702,55.036125,-20.214738,-41.715059,-60.498361,-76.708616,-40.098186,-71.844597,-84.598836,-86.316578,-33.283565,-66.549376,-78.941233,-79.137352,-28.36956,-57.569816,-69.80353,-71.155741,-25.594218,-47.853729,-59.668342,-63.621419,111.646729,296.033081,34.352074,-41.849551
78,-0.063858,-0.058972,0.780373,0.147491,-29.006653,-54.276009,-75.132065,-86.39946,-52.806244,-82.881088,-83.417587,-76.460953,-46.208038,-78.872223,-81.645927,-75.197067,-40.055923,-70.143127,-74.309006,-71.113014,-34.858589,-56.975441,-65.997276,-68.450661,-11.261546,-7.349905,6.849232,21.310129,23.042043,32.912537,24.449211,19.131019,39.188849,47.834216,38.257776,32.005671,50.154302,60.612537,52.725219,48.385276,56.563624,70.052014,68.544501,66.979499,-15.86792,-18.142319,-14.483986,-10.194855,19.9823,41.857338,36.340714,28.449783,34.828606,55.493431,46.362076,36.790009,43.414078,61.864815,55.503273,47.712822,47.482567,63.712578,61.07769,54.574585,-20.544733,-42.583022,-61.657169,-77.268568,-40.493543,-72.121085,-85.303254,-87.674995,-33.546621,-67.434507,-80.237065,-80.727456,-28.766615,-58.605062,-71.189024,-73.125826,-26.258066,-48.805858,-60.922185,-65.341075,111.462536,295.924492,35.012112,-41.751677
79,-0.369759,0.065517,-0.15873,-0.191704,-28.392563,-53.462334,-74.396324,-86.427155,-52.671432,-82.956848,-84.086609,-77.452812,-46.104698,-78.763962,-82.507439,-76.871796,-39.700699,-69.98909,-75.108948,-72.768173,-34.216347,-56.415367,-66.440506,-70.151253,-11.277416,-7.465378,6.505529,20.536026,22.809799,33.417532,25.471983,20.021892,39.090234,48.273385,39.104189,32.563709,50.066987,61.011136,53.542609,49.092566,56.352253,70.030833,69.004912,67.475046,-15.748901,-18.055344,-14.822159,-10.813065,19.958496,41.122169,35.740929,28.124771,34.659805,55.403938,47.482567,38.797188,43.262672,61.904526,56.685448,49.705467,47.333336,63.550186,61.722679,55.973396,-19.747288,-41.255265,-60.46236,-76.61846,-41.067667,-73.014089,-85.359385,-87.208069,-34.349222,-67.844004,-80.495614,-81.140751,-29.234899,-58.910202,-71.312432,-73.246641,-26.08748,-48.855537,-60.859786,-65.211523,111.008892,295.934697,34.769497,-41.998694
80,-0.686646,0.34784,-1.000557,0.020501,-27.805138,-52.896538,-74.025307,-86.775627,-52.101059,-83.02002,-84.382782,-77.734337,-45.563393,-78.962746,-82.850418,-77.384834,-39.269028,-70.210648,-75.628624,-73.561935,-34.008636,-56.374054,-66.644669,-70.849571,-11.667555,-7.83409,6.405185,20.408449,21.861745,33.447419,25.889972,20.374672,38.679408,48.649198,39.516003,32.888455,49.980413,61.450181,54.052112,49.617568,56.356761,70.270981,69.597778,68.382283,-15.122337,-16.912651,-13.75248,-10.232506,22.153816,42.78511,36.963959,29.094772,36.186447,56.377716,48.241997,39.740067,44.122581,62.275658,56.846123,49.866486,47.615089,63.555565,61.639366,55.852089,-20.320826,-41.805307,-60.871549,-76.937216,-41.474232,-72.750785,-84.800081,-86.837999,-34.696692,-67.457848,-79.908831,-81.09413,-29.493664,-58.444017,-70.731361,-73.042,-26.305089,-48.568181,-60.610499,-65.369048,110.250978,296.279125,33.697672,-41.981604
81,0.392532,-0.065394,-0.217896,0.309709,-28.210258,-53.215256,-74.681969,-87.98893,-51.823883,-83.387833,-85.160637,-78.448563,-45.363922,-79.241638,-83.295593,-77.650909,-39.212608,-70.482101,-76.177254,-74.175339,-34.065514,-56.832047,-67.085266,-70.921097,-11.776112,-7.948575,6.124591,20.338054,21.851186,33.43297,26.011991,20.6854,38.743999,48.789001,39.767512,33.109459,50.048956,61.537558,54.149122,49.614604,56.346078,69.838604,68.797554,67.172036,-14.898605,-16.717873,-13.684273,-9.79969,22.696838,43.443146,38.182983,30.739632,36.846085,56.958504,49.224815,41.036224,44.74926,62.841682,58.008156,51.397018,48.260765,64.294052,62.702751,57.053032,-20.519538,-42.137678,-61.189379,-77.343472,-41.705333,-72.972839,-85.113649,-87.099018,-34.857737,-67.657673,-80.110477,-81.398683,-29.564677,-58.381958,-70.55812,-72.916924,-26.20246,-48.229604,-60.217582,-65.073356,110.613012,296.140079,33.449278,-41.745548
82,0.104942,0.28893,-0.6427,0.967722,-28.364296,-53.800964,-75.26516,-88.837395,-53.066597,-85.191422,-86.541252,-79.570656,-46.151505,-80.374489,-84.253578,-78.754463,-39.436226,-71.088181,-76.919289,-75.312309,-33.695526,-56.484261,-67.539024,-72.643547,-11.74252,-8.009152,6.067163,20.2416,21.686559,33.360351,25.707499,20.173304,38.600244,48.505443,39.75862,33.244384,49.823443,61.32489,54.616449,50.367835,55.998361,69.65749,69.996809,69.540412,-15.085945,-16.937027,-14.20784,-11.052132,22.870674,43.511009,38.522415,31.212273,37.155647,57.187271,49.222069,40.750008,45.017624,62.96917,57.761307,50.843124,48.313293,64.426575,62.598267,56.761093,-21.040897,-42.992891,-62.25127,-78.607317,-42.185288,-73.465515,-86.233215,-88.862733,-35.111593,-68.374965,-80.918049,-82.107423,-29.705715,-59.077237,-71.281001,-73.358501,-26.266865,-48.724379,-60.576876,-64.975019,110.675039,296.399199,32.763662,-40.807636
83,-0.249596,0.053476,0.623589,0.25858,-28.825378,-53.950195,-75.402946,-89.329376,-52.76001,-85.487137,-86.615181,-79.35276,-45.655861,-80.471191,-84.235611,-78.667831,-38.972511,-71.241074,-77.050095,-75.506058,-33.456345,-56.83754,-67.99221,-73.101082,-11.623589,-7.839153,6.578518,20.965129,21.573247,33.384063,26.235218,21.074366,38.337805,48.702673,40.723841,34.735842,49.543776,61.422456,55.324849,51.435376,55.887087,69.659528,70.249492,70.015581,-14.838982,-16.880722,-14.056091,-10.54287,22.823067,42.987328,37.613068,30.249825,37.219391,56.807213,48.095398,39.179306,45.163078,62.616692,56.683846,49.507027,48.449478,64.216347,61.763649,55.59597,-21.266132,-43.093482,-62.541404,-78.936324,-42.665675,-73.965662,-86.086249,-87.856541,-35.636873,-69.1449,-80.929133,-81.345084,-30.254336,-59.855724,-71.421885,-72.821551,-26.812616,-49.287542,-60.767469,-64.696648,110.421438,296.435122,33.383245,-40.566609
84,-0.797997,0.2533,-1.253242,0.113837,-28.556328,-53.927307,-75.374565,-89.507217,-52.100487,-85.665779,-87.113571,-80.007133,-44.575539,-80.3405,-84.234581,-78.804703,-37.787361,-71.069527,-77.240868,-76.010971,-32.389984,-56.462288,-68.148422,-73.916931,-11.806,-8.310679,6.281993,20.687067,19.906233,33.16417,26.929849,22.07676,37.083037,48.84896,41.677947,35.872914,48.854703,61.481489,56.263023,52.779744,55.738515,69.681203,70.61456,70.58739,-14.633675,-16.413288,-13.419571,-9.676781,23.241348,43.494415,37.875366,30.464516,37.644539,57.903099,49.482193,40.849457,45.769272,64.011841,58.528633,51.58699,49.262352,65.519829,63.175507,57.045021,-21.573402,-43.636824,-63.128372,-79.66856,-42.058947,-73.80437,-86.183321,-88.207716,-34.929985,-68.508501,-80.789268,-81.689219,-29.602684,-59.328808,-71.407621,-73.152873,-26.312005,-49.03875,-60.790718,-64.852876,109.632425,296.67811,32.138987,-40.463084
85,-0.738373,0.111151,-0.154266,1.186596,-27.501984,-52.846756,-74.334412,-89.389915,-52.039261,-84.743385,-88.751907,-83.928566,-45.209312,-79.012184,-84.976387,-81.428833,-38.545189,-69.826584,-77.651825,-78.141632,-32.890205,-55.549278,-67.30751,-73.51387,-11.974516,-8.383174,5.984171,21.494083,19.720365,32.494672,28.532334,24.439949,36.818621,48.90997,42.81119,36.678077,48.482718,62.088619,57.511308,53.423925,55.103165,68.535424,69.141257,68.092179,-14.493828,-16.309319,-13.088379,-9.185371,22.636528,44.480667,40.463448,33.687973,37.009964,57.687149,50.44796,42.585068,45.394363,63.757439,59.235764,52.802582,49.248505,65.650749,64.370728,59.214249,-20.794297,-42.867352,-62.404596,-79.623328,-44.09989,-73.957697,-86.241366,-88.637159,-37.015389,-69.105874,-81.175887,-82.460481,-31.207053,-60.194363,-71.853582,-73.640485,-27.18531,-49.52383,-61.220192,-65.437406,108.96452,296.781141,32.055187,-39.284609
86,-0.32547,0.381926,-0.165939,1.812807,-27.619171,-53.303146,-74.976082,-90.174637,-52.258301,-85.370178,-89.560547,-85.359535,-44.834175,-79.039421,-85.617485,-83.344002,-37.750282,-69.036369,-77.750359,-79.797821,-31.973305,-54.751854,-66.897697,-74.34494,-11.999402,-8.327475,6.000596,21.966536,20.035292,33.249015,29.9592,26.300982,36.537163,49.145547,44.86365,40.064902,47.894052,61.492357,58.63992,55.71221,54.224457,67.619295,69.757156,70.354406,-14.125099,-15.925426,-13.138161,-9.079971,22.989578,43.739777,39.157333,32.150459,37.482491,57.382736,49.693794,41.44146,45.821686,64.389038,60.298347,54.170265,49.248047,65.732918,64.122505,58.896561,-21.105334,-43.216983,-62.888935,-79.722869,-43.603788,-73.648697,-86.793816,-90.038461,-36.47319,-69.071078,-82.290791,-84.389502,-30.845411,-59.855878,-73.239416,-76.518857,-27.290996,-49.874264,-62.302337,-67.473502,108.806362,297.191302,32.056561,-37.443566
87,-0.831642,0.779105,-0.326614,0.970408,-27.626266,-53.055153,-74.371834,-90.478821,-54.148293,-86.261559,-90.701981,-86.888809,-46.104584,-79.674568,-87.271614,-86.458626,-38.326721,-68.709068,-78.761559,-82.828903,-31.831512,-54.293518,-66.85833,-75.632057,-12.992595,-9.678698,4.246946,18.905815,20.184789,32.665536,29.477238,26.014522,36.134612,47.903808,45.090892,42.351026,47.012873,59.863566,59.32325,58.749404,52.990252,66.221574,70.233251,73.1856,-13.565483,-14.724197,-11.888924,-7.979965,23.594856,44.543724,37.29641,28.432961,38.024254,58.61618,47.918472,37.763786,46.366081,65.79586,58.334541,49.911575,49.999237,67.189178,63.392143,56.199303,-21.774091,-43.755323,-63.135844,-79.647874,-43.36222,-74.449137,-85.707318,-85.530959,-35.595654,-68.577599,-80.09788,-79.538915,-29.24481,-59.338317,-70.964901,-71.456465,-25.155759,-48.912038,-60.620225,-63.835847,107.951689,297.966872,31.706915,-36.476694
88,-0.296974,0.587617,2.133293,4.805077,-27.096977,-52.652664,-73.960876,-90.640984,-54.336548,-86.056366,-92.937069,-91.699791,-46.388512,-79.2976,-89.353752,-91.894913,-38.619118,-67.686195,-79.871979,-86.89064,-31.957741,-54.263763,-66.978264,-76.669121,-13.419661,-10.345479,3.186815,17.430968,19.468979,33.225674,32.051798,29.632541,35.173776,48.757261,48.875266,48.671551,46.011961,60.179605,62.505743,64.187886,51.986993,65.645381,70.690945,74.48557,-13.900681,-15.227051,-11.982079,-7.273407,20.880203,43.150291,35.74791,27.046623,36.184158,57.023735,46.221085,36.294594,45.665932,64.958153,57.423477,48.957253,50.537338,67.446213,63.267632,55.873833,-22.626277,-44.447669,-63.99683,-81.224609,-43.529533,-75.069544,-85.793676,-84.405743,-35.625171,-69.791211,-81.625894,-80.499165,-29.388565,-60.48635,-72.376485,-72.117164,-25.639512,-49.844222,-61.547809,-64.127031,107.744637,298.550954,33.93013,-31.675152
89,-1.302109,0.095096,1.004906,6.084299,-27.288437,-52.842636,-73.775139,-91.054401,-54.013023,-85.842247,-95.169125,-96.847858,-45.506859,-79.701118,-91.368027,-95.860004,-37.404442,-67.478485,-81.673508,-90.68819,-30.714684,-53.676109,-67.212982,-78.167953,-13.835118,-9.955154,4.782014,18.42941,19.076246,34.31279,34.59326,32.829174,34.635559,49.218351,49.966951,49.959233,45.311526,60.378627,63.59218,65.350832,51.427225,65.903312,72.132818,77.019004,-12.472916,-13.996353,-11.150665,-5.647774,25.309067,48.243027,40.808144,31.808167,39.509468,61.234703,50.707626,39.857368,47.63237,67.323303,60.519218,51.432953,51.155777,67.518768,64.496155,56.905174,-22.782598,-46.128361,-65.733869,-80.749995,-40.612011,-70.505509,-83.245483,-84.217991,-32.318437,-66.584296,-81.14387,-82.496883,-26.27761,-56.470474,-70.802559,-72.989234,-23.102682,-46.276531,-59.238436,-64.026563,106.046391,299.148389,34.538898,-25.088513
90,-1.028137,0.230144,3.936996,10.938499,-27.206612,-52.669144,-73.584366,-90.847549,-54.129982,-85.635567,-97.635269,-102.986526,-45.373077,-80.196648,-93.914337,-101.193581,-36.840591,-68.611221,-84.423294,-95.149727,-29.671326,-54.140282,-68.530655,-80.262909,-13.740084,-10.018943,4.486414,17.382988,18.799172,34.521259,38.44593,39.872056,34.992785,49.23453,52.085546,53.901317,45.812816,60.832986,65.712565,68.787118,51.96081,67.152029,72.858261,77.365177,-11.584511,-12.491684,-10.214539,-5.443382,25.988617,49.197693,41.930237,33.90255,39.583054,61.763878,50.241966,39.275093,48.031425,67.829018,59.191246,48.878517,52.545776,69.31881,64.51561,54.842377,-24.336825,-47.887383,-68.283698,-84.513497,-39.637466,-68.370211,-82.382274,-84.092205,-31.595185,-66.208514,-80.353063,-80.373873,-26.4046,-56.444909,-69.297177,-69.717975,-23.847515,-46.286966,-58.239778,-61.956411,104.148331,299.993196,37.605972,-13.535351
91,0.393448,0.391065,2.084541,12.431222,-27.447624,-51.904907,-72.927017,-90.294914,-53.895149,-85.824966,-99.698639,-107.671165,-45.598297,-81.013527,-96.347866,-106.363163,-37.683105,-69.210548,-85.892715,-98.040047,-31.033859,-55.144615,-69.645424,-81.730385,-13.810974,-10.375242,3.874344,17.222128,19.165784,34.011942,38.697439,41.495536,35.22861,49.074967,52.58344,54.97775,45.768479,60.721774,66.382619,70.161559,51.666137,67.15098,72.713086,76.858947,-10.480385,-10.010948,-7.608719,-3.685799,29.552422,49.432297,39.694862,30.872726,42.812805,63.335609,50.065956,38.83667,51.107368,70.523758,60.094986,50.183716,55.912743,72.297935,66.075096,56.551323,-24.220982,-48.524894,-70.884008,-89.336359,-38.395542,-71.662001,-83.472169,-82.425222,-30.596125,-67.236535,-78.846816,-76.398042,-25.236097,-57.39497,-67.426973,-64.893107,-22.01112,-45.869688,-55.38132,-56.831004,104.415064,300.587266,39.563799,-0.901124
92,-0.205078,0.415889,9.087524,20.57922,-27.36557,-51.900215,-73.218956,-90.27998,-53.919182,-85.22953,-100.942497,-111.813469,-45.954895,-81.05793,-98.316765,-110.664368,-38.286438,-69.522629,-87.256393,-100.666351,-31.654701,-55.369949,-70.090256,-82.535133,-13.882234,-10.856957,3.112344,16.816737,19.504423,34.298896,38.884049,41.688074,35.834382,48.88669,51.935863,53.756945,46.455329,60.70788,65.854591,68.837136,52.364226,67.55316,72.690238,75.928307,-12.426338,-12.188416,-10.578117,-6.125793,19.612541,40.173111,31.299591,23.806686,34.643784,56.0812,43.620415,34.03862,45.276833,64.410439,53.176689,44.594421,53.191681,67.21344,58.792992,51.036186,-28.014062,-56.50632,-80.668361,-97.596897,-42.90749,-79.140995,-86.763497,-81.646024,-33.459769,-72.274133,-79.865328,-73.740891,-27.606201,-63.172308,-68.961316,-63.087555,-24.709088,-53.052249,-58.925392,-56.263332,103.854446,300.878033,48.295784,19.552975
93,-0.706558,1.004309,4.581184,14.908525,-26.752853,-51.047859,-72.440186,-89.318619,-52.587433,-84.880943,-102.143211,-114.919853,-44.749489,-80.801125,-99.883575,-114.496937,-37.358894,-69.48555,-88.253517,-102.879066,-30.771446,-55.045624,-69.958763,-82.90741,-14.460032,-11.965624,1.840595,15.611369,18.083114,33.638969,39.2753,42.47323,34.732384,47.923877,52.116051,54.944343,45.706173,59.552036,65.537133,69.36819,51.781487,66.317472,71.459121,75.002853,-14.506989,-11.815109,-8.002968,-2.457733,18.074455,36.416588,24.907951,18.556824,32.492065,52.11113,37.299156,28.607941,42.273903,61.456833,47.077103,39.567604,48.707428,62.074127,51.321602,44.835777,-25.982752,-52.022499,-75.24158,-91.89437,-38.132331,-71.666571,-73.146975,-64.586979,-27.340489,-65.036892,-66.27258,-56.722601,-20.827766,-55.352174,-56.135601,-46.985147,-17.277951,-45.321283,-47.173394,-41.094066,102.480354,300.090484,52.209435,32.669642
94,0.071182,1.233711,11.51825,4.585246,-25.965729,-50.821609,-73.023605,-89.508133,-51.889458,-86.064034,-105.254631,-119.819241,-44.292984,-82.857056,-104.35215,-121.307316,-36.967049,-71.117935,-91.515026,-107.191143,-30.279121,-56.203194,-71.742668,-84.952927,-15.433404,-13.410707,0.241568,14.089839,16.202197,31.314869,38.048628,42.563324,33.156822,45.648375,50.30522,54.078788,44.556689,57.434182,63.420637,67.654863,50.808795,64.470271,69.629518,73.759817,-14.616394,-15.471954,-11.10466,-3.37326,2.290421,11.217499,7.934875,6.729927,16.217308,29.865875,24.241447,19.646187,26.910553,40.684662,33.999367,28.542137,35.071907,45.142708,40.773125,34.750099,-21.763408,-41.912753,-59.865975,-71.394931,-26.009428,-47.501782,-47.687188,-42.792727,-16.153599,-41.057633,-44.097328,-39.444002,-10.808452,-35.580865,-38.491656,-34.123278,-8.784675,-28.450792,-33.065308,-31.732394,102.06748,296.955431,63.243628,32.886124
95,-1.625862,0.902235,-17.172833,46.190713,-25.509911,-49.965248,-72.284317,-88.986397,-51.677971,-86.18248,-105.309448,-119.595737,-44.222832,-83.437271,-104.859295,-121.743507,-36.996346,-71.531754,-91.434059,-106.779442,-30.2742,-56.541824,-71.712456,-84.531212,-16.260057,-14.162642,-0.089291,13.815111,16.069804,30.952209,38.133473,43.216396,33.424757,46.368508,51.47644,55.827621,44.856117,58.126898,64.322008,69.041036,50.841831,64.276313,69.348924,73.696647,-2.784519,6.382885,18.869305,29.232044,25.937576,45.673199,36.205044,29.304314,37.955418,58.588028,47.317372,39.421692,46.28746,66.976319,54.887638,46.664772,51.678085,68.237229,59.474487,51.657143,-30.573601,-53.85187,-71.118011,-77.774489,-33.881957,-58.890426,-59.444018,-53.224964,-20.069161,-48.228306,-51.228635,-43.917356,-9.383453,-37.587738,-41.10958,-34.173866,-1.123672,-25.113722,-30.041544,-25.756174,99.240904,294.286856,44.870081,75.506026
96,1.339874,0.526114,-17.172832,46.190713,-26.292229,-50.611496,-72.963524,-89.06044,-52.82135,-87.761879,-106.88261,-121.164207,-45.697861,-84.93187,-106.288433,-123.505383,-38.361855,-73.247795,-93.23513,-108.557968,-31.380959,-57.870941,-73.07785,-85.783882,-16.973953,-15.434515,-1.565126,13.059286,14.667328,29.322492,36.042357,40.698338,32.268357,45.052174,50.341591,54.500296,44.081273,56.827854,62.988075,67.509502,50.796753,63.741307,68.405439,72.000672,9.047356,28.237724,48.843269,61.837349,49.584732,80.128899,64.475212,51.8787,59.693527,87.310181,70.393295,59.197197,65.664368,93.267975,75.775909,64.787407,68.284264,91.331749,78.17585,68.564186,-39.383795,-65.790988,-82.370048,-84.154048,-41.754486,-70.27907,-71.200849,-63.657203,-23.984725,-55.398981,-58.359944,-48.39071,-7.958455,-39.594611,-43.727504,-34.224456,6.537331,-21.776653,-27.017781,-19.779954,99.162025,291.641407,26.278496,118.525176
97,0.593719,-0.787688,-7.104836,28.937911,-26.76075,-51.205673,-73.894844,-89.474716,-51.690102,-87.58564,-107.121162,-121.57671,-44.642143,-84.857941,-106.728344,-124.048405,-37.725334,-73.613205,-93.995247,-109.205475,-31.295929,-57.838097,-73.295403,-86.046295,-16.426783,-14.872525,-1.450332,13.088864,14.370556,29.798217,36.812879,41.720431,32.332639,45.425641,51.011274,55.327381,44.508462,57.458758,63.683323,68.114842,51.423582,64.768278,69.656008,73.173127,16.995793,41.509953,64.034844,76.096344,59.19056,91.17302,75.452671,62.011986,64.13744,93.865872,78.023071,65.919686,65.544319,94.773274,78.445015,66.115551,64.120388,89.27084,76.759701,65.804444,-38.117171,-58.384984,-67.253053,-65.13046,-36.188258,-54.320387,-56.580591,-52.181383,-16.056188,-37.289731,-41.805523,-34.741245,2.126468,-19.397781,-25.445678,-19.084351,18.590857,-1.687762,-8.665158,-4.072903,97.79397,290.741966,17.211885,147.351334
98,-0.246162,0.210692,-7.104835,28.93791,-26.756287,-51.325951,-73.747902,-89.420185,-52.08149,-87.542839,-106.978455,-121.851254,-45.05024,-84.163284,-105.909462,-123.488789,-38.188248,-72.849884,-93.160458,-108.656559,-31.561661,-57.489853,-72.750893,-85.526619,-16.64223,-15.329725,-2.212826,11.876951,13.972636,28.644843,35.530384,40.256205,31.802512,44.321914,49.788863,54.263298,43.839828,56.551954,62.933735,67.627013,50.690543,63.588722,68.346714,72.14912,24.944229,54.782181,79.226418,90.355339,68.796387,102.21714,86.43013,72.145271,68.581352,100.421562,85.652847,72.642174,65.424271,96.278572,81.11412,67.443695,59.956512,87.20993,75.343552,63.044701,-36.850546,-50.978979,-52.136058,-46.106871,-30.622029,-38.361702,-41.960331,-40.705563,-8.127651,-19.180481,-25.251102,-21.091779,12.211391,0.79905,-7.163851,-3.944246,30.644383,18.401129,9.687466,11.634148,95.137196,291.002444,7.696438,176.339031
99,-0.97229,0.074718,-8.398104,30.087487,-26.065521,-50.200539,-72.255707,-88.265533,-52.387161,-87.29084,-106.586323,-121.619854,-45.63652,-84.176788,-105.849838,-123.753548,-38.948479,-73.001747,-93.071136,-108.773689,-32.206078,-57.78923,-72.937775,-85.998573,-16.096356,-15.195294,-2.864231,10.388889,14.98596,28.625083,34.993897,39.431775,32.28645,43.705707,48.827656,53.28406,43.899418,55.983479,62.234782,66.887305,50.405565,63.06724,67.839064,71.591513,27.045393,57.157602,80.169725,88.347788,67.46295,101.262846,87.012091,73.575067,65.261564,97.732344,83.661375,69.508066,60.674543,91.278448,77.842855,63.690634,54.170694,80.733461,70.349836,58.270082,-29.869601,-37.128948,-29.920668,-20.159503,-23.665629,-18.517683,-20.21304,-21.093262,-2.5033,0.018494,-4.221999,-3.832261,16.946135,18.217792,12.689432,12.870762,33.53671,32.279287,27.2989,27.84394,93.007507,291.013498,-1.859064,206.362853
100,0.316315,3.021262,-8.398104,30.087487,-27.880325,-50.958481,-72.60498,-89.192791,-51.803169,-87.807999,-107.320576,-122.95269,-46.587181,-84.328194,-106.322365,-124.55698,-40.931969,-74.144096,-94.5294,-110.353661,-34.875641,-60.014877,-74.716759,-87.490082,-10.311269,-8.532981,-0.176668,8.877363,13.824682,24.641255,30.506,34.559236,29.211526,39.919233,45.11658,49.158083,40.317029,52.247456,58.027541,61.204847,46.78804,59.08372,64.228765,67.893528,29.146557,59.533024,81.113033,86.340237,66.129513,100.308552,87.594051,75.004864,61.941776,95.043125,81.669903,66.373959,55.924816,86.278324,74.57159,59.937572,48.384876,74.256992,65.356121,53.495464,-22.888655,-23.278917,-7.705278,5.787866,-16.709229,1.326337,1.534251,-1.48096,3.121051,19.217469,16.807104,13.427257,21.680878,35.636533,32.542714,29.68577,36.429038,46.157445,44.910334,44.053732,92.232227,294.147408,-11.348763,236.562988
101,-3.796349,-1.087054,11.727362,25.395289,-28.818398,-48.330917,-61.389084,-68.812523,-53.55526,-83.233795,-102.532253,-118.735085,-48.959999,-81.84391,-104.391747,-124.199352,-43.105888,-73.715401,-94.961472,-112.200909,-35.00782,-57.486877,-72.450371,-86.080284,-1.821143,5.741739,14.329615,21.40152,23.024938,29.146874,32.33443,34.643216,32.544443,40.207052,44.520997,48.486362,39.749543,51.189054,55.863745,58.872719,44.987769,57.388919,63.490909,68.643178,28.168631,55.374041,76.36754,85.732927,51.191797,72.40262,66.086798,57.878351,41.220503,60.570631,52.28425,40.371179,32.368956,49.83098,41.285677,28.188944,24.601507,38.090372,31.021528,20.567093,-17.530232,-18.471956,-8.219813,0.394276,-9.164286,5.176691,4.862227,2.543901,9.069777,24.485273,22.19387,18.999058,26.366407,41.523478,39.021814,35.142715,40.435868,53.646628,53.343186,51.255466,88.058424,293.158151,0.001144,262.056074
102,1.491051,5.160729,11.727362,25.395289,-21.560669,-47.625847,-70.398788,-86.745243,-43.389473,-75.174179,-99.401665,-118.973293,-41.439285,-77.878761,-99.360981,-116.474361,-38.11924,-71.259613,-75.289421,-74.469452,-34.331131,-61.083183,-66.671562,-66.628189,27.924524,47.886333,58.153142,65.912575,43.132848,45.453614,47.946972,50.17962,25.501191,28.424888,29.25117,30.290677,5.043527,6.824409,6.807551,6.864114,-16.192131,-15.50065,-15.681147,-16.036088,27.190704,51.215057,71.622047,85.125618,36.254082,44.496689,44.579544,40.751839,20.499229,26.098137,22.898598,14.368401,8.813095,13.383636,7.999763,-3.559685,0.818138,1.923752,-3.313065,-12.361279,-12.171809,-13.664996,-8.734349,-4.999313,-1.619343,9.027046,8.190204,6.568762,15.018503,29.753078,27.580636,24.570859,31.051936,47.410423,45.500915,40.599661,44.442698,61.13581,61.776038,58.457201,88.826437,298.360901,11.005468,287.493385
103,-4.095383,-0.814364,-34.445229,2.339538,-22.054024,-47.855301,-71.83136,-91.112022,-43.418541,-79.255714,-98.230762,-112.193985,-40.779762,-80.17662,-84.041233,-82.041378,-37.750168,-75.057793,-72.616997,-64.818077,-35.730858,-63.924408,-62.649879,-56.835136,28.807432,47.62729,57.209781,65.861137,46.669171,40.449916,35.905827,33.528498,29.026831,21.829203,15.741662,13.118011,7.852121,1.194191,-1.282124,-1.647377,-13.923174,-16.066654,-15.434639,-13.86939,34.079304,63.006592,84.420376,95.802326,51.524677,76.888962,80.957394,76.94109,36.052694,62.777367,65.100918,57.772808,23.457613,48.177567,48.400898,39.013767,13.552179,33.023758,33.363533,26.452589,-12.867613,-10.709467,-2.427717,2.76225,7.974387,24.731256,19.83661,14.751618,25.641859,42.104982,33.14123,26.630452,40.034737,55.801099,46.266434,38.914307,50.647503,63.777585,56.923228,51.378813,83.834753,297.621363,-24.336061,289.907748
104,-1.935081,-10.46299,-34.445229,2.339538,-27.887421,-50.99247,-66.420593,-70.880127,-38.546104,-66.592598,-87.469883,-103.530979,-34.673538,-68.248215,-92.124996,-110.231953,-32.588081,-64.108315,-86.073933,-102.715702,-31.887817,-57.862358,-74.211502,-87.271442,-11.175343,-8.636289,0.214336,8.064357,38.849592,47.122233,44.599544,41.326154,47.969573,55.864795,53.38459,50.911424,50.187092,57.663461,56.533181,53.915767,47.304397,55.92636,56.685026,56.596846,40.967903,74.798126,97.218704,106.479034,66.795273,109.281235,117.335243,113.130341,51.606159,99.456596,107.303238,101.177216,38.102131,82.971497,88.802032,81.587219,26.286221,64.123764,70.040131,65.266457,-13.563416,-7.753937,3.878914,10.523814,17.568116,40.435467,31.483015,22.934474,36.265214,54.456886,38.701824,28.690044,49.017539,64.191776,47.031954,37.228953,56.852308,66.419361,52.070417,44.300425,80.471821,287.211695,-60.209141,292.300608
105,3.249207,7.401651,-10.620632,3.250727,-30.002975,-53.907967,-70.859184,-78.607063,-51.35582,-80.081863,-92.016563,-97.39872,-47.33242,-79.069061,-94.629822,-102.314243,-43.964539,-73.747787,-87.232018,-93.135624,-40.465851,-63.55442,-75.254745,-81.51535,-16.708673,-16.676069,-8.389905,-1.383827,26.978137,21.147602,17.738176,15.40327,40.461587,34.546638,30.115799,26.034653,46.640333,45.183023,40.449916,36.729083,47.774256,50.367588,46.592168,42.718441,34.524479,65.874081,89.433231,104.603176,63.096428,104.2309,118.010159,120.690594,50.528297,95.019093,110.259762,114.486408,39.338779,81.304607,96.635685,101.71629,30.013332,62.090607,76.524639,83.142529,-13.276215,-8.29061,3.138773,13.986407,20.494221,44.122707,41.579146,36.174132,38.132176,58.227736,53.904281,48.494451,49.104422,66.79962,62.173032,56.064125,54.482141,68.698754,64.921172,59.051363,83.077526,294.662576,-71.473274,295.600565
106,-6.089859,-7.052391,-4.838333,-2.840889,-27.53746,-51.401711,-67.069588,-75.491867,-48.239479,-71.681328,-87.429771,-97.842407,-42.24369,-67.752228,-84.703903,-95.797749,-36.722488,-61.312637,-76.532249,-85.691071,-31.423073,-51.056557,-62.319717,-70.071259,-12.511436,-11.290013,-2.853363,6.679604,24.716714,33.664225,35.193598,33.803719,38.35102,48.541875,48.614432,46.68257,45.978492,56.450312,55.565058,52.382566,48.935102,57.122095,56.403135,54.8511,33.445072,63.777122,86.994495,105.44363,62.431755,97.917995,113.501072,122.408352,51.121845,89.130421,107.351704,118.02618,40.671444,76.270866,94.164562,105.066662,31.180115,58.97913,74.813919,85.909595,-10.120707,-4.665985,6.485214,13.755831,22.070091,43.90621,48.596092,49.32308,39.738119,60.370723,63.400321,61.791661,50.762791,70.33693,73.409322,71.153332,56.520337,72.460403,74.27636,72.065263,76.734753,287.544977,-76.564522,292.694467
107,-0.518303,2.912335,-2.290707,-0.324004,-28.49865,-52.379608,-68.459358,-77.006607,-53.986015,-76.518745,-85.423393,-87.422619,-49.057274,-73.100967,-83.049316,-84.868011,-42.965813,-65.428734,-74.480553,-76.362762,-35.589066,-53.124504,-61.555824,-65.071564,-16.061838,-16.874782,-8.234479,0.548899,14.258849,17.286102,15.356957,11.235487,29.355158,32.86147,29.267905,23.784838,39.494884,45.224334,42.019797,37.283046,45.534013,51.751909,49.807018,46.251985,32.587624,60.902424,84.206886,103.693428,59.403419,94.104538,110.72628,121.524582,49.178066,87.048111,106.468391,119.097862,39.889126,75.596237,94.222984,106.537743,31.839352,59.342251,75.611687,88.308678,-9.976397,-5.023273,7.18077,17.217126,20.468718,40.683147,45.962067,47.881146,38.442781,57.523288,61.179468,60.499349,50.114226,69.402523,72.8201,71.29437,56.958024,73.426859,76.107383,74.883737,76.183748,290.487276,-78.88793,292.400427
108,-2.010269,-2.617291,-1.341362,0.461399,-27.968674,-51.356277,-67.569008,-76.68869,-55.678253,-73.873787,-79.13681,-76.781101,-50.817604,-67.905121,-70.810318,-65.892563,-43.45562,-58.407097,-59.257965,-54.036713,-34.16954,-45.422287,-47.868576,-46.864357,-13.654807,-15.348497,-7.425611,1.369562,11.374117,18.861849,20.988471,19.787117,25.826307,35.344948,37.852941,37.033019,36.618303,48.657596,51.032763,50.240938,44.352913,54.594589,57.781096,58.944906,29.775238,56.845379,79.74947,98.040619,56.609631,90.833817,108.182373,120.124512,46.849365,85.110397,105.291595,118.828354,37.821465,73.464661,92.265816,104.554596,30.125713,57.106533,73.106575,85.716591,-10.588528,-6.053578,5.978984,16.259192,21.977589,39.32717,44.49111,47.316994,39.220033,55.823237,59.66683,60.082225,49.864446,67.682898,71.346303,70.510325,55.892706,72.525365,75.706314,74.91103,73.919849,287.959569,-80.482922,292.951411
109,-3.402557,1.549318,-1.668491,1.056982,-27.050514,-50.467758,-66.335564,-73.013363,-52.539825,-73.327332,-79.493465,-79.458733,-46.447792,-66.264839,-71.16045,-70.155029,-38.880386,-57.37278,-59.416237,-56.618843,-29.93763,-44.664688,-48.766022,-49.398766,-15.532637,-17.737929,-9.820168,-1.385803,10.531533,12.940355,7.511876,1.559815,25.765915,25.733496,19.180666,14.041241,36.376488,40.468935,35.086028,30.247945,43.111729,48.693967,46.287183,43.44265,28.370762,55.078812,77.310505,94.100246,56.459713,89.529819,106.62077,119.012089,46.239166,83.183842,102.698879,116.286907,36.670933,70.899982,89.030285,101.446552,28.393764,54.580708,70.197201,82.529812,-11.739618,-8.117462,3.472843,14.334123,21.704899,38.432715,44.14327,47.48088,38.863116,54.575817,58.587062,59.92013,49.284918,65.727262,69.536398,69.566223,54.890744,70.230411,72.867339,72.186232,70.250931,289.537478,-82.417774,294.036983
