takenoko1/special-research/HandMotion_SimilarSearch_自分用/NewProject/handData/key/d4_feature_d2/37.csv
,vel_0x_L,vel_0y_L,vel_0x_R,vel_0y_R,posFromWrist_1x_L,posFromWrist_2x_L,posFromWrist_3x_L,posFromWrist_4x_L,posFromWrist_5x_L,posFromWrist_6x_L,posFromWrist_7x_L,posFromWrist_8x_L,posFromWrist_9x_L,posFromWrist_10x_L,posFromWrist_11x_L,posFromWrist_12x_L,posFromWrist_13x_L,posFromWrist_14x_L,posFromWrist_15x_L,posFromWrist_16x_L,posFromWrist_17x_L,posFromWrist_18x_L,posFromWrist_19x_L,posFromWrist_20x_L,posFromWrist_1y_L,posFromWrist_2y_L,posFromWrist_3y_L,posFromWrist_4y_L,posFromWrist_5y_L,posFromWrist_6y_L,posFromWrist_7y_L,posFromWrist_8y_L,posFromWrist_9y_L,posFromWrist_10y_L,posFromWrist_11y_L,posFromWrist_12y_L,posFromWrist_13y_L,posFromWrist_14y_L,posFromWrist_15y_L,posFromWrist_16y_L,posFromWrist_17y_L,posFromWrist_18y_L,posFromWrist_19y_L,posFromWrist_20y_L,posFromWrist_1x_R,posFromWrist_2x_R,posFromWrist_3x_R,posFromWrist_4x_R,posFromWrist_5x_R,posFromWrist_6x_R,posFromWrist_7x_R,posFromWrist_8x_R,posFromWrist_9x_R,posFromWrist_10x_R,posFromWrist_11x_R,posFromWrist_12x_R,posFromWrist_13x_R,posFromWrist_14x_R,posFromWrist_15x_R,posFromWrist_16x_R,posFromWrist_17x_R,posFromWrist_18x_R,posFromWrist_19x_R,posFromWrist_20x_R,posFromWrist_1y_R,posFromWrist_2y_R,posFromWrist_3y_R,posFromWrist_4y_R,posFromWrist_5y_R,posFromWrist_6y_R,posFromWrist_7y_R,posFromWrist_8y_R,posFromWrist_9y_R,posFromWrist_10y_R,posFromWrist_11y_R,posFromWrist_12y_R,posFromWrist_13y_R,posFromWrist_14y_R,posFromWrist_15y_R,posFromWrist_16y_R,posFromWrist_17y_R,posFromWrist_18y_R,posFromWrist_19y_R,posFromWrist_20y_R,posFromBody_0x_L,posFromBody_0y_L,posFromBody_0x_R,posFromBody_0y_R
2,0.161133,2.539918,-0.167027,1.261376,-21.014671,-45.231285,-63.425732,-79.959412,-68.785172,-67.38081,-48.389568,-31.730232,-67.912159,-64.233398,-43.051643,-20.494308,-62.739887,-61.396408,-40.486908,-20.299416,-54.921913,-59.958401,-52.619419,-42.521095,27.21742,42.055612,52.424741,63.576372,30.748185,47.3814,55.441187,60.674905,22.512409,40.824,50.124291,54.424034,13.914961,30.402692,39.648828,45.222976,4.835119,17.531189,25.842362,32.833806,25.402222,49.927425,69.290142,82.754288,44.945984,76.296501,93.46447,106.334724,34.135094,70.479412,90.42984,104.073486,25.15789,58.943253,77.848091,91.208725,18.14621,44.077663,59.300995,71.334171,-11.804085,-9.476156,1.486394,10.704125,16.337245,34.673165,41.86326,46.200114,33.566598,51.154412,57.756087,61.266474,45.57835,62.883779,68.088227,69.170897,52.532928,67.724023,70.938194,70.236895,48.267231,296.771785,-73.920879,288.734413
3,-2.71019,2.878681,1.109104,0.637079,-17.36721,-37.679443,-53.491745,-65.298958,-56.573009,-57.519836,-42.97863,-29.802361,-56.051903,-56.198959,-38.809319,-19.361572,-52.615471,-52.92429,-35.417976,-18.382988,-46.89806,-51.726551,-42.855148,-32.267647,27.107505,41.396859,50.917352,59.594582,32.361415,46.241673,51.501943,53.239167,24.042399,39.230901,46.916605,49.330305,15.520534,29.372571,36.293558,39.412447,6.372334,16.829828,22.653447,26.743671,24.945831,49.144936,68.020077,81.359768,44.236107,75.474758,92.741032,105.694485,33.30986,69.525433,89.757214,103.413448,24.272575,58.143082,77.254543,90.604191,17.061653,43.130894,58.480568,70.557175,-12.387565,-9.532967,2.102293,10.808545,16.073509,34.677611,42.190845,46.803354,33.342135,51.182632,57.724964,61.045408,45.251566,62.68661,67.49178,68.278357,52.161252,67.319064,70.433261,69.7432,46.342192,299.438878,-72.026625,289.159905
4,-10.779877,15.135643,0.080166,-0.308752,-9.41803,-21.921158,-33.933792,-41.732655,-38.781967,-32.517357,-19.906082,-9.874649,-40.077896,-35.600739,-20.396118,-4.916267,-39.047699,-36.849632,-24.169235,-12.44648,-35.691547,-36.751499,-29.502869,-22.656326,-12.684461,-18.461891,-20.142552,-21.745161,2.596667,9.872594,13.426577,15.586915,15.237532,23.253044,27.306464,28.996697,25.276296,31.623003,33.753084,34.705461,32.944771,39.816172,39.62172,38.954753,24.681816,48.53159,67.545147,82.319984,45.138645,76.299248,93.25573,105.758286,33.89122,69.749393,89.646835,103.458939,24.194069,57.557316,76.56498,90.198097,16.356182,41.880283,57.013721,69.133244,-12.621784,-9.756071,1.452493,9.366673,16.317485,34.627779,41.864062,46.231978,33.26013,50.622185,57.308273,60.836876,44.83259,62.339079,67.610835,68.896972,51.308541,67.322213,71.237992,71.25627,36.175461,314.393747,-71.333313,288.670378
5,7.65873,-18.266883,0.47699,0.18908,-22.417603,-45.467663,-66.868629,-87.14304,-70.568848,-68.992596,-43.30061,-22.891388,-71.497593,-62.661839,-36.148911,-11.126289,-67.869473,-61.305027,-34.253998,-10.903587,-62.530117,-78.391857,-84.177418,-85.021076,26.10159,38.780555,50.73667,61.314763,28.234017,44.918423,51.631557,56.230234,23.605886,39.72861,47.723621,50.762235,17.406083,34.454445,40.567057,44.477278,11.882014,23.968175,33.660335,45.185432,24.75769,48.555908,67.39975,81.949539,44.324112,75.43808,92.559242,105.342407,33.292809,69.292488,89.582176,103.525085,24.022121,57.617798,77.013474,90.90168,16.554623,42.320995,57.613621,69.822464,-12.690759,-9.67172,1.82843,9.791948,16.057145,34.536697,41.86258,46.361345,33.115634,50.68622,57.30358,60.637237,44.953991,62.655611,67.649552,68.659789,51.736409,67.651096,71.230767,70.886324,44.258709,296.003857,-70.431805,288.736451
6,-7.251778,8.072817,0.900192,0.156476,-13.862343,-29.950562,-44.273529,-57.05595,-57.060928,-49.293938,-29.800301,-15.065575,-58.009014,-47.243958,-26.077881,-6.051178,-54.685764,-47.013187,-27.256966,-9.510841,-48.984547,-49.863167,-41.917477,-32.96711,18.249902,30.439557,39.643085,48.349091,23.384017,36.652328,42.211038,46.392838,20.35096,34.008113,40.754654,45.084532,15.981624,28.775507,34.731087,39.003289,10.512514,21.171191,26.935838,32.664795,24.493446,47.922707,66.682835,81.527138,44.087677,75.126572,92.217178,104.957886,32.98027,68.878098,89.050713,102.839928,23.515091,57.025108,76.221085,89.898376,15.800915,41.347275,56.467495,68.506393,-12.733491,-9.896862,1.579884,9.692283,16.211953,34.727814,41.89642,46.308178,33.087353,50.633547,57.202803,60.598149,44.726256,62.274488,67.257252,68.370488,51.32546,67.244223,70.904664,70.695638,37.508011,303.900639,-69.030533,288.716892
7,4.209023,-7.302604,0.105228,0.196366,-21.324806,-44.00568,-65.162601,-85.113029,-67.848988,-65.829449,-39.700069,-19.307213,-68.997688,-59.363022,-33.473625,-9.386787,-65.840378,-59.242115,-33.264198,-10.74337,-61.275959,-77.581844,-84.663448,-87.350121,21.67316,33.439021,46.211785,57.20904,24.791185,41.819046,49.11813,53.957139,22.810046,38.387082,46.783162,49.570328,19.126573,35.714648,41.613973,44.723786,16.037755,27.342156,36.174009,46.889064,24.377632,47.871037,66.912746,81.60387,44.095402,75.054302,91.919117,104.54607,33.096886,68.841076,88.849468,102.677937,23.731728,57.029743,76.213589,90.062656,16.214447,41.666279,56.805553,68.931942,-12.820806,-10.452739,0.702164,9.269972,15.809279,34.064615,41.198269,45.548401,32.749207,50.217288,56.806798,60.281431,44.481415,62.112516,67.169072,68.354989,51.113533,67.117387,70.922509,70.756277,41.95962,296.493631,-68.682718,288.808854
8,-6.24012,7.314213,0.11467,-0.941879,-16.04496,-33.978024,-48.990097,-62.530918,-57.359333,-52.387905,-33.587837,-18.392372,-56.921711,-48.146095,-26.092987,-4.634743,-52.529411,-44.709148,-23.374214,-4.526939,-46.101608,-48.538055,-39.510155,-28.879509,27.552169,42.433092,50.674858,58.317089,29.551092,41.623421,47.145266,51.323299,18.797875,32.076252,40.069781,44.887918,7.067088,19.961191,28.419207,34.639635,-4.9304,5.295654,13.448684,21.338596,24.265194,47.900333,66.981869,81.620235,43.66396,74.489307,91.47646,104.306431,32.786751,68.295822,88.609257,102.854519,23.423023,56.555157,76.081524,90.349331,15.761719,40.953484,56.228428,68.663979,-12.43042,-9.525742,1.875792,10.711782,16.480814,35.092759,42.538068,47.076723,33.18603,50.858874,57.747503,61.47624,44.7391,62.737739,68.015362,69.343366,51.322126,67.7218,71.560947,71.311105,35.880175,303.759045,-68.407373,287.818176
9,8.610306,-7.304209,0.402145,0.176236,-22.315636,-45.529461,-67.321873,-88.223705,-69.827614,-68.524704,-42.528534,-22.055855,-71.113987,-61.621799,-35.266571,-10.582581,-67.501488,-60.612717,-33.634758,-10.394325,-61.986694,-77.659378,-83.922958,-85.402679,25.593508,37.807863,48.707675,58.105779,26.911818,43.675511,51.290263,56.444446,22.41293,38.450994,47.185281,50.621567,16.197442,33.07278,39.706132,43.790428,10.752352,22.590647,31.964854,43.30155,24.260674,47.99984,66.880703,81.036701,44.076061,74.635105,91.564808,104.331264,33.063354,68.240604,88.485775,102.562008,23.384628,56.394482,75.618038,89.358959,15.285072,40.820217,55.922928,67.950211,-12.682979,-10.009495,1.796443,11.042023,15.946179,34.671313,41.89043,46.250935,32.796941,50.424892,57.19422,60.85818,44.566816,62.24318,67.499067,68.780326,51.460015,67.512652,71.083678,70.642471,44.622488,296.425242,-67.87322,287.964818
10,-9.777031,7.523238,0.436077,0.147275,-10.659714,-23.950539,-37.148552,-47.81971,-53.484192,-42.267094,-21.863823,-7.406273,-55.758648,-41.327248,-19.03553,0.894356,-53.305664,-43.601418,-22.958679,-5.341301,-48.854771,-53.452492,-53.590794,-52.347908,9.571561,19.03512,29.692315,38.339905,18.045076,33.392956,37.55728,40.709577,20.394062,34.070172,38.442719,42.291869,20.872319,34.02775,37.621315,41.054453,20.183554,31.642146,37.807925,44.335993,24.143257,47.586021,66.356792,81.281204,43.595123,74.953079,92.209854,105.109863,32.540474,68.619289,89.193649,103.423233,22.951012,56.738548,76.250038,90.048752,15.087605,41.07399,56.423492,68.659573,-12.529776,-9.72359,1.952363,10.538449,16.230417,34.552937,41.577355,46.02604,33.04388,50.134727,56.639701,60.280073,44.800974,61.983643,66.975114,68.270391,51.643413,67.457509,70.980802,70.586217,34.902849,303.915428,-67.379751,288.079041
11,7.619247,-8.367798,-0.196037,-0.216991,-20.664368,-41.857224,-62.475872,-81.810265,-66.674252,-63.424129,-38.213196,-18.139458,-68.788948,-58.04781,-32.104912,-7.157822,-66.617374,-58.09433,-31.772346,-8.409805,-62.469406,-73.720093,-74.62429,-70.702801,23.782862,35.529829,47.075118,57.338654,26.561446,44.031378,50.643057,54.663811,23.574702,39.991111,48.266901,51.474402,18.745573,35.26282,41.940139,46.037773,14.310226,26.920524,35.307342,44.817338,24.184399,47.495499,66.076241,80.73864,44.074459,75.435791,92.522621,105.176582,33.033085,68.701401,88.828926,102.62249,23.30286,56.294003,75.460739,88.878479,15.322609,40.476437,55.519238,67.434254,-12.538174,-9.886797,1.499177,10.342453,15.9836,34.020772,41.030926,45.391246,32.80892,50.005545,56.702192,60.480947,44.524208,61.999204,67.353583,68.955018,51.238701,67.43287,71.278315,71.163954,42.56155,295.529722,-67.536335,287.844142
12,-13.906517,9.427188,0.691738,0.320423,-7.715263,-18.498001,-29.615078,-39.361782,-47.542934,-33.314552,-13.950806,-0.223274,-50.723991,-33.496914,-11.751137,7.995071,-49.014301,-35.410423,-15.610542,1.082039,-44.952736,-41.546574,-33.662624,-25.749092,9.420025,19.376044,29.610125,37.989533,17.501734,31.252872,35.335747,38.983097,19.908827,32.13263,37.862018,42.372639,20.120631,32.243904,36.987941,41.021416,19.126511,30.185022,34.922637,39.902128,24.372711,47.716484,66.342545,81.281376,44.573879,75.465946,92.546368,105.160961,33.522663,68.838387,88.792248,102.42239,23.770294,56.754227,75.544109,88.61372,15.54039,40.867596,55.516548,66.845913,-12.541941,-9.886797,2.009111,10.892217,16.332675,34.168973,41.026603,45.433977,33.014487,49.782379,56.329776,60.213629,44.620601,61.438017,66.476418,67.96275,51.386099,66.933865,70.273821,69.85503,28.735342,304.94754,-66.764288,288.155195
13,19.555206,-12.75004,0.872669,0.246014,-26.494217,-51.283493,-73.536186,-95.071964,-76.194191,-77.861481,-52.502518,-32.678146,-73.38644,-68.371639,-42.214737,-17.345352,-66.521072,-60.687332,-34.185333,-10.794067,-58.236523,-70.254307,-70.204468,-64.707127,33.234319,48.168285,57.92485,67.141346,34.350087,49.70056,57.568489,63.482882,24.291748,40.806957,50.856157,55.831635,12.897191,30.08338,39.680938,46.557649,2.465509,14.602305,24.349361,35.074543,24.239788,46.948071,65.313435,80.355377,42.540951,75.086288,92.646217,105.087204,31.420326,68.636398,89.139519,102.66552,22.081203,57.014294,76.501694,89.676132,14.866619,41.342812,57.030945,69.266853,-12.430852,-9.907668,1.269094,10.410564,15.431366,33.8115,40.797509,45.07638,32.116451,49.834435,56.312609,59.918092,43.590666,61.379107,66.254796,67.764161,50.089341,66.157909,69.800196,69.783461,48.26417,292.173047,-65.917997,288.376755
14,-3.770828,4.238363,-0.010185,-0.031616,-19.276314,-40.006943,-57.098408,-72.751465,-69.419804,-61.669064,-39.700928,-22.673378,-68.23185,-57.019787,-33.682594,-9.921341,-61.701736,-52.216759,-28.526573,-7.327652,-52.904549,-57.831917,-54.55965,-48.253613,28.63626,43.322113,53.211133,62.613065,31.434726,46.704801,53.114864,58.617073,23.343632,39.671676,47.664711,52.585416,14.180241,29.560231,37.307252,43.602213,5.11207,17.78486,26.31642,34.716637,24.782753,47.188797,65.334835,80.42942,42.440357,74.661369,92.194405,104.60701,31.402988,68.608875,89.229126,102.908134,22.195244,56.709251,76.226006,89.457664,15.14431,41.151409,56.730709,68.8797,-12.056644,-10.070875,0.980782,10.13386,15.023875,33.090687,40.211251,44.636965,31.820173,49.322215,56.035473,59.927293,43.550096,61.104811,66.395895,68.301637,50.42551,66.505317,70.472596,70.748188,44.41515,296.407489,-66.006374,288.341218
15,-10.299454,7.908375,0.648479,0.153079,-10.626068,-21.762199,-31.860352,-40.197773,-49.328213,-39.469757,-21.820679,-8.753815,-50.217133,-38.457699,-18.785706,0.05619,-47.09095,-38.87701,-21.351013,-5.150757,-41.730022,-44.124184,-40.45126,-35.104694,13.261086,23.885245,32.401491,38.927027,22.364147,33.721962,37.268905,40.404715,21.608013,32.808303,38.208747,42.38363,19.592479,30.524958,34.646736,38.443583,16.299886,26.254608,31.292083,36.361236,24.28957,46.781731,65.076714,80.40453,42.552395,74.524784,91.945896,104.512196,31.591759,68.424568,88.94228,102.623806,22.180939,56.46841,75.998898,89.423847,14.77747,40.976143,56.583939,68.930969,-12.457219,-10.059513,1.095144,9.868766,15.296812,33.173495,40.023591,44.352604,32.006782,49.560634,56.084071,59.689245,43.54108,61.328163,66.446716,68.070875,50.110398,66.270851,70.219419,70.36515,34.026031,304.306725,-65.447559,288.485158
16,12.15477,-11.029612,-0.284958,-0.183769,-21.573601,-43.843002,-64.903107,-85.66967,-68.993626,-68.080444,-42.46479,-22.115822,-70.32589,-62.228966,-35.955849,-11.306763,-66.902962,-60.55624,-34.04171,-10.647926,-61.859264,-76.443901,-81.4147,-81.031265,28.485156,41.851465,53.568791,63.974291,29.345834,45.87574,53.678583,59.21883,24.1927,40.101212,49.509257,53.777878,17.395956,34.049918,41.824727,47.391342,11.255803,23.981946,32.994357,43.593136,24.517937,47.232513,65.698013,81.147022,42.220974,74.439754,91.910534,104.575939,31.283112,68.50565,89.226665,103.07745,22.206173,56.499596,76.121578,89.717731,15.295143,41.240044,56.727905,68.908482,-12.445302,-10.13244,1.142259,10.004369,15.333986,32.930507,39.873291,44.433744,32.25613,49.490485,56.01738,59.822008,43.945175,61.372191,66.41794,68.134046,50.482814,66.455299,70.238253,70.202253,46.070366,293.25212,-65.842953,288.276395
17,-7.701988,9.324868,0.135555,0.26565,-13.093987,-28.011818,-41.293087,-52.952099,-54.894676,-45.119133,-25.871201,-10.625954,-56.09642,-43.492584,-22.485809,-1.939659,-52.772255,-43.395767,-23.512573,-5.621796,-47.071266,-47.47673,-41.318378,-33.87989,14.542346,26.088993,36.444414,45.886484,21.698724,35.242195,39.753989,43.30365,20.914309,34.671807,40.548408,44.324075,18.73489,31.835301,36.245886,39.494514,15.390179,27.00716,32.571613,37.796624,24.509754,47.273254,65.757122,81.080475,42.417755,74.767799,92.295227,104.802933,31.400585,68.663692,89.388657,103.08506,22.167034,56.601849,76.200829,89.6101,15.08749,41.298809,56.918163,69.154415,-12.615609,-10.324113,1.061119,10.018757,15.169915,32.672637,39.448633,43.804013,32.077734,49.268739,55.601985,59.244704,43.779931,61.288828,66.340011,68.080508,50.418594,66.487595,70.337363,70.466359,38.200893,302.558802,-65.874882,288.52386
18,4.180069,-9.876546,0.241756,-0.437934,-21.832581,-42.972851,-63.175678,-82.756176,-69.097652,-65.790653,-40.8601,-19.925652,-69.731541,-59.043732,-32.483597,-6.90239,-65.80719,-55.201263,-28.038368,-4.165993,-59.650383,-65.642109,-59.22924,-48.859806,30.777455,44.945655,55.461935,65.951601,33.007695,48.552805,56.298406,61.720895,25.659643,41.660595,51.809028,56.624943,16.566154,33.59562,42.407157,48.19033,8.311667,21.703479,29.2981,37.217097,24.615383,47.445545,65.890732,80.803928,43.397141,75.207081,92.323666,104.634533,32.284813,68.898525,89.191532,102.77647,22.616959,56.600418,75.967197,89.220486,14.882412,40.90004,56.319408,68.38028,-12.50699,-10.132008,1.283976,10.330535,15.74722,33.320955,40.147339,44.515749,32.418719,49.239532,55.668861,59.382407,43.982781,61.078938,66.295613,68.120337,50.554754,66.469811,70.309081,70.388862,42.103958,292.676066,-65.91013,288.079736
19,-10.344887,11.099019,-0.093498,-0.350001,-10.979004,-23.591423,-35.563316,-46.463699,-47.6544,-37.260704,-19.226189,-4.794273,-49.327412,-36.671734,-16.462326,3.047791,-47.101994,-38.324776,-19.345207,-2.380486,-42.89257,-44.205265,-40.251503,-34.670334,9.251447,18.701359,28.84899,37.770195,18.345615,30.398184,35.071887,39.04528,20.446241,31.338025,37.533629,42.442911,20.265374,31.467825,36.656527,41.099963,18.729147,29.734614,35.764665,41.741673,24.791965,47.623787,66.085224,81.459103,43.143368,74.951191,92.286816,104.738102,31.923695,68.723431,89.220486,102.960491,22.336979,56.607971,76.109905,89.463329,14.75235,40.861759,56.413479,68.482475,-12.397321,-9.806521,1.55117,10.368388,15.703686,33.798532,40.732363,45.043838,32.557349,49.644429,55.936055,59.487939,44.198722,61.676373,66.71354,68.357397,50.766496,66.790604,70.500692,70.467718,31.480637,303.748686,-66.282063,287.703336
20,8.878784,-8.2966,-0.041313,0.210384,-17.701035,-38.107109,-57.590904,-75.190716,-62.993202,-54.119053,-29.525871,-10.748291,-66.489487,-51.63866,-26.323357,-2.534752,-65.386391,-54.96191,-29.320679,-6.071777,-62.418823,-74.360275,-76.75209,-74.219227,16.542874,26.802766,39.347486,52.193733,21.433506,39.911823,46.045059,49.411692,23.944463,40.311842,46.7965,49.189514,24.043943,41.006411,44.900083,47.3433,23.810218,37.650338,44.884769,53.031871,24.919739,47.716541,66.277657,81.810894,43.892326,75.59,92.853069,105.208683,32.870522,69.281101,89.596081,103.249226,23.308582,57.103271,76.410084,89.605007,15.613461,41.567631,56.9133,68.786774,-12.687054,-10.344059,0.913165,9.550751,15.911476,33.64113,40.442259,44.797763,32.556484,49.30122,55.617114,59.200305,44.121966,61.258076,66.565215,68.416184,50.695544,66.605044,70.413377,70.432829,40.083561,295.424515,-66.599236,287.886148
21,-5.643082,7.808772,-0.363979,-0.458312,-15.716972,-34.148941,-49.606476,-64.522934,-58.613033,-50.932503,-31.090279,-14.326401,-57.935829,-45.900192,-22.45079,0.000343,-52.27169,-41.158676,-18.436203,1.276703,-44.094143,-44.515686,-35.334549,-24.654007,29.210477,43.971789,51.32651,59.064146,31.413608,42.183806,47.239312,52.084929,19.182765,31.69272,39.304631,44.898231,5.758041,19.054139,27.351974,34.382876,-7.900903,2.46273,10.686341,19.052534,24.853592,48.030224,66.779537,82.117538,43.556156,75.725098,93.161545,105.697632,32.555695,69.369335,89.79229,103.506775,23.166618,57.348919,76.834488,90.198898,15.769157,41.726875,57.225552,69.299297,-12.746952,-10.373822,0.983314,10.025179,15.734561,33.743389,40.676478,45.052915,32.615209,49.638316,56.046156,59.721602,44.223237,61.704778,66.835929,68.558765,50.768163,66.925467,70.662108,70.579486,34.170485,303.152008,-67.23321,287.346557
22,-19.435043,11.145949,0.450153,-0.132208,-3.128929,-9.701729,-16.68314,-22.383499,-33.901978,-17.495441,-0.255203,11.196442,-35.956421,-15.254631,4.515381,20.895767,-33.250008,-17.43187,0.076218,14.444046,-28.196869,-25.963039,-24.241676,-21.58865,-0.747489,1.771187,7.586038,15.162937,8.359277,19.465459,21.921396,24.721407,13.695315,20.602099,24.976683,29.86886,16.93857,24.407777,28.003935,32.346718,18.502399,26.131354,30.996916,36.243231,24.873562,47.982388,66.780796,82.168407,44.064331,75.738773,92.905369,105.28513,33.118,69.546719,89.787655,103.341236,23.672047,57.844219,77.0117,90.049725,16.071396,42.191277,57.567444,69.47382,-12.586278,-10.382344,0.851229,10.020672,15.527759,33.502192,40.616889,45.077245,32.455152,49.472269,55.991136,59.61675,44.237316,61.520021,66.703536,68.356348,51.021154,66.975238,70.636852,70.518044,14.567041,314.261972,-66.951456,287.178365
23,25.032234,-21.50242,-0.340061,0.271949,-17.990341,-39.618931,-60.397339,-80.051994,-62.690792,-56.394024,-32.258492,-14.098206,-65.184231,-52.389565,-27.527161,-4.089203,-63.423729,-54.449673,-28.795967,-5.987892,-60.309849,-73.310852,-76.406937,-74.623775,22.67895,34.645871,46.888693,58.025998,24.260625,43.515762,51.16386,55.625574,23.372346,41.283485,50.002026,53.455973,20.683486,39.369778,45.639729,49.660052,18.300414,33.519482,42.951919,52.888981,24.973526,48.41526,67.52821,83.172112,43.347473,75.351562,92.613487,104.977341,32.635117,69.286823,89.540176,102.995224,23.785343,58.077335,77.283211,90.342522,16.884499,43.245049,58.602104,70.347061,-12.491553,-10.307564,0.775956,9.893095,14.912663,33.140088,40.517842,45.099537,32.075202,49.643811,56.356205,59.99244,44.061204,61.827724,66.875202,68.312196,51.021648,67.014017,70.456109,70.034539,39.390221,292.67551,-67.500572,287.366271
24,-5.374374,7.139953,0.124626,-0.2533,-15.654373,-35.406303,-52.826042,-69.206657,-56.517563,-52.581997,-34.880104,-18.942032,-55.234795,-46.57093,-25.632248,-3.39901,-49.565849,-39.298954,-18.72654,-0.277519,-42.316933,-40.926189,-30.419998,-19.309845,33.696953,50.316335,56.767771,64.089518,35.651292,45.047667,49.789048,54.220937,20.106119,32.528573,42.05376,47.727943,2.874296,16.024726,26.521493,33.734312,-14.384697,-3.943628,5.851901,13.795907,24.86475,48.289318,67.296982,82.854538,43.759575,75.782204,92.837563,104.707375,32.733307,69.496307,89.603348,102.664146,23.366261,57.98996,77.186623,89.966469,15.959988,42.534084,58.050556,69.898682,-12.700331,-10.39667,0.869199,9.98603,14.720557,33.070989,40.210572,44.487282,31.895632,49.465847,56.194727,59.89722,43.896824,61.597765,66.674266,68.271132,50.821886,66.902681,70.429185,70.191385,33.826761,299.790207,-67.565031,287.087715
25,-18.590126,2.203255,0.072269,0.074224,-4.794617,-14.821873,-25.106049,-34.954605,-37.140198,-24.680443,-9.247513,2.652969,-37.982941,-19.28175,0.139275,18.319931,-34.419136,-17.825775,1.192703,17.146912,-28.94846,-25.20916,-16.38525,-7.0578,25.418878,42.126934,51.313172,58.736498,34.378183,44.686859,47.913997,50.521161,22.019765,31.76682,37.909813,42.133418,8.476541,18.113804,25.629261,31.4585,-4.756325,1.277554,7.978153,14.572418,24.754543,48.283768,67.374401,83.408031,43.057594,75.520077,92.643757,104.532566,32.092609,69.811535,90.31992,103.837681,23.09412,58.718204,78.251438,91.57568,16.259365,43.354912,58.984222,71.14809,-12.981851,-10.616687,1.108605,10.302006,14.588844,33.234195,40.408358,45.009134,31.615408,49.153266,55.784087,59.481887,43.529594,61.263139,66.281534,67.939965,50.297131,66.519335,70.359716,70.482044,15.083427,301.919809,-67.645969,287.088286
26,34.138985,-9.825849,-0.260067,-0.093861,-22.15313,-47.055702,-70.794525,-90.604191,-71.516762,-68.193741,-44.803047,-26.737061,-73.563023,-64.002857,-39.399147,-15.686302,-70.542526,-63.322849,-36.735191,-13.236351,-65.812168,-76.177139,-72.495117,-63.386421,24.735054,36.278923,47.262469,57.407876,24.834657,44.576202,53.266893,59.060008,21.297779,40.870128,50.044139,54.994361,16.439442,35.08751,42.790504,48.373852,12.215528,27.676535,36.365991,45.032229,24.722214,48.51059,67.902374,84.170036,42.918034,75.611115,92.834702,104.883614,32.15498,69.994698,90.635376,104.303627,23.35413,59.15966,78.788567,92.292023,16.705856,43.796196,59.462986,71.718636,-12.763007,-10.522394,0.895566,10.205861,14.438667,33.313112,40.72452,45.480784,31.436394,49.181177,55.856088,59.421742,43.429312,61.454319,66.545949,68.09255,50.287189,66.750034,70.582141,70.521996,49.054699,292.032657,-68.07375,286.933123
27,-1.542892,4.490552,0.176296,-0.604351,-14.711952,-39.811707,-59.446278,-75.128632,-65.51405,-60.877762,-44.342422,-29.143867,-65.715637,-57.998543,-37.416344,-15.98053,-60.838051,-54.053936,-33.256989,-15.00824,-52.947464,-53.895206,-42.340736,-29.884644,31.822396,48.359341,56.173362,65.322303,33.734127,49.472269,56.900102,62.027363,20.217579,38.029547,47.270064,52.334771,5.896176,22.480237,32.03315,38.28754,-8.693594,3.815681,12.321368,18.651712,24.861317,48.516712,67.81992,84.425297,43.603191,76.32597,93.473797,105.246792,32.575722,70.242062,90.599613,103.925915,23.471947,59.177685,78.665943,91.983204,16.506329,43.71666,59.218082,71.005383,-13.126223,-10.647871,0.961392,9.889946,14.567478,33.192699,40.428921,45.067612,31.778923,49.433984,56.064002,59.698693,43.896639,61.802282,66.833521,68.575129,50.807313,67.115041,70.665381,70.573064,47.351675,296.50314,-68.057585,286.308703
28,-2.790184,-0.144002,0.10746,-0.784292,-11.90918,-33.033028,-50.570812,-64.434013,-55.899639,-51.660175,-35.928154,-22.04567,-56.609001,-50.226231,-31.215935,-11.586685,-53.278828,-48.513908,-29.461212,-12.207756,-47.614517,-51.801567,-44.791832,-36.175804,28.222532,45.087187,54.78688,64.771613,32.80293,47.929991,54.282379,57.507171,20.344661,36.828316,45.545992,49.085402,7.479025,22.027483,31.225516,36.213467,-5.586251,2.211468,8.560089,13.186986,25.314217,48.878174,68.1003,84.381237,43.72261,76.264286,93.727741,106.105556,32.348442,70.07658,90.808468,104.539776,22.890186,58.181133,77.960072,91.590443,15.440998,42.053432,57.480583,68.951454,-12.743556,-10.441192,1.046299,10.29756,14.668934,33.136506,40.102817,44.558974,31.905882,50.026541,56.325762,59.765939,43.80426,62.166486,67.100406,68.650527,50.397352,66.495314,69.986497,69.634643,44.310379,296.30276,-68.201237,285.468033
29,-7.140884,4.848951,-0.682125,-1.356657,-6.591454,-15.70816,-23.517609,-30.216179,-39.463177,-35.17868,-20.594215,-9.02401,-40.828915,-36.875782,-19.786034,-3.655128,-38.955345,-36.342831,-20.138626,-5.63736,-35.12352,-34.89006,-26.232719,-18.508759,-4.289184,-2.000281,4.197917,9.63504,14.167212,25.622901,28.356407,29.841689,21.281971,30.438878,36.213529,39.838896,26.29913,34.225475,39.175511,42.440996,29.748817,37.736109,41.34647,44.46184,25.743713,49.117355,68.361397,84.594498,44.36285,77.1595,94.330673,106.291695,33.275185,70.475121,91.024704,104.97036,23.858757,57.923126,77.284012,90.771217,16.323452,41.892242,56.927948,68.714676,-12.883606,-10.748091,0.329377,8.655493,14.099348,31.941265,39.039722,43.675881,31.490796,48.702735,55.482436,59.347086,43.594988,61.248628,66.760593,68.650094,50.343382,66.65111,70.678657,70.598567,36.867399,301.063192,-69.185457,284.022857
30,15.275574,-14.686162,0.66021,-1.677573,-21.421852,-48.254471,-72.628098,-93.328457,-77.302608,-72.50679,-51.995087,-35.56057,-76.864071,-68.274193,-44.952164,-22.035255,-70.481873,-64.960556,-40.163498,-18.366165,-61.258049,-69.033394,-65.168896,-57.3032,34.693049,50.60119,60.030848,69.428952,33.478048,51.491631,60.048509,67.252929,22.526365,40.610591,51.730111,60.383505,10.68807,28.228275,39.264617,48.130247,-0.266206,12.082024,21.987593,32.59267,26.665249,48.65284,67.028618,82.359352,46.372662,77.895241,94.44191,106.276131,35.838032,71.124687,91.131363,105.440483,25.984783,57.889252,77.081566,91.252327,17.323208,41.29549,56.1026,68.798103,-12.842542,-12.219789,-2.301438,6.960259,11.707261,28.69801,36.408475,41.765385,28.9192,45.681596,53.911382,58.960714,41.396735,58.938916,66.075905,69.528556,48.900954,65.404493,70.611967,71.59738,51.949797,286.315603,-68.718424,282.283857
31,-6.586533,0.276333,1.730061,-5.945453,-18.058548,-42.711411,-62.59552,-81.357422,-67.43763,-70.699482,-53.00045,-37.033997,-64.645329,-61.222973,-41.712685,-20.74173,-57.000904,-51.088657,-31.97113,-12.778587,-46.51577,-45.218468,-33.523636,-20.871735,35.015942,51.850771,59.682885,69.52343,36.95015,51.362078,60.325398,65.889974,23.20704,37.926486,51.869976,60.100997,8.884649,22.948306,36.603915,44.957511,-5.046861,6.377953,17.375516,25.801607,28.130894,51.008492,69.427128,84.62534,45.175953,75.569859,91.98103,104.063358,34.183331,67.250404,87.399502,102.976742,23.222179,52.872562,71.619587,86.231403,13.054276,34.904366,49.766636,62.75631,-12.273327,-11.030785,-2.780621,3.713608,6.739193,25.817724,35.528161,42.319163,23.097556,44.228547,55.412967,63.171351,35.787143,57.926085,68.676585,75.294192,44.423926,64.168435,72.474421,76.007718,45.157957,286.569027,-67.19367,276.315495
32,-9.500084,-0.408047,1.044502,-6.41099,-22.388649,-44.784107,-62.015362,-79.049263,-67.265797,-69.610519,-54.742355,-39.553757,-60.906487,-53.832321,-35.610409,-14.992676,-49.501991,-40.289898,-24.220047,-6.380768,-35.269661,-32.141418,-21.130257,-7.516136,33.015661,48.342113,55.868376,66.399971,32.291328,43.083201,52.998403,60.514848,17.131602,30.341806,45.614844,55.875663,2.021029,15.002016,29.484216,39.594179,-10.753649,-0.010065,10.801073,20.022201,27.025909,51.849289,71.26173,87.300854,46.671181,74.819241,90.877361,102.289295,35.421524,65.354004,84.031849,97.287197,24.368706,51.810722,69.355373,82.458401,13.9254,36.459961,49.91993,61.195908,-13.363962,-10.984843,-1.615823,4.209093,3.386454,23.3524,35.253434,44.773186,18.033467,41.741055,55.269459,64.673244,31.086022,53.600716,65.411903,72.83035,41.774586,61.469695,69.876951,74.459326,35.542831,286.110808,-66.26421,269.854333
33,-9.76387,-4.718905,1.882553,-13.394344,-20.919685,-41.397743,-55.62418,-64.541416,-51.094551,-56.76384,-50.106525,-41.90958,-43.446579,-41.76218,-28.891811,-16.307945,-31.779213,-29.998283,-19.008408,-7.918053,-17.924652,-21.010551,-14.163094,-6.070175,26.256028,41.828618,51.811251,64.716346,25.266416,31.678888,40.375198,47.363183,10.394879,21.0283,33.276309,38.82835,-3.758315,6.867387,18.416813,23.183822,-15.990578,-9.579403,-1.990895,2.133168,28.246994,53.221893,70.069714,83.969936,43.269024,68.709011,82.820148,90.458164,31.228123,56.350822,70.626125,78.435459,19.715252,40.960464,54.428215,62.552891,9.988804,27.873516,38.293076,44.378757,-6.834412,0.691234,10.23581,16.618271,1.613477,23.305593,37.613658,48.496736,13.455785,38.793894,55.527761,68.480775,25.866939,50.406676,63.698884,73.483237,38.3228,57.98975,66.669759,72.155974,25.584383,281.35246,-64.576235,256.420546
34,44.422646,-35.830553,-6.849461,-26.156672,-31.303139,-55.061417,-65.607605,-72.690983,-68.766174,-88.187943,-98.419247,-105.285988,-59.89563,-82.589378,-91.61293,-97.611866,-48.752632,-69.879799,-71.543598,-71.159306,-36.86142,-51.574173,-54.95636,-57.249069,7.95969,25.45704,41.208582,52.043,39.349462,59.922476,71.395024,82.444519,42.241172,59.495843,65.472789,70.718177,42.146447,54.056249,51.424385,48.220217,39.556017,49.307951,48.845626,47.480509,37.452393,62.71162,77.975807,87.558746,76.003418,99.452934,98.567276,89.607697,65.386734,87.79644,81.430893,68.19437,50.962601,66.289043,58.047123,45.146484,33.758926,47.935696,43.761234,34.982586,-3.275489,4.892609,20.066599,34.480751,14.546483,44.497162,66.325871,77.138676,24.225242,59.735249,81.65047,92.925663,35.743485,67.570635,88.56522,101.072457,47.066473,73.225306,88.780543,99.002521,70.362568,245.509326,-71.070156,230.251293
35,3.80928,-11.484589,-7.002411,-21.948752,-30.96199,-52.584686,-60.224762,-58.94886,-63.61599,-84.151325,-90.053101,-92.985134,-53.783913,-82.086811,-95.969467,-104.397869,-41.033821,-62.558784,-61.172333,-56.615982,-27.677765,-44.896431,-44.099121,-40.231133,-2.384863,8.550888,23.3277,37.18406,17.506798,38.612162,51.270564,59.707832,30.330073,53.079296,66.713972,76.661469,39.933312,61.551946,61.126609,57.096963,46.675099,58.085463,54.204635,47.950368,23.413296,46.633015,62.160988,76.634903,71.854706,92.309532,97.703476,94.842567,67.315693,87.606812,88.603134,81.688843,59.118462,76.037464,71.158218,61.268864,48.292065,63.166523,64.198036,61.456833,-15.228022,-12.218863,0.260587,13.094237,12.537742,32.154366,48.891691,62.116036,27.391618,49.959171,69.565915,86.169489,38.084752,58.379951,76.881671,92.258574,44.664814,60.555912,73.002202,84.374775,74.403191,234.017281,-77.841225,208.295085
36,0.686073,-18.837395,-16.908932,-30.685879,-24.301186,-42.436409,-49.814987,-52.281075,-57.948303,-79.414101,-88.323784,-93.736439,-51.520615,-78.015175,-89.927673,-94.476414,-42.138519,-59.785194,-53.499069,-45.684471,-32.239838,-46.027908,-42.987099,-36.975632,0.299736,12.516376,28.804715,40.728657,20.523614,37.058028,47.073451,54.682275,31.999496,50.920872,61.179591,68.217841,40.95065,54.233411,49.325982,43.66526,47.330394,53.798194,49.357969,44.694145,25.882587,51.743774,68.46714,77.68055,46.522236,78.830223,88.536129,87.855434,37.989864,71.871471,84.103775,86.032791,29.052601,58.311768,69.175529,71.802692,21.602268,46.201687,56.915646,62.752247,-15.409692,-18.839433,-12.50841,-0.551308,-30.003784,-31.459859,-14.990468,-5.09762,-18.073481,-11.121805,3.355209,9.75391,-1.34338,14.544445,25.753503,27.955708,17.515937,33.238333,40.996469,42.384248,74.673071,216.314673,-95.166349,178.743993
37,17.882195,-36.347188,-3.143435,-20.084229,-30.089493,-55.355645,-69.477654,-77.360402,-67.20583,-95.027047,-104.736386,-109.421311,-60.216408,-91.325169,-101.600476,-104.324084,-50.903035,-74.584237,-72.20541,-65.938797,-41.541825,-59.777642,-58.720265,-53.803311,-6.512754,4.810048,22.409162,37.582906,10.669174,30.139666,41.932574,50.697242,25.180675,44.658978,51.071697,54.445708,37.190235,51.10251,46.331673,40.381527,45.757271,52.606874,47.79522,42.418395,29.378042,52.518597,66.234484,67.59387,47.425003,68.015499,77.884026,80.485096,33.405962,54.144659,65.562229,69.457455,20.494766,45.770073,56.241532,58.343697,11.014853,35.08318,45.440197,49.607048,-10.623016,-14.391767,-11.587218,-4.232342,-39.920545,-53.680575,-47.292016,-40.879869,-34.458968,-42.921662,-36.816182,-32.460077,-21.891663,-6.855762,8.118203,13.635541,-3.980941,10.84541,19.860816,22.375262,91.815863,180.719373,-99.049187,159.411652
38,17.882194,-36.347188,-3.143434,-20.084229,-35.8778,-68.274879,-89.14032,-102.439728,-76.463356,-110.639992,-121.148987,-125.106182,-68.912201,-104.635162,-113.273277,-114.171753,-59.667549,-89.383278,-90.911751,-86.193123,-50.843811,-73.527374,-74.45343,-70.630989,-13.325245,-2.89628,16.013611,34.437155,0.814735,23.221304,36.791698,46.712211,18.361856,38.397085,40.963803,40.673576,33.429821,47.97161,43.337365,37.097795,44.184149,51.415554,46.232472,40.142646,32.873497,53.293419,64.001827,57.507191,48.32777,57.200775,67.231922,73.114758,28.82206,36.417847,47.020683,52.882118,11.936932,33.228378,43.307533,44.884701,0.427437,23.964672,33.964748,36.461849,-5.83634,-9.944101,-10.666025,-7.913377,-49.837306,-75.901291,-79.593564,-76.662118,-50.844456,-74.721518,-76.987573,-74.674063,-42.439947,-28.25597,-9.517097,-0.684627,-25.477819,-11.547512,-1.274837,2.366276,108.923635,145.643024,-102.967043,140.598263
39,1.718559,-18.039951,-1.641369,-15.037152,-36.58699,-67.95433,-92.650681,-110.229721,-73.446121,-105.849037,-111.12648,-108.835144,-67.298126,-98.269157,-96.948967,-88.817825,-59.005165,-85.669212,-82.849274,-75.141449,-50.210037,-71.339264,-70.878754,-65.132103,-11.239316,-2.785067,11.867812,23.16999,17.826912,26.004889,23.875612,22.448374,28.110702,34.105,25.414617,19.899009,34.253509,37.816693,28.479537,22.867474,36.292199,41.233652,35.666606,31.40027,34.171543,55.2598,63.755951,58.674259,46.400986,50.802441,56.818142,61.520061,30.610657,34.917583,43.198242,49.542618,14.863586,28.875561,36.269817,36.880875,2.015648,16.686745,25.414639,27.931538,-10.058154,-19.342606,-26.465794,-32.716943,-59.132874,-78.327958,-91.591669,-102.078248,-62.039774,-82.118785,-92.630002,-101.944218,-56.84888,-57.135958,-41.434804,-32.188576,-45.835355,-42.011121,-31.99576,-26.091957,109.915466,131.025637,-105.33514,128.983674
40,0.485458,-41.433755,12.49712,-40.313386,-31.093941,-64.062653,-86.169434,-99.95121,-68.274422,-101.711426,-110.339928,-111.524391,-62.988167,-98.820763,-104.8312,-103.488808,-55.494576,-86.641846,-85.253906,-78.094254,-47.233315,-72.023735,-70.864677,-64.715424,-15.927284,-10.281783,5.21967,21.403125,-10.677511,6.51473,16.632998,22.538098,8.24473,24.614363,26.792917,26.707455,25.401649,37.242631,32.540151,27.230203,38.471402,42.721621,37.319325,31.750364,22.872849,39.231148,41.45565,35.586548,32.025433,35.604858,40.755444,46.925697,14.244576,16.811943,25.347233,34.784203,-2.125626,10.219688,17.315598,19.840221,-15.399742,-2.392273,5.316639,8.048973,-8.038206,-20.958615,-28.665745,-31.449577,-59.477379,-85.162309,-97.076989,-103.680949,-60.430713,-88.479973,-95.962024,-95.400465,-55.032183,-53.348991,-36.757396,-25.331378,-44.678276,-41.995467,-29.718034,-20.508362,109.567795,91.342259,-93.67115,90.420665
41,7.506065,-10.752784,1.264915,-24.647059,-30.793076,-58.316689,-78.415604,-91.473885,-64.800797,-96.886826,-111.679802,-121.6539,-62.709503,-99.053879,-113.614769,-121.611843,-58.367958,-91.618195,-87.809258,-78.950272,-52.718925,-77.366638,-75.369301,-68.602982,-14.094964,-8.778068,4.923978,15.788685,-12.691902,-5.438266,0.22403,5.871785,0.101394,6.580988,9.724146,12.968235,12.314699,20.762434,18.161105,15.362453,22.450443,26.93377,24.107268,21.394758,22.138767,37.761841,38.349552,31.577053,30.941162,36.239605,41.499939,48.197765,12.944241,15.66473,22.714119,31.137829,-4.237804,7.159252,13.997784,16.360359,-18.652496,-7.053165,0.526314,3.221054,-7.053503,-21.21281,-29.358956,-34.479701,-61.171625,-86.265171,-98.705625,-108.551605,-62.473942,-89.50997,-100.192946,-106.487505,-57.225867,-55.322688,-37.398859,-24.843488,-46.847228,-44.834597,-32.461821,-22.780715,116.444378,82.414153,-93.035717,67.598284
42,2.809753,-15.623348,-11.991405,-14.288644,-30.497589,-54.04232,-73.268166,-82.691345,-63.202972,-94.866943,-110.999794,-122.676888,-62.577438,-99.04129,-117.140236,-130.235252,-59.576454,-91.373749,-84.775314,-74.658051,-55.338249,-79.535408,-76.300392,-68.540268,-18.941599,-15.313732,-1.569016,9.7285,-18.256262,-14.729882,-12.142138,-7.78614,-5.100924,-1.967306,-0.972662,3.48896,8.236301,13.952506,10.487813,9.422495,20.083735,22.68565,19.383485,18.035443,28.003693,47.547283,51.365433,42.076607,39.870644,46.288776,51.256714,56.470814,23.711357,29.759331,35.703735,41.363583,7.430248,20.641022,27.246838,29.134026,-6.63969,6.108513,13.941536,17.044373,-10.979439,-22.821378,-33.725945,-38.629514,-63.789256,-82.808877,-97.44354,-110.898738,-67.972692,-88.635646,-103.393902,-115.217562,-63.821058,-63.28528,-45.895129,-32.971231,-53.865409,-49.732053,-36.763818,-26.911077,119.348059,69.630892,-104.933195,56.149727
43,-0.951118,-16.800373,10.512371,-25.240512,-29.718246,-56.188889,-77.975807,-88.48835,-63.349915,-93.410225,-110.225601,-122.945538,-62.290764,-97.805786,-117.577057,-131.931152,-59.073143,-92.64679,-87.903328,-78.633957,-54.083405,-80.142059,-78.004875,-70.768318,-22.315611,-20.009511,-7.297695,4.932222,-22.115169,-18.825292,-16.113338,-11.594906,-5.616879,-1.575932,-0.352718,3.421652,9.669065,16.758691,11.312274,8.36397,22.348277,24.754196,19.699493,16.514777,21.643467,40.141525,42.733097,34.507484,34.889431,41.409073,46.050339,51.173573,17.32378,23.025341,30.874729,40.481987,0.012646,13.808556,18.86261,19.875355,-14.871597,-0.638638,6.121731,8.054924,-5.292813,-19.173596,-27.232734,-32.289352,-60.495242,-86.105886,-99.163813,-108.853132,-63.223931,-91.885478,-103.328292,-109.736472,-59.334026,-55.451191,-35.670619,-21.252361,-49.983624,-45.045135,-30.72719,-19.181376,117.403507,55.10846,-95.414257,33.187157
44,-1.725655,-11.013556,-3.271465,-8.679422,-25.888023,-53.104477,-74.895859,-85.856667,-59.945984,-91.620369,-109.056473,-122.736282,-59.073372,-95.385475,-116.638298,-132.88662,-56.857224,-92.028694,-88.244362,-79.096413,-52.986946,-81.152802,-79.131775,-71.652031,-23.440395,-23.770018,-12.714935,-0.846104,-27.432157,-21.639104,-17.130058,-12.24276,-9.200379,-4.90746,-2.130852,1.18039,7.921158,15.440289,10.614124,6.389655,22.972728,26.179427,21.10379,16.856442,24.810448,44.413776,48.382187,39.591579,38.258228,43.375397,47.940845,53.15403,21.430378,29.611931,36.711617,43.704071,4.190998,18.557453,23.939896,25.468483,-11.001949,4.063282,11.937504,15.030727,-7.145109,-18.381554,-29.852033,-36.917113,-61.015459,-84.767415,-99.285431,-112.138872,-64.311788,-88.906792,-103.328014,-113.68998,-60.201804,-61.196542,-43.725837,-30.380925,-51.230118,-48.38435,-34.82609,-23.971109,115.098896,49.225113,-99.264679,29.637944
45,-3.176193,-8.773684,2.498417,-7.828069,-24.443092,-50.493279,-70.420074,-81.486053,-59.973679,-91.119919,-108.54641,-121.463184,-58.526688,-93.780212,-114.045525,-129.196186,-54.40155,-87.908249,-86.264191,-79.316711,-48.729973,-75.097733,-75.19455,-70.254593,-22.874236,-23.086287,-12.001872,-0.938483,-27.661282,-19.758001,-14.363084,-9.612718,-10.26403,-3.304666,1.134448,4.677192,6.91018,17.200269,14.020524,9.665452,22.536399,28.383299,23.100829,17.637863,24.330425,44.087105,49.268188,39.7225,37.990322,43.593521,48.180141,53.476582,20.882435,28.909435,36.291161,43.792648,3.653469,18.637447,24.79208,26.373997,-11.000919,4.009209,12.29084,15.610199,-7.088515,-17.757103,-29.134802,-36.633185,-61.575164,-83.782835,-97.945972,-110.103918,-65.833071,-89.556005,-103.695213,-113.828363,-61.949187,-61.953849,-44.097142,-30.611563,-52.68224,-48.68526,-34.78904,-23.701167,111.238804,41.071511,-97.450161,22.429957
46,-3.102837,-3.846063,1.714497,-4.968562,-22.381325,-49.38652,-70.1231,-81.567535,-57.942123,-88.555984,-106.109276,-119.419212,-56.59687,-91.858864,-112.763443,-128.826256,-52.524948,-86.580391,-84.473877,-77.639008,-46.764565,-73.674774,-73.300552,-67.827301,-22.240522,-23.292595,-12.875578,-2.292299,-26.934202,-19.554966,-14.849399,-10.36527,-9.51722,-3.13195,0.537167,3.576584,7.595548,17.921328,14.188794,9.535159,23.21022,28.774519,23.741737,18.727634,24.677582,45.81459,50.037518,38.808117,38.847313,43.848209,49.405174,55.881271,22.103691,30.109978,39.013882,48.750916,4.485111,21.506596,26.694775,27.703629,-10.545444,6.411552,14.233646,17.250137,-4.327808,-15.698622,-28.294409,-36.582241,-59.335508,-84.059817,-98.163302,-110.041365,-63.552752,-88.506896,-102.877329,-112.305289,-60.376033,-56.576962,-37.851613,-23.310935,-51.799673,-46.942509,-32.745966,-20.672371,108.174133,37.664262,-95.697498,17.900209
47,-2.475357,-2.638225,5.451679,0.445684,-21.709328,-47.76947,-66.82766,-77.745552,-57.328377,-87.650871,-105.340691,-118.929234,-55.124245,-89.505959,-109.861336,-125.769196,-50.449677,-84.167175,-83.006172,-76.876717,-44.191933,-71.295433,-71.303902,-65.789337,-20.871763,-21.667849,-11.585057,-0.896585,-26.048176,-17.517326,-11.989491,-6.745677,-9.777066,-2.71742,1.699217,5.499492,7.08975,19.120645,17.369156,13.585338,23.202686,30.92084,27.708274,23.802406,22.34602,41.691284,46.896515,36.517467,39.246368,44.411888,49.377708,54.845581,22.715778,30.781345,40.223579,50.272007,4.515839,20.531673,25.234337,26.10981,-10.938034,5.078373,13.390732,17.481594,-3.519928,-13.147496,-23.92671,-32.355981,-57.982433,-82.194615,-95.264985,-106.568151,-62.756203,-86.652686,-100.707234,-109.81508,-60.030972,-54.584122,-34.874194,-19.537985,-50.840936,-45.005491,-31.321075,-18.888957,105.680666,35.336256,-90.263929,18.656112
48,-2.683754,-0.074378,2.572174,4.838824,-21.077614,-47.437019,-66.445656,-77.159157,-56.101685,-86.53244,-104.455833,-118.674717,-53.240318,-87.031517,-107.77771,-124.133492,-48.297157,-81.295166,-82.567749,-78.484154,-42.140236,-68.898354,-69.954071,-65.870934,-20.363372,-20.766046,-9.025996,2.480545,-26.189986,-17.926392,-12.427857,-7.380533,-10.2778,-3.380403,1.651638,6.260535,6.678245,18.214612,17.692481,15.111252,23.226707,30.144359,27.674898,24.781027,21.124535,40.624123,47.77319,40.432034,41.809673,45.883884,50.264797,55.258255,26.311455,33.063583,42.046967,51.37413,9.025383,23.751926,26.665649,26.029873,-6.266613,8.046513,14.285889,16.526642,-3.370337,-8.922039,-16.887287,-26.422384,-52.892593,-76.923384,-88.949184,-98.013897,-58.263366,-83.218251,-95.458202,-101.845078,-56.452566,-49.270685,-31.134187,-18.561618,-48.084861,-39.150193,-26.742405,-16.885125,102.922325,35.007574,-87.766342,23.240632
49,-1.878777,1.238065,4.600239,8.417538,-20.22995,-46.565552,-65.718269,-75.911293,-55.46917,-86.366844,-104.413834,-119.342022,-53.327637,-86.881371,-107.874184,-124.897785,-48.570442,-81.836472,-80.352058,-73.884315,-41.879082,-68.513603,-69.601822,-65.399323,-20.487737,-20.591756,-7.551581,4.88279,-24.94834,-17.241487,-12.111016,-7.412087,-8.532548,-2.184266,2.345312,6.640361,8.262298,19.905492,16.593015,11.946204,24.235092,31.124801,27.084163,22.608586,21.77496,39.531384,46.265488,46.202774,40.493088,48.354206,56.227913,64.615974,26.319923,33.725567,44.282856,55.66103,10.628128,24.851017,27.796841,28.093987,-3.2127,9.691772,15.043659,17.564106,-1.117343,-10.272613,-19.002578,-25.692247,-49.594072,-73.45264,-84.652127,-92.929523,-54.073169,-79.905157,-90.963359,-96.199608,-52.166872,-45.22381,-27.918442,-15.724032,-44.903603,-35.552306,-23.554756,-13.763302,101.208172,36.12078,-83.00148,31.533311
50,-1.927299,1.403957,-0.127087,7.251166,-19.793243,-46.419868,-65.614471,-76.486359,-55.019417,-85.711327,-103.640785,-118.007412,-52.559967,-87.383308,-108.308716,-124.975376,-47.921562,-82.019577,-77.899017,-69.773254,-41.500969,-68.944473,-67.080574,-60.359802,-19.792952,-20.071045,-8.353781,3.343908,-24.928333,-16.856411,-11.652395,-6.936763,-8.406547,-2.39817,1.895089,5.776288,8.827252,20.129492,17.028263,12.499241,25.574674,32.068317,27.848077,23.482292,24.284992,41.042061,52.117424,62.615089,43.944683,54.491386,61.900749,65.872135,29.65519,41.354542,51.530056,58.051128,15.985451,30.664959,35.879059,38.84119,4.036961,14.465618,19.998951,24.211922,0.005805,-7.29649,-14.151496,-15.985916,-44.788716,-67.350372,-64.496762,-56.522252,-47.325855,-66.449526,-62.937934,-53.265597,-43.3227,-30.089803,-13.792078,-1.802803,-35.040333,-24.180412,-10.808545,-0.571901,99.231749,37.393518,-83.177691,38.653257
51,-1.386909,1.447337,4.30521,13.53058,-17.451096,-43.469009,-63.328743,-75.334053,-53.756447,-86.067467,-103.622417,-116.024551,-52.524719,-88.721924,-109.42297,-125.295925,-48.083496,-82.42321,-76.484184,-67.518883,-41.813965,-69.410477,-66.009979,-58.13324,-19.420782,-20.189544,-11.062802,-2.612783,-23.512303,-16.275618,-12.36339,-10.121356,-6.333678,-0.604382,2.3509,3.859586,10.998736,19.750777,17.063924,13.108439,27.254872,31.411941,27.839834,24.544832,24.585515,41.146145,50.498658,56.111556,50.683423,67.193928,78.711205,87.466021,35.545292,49.414673,59.084073,65.053969,19.756136,33.694039,38.079815,38.524161,5.001441,16.868449,21.851206,23.032265,5.319968,4.732011,3.421791,2.50347,-30.738753,-48.764022,-48.8359,-46.101962,-36.33757,-52.557921,-48.3766,-41.6444,-34.563651,-20.326861,-3.266164,6.711622,-26.844726,-12.582773,0.289301,8.249361,97.621622,39.23263,-79.095698,52.575613
52,0.71434,1.748833,4.305211,13.530581,-23.506851,-50.620651,-71.004181,-85.327835,-58.191719,-87.072372,-99.303246,-105.761948,-54.884491,-88.127403,-101.927376,-111.411781,-48.124466,-78.744164,-75.899277,-69.795914,-39.594498,-66.808662,-66.267815,-59.795265,-18.530897,-18.749555,-10.909692,-6.091493,-16.053779,-3.058838,1.252422,3.321863,2.69522,14.945082,17.911664,18.762369,19.313398,29.9546,25.135999,19.522455,33.649621,40.030631,34.157055,28.171958,24.886036,41.250229,48.87989,49.608021,57.422161,79.896469,95.52166,109.059906,41.435394,57.474804,66.638088,72.056808,23.526821,36.723118,40.280571,38.20713,5.965919,19.271278,23.703461,21.852608,10.634131,16.760513,20.995078,20.992855,-16.68879,-30.177673,-33.175038,-35.681673,-25.349285,-38.666317,-33.815267,-30.023205,-25.804602,-10.563921,7.259749,15.226046,-18.649118,-0.985135,11.387146,17.070624,98.050547,41.006905,-75.075903,66.131635
53,-1.294556,9.596446,-3.583088,0.351792,-22.452278,-48.361588,-67.101288,-76.595535,-59.144554,-85.17025,-89.659767,-87.990189,-56.231232,-88.770447,-106.128731,-118.918819,-49.438477,-78.75103,-75.06855,-67.973557,-41.076965,-66.640205,-64.300919,-56.087265,-19.301573,-19.49797,-9.346697,1.285119,-17.044997,-3.08431,1.144698,2.631216,1.887093,13.244352,18.055573,20.954014,18.857495,30.28799,25.363611,19.069361,32.821826,40.073053,34.445399,28.291538,25.651417,43.681183,51.380825,50.292835,56.973953,77.519474,89.959431,100.497379,40.89529,58.344326,65.839062,70.26741,24.536419,39.404755,42.683201,41.028214,8.42411,24.540539,29.358673,27.898121,9.78318,18.183551,26.015757,29.263613,-17.542829,-26.922655,-24.679942,-22.064719,-23.401338,-30.31868,-19.880885,-12.188698,-21.675722,1.295894,16.495357,22.207239,-12.519093,8.885668,19.039566,23.356105,96.546278,51.131842,-78.868704,67.011918
54,0.37674,5.143408,-1.080151,3.608972,-23.389091,-48.084869,-65.167351,-74.946785,-60.883713,-86.76796,-91.481094,-89.586182,-57.478409,-88.783035,-102.870827,-113.188763,-50.027733,-78.407707,-76.377182,-71.095505,-40.571251,-64.669762,-65.700531,-61.221428,-18.434659,-17.742869,-8.412876,0.300169,-14.435394,-2.197574,2.278528,3.490133,3.921676,16.135259,21.177427,23.048619,19.981847,31.46378,28.000292,21.948659,33.279551,41.237296,36.471924,30.078008,25.659256,42.92942,50.960026,51.137867,56.453419,72.789459,81.66069,85.857353,40.984898,57.765827,65.834312,67.969265,24.613781,39.311771,43.82206,42.248154,8.522301,23.169193,29.351463,28.928432,11.939103,19.916607,27.301061,29.649769,-17.780259,-29.327278,-23.113056,-15.155311,-24.050118,-31.501664,-18.11473,-6.723107,-22.622233,-3.02682,14.029385,22.88637,-14.543303,5.945731,17.698316,23.678751,96.983271,56.146253,-79.888601,70.491893
55,0.276031,4.058422,-1.82436,2.811465,-23.752785,-48.865013,-66.301575,-76.14109,-61.18,-87.67868,-90.698318,-87.726402,-57.876091,-89.69696,-101.051445,-108.129387,-51.306953,-80.490761,-76.611328,-69.30027,-43.193207,-68.712273,-66.955032,-59.43924,-18.392669,-17.838552,-8.427881,0.572612,-18.152892,-6.128327,-0.496751,1.231519,0.418359,13.285725,18.077217,19.28487,17.647774,29.83042,27.002591,21.938995,32.195337,40.615531,35.863837,30.217965,25.324974,43.622074,52.754402,51.977921,55.457211,70.691185,79.891148,83.808689,39.931126,56.196899,66.79945,71.302528,23.461819,38.360023,42.655792,41.409988,7.360096,23.423653,29.655476,29.408627,11.26593,19.255106,27.436573,28.444185,-17.577687,-29.261544,-21.027405,-10.490253,-24.360291,-34.983554,-22.97279,-11.238822,-23.755847,-2.894087,13.625414,21.035,-15.531927,7.113524,18.38495,22.654868,97.311058,59.930936,-81.661205,73.029619
56,0.427437,3.274748,-2.794876,-0.128132,-23.709869,-48.691521,-66.648788,-76.924553,-59.895401,-87.091255,-97.014198,-98.873405,-57.472229,-89.59774,-100.409546,-105.105515,-51.993484,-81.663437,-79.546967,-72.759132,-44.613647,-70.326462,-69.641418,-62.581444,-18.86685,-18.511477,-9.769347,-1.260141,-16.536019,-6.558573,-1.050375,2.255125,1.687423,13.015567,15.659472,15.807611,18.158789,28.904102,25.25632,20.290166,32.156774,39.036264,33.724957,28.078561,25.249901,43.343239,53.166847,53.904247,54.540939,70.361938,79.972286,83.895664,40.047626,57.07037,67.970867,72.126732,24.452305,40.3759,44.930363,44.040184,9.222965,25.926819,32.577496,33.007164,11.353431,19.056517,28.635086,31.424816,-16.498259,-26.318952,-17.342202,-6.221941,-23.039789,-32.360273,-19.070688,-5.782247,-22.287082,-0.327586,16.761933,25.106853,-13.568017,9.403847,20.930055,26.016467,97.85594,63.229983,-84.338636,72.925785
57,0.421486,2.912396,-0.458221,1.846831,-23.977432,-49.19632,-67.632179,-77.438965,-60.887833,-88.445892,-94.24015,-92.747726,-58.180962,-89.618111,-89.757156,-86.226883,-52.790794,-82.379723,-78.159599,-70.814323,-45.52002,-71.245537,-69.138336,-61.510849,-19.152199,-19.634933,-10.62808,-1.424983,-18.253113,-7.440554,-1.594365,0.476404,0.404373,13.806373,14.867739,12.277927,17.154388,29.472823,26.208264,20.791518,31.188744,39.453697,34.746092,29.33617,25.231705,42.129593,52.861576,57.245579,54.175472,70.935402,80.87122,85.086193,40.617485,57.078552,68.360939,73.391762,24.963284,40.604897,45.90889,45.427723,9.648457,24.394569,31.642456,33.107758,10.748616,18.726276,27.638466,30.653923,-14.055073,-23.979784,-15.98959,-5.00589,-21.392164,-30.882431,-18.876514,-5.811084,-21.590754,-3.010518,14.970338,25.193983,-14.105214,6.123202,19.122528,26.190974,98.406458,65.895547,-84.667826,74.525785
58,-0.789642,1.839051,1.104012,1.960329,-23.59623,-49.090805,-67.375946,-77.518387,-59.611702,-87.596169,-93.307686,-92.011986,-56.869354,-90.256119,-102.057266,-108.775463,-51.490631,-82.693634,-80.452995,-73.924255,-44.743309,-71.181679,-70.250702,-63.162804,-19.148957,-18.452598,-8.907806,0.68015,-17.674913,-7.195621,-2.132828,-0.161385,0.695835,11.05249,14.438759,14.921308,17.877856,27.726552,24.550204,19.630332,32.566272,38.892571,33.969951,28.692761,25.299225,41.696606,51.814957,58.208141,53.515549,68.912773,79.132404,84.599133,40.511913,55.7654,67.163715,72.729778,25.118694,39.571095,43.909035,43.00827,9.850044,24.450874,30.714855,31.480751,10.962304,18.221898,26.807799,31.281925,-14.540524,-25.146003,-18.686045,-7.977073,-22.427225,-30.948751,-19.699586,-6.51118,-23.007277,-3.009592,15.380823,26.348036,-15.84991,5.140351,18.850795,26.748364,97.613325,67.499545,-83.567305,76.251061
59,-0.352592,1.956315,0.947113,1.223337,-25.90004,-52.203026,-71.417542,-81.312103,-60.764351,-89.165611,-93.275528,-91.354408,-57.133942,-89.422073,-92.442627,-91.700478,-51.701317,-82.255211,-79.472351,-72.967186,-45.285873,-72.026596,-71.105919,-64.178925,-19.342699,-19.341526,-9.679161,1.164767,-16.290222,-3.454164,0.959941,1.717063,1.901233,14.565471,14.723429,12.274654,18.478903,29.201276,25.135876,19.918861,32.380434,39.060377,33.645669,28.523287,24.933071,41.803608,52.183113,56.314201,54.024811,68.768692,78.321362,83.070087,40.448742,54.979191,66.262436,72.249298,24.35955,38.593311,42.873459,42.175369,8.30286,22.5313,28.79076,29.708862,11.334875,19.161986,28.507325,31.651007,-14.683106,-23.859155,-16.255333,-5.455155,-22.300266,-31.180099,-19.867454,-7.295132,-22.524574,-1.713543,16.420083,26.304286,-14.440241,7.601568,20.56403,27.42731,97.263651,69.16588,-82.617273,77.184418
60,0.203705,1.321613,0.899334,1.138184,-24.233665,-49.946136,-69.34948,-80.335236,-60.508118,-88.750305,-92.944679,-90.690536,-57.165756,-89.143639,-91.282654,-89.087677,-51.751442,-81.984215,-79.781914,-73.343697,-44.877434,-70.950279,-70.69416,-64.166222,-19.567347,-19.912871,-11.0934,-1.67004,-16.945054,-5.050474,0.032975,1.381048,1.37546,14.164557,15.492623,13.425898,17.926731,29.125539,26.147564,21.190241,31.800196,39.809194,35.082879,29.561095,25.393467,42.04937,52.377205,55.174828,52.792912,67.898083,76.659279,79.56665,38.251534,52.643452,63.034058,67.209606,22.074108,37.404957,43.224335,43.12048,6.604614,21.055012,27.790318,28.996582,11.522164,20.147554,29.270498,31.052152,-15.313454,-24.305734,-15.978969,-4.696489,-22.535473,-32.011228,-21.18175,-9.142087,-22.349296,-1.85208,16.852768,27.240638,-14.151033,7.663381,20.57709,26.951585,97.394285,70.131008,-81.79101,77.966116
61,1.062355,1.522827,0.863171,1.021784,-23.896294,-48.84716,-67.153816,-77.645988,-59.148331,-87.91111,-94.101219,-92.530861,-56.225052,-89.110451,-92.462883,-90.290565,-51.35685,-82.687111,-82.095566,-76.012001,-45.113411,-71.55899,-72.66964,-67.070618,-20.457356,-20.344877,-10.987066,-1.452401,-18.304026,-8.435847,-2.807976,-0.415395,0.044738,11.566223,13.44044,11.755488,16.640254,27.590918,25.125996,20.260156,30.557994,38.793029,34.344468,28.413279,26.021404,43.547516,53.200321,54.221935,52.919598,67.683163,77.183132,82.468815,37.832851,51.628246,62.820053,69.257355,21.279774,37.554646,43.222618,43.351593,5.360241,21.668873,28.784809,30.420799,10.43443,17.986444,27.823717,32.055472,-17.572068,-24.276094,-16.249374,-5.283581,-24.008251,-31.291836,-21.120493,-9.466215,-23.066064,-1.658647,16.668659,27.315171,-14.184625,7.943758,20.292513,26.950535,98.456039,71.564621,-80.92844,78.898687
62,0.32032,1.231334,-0.510349,-0.237955,-23.702888,-48.346138,-66.951485,-77.392502,-60.168343,-87.581406,-90.912094,-87.541351,-57.685776,-88.704185,-89.809914,-86.261101,-52.701874,-82.250862,-80.02739,-73.342896,-45.849724,-71.108093,-70.910454,-64.698715,-21.107588,-21.277833,-12.329118,-3.423999,-18.289731,-7.945734,-3.102125,-1.461107,-0.09877,11.414934,12.93912,11.002287,16.250516,27.093209,24.603772,19.762293,30.030399,38.289701,33.709396,27.828935,25.298424,42.461472,51.603241,53.592567,51.915779,67.204914,77.405205,82.872391,37.09013,52.365646,64.50531,71.342983,21.250248,37.654495,43.477707,44.119091,6.008606,22.134418,29.669838,31.606808,10.640893,17.623753,27.608239,32.955886,-18.092099,-25.197873,-16.553587,-5.218774,-23.576832,-29.685553,-17.588277,-4.382952,-21.802866,0.20708,16.867125,26.201379,-12.358264,9.996867,20.95139,26.626345,98.732529,72.684573,-81.48262,78.549349
63,-1.152306,0.169289,0.345783,-0.267071,-24.135475,-48.761559,-66.949768,-76.402016,-59.910736,-87.020302,-91.880493,-89.555855,-57.094116,-88.004837,-90.269165,-87.500038,-51.904907,-81.537781,-79.416046,-72.672501,-45.030212,-70.432549,-70.373611,-64.187965,-21.057137,-21.370768,-12.680138,-2.907179,-18.06604,-7.328724,-2.305205,-0.710871,-0.103926,12.192217,13.701459,11.777255,16.258575,27.599285,24.995702,20.107046,29.917272,38.190623,33.459275,27.539294,25.617085,43.676662,52.371025,50.971584,51.727982,66.751785,77.041111,82.888012,36.737366,51.37928,63.769913,71.092701,20.64537,36.757164,43.279095,44.271069,5.273838,21.596031,29.537716,31.856861,10.220959,17.969277,27.977383,32.338722,-18.286613,-25.275092,-16.463339,-4.669041,-23.688817,-29.352503,-16.853293,-2.938362,-21.800643,-0.135203,17.821478,28.954923,-12.32106,9.504006,20.962011,27.70988,97.52389,72.798008,-81.193171,78.226425
64,-0.846176,0.265805,0.828838,1.003784,-23.646469,-48.251839,-66.864624,-76.84742,-59.197769,-86.935043,-90.961876,-88.011703,-56.348991,-87.77813,-88.420486,-84.413795,-51.029778,-81.360397,-78.832855,-72.072372,-43.894157,-69.591408,-69.176445,-62.81456,-21.214416,-21.461356,-13.017975,-3.51471,-17.3037,-5.566831,-1.651422,-1.017184,0.492923,13.401414,13.743727,11.358371,16.460035,28.202185,24.797144,19.839543,29.653381,38.167806,33.000161,27.171663,25.160465,43.125973,52.189407,50.732689,51.649818,65.969353,75.806122,81.52359,36.744232,50.601711,62.735538,70.116177,20.70591,35.867672,41.436481,41.994324,5.258675,21.236572,28.991375,30.993118,9.927367,17.516276,27.125999,30.673282,-19.080507,-25.421502,-16.585667,-5.333507,-24.449458,-29.883896,-18.168731,-5.440613,-22.766235,-0.163669,16.225199,25.141927,-13.267755,9.519351,20.367787,26.069141,96.56662,72.949343,-80.475426,79.115739
65,-0.45639,-0.204054,0.065975,-0.086265,-24.277153,-49.177666,-67.833252,-77.872696,-59.970474,-87.347488,-90.467949,-87.252388,-56.779861,-87.240829,-87.430916,-83.455009,-51.307526,-80.902519,-78.094711,-71.436653,-44.129219,-69.483604,-68.971367,-62.687416,-21.049573,-21.309728,-12.452526,-3.008665,-17.153493,-4.517135,-0.622413,-0.226377,0.828629,13.78016,14.383493,12.085451,17.059292,28.528567,25.275185,20.394432,30.554474,38.673357,33.600653,27.921499,24.864235,42.738991,51.670532,50.575676,51.106224,65.373974,75.491924,82.010822,36.243095,50.239334,62.499561,70.301685,20.346565,35.494366,40.835094,41.589317,4.817905,20.803699,28.403206,30.709362,10.31306,17.924786,27.579278,31.731653,-18.342775,-24.636809,-15.865966,-4.725358,-23.914947,-29.114609,-17.230464,-4.368656,-22.443095,1.307472,18.103276,27.158912,-12.914419,10.844515,21.631849,27.194357,95.993471,72.641209,-80.526209,78.925394
66,-1.052628,0.549301,-0.469666,-0.508669,-23.897667,-49.218178,-68.766632,-79.543304,-58.739548,-86.87336,-90.993919,-88.467751,-55.638657,-87.50679,-88.06366,-84.090042,-50.390282,-81.260948,-78.189926,-71.120682,-43.638382,-69.944,-69.011993,-62.151031,-20.895351,-21.348383,-13.17442,-3.744638,-15.675774,-4.207457,-1.384352,-1.354619,2.110814,14.14421,13.281186,10.582168,17.956927,28.380952,24.12922,19.452028,30.828646,38.213316,32.689279,27.306804,25.062103,43.406639,52.722588,51.06245,51.658516,65.33638,75.482883,82.410679,36.98164,50.629234,63.011513,71.142311,21.092033,36.275196,40.210419,39.883518,5.297012,21.18536,27.566471,29.009743,9.940489,17.812987,27.505393,31.478755,-17.740245,-22.454642,-14.130069,-3.652135,-23.27583,-27.427557,-16.658069,-4.841356,-21.920717,3.330755,20.061319,28.311885,-12.513042,12.637191,23.015181,27.563995,94.891376,73.138469,-81.045341,78.364685
67,-0.18013,-0.839095,0.091496,0.773578,-24.668655,-49.634056,-68.28701,-78.463669,-59.010086,-86.565742,-92.917671,-92.147827,-55.810089,-87.944984,-90.50457,-87.965469,-50.482521,-81.501045,-79.224129,-72.618713,-43.631859,-70.145645,-69.300499,-62.480736,-20.048043,-20.017631,-11.802881,-2.658108,-15.258866,-4.413889,-0.112972,1.186102,2.262535,14.242177,14.474482,12.408684,18.074376,29.151351,25.408102,20.810414,31.197852,39.243004,33.981375,28.589144,23.857155,41.609974,51.697712,51.048203,50.376434,64.584789,75.175209,82.156105,36.062851,50.119915,62.357826,70.108051,20.312061,35.987434,40.787373,40.825653,4.804401,20.980453,27.917862,29.421959,10.615822,18.463682,27.794725,31.394156,-16.239123,-22.523154,-15.127894,-4.910393,-22.069165,-28.182548,-18.563841,-7.747824,-20.94929,2.482984,18.660511,26.508001,-11.887201,12.211144,22.90826,27.771661,94.701719,72.150756,-80.963373,78.989645
68,1.353836,0.377604,1.355038,0.720319,-24.363327,-49.398766,-67.824898,-77.794304,-57.975769,-85.673218,-92.620926,-91.937027,-55.377731,-88.953209,-97.594185,-100.162926,-50.437431,-82.744904,-81.242752,-74.566841,-44.046364,-71.513214,-70.986557,-63.902321,-19.887399,-19.731819,-11.092782,-2.248487,-16.092713,-7.412118,-3.320289,-1.400036,1.624067,12.043275,13.659562,13.207178,17.717459,27.585545,24.078338,19.995401,31.212518,38.564954,33.247225,28.148092,23.835812,41.521969,51.575375,49.712391,49.304295,63.696556,74.236507,80.468273,34.632854,48.259964,60.633831,68.244381,18.47826,34.55143,41.675777,43.266392,3.238735,18.813229,26.865463,29.268551,11.06308,18.802043,27.846904,30.744357,-16.768324,-25.145818,-17.738732,-6.382893,-22.668391,-30.093291,-20.293594,-8.59223,-21.46608,-0.34148,16.257895,25.561583,-12.761124,9.781512,20.960869,26.954209,96.060877,72.342738,-79.603014,79.524342
69,0.761948,0.875621,-0.37199,-0.862592,-24.732742,-49.909058,-68.530426,-78.546181,-59.543724,-86.923714,-93.574219,-92.702293,-56.96949,-89.598198,-95.554161,-96.008377,-52.077827,-83.372498,-81.667328,-75.196609,-45.631256,-72.355957,-71.574211,-64.561501,-20.48045,-20.562733,-12.162608,-3.111325,-16.553433,-7.56918,-3.343106,-1.396887,1.377744,12.18243,13.266026,12.286387,17.423774,27.408075,23.932607,19.714714,30.644105,37.722493,32.557596,27.604194,23.78088,41.076565,50.743561,51.485939,49.246387,63.65593,74.172935,81.083908,34.902592,49.177437,61.536083,69.671745,19.452896,34.983044,40.321827,41.281013,4.503822,19.567108,26.243134,27.940292,11.381064,18.990289,28.443104,32.302412,-16.738622,-22.646161,-14.776071,-4.217955,-22.04394,-27.948514,-17.247724,-5.279259,-20.715843,2.4765,18.458001,26.717088,-11.93691,12.093849,22.006087,26.509452,96.857243,73.063473,-79.940586,78.506865
70,0.569115,0.666966,0.886803,1.369593,-24.924889,-50.283508,-69.472389,-80.063782,-59.853859,-88.221931,-94.161072,-92.675514,-57.040443,-89.693069,-90.443916,-86.429558,-52.174873,-83.737907,-80.896339,-73.826294,-45.70118,-72.91317,-71.751022,-64.394989,-20.510739,-21.044757,-13.040329,-4.049469,-17.332353,-7.686074,-3.13794,-1.149391,0.638623,12.441782,12.791443,10.787735,16.721085,27.486652,24.044746,19.825371,30.088722,37.608903,32.508998,27.648438,23.06179,40.354614,50.645428,51.311302,48.761787,62.786465,72.808228,79.090576,34.566364,47.602158,59.532852,67.463779,18.774776,33.446331,39.837971,41.37394,3.35043,17.906742,25.550194,28.229485,11.437411,18.94657,27.493414,29.932524,-15.595993,-22.770897,-15.56416,-4.9597,-21.652504,-29.181794,-19.719932,-8.625637,-21.006564,-1.116262,16.085921,26.353779,-12.832446,8.515135,20.332651,27.428329,97.441406,73.514344,-79.038734,79.660363
71,-0.476074,-0.308721,-0.293598,-1.399727,-25.923729,-51.861649,-70.912399,-80.469131,-60.436707,-87.746429,-94.657631,-94.301834,-57.053833,-89.758415,-95.95768,-96.535492,-51.637802,-83.14682,-80.933304,-73.838768,-45.004349,-72.297363,-71.330223,-64.029236,-20.291155,-20.331972,-11.603366,-1.548392,-16.624415,-5.851531,-1.128705,0.802292,1.002024,13.433524,14.954807,13.726437,17.004828,28.435787,24.800725,19.919294,30.598194,38.350124,33.073953,27.605707,23.896008,40.73988,50.704937,52.720013,48.522434,62.171116,72.491455,79.377995,34.146824,47.521305,59.483414,67.576504,18.443241,34.395103,40.664635,42.274876,3.283825,18.774891,26.654205,29.58292,10.999014,18.038376,26.963379,31.885628,-16.763384,-21.453297,-13.891774,-3.729169,-21.275271,-26.177173,-15.85837,-4.585894,-19.156182,1.310097,18.572764,28.756518,-10.166619,11.017385,22.62001,29.370904,97.004814,72.972345,-79.29285,78.027357
72,-0.680122,3.1e-05,1.225147,0.733471,-25.401077,-51.01593,-70.294075,-80.748138,-61.224861,-88.985023,-93.000984,-90.542679,-57.673531,-89.172592,-87.341194,-81.834641,-51.88797,-82.208519,-77.792244,-70.268097,-44.547501,-70.935516,-68.871346,-61.569214,-20.325704,-20.59969,-11.773673,-2.337068,-17.322812,-4.166208,0.855367,1.964651,0.454082,15.265782,16.065265,13.351581,16.691507,29.652208,26.701249,21.874898,30.635676,39.706132,35.09384,29.844098,23.607788,40.907593,50.379868,51.336651,48.710403,61.301823,71.238155,78.963318,33.721333,45.880108,57.46748,66.149597,17.204189,32.737885,39.670658,42.092056,1.267033,17.205677,25.161839,28.358746,10.642066,18.000276,27.075364,32.047074,-16.849773,-20.459054,-13.359331,-4.064906,-21.77582,-25.646058,-16.108768,-6.465762,-19.814843,0.444665,18.424316,28.889714,-10.479168,10.075475,22.33957,29.718683,96.372042,72.819559,-78.020353,78.608012
73,-0.480537,-0.315575,0.576954,-0.859164,-25.55809,-50.972557,-70.446854,-81.036873,-60.507317,-88.500938,-90.628395,-86.726532,-56.893616,-88.416138,-86.835365,-81.945534,-51.073265,-81.139183,-76.933594,-69.677925,-43.726158,-69.80999,-67.733803,-60.534325,-20.335059,-20.593546,-11.987669,-2.858674,-15.597351,-2.938702,0.541304,0.717293,2.325768,16.135105,15.852751,13.084326,18.343948,30.530639,26.54221,21.640308,31.718686,40.00698,34.614718,29.385354,23.41095,40.647182,49.808178,50.794773,47.848377,60.401459,70.21471,78.180027,32.883625,44.285889,55.400391,64.37748,16.373405,31.509018,38.883533,42.310009,0.785465,15.950947,24.066696,28.007755,10.211851,17.226235,26.244018,32.474789,-16.971607,-19.440512,-12.281972,-2.723656,-21.494022,-24.71551,-15.944111,-6.477217,-19.22877,0.467296,18.131341,28.899625,-9.880375,9.37328,21.468488,29.446734,95.898056,72.226385,-77.436848,77.471249
74,0.026093,-0.138846,0.95295,-0.894331,-24.420662,-49.466972,-68.026199,-78.435974,-59.601517,-87.507591,-92.755051,-90.76561,-56.623077,-88.969688,-91.038094,-88.863831,-51.165504,-81.681633,-78.218651,-71.227684,-43.997955,-70.003052,-68.254738,-61.137886,-20.017477,-19.849886,-11.148574,-2.058944,-16.686906,-5.693234,-0.815198,0.662705,1.080323,14.015244,15.135427,13.118258,17.394041,29.388935,26.448504,21.88694,31.179944,39.774212,35.188503,30.14297,23.007774,40.69376,49.574261,49.84251,46.306686,58.414135,68.066025,76.147556,31.461868,42.701569,53.626842,62.42672,15.214977,29.870796,37.209148,41.04166,-0.090752,14.792633,22.704105,26.970062,9.920327,16.695922,25.700058,32.388431,-16.674834,-19.463359,-12.104501,-2.403727,-21.040249,-23.524777,-14.075852,-3.856838,-18.445466,1.963879,19.410285,30.070475,-8.88363,10.440019,21.972989,29.603055,95.959711,72.043851,-76.448336,76.533229
75,-0.242844,-0.033283,0.429039,-0.397827,-25.68615,-50.694695,-69.800835,-80.597649,-60.179672,-87.942352,-92.445374,-90.469666,-56.860771,-88.645248,-88.034477,-83.835411,-51.229362,-81.343117,-77.11647,-70.009232,-43.973579,-70.105476,-67.786789,-60.43705,-20.018496,-20.253734,-11.602038,-2.586076,-15.660182,-3.730991,0.653505,1.665841,1.945663,15.676978,15.760064,13.202763,17.971068,30.200583,26.612328,21.932233,31.717512,40.250895,35.240404,30.202281,22.802181,39.737549,48.509102,48.893623,45.300922,57.062244,66.289043,74.004421,31.022415,42.316418,53.47887,62.410126,15.024891,29.077606,36.148109,39.694519,-0.574551,13.553238,21.396389,25.852032,9.450684,16.501563,25.983462,33.290512,-16.119544,-18.23959,-10.570158,-1.019839,-20.624699,-22.563662,-13.077101,-3.201327,-18.225202,1.723794,19.046081,29.443183,-8.476016,10.539653,22.052307,29.802941,95.718613,71.903816,-76.017551,76.028651
76,0.353737,-0.160211,0.564594,-1.081342,-24.49894,-49.006805,-66.969109,-77.285271,-60.194092,-87.213707,-93.908043,-93.333549,-57.597656,-89.41246,-93.431511,-92.63031,-52.126694,-81.789551,-78.343506,-71.342125,-44.673843,-70.248528,-67.90844,-60.470009,-19.866991,-19.503374,-10.640707,-1.953814,-16.573039,-6.026778,-0.471557,1.693629,1.07526,13.697044,15.49747,14.102096,17.416982,29.146966,26.661173,22.401475,31.564927,40.074937,35.770501,31.023654,22.699413,39.545631,48.845215,51.750355,43.578587,55.195656,64.924908,72.966042,29.468765,41.097736,52.473392,61.42662,13.591518,28.369446,35.729198,39.541225,-1.942921,13.078537,20.949326,25.492573,8.619431,15.074202,24.055614,31.776731,-15.249357,-17.846054,-10.201292,0.025966,-19.01113,-20.60673,-11.004541,-0.418236,-16.055292,2.550416,19.181747,29.975966,-6.360756,11.498976,22.480392,30.476916,96.071119,71.672206,-75.454187,74.87591
77,0.648766,0.071847,-0.749817,-0.346574,-25.229874,-50.415001,-69.797058,-81.045227,-61.264687,-88.357086,-93.6446,-92.322807,-58.386726,-89.292297,-89.033089,-84.880943,-52.932816,-82.28714,-78.445358,-71.443748,-45.543022,-70.853462,-68.671761,-61.433144,-19.963877,-19.932076,-11.499007,-2.721464,-14.926834,-3.637995,0.64983,1.870389,2.648907,15.627053,15.525319,13.037642,18.426014,30.230655,26.616249,21.910312,31.770649,40.335369,35.431769,30.25798,22.160511,38.182411,46.621628,50.398979,43.833618,55.949593,65.372257,73.253746,30.103455,42.554111,53.520584,62.371559,14.615879,29.748058,36.246643,39.503288,-0.860081,14.543438,21.789036,26.180134,8.690846,15.385331,24.220518,33.495091,-14.38411,-16.79182,-8.982369,1.397998,-18.472852,-19.619125,-10.103695,0.174846,-15.728108,4.154629,21.761247,33.044097,-6.090598,12.504273,23.828218,31.618897,96.714621,71.678705,-76.209269,74.463988
78,0.458107,0.235454,-0.028725,0.777067,-24.243164,-49.428406,-67.410049,-77.377167,-60.543022,-88.162994,-94.797478,-93.683281,-57.854233,-89.951019,-95.108986,-95.2985,-52.461777,-82.541313,-79.598808,-72.651672,-45.248566,-71.11084,-69.323387,-62.008438,-19.936923,-19.413033,-10.132502,-0.821898,-17.132621,-7.077431,-1.349864,1.18181,0.693673,12.551697,15.109677,14.527248,17.286194,28.437238,26.353038,22.334537,31.550261,39.490099,35.393422,30.748371,21.644325,36.83773,44.860954,48.210297,44.060268,56.42149,65.623283,73.068123,30.301094,42.379589,53.297424,62.15538,14.570618,29.322338,36.664753,40.708351,-0.852757,14.217453,21.70023,26.122456,9.765828,16.654981,25.343203,34.15054,-14.010026,-17.335224,-9.824244,0.832396,-19.200395,-22.15435,-12.719195,-2.206527,-17.147842,1.132904,19.013106,31.007105,-7.889788,10.289039,21.897622,30.305435,97.173243,71.809477,-76.237478,75.136373
79,-0.06752,0.306251,0.384808,-0.150856,-25.126534,-50.175247,-68.987503,-79.475784,-61.080208,-88.944626,-92.921562,-90.17395,-58.276749,-89.282112,-87.599487,-82.654152,-52.892075,-82.17041,-77.422829,-69.861145,-45.669136,-70.698509,-68.035126,-60.589256,-20.283189,-20.268924,-11.467175,-2.515249,-16.425826,-5.216335,-0.666071,0.453402,1.378763,14.402265,14.866443,12.295835,17.450759,29.088365,26.119529,21.507977,31.101737,39.248963,34.826553,30.076032,21.803284,37.786617,46.187897,49.160442,44.346428,56.560421,65.968952,73.538189,30.259609,42.126675,53.073349,61.709232,14.181919,29.46207,37.220135,41.500683,-1.508217,14.095402,21.848946,26.353054,9.358398,15.790198,23.806173,32.137477,-14.423661,-18.066071,-10.267334,0.573383,-19.172669,-22.165063,-12.405812,-1.676308,-16.684189,1.771064,19.345169,30.817222,-7.107225,11.449267,22.781518,30.768625,97.092018,72.08828,-75.866375,74.958069
80,0.238495,-0.268738,0.72155,0.244439,-25.112343,-50.826187,-69.985771,-81.029434,-60.846977,-88.473587,-93.285255,-91.385536,-57.833176,-89.262428,-89.207611,-85.575485,-52.406731,-82.331657,-78.042984,-70.689011,-45.229111,-70.878067,-68.282776,-60.80143,-20.162992,-20.237185,-11.224434,-2.064255,-17.514238,-5.785118,-0.659278,0.715255,0.470538,13.555049,14.536294,12.208674,16.989391,28.944116,26.143982,21.541014,31.1156,39.34094,35.063242,30.324331,22.390079,38.815384,47.602386,51.40646,43.850498,56.091042,66.135693,74.58189,29.482555,41.139164,52.414284,61.65493,12.998943,27.595997,35.927525,40.992107,-2.941418,11.81076,19.972057,25.130482,9.878677,15.84108,23.227356,30.970302,-14.800647,-19.638885,-12.172457,-1.180915,-19.183259,-23.224052,-13.156296,-1.672911,-16.378772,-0.167621,17.03135,29.231842,-6.746757,10.078161,21.357553,30.115151,97.308912,71.818137,-75.166426,75.201103
81,-0.081825,0.130787,0.954552,0.962071,-25.219803,-50.91156,-70.379333,-81.78772,-60.776825,-87.990303,-93.140373,-91.672897,-57.758331,-89.532852,-92.228966,-90.463943,-52.253265,-82.238274,-78.459435,-71.094589,-45.08812,-70.889168,-68.654137,-61.177483,-20.361457,-20.583296,-11.991652,-2.838172,-17.232255,-5.684712,-1.000851,0.155611,0.645693,13.543903,14.726918,12.831242,17.027398,28.707303,25.537871,20.792753,31.053171,39.10527,34.434407,29.27093,22.978191,39.068184,47.715511,50.407848,44.286518,55.724716,64.979439,72.983379,29.450569,40.106621,50.34565,58.695316,12.756157,26.879768,34.462681,38.836327,-3.492222,11.046581,18.896484,23.92828,9.772497,16.031549,24.056324,31.672867,-16.223871,-20.47375,-12.702029,-2.236013,-20.659218,-24.520996,-14.703051,-4.22345,-17.957421,-0.35843,17.280019,28.944734,-7.901953,9.419346,20.988039,29.448617,97.209091,71.921353,-74.22987,76.135603
82,0.340118,0.222548,-0.293026,-1.245537,-25.45063,-51.203842,-70.810661,-82.342415,-60.774193,-88.107033,-93.466415,-92.075157,-58.011932,-89.865303,-92.74086,-91.037292,-52.86026,-82.898827,-79.111404,-71.557732,-46.042557,-71.873932,-69.56131,-61.820984,-20.151352,-20.668172,-12.307351,-3.097648,-17.269491,-6.076426,-1.56528,-0.53658,0.367353,12.791814,13.887174,12.038305,16.641149,27.710652,24.784145,20.262657,30.688905,38.54788,34.201855,29.359913,23.24501,40.334988,49.743919,52.043324,43.372307,54.773827,64.320259,72.512627,29.000816,40.446339,51.232796,60.315571,13.210659,27.147274,34.299774,38.308582,-2.486515,11.760864,19.700489,24.854794,8.21898,14.406464,23.191849,30.319545,-16.854682,-19.375489,-11.938979,-2.201526,-20.392456,-21.145286,-11.238945,-0.743197,-17.036383,3.120681,20.222179,31.455073,-6.79131,11.767251,22.698927,30.607981,97.54406,72.133358,-74.528046,74.879522
83,0.652313,-0.210538,0.271111,-0.018587,-24.918022,-50.264854,-69.307938,-80.441437,-61.005821,-88.250542,-94.380341,-93.600197,-58.399773,-89.772034,-90.913239,-87.7882,-53.33622,-82.804413,-78.887787,-71.38401,-46.39595,-71.911125,-69.798546,-62.393074,-20.356085,-20.909338,-12.248812,-3.857425,-18.840792,-7.740816,-2.021276,-0.109947,-0.963337,11.594967,13.534888,11.728009,15.686148,26.919845,24.765435,20.419194,30.250817,38.268768,34.33854,29.634949,22.411709,39.593067,49.672337,54.353485,42.565956,54.036312,63.65118,71.882629,28.577499,39.955559,50.464153,59.235249,13.121681,27.184525,34.372673,38.043365,-2.667446,11.407127,19.199238,24.183311,7.980994,14.163352,22.581416,29.795222,-16.423078,-18.462293,-11.672804,-2.162499,-20.026647,-20.898038,-11.833417,-2.255002,-16.947771,3.030278,20.064283,31.012632,-6.949885,11.406474,22.449517,30.264155,98.195686,71.981622,-74.257622,74.919737
84,-0.377312,0.465382,0.505199,0.980813,-24.730797,-50.244141,-69.171181,-79.309273,-60.553551,-87.312126,-91.386681,-88.769073,-57.919807,-89.693871,-94.514351,-94.153633,-52.642937,-82.868271,-79.124794,-71.198959,-45.69397,-72.214394,-70.23571,-62.33448,-21.084956,-21.818798,-13.167256,-3.510357,-19.398738,-8.612824,-3.922818,-2.525376,-1.060532,11.04968,13.203658,12.150783,15.843427,26.798907,23.831028,19.238866,30.381388,37.976503,33.110633,27.86228,21.971855,38.366089,47.315712,50.593758,43.062401,54.208317,63.614216,71.620274,28.694458,39.904633,50.608406,59.191532,12.784653,26.541481,33.342876,36.555233,-3.80682,10.850201,18.784332,23.718681,7.06857,14.090734,23.621169,31.668637,-17.00489,-17.712673,-11.157682,-2.248641,-20.973157,-20.780033,-13.054408,-5.254034,-18.215445,1.516528,18.903499,29.962195,-8.308919,9.894824,21.865883,30.252391,97.817631,72.451589,-73.753166,75.905135
85,-0.962563,-1.085047,-2.688847,1.108976,-23.578491,-48.67424,-66.34037,-75.793991,-60.053902,-87.087936,-94.078789,-94.464226,-57.31636,-90.660667,-104.081497,-112.183971,-51.609535,-82.315979,-78.213158,-70.358391,-44.178085,-70.377159,-67.596703,-59.786797,-19.142751,-18.346727,-8.715206,0.603641,-19.040894,-7.272439,-1.162482,1.201323,-1.645309,9.102813,13.596082,14.965058,15.349084,26.456871,24.311322,19.865447,30.859552,38.152369,33.909127,29.282107,21.250362,36.165676,44.799042,49.75256,43.36853,55.653763,65.541515,74.156113,30.209084,43.358288,54.960365,63.930931,15.355625,29.086704,35.054913,37.360325,-0.167656,14.010658,21.025143,24.807129,9.033066,16.507861,25.4253,32.627065,-15.241391,-18.411534,-12.858628,-4.666602,-20.382236,-22.611025,-15.740859,-8.022552,-18.368494,2.14382,18.705867,28.612609,-8.711933,10.541444,21.144792,28.07467,96.852579,71.383507,-76.444502,77.031076
86,0.700378,0.371058,-1.391087,2.580056,-23.938065,-49.753304,-68.600121,-79.023285,-59.038696,-86.364555,-95.737495,-98.306465,-57.059212,-91.215248,-108.684769,-121.020126,-51.580124,-83.405457,-78.789024,-70.782394,-44.28051,-71.265678,-68.075981,-60.20874,-18.981768,-19.040678,-10.68384,-2.413885,-18.591166,-7.729577,-2.569867,0.126928,-0.625161,8.563177,12.897068,15.735086,16.463617,26.634743,23.243658,19.183043,31.815541,38.043997,32.815867,28.368479,20.096855,35.659103,45.937214,52.464237,42.000332,56.172752,66.678715,74.689007,29.992046,44.567585,56.384754,65.841522,16.34079,32.19326,37.772484,39.408875,2.359428,18.232555,25.300713,28.212833,9.2872,16.160268,24.296626,29.780433,-16.323382,-20.353245,-15.707514,-7.565506,-21.775449,-25.730347,-19.87332,-12.693631,-20.193218,-0.382636,16.413723,26.811782,-11.153545,7.526295,18.790558,26.41309,97.499456,71.76568,-77.88909,79.622247
87,-0.236206,-0.619326,-9.126492,0.943917,-23.024826,-50.2351,-70.656624,-81.68026,-58.236923,-88.42083,-102.395554,-110.689259,-54.920654,-91.558685,-112.348022,-129.150753,-49.000511,-82.942886,-77.570229,-70.132942,-41.815224,-70.383568,-66.720428,-58.827896,-17.628384,-16.059152,-5.650965,4.180009,-18.464979,-6.558789,-0.368279,3.280305,-0.923632,9.552079,15.590559,20.079011,16.445586,28.224878,24.281868,19.659386,32.445087,38.984424,34.019228,29.820138,33.514023,55.293674,65.596275,62.866917,67.34911,86.52523,97.012711,106.304054,50.454082,64.433041,73.905201,81.009865,33.016663,43.628998,48.584404,51.024742,15.9375,28.483028,34.173489,36.490688,11.334813,17.034469,23.227819,26.937382,-16.901242,-26.113323,-22.196093,-17.810579,-24.17155,-34.308622,-26.531126,-21.35743,-23.509246,-5.558649,13.853581,23.039604,-14.66455,5.602677,20.339598,26.971376,97.152843,71.279628,-87.125988,80.699437
88,1.877174,-0.01516,0.3265,5.22569,-21.211967,-47.906914,-68.154144,-79.207191,-58.534813,-90.223732,-107.482338,-120.832272,-55.176086,-92.158012,-112.827473,-129.720097,-49.220009,-82.955017,-75.542221,-66.851921,-41.931038,-70.423851,-65.904579,-57.537804,-16.487298,-16.098394,-6.772013,1.035832,-18.371921,-5.096972,2.4003,7.640718,-1.296635,9.16197,15.297769,19.924017,15.985453,29.073977,25.835631,21.685417,32.443944,40.229776,35.614488,31.382547,30.19701,50.031281,61.257706,62.269363,59.138947,76.92524,89.789314,99.770851,43.80724,57.650585,68.727379,76.060123,27.054234,41.958618,47.802315,48.571415,11.555042,25.773754,32.078762,33.846703,7.541393,13.474619,20.934903,22.117763,-21.375368,-36.175491,-37.279002,-35.8957,-28.611127,-42.326357,-40.403109,-36.309427,-28.639224,-8.906447,11.038257,23.394329,-20.874418,-1.256497,14.301457,24.259082,98.786888,71.176041,-87.042618,85.8367
89,2.620125,4.786213,-0.29211,0.213317,-19.894753,-45.858307,-63.77861,-72.815781,-60.307388,-91.165581,-108.208637,-121.710777,-57.520523,-92.735481,-113.203468,-129.392738,-50.859947,-81.121445,-72.830887,-63.503952,-42.429543,-68.848,-63.355522,-54.301529,-17.653177,-18.456828,-8.347976,1.25801,-20.274173,-8.658519,-1.319761,5.177062,-2.377051,7.698331,14.917819,21.534715,15.097204,28.141639,24.714337,20.634857,31.570886,39.802741,35.105665,30.789249,28.725586,48.892193,61.72451,66.046371,56.951923,71.182709,82.494907,92.132778,41.695633,53.561382,65.435028,74.875774,25.240059,42.067051,48.158569,49.233055,10.886192,26.524429,33.488331,35.415516,6.593524,11.268555,18.796918,20.930395,-21.666583,-38.646434,-41.698262,-40.886492,-28.92766,-42.996287,-40.682592,-34.955457,-29.295106,-10.197463,7.653068,18.817728,-21.321275,-1.436037,12.18947,21.04522,100.737219,75.568209,-88.004522,85.655972
90,0.906143,7.821091,-1.428223,1.447615,-21.610909,-49.0131,-66.870575,-74.044533,-60.2108,-92.086945,-110.035572,-124.879303,-56.08017,-92.408638,-113.844738,-131.175156,-48.600426,-79.539413,-74.577942,-66.730156,-39.360237,-64.025803,-61.153908,-54.413452,-18.21242,-17.63635,-3.17215,10.823489,-18.77265,-6.152718,1.353754,7.911339,-1.248501,12.256623,20.0578,26.413461,15.038942,32.879501,28.353906,21.828616,29.30656,40.17312,35.597754,29.703862,31.161461,52.426529,68.055611,75.033245,51.319199,66.149082,79.951801,92.89793,36.172829,49.673595,64.823799,76.465931,21.186104,42.191792,47.793503,47.530575,9.113159,27.982979,34.453068,35.201912,5.370927,6.360416,12.102803,15.971528,-25.965184,-43.05884,-47.722355,-49.196399,-31.609388,-43.562569,-41.709285,-36.375315,-30.37898,-11.009944,7.6757,19.376446,-20.998938,-2.44652,9.667367,17.030517,101.327534,83.009566,-89.748573,86.723853
91,-0.545654,9.528613,-3.160172,4.383785,-23.229332,-48.717728,-66.529999,-75.560532,-59.323883,-92.3489,-111.475468,-126.807117,-53.968506,-89.851685,-111.635513,-128.90213,-45.761604,-74.160919,-85.086479,-91.492882,-36.922531,-60.367241,-66.744347,-69.167175,-17.725394,-16.61225,-0.139556,16.245823,-15.963068,-2.709732,5.235323,11.512778,0.90168,15.265782,23.37954,29.948024,17.189987,38.299705,46.095139,49.856356,31.240583,43.555591,45.769529,45.178516,27.709408,49.103222,61.624432,59.483929,50.577221,67.183113,80.987377,93.408222,34.866886,50.186863,66.064739,79.189854,19.486313,41.914215,48.583088,48.809738,7.184944,28.5676,35.82756,36.284523,3.235351,3.89182,9.466215,12.251251,-29.134369,-41.813458,-45.343019,-47.00216,-33.464185,-44.738667,-44.300703,-41.404238,-30.432857,-10.809965,6.975049,16.71173,-18.435956,0.305912,11.156107,17.172851,100.459414,90.937748,-93.231211,89.507207
92,0.476875,11.754747,-3.653126,5.374725,-24.005356,-49.02935,-66.072235,-74.892654,-60.590858,-93.378754,-111.501503,-125.362358,-53.730583,-89.684601,-110.366421,-125.933132,-44.261169,-73.985596,-91.113968,-103.735542,-34.596519,-59.596024,-71.58165,-80.881348,-16.366391,-15.58321,-1.649354,13.45279,-11.235951,1.86582,10.847571,16.991429,5.155449,22.563971,32.874931,39.617706,20.923201,42.053142,54.042602,61.247084,34.099998,47.226283,55.102363,59.110705,27.00285,49.332275,60.396595,58.38026,48.743649,67.418461,82.143459,95.33329,32.115211,51.050835,69.442005,84.027786,17.014847,42.952137,51.863823,53.050232,5.236015,30.399055,38.895721,39.399948,-0.229989,0.23073,6.824192,14.103115,-34.291054,-45.123681,-45.293557,-43.254682,-36.596536,-44.812305,-41.983796,-36.706297,-30.289411,-9.133627,7.851627,16.580541,-15.304284,2.45955,11.682406,15.941949,100.454264,100.966817,-97.366362,93.156255
93,-2.722206,14.7845,-5.113106,3.48967,-23.915863,-49.229965,-65.290718,-72.748489,-61.568985,-92.771759,-110.084209,-123.616734,-55.193825,-89.519691,-109.12096,-123.856888,-45.692024,-73.8937,-92.023773,-105.969315,-35.432625,-59.245262,-72.27253,-83.978806,-17.128484,-16.131245,-3.627837,10.081249,-6.511735,6.717642,16.423788,24.56842,10.346312,28.878414,41.216578,49.752029,25.679187,47.625098,61.560005,70.646701,37.76541,51.932189,61.897038,68.421649,27.671642,50.287914,61.585751,60.417366,46.6539,68.356876,83.621464,96.053009,31.479721,56.030159,73.783836,86.411476,19.176464,48.251896,53.451405,53.970852,9.918022,37.467785,42.538891,41.554871,-1.658554,0.056131,8.622519,19.438752,-34.31458,-42.366525,-38.727234,-34.4571,-32.544227,-38.091915,-31.058666,-22.897979,-22.809244,-0.85796,11.598734,15.900885,-5.836371,12.895369,18.382326,19.938158,96.95446,114.350216,-103.257065,95.244823
94,-1.685028,16.964166,-1.219425,7.894173,-23.868484,-49.85733,-66.113205,-72.539864,-62.360802,-91.413116,-108.922291,-123.215275,-56.967773,-88.860168,-108.389969,-124.327755,-48.506012,-76.903725,-95.725708,-110.751801,-38.860474,-60.844688,-74.004822,-86.654434,-19.17375,-16.597924,-3.363792,9.355496,-3.373672,11.865589,22.418672,31.626091,13.366062,32.261256,46.340473,57.142411,28.455948,48.591708,61.981791,70.95357,40.369085,54.547412,65.21109,72.98732,28.274117,51.603012,63.786278,68.3111,44.252186,68.57769,85.690327,100.007915,30.334797,56.799316,76.81675,92.178211,18.762817,47.215347,57.966843,64.210396,9.4174,35.403328,44.836006,48.849907,-4.154382,-4.134499,2.990295,12.85446,-33.445135,-38.756565,-35.300395,-30.708912,-29.51963,-30.733983,-21.058187,-11.267412,-17.235991,1.993921,17.677476,27.131433,-0.019915,14.535954,23.107838,29.200751,95.041351,129.546961,-104.704571,101.371576
95,-0.290565,17.755775,-1.728916,9.212544,-25.589333,-53.568764,-70.290527,-76.510277,-62.575951,-92.264442,-111.447487,-127.70319,-55.295792,-87.282143,-108.038864,-126.332932,-46.47995,-76.359215,-96.785431,-113.804798,-37.153587,-60.018082,-74.23336,-88.903885,-19.381911,-15.396107,-0.637326,11.693984,-1.397782,17.640178,31.003338,42.918883,15.110202,34.905594,50.515789,63.992322,29.927955,49.521607,63.88747,74.853232,41.872275,55.253836,67.225327,78.388072,26.517448,51.766949,70.128822,82.8475,43.64233,70.473175,86.736546,99.499283,30.436306,58.73188,77.875271,92.336197,19.046745,48.2337,62.942734,73.327732,10.038185,34.491348,45.763493,52.967892,-9.074223,-12.450458,-8.419823,-2.333394,-28.868935,-33.023101,-27.898033,-20.6586,-22.409935,-18.819457,-5.452098,8.336614,-9.398382,6.218946,22.380727,34.152393,6.998946,20.872411,31.914929,40.662245,94.385548,144.552435,-106.798725,107.833818
96,-2.794991,18.249099,1.281452,14.068504,-26.502914,-53.688583,-67.570152,-71.631317,-65.353546,-92.751045,-112.415657,-129.026928,-58.259239,-87.308464,-107.421513,-126.494007,-49.281807,-75.665588,-95.823898,-112.860603,-39.678726,-60.413704,-74.201317,-88.688164,-17.736756,-10.720613,5.627871,20.286678,3.419429,22.367296,36.746435,49.253055,18.377725,38.143476,53.985421,68.534003,32.807994,52.663407,67.887353,79.679274,44.728479,58.197479,70.521008,82.205174,25.199547,49.858418,68.72263,79.068317,42.315331,68.930168,83.45192,96.345577,28.054218,57.61013,77.278519,92.458591,16.188412,43.326817,64.036961,79.660206,8.28661,28.996239,41.992493,51.482277,-15.600223,-18.768605,-13.855928,-9.974297,-29.834094,-23.724261,-12.957398,-3.300405,-22.577865,-10.98756,4.927683,18.851783,-10.801598,3.540954,20.552884,33.102296,3.977221,16.092034,26.89144,35.40287,91.430197,161.537117,-105.677633,120.637905
97,-3.780098,19.157942,3.446274,4.521736,-28.913383,-54.710312,-65.44075,-66.547852,-65.968666,-93.574104,-112.770081,-129.419289,-58.159332,-88.138275,-108.702736,-128.588333,-48.601112,-76.284485,-97.528839,-115.313473,-38.46508,-61.08181,-76.0326,-91.376381,-17.130429,-8.400032,9.952993,25.59499,4.782261,23.879378,38.790374,52.135008,20.34287,39.95122,55.383389,69.383257,35.468016,55.742838,70.963882,82.114092,47.739244,61.413502,72.769032,82.587101,22.303848,45.38681,62.519131,72.356014,37.864952,61.588097,76.399784,90.635319,26.120567,51.799564,69.811878,83.444424,15.519676,38.21125,55.921898,68.94516,7.747135,24.512959,38.622379,48.724136,-15.260904,-16.735411,-11.610806,-6.21521,-18.81708,-5.171041,9.22298,20.692316,-9.351544,7.655137,24.760618,38.040045,0.244161,14.236125,29.400977,40.116958,10.614093,25.110373,34.967962,42.030727,87.556686,179.723555,-102.324772,124.188137
98,-2.904282,18.192289,-13.385582,38.221653,-28.627396,-55.285835,-68.917236,-72.958374,-64.009781,-93.685226,-112.973499,-129.653606,-56.58062,-88.176842,-109.786835,-130.349007,-47.05513,-76.876717,-99.221592,-117.746429,-36.729698,-61.045647,-76.937256,-92.56073,-17.450234,-10.668433,5.602553,18.760763,4.054285,24.183067,39.194901,52.973455,21.814383,41.71827,56.875773,69.386591,37.764946,57.146301,71.239783,80.61331,50.005113,64.075377,74.774191,82.497377,28.751335,58.85067,82.774887,99.099598,52.616158,88.331509,104.667091,113.585072,39.611835,79.111862,98.726921,108.972073,29.927502,67.92263,87.141895,97.55682,23.872662,55.723057,70.566273,79.877186,-16.501254,-20.522132,-11.797725,-2.981248,-29.741839,-10.390001,3.673656,11.542078,-15.82768,5.394269,19.636569,27.158016,1.092241,18.925205,29.203499,33.336269,18.739768,29.121988,34.258017,36.26719,84.536877,196.931481,-115.825882,161.425426
99,-4.886742,13.184948,-1.558399,12.89892,-29.986839,-56.071014,-69.064636,-70.639572,-64.046059,-92.756138,-112.094536,-129.057541,-55.563011,-87.440643,-109.905167,-130.139065,-45.309219,-75.25486,-97.861519,-116.202507,-34.524422,-58.615837,-74.916458,-90.421886,-14.253354,-6.588398,12.164769,25.589556,10.089709,31.202792,45.921435,58.672339,27.003332,45.950705,59.940693,71.72261,41.55179,60.478848,73.875785,83.30038,52.593999,67.47554,77.47429,85.26713,27.3139,57.37009,78.823643,93.395576,51.519356,83.577919,100.590248,113.708954,40.530796,76.313896,97.376347,113.06179,30.328846,65.251694,85.290985,101.286678,21.536121,48.273354,63.068562,75.682068,-13.97029,-17.440292,-10.724256,-3.56516,-21.782705,-5.164125,9.617935,20.467977,-9.598546,9.498448,24.811686,34.721392,5.503444,22.703712,33.969704,40.340186,22.416758,32.496154,39.443693,44.052929,80.054541,209.511352,-116.979876,173.719269
100,-2.254143,12.282033,0.50909,14.060754,-28.769188,-53.15403,-63.823471,-62.856674,-64.317284,-90.008183,-105.064945,-118.377056,-58.07991,-90.151062,-113.88319,-133.438396,-49.493523,-79.513779,-102.43618,-119.630241,-38.852463,-63.103752,-79.025917,-93.46447,-11.620563,-4.935278,10.724132,21.650806,15.043018,33.034062,42.084697,49.090157,31.476532,47.750914,58.421571,67.941138,44.68618,60.821748,72.943477,81.793052,53.960659,68.664235,79.146553,87.836071,27.309151,56.033192,78.294811,94.742088,52.868786,82.35054,99.949837,113.837528,43.763294,76.687202,98.975487,116.403866,34.043541,64.558754,84.667625,101.252174,24.289799,47.350044,62.511349,76.320992,-13.942934,-15.737216,-9.720071,-3.598382,-13.190073,0.65511,14.35518,25.682923,-0.731619,15.804586,28.389937,38.148046,13.067993,28.076677,37.427172,44.472338,27.555751,38.009849,44.423061,49.978313,78.329401,220.545811,-115.941782,186.532449
101,-0.327644,12.560281,3.371887,17.165071,-32.242584,-58.394508,-72.575912,-76.878319,-65.877571,-93.300819,-114.459457,-133.865776,-60.555038,-89.095459,-113.240032,-134.038925,-53.215256,-80.067101,-102.461529,-120.551491,-44.006424,-66.485023,-82.23896,-97.135048,-8.630732,-1.422976,8.506366,12.061523,25.050845,38.716026,45.056003,51.564002,35.781091,50.243037,58.287943,66.238617,43.509155,60.354729,70.812841,78.888004,47.314339,62.82666,72.196235,80.140117,29.708405,58.585052,78.737926,95.697498,53.169079,76.877689,92.795792,107.61343,43.215694,69.683018,90.848808,110.924778,33.360615,58.391762,78.791656,97.700443,23.792667,44.935398,60.74255,76.526356,-12.33625,-14.023457,-8.505008,-3.265856,-9.02402,-0.211433,11.340525,23.747541,4.294309,18.036431,29.6946,41.312446,18.022413,31.468195,42.130824,52.156621,31.964422,43.284754,50.160539,56.525957,78.579683,232.201109,-111.991968,202.792537
102,-0.801659,18.457692,10.563698,20.096857,-26.044464,-50.748024,-74.137802,-93.82576,-57.241287,-84.279442,-106.08593,-124.657173,-59.842529,-96.037216,-119.257965,-138.873367,-61.024475,-95.470848,-111.847687,-124.090977,-61.537514,-87.801132,-96.266956,-100.568504,26.619121,40.451769,45.711422,47.907884,47.615372,57.762076,62.824066,67.214891,34.117164,30.744789,25.069988,19.945383,16.524287,8.76757,-1.20895,-8.282274,-3.062635,-8.679638,-14.189874,-18.767926,35.650749,66.613255,86.542053,98.612652,72.450657,108.444729,117.413692,115.123272,63.51614,101.25761,110.503178,107.408581,51.845112,87.625523,98.095379,97.651234,38.561039,68.634624,81.277142,84.630604,-10.011656,-5.045132,5.833747,16.90788,8.982647,36.386677,47.646186,51.592469,22.50679,53.220457,65.060605,68.835099,35.479008,63.239832,74.085242,78.718869,47.944193,67.765705,75.882797,79.162608,78.282738,249.846026,-100.923557,222.076619
103,-7.004013,4.676667,-9.505806,13.273436,-28.315315,-54.681931,-77.144852,-96.289444,-60.528374,-85.895805,-106.159058,-124.315796,-61.087074,-91.239853,-109.300632,-125.847244,-59.837379,-88.982334,-99.964943,-109.1716,-58.586998,-79.331474,-83.284264,-85.858727,28.242045,46.169672,55.593834,63.276697,49.408295,53.186309,54.302942,54.964968,34.937333,32.27657,25.764742,17.889527,18.487147,15.30521,7.408629,-1.290707,0.102444,-0.333699,-2.301314,-6.12385,41.273746,72.829742,93.772602,107.030811,64.24839,97.812595,116.893787,129.421978,53.009548,89.850769,112.15044,126.729984,42.801476,79.230309,99.952412,113.53014,32.724495,62.399998,78.999424,89.558601,-11.069996,-12.041948,-5.969227,3.339709,1.186164,18.482207,28.218827,36.722908,15.169977,33.182572,43.57708,51.461682,28.770875,45.506287,53.242255,57.381323,41.198825,54.48455,59.184929,61.089991,71.479826,254.041241,-110.228262,234.868603
104,-5.435486,7.265492,1.721821,9.205937,-28.872643,-53.504677,-72.806053,-89.271297,-57.244148,-85.304546,-106.123466,-123.872337,-56.300011,-88.429871,-108.917599,-127.404499,-54.263077,-85.007057,-102.102585,-116.602421,-52.991638,-77.252998,-89.279079,-99.784241,18.249038,35.748055,47.014788,53.398731,46.846765,47.980811,45.353578,41.610824,37.204191,33.310704,26.991537,17.495682,24.883008,19.841642,12.98111,4.547856,9.925638,6.696091,3.421652,-0.910386,37.530327,68.238544,90.783577,104.936256,58.353024,91.180172,111.047401,125.511589,48.496628,84.343128,106.278534,121.204948,40.088081,75.085831,96.322517,109.969368,32.225704,61.061497,77.390385,88.963223,-15.27946,-14.73124,-6.544679,3.091164,0.605154,17.277271,28.258347,38.339966,18.034393,36.722414,47.818593,55.728203,33.588581,50.282311,59.393831,64.323984,45.721981,59.324856,64.604331,66.266652,66.547594,261.042086,-108.003187,243.809893
105,-3.118973,6.536034,2.935467,9.754527,-34.395447,-59.586754,-76.842098,-90.37096,-53.095665,-79.56316,-100.921497,-118.630543,-47.674828,-79.893551,-102.220688,-121.495628,-43.724442,-75.089378,-95.300331,-111.222954,-41.70536,-64.959641,-78.898888,-91.072197,-4.054656,2.504844,5.455958,4.488637,44.932873,48.995123,47.370841,43.748314,45.18185,44.380145,36.926623,27.049768,39.952578,38.791485,32.655656,24.13978,30.187986,33.147745,32.436874,29.999832,34.173489,62.945938,85.551281,101.37846,55.583897,86.897221,107.142963,122.463284,47.519588,83.311558,105.57066,120.746555,40.303574,75.287361,96.585732,109.945736,33.30637,62.298832,79.281864,90.972748,-14.82825,-14.54321,-6.917466,0.610465,1.615453,15.769944,25.527929,34.743437,20.224433,35.878965,45.934094,53.168216,35.961587,49.688272,57.225774,61.677176,47.414313,58.776142,63.271263,64.891532,64.217405,267.043809,-104.278936,253.030109
106,-1.300964,5.639603,4.915237,6.458908,-31.835403,-54.827499,-72.303715,-88.10503,-51.49086,-77.080421,-93.35804,-107.066402,-47.857361,-76.007309,-94.421768,-109.934978,-44.389572,-71.193695,-88.131809,-100.528736,-41.795311,-62.765694,-75.787983,-86.182194,-8.560645,-5.84974,-5.184503,-9.425892,32.029506,32.213646,28.693132,24.978906,37.719189,40.008709,32.429279,24.219932,38.585609,42.845276,36.486404,30.499208,34.82044,41.694434,40.115908,37.681089,32.545338,59.605637,81.732731,100.37241,56.572495,87.788029,108.477688,124.716282,48.112106,83.481617,106.719532,122.822056,40.552254,74.924068,96.817989,112.020779,33.706169,62.178497,79.346867,92.825832,-14.694622,-13.916196,-6.117428,0.188339,4.475979,19.043765,28.661948,36.95546,21.959249,35.976655,46.324789,53.495432,36.899329,50.138062,57.69483,61.987781,47.93598,59.509737,63.984048,66.152599,63.996563,272.217274,-98.283577,259.022879
107,-1.345253,3.338351,5.703793,5.303125,-29.134254,-51.136894,-68.704033,-83.358307,-44.626923,-71.325645,-89.345741,-103.007355,-40.756645,-71.792965,-90.455132,-104.525242,-38.259773,-67.601738,-84.146175,-95.554562,-37.145119,-61.026535,-73.778343,-82.798119,-4.716002,-3.504521,-5.825225,-11.722081,34.501128,34.731025,31.938548,28.855103,37.428592,37.460332,32.639601,27.591751,34.028429,35.141233,30.280426,25.71528,26.557555,28.615079,25.687739,23.135656,29.828568,56.009445,78.158512,96.409607,57.500782,87.807884,106.759529,121.264687,49.022312,83.151112,104.395981,119.117317,40.673847,73.565197,93.45005,107.964134,32.671623,59.652557,75.461884,88.388214,-14.091259,-13.540198,-5.75909,0.455903,8.802459,23.329182,32.003139,39.521437,25.657975,39.687669,49.629856,56.788334,39.356687,52.763504,60.088708,64.325219,49.320733,61.331744,65.776415,68.047225,63.444414,275.555764,-91.78668,264.326143
108,-0.517159,0.856725,4.795475,4.825733,-27.149391,-49.657516,-66.623955,-77.810154,-46.215591,-69.529381,-86.420231,-100.21122,-42.568703,-67.543144,-85.239372,-99.643993,-38.842621,-61.318359,-77.544765,-89.778671,-35.023041,-51.844025,-63.290291,-72.900696,-9.437192,-8.163898,-7.455436,-8.512109,25.571895,28.088719,27.427372,25.767768,34.232576,38.472791,37.166894,34.872372,39.320069,45.552414,43.063873,39.735526,41.001409,47.923198,46.698687,44.991288,28.181877,53.609276,75.468578,93.16721,54.918137,87.128048,105.736141,119.320621,45.796795,81.507454,103.156757,117.52264,36.59214,71.004581,91.193218,105.565739,27.935772,55.507736,71.359806,84.127407,-13.087568,-11.635815,-2.867319,2.135947,10.257978,26.723355,34.783945,41.444962,27.465904,42.660951,51.196093,57.535699,40.842278,55.423712,61.869837,65.410668,50.535179,63.782309,67.527534,69.193745,63.680305,276.436093,-86.238155,269.17548
109,-2.478104,2.652489,2.689819,7.93042,-28.657265,-51.597519,-67.270317,-79.764977,-53.890915,-65.204659,-65.941887,-63.215103,-47.75013,-58.714256,-56.175156,-49.994888,-40.968819,-52.095795,-48.411255,-41.500397,-33.81958,-42.055321,-41.849442,-38.954086,-6.443161,-4.944355,-2.983348,-5.602862,18.094414,29.715286,37.291753,41.312261,27.347281,39.912317,46.549807,49.663695,33.881463,45.598604,49.118377,50.14788,38.070796,47.776232,51.463349,53.491974,27.946587,53.342285,75.373421,93.112507,53.794155,87.3242,106.116199,119.33527,44.652157,81.319027,103.299694,117.579403,35.749626,70.645065,91.051083,105.087261,27.803307,54.937706,71.682758,85.423222,-13.670059,-12.145256,-2.852622,3.831428,10.834172,26.796283,33.254882,38.682558,28.194744,43.170022,49.962382,54.875306,41.36728,56.702316,62.445783,65.523856,50.410628,64.764697,68.758528,69.81304,62.11647,279.229744,-82.634068,277.247061
110,-47.112122,5.439841,4.438992,3.685203,-16.082382,-34.464455,-49.362888,-66.671505,-54.646626,-43.946285,-22.649117,-6.632652,-53.987732,-29.368114,-6.233482,14.100494,-48.82988,-22.934532,1.318474,20.174904,-41.164169,-30.484486,-14.887047,0.299149,36.547661,59.385001,72.316957,80.938797,45.311464,60.201279,64.025853,65.404307,26.139567,44.415713,52.203057,54.918593,5.916369,24.142867,33.316447,37.888756,-13.525501,-1.531163,6.57327,13.250836,25.932369,50.467587,71.644192,89.071999,51.349525,84.215813,102.07386,114.201393,42.392807,78.437119,99.669113,113.529968,33.080864,66.749439,86.113701,99.326706,24.540253,50.267944,66.004028,78.726425,-12.994139,-10.481515,0.176421,7.786727,14.254403,30.313154,36.601445,42.040483,31.233482,46.21864,52.589368,56.62451,43.417023,59.039754,64.468109,66.890949,51.267662,65.662671,68.824292,68.77693,16.00728,284.808523,-77.192144,281.071203
