takenoko1/special-research/HandMotion_SimilarSearch_自分用/NewProject/handData/key/d4_feature_d2/40.csv
,vel_0x_L,vel_0y_L,vel_0x_R,vel_0y_R,posFromWrist_1x_L,posFromWrist_2x_L,posFromWrist_3x_L,posFromWrist_4x_L,posFromWrist_5x_L,posFromWrist_6x_L,posFromWrist_7x_L,posFromWrist_8x_L,posFromWrist_9x_L,posFromWrist_10x_L,posFromWrist_11x_L,posFromWrist_12x_L,posFromWrist_13x_L,posFromWrist_14x_L,posFromWrist_15x_L,posFromWrist_16x_L,posFromWrist_17x_L,posFromWrist_18x_L,posFromWrist_19x_L,posFromWrist_20x_L,posFromWrist_1y_L,posFromWrist_2y_L,posFromWrist_3y_L,posFromWrist_4y_L,posFromWrist_5y_L,posFromWrist_6y_L,posFromWrist_7y_L,posFromWrist_8y_L,posFromWrist_9y_L,posFromWrist_10y_L,posFromWrist_11y_L,posFromWrist_12y_L,posFromWrist_13y_L,posFromWrist_14y_L,posFromWrist_15y_L,posFromWrist_16y_L,posFromWrist_17y_L,posFromWrist_18y_L,posFromWrist_19y_L,posFromWrist_20y_L,posFromWrist_1x_R,posFromWrist_2x_R,posFromWrist_3x_R,posFromWrist_4x_R,posFromWrist_5x_R,posFromWrist_6x_R,posFromWrist_7x_R,posFromWrist_8x_R,posFromWrist_9x_R,posFromWrist_10x_R,posFromWrist_11x_R,posFromWrist_12x_R,posFromWrist_13x_R,posFromWrist_14x_R,posFromWrist_15x_R,posFromWrist_16x_R,posFromWrist_17x_R,posFromWrist_18x_R,posFromWrist_19x_R,posFromWrist_20x_R,posFromWrist_1y_R,posFromWrist_2y_R,posFromWrist_3y_R,posFromWrist_4y_R,posFromWrist_5y_R,posFromWrist_6y_R,posFromWrist_7y_R,posFromWrist_8y_R,posFromWrist_9y_R,posFromWrist_10y_R,posFromWrist_11y_R,posFromWrist_12y_R,posFromWrist_13y_R,posFromWrist_14y_R,posFromWrist_15y_R,posFromWrist_16y_R,posFromWrist_17y_R,posFromWrist_18y_R,posFromWrist_19y_R,posFromWrist_20y_R,posFromBody_0x_L,posFromBody_0y_L,posFromBody_0x_R,posFromBody_0y_R
2,-25.297966,17.226389,1.713009,0.746686,-0.119591,-2.122192,-5.270119,-8.224068,-19.501362,-4.087486,12.445793,22.655182,-25.994053,-8.804054,12.195282,29.437981,-28.945827,-15.628967,2.788811,17.20871,-30.170288,-23.726292,-10.632191,0.715599,-16.135074,-23.519682,-20.270437,-14.070572,-8.467772,1.39346,8.199467,13.356552,6.672194,15.620569,23.9394,28.810766,19.051114,26.293017,30.40368,32.405011,28.481266,34.635374,34.449135,32.892098,31.236019,57.830715,80.65527,99.568233,47.56897,79.093151,96.33276,108.37389,36.231308,73.121166,93.308887,107.013645,27.713985,62.535095,81.872005,95.7728,22.007561,48.191757,64.003716,76.830883,-8.97252,-5.657387,3.631789,12.334213,25.119327,49.303752,56.050911,58.009819,41.798236,64.698871,70.051458,69.943395,52.649575,74.803523,79.965116,79.360827,57.984254,76.238417,80.639554,80.573975,2.150316,338.393786,-73.369532,299.16307
3,29.163895,-18.051868,0.079136,0.606266,-1.773376,-9.507523,-20.672493,-27.152252,-47.966194,-42.96524,-19.860535,-2.474327,-59.143066,-50.785503,-22.648659,0.20771,-64.088001,-57.961979,-31.756668,-10.324173,-65.708084,-63.366394,-45.252457,-27.824936,-13.323269,-21.415228,-18.252866,-13.093496,4.034648,19.276503,27.06502,31.551373,21.793696,35.663333,42.084141,41.654975,36.079901,46.394628,49.608305,48.487659,48.196505,56.059865,53.861426,50.766866,30.776539,57.157345,79.699516,98.774414,47.027092,79.453926,96.698227,108.480721,35.524864,73.66848,94.02935,107.642555,27.285576,63.23679,82.703476,96.557579,22.174931,49.274254,65.414371,78.356209,-9.701237,-6.900917,2.755797,12.218801,23.679739,48.025951,54.757981,57.120922,40.949909,63.51882,68.385309,68.119967,52.345701,74.2298,78.929624,78.516019,58.069717,76.057612,80.275906,80.489933,31.050596,320.384278,-73.55401,299.811696
4,-27.359848,16.979511,0.725269,0.007966,1.118431,0.432014,-2.007866,-5.432396,-22.292175,-6.723404,10.629272,22.116623,-30.268707,-12.148876,10.073318,28.894043,-33.534107,-18.58532,1.064301,17.09507,-34.840164,-25.775757,-11.651688,0.665703,-15.94902,-24.831693,-21.781285,-16.433081,-10.065626,-0.433179,7.001941,12.560651,6.604454,15.482928,24.181461,28.61298,20.129152,27.604966,31.465725,32.957924,30.500381,37.003687,35.993636,33.324351,30.600414,56.763268,79.076099,98.24564,47.324467,79.305553,96.21088,107.807293,35.59267,73.429928,93.377552,106.788311,26.846523,62.716026,81.757221,95.323277,21.088085,47.99778,63.945408,76.821041,-9.685552,-6.798473,2.948829,12.165449,24.332812,48.213734,54.785089,57.047192,41.347644,63.323318,68.218027,68.22945,52.44481,73.833424,78.561529,78.35164,58.083426,75.932444,80.139561,80.476348,3.486814,337.470494,-73.032675,299.926367
5,24.594383,-13.141352,-0.080223,0.534635,-1.271896,-9.728279,-22.906952,-30.656776,-47.959385,-37.860317,-14.841156,1.594963,-58.375053,-43.332424,-16.195793,5.898514,-61.899776,-49.704952,-24.163857,-4.415245,-62.561989,-55.753841,-37.675896,-21.89415,-14.462008,-25.785058,-25.955118,-23.298924,3.448452,17.234725,23.059271,25.698484,22.448745,33.530782,38.765303,36.774161,36.794724,44.508832,46.139105,43.907877,48.306421,54.982999,51.329598,46.497504,30.518074,56.601219,79.041538,98.128223,47.27726,79.266415,96.060734,107.663555,35.7201,73.669682,93.528614,107.081966,27.216053,62.980042,81.864796,95.50684,21.739311,48.36319,64.204388,77.129574,-10.003073,-7.480507,2.148729,11.54708,23.405814,46.679545,53.313824,55.944947,40.662029,61.979506,67.054525,67.462078,52.057018,72.910934,77.62916,77.56673,58.092009,75.667843,79.791474,80.099238,27.86027,324.41516,-73.333826,300.54702
6,-30.71846,13.436396,0.062656,-0.294241,3.529015,5.498199,6.953201,7.26265,-16.45586,1.833344,18.370056,28.686562,-24.164543,-4.150429,18.034859,36.128311,-27.604752,-11.06432,8.703346,24.116821,-29.08699,-18.705025,-3.700905,8.537178,-17.827529,-27.564458,-24.306074,-18.639547,-10.718637,-0.393968,6.040858,10.57235,5.894756,16.20195,23.577728,26.992772,19.769518,28.146579,30.909724,31.416757,30.701132,37.538137,36.207539,33.157933,30.585079,56.650314,79.042511,97.95742,45.948086,78.09803,95.313034,107.396049,34.503994,72.438812,92.758255,106.474686,26.368389,62.289104,81.693764,95.592613,21.373844,48.478088,64.573631,77.500877,-9.760888,-7.03788,2.419875,12.05578,24.114956,47.780987,54.553216,57.292526,41.207655,62.951705,67.931072,68.125339,52.396768,73.611555,78.304462,78.120631,58.110225,75.832902,79.884285,79.959373,-3.04822,337.928913,-73.461199,300.330137
7,31.116257,-14.38445,-0.459938,0.478319,0.323753,-7.216988,-21.060448,-30.228195,-46.736641,-35.94635,-12.886391,3.438606,-58.906002,-43.829899,-16.381416,6.441307,-63.769684,-52.275696,-26.549721,-5.983772,-65.66494,-59.916,-42.266178,-26.227341,-13.280291,-25.045658,-25.786663,-23.058098,2.266302,18.855427,25.735781,28.468298,21.144761,35.1944,40.88044,38.883246,35.681673,45.566185,48.123208,45.920632,47.662549,55.54252,52.802469,48.291724,30.061798,56.103687,78.716011,97.938995,46.481037,78.536682,95.881462,108.273811,35.085411,73.088036,93.243484,107.292938,26.961823,62.309704,81.679916,95.902061,21.968822,48.249836,64.222584,77.271996,-10.513563,-8.248311,0.98319,10.371784,24.306074,47.399246,53.831971,56.565786,41.22544,62.560022,67.497091,68.096934,52.163908,73.094518,77.821945,77.942729,57.609862,75.404293,79.577077,79.959312,27.888651,323.633292,-74.100523,300.897284
8,-36.159897,16.074929,0.448895,-0.004076,6.960182,12.107277,19.583817,25.967789,-10.768833,4.745636,21.681061,33.640137,-19.55286,-1.599655,21.357307,41.284332,-24.230747,-8.543186,12.120209,28.813591,-26.787186,-16.0639,-0.888348,11.886406,-19.906974,-33.18004,-31.703279,-25.528732,-14.081502,-4.282391,3.752511,9.313568,3.56022,14.443298,22.894397,25.740289,18.232488,27.372784,30.965115,30.990432,29.652857,36.85419,35.831171,31.853394,29.998684,55.724087,77.94405,96.828289,46.211758,78.16412,95.371685,107.567883,34.97961,72.713299,92.847233,106.765537,26.857738,62.167454,81.409206,95.491276,21.781082,48.259392,64.167995,77.104053,-10.058833,-7.700338,1.982744,11.632913,24.885601,47.51898,53.824932,56.307298,41.724383,62.449303,67.095342,67.36655,52.534657,73.044007,77.552404,77.410563,57.922195,75.612206,79.498221,79.580658,-8.380365,339.881554,-73.760748,301.066542
9,26.978302,-17.408923,0.179787,0.002161,0.314026,-2.027321,-7.78965,-9.72702,-39.554214,-27.452087,-4.497986,11.812248,-51.535263,-36.249676,-8.504791,13.55381,-57.225323,-45.570374,-19.30069,1.250839,-59.624577,-53.958607,-35.984459,-19.402771,-12.994757,-22.608987,-21.984937,-19.454035,2.546155,18.865368,26.23917,29.830389,20.897945,35.648328,41.626014,40.644183,34.980312,46.020668,48.838401,47.353118,46.652498,55.28607,53.084359,49.498389,29.689636,55.090542,77.239094,95.968609,46.660137,78.173504,95.259418,107.606564,35.328598,72.232876,92.019711,106.129475,26.898823,61.15139,79.996433,94.03307,21.462994,46.906528,62.595921,75.600758,-10.29262,-7.983155,1.408156,10.578463,25.26549,47.092284,53.330311,55.961558,41.870052,61.98142,66.799743,67.610958,52.44833,72.44546,77.211851,77.481638,57.794866,75.299811,79.247762,79.415661,18.458433,322.535385,-73.720465,301.131457
10,-26.981621,17.121598,0.855331,0.443368,6.029663,10.880127,18.161087,24.206314,-10.107708,7.812424,22.948151,33.177567,-19.873123,1.298904,22.942772,40.785828,-24.689598,-6.940098,13.404579,29.664459,-27.131882,-17.312794,-2.347813,10.600204,-21.627094,-34.326992,-30.826979,-23.838561,-15.96137,-4.84469,3.286666,8.221265,2.718562,15.421733,23.079957,25.088575,18.000801,27.787377,31.144314,30.384661,30.360331,36.953114,35.968997,31.89168,29.75235,54.913673,76.909962,95.454082,45.110149,77.058277,94.520245,106.867847,33.823414,71.142025,91.265888,105.281353,25.705662,60.388527,79.608135,93.821812,20.741501,46.835747,62.866402,75.940762,-10.101009,-7.823468,1.547157,10.951436,24.723815,46.667936,53.146418,55.925743,41.457806,61.955423,66.845253,67.49425,52.262708,72.779715,77.389198,77.313862,57.726199,75.447518,79.169339,78.855832,-8.617258,339.71296,-72.959204,301.630802
11,-15.704556,9.856292,0.235462,0.193773,13.190804,24.515133,31.677647,38.102474,5.522804,27.360821,43.175411,54.25993,-5.50066,19.804974,39.728794,57.691669,-12.275333,10.475693,28.736858,44.649982,-16.674843,-6.236458,6.127796,17.992573,-17.545824,-32.491647,-42.237652,-47.428392,-18.531854,-5.816827,1.311332,5.48461,-4.643631,9.870433,17.458076,22.059841,7.641428,19.244022,23.487942,25.671067,17.470365,24.81218,25.395289,23.184316,29.602489,54.578648,76.292152,94.81636,45.343151,76.767311,93.817635,105.807381,33.633442,70.799332,90.713768,104.338188,25.30592,59.998169,78.903236,92.535782,20.304165,46.150246,61.911964,74.679451,-10.624714,-8.255042,1.24211,10.441007,23.432614,46.016778,52.904418,56.161876,40.435837,61.252086,66.355017,67.294796,51.747648,71.963251,76.726122,77.086868,57.762632,75.129627,78.914495,79.076713,-24.456282,349.589197,-72.85821,301.84452
12,41.352482,-24.856208,0.573006,0.430215,1.234589,-1.100235,-6.70372,-8.106995,-38.576031,-23.718681,-1.905785,13.015938,-50.762444,-33.032856,-5.620995,16.228867,-56.222248,-41.57856,-15.694084,4.127998,-58.32922,-50.241051,-31.954365,-15.573921,-14.497762,-25.140445,-24.576973,-21.062695,0.412616,16.786047,23.79194,26.942508,19.367276,34.414925,39.54731,37.396297,33.824159,44.917744,46.704924,44.291101,45.86129,54.239895,51.38542,47.042637,29.782333,54.569836,76.161575,94.479904,45.347443,76.903038,93.839035,105.494499,33.660965,70.535202,90.223503,103.51078,25.170422,59.680309,78.34877,91.817322,19.920673,45.987396,61.802502,74.662285,-10.236366,-7.941782,1.290707,10.469041,22.63097,45.241686,52.442155,55.817124,39.73355,60.857439,66.026813,66.787949,51.246296,71.904156,76.557605,76.558778,57.437269,74.99958,78.548068,78.223693,16.776438,324.773652,-72.404966,302.315398
13,-26.22654,18.069653,0.84343,-0.632201,6.28109,11.214294,15.407295,18.916168,-12.109451,6.955147,22.724075,33.227806,-21.917553,0.652885,23.563271,42.899208,-25.986557,-5.112019,16.914482,34.624329,-27.621746,-14.189072,2.355537,16.320992,-21.860325,-35.029156,-33.605624,-26.452394,-18.553344,-10.009989,-2.182445,2.209615,0.011115,10.90889,19.073097,20.454268,15.78322,24.130702,27.468251,26.466968,28.594825,34.159031,32.916119,28.459653,29.059753,53.733501,75.272484,93.549385,45.143795,76.112366,92.858162,104.576797,33.517342,69.789391,89.376755,102.637138,24.667282,58.910465,77.603645,91.097488,18.675671,44.597969,60.559731,73.628426,-10.217161,-8.084673,1.124969,10.209628,23.276509,45.456701,52.585972,56.073326,40.377915,61.203303,66.435663,67.450593,51.779202,72.42008,77.323495,77.621132,57.895766,75.567622,79.298829,79.106292,-9.526148,342.859869,-71.637583,301.699762
14,-12.135372,2.190287,-0.118904,0.252497,12.061329,20.78928,29.758701,38.09103,0.019169,20.883923,37.258358,48.341961,-9.800777,16.929417,36.762829,53.872662,-14.813061,10.938034,30.614376,46.489048,-17.029724,-3.519115,11.028442,24.056911,-18.866912,-32.826396,-37.399261,-37.61866,-15.575862,-1.84609,5.296333,9.436574,-0.467636,16.542133,23.174559,27.616019,11.730726,25.987229,30.163471,32.767918,21.321985,31.37242,32.597981,31.455783,29.100552,53.640232,74.877777,92.982101,45.410728,76.385765,92.936897,104.37767,33.788853,70.109825,89.593506,102.80159,24.981651,59.044075,77.612572,90.921021,19.133434,44.564323,60.274887,73.193321,-10.648303,-8.505687,0.967752,10.28484,23.410754,45.409956,52.408871,55.782667,40.255032,60.937962,66.042066,67.098368,51.416851,71.817458,76.815166,77.310157,57.355141,75.249731,79.166313,79.209229,-21.676083,345.082591,-71.771049,301.984693
15,-10.167675,-8.108014,0.148487,0.097627,16.590614,29.24984,40.01461,48.283539,10.859413,34.691849,51.377907,63.966522,1.182289,29.645805,48.981743,65.589409,-4.484253,23.126793,41.976242,55.886078,-7.547779,7.735977,22.026043,33.677673,-17.992588,-28.027647,-29.065672,-28.697886,-7.237951,9.459546,16.19948,19.876964,7.805437,26.905704,32.419399,35.834258,19.115025,36.437436,39.569232,40.91996,27.271267,41.977621,43.176259,41.495968,28.962879,53.890228,75.455532,93.463039,44.725399,75.917072,92.938328,104.787083,33.084126,69.742527,89.61874,103.086262,24.486523,58.947201,77.878017,91.567783,18.91119,44.895458,60.880795,74.033718,-10.557036,-8.354584,1.057352,10.480218,23.171163,45.402484,52.382874,55.540914,40.189515,61.03281,66.041078,66.720517,51.485518,71.982455,76.717909,76.757368,57.489695,75.179953,78.996129,78.848545,-31.933622,337.029272,-71.712427,302.137016
16,51.234055,-13.254479,-0.00618,0.083919,-0.581474,-4.558754,-13.008499,-17.395134,-41.700497,-27.770119,-5.318642,10.914459,-53.619862,-35.796719,-8.031349,15.083313,-58.69566,-44.39661,-17.795334,3.439865,-60.707645,-52.784843,-33.894825,-16.552162,-13.414104,-24.304036,-24.358623,-20.311378,1.618725,17.874336,25.432216,28.768591,20.451798,34.701879,41.413531,40.306408,34.840138,45.410574,48.024469,46.174982,46.72382,55.352699,52.723243,48.297097,28.81937,53.406258,74.729862,92.755222,45.729904,76.613789,93.267689,104.84602,34.015503,70.205441,89.54504,102.792606,25.077953,58.863773,77.334423,90.857677,19.082909,44.510822,60.257263,73.369389,-10.901356,-8.894591,0.505489,9.783982,23.484855,45.043097,51.898381,55.170103,40.330306,60.73295,65.830817,66.961529,51.374243,71.47993,76.437562,76.949967,57.220834,74.848168,78.754005,78.818041,19.257002,323.812214,-71.762037,302.258356
17,-29.325314,14.85295,0.300636,-0.158946,5.450535,9.851933,14.11726,16.939259,-14.702682,6.463337,22.641163,33.484554,-24.191837,1.275387,25.061474,45.180187,-27.775784,-3.925838,18.624744,37.233639,-28.235779,-12.930565,3.882236,18.656902,-19.283048,-29.391344,-24.605934,-15.033447,-16.36812,-5.310906,3.649635,8.95628,1.583034,14.641702,24.343927,27.314615,17.000382,27.719575,32.096506,32.173385,29.351823,36.826896,36.471337,33.146201,28.887806,53.562069,74.993191,93.1497,44.267693,75.831928,92.850323,104.748516,32.331734,69.479427,89.403591,102.867908,23.624668,58.50935,77.540417,91.371517,18.175907,44.33773,60.470695,73.794651,-10.719316,-8.647034,0.650911,9.987759,22.746691,44.953991,51.986375,55.390675,39.939981,60.645882,65.659151,66.651295,51.321385,71.742246,76.517344,76.786884,57.229911,74.874968,78.848237,78.791426,-10.126934,338.679042,-71.520023,302.113289
18,-6.513863,13.144687,0.278549,0.140112,10.040417,16.770229,21.297855,25.592937,-7.576618,15.938702,32.542019,43.2514,-17.760372,9.743328,29.716473,46.950474,-22.35981,3.435402,23.246212,39.592152,-23.776302,-11.843948,2.224903,15.098362,-17.567436,-32.888084,-42.391967,-50.960886,-21.160199,-9.179878,-2.225238,1.616441,-7.736771,6.796127,14.704132,19.71808,4.574532,17.097763,22.384524,25.253016,15.191589,22.177599,24.003744,24.06111,28.727703,53.225956,74.445248,92.6758,44.371834,75.154667,91.898632,103.476734,32.566166,69.181309,88.829556,102.262287,23.836555,58.296146,77.097416,90.857677,18.223114,44.190903,60.185165,73.424549,-10.985275,-8.980856,0.406503,9.46183,22.411695,44.178221,50.971507,54.311587,39.684088,60.639707,65.756593,66.930037,51.203256,71.667405,76.423174,76.900073,57.256279,74.682245,78.440807,78.450811,-16.71298,351.8467,-71.313658,302.276371
19,41.997128,-30.849271,0.306473,-0.135974,-6.215286,-14.109077,-24.542999,-30.373764,-49.008865,-38.881702,-16.186295,0.992775,-58.032875,-44.300709,-17.273941,5.513763,-61.072826,-50.348511,-24.775429,-3.976707,-61.051025,-56.886063,-39.083176,-22.170982,-11.871578,-19.546722,-17.058798,-12.180825,7.471738,20.994461,27.557727,31.074783,24.609639,36.386616,42.987549,42.527076,37.662256,46.276809,49.053292,47.864165,48.351808,56.139831,53.046568,48.877798,28.898392,53.610821,74.847622,93.063984,44.589729,75.620441,92.264957,103.633289,32.616577,69.217472,88.847752,101.971493,23.723373,58.266678,77.019024,90.514011,17.94508,44.037323,59.99588,73.119564,-10.916361,-8.638018,0.712106,9.938791,22.233421,44.358408,51.440872,54.890126,39.49507,60.753575,65.880465,66.877302,50.985895,71.71557,76.437068,76.747117,57.008104,74.63093,78.566655,78.664159,25.237942,321.025124,-71.053391,302.168092
20,-32.13398,13.292517,-0.142422,-0.297328,3.272781,6.245384,6.864395,5.728798,-18.459835,4.213257,21.212883,31.593933,-26.240616,-1.734467,21.442909,41.008186,-28.861942,-7.880802,13.906403,31.706314,-28.840427,-16.80439,-1.218109,12.68589,-14.696536,-19.687822,-11.99403,-2.619514,-9.122265,2.879298,11.074195,16.447037,6.728078,19.23408,28.725612,32.392599,20.615499,31.288872,36.025005,36.838196,31.921752,39.734167,39.04812,36.023461,28.849869,53.543015,74.596939,92.520103,44.946613,76.088905,92.628822,104.029655,32.818108,69.473991,88.824921,101.69323,23.686066,58.192406,76.741104,90.014191,17.665386,43.575954,59.415722,72.369461,-10.907469,-8.589235,0.843634,10.276689,22.554708,45.052236,52.149273,55.627303,39.632958,60.673917,65.895717,67.211186,50.982375,71.597133,76.631212,77.2531,56.975129,74.724544,78.80495,79.010023,-6.93655,334.360512,-71.236324,301.913634
21,33.260078,-12.199844,0.095444,0.197231,-5.709572,-14.107704,-25.238571,-31.963234,-49.158497,-40.601349,-17.357254,0.181503,-58.590088,-46.54438,-19.613571,3.050308,-62.006893,-53.671932,-28.439369,-7.509727,-62.348099,-60.225964,-43.328533,-26.967773,-11.634333,-18.695308,-15.871091,-11.056041,7.188242,20.435805,26.850932,30.489081,24.176583,34.651244,41.324487,41.408468,36.965773,44.156238,47.303409,46.73969,47.36658,54.038094,50.972433,47.247895,29.210072,53.695621,74.821472,93.206406,44.201374,75.837021,92.583733,104.028168,32.267647,69.385071,88.974724,101.928864,23.551197,58.688278,77.349701,90.708504,18.058949,44.619656,60.661068,73.822975,-10.616872,-8.542181,0.620592,10.083781,21.132349,43.730345,51.148916,54.876727,38.636183,60.029984,65.399553,66.680627,50.506341,71.40441,76.371922,76.818254,56.941352,74.774438,78.85787,78.96371,26.275949,322.202828,-71.188459,302.153025
22,-33.584061,13.91669,-0.128517,-0.3316,2.422142,4.269333,3.661423,1.22097,-17.133808,4.192772,21.234856,31.893539,-24.327507,-1.070251,22.16217,42.053146,-26.893215,-6.596317,15.102882,33.124695,-27.180576,-15.328388,0.745239,15.235176,-15.392031,-21.700639,-14.852827,-5.265952,-11.562703,-0.769534,7.991985,14.05038,4.733478,16.34095,26.61276,30.922445,19.061055,29.246662,34.226216,35.201131,30.910774,38.288343,37.878382,34.890156,29.009285,53.216286,74.039383,92.318802,44.618397,75.907173,92.550888,104.187012,32.803631,69.581223,88.930092,101.953354,23.97583,58.68948,77.189941,90.543938,18.13076,44.062157,59.856548,72.976685,-10.522208,-8.515444,0.88513,10.239021,21.897005,44.415589,51.765185,55.544249,39.162482,60.120695,65.425611,66.67192,50.733768,71.338275,76.469364,77.001096,56.900905,74.734671,78.932958,79.062449,-7.373199,336.164457,-71.382065,301.866364
23,31.592216,-13.001549,0.218182,0.160366,-2.255402,-8.949394,-19.821854,-25.859985,-45.123081,-35.304279,-12.501984,4.3713,-56.53101,-43.326759,-15.991745,6.823883,-61.412544,-51.718025,-26.033707,-5.095825,-63.265858,-59.36657,-41.63887,-24.840317,-13.6976,-23.272187,-22.576939,-18.719823,3.159707,17.485988,24.762039,28.454096,21.299323,33.368379,40.312583,39.967769,35.168774,43.649328,46.850655,45.719202,46.871774,53.836541,51.228389,47.305941,29.096088,53.561039,74.496517,92.877445,44.648781,76.050625,92.696285,104.169102,32.608051,69.495907,89.006367,101.868382,23.709183,58.573608,77.150059,90.505772,17.984962,44.461384,60.480309,73.730564,-10.931984,-8.797334,0.924527,10.23791,21.081097,43.97216,51.329474,54.935451,38.692252,60.05314,65.265925,66.254178,50.485161,71.398296,76.335674,76.608734,56.703551,74.372875,78.464211,78.543251,24.183884,323.248417,-71.199017,302.112239
24,-38.689613,14.012342,-0.102596,-0.366056,8.625412,15.347786,21.949081,27.165756,-7.867241,15.657349,32.836761,43.64399,-17.353992,8.212967,31.766739,51.187935,-21.78154,0.458508,22.626457,39.821091,-23.430862,-9.783382,6.516495,20.088615,-20.247096,-31.833449,-28.580375,-20.691513,-13.684324,-1.83479,5.882715,10.659233,3.945543,17.186745,25.391893,27.88309,18.712968,29.287109,33.132431,33.235183,30.593377,38.609136,37.832872,34.099936,28.847237,53.383369,74.395294,92.582359,44.128132,75.851784,92.685013,104.43203,31.948872,69.066238,88.693657,101.783295,23.024254,57.891197,76.809425,90.518646,17.458706,43.547115,59.5578,72.795753,-10.876285,-8.386262,1.326769,10.628172,21.907811,44.742558,52.060784,55.685534,39.254737,60.670089,65.96074,67.015129,50.698632,71.842529,76.959538,77.357829,56.462909,74.411222,78.681387,78.837492,-14.531164,337.282695,-71.327047,301.768119
25,33.980827,-13.745642,-0.940475,0.754652,0.851097,-3.848877,-13.569374,-19.335251,-41.503258,-25.696907,-3.437119,12.105331,-54.02916,-34.556122,-6.916466,16.18515,-59.47237,-44.39249,-17.951202,3.237419,-61.983032,-53.996029,-35.495167,-18.72448,-13.273251,-24.800633,-25.605673,-22.549336,1.000604,18.031182,25.5911,28.693008,20.304832,34.852241,41.270888,39.983083,34.864777,45.457998,47.95889,45.974355,46.696711,55.297494,52.681561,48.361132,29.701252,54.524345,75.885658,94.658661,44.710121,76.439667,93.357582,105.044174,32.803173,70.60627,90.221443,103.46283,24.108009,59.929161,78.786163,92.433586,18.625889,45.796623,62.047119,75.448723,-10.671644,-8.736016,0.626767,9.352656,20.135698,42.618652,49.848823,53.653142,37.509176,58.43213,63.829487,65.478408,49.585149,69.979087,74.71454,75.441466,56.277226,73.878008,77.627801,77.755193,19.423428,323.587843,-72.293758,302.573561
26,-33.635101,11.583266,0.061913,0.215941,7.72213,13.217125,22.140198,29.636993,-11.883774,10.61451,28.004036,39.105835,-21.579208,5.751915,29.52404,48.687973,-25.234737,-0.867062,21.762199,39.272461,-25.531597,-9.982166,6.863365,20.934219,-20.85262,-32.740871,-26.09381,-14.55519,-15.0064,-2.666506,6.480397,11.769999,4.180256,18.307762,27.896181,30.162421,20.054867,31.548718,36.395755,35.957821,32.363947,40.802079,40.974795,37.324728,29.290066,54.668198,76.197853,95.047874,44.259453,76.916313,94.03862,105.622902,32.163105,70.658569,90.66227,103.653145,23.513317,59.870911,79.095268,92.953949,18.309002,45.625591,62.065945,75.614204,-11.073207,-8.765594,0.714761,9.701298,20.112171,42.997862,50.014005,53.171427,37.873504,58.76373,63.818248,64.581915,49.896062,70.344587,74.877809,75.0412,56.140449,73.60223,77.586984,77.645647,-14.276619,335.241813,-72.296791,302.860206
27,0.131664,8.340628,-0.078106,-0.465475,9.167576,14.857121,23.53941,33.439922,-10.60564,10.942097,28.711567,41.284618,-20.988636,4.98373,28.101482,48.154507,-25.315247,-1.05938,21.502705,39.769993,-25.802078,-16.308517,-2.232571,11.309566,-19.097241,-34.831987,-38.931165,-33.9011,-20.200783,-6.841637,2.112111,7.008981,-4.116035,11.833478,20.363248,24.141571,10.149977,24.176707,29.101981,29.612348,21.598936,29.939996,31.363961,28.994227,29.446678,54.681473,76.156826,95.067158,44.39827,76.694584,93.73621,105.291195,32.41087,70.407314,90.240269,103.303013,23.747177,59.700737,78.799953,92.579098,18.343391,45.334396,61.739616,75.386524,-11.058326,-8.652159,0.914585,9.695679,20.310019,43.254435,50.337516,53.747929,37.927041,58.956823,64.101127,65.224428,49.994616,70.454997,75.187178,75.746513,56.381152,74.042449,78.007134,78.211219,-14.230127,343.638249,-72.46007,302.450538
28,39.127064,-22.975785,-0.006237,0.366427,-4.346809,-12.20192,-23.692245,-32.302208,-48.255157,-36.750069,-13.706474,2.694168,-59.010773,-42.844391,-15.517731,7.509613,-63.090363,-50.768681,-24.390221,-3.084869,-64.471436,-59.304714,-40.951996,-23.895149,-12.403126,-19.271995,-14.506716,-7.910104,2.79328,19.077234,27.350739,32.231801,21.257579,34.590358,43.085547,44.431397,35.623195,45.434162,49.633437,49.642021,47.481991,55.675839,53.009888,49.577183,29.477978,54.709396,76.215706,95.229836,44.361534,76.982231,94.235115,105.812416,32.28693,70.682831,90.752106,103.687706,23.612423,59.952679,79.081078,92.583618,18.388138,45.514011,61.930904,75.387383,-10.997378,-8.910214,0.465475,9.414283,20.089941,43.086597,50.386854,53.820671,37.720363,59.010299,64.200854,65.045043,49.73088,70.394729,74.942153,75.037619,56.04029,73.744812,77.636323,77.517206,24.833565,320.688801,-72.529678,302.843302
29,-35.021667,15.748516,-0.03994,-0.48579,4.681206,7.973099,12.646408,15.61615,-14.59053,9.246712,26.290512,36.340828,-23.161983,3.770256,26.090698,44.603119,-26.144714,-2.70647,18.671951,35.675583,-26.436138,-12.131882,3.920288,17.967796,-17.924971,-27.601878,-22.169942,-12.981604,-12.204043,0.160304,7.755049,12.279069,5.4638,17.997096,26.290732,29.056718,19.963723,30.671924,34.26271,34.223066,31.18933,39.217748,38.66255,35.471289,29.500408,54.70356,76.188698,94.82975,45.078621,76.945953,93.777122,105.39608,33.068619,70.495949,90.104141,103.096504,24.129925,59.587498,78.299675,91.673698,18.362961,44.972477,61.088276,74.348259,-10.722589,-8.607637,0.668695,9.257437,20.453218,43.135689,50.559817,54.324616,37.822436,58.902915,64.310769,65.554299,49.636278,70.100303,74.990133,75.44264,55.923334,73.388203,77.451936,77.637867,-10.237627,336.439571,-72.619143,302.359765
30,38.402367,-16.972718,0.087891,0.58348,-7.50103,-17.355309,-31.463242,-42.700024,-50.681419,-40.529194,-17.962418,-1.754723,-61.143208,-46.394119,-19.84623,2.706871,-65.554447,-54.548779,-28.790131,-7.295952,-67.014713,-63.709145,-46.029339,-28.363953,-9.757738,-14.586559,-7.622286,1.045434,4.709086,22.077193,30.213427,34.697556,22.141413,36.758291,44.340933,45.524318,35.793194,46.49275,50.113732,50.122068,47.256726,56.182007,53.472893,50.116017,29.604607,54.655552,76.217995,95.093079,43.642273,76.096687,93.356094,105.060768,31.866074,70.112572,90.371132,103.498535,23.565044,59.854145,79.095726,92.639351,18.634586,45.978756,62.496758,75.995979,-10.876162,-9.327091,-0.452569,8.610169,18.924525,42.274579,49.646528,53.013099,36.665357,58.363278,63.794783,64.697018,48.939672,69.897638,74.681134,74.755172,55.596736,73.310892,77.437425,77.427236,28.043118,319.475775,-72.652874,302.952168
31,-35.685883,18.389211,0.023689,-0.08466,4.294052,7.518654,10.887451,12.5354,-15.19392,6.573486,24.132042,34.871864,-24.527206,-0.409126,22.162399,41.208916,-28.625851,-8.52253,12.138062,28.854446,-30.42841,-18.328686,-3.798351,8.893776,-17.79968,-29.142428,-27.264474,-21.776468,-12.067883,0.468871,7.975807,13.221504,5.099226,17.102456,25.426535,28.950322,18.84814,28.877889,32.665783,33.505094,29.493479,37.300275,36.564889,33.543256,29.693813,54.981651,76.54026,95.444298,44.327087,76.726227,93.697243,105.188484,32.447433,70.402222,90.30098,103.089066,23.985901,59.953136,78.925438,92.166824,18.86158,45.859451,62.249222,75.709076,-11.139651,-9.366179,-0.263613,8.846055,18.757737,42.094577,49.466217,52.928439,36.58045,58.137272,63.651151,64.771736,48.830682,69.681079,74.554422,74.734054,55.406051,73.145895,77.297931,77.317073,-7.718496,337.886877,-72.704916,302.889399
32,38.646927,-21.987346,0.691624,-0.013153,-17.648621,-33.849907,-50.748539,-65.283623,-57.094517,-50.234013,-27.560806,-10.005913,-62.817936,-51.235485,-25.684433,-2.928658,-64.260807,-55.483475,-30.804634,-9.11808,-63.268604,-62.479706,-46.430454,-29.274902,0.666349,3.591898,15.081365,25.494646,15.018009,29.266731,37.120704,42.459275,27.378836,38.578755,46.966375,49.347842,37.039564,45.695243,50.776067,52.490258,45.198893,53.689575,52.421345,50.897715,29.561119,54.68771,76.189213,95.231838,44.311352,76.769772,93.637562,105.083828,32.241898,70.157833,90.220242,102.891483,23.384342,59.281082,78.096027,90.892239,17.783604,44.292355,60.577068,73.938389,-10.856093,-9.200256,-0.349384,8.704585,19.265758,42.467734,49.937064,53.412995,36.850793,58.433736,64.181279,65.177251,48.744417,69.619143,74.627658,74.60092,55.106747,72.908835,77.287371,77.169119,30.882254,315.92755,-72.059469,302.904265
33,-36.792755,18.488259,0.422001,0.235393,6.486969,13.178787,18.171387,21.346436,-13.798027,4.45015,22.572784,33.979683,-23.880386,-3.634644,18.944435,38.258629,-29.162407,-13.245621,6.00071,22.8685,-31.455345,-23.131542,-11.376743,0.582161,-16.124144,-23.311522,-18.624604,-12.980184,-10.766431,2.886708,10.967861,16.590236,6.395058,19.40624,27.364942,30.985307,20.612967,30.536937,34.3562,35.923055,32.000916,39.246339,37.798539,35.599915,29.66898,54.551182,75.771561,94.966393,43.601646,76.257591,93.384933,104.657478,31.835575,70.163383,90.288734,102.906876,23.560352,59.936771,78.914223,91.840324,18.553905,45.931492,62.329445,75.659752,-11.543807,-9.81813,-0.591013,8.454558,17.662285,41.046796,48.553237,52.010581,35.555393,57.473517,63.291394,64.523993,48.009772,69.074814,74.084995,74.173051,54.868946,72.873452,77.070257,76.956636,-5.926065,334.429101,-71.653032,303.152949
34,19.337997,-13.875997,0.303097,-1.317877,-6.020508,-11.394539,-18.563919,-26.451645,-37.061234,-24.591579,-3.573189,10.910568,-46.582947,-30.116501,-4.572945,16.369629,-50.955048,-38.40826,-13.689194,6.094437,-52.542286,-45.898876,-28.553638,-12.062073,-10.735741,-13.627575,-3.425789,6.083959,4.841356,19.130648,27.283987,33.379556,21.978268,33.494905,41.484791,43.518541,34.843473,43.228129,47.311684,48.49581,45.558775,52.26524,50.142323,47.960804,30.147915,54.670372,75.628109,94.482594,43.284702,75.113468,92.253284,104.275417,31.622887,68.615055,89.061756,102.640858,23.113117,57.634735,77.278805,91.342678,17.623501,43.631172,59.873829,73.390903,-10.617242,-8.779612,0.224154,9.408293,18.935826,42.832247,50.789467,54.817755,36.035997,59.175543,65.970682,67.469303,47.688917,70.375833,76.726122,77.627987,53.944975,72.886914,78.103218,78.586847,13.348217,320.610949,-71.413651,301.892917
35,-31.052341,14.37457,0.612259,-2.144839,9.020977,16.674786,23.449688,27.342968,-4.073582,15.808697,31.097088,40.395756,-13.798084,9.902744,33.264027,52.453022,-19.307556,0.963821,21.309071,38.080845,-21.8993,-11.868324,1.417236,14.163609,-16.6849,-20.852373,-12.125928,-1.563644,-15.794767,-2.657676,9.77651,19.488801,-1.314605,17.546935,32.565994,41.193206,13.353774,29.767404,39.864213,45.082,26.248371,36.676904,38.872317,39.141116,30.55584,55.898552,76.839123,94.930401,47.122879,75.903683,91.2113,102.56979,33.993988,66.926022,85.538578,98.559437,23.365688,54.430332,72.488308,85.824337,15.182018,40.059586,54.740639,66.559124,-10.270637,-7.660447,2.144715,11.207638,17.792455,42.004668,53.459184,60.940123,34.461299,60.368006,72.192098,78.147308,46.05321,70.911147,80.620659,84.161798,52.984818,72.529502,79.234362,81.205312,-17.824659,335.022322,-70.921926,299.784881
36,-12.426167,-27.548526,0.870609,-7.325204,18.465042,39.522743,54.687881,59.123955,13.738747,36.02314,50.203743,57.716217,-5.409794,21.074295,39.586487,55.165215,-19.386921,2.294197,21.42437,37.662735,-29.268494,-18.29916,-6.471405,6.619663,-11.702938,-9.812943,0.908102,11.064501,-8.532425,15.637674,35.102577,50.157451,8.24263,34.704781,58.819367,71.663267,23.802005,44.943926,62.002107,71.385267,37.080875,53.345255,62.816842,67.829308,31.252041,57.272243,76.728973,93.911705,49.359398,72.945213,85.360794,94.921532,34.933605,61.162033,76.106071,87.646179,21.129742,45.601845,59.811516,71.203423,8.695507,26.538734,37.208576,46.008854,-9.936691,-4.574532,8.050833,16.550592,15.069694,42.458348,56.720162,67.322584,30.282093,59.99491,75.887243,86.042036,41.958417,69.621552,82.624892,89.772625,49.899088,72.076069,80.494256,83.670944,-30.487146,307.497971,-70.287638,292.483852
37,56.569862,3.337486,5.426846,-19.122682,-31.687546,-58.339462,-75.327129,-85.348377,-50.615902,-70.324745,-81.503277,-89.246292,-39.206314,-62.28756,-73.480167,-79.17263,-26.946373,-48.680305,-59.413776,-64.78157,-14.592361,-30.539246,-39.204998,-44.432487,-5.495972,1.926057,11.122237,19.602051,42.121747,38.888989,37.193508,35.463385,49.435589,35.14852,20.080246,9.858577,47.540901,28.160226,10.776003,0.250336,39.284377,20.740975,7.190465,-1.217039,31.892796,55.805683,66.915607,71.756458,48.871765,66.506939,74.368801,78.692608,30.071983,49.577637,56.249943,57.505589,12.088394,28.33786,33.021698,32.784634,-3.463211,11.619186,16.797295,16.905556,4.222678,18.98115,38.663477,54.199201,16.4048,48.339519,66.959985,78.192447,25.777895,65.845329,85.198031,93.270292,35.908359,74.077461,90.028272,95.609274,44.920399,74.735227,84.052685,86.216851,25.958862,310.868216,-64.984646,273.393928
38,9.933243,10.7752,42.210674,27.846781,-21.968765,-39.802094,-56.877022,-70.384426,-42.114143,-69.776516,-85.449028,-97.130928,-36.553345,-68.094807,-86.030102,-98.441677,-30.605278,-59.646206,-76.265717,-88.293285,-24.760895,-47.821884,-60.348015,-69.603539,-19.337821,-30.851864,-39.930348,-50.205184,-1.403772,8.051574,12.992287,15.969521,15.105756,25.391275,30.136115,33.091614,27.571497,38.552141,42.177507,44.046198,36.802381,46.313056,49.349941,51.065121,9.36676,7.591953,-1.809368,-8.160496,-1.413403,-7.966805,-13.725643,-20.325909,-10.76334,-11.540565,-19.772186,-28.15424,-18.361931,-16.79409,-23.263321,-29.206867,-24.095421,-23.080959,-26.053734,-29.448395,-6.758212,-2.904554,5.881912,12.330569,-19.453603,-6.488919,6.193443,12.571828,-8.921267,17.838459,33.334972,39.165878,5.728647,29.729057,41.816453,44.98499,20.764441,36.982075,42.806188,43.131737,35.306454,322.07167,-23.359623,301.668963
39,7.373199,-15.608899,-83.009777,-98.75342,-23.718567,-45.593948,-64.797878,-78.373547,-50.01091,-78.02227,-93.191643,-103.928719,-42.647896,-74.064732,-92.280693,-104.796181,-33.650093,-62.602501,-79.919014,-91.843185,-24.220734,-48.937912,-62.221355,-72.640171,-17.025206,-15.994592,-2.429199,9.954784,9.243357,22.794053,30.918987,37.858992,26.092019,40.905325,47.586102,52.280801,38.225358,52.661925,58.196182,61.51823,46.352823,59.098788,63.485784,66.012302,33.68145,58.116302,69.934673,73.435364,58.276348,75.665531,82.808189,86.811275,40.197716,60.015106,63.84058,64.073753,22.282505,43.119907,46.411343,45.592117,6.69096,25.254192,30.051441,31.990757,-0.543095,13.124062,32.435948,48.351561,13.559464,46.138055,63.255208,74.283831,22.470049,64.573764,72.828868,72.194259,31.456771,68.381109,67.850179,61.029723,39.39312,66.438071,64.215488,57.7756,42.149248,306.839495,-106.899805,203.292267
40,4.030838,-0.048289,-19.959126,-29.140143,-25.772552,-48.770714,-68.890572,-84.612007,-51.779251,-79.291763,-95.07391,-107.466431,-44.921608,-75.822086,-93.926411,-107.941418,-36.533775,-65.778809,-83.302803,-97.102261,-27.845421,-53.19809,-67.683964,-79.605961,-17.692358,-16.467168,-2.296066,9.869877,9.73909,24.174916,31.505492,37.325592,26.907495,40.210819,46.224876,50.537772,39.256219,52.146,57.38614,60.237033,47.373866,59.599089,63.468494,65.286426,34.801369,63.475685,79.376907,84.479141,60.170746,78.060894,71.644878,65.713921,39.325218,61.70042,55.298367,48.918457,21.011295,45.449924,39.84724,35.499573,5.912819,29.374123,28.526917,25.933456,-0.81844,13.187974,36.35821,51.512996,-10.581242,31.165248,41.46781,39.876378,-7.074065,39.314326,44.935775,39.505567,2.678054,45.100895,45.086137,36.067242,16.111794,46.523069,44.799121,37.543942,45.582447,307.711689,-127.45657,175.072607
41,0.089264,-1.416122,-6.342487,-30.715334,-26.930351,-50.368195,-70.83395,-86.152096,-52.889099,-80.180798,-95.647545,-107.490292,-46.130333,-76.856632,-94.734535,-108.280563,-37.89814,-66.560268,-83.792667,-97.415657,-29.466476,-54.127579,-68.434811,-80.406189,-17.301539,-15.31651,-0.960589,11.995635,10.088535,24.367948,32.390005,38.876269,27.326904,41.094282,47.128964,51.636374,39.866004,53.36767,58.096887,60.793404,48.037066,60.397152,64.145278,66.055342,29.574509,52.492847,63.651066,64.312649,52.685223,68.071976,56.857224,52.789593,31.167698,48.775463,41.364498,36.817188,12.893772,31.250839,25.765743,22.681675,-1.696186,16.372719,13.880539,10.542812,0.273184,9.719391,26.273874,35.201687,-17.078311,24.678861,29.199794,19.69375,-16.045042,31.673454,32.083723,21.452402,-8.122587,37.233152,35.991598,24.547641,3.799132,36.265523,34.997849,26.148335,44.97714,307.387299,-134.493628,145.449004
42,-0.506401,-1.809719,9.104805,-19.629715,-26.917191,-49.768639,-69.51931,-84.948807,-53.862762,-80.993099,-95.916939,-107.360401,-47.000198,-77.614059,-95.043125,-108.608437,-38.32489,-67.100258,-83.949165,-97.487869,-29.215622,-53.449173,-67.411823,-79.44294,-16.700461,-14.865918,-0.404033,11.780188,11.578264,26.131354,34.001074,40.051255,28.349985,42.079015,48.18749,52.802963,40.631709,53.943369,58.998134,61.960734,48.593746,60.944569,64.927471,67.016611,25.176086,40.97517,39.981995,26.5872,27.961292,36.41304,34.540901,32.286358,5.406761,22.179451,23.479958,18.884811,-11.53204,8.301258,13.828754,11.428986,-23.814125,-6.826344,-2.139759,-5.644455,0.962318,3.696812,13.458194,16.387263,-35.605041,2.066663,13.870625,9.632879,-36.057949,12.588254,19.292249,10.355976,-27.735445,18.538029,22.476471,11.64903,-14.72065,15.556967,18.13764,9.349259,43.419771,306.166601,-126.439791,126.408311
43,0.588799,-0.348828,-3.033829,-33.667251,-27.021103,-50.449677,-70.650787,-86.211662,-54.218102,-81.828289,-96.688042,-107.964649,-47.232628,-78.472309,-95.754662,-109.431553,-38.543243,-67.579765,-84.308395,-97.643795,-29.416809,-53.736305,-67.502518,-79.436646,-16.383002,-14.913095,-0.78034,11.881026,11.533742,26.215273,33.790134,39.500936,28.444772,42.040051,48.269247,52.902072,40.897792,53.810235,59.199194,62.387306,49.099235,61.016323,65.260923,67.575328,23.134518,36.484337,35.719471,25.628471,22.499371,23.853664,25.330124,25.854378,-0.628567,8.213367,12.337532,9.907265,-18.308659,-8.56842,0.425949,1.213131,-31.694012,-23.126965,-15.396996,-15.809956,0.704665,3.807129,17.009182,23.226615,-28.245256,8.619215,12.781749,5.350797,-28.40837,15.127431,14.538424,4.421113,-21.40578,18.528643,18.871142,8.604179,-10.331122,11.980012,13.990297,7.201426,43.621244,306.712536,-129.860945,93.635824
44,0.657349,-0.340183,-11.073017,5.903216,-27.06459,-50.540657,-70.960236,-86.862659,-54.505463,-83.026371,-97.876453,-108.951874,-47.347069,-79.542217,-96.839104,-110.358524,-38.436813,-68.540726,-85.431633,-98.701515,-29.307175,-54.445152,-68.380623,-80.276585,-16.401589,-14.69771,-0.562793,11.85151,11.494283,26.201564,33.665645,39.351068,28.338252,41.90031,47.962595,52.597087,40.781701,53.764169,58.992639,62.20965,48.924172,60.804149,64.882331,67.322028,19.975834,33.831482,42.512856,41.818085,23.000507,22.270031,22.892704,25.455093,7.185345,4.495525,4.901962,7.262306,-6.714592,-10.337849,-7.732601,-3.368454,-18.401299,-21.616173,-19.406891,-15.37571,-5.32903,-8.236208,-11.305945,-12.445549,-23.231215,-23.564822,-20.165184,-18.627475,-24.51621,-26.241609,-22.879485,-20.100994,-24.210083,-26.676579,-23.708947,-21.524187,-23.110987,-27.270248,-25.844184,-25.027812,42.326832,307.70133,-142.885723,100.868017
45,0.624847,-0.342838,-1.769428,-32.971478,-26.858025,-50.543861,-71.124859,-87.39584,-54.73629,-83.582382,-98.441906,-109.467258,-47.530861,-80.018063,-97.254696,-110.638847,-38.548393,-69.050674,-85.931225,-99.062519,-29.416695,-54.777832,-68.781166,-80.617676,-16.486681,-14.464231,-0.120105,12.28543,12.458578,26.930034,34.162921,39.72651,29.321874,42.253769,48.001127,52.473154,41.593225,54.242797,59.266502,62.293692,49.473504,61.334338,65.329713,67.625284,20.677929,35.510502,37.851734,27.15992,17.069721,19.591885,21.030693,20.964832,-4.595089,4.467831,9.265022,7.610836,-20.430737,-10.018959,-0.973835,-0.618267,-32.046261,-24.07568,-14.688263,-13.188972,-6.098903,-8.356189,-0.14042,2.584347,-49.070799,-13.85318,-3.52601,-7.958424,-47.514565,-5.194753,0.162249,-6.803444,-37.799496,1.666489,5.167799,-2.914434,-23.926463,-0.407831,2.823568,-2.782813,40.853205,307.325965,-146.753626,67.864012
46,1.700363,0.56304,-2.00592,-10.979748,-26.672974,-50.956764,-71.862202,-87.916946,-55.324173,-84.272289,-99.210606,-110.29501,-48.457375,-80.954189,-98.399963,-111.848259,-39.781837,-70.202579,-87.258568,-100.419331,-30.832901,-55.918236,-69.893818,-81.629505,-16.969878,-15.128048,-0.896678,11.962475,11.769937,26.524148,33.834841,39.529958,28.770752,41.817194,47.56344,51.9555,41.15807,53.609114,58.70093,61.756402,49.175929,60.783648,64.937289,67.467018,18.209839,32.770901,32.707615,18.330402,13.3885,17.876701,18.284512,17.656574,-7.559452,2.304039,7.409134,6.762886,-22.448788,-11.749878,-2.833843,-1.65453,-32.18399,-25.444736,-16.86327,-14.438953,-5.069246,-7.711824,-1.315376,2.666074,-48.203884,-10.57766,0.228353,-3.647103,-46.658272,-3.992257,1.999633,-2.937436,-36.904084,1.298395,4.220826,-2.549891,-23.980248,-2.185162,2.077778,-1.913769,40.400419,308.276597,-150.912695,57.271855
47,1.302567,-0.285781,-4.315968,-10.388766,-26.908722,-51.298485,-72.459412,-88.623905,-55.328865,-84.861317,-100.133858,-111.300602,-48.044586,-81.287498,-98.966045,-112.509785,-39.065437,-70.170021,-87.195625,-100.011921,-30.045547,-55.658569,-69.656925,-81.109772,-16.556026,-14.390007,-0.111089,12.314885,12.714101,27.333943,34.372132,39.899102,29.684041,42.523124,48.279807,52.761775,41.914327,54.27608,59.296759,62.31339,49.53087,61.136736,65.207447,67.532227,18.799496,31.870766,30.749531,15.666504,14.215794,17.502079,17.662354,17.126827,-6.580868,-0.061169,5.564976,6.450005,-21.863136,-12.947674,-4.115868,-2.477589,-31.899319,-24.775085,-16.563663,-14.647408,-5.201175,-7.556058,-0.11183,4.352478,-45.450125,-11.927061,2.665734,5.130626,-43.852673,-4.996967,3.793482,2.570176,-34.076471,2.749221,7.314028,2.487646,-21.345172,2.546649,7.165518,2.862162,40.087595,308.816666,-156.844053,47.708939
48,0.933266,-0.329871,-0.923481,-8.43242,-26.961021,-50.959969,-71.572609,-87.48642,-55.871201,-84.988518,-100.0811,-111.609707,-48.745537,-81.400223,-99.205284,-113.366718,-39.930267,-70.746403,-87.846508,-101.143742,-30.783348,-55.565529,-69.359722,-80.945148,-16.617345,-14.236002,0.05749,12.247453,13.42491,27.941506,34.876324,40.078981,30.20015,42.788466,48.402566,52.743682,42.077225,54.339992,59.52715,62.630232,49.399095,61.047878,65.093888,67.523705,17.760315,29.211216,25.936775,10.904903,14.698906,15.700092,15.139389,14.308548,-6.137295,-2.261181,1.465244,1.906986,-22.372742,-15.838852,-8.605499,-6.905136,-33.950672,-28.537388,-21.425743,-19.929771,-3.557997,-1.555431,10.123826,15.946087,-35.550299,-0.607871,14.623362,17.483888,-35.466504,5.257461,15.510005,13.866456,-27.335148,10.601249,17.051604,12.693662,-14.781103,11.21372,16.784102,13.575396,39.36307,308.887509,-159.425325,39.677233
49,1.321907,0.39687,-5.557537,-21.599522,-27.110825,-51.281433,-72.288437,-88.331451,-56.10466,-85.667667,-101.035252,-112.666454,-48.994789,-81.974487,-100.103874,-114.223652,-40.29808,-71.442032,-88.966026,-102.449741,-31.321907,-56.383667,-70.628471,-82.468243,-16.817786,-15.016897,-0.510058,11.84904,12.632529,27.610709,34.680328,40.047118,29.533308,42.528991,47.744678,51.838977,41.495659,54.300657,59.466511,62.777939,48.849207,60.99471,64.888259,67.338824,18.477802,31.457634,35.846958,33.725109,18.945751,21.715565,22.536106,22.745819,-0.015564,3.958569,6.999149,7.843037,-15.935669,-13.535213,-7.63401,-3.611698,-28.881168,-27.365398,-21.971741,-18.388195,4.6369,14.655133,31.888901,45.87398,0.185776,34.192562,48.396577,53.630881,2.921319,39.037777,50.52746,50.511497,8.813667,39.737532,49.48573,48.382868,17.051481,37.737869,45.903249,46.870878,39.803524,309.236585,-165.864315,18.029916
50,0.807953,0.156723,-2.089176,38.941107,-26.937561,-51.336479,-72.648869,-88.816223,-56.428986,-86.212406,-101.603622,-112.890701,-49.049492,-82.456741,-100.310211,-113.96925,-40.242805,-71.581879,-88.773365,-101.725559,-31.355209,-56.681671,-70.625439,-82.024326,-17.026688,-15.075622,-0.628866,11.924252,12.532061,27.752364,34.903741,40.234098,29.711458,42.895603,48.335938,52.261782,41.741549,54.469853,59.528817,62.468446,49.017292,61.230782,65.265554,67.592804,24.375286,36.506596,36.549854,28.79694,25.538864,23.437614,22.503891,22.178478,3.796177,6.546993,7.934303,7.718868,-14.574795,-12.24947,-6.533489,-2.578297,-29.687634,-29.539776,-21.462078,-15.565968,1.891415,4.209279,15.914285,24.901842,-19.975579,19.229696,27.661406,25.301676,-20.757957,24.777106,29.037761,22.32546,-15.560919,24.057714,24.238673,15.536126,-6.299098,17.756887,18.833536,12.622896,39.234438,309.750765,-169.33053,57.32848
51,0.74295,-0.369514,1.245861,-3.748281,-27.202492,-51.760025,-73.192348,-89.828911,-56.283188,-86.091213,-101.444492,-113.056011,-49.074326,-82.279072,-100.197716,-114.22823,-40.520554,-71.990948,-89.445591,-102.793064,-31.900635,-57.007141,-70.992451,-82.584057,-16.582023,-14.508506,-0.619418,11.257656,12.540274,27.529136,34.62994,39.635181,29.75209,42.696211,48.100298,51.858366,41.949401,54.4094,59.393214,62.165437,49.41799,61.293644,65.050848,67.160674,19.452896,33.001671,33.301792,25.533714,20.183945,23.687897,24.503117,25.070629,-2.165794,3.62011,7.408562,9.832592,-19.872894,-14.244118,-7.129154,-1.906071,-33.651409,-31.184921,-23.955803,-18.037434,2.999588,15.528994,38.437007,54.234708,-4.816748,28.899718,47.06848,56.020036,-4.412901,35.527482,49.781885,53.078092,1.029318,36.663257,47.791515,48.15115,9.664186,31.79152,40.06305,40.449546,38.681459,310.1397,-169.380598,54.338649
52,0.558014,0.06527,2.617607,5.755293,-26.730881,-51.338425,-72.999287,-89.410686,-55.898323,-86.050701,-101.889095,-113.883247,-48.721962,-82.811508,-101.306362,-115.739708,-40.146446,-72.126389,-90.128059,-103.93959,-31.416321,-57.059898,-71.449013,-83.469429,-16.340085,-14.744146,-1.333438,10.504239,12.93665,27.611944,34.648712,39.986603,30.02126,42.277296,47.627352,51.91283,42.145706,54.284725,59.31053,62.510498,49.564524,61.324952,65.141312,67.529201,18.36834,29.026279,25.222378,17.305126,14.985981,15.866146,15.762405,16.855087,-4.258575,-1.761532,1.263084,4.827061,-20.181427,-18.871422,-14.74165,-11.249485,-32.578468,-32.566967,-27.672043,-23.871231,4.164757,14.946039,38.707844,59.280056,-8.676427,27.929897,47.734797,57.389042,-8.68819,33.725883,50.232416,54.668875,-2.812793,33.208353,43.049238,42.448839,7.562326,31.350777,37.336306,36.497612,38.477898,311.20633,-167.524567,61.095302
53,0.899277,0.708833,0.319748,1.26082,-26.925545,-51.449203,-73.143826,-89.835835,-56.426353,-86.849728,-102.37524,-114.0382,-49.402199,-83.456726,-101.54829,-115.615597,-40.964699,-72.819557,-90.441742,-103.850555,-32.407265,-57.975197,-72.186985,-83.86179,-16.429129,-14.800894,-1.240442,10.688935,12.988582,27.359076,34.074927,39.069794,29.907948,42.131009,47.121986,51.053635,41.896296,54.209946,59.108297,62.241822,49.1721,60.862503,64.503492,66.924973,16.043301,26.289825,21.140842,12.949219,11.381493,12.233162,13.498306,15.308075,-7.011166,-2.243443,0.438309,2.740974,-22.010307,-18.681049,-14.495029,-11.166744,-33.248177,-32.775822,-27.631989,-23.166046,3.488682,12.744606,37.714836,56.503232,-12.769738,19.597821,38.011917,46.714032,-13.497745,24.727983,40.951823,46.330161,-8.265138,24.020602,34.217169,35.083466,0.646342,22.291528,28.445852,28.732652,38.579521,312.142636,-168.002472,62.583595
54,0.503426,0.126033,-8.74609,-32.647288,-27.370605,-52.016373,-73.655777,-90.106602,-56.782265,-87.304058,-102.612991,-113.77161,-49.293251,-83.47332,-101.404152,-115.127964,-40.494461,-72.531223,-89.930363,-102.97205,-31.794662,-57.33284,-71.390934,-82.758236,-16.207816,-14.325169,-0.773671,11.33824,13.27109,28.087422,34.925786,39.675195,30.281538,42.735361,48.034472,51.696519,42.28168,54.658871,59.445763,62.086396,49.455287,61.107837,64.483053,66.323956,23.662663,38.307037,41.739922,34.412785,24.821262,26.267395,25.927849,24.916878,2.456131,7.60643,10.252132,9.819317,-15.875759,-9.96666,-3.47168,-0.996952,-29.779873,-27.170162,-19.176064,-14.319649,10.591523,25.907509,47.646772,62.589878,6.276374,43.684526,55.019648,59.116386,6.917281,50.965733,56.241874,52.728831,10.970702,49.147523,50.728735,45.006109,17.488643,41.060473,42.691981,38.540285,38.623381,312.263404,-177.208128,29.931042
55,0.122337,0.085277,-0.977039,-5.183113,-27.30011,-52.120514,-73.91098,-90.562992,-57.21302,-87.806625,-103.296375,-114.491901,-49.628105,-83.921299,-101.875534,-115.475063,-40.743027,-72.696877,-90.442715,-103.884659,-31.957626,-57.900581,-72.446995,-84.398289,-16.49934,-14.42786,-0.595336,11.865897,13.759412,28.875728,35.925772,41.084093,30.822101,43.579798,48.822099,52.55769,42.772781,55.714062,60.630445,63.270584,49.927616,62.07806,65.709787,67.699261,23.647385,37.314892,42.07695,36.16991,29.983234,29.07526,27.465191,27.291069,8.802738,13.388901,12.888622,11.501026,-9.467068,-4.458675,0.384407,3.555508,-24.569035,-21.645184,-15.26659,-10.427685,10.126604,23.894291,42.094607,52.046458,0.41558,44.632302,48.367091,42.452235,-2.305822,50.435236,50.718083,40.481563,0.178551,47.098923,44.634834,34.054333,6.274398,37.425782,36.570354,28.096777,38.535547,312.296179,-178.395338,24.695425
56,0.096474,0.025132,5.681076,-30.601405,-27.624435,-52.210007,-73.931866,-90.966854,-57.404137,-88.131351,-103.809242,-115.17231,-49.830666,-84.04192,-101.885777,-115.336418,-41.02993,-72.77544,-90.381374,-103.593063,-32.452812,-58.242531,-72.68755,-84.417458,-16.281731,-14.01864,-0.212298,11.978839,14.404395,29.530467,36.246133,40.994431,31.633254,44.46005,49.348212,52.57603,43.556765,56.681382,61.191694,63.279599,50.559941,62.944974,66.227193,67.684812,-5.280991,-8.47681,-3.350658,-0.259495,-2.532692,2.248821,5.521202,8.037643,2.304897,8.585129,10.955715,12.396297,7.369137,14.015751,16.730232,19.522705,12.646236,16.752777,19.814129,23.215714,11.433953,29.556063,50.691839,63.545249,17.047127,62.179577,75.835434,79.853966,18.422741,73.50522,85.260801,85.065299,22.095563,74.036984,82.144566,78.957041,27.687557,66.68532,73.661603,71.113164,38.179293,312.368859,-173.16699,-5.858431
57,0.288162,-0.136654,-2.190113,-11.58978,-28.042946,-52.694321,-74.262028,-91.389885,-57.61837,-88.636723,-104.221001,-115.507565,-49.667015,-84.295464,-102.043762,-115.485764,-40.833664,-73.214149,-90.657177,-103.703442,-32.532921,-58.919449,-73.105087,-84.407902,-16.418138,-13.617201,0.725814,12.759117,14.838377,30.16662,36.825043,41.423041,32.00246,45.325667,50.365612,53.509511,43.69595,57.357241,61.935972,64.101682,50.40927,63.232545,66.608626,68.356718,27.854404,35.794601,41.845379,41.476536,19.952145,23.121128,24.414082,24.052563,1.640854,7.53891,10.8391,12.990875,-12.526245,-4.769039,1.616364,6.347923,-22.476883,-15.218983,-6.875439,-0.564938,14.22288,37.603562,62.980573,74.759371,22.950714,66.476789,76.808034,81.68221,23.648617,72.55624,84.117801,85.685767,26.383574,71.817396,81.887067,82.630789,30.539469,63.549263,72.01083,73.469498,37.763901,312.264933,-176.060658,-17.415484
58,0.47493,-0.26386,0.494728,-9.530466,-28.334312,-53.12439,-74.830284,-92.026863,-58.404579,-89.198685,-104.553795,-115.803623,-50.470848,-84.748077,-102.339821,-115.633163,-41.506348,-73.569088,-90.82901,-103.606968,-33.092422,-59.302025,-73.370132,-84.49379,-16.391276,-13.333211,1.04741,13.14234,14.992383,30.173227,36.701172,41.162145,32.155107,45.669925,50.76946,53.688587,43.761776,57.697053,62.29221,64.265012,50.388398,63.318131,66.743056,68.406489,29.42791,43.55278,52.604885,54.120255,26.156616,28.932781,28.899193,27.258339,3.645744,9.002552,11.03611,11.456223,-14.245205,-6.963673,-2.551117,-0.066319,-26.840858,-21.687756,-16.381302,-12.609272,10.910896,34.704596,63.358084,78.605033,20.95352,70.927974,79.462561,81.420697,24.164727,81.986053,86.822623,83.068692,30.574914,82.996444,85.442347,80.338614,38.286768,74.845204,78.310761,75.841516,37.846527,312.296132,-175.958233,-26.650891
59,0.121193,0.040632,3.315182,-3.532463,-28.597755,-53.2798,-75.070267,-91.915283,-58.812332,-89.77335,-105.082626,-116.24548,-50.849419,-85.272617,-102.95105,-116.335545,-41.816826,-73.888035,-91.05114,-103.799343,-33.355865,-59.431458,-73.360233,-84.350567,-16.475627,-13.796092,0.547232,13.014023,14.80497,29.814951,36.378526,40.830607,32.010673,45.58261,50.789343,53.886991,43.681994,57.643392,62.221074,64.190727,50.354744,63.233286,66.560275,68.128365,-15.83765,-27.02528,-36.327095,-38.457985,-23.53569,-24.803753,-20.998421,-18.883095,-12.509365,-7.923889,-3.903065,-3.133678,1.850452,11.318779,13.424206,11.893616,17.079735,30.477905,34.371471,32.107887,26.078033,51.291096,77.826144,92.529071,30.587079,65.471708,76.096299,79.005978,20.469397,64.449677,75.190358,76.82273,16.235758,58.368404,72.019228,76.957007,16.39529,55.386476,71.983629,80.422749,36.798048,312.333414,-173.812723,-30.186704
60,0.21801,0.060577,12.251587,-11.059591,-28.497047,-53.458786,-75.517159,-92.335224,-59.054146,-90.109806,-105.41811,-116.428757,-51.279373,-85.784111,-103.507748,-116.758003,-42.332382,-74.328289,-91.410427,-104.00425,-33.936768,-59.983292,-73.984165,-84.934731,-16.500266,-13.827276,0.447814,13.018407,14.417733,29.592465,36.12288,40.517286,31.770772,45.645719,50.787429,53.685685,43.631915,57.823765,62.323085,64.149415,50.429956,63.393158,66.835188,68.321397,-21.972027,-35.950699,-44.05592,-41.754341,-31.956024,-38.135719,-32.488518,-29.287663,-15.867519,-16.270008,-12.134628,-11.52689,1.429596,7.375774,9.991207,8.287239,16.430798,25.794353,29.376926,27.704945,19.591769,42.681792,67.907731,81.054579,28.682819,55.725393,68.077637,75.590501,23.267648,52.051491,66.388918,72.777029,20.999216,51.807731,68.20015,77.528198,21.495164,53.07099,71.126471,84.224042,36.069202,312.964117,-162.507992,-40.67617
61,-0.503311,-0.127082,-0.624619,4.531677,-28.619957,-53.827629,-76.115112,-93.425102,-58.68782,-90.90683,-106.29879,-117.013836,-50.740242,-86.654606,-104.200802,-117.089939,-41.711311,-75.099335,-92.029781,-104.218254,-33.437347,-60.336914,-74.165039,-84.677467,-16.696015,-13.785841,0.560138,13.114367,13.739714,29.247836,36.040751,40.539516,31.403913,45.388282,50.346346,53.087385,43.703484,57.739784,61.985928,63.61231,50.937483,63.75341,66.667659,67.735694,-12.422047,-21.985588,-27.437439,-24.986801,-18.897171,-19.374275,-16.71793,-15.19083,-11.463089,-8.348122,-5.064182,-3.922119,-1.536942,6.368923,8.086853,6.335564,8.354702,21.15612,24.385757,22.232494,17.216077,40.129678,64.615631,80.263556,26.128267,50.703047,65.712689,74.959751,20.732763,47.137918,64.843675,74.160392,17.711778,46.029498,64.949454,76.678234,17.016932,42.941051,59.204288,71.135795,35.212526,312.800926,-163.485975,-36.180601
62,-0.108147,-0.195131,0.301208,13.957168,-28.749504,-54.135132,-76.549473,-93.909245,-59.338074,-91.388741,-106.766567,-117.424965,-51.377449,-86.894646,-104.221401,-116.951637,-42.364311,-75.223389,-92.057648,-104.377899,-34.124565,-60.792503,-74.508133,-85.102844,-16.599313,-13.522599,0.972075,13.626402,13.636899,29.212082,36.117569,40.871424,31.241695,45.694934,50.494794,52.966354,43.680142,58.236505,62.359024,63.757856,51.1667,64.109092,66.938188,67.871175,-23.381481,-35.283394,-40.743084,-39.243107,-37.033367,-42.253418,-37.816029,-33.992901,-22.103977,-20.460205,-16.276703,-13.27137,-3.469963,4.786377,7.534847,7.961597,14.509048,26.574783,30.797195,30.254917,17.412721,38.548683,61.399052,74.56035,37.403213,58.279452,64.417628,68.363788,30.149793,51.012108,58.275006,61.66285,24.438374,44.777231,52.883331,58.670209,21.492015,43.50332,49.867965,54.89695,34.767752,312.351939,-163.521395,-22.477289
63,-0.209427,-0.112756,8.79221,11.330707,-28.691139,-53.899956,-76.519833,-93.818035,-59.335899,-91.471939,-106.727829,-117.439156,-51.604729,-87.052402,-104.3787,-117.159004,-42.80159,-75.71846,-92.698288,-105.133038,-34.738655,-61.305313,-74.957542,-85.680771,-16.525831,-13.751076,0.309555,12.67489,12.86045,28.196041,35.511118,40.986959,30.1899,44.63363,49.903101,53.205699,42.74592,57.15754,61.4219,63.303126,50.539316,63.357219,66.145868,67.407923,-20.941315,-33.784676,-42.580433,-42.765369,-40.286407,-48.18552,-48.416462,-49.489746,-26.329765,-24.979877,-24.645824,-25.143127,-8.195114,-0.592232,0.569401,-0.479965,10.736504,20.098171,24.299068,25.332527,26.206319,50.210371,72.293523,84.974124,39.772174,65.881978,80.699236,90.62123,27.475691,57.934484,75.196688,85.634854,18.433115,49.050977,68.818982,83.143163,12.936804,48.255786,68.352766,84.769854,31.399899,310.460756,-157.887611,-12.92501
64,-0.458565,-0.361981,2.816277,27.111317,-28.822174,-53.791122,-76.290951,-93.189354,-59.758873,-91.378441,-106.506443,-117.335587,-52.212982,-87.004509,-104.490795,-117.555428,-43.364868,-75.686588,-92.570686,-104.942036,-34.855843,-60.695114,-74.072342,-84.70705,-16.449878,-14.173819,-0.368032,11.567025,12.40961,27.127265,34.676932,40.507591,29.523119,43.149582,49.32802,53.747003,42.076916,55.550609,60.596606,63.370249,50.073965,62.32537,65.311188,66.701992,-20.248232,-32.784577,-39.363613,-38.250733,-38.70781,-46.070595,-45.190115,-44.174023,-23.752356,-27.592507,-25.725203,-23.780995,-5.832825,-5.16469,-4.738712,-4.962244,12.543611,16.913338,17.936497,18.032713,24.204664,49.655513,72.271679,87.12591,34.811656,60.17482,76.965251,89.232387,28.474736,56.847383,76.323772,88.65834,25.397852,55.035179,76.707288,91.212923,25.387061,56.571467,75.552185,90.082242,29.096003,309.198376,-156.916666,13.28591
65,-1.047707,0.100097,2.816276,27.111318,-28.442459,-53.53054,-76.235046,-92.976494,-58.777313,-90.366154,-105.732822,-116.76178,-51.423111,-86.532097,-104.277306,-117.460785,-42.824249,-75.687389,-92.658749,-104.968357,-34.549828,-60.768929,-74.375839,-85.175056,-16.595855,-14.701353,-1.288484,10.569201,12.138278,27.221002,34.658283,40.033842,29.370904,42.89375,48.908735,52.944494,41.830655,54.725623,59.514985,61.985681,49.493573,61.242947,64.469777,66.102643,-19.555149,-31.784477,-36.146793,-33.736095,-37.129211,-43.955669,-41.963768,-38.858299,-21.174946,-30.205135,-26.804581,-22.418861,-3.470535,-9.737148,-10.046825,-9.444523,14.350719,13.728504,11.573925,10.732899,22.203009,49.100655,72.249835,89.277696,29.851137,54.467661,73.231265,87.843543,29.47378,55.760282,77.450856,91.681825,32.362588,61.01938,84.595594,99.282683,37.837318,64.887148,82.751604,95.39463,26.74201,308.896911,-155.406675,39.995665
66,0.53318,-0.165676,3.711491,-0.065795,-28.064919,-53.737221,-76.690693,-93.958969,-58.547516,-89.927158,-105.362549,-116.240673,-51.245613,-86.213093,-104.011173,-117.091942,-42.624321,-75.43911,-92.547741,-104.714355,-34.405746,-60.594749,-74.34494,-84.965916,-16.61506,-14.612926,-0.741067,11.04789,12.413932,27.627196,34.940544,40.245275,29.932462,43.30896,49.050575,52.962155,42.356213,55.067535,59.665471,62.000501,49.714269,61.381886,64.647062,66.176373,-23.547993,-35.74688,-38.488827,-38.19746,-37.50761,-53.598118,-59.817467,-63.035431,-21.409206,-34.561157,-38.707924,-38.780136,-2.909489,-8.087597,-10.614624,-10.933514,15.579357,16.0746,16.344109,16.78648,10.965329,34.728586,56.496594,73.551255,33.97273,59.299476,77.378175,94.007067,36.268703,68.468888,90.113272,106.725923,39.700884,73.159665,94.482175,111.026839,43.4349,74.215752,92.434531,108.744544,26.483746,308.58078,-152.486629,39.779415
67,-0.029984,0.079843,0.049553,-0.160705,-28.024979,-53.573341,-76.332836,-93.654613,-58.303757,-89.586067,-104.918404,-115.776043,-50.694008,-85.878468,-103.4729,-116.451874,-41.977272,-74.953766,-91.967869,-104.09071,-33.878403,-60.387154,-74.159832,-84.81863,-15.968595,-13.879887,0.017537,12.130621,12.942331,28.571422,35.824193,41.02296,30.075044,43.922759,49.502218,53.453009,42.269392,55.506643,60.191399,62.688462,49.594226,61.324643,64.595933,66.426585,-23.348751,-31.351891,-31.432056,-29.14793,-30.445919,-46.144981,-52.759838,-55.990562,-14.212418,-27.474461,-33.671951,-35.133247,2.724323,-0.713882,-2.625389,-2.849178,18.062096,15.862999,13.285103,10.994854,13.445411,39.907037,62.962665,78.352134,32.041363,60.150737,79.330662,94.741372,33.239907,67.51611,88.355515,103.438856,36.648993,75.014061,101.5446,121.446758,41.472719,73.897027,87.732639,97.711814,25.867853,308.392348,-153.022985,39.350435
68,1.383362,0.360437,-0.614662,-0.665021,-28.215408,-53.849258,-76.483784,-93.524151,-58.494415,-89.519577,-104.996624,-116.011333,-51.054382,-85.892715,-103.631115,-116.548977,-42.380104,-75.199986,-92.388954,-104.599056,-34.317055,-60.515442,-74.372692,-85.071144,-15.79168,-13.611335,0.476034,12.242575,12.978393,28.870232,35.850869,40.403171,30.175944,44.222743,49.738413,53.133883,42.450506,55.968721,60.541339,62.667406,49.955034,62.021249,65.323723,66.889961,-22.158794,-28.620014,-25.206928,-22.720814,-29.368744,-43.811588,-52.218475,-58.377457,-13.583794,-25.461445,-32.940273,-35.992241,2.673855,-0.358543,-1.43549,-1.145611,18.05912,17.587337,15.879993,14.595909,11.85222,38.03884,60.701859,77.178598,30.646359,56.943544,75.028788,89.704978,32.073504,64.903481,85.194913,100.79776,35.229228,71.557674,98.04999,118.848147,39.42736,68.418623,81.420357,91.628009,27.054434,308.783445,-153.834429,38.716073
69,1.375809,0.067061,-0.599842,-0.303905,-28.74939,-54.600334,-77.396507,-94.618206,-58.281212,-89.861183,-105.747185,-117.069912,-50.800095,-85.802135,-103.906803,-117.149391,-42.306976,-75.198669,-92.799854,-105.459824,-34.33342,-60.246277,-74.147186,-84.97839,-15.589509,-13.43195,0.553963,12.480005,12.687116,29.025287,36.293619,40.972942,29.993287,44.538473,50.090329,53.340809,42.349729,56.244807,60.894984,62.92898,49.728101,62.167289,65.725595,67.552295,-22.748108,-30.751762,-27.543526,-24.703674,-32.810211,-47.187996,-55.126133,-60.713596,-17.083397,-26.113415,-32.129002,-34.869633,0.887775,1.603603,3.707771,6.536522,18.892765,20.094738,21.036644,21.659718,11.912704,35.841761,55.872699,72.071777,30.367803,53.512351,70.434558,84.05886,31.718964,60.106801,80.651349,96.614139,33.811901,66.62465,92.819576,114.217576,36.022257,61.717098,76.343269,89.128013,28.337975,308.909261,-154.526539,38.470923
70,-0.324097,0.637697,0.94408,-2.411786,-28.066406,-53.356247,-76.128445,-93.409595,-58.32058,-90.489235,-106.247292,-117.230015,-50.630493,-86.271,-104.381618,-117.46479,-41.851387,-75.192719,-92.729759,-105.31826,-33.507729,-59.655876,-73.608341,-84.575958,-16.327612,-14.287563,-0.411566,11.599753,12.161744,28.509856,35.99765,41.189933,29.401656,44.371808,50.277988,54.14801,41.673624,55.972302,61.071837,63.783483,48.932632,61.872122,65.670143,67.918228,-23.453064,-32.4119,-30.245705,-24.487782,-33.962288,-49.432182,-56.706676,-61.286545,-17.236576,-27.410488,-33.439636,-35.403786,1.080894,0.680523,1.326313,3.32571,18.647003,19.222641,18.979568,18.439407,10.709652,35.096433,56.502677,71.939909,27.309336,52.823927,70.483371,84.385273,28.436003,61.785085,82.049471,96.677804,31.606825,69.09692,94.849312,114.177623,36.18747,66.662256,82.157287,94.733283,27.97368,309.555649,-153.622656,36.067829
71,0.28141,0.037359,0.707359,-2.24188,-28.564911,-54.190063,-77.088718,-94.265099,-59.586182,-90.949059,-106.546211,-117.638054,-52.066154,-86.588287,-104.463959,-117.481441,-43.357086,-75.627193,-92.76947,-104.996281,-34.85939,-60.209084,-73.786469,-84.346104,-16.133407,-13.891249,-0.1009,11.98946,13.122148,28.879371,36.125905,41.239519,30.249119,44.850991,50.645774,54.323196,42.40691,56.695585,61.48822,63.788978,49.516667,62.581696,66.244916,68.140962,-22.850533,-31.199913,-30.445976,-26.515274,-32.743664,-47.775421,-54.612522,-58.136158,-16.295242,-27.759075,-34.071407,-36.107826,1.41861,-0.843201,-2.496414,-2.262897,18.123665,17.688046,16.033001,14.332066,10.626845,36.045012,57.605138,72.833716,26.658795,52.651767,71.143761,85.718618,28.561789,61.991177,81.913898,96.110286,32.702833,71.000778,96.842831,116.061844,38.214644,70.482476,86.255754,98.402091,28.235664,309.632605,-152.934723,33.865547
72,-0.314713,-0.114856,0.336571,0.085061,-29.347687,-54.673691,-77.141476,-93.852654,-59.332809,-90.804634,-106.354809,-117.217312,-51.679688,-86.530781,-104.300079,-117.220116,-43.085747,-75.61924,-92.5173,-104.538918,-34.852867,-60.362434,-73.839283,-84.324131,-15.803783,-13.794672,0.037977,12.360148,13.193346,29.185035,36.453553,41.251004,30.607394,45.167154,50.928097,54.399766,42.903569,56.793645,61.343477,63.379944,50.233466,62.871923,66.277952,67.896863,-22.669258,-30.32547,-28.460827,-24.814281,-32.103081,-47.11235,-55.134945,-60.930862,-15.94265,-27.607899,-34.678574,-37.953529,1.625175,-1.317787,-3.270893,-3.376007,18.563461,18.309231,16.770973,15.287132,11.251604,35.807582,56.444631,71.222647,26.117923,51.169263,68.796535,83.348143,27.791946,59.535486,79.909788,95.328866,31.628623,67.879326,94.925142,115.809007,36.897724,66.383823,81.958883,94.338883,27.875519,309.542481,-152.643585,33.975339
73,-0.264931,0.732422,2.659721,1.633669,-28.249054,-53.258514,-75.641556,-92.545452,-59.929848,-91.106815,-106.226864,-117.018528,-52.633667,-87.294331,-104.848537,-117.967072,-43.897018,-76.214905,-92.969398,-105.112553,-35.41214,-61.261826,-74.907703,-85.624008,-15.979833,-14.021234,-0.734151,11.328607,13.112823,28.563703,35.514391,40.220452,30.220405,44.555145,50.14152,53.701863,42.274085,56.311189,61.111172,63.506655,49.536922,62.092015,65.404863,67.055699,-21.939297,-30.740547,-29.325428,-26.954899,-32.542534,-46.972618,-55.568504,-61.808052,-17.753105,-29.018669,-36.227245,-39.686737,-1.543751,-4.79702,-7.392654,-8.167934,13.967743,13.632603,12.101498,10.685177,9.585918,32.813366,52.768382,67.369669,24.732152,48.973974,65.926531,80.548195,27.556152,58.041466,77.892217,93.635978,31.725108,65.883213,91.729311,111.40608,36.398564,64.193104,78.753573,90.011044,27.598028,310.136967,-149.996424,35.471073
74,0.563965,0.18661,1.294327,2.266394,-28.266335,-53.125191,-75.771732,-92.920532,-59.772835,-91.02911,-106.389027,-117.256279,-52.481575,-87.574596,-105.347157,-118.50729,-43.766441,-76.72863,-93.523121,-105.309219,-35.558624,-62.004433,-75.593376,-85.876408,-15.867262,-13.843146,-0.561002,11.595245,13.05237,28.355913,35.183841,39.70039,30.271472,44.362731,49.965222,53.268252,42.457916,56.189108,60.776793,62.750151,49.839931,62.184147,65.292292,66.447025,-22.578735,-31.829109,-30.232773,-28.076878,-32.957783,-47.890148,-57.452831,-64.246502,-17.327843,-28.933811,-36.465511,-39.777546,-0.602589,-4.291534,-6.949997,-7.413368,14.850883,12.767429,10.957203,9.828644,7.835417,29.403508,49.316874,65.172465,22.922494,45.948852,61.768536,76.044119,27.23258,56.074468,75.93056,92.559885,31.963711,64.614489,89.652243,109.458379,36.100865,62.373535,76.389737,87.781329,28.185081,310.247377,-148.679008,37.661268
75,-0.597496,-0.00636,-0.341949,1.442459,-28.620987,-53.250618,-75.686417,-92.685699,-59.775352,-91.326313,-106.463642,-117.103329,-52.305565,-87.461472,-105.019569,-118.047009,-43.41568,-76.151676,-92.803059,-104.557915,-35.036087,-61.116829,-74.479122,-84.716549,-15.882329,-13.666601,-0.306344,11.975751,13.111156,28.714744,35.73836,40.499131,30.130558,44.886436,50.857145,54.592057,42.195415,56.450621,61.289569,63.556241,49.390697,62.158829,65.448644,66.904101,-21.619377,-31.095543,-28.330994,-27.061558,-33.706913,-48.067131,-58.842258,-66.145706,-18.027935,-27.244263,-33.953876,-37.103119,-1.10527,-2.194519,-3.466187,-3.345909,14.839439,14.179001,13.246937,12.554226,6.558172,26.00245,44.389562,60.643443,25.103518,44.505127,59.174957,72.756435,29.695186,53.515439,71.840553,88.976045,33.245249,61.71966,84.63073,104.306264,35.635792,58.273493,70.945264,82.155928,27.620316,310.223202,-148.988228,39.085911
76,1.029396,-0.157834,-1.21851,1.154486,-28.995552,-53.84697,-76.089592,-93.016891,-60.128517,-91.469879,-106.646004,-117.565269,-52.46006,-87.370377,-104.607239,-117.508392,-43.50769,-76.435776,-92.949543,-104.662971,-35.064468,-61.449852,-74.77787,-84.876137,-15.813293,-13.556685,0.328574,12.72077,13.720324,29.280502,36.306649,41.225254,30.881196,45.516043,51.352507,54.932425,42.929936,57.081155,61.895278,64.107857,50.128984,62.665738,65.884232,67.195008,-20.886097,-30.545483,-29.384251,-27.948647,-33.049908,-46.800213,-56.781521,-62.965164,-17.726727,-26.802921,-32.546539,-35.05434,-0.804863,-1.91494,-2.35033,-1.801414,15.31826,15.410156,15.489178,15.519905,7.562913,26.725424,44.476136,59.601776,25.89309,44.566878,58.777685,71.963745,29.363371,52.901485,70.844642,87.42469,31.925272,58.802972,80.633503,99.218401,33.440009,54.564733,67.402767,79.196293,28.648653,310.106987,-150.207796,40.282017
77,-0.393906,0.539699,-1.159973,0.583418,-29.207497,-54.316063,-76.952934,-94.226074,-59.333382,-91.527042,-106.990814,-118.073101,-51.575546,-87.427769,-105.05064,-118.089352,-42.704773,-76.197739,-93.113422,-105.348129,-34.43264,-60.783234,-74.256935,-84.801521,-15.732585,-13.564528,-0.025503,11.939689,12.945109,28.475214,35.719094,40.589472,30.161495,45.228225,51.136689,54.857831,42.408639,56.965002,61.751647,64.192517,49.703339,62.47777,65.565538,67.057551,-21.317596,-30.322723,-26.71526,-23.517323,-33.440094,-46.272984,-55.540981,-61.198997,-17.784462,-25.463161,-30.740891,-32.877388,-0.714397,-0.64127,-1.660767,-1.567726,15.711021,15.421429,14.95079,14.822502,6.832282,27.04137,46.190358,61.515421,24.515624,44.000997,59.864277,74.179936,27.971424,52.596624,71.402619,88.537061,31.146136,59.699094,80.839255,98.191059,33.360351,56.531761,69.611425,81.150848,28.271255,310.655841,-151.351261,40.874589
78,-0.054131,0.180126,0.525799,1.659295,-28.850098,-53.76709,-76.398182,-93.578968,-59.385338,-91.049538,-106.397839,-117.489738,-51.94622,-87.048225,-104.605579,-117.848053,-43.325043,-76.162376,-92.872181,-105.070438,-35.229263,-61.162605,-74.430714,-84.877338,-15.968595,-13.960904,-0.393721,11.636803,12.547437,28.212652,35.503523,40.445655,29.867192,44.724094,50.726296,54.442806,42.237776,56.625375,61.40745,63.740998,49.755147,62.554896,65.706884,67.131096,-20.239449,-29.12693,-28.363438,-27.326889,-32.260551,-45.482655,-55.364914,-61.269836,-17.325497,-26.698895,-32.936153,-35.384159,-0.731964,-2.166767,-2.764206,-1.875572,15.01379,14.774036,15.027065,15.473213,5.912293,23.964038,42.089575,57.865447,24.217153,42.312926,57.061333,70.842944,28.41578,52.462625,71.033753,88.317847,31.459241,58.286646,78.771512,96.52176,33.072162,54.224117,67.136005,79.446969,28.217068,310.831428,-150.82552,42.529346
79,0.195007,0.44275,-1.304798,-0.952778,-28.914757,-53.648415,-75.892582,-92.397423,-59.021072,-90.60236,-106.138344,-117.3559,-51.407547,-86.75663,-104.664288,-118.061829,-42.548561,-75.638351,-92.610569,-104.765167,-34.145737,-60.270653,-73.778343,-84.373913,-15.976808,-14.229456,-0.662705,11.534668,12.508287,28.580622,35.870073,40.610838,29.850643,44.463137,50.496338,54.296273,42.228822,56.223627,61.038677,63.319181,49.733288,61.999204,65.259688,66.699461,-17.457218,-23.908653,-22.358665,-21.90176,-26.844578,-38.083477,-46.712608,-51.677113,-13.249054,-18.999195,-22.020206,-21.832924,1.893883,2.277832,0.407982,0.290222,16.015377,16.867847,16.270523,15.985279,6.566137,22.571505,38.409065,51.728104,27.09747,41.853194,55.266372,68.333284,31.414843,52.854339,71.010226,88.480158,33.6884,56.495143,71.522106,84.658302,33.997523,53.667221,67.11853,79.179435,28.444405,311.285016,-152.097988,41.587405
80,-1.327057,0.478504,-4.695597,2.763439,-28.612289,-53.106194,-75.494442,-92.656975,-58.547974,-90.542336,-106.01738,-116.936245,-50.819206,-86.323242,-103.809872,-116.613235,-42.048569,-74.974022,-91.725311,-103.798885,-33.865356,-59.923553,-73.252888,-83.785744,-16.447469,-14.495477,-0.910263,11.362385,12.480438,28.310217,35.599915,40.591757,29.95673,44.81178,50.523817,53.990052,42.246853,56.560413,61.237637,63.423231,49.480729,62.148517,65.344965,66.889652,-1.92976,-3.547726,-1.79472,0.484858,-15.791702,-22.093821,-25.916605,-27.252588,-11.603966,-18.087444,-19.297657,-18.11162,-5.565863,-9.133387,-9.988117,-9.251576,0.693598,-1.938,-3.229294,-3.442526,13.34979,34.871862,54.483145,69.415228,23.11622,42.79549,58.820648,74.057933,24.385778,48.975934,69.315161,87.04954,26.486681,52.252504,70.923019,86.043842,29.059404,51.963527,67.230328,79.992826,27.208185,311.767549,-156.702747,44.354874
81,0.692139,0.809857,-4.695597,2.763439,-28.548431,-53.377533,-76.053143,-93.597965,-58.496132,-91.211872,-106.900978,-117.352295,-50.770912,-87.092514,-104.653587,-116.926575,-42.001877,-75.822945,-92.55827,-104.092941,-34.066887,-60.691338,-73.974152,-83.784428,-16.680639,-14.727103,-0.937248,11.419812,12.146183,28.327507,35.308083,39.82988,29.691204,44.94584,50.232972,53.185074,42.182262,56.739922,60.975506,62.786028,49.563351,62.393481,65.519842,66.896753,13.597698,16.813202,18.769226,22.871475,-4.738827,-6.104164,-5.120602,-2.828064,-9.958878,-17.175694,-16.575108,-14.390316,-13.025608,-20.544605,-20.384216,-18.793373,-14.628181,-20.743847,-22.729111,-22.870331,20.133444,47.17222,70.557225,87.102352,19.134971,43.737786,62.374925,79.782582,17.356713,45.09753,67.620097,85.618922,19.284962,48.009865,70.323932,87.429383,24.121286,50.259834,67.342128,80.806219,28.099909,312.584692,-161.198759,47.125599
82,0.026093,-1.220497,-0.996265,-5.466393,-28.467178,-53.137894,-75.426407,-93.019066,-59.292412,-90.864887,-106.104069,-116.815224,-51.68026,-86.233463,-103.047752,-115.10994,-42.795181,-75.290451,-91.641026,-103.095589,-34.541359,-60.122337,-73.209572,-83.198376,-15.526709,-13.089852,0.729334,12.576398,13.919222,29.966734,36.892598,41.39161,31.084602,46.003378,51.32614,54.233534,43.27049,57.916699,62.380143,64.122739,50.535858,63.639913,66.768621,67.842275,24.871159,32.992687,31.775436,29.673042,19.077473,24.54649,27.39687,30.462284,-1.368542,-5.803242,-5.455341,-3.785648,-19.961128,-28.661957,-29.258022,-27.95723,-34.980583,-47.078018,-51.191483,-51.225185,16.751714,42.436056,64.611123,80.468197,29.833662,58.096856,79.961473,99.552409,27.93036,56.768173,76.295876,92.050907,27.413046,55.721812,74.7318,90.199877,28.681523,52.965798,68.860941,84.243988,28.857679,311.350641,-161.463346,41.645651
83,1.410255,0.193217,0.834732,-10.569448,-28.625107,-53.700714,-75.953979,-93.583717,-60.182991,-91.275215,-106.332378,-117.068253,-52.583199,-86.330109,-102.925358,-114.925632,-43.649597,-75.431957,-91.673355,-103.103199,-35.129356,-60.310822,-73.354282,-83.241177,-15.48546,-13.121407,0.873645,12.98253,14.315969,30.576334,37.391912,42.079015,31.287575,46.199435,51.265069,54.26441,43.337242,57.882119,62.462579,64.658795,50.318496,63.20661,66.524954,68.048645,-13.45562,-19.567623,-19.581013,-17.287445,-24.772854,-35.856571,-40.358219,-43.834705,-11.154842,-18.582859,-21.109257,-21.310558,3.682766,2.01479,1.524696,1.918087,18.417034,22.390594,22.763557,22.89608,19.679918,46.110947,67.900321,83.037354,31.219403,55.645056,73.898632,89.428274,31.053757,60.499071,84.173438,102.824872,32.600482,62.161237,86.091992,104.429518,35.687477,60.942871,76.722664,89.775898,31.095543,311.530334,-159.801006,31.06268
84,1.664085,0.132887,-2.152691,-1.253286,-28.877106,-53.82122,-76.066017,-93.507614,-59.613762,-90.619984,-105.917473,-117.076607,-52.359009,-86.33749,-103.579731,-116.463032,-43.930092,-75.702152,-92.430611,-104.447594,-35.809822,-61.097488,-74.743881,-85.205669,-15.409321,-13.263433,0.616022,12.54225,14.910007,30.021568,36.425827,40.753111,32.174558,45.911617,50.739202,53.718042,44.210084,57.851985,62.102636,64.091185,51.264636,63.575137,66.748182,68.087672,15.151348,20.379753,18.807907,15.391617,11.361752,12.659969,16.711292,20.126896,-2.722149,-7.64986,-7.131271,-5.596161,-13.784294,-18.73764,-18.218994,-16.738472,-21.371956,-27.949104,-29.063931,-28.325386,17.03416,42.886989,64.332505,80.474897,31.621552,62.719554,85.765116,104.743828,30.60619,64.428774,86.198604,102.493272,31.471097,64.029311,86.563951,103.920077,33.968747,58.675705,73.247659,84.752255,34.253283,311.594632,-160.460043,29.740805
85,1.345139,0.377851,-4.941959,2.94355,-28.962593,-53.955574,-76.316185,-94.27494,-58.767929,-90.190201,-105.764809,-117.191277,-51.288185,-86.270142,-104.068394,-117.792377,-42.897949,-75.832672,-93.404274,-106.33009,-35.162544,-61.327515,-75.565567,-86.924686,-15.995209,-14.169682,-0.221252,11.213257,14.031917,29.780186,36.287012,40.699635,31.486165,44.805358,49.400515,52.304143,43.667607,57.015823,61.369597,63.482449,50.90883,63.655165,66.859271,68.427608,25.476265,34.508286,33.900547,30.515099,32.207394,39.583168,40.921726,40.241947,12.527275,9.713688,9.46661,11.230373,-7.587605,-11.828098,-12.487679,-11.069012,-23.776989,-32.064972,-35.272522,-34.396305,14.516441,38.497955,59.304663,74.466242,29.407924,59.675259,83.855114,104.329081,26.812029,60.94565,79.678996,92.101079,26.336118,56.943636,78.017601,93.134719,27.281548,51.538715,69.460291,85.903746,37.788048,311.531276,-163.212376,32.243147
86,1.825104,-0.052611,8.546963,18.095557,-28.25798,-53.202095,-75.944138,-94.016876,-58.58757,-90.535069,-106.340103,-117.981377,-51.127281,-86.472015,-104.399643,-118.037281,-42.552795,-76.019554,-93.534622,-106.16478,-34.724922,-61.395836,-75.454788,-86.260757,-15.992863,-14.45077,-1.117868,10.179308,13.734835,29.046221,35.502597,39.981601,31.140054,44.583736,49.551433,52.784561,43.202688,56.509284,61.149704,63.656709,50.1874,62.700936,65.782405,67.438489,23.366089,28.440342,28.123283,25.202236,10.663719,14.381275,17.453499,19.885025,-8.773441,-8.693619,-2.95927,-0.251141,-24.036884,-24.975986,-18.434772,-14.79372,-34.52877,-35.391712,-32.593403,-31.175766,4.800817,20.842678,41.581431,57.224477,0.762124,27.031181,49.24052,68.678005,-1.04846,35.727306,61.486738,81.486091,1.933282,40.621243,66.33751,83.971853,8.948098,41.54685,58.801058,69.826934,41.070871,311.001689,-153.207693,49.861729
87,2.091179,-0.839188,-7.314205,-1.134818,-27.977486,-52.837257,-76.13903,-94.199753,-58.048553,-90.867634,-107.079563,-119.035835,-50.933533,-87.518978,-105.724468,-119.335499,-42.56813,-76.848106,-94.790268,-107.590141,-34.960327,-62.133751,-76.560173,-87.529793,-16.744427,-15.361218,-2.350962,9.390756,12.79697,26.492224,32.885923,37.642187,30.835068,43.531817,48.42455,51.395671,43.470932,56.366023,60.517689,62.434915,51.053882,63.615892,66.343346,67.349507,28.4091,43.746471,51.0783,55.777187,28.410873,29.809971,36.555634,42.76125,2.682381,4.059906,9.51004,13.137188,-19.015789,-17.301693,-7.789078,0.432987,-35.341187,-29.33424,-21.785774,-14.568272,9.278864,25.437773,47.935795,65.676256,0.251046,31.744868,53.352726,69.571225,-2.169354,37.266127,60.748295,73.307279,1.474137,40.660886,62.513462,73.37891,9.102783,39.84927,56.155547,64.489815,44.591188,308.717943,-159.09276,47.282352
88,1.51165,-1.516899,-22.768135,15.572219,-27.717705,-52.740211,-76.23024,-95.19968,-56.666679,-90.428352,-107.182503,-119.11108,-49.485741,-87.35281,-105.87656,-119.231758,-41.53038,-76.863899,-95.247746,-107.973919,-34.703407,-62.349129,-76.964951,-88.037052,-16.600178,-14.672083,-1.265204,10.219878,12.990002,27.542042,34.023612,38.633898,31.059099,44.32284,48.850133,51.288225,43.638707,56.906463,60.824218,62.366002,51.071296,64.077723,67.104111,68.22519,35.444355,59.77335,75.992489,89.093685,48.142147,59.190273,66.758595,73.219013,29.887848,41.237469,49.115124,53.843994,12.725315,24.466839,35.29335,43.302498,-1.376724,12.352123,21.340256,28.284302,-3.332948,6.678029,25.013919,38.305108,-17.006156,7.90149,27.384517,40.808099,-15.352357,18.710591,40.758884,53.974275,-6.279276,27.15956,48.213178,60.079724,6.858865,31.689385,46.827715,54.948017,49.237089,306.664495,-178.726645,62.318022
89,1.898232,-1.120585,1.377411,8.66985,-28.192749,-53.353043,-76.786079,-95.122776,-57.32254,-90.767784,-107.381573,-119.651814,-49.990425,-87.286549,-105.657978,-119.299107,-41.939392,-76.670952,-95.192013,-108.459835,-35.081635,-62.741547,-77.62619,-89.01598,-17.280791,-15.982797,-2.925673,8.967271,12.376944,27.460717,34.203862,38.976737,30.550955,44.215209,48.9075,51.434697,43.34669,57.045833,61.238872,62.899711,51.04956,63.903402,66.665313,67.599905,30.65958,56.671429,74.545155,88.345413,53.897324,68.126106,76.862984,85.45372,33.363075,51.994743,63.086643,68.945217,15.099964,33.406734,48.638821,58.922482,0.174122,21.370354,32.702179,39.964256,-5.748902,1.992408,14.509865,22.399221,-22.479682,3.289136,23.011137,36.174009,-21.045961,15.97372,36.431138,49.313323,-11.992702,22.931509,44.817893,58.535686,2.944568,28.691897,45.00935,55.843923,54.012194,304.75616,-174.472361,70.200122
90,0.436134,-1.893206,3.985462,8.257975,-28.084145,-53.116951,-76.239624,-94.293137,-57.353897,-90.329704,-106.706657,-118.842487,-50.187836,-87.042904,-105.628567,-119.795494,-42.010803,-76.146126,-94.729385,-108.384304,-34.690018,-61.036148,-76.045876,-88.160305,-16.421843,-14.953418,-2.234562,9.013831,13.515189,27.681475,33.820145,38.125445,31.321044,43.713055,48.441469,51.533251,43.83106,56.381028,60.432658,62.272079,51.577217,64.032213,67.004508,68.236367,26.280212,52.45245,70.589733,84.838886,51.845741,67.670631,80.576649,93.028965,35.923176,54.968033,69.27309,78.060322,19.897728,38.829517,54.143829,65.217476,6.088543,24.374371,35.558453,43.340607,-6.714524,-3.964932,5.679402,10.797121,-22.288101,-2.050422,14.340823,25.923286,-16.882655,11.830484,27.20646,38.678451,-6.467368,19.741885,36.705865,48.544685,7.27741,27.093796,40.432842,50.748557,57.407942,301.575813,-167.527285,77.170956
91,0.734253,-0.961269,3.774548,9.554703,-28.056107,-53.350296,-76.680222,-95.165348,-56.76487,-89.931736,-106.739845,-119.35936,-49.682579,-86.743927,-105.377769,-119.480495,-42.041702,-76.092224,-94.92239,-108.761902,-35.37838,-62.121048,-77.222672,-89.242401,-17.136913,-16.090799,-3.604001,8.040274,12.626848,26.709523,33.159477,37.760747,30.679272,43.379726,47.838538,50.305776,43.306058,56.426353,60.402709,61.782954,51.047398,63.618856,66.409851,67.368773,28.429699,54.199219,71.047325,83.933773,52.253323,67.126007,78.871822,89.845276,36.542816,53.383541,68.431835,78.749371,20.026188,36.866455,51.848202,63.595734,5.257645,21.784,33.282795,41.60305,-9.59833,-5.759986,3.121916,4.56987,-18.27099,0.119394,16.357715,28.340135,-12.520884,13.5452,29.287356,39.879064,-3.558676,20.050544,36.762151,47.64776,8.714187,26.988203,38.142643,45.39634,60.309877,299.301376,-161.585054,85.412491
92,0.162849,-0.77892,2.019997,14.395349,-28.128548,-53.490143,-76.605606,-94.806118,-56.835022,-89.902096,-106.791229,-119.677048,-49.87587,-86.928806,-105.903225,-120.490894,-42.28466,-76.547241,-95.507812,-109.432983,-35.426674,-62.568741,-77.995491,-90.288906,-17.44622,-16.513789,-4.295482,6.839167,11.948828,25.300564,31.267753,35.558481,29.959262,41.664114,46.028757,48.701253,42.734064,54.87333,58.774289,60.387951,50.847759,62.672037,65.533736,66.736634,25.835953,49.114494,63.997707,74.762478,48.985348,71.103973,83.837528,95.537739,37.134819,57.696018,71.55407,82.616615,23.461475,41.174183,53.968678,63.787937,10.304546,23.319225,32.473469,40.072689,-10.760843,-10.453851,-5.548645,-0.28047,-10.145284,-0.044491,12.578003,23.388277,-2.930273,12.845938,25.754306,35.900455,3.952397,18.694752,31.10535,39.840625,11.371956,24.396476,32.764522,37.530665,61.168098,297.270775,-158.869686,98.556158
93,-0.064774,-0.705931,2.631283,37.005478,-27.384567,-52.512703,-75.440483,-93.26334,-56.342812,-89.816265,-107.009411,-120.126457,-49.652824,-87.129307,-106.144638,-120.728874,-42.22641,-77.073555,-96.20327,-110.47348,-35.3722,-62.74189,-78.132133,-90.687275,-18.054709,-17.590408,-5.758041,5.418907,11.409747,24.602846,30.395899,34.551146,29.53621,40.615222,44.583303,47.096175,42.32929,53.647646,57.425969,59.239331,50.326092,61.839703,64.881528,66.615048,30.382404,62.291737,86.021519,101.65781,54.808617,87.352753,103.845921,114.592094,42.072544,78.143177,98.182697,111.557922,30.8535,66.222439,86.34676,99.998245,21.937981,51.71093,66.25351,77.041111,-13.188591,-12.856251,-4.073057,3.456232,-19.438659,5.457563,24.686271,38.152986,-5.625154,20.525096,40.555201,54.202289,11.027944,32.787863,48.965607,59.741362,29.661872,44.335252,54.023151,60.7227,62.735081,296.153355,-154.606647,135.150147
94,-0.663757,-0.644798,0.823174,20.940306,-27.194824,-51.729012,-74.305115,-91.995049,-56.008644,-89.423561,-106.620598,-119.729176,-49.264755,-86.479912,-105.666904,-120.629597,-41.724129,-76.297531,-95.30817,-109.751015,-34.677773,-61.959,-77.410927,-89.95039,-18.055512,-17.99265,-6.294034,4.748051,11.068206,24.265627,30.014467,33.722023,29.524045,41.116882,45.100216,47.418697,42.390979,54.480598,58.150425,59.66436,50.134295,62.141663,64.770007,65.758261,28.952122,60.341377,82.719784,100.237885,57.250099,84.861259,101.785355,116.105919,47.543964,78.395977,99.67495,117.869339,37.701473,67.037487,86.272831,102.944469,27.833233,51.198235,65.706253,78.554592,-13.335063,-12.720523,-3.562875,4.592934,-10.170787,3.390159,18.40786,31.201927,1.84362,18.872531,33.382334,46.266249,14.863756,30.565157,41.773783,51.453963,27.603299,39.271965,45.919212,51.675894,63.06633,295.834831,-152.788467,156.416727
95,-0.834732,-1.014065,21.643467,32.529314,-27.114716,-51.418419,-73.974838,-91.89846,-56.343498,-89.073658,-105.838795,-119.094086,-49.974403,-86.139851,-105.125027,-120.282555,-42.483215,-76.235847,-94.905567,-109.319859,-35.057602,-61.669121,-76.752205,-89.212246,-17.829752,-17.795666,-6.168743,4.739221,11.58518,24.676885,30.332852,33.985512,29.589624,40.673947,44.706002,47.144155,42.232095,53.57793,57.666487,59.746117,49.942622,61.549167,64.587226,66.109621,40.540123,72.584438,91.584778,104.123383,62.291393,93.093166,106.762104,113.39098,47.524052,82.210922,100.137577,109.033184,34.918499,69.879398,87.893658,96.544304,22.799492,52.469387,68.721542,77.197609,1.585195,9.401438,19.675781,28.356283,0.931073,22.099731,36.676719,43.996428,7.87713,27.143567,43.721391,52.769,17.699829,34.053067,46.708876,53.47314,29.418946,40.140423,47.1394,51.321632,62.291021,295.152026,-131.085577,189.277301
96,-0.425377,-0.089538,-1.765537,17.382123,-26.700897,-51.412354,-73.991432,-92.530804,-56.235924,-88.571091,-105.680351,-118.981247,-50.59845,-86.309395,-105.506516,-120.740833,-43.668709,-76.503983,-95.182457,-109.577808,-36.492805,-62.216148,-76.890106,-89.310265,-17.344456,-17.346987,-5.357095,5.211611,11.919806,24.115821,29.390726,33.288289,29.050111,39.363665,42.832185,45.384083,41.123243,52.011261,55.960817,58.166233,48.474073,60.126067,63.881172,66.400774,36.66275,67.048645,88.595867,102.391663,57.971935,86.545372,103.146172,116.726875,46.372261,77.830467,99.315376,117.797813,35.928268,66.773529,89.372635,107.502594,26.512699,54.232121,73.515358,90.399628,-13.516424,-13.179823,-5.350673,5.278302,-4.091027,13.093804,26.408428,39.101658,11.519663,29.933265,41.279718,50.882339,27.60546,45.520304,56.354352,64.110204,43.489024,58.911375,65.079624,67.404218,61.993046,295.47285,-132.723713,207.069787
97,-2.510147,1.391607,15.493584,25.543552,-25.569077,-48.45829,-67.393799,-80.089588,-56.699181,-85.667953,-102.699051,-115.86874,-52.651291,-84.117222,-103.568974,-118.532753,-46.25473,-75.518532,-94.158382,-108.765335,-38.513374,-61.865501,-75.859909,-88.408871,-17.431153,-21.8418,-20.591416,-21.698724,10.997378,23.626387,29.928819,33.990391,26.424854,38.633157,43.583194,46.560922,38.199361,49.731312,54.103735,56.022135,46.631997,58.514752,62.52575,64.936424,36.984501,64.241238,83.400822,92.089119,76.17794,113.818359,115.109711,105.035133,67.221737,104.645576,103.253746,90.167542,55.692043,91.569729,93.021126,83.012753,43.379288,75.395851,84.242592,81.371956,-13.502716,-7.253265,5.781506,19.156028,13.631156,47.49181,63.28176,69.417467,31.819617,70.176194,87.116678,92.377381,48.490252,81.488993,97.146736,102.886684,61.96518,84.284125,95.972676,100.060244,59.852228,297.206277,-116.8608,232.955158
98,-0.914612,-4.677223,-11.025524,15.50664,-28.472214,-50.348969,-66.943245,-80.33392,-56.302071,-82.373199,-100.864677,-115.58773,-53.122673,-81.798534,-103.465004,-121.225719,-47.69989,-73.868065,-93.584061,-110.685997,-40.455208,-61.183205,-75.700722,-89.859638,-11.337993,-9.860121,-4.991656,-3.738679,21.028115,29.229064,30.152417,28.959832,31.796769,41.206729,43.630371,44.067996,39.997594,51.486135,55.853309,57.502725,45.364323,56.819024,62.559095,66.467464,39.901142,69.650116,93.426876,108.206692,70.933113,108.810883,126.15984,135.964565,62.823429,104.668179,124.845943,135.472355,54.862518,94.053669,113.313847,123.431225,46.554108,77.546024,94.370956,103.942566,-13.831043,-10.356162,0.939718,12.925349,16.164035,36.304055,43.214853,48.218056,33.914314,51.189918,56.551521,58.819367,47.050294,62.314626,66.856183,66.914908,55.862016,67.099603,69.218013,68.802124,59.187441,292.727674,-127.636499,248.660418
99,-3.536568,3.469323,2.645302,10.463484,-28.671913,-52.979164,-72.481728,-90.592232,-53.970566,-82.272663,-101.723614,-118.132668,-50.936394,-81.379681,-104.090481,-123.346138,-45.847321,-72.886276,-94.394245,-112.59613,-39.103432,-58.831215,-73.609886,-88.417282,-12.010208,-10.023636,-6.665525,-9.069345,15.548383,14.078353,10.89339,6.395181,26.422631,27.674991,24.44001,19.116322,34.769743,42.452358,42.480393,40.074844,39.575098,52.084991,56.416844,57.452028,41.018314,70.929966,94.152603,110.671635,69.977074,105.129032,123.826962,137.484341,61.179199,99.81863,121.642399,135.945454,52.613125,88.237095,109.138355,122.846775,44.679222,72.318306,88.66539,100.667152,-11.839283,-7.144214,4.969303,15.276743,18.214149,37.136204,46.267361,53.590342,35.679512,52.317172,58.584221,62.979739,48.924419,65.059123,70.473831,72.585016,57.894778,72.632564,77.001652,78.66632,55.655708,296.383422,-124.986362,259.310327
100,-6.690216,-1.504055,18.917713,18.217421,-25.536804,-48.889046,-65.706139,-79.92651,-42.831116,-64.971085,-83.608131,-101.210918,-40.541954,-66.415329,-88.177013,-108.048592,-37.548637,-63.448219,-84.059143,-101.720524,-33.328857,-54.243736,-70.202637,-86.290226,-14.012033,-14.165668,-12.635308,-14.111883,21.181379,23.965705,21.401828,16.744859,34.067517,37.828982,34.995873,30.568862,42.882574,50.641081,50.067358,46.835773,47.888124,59.077545,63.029881,64.017825,40.052433,71.466866,92.116814,102.611618,72.053375,119.372978,131.68293,129.324989,57.875404,108.639793,121.880951,119.981689,46.066875,92.741547,106.175537,105.018196,36.094379,74.014835,87.746658,88.642273,-19.307007,-12.390097,0.882475,11.354604,28.033884,60.760306,51.893873,40.614913,47.867931,74.930667,61.708051,50.209877,59.86758,82.885046,72.047478,61.707619,64.518251,83.932518,77.914385,70.376945,49.017706,295.100943,-106.016436,277.749324
101,-2.38163,3.314824,-6.658173,-0.208408,-25.492973,-47.721062,-63.579483,-74.898777,-54.188347,-67.015858,-65.064011,-59.061813,-51.136551,-64.24015,-58.500023,-48.679276,-46.308632,-59.344254,-53.995972,-44.923782,-39.907951,-49.952545,-49.406776,-45.386353,-14.041364,-13.130855,-8.075163,-6.820518,12.998153,22.770588,30.987036,36.128622,25.363426,35.792453,43.149768,45.888398,35.304007,46.028448,50.145472,50.662199,43.323472,52.865454,55.030238,54.770392,37.944202,70.178432,95.825729,114.283676,73.508492,115.188789,131.358376,139.711876,63.038063,107.170029,124.780655,133.563995,52.817116,93.029652,110.159111,118.67363,43.379402,73.876705,89.838181,99.83139,-9.178828,-2.884053,8.903236,17.085968,27.099909,49.595214,55.794152,57.96752,46.322874,67.334255,71.699206,70.968884,57.678405,78.342748,81.594092,79.782644,63.663193,81.486893,84.305861,82.942227,46.716385,298.706704,-112.594299,277.831853
102,-5.081406,2.641868,1.682339,4.92404,-18.211212,-36.668358,-48.851509,-54.129982,-44.594879,-50.77137,-43.596039,-34.404259,-42.62352,-49.156151,-38.207588,-25.641861,-39.141655,-45.188713,-34.999352,-24.494591,-33.966293,-40.101585,-36.665382,-32.177467,-15.172138,-15.47984,-9.739892,-6.420129,8.705203,20.812791,27.61182,31.408544,21.122222,34.064615,42.02097,46.88468,31.351425,42.251361,47.808342,50.260204,39.482719,48.942574,54.08169,56.229431,38.659172,70.184727,95.768223,113.004856,74.213333,110.338154,126.797848,138.214588,64.214458,103.662586,123.20303,136.310406,53.892002,89.139519,107.726269,120.006695,44.115143,71.144886,87.572365,100.762997,-7.425055,-2.423271,9.050511,17.214409,28.137687,44.372179,51.459212,56.686446,45.199634,62.170068,68.569819,71.694081,56.199791,73.656509,79.410536,80.433555,63.205869,80.031313,84.819254,85.93422,41.792135,301.605268,-110.754805,283.012589
103,-2.354736,4.190939,22.460575,13.061941,-26.086922,-51.011009,-72.141438,-91.736984,-74.717789,-78.028336,-54.57859,-34.481277,-72.754097,-69.130154,-44.153137,-18.76133,-67.0471,-62.798481,-38.614655,-15.591545,-59.010258,-62.40572,-48.392029,-32.404175,31.250154,44.679881,50.825714,57.431032,31.246141,44.129253,53.221816,58.604105,21.272214,34.606228,47.331259,52.800246,10.241182,23.30405,34.823342,40.961024,-1.105332,8.672475,16.377074,22.237497,31.437778,58.171463,80.128555,94.750328,61.016693,101.311455,114.767876,118.717804,49.478073,93.099518,110.103149,115.338821,38.145962,76.896973,95.356407,102.72892,27.969646,58.348732,76.309662,86.36261,-13.927373,-10.224942,-0.129676,9.71581,18.256139,40.302394,45.129424,45.458307,36.105713,56.892631,60.229993,57.587076,47.916035,66.791345,69.018806,65.143721,54.709383,72.030744,74.470071,71.257691,39.767904,306.141469,-87.963724,296.419793
104,-5.454712,6.23957,-5.865097,-4.122025,-20.221024,-42.761879,-58.987198,-74.034348,-67.760983,-61.327229,-39.549179,-22.285194,-66.466198,-56.828041,-32.206306,-8.510284,-61.323681,-53.011837,-29.246178,-8.060074,-53.652248,-52.312317,-40.551567,-28.974152,13.098189,23.639046,34.272528,43.218743,16.594188,32.485718,40.583359,46.305831,15.464835,29.796365,38.797907,44.261584,13.196742,26.212865,33.011647,37.508065,9.959909,20.717263,24.856332,29.698367,30.741577,58.392906,80.624084,99.367905,60.687504,97.44873,113.37822,123.513908,49.860535,89.550018,108.446045,119.665833,39.122715,75.152206,94.566422,106.138458,29.52919,57.627239,74.48616,87.00943,-12.717806,-8.164145,3.573558,12.485316,20.763823,40.286154,46.720115,50.99244,38.559551,56.587522,62.298262,63.504494,49.514197,67.374516,72.489797,72.286453,55.54925,71.54094,75.650615,75.566573,34.896584,312.532621,-93.24543,292.449349
105,-19.587479,17.8505,-2.242012,-2.035788,-1.704941,-7.663879,-13.849411,-17.954063,-33.851967,-24.318466,-6.886253,6.704979,-38.606358,-27.164383,-6.783714,11.322441,-39.237328,-30.778427,-12.587242,2.858276,-37.256355,-35.28471,-25.197258,-15.756569,-17.313087,-27.16592,-29.909677,-29.588142,-9.185868,-4.064659,0.649491,3.718795,5.53259,8.89984,14.819481,18.027415,17.262575,20.483476,24.889306,27.619045,26.352482,31.250896,31.874636,31.88921,30.798397,58.766899,81.15818,97.810135,60.96262,95.689888,112.401352,124.32003,49.801254,88.343697,107.667847,120.519791,38.921585,74.260654,93.56472,106.149559,29.19714,56.260414,73.033047,86.673317,-11.520898,-7.917267,4.020014,13.652646,20.821374,39.202867,46.360357,50.966938,38.662736,55.706096,61.957091,64.73308,49.680182,67.070272,72.640344,73.228085,56.027507,72.982935,77.535114,77.819166,16.0536,330.418674,-94.742947,290.449114
106,29.385681,-26.815672,1.849995,-0.037977,-29.14238,-56.904945,-77.388954,-94.309387,-79.656601,-82.819805,-59.697075,-40.03418,-76.303482,-74.692841,-48.276787,-22.827301,-69.419918,-68.442593,-42.657509,-19.231911,-60.708961,-62.502079,-46.134453,-30.029869,16.648529,27.334067,37.627737,48.76924,23.487078,38.050419,46.586116,52.082273,23.964162,38.528182,48.075783,51.636991,23.564945,38.203004,44.450787,45.663318,21.681064,35.638262,38.896832,40.145301,29.558315,56.742496,78.428822,95.014172,58.734798,93.241596,110.055828,121.977253,48.022842,86.524601,106.456203,120.176525,37.638359,72.995052,92.32275,105.33823,28.321266,55.456352,71.474018,84.655552,-12.70311,-9.083547,3.881384,13.886741,20.856572,38.812789,45.536668,49.502774,38.660327,55.783717,61.810742,64.304718,49.634487,67.236566,72.323626,72.656585,55.77785,72.544631,76.836161,76.995848,45.884914,303.708225,-92.447319,290.516361
107,-3.277817,6.7324,-0.054359,0.754528,-24.002838,-49.412842,-65.875626,-80.073853,-72.765884,-70.941124,-48.833771,-31.44413,-71.74221,-67.244568,-42.380905,-18.982773,-66.843338,-63.958282,-41.169319,-19.599152,-59.096546,-61.747799,-52.743759,-42.647095,5.873699,14.22254,28.603841,41.000545,7.404554,25.180027,34.898245,40.855616,14.508877,30.178353,38.935487,44.316171,21.262828,35.671484,41.656272,44.950348,26.289435,38.086049,40.206372,42.926108,29.131851,56.409931,77.997608,94.277172,58.188972,92.472324,109.452381,121.500607,47.273769,85.781078,105.860996,119.797153,36.760426,72.262745,91.960201,105.340862,27.473259,54.629345,70.788174,84.051189,-12.87953,-9.429473,3.090855,12.952396,20.142552,38.43994,45.146344,49.065087,37.841146,54.762118,60.679475,63.200065,48.793694,66.313891,71.405583,71.871799,54.867464,71.646039,75.916265,76.217607,42.81395,310.502267,-92.294827,291.332531
108,-7.502747,4.247502,0.988255,1.68486,-10.447884,-24.152756,-33.763962,-38.109512,-48.525009,-47.799683,-33.125496,-19.781799,-51.112175,-49.163475,-31.513596,-14.707031,-49.990768,-49.774246,-32.952232,-17.795219,-46.102409,-49.099731,-39.937134,-30.932693,-7.881205,-8.054847,-3.054608,0.749032,7.855702,19.041913,24.601982,27.988683,17.18162,26.653577,33.020539,36.95157,24.81675,33.633597,37.907528,40.134063,30.640246,39.022555,41.830532,43.772706,28.680611,55.327148,76.824875,92.836533,56.965084,91.360817,108.144608,119.9049,46.290894,84.553185,104.416924,118.139076,35.986404,71.263103,90.578613,103.768387,26.826954,53.81979,69.769478,83.180237,-13.028287,-10.104714,1.962119,12.056397,19.179616,37.554686,44.222434,48.123578,36.704754,53.668333,59.628112,61.901268,47.638467,65.177807,70.131672,70.199165,53.749102,70.344958,74.662176,74.791481,35.558624,314.785168,-91.059151,293.05279
109,8.406029,-11.862501,2.015934,0.743351,-28.14743,-55.316391,-76.160316,-95.432682,-77.973118,-82.941227,-59.515686,-38.814125,-76.904354,-75.376625,-48.197708,-21.134033,-72.010002,-70.454006,-43.342552,-18.085442,-65.425243,-67.770138,-50.720673,-32.110405,23.480965,35.205701,44.98783,55.803539,27.479119,41.975213,50.995219,56.734426,24.213819,38.458218,48.526994,52.650748,20.001329,34.394609,41.614529,45.063536,15.179363,28.787672,33.696706,36.984051,27.296906,53.148651,74.592991,91.437092,54.860573,89.10284,105.703182,117.200146,44.676476,82.950382,102.973766,116.688023,34.729443,70.071774,89.167271,101.856022,26.038742,53.213024,69.013824,82.042637,-12.982221,-10.039814,1.966998,11.684783,19.551107,37.087791,43.25567,47.081849,36.985595,53.44986,59.24458,61.817288,47.721706,64.760127,69.372636,69.57456,53.491171,69.440685,73.544308,73.69146,44.497433,303.032366,-88.510437,293.905841
110,-1.509705,7.5748,0.707874,0.658136,-22.741585,-50.779839,-70.553455,-88.702927,-77.739601,-75.119591,-52.799492,-35.011826,-75.154896,-68.068829,-41.959877,-17.254601,-68.974857,-62.057133,-36.579895,-14.206238,-59.579144,-58.280182,-42.46376,-26.647224,26.548046,38.046837,45.96608,53.574904,24.459523,40.950959,48.776342,54.113553,15.629462,30.999263,40.34741,45.478376,5.898832,21.134202,29.027201,34.37065,-3.859648,9.267255,15.425068,20.89955,27.607441,53.079643,74.173279,91.380043,54.740868,88.958359,105.857277,117.597771,44.315243,82.442207,102.437668,116.452332,34.333649,69.398518,88.881683,102.465935,25.594425,52.496681,68.235855,81.549225,-13.650608,-10.679487,1.72401,11.621613,18.581502,36.391617,42.295698,45.724451,36.078357,52.309639,57.997778,60.50151,47.072216,63.78867,68.795331,69.356766,52.909544,68.909199,73.189799,73.488301,43.387413,310.674489,-87.402878,294.6313
