takenoko1/special-research/HandMotion_SimilarSearch_自分用/NewProject/handData/key/d4_feature_d2/43.csv
,vel_0x_L,vel_0y_L,vel_0x_R,vel_0y_R,posFromWrist_1x_L,posFromWrist_2x_L,posFromWrist_3x_L,posFromWrist_4x_L,posFromWrist_5x_L,posFromWrist_6x_L,posFromWrist_7x_L,posFromWrist_8x_L,posFromWrist_9x_L,posFromWrist_10x_L,posFromWrist_11x_L,posFromWrist_12x_L,posFromWrist_13x_L,posFromWrist_14x_L,posFromWrist_15x_L,posFromWrist_16x_L,posFromWrist_17x_L,posFromWrist_18x_L,posFromWrist_19x_L,posFromWrist_20x_L,posFromWrist_1y_L,posFromWrist_2y_L,posFromWrist_3y_L,posFromWrist_4y_L,posFromWrist_5y_L,posFromWrist_6y_L,posFromWrist_7y_L,posFromWrist_8y_L,posFromWrist_9y_L,posFromWrist_10y_L,posFromWrist_11y_L,posFromWrist_12y_L,posFromWrist_13y_L,posFromWrist_14y_L,posFromWrist_15y_L,posFromWrist_16y_L,posFromWrist_17y_L,posFromWrist_18y_L,posFromWrist_19y_L,posFromWrist_20y_L,posFromWrist_1x_R,posFromWrist_2x_R,posFromWrist_3x_R,posFromWrist_4x_R,posFromWrist_5x_R,posFromWrist_6x_R,posFromWrist_7x_R,posFromWrist_8x_R,posFromWrist_9x_R,posFromWrist_10x_R,posFromWrist_11x_R,posFromWrist_12x_R,posFromWrist_13x_R,posFromWrist_14x_R,posFromWrist_15x_R,posFromWrist_16x_R,posFromWrist_17x_R,posFromWrist_18x_R,posFromWrist_19x_R,posFromWrist_20x_R,posFromWrist_1y_R,posFromWrist_2y_R,posFromWrist_3y_R,posFromWrist_4y_R,posFromWrist_5y_R,posFromWrist_6y_R,posFromWrist_7y_R,posFromWrist_8y_R,posFromWrist_9y_R,posFromWrist_10y_R,posFromWrist_11y_R,posFromWrist_12y_R,posFromWrist_13y_R,posFromWrist_14y_R,posFromWrist_15y_R,posFromWrist_16y_R,posFromWrist_17y_R,posFromWrist_18y_R,posFromWrist_19y_R,posFromWrist_20y_R,posFromBody_0x_L,posFromBody_0y_L,posFromBody_0x_R,posFromBody_0y_R
2,3.363075,-0.451519,7.710857,8.316113,-30.701065,-60.348816,-85.021534,-103.72427,-70.54287,-99.712772,-114.40012,-126.139126,-62.796707,-93.872337,-110.90498,-123.822956,-52.476768,-79.859676,-96.896725,-110.461006,-40.729408,-61.031227,-74.802132,-87.32048,-12.573187,-14.874069,-10.725676,-8.194712,19.297189,33.437663,39.535146,43.200279,34.848413,52.505326,58.174384,61.597271,45.734516,64.072474,69.588145,72.20099,52.498101,68.781808,74.562264,77.527642,9.978733,27.543468,45.355339,62.033844,48.638592,43.820286,25.744457,11.980991,52.146034,48.826561,29.477692,11.055393,50.737839,50.418262,32.712936,17.06377,46.236649,62.723007,70.755959,76.138229,-13.386748,-21.559662,-21.188542,-20.534667,-1.686033,16.520211,27.404154,31.915021,15.512012,34.04646,42.666509,44.493518,30.684274,46.797982,53.919286,55.470519,43.48816,51.502993,59.21988,63.761746,61.294584,295.73055,-68.963213,312.159247
3,-1.920204,-0.287448,22.43288,2.786426,-29.527817,-59.219513,-84.237099,-103.375225,-69.141083,-98.215084,-113.280201,-125.470791,-61.096573,-91.467247,-108.78336,-122.289963,-49.906769,-76.655331,-93.472309,-107.744522,-37.078285,-56.598015,-69.389877,-81.596489,-12.68162,-14.564205,-10.374563,-9.330734,19.132995,34.405601,40.668204,44.131167,34.460497,52.647599,59.074396,62.841912,45.295409,64.0148,70.215652,73.453288,51.768828,68.626814,74.43617,77.396546,1.438522,10.316391,20.220451,30.201759,36.157665,19.228077,0.449238,-14.988556,42.094059,24.151611,3.440094,-14.145584,42.715702,30.423832,10.778275,-6.565361,39.913502,47.617664,49.937153,48.19788,-15.221106,-24.722642,-24.690408,-20.682189,-3.252085,13.399531,24.425314,29.643841,13.54625,32.559634,39.989629,42.275135,27.100836,44.966527,51.299834,52.966169,36.933724,50.214262,56.32323,57.816664,57.982492,295.507245,-47.92222,315.009816
4,-1.12278,1.253657,49.599781,-3.79623,-28.647766,-57.794609,-82.589436,-101.793594,-67.812996,-97.241936,-112.371712,-124.619408,-60.070267,-91.276531,-108.673038,-122.053585,-49.227333,-77.010384,-94.029236,-108.076916,-36.851578,-57.429085,-70.60318,-82.732258,-13.877664,-15.806623,-11.306315,-10.152447,16.981672,32.258353,38.499221,41.774709,32.874376,50.647811,56.985256,60.567645,44.187792,62.361371,68.430263,71.630725,51.030973,67.42756,72.742356,75.30191,-8.888397,-21.901875,-26.82724,-25.772095,-8.537178,-33.130703,-52.145863,-68.28804,-3.325081,-22.696495,-45.865173,-68.681259,2.880936,-16.179771,-39.021435,-58.793907,10.635681,23.212051,31.444702,32.995949,-20.472238,-31.977698,-32.340729,-24.29323,-5.242733,17.070778,28.825648,33.562769,16.130072,37.071242,44.716808,46.463418,31.192418,48.734351,54.190433,54.249404,41.897284,51.201713,53.889523,51.15188,55.737791,296.780971,0.555639,311.233655
5,-1.239967,0.115659,0.601387,-0.325363,-28.378601,-56.862946,-81.252422,-100.187359,-66.598778,-95.997162,-111.151657,-123.409996,-58.966484,-89.816093,-107.34026,-120.824661,-48.228264,-75.572433,-92.709846,-106.831112,-36.075211,-56.508064,-69.662704,-81.72369,-14.187034,-16.388436,-12.025152,-10.706348,16.793704,31.733907,38.076848,41.429957,32.847205,50.068654,56.581841,60.313233,44.280541,62.005873,68.2079,71.318577,51.117917,67.245149,72.802254,75.331921,-8.211594,-20.865269,-26.180305,-25.874691,-8.249359,-32.731476,-52.466583,-68.712387,-2.979126,-22.893333,-46.997681,-70.378761,3.025932,-16.255302,-39.936676,-59.877148,10.1437,23.226585,30.90992,31.877403,-19.168501,-28.576115,-27.814053,-18.849746,-4.198472,17.491792,28.870108,33.696027,16.373554,36.607682,44.408797,46.319972,30.744233,47.753261,53.068119,53.286839,40.581383,49.637019,52.692244,50.591989,53.759737,296.963567,0.41894,310.975229
6,-0.729446,0.511417,1.812744,0.420212,-27.966614,-55.761337,-80.104122,-98.928223,-66.485596,-95.140114,-110.106983,-122.266331,-59.116402,-89.254532,-106.602573,-119.856377,-48.543091,-75.321407,-92.126198,-105.843544,-36.258202,-56.759491,-69.946861,-81.738911,-14.783975,-17.511367,-13.619424,-11.951669,16.433761,30.598688,36.946692,40.338889,32.220994,48.887986,55.752224,59.89228,43.539907,61.113518,67.343147,70.564419,50.521532,66.103693,71.316168,73.656571,-10.680542,-24.155445,-28.671627,-27.27459,-11.346817,-36.24115,-55.078468,-70.959435,-5.017662,-25.171623,-49.076672,-72.294903,2.307129,-18.061295,-41.805153,-61.45071,10.575485,21.681976,28.134956,28.247223,-19.201167,-29.21517,-29.167622,-20.718189,-4.824127,16.934371,28.42637,33.089391,15.643417,36.030624,43.614563,45.061375,29.911467,46.8974,52.440426,52.649636,39.956592,48.884652,52.330942,50.663743,52.412825,297.505318,1.614218,311.425776
7,-0.986481,1.335167,3.624229,-1.180853,-27.204094,-54.623451,-79.092751,-98.363056,-64.827919,-93.824787,-109.001198,-121.279106,-57.156601,-88.056736,-105.737057,-118.983078,-46.568527,-74.322739,-91.858063,-105.696316,-34.877586,-56.47625,-69.980164,-81.487198,-15.824469,-18.82696,-14.970955,-12.928437,14.882035,29.808776,36.396681,39.916887,31.869017,48.673157,55.356836,58.879141,43.944125,60.933578,66.57034,69.057215,51.118226,66.245471,70.573867,71.742308,-11.608429,-26.269054,-33.340015,-33.832397,-15.4422,-41.04641,-60.811844,-77.310104,-8.349609,-29.029999,-53.290386,-76.718159,-0.320435,-20.658302,-44.57983,-64.521732,8.633652,19.336967,25.232735,24.653778,-19.613351,-28.8811,-27.792193,-18.807014,-4.627885,17.485308,29.581905,34.876139,16.516259,37.377154,45.091015,46.908639,30.966782,48.875575,54.290468,54.007898,40.892667,49.978128,53.450477,51.789638,51.12711,298.861713,4.939213,310.266149
8,0.297661,0.095651,2.30793,0.622321,-27.454033,-55.181236,-79.583702,-98.307209,-65.044098,-93.789539,-109.032726,-121.537743,-57.466736,-87.687836,-105.332966,-118.746643,-46.72348,-73.801117,-90.995922,-104.533253,-34.858017,-56.026726,-69.351311,-80.774174,-16.167678,-19.323309,-15.16726,-12.794747,14.515978,28.697948,34.971481,38.38702,31.239472,47.543186,54.455712,58.364205,43.035159,59.979163,66.208359,69.171144,50.155414,65.204298,70.002861,71.6235,-12.963753,-28.976097,-36.47049,-37.609863,-15.933037,-44.549675,-64.107285,-79.97961,-9.20826,-33.426647,-56.573296,-78.00642,-2.022171,-25.760422,-49.402714,-68.643265,6.126823,13.581963,17.559471,15.899277,-21.595478,-32.949402,-33.102852,-24.555978,-6.629462,14.567231,25.856133,30.167979,15.889987,36.805407,44.60541,45.893277,31.601761,50.048647,55.467987,54.380439,42.802792,52.51465,55.783284,53.430223,51.282349,298.991327,7.104721,310.922433
9,-1.287575,-0.135233,-1.25782,-0.571932,-26.798172,-54.036026,-78.191013,-97.035828,-64.149742,-92.563019,-107.69949,-119.997597,-56.544914,-86.966515,-104.812832,-118.172722,-45.856361,-73.079224,-90.670509,-104.345856,-34.019394,-55.60524,-69.065094,-80.529842,-16.391029,-19.496334,-15.150834,-12.574669,14.08249,28.519119,35.132959,38.804638,31.168953,47.400604,54.471459,58.195688,43.342676,60.057216,65.833658,68.162822,50.738276,65.562882,69.850522,70.801911,-12.389717,-26.659584,-31.780529,-31.23127,-12.033806,-38.942413,-59.837494,-77.629452,-5.575218,-28.739948,-53.979607,-77.824287,1.044273,-21.978836,-46.849422,-67.993355,8.132629,14.995422,15.567513,10.477409,-19.542462,-27.582118,-25.021205,-14.953171,-5.136832,16.941226,28.497753,33.217708,15.574318,36.608855,44.214345,45.289296,30.310251,48.533971,54.480165,54.222419,40.627449,50.829049,55.177636,54.284787,49.892464,298.883557,5.744591,310.377964
10,-0.064316,-0.010004,0.879364,0.906064,-26.931953,-54.275665,-78.249893,-96.856327,-63.770142,-91.959057,-107.402802,-120.212345,-56.096764,-85.787773,-103.611431,-117.295475,-45.448265,-72.034721,-89.471455,-103.208485,-33.77964,-54.384842,-67.290459,-78.290176,-16.481679,-19.759453,-15.126628,-12.449871,14.050009,27.980779,34.505698,38.11044,31.276831,47.404865,54.427616,58.126774,43.344096,60.232155,66.360512,68.858008,50.453298,65.587397,70.20781,71.381191,-12.591705,-28.195553,-35.580196,-37.272091,-12.376785,-39.580193,-59.558887,-76.431141,-6.581955,-29.28463,-52.926579,-75.529633,-0.840797,-23.221893,-46.716442,-66.719856,5.825157,13.752708,16.91391,14.425392,-22.043786,-33.821627,-33.898691,-24.982488,-6.925432,15.863249,27.05866,31.008278,15.574689,36.326471,44.006122,44.614796,31.741256,49.48573,54.863636,53.418676,43.544785,53.237932,56.510519,53.678275,49.765434,298.871377,6.561241,311.281851
11,0.442085,0.73767,0.011787,-0.015129,-27.013092,-54.200821,-78.446274,-97.05637,-63.713264,-92.307186,-107.89135,-120.79525,-56.306419,-85.94902,-103.863831,-117.701283,-45.781059,-72.266293,-89.686546,-103.459282,-34.070778,-54.495049,-67.243881,-78.047447,-16.807351,-20.461987,-16.046771,-13.52087,13.182601,26.540327,32.837696,36.636272,30.19342,45.673569,52.856747,57.393797,42.120018,58.477455,64.748394,67.914215,49.161047,64.009057,68.786933,70.561208,-11.422119,-26.675262,-34.650936,-36.984329,-13.134155,-39.896393,-59.419441,-75.696659,-7.745247,-30.093899,-53.327751,-75.143681,-1.760559,-24.185829,-47.375622,-66.640778,5.30674,12.945671,16.730461,15.238609,-22.179883,-34.289572,-34.041397,-25.247459,-7.632845,15.054133,26.694394,31.054097,15.339049,35.745399,43.586158,44.547365,31.551373,48.808452,54.226804,52.764307,43.59542,52.807409,55.49843,52.154707,50.165348,299.632219,6.530857,311.289894
12,-1.843987,1.258103,0.306473,-0.556742,-25.463333,-51.879845,-76.244316,-95.519714,-61.807709,-90.938587,-106.516514,-119.011002,-54.42009,-85.626812,-103.621502,-116.571522,-44.459381,-72.662315,-90.154266,-103.493843,-33.894424,-56.373596,-69.038486,-78.982601,-18.107259,-21.587635,-17.313828,-14.429034,12.008664,25.972903,32.538453,36.094474,29.682559,45.851039,52.423753,55.330098,42.241975,59.300588,64.35276,66.039966,49.390758,64.341583,67.629298,67.644798,-11.239243,-26.109581,-35.883522,-41.068382,-13.459282,-40.787716,-60.178185,-76.521149,-8.359451,-30.487747,-54.154987,-76.692753,-2.317543,-24.305763,-48.134823,-68.399849,5.066071,13.052216,16.788712,14.662743,-22.087999,-34.748501,-35.862972,-28.15473,-6.826261,14.3813,25.255177,29.281984,16.197689,35.727739,43.493656,44.410279,32.34783,49.230948,54.592119,52.796664,44.202983,53.721438,56.227949,52.186014,48.231182,300.906315,6.74715,310.749145
13,1.27739,0.220264,2.759056,1.207159,-26.202507,-52.50412,-76.176682,-94.954891,-63.164978,-91.681995,-107.327099,-119.924984,-56.014595,-85.538406,-103.724041,-117.148132,-45.811615,-72.470112,-90.226421,-103.753967,-34.523163,-55.336189,-68.227043,-79.074097,-18.091327,-22.081206,-17.206382,-14.349561,11.070552,25.200775,31.763547,35.528285,28.320591,44.40009,51.425373,55.526032,40.643133,57.115611,63.235571,66.113758,48.031323,62.744655,67.569956,69.305266,-10.366974,-26.711884,-37.950153,-44.240513,-14.965668,-42.272072,-61.715412,-78.007793,-10.587845,-33.287373,-55.871315,-77.601128,-5.330429,-27.822533,-50.457573,-69.860458,1.227264,9.243736,13.207741,11.587143,-23.508197,-37.728822,-39.056518,-31.54032,-8.055588,13.752311,24.300269,28.058584,15.762534,35.069232,42.816501,44.292397,32.423104,49.409036,54.647262,52.835999,44.808692,54.989359,57.099371,52.411588,49.408178,301.144641,9.405813,311.974366
14,-0.71846,0.097319,0.760918,-0.82233,-25.568619,-52.105637,-76.239624,-95.536652,-62.817535,-91.378784,-107.595749,-120.505257,-55.103874,-84.963741,-103.523197,-116.771851,-44.591331,-71.508751,-89.471741,-102.883987,-32.918472,-53.968506,-67.026215,-77.465916,-18.071505,-21.871502,-17.284743,-14.394021,11.545722,25.667547,32.091998,35.767259,28.612856,45.26898,52.173541,55.954086,40.739834,58.176854,64.032028,66.601092,47.852185,63.40557,67.776264,68.911299,-9.868126,-26.455193,-38.332615,-44.429398,-15.646248,-43.210087,-62.577782,-78.876572,-11.292458,-34.125023,-56.091557,-77.259464,-6.090431,-28.176384,-50.124607,-68.669872,0.487633,9.73423,16.313438,17.363548,-23.410137,-37.556971,-38.78494,-30.826794,-6.974956,15.634525,26.132342,29.417958,16.885712,36.341785,43.922451,45.081321,32.987996,49.960715,54.927547,52.971603,44.811348,54.712779,56.520461,51.645081,48.619738,301.279612,10.09675,311.189688
15,0.279236,0.155673,2.561646,-0.512837,-25.652847,-51.954231,-75.436249,-94.200954,-62.577324,-91.026649,-107.171173,-120.252285,-55.399017,-85.088196,-103.668365,-117.33736,-45.31208,-72.299252,-90.183849,-103.734512,-33.957825,-55.326462,-68.5326,-79.489002,-18.208838,-22.139499,-17.202368,-14.990345,10.799838,24.70776,30.972031,34.561212,27.809236,44.319073,51.333982,55.458169,40.046809,56.99631,62.871861,65.691879,47.731895,62.580646,66.962641,68.486023,-11.911469,-29.36142,-42.025394,-49.36655,-19.564476,-48.416576,-66.45607,-81.831493,-14.63459,-38.590221,-60.007496,-80.457344,-8.166618,-31.30909,-53.192596,-71.412735,0.058823,6.913834,11.92234,11.888237,-23.406432,-37.205735,-38.285008,-31.10535,-7.014723,14.698759,24.349484,27.345799,16.762088,35.970171,42.737892,43.207504,33.218634,50.446382,54.843999,52.212505,45.630837,56.267099,57.997716,53.23114,48.807421,301.494549,12.566843,310.736116
16,-0.760918,0.197663,-2.104912,0.470662,-25.353584,-51.30249,-75.054016,-94.018936,-61.182175,-90.377884,-106.833687,-119.799843,-53.845024,-84.529037,-103.329277,-116.721039,-43.826981,-71.475964,-89.462929,-102.698078,-32.952003,-54.910126,-68.111801,-78.488274,-18.345059,-22.246142,-17.903544,-14.94255,10.793231,24.593584,31.001239,34.533486,28.21296,44.786771,51.45069,54.720004,40.655607,58.152524,63.467567,65.491869,47.873489,63.280402,67.211989,67.932369,-10.500755,-27.442818,-39.344215,-45.364952,-18.154106,-46.331291,-63.414345,-77.55827,-13.984337,-37.893333,-57.958946,-77.053413,-8.236542,-30.960846,-52.197018,-69.055138,-0.709534,7.101402,13.607712,15.037422,-24.004917,-37.793969,-38.867747,-32.001904,-7.098025,14.299481,24.517507,27.942988,16.898865,35.656479,42.940372,44.081581,32.953601,49.538465,53.786091,51.637732,44.707916,54.888521,56.459698,51.851697,47.973661,301.708947,10.38909,311.223512
17,0.020485,0.60429,-1.52813,-1.32998,-25.606613,-51.438675,-75.080853,-93.917084,-61.440239,-90.719433,-106.796322,-119.522038,-54.108582,-84.56583,-102.871284,-115.985184,-44.014893,-71.616669,-89.018211,-101.766644,-33.087845,-55.318108,-68.258057,-78.307171,-18.679561,-22.831968,-18.663198,-16.167802,10.437672,23.928779,30.221454,33.667251,27.876729,44.229906,50.905002,54.281576,40.38619,57.358537,62.638692,64.721039,47.844281,62.625724,66.305184,66.823455,-11.574097,-28.20282,-38.727322,-44.262314,-16.217766,-42.931824,-60.536785,-75.318604,-11.575356,-33.858604,-55.530968,-76.294556,-5.645599,-28.024864,-50.725365,-69.034882,2.018852,10.522842,16.781273,17.036705,-22.554955,-35.060587,-35.84173,-29.188926,-6.022703,15.354734,26.297524,30.404791,16.709476,36.134674,44.146111,45.505484,32.255266,48.981044,54.325048,53.099735,43.565348,53.768615,56.285995,52.422086,47.957554,302.352556,8.824368,309.932851
18,0.682068,-0.786885,-1.220741,0.143631,-25.735588,-51.891403,-75.510464,-94.621525,-61.748657,-90.655174,-106.846733,-119.737759,-54.076996,-84.001579,-102.566986,-116.005268,-43.4729,-70.429745,-88.077507,-101.045036,-32.014389,-53.300972,-66.289787,-76.464214,-18.514194,-22.302088,-17.971284,-15.660831,10.85671,24.291192,30.586091,34.133343,28.063339,44.674077,51.488482,55.153121,40.208904,57.948995,63.974662,66.695138,47.340953,62.800601,67.200256,68.404883,-11.066437,-26.664963,-36.336422,-41.247654,-14.739647,-41.547375,-59.916229,-75.261841,-9.693146,-32.133751,-54.11499,-75.31723,-3.613586,-25.586472,-47.978554,-66.580181,3.935966,13.923111,21.069603,22.305565,-21.883852,-35.284432,-36.914767,-30.11901,-5.696661,15.903016,27.115038,31.493328,17.035951,36.62207,44.603805,45.946506,32.451077,49.211373,54.605148,53.396075,43.577327,53.760588,56.353735,52.519713,48.549099,301.579364,7.513103,310.090176
19,-0.846977,-0.419656,1.624718,1.004123,-25.834465,-51.228905,-74.678478,-93.581314,-61.004562,-89.699478,-105.548172,-118.237953,-53.640747,-83.400078,-101.599846,-114.710484,-43.363724,-70.383339,-87.97348,-100.92001,-32.130432,-53.597031,-66.402626,-76.447449,-17.871434,-22.084541,-18.237428,-16.134333,10.997501,24.838053,31.12863,34.583936,28.075257,44.710448,51.479528,55.121258,40.301962,57.577813,62.990731,65.218439,47.433147,62.586698,66.402071,67.080769,-13.019257,-28.900223,-37.984428,-42.870083,-16.689835,-44.536629,-62.371044,-77.262554,-11.012535,-33.491592,-55.312729,-75.846634,-3.836632,-26.000175,-48.722019,-67.542171,5.049934,11.755486,16.399498,15.777626,-22.947194,-36.872838,-38.860337,-32.580567,-7.807043,13.132275,23.429774,27.120287,15.546284,34.650379,42.270812,43.525457,31.694634,48.703414,53.973318,52.363608,43.552504,54.138747,56.846133,53.288259,47.666502,301.18254,9.102201,311.117132
20,0.468292,-0.238727,-6.316223,-0.270652,-25.786285,-51.515007,-74.97448,-93.8974,-61.579399,-89.804592,-105.685558,-118.615952,-54.085464,-83.407059,-101.721783,-115.182266,-43.68576,-70.244007,-88.069496,-101.4604,-32.311134,-53.568077,-66.724319,-77.323666,-18.209455,-22.166484,-18.120164,-16.225971,10.845595,24.504663,30.76634,34.287966,27.851844,44.244294,51.197637,55.198261,39.9971,57.119749,63.058471,65.891209,47.266976,62.134561,66.4398,67.895381,-9.630775,-23.101158,-30.351391,-33.706341,-9.85817,-36.133289,-54.485607,-70.453949,-5.073166,-25.845795,-48.73764,-70.975399,1.286316,-19.036217,-42.44791,-62.171574,9.85405,19.576607,26.014595,26.297264,-21.541816,-33.633103,-35.273997,-29.829833,-4.945096,16.47359,27.298807,31.96967,16.840572,36.462013,43.426039,44.668581,31.645913,48.287155,53.290914,52.912014,42.105136,51.702323,54.69234,52.653774,48.099318,301.011615,2.750502,310.914281
21,-0.358315,-0.395573,-5.272179,-1.285705,-25.33802,-51.039619,-74.94009,-94.198666,-60.99369,-89.549274,-105.452614,-118.100739,-53.387833,-83.367691,-101.944141,-115.268097,-42.805252,-69.929409,-88.108463,-101.607285,-31.245461,-52.895622,-66.260033,-76.677589,-18.379084,-22.069535,-18.293374,-16.043375,10.732592,24.857258,31.243918,34.776227,27.691911,44.502781,51.527384,55.443163,39.839513,57.597882,63.632441,66.414791,47.0117,62.4259,66.674637,67.87173,-7.952499,-18.890018,-22.866783,-23.181381,-5.455627,-28.968487,-47.865658,-64.19735,-0.683441,-19.311047,-42.984982,-65.9091,5.620995,-12.612648,-36.584415,-56.433849,13.678322,26.403008,33.48999,33.701134,-18.372971,-25.974323,-24.070064,-15.986935,-2.440006,19.905245,30.813641,35.4745,16.769868,37.262545,44.110357,45.410821,29.609755,46.679545,51.488605,51.807855,38.173178,48.341804,51.883746,50.838558,47.641554,300.659375,-2.621126,309.67191
22,-0.497246,0.431327,2.411957,-0.160304,-24.941483,-50.54718,-74.449596,-93.67836,-61.23539,-89.490337,-104.944553,-117.193508,-53.894348,-83.739967,-101.930408,-114.727135,-43.502998,-70.684376,-88.450298,-101.564369,-32.124939,-54.22039,-67.336922,-77.400455,-18.675795,-22.442384,-19.053954,-17.116226,10.233155,24.585865,31.034337,34.635374,27.254224,44.004702,50.819786,54.217973,39.567997,57.270914,62.963314,65.342866,46.844233,62.073243,65.897384,66.652407,-9.62883,-22.096367,-27.399445,-27.86808,-8.519325,-32.699833,-51.301346,-67.531929,-3.271751,-22.352829,-45.000515,-67.196732,3.244972,-15.123596,-38.143387,-57.598743,11.655693,24.492645,33.279305,35.551186,-20.232152,-31.090653,-31.749839,-25.780982,-4.430098,17.424546,28.562591,33.550728,16.555347,37.542954,44.787944,46.386662,31.071078,48.706502,53.832651,53.838393,40.949909,50.639784,53.955904,52.141183,47.092924,301.119709,-0.260553,309.540613
23,0.331078,-2.565112,0.227509,0.685306,-25.74749,-51.694221,-75.285416,-94.503193,-61.760674,-89.73341,-105.34338,-117.967014,-53.625069,-82.732372,-101.153297,-114.47525,-42.147789,-68.059387,-86.141968,-99.613438,-29.349174,-49.471893,-62.914009,-73.667107,-17.20243,-20.454392,-16.466241,-14.423167,12.850261,26.798814,33.311877,37.214256,29.14391,46.10613,53.20996,57.298022,40.484435,58.962072,65.70355,68.862022,46.998115,63.177711,68.049757,69.456431,-9.220848,-21.273193,-26.355686,-26.156559,-8.127022,-33.186893,-51.378994,-67.10043,-3.029251,-22.318954,-44.596767,-66.571369,3.400383,-15.176353,-37.957821,-57.308006,11.628113,24.58992,33.249207,35.189209,-20.760921,-31.84407,-32.442246,-25.541452,-5.204757,16.234245,27.808742,33.104211,15.758088,35.955721,43.924365,45.908961,30.205152,47.143599,52.468584,52.472968,40.143449,49.480605,52.651242,50.528757,47.369013,298.599088,-0.088034,310.27041
24,1.203804,0.208037,4.702721,-0.62337,-26.048584,-52.01088,-75.629826,-94.662094,-61.192131,-89.526672,-105.404778,-118.355942,-53.676453,-83.326893,-101.765499,-115.415497,-43.206482,-70.012951,-88.137989,-101.863976,-31.762505,-53.080101,-66.542358,-77.526226,-17.721874,-20.911283,-16.265923,-14.132261,11.820326,25.934679,32.444037,36.355061,28.359124,45.23298,52.54287,56.715592,40.017293,57.90824,64.346214,67.436575,46.945442,62.356307,67.129861,69.013989,-10.970764,-26.176586,-32.038136,-30.836792,-13.060799,-40.278225,-57.644062,-72.191162,-6.802368,-28.451614,-49.544392,-70.14925,0.477676,-20.582886,-42.710609,-61.202717,8.941612,18.956108,26.672058,28.078194,-21.767699,-34.28352,-35.1048,-27.522406,-6.336951,14.594648,26.482035,32.155477,16.069495,35.965292,44.227127,46.953531,31.084602,48.316486,54.037353,54.01043,41.575441,51.265624,54.262742,51.811498,48.558168,298.848899,4.600039,309.688814
25,-0.153465,0.067987,-2.502937,1.235934,-26.096077,-52.130928,-75.363464,-93.287086,-61.88633,-89.321022,-105.254917,-118.511238,-54.01062,-82.782955,-101.159763,-114.722729,-43.511696,-69.461746,-87.114372,-100.522499,-31.88324,-52.378006,-65.330772,-76.2644,-17.543971,-21.453822,-16.812044,-13.151232,11.102909,25.91319,32.779156,36.914767,27.537781,44.899342,52.338599,56.830818,39.341743,57.262763,63.825349,67.281705,46.642803,62.170253,66.939917,69.05987,-10.305405,-24.587803,-28.795509,-25.422993,-10.157433,-37.265568,-56.016369,-70.712585,-3.468475,-25.295219,-46.649609,-66.0783,3.015976,-16.657219,-39.350853,-57.694359,9.876251,22.719612,31.098747,34.202042,-20.387146,-33.478542,-35.967701,-28.87653,-7.179844,13.983998,24.540355,28.684795,15.685407,36.595208,44.982335,47.369297,31.387549,50.809474,56.022938,54.741061,42.238764,51.930614,53.578424,50.336651,48.375835,298.919712,2.068233,310.927573
26,0.262642,-1.350049,-4.52877,-0.840114,-26.301613,-52.480202,-75.629826,-93.742218,-60.653114,-89.061699,-105.820312,-119.755669,-52.366562,-82.077427,-101.225796,-115.366116,-41.647911,-68.581467,-87.192593,-101.067924,-30.173721,-50.99968,-64.342461,-75.369415,-17.187548,-21.032993,-16.193552,-12.581523,10.685477,25.464141,32.595264,37.242785,27.403536,45.088916,52.565717,57.287216,39.594055,57.701067,64.098718,67.51364,47.209672,63.135227,67.678452,69.40419,-9.483147,-21.683521,-23.330498,-19.37645,-5.002327,-29.830971,-49.82008,-65.974789,2.021484,-17.625389,-41.281929,-63.922749,8.391953,-9.630203,-33.806877,-54.362011,14.752007,28.722496,35.031738,35.256615,-18.143074,-30.232446,-33.160033,-26.136973,-5.300779,15.565488,26.937938,31.384462,15.485089,36.885188,45.457319,47.347561,30.405718,49.06731,55.756793,56.031089,40.351301,49.310853,52.748005,51.348246,48.609781,297.589716,-2.489233,310.107512
27,0.315514,-2.928205,-2.986794,-3.615734,-25.800362,-50.643082,-72.711182,-90.041027,-60.44838,-88.181133,-104.669037,-118.393421,-53.933372,-82.060375,-100.804081,-115.593624,-44.593048,-70.475407,-88.546085,-102.784538,-33.755722,-54.973412,-68.44883,-80.491219,-17.643328,-22.100843,-17.271775,-15.069077,10.681833,25.128713,32.584087,38.335706,27.18883,43.010459,51.267847,57.779119,39.552127,55.189739,62.308327,67.26176,47.854717,62.25164,67.968123,71.599726,-6.613426,-15.50972,-16.590557,-12.404022,0.222359,-25.31496,-45.800457,-63.227863,5.960884,-14.387054,-39.489899,-63.618965,11.825066,-6.650047,-32.32338,-53.262119,17.70813,31.465302,36.64444,35.702362,-14.334308,-22.021432,-21.860325,-15.183253,0.53303,22.130113,32.597363,37.078529,17.443195,39.103078,46.487316,49.098555,28.842938,47.622597,53.120977,54.692093,35.950596,47.109019,50.538945,50.606624,48.916311,294.705462,-5.48501,306.53573
28,-0.82489,-6.686211,-39.917793,-21.499394,-25.395813,-48.919258,-69.674034,-86.261616,-56.118393,-84.609318,-100.461845,-113.034153,-49.83593,-79.942589,-98.728065,-113.51366,-41.169662,-69.375801,-87.188873,-100.954685,-31.176224,-54.179764,-67.85614,-79.812469,-18.91057,-22.989246,-16.960739,-14.276572,7.389301,23.868325,33.411666,40.842093,24.253462,41.871843,51.76784,59.236367,37.627799,53.537916,62.521551,68.589085,47.344597,61.161622,67.857466,72.000672,17.442055,34.740143,54.769821,77.010612,54.440918,38.519096,14.339046,-8.351154,52.139854,34.079475,7.550468,-16.13348,47.119217,29.440842,3.247147,-19.272995,41.435394,47.159157,42.348633,34.60453,37.242106,57.38651,67.851661,81.054517,36.059832,60.471684,73.047526,79.814384,22.312523,48.638824,58.300169,64.081552,7.737821,30.919049,39.120739,46.317811,-7.357747,4.987951,13.861732,21.507977,48.069763,288.103371,-45.424461,285.120455
29,3.110847,-16.04461,3.269634,-1.693876,-23.679428,-50.125809,-71.330338,-88.845577,-52.363243,-79.183788,-93.844299,-105.094128,-43.556213,-72.819672,-90.637436,-104.119434,-33.441925,-59.267349,-77.275772,-90.77282,-23.216171,-43.711739,-57.156944,-68.774757,-17.646168,-18.877595,-12.923373,-9.859009,7.765855,26.751575,38.862931,47.55214,25.243939,47.747148,59.82454,68.828985,38.527688,58.970841,69.747214,76.380999,47.530774,65.679591,74.611603,79.759611,12.192707,29.338245,43.942051,60.178585,53.857441,57.71719,47.297688,32.122135,52.611294,44.842587,20.682678,-2.384949,45.713139,33.692379,11.262531,-8.234882,35.972843,36.141987,27.590961,18.023014,32.480531,50.149733,59.695544,70.624131,35.579538,46.393826,58.844314,68.171158,22.743603,37.960695,54.743099,66.199467,7.832114,22.430652,37.649226,47.930732,-7.67607,-2.687131,4.067438,9.806892,51.161385,272.656536,-42.174053,284.024354
30,2.286758,-15.429267,-50.262566,-30.606036,-26.58886,-52.380066,-71.005211,-84.351597,-45.881424,-73.057938,-86.378174,-94.082851,-31.960373,-62.342606,-77.479706,-85.064964,-19.377136,-45.093613,-61.639824,-71.863174,-9.388046,-29.133339,-42.505417,-53.520355,-14.510112,-12.982098,-3.154829,4.415154,2.453591,26.485431,40.797756,48.963445,18.114545,46.559255,58.37532,63.720682,31.290416,58.254104,68.953351,73.66713,40.894704,63.680483,70.854152,73.848367,25.997944,60.331707,87.767544,99.496708,70.334759,121.094913,119.233532,110.446987,65.098915,118.385525,112.18832,100.64352,61.798611,110.914707,102.302113,89.426136,59.762821,100.345287,94.138584,82.98872,35.325743,56.855148,59.791565,52.90905,72.257677,48.852974,35.242133,33.804769,57.819134,27.023524,13.33778,13.501172,37.344117,10.607115,-0.215509,1.481454,14.83461,-2.702075,-8.937075,-7.440431,53.491974,258.40221,-92.392788,254.593259
31,48.293724,-48.77381,14.115086,-32.245571,-31.911964,-63.318672,-86.654663,-102.070656,-63.253212,-90.638008,-101.709137,-107.692223,-49.473839,-80.515022,-94.210739,-100.774956,-35.435257,-64.121819,-79.525223,-88.478394,-22.70668,-44.616623,-57.672844,-68.877754,-6.979896,-0.798371,9.137579,16.995751,9.719638,40.776761,55.706096,63.178329,23.789655,57.711379,72.303557,78.394248,36.436757,66.498586,80.438927,86.253037,46.310709,71.488143,82.733758,87.916099,32.173405,54.579449,67.741127,78.375664,57.841644,82.201767,87.415123,86.72287,49.741688,75.260811,79.128113,75.01545,40.276222,62.91893,66.307869,64.105797,30.676403,48.904896,53.846798,53.250675,12.32353,31.279115,46.872391,56.279572,50.35567,76.491779,76.862714,71.355442,53.68871,79.755844,76.10306,67.095281,53.883286,78.657304,75.379592,68.662815,51.340157,72.260764,71.186554,66.906757,102.248726,211.219168,-77.814674,223.938456
32,26.033134,-31.494069,-48.588696,-52.885646,-27.507477,-58.283844,-81.033554,-98.150482,-50.202026,-74.062958,-83.383255,-89.447937,-35.387878,-62.660294,-77.000427,-86.860657,-20.959167,-45.176697,-60.695915,-71.839714,-8.071976,-28.248825,-40.759506,-51.232681,-9.477021,-4.426825,6.787729,14.113983,-9.615157,16.164035,33.287795,43.984139,0.798001,32.226614,53.598864,68.328498,12.712249,42.690221,61.055905,72.700613,25.578626,48.973387,61.278021,69.106677,35.569038,62.441025,80.567894,96.437359,58.439198,84.920483,96.655312,101.435051,44.530163,74.82914,89.110394,95.999794,29.495144,59.694958,74.902382,83.287411,15.855045,41.16188,55.571251,64.651508,-4.055705,9.9617,28.100389,41.318127,19.596061,54.032475,69.794453,77.952423,31.725447,67.750082,84.02323,91.909992,42.68806,76.093057,89.658758,94.999427,51.956117,77.666704,87.927153,92.641735,128.457956,182.189311,-126.227274,173.517021
33,29.94873,2.850646,-27.401104,-31.327096,-30.620728,-53.192596,-72.164612,-87.883415,-39.519424,-52.445412,-64.046974,-71.803551,-25.050087,-46.246147,-62.044487,-72.330093,-13.328705,-36.071777,-51.194916,-60.153809,-4.415131,-26.992493,-39.646454,-48.435173,-20.484279,-31.12301,-32.886355,-29.546461,-50.840287,-46.017704,-35.793997,-24.936916,-42.763581,-22.283439,-3.955237,11.369424,-29.766601,-7.518483,9.60188,22.774478,-14.152268,2.413515,12.737257,20.804208,35.065498,64.604588,83.065853,94.98745,45.991745,64.360256,76.461639,85.352325,28.333912,47.048149,64.287529,77.533779,12.352352,31.224575,48.143692,62.739143,-0.83416,16.831627,30.601044,42.926331,-4.118197,7.585668,22.756694,34.043002,4.007478,27.619663,43.634755,56.075611,13.023656,39.439926,59.98151,74.95759,22.584781,47.646556,66.464068,79.4001,31.928853,52.340452,64.771736,73.26674,159.309769,187.505049,-152.725296,144.655018
34,8.227043,-84.778376,-14.752293,-6.459155,-24.350281,-40.971222,-49.83181,-50.624886,-14.631271,-23.301773,-33.419037,-39.923286,2.158127,-9.898338,-27.093086,-36.34964,14.21093,2.835388,-14.84024,-25.517578,22.739296,13.408127,0.193977,-8.970222,1.614742,9.432499,20.483167,28.491331,7.165765,31.925272,45.110961,50.837138,14.516379,43.34564,54.902971,62.172908,21.783508,48.005326,59.503438,67.200071,27.755699,46.110947,55.161643,62.938058,28.773823,44.839554,58.642387,67.180424,13.738689,32.992058,48.499432,58.409386,-4.094181,24.091759,44.580116,57.36042,-13.721581,16.057491,36.722431,50.271664,-16.061153,10.564384,25.871487,36.393814,-11.572953,-5.210129,8.799742,22.911502,-19.102768,-2.785005,9.113064,19.061364,-11.75487,18.649983,35.81388,47.343053,1.349308,31.078921,45.834182,53.486725,16.056219,37.329112,46.541841,50.139359,167.680206,107.347688,-167.334194,142.816878
35,8.824539,30.490439,-25.16201,15.017577,-16.875687,-23.103561,-15.011215,-0.077934,-3.139114,1.800957,-0.93132,-3.095856,12.601776,16.281395,9.122658,3.876457,25.149422,25.48851,13.402176,4.750786,35.239563,36.589508,25.533142,17.025032,-16.25913,-33.126286,-40.736068,-40.05669,-53.034804,-57.830681,-46.276314,-36.603946,-46.601832,-51.865869,-39.132471,-28.141701,-36.912853,-34.086258,-20.119982,-10.467405,-24.726162,-25.819484,-15.341241,-7.932396,23.541813,37.747478,46.39492,49.577065,10.260601,20.406017,32.518787,41.291142,-3.563461,8.20507,24.548321,36.175575,-11.794624,4.877758,23.462734,36.154404,-15.206509,2.058506,19.442825,32.977581,-11.341513,-25.363117,-29.224247,-28.42285,-52.870487,-46.811382,-35.191652,-25.692494,-47.243573,-40.80001,-29.317181,-18.795096,-35.220366,-19.639533,-8.216819,0.447567,-20.069007,-8.73614,-1.352149,4.451834,176.16663,138.557103,-192.83432,158.55343
36,19.132462,-18.663599,-15.548715,-7.959536,-12.437439,-18.28846,-9.455338,3.416519,6.503105,20.883751,26.543312,30.443344,24.648056,27.639885,16.576881,9.12323,36.609993,36.888084,22.661133,12.821732,44.152222,46.713867,33.924637,24.177933,-11.529759,-24.536835,-22.591728,-22.572462,-50.780359,-56.409187,-56.76314,-54.429499,-46.603746,-37.03978,-23.158844,-15.960598,-35.714277,-21.350575,-10.882831,-7.624323,-23.283271,-12.333749,-5.030189,-3.974133,18.951015,29.244031,28.057165,24.260129,14.205036,7.01148,10.960893,16.62446,-0.58651,-7.426215,2.477731,12.548303,-11.556845,-14.025622,-0.794564,10.715847,-18.532591,-17.466746,-5.513735,5.629892,-6.826817,-18.139801,-22.252594,-22.534501,-45.435366,-41.170219,-29.949783,-23.417624,-43.399826,-33.972915,-21.238931,-15.807117,-36.08657,-21.053185,-9.590796,-5.815777,-26.995582,-14.964487,-6.101435,-3.22757,194.415865,121.120392,-209.266262,151.820782
37,12.559662,-3.051397,-15.548716,-7.959535,-10.050888,-4.241066,13.23658,29.52198,6.785316,21.616859,38.906937,56.495132,17.712822,32.710533,42.69825,51.74057,26.071815,39.44355,37.159195,33.21064,30.920105,39.622421,35.966148,31.552505,-9.995292,-18.258794,-17.40528,-13.331945,-44.295639,-51.221287,-51.098559,-48.811076,-39.958414,-41.948629,-35.59973,-30.269095,-32.612122,-27.500083,-16.172618,-10.166526,-23.97926,-21.032314,-12.175792,-6.609394,14.360218,20.740585,9.71941,-1.056805,18.149471,-6.383057,-10.597,-8.042221,2.390442,-23.057499,-19.592857,-11.078968,-11.319065,-32.929001,-25.051861,-14.72271,-21.858673,-36.991997,-30.470295,-21.717796,-2.312121,-10.916485,-15.280942,-16.646151,-38.000246,-35.529057,-24.707914,-21.142754,-39.556079,-27.145821,-13.16068,-12.819139,-36.952774,-22.466838,-10.964774,-12.079122,-33.922157,-21.192834,-10.850721,-10.906975,206.793051,119.073011,-224.997454,144.865262
38,3.345108,-5.085702,-1.766939,-8.027075,5.608864,19.838219,33.340302,43.777428,10.561752,29.197426,46.151505,62.43885,7.608719,29.544411,46.008453,59.363594,7.474365,33.291779,41.89064,44.593964,8.712959,27.55394,35.127525,38.336792,-15.893846,-23.205867,-20.553347,-15.839876,-39.206849,-44.639095,-47.043471,-48.759793,-33.155865,-35.05435,-36.78682,-37.246861,-22.964577,-15.484225,-8.884958,-5.542069,-10.95443,-7.697034,-3.079555,-0.150146,10.616941,11.00089,-2.901163,-15.948801,9.401865,-15.877962,-25.665264,-28.579846,-7.275667,-33.532906,-33.675185,-27.633362,-21.156464,-42.649555,-35.795832,-26.451502,-31.22303,-45.898133,-41.201191,-34.40177,1.729212,1.541799,4.704378,3.789746,-28.412415,-20.49737,-8.663985,-2.447632,-30.733165,-14.319597,0.238897,3.820266,-28.002268,-9.47855,2.087364,3.055117,-23.249339,-10.059606,-0.104992,2.180607,210.145712,114.830804,-226.756839,137.681683
39,21.029434,-2.056505,-1.766939,-8.027075,-13.381119,-11.388474,8.902245,26.348763,18.971786,45.877533,61.631927,75.359573,36.628876,44.66114,25.837784,14.289436,47.371902,54.527321,36.321373,26.141167,52.772942,58.358574,43.634148,35.01091,-11.056627,-21.614064,-11.572305,-6.603774,-46.775628,-49.271302,-48.571083,-50.504612,-41.497265,-23.315535,-10.681833,-12.547282,-31.439389,-13.428337,-5.532991,-10.143123,-20.845056,-7.250147,-1.317599,-4.183343,6.873665,1.261196,-15.521736,-30.840797,0.654259,-25.372868,-40.733528,-49.11747,-16.941776,-44.008312,-47.757511,-44.187756,-30.993862,-52.37011,-46.539803,-38.180294,-40.587387,-54.804268,-51.932087,-47.085743,5.770545,14.000084,24.689698,24.225644,-18.824582,-5.465683,7.379946,16.247491,-21.91025,-1.493372,13.638474,20.459671,-19.051762,3.509739,15.139503,18.189356,-12.576521,1.073624,10.640738,15.268191,231.154346,113.72189,-228.544579,130.602199
40,-2.421227,-14.389513,3.840179,8.781063,-6.077728,-2.58831,12.807655,32.734909,21.406517,44.858093,60.557785,77.29351,35.718956,52.996445,36.766205,26.522255,45.481682,60.338287,43.674202,34.210739,50.944862,61.07872,47.664185,38.505478,-7.268672,-13.673023,-4.703405,-3.873325,-41.701041,-37.786281,-36.04211,-37.340937,-35.271619,-13.33247,-4.519791,-11.095005,-25.442405,-5.489766,-0.169875,-6.559468,-16.104847,1.40933,4.727673,-0.86852,-14.189243,-32.055416,-46.837006,-53.410263,-29.083958,-44.128475,-43.09267,-40.127964,-29.435806,-45.915928,-42.861328,-37.446213,-29.737015,-45.660667,-42.837925,-38.830376,-30.306416,-47.659721,-54.781895,-61.000614,-1.837569,-9.427713,-13.47113,-15.99172,-35.093531,-22.545168,-7.784597,1.126451,-36.691786,-22.423736,-6.848028,2.754748,-34.300995,-20.141379,-7.632876,-0.910757,-28.53008,-23.56229,-17.587258,-13.463628,228.466415,100.174992,-224.971104,140.225877
41,-7.081261,-12.112421,-1.828709,-15.758968,-10.064849,-8.983154,7.792683,27.427655,13.848381,39.134217,52.851048,65.557309,29.864788,48.638821,33.795205,22.986718,40.720025,56.428929,41.197758,31.479607,46.517601,56.307564,44.18953,35.506611,-6.349687,-13.180502,-6.156748,-5.146403,-43.114215,-40.269682,-38.028729,-38.806722,-39.519831,-20.46827,-9.307408,-12.594645,-31.13093,-12.868817,-5.188331,-9.335041,-22.054021,-6.551348,-1.301946,-5.170532,-10.929107,-24.127807,-37.438345,-45.233316,-12.147016,-26.332826,-29.883613,-30.032272,-11.560363,-26.916818,-27.913026,-25.543298,-11.24216,-25.364256,-25.351953,-22.9424,-11.552782,-25.0282,-29.444332,-32.156553,-1.374765,-11.856002,-20.797323,-27.478239,-38.676969,-30.361967,-16.626406,-9.236796,-43.32182,-32.62035,-16.963008,-8.783409,-43.715525,-31.528402,-17.613055,-11.067233,-40.935274,-33.304637,-24.314657,-20.415041,220.971107,89.560374,-227.21386,125.964712
42,-7.08126,-12.11242,-1.828708,-15.758968,-14.051971,-15.377998,2.77771,22.120399,6.290245,33.410339,45.14431,53.821106,24.01062,44.281197,30.824203,19.45118,35.958366,52.519569,38.721313,28.748474,42.09034,51.536407,40.714874,32.507744,-5.430702,-12.687981,-7.61009,-6.41948,-44.527388,-42.753083,-40.015348,-40.272507,-43.768044,-27.604071,-14.095026,-14.094285,-36.819455,-20.247867,-10.206787,-12.110614,-28.003194,-14.512026,-7.331565,-9.472544,-7.668972,-16.200199,-28.039684,-37.05637,4.789925,-8.537178,-16.674557,-19.936581,6.315079,-7.917709,-12.964725,-13.640385,7.252693,-5.067844,-7.865982,-7.054424,7.200851,-2.396679,-4.10677,-3.312492,-0.911961,-14.284291,-28.123515,-38.964757,-42.260407,-38.178767,-25.468216,-19.600044,-49.951853,-42.816964,-27.077988,-20.321567,-53.130054,-42.915425,-27.593233,-21.223709,-53.340469,-43.046984,-31.042056,-27.366455,212.716141,80.09737,-230.216274,112.855161
43,-16.177883,-13.802653,3.857002,-21.338658,-16.133824,-18.168755,1.299133,20.018692,1.229724,26.576271,33.784961,37.78553,19.646358,38.025913,25.291442,14.470481,32.161731,47.326526,33.932476,24.080658,39.01514,48.201255,37.414798,29.022445,-5.42675,-14.080514,-11.453297,-10.054295,-44.303281,-44.982041,-41.021818,-40.506109,-44.100122,-29.508222,-16.468295,-16.625897,-37.551414,-20.883742,-11.28671,-13.646177,-29.115505,-15.332041,-8.33856,-10.731311,9.017086,18.854485,19.125595,17.724266,30.11713,11.082687,6.31794,9.687366,19.981556,-2.880135,-5.120087,0.451069,8.857555,-12.213078,-12.797356,-6.961098,-1.891708,-19.201927,-19.442368,-13.979759,-1.393676,-12.045776,-23.973023,-31.764227,-37.167542,-42.942749,-30.712833,-24.229565,-45.200437,-46.179891,-30.723115,-24.624768,-49.080432,-49.612628,-35.016034,-28.680874,-50.727068,-52.815467,-41.20145,-35.846948,194.732294,67.352749,-228.165236,92.574535
44,-16.177884,-13.802653,23.508682,-12.756987,-18.215675,-20.959511,-0.179443,17.916985,-3.830795,19.742203,22.425613,21.749954,15.282097,31.77063,19.758682,9.489784,28.365097,42.133484,29.143639,19.412842,35.939941,44.866104,34.114723,25.537148,-5.422798,-15.473048,-15.296503,-13.689109,-44.079173,-47.211,-42.028288,-40.739711,-44.4322,-31.412373,-18.841564,-19.15751,-38.283372,-21.519617,-12.366632,-15.18174,-30.227815,-16.152055,-9.345554,-11.990077,12.324772,22.660675,20.815372,16.944294,28.238697,1.766911,-3.282452,1.439152,13.288708,-14.852142,-14.706974,-6.492405,-0.314713,-24.06744,-20.589809,-12.480183,-10.569763,-27.856693,-25.806999,-19.378223,-3.069273,-11.616858,-24.025418,-31.587806,-42.700286,-49.753727,-34.900221,-25.707623,-49.991868,-48.047718,-27.422493,-18.932028,-52.396274,-49.966612,-30.868877,-23.649482,-52.467565,-51.610253,-36.98754,-31.197049,178.220358,55.351664,-204.990606,81.619116
45,-25.397987,-16.452533,20.852737,-22.049405,-16.687775,-25.049286,-9.63192,6.326294,-8.065681,11.25515,14.428711,15.218124,11.777916,28.244934,17.096443,6.297112,25.888939,40.360794,27.656593,16.722679,34.323235,44.2733,33.380814,23.242607,-0.674623,-6.197889,-1.56352,-1.471018,-40.408482,-40.811588,-34.781938,-32.635309,-43.297598,-22.64014,-7.437683,-7.045135,-37.45005,-14.889321,-4.04317,-6.667038,-28.753801,-8.978664,-0.388719,-2.43803,17.33242,29.75275,25.667725,13.609715,24.824238,6.795788,3.932762,6.754532,7.913876,-12.277622,-8.547821,-1.52544,-6.432381,-23.237343,-16.205463,-8.484821,-16.771317,-28.623848,-22.727394,-15.697231,-3.073689,-9.221652,-17.544249,-21.574513,-36.787839,-37.659693,-25.020989,-18.78852,-42.613404,-38.10479,-21.87956,-16.503724,-43.521536,-37.959646,-23.793236,-19.951959,-41.75569,-38.441515,-26.635392,-22.866178,153.190355,39.092488,-183.769884,59.763068
46,-13.771133,3.911765,22.470302,-6.440691,-20.881577,-33.25161,-34.808578,-28.690224,-16.169243,-18.233986,-23.371811,-25.640717,-0.077248,2.522964,-3.301506,-6.951714,13.693886,19.018364,10.087051,3.917999,24.219246,27.889824,18.776436,11.66748,-7.308655,-16.412241,-19.877272,-21.036883,-48.486825,-49.682467,-34.062299,-25.186912,-47.841286,-41.996054,-26.81805,-22.251637,-41.05578,-31.268927,-19.569971,-18.85308,-31.881985,-20.837028,-12.386793,-13.066789,20.550671,33.055973,30.945483,19.655657,22.8788,12.861872,11.508694,12.170248,5.811625,-4.845342,-0.431614,3.999567,-8.323574,-16.964178,-10.003824,-4.219494,-18.584146,-24.863863,-18.324022,-12.384453,-2.378364,-8.927427,-15.076425,-16.408026,-39.732763,-35.006957,-21.738384,-16.467538,-44.191281,-31.610777,-16.672874,-12.542991,-43.009857,-29.517145,-16.826447,-13.891234,-38.73997,-28.859657,-17.518592,-14.512845,139.736967,43.641888,-160.981837,53.960011
47,-25.653534,2.048231,22.470303,-6.440692,-20.217362,-34.063797,-36.915379,-31.25845,-20.623226,-21.520787,-25.13094,-26.756058,-4.123764,-2.161045,-6.722946,-9.430332,10.538578,14.839897,7.719497,3.082294,22.446785,26.620788,19.109802,13.132152,-4.744022,-14.657696,-19.000201,-20.212948,-45.543492,-48.871083,-33.661771,-24.434438,-45.932735,-40.659621,-25.001399,-20.532213,-40.386144,-32.088247,-19.183599,-17.235667,-32.672514,-24.024847,-14.704456,-14.223853,23.768921,36.359196,36.22324,25.701599,20.933361,18.927956,19.084625,17.585964,3.709373,2.586937,7.684593,9.524574,-10.214767,-10.691013,-3.802185,0.045834,-20.396976,-21.103878,-13.92065,-9.071674,-1.683038,-8.633202,-12.6086,-11.241539,-42.677686,-32.354221,-18.455778,-14.146556,-45.769158,-25.116764,-11.466187,-8.582258,-42.498177,-21.074644,-9.859657,-7.830508,-35.72425,-19.277799,-8.401792,-6.159511,114.555559,48.323356,-138.039408,50.152558
48,-25.653534,2.04823,20.123262,6.353346,-19.553146,-34.875984,-39.022179,-33.826675,-25.077209,-24.807587,-26.890068,-27.871399,-8.17028,-6.845055,-10.144386,-11.908951,7.38327,10.66143,5.351944,2.24659,20.674324,25.351753,19.443169,14.596825,-2.179388,-12.90315,-18.123128,-19.389012,-42.600158,-48.059697,-33.261242,-23.681962,-44.024184,-39.323187,-23.184748,-18.812788,-39.716506,-32.907566,-18.797227,-15.618254,-33.463042,-27.212666,-17.022119,-15.380916,22.340813,35.816059,37.541027,28.678351,24.829874,19.489975,18.397036,18.091936,8.325262,1.353636,4.968195,7.897997,-6.184559,-12.138004,-6.79676,-2.31843,-17.365036,-22.387075,-16.844072,-11.686334,0.65054,-5.792143,-10.631337,-11.825096,-39.586167,-33.967265,-20.783244,-14.845494,-43.735563,-29.664404,-15.041459,-10.452292,-41.713191,-25.07868,-12.892884,-9.893095,-36.340118,-23.275444,-12.176842,-9.295074,89.703569,52.412777,-117.114601,58.547094
49,-21.297569,8.290549,20.123263,6.353345,-19.276886,-34.336911,-38.299771,-33.418293,-24.264508,-24.924374,-26.374569,-26.765728,-7.233353,-7.781868,-10.885392,-12.052804,7.706279,8.267383,3.188209,1.19173,20.720615,23.056182,17.549858,13.829727,-0.496011,-9.312565,-13.763689,-15.58088,-42.691704,-44.389593,-32.024536,-24.323735,-45.199573,-30.491227,-16.116117,-14.251224,-40.682114,-25.708611,-14.133682,-13.257027,-33.649899,-22.707371,-14.246731,-13.755646,20.912704,35.272923,38.858814,31.655102,28.726387,20.051994,17.709446,18.597908,12.941151,0.120335,2.251797,6.27142,-2.15435,-13.584995,-9.791336,-4.682693,-14.333096,-23.670273,-19.767494,-14.300995,2.98412,-2.951083,-8.654073,-12.408653,-36.494648,-35.58031,-23.110709,-15.544431,-41.701967,-34.212044,-18.61673,-12.322326,-40.928204,-29.082715,-15.926111,-11.955683,-36.955985,-27.273088,-15.951891,-12.430636,68.428517,63.962513,-96.968822,68.159626
50,-21.29757,8.290548,5.553131,10.075228,-19.000626,-33.797836,-37.577362,-33.009911,-23.451805,-25.041161,-25.85907,-25.660057,-6.296425,-8.718681,-11.626396,-12.196655,8.029289,5.873337,1.024475,0.136871,20.766907,20.760612,15.656548,13.06263,1.187368,-5.721978,-9.404248,-11.772747,-42.783248,-40.719488,-30.787829,-24.965506,-46.374961,-21.659266,-9.047485,-9.689659,-41.64772,-18.509655,-9.470136,-10.895798,-33.836756,-18.202076,-11.471343,-12.130374,18.802185,31.879292,38.041019,43.276863,35.963516,29.891281,23.220634,19.758797,21.024799,9.904747,6.571827,7.561569,6.01553,-5.235844,-4.14711,-0.841599,-7.552872,-16.133881,-14.203892,-10.656109,0.760117,-2.593456,-7.121891,-10.258596,-35.667223,-32.802899,-18.079347,-7.64078,-40.750517,-32.373178,-17.890947,-10.00931,-41.611627,-31.260837,-17.046664,-9.732482,-39.898207,-32.380033,-20.071848,-13.900604,46.921692,72.160235,-91.624947,78.142028
51,-8.282375,9.594393,15.843887,16.557292,-26.053791,-45.2528,-53.097353,-49.782572,-44.042788,-54.366961,-56.876536,-56.253662,-23.846226,-30.688706,-34.503851,-35.26022,-4.326267,-5.253468,-12.161865,-15.143623,13.917045,14.277763,6.427574,1.721249,2.06569,-0.957286,-1.759192,-1.806292,-35.69234,-35.694779,-20.59123,-8.013088,-40.493296,-31.304726,-13.986082,-4.750243,-37.918921,-24.268884,-8.669789,-0.508746,-31.281323,-20.469335,-8.972088,-2.657707,25.019245,46.461926,55.996628,48.237762,41.838398,38.887882,37.058716,37.648258,26.641788,19.977093,19.824886,20.198879,10.752182,4.679489,4.967709,6.086941,-3.991528,-9.748192,-8.404884,-5.615044,5.18512,1.876904,-3.787122,-10.280486,-38.57752,-39.856464,-27.532841,-17.870322,-45.473497,-43.250915,-26.572777,-15.716221,-46.201442,-40.480822,-25.149492,-15.732646,-42.414228,-36.569304,-23.197469,-15.220025,38.484879,81.567848,-75.935497,94.512541
52,-8.282375,9.594393,-4.828491,6.3514,-33.106956,-56.707764,-68.617344,-66.555233,-64.63377,-83.69276,-87.894001,-86.847267,-41.396027,-52.65873,-57.381306,-58.323784,-16.681824,-16.380272,-25.348206,-30.424118,7.067184,7.794914,-2.801399,-9.620132,2.944013,3.807407,5.885864,8.160163,-28.601432,-30.670071,-10.394632,8.939329,-34.611631,-40.950187,-18.92468,0.189172,-34.190122,-30.028114,-7.869442,9.878306,-28.72589,-22.736594,-6.472833,6.814961,27.074661,47.321434,59.266548,63.291206,61.328201,74.197311,83.144531,87.318306,47.457275,60.50354,69.328079,72.674332,29.650612,34.591141,35.346622,33.681393,10.437412,14.549503,17.018623,16.863041,4.830951,5.911305,4.018779,0.258518,-33.439207,-36.789383,-36.820258,-34.248291,-44.911445,-38.646341,-25.790152,-13.651658,-47.315914,-28.521466,-9.857249,0.911498,-43.495045,-27.352592,-11.356889,-2.906468,30.183105,90.926941,-80.783386,100.628641
53,-6.952171,-8.172945,8.251991,1.628976,-30.622787,-49.318085,-58.675919,-62.038422,-55.508938,-71.714573,-78.095398,-80.10561,-33.858833,-45.109062,-51.485138,-53.095779,-11.671143,-14.480553,-21.502762,-23.831062,9.419403,6.740112,0.011673,-2.776108,7.532778,13.350007,21.041515,27.459698,-19.690292,-11.080401,6.569935,22.262629,-27.915972,-26.175629,-9.229124,4.789516,-28.075072,-13.717391,7.144955,20.222025,-22.875934,-9.438211,5.465776,13.288936,24.344616,43.683071,50.00061,43.21249,57.393379,69.149094,77.257347,78.262482,40.217056,52.321358,63.560143,68.055954,20.109386,24.072189,28.114815,29.218655,0.219612,3.285255,8.400021,11.228886,3.048062,6.365078,7.519286,0.713866,-31.313078,-33.242624,-28.231733,-20.764008,-42.246019,-36.914149,-26.900363,-18.016763,-45.386707,-18.566527,-2.887171,1.665131,-40.483755,-13.692413,-1.774275,0.273863,23.205843,82.251101,-72.556486,101.754722
54,1.277618,3.685697,-0.638809,-5.558525,-27.830086,-46.144295,-55.032578,-56.871128,-52.719498,-69.063835,-75.708504,-77.661896,-30.831642,-40.152512,-45.581017,-46.931877,-8.053665,-10.678711,-18.496284,-22.083321,12.989616,12.14756,5.52475,1.170044,6.584138,9.585547,16.596813,25.063504,-20.376216,-20.020935,-5.091815,9.647823,-27.805192,-33.099857,-19.159146,-6.338217,-27.681104,-17.621746,2.477982,16.831125,-22.305175,-11.1428,2.510556,11.674718,24.028873,42.788029,49.392071,44.502239,56.192551,66.637001,73.987198,76.168442,39.512157,51.340599,62.551804,67.831535,19.567623,22.689972,26.023407,26.678467,-1.81469,1.646748,6.478558,8.671875,3.845507,9.042298,12.45126,7.02766,-27.754217,-26.681396,-24.530382,-21.195273,-38.108279,-30.483554,-22.514416,-16.14412,-41.159552,-16.842579,0.605092,8.617733,-36.378526,-13.20619,1.172548,7.046834,24.57756,85.746622,-73.101196,96.006021
55,3.327827,-1.01246,-0.940647,0.541551,-28.11676,-46.87603,-57.645493,-61.826534,-51.544075,-67.404613,-75.262642,-78.966293,-30.886688,-39.78241,-44.630127,-45.254059,-9.776802,-14.118118,-21.135521,-23.877068,9.845352,6.36692,-0.276947,-3.913994,5.434222,8.038823,15.290236,25.199262,-23.879749,-23.414892,-10.445051,2.221872,-31.082718,-31.590893,-18.10732,-6.489382,-30.393985,-13.028966,5.879936,17.699428,-24.122613,-8.060528,5.146804,12.795056,22.549095,42.588387,49.809151,44.460297,53.974628,65.10046,72.479839,75.969486,39.286938,51.248417,61.812115,67.778721,20.696526,23.441391,25.845451,26.666451,-0.177155,3.124294,6.940212,9.406128,4.082289,7.816305,9.532596,2.87229,-27.753105,-28.575065,-26.790046,-23.136583,-38.227889,-35.038295,-28.300214,-21.122408,-42.287886,-26.899437,-7.549667,5.289046,-39.341064,-24.771703,-8.440139,1.792738,28.178215,84.722167,-73.769016,96.535577
56,3.557625,-1.094742,0.369301,-3.594677,-28.567085,-47.931061,-59.925213,-64.942875,-50.716782,-64.854755,-74.314041,-79.727325,-31.351089,-39.084206,-45.554695,-47.796822,-11.441002,-16.987495,-24.711456,-28.053932,7.582169,2.265015,-5.283279,-9.14463,3.47979,5.469296,13.010719,24.110541,-24.295977,-28.285208,-19.306575,-8.751083,-31.045236,-32.1284,-20.067433,-9.555506,-30.329765,-13.196928,4.9417,15.757439,-24.126658,-9.270126,3.760631,10.761893,22.009048,41.366444,48.863182,44.19714,52.135906,63.216877,71.522655,74.401188,36.82497,50.003471,61.797237,67.538509,17.774734,21.887341,25.072575,25.257111,-3.199997,0.988998,5.454426,7.398548,3.676434,8.329235,9.980534,4.616862,-26.272238,-27.186977,-25.832544,-21.871749,-35.726998,-31.461063,-24.511486,-17.437359,-38.926503,-23.685698,-7.224551,2.40592,-36.392976,-21.0329,-6.718568,0.958459,32.189827,83.762211,-72.945728,93.075686
57,0.791588,-0.961207,-0.251884,-3.159028,-29.390259,-49.65786,-61.869106,-68.873177,-53.049202,-67.864895,-76.377869,-80.638161,-34.340172,-42.047081,-48.076515,-49.093094,-14.490509,-19.806633,-27.008743,-29.493713,4.74678,-0.387611,-8.05481,-11.396484,3.395007,4.761543,11.837863,22.380294,-26.605227,-25.860579,-14.659857,-2.945834,-34.076008,-28.82679,-14.34388,-2.297115,-33.467149,-12.059022,6.871431,18.762245,-27.999891,-10.1388,4.147775,12.536322,23.923988,41.960506,47.375507,40.649586,54.403324,63.192043,71.627369,77.022915,36.789093,46.422729,59.253788,66.672192,16.273441,19.066372,24.045238,25.769291,-5.933418,-1.714497,4.743233,7.812767,1.92581,8.612268,14.783265,10.166866,-27.25376,-23.29099,-21.756584,-20.662521,-37.847599,-27.233198,-21.381265,-17.855255,-41.302257,-15.897582,0.912764,6.993605,-36.51484,-12.335664,0.928541,4.164324,33.590641,82.821119,-72.588387,89.936773
58,-0.834732,-1.541939,-0.017567,-0.473934,-29.525986,-49.746895,-61.82682,-68.538837,-51.828575,-65.582657,-73.801689,-78.371372,-33.537941,-40.311699,-44.298363,-44.520378,-13.820572,-18.360901,-24.453735,-26.777687,5.422668,0.472069,-7.027702,-10.582581,2.84268,3.999883,11.555879,22.913571,-28.093257,-26.342417,-14.351629,-1.791441,-34.61197,-21.741425,-2.83913,10.625054,-32.68687,-9.338113,8.19289,18.133996,-26.942538,-8.700263,4.524792,11.52519,24.710541,42.775555,46.36179,38.744545,56.555557,65.572929,73.133469,75.733337,39.269485,49.719372,61.338959,66.541557,19.098358,21.856556,25.42963,26.145859,-2.606792,0.839653,6.576004,9.638844,2.52587,7.952527,12.643459,9.019111,-26.03348,-24.082136,-22.429479,-19.91988,-37.647806,-29.285442,-23.69953,-19.35437,-42.027083,-15.41244,2.28671,9.286336,-37.485186,-11.857808,2.080402,6.414386,33.273783,81.301642,-72.088079,89.485301
59,-1.594162,2.19146,-2.121906,-1.31939,-29.045219,-49.843369,-62.142162,-70.64146,-47.413673,-56.924114,-63.282394,-66.467228,-29.799042,-38.205872,-41.520081,-41.199188,-10.860558,-17.068863,-22.11628,-23.58696,7.549324,0.978584,-6.175003,-9.381638,1.635398,1.823922,9.946972,21.689709,-30.922229,-35.033201,-27.838074,-18.470258,-37.24896,-18.496657,2.638472,15.127369,-34.666064,-9.427188,6.697172,13.997213,-28.882181,-9.335335,3.076838,7.678262,24.767017,43.766441,48.4231,41.973782,56.647968,66.802769,75.0527,78.816662,38.824768,49.866886,62.14365,68.17503,18.18306,23.288155,27.534256,28.226681,-3.67939,2.007637,8.184528,10.497723,2.216871,7.919953,13.549955,9.53556,-27.165673,-22.292331,-18.482454,-14.837235,-37.838893,-26.157197,-19.516002,-15.682413,-40.768764,-8.920001,6.672688,9.687806,-34.680791,-5.072765,5.94218,5.804384,32.018309,83.559114,-73.871298,88.231922
60,2.05719,3.140688,-1.192074,0.789973,-28.740921,-49.658089,-62.941246,-71.49622,-49.759483,-61.483955,-70.347061,-75.85041,-31.839294,-40.581207,-48.670692,-52.22168,-13.421173,-18.111649,-25.417099,-29.76757,5.144234,0.232773,-7.305107,-11.040916,0.638808,1.743183,9.085276,18.965713,-32.026666,-37.20592,-31.301315,-22.900418,-37.787887,-32.232696,-16.210162,-2.521208,-35.549249,-15.684605,1.777733,12.574267,-29.162774,-14.423939,-1.864739,4.891806,24.698696,43.391705,49.259377,44.468365,56.897163,69.097023,77.518845,80.719872,39.48349,51.143246,62.650337,67.951355,18.699989,23.868198,28.539047,29.885788,-3.297787,2.742004,9.02607,11.6502,3.061987,8.45536,13.231446,9.20004,-27.59981,-20.977819,-14.746739,-8.469162,-37.794648,-25.141588,-14.957926,-8.018538,-40.317431,-11.074473,4.917525,9.301403,-34.567695,-7.164808,4.642983,6.335592,34.346924,86.829045,-74.791946,89.151138
61,0.453873,-2.635199,-0.339088,1.43085,-30.023117,-51.109886,-64.53083,-72.654362,-50.031395,-61.686802,-69.382496,-74.126129,-31.809425,-40.916061,-47.288704,-49.345207,-13.010559,-18.834229,-25.805168,-29.184723,5.750771,0.154152,-7.170525,-10.514488,1.402661,2.790038,12.261779,26.155807,-31.072313,-31.820914,-21.596527,-10.675535,-36.369634,-27.138658,-8.173871,6.039808,-33.202919,-11.287944,8.003039,19.608936,-25.615676,-9.667799,4.359826,12.422207,22.021465,40.602207,47.953491,45.637264,55.049057,68.341026,74.697533,75.903854,40.680943,52.633381,61.487961,64.724693,22.059288,23.100128,25.049286,25.749321,1.571331,2.700977,6.037445,8.615856,6.64138,11.269913,12.46605,6.565582,-22.23234,-22.888809,-17.102271,-8.655154,-33.571569,-34.775269,-26.502351,-16.310599,-38.594285,-25.31878,-5.194506,8.372244,-36.704136,-22.816345,-6.660214,3.855634,35.006275,84.199821,-74.925556,90.587962
62,-2.0644,2.331109,1.359844,0.579682,-30.334854,-52.016029,-64.495125,-71.928234,-48.506126,-56.282158,-61.54644,-64.025517,-29.839096,-37.004242,-42.79026,-44.048424,-10.914001,-15.93235,-22.449532,-25.236168,7.79274,2.082481,-5.036316,-8.014641,0.712662,1.905371,11.652334,24.785072,-32.763503,-36.824549,-29.795068,-21.259555,-38.766415,-25.050969,-6.569379,5.631298,-35.481694,-9.826991,6.930403,15.049316,-27.87639,-8.157723,4.019242,8.697021,21.647587,41.711197,49.5401,47.191029,54.049358,65.195332,71.871014,75.125828,39.835682,50.111732,59.373379,65.192013,20.969009,23.206215,24.757919,25.359478,-0.060596,3.427677,6.608849,8.561897,7.969663,11.080864,9.737021,2.491691,-21.519154,-21.693321,-17.621746,-10.462928,-33.349082,-32.110832,-24.720265,-16.457535,-38.54081,-24.563913,-4.98826,8.604982,-36.479087,-20.906466,-4.766236,5.931004,33.152676,86.503543,-73.354912,91.140258
63,5.038948,0.313075,-1.020241,-2.144962,-31.884727,-55.792351,-69.964256,-77.557755,-61.531105,-79.431267,-90.33062,-97.497082,-41.896019,-51.974716,-60.673428,-64.981785,-21.012611,-25.470314,-31.960487,-36.002655,-0.008469,-4.344635,-11.50074,-14.929962,2.031033,4.35643,11.823259,20.111986,-30.082053,-24.212059,-9.568226,5.210037,-38.250984,-28.968415,-13.195723,-0.488724,-37.156118,-10.892124,5.967282,14.853598,-30.267489,-8.976503,2.820604,7.704012,23.298569,42.330151,49.193859,45.254402,55.759563,66.900158,73.796711,76.399555,40.117035,50.819149,60.606251,65.510616,20.309315,22.115135,24.741039,25.471115,-1.288605,1.936626,6.063423,8.281517,6.376286,11.626707,13.96464,9.580669,-22.458872,-18.833258,-12.34789,-3.85937,-33.760679,-26.321453,-15.86365,-5.955982,-37.714311,-16.461054,2.930891,14.331252,-33.94414,-13.354206,1.763067,10.31482,38.557434,86.787364,-74.009342,88.966042
64,-7.325249,2.39465,1.260109,-1.054141,-30.643387,-49.988708,-61.324139,-66.348438,-49.7089,-58.047523,-63.725052,-66.57629,-30.733795,-35.149727,-42.320137,-44.435806,-11.68911,-15.25692,-23.563499,-27.325859,7.161827,2.527885,-5.665512,-9.426155,-0.633158,-0.235578,7.585143,17.384439,-31.913045,-37.238771,-30.256189,-21.797216,-37.631349,-37.728452,-26.340317,-15.432262,-35.720421,-17.475336,1.413251,14.052356,-28.240316,-13.072284,0.230885,8.126848,23.772812,41.941223,46.554451,39.820175,55.48914,64.881306,72.201748,76.022243,38.797359,47.980099,58.351765,63.843327,18.404675,20.196705,23.478184,24.943314,-3.781872,-0.165596,4.983959,7.597847,4.957632,11.488294,16.790678,12.813149,-22.356397,-18.041525,-13.354638,-7.843784,-33.651782,-24.111622,-15.497563,-8.871836,-37.55024,-10.465305,7.24249,14.781505,-32.96697,-7.584155,5.966819,11.127301,31.60924,89.07974,-72.372179,87.809626
65,5.134735,-5.244926,-3.350658,2.31669,-31.439438,-53.957176,-67.078228,-75.157986,-58.453102,-73.187485,-83.505707,-90.570831,-39.514732,-48.850136,-58.894272,-63.738499,-19.167595,-23.922043,-30.433159,-33.294525,1.569443,-3.050766,-10.088425,-12.994995,3.973114,6.388481,14.706077,25.624568,-26.830122,-21.325165,-8.792116,4.285355,-34.022871,-26.459465,-11.229282,2.887171,-32.60113,-8.468204,10.065564,22.168151,-25.741246,-7.392204,6.314813,15.020294,23.643837,42.314072,47.361088,41.60717,58.370819,68.90419,75.772247,78.768425,42.124157,53.344345,63.792915,69.010735,22.381954,24.843521,27.364826,28.452129,1.05217,4.468632,8.498325,10.465336,4.884735,11.189051,16.346229,11.602223,-23.305748,-21.858442,-16.675143,-10.209381,-35.438129,-28.5495,-19.858932,-12.414272,-40.309156,-11.669809,6.445539,14.122721,-35.958315,-9.066782,4.466315,9.37291,37.038689,83.779547,-75.428123,90.07105
66,-4.142418,3.307877,1.387711,0.539482,-30.641899,-49.934006,-61.183033,-65.974445,-52.801208,-63.948154,-70.434723,-73.312454,-33.928642,-39.388618,-47.138329,-49.332047,-14.59568,-19.249992,-27.917175,-30.720634,4.535294,-0.917358,-9.134216,-12.077293,1.270885,2.355099,9.62868,19.271933,-27.609597,-30.855075,-23.353141,-14.842638,-34.14171,-36.78046,-27.428298,-17.804095,-33.616832,-17.442917,2.702105,16.952094,-27.529229,-13.714797,0.916345,11.105626,23.317223,42.609959,48.541145,43.573494,56.686478,66.15303,72.881012,75.2528,40.767918,50.589294,60.644646,65.719757,21.129684,22.789078,25.691128,26.917534,-0.269451,2.390614,6.402912,8.508053,6.155003,10.90219,12.88657,6.012761,-22.894922,-23.399022,-18.610216,-11.631215,-35.128883,-30.70215,-21.890521,-13.540785,-40.190781,-15.543906,3.190304,12.745007,-36.500576,-12.354745,1.791997,8.420873,33.205862,87.035523,-73.730822,90.558631
67,2.383232,-3.317078,-1.124954,1.096811,-29.601746,-50.240364,-61.69836,-67.2155,-57.623119,-73.272686,-82.248001,-87.526131,-39.096336,-46.42971,-53.342285,-55.711212,-18.938713,-23.692932,-30.695801,-33.145752,1.621628,-3.488274,-10.778961,-13.703613,3.108763,4.823788,11.804425,22.670521,-23.467349,-17.709432,-4.47496,7.999334,-30.975767,-32.467626,-23.177431,-14.205929,-31.983533,-13.659284,7.082587,21.591927,-27.143135,-12.014037,3.569266,15.068119,21.561298,40.666351,47.080135,42.410831,55.243435,66.871948,73.305244,75.474472,40.30283,51.724033,61.81469,67.484665,21.302605,23.174629,25.155888,26.152039,-0.234203,2.247791,5.729027,8.159981,6.824038,12.138896,13.419291,4.771053,-20.709575,-22.51701,-18.819889,-12.495258,-32.812687,-33.23259,-27.605275,-21.329241,-38.713402,-22.741349,-2.860619,9.797444,-36.672366,-19.876346,-4.003403,5.907075,35.809679,83.654209,-74.635191,91.591206
68,-3.761673,-3.109905,0.727558,0.685954,-29.67247,-48.456802,-59.681568,-68.001366,-45.475388,-54.75666,-61.294212,-64.986076,-28.542366,-37.110786,-44.132538,-46.19133,-10.606499,-17.185593,-24.875793,-26.777916,7.05368,0.339546,-6.952171,-9.527893,3.810711,5.751248,14.776874,29.603919,-25.157735,-27.460285,-17.791899,-7.022319,-30.628266,-17.506674,2.131192,16.000736,-27.903282,-4.196126,14.612772,25.972409,-21.21667,-2.357754,10.659603,18.160117,22.21693,41.998959,48.917656,44.356155,54.237957,63.441067,69.61813,72.674389,38.259773,47.292767,57.108593,63.553791,18.489189,20.984058,23.969021,26.092758,-3.0867,1.007366,5.121059,7.814713,7.090275,10.50285,10.567039,2.456524,-22.343769,-24.532389,-22.878435,-17.947171,-33.827617,-33.146602,-26.623073,-19.21645,-38.60608,-22.787353,-3.305067,9.21804,-35.694116,-18.737792,-2.880008,6.964798,32.274199,80.515127,-73.68144,92.247983
69,-0.237694,4.796556,-1.896572,0.934407,-28.475876,-49.042053,-60.690594,-68.141785,-48.706741,-61.608238,-70.278168,-76.064415,-31.356926,-39.885292,-45.922165,-47.604904,-13.105659,-18.674469,-24.87442,-26.98288,5.594444,-0.948257,-7.573929,-9.698639,2.249907,2.33398,10.366258,24.232714,-27.49823,-26.135491,-14.86953,-3.234085,-33.232157,-28.105268,-11.890042,1.125864,-31.500058,-11.268431,7.519317,19.300091,-25.683478,-10.006006,3.612553,11.997333,22.152443,40.699539,47.829494,43.696976,54.880772,66.291618,73.273544,75.990257,39.91333,50.238533,59.666748,64.618378,20.685596,23.167648,25.692673,26.775856,-0.849724,2.884884,7.196789,9.725418,6.058395,10.987004,12.6668,4.506175,-22.954759,-22.403266,-18.821773,-13.202485,-34.696105,-31.459458,-24.519082,-17.81027,-39.649476,-21.307319,-2.833047,7.854405,-36.645103,-17.175661,-1.796875,7.070175,32.550144,85.285316,-75.064373,93.156023
70,-0.333252,1.835407,-1.51577,1.990741,-28.266106,-48.596992,-61.294041,-69.968033,-47.476044,-59.202747,-65.658646,-69.476166,-30.214119,-38.21743,-42.275162,-43.294945,-11.675949,-17.225304,-23.281403,-25.684662,6.824455,0.573807,-6.37104,-9.374771,1.961224,2.127425,10.458451,24.708285,-29.184912,-28.52162,-16.364106,-4.418396,-35.214685,-22.766729,-2.787846,10.781437,-32.771191,-10.321797,8.380951,19.51347,-26.151516,-9.427652,4.255468,11.971367,22.519798,41.651058,48.550358,46.154022,57.278252,66.926994,73.624191,76.929359,42.600632,51.437302,60.870895,65.695724,23.516922,23.867226,25.592594,26.374397,2.058907,4.066544,7.355232,9.388447,7.340704,11.045667,11.201648,3.794933,-21.871811,-21.758591,-19.181438,-14.839427,-35.012545,-31.696425,-25.579861,-19.595166,-41.20852,-22.595001,-3.404022,7.781941,-38.926719,-19.047501,-2.783215,6.48367,32.679291,86.846381,-76.117744,94.872422
71,1.295471,3.418318,0.319061,1.505321,-29.167786,-49.997749,-62.984734,-71.270771,-51.398621,-63.875198,-72.347431,-78.593616,-33.762131,-42.497978,-48.158112,-50.761986,-14.472771,-19.830093,-25.370522,-28.099709,4.915924,-1.355782,-7.809105,-10.633507,1.163779,0.669498,8.619555,21.035587,-31.468164,-28.507942,-17.069296,-4.869699,-37.001156,-22.167256,-1.132935,14.723398,-34.092341,-10.7103,7.272778,18.89754,-27.606664,-10.57306,2.469862,10.248469,22.685852,43.069725,49.662838,45.03273,57.394524,67.800179,74.246178,76.846619,42.48991,53.002338,62.921219,68.648872,22.823296,24.826298,26.204338,26.485691,0.7164,3.945007,7.612667,9.90469,7.117785,9.610433,8.661885,1.961564,-21.717126,-21.270146,-16.358518,-8.476232,-34.321774,-30.744233,-23.357834,-14.815776,-40.307551,-22.387025,-3.344927,8.794463,-38.403075,-18.782746,-3.17465,6.376255,34.400082,89.944106,-75.373363,96.05715
72,0.797768,0.497554,1.282425,2.881552,-29.241257,-50.215187,-62.154865,-69.458656,-54.205055,-68.118896,-77.069435,-83.648987,-36.284294,-45.285072,-50.89222,-53.285122,-16.740417,-22.047615,-27.89772,-30.670166,3.331947,-3.505096,-9.940224,-12.181435,0.882444,0.704356,9.422187,23.29065,-29.35945,-22.277295,-8.110886,5.781629,-35.005135,-25.232052,-7.35997,6.834783,-33.142959,-11.529883,7.617747,20.885163,-27.305291,-11.567056,2.45004,12.124076,21.787949,41.000061,46.967812,43.399086,56.16457,67.243881,73.065491,75.263329,41.29858,51.420307,60.17498,65.715523,21.379681,22.201252,23.439674,24.553242,-0.934982,0.886345,4.846802,7.920914,7.391648,9.847246,7.692558,-1.152788,-20.248454,-19.725737,-13.713192,-5.292751,-33.158489,-30.688257,-22.448004,-14.115218,-39.559383,-22.69093,-3.108577,8.557496,-37.787207,-18.235236,-2.676695,6.666019,36.067972,90.141198,-73.220816,98.63824
73,-1.93531,2.371401,0.548687,-4.710229,-29.3367,-48.914452,-61.271496,-69.283218,-44.642029,-51.741371,-57.896118,-61.303368,-27.463188,-37.209206,-44.318047,-46.619797,-9.901085,-18.263054,-25.958862,-28.276176,7.147522,-1.659164,-9.303818,-12.373009,1.402352,1.890087,9.843664,22.685249,-30.247606,-35.317654,-28.464532,-19.14201,-33.623686,-23.820067,-4.703776,10.706317,-29.375597,-8.832007,10.123857,23.37531,-21.786935,-6.267358,7.018428,15.945624,24.177589,41.492329,46.351891,40.723572,52.935905,62.648678,69.436398,73.046322,35.118084,45.076389,54.904289,60.52248,14.212303,17.93644,20.040607,21.341171,-8.916779,-2.719002,2.222328,5.471077,5.0962,10.559938,15.553539,12.382872,-20.575947,-13.57907,-7.106052,-0.227272,-29.695742,-18.641307,-8.069883,0.630225,-32.654019,-7.657916,10.225374,18.390662,-28.273075,-4.390207,8.922194,14.618638,34.96233,91.998697,-71.842461,93.414109
74,0.267334,3.659607,-1.608181,5.78237,-30.1054,-50.042496,-62.672253,-71.465206,-41.564827,-49.02935,-54.46146,-57.348003,-23.964729,-35.761871,-42.543297,-44.427109,-6.512833,-16.548042,-24.15596,-27.086449,9.495163,0.743408,-6.480904,-10.074692,0.311129,0.097751,7.785523,22.213136,-32.216147,-39.001807,-32.561857,-23.447249,-34.235231,-20.579035,-0.001142,14.953727,-28.141423,-9.404125,8.117184,19.690879,-19.335536,-5.069246,7.190156,14.39646,25.799274,45.2635,51.310444,46.925697,53.772984,65.139656,73.505287,77.982674,34.812756,45.668507,56.229401,61.228065,13.840027,21.502304,24.863205,25.907593,-7.840519,1.899891,8.313904,10.983295,2.807884,6.112642,10.271347,6.639466,-25.542965,-17.341584,-7.934372,0.778611,-34.192191,-19.757199,-8.037835,0.598485,-35.557246,-2.766696,11.958863,15.093993,-28.711966,1.467715,11.198869,11.496908,35.637875,94.879879,-73.042431,98.418054
75,2.876816,4.077164,-1.838379,3.017743,-29.169502,-48.914108,-63.080692,-72.638512,-38.570938,-46.324768,-52.49588,-56.099854,-21.188965,-35.195503,-43.753853,-46.40007,-4.862938,-16.269608,-24.812508,-28.706245,9.514275,1.150246,-6.242752,-10.970421,0.330581,0.562917,8.082017,20.530345,-32.5094,-40.684629,-31.738075,-20.391128,-32.781102,-24.505157,-4.742648,9.957655,-25.464172,-10.493217,6.985423,18.947064,-15.262818,-2.484435,9.566374,17.007082,26.078339,45.395164,51.424255,46.413746,49.483795,63.014717,69.262505,72.307205,30.710278,41.393623,48.124924,50.67421,10.653591,20.082722,22.504578,22.795887,-9.469128,1.075745,6.225586,7.732201,3.17462,6.424976,10.909723,8.617239,-25.520272,-20.780094,-6.094148,6.063366,-31.395947,-21.292283,-5.504463,5.249279,-30.656548,-4.3522,10.375489,15.550328,-23.133402,1.003938,10.321303,12.92186,39.28339,97.345603,-74.11211,99.824358
76,-2.075272,10.910649,4.423199,5.267218,-21.55014,-37.784042,-47.071495,-47.358284,-28.552551,-37.242622,-42.383308,-44.42791,-12.016068,-22.895737,-27.320709,-26.734314,2.743492,-6.428719,-12.675018,-15.040283,15.187454,10.004539,4.108543,0.051613,0.564183,-2.48354,-1.396547,4.256363,-36.260243,-41.731484,-22.108346,-6.395861,-36.527684,-26.54468,-5.255547,7.461271,-29.937217,-14.951751,1.205862,10.896015,-19.940597,-5.161686,5.611661,11.059468,21.813126,38.93446,42.958088,34.031754,36.721916,45.365124,43.252888,41.406384,17.797623,23.230419,24.409332,23.885536,-0.172577,5.404358,9.380493,11.266308,-16.15099,-10.797501,-5.760727,-2.607822,3.85761,7.645566,12.975768,12.936001,-25.514375,-20.771696,-3.096011,7.741587,-30.530423,-23.119354,-3.108577,8.089458,-29.142891,-11.169415,7.893957,17.025762,-21.839886,-7.237457,5.009687,11.586477,38.173914,106.813022,-68.723116,103.648344
77,6.687355,2.308632,-5.608177,11.009049,-21.210938,-38.225555,-48.441353,-45.615921,-28.597412,-37.623596,-42.098694,-42.863503,-12.281113,-20.733147,-26.151466,-26.672287,1.868134,-4.958153,-11.720467,-14.295502,13.119621,10.592766,5.513306,1.359444,3.830008,2.530717,3.314145,5.409923,-26.721132,-34.201423,-17.16362,-3.806882,-27.1599,-25.070853,-5.009224,7.654705,-21.392844,-11.530747,5.552844,15.448471,-12.998493,-0.814982,10.795948,17.765316,21.408119,38.436127,45.811043,38.345661,32.174206,42.268524,42.374325,40.41687,14.267464,20.260277,22.90987,22.116795,-2.547455,4.47361,9.893246,10.469971,-16.338902,-9.717236,-4.012871,-2.857418,2.284271,4.539057,9.065516,7.306803,-33.489502,-28.535298,-12.093046,-2.993197,-35.419573,-12.030184,6.648914,13.399469,-29.568382,-4.622574,8.773529,12.235752,-19.966039,-1.621875,7.496654,9.859163,45.635262,106.368388,-73.557301,111.904127
78,0.910606,5.911954,0.065689,14.179932,-18.289261,-33.717957,-42.231903,-41.731911,-22.348366,-30.581131,-35.989265,-38.051491,-6.984787,-14.483414,-20.587006,-22.100487,5.852051,-1.665001,-8.339081,-10.96344,15.234261,12.836266,7.612381,3.314209,5.211673,5.819945,6.942475,11.08917,-22.00232,-31.044865,-14.157887,0.134678,-22.025013,-17.66775,2.948181,16.56285,-15.31225,-5.735903,11.926907,23.712343,-6.753272,5.279691,17.227099,25.75091,21.380367,38.285294,44.043159,35.054398,26.779404,33.581772,35.141602,35.106983,8.762283,12.823162,16.128902,16.927814,-7.50658,-1.578941,4.937954,7.120056,-20.717468,-15.670109,-9.427757,-6.80357,2.773921,1.391885,1.3402,-2.077222,-35.348869,-40.670581,-25.522279,-14.331869,-36.1222,-21.896727,-2.079322,8.041633,-29.894764,-10.682296,4.265039,10.90642,-20.328483,-4.573791,6.353932,11.051718,46.621799,109.299788,-73.41568,123.103506
79,0.340004,4.373226,-0.291309,2.529884,-16.067276,-29.230499,-37.220192,-41.262245,-20.089188,-26.620674,-31.754723,-34.625702,-5.750999,-13.530121,-19.480476,-22.464294,6.05072,-1.153221,-7.261276,-9.996872,14.27536,11.68808,8.706551,5.842438,3.967186,6.313146,10.95619,19.525758,-18.303532,-15.200759,1.903456,15.656416,-17.472156,-4.216102,15.066174,27.89121,-10.077852,5.514343,22.740238,33.245526,-1.339274,14.424865,25.465963,33.827648,21.132488,36.073551,39.800491,32.956467,22.15519,26.879082,28.813419,29.59465,4.580212,8.062305,12.808685,15.569344,-10.630188,-6.192913,0.517502,4.254684,-22.025585,-20.086384,-13.956413,-9.680614,3.487571,4.787756,8.527701,11.2638,-27.878582,-29.966116,-13.402958,-0.674685,-27.116304,-12.493559,5.775238,16.188148,-20.143417,-1.95332,12.444097,19.286228,-10.315839,4.930585,15.366003,20.767435,47.413473,110.440025,-73.25532,122.400401
80,34.749641,41.340635,-4.405518,6.647895,-29.903641,-54.816399,-69.59713,-77.352333,-47.553749,-59.091454,-63.335495,-64.572144,-31.009827,-47.47364,-53.717079,-55.232735,-15.682526,-33.046188,-38.51326,-39.855194,-2.913551,-18.217049,-24.624367,-27.127876,-7.744366,-12.948753,-8.053674,4.771146,-40.089849,-33.058423,-16.574737,-4.775036,-38.218472,-1.827071,16.910412,25.091909,-28.254488,9.626457,23.296331,27.752796,-14.964163,12.143836,20.678113,22.73255,20.937195,35.051022,42.023735,39.809074,21.850433,27.786541,31.50444,33.7183,4.201984,12.118149,20.162601,24.961853,-10.259457,-1.737556,6.679459,11.76218,-19.883766,-15.305557,-8.595829,-3.596821,2.50049,5.392602,12.453329,17.745278,-22.757651,-22.133416,-6.901473,5.667947,-20.58416,-4.240957,12.801601,23.860483,-12.377314,6.941796,20.456738,27.902788,-1.765722,14.779035,24.989589,31.0034,82.074738,148.608974,-77.749214,125.876609
81,-12.531509,-5.958853,-2.46912,14.394206,-22.79892,-41.44558,-52.408562,-60.226364,-34.631996,-49.726868,-56.784668,-60.787125,-18.467903,-33.291435,-41.923256,-45.767555,-3.191071,-15.901337,-24.837341,-28.724213,9.223595,1.828537,-4.620438,-7.865639,-3.921769,-2.356766,7.223501,21.414672,-17.158402,3.033304,22.517041,38.905538,-13.401785,17.388854,38.51861,52.592208,-4.723289,24.289092,44.587255,57.005263,4.890262,29.328543,43.04189,51.625814,17.84729,30.280209,38.703003,42.462101,21.526966,31.30703,35.767593,38.680172,5.752773,15.753021,23.586502,28.8624,-7.025986,1.908474,9.373283,15.046749,-15.611687,-11.525974,-5.800552,-0.61758,2.796491,5.122814,10.378021,15.831015,-20.466587,-16.314737,-0.662705,11.943394,-18.301741,-2.695344,16.348669,30.107401,-10.375181,8.291845,24.562708,34.982041,-0.386681,14.461267,25.670511,33.775067,69.395342,139.353745,-80.36622,136.97444
82,3.998451,16.493721,-29.151306,30.548793,-25.906048,-48.171158,-60.303097,-67.786045,-45.801945,-62.830467,-69.931526,-74.61462,-29.420872,-45.897732,-54.329395,-58.894329,-13.638039,-28.401833,-37.29681,-42.221661,-0.186653,-10.909424,-17.535153,-22.128296,-4.716466,2.172441,17.816784,33.272943,-7.268024,18.819086,37.914598,52.522615,-1.618834,32.936959,53.781892,67.461584,7.35222,39.728084,58.982944,71.350779,17.226975,42.972204,55.757874,64.304965,34.227333,58.900166,73.114014,80.123692,46.392002,57.852974,67.067986,75.215149,28.175926,46.039753,59.808655,70.540237,13.508148,35.204601,49.200211,60.889606,3.237476,25.200291,34.25972,41.859226,-8.778686,-7.215165,2.638348,12.882124,-32.124973,-18.314308,-4.76355,4.963622,-27.799727,6.842254,30.115799,45.428296,-14.751741,19.760935,38.81847,49.599969,3.469879,27.508697,38.231965,43.236218,73.751335,152.517883,-109.159985,164.193651
83,3.998451,16.49372,14.97757,4.411202,-29.013176,-54.896736,-68.197632,-75.345726,-56.971893,-75.934067,-83.078384,-88.442116,-40.37384,-58.504028,-66.735535,-72.021103,-24.085007,-40.902328,-49.756279,-55.719109,-9.596901,-23.647385,-30.449867,-36.390953,-5.511163,6.701649,28.410068,45.131215,2.622355,34.604869,53.312156,66.139693,10.164118,48.485065,69.045173,82.33096,19.427729,55.167077,73.378632,85.696295,29.563689,56.615865,68.473859,76.984115,21.972828,39.973698,51.9207,57.654533,32.442913,42.725372,50.563831,59.183521,15.446835,26.928577,35.920773,42.536373,0.150375,8.309326,19.161472,29.09832,-11.628571,-3.756695,4.706783,11.608601,-6.272236,-1.905556,8.735213,15.392772,-15.07556,0.400204,15.64212,27.270649,-11.227954,10.396546,28.39426,41.485779,-4.513461,18.113557,36.927858,48.922567,4.075898,23.48152,36.52154,44.33871,78.337584,166.614653,-93.594618,166.207903
84,-0.81768,15.758211,-5.652752,10.076926,-29.572105,-54.72393,-66.48571,-71.749763,-59.930878,-78.01609,-86.688309,-94.237175,-45.642586,-64.084511,-74.275932,-83.441849,-29.344826,-46.610413,-56.803207,-66.807289,-13.771706,-28.719521,-36.259232,-46.071854,-7.469453,3.332793,23.367714,39.059914,7.809698,38.319527,58.983129,74.351263,17.010262,51.690591,74.188797,90.778169,26.274553,58.338269,77.935257,92.29513,35.123079,57.460673,72.041674,85.034393,20.177193,37.508984,47.328072,52.369595,35.209637,46.885643,53.586731,60.410213,22.61467,34.24839,41.743069,48.107243,9.48967,18.039494,26.532154,33.861237,-1.751118,3.998566,12.151394,19.289188,-4.566134,-1.795023,5.341658,10.791564,-8.806659,3.167611,16.88528,29.28396,-4.156791,12.952766,28.674483,40.869572,1.476391,18.935826,35.005197,46.683435,7.105867,23.423784,34.861072,42.342505,78.729029,180.94064,-98.038244,174.852606
85,-0.512466,16.936532,-8.039303,23.440889,-29.147186,-53.736534,-66.403084,-73.623962,-62.825089,-78.689461,-86.358147,-92.375107,-50.859718,-69.782639,-80.690117,-90.305729,-36.638489,-54.582367,-65.560226,-76.434746,-21.822052,-36.78566,-44.698792,-54.724045,-7.466057,4.263804,22.697228,38.209241,19.323989,46.718077,66.876005,81.878144,30.254861,60.396719,83.00231,101.450122,39.986912,67.95849,88.07418,102.993697,47.382758,65.612653,79.171006,91.581233,33.4865,63.208981,83.119984,95.940342,55.657425,85.130482,93.886757,94.441452,39.793282,74.070797,86.534214,89.603806,24.537907,56.338348,70.402508,76.162319,11.404896,36.531887,49.395504,56.124458,-8.740647,0.620715,17.745154,29.668912,8.918921,44.287457,55.839724,58.35698,22.217489,60.111433,72.299297,75.134135,34.250422,68.533509,77.581674,77.952609,44.662838,68.969714,75.566326,75.740338,79.258289,196.843039,-105.03582,197.25936
86,0.596924,19.869677,-6.045628,10.51239,-31.954765,-54.773941,-67.102661,-72.488365,-64.995689,-81.342545,-86.854019,-89.657307,-54.53968,-74.345627,-84.221535,-92.551804,-41.961937,-61.193962,-73.894043,-84.971924,-29.924812,-47.198067,-57.843704,-68.819962,-7.597585,4.547856,20.880778,34.65958,15.994777,39.699216,53.74478,61.443512,29.41907,56.329405,75.547924,89.241263,42.107359,68.281136,86.892524,99.268048,52.299079,71.671418,86.129289,97.718298,37.619534,67.63813,88.47805,103.611717,58.679466,81.233997,94.441338,103.214836,44.507904,69.22966,84.824295,95.93399,30.458736,55.729179,71.63372,83.128052,17.110863,37.203884,49.313679,59.284801,-6.006895,4.722857,18.580637,26.162044,8.680749,33.423645,50.035927,63.653745,20.529171,49.29381,67.885686,81.696783,32.498007,59.004186,74.779564,85.118126,43.499337,65.911402,77.373451,85.070579,79.859018,215.782029,-111.077642,206.841063
87,-6.632652,25.788886,8.958321,17.068864,-11.305618,-37.139168,-60.846405,-77.744408,-51.453896,-75.356483,-87.353382,-93.259735,-59.496231,-87.280655,-96.448174,-98.926334,-63.876457,-91.280823,-94.127541,-92.31657,-66.5839,-87.609444,-87.043076,-83.067284,33.626063,58.519136,75.681243,90.245387,62.248738,84.279432,91.039867,93.183348,46.74395,70.058806,76.667583,77.671335,28.048519,43.761591,46.541965,47.275745,8.097764,19.312441,24.172322,27.023277,37.544003,66.151543,85.989246,98.210907,69.836426,101.403351,103.005409,95.350227,55.888939,91.80542,92.212601,82.739639,39.007359,72.936745,76.5798,71.892185,20.98732,51.477871,60.753021,60.66164,-2.680338,8.537735,21.472841,30.165879,25.776536,66.601957,87.112109,95.515537,38.217762,81.559944,99.806635,103.862526,49.100223,88.232014,102.616958,105.867376,57.553298,84.450604,93.847412,95.275019,72.996197,241.371462,-102.349491,223.710473
88,6.570396,8.913301,-10.541725,15.138299,-17.116814,-39.095879,-59.963493,-78.435402,-53.036041,-78.958969,-95.805416,-106.772861,-60.853157,-88.068237,-102.835064,-110.902061,-65.216904,-92.364235,-101.920567,-104.90387,-67.969093,-91.721592,-96.982784,-97.463951,32.930568,54.470224,66.986909,74.707624,60.48175,75.984067,83.880401,90.268111,47.05968,58.891677,64.76235,67.89606,28.824907,34.963886,36.044827,35.941333,9.391929,11.587465,14.245079,15.412903,42.095261,74.626751,98.987389,115.172081,68.326149,104.18644,116.165771,118.397369,57.006512,96.126595,110.317039,113.969078,44.815407,82.339153,96.875553,101.606197,32.062225,63.184891,77.591743,84.219933,-5.904513,3.075418,16.36565,26.040643,15.733696,47.164532,63.410387,72.94181,30.475372,64.485523,81.152947,89.568108,43.865208,74.220846,87.671197,93.118078,55.054753,78.24333,86.918645,88.935105,79.597893,250.232291,-112.859917,238.7963
89,-2.742348,11.550723,0.420055,10.060809,-23.985786,-46.938057,-67.054482,-83.568306,-57.214394,-84.62059,-103.854618,-117.736359,-60.088463,-90.491467,-108.985863,-120.158958,-61.502151,-93.254929,-108.521748,-116.707134,-62.784462,-91.145611,-103.292599,-110.343761,25.350644,44.588367,55.20845,60.352074,58.155241,65.360526,68.318062,70.046395,48.946094,52.220162,53.324507,49.943857,33.808783,33.553136,31.923481,28.344798,15.569255,13.408855,12.874282,11.798404,42.731838,75.7061,100.071545,119.993534,68.789864,99.455051,113.701916,123.196964,55.583496,87.802505,104.036236,114.470959,43.733196,73.992805,91.348114,102.013664,33.274784,57.781906,71.755772,81.296883,-7.027506,0.669313,13.251824,20.161448,17.51853,44.131537,58.062924,68.627864,32.654853,62.828883,78.577708,89.487956,45.289605,72.850543,86.011717,93.527112,54.853447,77.655219,86.608102,90.695671,76.8647,261.591912,-112.430706,248.666007
90,-3.559341,9.387668,4.873295,11.056658,-24.074478,-47.313995,-67.668686,-85.343399,-53.485909,-84.733601,-105.83353,-120.335312,-55.769005,-90.930519,-111.54911,-125.069618,-57.738647,-94.613857,-112.386589,-123.301277,-60.668564,-91.21376,-105.545826,-114.874763,28.558269,43.133713,47.283711,47.949565,61.443574,65.676997,65.266604,63.89698,51.153115,52.593752,51.843608,47.886827,34.045596,31.756014,29.467852,26.3799,13.306473,10.297066,8.753368,8.096467,39.017372,68.961182,92.702579,113.118782,66.260033,95.307827,111.507454,122.899704,54.249058,87.560749,106.423073,119.315987,43.130894,72.520809,90.566711,103.059425,32.725983,55.791836,69.764614,81.260033,-7.956973,-2.004604,8.425411,12.372992,21.642408,42.915301,55.256553,66.122773,37.24791,61.106355,75.414543,86.164364,49.480667,72.775948,84.617084,92.273517,57.585347,77.936492,86.633482,92.210532,73.147974,271.007738,-107.714796,259.750823
91,-2.201157,3.272031,3.734894,11.142121,-34.924736,-61.00811,-80.690575,-96.625729,-64.118958,-91.418953,-108.335209,-119.63316,-57.802963,-85.772667,-103.608742,-115.364513,-50.735321,-75.4953,-92.064972,-103.286934,-43.547974,-62.651596,-74.408455,-83.42989,-7.83551,-2.818165,4.596577,5.343201,31.434356,43.87867,50.863135,54.633862,44.98641,59.526409,64.84244,64.54221,53.330496,68.174987,71.266768,68.676276,57.080784,70.585661,72.425947,69.93265,36.005802,65.539112,89.870625,111.111374,64.709702,95.189323,112.74559,125.439262,53.084106,86.989803,107.549171,121.567841,42.973995,72.46479,91.129589,104.30603,33.987808,56.722527,70.301056,80.710831,-7.26049,-3.285184,4.701615,5.398777,22.616706,42.331883,53.534273,63.306646,38.66817,61.463273,73.81107,82.441678,51.090932,72.832079,83.551457,89.392799,59.400191,78.267968,85.485418,89.475297,70.691414,274.01875,-104.235306,270.631925
92,1.208725,2.961673,3.61433,11.457542,-35.967979,-64.075356,-82.170753,-97.810478,-73.729477,-89.839897,-94.001884,-92.47118,-66.076698,-83.168106,-86.046124,-82.585201,-56.308479,-71.964569,-73.813248,-69.911499,-45.568657,-56.556931,-59.578056,-58.627968,-3.031019,2.358063,8.861369,8.87409,29.325826,46.907527,60.090499,68.69332,39.23331,59.682761,70.215158,75.089921,45.301831,65.728559,73.742651,76.608734,48.43869,64.943711,71.791832,74.725656,35.211582,63.77037,88.304386,109.260349,64.192772,94.428234,112.206402,125.117855,52.966118,87.175827,108.878002,123.980885,43.169174,72.872829,92.323551,106.627522,34.209595,57.235394,71.135616,82.342186,-8.105297,-5.922976,0.271455,0.407367,22.745456,42.29261,52.746029,61.072145,39.44993,60.745115,70.950112,77.793478,51.490643,71.474002,80.65882,85.632507,59.143742,76.118498,82.35109,85.667211,71.597528,276.646353,-100.923586,281.755397
93,0.725784,6.85763,4.754906,10.896663,-33.990669,-62.076759,-80.998306,-96.478615,-73.045807,-86.473389,-83.774815,-76.253471,-64.943275,-77.743721,-71.267395,-61.18824,-55.407944,-66.732903,-60.512466,-50.98423,-45.700035,-53.063393,-51.309586,-47.040253,-2.623034,0.010065,3.91053,3.822042,28.790883,45.711977,57.098506,64.187021,37.119037,56.926964,67.451889,73.210053,42.210667,61.418998,70.226891,74.983834,44.226757,59.8196,67.950215,73.10341,34.110432,61.855774,86.239872,106.822071,64.849834,94.553432,111.629734,123.738384,54.440861,87.88908,108.909473,123.628063,44.799557,74.327946,93.273983,107.443943,35.449619,58.683586,73.405094,85.822964,-9.338144,-8.985858,-4.150122,-3.974751,24.511456,41.399082,50.287498,57.009154,40.670674,58.746872,67.173271,72.68678,51.785995,69.250802,76.887414,81.234458,58.562238,73.593647,78.970194,81.678814,72.048912,283.306382,-96.443081,292.454459
94,-107.198753,25.761469,4.686699,6.496699,15.158558,24.804382,25.566101,23.050747,8.444481,32.842484,51.083908,58.88134,-2.099018,27.12101,47.659378,64.97612,-12.655449,13.930035,34.840164,47.867889,-21.707382,-20.234013,-20.09594,-21.314449,-18.612994,-21.04948,-15.609393,-10.710671,7.666314,30.586893,37.773098,41.940509,25.38121,46.324233,52.402079,54.529072,36.004751,52.943815,56.866387,59.909385,44.150927,57.471417,64.256244,69.612351,33.428364,59.946327,83.521557,104.156971,61.612473,91.754436,109.183331,121.765308,51.364861,84.961681,105.529919,119.961948,41.944885,71.686935,90.690365,105.010014,33.072739,55.662403,70.646496,83.551998,-9.526915,-8.826974,-3.256717,-1.34338,26.73163,44.176059,52.14637,58.043164,42.242284,60.456556,67.71754,72.164866,52.44586,71.071637,78.100254,81.685915,58.113683,74.319461,79.567814,81.798177,-35.626173,308.717572,-92.232714,298.600879
95,15.401459,1.094464,2.315197,7.161566,9.855652,17.743835,18.638763,17.784805,-11.821289,12.240715,34.621468,47.570114,-24.693146,4.222069,28.9785,49.373817,-33.222542,-8.673763,16.120262,32.91996,-38.196259,-35.43314,-28.330536,-21.419449,-14.070387,-14.264716,-4.78331,3.119878,10.787303,35.845311,44.08893,48.138892,29.603642,50.266564,57.984501,59.49609,42.105445,57.409729,62.767256,65.652482,51.597594,65.164654,70.210157,73.211041,31.419182,58.55032,82.866783,103.551521,59.2836,90.738716,108.031998,120.142937,48.893108,84.599648,105.420113,119.700165,39.577045,71.711082,91.195679,105.346985,31.443844,56.101627,71.70742,84.86927,-10.892155,-9.352162,-2.844409,-0.908287,25.079806,43.30013,51.432412,56.933571,41.373826,59.361042,66.19743,69.531273,51.966677,70.665381,76.613304,78.472732,57.619186,74.119946,78.715844,79.951716,-20.667715,309.436671,-90.360518,305.387079
96,9.760666,-0.703955,0.6007,1.35925,-18.186951,-29.546013,-38.925419,-51.280975,-32.432957,-3.90398,16.934395,31.201057,-32.593918,0.841026,24.697151,40.79567,-29.234104,-0.992775,21.662521,36.043396,-24.264736,-10.059185,6.004601,17.691765,11.53615,28.044505,48.089615,65.078142,32.782614,49.634117,54.683942,57.322537,38.604258,51.655393,59.228772,62.137031,42.093465,53.031439,58.092688,60.262721,44.956708,56.984021,56.86898,54.638988,29.695072,56.669312,80.215187,99.652405,57.814636,89.759102,106.663628,118.616066,47.545795,83.749008,103.523827,117.396126,37.803555,70.733986,89.260941,102.802277,29.015293,52.976646,67.704277,79.894867,-12.321677,-10.785512,-3.379291,-1.042532,25.518728,43.270181,50.400995,54.755696,41.966938,59.017709,65.523547,68.111692,51.932961,70.20781,75.747687,76.569338,57.084366,73.454832,77.986757,78.334844,-11.160421,308.405177,-90.013189,306.41879
97,27.601891,1.444589,0.995693,-0.959046,-0.523911,-8.775902,-24.387131,-36.215572,-45.396709,-30.324497,-6.742172,8.303375,-58.275776,-37.70834,-12.785339,9.306107,-64.564419,-48.089504,-21.013298,0.509262,-67.973328,-75.774651,-70.629902,-61.788654,-5.023149,-4.188283,4.388602,13.372854,13.72971,38.453958,45.995165,48.696004,29.683485,49.298133,55.964398,58.36791,40.507962,55.709616,60.244196,62.764107,49.630226,62.352973,67.34821,71.242377,29.59322,56.160393,79.363689,98.768177,56.139565,88.981762,105.731792,118.026981,45.674801,82.630634,101.963825,115.667782,36.008492,69.135704,87.40694,100.726833,27.253819,51.093693,65.868702,77.937069,-11.60352,-11.172255,-4.391875,-1.193327,23.562599,40.036559,46.421551,50.058959,40.501972,57.342174,63.202411,64.443656,50.640525,69.17559,74.740414,74.990194,55.708505,72.541852,77.295461,77.578895,16.389742,309.522968,-89.069223,305.132945
98,-26.769333,9.975532,3.063869,-0.498511,-8.156433,-15.342751,-23.039589,-34.619865,-25.816555,1.253815,21.071663,32.900848,-30.929661,0.810814,24.242249,40.52742,-32.008038,-6.34964,16.49334,32.244873,-30.527344,-21.784744,-7.40387,4.596748,-3.680139,5.906983,24.139903,38.960805,15.808044,29.989149,35.237317,39.938931,26.533041,38.002439,44.081149,46.34214,34.285187,44.473326,47.148354,48.783875,40.33259,49.520311,48.534898,47.107599,28.711395,54.790592,77.933693,97.147064,53.941555,87.365456,104.078865,116.085205,43.591576,81.309013,100.701828,114.293404,34.015274,68.187904,86.472931,99.972839,25.486908,50.389538,65.536366,77.994118,-11.516884,-11.177874,-4.374152,-0.515616,23.371481,40.221131,46.993731,50.491768,40.329009,57.500255,64.062162,65.652482,50.612799,69.448774,75.368107,75.819255,55.67164,72.099966,76.789046,76.628309,-10.442533,319.391008,-86.068296,304.526942
99,34.839706,-13.603678,1.086788,0.251818,-7.158279,-22.681389,-43.670998,-62.452812,-56.706619,-41.970005,-17.159729,-0.42263,-66.22776,-46.153736,-19.540558,4.437332,-68.984241,-52.046528,-24.671288,-2.076302,-68.103619,-72.114258,-62.884712,-50.828819,10.020178,19.627862,33.028072,46.569197,17.974063,43.111853,52.581958,57.282646,27.344441,48.256527,58.701979,63.152146,34.86947,52.254619,59.873138,63.95978,42.178804,57.052441,63.022223,67.690431,28.602905,54.643021,77.680607,96.941814,53.966732,86.692142,103.340778,115.532398,43.692684,80.619221,100.027828,113.883877,34.176407,67.858372,86.153812,99.780521,25.704403,51.122189,66.452236,78.913136,-11.706087,-11.265683,-4.473447,-1.298549,22.826472,39.842848,46.711778,50.580812,39.68946,56.704292,62.955657,64.830523,50.10978,68.567719,74.442345,75.450729,55.522142,71.667528,76.076261,76.285965,24.114676,305.66528,-85.264006,304.656711
100,-11.279182,11.089139,1.162319,0.65264,-18.000641,-35.980625,-52.549152,-67.896309,-55.377216,-37.471504,-17.154922,-0.925598,-52.123203,-28.666592,-6.197891,14.328346,-44.770145,-22.10495,1.427765,20.345764,-35.799923,-22.776489,-7.189751,6.312218,24.269147,39.142413,50.734447,61.739606,35.153151,49.911129,54.695427,57.790111,26.365388,40.51531,49.210571,53.937812,15.376779,29.995448,37.754943,42.671943,4.311105,17.955229,23.844551,29.021273,28.480682,54.125862,76.986694,96.515694,53.903847,86.364555,102.95414,115.046654,43.580704,80.417976,99.838371,113.606529,33.844643,67.430706,85.846596,99.426498,25.109596,50.202084,65.69355,78.338699,-11.912457,-11.750733,-4.907182,-1.456013,22.443681,39.274682,46.06272,49.851849,39.254058,55.72456,61.884534,63.646891,49.693459,67.743845,73.423895,74.181881,55.048702,71.202239,75.658025,75.723727,12.613049,316.611174,-84.324131,305.166105
101,-23.082047,20.639149,1.197109,-0.089723,5.396233,8.647842,10.187988,11.458168,-14.129734,12.507248,30.49015,40.524902,-22.781181,4.039421,26.647339,44.431686,-26.647911,-4.277458,15.68779,31.6642,-27.140236,-18.067303,-9.695206,-2.278233,-15.906042,-23.058283,-22.331234,-19.0986,-8.27542,3.239674,10.580439,16.505329,7.065235,18.532904,25.695087,30.175636,19.792366,30.024038,35.186805,38.779938,29.79266,37.29799,38.383747,39.081342,28.25695,53.593884,76.330433,95.68079,52.067413,84.782352,101.751537,114.049129,41.764126,79.094753,98.972111,112.871304,32.334194,66.595745,85.435925,99.173412,24.067326,49.660606,65.420151,78.280621,-11.754314,-11.594319,-4.662156,-0.537537,22.453253,39.834759,46.317687,49.772932,39.391329,56.138041,61.992474,63.414092,49.960344,68.14405,73.639651,74.29791,55.372397,71.55224,75.985179,76.04483,-10.694218,337.071,-83.352242,304.897059
102,36.039047,-28.685042,1.072197,0.774288,-9.277267,-24.637527,-45.280838,-64.124107,-55.976086,-42.962208,-18.521118,-1.910248,-64.075699,-45.380344,-19.451408,3.749199,-66.130886,-52.010765,-25.53566,-3.52787,-65.876598,-77.573891,-76.765995,-71.396427,4.302892,11.725971,25.577082,38.315884,15.14188,39.091284,47.638035,51.863492,26.730457,45.134796,54.240203,57.770907,35.61455,50.791258,57.190576,60.290138,44.267203,56.772588,63.60805,69.4899,27.556114,52.674751,75.488605,94.785404,52.159252,84.623966,101.169605,113.092632,41.853962,78.917713,98.34383,111.818562,32.265816,66.068859,84.681187,98.232479,23.83255,49.352818,64.916439,77.610569,-12.577941,-12.745347,-5.972315,-1.255942,21.800612,39.11234,45.880556,49.562239,38.541581,55.201596,61.004467,62.232868,48.850257,67.000988,72.553955,73.219748,53.960845,70.132475,74.727199,75.122093,25.1017,308.050344,-82.523174,305.335734
103,-23.559151,8.201134,0.669079,-0.323387,-15.544968,-29.006367,-40.961323,-53.79221,-39.872131,-18.887272,1.57608,16.534081,-40.584583,-13.592606,9.181366,28.655891,-37.663307,-14.031601,8.65654,26.770821,-33.187122,-22.446842,-8.22052,4.420166,5.143007,18.473994,35.178716,48.035522,22.860188,39.345448,43.795492,46.831698,27.693146,42.069815,48.712059,51.039741,29.879481,44.633507,47.965312,48.748616,30.736638,44.325434,46.208266,47.045107,27.349949,52.733459,75.688019,94.672508,52.457485,84.545288,100.793839,112.701874,41.861115,78.320618,97.393227,110.718727,31.94767,65.261478,83.534203,96.960754,23.115063,48.02536,63.146839,75.418854,-12.599122,-12.562504,-5.472507,-1.203454,21.38003,39.022864,46.059941,49.978869,38.407398,55.170844,61.588564,63.294543,49.035446,67.129614,72.818247,73.327132,54.334805,70.695638,75.158711,75.095108,1.327085,316.021056,-82.069559,304.781925
104,11.724243,-11.173922,-0.190659,-0.214521,-3.226547,-13.608284,-30.271683,-45.438652,-44.25293,-27.216969,-3.069992,12.249985,-55.019188,-33.062496,-6.0149,17.550774,-60.094872,-41.412106,-13.749275,8.317337,-61.816292,-66.564274,-58.840771,-48.550529,4.706863,13.674999,28.28632,41.6622,17.579169,42.557828,50.942423,54.836157,28.694984,49.604291,58.243421,60.547082,36.121397,53.330743,59.133244,61.625676,43.305379,57.62956,63.910688,68.822687,27.304173,52.769451,75.900536,95.127068,52.047215,84.59816,101.236267,113.256111,41.605453,78.640938,98.136749,111.657829,31.958828,65.791683,84.344788,97.792397,23.468285,49.020252,64.345837,76.39286,-12.750349,-12.618635,-5.588227,-1.168071,21.969253,38.961855,45.790401,49.774167,38.935673,54.988618,61.125621,63.004995,49.388041,67.107878,72.692523,73.441432,54.465037,70.645744,74.904299,74.69299,12.768517,304.774176,-82.54303,304.494446
105,-32.708073,19.662257,-0.028725,0.056563,1.875515,4.986362,9.708767,9.56171,-10.642262,17.101192,35.478802,45.980701,-19.180069,11.046467,34.083767,50.86813,-23.401966,2.241783,24.407673,40.573826,-24.684505,-13.155842,1.037807,13.206425,-16.840387,-19.311515,-9.549207,0.767928,-2.019547,14.318871,23.755754,30.695389,15.35461,29.906033,39.915652,44.459926,29.091175,40.524943,45.732479,46.891534,39.748246,47.687682,47.644518,45.186852,27.407398,52.427845,75.248566,94.089317,51.983013,84.286079,101.100082,113.350296,41.842632,78.592415,98.1427,112.071991,32.321892,65.880775,84.546318,98.434639,23.808403,49.18539,64.515495,76.920204,-12.414365,-12.615547,-5.758288,-0.715996,21.594737,38.526885,45.426567,49.496969,38.321688,54.599961,60.798097,63.002957,48.735216,66.697608,72.496898,73.599143,54.08521,70.353418,74.732695,74.77308,-20.173073,324.371626,-82.805271,304.486203
106,39.70396,-20.443956,0.540104,-0.028776,-4.321404,-17.69886,-36.901188,-52.434311,-49.268532,-33.872509,-10.462303,5.046272,-59.022331,-39.240704,-14.069252,8.35453,-62.631226,-46.210041,-19.639778,1.649551,-63.646088,-70.399933,-63.329201,-53.451061,4.397617,11.517687,24.26785,36.962809,19.76396,43.734359,51.378628,54.996461,30.032436,50.138,58.577614,62.288752,37.206846,53.792636,59.920439,63.328506,44.191868,58.28609,64.680716,69.784511,27.620659,52.732944,75.426121,94.068775,52.477627,84.462605,100.801907,112.905636,41.974182,78.23267,97.462635,111.166706,31.901436,65.00021,83.428059,97.26305,22.794628,48.072453,63.129559,75.091267,-12.586216,-12.928622,-6.01554,-0.998072,20.72844,38.087716,45.161905,49.412186,37.751608,54.344315,61.236587,63.959965,48.5223,66.701745,72.85326,74.007622,54.115344,70.246034,74.751838,74.658409,19.232054,303.927716,-82.564001,304.457473
107,-32.214317,24.557645,0.136929,0.432191,2.224388,5.063324,7.368851,7.370567,-14.610157,9.735374,27.923813,37.840805,-23.18922,2.804832,24.109612,40.566216,-27.39687,-6.860275,14.178085,29.951477,-29.359074,-23.360882,-14.327145,-6.393986,-17.602017,-23.221736,-18.268427,-9.596817,-1.805953,11.108467,17.933431,23.684247,16.384299,27.181482,34.243012,37.612114,29.084815,35.932935,39.357551,40.9002,38.463405,44.162783,42.798099,39.680382,27.672672,52.739925,75.33577,94.217491,52.431164,84.389877,100.751381,112.819748,41.900997,78.216362,97.523804,111.050377,31.940117,65.104179,83.542213,97.246971,23.015213,48.494396,63.57954,75.491524,-13.086024,-13.348525,-6.315709,-1.272305,19.932415,37.501828,44.6742,49.041251,37.318553,53.989558,60.638905,63.153505,48.363911,66.456534,72.370124,73.366467,54.141526,70.003849,74.087836,73.688249,-13.274689,328.460862,-82.719498,304.865165
108,30.020485,-28.491084,0.041142,-0.405391,-6.021767,-20.583344,-39.279556,-56.57341,-50.53442,-34.673538,-11.518593,4.196548,-58.624592,-37.880001,-12.719765,9.638786,-60.664616,-41.74839,-14.263115,7.532845,-59.581089,-56.187801,-41.485348,-25.652962,21.098263,33.36066,45.692341,57.762138,28.820646,52.620428,62.077566,66.541873,30.827596,52.376514,63.815963,68.511773,30.694586,49.603921,57.987157,62.402558,30.505136,47.979329,54.138439,57.428254,27.242546,52.349281,74.746342,93.464527,52.54921,84.313488,100.72443,112.926579,41.947803,78.080692,97.366848,110.857601,31.850109,64.860592,83.366261,97.069302,22.784843,48.105412,63.168411,74.908161,-13.389836,-13.293505,-5.91853,-0.886983,20.579622,37.939515,44.951151,49.179387,38.07092,54.570321,61.017064,63.391367,49.026987,66.990861,72.71463,73.599699,54.583968,70.509461,74.392944,73.804031,16.566267,299.968867,-82.857885,304.458863
109,-14.012718,18.274726,-1.060238,0.635597,-1.016235,-6.259003,-9.841232,-10.31559,-33.596992,-16.280823,1.573906,15.079765,-35.851479,-16.807079,5.212669,25.000534,-33.731346,-15.513496,5.46032,23.227386,-29.447765,-19.45467,-6.733589,5.50724,12.613016,23.075326,34.177618,44.224595,21.831858,36.224212,42.138111,46.075008,20.816434,35.132218,44.434547,49.019947,20.493541,33.22203,42.473415,47.761597,19.817621,30.743678,37.567345,43.470438,27.378159,52.267799,74.669838,93.725052,52.641392,84.785042,101.732826,114.084778,42.520008,79.252052,99.036827,112.940369,32.923851,66.699486,85.517006,99.041634,24.442406,50.586033,65.986061,77.982216,-14.117441,-14.134793,-6.604824,-1.541846,20.085989,36.892722,43.678351,47.59413,37.455392,53.637519,59.544502,61.401893,48.386264,65.926345,71.299002,72.14949,54.033401,69.852931,73.621805,73.275324,2.389984,318.260265,-84.081688,305.111132
110,19.633026,-15.336271,-0.03479,-0.483382,-9.00856,-25.177803,-45.752277,-64.731903,-53.726807,-40.877953,-17.523766,-0.417824,-61.670036,-43.65612,-18.762932,4.812927,-63.941574,-48.311806,-21.649246,0.631828,-63.647289,-68.673935,-60.800858,-49.791126,20.695774,33.636684,47.930238,60.67577,26.812461,49.03415,58.242001,62.998511,29.128781,48.772698,59.705238,63.987938,29.690586,47.545903,55.706096,60.073394,30.820804,46.75204,54.168511,59.992563,27.488537,52.65358,75.286102,94.518929,52.988434,85.375214,102.277107,114.621735,42.840557,79.946136,99.800034,113.737679,33.149586,67.175217,86.209946,100.113831,24.444866,50.882893,66.450863,78.885384,-14.172461,-13.901809,-5.600886,-0.388225,19.902714,36.641583,43.456852,47.749062,37.368262,53.146604,59.115584,61.329459,48.369839,65.74659,71.204462,72.272188,54.138253,69.905665,73.788531,73.708935,21.71751,302.930185,-84.421978,304.63394
