takenoko1/special-research/HandMotion_SimilarSearch_自分用/NewProject/handData/key/d4_feature_d2/44.csv
,vel_0x_L,vel_0y_L,vel_0x_R,vel_0y_R,posFromWrist_1x_L,posFromWrist_2x_L,posFromWrist_3x_L,posFromWrist_4x_L,posFromWrist_5x_L,posFromWrist_6x_L,posFromWrist_7x_L,posFromWrist_8x_L,posFromWrist_9x_L,posFromWrist_10x_L,posFromWrist_11x_L,posFromWrist_12x_L,posFromWrist_13x_L,posFromWrist_14x_L,posFromWrist_15x_L,posFromWrist_16x_L,posFromWrist_17x_L,posFromWrist_18x_L,posFromWrist_19x_L,posFromWrist_20x_L,posFromWrist_1y_L,posFromWrist_2y_L,posFromWrist_3y_L,posFromWrist_4y_L,posFromWrist_5y_L,posFromWrist_6y_L,posFromWrist_7y_L,posFromWrist_8y_L,posFromWrist_9y_L,posFromWrist_10y_L,posFromWrist_11y_L,posFromWrist_12y_L,posFromWrist_13y_L,posFromWrist_14y_L,posFromWrist_15y_L,posFromWrist_16y_L,posFromWrist_17y_L,posFromWrist_18y_L,posFromWrist_19y_L,posFromWrist_20y_L,posFromWrist_1x_R,posFromWrist_2x_R,posFromWrist_3x_R,posFromWrist_4x_R,posFromWrist_5x_R,posFromWrist_6x_R,posFromWrist_7x_R,posFromWrist_8x_R,posFromWrist_9x_R,posFromWrist_10x_R,posFromWrist_11x_R,posFromWrist_12x_R,posFromWrist_13x_R,posFromWrist_14x_R,posFromWrist_15x_R,posFromWrist_16x_R,posFromWrist_17x_R,posFromWrist_18x_R,posFromWrist_19x_R,posFromWrist_20x_R,posFromWrist_1y_R,posFromWrist_2y_R,posFromWrist_3y_R,posFromWrist_4y_R,posFromWrist_5y_R,posFromWrist_6y_R,posFromWrist_7y_R,posFromWrist_8y_R,posFromWrist_9y_R,posFromWrist_10y_R,posFromWrist_11y_R,posFromWrist_12y_R,posFromWrist_13y_R,posFromWrist_14y_R,posFromWrist_15y_R,posFromWrist_16y_R,posFromWrist_17y_R,posFromWrist_18y_R,posFromWrist_19y_R,posFromWrist_20y_R,posFromBody_0x_L,posFromBody_0y_L,posFromBody_0x_R,posFromBody_0y_R
2,-25.831375,18.569769,-0.110092,-0.70451,-2.355022,-0.02037,8.21228,11.638641,-11.505718,15.224533,34.127884,46.390915,-18.174934,11.401634,34.43573,51.194344,-20.33083,3.896255,25.71785,41.586113,-19.791527,-9.490414,5.088902,18.232155,-16.260489,-19.32226,-8.765965,4.149072,-1.581552,13.631033,23.500354,30.968634,14.234273,27.371673,38.068141,42.872817,26.676672,36.430767,42.971618,44.792761,36.574707,44.241824,45.505361,43.15514,27.983952,53.249702,75.94574,95.746536,51.908169,84.621849,101.753311,114.051476,42.465248,79.642181,100.016556,114.107437,33.601913,67.667198,87.319679,101.538849,25.730324,52.276955,68.19025,81.534233,-13.42843,-13.929843,-6.012576,0.537105,17.660618,34.676685,41.448791,45.924955,34.893799,50.910251,57.582321,60.869234,46.396543,63.987568,69.940493,71.485117,52.849584,68.92686,73.532638,74.111115,-26.935644,325.728792,-89.061728,304.28627
3,20.431824,-16.011264,0.144024,0.303565,4.855957,3.762245,-4.705582,-12.198315,-27.959175,-12.538433,9.892387,23.731956,-39.29575,-18.549557,7.139282,28.42907,-46.941833,-29.39352,-3.083611,16.066933,-51.946163,-58.240528,-54.392395,-48.976822,-13.563231,-15.59624,-9.079101,-2.556097,7.143658,30.947824,39.766216,43.476427,25.472415,44.735024,52.603879,55.106191,37.786312,52.307045,57.117711,59.66578,48.099619,58.822022,64.296567,68.530113,28.339405,53.037643,75.462513,95.476055,51.756077,84.725361,101.846638,113.896465,41.981277,79.43716,99.796772,113.420963,32.914181,67.444782,86.959019,100.684719,25.056381,51.958408,67.943974,81.023998,-13.710938,-14.512705,-6.755248,-0.376122,16.89658,34.460126,41.719628,46.520537,34.728802,51.106802,58.163331,61.485256,46.652869,64.208943,70.144454,71.536309,53.457517,69.175899,73.455882,73.656385,-5.975189,309.577694,-88.389072,304.450001
4,-25.102158,13.238609,0.010757,-0.148201,3.366737,9.935589,20.875282,26.87542,-7.090988,21.903992,42.364769,55.103989,-15.903797,16.378326,41.345444,58.979301,-20.092621,6.1203,29.498749,45.686989,-21.17506,-11.251945,1.974506,13.939934,-18.059834,-22.73187,-13.980973,-1.996885,0.097689,13.587746,22.47258,29.530282,18.320483,30.266594,39.083071,42.114028,32.431008,40.85117,45.734763,46.538939,43.048991,50.487199,50.251003,46.53616,28.03894,52.798691,75.379314,95.290661,51.324806,84.086781,100.882359,112.885723,41.669598,79.159412,99.487782,113.247128,32.797909,67.315464,86.957531,101.063747,25.035725,52.213783,68.292732,81.421337,-13.76497,-14.465034,-6.581915,-0.101332,17.145805,34.453457,41.319238,45.858758,35.182729,51.303601,57.918367,60.908816,47.076538,64.661203,70.469941,71.741011,53.634741,69.333733,73.58389,73.74191,-30.790644,322.735796,-88.091612,304.221293
5,-5.486012,-0.339195,-0.145855,-0.117264,3.743649,11.029758,17.441025,18.023815,1.613789,32.349987,50.613956,61.6432,-5.506897,27.591076,51.322689,67.830105,-9.263134,17.074986,38.464909,54.434681,-9.621563,1.105328,12.263317,23.359165,-10.370735,-8.265478,1.147508,12.113702,-2.44828,9.425645,19.687081,29.598825,12.758314,26.061144,37.117926,43.810806,26.173221,39.191628,47.172436,52.343848,37.952544,51.651256,54.452069,56.549484,28.070641,52.827473,75.291595,95.133133,51.575317,84.20105,100.670929,112.260933,41.856823,79.125023,99.121056,112.767334,32.821083,67.252007,86.674118,100.747261,24.941025,51.998634,67.930355,81.028976,-13.786459,-14.565687,-6.634032,0.111583,16.424004,34.14594,41.044696,45.40514,34.4345,50.611934,57.374654,60.333796,46.538692,64.109216,70.085421,71.487402,53.295854,69.124029,73.580062,73.910241,-35.984745,322.373568,-87.945557,304.080996
6,20.412312,-14.717778,0.293655,-0.107322,9.377632,12.290726,7.814598,2.98954,-18.398609,0.720863,22.863579,36.02623,-30.55006,-6.570168,19.062881,40.012779,-39.43531,-18.950787,6.515465,24.471359,-45.170059,-48.409939,-45.318089,-41.252117,-14.848689,-15.899373,-8.799434,-2.408266,6.975574,30.059298,38.627229,42.268528,25.82569,46.463727,53.534087,54.690426,38.838045,54.672827,59.128798,61.009839,49.496475,61.570595,67.555939,71.654808,27.992935,52.33326,74.575539,94.18499,51.227474,83.554459,100.165215,112.159195,41.768188,78.534508,98.822479,112.76516,32.805805,66.912918,86.495819,100.517807,24.724045,51.717396,67.7841,81.301346,-13.731871,-14.594154,-6.753457,-0.046375,16.16422,33.495399,40.760953,45.486465,34.117226,50.293673,57.530451,60.857501,46.424392,63.881233,70.155693,71.596453,53.686117,69.574374,74.13631,74.389301,-15.247221,307.615235,-87.326689,303.93312
7,-15.209999,6.58846,0.183506,-0.138383,0.439911,7.77895,17.545738,17.664757,-9.416828,17.578468,39.480057,53.660202,-18.079376,11.963882,37.466812,55.081673,-21.365204,1.902637,25.541153,41.720009,-21.447945,-13.782578,0.586395,14.13866,-13.867167,-13.246575,-0.36019,13.102449,3.624008,20.036033,29.955001,37.783348,22.86766,36.627195,46.069821,48.915836,37.862883,47.77512,52.862799,53.332781,49.49067,58.455781,57.797212,54.329124,27.578888,51.836357,73.853817,93.204403,51.050377,83.471775,100.194454,112.108669,41.357632,78.399296,98.787289,112.672977,32.119789,66.506939,86.089954,99.922199,23.77018,50.765648,66.699829,79.95409,-13.719521,-14.55945,-6.552151,0.136839,15.788654,33.367267,40.834683,45.807567,33.623964,49.805104,57.173348,60.723194,45.965216,63.438977,69.838728,71.50636,53.310057,69.316443,73.916231,74.222822,-30.108805,314.172418,-86.794767,303.76346
8,-14.676189,3.678966,-0.166054,-0.390757,6.179638,19.554005,31.113338,37.131557,8.276997,36.989193,55.985699,69.523945,-0.080795,33.501377,57.627583,75.744724,-4.695854,22.104034,43.246708,59.427052,-5.323162,4.993973,13.484631,22.62085,-13.520561,-12.380093,-3.211207,7.176942,-2.065675,12.851681,23.448422,33.818601,15.27557,30.692178,41.742785,48.714036,29.534358,45.44818,53.539707,57.887862,41.733892,57.558918,62.79949,66.420843,27.728062,51.876812,73.922482,93.29195,51.19669,83.194599,100.108967,112.512074,41.418457,77.680378,97.957821,112.152729,32.036705,65.6674,85.164585,99.177189,23.421593,50.105553,66.013012,79.471035,-13.156358,-13.920704,-6.2011,0.457509,16.575046,33.678366,41.007831,45.849804,34.163909,50.217288,57.609306,61.194905,46.297742,63.805157,70.4043,72.261382,53.571508,69.632543,74.428945,74.84786,-44.462986,317.831069,-86.638813,303.352388
9,29.558887,-10.149606,0.267563,0.499252,7.057228,9.384499,4.939499,0.480309,-19.971657,-1.417065,21.432953,35.774345,-31.453342,-7.171268,18.836403,39.84581,-39.581165,-18.69421,7.953186,27.007484,-44.875202,-46.682453,-40.366058,-33.026276,-13.943243,-14.168941,-5.971635,1.558395,6.774823,30.638146,40.260651,44.22336,25.791356,45.961943,53.847656,55.995891,38.895967,54.531233,59.322571,61.494704,49.614295,62.29116,67.252065,70.156681,27.355213,51.250019,73.309879,92.645245,50.839176,82.933788,99.780178,111.825886,41.115131,77.57349,97.781124,111.799679,31.802731,65.572815,85.041561,99.189892,23.267097,50.240135,66.318111,79.904881,-13.339386,-14.377966,-6.845712,-0.121278,16.281793,33.357943,40.517903,44.915521,33.81539,49.896,57.159454,60.403265,45.912358,63.646026,70.254802,71.913851,53.174144,69.42395,74.350831,74.833904,-14.66795,307.683129,-86.135101,303.853307
10,-17.336769,11.495395,0.413876,0.458003,2.919788,11.46698,24.938965,30.704384,-6.410809,22.136536,44.542465,59.464874,-15.410099,15.654888,41.881943,60.152664,-19.352818,5.242367,29.110909,45.715714,-20.038605,-11.272144,2.870522,15.675259,-17.323399,-21.667602,-14.210375,-4.49648,0.978188,17.244976,26.738669,33.87041,20.037144,33.118969,42.599633,45.535124,34.64334,43.921648,49.454546,49.889763,45.7544,54.128991,53.932933,50.742351,27.287178,51.144276,73.092613,92.587738,50.579338,82.896309,99.564972,111.328926,40.749893,77.504883,97.596703,111.432838,31.295185,65.291634,84.685593,98.709412,22.665195,49.422512,65.417576,79.052925,-13.49018,-14.561179,-6.931607,-0.136407,16.259192,33.197083,40.222675,44.624738,33.896098,49.549642,56.587522,59.910991,45.925572,63.221122,69.691391,71.431148,53.023906,69.026957,73.90067,74.42808,-31.753235,319.182353,-85.469742,304.315138
11,-6.173973,-4.798254,0.136528,0.081572,4.846287,17.645874,32.029495,39.863434,2.437077,31.892395,51.508369,65.036087,-6.634941,25.638542,49.692993,66.650963,-11.586056,12.954998,35.471764,52.801781,-12.412148,-3.766823,6.328926,17.765694,-14.215933,-15.271556,-9.681662,-1.792059,1.408897,19.981322,31.338828,41.717529,19.063649,35.475179,46.952605,53.483452,32.423783,48.629499,57.289562,60.909124,42.940928,58.90378,64.599576,68.569942,26.879597,51.015186,72.962608,92.207909,51.031322,83.162498,99.980049,111.820221,41.289368,77.646446,97.565002,111.302032,31.672955,65.269718,84.57058,98.554688,22.80653,49.412842,65.348568,78.860664,-13.984801,-14.846899,-7.012686,-0.263613,16.778637,33.1617,40.103311,44.626652,34.108519,49.405084,56.273397,59.637622,45.864377,62.895079,69.224805,71.023163,52.710707,68.668002,73.32318,73.826384,-37.617445,314.472881,-85.023451,304.485492
12,20.237789,-7.693916,0.004692,-0.29739,8.699055,11.092243,6.141644,1.059036,-17.786236,0.980358,23.637257,37.268543,-29.091339,-4.121761,21.62756,41.869297,-37.068214,-15.041256,11.962223,30.899792,-42.30463,-41.757317,-33.739815,-25.737991,-10.968849,-9.746932,-0.161416,7.778823,8.151054,32.394822,41.853132,46.362086,25.462782,46.27687,54.301522,57.31982,37.38691,53.854696,58.99233,62.151543,47.329344,59.885488,65.192133,69.199982,26.839199,50.882664,72.776184,91.984749,50.662022,82.827988,99.699898,111.775703,41.072903,77.481079,97.619133,111.605644,31.678562,65.432911,84.960938,99.259415,22.956333,49.716167,65.692921,79.406662,-13.867167,-14.540617,-6.586484,0.123069,16.753319,33.320584,40.223354,44.699456,34.046522,49.367108,56.319463,59.625272,45.911123,62.927807,69.265375,71.004699,52.898243,69.04647,73.791804,74.239927,-17.11916,306.818763,-84.758263,304.227901
13,-14.318104,10.825279,0.107231,0.597682,2.349644,10.966301,21.893806,25.319023,-4.800739,23.835869,46.344109,61.547699,-13.23904,18.401413,44.810829,63.408852,-17.694454,6.841221,29.838867,46.166725,-19.529686,-10.738907,2.541103,14.549274,-15.06179,-15.600007,-6.491883,4.70779,4.36983,21.308029,31.981465,39.459563,20.971613,35.201008,46.440077,50.948165,33.467674,44.768122,52.217445,54.525243,43.448948,54.934402,56.642603,55.188813,26.93882,51.297512,73.243675,92.708015,50.096169,82.542915,99.587173,111.93718,40.280972,77.236404,97.675552,111.760483,31.091194,65.427818,84.955444,98.926849,22.860432,49.582386,65.676899,79.393387,-13.73218,-14.470839,-6.650334,-0.82937,15.739007,32.741303,40.060642,44.817708,33.447234,48.999569,55.978539,59.439403,45.660416,62.772011,68.86196,70.492912,52.932762,68.852574,73.493303,73.898632,-31.311636,317.733148,-84.525404,304.914689
14,23.649788,-7.198925,0.540733,0.299366,5.564346,6.223526,-0.607109,-6.381683,-23.904591,-7.957878,13.738861,27.803535,-34.506798,-13.012619,11.644821,32.834015,-41.59956,-24.429073,0.941048,19.78878,-46.280251,-54.037113,-53.723946,-51.382084,-15.796373,-18.792812,-13.610408,-8.136852,3.665134,27.825291,37.244576,41.297008,22.61084,43.195401,51.142123,53.587131,35.402746,51.285014,56.053134,58.750824,46.103228,57.24751,63.507273,68.669175,26.71154,51.037273,73.085518,92.23526,49.722748,82.297668,99.546776,111.946678,40.065422,77.129288,97.774086,111.846085,30.843086,65.357952,85.018158,98.98201,22.487984,49.351044,65.545864,79.283752,-13.851111,-14.608604,-6.991382,-1.006161,15.883626,32.664918,39.959124,44.660491,33.278038,48.617026,55.671454,59.245198,45.292136,62.188902,68.426249,70.177058,52.512303,68.364931,73.021715,73.400121,-7.558107,310.619176,-83.88093,305.299008
15,-19.84457,5.891916,-0.075073,0.285534,0.797596,6.38792,11.696835,9.967861,-7.417889,21.638889,42.051945,54.716091,-16.929932,15.306416,39.593182,56.95158,-21.889572,3.344994,25.575314,41.899281,-23.912659,-16.275444,-4.250107,7.535763,-13.258493,-11.089139,2.664283,16.819577,6.954146,23.337086,32.701104,40.240212,23.079896,35.938987,45.593355,49.601265,35.17921,45.058596,50.751058,52.542438,44.615414,53.99104,54.535309,51.944508,27.009029,51.164188,72.987785,92.128258,49.085999,82.074509,99.380951,111.794014,39.30233,76.83403,97.699814,111.828918,30.313282,65.16655,85.205956,99.365845,22.383442,49.342175,65.611725,79.473839,-14.367715,-15.084699,-7.332676,-1.265698,14.956567,32.12664,39.359095,44.151545,32.573095,48.25381,55.239757,58.814983,44.738359,61.848225,68.030799,69.762651,51.975631,67.835236,72.478064,72.83424,-27.250128,316.56554,-83.803453,305.63899
16,20.16695,-4.790041,0.71228,0.424843,6.153946,6.770782,-0.483627,-6.878643,-24.050503,-7.059917,14.575996,28.487434,-34.997978,-12.498093,12.321625,33.60466,-42.300739,-24.025898,1.723595,20.938911,-47.091465,-54.670315,-53.711071,-50.550156,-16.955243,-20.793648,-16.817416,-12.55954,2.070059,26.130304,35.268933,39.077637,21.615608,42.496942,49.729521,51.224622,34.812598,51.016955,54.906182,56.517867,45.855362,57.218611,62.92861,67.126032,26.315403,50.43314,72.471657,91.648979,49.059162,81.831436,98.888054,111.106682,39.568348,76.799812,97.395859,111.333618,30.545025,65.279503,85.079956,99.060173,22.339325,49.505939,65.590611,79.395103,-14.697771,-15.638354,-7.690705,-1.590011,14.583039,31.700438,38.908502,43.705892,32.100334,47.460193,54.427739,58.213842,44.307897,60.955314,67.091452,68.851401,51.844843,67.586505,72.166348,72.550991,-6.97506,311.782477,-82.983055,306.070811
17,-22.70874,10.391545,0.321579,-0.289362,4.483566,11.420746,20.155334,25.517693,-5.068588,25.181465,46.495285,59.343109,-14.128017,19.138298,43.36956,60.601501,-19.042511,6.753731,29.457664,45.31517,-20.332947,-17.181988,-9.645195,-1.612015,-19.041234,-22.766574,-14.096755,-1.579143,0.856972,16.160268,25.576403,33.269455,19.050867,31.412496,39.681247,42.724801,32.286141,40.599414,45.14869,46.724252,42.374429,50.464783,51.613279,49.845365,26.1236,50.042667,72.058182,91.385078,48.511105,80.714149,97.666512,109.959869,39.540997,76.06636,96.642036,110.730057,30.945683,64.980297,84.812279,98.964958,23.068199,50.073166,65.976791,79.721603,-14.830349,-15.744997,-7.766905,-1.4972,14.009933,31.178833,38.310635,43.015399,31.657337,47.383376,54.587982,58.205691,44.054102,60.928576,67.262439,69.002257,51.775003,67.662952,72.432369,72.802315,-29.623289,322.195094,-82.600965,305.802521
18,-10.417099,-2.327558,0.493355,-0.039644,6.498871,20.395947,33.957939,40.858498,7.360554,39.081345,59.054832,72.311668,-2.333622,31.244316,53.952713,68.859901,-7.652721,17.163963,38.129539,53.376389,-9.312916,-1.059093,7.859287,17.064743,-14.001227,-16.338542,-12.109873,-5.539259,-0.114794,17.079361,27.311466,36.281084,17.521926,31.960593,42.515838,48.685383,30.836241,44.80684,51.45773,54.615893,41.333318,54.88778,59.365241,62.533592,26.047726,49.611111,71.412392,90.606422,48.15485,80.224457,96.965218,108.952446,39.104862,75.728874,96.194115,110.10807,30.291138,64.199867,83.873062,97.841835,22.166576,48.756695,64.553604,78.100777,-14.569145,-15.57932,-7.966482,-1.982806,14.654114,31.445718,38.109514,42.474712,32.294477,47.532935,54.509991,58.263984,44.466472,61.199413,67.516727,69.547143,51.896528,67.548899,72.174252,72.654423,-39.989491,319.908569,-82.056713,305.80391
19,16.794376,-8.762877,0.152092,0.103679,11.827526,17.794933,16.537342,14.718876,-8.082047,13.02721,33.613415,45.489407,-18.21167,7.496109,30.687847,50.151386,-26.416683,-4.807205,19.326954,36.398106,-32.66304,-36.372528,-35.804958,-34.635601,-18.078483,-21.206635,-16.860641,-12.546696,3.967649,25.32934,33.150276,36.967502,22.637392,42.448839,48.536071,49.851355,35.162661,50.543268,53.93633,56.162864,45.477635,56.459513,62.990916,68.271317,25.746632,49.504566,71.258926,90.263443,48.4865,80.933418,98.050003,110.271149,39.266453,75.912323,96.457443,110.471191,30.242214,64.235916,84.04129,98.168106,21.916351,48.626518,64.529114,78.238106,-14.831584,-15.801128,-8.20169,-1.869494,14.349437,31.190874,38.266113,42.990575,31.662585,47.101485,54.223901,58.234282,43.678104,60.516639,66.880266,69.105689,51.120758,67.081881,71.802823,72.477817,-23.173342,311.161932,-81.882849,305.923829
20,3.983803,-6.90561,0.132637,0.189697,-12.411804,-16.350002,-19.57798,-28.833618,-20.589638,7.071018,27.62495,41.744328,-23.80434,8.566189,33.768711,50.660534,-23.469944,2.172832,25.791149,41.521626,-21.602783,-11.175156,3.91983,17.027607,5.235447,18.54087,37.00097,53.104243,23.197345,41.051736,49.603488,55.111008,33.097171,47.232149,56.361021,59.709623,40.040326,53.103625,58.951883,60.869789,46.394443,61.015582,62.847161,61.034292,25.794411,49.223442,70.907478,90.011444,48.166065,80.209579,97.218018,109.320946,39.268856,75.699921,96.301918,110.256844,30.511837,64.442596,84.394798,98.510742,22.40736,49.224415,65.08873,78.625946,-15.050551,-16.203061,-8.57812,-2.372821,14.025371,31.223664,38.12279,42.61223,31.341916,46.912405,54.113492,58.080523,43.497361,60.215914,66.609243,68.806076,51.157314,66.842907,71.481536,72.052048,-19.154377,304.272809,-81.71505,306.130014
21,2.912579,5.968301,0.217438,0.053167,8.428802,11.528435,7.189636,2.770042,-16.310635,3.512993,24.675407,37.181625,-25.826454,-0.857964,22.483864,41.6922,-32.635803,-11.66502,12.762566,30.108604,-37.427158,-40.998631,-39.103718,-36.165905,-16.353917,-18.196117,-11.982173,-6.505221,6.69535,29.203993,36.835479,40.140176,24.390733,43.541512,49.726248,51.665273,36.110715,51.35368,54.544695,57.10814,45.927054,57.659571,63.734514,69.364176,25.784054,49.185219,70.897408,90.235062,47.783375,80.353203,97.573013,109.636002,38.858414,75.801201,96.565132,110.403328,30.113869,64.425831,84.336548,98.293304,22.086754,48.859291,64.673424,78.180656,-14.999669,-16.196083,-8.529337,-2.350159,14.263666,31.355439,38.062398,42.462177,31.649309,46.964893,54.023706,58.049463,43.716822,60.214988,66.529215,68.876224,51.142185,66.840004,71.403545,72.001721,-16.224146,310.260406,-81.479959,306.202478
22,-7.65604,1.955265,0.125313,0.635041,-5.255356,-3.115883,0.938702,-2.856445,-15.91341,11.813908,33.161831,47.664013,-20.636845,9.833279,36.599751,55.085735,-20.92535,3.843956,28.133068,44.661312,-18.69381,-7.619877,8.541241,22.827816,-4.889892,2.029304,17.297587,32.317696,9.740942,26.278073,36.931995,44.089979,23.088603,37.759698,49.338888,53.604545,33.991688,46.021162,52.986917,55.15448,43.482911,55.041971,55.970388,53.917619,25.661545,49.277287,71.391678,90.689507,49.052868,81.137581,97.912102,109.836502,40.055752,76.345596,96.547737,110.171013,30.970516,64.613571,84.025154,97.767448,22.416344,48.737926,64.287357,77.766724,-15.189428,-16.580788,-8.896444,-2.623343,14.39044,30.56244,37.308426,42.021835,31.755643,46.410189,53.270598,57.104743,43.661926,59.724566,65.90745,67.914585,50.883821,66.396389,70.956843,71.414598,-23.868027,312.21158,-81.342487,306.833428
23,10.567989,-2.634705,-0.412159,-0.364204,6.830635,8.045883,3.042755,-1.749344,-19.638977,-0.579586,20.555191,32.864571,-28.706245,-4.20639,18.912964,37.663994,-34.925079,-14.317875,9.649315,26.248512,-39.073849,-41.69426,-38.721313,-35.140743,-14.714629,-14.975525,-7.203062,-0.167652,9.170121,31.251328,38.637727,41.34962,26.06417,44.358285,50.754393,52.80568,36.948977,51.438958,55.024557,57.774303,45.816027,57.204285,62.730823,67.783983,26.045437,49.976749,71.973553,91.277561,47.824688,80.431767,97.527294,109.766293,38.892059,75.859165,96.544018,110.737553,30.143852,64.464569,84.597187,98.882504,22.047558,48.912048,64.67886,78.386021,-14.734081,-15.990207,-8.65926,-2.923759,13.77133,30.641172,37.35622,41.95712,30.989321,46.461813,53.513154,57.443691,42.994342,59.540797,65.868423,67.978867,50.463425,66.292525,71.182787,71.874145,-13.290939,309.572908,-81.745548,306.465257
24,-13.146858,7.277657,0.922222,-0.349878,0.280609,5.695324,15.703354,18.48381,-11.418343,17.753906,38.338394,51.509743,-17.825775,14.043617,39.877052,57.3563,-19.087029,6.226902,29.977684,45.65506,-17.622929,-6.266327,9.496479,22.991524,-14.516225,-15.953342,-7.209175,4.697848,4.14901,19.222533,29.112973,36.571434,20.893684,34.3717,44.836851,48.908179,33.553198,44.080161,50.720553,52.75455,43.253508,54.211366,55.30299,53.495864,25.207329,48.878345,70.917091,90.089035,48.785019,81.542931,98.4375,110.237617,39.417515,76.328773,96.732216,110.407677,29.984894,64.177036,83.845711,97.74353,21.274567,47.802372,63.474827,77.082596,-15.057097,-16.459819,-9.148447,-2.909556,14.937919,31.288625,37.756795,42.28909,32.186476,46.848803,53.508214,57.530821,43.868295,60.202206,66.300738,68.486023,50.814105,66.394043,70.950174,71.607445,-26.428699,316.852695,-80.814228,306.117509
25,19.065857,-16.819083,0.89098,0.017537,-0.630569,-8.637085,-19.894924,-33.358097,-31.903324,-14.971218,6.809692,21.687355,-38.142757,-13.049984,12.134743,32.702522,-40.428257,-17.14222,10.809746,30.54348,-40.215397,-31.199169,-15.589256,-1.006165,22.758732,37.031722,49.618494,60.019733,33.904002,55.724807,64.638355,68.284594,30.588252,51.809522,62.587501,66.055959,24.512258,43.591715,52.44129,56.953208,18.85944,35.143827,42.738633,47.923198,24.66156,48.585949,70.443821,89.582691,48.520546,81.332302,98.148823,109.923992,38.929996,76.083355,96.118183,109.211712,29.516373,64.266129,83.464451,96.671734,21.031551,48.141289,64.087315,77.642498,-15.660707,-16.802472,-8.857479,-2.350035,15.132062,31.649803,38.102659,42.423583,32.953848,47.45655,53.574472,56.788952,44.772692,60.690837,65.979636,67.374887,51.624826,67.11782,71.36526,71.792573,-7.354317,300.013991,-79.914722,306.115425
26,2.474327,0.769163,0.032558,-0.319805,-3.561401,-12.495461,-23.780823,-36.994743,-34.135952,-16.88427,5.170212,20.487442,-39.702301,-15.194149,10.309753,31.035004,-41.475334,-19.449692,7.997818,27.660027,-40.878296,-34.04211,-19.986591,-6.388664,18.539635,32.223094,45.814298,57.510135,31.558907,53.66858,62.330866,65.55257,30.435296,51.156573,61.705952,64.688558,26.47518,45.333509,53.740149,57.58053,22.874329,38.641494,45.917545,50.87425,25.020447,49.154491,70.945816,90.247078,47.634544,81.182671,98.521957,110.525436,37.982998,75.928688,96.441422,109.825974,28.750134,64.151115,83.81012,97.478714,20.636787,48.308029,64.533691,78.157883,-15.752901,-16.743995,-8.5633,-1.870111,14.900807,32.181289,38.878862,43.229364,32.734881,47.939377,54.090953,57.125615,44.703964,61.154829,66.480308,67.851476,51.496941,67.239344,71.442324,71.752682,-4.861937,300.781857,-79.864111,305.794323
27,-1.103783,7.62031,-0.033073,-0.377789,2.193718,-0.599213,-9.493675,-17.429008,-28.015251,-10.48193,11.881027,26.238899,-38.522072,-14.195023,10.360336,30.847893,-44.309063,-24.490643,0.741806,19.746094,-47.056446,-48.973331,-43.642387,-36.79533,-8.920465,-6.315894,4.195323,14.977624,9.843571,34.141185,42.923576,46.055248,25.584122,44.748115,52.935479,56.240484,36.214023,51.235552,56.378805,59.685108,45.071934,57.617395,62.950346,67.555198,25.260487,49.241295,70.840187,89.791031,48.104382,81.590538,98.970108,110.93605,38.18985,75.954552,96.409492,109.636803,28.710022,63.865242,83.424797,96.860847,20.393429,47.535095,63.67979,77.18502,-15.577591,-16.555532,-8.688283,-1.841768,15.462859,32.726669,39.505876,43.920907,33.000532,48.361626,54.407917,57.38719,44.753426,61.315319,66.705142,68.065935,51.398635,67.301157,71.729958,72.128989,-5.961485,308.387038,-79.89295,305.401405
28,-23.359108,13.331173,-0.188255,0.489063,5.890961,11.621189,21.415443,27.101898,-6.343288,26.807213,47.47879,59.686546,-14.30254,19.786606,45.038338,62.574577,-17.725525,10.221577,33.174477,49.489746,-18.387051,-3.772373,12.470226,26.272202,-18.019388,-22.001301,-14.676406,-4.543163,-0.224771,15.246732,25.76962,33.51059,16.934433,31.803932,40.88501,43.595173,30.528663,42.481566,47.281302,47.158604,40.630598,51.641067,52.650748,50.017895,25.303345,49.438591,71.385498,90.46669,48.613243,81.877556,98.890572,110.523262,38.947048,76.608582,96.822281,109.840508,29.641514,64.740314,84.258041,97.747765,21.414814,48.781414,65.010395,78.591957,-15.918453,-17.235343,-9.555629,-2.781115,14.708825,32.034446,38.936661,43.280802,32.321462,47.773577,53.88483,56.754804,44.186248,60.79927,66.084488,67.201244,51.006705,66.880327,71.268126,71.690499,-29.278679,321.69754,-80.039291,305.869798
29,-5.105495,1.172146,-0.630398,-0.49246,5.571213,16.252441,24.575558,26.267567,4.261837,32.536411,51.207561,63.751545,-3.328571,28.04575,50.685139,67.205029,-7.503777,17.208195,36.735134,51.789494,-8.12748,0.264187,7.312546,15.733395,-9.982695,-7.782651,1.610945,11.79544,-3.463519,10.607115,21.173414,32.18098,11.457542,25.414617,36.469855,43.023859,23.976697,36.862588,45.878642,51.587035,35.333586,48.960358,53.550081,58.004261,25.384712,49.9617,72.031574,91.238194,48.789253,82.262478,99.271374,110.864925,38.960552,76.930904,97.30711,110.402241,29.55431,64.740314,84.254093,97.634296,21.397762,48.685284,64.706898,77.862568,-15.566414,-16.792839,-8.94078,-2.264079,14.780455,32.370986,39.029842,43.212877,32.619408,48.381201,55.044441,58.21304,44.49568,61.395656,67.090588,68.378145,51.154906,67.0875,71.363346,71.394777,-34.359398,322.870998,-80.644913,305.37865
30,23.628674,-9.956698,0.05373,-0.192229,6.712074,8.837357,5.647087,2.719688,-17.551804,0.518761,20.484123,33.752289,-27.889709,-5.293579,17.096214,36.554604,-35.295181,-16.379471,7.489586,24.85714,-40.232849,-45.059681,-43.465405,-39.983768,-17.982955,-22.378473,-19.251926,-14.317574,2.113964,24.98681,33.504909,36.794045,21.794931,41.161034,46.987432,48.75442,34.923254,49.563289,52.664518,55.125087,45.512771,56.818839,62.147776,66.479259,25.539207,49.972401,72.577057,91.99791,50.455341,83.234024,100.147133,111.852036,40.85804,77.715683,97.471619,110.532188,31.082783,65.291176,84.341011,97.768936,22.15107,48.938084,64.697628,78.074684,-15.201346,-16.685702,-9.593791,-3.116667,15.418213,32.132753,38.904056,43.197192,32.641577,48.186872,54.948357,58.262316,44.268129,61.232017,67.177223,68.635521,51.063021,67.243605,71.841047,72.251131,-10.726175,312.915412,-80.586634,305.187533
31,-16.760445,5.527526,-0.306072,-0.743598,4.459133,12.467194,23.752441,29.784508,-5.901031,22.580223,44.669838,58.393707,-14.70211,16.203461,42.783508,60.648422,-18.938942,5.14595,29.553108,46.18309,-20.142689,-12.052517,1.654186,13.678436,-17.735892,-21.822102,-14.683816,-4.163707,1.085387,15.751419,25.360956,33.309037,19.287432,31.320673,40.821407,44.076518,33.120636,41.226242,46.985641,48.445483,44.01557,51.626308,51.717884,49.530376,25.766029,50.113564,72.391033,91.576595,50.440807,83.282375,100.120869,111.900501,41.156616,77.95435,98.044109,111.419392,31.850052,65.910988,85.285892,98.844509,23.326721,50.184345,65.947838,79.133205,-15.226602,-16.576281,-9.321904,-2.933886,15.656199,32.505232,39.139696,43.328103,33.051414,48.670748,55.653485,59.134232,44.768616,61.740285,67.713526,69.120015,51.58543,67.502525,71.966153,72.213834,-27.481241,318.446921,-80.887327,304.447917
32,-4.322262,-4.822398,0.73494,-1.30386,2.818909,11.661644,21.73296,25.51157,-1.938171,27.755642,47.734509,61.983891,-8.754501,23.983097,48.585148,65.498371,-11.513386,12.243862,34.082623,50.54369,-10.490799,-3.670063,4.02174,13.012047,-5.286885,-1.140221,7.730966,16.725223,6.963532,25.429931,35.747684,44.617204,18.868332,36.130043,45.666838,51.010842,27.745139,44.741385,53.202117,57.865447,35.400647,52.514465,59.36487,65.199172,25.749607,50.141258,72.557774,92.264385,50.744705,83.840275,100.689182,112.445354,41.148148,77.990742,97.797832,111.028919,31.568184,65.601196,84.606915,98.12788,22.818718,49.15575,64.816418,78.30122,-14.761127,-16.088699,-8.928924,-3.081222,16.239123,32.599524,39.413435,43.755724,33.663731,49.231874,56.148044,59.402229,45.277008,61.856993,67.74156,69.05388,51.834531,67.975101,72.579582,72.864745,-31.779785,313.624816,-80.12867,303.144351
33,40.500813,-15.954577,0.046463,-2.728318,0.699692,-6.690445,-21.122704,-36.117783,-41.299553,-23.883591,1.554794,18.8451,-52.862091,-28.053532,0.664101,23.769722,-57.943954,-37.595558,-8.793297,13.30513,-59.166527,-58.407383,-45.915756,-32.73016,2.992795,12.035217,28.209688,43.070171,14.897904,40.575887,50.058651,54.397111,27.282629,47.940056,58.407368,62.405522,35.645055,53.400336,60.714919,64.384314,43.090858,58.570142,64.179303,68.192153,25.821362,50.28368,72.710781,92.41888,51.600151,84.962482,102.031574,113.728695,42.506218,79.470463,99.978962,113.815327,33.35535,67.170925,86.827297,100.369205,24.848728,50.790596,66.246986,79.178867,-15.795385,-17.212742,-10.511958,-6.197704,15.472986,31.8529,39.824261,45.343636,32.463735,48.184402,55.128298,58.648133,43.829269,60.193746,66.282089,67.784786,50.242173,66.577936,71.813691,72.564947,8.738909,297.662195,-80.064325,300.407989
34,-37.051277,24.9187,1.011543,-10.040679,7.733402,18.295898,28.968887,35.439835,4.974689,30.784378,51.236115,65.763245,-5.214672,22.551498,45.736656,64.463081,-12.821045,7.248516,27.631874,44.317589,-17.43536,-14.05941,-6.972542,1.108589,-22.361553,-32.967186,-40.550014,-45.553896,-12.822288,3.799812,16.355708,26.870815,5.913158,21.174649,31.075401,36.792501,20.159657,32.010487,38.93876,42.659778,31.656472,42.443837,47.368865,50.261686,26.740723,51.870918,74.11417,92.667675,55.129452,85.214138,100.670986,111.664524,44.701138,77.486401,96.038303,109.018078,33.327484,62.620068,79.725094,91.584377,21.854324,43.63369,55.67379,64.729328,-16.499278,-16.908745,-10.870419,-9.835791,15.081118,34.061157,44.130117,51.922896,31.846416,52.394669,62.797205,69.170403,43.549725,63.741492,73.222959,77.552219,50.829481,69.113469,75.675315,77.063279,-28.277321,322.47964,-79.017735,290.266055
35,57.120666,-56.776756,0.461254,-16.128714,-15.992861,-23.152427,-25.556545,-25.561981,-34.619779,-31.056347,-23.495235,-16.959343,-33.540487,-28.893471,-21.018333,-13.811817,-29.713154,-28.430185,-23.182926,-18.596477,-23.962354,-29.150905,-29.605865,-29.21751,-8.902958,-4.896931,-0.015098,3.609126,15.922683,41.619561,57.050001,67.721214,29.777747,58.052952,73.320123,82.079388,40.437411,65.579339,78.933668,86.335103,48.148216,68.752044,79.366137,86.806846,28.387127,53.12336,71.873589,88.993034,53.040333,81.15303,96.396904,107.346954,44.59465,73.895073,90.387268,101.224365,35.17519,61.298275,75.98671,84.400177,24.94297,47.524681,59.758472,67.607689,-17.42115,-16.039546,-8.596584,-4.962263,9.612316,31.098187,43.476242,53.259607,26.394534,49.361859,62.480364,71.105599,39.753124,62.765527,74.130876,81.022036,51.086857,70.28012,77.94878,80.5699,28.983135,265.65512,-78.416691,274.089578
36,57.120667,-56.776756,-9.401922,-38.210414,-39.719124,-64.600754,-80.081978,-86.563797,-74.214249,-92.897072,-98.226585,-99.681931,-61.866302,-80.33844,-87.773323,-92.086716,-46.605263,-64.108887,-73.997726,-81.510544,-30.489349,-44.242401,-52.239189,-59.54361,4.555637,23.173324,40.519818,52.772149,44.667655,79.439312,97.744295,108.571612,53.642336,94.931255,115.564846,127.366276,60.715166,99.14819,118.928576,130.010429,64.639961,95.060251,111.36341,123.352005,27.045565,53.560553,72.836437,88.315,67.151241,97.121515,109.152861,115.901728,62.675114,93.409796,105.913496,112.062235,55.551052,83.713989,94.187365,96.869917,45.956755,69.938993,78.694382,80.950727,7.101112,15.92929,21.743956,26.374311,23.56831,42.534332,57.52091,70.235227,23.877927,45.857523,62.209372,74.257031,22.466127,42.565516,58.211063,69.350869,19.495438,30.072173,39.890025,46.425719,86.781435,208.862494,-87.14098,235.863294
37,16.156654,-44.176121,-9.401922,-38.210414,-41.235237,-69.391479,-83.61248,-89.06971,-76.058006,-96.058273,-98.962326,-100.025826,-63.894081,-83.479385,-88.462029,-91.265259,-48.811111,-68.170052,-75.370789,-79.599953,-33.072281,-47.643471,-54.525375,-59.807854,3.861994,27.583353,51.217706,72.251378,41.826271,84.78066,105.049492,114.965559,51.090932,98.811095,120.785164,131.012082,58.60639,101.65464,121.512152,130.296519,63.641951,97.565589,113.287059,122.605319,25.704002,53.997746,73.799286,87.636967,81.26215,113.09,121.908817,124.456501,80.755577,112.924519,121.439724,122.900105,75.926914,106.129704,112.38802,109.339657,66.970539,92.353306,97.630291,94.293766,31.623374,47.898127,52.084496,57.710885,37.524305,53.970478,71.565578,87.210848,21.36132,42.353187,61.93838,77.408464,5.179131,22.365505,42.291252,57.679701,-12.095979,-10.135774,1.83127,12.281539,102.955713,164.707013,-96.525278,197.67352
38,10.693588,-48.646234,-20.365391,-64.672009,-35.552902,-65.362587,-81.907196,-91.463814,-72.429886,-95.262794,-102.450371,-105.751305,-58.927689,-81.991653,-91.148758,-95.25238,-43.410416,-66.088829,-76.686745,-82.395172,-28.12191,-45.901566,-54.151497,-61.018295,-2.098711,15.979339,37.163868,55.673801,25.221277,62.547363,83.727137,97.0982,34.789194,78.026277,99.817071,110.682612,43.526754,83.225353,102.4992,111.749782,50.32603,80.960718,96.024114,104.159051,26.302185,59.314671,85.199833,97.756634,78.683453,106.884499,97.750282,87.873802,75.584049,99.553013,87.477665,75.66267,66.827602,87.192135,75.922794,65.082264,54.836369,72.150822,65.080547,55.858154,-20.281552,-26.97965,-28.943097,-28.02845,-13.443559,3.025647,2.0214,-2.826378,4.0767,23.611999,19.9234,13.718286,20.054187,37.901538,32.362218,25.835631,33.813291,48.342545,42.749563,36.147394,113.743,116.092473,-116.79697,133.033204
39,16.405678,-50.942855,-19.482079,-56.337031,-33.548012,-63.026047,-82.656555,-90.404778,-80.569839,-102.579803,-100.728149,-93.322678,-72.072601,-93.357925,-92.660179,-88.308105,-60.692825,-79.402885,-78.389626,-75.226822,-46.127243,-60.013733,-60.684242,-59.083443,-15.146913,-11.666382,0.368032,9.717014,13.814648,42.420495,49.543899,48.641571,26.215767,57.400219,64.005105,63.502086,35.870475,64.365048,67.958984,64.544248,42.467642,66.718047,70.668962,67.48647,33.123207,60.049267,77.924252,88.825951,56.548519,84.265995,89.16172,87.474861,46.420727,74.639111,77.226849,73.699951,36.51432,61.476631,62.55043,58.655605,26.989918,45.579529,47.591858,45.030727,-20.531302,-34.48072,-37.627675,-36.345891,-45.637043,-46.118666,-40.643751,-38.312858,-34.353792,-30.307164,-24.924936,-21.958694,-18.76419,-11.59577,-6.466194,-3.478617,-0.797167,4.579194,7.209484,8.315094,130.663347,65.098149,-135.76438,76.644704
40,22.888184,-53.838887,-1.064873,-59.777949,-29.835663,-58.199272,-77.78286,-84.914131,-71.630859,-100.895805,-96.290817,-87.01149,-66.003799,-91.816406,-86.064148,-77.831726,-57.652931,-80.019264,-72.860985,-63.605003,-46.88942,-65.977135,-59.94976,-51.721916,-23.338877,-27.961914,-14.737446,3.489238,-36.839864,-11.88044,1.053709,0.872008,-23.131766,7.757982,16.113616,12.455645,-6.654657,22.994958,25.52021,18.268798,9.822453,30.765321,30.937203,24.479685,34.611969,59.067135,72.544613,79.727268,59.41824,74.750805,74.693642,71.296635,42.935314,55.945759,55.848312,52.94632,25.723057,38.403912,40.021763,37.285423,9.399033,19.389668,22.426987,21.273308,-7.469299,-24.824468,-39.820957,-48.357797,-48.643733,-73.473419,-63.405632,-53.155804,-52.019319,-73.806007,-60.749623,-48.911235,-50.172271,-67.60324,-56.36556,-44.90774,-45.676255,-59.056396,-50.553519,-40.753327,152.998753,10.931181,-137.38203,16.538675
41,1.212101,-36.749801,-10.49366,-46.241395,-29.563637,-53.306523,-68.804856,-78.3597,-56.747017,-77.275944,-81.214028,-79.811154,-47.54448,-67.755204,-71.034508,-69.601822,-37.375431,-54.296837,-56.574669,-54.584427,-25.61697,-39.577217,-41.283818,-39.662247,-19.885578,-32.980663,-33.460788,-29.410872,-57.035953,-59.825127,-57.374492,-58.123285,-50.049712,-50.575254,-46.454734,-46.287962,-38.642914,-37.956643,-36.902208,-39.516126,-24.707451,-25.311463,-25.32741,-27.969756,29.621201,51.236687,65.733604,78.332119,27.197914,30.179272,33.554878,35.932903,15.202732,17.549057,23.375931,27.69413,6.69445,10.349522,17.979927,23.849773,1.036434,2.948914,7.47757,10.688667,-14.921061,-35.940808,-50.535981,-63.094255,-68.499084,-93.503801,-108.103698,-119.151542,-64.932596,-89.488327,-101.567047,-110.655411,-57.838276,-78.765429,-86.84933,-91.24457,-47.629791,-62.797483,-70.898056,-75.351712,155.11714,-25.310383,-146.969404,-29.194483
42,1.212101,-36.7498,-8.299885,-14.681407,-29.291611,-48.413773,-59.826851,-71.805267,-41.863174,-53.656082,-66.137238,-72.610817,-29.085159,-43.694,-56.004868,-61.371918,-17.097931,-28.574409,-40.288353,-45.56385,-4.344521,-13.177299,-22.617874,-27.602577,-16.432279,-37.999413,-52.184131,-62.310982,-77.232043,-107.769814,-115.802693,-117.118579,-76.967659,-108.908491,-109.023085,-105.031569,-70.631171,-98.908244,-99.324627,-97.30105,-59.237355,-81.388247,-81.592023,-80.419198,29.313698,48.342361,61.080666,71.883202,29.585094,33.151188,35.285683,37.479973,17.409954,17.935181,21.562958,22.422237,6.454296,8.397388,13.90234,16.406593,-1.304913,2.096958,5.942287,7.838001,-25.765051,-46.815179,-61.231245,-74.384361,-62.872664,-81.784314,-103.073849,-121.681379,-60.444483,-83.002125,-109.565331,-131.783715,-54.384205,-77.04213,-102.543537,-121.448348,-46.641259,-66.557651,-85.97797,-103.515427,155.586233,-62.242285,-156.012297,-44.057993
43,4.69677,-35.940407,-8.370037,-63.73084,-28.955612,-49.711533,-61.902351,-74.179688,-36.744118,-42.453346,-46.62941,-48.037262,-23.314934,-29.094658,-32.88208,-34.612656,-10.949135,-13.871498,-17.481995,-21.232567,1.818924,0.813217,-1.902008,-4.640465,-14.839983,-36.91983,-54.471165,-70.216131,-70.97421,-106.067154,-118.399005,-125.919063,-71.783603,-108.400471,-121.830414,-128.668376,-67.220912,-100.372115,-112.937459,-121.042617,-58.030336,-81.934491,-93.371131,-102.499833,31.239223,51.800194,66.964474,78.993988,28.879452,28.143539,28.217583,27.941608,17.726555,16.501408,17.786865,18.195305,7.730026,5.561028,7.379036,9.294891,-1.717472,-5.389366,-4.185104,-2.184677,-20.740389,-45.136556,-61.369628,-70.39408,-84.331519,-114.280561,-131.917529,-147.269546,-83.509821,-116.615437,-136.062787,-153.31116,-78.001206,-107.881551,-125.60764,-141.741896,-67.854348,-90.443358,-105.185744,-119.694035,159.580994,-96.277568,-165.084343,-105.883709
44,-2.829437,-29.362321,-4.246387,-16.739178,-25.808487,-45.294228,-58.568115,-73.885002,-29.98455,-35.755806,-38.139839,-39.014053,-17.082825,-21.325035,-23.798103,-25.185356,-5.403786,-6.510086,-8.107224,-10.854836,6.590767,8.550911,8.55835,7.095108,-15.106003,-39.623047,-59.371308,-70.647566,-75.788689,-105.799806,-121.20289,-135.470369,-77.106659,-111.933876,-130.208462,-145.504101,-73.146173,-106.147384,-123.375224,-138.691147,-63.660507,-86.58669,-100.195092,-113.602665,29.690495,50.856571,66.973572,83.935719,30.76561,31.021442,30.538731,29.791031,18.5602,20.711288,22.423153,20.362759,8.145218,8.073864,10.405083,10.755329,-0.696316,-0.872669,0.010185,-0.255032,-29.004987,-52.318006,-67.330395,-76.793121,-86.988963,-113.294731,-132.368368,-152.248018,-86.661779,-116.065457,-138.694945,-158.59779,-82.210253,-112.237564,-133.779967,-151.060488,-74.982599,-99.76906,-116.778118,-132.239711,155.252295,-121.931252,-170.829992,-118.91425
45,2.290192,-13.997244,5.897713,-38.388147,-28.642159,-48.355064,-63.152504,-82.546005,-35.841408,-39.402122,-41.900597,-43.232918,-22.513733,-25.191994,-27.70752,-28.985023,-9.360352,-9.164314,-10.640259,-11.686363,4.326782,4.94751,3.940315,3.5812,-19.645122,-42.567369,-61.30425,-71.801743,-78.567071,-105.904967,-124.141268,-141.515056,-80.586588,-111.977039,-134.033599,-153.656313,-78.214399,-107.321629,-127.491197,-145.995256,-70.814832,-94.73918,-109.838777,-124.502755,28.829212,50.825214,66.409836,79.561729,26.495705,24.547749,23.579063,22.030563,15.127029,11.849442,11.436481,10.196629,3.886242,0.852928,2.447777,3.260536,-7.065754,-11.176472,-10.026226,-8.596859,-18.092639,-42.246498,-59.244549,-67.054495,-84.535928,-117.101783,-134.894099,-149.213726,-85.289978,-120.664875,-139.129637,-153.595806,-82.249866,-114.118721,-132.076119,-146.633887,-74.60674,-99.19279,-113.812076,-126.342809,156.473265,-132.370159,-166.001501,-153.744061
46,-11.541367,-26.598372,0.581017,-13.452559,-26.132812,-46.333237,-60.236664,-79.182587,-29.717331,-34.238777,-36.754875,-39.119797,-16.160545,-19.939842,-22.413254,-24.222107,-3.541145,-5.118484,-8.329811,-12.216682,9.187202,11.145058,11.299553,10.595398,-13.803625,-36.648175,-54.943031,-62.768584,-74.541223,-106.548653,-123.756069,-138.782152,-76.651327,-114.80615,-134.892972,-151.452395,-73.04765,-109.126038,-128.411757,-145.426867,-63.975665,-89.746428,-105.965606,-122.384909,29.497719,50.982857,68.743229,85.391979,29.246292,29.31427,29.021072,28.056622,17.315369,17.748413,17.644615,16.320305,6.305294,6.331329,7.297211,8.046055,-4.887428,-5.860405,-4.9613,-4.481621,-21.530624,-42.900991,-56.672243,-61.676636,-83.569133,-112.941372,-131.298627,-147.997598,-84.386847,-116.259809,-136.713436,-154.704851,-80.864449,-111.505359,-130.01398,-146.811558,-73.350073,-97.221609,-112.174123,-127.118101,144.720726,-154.343071,-165.631657,-162.571159
47,-3.007851,-5.898523,3.152733,-11.64534,-26.757774,-46.787567,-60.398941,-78.288002,-32.620354,-36.68232,-38.277054,-38.513603,-19.420738,-23.439445,-25.874405,-26.798401,-6.496353,-8.201065,-10.426941,-12.275276,7.29332,8.498383,8.71788,8.527794,-13.064072,-34.945407,-52.347322,-58.293207,-74.393531,-104.127288,-122.202923,-138.903414,-77.626427,-111.728772,-132.858134,-151.598574,-75.985673,-108.306085,-128.014972,-145.266362,-69.223941,-94.044519,-109.617479,-124.931087,29.821815,51.069374,68.528309,84.937992,30.330162,30.937099,30.668564,29.32703,17.95681,18.575706,18.738041,17.39502,6.794243,7.109241,8.188477,8.81773,-4.19426,-4.348984,-3.206177,-2.436104,-19.199469,-39.961007,-52.630123,-55.755558,-81.227326,-110.021141,-127.972187,-144.351877,-82.622684,-113.580034,-133.379686,-151.061623,-79.396796,-109.444639,-127.175437,-143.233577,-72.118738,-95.695007,-110.435903,-125.154377,141.7418,-154.564276,-162.449999,-168.539182
48,-3.479233,-6.907324,3.930531,-9.299566,-26.149979,-46.623001,-60.902596,-79.075699,-32.924995,-37.72625,-39.799805,-40.47226,-19.52877,-24.638329,-27.121239,-28.457336,-6.701088,-9.235497,-11.785126,-14.09523,6.832581,7.859802,8.583298,8.904419,-11.475774,-32.279873,-48.380228,-52.462579,-72.060801,-101.016465,-118.807677,-135.205043,-76.333667,-109.986175,-131.177751,-149.727088,-75.684886,-107.688072,-127.689686,-144.961894,-70.003957,-94.775706,-110.412793,-125.667028,29.33075,50.50478,69.185314,85.84631,29.359989,30.473042,31.296844,31.128616,17.225876,18.465042,19.588451,19.80217,5.707512,6.818562,8.523331,10.157089,-5.600281,-5.725479,-4.040565,-2.031956,-16.325667,-35.211181,-47.080938,-47.917008,-77.924805,-105.924364,-122.807251,-138.407821,-79.447439,-110.420952,-130.04176,-147.934729,-76.438813,-105.994381,-123.50554,-139.483035,-69.223246,-92.659936,-106.918831,-121.079915,138.45437,-159.619412,-158.327665,-175.986559
49,-0.771561,-4.925846,3.310604,-6.097591,-25.146561,-46.503181,-61.314583,-78.967209,-33.022842,-39.089699,-41.71772,-42.669411,-19.632339,-26.483803,-29.706802,-31.506615,-6.38546,-10.5439,-13.835678,-16.639595,7.915535,8.131714,8.299484,8.073463,-10.011378,-28.600645,-44.175195,-48.770753,-69.751536,-98.887542,-116.494105,-132.244073,-74.333201,-108.577046,-129.470005,-147.658295,-73.801746,-106.194762,-125.956291,-142.842118,-68.374147,-93.58207,-109.430908,-124.644364,27.96032,48.376179,66.32452,83.217945,27.76474,29.838867,30.761261,30.286903,16.297417,17.756939,19.245987,19.876671,5.236816,7.000351,8.989735,10.594025,-5.970497,-5.450535,-3.708687,-1.762905,-11.615422,-29.922876,-41.608493,-41.811868,-72.54917,-101.639789,-119.171333,-134.525881,-74.695784,-106.861859,-126.370296,-143.564675,-72.634779,-102.591424,-120.459786,-136.229159,-66.70843,-90.677246,-104.50913,-118.009761,138.048391,-164.812915,-154.65148,-182.351807
50,-1.690521,-2.157189,0.144196,-4.212073,-23.906937,-45.372849,-60.354309,-78.255615,-30.919189,-36.817131,-39.528694,-40.84877,-17.114983,-23.362427,-26.529922,-28.396797,-3.623314,-6.911201,-10.034637,-12.739563,10.561752,11.519852,11.208229,10.577888,-9.860398,-28.891073,-43.55732,-46.395894,-71.152206,-99.991763,-117.594999,-133.213392,-75.381028,-108.975491,-129.718357,-147.374429,-74.299732,-106.156461,-125.427236,-141.568948,-68.1319,-92.935729,-108.658256,-123.383182,28.153553,49.081249,66.656227,83.389492,28.920536,30.91135,31.26194,29.947815,17.006607,18.712864,19.631824,19.41433,5.293865,7.407131,9.567833,10.678997,-6.782627,-5.739326,-3.852024,-1.970844,-9.963228,-27.325962,-38.578462,-38.75144,-69.737643,-98.787522,-116.310158,-131.579785,-72.362761,-104.354013,-124.486168,-141.881606,-70.742615,-100.256371,-118.388569,-134.069422,-65.261895,-88.813966,-102.551418,-115.830141,136.675329,-167.126734,-154.189825,-186.72051
51,0.33886,-0.701238,-0.458279,-2.450534,-23.886795,-45.493927,-60.954781,-79.641495,-30.881195,-36.026115,-38.034554,-38.921356,-16.887703,-22.169724,-24.812851,-26.131325,-3.263397,-5.991898,-8.897209,-11.185799,10.866051,11.937447,11.83239,11.668854,-10.01621,-29.845116,-44.192593,-46.40173,-71.573251,-99.907921,-117.633562,-133.203589,-75.740539,-109.194573,-130.067216,-148.125499,-74.507013,-106.327618,-125.761105,-142.272772,-68.263521,-93.769714,-109.637764,-124.639656,27.625809,49.750385,67.98048,84.569721,29.637165,31.876373,32.171688,30.451069,17.025604,19.55864,20.252094,19.658489,4.725323,7.489643,9.717865,11.094704,-7.914162,-6.147652,-4.078217,-1.881351,-9.053012,-25.625711,-36.217389,-35.953699,-67.816132,-97.363218,-115.47236,-131.30417,-70.701582,-102.346337,-122.84505,-140.184257,-69.440314,-98.686838,-117.021708,-132.54357,-64.686636,-88.523307,-102.391585,-115.554866,137.659779,-167.714659,-154.002514,-189.057732
52,-0.161591,-0.820601,0.268822,-2.355238,-24.007645,-45.502853,-60.923424,-79.865685,-30.264816,-35.436745,-37.646828,-38.990593,-16.397209,-21.690674,-24.388504,-25.882759,-2.779999,-5.776978,-8.972969,-11.685905,11.422348,12.304802,12.18544,11.848412,-9.937957,-30.134664,-44.240172,-45.610799,-71.833127,-99.699236,-117.121976,-132.228743,-76.158497,-109.372685,-130.065086,-147.474912,-75.170907,-106.873923,-126.184775,-142.159892,-69.217349,-94.604109,-110.509973,-125.377234,27.117062,49.220238,67.981911,84.556446,29.319935,32.475758,33.245888,31.941891,17.075329,20.501747,21.758366,21.62859,4.883537,8.336964,10.999317,12.817726,-7.914162,-5.975304,-3.854942,-1.534882,-8.760392,-23.968422,-33.74359,-33.11142,-66.046187,-95.720487,-113.599176,-129.301164,-68.899597,-100.860367,-121.455535,-138.754681,-67.480673,-97.285567,-116.060563,-131.908243,-62.449913,-86.513917,-100.83366,-114.406038,138.351259,-168.816225,-152.880621,-191.693934
53,-0.62645,0.24731,-0.360603,0.371182,-23.997574,-45.605049,-61.016464,-80.007477,-30.035362,-35.016861,-36.981812,-38.105164,-16.049995,-20.650978,-22.962341,-24.222107,-2.471809,-4.792213,-7.467957,-9.754143,11.434135,12.851257,12.954826,12.811775,-9.951835,-30.324794,-44.58125,-46.414126,-72.806947,-100.210498,-117.576698,-132.746582,-77.083333,-109.708345,-130.154493,-147.317618,-75.924246,-106.839976,-125.624791,-141.305073,-69.813179,-94.696364,-110.380035,-125.102614,27.333183,49.408436,68.045998,84.375057,30.099735,33.332291,34.499588,33.724823,17.682838,21.478214,23.059273,23.462276,5.270634,9.110298,12.197914,14.574966,-7.724762,-5.50684,-2.960758,-0.097904,-9.061688,-24.569578,-33.976281,-32.773846,-65.826356,-95.352238,-113.380726,-129.504955,-68.674393,-100.489579,-121.585867,-139.28027,-66.886117,-96.930286,-116.455472,-132.865529,-61.236787,-85.603531,-100.374476,-114.220308,138.917971,-168.746246,-152.048063,-191.500084
54,1.791344,0.587864,0.305214,-0.182349,-24.907265,-47.197266,-63.035431,-81.882935,-31.268463,-36.729927,-39.06395,-40.395927,-17.264442,-22.34436,-24.755287,-25.862274,-3.842354,-6.572685,-9.21627,-11.408272,9.840889,11.229401,11.083603,10.892143,-9.832209,-30.044431,-44.491373,-46.799557,-72.274303,-99.978749,-117.248942,-132.527244,-76.678343,-109.519836,-129.696088,-146.699983,-75.673463,-106.821652,-125.336594,-140.72895,-69.796954,-95.091551,-110.525982,-124.819651,27.322598,49.505482,68.098297,84.355145,30.203762,34.002972,35.753345,35.616875,17.857018,22.024269,24.145832,24.939308,5.413628,9.536991,12.799301,15.15255,-7.732716,-5.202141,-2.444172,0.515785,-8.057024,-23.770204,-33.490583,-32.866919,-65.29734,-94.592183,-112.538821,-128.466406,-68.540773,-100.529856,-121.71071,-139.444317,-67.070303,-97.300448,-117.045667,-133.560252,-61.646177,-85.945922,-100.873211,-114.723744,141.027174,-168.258634,-151.42499,-191.782685
55,2.082596,1.827009,-1.119919,1.627247,-24.936447,-47.758827,-64.107056,-84.361267,-33.419952,-38.912201,-41.305733,-42.797928,-19.506798,-25.262146,-27.922211,-29.557343,-6.216431,-9.84272,-12.757072,-15.348587,7.46727,7.290344,6.516151,5.574074,-10.066429,-30.368945,-44.877143,-47.040275,-72.202101,-99.748428,-116.956315,-132.299771,-76.721707,-108.501132,-128.781874,-146.368677,-75.966021,-106.302331,-124.708037,-140.193821,-70.478771,-95.397802,-110.69368,-125.192245,27.673187,49.882565,68.637714,85.043678,31.554852,35.916424,38.134289,38.343544,19.308529,23.774128,26.333256,27.574825,6.911087,11.369362,14.994106,17.758427,-6.088028,-2.926369,0.191689,3.567867,-8.986954,-24.895528,-34.018178,-32.335032,-65.658843,-94.397052,-112.113971,-128.087282,-68.868953,-100.608402,-121.792962,-139.85718,-67.582677,-97.667338,-117.435282,-134.112424,-62.310272,-86.590333,-101.582492,-115.645207,143.259087,-166.524204,-152.395592,-190.248018
56,3.569527,1.853547,-4.421082,3.30039,-25.699768,-49.683609,-67.489471,-86.995583,-35.199852,-42.589302,-46.506042,-49.551201,-22.667885,-31.499634,-35.971069,-39.234123,-10.246925,-17.131348,-22.426071,-26.95816,3.186951,-0.94162,-4.843254,-8.908653,-10.973511,-30.404174,-44.041042,-45.99339,-69.798729,-97.635645,-114.528435,-130.353561,-73.811117,-104.850609,-125.310528,-143.777066,-72.970632,-102.910334,-121.844655,-137.905597,-67.477315,-91.768437,-107.10751,-121.164158,28.308849,51.69136,71.898022,89.198685,35.827503,43.003407,47.722893,51.076069,23.769207,32.162933,37.71492,42.083302,10.919495,20.218678,26.896591,32.332077,-3.073139,3.622971,9.136105,14.830341,-9.488445,-25.657975,-34.636794,-32.086873,-65.0077,-92.713327,-109.984207,-125.949722,-68.431915,-98.546888,-118.112954,-136.274985,-67.758604,-95.968469,-114.30029,-130.6542,-62.901486,-86.428316,-100.400836,-114.158473,146.833162,-164.767636,-156.812124,-187.044607
57,2.110291,5.430887,-5.423241,5.158691,-26.387444,-49.17675,-67.29641,-86.534615,-36.149368,-48.269005,-53.083763,-56.182137,-23.657227,-37.013397,-42.618027,-47.149429,-11.348534,-22.581711,-30.079536,-36.889114,2.583504,-8.145561,-16.497231,-24.61853,-14.250914,-34.388588,-47.353242,-50.316629,-65.616435,-89.874189,-103.184514,-116.233549,-68.142382,-93.953144,-107.259779,-119.082675,-67.222795,-91.775423,-105.066937,-115.957702,-62.558416,-82.297491,-93.380054,-103.915353,30.831871,55.254078,75.325928,93.663998,42.035465,52.56712,60.626106,68.463764,30.988312,44.0732,53.832264,62.393818,18.24337,30.858707,42.148361,52.353916,3.366108,13.675175,23.79261,33.72654,-10.905817,-28.47276,-38.063633,-37.771137,-59.591895,-82.821598,-93.793241,-102.347464,-62.708145,-87.590489,-98.306409,-106.627246,-63.163478,-86.888974,-97.842486,-105.934237,-59.906545,-80.304744,-90.157508,-98.787722,148.586254,-159.39745,-162.592564,-181.946616
58,0.756798,1.871393,0.666218,3.040652,-27.193565,-50.724335,-71.511497,-92.285156,-37.843666,-50.141029,-57.384224,-63.652496,-26.322212,-41.640701,-50.724335,-59.009514,-14.021988,-28.168945,-38.813438,-48.931274,0.060425,-13.667908,-24.765587,-36.284409,-13.199305,-32.65527,-44.200852,-46.330871,-56.796238,-75.283833,-86.18383,-96.527071,-61.704686,-83.139072,-93.636874,-103.410127,-63.885448,-84.249638,-93.985902,-103.101977,-63.517184,-80.095317,-87.821837,-94.939622,29.838982,53.258629,72.824078,92.120876,40.901012,51.3727,60.120163,70.678024,30.015736,43.023491,53.394985,64.491806,17.125168,30.47287,41.839256,53.540268,1.72823,12.723942,22.825127,34.084854,-11.33154,-28.201706,-37.744646,-37.816801,-55.625836,-74.47887,-81.45838,-86.505079,-59.625611,-79.377885,-86.86222,-92.691799,-60.331542,-79.875455,-88.577716,-94.992326,-57.331043,-74.75315,-83.484573,-91.061094,149.018927,-157.963497,-162.250471,-179.343404
59,-4.375763,0.581303,3.508816,-0.173519,-25.650215,-49.817734,-70.091171,-88.040886,-33.914108,-44.092255,-51.089859,-58.669395,-22.852936,-36.885338,-46.104469,-55.909195,-10.376129,-23.971596,-34.315224,-44.65416,3.710632,-8.383141,-18.556595,-29.694901,-14.507163,-33.416189,-44.381055,-46.613395,-54.998267,-71.649636,-81.348912,-90.532418,-58.353306,-76.590904,-85.393194,-94.258345,-59.304941,-76.898622,-84.802906,-92.725484,-57.683036,-73.436662,-80.045778,-86.392886,27.208786,50.60915,69.757175,88.862286,35.884438,45.399799,55.101414,66.281261,24.677925,38.842278,49.429836,59.153309,12.129822,27.611847,39.308167,50.572071,-2.267475,10.526905,21.733818,33.61433,-10.388411,-27.385042,-37.65784,-37.988468,-54.331702,-71.391905,-76.505133,-77.151644,-58.303396,-74.694271,-77.942713,-76.436512,-58.672524,-74.183132,-78.301344,-79.104447,-55.797564,-70.301331,-75.520183,-78.890358,144.632921,-158.852024,-158.751898,-180.986753
60,-1.87603,-2.608878,2.625732,-0.194761,-24.705048,-48.030281,-67.769508,-86.224594,-34.351845,-44.045677,-52.049446,-61.741676,-23.160782,-36.459503,-46.590271,-58.152237,-10.32383,-23.332901,-34.211655,-45.048866,4.626732,-7.24308,-17.95063,-29.992676,-12.006488,-30.411213,-41.163627,-44.353546,-52.983922,-67.324112,-75.637833,-82.057946,-55.995088,-72.682442,-79.550586,-84.285005,-55.963055,-72.004037,-77.986849,-82.844615,-53.63491,-67.727142,-73.438314,-78.917675,25.547733,48.698502,67.313232,86.381836,33.503666,43.808384,53.769321,64.742889,22.459259,36.754475,46.809368,56.267052,10.091801,24.989033,35.492935,45.751934,-4.230309,7.399921,18.225861,30.092182,-9.205998,-25.67843,-36.590083,-37.468189,-50.638888,-65.2252,-70.261904,-71.57728,-54.839429,-68.861342,-72.302693,-71.213493,-55.597555,-69.69627,-72.918483,-72.481044,-53.774358,-68.016118,-72.607462,-73.883581,142.785673,-163.053985,-156.097383,-182.774597
61,-1.002731,-1.716059,1.446476,-0.623834,-24.547462,-47.327957,-66.651192,-84.157677,-32.831154,-41.827812,-49.618149,-59.131165,-21.969795,-35.01915,-45.227966,-56.776314,-9.339981,-22.162628,-33.178368,-44.293671,5.162201,-6.171455,-17.030869,-29.293213,-11.478059,-29.499839,-40.561283,-43.720172,-50.577493,-64.668011,-72.280185,-78.192586,-53.850805,-70.244289,-76.892292,-81.78521,-54.194091,-70.092538,-76.252018,-81.793376,-51.800861,-66.245116,-71.926247,-77.406874,25.643806,47.331905,64.874439,84.006271,32.944393,42.281742,53.136864,65.401783,21.869545,34.569855,46.499863,57.849884,8.890285,22.465668,33.882751,44.823761,-6.190453,4.237976,15.58691,28.132324,-8.804682,-25.263251,-36.008749,-37.647327,-49.036079,-63.150294,-68.713358,-70.659113,-53.488145,-67.113374,-72.460048,-73.539384,-54.406405,-68.577136,-73.095939,-73.784363,-52.922187,-67.368264,-72.586251,-74.088731,141.775303,-164.963648,-154.658546,-183.592033
62,-0.49427,-2.103481,0.493584,-1.383888,-24.348106,-46.938744,-65.83477,-83.440475,-30.882111,-39.446411,-47.202988,-56.869011,-19.94133,-32.491493,-42.985611,-54.647141,-7.344131,-20.154305,-31.654587,-43.041344,7.023926,-4.245071,-15.441284,-27.95311,-10.752769,-29.0379,-40.310684,-43.698821,-48.873336,-62.72877,-70.321771,-77.033546,-52.144688,-68.60778,-74.971283,-80.23989,-52.639617,-68.856109,-74.728774,-80.747247,-50.585629,-65.530263,-71.101972,-76.74298,24.925289,46.371403,63.559284,82.550354,32.1912,40.489311,51.179981,63.671951,21.425171,33.630753,45.089779,56.530781,8.760395,22.111702,33.383389,44.599228,-6.022282,4.996319,16.639652,29.483814,-8.195762,-24.364628,-35.246518,-37.483843,-48.571685,-62.120667,-67.654215,-70.039108,-52.946718,-65.685086,-70.990095,-72.832141,-54.012591,-67.596817,-71.955933,-73.097714,-52.501358,-66.570418,-71.282375,-72.678969,141.031408,-167.152128,-154.414587,-185.060921
63,-1.118088,-2.255496,0.555954,-2.458469,-23.679428,-45.9161,-63.668633,-80.724792,-30.576096,-38.984528,-46.475601,-55.898552,-19.116211,-31.045647,-41.240501,-52.45903,-6.089859,-17.916298,-29.216309,-40.252991,8.667984,-1.707344,-12.897606,-25.407829,-9.268335,-27.846487,-39.544331,-43.316988,-47.982262,-62.279891,-70.487509,-77.836379,-51.486583,-67.667414,-74.44872,-80.272834,-51.702061,-67.535407,-73.390334,-79.430512,-49.067665,-64.017856,-69.197558,-74.337153,25.598373,47.146969,64.207535,82.679729,31.836376,40.209446,50.881405,63.212185,20.973816,33.174419,44.173164,55.096035,8.173141,21.503849,32.385349,43.208771,-6.81736,3.759041,15.575409,28.960934,-8.181204,-23.784005,-34.252784,-36.798228,-47.011499,-61.019272,-66.539326,-68.459656,-51.087876,-64.089873,-68.914247,-69.620857,-52.042074,-65.99302,-69.676633,-69.636233,-50.637623,-65.299532,-69.883296,-70.332361,139.832125,-169.470841,-153.939829,-187.582607
64,-0.02243,-1.671182,-0.730247,-2.352598,-23.417702,-45.070839,-62.801857,-79.674568,-30.004463,-38.704948,-46.703224,-56.607742,-19.199638,-31.404419,-42.03907,-53.777618,-6.748352,-18.640594,-30.596809,-42.348518,7.46006,-3.114166,-14.460869,-27.384796,-8.43066,-26.540775,-38.477006,-43.389189,-47.037728,-61.655347,-69.67194,-75.949317,-50.840365,-68.096656,-75.067876,-79.984969,-51.183836,-67.780571,-74.316312,-80.019379,-48.709574,-64.116904,-70.318837,-76.130632,25.083904,47.323666,65.028305,84.2379,33.594589,41.788559,52.248344,64.52013,22.894535,34.807835,46.11311,57.94035,10.213337,22.862549,33.990612,45.536385,-4.651508,5.666256,17.064342,30.37056,-6.243538,-22.070477,-32.694574,-34.508554,-45.453135,-58.764162,-64.359429,-67.14323,-49.919882,-62.609437,-67.86997,-69.668567,-51.219203,-65.274662,-69.561083,-70.381707,-49.957936,-64.670743,-69.255171,-69.974679,139.503336,-170.730395,-154.976435,-189.523577
65,-0.824432,-1.090373,0.14883,-1.905062,-23.445053,-44.845619,-62.351418,-79.009438,-29.443359,-38.625298,-46.892395,-56.461945,-18.740845,-31.888962,-42.719307,-53.855209,-6.312561,-19.726067,-31.885757,-43.123055,7.998505,-4.099617,-16.141548,-29.088821,-8.979899,-27.093225,-38.667753,-43.005503,-47.46095,-62.040052,-70.590339,-77.601527,-51.211593,-68.062261,-75.291737,-80.587283,-51.847051,-68.089169,-74.441912,-80.120573,-49.980104,-64.933368,-70.570563,-75.96372,25.327435,47.166481,65.060921,83.609619,33.324108,42.028999,52.590122,65.002842,22.733288,34.640236,45.975208,58.137417,10.040646,22.948837,34.199924,46.057434,-4.865398,5.877743,17.240582,30.458393,-6.274228,-22.040991,-32.370276,-34.314256,-45.494817,-57.80578,-63.659796,-66.480741,-49.925826,-61.887205,-67.331738,-69.035,-51.026805,-64.226187,-69.120864,-70.224591,-49.782457,-63.767088,-68.378732,-68.949013,138.628979,-171.5298,-154.877529,-191.137671
66,0.701523,-0.49178,0.551147,-0.967166,-22.99633,-45.075531,-63.228149,-79.868774,-30.46772,-39.372253,-47.31205,-56.799774,-20.060806,-33.209152,-43.908806,-55.111313,-7.74147,-20.746307,-32.509003,-43.541794,6.631279,-4.935722,-16.614075,-29.230156,-8.886116,-27.470906,-38.898082,-43.222185,-47.765534,-62.310689,-71.012542,-78.235534,-51.371125,-67.296078,-74.339191,-79.421867,-51.903583,-67.363092,-73.599405,-78.942159,-49.960267,-64.466859,-69.971136,-75.132575,25.287552,47.4963,65.289631,83.742657,32.314167,41.270142,52.030106,64.470062,21.63105,34.288902,45.878391,57.790089,8.997803,22.480774,34.088917,45.896873,-5.957737,5.031509,16.702881,29.910507,-6.498598,-22.436364,-32.79305,-35.050259,-45.64734,-58.195317,-63.790244,-66.208151,-49.945277,-62.058408,-66.785973,-67.782825,-51.035203,-64.481293,-68.532359,-68.796999,-49.881195,-64.073771,-68.343442,-68.655127,139.376564,-171.730211,-154.280319,-191.813468
67,-0.703239,-0.90804,0.773335,-0.123269,-23.209076,-45.290565,-63.182144,-79.936638,-30.363693,-39.683647,-47.485199,-56.850243,-19.376221,-32.191772,-42.802048,-54.085579,-6.611366,-19.389725,-31.182518,-42.492485,8.002625,-3.299561,-15.14019,-28.260841,-9.205597,-27.368879,-38.894763,-43.410586,-47.322382,-61.908848,-70.698216,-78.292699,-51.011429,-67.423839,-74.60376,-80.520947,-51.384864,-67.166479,-73.531665,-79.848053,-48.851229,-63.51493,-69.260914,-74.914457,24.862003,46.427021,63.872108,83.014526,31.986866,40.977745,52.14426,64.800053,21.057186,33.612728,45.178986,56.585255,8.186932,21.543846,32.866745,44.113083,-6.798763,3.831253,15.843887,29.55843,-7.193661,-23.228853,-33.884906,-35.749398,-46.44443,-59.639953,-64.965478,-66.764777,-50.611163,-63.063812,-67.739199,-68.445484,-51.410908,-65.103567,-69.121435,-69.263021,-49.937049,-64.41576,-69.075663,-69.499842,138.888302,-172.39974,-153.292007,-191.698226
68,-0.716629,-0.611684,0.085087,-0.431111,-22.933731,-44.693642,-62.066803,-78.747368,-30.116386,-39.001808,-46.574593,-55.802193,-18.921432,-31.643944,-42.240601,-53.441505,-6.1092,-19.027405,-30.828438,-41.973267,8.50708,-3.11451,-15.022659,-27.951279,-8.921453,-27.678217,-39.201292,-43.430624,-48.029455,-62.648711,-71.594971,-79.325999,-51.673301,-67.950941,-75.32252,-81.507595,-51.841308,-67.655218,-74.154433,-80.619208,-49.169213,-63.86825,-69.423889,-75.100712,24.127464,45.874557,63.376236,82.531815,31.568184,40.615025,51.745262,64.313278,20.614929,33.283939,44.334183,54.953785,7.761841,21.007004,32.239094,43.282986,-7.241936,4.068832,16.06945,29.542694,-6.28596,-22.199443,-33.259142,-35.785583,-45.956509,-59.869108,-65.609342,-67.662682,-50.1694,-62.647507,-68.063527,-69.479279,-51.058637,-64.750401,-69.715382,-70.625166,-49.578773,-64.026717,-69.238568,-70.490581,138.638706,-172.904859,-152.739887,-192.022771
69,-0.513496,0.683855,0.783119,-0.306189,-23.101501,-44.752121,-62.210999,-78.868103,-28.9991,-37.724648,-46.056404,-55.954514,-18.20343,-31.254845,-42.072601,-53.390121,-5.608292,-19.079018,-30.852585,-42.057381,8.814812,-3.209038,-15.076447,-28.028984,-9.648116,-28.285811,-39.878987,-43.884474,-48.153697,-62.913774,-71.809925,-79.285738,-51.728366,-68.331786,-75.898883,-82.350674,-51.952598,-68.136763,-75.002977,-81.811145,-49.494484,-64.476368,-70.364039,-76.306296,24.180679,45.862255,63.055801,82.07365,31.630955,40.220261,51.127453,63.734207,20.43663,32.659378,43.501453,54.067612,7.363014,20.144348,31.404247,42.447567,-7.822952,3.352489,15.370388,28.634148,-6.530986,-22.310161,-33.435255,-35.955428,-46.13594,-60.049713,-65.677013,-67.711264,-50.322325,-62.577374,-67.931188,-69.445733,-51.076081,-64.61154,-69.459688,-70.258345,-49.378022,-63.9007,-69.066045,-70.255937,138.593588,-172.206353,-151.48839,-192.31431
70,0.838966,0.313445,-0.64333,-0.321133,-22.981453,-45.205421,-62.866974,-79.504967,-29.589615,-38.499527,-46.817894,-56.704788,-18.921661,-31.86882,-42.534943,-53.907738,-6.481819,-19.758568,-31.32431,-42.495117,7.713318,-3.894768,-15.289307,-27.841415,-9.382512,-28.33396,-40.223416,-43.883532,-48.025735,-63.227559,-71.997306,-79.401073,-51.719289,-68.495409,-76.151442,-82.69115,-51.977035,-68.468239,-75.591859,-82.634864,-49.339922,-64.619552,-70.847853,-77.116354,24.541225,46.303482,63.422012,82.477283,32.373161,41.190777,52.1422,64.492893,21.425343,33.70491,44.797268,55.542984,8.446999,21.239662,32.418423,43.466091,-6.663151,4.207592,16.029739,29.375725,-6.433281,-22.330848,-33.502022,-35.928026,-46.127311,-60.045298,-65.746752,-67.806885,-50.153746,-62.703514,-68.27158,-69.817656,-50.903782,-64.674641,-69.609966,-70.486567,-49.368852,-63.93298,-69.084354,-70.1579,139.95821,-171.903267,-151.606064,-192.645801
71,0.078278,0.34273,0.410156,0.002779,-23.248329,-45.360374,-62.919502,-79.336395,-30.260696,-39.392853,-47.632027,-57.226295,-19.397163,-32.478447,-43.215179,-54.434509,-6.768951,-20.115852,-31.562347,-42.599945,7.654495,-3.847961,-15.234833,-27.761536,-9.337805,-28.333821,-40.404066,-44.24874,-47.783657,-62.874686,-71.676605,-79.238638,-51.513104,-68.26102,-75.914737,-82.481106,-51.940973,-68.157882,-75.181667,-82.18475,-49.492986,-64.556505,-70.609975,-76.714775,24.451389,46.232529,63.511848,82.560253,31.423817,40.411091,51.814785,64.441109,20.630379,33.461666,44.895229,55.876064,7.854595,21.06348,32.542362,43.786526,-7.08704,4.060822,16.105042,29.520092,-6.515209,-22.336436,-33.298061,-35.76184,-46.170907,-60.097909,-65.452534,-66.868224,-50.274885,-62.80355,-68.184805,-69.337268,-51.076406,-65.153346,-69.703139,-70.155199,-49.597005,-64.585937,-69.502914,-70.189856,140.586834,-171.555983,-150.645561,-192.638469
72,0.261269,0.567471,-0.271339,0.274141,-23.089142,-45.35408,-63.171158,-79.763145,-30.468521,-39.636497,-47.754593,-57.326889,-19.627762,-32.761803,-43.587112,-55.243149,-7.060547,-20.239334,-31.907959,-43.369446,7.494392,-4.274139,-15.806236,-28.398857,-9.471448,-28.717677,-40.6806,-44.510453,-48.331384,-62.83336,-71.184671,-78.37299,-51.893672,-68.283606,-75.927643,-82.523189,-52.201699,-68.219431,-75.222607,-82.145014,-49.704188,-64.678586,-70.739867,-76.765519,24.623623,46.560745,63.796635,82.714691,31.683826,40.946903,52.500172,65.093365,21.127453,34.28896,46.18618,57.333698,8.38171,21.689186,33.433571,44.648666,-6.690044,4.265957,16.330204,29.597626,-6.465623,-22.475915,-33.768707,-36.669803,-46.071272,-60.306564,-65.508619,-66.90018,-50.169879,-62.934646,-68.259523,-69.519895,-51.005856,-65.211384,-69.615732,-70.283362,-49.650836,-64.617623,-69.55639,-70.654628,141.237631,-170.991707,-150.527372,-192.367523
73,-1.200027,-0.689629,-0.173721,-0.498635,-23.783569,-45.325012,-62.735138,-79.350471,-30.416794,-39.397774,-47.434044,-56.962509,-19.3713,-32.125511,-43.189774,-54.739494,-6.468315,-18.966751,-31.09623,-42.623405,8.288383,-3.024788,-14.807053,-27.533798,-9.075335,-27.865136,-39.906775,-44.372086,-48.339658,-62.806082,-71.350208,-78.730911,-51.832215,-68.440374,-75.76984,-81.698697,-52.218788,-68.31144,-75.010942,-81.417795,-49.821298,-64.745585,-70.873866,-76.877349,24.783497,46.355896,63.249149,81.632195,32.027779,41.20348,52.562542,65.104752,21.516666,34.392757,46.307087,57.957973,8.846741,22.096195,33.624802,45.028839,-6.194458,4.854641,16.562119,29.691582,-5.931976,-21.650173,-33.310056,-37.014725,-45.49528,-59.428952,-64.524873,-66.086997,-49.902762,-62.835722,-68.431652,-69.633346,-51.071249,-65.359453,-69.942175,-70.429263,-49.912194,-64.746835,-69.520536,-70.146106,140.416002,-171.685967,-150.322695,-192.870789
74,-0.448723,-0.208778,0.481224,0.148201,-23.537865,-44.959373,-62.358627,-78.807678,-30.100822,-38.836784,-46.830139,-56.265907,-19.079018,-31.866646,-43.085175,-54.605827,-6.164131,-18.700562,-31.113968,-42.846565,8.614082,-2.499619,-14.370346,-27.350349,-8.998471,-28.020809,-40.020828,-44.308638,-48.327462,-62.800123,-71.577187,-79.028795,-51.910993,-68.413374,-75.700525,-81.388849,-52.322081,-68.500874,-74.965371,-81.080143,-49.954678,-64.725485,-70.734078,-76.59518,24.492073,46.160889,63.076115,81.350155,30.897732,40.391064,52.169151,64.953804,20.493164,33.815002,45.860023,57.35796,8.047199,21.677055,33.499432,44.994564,-6.739483,4.752159,16.655674,29.761734,-6.019229,-21.929918,-33.467504,-37.454774,-45.762073,-59.935104,-64.897715,-66.016524,-50.150628,-62.899649,-68.368281,-69.374272,-51.346209,-65.604448,-70.231955,-70.656411,-50.284951,-65.057432,-69.839577,-70.648724,140.345221,-171.846472,-149.46353,-192.674315
75,0.068779,0.760919,-0.074787,0.309725,-23.143501,-44.714127,-62.247276,-78.609695,-29.159431,-38.041306,-46.475143,-56.429787,-18.439293,-31.516685,-42.966499,-54.728394,-5.782471,-18.551331,-31.084557,-42.927475,8.811035,-2.33757,-14.201431,-27.07592,-9.385028,-28.411148,-40.278096,-44.486695,-48.845502,-63.373985,-72.12303,-79.452125,-52.299465,-68.610883,-75.753491,-81.405846,-52.596346,-68.875807,-75.344673,-81.455926,-50.0978,-65.01988,-71.018053,-76.735539,24.825726,46.554623,63.502464,81.897469,30.866547,40.386143,52.078857,64.596577,20.588665,33.691235,45.69706,57.267952,8.166046,21.314907,32.969456,44.46888,-6.736393,4.211941,15.916214,29.003849,-6.363118,-22.237373,-33.685514,-37.471941,-45.964737,-59.894303,-64.954456,-66.340474,-50.092289,-62.873482,-68.647478,-69.969855,-51.132799,-65.478886,-70.322156,-71.031561,-49.925054,-64.691553,-69.612382,-70.410321,140.737839,-171.067413,-149.214478,-192.346451
76,-0.03891,0.94069,-0.023632,0.323016,-22.881203,-44.370232,-61.727943,-78.044586,-29.239426,-37.801208,-45.918732,-55.829773,-18.307915,-31.181259,-42.374954,-53.97789,-5.467758,-18.185577,-30.494728,-42.07592,9.135361,-2.22805,-14.108963,-27.009087,-9.079117,-28.696451,-41.206374,-45.945595,-49.183941,-63.705507,-72.444024,-79.978562,-52.688246,-68.840641,-76.061456,-82.089099,-52.934321,-69.190843,-75.905474,-82.44969,-50.284858,-65.370993,-71.555914,-77.654231,24.975529,46.56332,63.451881,81.929569,31.222687,40.2281,51.405888,63.707256,20.820007,32.767181,44.407425,55.672588,8.26086,20.58712,31.907673,43.025208,-6.81839,3.522377,15.031643,27.837238,-6.807643,-22.384879,-33.661076,-37.319711,-45.841545,-59.809921,-65.240584,-66.968916,-49.783568,-62.613837,-68.304801,-69.941156,-50.706768,-64.849202,-69.806371,-70.831474,-49.553162,-64.113245,-69.021014,-69.832043,140.996675,-170.086076,-148.940363,-191.982787
77,0.852585,0.535036,-1.580143,0.817792,-22.861862,-44.113655,-62.051468,-78.350372,-28.091354,-36.44783,-45.10643,-55.73925,-17.380714,-30.506287,-41.824951,-53.994141,-4.87278,-18.386536,-31.311493,-43.512268,9.169006,-3.509674,-16.053543,-29.452515,-9.360035,-27.797519,-40.138138,-46.306125,-49.182397,-63.962281,-72.385732,-79.05016,-52.662805,-69.40788,-76.128887,-80.998895,-52.793144,-69.29128,-75.411162,-80.690915,-50.14734,-64.797146,-70.769199,-76.039442,24.366131,46.456776,63.902035,82.736835,30.990829,40.801792,52.776604,65.722275,20.777664,34.504852,46.789856,58.671341,8.461819,22.943459,34.905853,46.293755,-6.251678,6.291904,18.269348,31.124554,-5.822369,-21.818659,-33.155139,-36.99955,-45.390567,-59.497556,-65.016885,-66.959893,-49.586075,-62.168431,-68.127493,-70.306842,-50.768425,-64.775503,-69.932295,-71.391365,-49.771944,-64.179179,-69.207253,-70.768527,142.131901,-169.452547,-150.237865,-191.066504
78,0.720634,2.598797,-0.260983,1.689553,-22.043839,-43.322639,-61.147728,-78.296242,-27.936974,-35.850449,-44.15062,-54.499397,-16.63559,-28.475761,-39.267998,-51.479187,-3.672638,-15.322266,-27.717361,-39.847641,11.089783,0.685043,-11.206512,-24.394684,-8.61622,-26.980175,-39.654802,-46.843091,-49.033007,-64.575493,-73.389824,-80.451941,-52.177091,-69.798606,-77.566468,-83.575941,-51.856684,-69.093123,-75.5455,-80.590123,-48.893961,-64.711066,-70.905297,-75.45147,24.143944,46.272354,63.673553,81.661091,30.119705,40.052032,52.181911,64.960384,20.125751,34.122162,46.364365,57.555256,7.92635,22.583199,34.801712,46.158142,-6.584759,5.676384,17.922134,30.858765,-6.077167,-22.28648,-33.675911,-37.992512,-46.210844,-60.45018,-65.622811,-67.025364,-50.173584,-63.031934,-68.567789,-69.830214,-51.214711,-65.447363,-69.999318,-70.62204,-50.156834,-64.877823,-69.692827,-70.804782,143.095808,-166.710613,-150.255575,-189.233813
79,3.47065,4.112639,-0.91198,2.46625,-21.536179,-44.090538,-62.542076,-78.574219,-28.207169,-36.457672,-44.284401,-53.793755,-16.938858,-28.654861,-38.666725,-49.730301,-4.122391,-15.344582,-26.776428,-38.188477,10.292587,0.5793,-10.489426,-23.121414,-8.079223,-26.823839,-40.523569,-49.345295,-48.782177,-65.411995,-74.754709,-82.729991,-51.782398,-69.978732,-77.99571,-84.58062,-51.124092,-69.082502,-75.728282,-80.790812,-47.469765,-63.487698,-69.757418,-74.007884,23.989506,45.65918,62.625275,80.999908,28.802204,38.50359,50.206032,62.704639,18.214188,32.107773,43.287621,53.200436,5.903606,20.337696,31.692581,41.874847,-8.40929,3.694267,14.789658,25.969105,-6.038912,-22.469462,-33.966154,-38.303456,-46.82083,-61.770203,-66.988545,-68.187676,-50.598226,-64.171677,-68.910141,-68.965253,-51.18098,-65.912343,-69.966806,-69.893717,-49.472608,-64.413939,-68.850737,-69.681743,146.888208,-162.326828,-150.845804,-186.496418
80,2.740173,6.372473,-2.147141,5.052172,-21.504364,-43.993492,-61.853714,-76.6119,-25.975227,-34.131317,-41.764297,-51.019363,-14.822044,-25.907936,-36.221008,-47.374306,-2.334595,-12.552338,-24.614983,-36.343002,11.653633,2.577553,-8.604927,-20.836143,-8.156056,-27.232102,-42.065384,-53.241931,-49.574435,-66.409326,-76.114839,-83.546856,-52.300438,-70.104255,-77.624282,-82.968101,-51.131796,-69.153499,-75.004845,-78.974269,-46.700771,-61.739328,-68.020425,-72.396384,22.9426,44.343395,61.815319,79.272823,27.188473,36.674252,48.807106,60.914955,16.26297,30.42057,42.340393,52.661705,3.88195,18.512764,31.300793,42.292557,-9.719353,2.779999,14.017525,24.524918,-5.681223,-22.347721,-34.129638,-40.200475,-46.798723,-62.637457,-67.555306,-68.059344,-49.952208,-65.168606,-68.437596,-66.984994,-49.704327,-65.938834,-69.176424,-68.270237,-46.91381,-61.796046,-65.61253,-66.429225,149.820099,-154.267411,-152.801228,-179.757302
81,-1.244888,8.987248,-3.998852,5.913374,-20.03746,-39.052849,-52.829132,-69.10778,-20.126839,-29.969902,-39.049988,-48.79715,-8.867569,-18.657417,-29.622002,-41.093788,3.103065,-5.843697,-16.22921,-26.380806,16.263771,9.020233,-0.554123,-11.006584,-6.509914,-25.931808,-40.271951,-51.273559,-49.971814,-66.886549,-75.440926,-81.417486,-51.178988,-69.588978,-75.820629,-78.603983,-47.416304,-64.999302,-69.852699,-71.667621,-39.884884,-54.224982,-59.684305,-62.915133,22.661877,44.273586,62.030983,79.474869,27.0401,37.444668,49.482765,61.087303,16.670151,31.459866,42.75547,52.540283,4.726124,19.793129,32.253399,42.648926,-8.415699,4.453697,15.766811,25.37693,-4.496634,-20.376725,-31.529899,-38.114299,-44.792684,-61.107698,-65.406314,-65.232363,-47.945737,-63.933366,-65.422941,-63.153057,-47.709897,-63.928473,-65.360017,-64.151345,-44.568607,-58.566622,-60.11415,-59.727962,148.689337,-145.275023,-156.685953,-173.838787
82,3.90152,6.972316,-0.822144,8.331489,-21.964874,-41.32061,-54.643478,-69.45282,-22.563972,-32.901192,-43.536987,-54.075279,-10.516434,-21.546249,-34.059792,-45.686188,1.625175,-7.897339,-19.081764,-29.973335,14.619827,8.599663,-0.658607,-10.918922,-2.534901,-19.146333,-31.767252,-42.501157,-41.418147,-59.025984,-65.300783,-68.22661,-43.123663,-60.780081,-64.380455,-65.053565,-39.96905,-56.462477,-59.605496,-60.02966,-33.436659,-45.578797,-49.294428,-50.980878,21.492691,43.793507,58.799114,73.774967,23.976345,36.133976,48.38768,60.408897,13.169632,29.109993,41.502972,52.805614,0.949802,16.7803,28.582993,38.498726,-12.122211,0.479107,10.195255,17.858448,-3.196757,-17.496423,-29.130757,-37.711239,-41.985109,-56.681089,-59.343566,-58.211233,-46.221279,-60.932173,-61.132259,-58.017136,-45.80627,-60.57473,-59.4206,-56.129828,-41.891047,-53.517291,-51.100133,-47.649566,152.621498,-139.459245,-157.477455,-166.663837
83,4.374218,29.848011,-0.616379,8.017179,-28.049698,-47.646504,-60.660553,-74.784909,-35.006848,-50.07843,-60.522766,-67.796974,-22.431221,-40.199719,-48.665085,-53.434754,-10.088997,-26.664963,-34.922848,-39.508381,2.543278,-10.420933,-20.89056,-28.955727,-8.965627,-27.117539,-41.172596,-52.482516,-53.325039,-67.96028,-66.631759,-63.598007,-54.626784,-65.875594,-60.344092,-55.726968,-51.334151,-61.718054,-56.623885,-52.033668,-44.517385,-53.422767,-51.602403,-48.845455,22.210236,44.495144,59.59465,74.055748,24.497566,36.978893,48.534222,57.120152,11.831532,26.778717,34.763203,38.875751,-1.455975,13.062515,18.38562,21.027946,-14.416351,-2.790985,7.173958,14.194221,-1.963076,-14.65433,-25.865055,-33.349159,-37.295798,-51.109951,-49.652951,-43.997045,-40.791489,-51.696241,-43.033275,-34.903324,-39.385895,-48.0044,-38.278077,-31.254662,-34.941116,-46.392683,-46.198602,-44.932873,157.231722,-114.08885,-157.857828,-163.124273
84,4.374218,29.848011,-0.916157,14.872093,-34.134521,-53.972397,-66.677628,-80.116997,-47.449722,-67.255669,-77.508545,-81.518669,-34.346008,-58.853188,-63.270378,-61.183319,-21.803169,-45.432587,-50.763931,-49.043427,-9.533272,-29.441528,-41.122513,-46.992531,-15.396354,-35.088745,-50.577941,-62.463876,-65.231931,-76.894577,-67.962735,-58.969405,-66.129906,-70.971107,-56.307731,-46.400371,-62.699253,-66.973632,-53.642274,-44.037677,-55.59811,-61.266736,-53.910379,-46.710034,23.963814,46.589012,59.446449,67.996044,29.18066,42.126503,50.32568,55.150681,16.313038,29.516602,36.963501,39.883919,2.411613,14.043961,19.485397,21.606216,-11.532955,-3.391342,6.163101,13.262959,-1.768516,-13.479822,-26.040828,-37.297913,-37.886116,-49.800055,-42.575442,-34.51652,-40.381913,-50.540088,-37.96369,-28.010898,-37.809129,-45.140091,-33.74288,-25.704026,-32.101415,-42.069398,-37.643175,-33.1146,161.727791,-88.513735,-158.652134,-152.525077
85,0.811501,12.271659,-7.666311,42.105383,-32.542076,-52.481461,-67.855682,-82.870331,-45.165367,-69.334373,-81.357422,-85.554199,-34.003372,-67.532845,-75.520477,-74.424591,-25.810318,-57.84462,-66.224785,-65.158424,-20.015259,-45.735168,-58.643875,-65.029678,-7.594374,-22.286496,-31.736871,-37.363507,-61.139886,-65.19045,-52.014842,-40.302425,-59.74235,-56.396713,-38.216002,-28.950724,-52.076778,-47.687898,-31.125295,-22.7562,-40.434942,-38.186208,-30.350358,-25.611601,29.894228,50.727796,63.219166,71.594553,31.869077,51.044054,58.055963,58.902769,20.078802,42.247238,49.043655,47.949371,8.67917,29.248581,35.390682,34.046545,-2.382145,13.337402,23.885765,28.287792,-12.899437,-29.427769,-43.548923,-54.954162,-56.382611,-68.926019,-57.103894,-47.984925,-57.379263,-67.725737,-53.243907,-42.79732,-53.669831,-62.105639,-49.451837,-39.637968,-46.521232,-56.548395,-50.36464,-43.820184,161.63641,-79.65391,-167.221327,-113.831527
86,-8.528366,28.673557,-7.666312,42.105383,-33.820667,-57.723198,-76.207924,-91.544208,-51.348896,-80.620994,-92.69989,-95.519485,-40.513115,-76.509361,-86.198845,-86.144771,-31.739273,-66.128254,-77.095585,-77.83762,-24.999046,-52.756004,-67.132015,-74.403076,-7.421535,-17.820768,-22.456387,-24.104351,-52.357495,-51.819101,-37.385012,-25.379466,-50.678517,-43.186633,-25.462505,-14.978829,-42.496788,-35.375823,-19.468624,-9.962812,-29.804917,-25.57151,-17.329003,-11.306702,35.824642,54.866581,66.991882,75.193062,34.557495,59.961605,65.786247,62.654858,23.844566,54.977875,61.12381,56.014824,14.946728,44.453201,51.295967,46.486874,6.768665,30.066147,41.608429,43.312626,-24.030358,-45.375716,-61.057017,-72.610411,-74.879105,-88.051981,-71.632346,-61.453331,-74.376611,-84.911386,-68.524123,-57.583741,-69.530532,-79.071186,-65.160795,-53.57191,-60.941049,-71.027393,-63.086104,-54.525768,152.245645,-49.474352,-175.750036,-70.220145
87,-8.528366,28.673556,10.426884,10.46336,-35.099258,-62.964935,-84.560165,-100.218086,-57.532425,-91.907616,-104.042358,-105.484772,-47.022858,-85.485878,-96.877213,-97.864952,-37.668228,-74.411888,-87.966385,-90.516815,-29.982834,-59.77684,-75.620155,-83.776474,-7.248696,-13.355039,-13.175902,-10.845194,-43.575104,-38.447752,-22.755181,-10.456506,-41.614683,-29.976552,-12.709007,-1.006933,-32.916798,-23.063748,-7.811952,2.830577,-19.174892,-12.956811,-4.307647,2.998199,33.27507,53.290672,66.277027,73.603706,37.011623,59.035606,65.344906,66.320286,23.988419,49.756336,57.888393,57.691784,12.402363,39.441376,50.021954,51.267185,2.069206,22.418861,37.446041,45.904713,-15.452361,-35.707454,-51.131904,-64.145834,-65.014168,-71.003526,-55.903204,-44.290082,-64.319445,-66.05386,-51.35297,-39.136516,-57.342266,-60.609882,-47.206523,-35.566107,-46.60776,-51.45986,-45.249343,-38.98498,143.853693,-20.414084,-165.186739,-59.370073
88,-4.137783,29.728949,5.003214,31.320704,-32.546081,-61.288891,-83.063393,-98.280373,-62.408638,-99.11562,-113.056755,-116.810474,-53.889999,-93.716125,-107.965736,-111.593399,-45.289478,-83.300285,-99.020119,-103.693829,-37.192841,-67.300472,-83.44511,-92.485886,-11.891524,-17.946275,-16.651987,-12.53785,-37.905259,-31.682948,-15.642136,-2.614729,-33.50599,-21.472147,-4.37954,8.470782,-24.146835,-13.347861,1.610929,12.702816,-11.151847,-2.906978,6.464404,14.135904,35.132246,57.930651,73.180876,78.758984,40.814238,68.288326,73.938074,72.080669,27.628441,59.631443,65.955391,62.183962,16.638966,49.280863,57.109251,53.809862,7.600994,32.368155,43.807497,46.492538,-15.019907,-34.273825,-48.262238,-59.851339,-65.166954,-71.086626,-53.563604,-41.629596,-63.244679,-64.440383,-46.817248,-35.182575,-54.966311,-56.981937,-42.103345,-31.264789,-42.545725,-46.315773,-38.377989,-31.588361,139.55452,11.330876,-160.344915,-26.033357
89,-4.137783,29.728948,5.003214,31.320705,-29.992905,-59.612846,-81.56662,-96.342659,-67.284851,-106.323624,-122.071152,-128.136177,-60.757141,-101.946373,-119.05426,-125.321846,-52.910728,-92.188683,-110.073853,-116.870842,-44.402847,-74.824104,-91.270065,-101.195297,-16.534352,-22.537511,-20.128072,-14.230506,-32.235413,-24.918144,-8.52909,5.227049,-25.397296,-12.967741,3.949927,17.948498,-15.376871,-3.631974,11.033811,22.575055,-3.128801,7.142855,17.236454,25.27361,36.989422,62.570629,80.084724,83.914261,44.616852,77.541046,82.531242,77.841053,31.268463,69.50655,74.022388,66.67614,20.875568,59.12035,64.196548,56.352539,13.132782,42.317448,50.168953,47.080364,-14.587454,-32.840197,-45.392573,-55.556846,-65.31974,-71.169727,-51.224005,-38.96911,-62.169913,-62.826907,-42.281526,-31.228634,-52.590356,-53.353992,-37.000168,-26.963472,-38.48369,-41.171686,-31.506635,-24.191743,135.433273,40.522967,-155.325165,4.75049
90,0.950661,24.638445,11.168575,6.141542,-25.293961,-56.071358,-80.815544,-95.728683,-71.655006,-106.545982,-126.495667,-142.124748,-68.041306,-106.211128,-127.998276,-143.066711,-61.611557,-98.522873,-120.339775,-135.80555,-53.94413,-84.318695,-102.581406,-118.195839,-18.157709,-27.291644,-27.933262,-26.063892,-32.880304,-19.66306,-6.324446,5.195927,-23.536139,-8.215151,7.297571,21.456817,-10.502016,3.094066,17.811196,30.781129,3.316707,14.142388,25.923039,37.087328,26.944942,46.534367,61.816578,72.509766,32.238121,60.207253,72.760277,77.486801,24.853249,57.441673,73.25964,77.131004,21.550369,53.753815,72.10762,78.638191,20.69561,44.259853,63.261051,75.283127,-20.636957,-32.359686,-36.180894,-34.118461,-49.922738,-57.262948,-43.620954,-30.425323,-41.687487,-50.967185,-34.786137,-19.329948,-28.020886,-36.879662,-25.634449,-15.797083,-11.68253,-20.156137,-16.272283,-11.604323,134.577856,59.584871,-145.962667,5.315491
91,-3.242455,30.71308,3.621254,43.443051,-24.779091,-55.10582,-78.180313,-93.986435,-77.090378,-106.669922,-125.551186,-140.176735,-74.121208,-106.357498,-127.118111,-143.683891,-67.806587,-99.095078,-119.610214,-134.803276,-59.767914,-84.021378,-100.839729,-116.136131,-19.108974,-29.647546,-33.234627,-35.331301,-28.209842,-14.89071,-2.48919,8.445017,-20.139063,-6.181679,7.516198,20.536983,-10.431003,1.110612,14.088665,26.019277,-1.753341,6.392156,16.166567,26.453321,28.128948,55.465565,78.771114,91.983204,39.780121,77.806034,89.502354,91.086845,29.996967,74.067535,89.234161,92.494469,24.007359,64.409523,84.146919,92.660637,21.324863,50.868587,68.560696,80.185947,-20.212762,-31.023561,-29.726803,-24.487002,-52.27441,-51.54418,-35.37678,-23.948909,-43.121332,-39.182365,-22.293041,-11.253982,-28.007393,-24.788869,-11.898224,-3.936743,-9.645569,-8.050092,-0.928942,3.700702,132.251959,88.874728,-141.424856,47.335319
92,-32.517357,40.725601,9.428873,27.908593,-28.43605,-58.416023,-80.586891,-95.72113,-77.846947,-113.582153,-123.088417,-123.468418,-74.147987,-111.276226,-120.421371,-119.877892,-65.465469,-100.212708,-110.223198,-111.149254,-53.716164,-81.777649,-92.731133,-96.940041,-20.341512,-23.650223,-19.831793,-13.024737,-12.665627,5.364691,16.814328,21.993088,1.69437,22.934844,32.220377,34.861072,15.634587,32.721049,39.285674,40.267197,27.657145,40.626769,46.437113,47.394738,25.736447,52.307911,74.367857,87.911711,49.54545,87.102156,99.382811,101.057139,41.587143,82.582655,97.48684,101.055708,34.618378,72.969446,89.767943,96.670876,28.97069,57.129307,72.029286,81.299229,-23.272078,-34.325387,-33.088881,-28.181792,-42.767625,-37.114653,-23.599556,-14.422256,-31.390791,-23.033814,-9.646402,-1.135405,-16.123264,-8.519735,1.756105,7.503771,1.243082,5.926836,10.91119,13.30956,101.277494,129.840847,-130.453091,75.484429
93,5.006447,21.892374,9.428873,27.908593,-32.623215,-62.606277,-85.722198,-102.698593,-77.241096,-109.533806,-126.273422,-137.431183,-73.138847,-108.681793,-126.659546,-137.158527,-65.728455,-98.440475,-116.455421,-127.937336,-55.970192,-80.12867,-95.215645,-107.369041,-20.936045,-24.286993,-20.618216,-15.501515,-9.308195,7.591349,18.714512,28.0923,6.018566,23.171101,35.151731,43.912385,20.324592,34.387569,45.315355,53.148147,32.147758,43.404118,51.4066,56.538924,23.343945,49.150257,69.9646,83.840218,59.31078,96.398277,109.263268,111.027431,53.177319,91.097775,105.739517,109.616947,45.229397,81.529369,95.388966,100.681114,36.616516,63.390026,75.497875,82.41251,-26.331395,-37.627212,-36.450959,-31.876582,-33.260841,-22.685125,-11.822333,-4.895604,-19.660251,-6.885264,3.000236,8.983172,-4.239135,7.749399,15.410433,18.944285,12.131733,19.903763,22.751322,22.918418,107.168112,151.705556,-120.140047,103.365358
94,0.990028,21.904168,0.230713,21.327728,-36.05381,-67.847328,-90.229797,-103.480568,-78.537712,-106.092567,-123.323307,-137.291451,-72.584381,-103.384209,-123.55917,-139.922276,-65.924606,-96.174088,-115.149536,-130.510025,-58.252029,-81.248703,-95.903091,-110.549927,-21.425046,-25.044609,-22.244166,-18.487765,-6.501701,9.113126,21.792955,31.632637,9.411257,26.239726,40.739587,51.978533,23.551607,38.149775,51.105752,60.68003,34.324522,47.136992,59.225499,68.798604,25.679226,53.04966,76.222286,92.670879,51.996689,86.149864,103.44841,116.319466,44.767227,82.154102,103.947601,119.871941,37.533016,73.717575,94.625587,111.770096,30.05024,58.67466,74.492798,88.519878,-19.234142,-30.622647,-34.66875,-35.083898,-32.533884,-25.316372,-13.818692,-3.482229,-18.82838,-8.201535,4.226692,12.5927,-2.4137,7.81964,16.877314,22.024519,15.68584,22.209771,28.039318,31.769228,108.189411,173.738752,-119.878063,124.822113
95,-20.796089,32.998185,19.76778,29.974082,-37.390022,-67.823524,-87.076492,-97.293034,-75.693398,-113.552628,-122.893238,-121.346798,-71.160164,-112.842121,-124.36306,-121.952362,-63.925095,-102.752666,-114.138222,-115.310612,-53.666153,-81.699371,-93.851852,-99.985428,-13.215267,-9.837026,-3.346872,4.792758,7.569118,28.712336,35.603806,36.090708,20.686944,44.752932,50.266503,50.126885,31.639676,51.183311,58.019761,60.132613,39.078069,54.596071,61.705087,66.056639,23.645325,53.029861,75.848408,86.683044,55.906849,96.825428,106.783504,106.239567,48.661938,93.730831,106.574421,107.895412,40.750408,84.113102,95.99802,98.553715,33.965607,68.335991,79.832439,84.646339,-18.59836,-24.376778,-22.500368,-21.730402,-18.132082,0.60571,12.106724,17.377554,-3.403868,15.739501,26.234169,31.98554,12.699404,27.974851,34.425731,37.933649,29.485266,36.569644,37.84374,37.901909,87.546873,206.727643,-99.956732,154.786902
96,6.010551,13.692598,-2.625961,15.059135,-38.878555,-69.264107,-91.686058,-105.875931,-74.163437,-103.827381,-119.825363,-131.475048,-69.857826,-102.218742,-121.891766,-137.030983,-62.802429,-92.879105,-112.876682,-130.008316,-53.844223,-75.623817,-90.948601,-106.024704,-16.147486,-20.18059,-18.568349,-15.503738,8.358412,20.490083,26.107951,30.234298,24.873807,40.791272,50.403836,57.190268,38.719855,53.5063,61.753067,67.193649,49.111523,62.965845,71.987951,77.80768,31.268234,61.87809,84.649487,99.138165,62.432327,91.553936,108.062611,122.177982,51.264954,82.930927,104.491253,124.717197,39.310913,70.592365,91.600227,110.53854,27.117004,51.506138,67.388706,81.863594,-14.898028,-17.387866,-16.125811,-14.830843,-11.281306,5.741677,20.860339,34.891268,1.420568,18.255089,33.132678,46.914011,15.751604,32.199258,44.473635,54.682707,31.003338,42.143421,49.343396,56.361021,93.879461,220.459345,-102.260656,169.88514
97,-75.474129,26.668274,0.358601,20.114332,-3.442841,-18.227806,-36.171284,-48.907642,-18.620453,-30.539989,-35.2668,-35.15213,-24.518852,-39.815998,-43.553925,-40.618572,-30.420284,-43.387985,-43.315544,-40.129509,-35.470562,-45.715313,-44.502411,-41.436825,36.28022,58.050513,67.373837,71.977947,38.697378,47.194296,47.167249,43.095798,13.070524,20.659156,24.840647,23.491586,-10.337451,-5.640406,-2.744065,-4.687659,-31.098866,-32.020553,-27.705681,-25.678971,32.379799,61.02602,80.627174,98.801422,65.909843,91.017723,107.485886,120.963707,55.575771,82.243309,100.629158,117.475433,43.601589,67.78307,85.248127,99.469872,30.216923,47.991943,60.00555,71.05608,-12.031203,-10.736544,-7.39949,-7.856258,0.666349,17.613935,31.020628,43.396214,9.571746,29.191396,42.939075,55.795696,18.554393,36.103675,47.817975,57.607515,25.795679,38.409559,45.368089,50.349433,18.756323,246.923271,-101.551065,189.795125
98,24.668942,13.721374,9.884892,31.433924,-11.660614,-32.339917,-54.243422,-70.904274,-45.399743,-71.872845,-73.154412,-68.031464,-48.408451,-75.843516,-72.403622,-63.617592,-49.685927,-72.656765,-68.176117,-60.265904,-49.234915,-68.577547,-64.835272,-58.05625,34.413196,54.059429,64.177142,71.688956,44.968287,48.085417,46.950351,43.757886,24.419015,21.116573,20.242495,17.194186,2.924191,-2.999433,-5.571956,-9.206492,-17.670837,-24.816317,-25.236035,-25.817723,32.430439,63.703022,86.287937,98.534489,73.705788,111.366863,120.129032,118.58511,64.634571,105.833187,112.140484,107.006664,52.818604,92.720547,99.196873,95.309887,39.762783,72.983036,83.636856,83.69276,-15.189737,-13.50605,-7.908561,-1.300031,10.10916,41.791691,54.103858,58.880747,28.05315,63.198583,76.050696,80.125976,43.70478,75.0186,85.59274,89.555511,56.251908,78.847249,86.784894,89.588856,43.478451,259.676337,-91.612988,220.26074
99,24.668941,13.721374,-9.406357,12.735714,-19.878387,-46.452026,-72.315559,-92.900906,-72.179031,-113.2057,-111.042023,-100.910797,-72.29805,-111.871033,-101.253319,-86.616611,-68.951569,-101.925545,-93.03669,-80.402298,-62.999268,-91.439781,-85.168133,-74.675674,32.546172,50.068346,60.980446,71.399964,51.239195,48.976537,46.733453,44.419974,35.767506,21.573988,15.644343,10.896786,16.185833,-0.358461,-8.399847,-13.725326,-4.242809,-17.612082,-22.766389,-25.956477,39.779434,72.197399,96.935863,113.926907,76.004848,107.79665,122.129803,130.905132,64.929314,99.021893,116.33337,127.398205,52.796288,85.639801,104.195652,115.376186,40.421677,68.046169,83.112774,94.010754,-11.866885,-10.188386,-4.042738,-2.551342,13.919222,38.164657,48.372,55.48997,30.107278,54.984111,65.406716,71.731625,44.238798,65.789383,74.691261,78.43562,54.980406,71.473694,77.877705,80.810912,67.689257,273.241837,-101.47748,232.84058
100,10.690041,2.16639,0.343494,13.231137,-28.136673,-60.480652,-90.045605,-111.579266,-70.018501,-112.972412,-125.677414,-127.743816,-68.950539,-114.804382,-120.827923,-116.005611,-65.775948,-106.032429,-107.341805,-99.729767,-62.11132,-96.124935,-97.500229,-90.79977,31.083181,50.21877,61.901145,74.435182,58.501538,54.535494,41.617122,34.314766,46.032462,26.030083,7.0887,-4.099486,27.588232,2.624948,-15.700722,-24.639773,6.946057,-10.605016,-21.676494,-26.746512,39.419231,71.178417,95.474281,114.855881,73.977985,103.150978,118.91819,130.093575,62.616463,94.612312,113.156204,126.305351,51.140957,80.51033,99.306908,112.737694,39.533272,63.561344,76.979942,88.242874,-9.540315,-7.809142,-2.994216,-3.921336,15.766486,37.274833,48.936831,58.854256,30.69261,53.822771,66.279187,75.300737,43.709165,66.243187,77.740928,85.010187,53.642892,73.133668,81.41903,86.131512,77.988567,275.236869,-101.524715,245.90036
101,3.920975,4.650177,4.538383,10.94736,-35.141144,-65.121002,-91.174221,-113.008919,-68.106995,-107.22662,-123.800297,-130.348206,-64.482079,-108.829651,-122.420597,-125.293407,-60.376282,-105.052414,-115.917721,-116.974583,-57.400818,-93.116627,-103.016167,-105.472584,24.6005,43.740719,52.910779,63.702775,59.433104,48.805303,34.790676,27.337957,51.458347,33.638969,15.77791,4.321417,36.275341,17.416827,0.638438,-8.154759,16.208248,4.170993,-3.152482,-6.094272,37.576103,68.113461,91.712036,110.957108,68.42989,98.065567,114.316406,125.725136,56.363983,89.047623,107.750702,120.672112,44.795723,73.735886,91.971817,104.620056,33.60054,55.914745,68.67382,79.103737,-9.273121,-6.761917,-0.384026,0.17815,18.17611,40.160801,52.815868,63.336348,33.564745,57.459438,71.171919,81.357835,46.233707,68.807558,79.858967,86.439462,55.142809,75.07294,82.596734,86.367769,81.439619,279.795223,-97.456255,256.755897
102,-36.54911,6.589201,4.286442,10.306391,-20.359726,-44.476662,-65.510731,-86.764755,-75.06546,-76.076546,-54.216785,-36.139297,-75.724239,-70.600719,-47.529488,-25.760422,-71.008358,-63.40416,-39.236641,-18.662453,-63.127213,-69.444122,-61.636562,-50.076599,32.427488,52.252581,65.707502,74.99779,39.202743,52.584057,59.604832,65.643528,28.258162,42.328796,52.337735,58.411073,16.244125,30.576581,40.641404,49.398354,5.355613,17.665928,26.637584,36.926005,34.315968,64.786663,89.782162,109.554119,63.683338,94.386349,111.441822,124.310932,52.237301,87.30875,107.567883,121.953678,42.253361,73.417454,92.580929,106.662426,33.263168,57.768631,72.349377,84.185944,-8.996047,-6.525228,-0.336663,0.542416,20.755301,40.046871,52.183544,62.922805,37.274278,58.062307,69.810755,79.11259,49.461524,69.942469,79.796785,86.191843,56.822482,74.24746,81.316586,85.770581,44.662714,286.354244,-93.397608,267.032108
103,6.434669,7.879229,4.628735,9.17994,-16.605263,-42.388573,-62.627106,-79.01659,-67.305222,-72.069855,-57.460327,-43.760147,-64.190598,-64.761486,-45.705872,-25.280228,-57.740707,-55.811462,-36.445312,-17.846489,-48.807564,-52.28096,-44.026909,-33.570442,32.204569,48.699339,59.253102,70.554909,34.120993,48.750407,57.336678,64.038512,21.942824,38.594069,53.165746,62.967327,9.725443,24.469033,40.228788,50.967185,-2.310886,9.867531,21.189345,31.095964,33.182602,62.4333,86.989174,106.632385,63.033428,93.519974,110.585403,122.834244,51.488514,86.437912,106.658478,120.477676,40.970192,71.870041,90.585136,104.249954,31.707516,56.025524,70.631275,82.635727,-10.828367,-9.524507,-2.48459,0.94367,19.423777,38.725351,49.208039,58.223043,35.667408,56.943266,67.919155,76.05755,47.498911,68.031108,77.551293,83.180892,55.25538,72.216181,78.719055,82.491881,50.620422,294.246163,-89.245834,276.224737
104,-1.007652,5.114354,5.744133,4.478387,-14.362221,-38.413696,-58.137016,-74.39621,-64.798107,-66.010151,-50.440865,-35.324135,-62.99572,-59.862328,-40.850258,-19.874039,-57.838211,-51.812782,-32.286186,-13.329391,-50.195847,-48.592758,-36.040535,-22.733574,31.824804,48.901695,58.454792,70.200215,34.925601,51.538438,60.660394,65.314708,22.980539,40.585273,53.51618,60.647364,10.929576,27.485664,40.367294,48.260911,-0.548282,13.202485,23.270828,31.490549,32.253971,60.560303,84.292145,103.75946,60.999699,91.557999,108.138084,119.721336,50.135193,85.172997,105.698318,119.765511,39.645481,71.380291,90.327187,104.100037,29.884243,54.579678,69.679012,82.437515,-10.773286,-9.555938,-1.797493,1.44922,19.278787,39.407754,49.61096,57.865323,35.55811,56.485263,67.22613,74.75863,47.289207,67.693395,77.297745,82.962049,55.114898,72.683137,79.247947,82.798966,49.122534,299.377823,-83.991938,280.72043
105,-3.420753,3.064055,4.860592,4.181429,-13.301353,-35.113564,-53.399162,-69.722786,-61.510677,-57.419872,-39.758606,-24.057655,-58.721294,-49.06826,-28.611145,-8.084679,-51.943016,-40.786171,-20.823441,-2.959671,-43.041229,-37.793655,-26.727448,-16.145325,32.360489,49.67623,58.159132,70.151432,38.631922,54.48702,61.344835,65.014909,24.788283,39.845071,50.290524,55.723881,10.391915,24.980326,37.081184,44.239971,-3.810741,7.647048,17.536067,25.754862,30.291653,57.851543,80.668888,99.321957,60.164337,91.726398,108.174534,119.038639,49.726696,85.336819,105.796452,120.000858,39.012508,70.777874,89.731007,103.916187,28.549747,52.780437,67.317009,79.365406,-11.969021,-10.026785,-2.104454,-0.885748,19.779583,37.931858,46.596737,53.852658,35.998946,55.77748,65.276484,72.074031,47.05474,66.583246,75.38126,80.925767,53.969922,70.510325,75.804806,78.344353,45.174751,302.40685,-79.658375,284.866831
106,-6.139412,-0.562608,2.222614,6.158924,-9.904289,-25.599861,-39.70562,-52.134533,-56.770477,-45.108032,-26.967201,-13.584023,-54.641476,-38.940353,-18.714752,-0.074158,-48.063812,-32.23629,-11.622849,5.598679,-39.153442,-31.682167,-23.288498,-15.161133,28.781188,44.94973,55.541717,68.179865,37.918211,53.753363,58.784107,62.594911,28.06161,42.398574,50.652134,55.930127,17.682169,31.195567,40.592189,47.802538,7.235852,17.782019,25.856997,34.178791,30.607567,58.028355,81.406746,101.376686,59.950905,92.387123,108.805847,119.458008,49.76738,85.747604,105.267792,118.446579,39.379234,71.753883,89.878006,102.610703,29.576569,53.888512,68.433037,80.369568,-12.323344,-10.94699,-3.022868,0.168887,18.469919,36.227361,44.315492,50.442924,35.070899,53.58781,61.842852,66.530758,46.428776,64.845651,72.189196,75.436588,53.275662,69.285938,73.722026,74.608515,38.643179,301.806898,-77.827921,290.988412
107,-23.379135,3.384725,1.471767,2.169045,-1.835289,-7.255325,-19.684868,-34.026089,-30.638523,-10.230904,7.540398,16.133995,-39.613609,-15.855904,-0.208511,11.736603,-44.73547,-29.45715,-13.971977,-5.055084,-46.633129,-59.291668,-66.357937,-72.800446,-14.803612,-15.952848,-6.357514,3.254555,14.750321,32.919453,38.056717,41.660286,28.391172,40.981772,45.520366,46.67337,36.976764,49.710378,49.516914,48.963878,45.186852,55.190789,61.075727,67.481159,30.233917,57.016296,79.274998,98.273106,58.813305,91.390629,107.636318,117.917576,48.561401,85.032406,104.527531,117.853832,37.793484,70.69273,88.879337,101.117077,27.565613,51.810322,66.269932,77.40469,-12.425109,-10.332264,-1.494422,2.477118,17.579601,35.346986,43.436784,49.237494,34.608821,52.880768,60.837185,65.188304,46.340103,64.843552,71.533839,73.658053,53.39132,69.750487,74.0393,74.057825,15.161276,305.104201,-76.458921,293.070033
108,-11.255035,5.321589,0.459309,-0.520618,-6.001053,-10.526047,-15.06443,-26.356831,-23.880157,0.780945,21.161499,34.977837,-29.922867,-2.288818,21.837959,38.713417,-32.137356,-14.625721,7.697983,24.123802,-31.486473,-42.086163,-46.987553,-50.840092,-2.416664,7.990565,26.262574,42.902272,13.092508,26.524148,35.021376,42.393572,24.317003,34.110619,41.393771,45.760946,33.149474,43.10753,47.362504,50.464907,41.287622,50.01172,54.490663,58.578973,29.299393,55.263004,76.906929,95.321846,57.630329,90.13607,106.278534,116.88858,46.873798,83.297424,102.541695,115.897751,35.230808,67.99118,86.445007,98.848572,23.970852,48.19931,63.128643,73.89576,-12.337547,-9.877966,0.261081,5.941378,19.430446,36.397422,43.940543,49.36013,36.291026,53.536249,61.33372,65.842859,47.230976,65.189231,72.023334,74.159343,53.254605,69.303846,73.906598,73.931792,3.888016,310.284396,-76.017838,292.408023
