takenoko1/special-research/HandMotion_SimilarSearch_自分用/NewProject/handData/key/d4_feature_d2/45.csv
,vel_0x_L,vel_0y_L,vel_0x_R,vel_0y_R,posFromWrist_1x_L,posFromWrist_2x_L,posFromWrist_3x_L,posFromWrist_4x_L,posFromWrist_5x_L,posFromWrist_6x_L,posFromWrist_7x_L,posFromWrist_8x_L,posFromWrist_9x_L,posFromWrist_10x_L,posFromWrist_11x_L,posFromWrist_12x_L,posFromWrist_13x_L,posFromWrist_14x_L,posFromWrist_15x_L,posFromWrist_16x_L,posFromWrist_17x_L,posFromWrist_18x_L,posFromWrist_19x_L,posFromWrist_20x_L,posFromWrist_1y_L,posFromWrist_2y_L,posFromWrist_3y_L,posFromWrist_4y_L,posFromWrist_5y_L,posFromWrist_6y_L,posFromWrist_7y_L,posFromWrist_8y_L,posFromWrist_9y_L,posFromWrist_10y_L,posFromWrist_11y_L,posFromWrist_12y_L,posFromWrist_13y_L,posFromWrist_14y_L,posFromWrist_15y_L,posFromWrist_16y_L,posFromWrist_17y_L,posFromWrist_18y_L,posFromWrist_19y_L,posFromWrist_20y_L,posFromWrist_1x_R,posFromWrist_2x_R,posFromWrist_3x_R,posFromWrist_4x_R,posFromWrist_5x_R,posFromWrist_6x_R,posFromWrist_7x_R,posFromWrist_8x_R,posFromWrist_9x_R,posFromWrist_10x_R,posFromWrist_11x_R,posFromWrist_12x_R,posFromWrist_13x_R,posFromWrist_14x_R,posFromWrist_15x_R,posFromWrist_16x_R,posFromWrist_17x_R,posFromWrist_18x_R,posFromWrist_19x_R,posFromWrist_20x_R,posFromWrist_1y_R,posFromWrist_2y_R,posFromWrist_3y_R,posFromWrist_4y_R,posFromWrist_5y_R,posFromWrist_6y_R,posFromWrist_7y_R,posFromWrist_8y_R,posFromWrist_9y_R,posFromWrist_10y_R,posFromWrist_11y_R,posFromWrist_12y_R,posFromWrist_13y_R,posFromWrist_14y_R,posFromWrist_15y_R,posFromWrist_16y_R,posFromWrist_17y_R,posFromWrist_18y_R,posFromWrist_19y_R,posFromWrist_20y_R,posFromBody_0x_L,posFromBody_0y_L,posFromBody_0x_R,posFromBody_0y_R
2,-21.813583,28.922102,1.668606,0.089106,-0.274429,-2.768326,-3.764763,-6.789322,-24.680214,-2.219582,15.267334,25.303574,-29.722767,-3.817863,16.64772,31.837921,-30.845089,-13.294373,2.958412,15.907288,-28.992462,-30.962734,-31.345711,-30.323696,-12.393369,-13.120975,-4.745766,2.77704,2.154657,11.392766,14.108549,17.818452,14.762918,20.009233,22.073302,25.299329,23.226121,27.674312,28.070502,30.372249,29.543497,36.133377,38.206462,42.162811,24.257011,48.181057,68.033352,81.756763,45.311794,78.072453,96.032009,108.949299,34.833755,70.603352,90.462856,102.954197,25.313015,58.808384,78.114223,90.897503,17.614288,43.280125,59.368687,72.330723,-13.024088,-10.86659,0.405268,12.3775,14.194073,29.989582,36.096883,39.63092,30.975736,46.218825,51.157129,53.202673,42.933147,59.825899,63.901611,63.866907,50.080387,66.980795,70.273883,69.083644,5.038433,321.805572,-66.028748,296.955354
3,20.581398,-26.104801,0.483685,-0.047733,-15.695686,-35.821152,-55.995998,-75.369644,-58.780403,-44.802589,-18.232727,-1.616936,-59.527473,-37.863007,-11.297836,9.679298,-57.018757,-39.056168,-13.142853,5.300789,-52.34705,-63.11142,-68.113861,-70.122128,26.878411,42.963281,58.16753,69.330584,29.630565,51.379183,56.336506,56.792657,27.489801,49.066322,53.882113,50.55852,25.194909,45.606878,49.183277,48.366257,23.462069,39.790669,51.519912,63.096941,23.934975,47.69165,67.23999,80.442924,45.327816,77.326584,94.963188,107.562332,34.864254,70.17952,89.736786,102.118149,25.073376,58.353767,77.376709,89.947128,16.900063,42.389374,58.027267,70.410004,-13.278253,-11.39326,0.12665,12.435113,13.944663,29.808282,35.892921,39.237076,30.586832,45.880433,50.779216,52.669149,42.56987,59.365426,63.504741,63.725375,49.836411,66.532364,69.649586,68.325966,25.737219,295.889156,-65.427675,297.096006
4,-19.753647,28.104403,-0.002918,0.130479,-0.612259,-2.93026,-3.858833,-5.156937,-25.274906,-3.913879,13.828125,24.726791,-30.245075,-5.559196,15.224876,31.421814,-31.117687,-13.944511,3.110847,16.83918,-29.179001,-29.989643,-29.055977,-26.639671,-13.606827,-15.079142,-6.195604,2.631123,1.202651,9.465968,11.58765,14.519868,14.674924,18.982756,21.317662,24.474467,24.086489,27.853573,28.08489,29.352873,30.793016,37.487749,38.581225,40.244596,23.766575,47.738628,67.259274,80.221767,44.733639,76.743565,94.532719,107.36063,34.222412,69.509296,89.527302,102.341137,24.474335,57.608128,77.030125,89.997654,16.366253,41.607342,57.335873,69.895763,-13.309684,-11.163054,0.501352,12.834144,14.058593,30.092705,36.239032,39.536072,30.619251,46.444831,51.40623,53.237438,42.366464,59.685787,63.596317,63.421193,49.355499,66.276902,69.500644,68.010916,6.004601,324.093286,-65.409565,297.326211
5,20.073853,-29.491935,0.220985,0.684318,-16.972847,-37.227859,-56.76939,-76.545753,-61.648693,-50.714149,-23.441391,-4.10099,-62.303925,-41.838112,-12.512627,10.792923,-58.295918,-38.813896,-9.992409,10.332527,-51.304607,-54.44664,-48.807907,-41.64402,33.274889,51.540969,64.469344,73.528994,38.134646,58.389893,63.610581,65.175028,29.431852,51.466745,57.686556,56.978896,20.2014,42.258339,48.309447,50.687702,12.490071,30.688967,41.438355,51.815759,23.583298,47.841454,67.519627,79.876614,44.532394,76.955738,94.572773,107.241497,34.148827,69.781666,89.722881,102.379017,24.718552,58.242016,77.557697,90.283756,17.111835,42.753811,58.64336,71.348019,-13.604727,-12.023793,-0.613984,11.966427,13.099979,28.765874,35.04941,38.742455,29.998165,45.505978,50.230626,51.857564,42.15997,59.308801,63.161718,62.75577,49.560078,66.413,69.622602,68.044508,26.109781,294.653793,-65.157251,298.062971
6,-18.311806,24.346211,0.258751,0.366612,-0.512352,-3.498802,-4.893608,-7.545776,-28.733425,-7.914505,10.996056,22.957077,-34.039307,-12.053032,10.281601,27.901154,-35.204716,-21.730328,-2.177582,13.585625,-33.385735,-42.223091,-47.017021,-50.315723,-9.870062,-9.500363,0.711426,8.430351,4.3568,14.822631,18.545131,22.391811,16.725037,23.206731,25.971976,29.807418,25.281607,31.453437,32.420757,35.0688,31.914651,39.977464,45.641767,52.597334,23.573799,47.288876,66.558781,80.166149,44.375553,76.484928,94.147854,106.805019,33.946724,69.485149,89.496403,102.247982,24.389191,57.708378,77.015934,89.775066,16.507702,41.784153,57.616711,70.270214,-13.486599,-11.854412,-0.75317,10.761924,12.5793,28.78372,35.284371,39.028175,29.475139,45.127448,50.182028,52.127475,41.697151,58.854626,62.811099,62.718905,49.176299,66.133147,69.282727,67.580145,7.79789,319.002891,-64.898586,298.43247
7,12.485962,-25.984326,0.449924,-0.317459,-15.377884,-34.404888,-52.484436,-72.431431,-58.231487,-44.68214,-18.606033,-0.082626,-58.954754,-35.130787,-6.894722,15.545769,-54.242878,-31.056976,-2.778168,16.963577,-46.068134,-43.593063,-32.843056,-21.121216,36.933786,57.344952,69.023437,76.617379,44.374217,64.421982,68.739818,69.809767,31.378287,53.60084,59.700792,59.597793,17.810795,40.297269,47.210598,50.648429,5.632626,23.503257,33.6323,43.469573,23.117695,46.591072,65.673409,79.243698,44.415894,76.170731,93.830795,106.594734,34.104652,69.155273,89.040298,101.858368,24.374886,57.093544,76.352348,89.155655,16.208382,41.077766,56.737862,69.362068,-13.45103,-11.544116,-0.307147,11.439017,12.819694,28.945753,35.593987,39.239361,29.443276,45.414587,50.662755,52.566705,41.483927,59.116633,63.384204,63.375436,48.908488,66.369713,69.866392,68.405995,20.281792,293.004732,-64.450722,298.101179
8,-26.124802,24.001212,-0.034962,0.110842,3.048477,7.407303,15.37468,21.324463,-16.640625,9.743614,29.802246,42.188072,-24.121342,5.368652,28.543625,45.603905,-26.907806,-6.824799,13.221016,28.390617,-25.782509,-30.834503,-34.78632,-38.34692,-16.733744,-19.838555,-9.108927,0.823936,-0.578231,12.724475,18.866603,23.245634,16.051402,25.556026,28.352949,29.445993,27.99844,34.762394,36.114667,36.388839,37.322752,43.918622,48.513902,52.673966,23.152485,46.641426,65.691662,79.449635,44.53022,76.454945,94.164448,106.751118,34.140587,69.270687,89.185123,101.977787,24.388275,57.116146,76.375294,89.165096,16.237621,41.159649,56.813679,69.316463,-13.73181,-11.61235,-0.350619,10.992623,12.65093,28.936367,35.48438,38.964139,29.272289,45.208032,50.352274,52.149149,41.31788,58.873954,63.056371,62.917804,48.721446,66.181313,69.629394,68.034751,-5.845957,316.993563,-64.48863,298.19964
9,15.101852,-26.007174,-0.586281,0.246322,-11.001778,-25.221004,-39.172211,-55.950794,-44.792061,-27.234364,-1.402931,16.291008,-47.984276,-20.176048,7.524948,29.457779,-46.915913,-21.165276,6.449203,25.36377,-42.955112,-41.80069,-35.83746,-29.084187,32.230195,52.065107,66.694212,75.354028,42.515097,63.211982,67.543774,67.83715,33.885847,55.111934,60.593271,58.605402,24.518989,46.166399,52.013237,53.747682,16.176138,35.193598,46.443843,56.508481,23.430634,47.142963,66.504078,80.158596,44.507103,76.596737,94.268703,106.890278,34.075928,69.412365,89.480152,102.459583,24.408531,57.24638,76.576824,89.456463,16.358643,41.229115,56.925488,69.46764,-13.736009,-11.799948,-0.637635,10.867702,12.438138,28.818732,35.414047,39.085726,29.118469,44.948619,50.323869,52.451911,41.072422,58.545998,62.741938,62.725451,48.322167,65.58715,68.965021,67.414654,9.240303,290.973375,-65.090504,298.432949
10,-2.073784,-0.763976,-0.078907,0.112756,-11.274147,-24.864979,-37.138882,-53.534203,-44.016323,-25.325146,-0.61203,15.58033,-46.597195,-16.95797,10.175171,30.829926,-44.524212,-16.497116,11.088181,29.424934,-39.251575,-30.600643,-17.185478,-4.830894,33.756418,54.912604,68.931491,76.857218,44.834628,65.654026,70.149456,70.234919,34.47365,56.539789,62.823819,61.415293,23.208769,45.90044,52.413194,54.185493,12.761587,32.02753,41.06847,48.192183,23.322086,47.129059,66.592484,79.673195,44.31982,76.687317,94.377022,107.039108,34.066029,69.427185,89.594193,102.743912,24.568863,57.406082,76.789284,89.749031,16.713867,41.598587,57.481842,70.405998,-13.809121,-12.136982,-1.002209,10.915867,12.163287,28.631011,35.133144,38.796055,28.879186,44.535015,50.017587,52.351629,40.92206,58.280039,62.552426,62.485921,48.343533,65.562388,68.959032,67.261451,7.163887,290.127441,-65.172043,298.463747
11,4.261322,0.448061,0.3582,0.129676,-13.060341,-28.658295,-42.863731,-61.197166,-49.661064,-34.958897,-9.97776,8.0793,-50.320702,-25.35244,1.95488,24.002953,-45.940247,-20.829391,7.022324,26.598701,-38.636513,-28.679867,-13.081856,1.96106,38.436729,60.533991,72.899449,79.675754,48.375643,67.727667,72.445954,73.770068,33.513678,54.927794,62.210206,63.397419,17.974619,39.902066,47.827176,52.021264,3.494024,21.069364,30.814505,39.772329,23.24152,46.915569,66.404686,79.671478,43.569202,76.211357,94.08371,106.895142,33.316784,69.032707,89.412575,102.514458,24.001122,57.055321,76.520348,89.307976,16.414661,41.20657,57.198601,70.190048,-13.807516,-12.269004,-1.163193,10.506956,11.802788,28.174428,34.848907,38.767835,28.779459,44.372241,49.941695,52.384171,41.096381,58.301713,62.496974,62.466161,48.742935,65.802042,69.151508,67.378098,11.377201,290.504474,-64.861851,298.522394
12,-30.253658,16.453953,0.351276,-0.010683,5.48418,15.058765,27.926731,36.945133,-6.084995,22.890186,43.867207,55.867023,-14.511967,17.072353,40.986156,58.035336,-19.068317,5.594559,25.326748,39.793797,-19.422226,-14.177914,-10.206928,-6.788864,-14.917418,-13.067993,0.860307,13.789176,1.704682,16.991737,27.671595,34.884784,19.610758,33.966617,42.41926,43.920907,33.834471,45.623736,51.134466,50.786194,44.550823,55.390984,59.327202,59.96706,23.433552,46.923065,66.254253,79.706211,43.67094,76.16827,93.977566,106.610928,33.11348,68.605785,88.840656,101.61787,23.516922,56.397686,75.722408,88.224049,15.677834,40.271187,56.031361,68.602123,-13.781951,-12.21312,-1.016412,10.790946,11.275378,28.059696,34.954685,38.964819,28.066056,44.429668,50.092737,52.333412,40.279547,58.130047,62.418243,62.346427,47.833042,65.253204,68.720984,67.016796,-18.913107,306.88022,-64.547224,298.433504
13,-6.619205,1.151336,0.127258,-0.642266,6.898613,15.918617,23.685722,22.761497,1.334095,33.977051,54.258156,66.557922,-6.647701,30.183105,54.846725,70.687752,-9.802551,18.958626,40.764084,56.078911,-8.355732,2.120361,7.928982,13.880196,-3.629566,2.132859,13.879702,27.072245,3.224113,17.532856,26.494879,33.516271,16.879043,29.563627,37.342512,40.885751,28.192274,42.382457,48.858284,52.16434,37.874986,52.5517,56.607776,59.92155,23.020134,46.318474,65.364704,78.883953,43.030586,75.344639,93.168354,105.97681,33.140545,68.694363,89.02113,102.211132,24.194298,56.994038,76.363621,89.251385,16.871853,41.20388,57.131939,70.175686,-13.359702,-11.655205,-0.349569,11.036836,12.385898,28.167697,35.022549,39.225405,29.138661,44.375822,50.204443,52.988399,41.32566,58.061751,62.440535,62.72576,48.923863,65.806488,69.308724,67.7846,-25.524244,307.999168,-64.411898,297.75885
14,44.080925,-14.532836,-0.10643,0.086945,-16.058464,-35.292091,-52.553959,-71.714687,-54.283104,-41.912556,-17.827606,0.015335,-53.892059,-30.96199,-4.577179,17.514496,-48.635616,-24.988403,1.939316,22.013283,-40.69685,-29.551964,-12.18132,4.584503,37.392715,58.409282,69.497063,76.303193,46.204869,64.664414,69.216037,70.198548,30.736576,51.312431,58.948178,60.592962,14.653126,36.207107,44.300301,48.711442,-0.279174,17.026071,25.640994,33.152376,23.254967,46.489105,65.547581,79.074612,42.872086,75.438595,93.348827,106.291752,33.115253,68.780079,89.232845,102.363796,24.367504,57.248898,76.875858,89.966297,17.330303,41.79594,57.762394,70.93523,-13.677346,-11.939133,-0.28257,11.340401,12.427456,28.001712,34.692863,38.908873,29.206216,44.181802,49.762125,52.597951,41.456942,57.989874,62.49611,62.986902,49.069533,66.051575,69.696393,68.502881,18.56658,293.3742,-64.508429,297.753663
15,-22.558365,11.68219,0.038567,0.19155,-4.797249,-11.008816,-16.857834,-25.028973,-28.083973,1.662598,22.625198,36.322174,-30.380688,2.757683,26.331024,43.92643,-28.48217,-3.716354,18.097572,34.363403,-23.38028,-24.754143,-25.923386,-25.977001,9.507464,22.446028,36.500051,49.53124,25.159526,40.031557,45.009258,49.261144,26.712919,38.17571,42.371774,44.265165,26.147224,37.917408,41.834484,44.268315,24.874424,37.899933,46.186097,53.663578,23.319168,46.520519,65.475254,78.938656,42.673931,75.449581,93.451939,106.325397,32.885685,68.797703,89.24017,102.145557,24.236069,57.213421,76.753178,89.632816,17.298832,41.765728,57.627354,70.665722,-13.593365,-11.970626,-0.237307,11.357692,12.187061,27.767493,34.70509,39.13031,29.054186,44.143394,49.841783,52.780485,41.384385,57.838647,62.319813,62.851237,49.078672,65.901398,69.521022,68.471327,-3.97625,304.98334,-64.454327,297.872162
16,44.20475,-7.031334,0.432758,0.133072,-22.782211,-49.908142,-73.947659,-97.750397,-74.638481,-71.543255,-45.675087,-24.851875,-70.39032,-58.960648,-31.511307,-7.247429,-61.773548,-47.536011,-20.558739,1.138802,-50.959854,-46.262627,-29.581833,-12.745056,38.497615,58.049833,66.862667,73.949144,40.156849,56.918628,63.535493,66.269245,24.26643,44.644128,53.797206,55.734872,8.370824,29.431975,39.403864,44.059783,-5.141278,10.617983,19.86801,28.055065,23.417645,46.604633,65.270233,78.370857,42.508507,75.280495,93.312149,106.108704,32.643528,68.65551,89.035149,101.691628,23.975487,57.028313,76.497345,89.187813,17.062225,41.495991,57.361565,70.33596,-13.510496,-11.944259,-0.046498,11.910358,12.305375,27.82949,34.6857,38.976243,29.110009,44.287334,49.844377,52.440858,41.375431,57.897742,62.191125,62.500309,48.980242,65.796669,69.395298,68.22908,40.233536,297.886442,-64.016533,297.939671
17,-8.911858,8.419545,0.146484,-0.100097,-19.098473,-40.128365,-59.230042,-78.033142,-64.140873,-51.679001,-30.824203,-15.133324,-61.325111,-43.266907,-20.245628,0.901909,-54.253693,-38.902245,-14.583778,5.037918,-44.990444,-50.781498,-52.044296,-49.509659,27.24175,41.972434,52.388617,61.696319,30.418068,45.78404,50.907781,55.346092,20.970687,34.700088,40.940955,46.0077,10.835098,25.759617,31.769784,37.576793,1.038086,15.589386,25.99927,37.155655,23.047485,46.008453,64.927483,78.220024,42.479496,75.227966,93.111534,105.842171,32.742405,68.689957,88.962936,101.620903,23.969078,57.061043,76.454773,89.017296,16.884613,41.279583,57.13028,70.096893,-13.359084,-12.114258,-0.7733,11.067403,12.387874,27.664617,34.304145,38.439323,29.070982,44.151483,49.474862,51.929626,41.226798,57.818702,62.113134,62.444054,48.672539,65.589682,69.424938,68.416863,31.306686,306.197013,-63.88504,297.730599
18,-15.340347,9.558779,-0.212002,0.184695,-10.738678,-26.370735,-39.596272,-52.662506,-46.521034,-27.745399,-9.703674,2.010155,-43.310909,-18.039894,3.496513,21.146049,-35.813713,-13.597298,7.5317,22.946663,-26.235008,-25.386314,-23.350639,-21.035728,22.09652,37.32726,46.370731,54.654981,29.380846,40.575146,42.553012,45.051495,18.142395,27.947619,32.583284,37.328186,5.59996,17.370761,22.330554,27.432312,-6.710417,3.323284,10.62669,18.853451,23.335018,46.431942,65.324306,78.641224,42.671127,75.332279,93.189754,105.870609,32.727127,68.555088,88.829784,101.441631,23.908367,56.872959,76.241169,88.835278,16.801872,41.050186,56.961422,70.078068,-13.499628,-12.094621,-0.621024,11.075492,11.829403,27.231376,34.185213,38.621425,28.860475,44.074974,49.761817,52.534595,41.236987,57.926888,62.307586,62.764539,48.819814,65.752086,69.559307,68.60551,15.926971,315.697113,-64.13641,297.856617
19,20.850906,-18.546057,0.110836,-0.522532,-22.663994,-48.248405,-70.814838,-92.94405,-72.068939,-66.938267,-41.111183,-20.796547,-67.553329,-54.478455,-27.292671,-3.862495,-58.640785,-43.916702,-17.08786,3.707199,-47.258263,-45.748901,-32.724953,-18.579025,36.565074,56.670453,66.784553,74.028061,40.06305,56.609752,62.760216,65.756038,25.565535,45.131277,53.788005,56.181142,10.759577,30.594242,40.20804,45.448427,-2.513674,11.933391,21.157914,30.273448,23.435612,46.317787,65.251465,77.916756,42.744999,74.883385,92.719231,105.523109,32.72089,68.117867,88.377342,101.163826,23.627987,56.088867,75.361977,87.946815,16.223316,40.176144,55.986557,68.944244,-13.081701,-11.766418,-0.398661,11.548871,12.303955,27.892599,34.966294,39.443323,29.076663,44.435288,50.405379,53.348219,41.378519,58.331477,62.949049,63.463924,49.036187,66.038546,69.90653,68.889439,36.772099,297.070565,-64.031353,297.253593
20,-5.079346,6.407223,-0.230484,0.367168,-18.617477,-40.823135,-60.826607,-80.146694,-65.925121,-54.189949,-33.618622,-17.607422,-61.745338,-44.927101,-21.636429,0.14328,-53.476295,-36.582184,-12.90184,6.274338,-42.923355,-39.865265,-29.145012,-18.017578,34.242271,52.560963,61.316924,69.553626,40.369147,52.794626,57.297405,62.035452,24.223328,36.824549,44.300116,49.833694,6.853308,20.581536,29.814396,37.157261,-10.151088,0.528892,9.179013,17.978509,23.374729,46.226864,65.154533,78.325653,42.857666,74.863358,92.665558,105.482941,33.058262,68.311958,88.690453,101.611977,24.046268,56.522369,75.733452,88.202591,16.580544,40.639172,56.29715,69.078369,-13.275104,-12.005886,-0.48295,11.104268,11.746596,27.40298,34.403069,38.85058,28.766182,44.033231,49.835361,52.659702,41.255821,58.122884,62.586451,62.967142,49.102075,66.1978,69.963279,68.792676,31.679506,303.370573,-64.275084,297.513547
21,-15.878906,6.453042,-0.315056,-0.300786,-14.402275,-29.874001,-42.256336,-55.204868,-50.336895,-30.60791,-11.488266,1.451454,-45.467319,-19.530487,2.512321,21.07933,-37.036285,-12.904015,8.504906,24.342041,-26.218872,-17.249107,-6.529427,3.42659,24.824036,40.624793,51.062465,60.396225,34.531263,45.648683,47.846936,51.269947,21.435853,32.661213,37.634344,42.408392,6.83682,19.434275,25.117042,30.350142,-7.316992,4.149936,11.373376,19.185236,23.445969,46.588898,65.530701,78.709145,42.608128,74.692039,92.602272,105.669594,32.536354,68.211479,88.730164,101.947861,23.500729,56.312485,75.742607,88.660927,16.19379,40.427284,56.260872,69.263535,-13.366124,-11.959202,-0.361734,11.601667,11.806308,27.668507,34.645686,39.106474,28.748213,44.327718,50.148065,53.052619,41.112004,58.34111,62.82172,63.360863,48.738797,65.902695,69.774508,68.811942,15.783091,309.764998,-64.607649,297.154144
22,19.34269,-12.42548,0.466518,0.339257,-22.228661,-46.893539,-68.692417,-90.988483,-70.555344,-65.563431,-39.747162,-19.155693,-66.731758,-53.62936,-26.178818,-1.964836,-58.33477,-42.989388,-15.622101,6.024628,-47.525024,-43.088608,-27.276878,-10.966873,37.170105,57.181376,67.146533,74.128282,40.283808,56.852616,63.057112,66.113202,24.881835,44.589849,53.687043,56.40295,9.070148,29.192199,39.165322,44.502349,-4.909837,10.110765,19.306946,28.048334,23.188591,46.194191,65.062351,78.237705,42.323742,74.673786,92.569714,105.569172,32.392273,68.340511,88.895473,101.870441,23.5219,56.674404,76.100407,88.708363,16.365051,40.77816,56.559391,69.403095,-13.387736,-12.096967,-0.487025,11.352319,11.714794,27.228968,34.064677,38.465196,28.787548,44.133699,49.74749,52.552935,41.238654,58.17673,62.492652,62.883347,48.989751,66.027801,69.715906,68.652503,35.055513,297.218688,-64.211397,297.372571
23,-9.121513,4.627946,0.298519,-0.172284,-16.021385,-36.378479,-54.52549,-71.407928,-61.538143,-46.119289,-25.119438,-9.608116,-57.1558,-35.718269,-12.292671,8.523216,-48.493996,-27.840843,-4.506912,13.78727,-37.562714,-30.714111,-18.525009,-6.750069,33.720974,53.041381,63.190432,72.21723,41.669796,55.019,58.966086,63.320046,25.379666,38.747828,46.174673,51.662988,7.681751,22.032794,31.252069,38.393504,-9.415518,1.353816,9.90773,18.698704,23.066998,46.205978,65.01503,77.724953,42.291012,74.615364,92.394447,105.259438,32.315941,68.056068,88.365669,101.067352,23.338509,56.142998,75.452156,87.916031,16.043758,40.148449,55.896263,68.700714,-13.636776,-12.200461,-0.316533,12.015704,12.36552,27.878953,34.547194,38.850519,29.378438,44.753549,50.182646,52.875334,41.656519,58.643749,62.850063,63.185924,49.117142,66.06374,69.733752,68.614403,25.923986,301.792464,-63.922892,297.146116
24,-17.371216,8.07893,0.222645,0.346235,-8.02803,-19.808922,-30.829182,-41.932125,-41.497021,-19.745064,-0.289536,12.887535,-40.204468,-11.115646,11.948318,30.193634,-34.737053,-8.30349,14.075546,30.309105,-26.734829,-22.699356,-17.326012,-11.567345,23.605639,38.537815,48.869029,58.551555,32.682949,45.901366,48.993209,52.4261,22.160803,34.107902,38.779135,42.8433,10.028452,23.287439,28.643731,33.440812,-1.94872,10.437487,18.003333,25.960367,23.025856,46.120949,64.967022,77.95229,42.718964,75.188541,92.782459,105.167599,32.596092,68.470974,88.686619,101.246624,23.505878,56.241131,75.482655,87.880383,16.121349,40.230618,55.871716,68.507023,-13.878405,-12.384848,-0.692222,11.392951,12.380278,27.948236,34.511688,38.632416,29.33231,44.664135,50.103667,52.848534,41.485471,58.263798,62.519328,63.029201,48.760163,65.481248,69.082347,67.997886,8.549967,309.784681,-63.703051,297.405638
25,17.092094,-17.548726,-0.466976,-0.13616,-16.532249,-37.611694,-57.118378,-79.294968,-61.423416,-53.160439,-27.946472,-8.512688,-60.802631,-43.398113,-16.019325,8.119812,-54.75872,-34.613686,-6.806374,14.901695,-45.548115,-35.132332,-17.458534,0.158157,39.160506,60.836938,71.904094,78.735789,43.676313,62.180504,68.407353,71.404101,27.46294,49.052551,58.909276,61.96518,11.342995,33.314039,43.204479,48.561635,-2.506202,14.295838,23.187835,31.074475,23.233452,46.644459,65.277672,78.463211,43.056049,75.631256,93.450394,105.797081,32.689476,68.737106,89.015007,101.586113,23.396015,56.716919,76.090851,88.432846,15.842113,41.064091,56.929665,69.478683,-13.933239,-12.213984,-0.218843,11.705655,11.874913,27.879323,34.723553,38.870526,28.84899,44.218791,49.88612,53.044036,41.235752,58.05996,62.526306,63.481832,49.005003,65.531575,68.938839,67.954291,25.633478,292.123955,-64.17861,297.157478
26,-12.381706,8.053118,-0.33165,-0.32598,-11.001434,-26.358147,-39.523258,-52.270718,-48.651638,-26.274719,-4.990311,10.008774,-46.284771,-19.681549,4.847145,24.461632,-40.009403,-16.536484,8.199348,25.875664,-31.257992,-32.338142,-29.806252,-26.125031,29.432778,47.608765,59.748711,69.796058,41.732966,55.139166,59.097367,63.580509,27.302204,41.388152,46.822929,51.40376,11.358062,26.446281,33.228699,39.434554,-4.075527,8.632893,18.220941,27.701914,23.386688,46.939144,65.727997,78.736038,42.467251,75.596466,93.641739,106.104469,32.052097,68.524933,89.115257,101.931038,22.86375,56.36879,75.857849,88.381233,15.542107,40.705605,56.657867,69.268341,-13.767995,-12.060102,-0.257684,11.873801,12.301855,28.284467,34.96086,39.108635,29.176082,44.672224,50.20327,53.259298,41.341283,58.495424,62.821658,63.555253,48.791718,65.656867,69.049558,67.898468,13.250055,300.147171,-64.511976,296.801595
27,10.060158,-8.639994,0.407581,0.050388,-15.777054,-35.709343,-53.944416,-75.071239,-59.621258,-49.865971,-24.789047,-6.17878,-59.585381,-40.42305,-13.162079,9.986801,-53.918095,-32.829323,-5.132904,15.711479,-44.946842,-34.736824,-17.647476,-1.016693,38.270312,60.130019,71.341548,78.68997,44.502904,62.67568,68.942235,71.978688,28.886225,49.689198,59.420137,63.009256,13.069475,34.43203,43.951967,49.521916,-0.843264,15.681085,24.769325,33.072594,23.392639,46.85194,65.553532,78.311634,41.403694,75.006351,93.044987,105.485744,30.969772,67.980824,89.069881,102.231159,22.137508,55.833378,75.500393,88.229084,15.288906,40.252075,56.101513,68.366032,-13.698711,-12.018236,-0.062244,11.900539,12.965981,28.907344,35.223794,39.330011,29.958706,45.212602,50.65201,53.958004,42.070309,58.873831,62.897549,63.834056,49.333392,65.757149,68.722775,67.484617,23.324289,291.45384,-64.090319,296.798647
28,-24.41597,17.234602,-0.602245,0.511232,2.115555,3.284912,6.396332,7.656097,-22.763844,3.702393,23.734131,36.299629,-29.749432,-1.030083,23.504791,42.617683,-32.162075,-12.256966,10.783653,28.499107,-30.878963,-39.034595,-44.776096,-49.307327,-8.751824,-6.326515,6.26779,16.157057,9.246754,24.968285,31.754841,37.321455,20.971737,32.640465,36.41817,39.318896,28.794649,39.939734,41.70629,43.633273,34.907014,45.042727,52.8967,61.286913,23.85149,47.531376,66.610107,79.752617,42.014351,75.299263,92.684669,104.786339,32.064228,68.663979,89.368858,102.5774,23.420792,56.89682,76.697159,90.102882,16.687145,42.095604,57.821274,70.518951,-14.234211,-12.897562,-1.043211,11.656625,11.617476,27.579463,33.95507,38.254565,28.764824,44.380515,49.137952,51.413764,41.104656,58.211743,62.437077,63.201855,48.473456,65.138842,68.348938,67.230452,-1.091566,308.604893,-64.69245,297.22633
29,12.132225,-21.021693,0.638351,-0.993996,-11.493874,-26.103172,-39.697208,-58.003292,-45.684757,-33.681564,-9.560623,7.469559,-47.484741,-25.102329,2.298889,23.729553,-44.503155,-21.260376,7.036171,26.244278,-38.665695,-27.951107,-11.444435,3.219452,35.82092,57.6592,71.626094,80.249292,46.140217,66.035397,72.023272,73.919627,33.127923,54.670727,63.40415,65.222082,19.5537,41.509368,49.690371,53.75361,7.38609,24.919626,33.587099,41.042164,23.764687,47.311363,66.0466,78.760071,41.928005,74.975166,92.907829,105.243416,31.304226,68.047485,88.849525,101.794395,22.169094,55.972595,75.516701,88.057251,15.023346,40.166874,56.042633,68.296051,-13.361554,-11.581969,0.370688,12.455305,12.22547,28.594208,35.312776,39.441532,29.281057,45.078974,50.728272,53.922806,41.714688,58.975287,63.128187,63.95095,49.303381,66.085106,69.100687,67.633744,11.042433,287.535992,-64.052324,296.185126
30,-20.526466,14.5626,0.148373,0.559088,2.190628,2.766151,5.071449,3.700104,-21.092262,7.853851,28.861427,42.604179,-25.525475,4.596176,28.151207,46.262054,-25.743427,-3.516312,16.943436,33.418121,-21.76815,-22.404327,-24.283562,-24.780521,6.659782,16.750664,29.727389,41.423041,17.670745,33.719677,42.143359,48.598809,21.628205,36.123806,44.458568,49.270962,24.428154,39.226208,47.366642,52.731764,26.82796,40.922986,51.285446,61.264621,23.635368,47.197552,65.700932,78.195477,42.116604,75.166225,92.452641,104.147358,31.594505,68.389378,88.555355,100.669041,22.478428,56.360607,75.50806,87.464275,15.353394,40.723,56.472874,68.706951,-13.95794,-12.388985,-0.397981,12.257086,11.846755,27.948051,34.725529,38.930671,28.991386,44.977642,49.998444,52.424309,41.254833,58.721431,62.771332,63.419402,48.585471,65.293033,68.683007,67.633003,-9.488468,302.063996,-63.908386,296.709618
31,10.413551,-13.235089,-0.139046,-0.443924,-8.682747,-20.332317,-31.241169,-47.634945,-35.39772,-22.209091,1.268692,17.641983,-38.173599,-13.969917,12.786827,33.053513,-37.341614,-13.486748,13.942566,32.698288,-34.266129,-24.664707,-8.488655,5.849991,31.005746,52.449812,67.447073,75.630608,40.654804,60.094698,67.41521,70.417144,30.079984,50.813735,60.127055,62.405769,18.969912,39.77906,48.884961,53.819127,9.120845,26.282643,35.270106,42.80026,23.272476,47.007065,65.466099,78.369999,43.514957,75.382633,92.340832,104.069767,32.756023,68.647099,88.388729,100.591335,22.976131,56.247768,75.083828,87.118435,14.867249,40.072231,55.531712,67.32954,-14.416128,-12.399359,0.06138,11.961981,11.542758,27.920325,34.860578,39.123209,28.805147,44.630728,50.118857,53.102205,41.160725,58.339443,62.410339,63.275956,48.539035,65.074375,68.100022,67.016549,0.919991,288.800564,-64.052525,296.237351
32,-1.560516,1.478243,-0.098248,-0.288251,-8.375244,-18.680134,-28.792706,-43.812046,-33.431168,-20.001984,4.044113,20.155106,-36.683693,-13.245621,13.794823,34.648476,-36.600094,-13.385296,13.993378,32.731133,-34.21011,-24.713745,-9.210548,3.983116,27.732481,48.358168,63.686226,73.068954,36.990226,55.768958,63.250576,66.534957,28.684301,48.825001,58.178274,60.244134,19.551107,39.875082,48.754729,53.179146,11.54177,28.095017,36.719327,43.743683,23.255596,46.75066,65.071678,78.327255,44.113541,76.058578,92.794189,104.260025,33.509789,69.055939,88.584709,100.88253,23.545074,56.389732,75.046234,87.015839,15.12188,39.964428,55.528336,67.78038,-14.434962,-12.546634,-0.000185,11.47829,11.283097,27.081199,33.844475,38.207203,28.539805,43.895898,49.865001,53.242564,40.778181,57.458326,61.744175,62.756882,48.099619,64.376904,67.754096,67.045139,-0.622015,290.250154,-64.132261,295.920448
33,10.419159,-3.172304,-0.139389,-0.423176,-13.58551,-28.51244,-41.905861,-59.63316,-47.252254,-37.139511,-13.455734,4.024658,-47.145252,-27.270985,-1.390343,20.19104,-42.191505,-19.7826,7.528839,27.887192,-35.15007,-20.298843,-1.30703,15.738144,36.476462,59.024564,72.029694,79.431901,44.857352,64.104276,72.202904,75.940163,30.228062,51.553072,62.955718,66.915278,15.559128,36.093672,47.138288,53.219099,2.35232,18.767062,27.841038,34.990871,22.969265,46.352177,64.700775,78.351746,44.331322,76.527901,93.618736,105.432701,33.565178,69.008331,88.657379,101.138077,23.35104,55.954742,74.733124,86.790619,14.638252,39.071674,54.752426,67.223282,-14.389884,-12.500012,-0.11924,10.809224,11.702876,27.53914,34.203677,38.521574,28.798478,44.075283,50.049635,53.441647,40.881058,57.616037,61.858599,62.707605,48.081835,64.571418,67.98109,67.125044,9.791594,287.007162,-64.277201,295.426583
34,-29.280281,17.602202,-0.029469,0.066999,5.161114,14.033775,26.000175,34.47052,-7.841549,21.872749,42.492142,53.345146,-14.50201,16.774406,40.427284,57.12822,-17.104397,6.428375,27.0504,41.609917,-15.024204,-15.522423,-16.737442,-18.562431,-15.322809,-12.960732,1.584207,15.247844,-0.477886,13.287701,24.252166,33.09007,16.848168,30.804564,40.687285,44.863774,30.306546,43.369043,50.043645,52.755106,40.68537,51.997243,60.041655,66.710637,22.825527,46.381416,64.63274,77.80077,44.118919,76.363277,93.365307,105.044575,33.243427,68.968792,88.46014,100.604954,23.138695,56.117191,74.684544,86.331081,14.665546,39.438515,55.043736,67.106266,-14.439716,-12.764551,-0.347593,10.949027,11.913075,27.500422,34.030529,38.043811,29.181886,44.158646,49.835855,52.891204,41.431748,57.77949,61.825933,62.499938,48.80308,64.880293,68.034504,66.881254,-19.490833,304.578643,-64.308815,295.462862
35,32.514267,-14.696413,-0.874271,-0.840423,-13.721008,-29.020958,-43.299694,-61.398582,-50.737038,-40.443134,-15.547256,3.542862,-51.56004,-31.728516,-4.299889,18.209724,-47.350216,-26.321754,1.462898,22.104034,-40.560436,-32.716713,-17.695427,-2.620811,33.915055,55.21975,69.15478,78.03733,42.161267,61.073998,66.984315,69.591726,29.511201,49.537786,57.808266,60.382208,16.440368,35.539153,44.118323,49.442382,4.43652,19.684549,28.572718,36.991955,23.15712,46.92421,65.655441,79.346123,43.730621,76.388741,93.607292,105.425262,32.681293,68.873177,88.555298,100.780678,22.760353,56.240616,75.201874,87.479668,14.698563,40.000134,55.522614,67.464294,-14.637997,-12.861623,-0.774844,11.003615,11.169476,27.516416,34.121487,38.470136,28.543757,44.423246,50.008077,53.132092,41.078721,58.296773,62.548474,63.728463,48.487226,65.324649,68.347332,67.306961,13.020658,289.854195,-65.185862,294.594404
36,-21.97506,16.029604,-1.082382,-1.330968,1.800041,3.834686,7.142372,7.47963,-19.638863,8.374557,27.242546,38.838158,-24.530582,5.545464,28.903542,48.006248,-25.252876,-2.049866,20.253181,37.917938,-21.716766,-26.262417,-31.390114,-35.88398,-4.692043,3.006566,16.763878,28.827439,10.378083,22.783741,29.790807,36.681597,18.950954,29.656438,37.067661,42.200232,25.560472,38.211772,44.191929,49.360007,31.26411,43.497546,54.91211,67.85691,23.424397,46.927872,65.648918,80.016518,42.327404,76.134224,94.059677,106.366425,31.570873,69.066582,90.008812,103.493042,22.070103,56.462746,75.937729,88.720551,14.409828,39.502487,54.703674,66.186218,-14.758225,-13.227123,-0.982387,10.160907,10.047163,27.040011,33.713193,38.466061,27.694381,44.171366,50.077732,53.621156,40.954232,58.336293,63.049023,64.794831,49.208162,66.416952,69.698678,68.41569,-9.047041,305.855518,-66.360884,293.235154
37,25.142555,-15.399256,-1.370716,-2.723996,-8.294678,-22.613869,-35.928326,-50.245113,-48.726997,-35.70116,-14.837036,1.831398,-50.268688,-30.959988,-8.809662,11.390877,-46.22961,-27.368088,-3.202629,15.666618,-39.182167,-34.083309,-22.893333,-10.609818,32.421128,54.031919,69.000219,80.619053,38.165521,53.374154,60.443588,65.274261,25.37096,40.53118,51.694234,58.882105,12.46889,26.865196,36.987447,44.603125,0.390016,10.440883,19.796009,29.31607,24.481659,47.76432,66.323719,80.122433,43.458767,75.418568,92.782345,105.72813,34.004402,69.414196,90.827351,106.605091,24.984741,57.722454,77.746983,92.390499,16.753349,40.678196,55.650387,68.062878,-14.460711,-13.45702,-1.65664,9.327091,7.378989,24.095381,31.978871,38.011639,25.024663,41.038336,49.09942,54.81547,38.68898,54.434841,61.179344,64.915244,47.738379,63.338386,67.933666,68.73636,16.029768,290.405025,-67.797346,290.459921
38,16.82888,-3.361137,-0.360088,-7.684654,-18.126984,-38.485565,-55.043621,-71.016598,-70.804024,-63.259449,-45.10025,-30.099564,-67.832794,-54.281044,-30.384407,-7.941399,-59.048767,-42.557831,-17.424202,1.911392,-47.174149,-38.621864,-21.65657,-6.704407,36.199203,59.118795,72.758596,83.275185,43.870765,56.217143,63.782433,69.059005,26.900888,39.749172,51.268897,57.056454,9.980163,23.042351,35.122214,41.982438,-5.173264,7.058134,17.053735,24.5716,25.883274,49.734879,67.64122,82.924004,44.875145,74.411316,90.940819,103.181877,34.21051,66.302605,85.597115,99.879112,23.496323,53.354073,72.053604,86.106606,13.435307,36.396046,50.470791,61.747284,-14.810836,-11.863242,0.056934,9.977261,3.045036,23.911736,35.874643,45.789536,19.421307,41.923898,54.879752,64.06525,32.925814,55.003747,65.598698,71.854076,43.094501,61.330694,68.763098,71.681422,32.701921,287.119717,-68.314161,282.851097
39,-4.149628,5.32622,3.676014,-17.888045,-12.253304,-30.299721,-45.146828,-58.032646,-42.613792,-51.88139,-54.40155,-54.959278,-38.925819,-46.434917,-41.340065,-35.450821,-31.886101,-39.235268,-34.77047,-29.808197,-22.897911,-31.235046,-29.067879,-26.693001,29.356578,49.369887,60.740052,69.937714,37.501396,42.937531,49.987453,56.80408,22.138387,28.130524,34.900901,36.368337,6.175906,11.553687,17.481789,18.440032,-9.338144,-5.523513,-0.273987,1.928095,24.969807,45.648708,60.597439,72.778416,39.953442,66.717739,80.735607,90.532665,28.14497,57.775898,74.685917,86.560764,16.80851,43.439999,59.916744,72.547588,6.296768,27.840958,40.866165,51.595631,-8.864457,-1.387655,11.923202,21.373114,7.693793,29.778519,43.526507,54.027967,19.956807,46.403212,62.471966,73.388821,31.24929,58.147522,71.717855,79.81216,41.116697,63.529194,73.059444,77.204317,28.671083,292.62117,-64.519358,265.138284
40,44.168472,-54.087186,-25.68346,-40.49944,-35.748482,-59.841042,-72.122612,-75.571404,-61.70517,-80.986519,-89.728718,-95.196991,-47.894325,-68.513603,-82.12738,-91.758213,-33.222656,-52.609978,-65.916939,-75.209541,-19.332047,-32.251053,-40.918922,-48.018951,2.77883,22.083429,40.480606,52.32273,44.282517,78.599506,92.796358,99.376482,54.772862,93.734902,111.338833,120.043418,61.202562,96.003242,113.06025,121.789288,64.286193,92.692802,105.943576,114.087529,38.981495,65.829849,81.109657,88.76461,75.385723,106.249466,108.237419,101.834564,65.035286,96.226501,95.769539,86.409416,50.248203,78.834686,79.829178,73.513298,32.518673,59.105587,66.408978,66.30621,-0.546862,11.689847,26.059415,39.520758,29.518611,68.301698,93.919783,112.500544,40.850121,82.537947,109.073025,126.170912,51.946546,89.537295,112.750015,127.678301,61.893858,90.491585,105.02226,113.021594,72.792721,238.715607,-90.249653,224.820468
41,14.426193,-33.116067,-16.209984,-36.839246,-34.198494,-60.229225,-77.73777,-91.613617,-60.807152,-75.512581,-80.279503,-83.922386,-45.517845,-61.937027,-69.648743,-75.056992,-28.594666,-43.36647,-52.616615,-59.600601,-12.329178,-22.426987,-29.254875,-36.084709,5.39044,24.854603,43.773817,56.012749,39.662351,76.794665,94.272316,104.358567,47.367383,86.183012,104.831328,115.290798,52.928748,87.75771,104.082295,112.267807,55.437729,82.913884,94.809915,101.300748,33.265743,58.659153,78.71212,95.376892,62.069778,80.747509,82.4156,78.35701,48.416176,68.779106,72.390862,69.804611,33.515224,53.494778,58.94125,58.553181,18.169727,35.670719,43.664932,45.851383,-4.751879,3.987101,16.486866,22.230704,27.661591,60.218446,66.358289,63.465591,39.828151,72.938166,77.041358,73.395984,48.540393,78.246108,81.883455,78.732949,54.211736,77.772977,81.421685,79.097523,87.439756,206.244431,-106.238794,188.626112
42,14.90593,-37.933525,-17.216778,-30.919913,-31.242256,-58.057137,-75.656319,-87.679939,-50.689201,-67.125778,-70.74955,-73.583908,-35.8041,-50.099602,-55.753899,-59.099922,-19.130402,-31.036263,-38.31356,-43.671455,-1.773491,-7.793884,-12.623634,-18.150215,3.285245,20.278403,37.30824,48.70113,23.110524,51.458471,68.705237,81.25922,28.393333,59.965887,79.145256,91.233331,32.196974,61.041147,78.15305,88.846802,35.18804,58.578417,71.202301,78.563999,29.354725,56.947346,77.697258,92.338657,51.604042,67.080345,70.099411,73.593407,38.853149,54.832935,53.024597,51.452351,23.933258,38.665066,37.39666,35.331573,8.916721,20.322762,21.064625,20.233097,-8.623075,-4.512473,1.294783,-1.374626,-2.357445,17.996911,20.914618,20.006269,5.934523,30.421279,33.481506,32.062975,15.087231,37.531962,39.868289,37.933093,24.312557,42.722455,45.06261,42.945559,102.776442,170.663813,-123.024817,160.059106
43,18.409424,-16.041028,3.534508,-22.488883,-33.339958,-58.355141,-74.823532,-87.585754,-49.218063,-64.724007,-71.397972,-73.595238,-30.99369,-45.997238,-51.836357,-54.008446,-12.053947,-26.058426,-34.385834,-37.689972,5.661964,-10.17849,-19.119301,-22.872162,-2.594752,-0.52352,3.164091,8.880821,-14.68573,-1.073099,14.687212,27.111642,-14.643493,9.575636,25.122291,34.604807,-10.683439,11.713497,24.587162,31.319315,-3.950421,11.540349,20.51182,26.130057,30.387325,53.466396,67.77792,77.29763,39.615269,51.619778,52.199078,50.013771,23.226357,33.007851,32.26553,29.595051,7.702217,16.18927,16.189156,14.274273,-5.010509,0.545826,1.77927,-0.136414,0.201059,-4.398482,-9.205751,-13.617448,-19.641756,-22.075772,-15.854295,-12.418811,-21.377622,-14.022037,-5.567973,-3.935045,-18.812572,-9.287509,-2.185779,-1.122005,-13.590463,-5.711296,-0.296402,1.123116,121.749172,159.196375,-118.927002,142.143814
44,17.14325,-27.658318,-12.942238,-20.590675,-28.008385,-50.31189,-65.733833,-73.110123,-57.293816,-74.280739,-73.987999,-69.138336,-49.61483,-67.895851,-66.387863,-61.443787,-41.383667,-55.416985,-54.131813,-50.015144,-32.227936,-44.738274,-45.772476,-43.900223,-7.316745,-11.379489,-13.199336,-13.165435,-23.180117,-26.393979,-19.381262,-13.606333,-25.201393,-25.751929,-18.058074,-13.977237,-25.661742,-24.589045,-17.153215,-13.163521,-24.536372,-23.262492,-17.68399,-14.182402,29.450512,51.332989,65.411282,72.423763,30.849781,24.878883,27.010746,29.296589,12.391376,7.963829,10.676708,12.20644,-3.105297,-6.537895,-3.600941,-1.306171,-14.943924,-19.274883,-17.797394,-15.139961,-5.933288,-16.512616,-26.850716,-36.841376,-43.350827,-58.260742,-50.369935,-42.819557,-45.054397,-59.70496,-51.301748,-43.189473,-42.363839,-54.591316,-46.976626,-39.960637,-36.227083,-46.270047,-39.555461,-32.840907,139.41699,134.137579,-131.344671,124.152661
45,-7.569923,-27.05582,-4.681263,-20.734769,-28.856392,-50.070877,-62.82074,-67.320099,-30.524254,-28.811531,-28.808556,-28.011017,-12.019958,-8.839417,-9.140053,-7.665138,4.508171,8.015442,7.026443,6.586418,18.688316,23.72921,23.765602,23.363686,-6.376842,-17.617516,-29.305078,-39.515385,-31.318697,-47.42904,-44.083897,-38.391682,-33.589939,-51.71915,-48.351067,-41.143806,-32.920565,-50.08403,-46.855966,-40.43593,-30.574543,-45.128127,-43.441199,-38.033499,28.483944,48.361473,60.405865,66.975117,24.315033,17.816334,15.869865,15.860367,5.38044,-2.2855,-2.847919,-2.071323,-10.150166,-16.960659,-17.908287,-17.16362,-22.341671,-28.676262,-28.47147,-25.747204,-9.069715,-23.256811,-35.917529,-48.505041,-42.067221,-67.734181,-73.681086,-72.947244,-41.786041,-71.599232,-77.561018,-76.109482,-38.284761,-64.563637,-70.929734,-70.328594,-31.260776,-51.171517,-55.171863,-54.340054,133.205137,109.590108,-134.667864,105.92624
46,4.592056,-21.03466,-4.32518,-10.067201,-30.235176,-48.42247,-57.79026,-63.521576,-20.995445,-16.043243,-15.608597,-14.99382,-0.858192,4.277344,1.70002,1.162605,15.439453,19.71817,17.032814,15.735054,29.323883,31.85257,28.767586,26.366501,-9.798123,-25.264317,-41.419768,-56.527037,-59.710796,-67.985475,-62.665553,-58.37075,-60.811343,-72.7418,-67.522563,-60.082935,-56.724392,-68.582508,-63.773386,-56.229616,-49.740698,-59.539284,-54.373924,-48.097365,27.08004,46.302052,57.053375,65.026817,24.947662,19.671478,13.874302,8.215084,8.069286,2.151775,-2.774677,-8.419075,-6.03281,-11.536388,-15.618496,-19.649906,-17.807064,-25.146217,-28.895359,-31.706028,-11.40669,-25.652356,-37.231886,-52.720865,-43.013207,-62.534056,-75.622735,-87.356208,-41.477659,-61.112993,-76.046404,-90.774896,-36.461179,-53.902552,-67.391034,-80.14518,-28.374561,-43.441507,-52.234735,-60.22246,140.786533,89.033921,-136.003704,96.337512
47,-5.956421,-8.147535,0.637894,-5.455618,-24.826012,-39.555931,-45.009041,-49.502678,-16.675529,-10.966072,-5.312805,-0.326958,0.273056,7.104149,12.887306,17.514954,14.360847,20.899887,25.685463,29.289207,26.498795,33.819695,38.052292,41.61953,-14.351846,-33.466068,-49.426666,-64.606677,-45.551643,-63.124667,-72.841589,-82.123046,-42.436242,-61.66251,-74.190156,-87.15978,-37.26943,-56.350153,-68.693536,-80.623129,-30.412263,-46.308363,-55.014986,-64.480706,24.962425,42.479954,51.019993,59.223919,20.842381,17.241726,11.254921,4.581585,4.613686,-1.275043,-7.276096,-13.148575,-9.229259,-15.832729,-20.655899,-24.933758,-20.981827,-29.199657,-34.143219,-37.771969,-10.588683,-26.553603,-40.298226,-55.405742,-46.283076,-64.831943,-78.111029,-90.847947,-46.014647,-65.550687,-80.238454,-95.006745,-41.101908,-58.92391,-72.757948,-85.945829,-32.207749,-47.210598,-57.273445,-67.183985,135.424576,80.876506,-134.771347,90.872014
48,0.496445,-0.425707,1.680622,-2.25954,-24.197617,-37.152672,-40.90416,-47.450409,-14.24881,-9.430962,-4.020538,2.294998,1.82579,8.374443,14.033546,20.061722,15.143051,21.484795,26.289597,30.502281,27.084732,34.25148,38.178635,41.326218,-16.257,-37.317349,-53.931081,-69.382392,-53.123663,-70.563709,-80.622789,-90.248937,-50.390528,-70.441937,-83.646799,-97.240504,-44.075345,-63.810591,-76.817173,-89.544396,-35.023136,-51.53535,-61.644973,-72.712222,23.887024,40.739136,48.978825,57.603836,18.055172,11.712513,5.787334,0.438652,1.412659,-5.36562,-10.84362,-15.46257,-12.508965,-19.141731,-24.074707,-28.128605,-24.68502,-32.592487,-37.128639,-40.546646,-8.243711,-23.717098,-37.647034,-51.168707,-42.709086,-63.641642,-75.329636,-87.334935,-41.629658,-64.686397,-78.749559,-93.930898,-36.622008,-57.661886,-71.439422,-85.345924,-28.012303,-45.23159,-55.505377,-66.221821,137.202215,80.896096,-131.80953,89.057772
49,-6.134033,4.809276,0.690765,13.992396,-22.986259,-33.959541,-35.506554,-41.64093,-8.861275,-0.496902,4.873466,10.908737,6.829834,15.113983,21.068001,27.470627,19.957008,27.996483,33.959198,39.552841,31.928444,40.105362,45.169716,49.554977,-11.455906,-33.727427,-52.612123,-69.635538,-50.913091,-69.855277,-80.33321,-90.704933,-45.652419,-67.167992,-80.428337,-94.536577,-37.362581,-57.937015,-71.408207,-85.738872,-26.698377,-43.562137,-53.582716,-65.196425,23.278198,38.762455,47.252998,56.647854,15.248737,6.356449,2.342834,1.084557,-0.372334,-9.993324,-14.242172,-17.386036,-13.908806,-22.629375,-26.791878,-31.423473,-26.052074,-33.565464,-37.293091,-40.923786,-6.959611,-21.575316,-34.43873,-48.23019,-43.695487,-68.89231,-79.760753,-88.185702,-40.486997,-66.436188,-80.958958,-93.301538,-34.033616,-57.1191,-72.464047,-86.100205,-25.183269,-45.043715,-56.018059,-66.301417,131.060171,87.369006,-131.126776,104.713801
50,7.549667,8.249917,-11.143799,10.216914,-26.241531,-39.970207,-45.653687,-50.611954,-15.770874,-5.848961,-1.176338,1.245003,4.107513,13.260498,15.219498,16.403275,19.375992,26.942139,26.701584,26.535187,30.755539,35.12661,35.848846,36.246643,-7.420022,-22.015195,-37.948901,-54.521724,-35.955382,-60.013651,-70.45722,-74.418355,-33.020817,-58.890596,-71.166671,-75.100172,-28.128579,-51.407619,-63.161285,-66.523873,-22.774787,-43.10117,-52.718087,-55.469592,24.195271,42.191162,57.110081,69.465981,16.615963,12.819614,14.05077,16.303024,-3.845959,-9.807644,-6.961498,-3.180485,-18.402786,-21.832924,-17.650394,-14.163322,-26.053905,-28.341351,-26.081028,-23.967648,-3.423937,-9.930331,-18.322026,-27.669804,-32.769925,-60.144963,-59.457063,-54.263113,-35.503152,-67.740202,-67.658074,-61.164864,-34.59326,-63.42178,-61.575751,-55.751637,-31.546495,-51.808657,-51.169757,-46.961837,138.282824,95.411827,-142.597589,114.72362
51,2.060337,33.629661,-8.182411,37.639037,-23.994427,-38.363857,-46.722336,-51.53286,-17.143593,-10.978203,-6.712361,-2.92059,1.384163,8.956947,13.254318,17.0121,16.114082,24.520225,26.905575,28.53178,27.109566,35.354576,37.124634,37.663994,-10.419224,-20.943455,-31.332252,-44.401017,-26.290779,-39.361334,-47.271484,-52.223821,-21.730202,-36.43279,-46.635085,-52.557999,-16.858743,-29.80308,-41.015735,-47.436867,-12.564604,-23.667791,-31.456293,-35.262264,24.570236,43.119392,56.913757,67.687168,16.99007,16.605263,18.053856,19.925823,-1.116886,-0.997696,2.544079,4.858875,-14.158516,-13.978157,-10.681458,-9.840145,-22.575874,-25.709724,-25.657253,-25.431118,-1.522209,-5.134856,-8.86211,-14.716605,-21.229236,-31.240768,-28.018694,-24.590126,-25.419063,-41.1309,-36.96145,-31.49623,-27.091666,-42.008497,-37.732188,-32.985619,-25.401958,-36.097963,-34.754243,-30.760011,140.25753,128.968406,-150.865631,152.289576
52,2.060337,33.62966,5.424728,8.792765,-21.747322,-36.757507,-47.790985,-52.453766,-18.516312,-16.107445,-12.248383,-7.086182,-1.339188,4.653397,11.289139,17.620926,12.852173,22.098312,27.109566,30.528374,23.463593,35.582542,38.400421,39.081345,-13.418426,-19.871715,-24.715602,-34.280309,-16.626175,-18.709016,-24.085748,-30.029287,-10.439586,-13.974983,-22.103498,-30.015826,-5.588906,-8.19854,-18.870185,-28.349861,-2.35442,-4.234411,-10.194499,-15.054936,23.499756,40.024853,52.507153,63.699474,17.679806,8.827801,4.093552,0.422802,0.105972,-11.469784,-18.168411,-22.112389,-13.113327,-24.089756,-29.11932,-33.078861,-22.322559,-32.189713,-35.999508,-38.251247,1.50177,1.4993,-0.320979,-4.306227,-11.601914,-12.940231,-13.514263,-17.923242,-12.137784,-13.258184,-18.270959,-25.520643,-12.737134,-14.266383,-18.725874,-25.194847,-13.599417,-16.776969,-19.288791,-21.635307,141.851006,162.450869,-145.907764,160.935143
53,-0.498734,7.939127,-19.061966,39.241831,-22.516937,-38.724518,-49.892693,-56.18248,-16.423073,-13.180389,-11.041603,-8.163185,-1.185265,7.977791,13.279266,18.080635,10.27668,21.330414,27.11277,30.621185,18.411827,31.184807,34.863968,36.216774,-9.720441,-16.873238,-22.302088,-31.999249,-22.364394,-27.267438,-29.485575,-30.67143,-17.35094,-26.239417,-31.937066,-36.021053,-12.960794,-19.279714,-26.6826,-33.071606,-8.459806,-13.303694,-17.962145,-22.307707,19.580441,33.425503,40.240059,45.23735,29.267406,25.482216,18.165722,11.057682,15.403004,10.491772,2.397308,-4.439907,2.335911,-1.303711,-7.851963,-12.992134,-9.521198,-11.807442,-15.326843,-19.079762,-12.83896,-30.059174,-41.41526,-47.556586,-30.787459,-45.613856,-51.022513,-54.524564,-29.071415,-45.112134,-54.086013,-59.530238,-27.254162,-43.72664,-52.769,-58.697966,-24.508862,-39.160074,-47.292418,-53.957448,141.139641,170.226543,-165.182362,200.013521
54,5.19619,14.584768,-0.600014,-0.45933,-23.094292,-42.152939,-57.412605,-66.714249,-27.389946,-27.455864,-23.352585,-17.651482,-12.464218,-8.972969,-2.968254,3.039551,1.172562,6.325378,13.260612,19.136467,12.559891,17.293968,22.460175,27.181206,-12.397507,-28.414884,-39.350512,-51.518122,-29.921965,-42.03684,-48.855259,-53.944542,-24.996752,-38.774874,-50.575625,-59.057446,-19.282122,-33.318052,-44.981038,-54.019507,-12.923867,-25.444257,-33.499969,-39.734105,18.812857,34.314308,44.355211,53.504105,30.387039,26.431618,19.297543,12.222033,16.572676,11.237641,2.546311,-5.164146,3.483067,-1.004133,-8.36463,-14.479551,-8.641319,-11.841688,-16.236248,-21.034441,-12.493096,-31.294522,-42.827955,-49.002564,-34.691474,-50.281354,-56.664648,-61.039232,-32.978703,-50.422916,-60.297703,-67.233185,-30.389601,-48.068034,-57.314478,-64.289836,-26.32593,-41.38491,-49.49453,-56.710436,146.380806,184.812731,-165.7374,199.555611
55,-7.21447,-11.528678,-0.600014,-0.45933,-22.910156,-39.454536,-51.706581,-60.303726,-24.715347,-21.32515,-16.653557,-10.107307,-8.821335,-3.946724,3.811798,11.147346,4.921417,11.094704,17.65274,23.867455,16.301765,23.408661,29.143982,34.798622,-12.658958,-24.086057,-32.062358,-42.864975,-21.231644,-29.053013,-36.837826,-44.888659,-15.40117,-23.211424,-35.475303,-47.433394,-10.075135,-18.88834,-31.949293,-43.9503,-6.320278,-16.373677,-24.532759,-32.334368,18.045273,35.203114,48.470364,61.770859,31.506672,27.38102,20.429363,13.386383,17.742348,11.983509,2.695312,-5.888386,4.630222,-0.704556,-8.877296,-15.966969,-7.76144,-11.875935,-17.145653,-22.98912,-12.147232,-32.52987,-44.24065,-50.448543,-38.59549,-54.948851,-62.306783,-67.553901,-36.885991,-55.733699,-66.509393,-74.936132,-33.52504,-52.409427,-61.859957,-69.881706,-28.142997,-43.609746,-51.696642,-59.463424,139.334335,173.377249,-166.169415,199.189477
56,-5.700989,-8.137531,1.604919,-0.976521,-22.952957,-37.735977,-47.84626,-56.409874,-19.471436,-12.418213,-7.88063,-2.514153,-2.219467,5.803642,13.092041,19.395561,11.209946,19.263496,25.289726,31.719475,21.46946,30.444145,35.542145,40.464134,-11.921473,-21.931091,-27.963427,-35.575153,-18.316778,-25.240049,-31.732487,-41.138402,-10.824168,-17.509823,-28.337943,-40.826161,-4.688462,-11.832552,-25.131738,-38.17395,-0.965529,-10.514922,-20.105193,-29.070921,16.452827,25.555,25.653934,22.637329,31.697102,26.270599,18.217335,9.363785,21.597176,10.818443,1.908932,-5.685654,8.556404,-2.807293,-11.740093,-19.192429,-4.771557,-13.041286,-18.888588,-23.739853,-13.10813,-34.813586,-48.918306,-59.604523,-36.988373,-55.702947,-67.633929,-76.923384,-33.541959,-58.685863,-71.212767,-80.26195,-30.55503,-54.812753,-67.366365,-76.102288,-27.668198,-48.289748,-56.85805,-63.66838,133.899164,165.394403,-164.298677,198.367641
57,2.051468,1.222596,-1.985264,-4.370015,-23.051376,-39.395943,-50.014572,-55.709267,-19.531059,-17.198868,-12.8722,-6.710472,-3.761673,0.98156,7.007904,12.85183,8.552055,14.260712,21.292305,27.068939,18.105011,24.553642,31.076431,37.38224,-8.05355,-17.926083,-25.395289,-37.377957,-19.06192,-28.385985,-35.973752,-42.196465,-15.476938,-25.52762,-37.915556,-48.270359,-11.808099,-21.657969,-34.000827,-45.01145,-9.000864,-18.25688,-25.566091,-32.869127,16.52853,23.405972,19.939613,13.806381,31.72657,28.334541,20.63736,11.298637,22.383385,12.175198,2.657547,-5.297642,9.805183,-2.326641,-11.748562,-19.096012,-3.659763,-13.838654,-20.050678,-24.775486,-14.19327,-36.363336,-52.501003,-65.158973,-36.937429,-55.061546,-67.663384,-76.852865,-33.314594,-58.101704,-71.272109,-80.293567,-30.172054,-54.959349,-66.430537,-74.462908,-27.076197,-48.031199,-56.097718,-62.914963,136.25061,166.874591,-165.983963,194.255218
58,0.269394,1.189807,-0.738945,-3.140379,-23.142128,-39.566574,-50.607834,-57.136574,-20.178108,-14.53434,-10.110855,-4.458504,-4.479218,2.40406,8.309898,14.062614,7.910271,14.574623,21.337967,26.834908,17.624245,24.28299,30.51487,36.614685,-8.234356,-18.285532,-25.536265,-36.750387,-20.909925,-31.204397,-38.127298,-43.892841,-16.182251,-27.199698,-38.730599,-49.460691,-11.460012,-22.167472,-33.780748,-44.880601,-7.631054,-17.173407,-24.492313,-32.225749,16.311893,24.75214,23.113575,18.326969,34.134979,31.803589,22.691402,12.062702,23.659115,13.5042,3.274956,-4.348526,10.833893,-0.061455,-9.513645,-16.197681,-2.734623,-11.683044,-17.509174,-21.218777,-16.164899,-38.295382,-53.317282,-65.490974,-37.971069,-53.848088,-65.809791,-75.001803,-33.153179,-56.777343,-69.256854,-78.910172,-29.239808,-52.961352,-63.835662,-72.077829,-25.60944,-45.870738,-53.239106,-60.086794,136.566439,168.129329,-166.676474,191.17977
59,-0.406837,-0.017908,-0.806522,-1.026477,-23.560295,-39.976616,-50.650291,-56.872444,-19.788094,-13.011017,-9.004326,-4.251022,-4.183044,3.583946,8.903046,13.71151,8.08033,15.449295,21.539154,26.218758,17.704239,24.856567,30.882912,36.788979,-8.638821,-18.404093,-25.085302,-35.909223,-20.476992,-30.779493,-37.155964,-42.340127,-15.270815,-25.759678,-37.457306,-48.389475,-10.456691,-20.532629,-32.912784,-44.658762,-6.798288,-15.83719,-23.597302,-31.747863,16.474686,29.179516,32.2229,32.867088,35.264339,33.752632,25.413494,15.491009,24.285107,15.761433,6.272106,-1.119919,11.02747,2.134151,-7.8162,-15.233917,-2.618351,-10.998058,-16.701279,-20.595589,-15.466564,-37.482006,-50.554445,-60.974086,-35.911817,-53.129931,-64.244943,-72.502702,-31.171917,-55.73481,-68.493835,-77.192121,-27.789167,-52.057573,-63.870674,-72.218774,-24.809587,-44.691305,-52.109691,-58.762742,136.197081,168.352541,-167.445517,190.394412
60,-0.347443,1.412479,1.14727,-1.970579,-23.333817,-39.706306,-50.541687,-56.756058,-20.752831,-18.440781,-14.607468,-8.974571,-4.704895,0.120735,6.243324,12.176743,7.957649,13.994522,21.171799,26.882629,17.966194,25.210648,31.690521,37.59922,-8.730335,-17.769793,-24.530104,-35.742867,-19.361965,-28.727156,-36.08058,-42.316755,-15.072041,-24.845464,-36.504065,-47.079471,-10.742781,-19.940999,-32.183018,-43.803427,-7.220723,-15.137064,-22.667773,-30.674085,17.658234,30.242901,33.343163,33.305225,35.604687,34.326668,26.393738,17.146053,25.010204,16.863155,7.165432,-0.18013,11.453934,2.059593,-8.568249,-16.329803,-2.92448,-11.60202,-17.663155,-21.61314,-16.58721,-37.629343,-50.341653,-60.797819,-35.525074,-51.95161,-62.437385,-70.552686,-29.868613,-53.608064,-66.783812,-76.802415,-25.698978,-49.415891,-61.876722,-71.544429,-22.211747,-42.006027,-49.888714,-57.467589,135.950203,169.992725,-166.197681,188.651538
61,-0.630569,0.786268,0.572777,-1.179186,-23.835754,-39.440002,-49.245987,-56.358032,-19.832382,-13.826752,-8.722343,-2.797623,-3.178711,4.474983,10.92041,16.028938,9.270287,17.332878,24.462662,29.800758,18.631897,27.804337,33.949356,39.108353,-9.631397,-18.367907,-24.733881,-35.853215,-19.335474,-26.022118,-32.970212,-39.694091,-13.5071,-21.226334,-33.046536,-44.483453,-8.454372,-15.507628,-27.597,-39.704218,-4.861548,-11.452231,-18.922117,-27.371302,14.791946,24.12014,22.886295,20.35183,34.373817,35.892506,32.737827,29.576797,24.672832,18.020782,9.630718,4.106312,11.809101,2.434845,-8.302288,-15.529575,-2.373619,-10.455036,-16.822758,-21.603355,-19.417355,-43.107036,-58.411752,-70.835009,-35.18767,-50.467006,-56.918689,-62.20156,-29.021891,-51.689603,-63.56149,-72.528082,-24.975633,-48.96289,-59.672696,-67.122235,-21.592699,-40.715072,-47.370779,-53.142466,135.202417,170.86129,-165.742121,187.55465
62,-0.594978,0.220017,2.357655,-1.172208,-22.883377,-38.465652,-48.546524,-54.802437,-18.303108,-14.845963,-11.002235,-5.878944,-1.582603,3.531189,9.380379,14.509277,10.870628,17.188568,24.000664,29.031372,20.264854,28.449554,34.633484,39.99836,-7.832175,-16.442467,-22.567861,-34.10006,-18.102627,-27.327151,-34.727505,-40.632265,-13.564775,-23.380435,-34.453951,-44.464002,-9.212112,-18.321285,-29.438274,-40.491042,-5.477756,-13.058421,-19.952361,-27.583662,16.669006,28.134384,29.365311,30.199184,35.18589,30.721779,21.687298,13.930492,23.712273,14.558945,4.171829,-2.316799,9.959164,0.225277,-11.190491,-18.793316,-4.619465,-12.400188,-18.526096,-23.080387,-18.256201,-41.109102,-55.057841,-64.067257,-32.770635,-52.0296,-59.742875,-64.34288,-26.939235,-51.209555,-60.871765,-66.764823,-23.369505,-47.14576,-57.288636,-63.838564,-21.107341,-39.745035,-45.987878,-51.822675,134.514141,171.141653,-163.477764,186.442787
63,0.481453,3.571273,3.754292,-2.957165,-22.292976,-38.722229,-49.759827,-55.890198,-18.998909,-14.214363,-9.160767,-3.30162,-3.186951,3.184547,9.624825,15.307732,9.020348,16.226349,23.501701,29.04705,18.733749,26.356773,32.590714,38.247986,-7.240359,-17.80746,-25.587209,-36.723217,-20.952903,-29.760735,-36.210256,-42.341578,-16.834768,-26.394411,-37.000044,-47.357132,-12.767824,-22.654065,-32.911241,-43.700767,-9.04094,-18.196673,-24.708316,-31.747616,18.722134,33.258476,39.948235,47.599182,33.040638,23.744087,15.390759,9.549522,19.605904,7.145176,-2.633629,-7.988605,5.826931,-5.042896,-15.539761,-21.991825,-8.102932,-16.186409,-22.205257,-26.91576,-18.35568,-38.122543,-47.695092,-53.575707,-31.024395,-50.89963,-58.025133,-62.829006,-23.820407,-47.865091,-58.141625,-64.897429,-18.619108,-41.373147,-52.996674,-60.994927,-15.395366,-33.511146,-41.697892,-49.269048,134.977541,174.832321,-159.741526,183.605016
64,-0.788269,-0.653258,3.814888,-7.778514,-22.808876,-38.355446,-48.733521,-54.207916,-17.526398,-11.014252,-6.264725,-0.884857,-1.122093,6.584587,12.78717,18.014374,11.368103,19.208794,26.135902,31.210213,20.808563,29.389572,35.081406,39.911041,-8.561942,-18.366178,-24.786183,-35.271218,-19.547834,-28.153804,-35.694517,-42.692938,-14.226739,-22.957259,-34.306615,-45.814298,-9.80473,-18.857032,-30.350019,-42.387088,-6.547026,-14.761745,-22.192048,-30.282834,21.704521,40.268269,54.385185,69.652233,30.650883,18.575592,9.851418,4.575462,15.249195,1.864529,-7.450333,-13.689022,2.079849,-10.35696,-20.056858,-26.466751,-10.263462,-19.412727,-25.109997,-29.833088,-15.420128,-28.264522,-30.929114,-32.146091,-24.87603,-42.977175,-49.196059,-54.386089,-19.145962,-40.10714,-50.829388,-58.532999,-13.553907,-31.380077,-42.288288,-51.96291,-9.525866,-23.797621,-31.756755,-39.710023,134.059439,174.319962,-156.056471,175.967401
65,0.607224,-0.734089,9.108295,-12.455182,-22.263222,-38.169708,-49.619751,-56.100655,-16.31218,-13.780861,-10.745544,-6.720543,-0.369186,5.075912,10.398674,15.345955,11.57753,18.623657,25.060043,30.349045,20.359268,28.134956,34.393845,40.172997,-6.535664,-17.011127,-23.637255,-34.199231,-21.103018,-29.759129,-35.313517,-41.351472,-16.797965,-26.598187,-37.252233,-48.661609,-12.005021,-22.22527,-32.265146,-43.400721,-7.175645,-16.634141,-23.563525,-31.442569,25.201035,40.813236,52.360039,64.888802,22.885952,9.751797,0.536327,-7.605228,5.662537,-8.658485,-17.812099,-26.602364,-8.543701,-22.299213,-31.697674,-40.514603,-20.764618,-30.050755,-36.942101,-44.096317,-10.386234,-17.062009,-18.798246,-24.503119,-14.602614,-26.029713,-33.866519,-42.010102,-7.752517,-21.740035,-35.429392,-47.802291,-1.375182,-14.596007,-26.740398,-39.511557,3.20497,-7.283708,-16.651801,-27.367165,134.432201,173.756366,-147.182636,163.682712
66,-0.410385,-0.744339,4.331131,-1.191659,-22.246284,-37.765961,-49.137955,-54.770737,-16.056862,-12.529564,-8.912086,-4.655914,-0.313797,6.112976,12.148132,17.338257,11.260414,19.397049,26.374054,31.787109,19.429665,28.250771,35.390511,41.472931,-5.402791,-15.962976,-22.76608,-33.674846,-20.895598,-29.975935,-35.58491,-41.303183,-16.384299,-26.82796,-36.908221,-47.857743,-11.456677,-22.184824,-31.475049,-41.690544,-6.412904,-16.070051,-22.757312,-30.137659,26.380005,39.959564,49.754162,57.211819,18.116913,5.457344,-4.26939,-14.202061,0.396252,-13.004265,-22.680016,-33.827934,-13.918133,-26.992836,-36.930199,-46.873856,-25.44754,-34.481163,-42.266979,-50.16449,-9.875373,-14.903338,-16.895407,-24.385917,-14.009131,-22.996841,-32.051181,-41.008665,-8.400835,-18.264166,-32.309359,-45.026702,-2.708064,-11.733505,-24.009178,-36.767616,2.211035,-6.831078,-15.890789,-26.291164,133.792048,173.08483,-143.081274,162.563857
67,-1.728516,-1.802495,-14.889221,14.431565,-22.215843,-36.85421,-47.423859,-52.332344,-14.772263,-11.510811,-7.514076,-2.868462,1.705284,8.132401,14.348145,19.633484,13.64399,21.841278,28.630486,34.056358,21.912804,30.790215,37.809906,43.61721,-5.049516,-14.837204,-21.232509,-32.150476,-19.183568,-27.924092,-34.054611,-40.535687,-15.142127,-24.84923,-35.170935,-46.597355,-10.521344,-20.353862,-29.854286,-40.770401,-5.812628,-14.820284,-21.333594,-29.030474,25.657597,47.698917,62.179527,71.331024,30.967197,22.193012,12.138748,1.897602,12.892342,4.937725,-5.226231,-14.378014,-1.667347,-8.10276,-17.354221,-26.087036,-14.479408,-19.466057,-25.467052,-32.987709,-4.017729,-17.741079,-26.237874,-35.425717,-25.539415,-36.940331,-45.734949,-54.172556,-23.350424,-35.368598,-47.302236,-59.05266,-20.187753,-32.314176,-43.702743,-53.914254,-15.852875,-28.29583,-36.342587,-43.729851,131.855822,171.369234,-158.178205,177.08232
68,-1.576996,1.364005,4.44912,0.636214,-21.716881,-35.66185,-45.317459,-50.708199,-12.674561,-8.030548,-3.903809,0.319748,3.088303,11.066208,17.278633,22.193985,14.414177,22.989922,29.709206,35.000381,22.352486,31.856003,38.761368,44.174423,-4.68241,-15.749381,-23.777367,-34.512552,-21.440299,-30.197742,-35.353902,-40.480421,-17.189647,-27.956388,-37.430197,-47.441483,-12.335509,-22.742615,-31.200816,-40.693769,-7.231591,-16.334281,-21.984814,-28.757229,24.611092,42.991219,56.807899,68.674049,27.099209,17.404976,5.826473,-4.815159,10.773239,0.676517,-9.624825,-19.210224,-2.394447,-11.678925,-22.530384,-32.316856,-13.405952,-21.594944,-29.575195,-37.460232,-13.488389,-26.425657,-31.83419,-38.806614,-28.06371,-39.927261,-47.853667,-55.826942,-23.13331,-37.105143,-49.398354,-59.403742,-17.343468,-30.969684,-42.006459,-51.573604,-11.208441,-23.363639,-31.92064,-40.069904,130.121098,172.820739,-153.886814,177.806035
69,9.188461,-5.640344,6.130199,-11.797663,-25.307236,-41.416054,-52.837029,-58.504257,-22.265167,-18.448105,-13.837738,-8.064308,-4.417305,1.011772,7.942085,14.429283,9.231033,19.052696,24.44561,27.691498,19.238091,31.562691,35.327454,37.111931,-8.401638,-12.202252,-16.731398,-28.613659,-14.176907,-15.6407,-24.007819,-33.227403,-10.965762,-13.22348,-25.163602,-37.602605,-7.909857,-10.888574,-22.287638,-34.012127,-5.303558,-12.509831,-18.529508,-24.869793,22.839718,38.562813,49.929028,59.955711,22.10535,11.778488,1.539574,-8.424625,5.193272,-4.89275,-14.076977,-22.931728,-7.839947,-18.100376,-28.064747,-37.733631,-18.019695,-26.439171,-33.975735,-42.331066,-7.853232,-15.742897,-18.904333,-24.641193,-16.21325,-26.066763,-33.894122,-41.632869,-12.40714,-23.57322,-36.531791,-47.483659,-8.407504,-19.898515,-31.289243,-41.663713,-4.240401,-15.023813,-23.381299,-31.716308,139.168224,167.21675,-147.897949,166.044727
70,1.15242,6.45897,1.38113,-2.814522,-25.606384,-41.858482,-52.729111,-58.595924,-22.630005,-20.279846,-16.174507,-9.943314,-4.92794,-0.182304,7.039948,14.057007,8.621063,15.472527,21.936836,26.670113,18.690147,28.570404,33.938026,37.75692,-10.66442,-18.438982,-24.195355,-35.515996,-18.427867,-24.761112,-32.932853,-40.232431,-14.40773,-22.246574,-35.516861,-47.424533,-10.363139,-18.297326,-31.054035,-42.202763,-6.79199,-15.010352,-21.801847,-27.723094,23.039303,39.260731,50.443954,59.191875,20.78476,10.297737,1.206608,-8.319683,3.498859,-6.255798,-15.84938,-25.54636,-9.415512,-19.569168,-29.792862,-39.629574,-19.160042,-26.772766,-34.04274,-41.903114,-5.968486,-12.292963,-15.225429,-21.081344,-13.543903,-23.235939,-31.094482,-38.784662,-10.359249,-20.301004,-32.820159,-43.821921,-6.816319,-16.410419,-26.6332,-36.455004,-3.033921,-12.305993,-19.416553,-26.657221,140.141029,173.704063,-146.696434,163.258549
71,-0.374222,1.283915,2.708874,-0.184448,-23.912086,-40.201035,-51.159096,-58.783035,-21.674767,-19.602814,-15.880394,-10.022621,-4.571686,-0.53112,5.834541,11.841774,8.378105,14.331894,20.984917,25.599518,18.294754,26.669426,32.740288,37.724991,-9.381308,-18.022784,-24.289895,-36.268857,-19.376477,-27.790155,-36.259163,-43.259869,-15.909561,-25.071594,-36.933415,-47.539944,-12.152605,-21.22763,-32.339802,-43.129452,-8.601585,-16.759309,-23.165667,-30.143525,22.538681,38.116436,48.593674,57.52224,18.25058,6.602211,-2.698803,-12.101154,1.05011,-9.00713,-18.487358,-27.57597,-11.063747,-21.587105,-31.500206,-40.492229,-19.618092,-28.20631,-35.778866,-43.303013,-5.191604,-11.352751,-14.211363,-20.119457,-12.890954,-21.778815,-28.586303,-35.496267,-10.082978,-18.922302,-30.979441,-41.757419,-7.043437,-16.314335,-25.935235,-35.162846,-3.892252,-13.130237,-19.915496,-26.642524,139.737482,174.98611,-144.016886,163.072232
72,-1.601372,-0.119611,-11.367416,9.518023,-22.947578,-38.772354,-49.82563,-56.812019,-20.475426,-17.325211,-13.254089,-7.716408,-4.183617,-0.36953,5.422096,10.978317,8.739738,13.933296,20.318298,25.44342,18.769913,26.053162,31.684799,37.101974,-8.861369,-18.047793,-23.558647,-33.930987,-19.484169,-29.685893,-36.220136,-41.104594,-14.946255,-26.032739,-36.734023,-46.092978,-10.743275,-21.302966,-32.93557,-43.437154,-6.935004,-15.521213,-22.117145,-28.469904,25.118179,45.356998,58.616066,68.331928,29.065762,20.184975,11.415024,2.782288,11.860485,4.366322,-4.57243,-12.755871,-1.975708,-8.45644,-16.460724,-24.456768,-13.903255,-19.480705,-25.294418,-32.544079,-3.008665,-14.326837,-21.732069,-30.508162,-20.696639,-29.989705,-37.195669,-44.838024,-18.944965,-28.177269,-39.480002,-51.382024,-16.905719,-26.854822,-37.272425,-46.802737,-14.114106,-24.710477,-31.608369,-38.185714,138.118601,174.795795,-155.401812,172.519551
73,-2.146912,-1.887463,9.713974,-5.025619,-22.546005,-38.234596,-49.343491,-55.91526,-19.6035,-15.75119,-10.916634,-5.117455,-3.56163,1.206665,7.236099,12.56321,9.407387,15.167542,21.457787,26.583023,19.274597,27.3032,32.491608,37.583656,-8.995121,-16.974694,-21.428937,-30.745468,-16.948018,-25.31699,-32.183141,-37.50368,-11.181147,-21.296297,-33.037211,-43.016387,-6.311942,-15.469219,-27.932243,-38.375473,-2.064687,-9.435401,-16.772153,-23.142449,25.076923,40.51466,52.265396,62.370644,21.579666,14.073486,4.94339,-3.315926,5.217991,-3.677845,-12.581749,-21.009579,-7.864494,-16.797352,-26.06638,-33.867874,-17.93272,-24.343815,-30.730991,-36.717739,-9.61491,-16.400786,-19.628418,-27.241194,-19.145592,-24.044252,-29.321133,-35.106962,-15.117736,-22.667835,-34.096725,-42.52933,-10.4168,-16.26512,-25.684096,-34.783575,-4.808381,-11.692008,-19.153434,-26.556444,135.949774,172.862915,-145.709753,167.448515
74,-4.144707,-3.410969,2.328358,-1.003135,-21.735191,-36.468201,-47.606277,-55.731354,-18.732948,-15.421486,-11.71566,-6.666069,-2.615204,3.465614,9.607086,14.673042,10.100441,18.00087,23.495293,27.462616,19.436188,29.276619,33.457718,36.586189,-9.410084,-15.539985,-17.614923,-25.075978,-15.120576,-20.862747,-26.663272,-31.788556,-8.276963,-17.005816,-28.320406,-37.87585,-2.637545,-9.372416,-21.770911,-32.329799,2.275564,-2.37912,-8.804621,-14.76687,22.537537,38.931656,50.840893,59.866333,22.8479,17.764549,8.57626,-0.09779,6.205273,-0.146828,-9.457111,-17.790756,-6.748695,-14.286404,-23.322773,-31.549015,-16.45752,-22.595329,-29.283028,-35.897655,-7.55541,-14.786321,-19.369684,-27.271822,-17.944546,-22.602442,-28.164301,-34.903556,-15.266554,-20.914432,-32.619346,-43.562477,-11.854412,-17.800483,-27.509376,-36.942246,-6.865781,-14.906241,-22.063237,-29.317367,131.740522,169.410897,-143.44594,166.404331
75,-4.129257,1.538141,5.737896,-2.029921,-22.043266,-36.67511,-46.868248,-57.221718,-21.265526,-18.381271,-16.191902,-12.950134,-4.649162,1.20575,6.295052,10.686264,9.271889,17.673111,22.084694,24.386673,20.074196,30.552292,34.37851,36.348953,-7.536638,-13.313883,-16.031148,-22.555141,-15.880045,-21.322356,-26.471661,-29.796488,-10.911668,-15.695596,-24.561597,-31.357044,-5.314302,-9.035197,-18.128377,-25.931839,0.017537,-1.065689,-5.177155,-9.416691,23.451633,38.356876,48.969383,57.862072,19.418678,11.908665,4.018707,-2.966652,2.677059,-6.524849,-14.624748,-21.8894,-9.739723,-18.608379,-26.55035,-33.348827,-17.945995,-24.409733,-30.303612,-35.213528,-8.903298,-16.364168,-20.819769,-27.611264,-20.12131,-22.928298,-26.899714,-31.931879,-16.488225,-20.356147,-30.276721,-38.340337,-11.788648,-14.217168,-21.995003,-29.581164,-5.662204,-10.22982,-15.662992,-21.150072,127.360783,170.676796,-137.958527,164.102168
76,2.359085,2.152681,-3.011913,0.328636,-23.372726,-40.166245,-53.219604,-66.879959,-30.308075,-34.783401,-38.334618,-40.705948,-16.843758,-18.258133,-20.501518,-22.773056,-3.35598,-1.37043,-3.014145,-4.759712,9.350853,12.99305,10.781593,9.009476,-6.169051,-12.813581,-15.945191,-20.615252,-23.863941,-25.600733,-19.635705,-13.279982,-23.031051,-22.668206,-13.818075,-5.835537,-19.458481,-18.354384,-10.020919,-3.568433,-15.121688,-15.976869,-9.78318,-3.573805,23.422565,41.060715,52.603226,62.466488,24.798489,22.32233,17.312336,13.122768,7.239475,3.229694,-2.47942,-7.004757,-6.488972,-10.997429,-15.183506,-18.925667,-16.849937,-21.859703,-25.841274,-28.778458,-4.83975,-14.140103,-22.280598,-30.614125,-21.788015,-26.847782,-29.233077,-31.221873,-21.516005,-25.491188,-31.294862,-34.796851,-18.863145,-23.01444,-26.863652,-29.278526,-14.339928,-20.227521,-24.954453,-28.404325,129.651775,171.787253,-141.038532,163.38858
77,23.641777,13.797142,5.697041,6.129222,-39.83139,-65.471878,-84.540939,-102.832031,-48.142204,-59.608612,-72.513771,-82.157021,-34.672623,-47.510033,-65.072021,-75.496674,-22.631149,-32.827034,-49.669189,-59.547844,-11.341324,-18.065186,-29.646492,-37.649231,-14.702773,-23.721544,-25.890404,-29.832612,-42.530967,-48.958691,-42.488976,-35.85161,-36.709076,-39.83303,-32.588162,-25.539847,-28.164301,-33.64181,-28.892709,-23.095272,-17.443997,-23.633673,-21.652967,-16.993281,24.170208,40.193481,51.186275,60.144653,21.788692,22.608261,23.464909,25.123844,6.034012,3.412743,2.882137,2.274399,-7.530212,-12.012978,-13.07333,-13.142052,-18.067589,-24.8703,-27.206211,-27.920952,-8.036878,-19.696714,-28.81972,-37.591243,-30.226086,-39.204843,-36.53951,-32.531105,-28.37382,-37.207896,-35.924969,-31.734525,-23.626263,-29.739801,-28.56043,-25.961108,-16.145077,-23.378212,-24.12533,-22.648878,153.268232,184.533712,-135.366812,168.467119
78,-5.415115,-8.384039,-1.802273,6.714246,-35.679817,-63.175964,-84.299355,-103.349991,-55.13443,-72.336502,-84.527779,-92.794876,-39.975014,-60.039139,-69.895363,-76.773834,-24.579964,-41.837997,-51.674995,-59.222832,-9.990234,-25.538063,-35.98629,-44.039268,-11.790994,-16.910042,-16.922021,-15.966125,-34.360276,-24.666573,-11.846508,1.524432,-31.870129,-12.975244,3.595109,18.175493,-23.728893,-0.744525,14.245573,25.461671,-12.026634,5.973179,16.215473,25.942089,27.577572,45.550117,57.454662,68.99826,29.855461,35.057602,39.788933,43.108234,15.940647,21.06514,27.241344,30.073185,2.395821,4.670734,10.435638,13.696747,-10.135117,-10.864048,-6.619434,-3.470936,-7.924739,-22.307645,-33.032457,-44.819499,-37.005787,-50.257796,-43.061959,-34.083202,-34.622777,-50.533604,-42.275197,-31.725386,-28.402472,-43.228129,-36.689995,-28.244885,-19.012211,-27.81961,-24.415804,-18.282321,147.935343,175.350993,-137.086859,174.382685
79,-4.427948,-3.991855,7.055511,-1.029318,-28.34198,-58.281784,-83.772011,-103.069496,-55.156517,-78.462524,-94.563446,-109.112434,-40.653763,-68.805428,-87.14859,-104.774666,-26.422348,-53.457642,-69.732513,-85.392151,-13.806267,-35.95356,-49.209938,-63.196449,-13.567677,-15.671575,-9.770459,-4.962201,-29.028807,-13.02205,0.576378,12.553735,-22.245339,0.669745,16.875153,31.871549,-11.574744,14.039388,30.188974,43.77814,1.832814,21.469198,32.939214,42.77414,27.69722,45.724926,57.277679,66.346893,27.634048,43.551464,41.791248,38.614941,11.665306,29.072971,28.4935,25.099583,-1.727085,14.137459,16.123753,13.75843,-12.181549,-1.115341,2.890606,2.391644,-7.274013,-21.71904,-33.654716,-44.869084,-51.018684,-35.624368,-22.767377,-20.313292,-48.741947,-27.044519,-16.798273,-16.052822,-39.183662,-19.937047,-10.979038,-9.903593,-26.077878,-13.931078,-7.022442,-5.591932,143.608103,170.245546,-129.930639,172.239776
80,-8.724861,-9.767124,-6.020222,0.490669,-31.239166,-64.396133,-88.874474,-107.720604,-62.934837,-91.892967,-104.46785,-114.213066,-51.115379,-81.17672,-96.21563,-107.839622,-38.017044,-65.424957,-81.054955,-92.394562,-25.117264,-46.245461,-57.8825,-67.337036,-10.376292,-4.678829,5.296333,7.046093,-4.047184,19.162388,33.082783,43.072641,6.891161,32.063099,47.491439,58.939163,18.458001,43.350086,57.600043,67.46813,30.548052,51.514108,62.821782,69.60173,31.660366,52.14941,67.267227,79.581299,38.261776,61.441727,59.915943,53.699799,22.251949,49.432983,47.306442,39.430161,9.606686,34.179268,32.307873,24.845638,0.627193,19.971714,19.125423,12.89978,-6.751543,-20.000711,-29.080986,-38.960373,-45.357283,-24.270505,-13.163891,-14.731117,-38.54683,-14.993803,-6.440074,-8.112831,-26.773188,-4.39842,1.959402,-0.100838,-11.559554,4.082011,6.50942,3.651611,134.845047,159.835245,-135.989056,172.087268
81,-5.761871,10.553269,4.274025,0.66252,-29.764366,-60.13298,-85.014038,-105.794907,-61.165924,-90.424004,-106.405563,-118.808098,-51.97506,-83.191795,-101.242676,-114.231491,-41.144714,-70.544701,-87.580719,-100.164986,-29.717445,-53.606873,-66.652794,-78.1493,-13.464677,-7.76215,3.532185,6.125826,-4.840862,15.665153,29.809332,41.312631,9.35951,34.089562,49.861605,62.048234,23.193393,46.827437,60.104331,69.325397,35.244974,53.026252,64.575987,73.050737,24.061432,48.88773,67.74828,84.102345,34.451408,53.571224,66.403656,74.801674,20.904579,44.685745,59.174824,67.308769,9.575043,31.457005,46.593819,56.008987,1.667919,19.779396,31.997623,39.999161,-11.224619,-19.577351,-25.876448,-31.173584,-37.286072,-28.095573,-14.678011,-5.909391,-28.715671,-12.638086,0.881796,9.57965,-14.70759,1.27317,13.625722,20.875468,1.127254,13.282699,21.518537,26.680192,128.928022,169.51524,-131.870184,171.876514
82,-7.074165,11.909925,5.782528,1.23612,-30.336571,-60.518188,-84.339752,-104.489937,-60.494499,-88.9048,-106.357841,-120.429268,-51.987991,-83.698082,-104.759789,-121.368256,-42.490425,-72.696991,-92.813759,-108.623543,-32.418251,-57.479439,-71.999474,-85.094147,-14.261443,-9.495114,1.478243,6.150773,-3.844334,13.747062,27.282691,40.890814,11.778582,31.065891,45.561739,58.799854,26.752254,46.748829,59.637992,70.015025,39.449189,54.52265,64.78705,72.978736,22.832508,49.489174,70.740967,88.487206,38.707409,55.974941,70.397072,83.635483,27.025108,47.357998,62.714825,74.392605,15.650539,33.545265,49.412956,63.277016,6.689072,21.168137,33.238678,45.350018,-12.719473,-15.975634,-17.971469,-22.556684,-27.185989,-14.246932,-2.152558,7.74239,-17.645798,2.652427,15.452979,27.014694,-4.752991,14.964842,27.555751,37.247478,9.74403,26.591827,35.815795,43.522925,121.607752,180.582519,-126.333761,172.269987
83,-5.649376,14.190739,1.810455,19.6073,-31.670723,-61.895828,-86.074562,-106.705971,-59.345055,-86.334,-105.885429,-122.018852,-52.109299,-82.625885,-106.498032,-126.357708,-43.896561,-73.956184,-96.907539,-114.549866,-34.89109,-60.715256,-77.420654,-92.357941,-15.5779,-12.917322,-3.830502,0.319682,-5.791942,9.231872,21.147293,33.431426,11.996747,29.302979,42.598954,54.417304,28.329051,45.413599,57.848403,67.105037,41.900495,54.835601,64.531033,72.120406,28.690338,58.192177,81.833725,97.98008,47.135639,70.431118,85.277023,97.03125,34.151688,59.910793,78.854141,92.99921,22.056828,48.354149,66.765575,80.255184,12.845707,36.723633,50.607376,61.257534,-13.136042,-18.453678,-18.742732,-23.717777,-27.878211,-13.589413,0.295476,11.410118,-17.799742,2.145827,16.581406,27.052485,-3.320875,15.629091,29.540718,38.791424,14.059025,28.64052,36.629542,42.432907,115.854092,194.204613,-124.62759,191.308643
84,-5.014114,14.031731,2.13232,7.007066,-31.071739,-59.148903,-81.627274,-101.713142,-58.726387,-81.95137,-99.789619,-115.20813,-52.847214,-79.083824,-100.240631,-118.533897,-45.442886,-71.416626,-92.048721,-108.388252,-37.670059,-60.089951,-75.230713,-89.538574,-15.579691,-14.237113,-5.637442,-0.343085,-5.663377,8.818638,20.222642,31.503269,11.419874,27.5991,40.366183,51.647057,27.062983,43.018672,54.64825,62.960041,40.167964,53.470052,63.027349,70.24344,32.162819,64.342804,88.129921,104.557056,53.521214,78.049679,94.688015,109.444885,41.315403,69.283504,89.313984,106.498718,28.687477,55.885048,75.097103,92.043056,17.528286,39.11768,55.385857,70.2701,-14.317945,-17.621098,-17.213854,-19.470893,-17.736139,-1.954154,12.301732,23.677393,-5.181539,16.378803,30.759609,40.96158,7.853356,27.219088,40.112944,49.99159,22.252193,36.107071,45.426382,53.636284,110.706768,207.714199,-122.628479,197.793563
85,-5.906181,12.095856,8.359222,14.795522,-32.988625,-59.385338,-79.551315,-98.783569,-54.276352,-75.425148,-93.010483,-108.712921,-47.156181,-69.96151,-90.541534,-109.550629,-39.373398,-62.423286,-83.20816,-100.139809,-31.914482,-53.415642,-70.047569,-85.122871,-15.779268,-13.453995,-4.025509,2.171947,-2.875531,12.131362,23.855049,34.911089,12.902563,31.459859,44.036133,55.39895,27.906184,46.169548,58.35241,67.133195,39.80975,55.278043,64.595253,71.061942,30.894127,59.357185,82.395802,103.402061,54.006786,78.551102,95.331745,110.108585,42.700081,67.433167,87.184925,105.568428,30.753765,55.48914,73.244877,89.847679,19.414902,38.877983,51.599464,65.051308,-16.985254,-18.771816,-18.154436,-20.756289,-9.617194,5.006847,17.575711,31.186428,3.503101,22.330987,35.572622,47.972722,15.854604,34.002062,45.561245,55.692944,28.556663,41.571427,49.832891,58.257006,104.781818,218.819547,-114.288025,211.598578
86,-21.764832,22.86309,14.294472,14.577235,-22.376633,-50.848503,-75.805092,-93.177967,-69.624252,-108.746395,-123.473911,-125.977592,-71.412048,-113.324547,-124.562473,-125.251865,-70.05455,-109.490547,-117.711411,-117.440929,-66.921272,-98.285751,-104.001446,-102.760563,31.597748,47.781296,57.316856,62.886867,54.220937,45.644731,38.264446,32.390993,39.881257,28.697207,21.720028,17.357053,20.268585,11.031896,3.005331,-0.877473,-1.390311,-6.559808,-8.697916,-9.873397,32.71471,59.996052,80.029221,92.390957,75.584736,112.584286,117.147732,112.077084,65.511875,104.461155,109.139385,103.101711,51.996002,87.992935,94.914608,92.359028,37.037144,68.596001,78.857918,79.146023,-17.434673,-18.459915,-12.964746,-5.083356,6.244757,36.779842,49.83073,53.72539,23.469294,58.60744,70.19441,70.783386,38.089939,68.605634,78.230485,79.243316,49.128443,70.084803,75.947758,75.57318,82.748451,241.060718,-100.262089,225.553893
87,1.479263,7.238198,-3.867188,10.788476,-29.654045,-59.238167,-84.014282,-103.766155,-72.594452,-109.485683,-121.711063,-122.351532,-73.552551,-115.690784,-122.610855,-118.085403,-71.58062,-112.741871,-116.145973,-109.926281,-67.893906,-99.150066,-104.016781,-100.525303,32.985526,48.88564,56.608887,64.01622,56.627845,47.283093,36.518329,27.577919,43.372069,30.093137,17.184831,7.529907,24.215609,11.439634,0.208408,-6.589201,1.708757,-3.7987,-6.736044,-8.000198,37.054596,66.146278,88.84243,106.676617,65.232067,101.890812,117.913227,126.215115,54.052277,92.865372,111.735935,121.140804,43.576756,80.775089,99.587803,108.740444,34.677486,65.767879,81.737251,89.952335,-13.223789,-16.633461,-14.282994,-12.117592,-0.656222,23.546235,36.550254,44.552984,17.73972,43.766469,58.799669,67.065517,34.144211,56.746961,67.881796,72.929954,48.049354,64.874736,71.274734,73.544741,83.551369,247.891085,-104.805622,235.934538
88,-0.412788,6.282178,4.163361,6.513557,-38.265266,-68.239632,-89.213448,-105.651169,-73.717117,-107.737312,-120.050297,-122.588539,-70.681915,-109.109459,-120.432816,-120.481796,-65.419807,-104.320621,-114.54546,-114.822292,-59.598999,-88.436165,-97.107124,-99.297638,18.711919,38.034672,52.035096,62.10029,45.903095,44.584477,36.743965,28.993239,41.070508,36.637199,27.31406,16.407084,31.006117,25.765545,17.238677,8.230404,16.755789,16.911277,16.17657,14.949219,36.854439,64.533291,86.176243,104.576969,61.749115,94.841251,112.058659,123.681736,50.41626,86.557045,106.527042,120.231686,40.168419,73.022861,93.023014,106.411114,30.613346,55.87841,70.384769,81.077271,-11.054991,-11.540781,-7.782281,-8.621346,6.892704,25.649145,35.342725,43.087214,23.167396,44.398176,55.436679,62.469681,37.035859,57.700326,66.417632,70.618142,47.455933,65.346138,71.139747,73.434146,82.637701,254.029323,-101.143141,242.304155
89,-0.77282,2.68145,4.676857,10.460582,-42.008171,-73.340149,-93.254299,-110.455284,-70.650101,-98.10791,-119.103928,-134.206352,-64.304123,-94.514008,-116.679096,-132.757759,-56.692543,-85.023537,-107.055702,-124.890175,-47.806549,-67.167892,-83.118668,-98.657856,-8.637648,-2.313417,2.563692,3.039541,33.964332,39.284377,31.940895,22.260344,44.936825,52.253446,42.538871,29.078331,50.81145,61.318591,56.169101,45.626083,50.915808,66.407134,71.098251,70.80753,33.666286,62.09404,84.604225,103.625393,60.406666,91.23888,108.867016,121.420612,49.592571,85.14164,105.869122,120.741634,40.160751,72.24432,92.306957,106.681652,31.654015,56.853848,71.923313,84.094276,-11.467052,-11.827736,-7.347867,-6.935498,8.071396,24.799212,34.992785,43.946286,25.371948,44.503275,55.901166,64.426984,39.648211,57.889097,66.843401,72.073537,49.974238,65.225972,71.061818,74.506936,81.20347,256.58931,-97.127695,252.643274
90,-1.589813,5.518511,4.456272,10.212098,-37.63092,-67.337837,-87.19574,-106.033459,-66.579323,-89.587784,-108.345108,-124.546852,-60.434532,-85.865135,-105.638924,-122.801285,-53.547478,-77.982674,-97.898712,-115.602093,-46.064873,-66.039276,-80.871162,-95.948639,-9.147274,-5.15017,-2.735111,-4.785472,32.754765,45.378155,46.578892,44.433003,43.867863,57.900397,55.467925,48.839265,49.819615,63.859003,62.090966,55.942847,50.150782,64.758769,68.390496,67.728716,32.967567,61.616421,84.707565,105.368385,60.199299,90.471611,108.882523,122.957382,49.770298,84.788818,105.731506,120.194893,40.52702,72.105103,91.967926,106.508904,32.131805,56.909065,71.900711,84.198532,-11.723192,-10.828923,-6.050244,-6.864423,12.574298,26.773497,35.247073,42.811869,29.899488,47.065053,56.891272,64.77575,43.122103,60.07395,67.66042,72.464108,51.871952,66.077387,70.554477,73.166211,78.877258,262.002166,-93.407822,262.749717
91,1.706657,3.509708,4.947052,7.446173,-36.722374,-66.103363,-84.096565,-97.498569,-78.734207,-95.290775,-88.833389,-76.819267,-72.19265,-90.377197,-80.297127,-65.904465,-63.831367,-80.535278,-70.258484,-55.362625,-54.879341,-67.543831,-63.336296,-55.167618,-0.691975,4.535568,8.761704,9.757244,22.560143,38.930918,50.810524,58.062739,29.825078,47.713988,59.4252,64.752717,34.15335,50.119475,59.009496,62.479437,36.492517,49.078178,55.671825,59.237788,31.89188,59.888191,82.631493,102.107964,60.252056,90.894241,109.353676,122.908516,49.491062,84.206657,105.300293,119.861412,39.537048,70.557976,89.876633,104.114342,30.252914,54.451847,69.274693,81.848831,-10.039876,-9.21909,-4.370571,-5.396986,15.750184,31.52729,39.520325,45.933229,32.035496,49.611454,58.44837,64.910798,44.379033,62.073675,69.412156,73.624954,52.777274,68.414887,73.714307,77.039073,79.643211,265.481308,-89.401474,270.165324
92,-2.353821,8.354398,3.307056,7.796978,-33.835487,-59.591904,-76.94046,-91.675243,-75.909348,-90.52597,-78.537025,-63.09597,-71.840401,-87.497864,-72.412376,-53.224182,-65.663681,-78.557167,-65.283737,-48.129044,-58.835793,-69.421577,-61.819725,-50.572357,3.839826,6.966249,10.047718,12.337732,21.534283,39.143957,50.19549,55.211105,25.988896,44.910457,58.314619,63.99189,29.52491,46.470767,58.196923,62.190754,31.989307,45.677583,53.410093,55.982244,30.177727,56.863117,80.309315,100.115719,59.301281,90.459194,108.330402,121.058178,49.817448,84.545231,105.464344,119.995136,40.596771,71.579132,90.806065,105.045147,31.677933,55.915661,70.729008,83.51984,-10.292312,-10.060624,-4.616399,-4.035081,17.208605,32.080265,39.164767,44.551131,33.040114,49.26065,57.212065,62.542608,44.770654,61.707619,69.012075,72.913651,52.973949,68.427484,73.779948,76.73736,76.236649,273.770081,-87.14716,277.896676
93,-2.204475,5.612433,3.001614,8.579108,-29.213905,-53.319168,-70.487938,-85.893631,-73.587112,-86.705017,-74.361763,-59.586411,-69.379005,-82.283478,-66.246872,-48.826218,-62.309761,-71.941452,-57.544327,-42.224236,-54.020691,-61.04393,-52.637329,-42.672958,2.907827,4.610471,6.830954,8.480061,21.946652,38.712321,50.002828,55.611865,26.073864,44.03286,58.410394,65.343792,29.19683,45.279416,58.704696,64.284525,30.418315,44.525752,53.938367,57.96505,29.575539,55.705032,78.68042,98.033638,59.885387,90.726013,108.802185,121.467133,50.790424,84.824295,105.638123,119.748459,41.334114,72.019958,91.322136,105.424919,31.876316,56.231632,71.840172,85.062675,-12.014778,-12.408622,-6.305149,-3.264312,15.665771,31.41157,38.769996,44.284864,31.804117,48.028421,55.979342,61.11006,43.879411,60.245431,67.411196,71.025633,52.311862,66.935718,71.543719,73.065063,73.37657,279.367802,-84.801149,286.461072
94,-0.396423,5.76755,4.045601,5.539382,-27.103615,-49.659691,-66.080589,-79.816017,-71.887436,-82.678185,-70.289497,-55.247154,-68.360596,-78.098488,-62.237434,-45.463829,-61.67942,-67.932816,-53.581238,-38.817329,-53.499184,-56.626511,-47.334595,-37.573814,1.383147,3.284381,5.076007,7.339036,20.932093,37.425628,48.196567,52.751833,26.242196,44.016805,56.639639,61.862489,30.343164,46.096806,57.12049,61.326742,31.853394,45.879877,53.718474,56.792965,28.858795,54.624252,77.224388,96.651421,57.626324,88.30204,106.543579,119.413033,48.176365,82.39563,103.600616,117.528648,38.448257,70.183411,89.549789,103.2407,28.849182,54.271374,69.821892,82.489471,-11.200537,-9.957748,-2.874296,-0.357658,19.238526,35.572745,42.669843,47.771354,35.665618,52.214852,59.011102,63.164496,47.506938,64.784889,70.119569,72.304113,55.173684,70.44734,73.717518,74.097222,72.619543,284.886437,-81.116152,291.751539
95,-59.67144,19.441129,1.676102,5.441014,2.968025,-1.35704,-13.840828,-27.877922,-34.798737,-19.408264,2.575722,14.695129,-47.357311,-24.622307,-0.801544,17.99881,-54.384041,-37.47282,-13.226509,4.068489,-58.231773,-69.369392,-72.918034,-75.070496,-8.779303,-6.859977,4.334817,15.83083,11.070861,35.777015,43.475995,46.723634,26.097083,45.621884,52.273206,52.3097,36.159683,52.786413,55.564379,55.131324,45.334806,56.307422,63.727722,70.227015,28.516388,54.160423,76.875343,96.672935,56.893787,87.31144,104.226608,116.222763,47.552433,81.067772,101.135902,114.682961,37.902374,69.136047,88.094902,101.836395,28.526173,53.251762,68.768921,82.125092,-11.407339,-8.683219,-0.224648,3.493777,20.893869,37.742531,44.845372,49.921935,36.926067,53.360754,59.882771,63.082183,48.055406,65.77518,71.140982,72.570813,55.003006,71.120728,74.325945,74.055293,12.6828,304.222374,-79.705353,297.087361
96,-13.991318,16.302109,-0.667763,4.082567,0.387611,-2.283554,-7.083206,-16.635761,-24.355602,4.587364,26.00029,37.442322,-33.306656,-0.319176,21.96064,36.43959,-36.565762,-12.09446,9.565659,23.36586,-36.024799,-42.850857,-45.579643,-47.748127,-18.745202,-20.263151,-9.140913,2.480823,2.476933,19.476265,26.238553,31.127395,20.098092,30.638146,34.885957,36.444167,32.424153,40.070336,41.330353,42.470575,42.488729,48.650433,50.508255,52.171071,27.896633,53.229733,75.322266,94.412956,56.761837,88.638153,105.503197,117.153282,47.824173,82.731857,102.050171,115.518036,38.041248,70.616112,89.008942,102.093773,28.379173,53.451691,68.483391,81.533318,-13.377239,-12.318466,-2.951608,1.761863,17.121228,33.895419,41.05013,45.594466,33.800323,49.921133,56.574801,59.961317,45.383033,61.846681,67.374578,68.937789,52.65081,68.200737,72.097002,72.435209,-1.487961,320.3457,-80.552559,300.991145
97,-13.997669,11.079444,1.472454,-0.178829,-2.396393,-2.674713,-0.131435,-1.358356,-8.221207,21.652508,41.920223,53.042164,-13.184166,15.66061,36.075382,50.861721,-15.229912,5.394802,24.005184,38.591709,-14.617195,-21.928711,-27.888565,-31.859837,-14.882776,-16.036458,-10.456506,-4.762995,-3.474387,7.007004,15.437973,23.156281,10.053955,20.276798,27.169132,30.779863,20.647671,28.298794,32.833867,35.138887,29.41592,34.852797,38.864968,42.225611,26.76899,51.614857,73.273373,91.503239,56.018658,88.440914,104.927502,116.084003,46.913509,82.645168,101.955471,115.13689,36.975231,69.81142,88.335743,101.252117,27.341194,52.609692,67.620678,80.342159,-14.195061,-13.29474,-4.062868,0.474428,16.884353,32.079401,38.303534,42.21147,34.208925,48.958135,55.042032,58.065209,45.591441,60.712758,65.745478,66.649443,52.281172,66.934359,70.732009,70.588563,-15.755482,331.275538,-79.349957,300.66271
98,21.148281,-27.693393,1.533108,0.137456,4.078331,2.66613,-7.118912,-18.352203,-26.145058,-10.809517,9.831505,20.169411,-38.846054,-15.230141,7.673607,25.972023,-47.357254,-27.985954,-5.00782,11.213379,-52.960796,-62.458191,-65.225658,-66.223469,-11.221285,-9.34364,2.224867,13.428862,6.252476,30.396085,38.501073,41.401737,22.325614,42.617047,48.790668,47.957469,33.741351,50.840534,53.6319,52.888055,44.030082,54.305721,61.738247,68.483677,26.008644,50.920715,72.733383,91.473312,54.608116,88.068352,104.368515,115.321999,45.620956,82.780037,101.76693,114.339752,36.144905,70.632706,88.718033,100.8284,27.303486,53.617802,68.593483,80.826988,-15.672378,-15.709799,-6.2752,-0.226809,14.904265,30.388613,37.082234,41.402354,33.124774,47.408694,53.550328,56.77265,45.472633,59.963602,64.712209,65.58783,52.931774,67.327586,70.609003,69.995883,5.06876,303.416747,-78.140888,300.634768
99,-15.495415,13.998016,0.93132,-1.382839,-3.149414,-4.96027,-4.201813,-10.355473,-16.646976,10.532227,30.645676,43.038597,-23.792038,6.182556,29.851685,45.956612,-26.529865,-4.092636,18.096886,33.982773,-25.808773,-30.556297,-28.45459,-23.940926,-14.787803,-14.479792,-1.238281,12.468458,2.004604,17.068123,24.871399,30.991914,17.879214,28.96014,35.396448,38.374608,29.373251,37.600999,41.617184,43.367623,38.824645,45.984359,46.902958,46.696711,26.166115,50.991268,72.697563,91.420555,54.685421,87.563896,104.251556,115.698395,45.534153,81.844711,101.168633,114.289627,35.710144,69.534416,87.913742,100.319595,26.317062,52.208519,67.196274,79.736481,-15.034002,-14.687335,-5.189628,1.121387,14.696042,30.664452,37.497876,41.719258,32.738278,47.631551,53.915211,57.198666,45.051495,59.902346,64.739688,65.588324,52.735963,67.999801,71.635603,71.22805,-10.680857,317.254644,-77.46377,299.09181
100,-1.725883,-12.260236,0.998726,-0.239221,8.9217,14.926872,14.073486,8.579979,-6.395988,16.677589,34.230537,41.340065,-18.4659,9.425697,29.127846,43.861198,-28.279724,-5.675926,12.921867,23.631592,-35.332203,-40.356789,-43.783092,-46.751747,-19.049632,-20.716028,-12.809567,-6.018195,4.025942,26.2367,30.833895,31.015379,23.238594,43.897565,46.203326,43.179284,36.588169,53.354208,53.30382,51.057525,46.899191,58.434106,62.228978,64.487005,26.138992,50.905209,72.59594,91.643829,54.332657,87.268295,103.705902,114.63192,44.904785,81.093864,100.293274,113.030205,34.674053,68.225784,86.74736,99.137306,24.980392,50.560627,65.747223,78.562431,-14.959902,-13.889767,-3.663034,2.132365,15.596549,31.8148,38.422033,42.470081,33.375233,48.286908,54.315971,57.123083,45.255951,60.16639,64.72919,65.358118,52.341996,67.706857,71.250404,70.848532,-12.626295,304.910474,-76.684599,298.768655
101,3.807793,-2.652921,0.320892,0.292882,-18.378124,-28.608627,-34.995804,-49.108543,-22.657185,-0.111809,17.637978,29.736671,-21.968365,4.693565,25.491257,39.375,-19.326725,2.992172,23.954315,36.485596,-16.218853,-7.562313,7.199249,18.572273,3.991917,18.791021,38.78494,53.951767,22.640912,32.301949,35.775225,38.836501,33.077534,39.950108,44.464187,44.545636,40.345805,46.722338,48.105053,47.469147,46.583832,56.29995,54.723462,51.142617,26.150723,50.737152,72.320938,91.254158,53.558464,86.328964,102.771606,113.882904,44.349861,80.841179,100.203323,113.226585,34.470291,68.279572,86.734772,99.049644,25.093861,50.695496,65.767021,78.39592,-14.761498,-14.144858,-4.098004,2.350097,14.966139,31.058728,37.865476,42.123229,32.849305,47.67879,53.836232,57.071213,44.95325,59.846029,64.550731,65.427032,52.402202,67.694445,71.221258,70.77332,-8.999548,302.206516,-76.544752,299.0105
102,-16.15242,3.054978,0.242786,0.598485,14.372292,25.136147,29.382133,28.750763,6.309357,30.501022,49.379539,56.948776,-5.632553,22.461548,43.535042,59.172707,-16.822987,6.658916,26.904602,39.557533,-25.997887,-29.083042,-31.174393,-32.798309,-20.238389,-22.476841,-16.385966,-11.329966,0.567054,22.147341,28.179986,29.89992,20.37918,41.289289,44.414663,42.25661,34.743128,51.502437,52.817289,52.536942,45.859746,58.141594,63.585696,67.227797,26.187115,50.649948,72.21056,91.345081,53.330612,86.079426,102.48682,113.438129,44.345341,80.835285,100.196171,113.123646,34.576778,68.714504,87.233906,99.418545,25.274849,51.351013,66.429234,78.877087,-15.218389,-14.374076,-4.094176,1.887525,14.078106,30.548855,37.34702,41.450273,31.955344,47.056222,53.239229,56.414497,44.274057,59.223585,63.876108,64.718013,51.963527,66.993331,70.302968,69.813225,-25.350952,305.214209,-76.50095,299.5617
103,4.990768,-0.075274,-0.253601,-0.274789,13.51696,22.447815,23.984413,21.456299,1.069679,25.272675,44.687576,52.760239,-11.930466,17.130432,39.041977,55.222321,-23.035069,0.956726,22.264023,35.778122,-31.680965,-34.088802,-34.823685,-35.318871,-20.239809,-21.351131,-13.783248,-7.290377,-0.634671,21.914604,28.725859,30.628204,19.267117,40.936386,44.94479,42.81613,33.977794,51.15682,53.135242,52.691812,45.600827,57.975115,63.217046,66.769979,26.601276,51.13718,72.583523,91.34634,52.598648,85.575314,102.054348,113.522243,43.539333,80.14246,99.420605,112.600651,34.03759,68.562183,87.367344,100.18713,25.202236,52.227859,67.824955,80.468731,-15.138052,-14.02111,-3.863106,2.02282,13.839626,30.853964,37.634097,41.656766,32.022096,47.174412,53.465544,56.651001,44.767505,59.837508,64.542951,65.513729,52.607708,67.316347,70.229855,69.456555,-20.551329,305.122139,-76.945696,299.270114
104,19.706612,0.910201,0.355625,0.444726,4.658432,4.528198,-0.619125,-5.563774,-18.965664,1.409912,20.686913,29.600487,-31.066818,-3.802414,19.115753,36.751442,-39.87402,-19.273109,3.335838,18.522835,-45.611515,-53.807373,-55.302715,-56.03611,-20.323419,-20.59932,-12.715213,-5.040377,-0.188833,24.105694,30.13346,30.661179,19.822129,41.956688,45.580758,43.190585,34.464757,51.524482,53.345934,51.662618,45.809667,56.404123,60.960624,64.158802,26.368961,50.655842,72.152824,90.660896,52.444782,85.391235,102.239227,113.977776,43.34095,80.201912,100.011864,113.508568,33.652382,68.507767,87.704544,100.801964,24.383011,51.357765,67.075882,79.926567,-15.412038,-14.792867,-4.760525,1.277307,12.900587,29.636925,36.36772,40.392365,30.829387,45.917853,52.325447,55.601059,43.551022,58.722172,63.503321,64.456871,51.585553,66.530326,69.811867,69.273032,-1.062412,306.005232,-76.807766,299.687732
105,-16.360188,12.675137,0.387897,-0.37007,1.004734,2.346668,4.077244,-1.403446,-10.002308,16.406651,36.132717,47.158985,-19.377708,12.718334,36.41058,51.807346,-23.393955,1.295185,23.165646,38.288898,-23.44614,-24.430332,-19.642811,-13.533497,-17.866432,-19.39,-6.642924,8.670869,-7.048439,6.22827,15.635081,23.524313,11.891833,23.678566,31.077315,33.523434,26.730457,34.394485,38.26247,38.772343,38.632663,45.186296,43.151126,39.658091,26.43013,50.306683,71.627483,90.268421,52.605114,85.195484,101.976757,113.69173,43.484459,79.745808,99.485607,113.089085,33.465729,67.785587,87.025967,100.346889,23.713245,50.479774,66.184788,79.274082,-15.186094,-14.157764,-4.09751,1.78471,13.444114,29.989149,36.688513,40.946081,31.12548,45.747052,52.018485,55.60674,43.715216,58.394524,63.183269,64.502443,51.661383,66.518347,69.805136,69.330337,-17.598124,318.666428,-76.595392,299.303722
106,14.028683,-13.639802,0.964794,0.529942,6.303635,7.197304,3.239021,-2.545052,-19.211826,0.460396,20.559082,30.915985,-30.846748,-4.634972,18.650551,36.806831,-38.538952,-18.422241,4.815216,20.557823,-42.880669,-53.038502,-56.871758,-60.044174,-20.397396,-21.611594,-15.64317,-10.580316,0.101332,23.112438,30.066214,31.713653,19.722094,41.58563,45.302387,42.372392,34.106235,51.540661,53.506917,51.734495,45.920941,56.143351,62.81431,68.309788,25.721283,49.661579,71.127205,89.437752,52.11319,84.659729,101.293373,112.906036,43.227482,79.232254,98.562698,111.827545,33.331032,67.554245,86.288795,99.162369,23.651619,50.494938,66.044083,78.772774,-15.467058,-14.727041,-4.625909,1.399141,13.342041,29.582214,36.165055,40.210757,31.144129,45.265707,51.346641,54.483438,43.864899,58.170802,62.752992,63.72661,51.895417,66.321857,69.366029,68.662568,-3.786249,305.017549,-75.847406,299.824587
107,-14.40834,9.906804,0.306015,0.174754,2.133293,5.007019,9.827843,7.32399,-9.804955,16.351433,37.072678,48.862953,-19.179668,13.128204,37.126923,53.223839,-23.061905,0.701351,23.137436,38.902473,-22.917538,-26.828041,-25.115433,-21.894779,-17.473082,-18.595025,-5.648989,8.983265,-3.28753,10.881287,20.124459,27.350678,15.873561,27.36309,34.168047,35.733358,30.40263,37.882951,41.973793,42.548319,42.238764,49.254537,49.499007,47.97655,25.225868,49.437504,71.129036,89.5784,51.911144,84.694176,101.540108,113.339195,42.849598,79.062309,98.571968,111.927681,32.89341,67.292175,86.120338,99.051704,23.273163,50.261765,65.905609,78.586349,-15.988602,-15.074819,-4.892485,1.088845,12.737628,29.12594,35.871308,40.053911,30.630119,44.889894,51.030787,54.225877,43.448393,58.015624,62.559157,63.543212,51.463226,66.154945,69.146938,68.351037,-18.402843,314.900132,-75.749645,299.975119
108,6.514549,-8.144509,0.655689,-0.447814,8.228531,13.368645,14.110107,10.66658,-9.279957,12.954025,32.736626,42.231445,-21.540184,5.890388,28.360405,45.713196,-30.364666,-9.331627,12.106247,26.545715,-35.979538,-42.243519,-44.754353,-46.216507,-21.037439,-24.671019,-21.78252,-18.967504,-2.180284,20.371214,27.076753,28.461135,19.287062,39.845565,43.297969,39.798141,34.782525,50.316026,51.898628,49.756135,46.671579,57.284622,62.306166,64.959025,24.966373,49.045143,70.471859,88.901997,51.013756,83.712559,100.605869,112.47797,41.753712,78.121777,97.701244,110.928326,31.749344,66.63763,85.507679,98.277798,22.200565,49.839134,65.673466,78.350315,-15.739501,-14.552473,-4.398791,1.525791,13.187665,29.921656,36.646708,40.735821,31.289366,45.685919,51.726838,54.81547,44.275354,58.781699,63.091384,63.808306,52.446107,66.832409,69.614944,68.586059,-12.059069,306.721969,-75.26473,299.493651
109,3.923721,-5.443299,0.551891,0.608242,-15.535927,-25.280342,-34.867802,-50.029793,-25.927334,-1.935768,19.174461,33.91983,-28.814392,0.537872,23.706436,39.236183,-28.847923,-4.753876,17.22805,32.280006,-26.264191,-20.168724,-9.103947,0.981674,8.778315,24.208199,43.853908,59.168504,27.2407,41.862766,46.04438,48.628079,33.016649,43.24159,48.494636,49.336109,36.429532,45.474053,48.361811,49.021429,39.511433,50.721788,49.403541,46.836514,24.818916,48.90255,70.288239,87.586899,50.755863,83.339653,100.272331,112.416115,41.39637,77.737999,97.266426,110.685196,31.444016,65.891762,84.870415,98.01178,21.922131,49.115753,65.101776,77.957497,-16.078264,-15.191219,-5.098361,1.479169,12.76591,28.908147,35.719588,39.998397,30.571456,44.579104,50.780945,53.991596,43.215347,58.000124,62.762254,63.61441,51.04005,66.014463,69.388444,68.572598,-8.399591,301.236711,-74.977083,300.059933
