takenoko1/special-research/HandMotion_SimilarSearch_自分用/NewProject/handData/key/d4_feature_d2/46.csv
,vel_0x_L,vel_0y_L,vel_0x_R,vel_0y_R,posFromWrist_1x_L,posFromWrist_2x_L,posFromWrist_3x_L,posFromWrist_4x_L,posFromWrist_5x_L,posFromWrist_6x_L,posFromWrist_7x_L,posFromWrist_8x_L,posFromWrist_9x_L,posFromWrist_10x_L,posFromWrist_11x_L,posFromWrist_12x_L,posFromWrist_13x_L,posFromWrist_14x_L,posFromWrist_15x_L,posFromWrist_16x_L,posFromWrist_17x_L,posFromWrist_18x_L,posFromWrist_19x_L,posFromWrist_20x_L,posFromWrist_1y_L,posFromWrist_2y_L,posFromWrist_3y_L,posFromWrist_4y_L,posFromWrist_5y_L,posFromWrist_6y_L,posFromWrist_7y_L,posFromWrist_8y_L,posFromWrist_9y_L,posFromWrist_10y_L,posFromWrist_11y_L,posFromWrist_12y_L,posFromWrist_13y_L,posFromWrist_14y_L,posFromWrist_15y_L,posFromWrist_16y_L,posFromWrist_17y_L,posFromWrist_18y_L,posFromWrist_19y_L,posFromWrist_20y_L,posFromWrist_1x_R,posFromWrist_2x_R,posFromWrist_3x_R,posFromWrist_4x_R,posFromWrist_5x_R,posFromWrist_6x_R,posFromWrist_7x_R,posFromWrist_8x_R,posFromWrist_9x_R,posFromWrist_10x_R,posFromWrist_11x_R,posFromWrist_12x_R,posFromWrist_13x_R,posFromWrist_14x_R,posFromWrist_15x_R,posFromWrist_16x_R,posFromWrist_17x_R,posFromWrist_18x_R,posFromWrist_19x_R,posFromWrist_20x_R,posFromWrist_1y_R,posFromWrist_2y_R,posFromWrist_3y_R,posFromWrist_4y_R,posFromWrist_5y_R,posFromWrist_6y_R,posFromWrist_7y_R,posFromWrist_8y_R,posFromWrist_9y_R,posFromWrist_10y_R,posFromWrist_11y_R,posFromWrist_12y_R,posFromWrist_13y_R,posFromWrist_14y_R,posFromWrist_15y_R,posFromWrist_16y_R,posFromWrist_17y_R,posFromWrist_18y_R,posFromWrist_19y_R,posFromWrist_20y_R,posFromBody_0x_L,posFromBody_0y_L,posFromBody_0x_R,posFromBody_0y_R
2,6.162357,1.453296,1.059494,-0.788306,11.73151,19.985161,21.798363,19.953861,14.864788,37.040462,52.827358,58.806896,6.006832,32.45573,50.801296,63.303509,-3.836288,19.478302,39.740696,52.551098,-12.546673,-1.641884,12.669697,22.229633,-7.478407,-2.372327,8.834631,18.652947,6.760682,30.120554,36.551921,38.453834,20.348058,43.941531,48.975425,48.63518,29.467667,49.48147,52.988152,52.80568,36.701851,52.473092,54.200868,53.983939,23.740482,47.060623,67.973213,86.407356,46.470337,79.398422,97.281761,110.036087,37.25275,73.179359,93.305969,106.713524,28.094959,62.389412,81.298256,93.938484,19.896927,46.24855,61.805649,74.287834,-14.155294,-12.455923,-2.708991,5.454537,14.102127,30.449252,36.463124,39.525821,31.199334,46.188011,51.37659,53.11721,43.394299,59.761678,63.723152,63.516165,51.129588,67.802199,70.892128,69.567026,-40.018387,298.645586,-76.978512,295.912142
3,4.507942,1.848622,0.13195,-0.36266,12.000561,20.414028,21.82291,20.175419,9.671688,30.303097,47.130146,54.300556,-0.58588,24.486637,44.02914,58.859882,-10.864964,10.387974,31.011143,45.126972,-19.45879,-13.016396,-0.673885,8.483734,-11.615808,-8.97394,1.543822,11.023869,2.272662,25.252646,32.332701,34.421532,18.456457,41.544751,47.07697,46.825337,29.826252,48.848343,52.859649,53.22163,38.773516,53.982148,56.431726,56.879725,23.26973,47.146454,68.231163,86.469269,46.872253,79.085083,96.569138,109.356766,37.03743,72.622032,92.257576,105.527229,27.341938,61.464615,80.102005,92.938499,18.56266,44.969215,60.609627,73.649254,-14.375249,-12.729292,-2.527074,5.951134,14.187713,31.380139,37.916235,41.606316,31.420833,46.667565,52.085423,54.24996,43.680698,59.793912,63.967622,64.201965,51.235984,67.59762,70.873541,70.015581,-35.139856,300.127226,-76.475973,295.1825
4,20.066242,-1.183694,-0.057335,0.228353,4.25972,3.021812,-2.823715,-9.620819,-12.786026,2.611313,22.484093,32.843056,-21.925564,-1.056976,20.70591,38.765144,-29.184036,-11.67469,11.493301,28.63575,-34.498672,-32.051125,-19.491119,-8.84903,-5.681408,0.278556,11.61834,21.939983,8.378172,29.76586,37.366348,40.67302,20.41166,40.990047,47.816185,48.971102,28.371165,45.278181,50.908398,52.940295,34.580292,47.361084,51.793961,54.750632,23.347263,46.996593,67.962456,86.32988,46.971188,79.077988,96.390038,108.945694,37.243996,72.359734,91.850052,105.238266,27.578201,61.025276,79.636917,92.632713,18.832912,44.545498,59.928246,72.913628,-14.127383,-12.512733,-2.298721,5.885247,14.127692,30.713976,36.818066,40.143634,31.220576,46.112182,51.427472,53.66401,43.3901,59.2502,63.492206,63.825041,50.841708,67.255091,70.766034,70.192434,-14.764595,298.723361,-76.224289,295.190681
5,-16.165524,-0.767187,-0.587082,0.607068,10.115776,14.034977,10.841732,4.769955,4.40134,20.747623,39.145603,49.314251,-4.479904,17.376995,38.851948,54.993267,-14.076977,5.195503,27.814808,43.357143,-22.264595,-19.771042,-11.085091,-5.130043,0.291832,10.213518,23.941005,34.488346,13.901561,34.729605,43.059242,46.553142,21.103203,41.507577,48.997161,50.068469,24.738141,42.508181,48.887863,51.264513,28.042962,41.098975,48.809316,55.280513,23.4268,46.859322,67.477684,85.488281,46.534023,78.535194,95.736237,108.230095,36.913834,72.179718,91.639481,104.779358,27.575512,61.107216,79.568939,92.255974,19.185619,44.922981,60.159187,72.923927,-14.362281,-13.285478,-3.315503,4.746137,13.459429,30.054111,36.382046,40.020998,30.864832,45.570507,50.894813,53.151297,43.356693,58.854935,63.105154,63.516906,51.130267,67.041064,70.350392,69.501571,-30.586596,297.787734,-76.467848,295.62931
6,-8.955975,3.667419,0.514069,-0.01871,17.849293,29.228668,30.924683,30.876389,16.102295,36.181641,53.523788,61.703911,3.943119,29.085274,49.41433,64.069633,-8.21743,12.862873,32.700119,45.125771,-18.751488,-19.474812,-17.527943,-17.456589,-17.08955,-17.167911,-7.551026,0.854687,1.674239,21.52996,29.046715,31.608616,19.55969,38.188616,44.062439,44.467213,31.862039,46.960571,51.196711,52.118891,42.031591,53.459863,60.140949,65.024357,22.802467,46.015835,66.581497,84.581108,46.438351,77.872238,94.846001,107.275543,36.945877,71.705475,90.8741,103.847466,27.451229,60.531006,78.813744,91.408653,18.681908,44.173622,59.280624,71.932983,-14.420203,-13.243981,-3.244861,4.460665,13.463628,30.120245,36.563036,40.241817,30.778567,45.509004,51.027268,53.346922,43.235415,58.839806,63.117381,63.408102,50.998801,66.922812,70.335757,69.650883,-39.240131,301.314362,-75.65134,295.469809
7,34.949913,-10.694554,-0.448494,0.434599,-2.750816,-11.536903,-21.762314,-34.740429,-30.421371,-18.29813,3.548698,17.924767,-35.486813,-18.407822,6.056557,26.263847,-37.892933,-21.217575,5.705452,25.656395,-38.046684,-32.999268,-18.014889,-4.443512,21.152233,38.345153,53.29252,61.532001,32.538453,51.724986,60.554492,64.894805,28.266066,48.427761,58.179509,61.331991,21.402693,39.003783,48.263875,53.844815,15.050243,27.952127,36.478315,43.617342,22.521057,45.938358,66.629105,84.725876,46.637821,78.362732,95.217361,107.426376,37.066383,71.97464,90.999756,103.684616,27.495975,60.565796,78.806763,91.218224,18.711433,44.322052,59.443703,72.050972,-15.161887,-14.05038,-3.878173,3.737691,12.779248,29.3785,35.68229,39.346128,30.261469,45.001045,50.540242,52.881756,42.824158,58.255339,62.444795,62.789918,50.616751,66.27048,69.536089,68.779585,-3.977652,290.58901,-75.787268,295.87361
8,6.48159,-1.431436,-0.425491,0.11288,-8.095779,-20.884895,-34.203358,-50.703392,-39.335232,-30.323982,-8.695793,6.432266,-41.901283,-26.870785,-2.686386,17.383232,-41.619129,-26.156445,0.312538,20.194817,-39.144115,-34.381714,-19.542046,-5.510902,30.010515,50.250756,65.065606,72.496589,39.489574,57.374099,66.425597,70.827167,29.696761,49.582802,60.880472,64.747036,18.322953,36.442376,47.33626,53.466841,7.428451,20.304462,29.359851,36.857401,22.44318,45.905743,66.493835,84.261131,46.676617,78.477173,95.34977,107.449608,37.123146,72.185326,91.315384,103.993263,27.515259,60.86277,79.171257,91.565208,18.780441,44.83017,60.09201,72.631073,-15.240928,-14.213092,-4.194891,3.588008,12.458454,28.859981,35.28857,39.129384,30.020766,44.667161,50.309234,52.757082,42.614762,58.122143,62.29925,62.647337,50.424151,66.1103,69.301808,68.433227,2.837162,289.071509,-75.879536,295.900425
9,-9.77211,0.638376,-0.522823,0.139371,-2.07058,-10.015869,-19.190426,-31.641197,-28.571434,-14.718533,6.731415,20.22892,-33.022614,-13.924942,9.751968,28.822517,-34.957352,-16.723022,9.619904,28.870125,-34.816418,-28.465519,-13.125172,0.523567,21.219912,38.858608,53.914655,62.51056,34.242641,53.033415,61.213369,65.260244,29.387021,49.275285,58.686357,62.09288,21.682175,39.140746,47.809207,53.458567,14.300716,27.176418,35.019338,41.646701,22.450161,46.101723,66.818333,84.737263,47.06749,78.780041,95.653553,107.829494,37.619419,72.448368,91.5275,104.26157,27.992706,61.295872,79.512691,91.838665,19.066601,45.295944,60.476818,72.970905,-15.322932,-14.437864,-4.359888,3.287962,12.294878,28.860105,35.446404,39.357057,29.912517,44.513896,50.162391,52.577512,42.651504,57.999815,62.102389,62.313576,50.59168,66.034285,69.111185,68.086622,-6.55901,289.622523,-76.026421,295.952435
10,3.242455,7.965371,-0.71703,0.416877,2.92408,-0.476303,-8.531914,-15.277691,-25.799732,-10.569191,10.903816,23.437386,-36.566105,-15.207825,7.672348,26.059914,-43.674259,-26.501083,-3.435745,13.837624,-47.723236,-50.974102,-44.133968,-37.119598,-10.929144,-7.133284,3.80716,13.495614,6.699487,28.651327,35.714092,37.343006,22.638072,42.115572,47.659338,47.942032,33.510096,48.79851,53.482032,54.958237,42.084697,54.205747,59.489729,63.467753,22.610149,46.07214,66.697311,84.666824,46.932678,79.479561,96.500587,108.700905,37.416286,73.122368,92.561073,105.675316,27.870197,61.636505,80.223999,92.992859,19.201241,45.550861,60.719261,73.34919,-15.293972,-14.733216,-4.978442,2.755365,11.784943,28.33677,34.932826,38.889977,29.356825,43.902443,49.658323,52.105368,42.04814,57.379224,61.57572,61.890832,49.986526,65.348608,68.545242,67.618739,-2.774849,297.401176,-76.201744,296.182594
11,-16.251526,13.15327,0.002289,-0.342097,-1.566753,-1.915684,-0.691509,-5.397949,-15.992775,14.470596,34.71096,46.594391,-22.611065,11.0075,34.724007,51.550255,-24.730339,1.55159,22.390137,37.538223,-23.029633,-20.714378,-17.038536,-12.796211,-12.925658,-11.145517,3.480438,18.252496,1.766062,17.761086,26.014522,32.417423,17.123821,30.270546,36.237241,37.965512,28.788783,39.39454,42.642303,42.295327,37.857202,46.791683,47.538863,47.161815,22.760296,46.152592,66.947594,85.12722,46.789856,79.541473,96.677856,108.862953,37.33469,73.180389,92.541504,105.495071,27.871056,62.018738,80.453339,92.860565,19.330788,45.861683,61.060524,73.51799,-14.84412,-14.246993,-4.734157,2.91746,12.710149,29.077096,35.521183,39.407075,30.079614,44.369524,49.725199,51.947966,42.535413,57.768498,61.690946,61.753314,50.212533,65.686939,68.743399,67.66536,-18.496284,310.48615,-75.669365,295.772201
12,-8.664494,-9.130786,-0.263844,-0.40675,13.157215,21.138554,25.800877,27.382107,-0.95787,21.114407,40.7234,50.933247,-12.793007,13.862057,36.158695,53.161411,-21.989365,-1.105785,19.620724,33.657703,-27.717648,-31.423874,-31.372719,-31.188583,-20.630442,-22.274115,-16.142299,-9.722541,-1.90395,19.286691,25.672734,26.529274,19.460519,40.479556,43.254249,40.132766,34.774745,50.745995,52.729233,51.644154,46.108909,56.979575,61.776471,64.002326,23.056355,46.4958,67.130756,85.074177,46.621342,78.926067,95.822239,107.818851,37.234268,72.97102,92.319088,105.342922,27.945843,62.065487,80.510159,93.089275,19.456902,45.994606,61.31567,73.900166,-14.769711,-13.923359,-3.981481,3.70873,12.622031,29.053507,35.427632,39.135682,30.091532,44.702605,50.11188,52.304328,42.645884,58.122328,62.222803,62.471719,50.297007,65.841933,68.946064,67.924218,-26.730137,301.18711,-75.502567,295.197196
13,-22.467327,3.805184,-0.575066,0.501599,19.958153,36.188049,46.228409,51.448402,27.037754,52.83062,68.160439,73.633118,14.457951,45.102081,63.01918,74.222031,2.06995,26.103687,43.010902,52.011681,-8.249702,-5.481777,-4.710274,-5.869102,-22.368037,-28.144912,-26.127958,-21.727068,-4.163028,15.655829,20.187321,20.511017,17.230835,36.569088,38.01096,34.641302,32.416867,47.366642,48.329701,46.542335,43.681377,54.750879,57.513099,57.790111,22.785416,46.552277,67.504292,85.55254,47.193489,79.87833,96.974888,109.128628,37.822208,73.808384,93.004818,105.752506,28.533611,62.74744,81.164761,93.721905,20.242367,47.081623,62.452412,75.080166,-15.223823,-14.508074,-4.734713,2.860464,12.463456,28.748275,34.872125,38.464949,30.029719,44.576264,49.682838,51.491878,42.480887,58.078115,61.872925,61.765232,50.081128,65.441111,68.345541,67.187659,-48.498459,304.770486,-75.378628,295.476987
14,-0.045891,0.023218,-0.372276,-0.715811,18.95731,35.494652,47.369156,54.263306,24.87133,50.421181,67.229347,74.337044,12.825508,42.580261,61.726341,75.045662,1.125355,24.530239,43.047523,54.225426,-8.491173,-7.7001,-7.873077,-8.875637,-22.968374,-29.02152,-27.052855,-22.114119,-5.077983,13.981158,19.724749,21.277772,17.03663,35.819994,37.558206,34.383864,32.752974,47.045478,48.168038,46.646755,44.271896,54.530245,57.963815,58.837892,23.080273,46.836834,67.910786,86.268482,47.351589,79.913006,97.002354,109.14854,37.992611,74.07114,93.394032,106.48447,28.5783,63.005733,81.400738,94.164562,19.975033,46.75169,62.081852,74.804478,-14.756928,-14.047231,-4.316169,3.247825,12.368114,28.888448,35.160005,38.698798,30.089247,44.795663,50.184066,52.145691,42.764507,58.51821,62.508151,62.446154,50.609526,66.350879,69.438894,68.181594,-47.866259,304.585791,-75.072813,294.553263
15,2.779655,-0.723838,0.085258,-0.136654,19.54422,34.884109,44.315872,48.899918,23.737736,49.493523,65.338554,71.046638,11.061287,41.140938,59.811401,72.214508,-1.183033,22.613468,40.244179,49.943504,-11.019344,-9.893246,-10.191994,-12.243977,-22.70186,-27.422926,-23.746491,-18.045385,-4.395765,16.275556,21.475003,22.439667,16.924985,37.451254,39.080045,35.767506,32.285832,48.284314,48.925345,47.028188,43.79648,54.351231,57.398366,58.45152,23.05933,46.678276,67.701931,85.816097,47.393532,79.826717,97.03989,109.287014,38.103848,74.018726,93.529186,106.443043,28.703156,63.140774,81.691647,94.235172,20.052624,47.048893,62.590199,75.204449,-14.455463,-13.932375,-4.403298,3.159089,12.58177,28.97916,35.275355,38.794264,30.290924,45.075454,50.402477,52.248197,42.964455,58.793432,62.650177,62.342722,50.805645,66.401577,69.386591,68.050683,-44.564896,303.865673,-74.465847,294.42033
16,3.868046,0.883772,-0.335369,-0.357905,18.716927,31.984348,40.078411,44.601803,20.542603,45.104084,61.068134,66.791897,7.978764,36.573544,55.436153,68.473721,-4.358425,18.23782,36.222897,46.602688,-14.357014,-14.579029,-15.334339,-17.504082,-22.411386,-28.126325,-25.834335,-21.106785,-3.67557,16.826185,21.616287,22.327837,17.203418,37.223395,38.475138,34.861319,32.080327,47.328974,47.912639,46.090384,43.274195,53.575275,57.211633,58.779908,22.814941,46.54398,67.730598,85.738678,47.349701,79.797249,97.132187,109.571686,38.299427,73.959274,93.301392,106.16787,28.94743,63.228264,81.77639,94.489632,20.209522,47.269478,62.903709,75.59269,-14.283056,-13.637949,-4.228421,3.516809,12.76875,29.329593,35.72638,39.216019,30.412448,45.572175,50.99738,52.805433,43.075791,59.244827,63.201176,62.879765,50.904076,66.71286,69.766171,68.352272,-40.160093,304.790725,-74.26446,294.103704
17,4.198723,-1.447677,0.211086,0.020686,16.479149,27.68137,33.746624,36.639805,14.333668,37.928982,55.883389,63.350658,1.545925,29.429684,49.974003,64.678974,-10.206757,11.553383,31.734295,44.111881,-19.676342,-18.6236,-14.585094,-12.41415,-22.395825,-26.330561,-21.377375,-13.701428,-3.849027,16.207754,22.086764,23.749888,17.340874,36.426136,38.960805,36.331164,32.637378,47.021827,48.665685,47.555227,44.060586,55.197335,58.082438,58.257068,22.871361,46.600914,68.011837,86.217098,47.27005,79.683895,96.94479,109.211025,38.122158,73.994923,93.404675,106.081524,28.752022,63.328114,81.775188,94.185734,20.013943,47.074699,62.695942,75.199986,-14.275522,-13.816593,-4.481783,3.26777,12.983148,29.396098,35.659443,39.133583,30.663587,45.689686,50.937421,52.734173,43.27722,59.325967,63.099844,62.71341,51.009731,66.769424,69.757094,68.308059,-35.465641,303.388157,-73.557644,294.169499
18,-7.577591,-0.883834,-0.454845,-0.063109,19.272308,32.795277,39.748478,43.751621,23.991737,50.119457,66.751957,73.103199,11.042747,41.549549,60.084286,72.250271,-1.514053,22.591496,41.889553,52.819233,-12.141609,-6.839333,-0.220757,3.636646,-21.866624,-26.052684,-21.329148,-14.063903,-2.820697,17.045398,21.643519,22.449177,17.752811,37.014802,39.482719,37.329359,32.656026,47.586349,49.218969,48.135619,43.68113,56.776046,58.293624,56.823717,23.170052,47.073555,68.615227,87.166672,47.608337,80.174103,97.410851,109.745636,38.349209,74.266319,93.71624,106.504669,29.02771,63.364334,81.843796,94.392357,20.414257,47.299747,62.811584,75.313454,-14.390872,-13.74311,-4.306535,3.299201,13.125421,29.480635,35.762628,39.299074,30.922198,45.998808,51.264636,52.960611,43.467227,59.567226,63.348636,62.847779,51.001888,66.776402,69.79013,68.441748,-42.719021,302.537298,-73.688278,294.139365
19,-2.113323,2.967601,-0.320206,-0.073792,19.345608,34.654541,44.741707,51.114578,23.696537,50.980911,67.518997,73.39325,11.551495,44.152107,63.300247,75.825577,0.043602,26.431046,44.293213,53.70472,-9.139023,-7.549438,-8.558636,-11.325302,-24.617049,-31.061198,-28.416058,-23.164864,-5.218527,14.434776,18.872717,19.284407,16.651554,36.738346,37.754449,33.997801,32.031297,47.558253,47.854285,45.444166,43.383122,54.417798,57.381756,57.631227,23.723087,47.391071,68.835182,87.585526,47.683983,80.351143,97.61364,109.931831,38.510456,74.636765,94.104309,106.958885,29.281254,63.836403,82.351685,94.923019,20.742931,47.674026,63.149643,75.62542,-14.291083,-14.014256,-4.793684,2.917336,12.907812,29.275994,35.489753,38.903933,30.686682,45.779038,51.062342,52.733555,43.30365,59.330537,63.236497,62.952693,50.919698,66.746576,69.757464,68.525297,-44.530363,305.494016,-73.706503,294.05469
20,-4.110489,-0.441948,-0.00824,0.587987,20.740757,38.815384,51.809807,59.941978,28.873158,55.671501,72.706604,80.307884,15.816078,46.717873,67.116737,81.771469,3.011055,27.563438,47.095184,59.133224,-7.999191,-4.756279,-1.478748,0.710564,-23.848256,-30.206326,-28.220988,-23.820715,-7.273581,11.794823,17.970173,20.261792,14.980526,34.339034,36.957436,34.774374,31.223664,45.430828,47.478533,46.664663,43.619071,54.452007,57.088565,56.601971,24.002094,47.319946,68.919296,87.765427,47.711792,80.325851,97.383728,109.460335,38.677483,74.754066,94.251595,106.935654,29.640999,64.217148,82.552185,94.653625,21.402454,48.265686,63.747253,76.021614,-14.341471,-14.980835,-6.529118,1.610142,11.835454,28.480957,35.293633,39.289935,29.894054,45.287505,50.723826,52.516008,42.877078,58.963492,62.89897,62.607878,50.95749,66.486792,69.25179,67.711859,-48.49082,305.037942,-73.564711,294.628552
21,-1.305027,-0.76799,0.149059,0.535623,20.202427,39.738522,53.811207,61.225033,30.243645,57.057323,73.281384,79.400196,18.058777,49.610767,68.971539,82.085323,5.479488,31.609669,49.748096,59.327374,-5.38908,-3.031826,-3.455029,-5.529442,-24.571724,-31.207485,-29.856448,-26.473575,-6.412842,14.407977,20.210169,22.115601,15.807303,37.833983,39.891075,36.716857,31.511976,48.447768,49.252314,47.168917,43.520332,54.579213,56.892445,56.387697,23.53363,47.094269,69.027042,88.114643,48.918972,81.299572,98.202267,109.965305,39.878082,75.681782,94.920788,107.239323,30.523281,64.706326,82.685223,94.260006,22.015114,48.692093,63.907642,76.038723,-15.553941,-16.496499,-7.913315,-0.308505,11.450441,27.728467,34.528731,38.701824,29.608088,44.605842,50.326339,52.871444,42.504723,58.400761,62.2467,62.318639,50.643921,65.93357,68.598841,67.346481,-49.687014,304.182993,-73.306818,295.077215
22,0.469837,-1.24495,-0.378571,-0.687714,20.036316,39.515533,52.540054,58.200073,28.013935,53.62999,71.562195,79.402199,16.308918,45.22831,67.233009,84.810677,4.074841,28.340435,49.405632,62.573776,-6.882248,-7.434025,-8.139153,-9.821033,-23.690113,-29.541027,-27.871542,-24.710415,-6.327626,13.25417,22.380634,27.597185,15.641318,36.520305,42.554185,42.77661,31.110352,47.273769,50.590322,51.130947,43.492606,53.176861,58.287943,61.170699,23.530941,47.067089,69.094906,88.267879,50.587749,82.126865,99.089298,111.400051,41.632805,76.323338,95.901089,109.134922,31.707687,64.366093,82.566433,94.643955,22.307224,48.129444,62.891693,75.110607,-15.786308,-16.729113,-8.399723,-1.884808,13.124186,28.447859,35.352173,39.935535,30.697735,45.402052,52.398189,56.485448,42.922773,58.393783,63.461269,64.911971,50.714564,66.005201,69.381466,69.225917,-49.128571,302.892826,-73.596783,294.344284
23,-14.27393,0.265527,-1.277676,-0.856293,25.128422,51.316509,68.972225,76.414661,47.507057,82.433681,97.466984,100.914173,35.650978,75.756054,90.519276,97.172184,22.214241,58.621044,72.999859,77.300777,9.852962,21.824741,18.290005,11.680756,-25.456299,-33.349854,-33.806004,-31.472579,-2.109024,19.588033,22.96504,23.386301,21.50032,47.505333,49.021923,46.317379,36.005492,56.81958,56.833597,54.29195,46.078775,59.997688,60.750796,58.831038,24.652977,48.837891,71.120224,90.289993,52.052479,82.590065,99.898338,113.590279,42.974167,75.304642,94.786491,109.294052,32.75259,62.976494,81.373558,95.214157,22.280502,46.945038,61.251354,74.193535,-15.523313,-16.609873,-8.998702,-4.455169,14.291454,29.724672,37.942108,44.214159,31.240954,48.022184,57.429921,63.814481,43.151805,60.046224,68.346529,73.301691,51.258646,66.926023,72.221491,74.643219,-63.330317,303.130086,-74.802275,293.459725
24,13.943539,-2.96933,-0.667019,-1.97521,21.558266,44.286804,57.165527,60.86586,31.604919,58.496704,75.976868,85.236855,18.636932,48.875885,68.232994,83.879929,4.976177,31.81469,52.74971,65.854111,-6.823139,-0.93235,1.956654,4.562645,-19.732097,-26.718354,-26.151855,-24.811995,1.671522,23.876538,35.265722,43.985992,22.703589,46.00628,56.069312,61.355271,36.031674,53.656106,61.798269,67.873768,45.576127,58.435773,64.010354,67.047054,25.684032,49.53455,71.299267,89.600544,52.023697,81.547222,98.582783,112.275524,42.534943,73.15424,92.475643,107.208996,32.216492,60.491638,78.648205,92.704411,21.463566,43.90749,57.487736,69.836483,-15.574318,-15.095814,-7.4316,-4.203227,18.239528,34.375405,43.683291,50.915005,35.145062,54.606939,67.014264,76.148694,46.440447,66.071397,77.143987,84.640796,53.651969,71.225148,79.235041,84.311666,-49.411497,300.134003,-75.494013,291.457761
25,72.806969,-4.667034,-2.265186,-5.233594,-8.505592,-19.564476,-34.056416,-51.418819,-51.901131,-38.31316,-16.809082,-2.252884,-59.881382,-40.600891,-18.339729,2.795334,-61.348286,-48.586464,-25.869255,-5.668144,-61.057148,-71.916904,-72.505703,-68.221092,2.891093,11.386344,25.175149,37.945566,14.334123,40.565575,54.306276,64.966312,22.715568,42.824652,59.981942,73.837252,27.902665,44.852288,59.059082,71.871428,32.296639,45.196609,53.167413,63.100461,26.186028,51.022625,72.142868,89.700966,51.639347,80.34874,96.513634,109.486427,41.844177,71.512413,90.064316,104.568901,31.214333,58.207626,75.926285,89.52198,20.266056,42.232533,55.20813,66.518841,-14.707281,-13.465912,-6.424883,-5.821273,18.719576,35.769358,45.636395,53.948,34.695025,55.774392,69.109332,79.187308,45.407116,66.589607,79.285985,88.436779,52.366881,71.820422,81.610271,88.056705,23.026514,295.376658,-78.128157,286.133857
26,4.335251,10.189374,-0.406437,-11.003985,-18.168297,-39.596386,-56.487923,-73.130093,-59.636879,-68.512974,-67.131844,-63.945751,-56.919765,-64.041882,-56.81242,-48.969555,-49.273052,-58.892326,-49.985447,-40.130653,-38.477612,-50.680847,-50.943031,-48.47271,14.265457,25.405169,32.49566,40.608368,20.130079,30.655066,36.615463,40.708218,17.299995,28.117309,36.434596,41.182708,14.101015,24.712885,30.977897,33.527633,10.422049,20.120445,27.125103,31.957752,27.78883,51.170197,70.452518,87.985668,49.587479,78.342304,93.953648,106.1693,38.00148,67.56094,85.502186,99.898167,25.421391,51.233826,68.004055,81.079617,13.281441,28.984909,38.86631,46.813259,-16.110682,-14.473432,-6.898139,-3.021324,11.478537,33.646132,45.592058,54.504804,27.615896,51.998169,65.421783,74.396773,39.806662,64.479101,77.469473,85.777744,47.182564,68.540981,80.312648,86.557158,27.038984,305.671702,-78.857374,275.235542
27,2.061768,5.487636,-7.371855,-20.996529,-23.407974,-43.872585,-60.505657,-74.306431,-48.72694,-70.654678,-85.064278,-96.542988,-43.331165,-66.536636,-83.794556,-99.230118,-34.680634,-56.840115,-72.52676,-87.066193,-23.385086,-41.376801,-53.920097,-65.739555,-13.307337,-17.831913,-18.374576,-18.489247,2.854969,11.207329,16.725284,21.041638,14.901856,24.605748,31.558721,38.052703,25.117227,34.473526,40.83388,46.581053,33.357634,40.89279,46.392097,50.74655,25.437727,49.361801,68.260203,81.227246,49.678488,79.726753,88.414049,91.078034,41.476107,74.79023,85.115862,88.595982,32.250366,63.451853,74.027682,77.250595,22.774372,46.470108,55.300369,58.064261,-17.946492,-19.986386,-14.396275,-8.888355,4.103716,21.872243,27.510518,30.764672,20.476776,40.146258,45.201147,48.341865,33.706894,52.087769,56.775644,60.089696,43.674152,58.291339,62.298076,63.838347,28.943624,311.279967,-86.386357,254.359642
28,20.067787,-21.545521,-7.371855,-20.99653,-31.326027,-59.541321,-81.24979,-94.343777,-71.7136,-103.637867,-117.347145,-124.102821,-63.505039,-98.909225,-114.778461,-120.842915,-52.806702,-84.841747,-100.551739,-108.861122,-41.700897,-64.799252,-78.007793,-86.841431,-14.739762,-12.144454,-2.160276,10.636817,15.745552,34.716637,44.004764,49.415026,32.279225,54.30745,61.594739,64.858125,44.011309,63.89593,69.957659,73.351956,51.845152,68.816882,73.598217,76.104295,23.086624,47.553406,66.067886,74.468822,49.769497,81.111202,82.874451,75.986767,44.950733,82.01952,84.729538,77.293797,39.079342,75.66988,80.051308,73.421574,32.267303,63.955307,71.734428,69.315262,-19.7823,-25.499339,-21.894411,-14.755384,-3.271105,10.098354,9.428979,7.024542,13.337657,28.294348,24.980512,22.286959,27.607127,39.696438,36.081815,34.401649,40.165741,48.041697,44.283505,41.119538,48.827419,289.982235,-93.942204,233.610901
29,4.161758,-3.983951,-21.474152,-27.031675,-30.116043,-56.968803,-80.045185,-94.364548,-67.266998,-98.925705,-114.737434,-125.853481,-60.082397,-95.08707,-114.203854,-127.798805,-50.777893,-82.52758,-99.639816,-111.217976,-41.002121,-65.588036,-79.002228,-89.873142,-14.155973,-11.267351,3.403868,16.347557,18.237552,36.658194,44.884522,50.509676,34.99649,53.388418,62.100105,67.756751,46.736602,64.265815,71.779914,75.944794,54.443486,69.690836,75.356621,78.247776,19.624271,43.998184,64.464741,74.23605,50.920544,82.19141,68.060818,56.163254,51.957321,82.818775,67.299728,56.223621,51.114979,79.241238,64.701691,52.842693,48.049164,72.145615,63.340015,55.451317,-6.318364,-14.036671,-19.700296,-21.29111,-2.506449,-5.630341,-8.466537,-10.433164,-4.405274,-9.926749,-11.002997,-9.250644,-7.320758,-13.881307,-14.453116,-12.175576,-10.077544,-14.763597,-14.785642,-13.002167,52.370224,286.427233,-116.035309,207.008175
30,-0.927544,0.691111,0.908489,-35.519454,-30.305672,-56.222305,-79.123077,-94.722233,-66.380768,-98.597431,-114.31572,-125.424442,-58.933411,-94.894981,-113.534203,-127.527981,-49.457703,-82.645168,-99.882774,-112.122631,-39.546661,-65.071507,-78.736897,-89.890766,-16.050044,-13.254108,2.085558,14.919147,16.136803,33.347816,42.242592,48.512482,34.160266,50.719751,59.171962,65.020776,46.805701,62.671852,69.664715,73.869733,54.607371,69.47051,74.443147,76.834062,-3.404903,2.859478,12.842903,19.747467,8.466969,30.357399,20.948009,12.041702,18.425331,39.708138,29.276161,23.205814,26.999645,45.295544,34.293652,28.21661,33.556252,51.248188,44.313812,36.856842,-21.958076,-43.212321,-56.598328,-59.364407,-32.616382,-39.563921,-37.477931,-35.636348,-18.292386,-22.824064,-20.05641,-18.2315,-4.161546,-8.355263,-6.420561,-5.371854,8.303887,6.232654,6.479965,6.609517,50.80802,287.766707,-115.76148,172.137085
31,-1.085129,0.026367,-11.275234,-34.181385,-29.239998,-54.842377,-77.436562,-93.08527,-65.703392,-97.794514,-113.346405,-124.296341,-58.709793,-94.732819,-113.684807,-127.904892,-49.468689,-83.157635,-100.993423,-113.835869,-39.216728,-64.552174,-78.379612,-90.025063,-15.600068,-13.362233,1.161525,13.169757,15.493302,31.999804,40.665116,47.050232,32.622557,48.363972,56.758509,63.049332,44.921757,60.052214,67.344258,72.307942,52.898923,67.453433,72.860978,76.193278,24.686279,41.876221,48.875427,43.188744,12.944756,13.658752,18.471107,19.166222,-0.180702,0.222015,8.212166,9.752655,-11.383266,-8.187103,-0.947514,0.359402,-19.772873,-18.630867,-13.092155,-11.085663,-6.148674,-17.036259,-29.869076,-37.981721,-27.154836,-42.182756,-43.126055,-39.219014,-28.511338,-44.197919,-45.441418,-41.817533,-28.15087,-46.845159,-51.032424,-50.588315,-26.313363,-43.456019,-50.402909,-52.155108,49.761057,288.109623,-126.998549,138.272248
32,-0.497475,0.603919,-16.848907,-20.441486,-28.955841,-54.622307,-77.386379,-93.173046,-64.535809,-96.43158,-112.179337,-123.188725,-58.00312,-94.00034,-113.067856,-127.457771,-49.243927,-82.712517,-100.216541,-112.646885,-39.493904,-64.670162,-78.17173,-89.347115,-16.078634,-14.110895,0.488199,12.42054,14.853074,31.245523,39.654509,45.538706,32.20636,47.481497,55.544434,61.469262,44.634495,59.185979,66.026628,70.430359,52.718241,66.617085,71.607136,74.324834,-13.372593,-16.191616,-14.650955,-11.321182,-6.340084,-2.432728,-3.74897,-5.181885,8.568592,10.670929,8.360138,6.394615,22.749882,27.932224,26.536674,23.857155,35.88232,44.906845,45.184135,42.010918,-23.218402,-47.852216,-66.012981,-79.636172,-65.345953,-88.984999,-96.561713,-94.653687,-58.810135,-81.014441,-89.451307,-91.560917,-48.811354,-69.904986,-78.633376,-81.26558,-36.438486,-55.126538,-62.86689,-68.132471,48.502493,289.013849,-144.608545,118.13107
33,-0.327759,-0.177038,-6.796017,-32.547345,-29.106445,-54.503517,-77.234573,-93.138714,-64.357681,-96.635513,-112.372513,-123.404732,-57.499466,-93.499374,-112.293091,-126.823425,-48.406334,-81.828461,-99.198017,-111.696568,-38.541985,-64.060249,-77.51255,-88.529491,-17.002729,-15.235309,-0.615343,11.626738,13.951024,30.484017,38.970068,44.937133,31.771204,46.672999,54.826153,60.945804,44.520627,58.683825,65.665697,70.318714,52.709719,66.249362,71.201004,73.951861,0.165367,2.49773,6.146049,10.020046,-15.281811,-15.514069,-13.993549,-12.880497,-8.756046,-11.698837,-11.277351,-11.107063,0.200672,-0.800228,-0.11507,0.53112,10.684433,13.105145,13.732796,13.105946,-22.559618,-47.531916,-65.112784,-80.39882,-68.467251,-94.805161,-105.67808,-105.916314,-65.193522,-94.839463,-105.495948,-109.033567,-58.742457,-86.748121,-98.100193,-102.816288,-50.185887,-70.832848,-80.168862,-86.269247,47.59306,288.827425,-151.986237,85.574338
34,-0.155182,-0.813438,-13.136387,-7.373123,-29.093742,-54.533501,-77.176266,-93.494339,-63.995819,-95.744247,-111.573257,-122.933807,-57.042389,-92.401028,-111.055927,-125.579567,-48.033371,-80.934505,-98.036613,-110.261421,-38.399849,-63.860378,-77.077847,-87.732353,-17.511614,-15.461439,-0.380259,12.130251,14.235075,30.86687,39.449189,45.603173,32.355363,47.282908,55.25044,61.077209,45.067612,59.27737,65.911278,70.333843,53.02125,66.454497,71.224901,73.855407,-15.445747,-19.103737,-17.271938,-13.413105,-18.527069,-9.385815,-6.047859,-7.0784,-3.695011,7.11937,9.132156,6.717224,12.220287,21.615543,21.165104,18.572617,27.377586,34.909058,38.235397,39.776001,-32.045994,-60.759627,-86.727404,-104.537272,-53.669043,-92.751527,-85.854006,-76.402642,-48.57448,-88.470649,-80.505062,-70.90735,-44.696708,-80.627142,-72.885339,-62.423183,-43.738712,-73.465762,-91.299435,-105.561125,45.036163,287.969218,-167.524338,78.156447
35,-0.028954,0.569771,-3.32325,-33.585586,-28.745384,-54.261017,-77.009754,-93.662796,-64.287586,-96.170826,-111.859875,-123.029137,-57.282257,-92.688904,-111.092949,-125.386276,-48.223,-81.147709,-98.22155,-110.572586,-38.499527,-64.249535,-77.567997,-88.170662,-18.271021,-16.367749,-1.215989,11.191398,13.623746,30.21108,38.693796,45.026671,31.582989,46.217281,53.963068,60.166823,44.161363,57.903238,64.507568,69.497927,52.112902,65.214425,69.969083,73.04308,-18.30019,-23.736763,-14.202518,-0.409927,-23.170624,-15.616264,-10.65588,-11.428585,-7.058372,4.75668,7.366219,4.712448,10.292645,19.832153,20.669632,17.716885,27.474918,31.277275,34.498501,35.700359,-29.291277,-62.34195,-89.189115,-100.04351,-53.905084,-97.889347,-82.67105,-69.86596,-44.302926,-88.583158,-76.244747,-64.665248,-37.28882,-77.143586,-67.059404,-56.175739,-33.171148,-68.003259,-86.010142,-96.422311,40.371151,288.053029,-175.483646,44.0849
36,0.101852,-0.031307,-2.07613,-8.249577,-28.332596,-53.870544,-76.667118,-93.159943,-63.697758,-95.112362,-110.814743,-122.20356,-57.431488,-92.420883,-110.982914,-125.509243,-48.92292,-81.359997,-98.551025,-110.997734,-39.311371,-64.535522,-78.013401,-88.969173,-18.050695,-16.538428,-1.605449,10.538202,14.196914,30.215032,38.209549,44.024092,31.955962,46.127373,53.469805,59.285089,44.386567,57.814564,64.324169,69.071664,52.289076,65.008672,69.979519,73.220736,-17.35136,-22.395344,-22.393456,-17.685528,-22.701187,-14.907303,-9.843922,-9.332829,-7.241535,2.019939,4.859333,3.084698,9.990578,17.233543,17.121563,14.900208,25.997715,32.339859,35.106525,36.011925,-33.147312,-63.342615,-90.343199,-108.451044,-60.332931,-96.790128,-90.446168,-80.534455,-54.417952,-92.532622,-84.576977,-73.94442,-49.259353,-85.110037,-78.468935,-68.227907,-46.442547,-77.197586,-94.721118,-110.087646,37.246456,288.287464,-180.786324,36.101066
37,1.018181,-0.744092,-2.313538,-10.628975,-28.500252,-54.068184,-76.754951,-92.912121,-63.49966,-94.878273,-110.490246,-122.011642,-57.062416,-91.858921,-110.767422,-125.860977,-48.524208,-81.038361,-98.82843,-112.104034,-38.775444,-64.105453,-77.934837,-89.586754,-17.285299,-15.599821,-0.738905,10.847448,14.9951,30.741455,38.315081,43.780672,32.242669,46.368693,53.735764,59.590383,44.204403,57.807463,64.480151,69.53541,51.796369,64.935128,70.281911,74.02837,-17.957897,-21.858215,-20.551815,-17.189083,-23.927422,-13.939075,-8.977718,-8.529625,-8.723602,2.767239,5.467243,2.870865,8.340397,18.572159,18.669777,15.541821,25.097351,32.60725,34.354591,33.407135,-33.872509,-63.466487,-90.025061,-108.599462,-62.981653,-96.706734,-93.921296,-85.603238,-57.674885,-95.827161,-89.461836,-79.294599,-53.004948,-89.654713,-83.134549,-72.788638,-50.338627,-82.923579,-100.439484,-115.325718,34.64819,287.511045,-186.716309,25.439765
38,-0.757027,0.814611,-0.685101,-9.991062,-28.187943,-53.583755,-76.036949,-92.042313,-63.101864,-94.610367,-110.156765,-121.502666,-56.398659,-91.661167,-110.38084,-125.124722,-47.66922,-80.485897,-97.758121,-110.61573,-37.788277,-63.137569,-76.749458,-88.184509,-17.871989,-16.220104,-1.55858,10.061427,13.962694,30.188912,38.236102,43.947151,31.714271,46.041786,53.529333,59.400377,44.073307,57.53749,64.316389,69.50756,51.743449,64.466936,69.594999,73.212462,-18.701134,-23.44202,-22.681561,-18.899403,-25.748405,-15.332451,-9.863434,-9.714203,-11.015854,1.170158,4.682178,2.729359,6.078072,16.869106,17.741318,15.301781,23.353558,30.689049,32.095928,31.217709,-32.262089,-61.765232,-87.89495,-106.214753,-62.59701,-96.152585,-90.814108,-81.440457,-57.520077,-94.099631,-85.423976,-74.867218,-52.354284,-88.002488,-79.081159,-67.758696,-49.149499,-81.221274,-98.885659,-114.734458,31.706715,288.480033,-189.585857,15.603079
39,0.308304,-0.368341,-0.675545,-7.362965,-28.402863,-53.471146,-75.848007,-91.78688,-63.036861,-94.53558,-110.136452,-121.61293,-56.571693,-91.563778,-110.31498,-125.127583,-47.779312,-80.59742,-98.134689,-111.170311,-37.79068,-63.366165,-77.093868,-88.4939,-17.548541,-15.888381,-1.105332,10.470029,14.103794,29.985197,37.884557,43.803087,31.443619,45.604902,53.143701,59.174,43.787526,57.15896,63.847641,68.974407,51.780499,64.719125,69.610807,72.897226,-19.808292,-26.185799,-25.076065,-19.774818,-30.43602,-17.530689,-12.630386,-13.693886,-13.58757,-0.441628,2.72438,0.131435,4.969769,14.209442,15.459538,12.809029,22.761555,26.457767,27.140694,26.321869,-28.068465,-58.585209,-84.265291,-100.678705,-58.972477,-94.406469,-83.744674,-72.24332,-53.503953,-89.414257,-78.499779,-68.730123,-48.540085,-82.684357,-73.421178,-62.895604,-45.502366,-76.670794,-95.183536,-111.569533,31.762991,288.552003,-190.51343,8.680425
40,0.237694,0.651343,-5.945892,3.585445,-28.280411,-53.349152,-75.617809,-91.112251,-63.128586,-94.939556,-110.665512,-122.070866,-56.274605,-91.907387,-110.712833,-125.47554,-47.24556,-80.411224,-97.892017,-110.821209,-37.171898,-62.999725,-76.900978,-88.292999,-18.068418,-16.445123,-1.799778,10.234019,13.790287,29.56832,37.4578,43.355088,31.340187,45.188519,52.638583,58.76657,43.600669,56.878366,63.534011,68.724257,51.212704,63.857645,68.702644,72.024013,-19.747295,-26.603336,-24.432335,-19.541759,-31.718845,-17.228508,-11.320267,-12.520695,-13.858109,1.481152,5.186234,3.270378,5.381298,16.412601,19.648819,18.742504,23.944073,26.47562,28.136044,29.567986,-26.035826,-55.574661,-81.191387,-96.500209,-57.891999,-95.104835,-85.655015,-75.368416,-52.119941,-88.655066,-78.983593,-69.247313,-47.212482,-80.888254,-72.741954,-62.694267,-44.481199,-76.157092,-95.63135,-110.474235,32.395134,289.891415,-196.064873,12.95394
41,0.577469,-0.131343,-3.861523,8.849637,-28.094101,-53.313675,-75.790901,-90.64642,-63.159313,-95.159569,-111.107483,-122.729187,-56.153755,-91.791286,-110.777779,-125.616474,-47.043228,-80.358009,-98.132401,-111.103821,-37.162056,-63.21413,-77.25975,-88.720322,-18.220447,-16.609255,-1.830097,10.598161,13.626278,29.798032,37.751361,43.895342,31.184946,45.288493,52.848658,59.171962,43.45784,57.12685,63.689498,68.820958,51.102788,64.182822,68.8782,72.105092,-19.837189,-28.318977,-24.696178,-15.422688,-31.090107,-19.324036,-13.083286,-13.921795,-13.694401,-0.059395,3.923492,1.314011,4.943104,14.297047,18.090019,16.625061,21.937866,23.65139,26.301956,27.382965,-22.854568,-53.001799,-80.849228,-95.107398,-51.778678,-92.632812,-81.782801,-70.656489,-46.590995,-87.425431,-76.661377,-66.468143,-42.988198,-79.449037,-69.446335,-58.896308,-42.095935,-74.547135,-93.656603,-107.799331,32.836761,289.778628,-200.062237,21.822132
42,0.433731,0.152524,-4.167366,11.812823,-27.687836,-53.260345,-75.927601,-91.090221,-63.401184,-95.143547,-111.026173,-122.537498,-56.49044,-91.992645,-110.93565,-125.713005,-47.422371,-80.449104,-98.031979,-110.751572,-37.5317,-63.322906,-77.174091,-88.375282,-18.5003,-16.942831,-2.054251,10.263042,13.715755,30.188356,38.123902,44.088868,31.219712,45.270092,52.667729,58.890009,43.523481,56.990628,63.53432,68.540981,51.236046,64.063274,68.732346,71.853212,-20.245171,-29.839039,-26.614666,-17.870293,-29.832687,-23.575516,-16.570187,-15.705643,-13.445663,-4.103394,0.212631,-1.519032,3.792629,10.209045,13.558102,12.091713,20.015087,20.948868,22.897224,23.168564,-22.389001,-50.635369,-77.470801,-90.909636,-44.12175,-85.80334,-74.054274,-62.138328,-38.869075,-81.870456,-70.298491,-60.11594,-36.109017,-76.160272,-66.098598,-56.043068,-36.40159,-70.702956,-88.355206,-99.775142,32.93498,289.394958,-204.565115,33.098761
43,1.599541,-0.013523,-2.678032,7.19241,-27.916718,-53.60321,-76.36116,-91.507988,-63.792114,-95.372601,-111.057529,-122.451153,-57.112999,-92.155209,-110.629692,-125.057888,-48.226318,-80.785217,-98.196945,-110.857086,-38.28289,-63.672867,-77.346954,-88.618755,-18.408539,-17.116411,-2.306007,10.255138,13.969919,29.891584,37.571235,43.440427,31.382239,45.084655,52.305872,58.507033,43.576586,56.710529,63.209698,68.304724,51.203195,63.702157,68.597359,72.051924,-22.706623,-34.497528,-36.202869,-32.992859,-27.164841,-25.56427,-21.408463,-20.371857,-12.732468,-8.017044,-3.974247,-2.816105,2.571945,6.109257,9.103718,7.984886,18.633842,18.197422,19.231739,19.519215,-14.007927,-36.766535,-58.170988,-68.556573,-30.855477,-66.387652,-55.906847,-44.576542,-26.186374,-63.940112,-53.214807,-42.761728,-23.971078,-60.257905,-49.176083,-39.764517,-25.984481,-57.380737,-71.311105,-80.677932,33.551645,288.425646,-208.226023,39.335383
44,0.254288,0.032666,-3.072395,52.22981,-27.522697,-53.353958,-76.097031,-91.89703,-63.536911,-95.486012,-111.549797,-123.281078,-56.718292,-92.564335,-111.624813,-126.522675,-47.711906,-81.176205,-99.096737,-112.169037,-37.644768,-63.611298,-77.578297,-89.098606,-18.26429,-16.895962,-2.230795,9.799235,13.367853,30.187924,38.333791,44.622824,30.706936,45.044764,52.627036,58.999493,42.96816,56.299333,63.218652,68.64361,50.796445,63.433543,68.439402,72.052048,-23.103304,-35.737753,-38.695765,-36.241379,-33.457174,-29.277878,-23.431149,-22.535534,-17.68733,-11.364555,-6.812468,-6.76589,-0.713768,3.356924,7.188778,6.570797,16.174106,15.634632,16.646032,16.619482,-18.444493,-45.341984,-70.047598,-83.116332,-39.416168,-80.132845,-68.943455,-57.493369,-34.130301,-76.200301,-65.206876,-54.598834,-31.57226,-69.85909,-59.551155,-49.61221,-33.074339,-66.085167,-83.027257,-94.870955,33.334694,288.321998,-211.769657,91.428879
45,0.572319,-0.391868,-3.072395,52.229811,-28.058968,-53.310356,-75.852127,-91.720505,-63.50029,-95.295582,-110.806046,-121.953621,-56.475906,-91.876659,-109.988823,-123.571358,-47.34169,-80.439949,-98.08382,-110.551186,-37.314377,-63.271065,-77.324409,-88.63924,-17.350075,-15.816442,-1.62737,10.639411,14.042908,30.619992,38.466493,44.270044,30.912874,45.892536,53.600778,59.765013,42.807732,56.71059,63.915011,69.297239,50.28583,63.066869,68.211419,71.661044,-23.499985,-36.977978,-41.18866,-39.489899,-39.749508,-32.991486,-25.453835,-24.699211,-22.642193,-14.712067,-9.650688,-10.715675,-3.999481,0.604591,5.273838,5.156708,13.714371,13.071842,14.060326,13.719749,-22.881059,-53.917434,-81.92421,-97.676092,-47.976859,-93.87804,-81.980063,-70.410197,-42.07423,-88.460491,-77.198945,-66.435941,-39.173442,-79.460276,-69.926228,-59.459904,-40.164197,-74.789598,-94.74341,-109.063979,32.269449,287.768606,-216.479616,143.497167
46,0.976753,-0.554395,-0.237579,24.891838,-27.71965,-53.683662,-76.499863,-93.22958,-63.467903,-94.984474,-109.633484,-119.892883,-56.508408,-91.165924,-108.083267,-120.349789,-47.52903,-80.207291,-97.400436,-109.543591,-37.709541,-63.432999,-77.393017,-88.557758,-17.563917,-15.473109,-0.786824,10.710794,14.126951,30.453265,38.477361,44.728355,31.018776,46.19042,53.876246,60.368623,43.05918,57.157787,64.355785,70.021818,50.736917,63.695426,68.986202,72.866906,-21.160183,-36.33625,-42.871742,-45.300465,-40.029659,-36.611195,-25.814438,-23.990536,-23.826714,-17.825718,-11.019058,-12.64761,-5.830536,-2.841167,2.968025,3.340302,11.535301,11.375027,11.185741,9.146118,-15.717332,-41.400996,-66.165072,-82.567742,-29.884791,-73.66926,-65.001077,-54.880648,-24.837992,-71.73039,-62.103655,-50.393894,-23.350857,-64.010848,-56.452227,-46.710482,-26.451468,-59.130682,-78.399774,-92.992539,33.491392,287.248452,-216.472006,168.423245
47,-0.119476,0.235516,1.089649,6.82058,-27.50679,-53.196373,-75.800972,-92.528286,-63.063469,-94.331989,-108.460693,-118.064747,-56.008072,-90.606823,-106.951618,-118.630028,-47.002487,-79.507942,-96.123219,-107.969799,-37.001381,-62.454872,-76.209698,-87.41787,-17.834075,-15.955998,-1.437797,9.808621,13.871613,29.834094,37.672938,43.639201,30.870636,46.169919,54.015185,60.666075,42.892268,57.319326,64.667934,70.489763,50.49961,63.793918,69.226781,73.209621,-23.753471,-40.84116,-50.05291,-51.947594,-40.440331,-38.475094,-32.290592,-31.804504,-23.428173,-18.65696,-13.411732,-14.693069,-5.986462,-1.949959,2.210255,-1.235332,10.181122,9.869328,10.433407,9.91087,-13.453254,-33.47144,-54.138809,-65.384918,-23.34851,-57.827347,-50.918957,-40.337345,-16.208804,-55.878442,-47.539172,-37.391233,-13.980232,-49.787813,-42.276308,-33.581912,-16.878796,-47.702008,-63.326931,-74.947154,33.714037,287.20731,-215.040236,174.967168
48,0.18322,0.797136,-1.573391,10.403462,-27.548218,-53.192596,-75.543652,-92.238178,-62.872925,-94.027634,-107.600441,-116.513271,-55.952797,-90.595722,-106.425991,-117.718334,-46.977081,-79.475098,-95.539284,-106.994991,-37.07943,-62.509117,-75.93235,-86.969891,-18.144124,-16.459264,-2.079939,9.085462,13.154196,28.824598,36.232425,41.493745,30.400716,45.36704,53.104984,59.573278,42.594878,56.769377,63.825226,69.352999,50.332761,63.423169,68.716476,72.555437,-20.950928,-37.910843,-46.929646,-49.116497,-42.75095,-41.490211,-32.175465,-28.873386,-25.309925,-19.970284,-14.101524,-13.923569,-7.901344,-1.770172,2.664986,-0.467491,8.607788,9.051533,8.421879,7.10083,-15.072288,-33.164973,-51.920673,-63.361974,-20.840949,-54.726673,-51.062033,-43.431967,-14.013577,-52.842915,-46.06272,-36.715622,-11.429878,-47.504036,-41.105397,-32.741118,-13.219466,-45.974725,-60.561037,-71.553321,34.515753,287.814826,-215.995131,185.18101
49,1.478577,-0.032048,-0.797539,5.570566,-27.511482,-53.780251,-76.638966,-93.586521,-64.288101,-94.37479,-107.805004,-116.727047,-57.905617,-90.503826,-105.916328,-116.640415,-49.294395,-80.005817,-95.886326,-107.044315,-39.44767,-63.239937,-76.369686,-86.966629,-18.478317,-16.480135,-1.744511,8.904286,13.357417,28.743767,35.903357,40.701302,30.896263,45.822572,52.90306,58.477949,43.219299,57.011068,63.699502,68.625579,50.872706,63.500542,68.666582,72.28849,-20.022926,-36.952801,-45.070839,-51.703663,-46.166439,-40.562267,-30.742378,-31.188068,-29.6311,-21.881447,-13.594036,-14.80814,-11.056767,-5.832767,-0.359573,-3.341045,7.452908,7.633038,7.934818,6.994686,-12.246836,-33.277668,-56.297789,-68.806385,-18.38952,-57.716999,-54.124607,-44.469806,-13.411016,-55.414202,-47.139709,-35.282271,-11.839653,-49.841722,-42.555729,-32.799719,-14.014997,-46.269954,-62.667344,-76.394769,36.120243,287.699708,-216.666756,190.668507
50,-0.10025,-0.519012,-0.434074,3.299016,-27.307663,-52.927094,-75.554466,-92.180557,-63.552246,-93.568954,-107.011642,-115.874691,-57.269096,-89.865646,-105.172405,-115.536919,-48.929558,-79.508572,-95.094337,-105.892982,-39.421577,-63.086929,-76.047935,-86.422462,-17.839879,-15.990269,-2.038134,8.655246,13.978317,29.357813,36.398101,40.841414,31.463255,46.728451,53.650487,58.785281,43.701261,57.883231,64.519794,69.283839,51.239998,64.261184,69.419813,72.872958,-19.796448,-36.646671,-45.411472,-53.545361,-48.463554,-41.113529,-31.439323,-30.58176,-33.562717,-21.907482,-13.059597,-13.469696,-14.321995,-6.009178,-0.011616,-0.788727,5.620823,5.534592,5.77486,5.486927,-15.818418,-39.366011,-61.341933,-73.461748,-21.980924,-60.028316,-61.759428,-56.125443,-16.817416,-60.221719,-54.176106,-43.065787,-15.594387,-56.09568,-49.605156,-39.94733,-18.343083,-50.611687,-68.501461,-83.919674,36.440992,287.131527,-216.679831,193.918354
51,-0.428925,0.035815,-2.430553,-0.955649,-27.088852,-52.756462,-75.472183,-92.320404,-63.310204,-94.232368,-107.452469,-116.071758,-56.493874,-90.23735,-105.660095,-116.00235,-47.560844,-79.368038,-95.226574,-106.280708,-37.597961,-62.169228,-75.405636,-86.083775,-17.801347,-15.751233,-1.390866,9.524137,13.831784,29.571778,36.870986,41.617863,31.214339,46.445943,53.56169,58.859319,43.381455,57.657286,64.524055,69.575424,50.83121,63.850605,69.037269,72.69487,-22.13625,-37.670002,-44.741707,-51.031609,-44.839439,-41.764927,-36.580296,-36.434269,-29.244461,-25.062046,-17.871895,-16.387253,-10.34277,-7.798576,-4.756508,-5.060978,8.282261,6.268902,5.513191,4.711189,-18.354631,-43.437772,-66.204654,-80.95584,-28.383515,-59.389447,-70.510758,-73.589139,-23.732721,-62.73317,-63.351909,-56.256601,-23.426007,-62.17896,-60.239441,-53.035144,-26.360572,-56.89683,-76.158944,-91.543813,36.296282,287.141963,-218.82617,192.937325
52,0.45742,-0.36476,-3.322849,-3.594985,-27.530365,-53.683891,-76.234589,-92.387753,-63.691063,-94.076271,-107.372646,-116.305218,-56.733742,-90.083885,-105.819397,-116.885204,-47.603989,-79.137897,-95.258102,-106.791344,-37.309227,-61.666374,-75.003433,-86.068096,-17.611897,-15.352326,-0.863024,10.297437,14.257429,30.512175,38.12384,43.218619,31.40626,46.846024,54.426381,60.368067,43.491988,57.920837,65.094506,70.35774,51.01782,64.173251,69.448589,73.002881,-21.778908,-36.555862,-43.618355,-48.968754,-42.319851,-40.927963,-33.282967,-31.111622,-26.756401,-23.474007,-15.254459,-14.808826,-9.153557,-6.16127,-1.690578,-2.159214,8.130283,7.104034,5.419235,2.570286,-18.650909,-44.030761,-67.551431,-83.565134,-31.574776,-63.692648,-71.494812,-72.046552,-26.479935,-67.121154,-64.256058,-55.334297,-25.165392,-63.255887,-60.245493,-52.283889,-28.16251,-59.328005,-77.103571,-91.075374,36.655769,286.754757,-222.246952,189.319893
53,-0.72258,-0.018155,-2.561417,-4.29116,-27.32254,-53.310356,-76.013832,-92.434158,-63.544922,-94.349899,-108.025761,-117.236481,-56.538162,-90.535641,-106.485386,-117.541695,-47.393646,-79.417934,-95.64497,-107.060566,-37.121544,-61.789169,-75.288105,-86.356773,-17.748859,-15.433898,-0.945337,10.337389,14.452684,30.498281,38.061904,43.318161,31.651717,46.719435,54.176909,60.150397,43.751958,57.851059,64.979156,70.340203,51.366771,64.277671,69.480637,73.124282,-20.310631,-34.512463,-42.315731,-47.63689,-41.208515,-38.986988,-31.282654,-28.618526,-25.426197,-21.454697,-13.005123,-12.628956,-7.919827,-4.697857,0.92823,0.860538,9.193897,7.827187,6.153145,3.193073,-19.252296,-44.675744,-68.627555,-85.239559,-32.143745,-64.607295,-73.815856,-75.36681,-27.705249,-69.116125,-65.898681,-56.997174,-26.575278,-64.720422,-61.898428,-53.884953,-29.818224,-61.581833,-79.283484,-92.617652,35.811825,286.722739,-224.929733,185.014871
54,-0.367241,-0.279235,-0.848637,-4.554155,-27.0401,-53.058929,-75.747299,-92.428894,-63.764648,-94.458847,-108.392143,-117.868309,-56.943512,-90.778542,-107.05719,-118.363552,-47.829437,-79.951229,-96.387234,-107.852497,-37.549324,-62.348328,-75.779057,-86.810646,-17.460114,-15.04981,-0.159995,10.772421,13.915455,30.339212,38.562268,44.575152,30.776035,46.303485,54.201239,60.55832,42.969086,57.333776,64.778467,70.394049,50.997072,64.11959,69.378749,73.123479,-18.970013,-33.288517,-40.648613,-46.157455,-41.769562,-34.329357,-24.38633,-24.091473,-25.3965,-17.423458,-8.855553,-10.145187,-7.462578,-2.310162,3.953934,3.442497,9.887638,8.934975,8.092747,6.196232,-16.435922,-43.10611,-68.313153,-84.18199,-32.83325,-71.947968,-68.878849,-60.624702,-27.309861,-69.764133,-62.082691,-51.600867,-25.743315,-64.293726,-58.655358,-49.738104,-29.127978,-60.043075,-77.508963,-91.59488,35.277014,286.371904,-225.94594,180.389117
55,0.194664,-0.637573,0.224247,-2.795812,-27.208443,-53.024025,-75.628796,-92.083511,-63.195305,-93.662109,-107.867489,-117.88393,-56.602821,-90.027237,-106.626835,-118.738632,-47.795334,-79.59589,-96.542187,-108.664799,-37.54406,-61.977997,-75.436077,-86.681156,-17.234602,-15.164049,-0.372602,11.097722,14.690855,31.64863,39.646482,45.338202,31.498082,47.290071,55.175722,61.689958,43.553554,57.964062,65.306989,71.016494,51.334599,64.58525,70.108701,74.118155,-18.613758,-33.68969,-39.24139,-43.920536,-43.365612,-34.937153,-24.152012,-24.097366,-26.008987,-16.620541,-7.622108,-9.469414,-6.935406,-0.797367,5.443554,4.45118,11.197357,10.396786,10.000019,8.574829,-15.11965,-41.77545,-67.456953,-82.027395,-29.563998,-69.998044,-65.782745,-56.938079,-24.377334,-67.349816,-59.010546,-48.461106,-23.114291,-61.204477,-54.75477,-45.85425,-26.617145,-56.975376,-74.771196,-89.511236,35.379553,285.612343,-225.813818,177.471317
56,-0.034676,0.181917,-0.903225,0.017475,-27.141609,-53.061447,-75.640697,-92.244415,-63.210068,-93.882923,-108.281193,-118.554211,-56.334572,-89.985809,-106.703854,-118.890266,-47.248993,-79.101448,-96.168365,-108.486443,-36.827431,-61.389771,-75.052757,-86.357746,-17.129626,-15.264578,-0.696051,10.923957,15.141201,32.067853,40.054837,45.716671,31.929841,47.61636,55.288293,61.485256,43.835074,58.283559,65.600797,71.222802,51.290818,64.420253,69.89171,73.742836,-19.187565,-33.846359,-39.969521,-46.274471,-41.024437,-31.147156,-22.99839,-25.530052,-24.0275,-14.045963,-6.602154,-9.030418,-5.090275,1.438694,6.812897,6.064396,13.188457,13.180904,13.012791,12.417641,-16.801114,-42.552888,-67.446239,-81.574085,-28.29762,-68.874681,-64.964737,-56.237829,-22.872476,-66.271654,-58.949846,-48.478458,-21.479387,-60.132983,-54.772554,-46.289467,-24.549062,-55.458971,-73.599359,-88.581089,35.27853,285.699643,-226.78339,177.394175
57,0.012932,0.514443,1.070881,0.967876,-27.216682,-53.412209,-76.135883,-92.49218,-64.061737,-95.077,-109.675713,-119.88121,-56.640472,-90.76046,-107.889519,-120.096359,-46.943779,-79.258461,-96.433926,-108.580112,-36.005745,-61.097832,-74.97694,-86.283188,-17.602634,-15.657249,-0.768422,11.152186,15.093344,32.056985,40.40947,46.919507,31.916441,47.220787,54.805343,61.315442,43.771286,58.0289,65.205903,70.892437,51.175777,64.290145,69.594073,73.522325,-18.385849,-33.283997,-39.583683,-45.582104,-41.860199,-32.051811,-22.67046,-24.433823,-25.132599,-14.224491,-6.043797,-8.40929,-6.394444,0.624561,6.429348,5.623627,12.013493,11.899738,12.43721,12.814064,-16.554791,-42.791059,-68.631013,-82.351584,-27.56631,-69.835764,-64.285822,-54.812444,-21.736639,-66.568519,-58.575515,-47.86083,-19.508252,-59.451197,-53.44492,-44.794984,-21.747878,-53.102884,-71.7847,-87.420707,35.25095,286.142008,-225.753021,178.289973
58,-0.062256,0.591384,0.094757,1.192277,-27.210274,-52.915535,-75.842228,-92.090149,-64.060135,-95.484009,-110.214272,-120.402832,-56.927261,-91.716957,-109.34412,-122.008324,-47.466774,-80.206432,-97.423725,-109.557037,-36.806717,-62.266273,-76.004505,-87.022934,-17.49173,-15.785628,-1.064577,11.035293,14.205435,30.845381,39.06189,45.285838,31.155368,46.251861,53.884027,60.285198,43.209172,57.392253,64.626931,70.31717,50.802496,63.918469,69.095994,72.831832,-18.22649,-33.810711,-38.96244,-43.847694,-43.231888,-33.697987,-23.80188,-25.368004,-25.76746,-14.107704,-5.862408,-8.087311,-6.132946,1.682796,7.00819,5.691433,12.543526,12.738705,13.244019,13.384266,-16.233504,-43.306367,-69.689076,-83.236962,-28.137872,-70.22862,-64.854914,-55.313549,-21.799501,-66.451378,-58.21199,-47.263333,-19.489727,-59.453976,-52.645499,-43.508352,-21.63506,-54.102623,-72.436444,-87.874881,35.107298,286.703844,-225.73966,179.452702
59,0.288277,0.197293,0.444832,1.009249,-27.363968,-52.93499,-75.984993,-92.441769,-64.043999,-95.607262,-111.096611,-122.08889,-57.05246,-92.16116,-110.570526,-123.983231,-47.73983,-80.386505,-97.969494,-110.407677,-37.217102,-62.52594,-76.180344,-87.113228,-17.33896,-15.96773,-1.137443,11.104515,14.401431,31.27294,39.468764,45.948049,31.383597,46.226235,53.740951,60.121498,43.499831,57.883539,64.812121,70.202438,51.114892,64.448967,69.553132,73.103534,-18.179169,-33.556824,-39.270172,-45.149002,-43.129749,-33.550072,-23.263493,-24.829674,-26.184883,-14.269409,-5.667343,-7.709541,-6.804657,1.342735,6.903019,5.572987,12.151394,12.451916,12.975769,13.128777,-16.305382,-43.94536,-70.844488,-84.373571,-29.075181,-71.234843,-65.771537,-56.085491,-22.464738,-67.177872,-59.003754,-48.083193,-19.843804,-60.2408,-53.386751,-44.433003,-21.884655,-54.020372,-72.291423,-88.067079,35.294352,286.900133,-225.396051,180.460948
60,0.447578,-0.036186,0.838223,0.434167,-27.339592,-53.061447,-76.166954,-92.523079,-64.097443,-95.618019,-111.455326,-122.80735,-57.154083,-92.429523,-111.153431,-125.030022,-47.914238,-80.745735,-98.388176,-110.890617,-37.548752,-63.056717,-76.582546,-87.475147,-17.26875,-16.009288,-1.290584,10.705422,14.186293,31.431515,39.846738,46.41161,31.127765,46.08495,53.83864,60.343552,43.393497,57.630733,64.633539,70.04164,51.285014,64.348437,69.465385,73.160221,-18.909473,-34.668159,-40.295448,-45.86237,-43.879051,-33.39386,-23.697739,-25.487709,-26.818428,-14.206753,-5.762157,-7.994785,-7.393513,1.383991,6.876698,5.517826,11.415482,11.707478,12.244949,12.459183,-16.423572,-43.85329,-70.654883,-84.358596,-29.467173,-71.479776,-65.663597,-55.882579,-23.075141,-67.446208,-58.798248,-48.271223,-20.934131,-61.457406,-54.166906,-45.216986,-23.417732,-55.920803,-73.851486,-89.486814,35.696726,286.854314,-224.603033,180.885482
61,0.33062,1.200058,0.411816,0.99412,-27.6828,-53.049889,-75.989914,-91.833801,-64.108429,-95.699902,-111.07378,-121.937428,-57.591248,-92.77216,-111.046314,-124.581642,-48.823586,-81.182041,-98.502502,-110.949497,-38.654594,-63.248749,-76.845016,-87.9245,-17.701064,-17.03027,-2.580303,9.638375,14.2063,30.449313,38.310264,44.359582,31.200075,45.39032,52.745164,59.259709,43.18972,57.055652,63.971266,69.548069,50.701967,63.553586,69.066724,73.248215,-18.930359,-34.244156,-40.429516,-46.546383,-43.639526,-33.438663,-23.337135,-24.727192,-26.9981,-14.641972,-5.818291,-7.810307,-7.860203,0.593777,6.620178,5.909214,11.169662,11.375771,11.998215,12.495861,-16.452595,-43.95135,-70.58458,-84.720515,-30.6069,-73.312528,-67.533956,-57.54453,-24.369306,-69.177844,-60.207393,-49.535007,-21.874528,-62.232868,-55.129286,-46.489415,-23.94539,-55.747346,-73.665926,-89.495551,36.025171,288.033469,-224.193392,181.858699
62,0.435448,-0.064529,0.810642,-0.239406,-27.969589,-53.28804,-76.004105,-92.218266,-64.004173,-95.661678,-111.042595,-121.86367,-57.467079,-92.657833,-110.972614,-124.735851,-48.635216,-81.032639,-98.470345,-111.048775,-38.517609,-63.09803,-76.627064,-87.708035,-17.916882,-17.03274,-2.329287,9.733779,14.196173,30.426342,38.211587,43.920845,31.379089,45.532284,52.83816,59.054821,43.427212,57.253747,64.049689,69.301129,50.825591,63.632009,69.121682,73.124529,-19.078388,-34.601898,-41.255322,-47.845688,-43.991146,-33.305969,-23.679771,-25.773354,-27.002048,-14.587784,-6.278629,-8.711586,-7.576904,0.867519,6.421623,5.511875,11.68047,12.28529,13.156643,13.951035,-16.968396,-44.417998,-70.901051,-84.802551,-30.585597,-73.052096,-66.996109,-57.001064,-24.088774,-69.020442,-60.114644,-49.15833,-21.549968,-61.449193,-54.300287,-45.625959,-23.640836,-55.093038,-73.258682,-89.376497,36.44969,287.935116,-223.393679,181.585469
63,-0.359001,-0.706239,-0.059566,0.380753,-28.030586,-53.133774,-75.667877,-91.577682,-63.528557,-94.930286,-110.401955,-121.357155,-57.046623,-92.169914,-110.748425,-124.900303,-48.275871,-80.766163,-98.316193,-111.056957,-38.201637,-62.885399,-76.537342,-87.965813,-17.477157,-16.304949,-1.620948,10.33072,14.268297,30.791102,38.794635,44.672903,31.482583,45.746743,53.210268,59.410133,43.703484,57.449928,64.334049,69.56153,51.423335,64.469777,69.990016,73.905487,-18.918858,-34.07793,-40.053463,-45.879765,-43.409271,-33.452454,-23.087826,-24.729767,-26.286449,-14.29533,-5.423126,-7.455883,-6.805286,1.801586,7.582626,6.604729,12.30011,12.859955,13.597698,14.302082,-17.859145,-45.862401,-72.745382,-86.330997,-31.66802,-73.920523,-67.979361,-58.09065,-24.819528,-70.040065,-61.356815,-50.357955,-22.132274,-62.317775,-55.473977,-46.798785,-24.195479,-55.821384,-74.096666,-89.929194,36.065998,287.208499,-223.477936,181.945844
64,0.251999,0.296278,1.180687,-0.309493,-27.638855,-52.924232,-75.366211,-91.122379,-63.626404,-94.894238,-110.549526,-121.651268,-57.249756,-92.335567,-111.194572,-125.643768,-48.502007,-80.885582,-98.529682,-111.335163,-38.414497,-63.024101,-76.627579,-87.904186,-17.75948,-16.644885,-1.833925,9.866851,14.070881,30.565589,38.549238,44.421888,31.330924,45.710248,53.181678,59.351347,43.549046,57.245596,64.214006,69.537201,51.271923,64.125271,69.718562,73.814528,-19.225445,-34.592743,-40.726433,-46.369228,-43.620586,-33.241653,-22.974586,-24.287739,-26.638985,-14.210529,-5.913105,-8.37616,-7.545204,0.997581,6.381969,5.363159,11.444149,11.937389,12.721825,13.678093,-16.766534,-44.636718,-71.514572,-85.639176,-31.224899,-74.555718,-67.849685,-57.727681,-24.468415,-69.64088,-60.211159,-49.692471,-21.593069,-61.696195,-54.598726,-46.296198,-23.434405,-54.554266,-72.412609,-88.119907,36.25597,287.445991,-222.359276,181.577565
65,0.314369,-0.150054,1.086845,0.448308,-28.115273,-53.360023,-75.786438,-91.577282,-63.438835,-94.811897,-110.324306,-121.270466,-57.059441,-92.171459,-110.736465,-124.915466,-48.386536,-80.729141,-98.124733,-110.684166,-38.468971,-62.881508,-76.192589,-87.167187,-17.651788,-16.282904,-1.56068,10.228585,14.709874,31.192294,39.014651,44.365263,31.998446,46.316205,53.769356,59.616688,44.01168,57.655557,64.556906,69.562148,51.343245,64.012947,69.599569,73.51084,-19.779224,-35.101204,-41.219101,-46.924381,-43.753338,-33.86467,-24.05262,-25.560493,-26.38195,-14.865589,-6.77496,-9.239388,-7.006931,0.661354,5.668201,4.731045,11.916962,11.985054,12.55743,13.337803,-16.471799,-44.165253,-70.892777,-84.670189,-30.74164,-73.403209,-67.223413,-57.371196,-24.448779,-69.571472,-60.540474,-49.972756,-21.908676,-62.295606,-55.341831,-46.840405,-23.891605,-55.409262,-73.289711,-88.968728,36.488714,287.312734,-221.354055,182.042669
66,0.390472,0.167714,0.300808,0.563411,-28.197327,-53.4795,-76.173534,-91.902294,-63.751602,-95.254097,-110.911274,-122.029839,-57.205009,-92.539616,-111.336708,-125.775661,-48.260536,-81.042423,-98.655396,-111.404343,-38.083878,-63.12664,-76.711292,-87.894974,-17.893355,-16.576404,-1.945755,10.06402,14.071746,30.735341,38.795499,44.608004,31.489314,45.850978,53.555206,59.852019,43.696382,57.365639,64.309226,69.56116,51.202577,64.046478,69.607102,73.592782,-19.263382,-34.422741,-40.056782,-45.522881,-43.050957,-32.571774,-22.803555,-24.613495,-26.015396,-14.04562,-6.252136,-8.758564,-6.954803,1.292439,6.215858,5.191669,11.75909,12.565327,13.360691,14.326515,-16.678663,-44.79591,-72.043557,-86.155441,-31.201866,-74.466088,-67.624976,-57.510011,-24.985081,-70.055719,-60.545723,-50.114905,-22.598984,-62.668332,-55.044255,-46.556229,-24.680528,-55.879245,-73.635946,-89.560698,36.832237,287.471324,-221.100197,182.596956
67,0.383606,-0.622135,0.863914,0.335305,-28.382721,-53.803825,-76.458435,-91.970673,-63.500175,-94.884281,-110.571041,-121.705856,-56.931953,-92.136841,-111.14027,-125.895824,-48.00087,-80.580997,-98.258972,-111.31525,-37.813911,-62.325554,-75.955639,-87.442589,-17.224351,-16.002434,-1.647748,10.216482,14.899448,31.576135,39.450115,44.808445,32.25613,46.683435,54.226989,60.137491,44.327904,58.29665,65.241348,70.198795,51.533498,64.726905,70.414118,74.191514,-19.524593,-34.291191,-40.351925,-46.557999,-42.781792,-32.065887,-22.329483,-24.194012,-25.626583,-13.441887,-5.755348,-8.436871,-6.330013,1.812572,6.592827,5.469532,12.660599,13.552666,14.210072,15.050869,-17.005322,-44.807457,-71.694544,-85.829646,-31.288254,-74.591781,-67.863579,-57.673588,-24.792235,-70.087767,-60.642177,-49.940337,-22.123999,-62.371498,-55.405742,-47.045539,-24.052032,-55.068338,-73.220304,-89.382178,37.167006,286.832485,-220.28512,182.915558
68,0.21698,0.078053,0.859509,-0.01692,-28.108978,-53.387375,-76.169357,-91.694412,-63.437233,-94.732189,-110.366192,-121.64217,-56.881714,-91.955738,-110.803185,-125.532646,-48.065987,-80.570984,-98.17955,-111.26627,-37.995644,-62.714767,-76.28912,-87.689838,-16.980931,-16.040843,-2.08809,9.681291,14.566922,30.962398,38.842368,44.372117,31.803994,46.188691,53.733974,59.865048,43.978088,57.812094,64.785568,69.964452,51.586171,64.768155,70.324704,74.152241,-19.444714,-34.201183,-40.577202,-47.106113,-42.796497,-30.957527,-21.5098,-23.458042,-26.160736,-12.639427,-5.249233,-7.932873,-7.315922,2.346153,7.10844,5.811424,11.691513,12.989731,13.807869,14.708233,-16.3914,-44.053855,-70.952983,-85.369481,-31.538158,-74.946444,-67.431944,-57.121045,-25.307604,-70.015489,-59.88487,-49.550321,-22.703712,-61.999143,-53.977208,-45.722907,-24.635821,-55.15942,-72.945823,-89.50256,37.332859,286.84993,-219.476738,182.83803
69,-0.21389,0.401995,-0.516357,-0.261019,-27.55909,-52.829132,-75.635548,-91.284199,-63.381042,-94.65065,-110.237274,-121.430798,-56.936646,-92.124653,-110.879345,-125.351944,-48.128586,-80.656586,-98.125877,-110.984859,-37.980995,-62.832069,-76.385078,-87.719765,-17.14457,-16.476677,-2.678733,9.080954,14.318562,30.701193,38.738318,44.652402,31.538344,45.830415,53.343464,59.628483,43.829393,57.602513,64.517386,69.807606,51.461126,64.371346,69.862872,73.882639,-19.783115,-34.305782,-39.024181,-43.929062,-42.032661,-30.532951,-21.368752,-23.771324,-24.91024,-11.921825,-4.609337,-7.124405,-5.762558,3.643513,8.243523,7.143002,13.338947,14.701653,15.2211,16.153965,-17.065282,-45.398594,-72.79753,-86.769703,-32.187526,-75.637277,-67.7599,-57.237507,-25.806238,-70.557935,-60.718192,-50.14788,-23.076561,-62.531308,-54.983925,-46.687263,-24.763829,-55.379622,-72.787156,-88.459596,37.111073,287.159624,-220.000992,182.484709
70,0.24559,0.365871,0.601902,-0.263366,-27.77504,-53.241234,-76.055317,-91.517601,-63.755722,-95.154533,-110.69006,-121.661282,-57.343025,-92.489891,-111.128483,-125.372887,-48.465042,-81.079845,-98.499355,-111.175117,-38.320427,-63.180313,-76.672153,-87.901154,-17.360573,-16.190155,-2.100132,9.971271,14.117441,30.209969,37.996819,43.625246,31.474617,45.500915,52.769185,58.69389,43.806298,57.344829,63.929275,68.817376,51.409935,64.349857,69.753512,73.532329,-19.904881,-34.221325,-39.297981,-44.092026,-42.571678,-30.614834,-21.37619,-23.444023,-25.272789,-12.215824,-4.755478,-7.294521,-6.089973,3.17173,8.098297,7.053337,13.040257,14.552879,15.214691,15.829353,-16.471428,-44.168279,-71.290202,-85.339749,-32.451509,-76.037975,-68.258103,-57.799682,-26.162106,-71.266891,-61.483341,-50.933716,-23.556362,-62.890201,-55.514176,-46.933956,-25.507366,-55.948899,-73.787173,-89.438803,37.332945,287.425505,-219.422808,182.121355
71,1.190529,0.017228,0.388412,-0.91792,-28.167,-53.686066,-76.327972,-91.528416,-63.808937,-94.382515,-109.657631,-120.695171,-57.533455,-91.494598,-109.690132,-123.995705,-48.84922,-80.193844,-97.309456,-110.076542,-38.932457,-62.884712,-76.102409,-87.417812,-16.816243,-15.919503,-1.860663,10.256126,14.327516,30.116046,37.750003,43.062576,31.866238,45.81862,52.999452,58.610651,44.173898,57.971843,64.596303,69.123658,51.596668,64.832499,70.659267,74.437652,-19.956951,-34.211082,-39.847069,-45.577011,-41.635208,-30.509491,-21.658401,-23.736591,-24.4277,-12.57843,-5.330601,-7.879829,-5.359154,2.919388,7.503777,6.445484,13.261414,14.723282,15.11507,15.583019,-16.611787,-44.271155,-71.272881,-85.88976,-31.921258,-73.896378,-67.465505,-57.742687,-26.227314,-69.992178,-60.576104,-50.115152,-24.040423,-62.467643,-55.243586,-46.784891,-26.211383,-56.346386,-74.160269,-89.667897,38.588047,287.405946,-218.969822,181.166647
72,-1.05526,0.758851,0.399284,-0.792875,-27.882042,-52.843094,-75.494843,-90.941391,-63.069992,-93.922462,-109.370556,-120.917244,-56.519279,-90.919991,-109.088688,-123.28474,-47.927971,-79.344578,-96.402454,-109.153633,-38.209305,-62.464027,-75.790672,-87.0401,-16.751775,-16.01781,-2.683982,9.221374,14.192715,29.950988,37.574693,42.912646,31.643443,45.971514,52.849522,58.094602,44.048545,57.844328,64.239015,68.660098,51.567152,64.812121,70.144454,73.513742,-19.657059,-33.280048,-40.115604,-46.264458,-40.760307,-30.015278,-21.079388,-22.173786,-24.114075,-13.176155,-5.65361,-7.813854,-5.62849,1.792316,6.744518,5.818806,12.500381,13.158646,14.180202,14.92424,-17.81802,-44.803814,-70.344834,-84.895732,-32.832077,-73.434084,-68.706472,-59.91871,-27.061315,-70.016569,-61.494642,-51.640943,-24.717455,-62.981036,-56.123406,-47.470382,-26.900949,-57.32476,-76.039149,-91.999284,37.659674,288.153713,-218.443651,180.362687
73,1.415405,0.170308,0.380459,-1.282927,-28.082314,-53.05275,-75.864544,-91.736755,-62.149887,-93.475285,-109.509773,-121.460381,-55.491486,-90.28965,-109.162102,-123.937225,-46.905098,-78.811455,-96.641636,-109.738655,-37.565804,-62.235603,-76.130676,-87.642117,-16.288277,-16.163356,-3.045654,8.89138,13.914097,29.330581,36.816954,42.249447,31.188898,45.327334,52.139393,57.619371,43.583873,57.630301,63.943354,68.350914,51.366401,64.916726,69.976555,73.061976,-19.183903,-32.69125,-38.399277,-43.294888,-40.441017,-29.417496,-20.157795,-21.202011,-23.63657,-12.841129,-5.445728,-7.832565,-5.105095,2.205677,6.911545,5.877342,12.921467,13.409557,14.34763,14.866333,-17.919661,-45.603914,-72.015862,-87.555199,-33.58043,-73.529704,-69.368499,-60.899924,-27.456086,-69.459951,-60.872259,-51.013374,-25.163663,-62.710754,-55.874305,-47.025594,-27.701852,-58.525435,-77.131668,-92.782371,39.433079,288.426402,-217.705193,179.182143
74,-0.459023,0.570203,0.121193,-2.785438,-27.168503,-51.85833,-74.557056,-90.90683,-61.704941,-93.139858,-109.091377,-120.900593,-55.017815,-90.157871,-108.936939,-123.276844,-46.355896,-78.638763,-96.263638,-109.218349,-36.890144,-61.641083,-75.396309,-86.749363,-16.522125,-16.307172,-3.711076,7.351819,13.438248,29.00528,36.589219,42.055983,30.689461,44.941456,51.626061,56.935424,43.10858,57.351868,63.838564,68.641264,50.788541,64.33936,69.339105,72.68888,-18.997593,-32.346096,-37.448158,-41.503716,-39.906178,-27.152081,-18.523064,-21.089516,-23.334045,-10.828171,-3.776321,-6.358452,-4.956093,3.731689,8.205357,6.999607,13.419971,15.58445,17.030525,17.881851,-17.749724,-45.708149,-72.400938,-87.880932,-34.070975,-75.766984,-68.666983,-58.790591,-27.669125,-70.635,-60.471314,-49.856665,-24.8404,-63.097528,-55.052468,-45.859623,-26.621899,-57.073992,-75.18125,-90.804598,39.719067,289.044292,-216.838989,176.444392
75,0.382347,0.658074,0.673485,-2.187941,-27.670212,-52.187805,-74.940033,-91.208096,-62.264442,-93.979053,-109.66198,-121.056633,-55.469856,-90.6106,-108.911247,-122.952633,-46.569214,-78.869362,-96.24012,-108.920689,-36.861191,-61.822472,-75.424347,-86.568203,-17.166121,-17.130305,-4.478943,7.297355,12.162917,27.367103,35.082632,40.848268,29.735787,43.436969,50.154364,55.727894,42.549121,56.305137,62.692168,67.494003,50.622432,63.909947,68.889562,72.275337,-19.613514,-32.459908,-35.315781,-38.017559,-38.47229,-26.785812,-18.898373,-21.935177,-21.15572,-8.436298,-2.36887,-5.572586,-2.243671,6.94828,10.286865,8.345318,16.41037,18.568954,19.448719,20.405045,-19.054633,-47.82909,-74.79355,-89.35544,-33.816625,-75.408337,-67.56514,-57.463575,-26.895454,-69.992054,-59.814907,-49.175496,-23.922851,-62.182757,-54.382044,-45.419034,-25.288399,-56.189726,-74.034174,-89.269483,40.90353,289.749513,-215.363388,174.303598
76,0.055733,-0.588728,2.869492,-0.743722,-27.672844,-51.976089,-74.394836,-91.060925,-61.464958,-93.032227,-108.80888,-120.486546,-55.01976,-89.722939,-108.202858,-122.59409,-46.413002,-78.246059,-95.815544,-109.072781,-36.597061,-60.6213,-74.233818,-85.953312,-16.294266,-16.210162,-3.815434,7.255179,13.059162,28.041727,35.725022,41.434341,30.461416,44.164697,50.861221,56.427032,43.12482,57.365886,64.332382,69.72449,50.981511,64.921975,71.078367,75.532733,-19.148369,-31.181831,-34.453011,-36.782742,-37.119198,-25.171051,-16.360302,-19.026318,-20.88604,-6.856384,-0.75325,-4.371128,-2.672367,7.710915,10.701256,7.431107,16.410427,19.681606,21.462593,22.473736,-19.520725,-48.534465,-76.04097,-89.594784,-35.054721,-77.515014,-68.049479,-58.010004,-27.75539,-71.006922,-60.138078,-50.172148,-23.663314,-61.900682,-53.557614,-45.200005,-23.172151,-53.146727,-70.34752,-85.18105,41.380463,289.118516,-212.072697,173.517608
77,-0.478592,0.192847,2.349644,2.485825,-27.317162,-51.47541,-74.329147,-91.745396,-60.404892,-92.827263,-108.844643,-120.500565,-53.891029,-89.278851,-107.901478,-121.969986,-45.280151,-77.831898,-95.632839,-108.682537,-35.583344,-60.074844,-73.910751,-85.468998,-16.841622,-16.752516,-4.241451,7.196331,12.354714,27.377169,35.296906,41.697583,29.977849,43.838038,50.362895,55.758584,42.807856,56.957036,63.712655,69.03517,50.754022,64.721224,70.485378,74.824147,-18.559742,-28.633289,-31.944866,-34.908657,-32.833786,-15.001774,-9.120598,-13.374367,-18.079548,2.108917,5.14389,1.224918,-0.165539,15.486488,16.757069,12.378101,19.339943,26.81139,31.23682,35.157337,-22.526303,-52.450429,-79.237511,-93.895361,-39.42029,-81.248722,-70.649171,-60.334475,-30.64358,-72.201607,-61.802776,-51.54523,-24.352386,-61.764182,-53.630109,-44.82271,-20.793216,-50.386422,-66.185944,-78.673483,41.472445,289.333053,-209.152479,176.025122
78,-0.018082,0.630163,5.516624,3.105613,-27.050972,-51.569824,-74.586811,-91.784019,-60.652771,-92.878075,-108.879089,-120.690022,-54.0588,-89.297676,-107.482681,-121.437263,-45.619926,-78.064098,-95.57682,-108.558083,-36.353188,-60.996323,-74.656906,-86.254349,-17.60109,-17.414789,-4.961399,6.42476,12.034661,26.627333,34.318965,40.419103,29.695032,42.898135,48.995309,54.113553,42.544552,55.800636,61.841988,66.584296,50.648058,64.188318,69.783091,74.162183,-16.894169,-25.117836,-28.553009,-29.281483,-25.736389,-6.172428,1.766281,2.79974,-11.897163,9.181881,14.239483,13.160076,5.226803,21.536922,25.627728,24.248657,24.563713,35.031281,41.840916,44.850883,-27.451146,-55.307683,-77.247203,-90.726453,-42.66373,-81.741027,-80.774355,-75.235436,-31.076265,-74.99217,-79.112034,-75.479072,-20.935304,-63.634973,-72.074834,-72.835352,-13.604172,-43.237638,-60.102355,-72.188146,41.904745,290.083475,-203.185472,179.250995
79,-1.379585,1.035925,5.153332,1.544316,-26.297722,-50.494308,-73.486233,-90.19146,-59.900093,-92.648163,-108.578053,-119.99794,-53.486481,-89.501667,-107.637749,-121.037292,-45.176582,-78.036404,-95.426388,-108.013573,-36.17775,-61.37043,-75.185852,-86.527233,-18.174567,-18.474303,-6.533564,5.238967,10.842755,24.933581,32.789284,39.072697,29.04795,42.156018,48.218612,53.079357,42.188067,55.186899,61.102774,65.666561,50.444406,63.366606,68.164489,71.815729,-17.865829,-25.512943,-25.808258,-19.687786,-21.298141,-2.418537,8.811092,16.183949,-5.682621,15.013561,25.759163,32.059708,10.952511,28.308392,37.058659,41.80933,27.053032,42.086277,50.514679,54.924259,-24.204371,-51.823478,-74.835355,-92.002278,-37.542892,-67.82656,-87.363371,-101.067887,-27.234834,-60.591789,-84.326517,-99.47908,-18.281333,-49.619976,-72.454414,-87.951451,-11.768085,-35.643141,-52.4776,-66.121909,41.369791,291.142556,-197.18751,180.818467
80,-0.180588,-1.570375,7.657871,4.963313,-26.731796,-50.911331,-73.602676,-89.884815,-60.657234,-92.611313,-108.297901,-119.857178,-54.599991,-89.602089,-107.770042,-121.553535,-46.292839,-78.452969,-96.003685,-108.904495,-36.902504,-61.602516,-75.371819,-86.777344,-17.478578,-17.020884,-4.391504,7.120378,11.874975,25.320571,32.574022,38.409312,29.777839,41.87493,47.78463,52.784437,42.720541,55.177636,60.85287,65.204607,50.919204,63.518635,68.245753,71.642457,-15.921993,-21.815758,-20.50272,-11.102657,-14.481983,6.478443,17.828693,24.801292,0.568199,24.734116,37.532558,43.995667,14.832802,35.966206,46.725998,51.405373,27.019901,45.667133,56.135044,60.968971,-22.284489,-48.848343,-72.000147,-87.825295,-36.286395,-66.735152,-86.222718,-101.200836,-26.418432,-59.891045,-83.418354,-100.19381,-17.174148,-48.089183,-69.788895,-85.927798,-9.264167,-31.455413,-46.247601,-59.149732,42.736902,289.602578,-187.981939,185.812177
81,1.04908,-0.689937,11.381721,2.006333,-27.096748,-51.571541,-74.570389,-91.024017,-61.00914,-92.669334,-108.516769,-120.4533,-54.897194,-89.657593,-107.908859,-122.019997,-46.662025,-78.685627,-96.103477,-109.089603,-37.736092,-62.589226,-76.434174,-87.999344,-17.5704,-17.286781,-4.896128,6.472061,10.850288,24.559497,31.344324,36.488627,28.708014,40.753172,46.2518,50.390868,41.872337,54.295099,59.768594,63.543891,50.396487,63.063411,67.465227,70.445487,-14.134827,-19.379768,-16.418381,-2.784119,-8.651962,12.939091,23.795471,31.727943,4.338741,29.792233,42.625637,49.91375,16.498146,39.544601,49.136353,52.539997,25.829716,43.544197,52.104263,55.505505,-20.274883,-43.496311,-64.122986,-76.551831,-29.623649,-57.303827,-75.034037,-88.183571,-18.473747,-48.505072,-71.236634,-88.470865,-9.676351,-38.16583,-58.986155,-74.069928,-3.056028,-24.523188,-38.853297,-50.411925,45.451555,288.911869,-174.934645,187.817737
82,0.389442,-1.62348,6.04248,2.364115,-27.263832,-51.656685,-74.208241,-90.77322,-60.993919,-92.219009,-107.998066,-120.241356,-55.315132,-89.03183,-107.216492,-121.602859,-47.500191,-78.727398,-96.04723,-109.252682,-38.58696,-62.659035,-76.281109,-88.023376,-17.553357,-17.235898,-4.772689,6.169669,11.329101,24.589014,31.23836,36.272501,28.980271,40.685309,45.909641,49.94997,41.800212,53.775099,59.139481,63.089161,50.019192,62.282083,66.905522,70.292099,-13.127232,-15.88068,-9.074593,4.712849,3.468304,21.958809,33.032169,41.95015,14.069767,33.447762,46.970444,57.309208,21.68129,39.008617,50.152988,56.43631,25.642548,38.725491,47.354622,51.660233,-20.630442,-39.841057,-54.133622,-61.351998,-30.052691,-50.556606,-63.575013,-74.11482,-18.693764,-39.676924,-56.75468,-71.163892,-9.528089,-28.469286,-44.748609,-57.836239,-2.830639,-15.176955,-26.501918,-36.626454,47.706413,287.328017,-167.026749,190.22148
83,-0.555382,-0.767372,13.10154,19.943037,-26.686935,-51.13472,-73.63163,-90.54594,-60.680122,-91.722794,-107.854156,-120.263958,-54.690056,-88.49659,-106.539459,-120.437908,-46.678619,-78.214073,-95.27853,-108.10936,-37.752571,-62.235146,-76.031857,-87.691555,-18.146594,-17.834754,-5.003389,5.968548,10.922783,24.873869,31.546865,36.369264,28.842506,41.046857,46.072291,49.636957,41.639229,53.840369,59.157821,62.844753,49.672525,61.920473,66.492226,69.631555,-12.714043,-15.183449,-4.828892,9.902973,29.83057,48.234444,45.472927,42.037983,47.859077,62.25975,55.362282,50.920258,59.846191,71.552467,65.112476,60.469093,66.789894,75.820656,70.2812,65.203285,-27.429101,-47.177871,-62.767627,-67.012165,-40.217055,-62.226693,-68.310838,-68.105826,-29.625131,-57.661114,-66.202617,-65.421721,-20.864044,-48.734104,-57.423622,-55.531713,-12.469569,-35.587009,-42.456187,-40.159813,49.015131,286.320605,-152.06111,209.924478
84,-1.19648,-0.584653,8.964615,0.398167,-26.14975,-50.511703,-73.309078,-89.698734,-59.660683,-91.24157,-107.304497,-119.665031,-53.992767,-89.022903,-107.450237,-121.657391,-46.41552,-79.093437,-96.918354,-110.409451,-38.066025,-63.590469,-77.866859,-90.013332,-18.238849,-18.213222,-6.426798,5.05563,10.071183,23.02185,29.304029,33.8383,27.829676,39.169707,43.690454,46.871959,40.774785,52.096908,56.621052,59.583343,49.238482,61.086286,65.131309,67.955773,-11.77597,-7.218761,4.426117,16.538315,11.160679,34.30418,47.715797,59.114857,24.541798,49.189281,62.899361,74.575253,36.207447,59.516373,73.824577,84.364243,45.795536,63.337269,73.255634,80.259476,-24.209805,-40.045883,-50.826949,-53.07911,-19.317752,-36.636149,-48.302778,-58.648751,-7.783825,-26.277085,-42.012449,-54.455712,-0.44275,-18.08719,-32.084032,-43.499337,3.817657,-9.307022,-18.460594,-28.345724,49.287128,285.5099,-141.628017,210.096591
85,0.259438,-0.815352,1.286687,13.971216,-26.1026,-50.567207,-73.500595,-89.753323,-60.730591,-91.939716,-107.861938,-119.947872,-55.060844,-89.382191,-107.599411,-121.452255,-47.065887,-78.778439,-96.227474,-109.229393,-37.970695,-62.862053,-76.885242,-88.664589,-18.500362,-19.22525,-7.784627,3.653154,10.292929,23.297319,29.501259,34.460805,27.835048,38.983159,43.56541,47.061162,40.753728,52.39578,57.125306,60.481071,49.08355,60.851388,64.929261,67.752243,0.145426,12.688294,28.610802,42.117978,31.518574,64.564076,73.608113,76.883984,39.227343,73.507319,83.667098,88.008757,45.447951,77.467862,87.355271,90.407668,50.457344,74.6941,83.486853,86.588574,-12.383767,-23.176103,-33.385977,-35.771056,2.77034,-18.343608,-33.253585,-40.965346,6.057067,-15.789055,-32.834392,-41.204506,4.308234,-14.896916,-29.295229,-36.733591,-0.003272,-13.189733,-22.918912,-29.965252,50.440893,284.9857,-139.447003,224.35896
86,-0.425835,-0.771818,1.286688,13.971216,-26.303444,-50.438805,-72.992134,-89.081955,-61.505013,-92.151947,-107.83762,-119.641914,-56.084518,-89.79887,-107.894497,-121.57814,-48.273582,-79.183331,-96.417904,-109.272594,-39.098396,-63.081779,-77.172031,-89.009743,-18.343763,-19.224077,-7.363984,4.648756,10.351839,22.738292,28.970762,34.112286,28.014124,39.000572,43.646982,47.346079,40.807513,52.247579,57.087206,60.612105,49.007906,60.515218,64.75846,67.689937,12.066822,32.595348,52.795486,67.697639,51.876469,94.823971,99.500427,94.653111,53.912888,97.825356,104.434834,101.442261,54.688454,95.41935,100.885963,96.451092,55.119152,86.05093,93.718071,92.917671,-0.55773,-6.306323,-15.945006,-18.463003,24.858431,-0.051068,-18.204392,-23.281943,19.897959,-5.301026,-23.656336,-27.9533,9.059218,-11.706643,-26.506426,-29.967845,-3.824203,-17.072445,-27.37723,-31.58478,50.813055,284.325311,-137.362318,238.441605
87,-0.399055,0.777808,1.330662,6.34467,-24.994354,-46.273727,-63.239937,-70.871143,-63.643227,-93.502979,-109.540501,-121.014061,-58.960304,-90.850296,-109.423714,-123.041725,-50.898056,-79.846516,-97.410622,-109.987278,-40.947304,-64.594345,-78.213959,-89.503498,-20.04017,-25.512059,-23.20704,-19.902405,7.555039,21.621845,28.412723,33.315829,24.689297,37.72487,43.690578,47.924433,37.882272,50.650034,56.390229,59.49998,46.928522,59.303861,64.318056,66.869336,17.786064,36.264553,55.983639,73.851128,54.7966,84.222679,102.905102,117.364826,57.801933,89.822788,108.988438,123.107986,58.407841,88.366127,105.936298,118.852959,57.551937,80.09222,93.78891,106.164379,-17.604672,-21.60968,-19.371289,-15.580555,10.077914,5.475347,-2.31669,-9.441576,23.167026,17.309505,7.736153,-1.106135,30.448325,27.965465,20.837183,14.201174,34.283396,35.085411,30.772392,25.509651,51.231279,285.532763,-135.214376,245.215919
88,0.85968,0.218596,87.650414,37.253653,-30.710907,-57.18544,-82.570724,-100.999432,-60.334625,-94.511204,-111.676311,-123.6022,-55.647011,-91.067047,-110.387592,-124.158039,-49.411926,-80.85228,-99.490471,-113.62627,-42.528648,-66.808319,-81.10033,-92.93129,-16.364477,-22.503579,-21.371571,-14.241065,5.524686,15.440814,19.102119,20.307611,23.509987,35.912311,40.445532,42.866889,37.621994,50.803052,55.546904,57.117402,46.843863,58.088366,63.206363,65.589744,-17.599754,-21.931744,-14.574738,-3.516197,15.050755,15.522709,6.234856,-2.513752,29.977627,22.884121,4.519672,-13.104515,38.779221,27.338676,8.609676,-9.751511,42.447166,35.514565,20.256271,3.549385,-25.433883,-40.7725,-42.321942,-33.534117,-15.648481,-6.723817,0.316224,7.043622,6.618594,20.220605,25.461794,31.203595,27.129735,42.348618,48.346003,52.045964,43.844954,59.114719,64.108413,66.665683,52.476597,286.186684,-47.178326,282.904897
89,-1.13308,-7.332676,-23.060875,8.515691,-34.529572,-62.250595,-82.863121,-97.83411,-63.59127,-88.658867,-99.707336,-108.446674,-58.307991,-86.29961,-104.706345,-117.505875,-50.850105,-78.393459,-97.102547,-110.999222,-40.751953,-63.047676,-77.589111,-90.83662,-10.100391,-4.85772,4.841788,15.574257,14.476396,23.070077,22.870562,20.387701,27.684068,36.957189,39.650866,38.757893,39.714654,50.733212,56.62803,57.710021,49.090837,59.840039,66.315682,69.669594,0.742836,8.702145,23.896866,39.097023,16.811428,44.519691,60.782089,69.677467,25.472031,52.037945,57.440643,54.865265,31.493969,49.247704,47.672482,38.999577,34.325809,46.949673,45.659637,34.134865,-26.340811,-38.019852,-35.10974,-27.17296,-10.251989,-11.073454,-15.055183,-16.874659,10.808792,9.927305,3.544844,1.230809,27.392853,30.576149,26.447331,25.15403,39.334395,50.076867,47.924124,44.285234,51.608162,279.395837,-69.974556,291.962416
90,0.026207,5.2239,-29.223232,-9.999059,-33.288574,-59.275703,-78.464298,-90.657234,-53.1744,-79.12159,-95.439434,-109.215946,-46.776123,-76.210613,-94.850693,-107.857304,-41.359062,-71.679611,-91.29879,-104.654388,-35.525322,-59.929504,-75.910835,-89.187756,-9.110656,-4.056632,6.656324,17.860566,15.785134,23.682024,25.082956,24.54301,26.999009,30.112218,27.812324,23.786135,36.394273,41.262243,42.909744,41.526843,43.129514,53.743113,58.429228,60.796059,22.430649,47.001286,68.547592,82.734776,64.007034,106.592846,114.470043,110.570812,61.716728,105.63921,111.933689,105.329075,58.489838,96.913662,102.965755,96.316967,53.329411,81.078873,88.376598,84.928265,-24.789271,-27.010309,-18.629111,-7.676996,13.208598,15.944636,6.576666,0.221869,32.068347,32.709687,17.175198,8.194588,44.580339,47.970622,36.980654,29.808468,52.378922,61.79833,54.961016,47.194049,51.730413,285.090491,-99.101744,282.434112
91,-4.988594,3.751832,-3.234844,-5.05952,-22.390938,-44.785767,-60.405121,-68.785915,-34.354477,-56.123657,-70.259571,-82.440662,-33.066788,-62.263069,-85.388889,-104.401016,-32.797165,-61.446075,-84.091759,-103.354797,-31.807137,-54.780121,-72.479153,-89.102554,-16.787899,-18.39446,-11.131562,-1.844608,4.723166,7.958393,6.47027,4.916815,21.017988,27.150359,28.148925,28.566358,33.899618,44.398423,49.744279,53.110727,42.452605,53.213726,59.514491,64.303359,26.397171,53.50565,78.259907,95.419807,55.682945,95.307541,115.197601,127.369652,51.911831,97.46315,118.95401,131.597328,49.035015,90.061913,110.626144,122.187538,46.249123,76.548672,92.799568,102.053375,-20.458961,-19.645585,-9.494867,-0.436205,16.086723,21.594737,19.065934,16.913191,35.800295,39.316673,34.112657,29.101364,47.258887,52.381886,47.564181,41.732534,52.738557,58.96905,55.083097,49.020873,46.836376,289.397829,-102.242031,277.930098
92,-5.940056,2.927525,5.251465,1.966133,-21.178093,-40.309639,-53.689041,-57.787056,-32.980957,-44.669151,-54.853134,-64.756622,-29.862099,-45.667648,-62.376709,-75.429668,-27.452202,-46.492767,-64.03656,-77.437534,-24.712029,-44.201546,-60.923195,-75.75119,-16.66409,-19.760935,-13.453007,-5.038834,4.255777,8.540082,7.033619,4.782261,19.745497,24.776921,22.850061,19.826946,31.363405,39.066954,37.372399,34.668225,38.739924,47.195716,49.14493,49.651716,26.668282,53.717537,77.589626,95.616188,59.693642,97.235298,115.946846,128.826256,53.04039,95.503807,117.16404,131.2286,46.58844,85.34832,105.795593,119.160919,40.671787,69.764786,85.462875,96.187134,-18.450653,-18.602065,-9.247742,-1.517887,13.593242,22.038105,22.389341,22.609234,33.047524,41.05118,40.240026,37.789832,45.261138,54.036427,53.036935,49.277879,51.105197,59.678624,58.7126,54.411376,41.103172,292.850356,-96.783714,280.421233
93,5.425301,-4.450414,6.729183,1.571795,-24.563026,-52.454567,-76.086731,-94.595547,-74.703026,-77.49361,-60.833588,-48.454742,-74.559002,-67.665768,-45.054131,-24.818916,-68.930912,-64.603672,-42.40242,-23.899498,-60.79937,-72.89217,-67.964344,-59.439011,34.661309,50.269775,59.144792,65.097161,37.439275,47.789447,49.158638,47.740108,19.957363,34.695827,39.449992,38.268892,1.253533,17.343221,22.696611,22.914775,-17.26381,-10.614772,-4.515808,-0.243852,25.611076,52.327709,75.448093,92.390385,60.306644,97.029705,115.488567,128.180752,52.769909,92.736568,113.704205,127.64185,44.98558,81.493206,100.777531,114.804897,37.283993,64.767036,80.285282,92.891293,-17.292462,-16.635499,-6.240991,1.722589,13.902673,24.730978,27.53457,29.203314,32.982192,41.972434,43.754922,43.574919,44.807334,55.559069,57.374099,56.084873,51.083646,62.430716,63.455835,61.248381,46.752176,288.716583,-89.830828,282.309669
94,-2.438736,8.82648,5.597706,3.292655,-20.071564,-46.614532,-66.533146,-83.317337,-65.162716,-66.256886,-45.695114,-26.941452,-62.729645,-58.49968,-34.586792,-11.872444,-56.589432,-53.205528,-30.14534,-9.909325,-48.676872,-56.065063,-49.168282,-40.850945,27.909642,40.784356,48.220773,57.347546,24.157811,35.349703,41.436564,45.619722,11.090312,23.803425,31.591511,36.178825,-2.57703,10.66689,18.949966,24.365972,-15.31015,-7.298775,0.671289,8.011437,26.480255,52.794971,75.53318,93.158684,58.980217,94.403343,112.181396,123.979454,51.278973,89.740677,110.456543,124.175377,43.319321,78.267288,97.217331,110.581741,35.549583,62.444172,77.651939,89.36039,-17.304133,-16.041337,-5.813616,1.059143,14.801944,26.182977,30.258813,32.984785,33.462734,43.512428,46.185727,46.821385,44.967268,56.681074,58.956453,58.199146,50.947239,62.250405,62.905083,60.456988,44.532251,297.734397,-84.014311,285.793658
95,-14.305115,10.077667,4.761086,1.374811,-4.212456,-13.354683,-23.760109,-31.770859,-43.346786,-35.012398,-13.8937,2.820969,-47.946167,-36.482964,-11.647224,9.276466,-47.58831,-38.868713,-16.43486,1.697044,-45.068436,-40.5653,-25.757217,-13.632889,-15.864916,-22.40379,-21.931585,-16.835941,-4.122396,6.083218,11.488973,14.222417,9.531917,17.850686,23.726608,26.951894,20.477857,28.302005,31.500614,33.027084,28.514549,36.822882,38.072711,38.418698,25.170364,51.267357,74.168243,92.542648,57.605724,92.361946,109.482193,121.198196,49.264469,87.192192,107.127113,120.408554,40.326805,75.492096,94.022827,106.698647,31.962719,59.536972,74.705887,86.9244,-16.742389,-15.288043,-4.555945,2.190411,14.542407,27.752179,33.051044,37.084025,33.147559,44.430718,48.205089,50.231367,45.465038,57.450484,60.36393,60.291373,52.44586,64.261307,65.511383,63.97423,30.765495,308.108852,-78.714867,287.465257
96,-47.955265,-9.663198,4.15226,1.590999,0.863571,1.455402,-1.825161,-6.783714,-3.052769,21.424885,40.905018,49.87627,-6.222439,25.641232,42.707233,55.658512,-10.634995,14.886875,30.993061,41.699924,-15.648422,-17.977638,-20.236874,-22.512531,-16.256722,-13.15432,-0.527163,11.616549,5.1703,23.971448,26.35347,25.557508,19.342699,36.524504,38.779938,37.619524,27.979482,44.985916,43.377256,40.996346,34.065479,47.636985,51.852006,54.936625,24.350109,50.034657,72.392921,90.36335,56.508293,89.382477,105.588341,116.908951,47.934837,84.189262,103.607941,116.783066,38.213482,72.646637,90.946426,103.25798,28.740864,56.551151,71.941338,83.420677,-16.82285,-15.27594,-5.264655,1.234638,15.627115,30.266285,35.877916,39.431652,33.799212,46.420008,50.186845,51.748142,45.974478,58.680182,61.427149,60.835024,52.847485,63.604715,64.155158,61.687241,-16.73152,298.725923,-74.104357,289.336526
97,4.495754,-1.812869,0.376053,1.424026,-0.656548,-2.724724,-6.837616,-11.703758,-8.232193,20.142288,39.249229,46.714439,-12.060356,23.941727,40.834007,52.692947,-16.959,12.819672,29.084587,39.629974,-21.5732,-21.409893,-21.725121,-21.918182,-13.146663,-7.856073,5.801389,18.383221,8.413802,27.04773,30.133954,29.967969,20.945678,38.136252,41.578714,41.120896,28.531593,45.238661,44.71125,43.272651,34.434314,48.582939,53.349762,57.187612,24.551182,50.249062,72.752266,91.493111,56.387043,89.666176,106.014862,117.373238,47.741947,84.225426,103.176384,115.853348,38.242664,72.382393,90.458794,102.428284,29.335098,56.646595,71.919479,83.949165,-16.477912,-16.028307,-6.789026,-0.106087,14.220317,28.88394,34.997602,39.018418,32.185117,44.42127,48.549162,50.476763,44.117891,56.509593,59.821947,59.910558,50.886724,62.49506,64.076674,62.703468,-11.886091,297.112354,-73.37863,290.959852
98,-15.138359,0.211927,2.110348,-1.132379,2.362118,5.485497,5.262566,2.460766,6.601124,36.780968,54.778061,61.893654,3.938828,41.564026,58.309593,69.265137,-1.091537,30.986252,48.297844,58.842773,-6.917667,-2.349072,-0.794048,-0.927773,-12.20923,-6.011958,7.682431,19.969713,8.896197,28.041727,31.391192,31.308694,19.788969,38.336261,41.068841,40.10152,25.601721,44.405215,43.682797,40.972325,30.125494,45.99146,51.069134,54.799353,24.120712,50.101662,72.279339,90.238094,55.083103,87.297878,103.328876,114.867496,46.301937,82.133389,100.76746,113.13818,36.668587,70.98444,89.032116,100.815983,27.490826,55.263863,70.568676,82.167492,-16.101729,-14.650285,-4.712853,2.002381,14.604466,29.882074,35.852351,39.575469,32.766621,45.992077,49.866175,51.27853,44.962945,58.316101,60.858242,60.250618,52.031144,64.084022,64.969831,62.996844,-26.730623,297.432932,-70.974455,289.936123
99,-4.79908,-2.683241,0.704155,0.191488,2.816792,7.214928,8.605671,5.501118,9.627171,39.343643,57.458153,65.697899,7.319012,47.991714,65.768051,76.909332,3.419724,38.940582,58.263588,69.809418,-0.925655,14.197998,23.941612,29.649353,-2.835764,6.616371,21.087951,31.531057,15.633475,35.521739,39.444002,39.704403,20.79229,41.18067,44.838024,44.056511,21.395283,42.576415,43.803087,41.336714,21.627897,39.740157,43.642721,45.058349,23.886051,50.223656,72.662601,89.902554,54.616184,86.697521,103.133411,115.142612,45.803089,81.403828,100.151196,113.004055,36.177464,70.014439,88.252659,100.71516,27.042503,54.159451,69.375057,80.785503,-16.226588,-14.826459,-4.72014,2.806124,14.147946,29.222518,35.240775,39.039351,32.232912,45.299793,49.31567,50.968111,44.515996,57.952947,60.753081,60.095439,51.721466,63.846962,64.444644,61.955732,-31.199999,294.755866,-69.940596,290.133786
100,3.859577,6.51121,0.395336,0.269232,10.011406,17.989254,19.504795,19.339657,13.222904,41.241245,57.021275,62.987881,8.20673,45.435619,61.915913,71.865978,1.684513,32.379513,49.34721,58.628826,-4.918442,1.785851,5.539112,6.745605,-19.000231,-18.689441,-8.626347,2.816004,4.031993,21.316366,23.748961,23.445335,17.88471,34.587023,36.817819,36.955707,25.812228,42.263402,41.066803,38.580669,31.629796,44.768369,47.270434,48.752691,23.797417,50.372086,72.943611,88.856506,53.75536,86.022148,102.535286,114.67392,44.997654,80.413628,99.250832,112.185173,35.41563,69.252777,87.672844,100.174484,26.262074,53.548851,68.876953,80.468216,-16.288091,-15.308483,-5.026422,3.91652,13.479683,28.67331,34.572574,38.290257,31.540196,45.262373,49.094171,50.548826,43.88151,57.628078,60.0616,59.127193,51.140147,63.414771,64.015047,61.539843,-27.021904,301.267756,-69.226742,290.403697
101,-3.564835,1.769829,-0.11919,0.177656,8.983097,22.015171,27.747173,30.310993,15.249081,44.473858,61.067677,68.26395,10.849915,44.06702,58.934269,68.815556,3.763676,30.181904,43.224506,49.925823,-3.018894,-6.729813,-12.336273,-18.076744,-24.798224,-30.880455,-25.559916,-14.214883,-2.052337,16.882686,19.180357,18.311838,17.202059,34.140383,35.653885,34.342121,29.320948,44.133019,41.074398,36.885806,38.165892,48.232629,50.488495,51.734063,23.793468,50.019207,72.442646,87.943668,53.78088,85.258656,101.521053,113.317394,45.195236,79.975262,98.81258,111.952686,35.475655,68.881702,87.148762,99.53722,26.037369,52.882576,67.933674,79.235516,-15.968471,-15.213758,-5.559698,3.347428,13.346117,28.098722,33.953526,37.41618,30.94696,44.735703,48.900769,50.695112,43.052634,56.91097,59.574019,58.792506,50.437366,62.88063,63.490539,60.893687,-30.299921,303.039267,-69.059114,290.583036
102,-1.963921,-1.864183,0.415077,0.230453,9.56646,23.208904,30.398312,34.235973,15.487175,42.795696,61.037579,69.038944,10.071945,43.825207,60.467892,71.711254,2.523193,30.105572,45.541363,54.619503,-4.759312,-5.951157,-9.611721,-12.979031,-23.735932,-28.882952,-23.204632,-12.888978,-2.999032,17.982214,21.63296,21.296235,16.462907,33.953835,37.021224,36.668136,28.83102,44.306229,42.986994,39.755903,37.752164,48.248129,51.672559,53.69081,23.1954,49.107857,71.358433,87.428913,53.082047,84.565716,100.53812,111.879787,44.395695,79.595776,98.613338,111.605358,34.602242,68.575459,86.837139,98.83009,25.264034,52.725964,67.824955,78.719158,-15.996815,-15.097482,-5.147885,3.286357,12.958447,28.142997,34.042014,37.619895,30.846616,44.61492,48.855691,50.85591,43.15162,56.744306,59.102431,58.270715,50.638364,62.68519,63.101017,60.429015,-31.927528,301.174914,-68.307724,290.813318
103,5.16758,-2.174479,-0.388584,0.069284,9.090157,19.004917,23.734989,27.076206,8.034153,31.816006,52.174129,62.772617,2.771702,34.7719,54.524288,68.84222,-3.703308,22.409306,41.172924,53.546047,-10.48542,-9.469814,-8.593941,-8.385143,-20.42821,-22.964114,-15.087972,-4.98122,-2.532878,17.638882,22.901746,23.865299,15.37789,33.177261,37.068711,36.860859,27.356853,43.969751,44.045396,42.047646,36.434596,48.719531,52.775854,55.568208,23.169079,48.967037,71.158791,87.140465,52.60191,84.811249,101.145287,113.094635,43.716145,79.587822,98.702202,111.875954,34.128857,67.955475,86.309395,98.540497,25.108967,51.697884,66.264839,76.693497,-16.313162,-15.501576,-5.384204,3.628392,12.797464,27.286087,33.005533,36.811767,30.775911,44.319444,48.432021,50.492447,42.763642,56.351388,58.717973,57.845316,49.620223,61.700209,62.079727,59.149176,-26.228342,298.992099,-68.164701,290.874266
104,-13.380947,-1.460335,-0.478363,0.105284,14.156685,29.613762,38.303719,43.022919,23.325634,52.983856,70.167961,76.791916,16.361332,53.443565,70.205841,79.777222,6.825771,37.97802,54.656754,63.11245,-2.386093,2.468548,2.706814,1.143551,-20.738814,-24.914994,-18.707349,-10.732592,-0.622753,19.628542,24.098098,24.48305,17.706684,37.745433,41.071249,40.201556,29.9232,47.311251,47.478286,44.964365,39.563551,52.61413,55.401729,56.400048,23.324203,49.291191,71.177559,86.793251,53.661747,85.179405,101.221046,113.062134,44.447422,79.469604,98.025856,110.887985,34.212627,67.427559,85.254364,97.084007,24.449329,50.815716,65.100975,75.084686,-15.799399,-14.905747,-5.13325,3.759427,12.759488,27.532162,33.3409,36.985224,30.475434,43.990685,48.232382,50.288609,42.499721,55.767538,58.215942,57.510937,49.631461,61.634383,61.705149,58.698213,-39.238787,297.509425,-68.272562,290.957212
105,0.876102,-2.056536,-0.685101,0.529572,13.388157,26.619129,33.094883,35.567493,20.195961,49.126453,67.075481,74.913082,12.774067,49.989223,67.800007,78.196163,3.800755,34.773273,52.313747,61.265087,-4.845715,2.786922,7.368851,8.923588,-18.503943,-20.745483,-12.366508,-2.861946,0.556001,21.927942,27.1511,27.810718,18.116027,38.849716,43.10963,42.453902,29.958768,48.442519,49.509875,47.431726,39.297962,53.907924,56.009167,55.978724,23.543758,49.638519,71.342411,86.422634,52.814312,84.93536,101.495419,113.556805,43.814392,79.845028,99.148579,112.43597,34.134007,68.172741,86.390362,98.400936,25.085392,52.112732,66.732044,76.944637,-16.276606,-15.487312,-5.562786,3.069551,12.200029,26.639066,32.547098,36.278058,30.105672,43.587949,47.873304,50.340912,42.228822,55.298173,57.603934,57.138212,49.326414,61.0924,61.105676,58.211743,-37.963686,295.411038,-68.558664,291.444932
106,2.850323,-3.036885,0.182819,0.084536,9.031677,17.80283,22.339325,23.772812,13.037968,39.282074,58.851013,69.11396,9.333458,44.108276,64.592972,77.828751,4.069519,33.286514,53.691444,65.517769,-2.033443,8.383369,18.472023,24.296379,-12.883297,-11.257594,-1.641388,9.355496,8.412691,29.760179,33.73672,34.157426,20.724859,41.892282,46.273597,46.060065,27.862033,47.205041,48.883108,47.401037,33.481753,48.535206,50.983672,51.963713,23.547935,49.361,71.123428,85.985527,52.288513,84.738464,101.283646,113.266068,43.384724,79.859276,99.116592,112.155533,33.759041,68.136406,86.205826,97.785072,24.715347,51.847229,66.266441,75.998611,-16.311495,-15.968657,-5.893583,3.176873,12.349156,26.597014,32.435639,36.485293,30.336681,43.539907,47.794942,50.484049,42.493917,55.250749,57.441468,56.972227,49.581197,60.89591,60.727887,57.782886,-34.80443,292.350379,-68.066912,291.505695
107,-3.089447,2.99261,-1.49128,-0.098986,15.081654,29.450226,38.515549,43.925056,19.382343,46.949501,66.974602,77.05925,11.678696,45.87822,66.600952,80.995331,2.317657,30.605507,50.793457,63.352318,-6.477413,-3.238106,-0.420399,1.104584,-18.587615,-23.265147,-18.592555,-9.93805,-0.943979,19.759267,25.117598,26.001925,17.183905,38.771663,43.049855,41.896049,29.588327,48.271964,49.588236,47.708492,39.095977,53.699517,56.658041,57.472282,24.102859,50.087757,71.935844,86.836052,52.83926,85.005913,101.90197,114.350395,44.038582,80.302048,99.506378,112.708969,34.485855,68.451691,86.382408,97.951813,25.402908,51.953259,66.240234,75.91404,-16.160824,-15.728447,-5.816518,3.449502,11.608151,25.837299,31.778368,35.628197,29.431667,42.824528,47.037388,49.557052,41.668684,54.889385,57.210089,56.652483,49.044832,60.775682,60.704978,57.584235,-37.517681,295.288803,-69.181995,291.352523
108,-7.47694,-1.077792,0.086117,-0.850241,17.588024,34.674168,46.939831,53.690357,26.140594,57.014408,75.602818,84.670429,18.607235,55.576572,75.448437,88.445721,9.214497,41.208858,61.283512,72.960377,0.291138,9.849644,16.495514,20.443611,-18.066256,-22.353279,-17.849698,-9.539327,-0.062862,19.657503,24.967729,26.537548,17.612267,39.461601,43.964873,43.183175,29.798464,48.344274,50.288301,48.607454,39.406149,54.204018,55.834105,55.290887,23.989105,49.499416,71.11845,86.740208,52.277927,84.393253,101.339436,113.478413,43.550434,79.771214,99.393139,112.655354,34.131432,68.181324,86.404209,98.141727,25.254936,52.081146,66.680317,76.853886,-16.151623,-14.901733,-5.047787,3.295681,12.603383,26.94683,33.027331,36.980963,30.273448,44.162289,48.5131,51.019549,42.35646,56.117169,58.316225,57.616037,49.45961,61.828773,61.971787,58.944288,-44.568014,294.15488,-68.669271,290.44615
109,15.383091,0.549579,-0.166397,0.833137,12.982063,23.776817,30.335655,32.81868,10.132999,37.241135,58.00724,68.873405,2.27457,35.120544,56.307106,72.163124,-5.7938,20.750656,40.905304,54.170494,-12.413406,-16.586037,-19.5825,-22.209949,-18.11473,-21.689029,-18.394089,-12.010764,0.563967,22.269607,26.614119,26.303946,17.99302,41.268665,43.176938,40.173707,30.247822,50.25866,50.052661,47.825138,39.420166,53.492406,57.916452,61.141059,22.884464,49.021111,71.274662,86.783237,53.001595,84.928493,101.915188,114.162769,44.700565,80.885181,100.41441,113.609791,35.463638,69.891644,87.984295,99.598331,26.590862,54.158077,68.711872,78.682423,-16.55652,-15.730423,-5.480102,3.651425,11.646869,25.49162,31.301654,34.81587,29.508114,41.886045,45.920385,47.813653,41.926245,54.524935,56.748443,55.873193,49.521175,61.087707,61.17885,58.278619,-28.823748,294.672348,-68.474493,291.247177
