takenoko1/special-research/HandMotion_SimilarSearch_自分用/NewProject/handData/key/d4_feature_d2/5.csv
,vel_0x_L,vel_0y_L,vel_0x_R,vel_0y_R,posFromWrist_1x_L,posFromWrist_2x_L,posFromWrist_3x_L,posFromWrist_4x_L,posFromWrist_5x_L,posFromWrist_6x_L,posFromWrist_7x_L,posFromWrist_8x_L,posFromWrist_9x_L,posFromWrist_10x_L,posFromWrist_11x_L,posFromWrist_12x_L,posFromWrist_13x_L,posFromWrist_14x_L,posFromWrist_15x_L,posFromWrist_16x_L,posFromWrist_17x_L,posFromWrist_18x_L,posFromWrist_19x_L,posFromWrist_20x_L,posFromWrist_1y_L,posFromWrist_2y_L,posFromWrist_3y_L,posFromWrist_4y_L,posFromWrist_5y_L,posFromWrist_6y_L,posFromWrist_7y_L,posFromWrist_8y_L,posFromWrist_9y_L,posFromWrist_10y_L,posFromWrist_11y_L,posFromWrist_12y_L,posFromWrist_13y_L,posFromWrist_14y_L,posFromWrist_15y_L,posFromWrist_16y_L,posFromWrist_17y_L,posFromWrist_18y_L,posFromWrist_19y_L,posFromWrist_20y_L,posFromWrist_1x_R,posFromWrist_2x_R,posFromWrist_3x_R,posFromWrist_4x_R,posFromWrist_5x_R,posFromWrist_6x_R,posFromWrist_7x_R,posFromWrist_8x_R,posFromWrist_9x_R,posFromWrist_10x_R,posFromWrist_11x_R,posFromWrist_12x_R,posFromWrist_13x_R,posFromWrist_14x_R,posFromWrist_15x_R,posFromWrist_16x_R,posFromWrist_17x_R,posFromWrist_18x_R,posFromWrist_19x_R,posFromWrist_20x_R,posFromWrist_1y_R,posFromWrist_2y_R,posFromWrist_3y_R,posFromWrist_4y_R,posFromWrist_5y_R,posFromWrist_6y_R,posFromWrist_7y_R,posFromWrist_8y_R,posFromWrist_9y_R,posFromWrist_10y_R,posFromWrist_11y_R,posFromWrist_12y_R,posFromWrist_13y_R,posFromWrist_14y_R,posFromWrist_15y_R,posFromWrist_16y_R,posFromWrist_17y_R,posFromWrist_18y_R,posFromWrist_19y_R,posFromWrist_20y_R,posFromBody_0x_L,posFromBody_0y_L,posFromBody_0x_R,posFromBody_0y_R
2,29.930305,-2.707015,3.976765,1.47071,3.641853,1.001129,-6.414986,-13.892097,-27.20129,-2.564507,19.148254,29.52095,-38.624897,-6.410294,16.221313,30.448036,-45.465088,-20.634613,1.195335,14.720535,-48.281994,-42.881584,-33.13448,-25.078583,-17.670621,-20.344538,-13.343647,-5.050504,0.726741,19.550736,23.321278,23.701352,19.978975,37.24649,39.705515,38.317304,34.620183,48.504825,47.674961,46.242537,45.954224,57.989503,56.662796,54.62497,26.657467,51.818333,75.364323,95.752888,52.660732,86.432247,104.035091,116.192722,43.506603,80.403042,100.543842,113.354244,34.479904,70.039387,88.443203,100.426884,26.658039,55.570107,71.455364,83.440533,-15.077598,-15.547889,-8.374097,-3.919546,12.895339,30.28481,37.571297,41.788665,30.868166,46.735367,52.210282,53.650487,43.737755,59.317631,62.676421,61.495445,51.883684,65.209917,67.140729,65.462476,4.254055,303.639002,-77.254028,295.715869
3,-13.546143,12.566209,0.133095,0.396252,-1.097717,-5.104065,-12.55434,-22.771568,-20.27401,8.701859,26.538162,36.302376,-25.442619,7.308655,30.345726,47.745094,-25.404396,2.756538,23.82431,40.641518,-22.800522,-8.055096,7.437057,20.977478,-9.946571,-10.045495,-0.29597,10.340415,-0.688702,9.929899,16.942955,22.354205,10.236551,20.906158,27.337957,30.106969,19.910618,29.30267,32.530549,32.945142,28.506584,35.973999,34.842608,32.976326,26.398315,51.537895,74.670696,94.624157,51.736164,85.111942,102.46645,114.547176,42.543926,80.486927,100.823421,113.678913,33.429909,69.771137,88.718891,100.830402,25.382309,54.016171,69.954014,81.887569,-15.31015,-16.040349,-8.992218,-4.342042,12.187061,29.488415,36.29152,40.197604,30.619004,46.75945,52.406525,54.454477,43.540277,59.319607,62.909776,62.428246,51.503549,65.215845,67.284546,65.764621,-11.254635,315.888323,-79.083481,295.795233
4,17.775421,-12.117345,-1.13245,0.153759,6.006775,3.632698,-4.801025,-13.18943,-31.345081,-8.45295,14.626007,26.936874,-44.151592,-16.725655,7.001381,24.113274,-51.48222,-28.472099,-4.488373,12.120667,-54.715233,-47.977009,-35.089016,-23.574429,-16.945919,-23.886047,-23.846465,-20.846754,-3.020892,19.114099,24.928888,25.852613,17.39824,37.147998,40.705933,39.505444,33.196774,48.036139,48.796658,47.576716,45.724698,58.744587,56.54547,52.52311,26.627254,52.049217,75.241928,95.47039,51.901245,85.337219,102.85881,115.198402,42.709579,80.836945,101.386642,114.647827,33.701763,70.209389,89.412346,101.953468,25.775814,54.563713,70.619888,82.848015,-15.755371,-16.346507,-9.236256,-4.559465,11.827674,29.296248,36.176355,40.235025,30.374842,46.483487,52.044914,54.054149,43.356879,59.031603,62.678397,62.300361,51.231044,64.948528,67.140544,65.700771,5.735149,303.300317,-81.001568,295.47833
5,-18.810196,13.800723,0.270081,-0.070951,-2.805576,-8.193855,-14.667149,-22.397404,-23.0159,7.362671,26.327591,37.658157,-26.335716,7.247086,30.265503,48.530846,-25.080929,4.074097,25.333443,42.917175,-20.820351,-5.095139,9.345818,22.476883,-12.39411,-15.094518,-7.781169,4.37866,-1.108667,9.300971,15.85905,21.531628,10.216606,20.356394,26.914596,31.10146,19.544746,27.623923,30.453698,31.803376,27.173701,34.416654,33.194366,31.00587,26.357746,51.621609,75.170403,95.412941,52.377033,85.562782,103.050957,115.28183,43.444347,80.905838,101.142883,114.127121,34.32724,70.140038,89.134941,101.484833,26.116848,54.538879,70.481415,82.746964,-15.595622,-16.365835,-9.135541,-4.440225,12.663713,29.888373,36.750634,40.830978,30.80302,46.450636,52.160697,54.403101,43.521011,58.893406,62.687968,62.384033,51.307923,64.940191,67.304923,66.060529,-13.45356,316.928324,-81.110001,295.234663
6,11.607399,-15.42902,0.298977,0.381865,6.772614,7.131157,2.122192,-4.124222,-23.961296,-1.213303,21.822166,34.552574,-36.591911,-9.41391,14.456062,32.126656,-44.737129,-23.004169,0.841942,17.574692,-48.43523,-45.840855,-36.638603,-27.508049,-16.60376,-20.696639,-17.128885,-12.161064,-0.357535,20.326136,25.979695,27.35568,19.249703,38.790621,42.17442,40.926012,34.100121,49.390635,50.14893,49.587989,45.95867,59.375615,59.141334,57.602266,26.144199,51.054268,74.441013,94.551258,52.654839,85.704632,103.205509,115.390606,43.812447,81.209621,101.366901,114.272518,34.60619,70.29047,89.102268,101.279469,26.158962,54.546719,70.483074,82.65192,-15.609454,-16.635314,-9.524631,-4.504137,12.578621,29.736837,36.550872,40.566439,30.677049,46.246551,51.840829,54.111948,43.377441,58.750392,62.318886,61.866997,51.30286,64.900486,67.036309,65.596228,-2.02137,301.304404,-80.986233,295.421628
7,-15.040455,20.018249,-0.234776,-0.173951,5.058689,6.996517,11.536045,13.475704,-14.700451,15.109119,33.909359,44.262028,-23.221092,9.419804,31.807537,48.186092,-26.312943,1.345882,21.947994,36.847401,-26.235638,-12.866764,0.478706,10.950909,-21.361258,-32.216795,-28.082605,-21.038427,-14.584892,-3.575102,5.804045,12.965672,3.851682,14.174004,21.300619,24.051477,18.924958,25.397142,28.339302,29.206833,31.701056,35.492593,32.307816,28.533816,26.213436,51.287556,74.694672,95.031853,52.479515,85.769005,103.287849,115.494919,43.73354,81.45504,101.951752,115.12825,34.729271,70.704346,89.748344,102.112656,26.593437,54.91888,70.893402,83.166046,-15.64811,-16.373801,-9.293869,-4.252813,12.594429,29.79161,36.40934,40.257687,30.820619,46.487377,51.905235,53.967143,43.482108,58.984488,62.488823,61.932514,51.280753,65.099075,67.306714,65.838475,-17.084284,321.049732,-81.243467,294.974756
8,16.904583,-19.285765,-0.179443,0.265897,5.693779,5.050507,-0.724068,-7.659302,-25.877209,-4.176636,19.048347,32.10125,-38.63451,-11.739807,12.795067,30.432587,-46.431885,-25.25156,-0.859795,15.974808,-49.955921,-45.933437,-34.480991,-24.015656,-16.498969,-21.037069,-17.778129,-12.486304,-0.083981,19.715301,25.218807,26.460299,19.417664,37.792796,41.043585,39.742256,34.139395,48.531748,49.162899,48.411026,45.849372,58.777932,57.583124,54.839615,26.553841,51.591969,74.983406,95.59639,52.3423,85.928078,103.586197,115.739708,43.472099,81.50322,102.048569,115.096436,34.490261,70.793266,89.973793,102.367172,26.509666,54.948864,71.051102,83.35762,-15.688063,-16.560411,-9.477885,-4.39805,12.60295,29.871453,36.323877,40.013773,30.93251,46.830833,51.961798,53.739593,43.582947,59.227414,62.518587,61.691626,51.283161,65.17509,67.373405,65.840327,-0.129747,301.508135,-81.372957,294.984821
9,-13.268051,14.489919,-0.300236,-0.066135,1.973648,0.388412,-0.800629,-5.537052,-18.925781,9.882317,27.771034,37.809792,-25.760937,6.432037,29.093971,45.64991,-27.071514,0.115242,21.359482,37.641106,-25.696335,-10.645866,5.265999,18.110619,-16.105866,-21.038798,-14.61552,-6.538566,-8.629867,3.388245,13.056569,20.343364,6.58846,18.827145,26.708288,30.93214,19.709929,29.094509,32.699004,34.590481,31.074783,37.591366,35.795232,33.900729,26.331196,51.654453,75.253201,95.822697,52.457943,86.224422,103.766956,115.845737,43.484573,81.813297,102.331409,115.427799,34.396706,70.867023,90.164738,102.715359,26.304073,54.745159,70.943356,83.587017,-16.141372,-16.974509,-9.620158,-4.446277,12.247391,29.47693,35.979248,39.847664,30.77832,46.604827,51.774386,53.655736,43.511131,59.151708,62.562677,61.904603,51.141444,65.170891,67.525805,66.051822,-13.340206,315.877116,-81.615601,294.797748
10,-3.895912,-10.605201,-0.155182,-0.137765,10.724945,14.880638,12.683716,7.255554,-4.78838,20.891876,40.282974,48.803787,-16.701393,13.595123,33.997536,47.389526,-26.314888,-1.912479,18.918915,32.351189,-33.596935,-24.298382,-11.357117,-1.436348,-19.59884,-24.083155,-19.143924,-12.082271,-5.302817,12.347983,17.645057,19.307378,14.15622,32.105027,35.665124,35.065465,29.42438,44.445353,45.050322,44.736383,41.642872,55.439952,53.861797,50.724629,26.490898,51.733131,75.340633,95.8671,52.981396,86.484432,103.922939,116.058712,44.164696,82.145061,102.441273,115.455494,35.111217,71.234951,90.265102,102.676907,26.908379,55.384197,71.458569,83.979435,-15.867571,-16.744921,-9.475354,-4.518401,12.533172,29.502865,36.0862,40.076511,30.961471,46.426862,51.673115,53.621773,43.717501,58.989119,62.501482,61.954868,51.542204,65.227701,67.535808,66.127219,-17.171288,305.153431,-81.705952,294.541499
11,5.314064,15.9074,-0.251598,-0.477639,-0.85968,-0.472069,4.18499,2.903252,-14.275188,10.566101,26.176414,35.927124,-22.016201,5.550499,24.235611,37.131157,-24.163456,-2.468491,16.058807,29.293556,-22.8578,-16.262913,-5.843239,3.601112,-18.981706,-26.341491,-21.536135,-14.203459,-9.036864,-0.784107,6.587596,12.792462,6.971066,15.351832,21.658957,24.972916,19.476697,24.519113,27.212974,28.92871,29.46458,33.167134,30.091655,27.763788,26.478024,51.741371,75.375595,95.852623,53.389378,86.667938,104.101868,116.351967,44.594536,82.013283,102.25502,115.380478,35.4562,70.947304,90.028267,102.443848,27.032948,55.175858,71.164513,83.674278,-15.647987,-16.522249,-9.202664,-3.947272,12.936773,30.181872,36.698393,40.597685,31.087998,46.815025,52.160758,54.253047,43.680574,59.145965,62.909529,62.585772,51.454951,65.394674,67.871422,66.607082,-11.793766,320.959298,-81.894093,293.962327
12,11.026726,-17.730149,0.028896,-0.133566,5.330772,3.646545,-2.049294,-9.008217,-24.174156,-0.609283,21.074295,31.952591,-36.30827,-8.315849,14.631615,30.362206,-43.854389,-21.854897,1.277962,16.457176,-47.752361,-42.453289,-30.076218,-19.603672,-19.292743,-23.154367,-17.964553,-10.735494,-2.420925,16.084253,20.84274,21.856558,17.54076,34.767643,37.762415,37.051235,32.815157,46.176773,46.38376,45.654488,44.884954,57.315559,55.087234,51.43976,26.946487,52.159538,75.643559,95.874882,52.974358,86.765957,104.344425,116.570377,44.072056,82.14735,102.488308,115.538807,35.074711,71.021976,90.118847,102.423763,26.981564,55.233307,71.234493,83.616314,-15.315831,-15.969892,-8.599733,-3.594924,13.105537,30.247143,36.765948,40.641466,31.237866,46.90586,52.386271,54.508941,43.743992,59.193698,62.997709,62.664812,51.471377,65.390908,67.888218,66.653271,-0.722609,303.159974,-81.820765,293.759585
13,-17.194805,15.005597,-0.788555,-0.568166,6.200809,9.238186,10.967731,10.811291,-10.802937,18.253269,37.094135,47.410755,-19.080963,11.523457,34.959927,53.184299,-22.340527,4.709759,25.976429,42.644062,-22.812939,-9.692802,3.748569,15.561504,-18.011113,-25.527435,-23.707403,-18.696604,-9.405761,2.405117,11.407586,18.675671,6.077476,20.018681,26.824132,29.691883,19.253284,29.889484,32.959159,33.291376,29.941046,38.815444,37.50084,33.646503,27.340679,52.711658,75.875702,96.243095,54.263077,86.930466,104.14753,116.801147,45.372677,81.864395,101.644707,115.092773,36.268387,70.618744,89.429512,102.260971,27.866936,55.147476,70.735245,83.258514,-15.370851,-15.917589,-8.343716,-3.514957,13.541742,30.419179,36.991646,41.047166,31.437382,46.890669,52.333474,54.48245,43.857921,59.436377,63.547472,63.566553,51.568819,65.711083,68.224943,67.08997,-17.816648,318.186905,-82.508554,293.212754
14,36.394787,-13.043787,0.395451,0.288683,-3.442497,-13.988113,-29.741364,-43.038483,-45.969257,-26.211662,-3.26683,10.607529,-55.597973,-29.562492,-5.423355,12.434807,-59.152508,-40.420933,-16.12999,1.278992,-59.031773,-63.528442,-57.251129,-50.253067,-17.074112,-20.205661,-13.135795,-3.820621,1.195673,18.163204,21.581645,22.745332,19.658799,33.385237,36.126955,36.51802,33.336269,43.994699,43.364227,42.887328,43.853908,54.047357,52.439561,50.418223,27.466564,52.471275,75.603962,95.718784,53.9328,86.562481,104.14072,116.938763,45.061512,81.557407,101.442432,114.744244,35.993614,70.547619,89.320621,102.00182,27.697849,55.042419,70.616169,83.01012,-14.843811,-15.593029,-8.483766,-4.026991,13.986468,30.729228,37.352515,41.200739,31.73965,46.942601,52.489085,54.602802,44.275972,59.560557,63.642753,63.727413,52.230783,65.884108,68.246741,67.137456,18.599396,305.141189,-82.091846,293.499507
15,-38.00972,16.236345,-0.473785,-0.092811,9.472275,13.275032,15.49839,15.750389,-9.304962,18.44799,35.859489,43.816452,-18.143234,13.574867,36.21048,53.282776,-21.90588,6.568336,28.23658,44.423332,-22.514305,-3.649006,12.416611,25.295792,-21.273264,-34.985622,-37.951062,-35.308392,-16.308593,-6.462736,1.510539,7.711515,1.498435,14.073289,20.91258,24.302492,16.487854,27.013582,29.263211,29.950617,27.966947,37.466013,35.835555,32.063901,27.40694,52.455196,75.580502,95.896397,54.097939,86.653919,104.002361,116.730824,45.385208,81.801281,101.785183,115.395527,36.298485,70.58321,89.450855,102.21159,27.772007,55.001793,70.523586,83.012066,-15.548692,-16.475504,-9.042916,-4.118876,12.9222,29.77611,36.432311,40.572923,30.783568,46.118974,51.8278,54.203524,43.464942,59.008138,63.324986,63.608544,51.565299,65.727571,68.371415,67.401624,-19.357166,321.396537,-82.512474,293.4257
16,-8.321228,2.420307,0.764694,0.036124,9.487209,16.26503,21.105995,23.623924,1.030312,30.757484,47.9282,56.671371,-6.214943,26.224365,45.336685,60.686874,-10.94965,20.561028,40.052605,54.144173,-11.456337,-5.856972,-4.108028,-1.354408,-19.292619,-32.335541,-38.195717,-37.581301,-12.405164,2.196956,9.648687,12.366199,4.002476,20.135019,25.222512,27.403289,16.042942,29.18238,30.620609,29.636554,24.7642,35.699333,37.801194,36.131772,27.068768,52.067013,75.242329,95.181713,53.104305,85.665607,103.425808,116.319637,44.473515,80.939655,101.205082,114.655781,35.666885,70.384884,89.362736,102.080441,27.573395,55.197372,70.80534,83.140469,-15.063519,-15.86047,-8.577626,-3.95993,14.022654,30.879158,37.390368,41.204383,31.922122,46.812308,52.291299,54.415266,44.587626,59.520543,63.408349,63.280031,52.513785,66.025208,68.329363,67.198033,-27.589674,323.830492,-81.65906,293.475471
17,49.951973,-20.784077,-0.789642,0.475478,-3.591843,-13.572235,-29.356499,-43.101883,-50.440063,-34.182014,-9.96769,6.089172,-61.362362,-39.648914,-13.708305,6.629677,-65.239792,-49.368954,-23.450203,-3.559685,-64.995174,-67.923775,-58.284016,-47.721348,-13.371187,-16.758321,-10.770075,-2.531088,0.703337,19.450392,25.791356,29.181145,19.053954,33.404194,39.268878,42.008373,33.064196,44.066576,46.39611,47.913133,44.335684,54.306338,52.928439,51.207208,26.675148,51.521301,74.773121,94.982471,54.099255,86.695805,103.783779,116.086063,45.424919,81.524792,101.129322,114.430332,36.24939,70.285892,88.886547,101.355343,27.64143,54.576187,70.107594,82.631092,-15.820209,-17.105111,-9.812387,-4.588673,12.983518,29.234065,35.785537,39.826052,30.700452,45.512338,51.09297,53.409352,43.116669,58.313137,62.572248,62.76176,50.991946,65.210164,67.877844,66.88113,22.534246,303.067904,-82.276754,293.972438
18,-39.820404,14.666279,0.492268,0.131158,4.454956,4.440994,2.749443,-1.837921,-13.160248,15.06752,32.903023,40.804367,-19.065628,13.059311,34.812469,50.817604,-20.836029,7.449532,28.570404,44.063644,-20.263824,-2.143478,13.661842,26.587372,-18.596878,-27.071504,-25.386706,-18.380072,-8.400217,2.344231,8.622951,13.7851,6.636564,19.275268,25.45457,29.720967,19.126387,30.230161,32.185303,33.448222,28.387776,38.689597,37.223704,34.085054,26.85585,51.883278,75.106773,95.164719,53.306694,85.982666,103.54557,116.174812,44.718819,81.154175,101.21006,114.32373,35.825672,70.530624,89.362793,101.818428,27.609959,55.32835,70.919609,83.14888,-15.508863,-16.423695,-9.119424,-4.422935,13.072439,29.893189,36.40829,40.15796,30.990679,45.822449,51.222337,53.21737,43.654516,58.471959,62.330681,62.220641,51.656319,65.135755,67.407799,66.290858,-17.198553,317.731975,-81.696882,294.101389
19,41.643448,-14.664611,-0.462914,0.102259,-6.86245,-19.982414,-38.313217,-55.295849,-52.927895,-34.727554,-10.823593,4.858017,-61.896915,-37.281075,-11.839485,8.522415,-63.958626,-47.352676,-21.78978,-2.017021,-62.454586,-72.703686,-72.595482,-69.832249,-11.740668,-11.882385,-2.108036,8.963258,3.093263,21.105426,25.506255,28.132253,20.035415,33.657803,37.754819,38.949875,32.723828,43.959254,44.833454,45.106947,42.691209,51.613464,52.499953,53.019521,26.596012,51.532059,74.80648,95.090103,54.038486,86.511154,103.564682,115.799675,45.430298,81.603355,101.468353,114.719467,36.270733,70.539207,89.216537,101.602135,27.644691,54.97467,70.479698,82.781982,-16.099012,-17.364216,-9.951017,-5.150293,11.830514,28.495407,35.175196,39.249673,29.874973,45.045629,50.981819,53.521923,42.594693,57.820554,62.129807,62.424726,50.760629,64.73024,67.334378,66.415285,24.508553,303.052867,-82.096138,294.189152
20,-31.68457,9.603239,-0.019684,-0.920575,2.126541,-0.874672,-7.430935,-17.258263,-23.961754,2.050781,21.490631,30.867004,-30.894814,0.451584,23.527679,39.023094,-31.972618,-4.506111,17.741661,33.253555,-30.460339,-12.68177,4.482536,17.497787,-17.016005,-21.74232,-16.617962,-9.62232,-1.960267,9.360498,15.556226,21.059916,12.53626,22.76571,29.252343,34.186448,23.881663,33.302553,35.277578,37.485835,32.270889,42.51275,40.671291,38.22579,27.285519,52.363358,75.385551,95.293465,53.003254,85.499725,103.017998,115.638199,44.196053,80.576706,100.906105,114.392395,35.196362,69.878197,88.937073,101.469269,26.886864,54.374142,70.063019,82.270775,-14.903091,-15.631191,-8.344395,-3.842481,13.106957,30.170819,36.7226,40.592004,31.074907,46.190975,51.881091,54.167153,43.824514,58.817885,62.894894,63.056001,51.894058,65.47038,67.955526,67.003458,-7.105551,312.645176,-82.045355,293.257647
21,21.23703,-8.869088,0.469666,0.925639,-0.476418,-8.430519,-20.335808,-31.008568,-41.914272,-22.666512,0.294456,14.58744,-52.823753,-27.715988,-2.218781,16.18103,-57.103271,-36.953373,-11.086235,6.945992,-58.113327,-51.070404,-34.539013,-20.699043,-19.174614,-25.757332,-22.783309,-17.078805,-3.190397,12.029907,17.618566,20.705901,17.53829,30.876873,35.990054,37.860042,33.695471,44.427507,45.12856,44.984743,46.02073,56.69188,53.466594,48.863842,26.644764,51.120987,74.191017,94.232025,53.401394,86.384354,103.465233,115.509796,44.557285,81.198006,100.920067,113.809662,35.313892,70.051117,88.718033,100.909424,26.718292,54.334431,69.996071,82.268715,-16.254314,-17.610847,-10.207158,-5.429281,12.045035,28.497259,35.148149,39.248624,30.101041,44.792823,50.454965,52.806359,42.909312,57.870387,61.92603,62.154568,51.076298,64.813726,67.220449,66.235777,14.199171,303.76167,-81.507998,294.168867
22,-19.798737,14.482695,-0.320892,-0.063726,-0.87204,-7.28199,-17.028351,-26.269684,-23.538036,1.031342,19.996605,31.236877,-28.405552,-0.974579,21.047745,38.139153,-28.446465,-5.646172,15.527458,32.347298,-25.562553,-18.799725,-12.56052,-6.554947,-12.410104,-16.523607,-13.338521,-5.76897,-2.870406,8.937569,15.404443,21.012307,8.185017,19.246121,26.776275,32.433972,16.817354,26.691122,30.785359,33.625816,23.024259,32.553829,33.369614,32.397477,26.374226,51.168423,74.418983,94.759598,52.909069,85.76088,103.364525,115.996513,44.29882,80.84198,101.029587,114.217415,35.282936,70.216484,89.153938,101.437569,26.937675,54.809761,70.428429,82.41188,-15.816812,-16.952896,-9.690492,-5.017468,11.945247,29.022941,35.756761,39.690942,30.090482,45.082864,50.778722,53.051137,43.025773,57.912747,61.811236,61.794996,51.306935,64.831758,67.044645,65.849651,-5.489645,318.180375,-81.718969,294.041151
23,21.190338,-15.821197,0.317631,-0.155364,-3.227005,-13.358459,-26.058311,-37.469215,-45.177498,-26.631088,-3.985634,10.192566,-54.754028,-30.380917,-5.0243,13.683014,-57.873917,-38.316936,-12.387886,6.126823,-57.757988,-51.037331,-33.570442,-19.172516,-16.322919,-19.542215,-12.866378,-4.617758,-1.482751,14.843688,20.868984,24.496203,17.905026,31.664006,38.070364,40.746009,33.206037,44.47771,46.174056,46.735614,44.921202,56.006636,53.545511,49.916131,25.819874,50.687428,73.928204,94.347668,52.312088,85.658512,103.296146,115.748577,43.591805,80.541859,100.719051,113.677654,34.538155,70.000706,88.942509,101.088123,26.256008,54.553642,70.203495,82.168865,-16.298465,-17.418865,-9.927799,-5.172462,11.570175,29.086482,35.923734,39.926211,29.809826,45.169438,50.870607,53.06886,42.863987,58.040385,61.919917,61.848719,51.228512,65.030656,67.268367,66.024035,15.757227,302.295144,-81.344805,293.821752
24,-30.732994,22.861793,-0.102024,-0.027355,8.730583,10.960236,8.772926,6.494751,-7.290974,17.248535,33.835831,43.697662,-16.192188,9.926834,30.832329,49.404831,-20.525837,3.151932,22.369881,38.747635,-22.103634,-10.861931,1.001587,12.869225,-21.656178,-35.626838,-40.810909,-41.40748,-18.279851,-9.895257,-3.122965,1.714932,-1.534559,10.101626,17.311666,20.549796,13.05379,22.861052,26.400524,27.092376,23.856098,32.635463,32.992381,29.472298,26.029987,50.745335,73.869095,94.31282,52.089729,85.657539,103.320007,115.82325,43.305073,80.552902,100.842705,113.877869,34.24078,69.976273,89.09523,101.432648,25.961723,54.317837,70.038528,82.060318,-16.231096,-17.367921,-9.842213,-5.026545,11.103836,28.710854,35.517602,39.572937,29.445746,44.95819,50.777179,53.096709,42.64255,57.988577,61.931835,62.028104,51.06827,65.07808,67.445961,66.391017,-14.853287,325.084241,-81.324348,293.721701
25,-1.040897,-9.30943,-0.618553,-0.553284,6.531315,9.066982,10.036182,7.645397,-9.807072,15.633831,34.341145,46.445103,-17.668419,11.191235,29.947872,45.177784,-21.003971,6.462307,25.202007,38.625469,-19.910431,-12.399559,-3.169727,6.203327,-18.621886,-27.895316,-30.056087,-27.499867,-7.136433,9.09386,15.788098,16.82427,8.927134,25.094873,29.541891,29.171759,21.000636,35.929539,37.639161,35.38805,29.875899,43.257954,45.241563,43.973271,25.894318,50.398464,73.6409,94.107742,52.74828,85.771179,103.459854,116.189461,43.936844,80.824471,101.025124,114.363785,34.617863,69.905663,89.08596,101.95015,25.98135,53.966446,69.529724,81.784058,-15.750122,-17.113694,-10.120769,-4.863092,12.055101,29.705221,36.290964,40.13573,29.634331,45.471213,51.469771,54.032537,42.191648,58.119364,62.47777,63.092619,50.114905,64.401048,67.2512,66.797952,-15.858965,315.744908,-81.907682,293.138515
26,32.200413,-13.380573,-0.514641,-0.184325,-1.512337,-10.206184,-24.173012,-36.246758,-43.566799,-24.819031,-1.823959,12.033463,-54.895077,-30.966568,-6.474037,12.026596,-59.702854,-41.275864,-16.941261,0.939331,-60.612202,-59.457092,-46.962605,-34.83799,-16.259007,-20.56122,-15.348868,-7.945487,-0.963306,17.100418,23.145228,25.769126,18.35179,33.061047,38.860831,40.90724,32.933347,44.0018,46.110329,46.932413,44.30413,54.946319,53.557429,50.989847,26.45359,51.302719,74.66114,95.318413,52.908783,86.242905,103.997841,116.69323,44.052944,81.221237,101.441116,114.702759,34.881248,70.492058,89.725342,102.639656,26.510868,54.793854,70.387802,82.624741,-15.507875,-16.777772,-9.653751,-4.342659,11.903256,29.953272,36.535372,40.21934,29.829092,45.928289,51.84861,54.128497,42.647366,58.649306,62.873096,63.141958,50.694618,64.859669,67.535993,66.915649,16.427879,302.297938,-82.335892,292.887792
27,-30.835533,17.441466,-0.460052,-0.196243,2.261696,-0.440483,-6.072178,-12.179375,-14.20166,13.076706,29.815292,37.31884,-19.54771,10.854492,30.857964,45.993805,-21.143131,5.338097,25.195198,39.546776,-20.845242,-4.629478,9.862862,21.034012,-19.04074,-28.67967,-29.725352,-25.613824,-8.729594,-0.348396,5.208586,10.057043,6.008562,16.063505,21.755164,25.650751,18.088054,27.18883,28.962055,29.990199,26.821415,35.479502,34.302539,31.814862,26.571064,51.660633,75.159302,95.598564,53.122959,86.457939,104.246521,116.96846,44.281883,81.482391,101.85173,115.096436,35.061264,70.76088,90.045662,102.789001,26.570549,54.840717,70.561295,82.840691,-15.462982,-16.565536,-9.311962,-4.000871,12.092213,30.000697,36.647449,40.374951,30.189653,46.227346,52.204107,54.465592,43.114199,58.906744,63.062423,63.201547,51.259079,65.408939,68.069023,67.356238,-14.246721,319.644802,-82.635012,292.596948
28,23.966103,-18.565632,-0.653915,-0.482394,0.434875,-5.469017,-16.707802,-26.348133,-37.712116,-16.963921,5.967064,19.204102,-49.224873,-22.60334,1.72451,19.358025,-54.702187,-34.169769,-9.562798,7.694092,-56.147003,-53.418732,-41.244278,-29.906616,-15.956306,-19.372216,-13.363839,-5.340917,-0.260093,17.916759,24.017699,26.627889,19.06791,34.81161,40.391006,41.954094,33.72437,45.816953,47.615496,48.260108,45.225199,55.819161,54.783422,52.830071,26.935101,52.140255,75.659866,96.018448,53.554688,86.912384,104.565811,117.175026,44.702339,81.739082,101.930923,115.223236,35.378666,70.875778,90.034904,102.721939,26.737289,54.896336,70.620689,83.004227,-15.386227,-16.411777,-8.944177,-3.531938,12.140378,29.924558,36.622379,40.325489,30.172425,46.2991,52.477661,54.93681,43.027749,58.780773,63.200065,63.598911,51.184484,65.503787,68.290645,67.611144,9.897079,300.978331,-83.111229,292.013715
29,-31.950817,19.889808,-0.261154,-0.260648,8.865795,14.178715,17.554035,21.006374,-5.45454,20.997334,38.174572,47.155895,-13.244877,15.250111,37.942715,56.116161,-16.946983,9.251804,30.585651,47.00758,-18.002872,-2.000885,13.387241,25.977573,-21.848284,-34.447529,-35.569843,-31.154874,-13.519944,-5.632687,1.424891,7.18781,2.985694,14.159493,20.2148,23.369629,17.231391,26.683156,28.290087,28.395309,28.375179,36.433793,35.690071,32.557472,27.192879,52.479057,75.942764,96.268272,53.088284,86.558075,104.593277,117.453804,44.338074,81.755104,102.345085,115.824165,35.289688,71.158905,90.529633,103.249397,27.037868,55.497265,71.397171,83.774071,-15.197456,-15.98959,-8.63067,-3.38806,13.184022,30.792213,37.273722,40.888406,31.095037,46.837502,52.695887,55.011528,43.758688,59.31584,63.460837,63.670232,51.716155,65.796669,68.479046,67.744216,-21.794872,320.776579,-83.113518,291.661506
30,20.862293,-22.173091,-0.592575,0.275036,3.644485,0.62748,-7.4683,-15.439682,-26.656494,-3.454628,18.363876,30.318146,-37.765388,-8.274078,14.807625,31.693726,-44.449139,-20.815315,3.398323,20.391998,-47.227535,-42.744827,-30.295715,-18.852196,-15.776489,-17.078929,-9.895812,-1.807496,2.327867,21.672048,27.286704,29.259815,20.561714,37.561911,42.637239,43.267526,34.31705,48.134446,49.588236,49.933236,45.093918,57.419979,57.042561,55.347574,27.448654,52.770824,76.274529,96.739082,53.720512,87.34108,105.174637,118.055191,45.069523,82.34745,102.772064,116.407585,36.116009,71.7239,90.91198,103.745155,27.838955,56.103916,71.720123,84.102859,-15.648728,-16.904608,-9.26355,-3.697676,11.58623,28.753894,35.417381,39.484078,29.813716,45.495542,51.754873,54.578719,42.929627,58.347841,62.842345,63.350797,51.392151,65.72578,68.350234,67.483938,-0.823832,298.557129,-83.597345,291.890184
31,-19.048748,16.819392,0.206337,0.039088,5.655212,8.970737,11.971493,12.672672,-9.45488,18.936024,37.741528,47.75465,-17.174263,13.156414,36.212482,53.575459,-19.869404,6.770611,27.44173,43.10606,-20.263939,-6.127853,8.393612,20.412884,-19.561481,-27.016855,-23.077117,-16.540836,-7.596289,2.529544,10.493742,17.200701,8.972088,21.085049,27.023524,29.085247,22.71668,32.453361,34.137542,33.680465,33.543935,40.919343,38.771787,34.893923,27.316017,52.466183,76.033516,96.676598,53.509827,87.206039,105.041542,117.754211,44.873886,82.287712,102.618828,116.075363,36.000538,71.55304,90.593376,103.12809,27.926102,56.092529,71.639214,83.788605,-15.200914,-16.078017,-8.57213,-3.462407,12.913123,29.7821,36.289853,40.19748,30.931028,45.617623,51.331327,53.889585,43.650131,58.347903,62.305857,62.709396,51.648045,65.359477,67.685306,66.786158,-19.742918,315.351342,-83.261347,291.904093
32,2.119961,-12.563801,-0.746956,0.110039,9.778633,13.505745,10.830574,5.355721,-4.500675,19.450836,39.157791,49.055557,-15.725327,12.916946,34.199867,49.419136,-25.133686,-1.151276,20.65052,35.235329,-32.239208,-24.572411,-12.1134,-2.011471,-21.152789,-27.275157,-24.883625,-20.028808,-4.782693,13.021001,18.136899,19.911853,15.299591,33.044189,36.350183,35.642585,30.919234,45.364199,45.859067,45.859931,43.355582,57.036447,55.216724,51.889242,27.560635,52.449131,76.003761,96.410637,54.555645,87.80674,105.349731,118.16494,46.129932,82.566605,102.923927,116.922112,37.145348,71.621704,90.834732,103.928261,28.510895,56.163597,71.555214,84.026756,-16.018242,-17.282891,-9.565448,-4.715385,11.158546,27.413663,34.21368,38.576162,29.278526,44.31191,50.924145,54.103611,42.396474,57.30006,62.000316,62.783249,51.024242,65.085119,68.017894,67.479245,-17.535954,302.714954,-83.921299,291.941545
33,13.709679,-9.872965,0.844688,-1.152571,-15.655746,-28.96946,-40.391407,-54.860344,-36.477928,-16.883984,3.792458,18.64563,-35.499229,-12.336903,12.898064,31.221657,-30.881424,-10.076065,14.392319,31.782646,-24.562111,-15.806751,-1.689377,9.92981,17.828455,33.630015,49.222859,60.715537,32.541232,45.179257,50.752355,54.686968,29.848235,42.228637,49.599042,53.110294,25.80173,36.777804,43.132601,47.880528,22.95553,34.521321,36.348392,38.644025,27.260571,51.901131,75.101166,95.329056,53.901615,85.987015,102.974625,114.867439,45.882454,81.712875,101.821861,115.349579,37.160225,70.687065,89.583549,102.147217,28.605938,54.563713,69.271774,81.45092,-14.982688,-15.881527,-8.071767,-4.053915,12.505693,28.978789,35.932997,40.34562,30.12148,44.895143,51.088154,54.494492,42.804027,57.235963,61.956535,63.340362,51.21715,65.293774,69.000034,69.651562,-3.731461,292.777861,-82.981796,290.724845
34,-43.759232,2.508302,1.807652,-4.07491,20.449505,39.613609,49.05899,50.239792,27.539463,55.579376,73.119278,81.43158,15.772877,47.538414,66.982956,81.153259,2.78944,29.949188,49.307899,61.285057,-8.357391,-5.177593,-6.785946,-8.64521,-19.641262,-25.49656,-22.991469,-19.365114,1.077483,22.568911,30.562502,35.665926,19.97595,42.937655,49.698831,53.494382,32.261997,51.060489,55.62755,59.548454,41.925072,55.038266,60.697567,64.641011,25.407715,49.860306,72.857151,92.630596,55.254707,85.071316,100.951595,112.20274,47.196922,79.823399,99.07877,112.190266,37.447357,68.122387,86.302814,98.385715,27.172737,51.38792,65.269375,76.823673,-16.505144,-16.227823,-7.022133,-3.771592,15.684111,33.499537,43.213371,51.115756,32.317943,49.944474,60.199736,67.648317,43.849153,60.523864,68.796937,73.804648,51.604634,66.965728,72.719693,75.906509,-47.333136,295.164947,-81.016588,286.52872
35,59.758987,-2.293472,1.980457,-12.826116,2.361603,-0.603676,-11.805496,-25.617771,-33.787422,-20.851479,-4.388008,5.672035,-47.186451,-30.797596,-13.97438,1.927414,-54.388504,-45.890808,-29.819069,-16.410027,-58.376656,-73.072414,-78.767109,-82.3946,-15.851084,-16.112844,-6.563945,1.386482,7.722198,31.576567,44.822648,55.475273,20.713435,36.913285,52.171256,63.396554,28.42884,42.521395,53.074726,61.045531,35.706188,44.561197,51.866394,60.150335,27.50782,51.791153,71.93573,88.647423,55.83395,81.11721,94.729385,105.287132,45.977325,72.331123,87.895317,100.520096,33.043728,56.23558,71.466408,83.041763,18.907242,36.65966,48.154736,56.69838,-16.457041,-13.065708,-3.407388,-0.40817,14.589029,35.403364,48.822778,59.903951,30.460367,53.898847,69.109517,81.089468,42.154166,64.371964,77.438228,86.492567,50.387225,69.793465,77.932972,80.990729,12.50639,292.784947,-78.955593,273.616076
36,16.265488,12.615239,12.491913,-18.981459,-23.429146,-43.921795,-57.273903,-64.898357,-59.778042,-83.98447,-95.010281,-103.976212,-55.249043,-81.541443,-95.621738,-107.354794,-47.308044,-69.247684,-81.658115,-92.500248,-35.927696,-51.558266,-61.602459,-71.005898,-18.657269,-28.571792,-34.203183,-40.575393,0.253547,9.641339,14.884258,17.656357,14.657448,24.575676,29.189728,32.743773,25.838657,36.262003,41.042164,45.078665,34.852859,43.347678,47.308102,50.576613,23.05109,41.756973,51.09272,57.463875,49.869576,70.209274,76.366539,76.789055,42.246609,54.652863,45.439396,32.175179,31.297073,32.823772,16.032772,0.22356,18.016777,16.147385,5.293407,-5.479317,2.0976,14.873883,33.17473,50.525607,16.401589,34.494521,51.876336,65.393007,25.863481,56.932521,76.665051,86.933774,35.777015,68.392595,83.27994,89.399653,43.965738,68.419333,78.814459,82.35566,29.10779,305.384686,-66.127768,254.619117
37,2.792358,-7.23684,-27.473373,-47.972228,-24.367447,-43.61721,-62.008266,-76.773205,-50.803585,-81.282578,-96.489658,-106.929531,-45.142536,-78.002357,-96.249332,-110.263138,-36.769409,-66.64753,-84.329624,-97.352772,-27.016068,-49.841194,-63.348541,-74.615822,-13.39033,-14.961754,-8.6642,-3.011568,4.661292,15.816257,22.558414,27.342218,19.432361,31.440963,38.193124,42.384433,31.382609,43.824453,49.871794,53.305673,40.163332,51.790132,57.128085,59.536783,28.183651,58.014107,78.754234,88.132668,73.798542,103.546829,108.139572,103.953323,67.235527,100.067139,101.697006,94.133949,56.940651,87.659454,89.554482,83.28598,43.639355,70.078754,74.720592,71.575928,-16.598449,-21.054482,-21.348044,-18.204577,6.551225,34.710339,49.333824,55.024557,23.820901,51.432783,62.472954,65.097099,37.830834,60.056166,66.540515,67.387422,47.140141,61.012433,62.84994,60.308231,32.275171,298.924991,-93.226118,207.424034
38,4.519272,-5.241375,-16.717701,-57.472282,-20.832367,-43.326988,-63.366165,-78.672581,-52.078285,-81.810894,-98.704262,-111.340942,-46.609955,-78.534908,-98.487854,-113.681374,-38.019676,-67.819862,-86.479855,-100.295963,-27.488365,-51.591167,-65.678329,-77.24493,-19.391111,-20.252159,-8.844388,0.326104,6.687076,20.04159,26.84593,32.578344,23.525116,35.291719,41.394018,46.682076,36.331719,47.25333,53.765775,58.480975,45.408289,56.156813,61.022992,63.872403,31.643143,63.102207,83.744373,90.465717,73.137817,114.547176,125.401325,124.807262,64.341888,109.450436,121.719074,121.048336,54.365616,98.392696,109.400311,108.946552,43.446121,80.940228,92.589512,94.85487,-23.791816,-36.596814,-44.716345,-47.109513,-12.706753,12.539039,25.891639,31.680617,5.957062,29.650325,38.867562,42.063825,23.778108,42.679415,47.394614,48.428378,38.869908,50.851835,52.222076,51.13743,36.721201,296.417477,-110.017061,152.685612
39,2.896843,-3.222075,-12.73859,-47.86858,-22.697296,-45.449638,-65.530758,-80.504608,-53.795528,-83.521214,-100.460014,-113.294563,-47.817078,-79.736252,-99.970322,-116.061287,-38.669128,-68.526592,-87.578373,-102.546272,-27.397385,-51.292648,-65.654812,-78.027878,-19.071615,-19.616686,-7.262281,3.763255,8.719961,23.296887,30.151738,35.370389,25.566029,37.912962,44.460111,49.687531,38.040724,49.391746,56.407766,61.484206,46.485093,57.727373,62.982271,66.292649,22.171726,49.67514,69.832706,77.794247,72.47858,117.866135,126.052551,123.116455,72.147617,120.321579,127.498398,121.615906,68.751526,114.023209,119.697418,113.331528,62.617607,101.073418,109.622269,107.636032,-30.154857,-50.344957,-64.440013,-73.201223,-32.362526,-18.863207,-8.079053,-3.868324,-11.887417,0.822855,7.174842,8.483241,7.852213,15.699703,19.061951,19.278077,26.239633,27.322921,25.186171,22.118411,39.647999,294.342972,-122.725697,105.964602
40,1.561546,-1.247297,8.679485,-57.580067,-23.86734,-46.838951,-67.187576,-83.116951,-54.694691,-84.748363,-101.486435,-114.201622,-48.59024,-80.941544,-100.772095,-116.587658,-39.764442,-69.60577,-88.097076,-102.773895,-29.01947,-52.52758,-66.578808,-78.522091,-17.555766,-17.236454,-4.11091,6.301321,10.500658,24.815762,31.785592,37.087853,26.953684,39.212376,45.67678,51.162069,39.004154,50.836088,57.735832,62.969797,46.908083,58.517716,63.932239,67.687282,18.474483,41.818428,57.025509,63.946152,61.657906,102.155056,109.917698,107.661381,61.662083,105.782375,112.065182,109.812527,57.372036,101.489525,103.822918,99.011307,50.960083,87.359905,90.337429,87.176056,-30.512484,-54.273116,-69.825976,-81.966571,-41.290864,-51.415431,-62.257352,-71.122519,-25.23409,-34.079095,-44.194029,-50.315502,-8.595256,-16.2771,-25.538982,-29.665238,8.77884,-1.60162,-9.670362,-12.959466,41.961021,293.338617,-113.294735,48.627477
41,1.320419,0.08466,-6.058531,-39.945493,-24.470444,-47.927284,-68.76749,-84.634094,-55.836296,-86.564999,-103.405495,-116.113873,-49.536552,-82.742729,-102.507076,-117.914715,-40.648956,-71.309166,-90.058365,-104.590359,-30.244102,-54.31057,-68.861732,-81.04351,-17.607142,-17.218176,-4.305671,6.198012,10.771557,24.869917,31.974981,37.442115,27.518577,39.930595,45.942183,51.039124,39.693535,51.929812,58.394215,63.21754,47.397702,59.130651,64.098224,67.558162,12.489167,34.254542,48.001643,53.770981,71.03302,112.698355,125.592814,128.38214,71.795083,114.818316,122.740889,121.093169,66.75313,106.03818,105.829354,98.696795,58.622847,91.967755,95.467158,92.188597,-29.819937,-51.043647,-65.109541,-77.849593,-45.592567,-53.519977,-61.712435,-69.205261,-31.426344,-35.945331,-41.901143,-46.533705,-16.191915,-19.537213,-24.262339,-26.613702,-0.208531,-7.033603,-12.212873,-14.421608,43.013506,293.588691,-119.621201,8.847398
42,0.418739,-0.444232,-6.05853,-39.945492,-24.856682,-48.176079,-69.075451,-84.358807,-56.045609,-87.867279,-104.399529,-116.461487,-49.772072,-84.382896,-103.837509,-118.705101,-40.847855,-72.876949,-91.188583,-105.131378,-30.591087,-55.053978,-69.409332,-81.215858,-17.360449,-16.823344,-3.958263,7.15996,11.750239,25.862184,32.746614,37.82435,28.739691,41.09527,47.092161,51.848425,40.828755,52.924981,59.214755,63.678075,48.282709,60.111741,64.733451,67.647453,6.503849,26.690655,38.977776,43.59581,80.408134,123.241653,141.267929,149.102898,81.928082,123.854256,133.416595,132.37381,76.134224,110.586834,107.835789,98.382282,66.28561,96.575603,100.596886,97.201138,-29.127391,-47.814178,-60.393107,-73.732616,-49.894271,-55.624524,-61.167519,-67.288004,-37.618598,-37.811568,-39.608258,-42.75191,-23.788574,-22.797326,-22.985695,-23.562166,-9.195902,-12.465587,-14.755384,-15.88375,42.887135,293.252027,-126.224842,-30.990525
43,1.736526,-0.940459,-13.016052,-5.680081,-25.279427,-49.661751,-70.945187,-85.886478,-57.566643,-89.840469,-106.409569,-118.443775,-50.862808,-86.388359,-105.901451,-120.616837,-41.611404,-74.569759,-93.285084,-107.363319,-31.153221,-56.138763,-70.712414,-82.841434,-17.606524,-16.202382,-2.77988,8.645119,12.044541,26.494138,33.038323,37.893079,29.321072,41.799533,47.146254,51.262846,41.636265,54.040132,59.781562,63.715187,49.344198,61.293212,65.696202,68.606437,3.843498,21.788521,35.859718,43.321953,58.020802,99.963055,116.001034,123.566151,66.911259,110.168781,125.668316,131.541481,71.299496,110.83231,121.782589,125.000668,71.793079,101.285477,110.230522,114.757118,-39.485035,-65.553558,-82.863341,-99.884873,-60.434603,-69.895415,-74.179164,-75.386694,-43.448794,-55.467555,-61.723736,-64.982645,-26.771644,-40.290044,-47.630378,-51.385945,-9.649459,-22.978749,-32.123398,-38.29353,43.740234,293.788577,-140.124321,-35.193598
44,1.648178,-1.176469,22.222996,-29.442689,-26.256866,-50.702133,-72.084789,-87.078438,-59.019356,-91.398182,-107.875443,-120.119019,-52.067184,-87.669983,-107.022285,-121.84948,-42.649612,-75.914841,-94.565334,-108.57645,-32.26181,-57.636223,-72.186298,-84.32539,-16.951229,-15.236358,-1.778844,9.570449,12.413994,27.445218,34.309702,39.372001,29.671814,42.386965,48.124504,52.426223,42.050302,54.52265,60.368438,64.325589,49.951452,62.046073,66.462709,69.324718,-1.993618,11.871529,22.76041,27.916374,50.887756,93.646946,115.706005,126.622524,59.94318,104.895687,124.842167,132.343998,64.309616,103.252602,118.820515,124.371471,65.211639,97.076912,107.655315,110.888958,-36.100094,-63.945361,-86.046482,-105.250845,-46.091835,-53.968749,-58.158391,-63.085209,-30.67779,-44.379496,-51.869389,-56.888154,-16.768108,-30.092458,-37.569723,-41.921768,-4.292796,-17.831234,-25.350798,-29.442102,43.74733,292.963329,-119.542408,-64.285066
45,1.515083,-1.007396,-11.934586,-4.122766,-26.970291,-51.451492,-73.064804,-88.453045,-59.883041,-92.254772,-108.857288,-121.184921,-53.021965,-88.474388,-108.003101,-123.044357,-43.749847,-76.78957,-95.532532,-109.525967,-33.442497,-58.450241,-72.92078,-85.083618,-16.605736,-14.571553,-1.007767,10.220619,13.176056,28.134784,35.016436,39.985491,30.255602,43.122844,48.990986,53.170069,42.49509,55.282983,61.161375,64.931917,50.176903,62.637704,67.284484,70.139514,4.714394,21.520901,35.617161,40.818672,51.5732,88.705902,108.007107,121.258106,57.941608,97.793713,119.495373,133.421688,60.761948,95.995789,115.67585,127.061405,60.663929,87.988644,102.026596,111.036472,-34.050536,-63.363611,-88.085759,-109.428245,-49.648412,-55.295456,-56.319926,-56.723434,-31.846139,-40.228634,-42.740301,-44.044593,-15.008901,-24.285789,-29.279421,-32.903429,1.109686,-10.049139,-16.373924,-20.67728,44.977341,293.041921,-131.762066,-67.321843
46,1.043816,0.343703,-2.820511,-7.520336,-27.138062,-51.973572,-74.111652,-90.124683,-60.211945,-93.064327,-109.70129,-121.875572,-53.392868,-89.559631,-109.055557,-123.809509,-44.280167,-77.992744,-96.767635,-110.569611,-34.247818,-59.713326,-74.313755,-86.194954,-16.990811,-14.783975,-1.084522,10.08835,12.879469,27.635718,34.491248,39.421648,30.241276,42.970383,48.468578,52.502856,42.601609,55.251922,60.777966,64.289651,50.188697,62.681979,66.965728,69.339908,7.699814,23.900528,39.222164,43.87516,53.179379,88.117275,108.122921,122.16814,59.903297,97.807388,120.352077,135.84383,62.716827,96.99995,116.828213,130.183353,62.204418,89.808083,104.054947,115.282345,-32.158349,-58.4233,-80.154767,-101.157425,-44.799615,-51.474835,-53.846915,-55.39259,-26.908329,-37.262267,-40.71782,-42.662248,-10.264925,-21.278883,-26.332907,-29.672339,4.910547,-4.604296,-9.790404,-14.024661,45.159674,293.958498,-135.444059,-74.269305
47,0.807495,-0.647391,-1.021042,-5.331191,-27.484703,-52.266998,-74.519005,-90.181503,-60.664902,-93.650608,-110.349026,-122.792072,-53.829346,-90.03582,-109.617004,-124.603729,-44.654503,-78.341846,-97.195702,-111.133118,-34.60865,-59.917946,-74.337044,-86.275063,-16.578751,-14.563711,-0.981091,10.576672,12.663466,27.619539,34.494151,39.321427,29.980875,43.121548,49.029024,53.130734,42.433092,55.462182,61.244367,64.718507,50.32955,63.246748,67.682527,70.070477,8.142643,24.488697,40.87944,46.535282,52.366962,87.77401,108.117943,122.747555,58.889008,97.409019,120.215549,136.56538,61.510849,96.498356,117.070656,131.417141,60.964565,89.444962,104.48925,116.196671,-31.8617,-56.298561,-76.504098,-96.623093,-43.440952,-49.755796,-51.648446,-52.943229,-26.022673,-35.169855,-37.55376,-39.368913,-9.64245,-18.880312,-22.875409,-25.977318,5.250113,-3.135192,-7.399984,-10.874803,44.703169,293.76948,-137.729101,-79.142122
48,0.069008,-0.07163,-3.753548,-3.993554,-27.575111,-52.277412,-74.614563,-90.729733,-60.951118,-94.098759,-110.848217,-123.384647,-54.044724,-90.34687,-109.7826,-124.684296,-44.837608,-78.413429,-96.96413,-110.793457,-34.875183,-60.389671,-74.823475,-86.770763,-16.417644,-14.259405,-0.497153,10.787056,12.583808,27.945211,34.97179,40.063791,29.937341,43.273454,49.153019,53.428988,42.451803,55.555672,61.328163,64.941735,50.324425,63.215317,67.494065,69.724119,8.610306,25.062275,41.679554,47.795391,52.274151,87.959003,107.955437,122.281094,57.800217,97.000923,119.878178,136.116886,59.667263,95.203342,116.57238,131.378117,58.637466,87.624779,103.197899,114.960823,-30.836828,-55.004643,-74.467539,-94.090739,-42.868525,-46.415191,-47.715408,-48.947421,-25.290777,-30.84078,-32.152112,-33.478603,-8.491639,-14.844429,-17.664076,-20.054064,6.984774,0.307671,-3.227262,-6.053362,43.992977,294.09966,-142.261848,-82.733866
49,0.102654,-0.174692,-6.011295,-2.858087,-27.550507,-52.027359,-74.398441,-91.066132,-59.979744,-93.688145,-110.54678,-123.016548,-53.150711,-89.969902,-109.622726,-124.675827,-43.986626,-77.990913,-96.746178,-110.667171,-34.139328,-59.593163,-74.23708,-86.591892,-15.752345,-14.058037,-0.980967,9.827702,12.212935,27.996031,35.014954,39.839205,29.384181,43.27296,49.478259,53.708594,41.973299,55.557031,61.755105,65.57548,50.03747,63.425824,68.171035,70.831304,6.703548,22.270889,38.214798,43.927689,50.59639,86.716633,106.528988,120.531063,56.016197,95.23447,117.765713,133.761177,57.863102,93.67075,114.702129,129.360924,57.064819,86.616783,102.222176,113.904419,-30.803205,-53.831832,-71.552271,-89.449902,-42.938581,-44.883071,-45.111733,-45.01815,-25.625155,-29.341727,-30.046392,-30.881196,-8.480277,-13.570672,-16.088638,-18.171448,7.851966,1.670935,-1.835809,-4.450908,44.01412,294.827203,-148.354654,-84.689717
50,-0.014877,-0.04162,47.395477,-15.973473,-27.562637,-51.988106,-74.113884,-90.669594,-60.049896,-93.384476,-110.11488,-122.572746,-53.194427,-89.921837,-109.545937,-124.717197,-43.985138,-77.844658,-96.52153,-110.585346,-34.085197,-59.468994,-74.144325,-86.629601,-15.959764,-14.082181,-0.728161,9.868148,12.803392,28.468422,35.211196,39.763622,29.992422,43.464448,49.350127,53.448007,42.421175,55.748272,61.655687,65.314831,50.238036,63.409646,67.953426,70.442585,-11.281986,-10.935917,-9.254723,-9.953842,36.618805,53.588505,54.827957,54.741383,49.274654,72.790432,74.018841,68.920841,56.342754,79.293137,78.2864,73.368416,60.513496,78.712406,76.782417,70.481071,-30.592852,-48.190701,-61.443188,-74.13756,-32.576275,-31.502127,-30.645278,-30.866221,-19.157324,-20.941819,-24.631313,-23.03065,-7.92406,-9.241536,-12.524651,-11.377884,1.871531,0.273801,-2.692503,-3.051242,43.961735,295.564271,-100.996685,-99.884502
51,1.34182,0.541983,0.253887,-10.41186,-27.692413,-52.133675,-74.481068,-90.838623,-59.874001,-93.117714,-110.077286,-122.805004,-53.466911,-89.919205,-109.725552,-125.169182,-44.649925,-78.376923,-97.099628,-111.064339,-35.014229,-60.393677,-74.94215,-87.279682,-16.053934,-14.717223,-1.323558,9.660975,12.53169,27.47282,34.21121,38.902513,29.698428,42.770682,48.694461,52.887128,42.164416,55.182638,61.13581,64.804587,50.174186,62.975231,67.565448,70.131919,0.442085,0.298634,-0.265217,-1.685715,16.733379,34.028492,43.679695,49.768982,22.795086,46.132278,56.689167,60.138588,26.626854,48.270206,56.339092,60.048294,28.588715,45.115185,50.491734,51.718311,-25.979232,-44.180583,-56.326055,-68.532352,-27.841022,-29.832319,-30.758945,-31.954835,-12.318435,-15.938214,-18.324836,-19.147753,1.282803,-1.691344,-3.974102,-4.460016,13.934135,12.366138,9.829214,9.188832,44.959202,296.49062,-101.087151,-109.911997
52,-0.589027,-0.16722,-19.939156,-6.335685,-27.181206,-51.458244,-73.594093,-90.000229,-59.159203,-92.389412,-109.42709,-122.137814,-52.913933,-89.554996,-109.606133,-124.915524,-44.311981,-78.215446,-97.332973,-111.682892,-34.758339,-60.047722,-74.845791,-87.529449,-15.477988,-13.948368,-0.973804,9.887846,12.449068,27.587676,34.675388,39.496058,29.473286,42.879424,48.797646,52.768197,41.968976,55.237596,61.288828,64.944205,50.089588,63.037291,67.635597,70.052384,5.786247,14.193478,21.73233,26.61335,21.614742,44.212589,56.644764,66.171112,23.239975,49.092579,63.751202,71.894703,24.09565,48.749428,60.751877,69.067783,24.801121,42.685204,51.617432,58.388958,-24.256889,-38.857033,-47.687929,-55.574537,-25.412888,-30.508794,-31.661397,-32.40782,-12.307475,-16.840511,-19.476327,-20.31391,0.099573,-2.380509,-6.198753,-10.079612,12.750997,12.587266,9.461923,5.243444,45.145254,296.90549,-120.251226,-115.665592
53,-0.57003,-0.762865,-68.43647,23.173849,-26.984596,-51.156807,-72.962379,-89.281082,-58.746643,-91.477547,-108.411598,-121.258507,-52.612724,-88.632488,-108.787479,-124.260693,-44.010773,-77.401772,-96.751671,-111.438618,-34.279289,-59.261627,-74.206581,-87.335186,-15.039251,-13.339942,-0.54044,9.898715,12.794871,28.038577,35.091154,39.827101,29.548004,43.327979,49.369207,53.244231,42.095441,55.654041,61.888239,65.609257,50.523817,63.863449,68.70814,71.264915,8.89595,26.893902,39.131699,39.094849,61.224518,106.14893,118.762608,120.125141,65.11385,114.529324,127.859402,127.729797,66.572456,109.723892,122.23526,124.560528,66.724491,101.210861,113.778706,118.890038,-35.686397,-61.876661,-82.776396,-99.097277,-55.893725,-67.549702,-71.416729,-73.287766,-40.68818,-48.781189,-55.46192,-60.334846,-24.747651,-33.399594,-38.63115,-43.104412,-10.203484,-18.474488,-23.410631,-27.863515,45.687761,296.533027,-187.575159,-92.101342
54,-0.127831,0.10337,-7.839317,1.407292,-27.058525,-51.499786,-73.185253,-89.372635,-58.909035,-91.438465,-108.361473,-121.25845,-52.716522,-88.289909,-108.425617,-124.127312,-44.063988,-77.192917,-96.545105,-111.392097,-34.101219,-58.641014,-73.476105,-86.450615,-15.411236,-13.955902,-1.154671,9.277938,13.206005,28.044999,35.058117,39.941278,30.154949,43.383863,49.150426,53.131042,42.499968,55.41272,61.377687,65.08549,50.46713,63.509743,68.190671,70.629565,10.280743,27.419014,41.556129,44.323711,55.778961,98.838043,117.356243,127.936592,61.603718,106.462383,127.499199,138.28331,65.089188,105.269337,124.300747,133.65097,66.529999,96.371098,110.941143,119.499378,-35.410465,-60.996903,-82.605363,-102.878965,-59.82911,-65.725626,-66.513592,-67.106735,-44.228702,-52.118845,-54.3288,-56.512356,-26.925032,-35.972733,-39.343318,-42.143267,-9.701298,-19.456351,-24.310952,-28.17733,45.799685,296.614615,-195.174723,-90.715832
55,0.129776,0.553345,-0.751019,-0.588852,-27.217484,-51.529312,-73.212719,-89.127159,-58.872871,-91.320305,-108.209038,-121.074944,-52.65255,-88.307877,-108.294582,-123.931618,-44.20578,-77.447834,-96.616516,-111.18948,-34.580269,-59.432831,-74.031887,-86.523914,-16.078511,-14.957061,-2.157992,8.772572,12.472657,27.06996,33.952167,38.456181,29.832736,42.66972,48.260973,52.02429,42.381037,54.794599,60.712635,64.374557,50.381852,62.835552,67.459855,69.952843,11.343956,26.588631,39.710712,41.553497,53.330498,93.326283,113.461533,127.390537,58.141823,100.737305,123.167038,138.881836,61.726742,100.435696,120.944195,134.414005,63.95565,93.380527,108.292465,119.736328,-34.240202,-59.592266,-80.793869,-99.552007,-58.917998,-63.843133,-64.82038,-65.999751,-43.059149,-49.188819,-51.436488,-54.347078,-25.406528,-34.440428,-38.393844,-41.947765,-8.303918,-17.813388,-22.343707,-26.58701,46.247663,297.083378,-195.607538,-91.389267
56,-0.680237,0.316718,1.674156,-1.071617,-27.106476,-51.363029,-72.957802,-88.792706,-58.723183,-91.385365,-108.253155,-121.041183,-52.361526,-88.309994,-108.167782,-123.704166,-43.901939,-77.205963,-96.131401,-110.621681,-34.37851,-59.323769,-73.81937,-86.231346,-16.215041,-15.065186,-2.415676,8.105236,12.338906,26.632891,33.449148,37.90123,29.756165,42.513183,48.119379,51.957229,42.307122,54.796019,60.642116,64.314968,50.184128,62.614609,67.068481,69.545907,10.974483,26.011391,39.261532,41.212692,50.793686,89.170704,109.050236,123.395691,55.171337,96.857815,119.434547,135.6007,58.321495,96.397533,117.575111,132.194424,60.202847,89.613132,104.348831,116.187229,-32.647813,-57.634932,-78.656625,-97.772561,-56.017905,-61.633765,-61.946933,-61.997769,-40.808007,-47.483211,-48.831037,-49.729475,-23.525888,-31.932003,-35.181988,-37.404046,-6.251488,-15.678183,-19.451534,-22.41858,45.965137,297.007579,-193.535671,-92.8534
57,-0.402489,0.295043,3.13242,-1.956593,-27.162552,-51.368752,-73.04472,-88.867493,-58.543968,-91.408253,-108.057575,-120.570374,-52.127151,-88.351536,-107.987995,-123.273525,-43.585739,-77.062111,-95.855827,-110.196133,-34.037132,-59.186096,-73.686562,-86.00956,-16.278026,-15.149599,-2.353308,8.569043,11.782287,26.12592,32.944956,37.433285,29.356084,42.098776,47.73313,51.631557,42.072655,54.529689,60.535164,64.328739,50.190735,62.362544,66.784676,69.20381,9.981308,24.817257,38.264065,39.78138,48.866444,86.771736,106.532078,120.629139,54.563427,96.048317,118.955669,135.070324,58.569202,95.975819,116.550007,130.574512,61.112995,90.40741,104.771004,116.1763,-31.56079,-56.234865,-76.241304,-94.775104,-52.496433,-57.977879,-57.496858,-56.862404,-36.330145,-43.781876,-45.23545,-46.073495,-19.335814,-28.356962,-32.082735,-34.491156,-3.064148,-12.545769,-16.187654,-18.980502,45.668793,296.897602,-190.297108,-95.215013
58,-0.004921,0.43602,3.08012,-1.809534,-26.99192,-51.359596,-73.128033,-88.701382,-59.266434,-91.725998,-108.409367,-120.846291,-52.803612,-88.633289,-108.204632,-123.349686,-44.174423,-77.365723,-95.979137,-110.035858,-34.618378,-59.834747,-74.299679,-86.423893,-16.647788,-15.563821,-2.903134,8.065345,11.58413,25.667423,32.571613,37.306882,29.214243,41.77897,47.469394,51.506513,42.023008,54.43799,60.276553,63.992137,50.237295,62.269671,66.532549,68.784463,8.118095,22.593269,36.208763,38.277512,46.431656,83.757591,103.365383,117.490196,53.150654,93.356552,116.00069,132.073231,57.716103,93.749428,113.908939,127.80098,60.460911,89.235821,103.085918,113.815384,-29.975842,-54.746619,-73.927794,-92.493843,-50.52976,-55.930575,-55.563438,-54.882207,-34.239492,-41.646516,-42.924888,-43.2712,-17.458848,-26.249483,-29.830698,-32.151433,-1.316735,-11.355407,-15.420498,-18.441514,45.861025,297.168099,-187.019835,-97.190069
59,0.132866,-0.917364,1.311035,-1.93498,-27.045822,-51.311188,-73.085403,-88.906918,-58.700294,-91.27121,-107.974205,-120.63343,-52.303162,-88.140621,-107.830181,-123.223686,-43.654861,-76.874943,-95.68903,-109.926968,-34.045486,-59.393005,-74.033947,-86.36713,-16.173791,-14.684248,-1.75649,9.203714,12.471607,26.367796,32.991084,37.623353,29.894856,42.281063,48.095296,52.23313,42.568696,55.086061,60.876088,64.604331,50.747847,63.129854,67.432006,69.77599,7.400951,21.790524,35.019722,36.606789,45.79319,82.491703,102.170792,116.577587,52.295437,92.059479,114.639702,130.63076,56.539764,92.337799,112.502632,126.614056,58.761806,87.591534,101.848984,113.104248,-28.873999,-52.958666,-71.798223,-90.32523,-48.592202,-53.788036,-54.168557,-53.985591,-32.51363,-39.288746,-40.885349,-41.510804,-15.793254,-24.008684,-27.501102,-29.617041,0.426016,-8.980023,-12.779001,-15.346614,46.172504,296.096251,-185.530186,-99.279534
60,-0.392418,0.508762,1.29015,-1.466325,-26.539879,-50.940056,-72.455177,-87.977257,-58.504143,-91.410198,-108.211956,-120.683956,-52.03434,-88.303242,-108.097801,-123.333378,-43.306847,-76.904812,-96.015816,-110.60194,-33.437462,-58.384323,-72.860527,-85.210476,-16.223809,-14.915565,-2.297301,8.468884,12.328532,26.348222,33.134839,37.825647,29.704356,42.302984,47.971919,52.03701,42.273838,54.758722,60.635508,64.35066,50.319793,62.802022,67.253053,69.659775,7.004185,21.105194,34.293823,36.276512,44.93042,81.114979,100.743828,115.299854,51.054153,90.484657,113.361912,129.601994,54.946804,90.575008,110.992813,125.376492,56.7766,85.377903,99.736118,111.262836,-28.833645,-52.281913,-70.687225,-88.589179,-47.51756,-52.319627,-52.697308,-52.412113,-31.250463,-37.936412,-39.56724,-40.137135,-14.484578,-22.428336,-25.708086,-27.555905,1.740096,-7.427556,-11.168704,-13.57836,45.900021,296.567932,-184.120102,-100.78294
61,0.658493,0.238295,0.119419,0.48332,-26.62468,-50.929184,-72.812862,-88.381004,-58.52211,-90.883312,-107.557526,-120.372562,-52.261848,-87.873573,-107.680664,-123.318672,-43.69709,-76.878891,-95.921803,-110.539227,-33.945694,-58.714943,-73.189087,-85.685978,-16.307543,-15.6788,-2.999403,7.717381,12.084309,26.335686,32.962802,37.490034,29.598701,41.986266,47.568565,51.485209,42.228884,54.420638,60.384863,64.228827,50.386237,62.999252,67.581812,70.105428,6.848087,20.838947,34.073639,36.591911,43.297749,79.101505,99.313717,114.833679,48.938942,88.261814,111.813927,128.674335,52.361984,88.219643,109.174747,123.948441,53.928738,83.13858,97.990837,110.033398,-29.199238,-52.697709,-71.293213,-89.451415,-47.409944,-52.685853,-53.389206,-53.366173,-31.04681,-37.898713,-39.60321,-40.212409,-14.066157,-22.219126,-25.692648,-27.343299,2.48249,-6.966867,-11.059283,-13.56425,46.633015,296.593095,-183.926182,-100.512751
62,0.18116,0.355188,0.905399,-0.929035,-26.433449,-50.493164,-72.182636,-87.618771,-58.030128,-90.188141,-107.007179,-119.979172,-52.011223,-87.388916,-107.40778,-123.213043,-43.778915,-76.816006,-95.791054,-110.409222,-34.269562,-58.979301,-73.472843,-85.952168,-16.154834,-15.834535,-3.564357,6.963162,12.041083,26.252817,32.895926,37.347575,29.5154,41.923713,47.297419,51.094884,42.073705,54.282317,60.10359,63.98059,50.046548,62.447759,66.89663,69.411045,5.852337,20.700302,34.670219,37.272606,43.608742,79.014702,99.164143,115.419846,49.385719,88.436737,112.013397,129.390907,52.733974,88.849068,110.134392,126.234684,53.946762,83.690071,98.676968,111.687927,-28.729441,-51.429294,-69.721526,-88.015888,-46.200825,-51.060999,-51.760893,-51.366602,-29.687344,-36.215721,-38.36354,-39.078378,-12.768225,-20.197726,-23.63883,-25.129732,3.778631,-5.009842,-8.89033,-11.212732,46.861725,296.775614,-182.973232,-101.614456
63,-0.242043,-0.000679,1.41964,0.132424,-26.410103,-50.408592,-72.064991,-87.215996,-57.837296,-90.494328,-107.346554,-120.248966,-51.488571,-87.334499,-107.343349,-123.128529,-42.841644,-75.888462,-94.877529,-109.639378,-32.992287,-57.649612,-72.281685,-84.981937,-16.050538,-15.668797,-3.391209,7.321129,12.29426,26.424113,33.015784,37.473052,29.732021,42.218201,47.800191,51.899739,42.236232,54.743593,60.913817,65.110437,50.051673,62.740333,67.377048,70.078134,5.979996,20.160656,33.806934,36.483879,43.769188,77.818794,97.277641,112.854137,49.723091,87.737617,110.769196,127.764359,53.093204,88.329735,109.132462,124.868717,54.041977,82.708626,97.459831,110.284882,-29.119704,-51.493838,-69.228603,-86.484046,-45.309272,-50.338967,-51.163767,-50.817378,-28.980364,-35.67099,-37.618706,-38.26054,-12.405133,-19.773038,-23.256255,-24.737524,3.654173,-4.432599,-8.238678,-10.43829,46.684856,296.671178,-181.488419,-101.585788
64,0.291367,0.061195,0.820198,0.026398,-26.129265,-50.405159,-72.401676,-87.760277,-57.951393,-90.892353,-107.625217,-120.449295,-51.554832,-87.861614,-107.767525,-123.479805,-42.916031,-76.635876,-95.8041,-110.722275,-33.09391,-58.251801,-73.034821,-85.777588,-16.597831,-16.266911,-4.085469,6.867078,12.062387,26.077261,32.585569,36.910815,29.80044,42.031529,47.550164,51.520345,42.484777,54.560873,60.465201,64.358317,50.553951,63.117998,67.546923,69.919374,6.363144,20.49511,33.541031,36.324062,43.3041,77.809181,97.704792,113.630161,48.474598,86.707077,110.157394,127.21035,51.385345,86.705418,107.908573,123.597851,52.177963,81.093636,96.111832,109.048061,-28.789431,-51.628778,-69.503794,-86.980704,-45.294035,-49.68256,-50.512254,-50.437706,-28.464069,-34.59431,-36.571434,-37.3121,-11.524078,-18.995909,-22.623962,-24.311786,4.842375,-3.773074,-7.736246,-9.903222,46.994133,296.467989,-180.650311,-101.823774
65,0.165482,-0.066073,1.285686,1.690912,-26.231575,-50.352173,-72.405682,-87.96278,-58.298264,-91.279907,-107.865601,-120.621529,-51.767349,-88.104172,-107.901249,-123.358326,-43.057022,-76.81572,-96.021938,-110.771255,-33.2341,-58.574867,-73.437653,-86.176701,-16.57838,-16.305999,-4.039094,6.728016,11.866206,25.985067,32.540059,36.971021,29.564553,41.882711,47.609506,51.781549,42.338058,54.378401,60.255064,64.110204,50.704684,63.173141,67.439786,69.637916,5.21101,18.797379,32.168541,35.319157,42.354298,76.280251,95.85062,111.552715,48.208981,85.510883,108.421326,125.274296,51.615028,86.113186,106.868992,122.564793,52.811108,81.09066,95.868416,108.604717,-29.389522,-51.86343,-69.546046,-86.601618,-46.068092,-50.392921,-51.229037,-51.265655,-29.935149,-35.875693,-37.66434,-38.53289,-13.408701,-20.677156,-23.933132,-25.330575,2.847991,-5.585325,-9.375472,-11.446612,47.206907,296.349073,-179.317331,-100.185705
66,0.381203,0.04409,0.560188,3.005362,-26.058311,-50.267487,-72.255821,-87.826481,-59.162636,-91.453285,-107.853813,-120.546684,-52.76413,-88.316116,-107.903538,-123.307686,-43.936157,-77.032127,-95.89674,-110.407848,-33.808022,-58.919678,-73.603477,-86.201763,-16.794754,-16.432526,-3.999451,6.651878,11.664653,25.767459,32.375618,36.88136,29.325703,41.509059,47.169658,51.199304,42.219806,54.154617,60.031404,63.853693,50.765075,62.945838,67.220819,69.395792,4.567738,18.063927,31.527443,35.668831,41.076965,75.736656,95.827675,111.967678,47.111034,85.426369,108.963947,125.950871,50.402699,86.235123,107.998066,124.531803,51.545734,81.165104,96.206646,108.837261,-28.828519,-51.443959,-69.358217,-86.115612,-45.222374,-50.460229,-51.310486,-51.314438,-29.495115,-36.096605,-38.124426,-39.147106,-13.171023,-20.640137,-23.93094,-25.571926,2.815819,-5.579613,-9.53167,-12.212255,47.619867,296.453678,-178.725386,-97.119828
67,0.448036,0.068605,0.268364,4.024213,-26.445465,-50.435028,-72.389259,-88.165054,-59.64283,-91.330147,-107.531147,-120.100708,-53.508339,-88.266621,-107.570972,-122.752876,-44.802818,-77.083225,-95.412998,-109.440193,-34.668045,-59.357071,-73.752193,-85.94553,-16.873609,-16.261168,-3.645744,6.878934,11.963278,25.579985,32.059085,36.74977,29.620561,41.696101,47.197939,51.132799,42.326943,54.65918,60.299524,63.95237,50.492818,62.908973,67.113991,69.159412,5.665112,19.812069,33.189926,36.963959,41.96909,76.852512,96.847057,113.340168,47.053699,84.875679,108.380699,125.592384,49.504108,85.156631,107.040768,123.598824,49.931316,79.313049,94.698143,107.585449,-28.470861,-51.079045,-68.870219,-85.838846,-43.631853,-49.573617,-51.158765,-51.710551,-27.572948,-35.085071,-38.171202,-39.926427,-10.712585,-18.979946,-23.384541,-26.149262,6.135521,-3.001749,-8.015728,-11.836535,48.366795,296.772233,-178.158131,-92.845666
68,0.881996,-0.315483,0.419598,7.436015,-26.266708,-50.262108,-72.314529,-88.141251,-58.850327,-90.942993,-107.415447,-120.276775,-53.057899,-88.207111,-107.94857,-123.739071,-44.593163,-77.209511,-96.156635,-110.799923,-34.629936,-59.431229,-74.076462,-86.822205,-16.530956,-15.977055,-3.57998,6.890481,11.982235,25.388991,31.611086,36.039763,29.233016,41.263725,46.901784,50.946128,41.659668,53.931575,59.746982,63.569826,49.822517,62.613806,66.988823,69.219989,7.437115,22.741985,37.256298,42.465763,42.771206,78.130188,97.912388,114.364986,46.82436,85.169678,108.418007,125.649662,48.541718,85.531654,107.778111,124.046459,48.297958,78.817177,95.246716,108.446903,-27.796701,-49.386189,-67.104358,-83.895592,-42.081269,-48.547371,-50.288054,-50.690234,-26.663149,-34.052882,-36.966051,-38.36056,-9.770181,-16.967778,-21.311827,-24.100692,7.51802,0.384304,-4.19909,-7.965464,49.664297,296.54141,-177.323027,-85.32499
69,0.712624,0.43639,0.415821,12.578806,-26.801949,-50.748253,-72.674446,-88.233948,-58.996239,-90.747643,-107.386322,-120.268078,-53.107681,-87.828655,-107.588596,-123.516254,-44.683228,-76.877975,-95.464783,-110.014343,-34.848175,-59.113197,-73.446636,-85.974712,-16.389177,-15.961123,-3.810803,6.899559,11.730541,25.756344,32.211608,36.645597,28.974034,41.345668,46.929634,50.995713,41.412482,53.974862,59.891416,63.796327,49.349694,62.211194,66.9372,69.441055,11.354256,28.740692,43.289394,47.075386,45.691166,79.383602,98.759251,115.147018,47.80838,84.88163,107.608395,125.532303,48.089275,83.658886,105.714569,122.585793,46.770916,75.988884,92.316227,106.028252,-27.178703,-48.833337,-66.194265,-82.836495,-42.417006,-47.843416,-49.109115,-49.013124,-27.988127,-33.562831,-35.888413,-37.116691,-10.947298,-16.019076,-19.61474,-22.388168,7.125164,2.519232,-0.92817,-4.21391,50.725536,298.164041,-176.55859,-71.559943
70,0.242615,-0.169505,2.778339,15.804061,-26.716919,-50.579567,-72.328491,-88.760204,-58.433189,-90.588112,-107.307072,-120.319748,-52.422066,-87.50021,-107.337627,-123.279305,-43.927917,-76.465473,-95.18795,-109.762802,-34.015961,-58.700066,-73.241901,-85.912056,-15.679726,-14.883393,-2.708126,7.276607,12.113084,26.370575,32.834855,37.321702,28.997746,41.628114,47.177191,51.279024,41.273667,54.117691,60.334105,64.636935,49.097197,61.969996,66.823826,69.711213,12.852287,31.499691,47.560844,55.252647,50.097485,81.012211,99.912472,116.201191,50.732632,85.585384,107.744007,125.830936,49.744034,83.409576,105.296803,122.442513,47.293682,75.51733,91.62426,105.9062,-26.669138,-46.982369,-62.981499,-77.384814,-39.480249,-44.000843,-44.775285,-43.181816,-25.846654,-30.368883,-31.978686,-31.970689,-9.708554,-13.12786,-16.075207,-18.270743,7.605798,5.572048,3.368886,0.82514,50.955763,297.944626,-173.792639,-55.805792
71,-0.033302,0.232861,4.045143,17.81098,-26.365356,-50.335464,-71.939735,-87.969761,-57.802849,-89.67659,-106.399956,-119.485817,-52.176361,-86.969261,-107.086945,-123.434601,-44.010201,-76.31258,-95.21925,-110.139084,-34.335251,-58.722267,-73.257065,-86.098652,-15.772784,-14.968609,-3.11185,6.60538,12.043306,26.289312,32.944277,37.45675,28.901231,41.557657,47.208437,51.41611,41.240877,53.921263,60.118596,64.44168,49.206433,62.008837,66.873288,69.725848,15.455475,35.578995,52.447186,63.238392,52.829018,84.463348,103.730965,120.518303,50.057888,85.278225,109.089947,129.761467,46.342335,79.010296,101.579647,119.654675,41.386356,68.135777,84.125862,98.057442,-26.056729,-43.959655,-59.13627,-72.309084,-34.736706,-36.338543,-34.001629,-30.152572,-22.100905,-22.321909,-20.785096,-18.474396,-7.71312,-6.377243,-6.340378,-6.45545,6.907586,8.566017,7.757241,6.279739,50.968637,297.47381,-169.701319,-38.698489
72,0.408897,0.095096,6.730671,30.43315,-26.173782,-50.25444,-72.124786,-88.744469,-57.409058,-89.517345,-106.549931,-119.870625,-51.485367,-86.549149,-106.843414,-123.295097,-43.152695,-75.815277,-95.002842,-110.165691,-33.380127,-57.995224,-72.801418,-85.878868,-15.778959,-15.380237,-4.031437,5.363147,11.885225,26.160624,32.807438,37.353503,28.820152,41.573033,47.232952,51.509971,41.248596,54.096387,60.184483,64.497009,49.246077,62.260532,67.099356,70.145566,17.682924,40.948448,59.720048,69.041919,61.572589,100.372982,115.174198,123.153963,58.811245,102.288866,118.211374,125.765447,53.823795,94.743862,109.89006,116.608686,47.285556,80.611152,94.03759,101.044721,-27.261463,-44.310243,-58.155658,-68.751287,-36.435274,-34.621572,-27.952203,-21.866484,-22.050578,-19.454405,-12.844579,-7.832777,-5.393528,-3.09757,0.452569,2.65073,11.809134,11.525298,11.601375,11.477673,51.370525,295.335548,-162.977657,-10.498697
73,-0.514641,2.058697,6.73067,30.433151,-25.675278,-50.045929,-71.980534,-88.726673,-58.870811,-90.50703,-106.992931,-119.533539,-52.810593,-87.415009,-106.797981,-122.093983,-44.348831,-76.211929,-94.364605,-108.490562,-34.39064,-58.664818,-72.967701,-85.268612,-17.834075,-17.727741,-4.84185,5.165422,11.501446,25.214916,31.990974,36.662146,29.386157,41.368021,46.736417,50.905866,42.098837,53.688031,59.066739,62.813013,50.020736,61.686006,65.958085,68.677573,19.910374,46.317902,66.992912,74.845448,70.316162,116.282616,126.617432,125.789623,67.564602,119.299507,127.332802,121.769428,61.305256,110.477428,118.200474,113.562698,53.184757,93.086529,103.949318,104.032001,-28.466199,-44.660831,-57.175046,-65.193491,-38.133843,-32.904602,-21.902779,-13.580398,-22.000252,-16.586902,-4.904063,2.808841,-3.073936,0.182102,7.245515,11.756908,16.71068,14.484578,15.445507,16.675606,50.850477,295.189308,-156.252394,17.729516
74,0.785866,-0.096948,-0.994778,22.673578,-26.539078,-51.0355,-73.016739,-89.439983,-59.022789,-90.995293,-107.91378,-121.088791,-52.915077,-87.633362,-107.34827,-122.967281,-44.490852,-76.558914,-95.22583,-109.682693,-34.607506,-59.05529,-73.705387,-86.342354,-17.587011,-17.600658,-5.19006,5.126396,11.407277,24.971805,31.499194,36.161906,29.326629,41.207902,46.574384,50.58921,42.204739,54.038527,59.682205,63.656709,50.409331,62.348403,66.707673,69.387888,26.890697,55.476322,76.811771,86.434479,67.011337,112.562943,128.88176,135.479507,60.81522,111.685867,128.855095,134.991131,53.690071,102.234478,121.016464,130.309868,46.281338,83.171539,100.463619,113.050919,-28.948655,-44.781584,-56.648346,-63.06724,-29.33336,-20.890535,-9.648811,-1.439279,-13.539148,-6.8756,2.789637,6.855839,2.78093,7.658626,13.520098,16.427647,19.612548,20.186488,21.480313,20.339752,51.592398,293.506655,-157.291117,38.81739
75,-0.061226,0.152832,8.653221,46.731106,-26.51722,-50.956192,-72.79232,-88.727074,-58.884773,-91.042156,-107.992344,-120.979786,-52.613182,-87.669926,-107.317028,-122.786064,-44.25087,-76.532192,-94.929371,-109.271278,-34.761543,-59.546127,-74.078178,-86.651745,-17.75312,-17.798877,-5.656585,4.757869,11.364669,25.200899,31.98307,36.609967,29.363,41.428907,47.072277,51.199798,42.381963,54.216615,59.816389,63.632565,50.673932,62.389652,66.684393,69.349418,16.462383,44.007683,66.712074,81.002483,59.340763,106.486301,123.07497,127.963428,60.178242,109.901733,126.976719,131.73151,57.272015,103.798714,120.757599,126.331043,52.213097,88.503571,105.556355,114.28299,-26.260227,-41.673655,-52.932608,-64.339946,-30.731513,-24.304653,-17.724221,-14.69879,-11.876549,-6.109555,-1.741331,-1.037839,7.770394,11.744033,12.840782,11.231721,25.57807,27.006357,25.505143,22.20903,51.574087,293.686982,-148.59498,85.57599
76,-0.308304,0.007534,-2.371731,21.387657,-26.257324,-50.766678,-72.845421,-88.568115,-59.14238,-91.209068,-107.890892,-120.505829,-52.795029,-88.014736,-107.268562,-122.18914,-44.416809,-76.677647,-94.622669,-108.214989,-35.241623,-59.986496,-74.22924,-86.224079,-18.206059,-18.051004,-5.933782,4.711248,10.865232,24.802362,31.720631,36.501657,29.056903,41.36481,47.101362,51.204862,42.26896,54.330668,59.783538,63.313994,50.69468,62.442634,66.42251,68.676215,25.707035,53.634853,75.157585,89.99445,67.876911,103.330421,122.257175,136.000614,61.660194,101.476021,124.729843,142.830448,54.958878,92.816906,116.525288,132.834949,47.786121,77.211056,94.266987,107.970085,-27.066718,-37.163096,-45.150481,-52.281789,-18.776324,-11.625133,-3.559911,4.93923,-5.490167,4.320831,10.780109,16.626144,7.874598,17.664168,21.337762,23.834825,20.35803,26.929818,28.515074,28.415347,50.52186,293.64107,-151.710634,106.910202
77,-0.052757,-1.347023,6.374416,36.815734,-26.767044,-51.373672,-73.187141,-88.493156,-59.270668,-90.969543,-107.330589,-119.703598,-52.958679,-87.721252,-106.868591,-121.892223,-44.426422,-76.194534,-93.985634,-107.512894,-34.8666,-58.957443,-72.791233,-84.670887,-17.344394,-16.785059,-4.51235,6.187824,11.109208,25.698051,32.914884,38.008984,28.940813,41.803485,48.205891,52.802345,42.00862,54.747483,60.889426,64.944946,50.425201,62.810728,67.55353,70.463333,24.512902,53.333559,76.54933,93.279162,66.806489,107.387982,126.857987,138.529473,62.431813,106.527215,128.408175,142.218876,56.210175,98.23268,120.386782,133.814965,49.183274,82.29352,100.51157,114.229231,-24.645685,-33.66492,-39.566978,-46.099245,-16.356202,-5.085146,2.763269,9.059372,-0.929467,11.034444,17.584711,21.750425,14.463676,25.647679,29.248623,30.126436,28.43926,36.374898,38.145437,37.52148,49.823427,291.773969,-145.981894,143.205859
78,0.140533,-0.729211,6.374417,36.815735,-26.62365,-51.049576,-72.936687,-88.866806,-58.918419,-90.919018,-107.548141,-120.129032,-52.561111,-87.59119,-106.986809,-122.006607,-43.94783,-76.134224,-94.302578,-107.928886,-34.311676,-58.898964,-73.147316,-85.347576,-17.152227,-16.591162,-4.168585,6.717951,11.366028,26.201811,33.37937,38.538617,29.096053,42.379122,48.532489,52.865824,42.069691,55.380054,61.485688,65.528117,50.231552,62.796032,67.568721,70.573681,23.318768,53.032265,77.941074,96.563873,65.736065,111.445541,131.458797,141.058331,63.20343,111.578407,132.086506,141.607304,57.461472,103.648453,124.248276,134.794979,50.580425,87.375984,106.756153,120.488377,-22.224653,-30.166744,-33.983475,-39.916701,-13.93608,1.45484,9.08645,13.179514,3.631233,17.748056,24.389313,26.874706,21.052753,33.631189,37.159484,36.418046,36.52049,45.819979,47.7758,46.627613,49.180384,290.480206,-140.391054,179.45704
79,0.755997,-1.095761,-3.548298,23.824606,-26.980705,-51.264496,-73.309021,-89.7258,-58.735085,-90.978413,-107.890892,-120.973148,-52.42836,-87.720566,-107.133522,-122.017136,-43.766441,-76.17651,-94.641266,-108.364735,-34.014015,-58.884087,-73.545628,-85.945129,-16.725655,-15.607602,-3.023238,7.930914,12.42974,26.473451,32.839672,37.473114,30.215773,42.904927,48.387746,52.150508,42.841633,55.916171,61.530272,65.070052,50.641822,63.468185,68.028268,70.704901,36.196175,64.644585,86.533298,105.100822,72.119751,107.909088,126.52914,139.924965,65.81892,104.615421,126.612682,142.423897,59.625092,95.541515,117.911739,133.160591,53.116264,82.66737,100.045509,114.470444,-23.311769,-29.643532,-32.242237,-33.472181,-6.42723,5.898214,13.357355,19.760688,7.585482,21.803823,26.786094,30.902067,20.432594,34.268638,38.646372,40.227059,31.710874,42.59457,45.221926,44.755217,49.395132,288.690663,-144.4806,202.587865
80,1.269493,2.394928,29.910622,24.155341,-27.036438,-49.309387,-68.211536,-80.434341,-60.344925,-91.940918,-108.547897,-120.692196,-55.923271,-89.851112,-109.613914,-124.018421,-48.363304,-79.844856,-98.766689,-112.523918,-39.123001,-62.991142,-77.184219,-89.451485,-15.708811,-17.300057,-12.684646,-7.08975,9.355928,22.50043,29.62371,34.36114,25.713366,39.460983,45.658687,48.929359,38.444448,51.556345,57.181252,59.085079,47.691387,59.80336,64.596921,66.59961,23.755646,47.537041,65.925465,75.102139,67.972641,100.908966,100.946274,88.593178,66.605358,100.907936,95.904522,78.648205,58.40498,90.29726,88.059025,75.124683,48.434143,77.582874,82.890301,75.597782,-18.770643,-17.547738,-12.671555,-7.943202,7.024789,48.816479,71.391257,83.339653,25.011634,68.394633,93.582873,107.707847,43.011755,80.511237,99.065445,108.771313,58.199208,80.070771,91.051291,94.390198,50.005274,290.070368,-115.22933,225.727983
81,3.556366,-3.036762,-13.121052,19.524801,-30.000458,-54.728394,-75.09819,-90.387211,-59.403305,-88.743496,-106.84267,-121.651154,-54.834366,-85.90416,-106.895084,-124.222469,-48.240738,-77.021198,-96.25042,-112.503319,-40.178947,-61.731606,-75.772247,-88.955612,-12.11753,-13.205943,-11.033811,-10.031416,18.231192,27.319494,29.78457,29.734491,30.792399,42.557643,46.391417,47.905661,39.897435,53.067131,57.958196,59.453482,45.976207,57.719716,63.69839,67.374393,30.515957,60.976982,86.217442,101.856594,63.724079,102.063904,121.058865,133.92271,59.013462,100.979004,122.78223,136.054058,54.363842,93.179111,113.827229,125.554905,49.715538,80.305824,97.011623,106.846905,-19.561419,-21.586339,-17.616158,-14.149057,8.119376,24.708254,31.013156,35.762442,28.110331,43.170948,47.204053,48.486794,42.50602,56.671255,60.001579,58.798248,51.562829,62.215393,64.311449,62.515129,53.316851,285.998932,-128.595171,244.218109
82,0.707359,-4.994435,0.206108,11.313355,-27.824135,-52.541885,-69.280128,-80.701962,-59.712753,-86.986542,-105.488491,-120.88829,-56.749191,-87.264404,-109.088573,-128.055897,-50.843239,-78.573189,-98.535976,-116.721668,-41.797714,-62.835159,-77.691021,-92.359657,-12.732379,-11.56647,-2.665086,3.833651,17.806287,21.821731,21.07029,19.003751,31.426575,40.112635,42.782661,43.662049,41.769584,53.239538,58.86321,61.668593,49.162961,61.322605,67.945893,72.619473,34.374275,62.13438,85.033665,102.672901,68.340683,100.278854,119.124126,132.462444,60.582848,96.477585,117.801533,132.386456,52.909241,83.711758,103.450241,117.622433,45.179272,68.735733,82.877941,92.894382,-15.110017,-15.382583,-10.590628,-7.715961,15.348312,30.178353,37.881284,43.814573,32.50307,48.830126,54.306894,57.85711,44.062562,60.07148,65.153971,66.822714,50.369873,62.905083,66.497228,67.151968,53.76626,280.074258,-128.647013,254.601225
83,1.858177,2.549304,4.24118,13.683644,-25.053291,-50.886726,-69.755402,-85.832405,-56.243134,-80.589924,-99.643822,-118.085403,-54.567947,-81.456585,-103.610516,-124.348412,-50.646744,-76.216793,-97.879028,-118.014107,-44.323654,-64.14299,-80.131359,-96.389008,-13.981158,-15.851393,-11.439573,-6.198074,16.224859,20.186951,15.780009,8.282274,31.10572,36.729269,31.491166,23.703019,42.903877,52.2737,52.074061,47.393071,51.002506,65.336197,70.368793,71.518339,33.395576,61.827793,85.930309,105.098419,64.479561,98.711815,118.495388,132.522182,55.805969,95.073395,117.937374,133.867664,48.428078,82.607861,103.679066,119.341335,42.362652,68.856239,84.869442,97.618904,-14.860051,-14.663685,-10.291756,-6.334851,18.15987,33.104766,41.151154,47.74511,35.857847,53.192299,59.441996,64.404259,46.934389,63.66029,68.020734,70.213676,52.545278,66.108139,69.833726,71.625414,55.409117,282.257737,-124.621153,267.919044
84,-2.002602,0.752491,5.603943,7.109448,-29.318848,-58.002434,-78.082066,-95.942802,-66.860619,-83.055725,-81.206417,-72.811203,-61.94664,-78.663311,-75.131149,-65.075569,-55.561409,-72.583981,-68.783455,-59.562721,-46.627922,-60.205421,-62.704239,-60.007324,-13.55119,-12.197744,-6.621126,-8.023787,13.933054,27.881484,36.508264,39.691436,27.217791,41.015797,49.754715,53.035823,38.093829,52.452344,58.675859,59.901605,46.993113,59.60298,64.080564,65.597216,33.164062,62.417393,88.691883,109.244785,62.542534,96.919498,115.799732,129.572926,53.942871,92.562561,115.157032,130.806942,46.435947,79.971371,100.539207,115.539379,40.061474,65.638676,81.42992,94.068947,-12.535889,-10.872333,-4.272141,-1.395312,20.967167,35.793071,42.581849,47.95043,38.181268,55.470086,62.387367,66.98061,49.196924,66.509701,72.759708,75.715021,55.050925,70.035959,74.465686,76.311962,53.049231,282.722594,-119.374495,274.740859
85,-0.834846,0.739585,5.274868,6.985886,-27.738991,-50.697212,-65.753403,-74.370804,-58.957672,-76.277218,-76.380844,-72.68486,-54.204025,-71.758003,-70.133972,-64.862366,-46.710663,-62.954521,-60.282784,-54.566345,-37.163773,-49.678116,-51.582756,-50.788879,-17.624123,-19.446378,-12.100425,-7.941473,9.733347,25.326376,32.522645,34.251472,25.571031,41.731546,48.44116,49.821714,37.84374,53.503891,58.476652,58.285596,47.463837,59.629471,64.398578,65.14792,30.341606,58.238697,83.562183,103.381577,59.935799,95.09016,114.00753,127.643967,51.713104,91.181431,114.313774,130.65731,44.642601,81.082134,102.139091,117.316475,38.836384,67.354546,83.53014,97.246857,-13.385081,-12.060226,-5.20908,-4.610224,20.149098,35.889772,43.245604,49.464241,37.396914,53.508523,60.334413,64.804834,48.899657,64.615693,70.434125,73.11996,55.686151,69.667371,73.523869,75.353781,51.866999,283.395828,-114.447012,281.660394
86,-1.280251,-0.899518,7.92429,1.865233,-26.400604,-50.553589,-67.759438,-79.821453,-53.638115,-66.943588,-64.838448,-59.663773,-47.689934,-61.604004,-58.134613,-51.363029,-40.074692,-53.231735,-49.295998,-42.967529,-31.322937,-41.858368,-42.338219,-40.384254,-15.584322,-15.54369,-7.334961,-3.265918,14.726362,32.613974,40.854258,43.717624,29.936353,47.870648,55.364493,57.951527,40.762558,56.781789,63.083356,64.883566,48.236458,60.873062,67.540995,70.713978,29.130192,56.721325,80.816746,100.5863,58.790245,93.936481,112.662449,125.920429,49.952545,88.299007,110.795002,126.397991,41.637554,76.767368,96.805172,111.372356,34.313679,62.056332,78.109303,92.021542,-14.088171,-12.060843,-3.857363,-3.726576,21.025027,37.101747,44.598371,50.334305,38.287478,55.524982,63.002896,67.140914,49.520558,66.446469,72.687954,75.134258,56.175091,70.440177,74.054429,74.984019,50.26494,282.581016,-106.84453,283.610333
87,-0.931091,2.099205,6.14233,3.316676,-24.113274,-47.726326,-64.645157,-75.907345,-51.398735,-61.671867,-56.191521,-47.854271,-46.118202,-56.281128,-47.052155,-35.868874,-39.634552,-48.671379,-40.032806,-30.853729,-32.238922,-40.45166,-36.915092,-31.886787,-13.644803,-13.735268,-6.48052,-1.278481,11.230547,28.521774,37.958349,42.01992,25.830383,43.629877,52.342366,55.288417,37.261619,52.168971,58.59583,60.114026,45.882903,57.651296,62.869823,64.378818,27.246952,53.987675,77.292366,97.06913,58.812275,95.467415,114.904747,128.901787,50.303078,89.740334,111.966248,127.464981,41.939049,77.562103,97.459373,111.979179,34.596119,63.526955,79.764462,93.446388,-15.195109,-13.880134,-5.192036,-1.943656,20.599073,34.944311,41.394574,45.862216,37.547029,52.394422,58.210878,60.840396,48.364775,63.272621,67.506168,67.761815,54.481647,67.482085,69.673484,68.828368,49.287443,284.74685,-100.748606,286.993638
88,-2.854443,1.597422,4.337883,0.317582,-22.867527,-45.80286,-61.369342,-70.973453,-61.527128,-68.089943,-56.224994,-42.925129,-59.366169,-65.338068,-48.824386,-30.740204,-54.75028,-59.800558,-44.165039,-28.495617,-48.25427,-54.057541,-45.005321,-34.985962,-6.998082,-3.568155,4.953247,11.103279,17.841299,33.65243,42.11412,46.387218,28.632091,43.382288,52.03349,55.336736,36.43123,48.86202,54.912109,56.656188,41.946221,52.617711,56.062766,57.297312,27.035065,53.758907,76.698017,96.816902,57.559719,92.865829,111.444283,124.817162,48.75618,87.735901,109.331131,124.103508,40.407715,75.305386,94.942017,108.619766,33.219395,60.928288,76.909103,90.088692,-14.795275,-12.672605,-3.573188,-1.510353,22.459366,37.235992,44.144814,49.616024,39.313523,53.835306,59.138308,62.037428,49.751381,64.329727,68.080385,68.725183,55.212896,67.734027,70.266782,70.291297,46.442785,286.380504,-96.400938,287.347453
89,-2.854442,1.597421,1.726627,-1.071555,-21.62178,-43.879395,-58.093529,-66.039562,-71.655521,-74.508018,-56.258469,-37.995987,-72.614136,-74.395008,-50.596619,-25.611534,-69.866009,-70.929737,-48.297272,-26.137505,-64.269619,-67.663422,-53.095551,-38.085136,-0.35136,6.598958,16.387016,23.48504,24.452052,38.783087,46.269892,50.754516,31.4338,43.134701,51.724615,55.385056,35.600842,45.55507,51.228389,53.19835,38.00954,47.584126,49.25571,50.215806,27.604237,53.965244,76.070538,95.52618,58.632832,91.717129,109.346981,122.355022,49.063339,85.825024,106.05978,120.311108,39.531956,72.748547,91.697102,104.819813,31.065845,57.758274,73.542881,86.346302,-14.06625,-11.895352,-1.960946,2.7587,21.700639,38.299829,45.627071,50.691469,38.621733,54.217911,60.044495,63.207413,49.169568,64.590252,69.149408,70.032562,54.755943,67.852588,70.834639,70.888608,43.551264,287.97442,-94.71139,286.272394
90,-4.355278,8.902433,1.015491,-0.526669,-13.986168,-30.941734,-43.216553,-50.430107,-49.23214,-53.988876,-39.523087,-26.160965,-52.997475,-59.12693,-39.037285,-18.559685,-53.568306,-61.361904,-43.37986,-26.159363,-52.014656,-60.462742,-52.652435,-43.832932,-11.479587,-10.55648,0.279729,9.924958,3.486428,20.875097,28.950137,32.405813,18.010002,31.594537,39.505567,41.949031,29.994645,39.354402,45.014692,46.216046,40.275409,48.175695,49.917181,50.007954,27.092571,53.191853,75.109062,94.425774,56.589317,89.640427,107.542419,121.067505,47.462597,84.578018,105.465317,120.490952,38.517094,72.33387,91.783905,105.563507,30.469952,57.299309,73.262672,86.524086,-14.118491,-11.054312,-0.447629,4.486476,21.435668,37.957175,44.76238,49.336356,38.53201,54.297631,59.869,62.678397,49.319684,65.186328,69.541832,70.180949,55.194618,68.849795,71.759536,71.637703,39.15144,296.876174,-93.740444,285.745045
91,-10.510254,9.545996,0.612087,0.268553,-8.41507,-21.140785,-32.881279,-41.637611,-38.300629,-39.752312,-26.689682,-15.445404,-39.946976,-41.397057,-25.758934,-10.466537,-38.779678,-40.558319,-24.472046,-11.176758,-35.841408,-37.967262,-28.986511,-20.769424,-20.0109,-25.484086,-20.257655,-14.508136,-3.941405,8.871249,14.155726,16.38436,11.251049,23.140473,29.769874,31.762498,23.577048,30.656054,35.516614,37.236548,33.182572,38.385168,41.012339,42.68806,26.8713,52.982082,75.036907,93.956623,54.786415,88.766155,106.814289,120.521679,45.571404,83.695049,104.788456,119.833775,36.925678,71.797829,91.264744,105.034389,29.456577,57.171707,73.090553,86.077366,-13.938303,-11.489776,-1.206109,4.536,20.120384,37.01085,43.866196,48.662103,37.659909,53.707915,59.542464,62.622575,48.897743,64.991321,69.44229,70.086285,54.998437,69.01331,71.971155,71.662773,28.626766,306.450869,-93.142776,286.042296
92,15.456963,-16.420793,0.985394,-0.374887,-23.479156,-46.735497,-62.284927,-72.667065,-69.329224,-75.809097,-56.048927,-36.641808,-70.425224,-73.37019,-48.61805,-22.356377,-68.723202,-71.886578,-48.734322,-25.115547,-64.780483,-70.216999,-55.765228,-39.77314,4.953309,13.53322,24.669598,33.955749,21.751644,37.752905,46.321578,50.078102,28.536347,41.893394,50.456879,52.017621,33.547455,45.363396,51.13459,51.238948,36.051743,47.883492,49.912117,49.56545,26.604309,52.464752,74.254646,93.120346,54.511642,87.718277,105.61924,118.957558,45.032101,82.271004,103.247223,118.18428,36.011581,70.092373,89.529877,103.213005,28.145885,55.249443,71.077309,84.08329,-13.935401,-10.82849,0.084722,5.39643,21.10592,38.543372,45.584339,50.256931,38.207326,54.6761,60.627913,63.699255,48.984379,65.461303,69.977543,70.657662,54.776506,69.238329,72.278487,72.049825,44.07958,290.048015,-92.161531,285.685348
93,-3.312035,8.273197,0.563622,0.540872,-17.245216,-36.306725,-50.45723,-58.137817,-53.107338,-55.403366,-40.20504,-25.387573,-54.887123,-57.845879,-39.004898,-17.906914,-53.844337,-60.51218,-44.44622,-27.010231,-50.286484,-60.769157,-57.690353,-50.945091,-17.489754,-20.369547,-13.553907,-8.090909,6.166334,22.40694,29.0335,31.487832,22.012663,35.719958,40.58552,41.302628,34.557815,44.325557,47.183181,46.495961,44.381565,53.075899,51.946361,48.57979,26.075306,51.902332,73.320694,91.637421,54.460945,87.225494,104.913368,118.373222,44.894657,81.858444,102.755585,117.654076,35.643196,69.833794,89.366798,103.382607,27.492771,54.811935,70.790634,83.83873,-14.560994,-11.325149,-0.462325,5.106697,20.692069,38.328851,45.250764,49.543344,37.937354,54.858078,60.666692,63.330729,48.65809,65.740291,70.138897,70.643706,54.228286,68.527581,71.47746,71.262013,40.762539,298.33881,-91.602917,286.243819
94,-2.098618,-3.358419,0.234375,0.035012,-17.682495,-37.578621,-52.169437,-60.776109,-59.678278,-59.446993,-41.885662,-25.775585,-62.545509,-61.597538,-39.437828,-16.64772,-61.941261,-63.469534,-43.264789,-23.854751,-58.885259,-64.905081,-55.217113,-44.075832,-10.306237,-9.622227,-0.748786,6.946952,11.161294,28.93158,35.98922,38.3119,24.941022,39.306576,45.244341,45.881266,35.951089,47.094692,50.448326,49.780279,44.522417,54.879659,54.102376,51.581076,25.791206,51.727352,73.222618,91.963234,53.557663,86.696205,104.460411,118.220901,43.98222,81.655083,102.75032,117.806511,34.962616,70.119209,89.82502,103.850212,27.153397,55.073776,71.368046,84.589348,-14.414954,-10.916114,0.155673,5.888149,20.872751,38.482301,44.983693,48.891506,38.095743,54.805837,60.173245,62.418057,48.891074,65.734672,69.67793,69.872011,54.469236,68.825712,71.531924,71.109613,38.668241,294.966126,-91.364222,286.264567
95,-2.098617,-3.35842,0.198956,0.099233,-18.119774,-38.850517,-53.881645,-63.414402,-66.249218,-63.49062,-43.566284,-26.163597,-70.203896,-65.349197,-39.870758,-15.388527,-70.038185,-66.426888,-42.083359,-20.699272,-67.484035,-69.041004,-52.743874,-37.206573,-3.122718,1.125093,12.056336,21.984814,16.156254,35.456222,42.944942,45.13597,27.869381,42.893195,49.903163,50.459905,37.344364,49.863828,53.713472,53.064599,44.66327,56.68342,56.258392,54.582362,26.106606,51.803341,73.011417,91.769543,53.997345,86.775455,104.361477,117.855091,44.111252,81.174374,101.796055,116.560078,34.681835,69.2066,88.546658,102.432117,26.43362,54.016285,70.052719,83.079586,-14.090641,-10.36388,0.831408,6.549743,20.983593,38.272103,44.90632,49.050081,38.176883,54.63096,60.287545,63.091137,49.064654,65.626238,69.911408,70.541695,54.748162,68.742164,71.397494,71.074724,36.629763,291.610732,-91.105127,286.366825
96,-2.310791,9.675796,0.111923,0.35667,-12.514458,-28.541222,-41.795654,-49.985504,-52.255783,-49.467316,-31.676559,-17.896156,-56.774368,-54.019375,-33.110733,-12.718735,-57.390976,-59.424477,-40.874405,-23.757591,-55.400734,-67.592697,-69.726963,-68.711929,-12.336374,-13.114367,-2.788278,6.080501,6.353623,24.80724,30.34088,32.052045,21.255171,35.753612,38.908564,39.260418,32.587421,42.777783,44.42374,44.121596,41.472503,48.843711,48.407506,47.615866,26.113358,51.806545,72.908306,91.64114,53.727436,86.721325,104.224262,117.742023,43.756771,80.835285,101.467838,116.254406,34.315567,68.768692,88.317204,102.533398,26.065636,53.825397,69.854851,82.874622,-14.620151,-10.518318,0.989736,6.364862,20.825203,38.217392,44.689205,48.784801,38.085246,54.606507,60.131563,62.90323,48.830188,65.67428,69.799393,70.368423,54.072489,68.258103,70.953632,70.689587,34.34269,301.263896,-90.969486,286.700864
97,-12.76165,10.79039,0.222416,-0.061936,-5.22068,-15.439224,-25.410004,-29.612274,-41.62468,-33.088875,-14.392776,-0.250397,-48.165436,-39.002724,-17.261009,2.701492,-50.559254,-46.037407,-27.132568,-10.568619,-50.130844,-54.370136,-50.591183,-44.792404,-18.647822,-24.87461,-21.273511,-15.991134,-3.867614,9.670794,15.083279,18.822884,12.781409,23.518447,26.911015,29.133597,25.230848,32.288426,33.47743,35.017918,34.693296,39.860879,38.157556,36.676781,26.339264,51.699657,72.827911,90.86277,53.585587,86.415596,104.16172,117.896118,43.568802,80.455742,101.133728,116.263161,34.010124,67.787018,87.33902,101.897163,25.390549,51.97752,67.603283,80.668488,-14.481336,-10.606683,0.756937,6.876402,20.18868,38.054741,44.891747,48.894655,37.289592,54.573347,60.79643,63.919086,47.961545,65.588262,70.447278,71.288195,53.500742,68.560062,71.872293,71.82777,21.643524,311.816949,-90.684586,286.401591
98,-37.051506,11.556404,-0.004864,0.496782,6.886711,10.488396,10.304947,10.072289,-8.079872,9.77623,26.886406,38.669128,-13.585224,6.737137,26.10981,40.827599,-15.727444,1.197395,17.915611,30.328903,-15.65752,-8.857498,-3.649979,0.620041,-18.758972,-28.727033,-33.210545,-37.627552,-10.675658,-1.870729,2.668359,4.403669,3.417206,10.892464,15.663671,17.365883,14.152021,19.939023,22.652521,23.416003,22.411695,26.629371,26.918487,24.931111,26.293831,51.767521,72.980633,91.24918,53.79467,86.441517,104.206295,117.981091,44.059467,80.672092,101.486607,116.661472,34.714737,68.397732,88.005466,102.393665,26.229973,53.106365,68.91386,81.998463,-14.6388,-11.140083,0.083178,6.271866,19.957486,37.623847,44.305427,48.085849,37.159422,54.09614,60.200971,63.170054,48.021381,65.227145,69.905048,70.535767,53.857783,68.64429,71.66407,71.349761,-15.320578,323.211305,-90.602045,286.736324
99,56.832504,-31.413176,0.604477,0.16685,-21.04557,-46.138,-65.591469,-81.133404,-72.765026,-70.144501,-47.711678,-28.013992,-76.285229,-69.374142,-42.563667,-16.452942,-74.471226,-68.360081,-41.798172,-18.076973,-70.149136,-69.516563,-52.448273,-35.381241,10.284531,20.132116,31.590893,44.26461,21.289875,40.665487,50.11929,54.963177,25.799569,43.040284,51.61544,54.700923,29.383687,45.363026,50.383828,51.641623,31.640479,45.915507,47.848789,47.990197,26.147747,51.459446,72.807941,91.50507,53.585873,86.411762,104.18066,117.847881,43.749676,80.65527,101.507893,116.545429,34.271965,68.206043,87.781963,102.080326,25.667381,52.697411,68.452034,81.521702,-14.484238,-11.222335,0.02328,6.336704,20.057337,37.431556,44.090288,47.92221,37.162139,54.033834,60.178741,63.04785,47.988839,65.267407,69.90653,70.442338,53.788746,68.683748,71.772257,71.456527,41.61767,291.667867,-89.891825,286.772912
100,-1.669235,9.488754,0.262699,0.013091,-14.434891,-33.137741,-46.501236,-51.779137,-55.245094,-54.534302,-37.878799,-22.88578,-58.548317,-57.30217,-36.261864,-14.47998,-57.88044,-58.14743,-38.742256,-20.62706,-54.154358,-57.187042,-48.36628,-38.243523,-16.847797,-19.240626,-10.388148,-1.216854,2.673422,19.841087,27.301586,30.679581,18.340428,33.233145,39.424798,41.359438,30.979564,42.337317,45.746681,46.273659,41.010054,49.740821,49.38094,47.553684,26.040745,51.27285,72.466164,90.949059,53.423595,86.305504,104.01535,117.622375,43.451157,80.642738,101.435051,116.521568,33.914738,68.039761,87.679482,102.037697,25.364742,52.506008,68.27425,81.256371,-14.657201,-11.291989,0.197046,6.664166,19.727466,37.43242,44.130611,48.140004,36.987077,53.976776,59.979966,63.083974,47.749803,65.086293,69.684722,70.400163,53.376192,68.263043,71.407559,71.186431,40.052605,301.040128,-89.524956,286.669511
101,-11.999931,8.043732,0.41605,-0.317891,-6.916237,-18.90976,-30.154953,-37.033424,-35.607376,-34.566193,-22.203827,-10.977974,-38.238144,-37.133102,-21.287956,-4.824028,-37.819977,-36.886368,-20.993042,-6.667099,-35.035973,-34.93309,-25.582237,-16.601601,-14.23841,-19.108788,-17.644439,-15.693003,-0.089723,10.84751,15.541776,17.745154,12.383304,22.575518,28.654291,30.902747,22.13215,29.453094,33.763705,35.695814,29.623031,35.781955,38.113095,39.464071,25.948677,51.102676,72.27396,90.965023,52.786503,85.75407,103.551121,117.088909,42.594452,80.357151,101.382122,116.278553,32.953892,67.86684,87.625408,101.689968,24.584255,52.315292,68.238201,81.08511,-14.645283,-10.977371,0.74508,7.222081,20.328915,38.072896,44.70137,48.631907,37.68183,54.598356,60.39252,63.286392,48.513779,65.870893,70.137168,70.600852,54.056187,68.896231,71.92336,71.687535,28.171778,308.932417,-88.989801,286.200177
102,14.645462,-18.587245,-0.131207,0.290968,-23.308296,-49.571342,-69.436741,-85.726891,-74.738388,-75.993748,-54.739037,-34.870033,-75.258121,-72.395782,-46.715584,-20.370369,-71.062031,-67.759037,-42.36969,-18.861809,-64.625759,-66.413326,-50.869331,-33.962517,21.42307,34.586838,45.864316,57.413681,29.996498,47.609074,57.454374,63.009009,27.557109,45.032229,55.083591,58.292759,24.367824,41.074645,48.714468,51.338058,20.44729,35.652712,40.917675,43.378553,26.573181,51.757393,72.584953,90.828781,53.101616,85.987587,103.784409,117.428398,43.174839,80.280762,100.982666,115.998459,33.769684,68.022137,87.595139,101.730194,25.498409,52.820606,68.534088,81.614456,-14.816394,-11.093585,0.967135,7.374852,20.152123,37.716225,44.453875,48.507357,37.599517,54.237795,60.010285,63.20309,48.601588,65.321994,69.795194,70.552254,54.367903,69.019053,72.089901,72.022717,42.920036,290.217859,-89.018211,286.363831
103,-3.011284,9.988561,0.04612,0.044399,-16.513824,-35.422325,-47.968025,-53.778305,-60.604191,-59.123726,-39.524918,-22.990723,-64.022026,-60.150776,-36.725922,-13.189774,-63.338528,-62.015476,-39.734688,-19.028435,-59.451771,-65.65155,-58.426838,-48.699532,-14.196975,-15.763954,-4.546559,4.878653,3.291853,21.345388,29.462048,33.79421,19.809841,33.373689,39.5039,42.44112,32.993492,42.820082,45.899266,47.115441,43.222757,52.021141,50.514925,48.151304,26.300182,51.609306,72.789688,91.257133,52.922573,85.779877,103.658295,117.375984,43.017883,80.18177,101.199646,116.289482,33.48238,67.780037,87.661629,101.905632,25.018272,52.546806,68.498211,81.596031,-14.693202,-10.691713,1.362029,7.97945,20.987977,38.262161,44.778991,48.630055,38.11785,54.610212,60.321693,63.235571,48.862792,65.833658,70.199597,70.712805,54.366051,69.142677,72.18512,72.04507,40.010033,300.064873,-88.870811,286.266682
104,-5.701218,7.795928,-0.680809,0.009139,-11.411133,-27.504845,-38.928566,-41.951981,-48.34259,-46.751976,-32.284813,-19.209023,-51.167793,-50.953789,-32.802086,-13.848038,-50.987434,-52.679214,-34.386177,-17.140045,-48.086929,-51.796989,-44.584579,-36.24527,-17.976718,-22.408607,-16.420855,-9.689628,-1.56457,10.06964,15.731473,19.198388,13.512349,23.860297,28.790512,31.58336,25.511565,33.737029,36.710929,38.064251,34.903,41.872213,42.308974,41.882958,26.600304,51.983643,72.7565,90.839653,53.3214,86.079597,104.021072,117.807884,43.421974,80.107498,100.886421,116.032791,33.972187,67.554188,87.343025,101.806297,25.564785,52.218647,67.826729,80.920258,-14.850789,-10.763714,1.527211,8.038977,20.464457,37.926424,44.661356,48.651668,37.758154,54.470532,60.338983,63.484734,48.50958,65.733808,70.431717,71.322961,54.019384,69.315887,72.648186,72.713951,34.473095,307.760657,-89.387341,286.175677
105,5.678673,-15.577221,0.141907,0.367168,-20.944176,-46.577339,-65.99762,-82.573586,-72.965984,-70.884476,-48.606148,-28.38604,-75.910378,-68.881416,-42.286606,-16.177483,-73.697834,-65.768051,-38.658943,-15.060654,-68.718052,-67.007217,-49.688644,-32.344666,16.570414,29.167251,42.467796,54.720004,23.88895,43.146557,53.590527,59.620517,24.352016,43.17842,53.298448,57.253191,24.082784,43.01966,49.174941,51.272232,23.326095,40.269358,44.682536,46.41161,26.318951,51.499329,72.458038,90.909119,52.940197,85.542297,103.244247,116.842346,43.006668,80.076942,100.968132,115.979462,33.500404,67.54549,87.352524,101.818542,25.152454,52.407417,68.178692,81.279373,-14.773292,-10.928958,1.178877,7.804882,20.026585,37.956002,44.707113,48.721816,37.366718,54.525737,60.541524,63.591624,48.225343,65.925172,70.635,71.41923,53.817892,69.166019,72.535121,72.6162,40.287781,292.114847,-89.109421,286.474256
106,-1.052742,8.835187,0.080566,0.105778,-15.129204,-34.964333,-48.537827,-54.756546,-56.487923,-54.246025,-37.423325,-21.739769,-59.144039,-56.513557,-35.977821,-14.297562,-57.932625,-56.113586,-36.103134,-17.574921,-53.723831,-54.468842,-44.10141,-33.201714,-14.523944,-15.002818,-7.0146,-0.17605,7.568192,23.936806,31.085528,34.610365,21.045158,35.337106,41.44348,44.314874,31.629673,42.889181,46.442053,47.8273,39.603256,49.941819,50.186351,49.096147,26.231232,51.271248,71.97155,90.035477,52.973785,85.415955,103.022346,116.504745,43.103657,79.98024,100.777702,115.809746,33.565235,67.443123,87.199516,101.625023,25.059299,52.054539,67.868156,81.102905,-14.492883,-10.697456,1.28941,7.866447,20.230546,37.827314,44.532236,48.414423,37.588279,54.497888,60.422531,63.317329,48.34588,65.94697,70.722994,71.4083,53.911259,69.145703,72.595884,72.561551,39.345732,300.954295,-88.918161,286.584295
107,-9.764099,10.055375,-0.004635,-0.226501,-9.156189,-23.351898,-36.760025,-47.188969,-36.796417,-35.864868,-24.331512,-13.182335,-38.869171,-38.248672,-22.638588,-6.312675,-38.136864,-37.323532,-21.871147,-8.310013,-35.117912,-35.835457,-26.934357,-18.578911,-14.832819,-20.426728,-21.166683,-22.799364,-0.553037,10.267735,14.711233,16.274815,12.409672,22.336421,28.027709,29.715101,22.701613,29.410795,33.897765,35.891995,30.810677,36.738778,39.14303,40.581568,26.093616,51.24464,72.10207,90.227337,52.433453,85.26392,103.009243,116.427097,42.5984,79.850178,100.722027,115.635281,33.24995,67.453709,87.120609,101.295261,25.073948,52.180653,67.77792,80.764332,-14.451017,-10.437487,1.582601,7.94277,20.83743,38.032387,44.538164,48.408618,38.241598,54.825968,60.687934,63.792869,48.982032,66.151364,70.746768,71.519821,54.37167,69.557517,72.951257,73.105325,29.607754,311.050966,-88.896675,286.39909
108,9.272346,-18.172405,-0.449581,-0.029578,-20.993385,-45.389786,-62.815475,-76.347027,-71.293888,-68.128738,-47.071609,-27.519951,-74.111595,-66.692619,-41.050072,-14.943581,-72.359505,-64.087772,-38.185387,-15.266075,-67.908554,-65.113907,-47.76741,-31.210785,11.826501,22.646964,35.930527,47.607036,21.667355,40.298936,50.766619,56.584743,24.938954,42.541958,52.575227,57.184463,27.191053,44.66784,50.170419,52.366758,28.152013,44.567248,47.576099,48.539529,26.270256,51.4995,72.320938,90.418053,52.959938,85.628471,103.269196,116.763153,43.124428,79.928513,100.701828,115.813522,33.704967,67.229061,86.875992,101.237984,25.311127,51.814156,67.304249,80.326653,-14.526043,-10.389939,1.867703,8.556508,20.508609,37.843555,44.62375,48.754791,37.853558,54.662885,60.758886,63.989852,48.591646,66.059541,70.982407,71.869699,54.084963,69.692997,73.36937,73.657435,38.904991,292.957848,-89.321365,286.448799
109,-1.658249,10.098539,-0.707703,0.268429,-13.181648,-31.80748,-45.411644,-50.676384,-53.348694,-51.357422,-35.569267,-20.833282,-55.807571,-53.522644,-34.1922,-13.780632,-54.694633,-52.973785,-34.31282,-17.032471,-50.545349,-50.378609,-40.589561,-30.596352,-19.898762,-21.674765,-11.341822,-2.951176,1.469413,17.082634,24.393821,28.543634,17.971346,32.205248,38.19368,40.883034,31.218044,42.210173,45.667517,46.896659,41.570439,49.824493,49.690495,49.063296,26.609173,52.160454,73.202934,91.740189,52.945862,85.764313,103.430443,116.729279,43.195896,80.07019,101.000519,115.99514,33.939915,67.618446,87.33284,101.387558,25.869255,52.461548,67.930355,80.79998,-14.644542,-11.034799,0.918599,7.735412,20.108466,38.008675,44.866985,48.850998,37.223334,54.314366,60.469338,63.407731,47.992544,65.554793,70.520205,71.17229,53.651969,69.418331,73.273039,73.505591,37.245283,303.140306,-90.030527,286.801147
