takenoko1/special-research/HandMotion_SimilarSearch_自分用/NewProject/handData/key/d4_feature_d2/51.csv
,vel_0x_L,vel_0y_L,vel_0x_R,vel_0y_R,posFromWrist_1x_L,posFromWrist_2x_L,posFromWrist_3x_L,posFromWrist_4x_L,posFromWrist_5x_L,posFromWrist_6x_L,posFromWrist_7x_L,posFromWrist_8x_L,posFromWrist_9x_L,posFromWrist_10x_L,posFromWrist_11x_L,posFromWrist_12x_L,posFromWrist_13x_L,posFromWrist_14x_L,posFromWrist_15x_L,posFromWrist_16x_L,posFromWrist_17x_L,posFromWrist_18x_L,posFromWrist_19x_L,posFromWrist_20x_L,posFromWrist_1y_L,posFromWrist_2y_L,posFromWrist_3y_L,posFromWrist_4y_L,posFromWrist_5y_L,posFromWrist_6y_L,posFromWrist_7y_L,posFromWrist_8y_L,posFromWrist_9y_L,posFromWrist_10y_L,posFromWrist_11y_L,posFromWrist_12y_L,posFromWrist_13y_L,posFromWrist_14y_L,posFromWrist_15y_L,posFromWrist_16y_L,posFromWrist_17y_L,posFromWrist_18y_L,posFromWrist_19y_L,posFromWrist_20y_L,posFromWrist_1x_R,posFromWrist_2x_R,posFromWrist_3x_R,posFromWrist_4x_R,posFromWrist_5x_R,posFromWrist_6x_R,posFromWrist_7x_R,posFromWrist_8x_R,posFromWrist_9x_R,posFromWrist_10x_R,posFromWrist_11x_R,posFromWrist_12x_R,posFromWrist_13x_R,posFromWrist_14x_R,posFromWrist_15x_R,posFromWrist_16x_R,posFromWrist_17x_R,posFromWrist_18x_R,posFromWrist_19x_R,posFromWrist_20x_R,posFromWrist_1y_R,posFromWrist_2y_R,posFromWrist_3y_R,posFromWrist_4y_R,posFromWrist_5y_R,posFromWrist_6y_R,posFromWrist_7y_R,posFromWrist_8y_R,posFromWrist_9y_R,posFromWrist_10y_R,posFromWrist_11y_R,posFromWrist_12y_R,posFromWrist_13y_R,posFromWrist_14y_R,posFromWrist_15y_R,posFromWrist_16y_R,posFromWrist_17y_R,posFromWrist_18y_R,posFromWrist_19y_R,posFromWrist_20y_R,posFromBody_0x_L,posFromBody_0y_L,posFromBody_0x_R,posFromBody_0y_R
2,-15.99678,22.071203,-0.357571,-0.813438,-2.793503,-10.410347,-18.923492,-23.28598,-31.373978,-21.062965,-4.844856,8.464851,-37.675095,-26.222763,-6.172256,13.018227,-40.184269,-32.231083,-15.195923,0.456161,-40.260487,-38.559151,-29.365425,-19.473267,-20.782286,-29.808035,-27.757057,-22.797511,-5.7686,1.924884,6.547767,10.151335,11.430557,18.560321,22.582187,24.670957,24.601673,28.927474,30.429862,31.412929,34.696013,38.786113,37.319294,35.438994,24.644737,48.928814,69.232063,85.14473,49.464798,81.778908,98.836899,110.987549,40.125046,75.956383,95.565033,108.488617,31.446247,64.777222,83.520584,96.283836,24.05674,50.199337,65.661278,77.784805,-15.302431,-13.34272,-2.545599,6.719618,16.489892,31.123134,35.936764,38.198187,33.650764,46.998856,50.168999,50.736115,44.709892,58.925701,61.75035,61.248134,50.687332,65.084317,67.457447,66.513962,19.671679,317.466139,-74.264174,295.008379
3,22.58091,-19.102243,0.744038,-0.609662,-26.918793,-51.350269,-69.293175,-82.341614,-74.318619,-74.224491,-50.492706,-30.464058,-71.306591,-66.643353,-41.419487,-17.191658,-64.353161,-59.559631,-34.881477,-12.957573,-55.106564,-53.168392,-37.126579,-22.82238,6.835894,15.720852,26.709029,37.479968,23.279597,38.070055,43.233872,44.958252,26.607944,40.647394,46.951123,47.011577,27.153509,40.839561,43.103393,41.213707,25.821799,38.215416,38.178612,36.878828,24.282589,48.264256,68.249474,85.02634,48.096199,80.74728,98.13921,110.507984,39.053879,75.33926,95.176907,108.090763,30.65546,64.653339,83.343487,95.989552,23.533459,50.253696,65.505409,77.318058,-14.912539,-12.084803,-0.896492,7.65242,17.428128,31.672404,36.291458,38.619387,34.755849,47.622659,50.644477,51.408082,45.943418,59.7166,62.165375,61.668037,51.922772,66.083932,68.0421,66.867298,42.203093,298.444249,-73.569632,294.47907
4,-6.240349,7.332059,-0.10025,0.874756,-15.124512,-32.26593,-45.408726,-56.773968,-56.340752,-49.304466,-29.729691,-14.240685,-57.581463,-48.823586,-26.680298,-6.134491,-55.044022,-48.460522,-27.714272,-9.505348,-49.948368,-48.070107,-35.590897,-24.411507,4.088063,11.639706,21.55639,28.235005,16.861691,27.035318,30.888915,33.312124,21.793388,31.488202,35.072258,36.678571,24.745798,35.013163,35.611216,35.191745,25.410603,35.209591,35.042741,35.425779,24.117908,48.408222,68.905277,85.625782,48.472252,81.259403,98.246326,110.319386,39.563313,75.699635,94.986019,107.532291,31.241055,64.837646,83.336849,95.943775,24.231091,51.036186,66.101475,77.699833,-15.543134,-13.287515,-1.96848,7.864532,16.582394,30.857669,34.946164,36.942246,33.68837,46.830648,49.34988,49.694817,44.793811,58.946635,61.412946,60.796121,50.753034,64.92673,66.815737,65.623274,35.914621,305.753661,-73.718004,295.331179
5,9.816971,-7.433515,-0.318604,-0.567363,-27.906647,-53.061562,-71.91433,-87.433662,-75.174923,-77.78389,-53.832436,-33.464584,-73.155899,-70.779305,-44.990158,-19.911919,-66.869373,-65.197906,-40.254707,-17.316284,-58.477592,-60.072784,-43.88855,-27.875175,6.699549,15.203137,26.795295,40.597808,20.454392,36.451021,43.56189,46.667812,24.771734,40.375383,47.86225,48.522177,26.67272,41.596374,44.506733,42.786922,26.251397,39.221947,39.634502,38.286182,24.567547,48.733578,68.953457,85.135746,48.399696,80.941257,98.040791,110.301991,39.444866,75.145168,94.756336,107.755566,31.210785,64.442368,83.105106,95.805302,24.200134,50.578651,65.801239,77.557926,-14.999854,-12.461851,-1.193635,8.147349,16.612096,31.194085,35.875507,38.342869,33.786738,47.214797,50.420076,51.176827,45.020682,59.303799,62.174823,61.840629,51.106555,65.486497,67.614787,66.425968,45.726128,298.341234,-74.042072,294.784904
6,-9.077454,10.933343,0.603275,0.256943,-12.948189,-28.69091,-40.536003,-48.865814,-53.179779,-46.70208,-28.128891,-12.886734,-57.070312,-49.264069,-27.878609,-8.17646,-56.282845,-51.127167,-30.936356,-13.662415,-52.520828,-51.565533,-38.427429,-27.11483,-11.370289,-11.486379,-0.772251,7.334467,0.482826,11.712633,17.758122,21.435606,14.858569,24.857011,29.516326,31.980044,26.636719,35.882053,36.061561,35.245838,35.574721,44.054782,41.754394,39.849393,24.073677,47.7701,67.724876,83.877869,47.662125,80.745964,98.111,110.533676,38.829117,74.78302,94.329758,106.989326,30.785522,64.289017,82.812996,95.368652,24.100456,50.720901,65.849991,77.490463,-15.104089,-13.002661,-2.257657,6.871215,16.81649,31.195505,35.613192,37.803108,34.177618,47.02757,49.689507,49.955836,45.399644,59.155783,61.545709,60.788402,51.333797,65.348114,67.053105,65.510333,36.647558,309.18757,-73.439913,294.954841
7,3.843384,-9.638745,0.197697,0.175001,-24.071503,-45.314713,-61.733265,-74.843731,-69.310455,-69.736576,-45.701866,-25.515633,-68.928165,-64.47916,-39.257698,-15.156097,-64.392071,-61.068478,-36.839676,-14.797554,-58.026695,-58.052845,-41.764297,-26.576157,2.569373,8.860567,19.213394,30.723176,17.195822,32.534748,38.937525,42.109397,24.461499,38.359171,45.935267,47.214365,28.7266,41.776253,44.759292,43.321681,30.625364,41.955947,41.631696,39.883665,23.798504,47.726212,67.979965,84.124775,47.667789,80.489216,97.645512,110.038662,38.767891,74.344769,93.732891,106.569843,30.629368,63.661537,82.190609,94.932346,23.836555,50.160713,65.222111,76.926212,-15.128604,-13.219158,-2.315455,7.231899,16.586037,30.991729,35.614056,38.176698,33.784515,47.004043,49.923047,50.517889,44.95572,59.136332,61.900589,61.415107,50.871533,65.193738,67.119672,65.765794,40.489368,299.520373,-73.24379,295.10139
8,-25.712929,23.609097,-0.099907,-0.354941,-0.520821,-4.267845,-10.669212,-13.619957,-22.095737,-10.850143,2.17598,13.127289,-28.82864,-17.332191,-0.889664,15.991058,-33.221741,-24.924831,-10.666122,3.287888,-35.003643,-33.270378,-24.665337,-15.120392,-22.906809,-33.42556,-33.162627,-29.884915,-11.350467,-5.686287,-1.850289,0.625408,5.482696,11.213319,14.118305,15.757347,18.674004,22.829683,23.003881,22.896559,29.095436,33.726531,31.2433,28.384997,23.815155,47.506485,67.67149,83.948994,47.770386,80.248547,97.350025,109.81596,38.963985,74.067364,93.380756,106.265316,30.800629,63.408852,81.915035,94.648991,23.826771,49.80772,64.845371,76.555424,-14.750444,-12.721635,-1.91593,7.409,17.122092,31.273681,35.851548,38.311191,34.197316,46.99089,49.978869,50.597176,45.302696,59.160723,62.023472,61.624379,51.149287,65.515211,67.564522,66.231639,14.807854,323.070576,-73.312283,294.687555
9,25.923157,-24.106867,0.166454,0.544145,-24.946518,-47.689533,-65.745392,-80.414314,-71.467838,-72.696362,-48.527412,-28.411446,-70.065079,-66.292248,-40.926819,-16.492195,-64.637146,-61.161861,-36.502419,-14.137573,-56.757603,-56.730766,-40.80574,-25.342484,11.499285,21.014653,30.930905,40.372913,23.092555,37.818731,44.760218,48.335505,24.502563,39.499207,47.79346,49.75206,23.25996,37.765317,42.116436,42.201714,20.397026,32.367713,34.083078,34.699409,23.432064,47.273884,67.553787,83.94104,47.659492,80.4039,97.60437,110.128555,38.745861,74.25602,93.507957,106.262054,30.534153,63.605862,82.013283,94.722519,23.662148,50.19001,65.199223,76.930389,-15.253649,-13.432999,-2.677004,6.703007,16.434069,30.623141,35.116965,37.607668,33.619888,46.423898,49.384027,50.095145,44.884028,58.793802,61.542375,61.174898,50.847697,65.060605,66.892307,65.563562,40.73184,298.943408,-73.144999,295.211399
10,-18.156052,15.138731,0.452156,0.451519,-5.869675,-13.845978,-20.360756,-24.668541,-38.608246,-28.559246,-11.583138,1.499748,-44.393406,-32.541733,-11.459999,7.898369,-45.684299,-36.80912,-17.247505,-0.513039,-44.21299,-39.677811,-26.839828,-15.853386,-14.72031,-17.0751,-10.2305,-3.809383,0.418174,8.305122,12.73065,16.205346,14.804414,22.119306,26.224659,28.870849,25.424065,32.288364,31.942315,31.66944,32.694064,40.047674,37.678125,35.768556,23.16227,47.010727,67.646828,84.446297,46.641941,79.866486,97.079544,109.345894,37.945404,74.28875,93.696442,106.194077,30.083313,63.932304,82.468071,94.866028,23.644638,50.658646,65.714836,77.193031,-15.354672,-13.654622,-2.901528,6.593153,16.260921,30.366568,34.862677,37.59186,33.731224,46.098535,48.867918,49.537848,45.133376,58.478011,60.805322,60.207454,51.080682,64.849048,66.425042,64.893817,22.574272,314.064957,-72.694359,295.645736
11,21.930885,-15.706217,-0.363693,0.276642,-26.660271,-51.49332,-71.587372,-88.819885,-74.467735,-77.82177,-52.831593,-31.790314,-72.618256,-70.247612,-43.19046,-17.593231,-66.927567,-64.391842,-38.364372,-14.950905,-59.00219,-60.270081,-44.324112,-27.988472,22.276585,34.561459,43.747759,53.838085,28.237908,42.158427,49.935026,54.323566,24.344174,39.180266,48.393613,50.833742,18.369883,33.630015,39.915158,41.369997,11.127856,23.923592,28.024807,30.522796,23.414612,47.704582,68.187332,84.397888,47.200527,80.067101,97.244797,109.509773,38.272247,74.391289,93.754807,106.184464,30.278893,63.82021,82.330856,94.843941,23.797646,50.587063,65.574131,77.026749,-16.097036,-14.291886,-3.185951,6.559438,15.436985,30.003475,34.753194,37.428715,33.012264,45.851595,48.793508,49.424598,44.556566,58.212299,60.680771,60.062773,50.637623,64.464343,66.133086,64.674664,44.52527,298.367648,-73.037939,295.931285
12,-5.424957,3.137477,0.6106,-0.380877,-19.480019,-40.489883,-54.777317,-66.039791,-62.120476,-56.550751,-36.30352,-19.63028,-62.659607,-55.431461,-32.429924,-10.196571,-59.160633,-54.672775,-32.648849,-12.641487,-52.875652,-53.443451,-40.929451,-28.657379,0.903717,8.590285,23.253908,34.213866,13.476842,27.76527,34.051462,37.857881,20.730848,34.204912,40.060333,42.814278,26.568732,40.331911,42.444578,42.170283,29.823226,42.373009,43.146865,43.220348,22.992897,47.021484,67.573643,84.464207,46.031799,79.547596,97.005672,109.481907,37.29126,73.960247,93.608608,106.200771,29.499149,63.577995,82.426128,95.058231,23.253136,50.253582,65.397491,77.04134,-15.645702,-13.592192,-2.449145,7.188859,16.248633,30.506309,34.962281,37.615881,33.76599,46.354614,49.012969,49.525436,45.132141,58.646342,60.817796,59.987561,50.959219,64.795572,66.428067,64.837747,39.119053,301.50358,-72.4086,295.548865
13,-24.578362,27.26645,-0.855675,0.171543,-1.280937,-6.884995,-14.095688,-19.862709,-18.225288,-8.74752,2.846832,11.369476,-20.336838,-11.748161,0.12188,11.469727,-21.349812,-16.52298,-7.89608,0.508804,-21.144562,-23.860531,-23.218231,-21.44371,-18.861725,-30.494823,-34.933258,-37.768528,-9.337774,-6.953899,-6.356093,-5.213773,4.710939,6.116872,6.671329,7.921034,15.055738,16.057639,15.940128,16.858418,22.816036,25.073817,23.347337,21.553734,23.280087,47.804947,68.42165,85.188732,46.82991,79.777966,97.029247,109.314709,37.827187,74.638195,94.410152,107.595234,29.852257,64.0028,83.121586,96.330814,23.548737,50.73452,66.062679,77.905598,-16.124576,-14.225381,-3.26246,6.687446,15.329231,29.822114,34.107223,36.467015,32.710552,45.943356,48.570034,49.166851,44.266339,58.646589,61.127165,60.509908,50.528324,64.688744,66.609614,65.514902,14.589214,328.778799,-73.215752,295.729176
14,26.764984,-30.111909,0.327244,-0.334193,-23.670616,-46.617393,-66.561127,-83.998947,-69.405556,-71.699352,-47.418594,-27.243004,-69.368305,-65.373459,-38.633652,-13.506546,-65.227833,-61.612072,-35.792427,-12.879639,-59.128189,-58.323956,-41.629715,-25.364113,21.371879,32.956133,42.687689,52.969997,27.447441,42.660951,49.779477,53.043851,24.972361,40.34247,48.53428,49.935891,20.111615,35.488765,40.412495,40.725632,13.551251,27.455345,30.369038,31.175251,22.99593,47.590199,68.417702,84.910469,46.19236,79.800224,97.496109,109.969139,37.330399,74.649353,94.766579,108.070335,29.46064,63.973389,83.250389,96.381569,23.148479,50.196533,65.527039,77.49321,-15.453967,-13.587067,-2.787475,7.148228,15.985514,29.985506,34.27611,36.846224,33.289832,46.428344,49.235518,50.013758,44.669445,59.006285,61.566211,61.054176,50.691654,64.925248,67.139988,66.282645,41.384468,298.696098,-72.858238,295.424191
15,-12.024536,9.941261,-0.265961,0.279112,-12.026711,-25.911255,-36.731358,-45.181274,-49.414387,-40.481129,-21.089859,-5.888672,-51.855698,-40.818787,-17.95578,3.186722,-49.906368,-42.057838,-21.528168,-3.281822,-45.640812,-43.114986,-32.412872,-21.976318,-4.263989,-0.054711,10.399572,18.601385,11.365225,21.348291,25.315755,28.469039,19.513871,28.197955,31.950281,34.436538,24.601858,33.283163,33.748144,33.626804,26.857354,35.463262,35.275973,35.575092,23.11512,48.391514,69.475708,85.443764,47.264786,80.482407,97.662849,109.784889,38.175888,74.952736,94.550056,107.323837,30.005436,64.175606,83.070145,95.778122,23.453236,50.564346,65.721817,77.349243,-15.761113,-14.205991,-3.209231,7.504034,15.523992,29.89109,34.338354,37.022707,33.103037,46.177082,49.103804,49.945524,44.690934,58.726618,61.222322,60.633903,50.888021,65.031458,66.950414,65.882441,29.368944,308.641511,-73.115187,295.707455
16,14.28566,-8.760531,-0.312996,-0.488446,-24.826813,-49.125137,-69.677582,-87.225552,-70.840187,-75.179729,-51.378593,-31.071625,-69.766216,-68.120155,-41.87233,-17.163162,-64.928112,-63.197021,-37.578392,-14.783936,-58.306332,-58.912697,-42.661972,-26.708336,22.405643,34.198737,42.917524,52.595666,28.441684,42.745673,50.131393,53.87532,24.064321,38.85373,47.73418,49.948488,17.518839,32.571552,38.586042,39.974376,9.368279,22.761696,26.665433,28.575374,23.40992,48.417206,69.424667,85.476952,47.255573,80.730858,98.337135,110.805588,38.147278,74.949646,95.008621,108.310089,29.881325,63.784962,83.138809,96.270218,23.134975,49.681149,65.107155,77.299919,-15.183377,-13.465912,-2.528865,7.877068,16.158107,30.301359,34.467042,36.808433,33.443529,46.646817,49.509937,50.242667,44.660677,58.986217,61.712744,61.182987,50.591063,65.092468,67.563472,66.73824,43.667078,299.876395,-73.415709,295.214424
17,-14.719162,8.857664,-0.24044,0.019081,-10.551224,-24.150009,-36.013699,-45.224247,-49.180126,-38.80703,-19.940758,-6.116524,-52.826958,-40.846252,-18.470879,1.403961,-51.94891,-43.638039,-23.82225,-7.23278,-48.55093,-45.263557,-33.365593,-23.105621,-6.058456,-2.819647,8.080968,16.17021,7.106793,18.920264,23.144981,26.400833,17.756701,27.775891,31.629426,34.332365,25.248879,34.761159,34.612217,34.207937,29.373683,38.775368,37.547956,37.043455,23.432465,48.517227,69.604454,86.071587,47.39233,81.119728,98.923531,111.364174,38.291988,75.289421,95.298157,108.209839,30.108719,64.407463,83.469086,96.050835,23.582039,50.673523,66.145821,78.031654,-15.252784,-13.530565,-2.812361,7.308841,15.878624,30.293641,34.529225,36.843692,33.228205,46.696279,49.538465,50.259834,44.648635,59.106815,61.568372,60.887573,50.76347,65.163296,67.204208,66.073497,29.03532,308.729953,-73.568745,295.229399
18,11.461372,-9.018895,-0.204391,-0.200751,-24.307022,-47.05925,-66.577606,-83.266869,-68.941097,-71.958618,-47.841854,-27.754555,-68.314705,-65.178967,-38.933716,-14.094887,-63.847561,-60.869865,-35.316925,-12.611389,-57.36517,-57.291698,-40.717163,-24.470215,20.294088,31.31351,40.321722,49.767251,27.608362,41.488743,48.575159,52.291113,24.929876,38.958767,47.466677,49.399589,19.542832,33.680218,39.030645,40.007968,12.498963,25.263452,28.260261,29.736405,23.737335,49.110317,70.373268,86.131325,47.763233,81.298485,98.95546,111.329384,38.694878,75.44117,95.433426,108.514137,30.440941,64.486084,83.520241,96.180725,23.738022,50.603886,65.978279,77.798996,-15.097358,-13.518277,-2.7813,7.698794,16.290438,30.490624,34.68428,36.95614,33.642304,46.984777,49.931754,50.776808,44.942197,59.216669,61.885769,61.381577,50.987562,65.185834,67.288559,66.219722,40.569563,299.711599,-73.700266,295.029189
19,-13.550835,10.148804,-0.187511,-0.288498,-13.392906,-28.371849,-40.277023,-50.0457,-50.227146,-40.972824,-21.234055,-5.83271,-51.775074,-40.106907,-17.062569,4.773788,-49.000969,-39.675064,-18.605576,0.067978,-44.33733,-40.067997,-27.981262,-16.815834,0.223783,5.287997,15.035793,23.424957,10.851523,21.485747,26.349642,30.099189,17.556136,27.067367,32.103792,34.99402,21.829018,31.200198,32.890863,33.380111,23.321587,32.67838,33.302862,34.179347,23.986416,49.237118,70.406742,86.013851,47.872581,81.30209,98.625698,110.902462,38.697224,75.408497,95.318584,108.495998,30.309505,64.350243,83.425884,96.297054,23.400078,50.229149,65.683937,77.760601,-15.115389,-13.493638,-2.514909,8.084426,16.16527,30.511805,34.787527,37.144602,33.633226,47.066288,50.208148,51.167009,44.968441,59.261191,62.211317,61.912075,51.016955,65.370406,67.738843,66.84019,27.143297,309.861252,-73.763208,294.74154
20,16.477089,-10.974098,-0.131779,-0.039644,-25.638657,-50.211124,-70.424366,-87.8092,-73.538589,-78.166695,-53.351955,-31.690865,-72.228012,-70.675793,-43.330879,-17.158585,-66.673908,-65.022297,-38.874207,-14.707489,-58.794651,-59.967213,-43.538475,-26.221733,24.955503,37.312625,45.836775,54.056002,28.775507,43.003357,51.344541,56.085738,22.610469,37.577596,47.646186,51.102788,14.614223,30.324331,37.360296,39.929237,5.500541,18.730691,23.545432,26.690257,23.81052,49.227104,70.432777,85.809517,48.120804,81.289215,98.540382,110.701561,39.011078,75.595779,95.502434,108.716011,30.518589,64.519329,83.499413,96.35582,23.482246,50.334492,65.723877,77.911034,-15.171829,-13.632206,-2.608276,8.054971,16.328476,30.618448,35.051325,37.529369,33.676884,47.075921,50.293364,51.299093,44.927068,59.221856,62.155433,61.863909,50.936433,65.37584,67.818378,67.027973,43.682756,298.883387,-73.832617,294.698129
21,-12.372551,8.461844,-0.170174,-0.404218,-12.378731,-26.563225,-38.280258,-47.437878,-52.226715,-45.371761,-24.724159,-8.878098,-56.199131,-47.093811,-23.365746,-1.350975,-55.489082,-49.189682,-27.402534,-8.142586,-52.242508,-50.871105,-38.319454,-26.448212,-8.633387,-6.953405,4.03224,12.645682,5.651027,18.90458,24.903509,29.27445,17.935839,28.687636,34.242703,37.932475,26.938864,36.344131,38.08222,38.700033,32.636945,42.427164,42.184609,41.762545,24.016914,49.407406,70.480957,85.692329,48.208351,81.199608,98.528366,110.842323,39.125004,75.450096,95.447273,108.815346,30.595379,64.306412,83.396988,96.271362,23.404427,49.968338,65.460377,77.728844,-15.128604,-13.399345,-2.162561,8.579046,16.593941,30.887433,35.330066,37.734874,33.931357,47.480695,50.681651,51.609945,45.230324,59.665842,62.6926,62.358777,51.345035,66.039102,68.596927,67.729643,31.409597,307.376214,-73.903399,294.324894
22,10.275536,-6.616618,-0.449696,0.429165,-25.037384,-47.159901,-64.9189,-80.25959,-68.485622,-72.274761,-48.306541,-28.096962,-67.739811,-66.280861,-40.169792,-15.639267,-63.630581,-62.562046,-37.718353,-15.156212,-58.379974,-59.785709,-43.974037,-28.315773,7.709848,14.714197,24.112795,35.878348,20.863488,34.615737,41.83998,46.612731,24.760248,37.632245,45.913099,48.581951,25.781415,38.230236,42.442046,43.054178,24.64601,36.425951,37.378018,37.313613,24.555759,49.800739,70.7868,86.322155,48.642597,81.672649,99.112759,111.446514,39.457283,76.063213,96.028576,109.236889,30.909977,64.849663,83.804569,96.469059,23.751755,50.71804,66.139126,78.105183,-15.288043,-13.613187,-2.587651,7.866817,16.12717,30.556883,35.075037,37.453601,33.42908,47.125444,50.355855,51.222152,44.805728,59.361227,62.278008,61.847669,51.119708,65.666129,67.904767,66.834879,41.75703,300.773243,-74.281197,294.767707
23,-16.440353,11.451984,-0.163307,-0.290844,-5.504951,-13.858337,-20.969467,-24.525032,-41.917305,-31.24752,-11.844749,2.276115,-47.136154,-35.020981,-11.9981,8.240089,-47.55518,-39.841061,-20.448189,-3.876572,-44.809341,-42.635593,-32.543964,-22.90432,-13.997522,-17.877362,-11.900416,-5.441755,2.45674,12.492355,16.615739,19.736296,16.969878,25.048128,28.070132,29.9994,27.740508,34.470377,34.287163,34.020093,35.355384,42.013004,40.022171,38.642976,24.40876,49.549599,70.673046,86.557446,48.390656,81.592884,98.939266,111.205502,39.152527,75.916042,95.800953,108.954563,30.624847,64.769154,83.71851,96.372585,23.498783,50.431709,65.83992,77.879391,-14.933967,-13.37903,-2.497681,7.929123,16.648529,31.148884,35.665679,38.11538,34.029788,47.75851,50.89401,51.654528,45.249096,59.90957,62.741691,62.195138,51.327745,65.79951,68.193203,67.228909,25.342083,312.239245,-74.419098,294.490879
24,17.752762,-13.106895,-0.870152,0.26318,-25.610161,-48.525352,-67.57782,-84.138393,-71.12011,-75.481682,-51.113491,-30.521278,-70.216084,-69.063263,-42.532539,-17.246704,-65.579681,-64.862995,-39.356346,-16.040039,-59.214134,-61.515312,-45.82798,-29.482956,16.241285,26.630236,36.029142,46.667627,25.968765,39.965361,47.683853,52.742694,24.958405,38.578693,47.548249,50.780081,21.279748,34.874904,40.63103,42.623839,15.906659,28.36147,31.272014,33.07278,24.510384,50.072193,71.565399,87.124214,49.600639,82.807045,100.011864,112.236328,40.217228,76.67141,96.441994,109.553261,31.492195,65.214386,84.158478,96.873322,24.144745,50.853825,66.254539,78.373375,-15.271371,-13.806342,-2.768209,7.938448,16.182807,30.499949,35.176307,37.814841,33.545726,47.076662,50.437057,51.38153,44.787821,59.220374,62.380204,62.041133,50.931184,65.494957,68.09996,67.245519,43.143167,299.140377,-75.240927,294.762087
25,-9.674263,4.816903,-0.413876,-0.136468,-16.725311,-34.875412,-48.85952,-61.912537,-58.606453,-52.190437,-31.845131,-14.976425,-58.436508,-48.177738,-24.636154,-2.059822,-53.85006,-44.96933,-22.076683,-1.622314,-46.601028,-42.401447,-28.579216,-14.926758,15.821444,28.107614,38.709481,46.46243,26.074544,36.511104,42.713563,47.662241,21.81815,33.020662,40.396934,44.19088,15.224379,26.288694,30.740652,33.2781,7.002744,16.905349,20.845766,24.607971,24.706478,49.957581,71.110096,86.539135,49.423599,82.735348,99.905376,111.973515,39.944859,76.413059,96.144848,109.121532,30.980873,64.697914,83.675594,96.277027,23.39819,49.879246,65.240822,77.522907,-15.316696,-13.448437,-2.138355,8.497721,16.442838,30.944428,35.78319,38.542075,33.648849,47.496009,51.070987,52.177616,44.496668,59.156339,62.323518,62.037551,50.16517,64.835771,67.763544,67.27411,33.564062,303.95731,-75.559645,294.62565
26,9.911613,-6.952664,-0.097046,0.361734,-24.626656,-48.475113,-68.642807,-86.232548,-72.972736,-74.989586,-50.78064,-30.334167,-72.373409,-69.385986,-42.603836,-17.154808,-67.591095,-65.203457,-39.069099,-15.46154,-61.001186,-61.749744,-45.1474,-28.146515,18.052486,29.492738,39.473704,49.721246,26.360201,42.487927,50.589581,55.346462,24.830582,40.722112,49.833447,52.590726,21.027189,36.253729,42.40444,44.367548,15.646319,28.902836,32.257304,33.801805,24.73978,49.956894,71.067123,86.893787,49.49049,83.150539,100.563297,112.760639,40.218143,76.926556,96.731815,109.435787,31.552792,65.617504,84.546146,96.982899,24.336834,51.269817,66.506481,78.489017,-15.651198,-13.940897,-2.90548,7.374975,16.503353,30.712741,35.286223,37.914753,33.774944,47.390786,50.56099,51.269576,44.678337,59.208395,62.017606,61.475499,50.247422,64.788656,67.433488,66.812958,43.559532,297.008598,-75.572834,294.991336
27,-7.272949,3.966044,-0.558529,-0.68475,-14.576912,-31.417007,-43.140507,-51.541042,-59.880753,-50.128498,-29.184608,-12.717705,-62.053185,-50.301533,-27.104759,-4.507828,-58.999672,-49.734077,-27.29496,-7.429276,-52.754574,-48.513851,-35.72937,-23.448715,-0.655419,6.901288,20.720845,30.320811,16.631485,31.509938,36.963611,40.602254,23.402171,37.37209,42.562768,45.236808,27.824365,41.203703,42.617788,42.610131,29.491379,41.20957,42.224438,42.951858,25.032578,50.548553,71.692772,87.296448,49.723492,83.302917,100.727577,113.133316,40.235825,77.026062,96.896782,110.004387,31.334438,65.464725,84.677582,97.52552,23.778591,50.753975,66.347237,78.742561,-15.412347,-13.615101,-2.419011,8.056267,16.423695,31.157652,35.869518,38.511447,33.6817,47.808774,51.106123,51.891341,44.716376,59.591803,62.700874,62.324073,50.522582,65.434133,68.202033,67.520556,36.335821,300.983997,-76.082125,294.315941
28,-27.145844,27.480724,-0.17252,-0.414963,1.928902,-0.32856,-4.771385,-8.97583,-17.591858,-3.373375,11.20491,21.927223,-22.660503,-6.766548,9.930725,25.850716,-24.945145,-14.295559,-1.341476,11.660614,-24.76141,-25.113716,-24.108124,-20.336094,-20.590984,-32.961505,-36.511475,-36.102564,-11.728997,-7.173607,-4.449055,-2.506017,3.600481,7.065482,9.882104,11.876518,15.034682,16.702807,18.092006,19.897835,23.570812,26.059168,23.799844,20.817608,25.136776,50.465813,71.496849,87.471714,49.837589,83.399792,100.829029,113.21291,40.556431,77.37093,97.154903,110.198879,31.77206,65.972557,84.943027,97.645168,24.221878,51.183643,66.503963,78.758411,-15.19443,-13.206067,-2.132118,7.737327,16.244557,31.003462,35.897861,38.812357,33.438342,47.883801,51.467116,52.466485,44.508709,59.660902,62.926634,62.728353,50.409578,65.411532,68.32504,67.858824,9.294634,328.474015,-76.149988,293.910271
29,39.532471,-31.664376,0.734367,-0.501722,-25.396385,-51.977692,-73.334942,-92.229137,-76.74036,-82.467384,-57.153568,-36.130714,-75.106544,-74.638939,-46.72039,-21.359024,-69.733486,-68.919868,-42.395554,-18.550415,-62.214775,-65.700588,-49.889946,-33.061638,27.450466,40.704884,48.140992,55.814345,30.774306,44.943802,53.906319,60.027452,22.322033,37.213701,48.265481,53.176367,12.589736,28.030859,37.157261,41.772857,1.886907,13.435346,19.793601,24.661262,25.19886,50.210724,71.272488,87.194996,49.436188,82.996044,100.367832,112.388821,40.257397,77.082424,96.839962,109.719601,31.589584,65.838261,84.434109,96.680088,24.189777,50.94738,66.152229,78.237247,-14.334741,-12.752386,-2.120756,7.896334,16.960183,31.430219,36.290161,39.239176,34.2038,48.253748,51.908755,53.107886,45.349997,60.251544,63.378523,63.036673,51.312061,66.184339,68.917597,68.21815,48.914623,296.803386,-75.328102,293.402297
30,-2.58934,1.135528,-0.688992,0.950277,-18.503609,-40.750465,-57.007313,-70.235138,-67.401409,-67.512302,-46.13205,-28.180389,-68.6376,-64.449234,-40.055237,-16.618767,-65.983944,-62.79665,-38.743057,-16.8013,-60.318432,-61.724911,-46.95282,-31.703339,10.617736,20.032204,30.829758,38.208129,21.628638,37.744878,46.01968,50.751984,22.926384,38.393504,46.949579,50.801632,22.953987,38.086604,42.990822,44.297831,21.477905,35.541932,38.986555,40.929223,24.90406,50.413857,72.057953,88.296318,50.155449,84.322014,101.715088,113.863564,40.798073,78.228149,98.051949,110.982628,31.963577,66.610622,85.553627,98.130455,24.493504,51.478729,66.92831,79.300117,-14.868079,-14.123307,-3.940603,6.316203,15.211782,29.429752,33.926664,36.483934,32.666585,46.569444,50.026417,50.985771,44.030267,58.8537,62.150308,61.894229,50.219449,65.134335,68.020487,67.444541,46.360903,297.915573,-75.981474,294.329232
31,-10.044594,11.70831,0.348301,-0.900259,-8.031693,-22.192497,-33.781929,-38.786201,-48.4548,-40.998173,-23.868141,-8.891945,-52.570324,-43.954754,-23.647499,-2.643013,-51.932373,-47.125683,-29.575081,-12.034264,-47.404804,-49.711018,-41.583252,-31.698647,-16.688543,-22.564218,-18.24984,-15.193442,-0.237307,10.202712,16.214917,20.406103,14.555375,23.211301,29.183615,32.937299,26.799926,33.275877,37.012147,39.464627,36.535866,43.652848,44.183964,44.00958,24.826927,50.334377,71.872959,87.77029,49.173717,83.594913,101.2813,113.433552,39.859886,77.676258,97.759037,110.751858,31.136799,66.261749,85.290012,97.609234,23.763371,50.719929,66.352615,78.763561,-14.775762,-13.950468,-3.546511,6.880046,14.885307,29.769627,34.796542,37.815891,32.704006,47.128902,51.18362,52.650316,44.370018,59.748217,63.050196,62.664565,50.730125,65.774439,68.771557,67.971889,36.344891,309.57984,-75.604591,293.38493
32,-11.335945,-11.974578,-0.963306,-0.50765,-16.004448,-32.874813,-46.686401,-58.260956,-56.955013,-45.68121,-23.212967,-7.796173,-58.503227,-42.087822,-17.84317,2.53624,-55.22089,-39.87505,-14.554939,5.204201,-49.461136,-40.225239,-21.663322,-6.82972,4.791647,14.110957,24.074942,32.997629,20.712508,38.009478,42.039804,42.572278,24.204124,40.10646,46.625451,46.847506,24.443098,38.517005,41.554631,40.886986,23.281758,34.715773,35.405648,34.817785,25.101643,50.72588,72.49609,88.966255,49.048176,83.152657,100.821304,113.38028,39.299469,77.07859,97.275696,110.87883,30.529976,65.762901,85.479012,99.146004,23.449688,51.042137,67.119312,80.209122,-15.144844,-13.960842,-3.480932,6.422537,14.708454,31.441828,37.377092,41.251745,32.28787,48.484262,52.995747,54.804293,43.736705,60.55233,64.304286,64.231852,49.857777,65.508357,68.746116,68.239331,25.029974,297.587508,-76.546869,292.859526
33,15.334625,-1.510477,-2.321033,-3.456047,-21.747437,-45.073986,-65.17868,-82.017059,-74.430027,-66.837616,-44.054375,-26.584396,-73.962593,-61.66111,-36.448402,-13.349304,-68.340626,-57.103786,-31.412888,-9.884377,-59.988956,-55.111256,-38.338051,-23.467369,19.0358,32.082982,41.481766,50.59378,28.657687,42.901222,47.570912,50.098665,25.538921,39.231333,46.785817,49.855677,20.810074,33.968716,38.603826,40.803684,15.182265,26.269922,28.678744,30.917999,26.323071,51.943188,73.596382,90.68327,50.230579,82.689915,99.170208,111.140385,39.826012,75.922108,95.68079,109.70438,30.343895,62.892838,82.104664,96.311245,22.355804,48.12149,63.307457,75.396938,-14.443236,-12.216516,-1.503808,7.194479,15.265011,33.497931,40.936633,46.223641,32.653186,50.770262,58.303936,62.482957,43.691442,62.810543,69.059129,70.882742,49.400268,65.5388,69.819215,70.180825,40.32177,296.068124,-78.910732,289.394572
34,-1.709862,8.449247,-4.003601,-5.131706,-19.637718,-42.118721,-57.887592,-72.586269,-62.020397,-62.852154,-46.641712,-31.679535,-58.129978,-57.276249,-39.965515,-20.410538,-50.544834,-51.335564,-34.606819,-16.971245,-40.519867,-46.183777,-40.185127,-32.494125,22.693709,34.612897,40.966273,48.076524,23.868078,34.738497,42.038322,47.249439,14.712653,25.468896,36.266202,43.152608,5.317637,14.209449,24.078091,31.506727,-4.252195,0.276951,5.734576,12.550586,27.907906,53.35928,73.237553,90.15089,51.111431,80.957851,95.970898,106.613903,40.292873,74.099522,92.195721,105.87965,29.281483,59.997711,78.23473,92.317715,19.12159,42.727432,57.019501,68.433666,-14.305656,-11.647239,-1.116509,5.92699,8.300552,29.344784,38.902574,46.044812,24.515902,46.656882,56.92789,63.112194,36.648931,59.232107,68.459532,73.01449,44.860501,63.487575,70.292285,72.773231,38.621778,304.473559,-82.904463,284.219054
35,-2.44709,-14.010304,4.226875,-7.717566,-21.246986,-47.053871,-72.840214,-92.494068,-61.394806,-91.190929,-98.543243,-97.184143,-63.193531,-97.991009,-103.889122,-97.4366,-60.660725,-89.900379,-93.179798,-88.304443,-56.462975,-79.203072,-82.406387,-80.026417,31.755396,47.585794,56.301679,60.240985,49.719579,45.224273,32.914884,23.86005,34.59783,21.705579,8.890824,1.620578,14.075883,-0.509811,-12.235412,-16.567883,-9.11399,-22.124308,-27.247246,-27.439228,25.451775,52.598133,69.454651,84.966373,34.086742,60.424576,73.7356,82.047215,22.309742,49.82111,64.248219,70.278511,13.231258,35.677013,46.170216,50.412655,5.857487,20.791626,26.195869,26.276436,-16.835632,-15.086058,-4.431271,3.854831,-5.434407,16.633708,30.793757,40.608182,12.070044,36.119236,52.772705,61.934613,27.312578,51.457545,65.517496,72.325355,40.155181,57.711935,65.843909,68.090759,36.226301,290.464598,-78.625975,276.50283
36,13.656006,3.308711,-24.303074,-34.789997,-24.203682,-50.947495,-71.530437,-81.739655,-63.367653,-95.447388,-112.007275,-122.357769,-59.131165,-94.960728,-114.325104,-126.207104,-51.608849,-83.065968,-100.943985,-113.381367,-42.891426,-67.4049,-80.02161,-89.158974,-22.387612,-25.216336,-17.602881,-6.857507,3.769863,14.068473,19.232228,22.586201,21.843961,35.170626,41.078597,44.721007,35.42757,47.880405,52.041827,54.743778,44.802023,55.22364,57.664017,58.554705,29.671326,54.270744,69.434338,77.869778,82.798691,95.980453,81.995373,65.266628,77.011013,89.339046,73.213234,54.009705,66.849861,77.585449,63.286858,45.675659,53.350182,65.203857,57.771091,46.421757,-10.353939,-6.627363,-0.904397,7.409679,31.218353,69.05141,82.748516,84.929355,45.119976,83.044239,95.32584,94.70142,55.894867,87.784386,98.603675,96.280193,63.446264,86.161708,94.161104,93.159636,49.957867,293.668287,-102.853489,241.607811
37,4.025688,-5.432616,-39.277496,-36.005492,-26.50898,-51.676941,-74.789143,-88.253403,-64.754276,-95.356636,-111.454639,-122.601128,-59.040127,-92.721806,-112.470188,-126.835728,-50.325966,-81.037846,-99.265537,-112.403355,-40.20504,-64.612942,-78.583374,-89.706688,-16.393746,-17.259734,-5.028521,8.412629,11.083087,24.072101,30.275115,34.975989,27.67672,39.147785,44.967082,49.128875,39.834388,52.006012,57.699708,60.657615,47.966115,59.786193,64.046416,65.642726,37.056942,64.300919,82.814198,95.543861,55.26535,74.20332,81.8573,84.948635,37.814713,58.62236,71.423206,77.478561,21.617718,41.185455,55.822849,63.682251,7.854767,24.107494,35.913963,43.967915,-9.290041,-8.464191,-10.991512,-17.159575,11.316072,31.790409,34.956723,35.386382,18.351481,43.144025,44.267512,42.057773,22.880071,47.487981,48.48667,46.357949,25.289449,43.924118,45.689994,43.894848,53.646069,288.269958,-142.468472,205.636606
38,0.401573,0.572982,-14.495373,-24.755864,-25.793266,-50.728683,-74.138088,-89.064331,-63.514767,-95.287285,-112.088699,-124.137325,-58.041916,-93.383045,-113.233337,-128.06282,-50.233955,-82.497253,-100.581951,-113.995171,-41.076622,-66.195488,-79.993744,-91.379814,-17.019587,-18.317827,-6.47027,6.814158,9.630533,22.183712,28.821758,34.173604,26.708041,37.041479,42.481813,46.942787,39.473272,50.658432,55.851704,59.515171,48.147043,59.182768,62.326914,64.169237,16.68251,30.919018,33.611641,29.087791,33.06776,54.571838,66.962357,75.918217,23.257427,45.577927,49.399052,50.829792,14.218884,33.748741,43.593636,50.142231,6.549568,22.34951,32.280235,40.30283,-21.184529,-37.757598,-51.613403,-67.656839,-26.396387,-26.250965,-31.112328,-37.129535,-13.325492,-7.2545,-4.777012,-1.503314,-0.048598,8.572254,11.882755,16.142546,12.47099,18.376861,21.189407,24.298972,53.785429,289.100485,-157.226057,181.138288
39,-0.227051,-1.507142,-17.71677,-20.281985,-26.273689,-51.057816,-74.280396,-88.892097,-62.482224,-95.026646,-111.83733,-123.894653,-56.95919,-92.795277,-112.59201,-127.524204,-48.877487,-81.766491,-100.254135,-113.86488,-39.566345,-65.247231,-79.49913,-91.196995,-17.342974,-17.814253,-4.92651,8.345321,10.051362,23.073227,30.030337,35.831294,27.363213,37.837627,43.41443,47.997237,40.342532,51.262599,56.449757,60.081051,48.994629,60.29971,63.564269,65.225416,25.408573,42.698879,54.909668,65.987263,9.638443,3.163605,-1.14418,-4.561443,-10.598545,0.199986,13.8204,20.47863,-25.543671,-12.174225,-0.173836,5.876255,-37.153587,-26.89539,-14.859123,-7.951126,-16.162862,-41.684492,-57.218271,-66.147937,-68.209783,-90.838932,-103.620155,-115.010636,-64.704336,-55.44094,-37.675038,-26.34112,-52.492574,-40.439974,-25.580726,-16.647602,-37.324604,-30.501801,-20.097351,-14.03908,52.960854,287.896923,-175.540352,161.159884
40,0.490608,0.429659,-25.106792,-40.01155,-26.582108,-51.181641,-74.21608,-88.683872,-63.241482,-95.185204,-111.584644,-123.440838,-57.689667,-92.676888,-111.962814,-126.637115,-49.569283,-81.42786,-99.33672,-112.638016,-40.003624,-64.797363,-78.525696,-89.79126,-17.791282,-18.766259,-6.057592,7.235913,9.513948,22.493452,29.070241,34.422273,26.875261,37.764267,43.17348,47.702502,39.668403,51.068393,56.321192,59.932109,48.093382,59.60971,63.294481,65.187996,22.776203,39.348278,53.583012,66.674423,10.635281,2.876587,-2.61858,-7.559566,-8.893375,-1.75066,7.693863,11.873188,-24.470158,-16.015778,-6.954403,-1.805191,-37.320499,-32.447433,-22.684479,-16.683369,-11.738815,-39.202249,-57.100668,-67.107137,-66.226113,-91.681609,-108.537958,-122.827744,-63.0916,-55.339793,-36.436417,-24.678768,-53.367855,-42.593952,-26.229043,-17.274246,-41.142848,-34.533331,-22.150923,-15.293755,53.285837,289.238744,-200.812769,122.060496
41,1.408653,-0.080276,-17.659092,-34.447344,-26.633148,-51.549454,-75.021057,-90.084801,-61.944351,-94.764748,-111.836357,-124.344234,-56.548462,-92.41293,-111.998863,-127.069588,-48.804703,-81.664124,-99.807816,-113.176861,-40.005684,-65.859432,-79.691219,-90.694141,-18.258671,-18.990722,-6.024555,7.317671,8.957885,21.629379,28.177392,33.477245,26.897491,37.804899,43.169898,47.643345,40.056257,51.492928,56.371704,59.744882,48.68563,60.409193,63.805095,65.278522,20.371456,35.160828,48.281822,61.511822,6.089172,-2.872925,-8.744888,-14.376068,-13.342266,-7.226772,2.015591,7.297554,-29.064388,-21.712818,-11.879139,-5.990982,-42.03186,-38.023739,-27.248497,-20.4352,-13.149318,-41.698602,-60.38122,-70.490843,-70.387102,-97.464072,-115.808483,-131.881405,-66.412846,-58.744402,-38.166664,-26.962607,-56.171108,-46.600103,-29.521977,-21.612552,-43.258819,-38.192506,-24.910394,-18.692961,52.643366,289.039445,-220.522985,87.494128
42,-0.070267,-0.01624,-20.74482,-11.639119,-26.761436,-51.241264,-74.463787,-89.957943,-61.758785,-94.74575,-111.644497,-123.942719,-56.33503,-92.216721,-111.531544,-126.194115,-48.537254,-81.345177,-99.554729,-112.955189,-39.708366,-65.396805,-79.304924,-90.649681,-18.534757,-19.38611,-6.727831,5.534936,7.930111,20.594071,27.540807,33.349236,25.967469,36.905751,42.358436,47.060915,39.39738,50.525978,55.533566,59.27669,48.398491,59.761863,62.988569,64.632612,22.317467,39.009018,52.961025,67.222595,12.475719,8.769493,3.168583,-2.703037,-4.382114,-8.109684,3.416977,9.194298,-20.397606,-22.511959,-12.15992,-5.522346,-33.814487,-35.811424,-27.834721,-21.626759,-28.461907,-54.283552,-71.785842,-83.529937,-76.390879,-98.285568,-116.5196,-133.267269,-72.288953,-82.317869,-61.341593,-48.52653,-64.512601,-70.919607,-53.47913,-43.661246,-54.69305,-64.844386,-52.878205,-42.898752,51.79018,288.458976,-242.050724,75.29078
43,0.522995,0.257623,-13.797741,-32.161683,-26.440315,-50.769081,-73.800774,-89.361763,-61.607208,-94.278431,-111.270962,-123.601513,-56.233978,-91.795864,-111.194344,-126.119385,-48.353119,-80.940914,-98.940239,-112.165775,-39.435081,-64.92691,-78.531818,-89.484673,-18.700557,-19.754513,-7.169285,4.904032,7.538367,20.194793,27.033589,32.534193,25.882253,36.416317,42.031035,46.822188,39.457464,49.967445,55.011096,58.77219,48.401825,59.317384,62.789239,64.61384,21.536407,40.220318,55.655365,68.773956,10.61554,3.100033,-1.485844,-6.104336,-6.076012,-8.662605,0.039711,6.165333,-21.311932,-21.246071,-11.123257,-5.173817,-35.472622,-36.448288,-26.663704,-20.909786,-17.551844,-45.640532,-64.840433,-73.198877,-73.43146,-105.710191,-125.890071,-143.583262,-67.381525,-74.233103,-50.995188,-37.544436,-58.573569,-61.557349,-41.208736,-31.284549,-47.274016,-55.020482,-40.25392,-32.439869,51.67079,288.674778,-256.49085,43.087276
44,0.074844,0.474058,-9.333344,-10.542401,-25.97683,-50.149155,-73.232002,-89.509735,-61.38176,-94.196548,-111.228046,-123.522263,-56.138306,-91.655502,-110.946579,-125.66185,-48.392487,-80.752087,-98.715992,-111.782341,-39.384499,-64.624557,-78.269119,-89.166985,-19.240502,-20.312242,-7.749615,4.00155,7.46439,20.035168,26.715204,32.181474,25.791542,36.399892,41.762051,46.476015,39.196383,49.783923,55.053333,59.160167,47.887938,58.714144,62.444672,64.676949,21.375961,39.994183,55.774841,70.245037,12.789803,6.631508,1.889019,-3.298988,-3.032627,-5.672092,2.219124,5.970554,-18.666744,-18.889904,-9.408932,-4.94957,-33.136826,-34.752789,-25.750179,-20.485382,-19.389135,-45.198214,-63.779685,-72.412392,-72.872402,-103.311002,-124.411581,-143.312209,-68.361936,-75.535605,-51.390669,-38.118684,-60.78056,-64.276776,-42.319379,-32.292193,-50.112034,-57.76538,-43.10506,-34.774652,51.649303,289.080231,-265.920525,32.476271
45,0.234032,-0.005928,-7.000065,-5.238349,-25.789146,-50.14904,-73.356228,-89.653187,-60.897446,-94.021225,-111.304436,-123.749657,-55.865364,-91.65453,-111.239891,-126.115952,-48.425217,-80.996876,-99.274406,-112.587261,-39.692345,-64.906883,-78.661022,-89.686432,-19.127684,-20.075121,-7.815132,3.696318,7.153476,19.571114,26.389162,32.091813,25.433019,36.111209,41.594275,46.274338,38.90029,49.638501,55.058335,59.244395,47.68867,58.569401,62.454737,64.84102,21.311874,41.901455,58.024635,73.18491,16.470966,10.186443,5.037575,0.054646,0.115013,-2.574291,3.550129,7.93499,-15.394878,-16.531219,-8.119926,-2.835217,-29.673328,-31.632729,-22.998161,-17.542019,-14.628858,-40.533804,-60.462823,-68.489728,-71.124433,-102.882053,-123.771106,-142.862017,-66.239945,-73.594882,-49.191613,-37.061517,-58.654864,-62.0897,-40.083674,-31.475636,-48.530359,-53.703345,-38.256171,-31.656102,51.702633,289.063682,-273.101292,27.2273
46,0.119476,0.007348,0.161591,1.975581,-25.61451,-49.96994,-73.219185,-89.140091,-60.855389,-93.833027,-111.107426,-123.554935,-55.862617,-91.684856,-111.27903,-126.026115,-48.447762,-81.271133,-99.47382,-112.560139,-39.823608,-65.451908,-79.288101,-90.25074,-19.237538,-20.357814,-8.206259,3.389912,7.404801,19.681153,26.344887,31.865003,25.587456,35.859637,41.199875,45.713459,38.924557,49.348953,54.460714,58.461585,47.641493,58.291092,61.842605,64.034436,20.806103,39.866695,56.303158,72.177258,14.698105,8.642406,2.841797,-2.480621,-2.086487,-4.504395,1.257019,5.282593,-17.984619,-18.691063,-10.070229,-4.935436,-32.705784,-34.229221,-25.264721,-20.020752,-12.926399,-40.527073,-60.435653,-68.229265,-70.096135,-103.201426,-123.91378,-142.164083,-64.889587,-73.437696,-49.113715,-36.008116,-57.00551,-62.014549,-40.064347,-30.521006,-47.043224,-54.509898,-39.421648,-31.849473,51.327839,289.045003,-273.433971,29.176854
47,-0.022545,-0.299736,-2.450123,4.336176,-25.402107,-49.73877,-73.008785,-89.059181,-61.197109,-94.039192,-111.14027,-123.828392,-56.208229,-91.908875,-111.749668,-126.826458,-48.560829,-81.252193,-99.749279,-113.345833,-39.466896,-64.98682,-78.981514,-90.350647,-18.644487,-19.860909,-8.141051,2.902393,7.068384,19.426124,26.029651,31.513767,25.023181,35.493581,40.869201,45.258915,38.477917,49.166543,54.526293,58.469674,47.421785,58.185067,61.604619,63.484672,21.260433,41.230946,59.401817,75.217953,15.244675,8.312531,2.459793,-2.678375,-1.708946,-4.081364,1.788998,5.840778,-17.421913,-17.691479,-8.992939,-4.095612,-32.055359,-32.531719,-23.384914,-18.781414,-12.206605,-39.493896,-57.791964,-65.975591,-69.107171,-102.214407,-122.972426,-140.994901,-63.943138,-70.80401,-46.358072,-33.413055,-55.715328,-59.865079,-38.081973,-28.755777,-45.635006,-52.356538,-36.980531,-29.373559,50.922918,288.74823,-276.26647,33.515993
48,-0.387039,-0.092811,-1.220398,4.051383,-24.858856,-49.056816,-72.377815,-88.636894,-61.018524,-94.13229,-111.368237,-123.911648,-56.009445,-92.157955,-112.006474,-126.85976,-48.299675,-81.477127,-100.052147,-113.46199,-39.255295,-65.195618,-79.24118,-90.42675,-19.066242,-20.174724,-8.097826,3.11747,6.985701,19.428717,26.311604,32.238902,25.058564,35.37323,40.890505,45.58965,38.486253,48.901757,54.174377,58.286152,47.337372,57.825494,61.145505,63.199385,21.773472,42.481785,60.719318,76.128502,15.719204,8.8694,2.975292,-2.179928,-1.566525,-2.831097,2.628193,5.902805,-17.391243,-16.859894,-8.735218,-4.603443,-32.333908,-32.044029,-23.156776,-19.232082,-11.536521,-38.560755,-56.438086,-64.436771,-68.650557,-101.342028,-122.014924,-139.731148,-63.914239,-69.30505,-44.943679,-31.764752,-56.007624,-58.82301,-37.196287,-27.593511,-46.159297,-52.290341,-36.900688,-29.13051,50.187864,288.680675,-277.834883,37.592632
49,0.638466,0.123316,0.569115,0.607871,-25.254936,-49.952888,-73.71666,-89.1362,-61.991444,-95.219479,-112.155075,-124.425831,-56.360092,-92.76701,-112.570782,-127.410622,-47.95063,-81.398048,-100.109825,-113.891029,-38.397675,-65.101891,-79.786835,-91.750031,-19.084459,-20.836133,-9.384828,2.745547,6.706218,19.227905,25.899605,31.7901,24.586112,34.681501,40.344323,45.31838,38.150207,48.509518,53.770777,57.920775,47.290565,57.754975,60.942223,62.943677,20.720329,41.397629,58.776569,73.785553,15.149231,8.080158,1.705742,-3.791142,-2.753849,-3.964691,1.786652,5.420551,-19.334621,-18.277645,-9.936447,-5.345478,-34.84766,-34.56419,-25.176373,-20.33638,-11.848021,-38.375535,-56.74832,-63.429869,-69.329905,-101.328134,-121.337861,-139.380344,-64.985115,-69.009142,-44.220396,-32.398589,-57.38966,-58.613584,-37.165103,-29.070859,-47.442934,-52.767641,-37.774055,-31.231321,50.685167,288.744093,-277.406931,38.140605
50,-0.155754,-0.483197,-3.835888,-9.270528,-25.454063,-49.911003,-73.553753,-88.806782,-62.158413,-95.149155,-111.964588,-124.282894,-56.772537,-92.973404,-112.924576,-127.913361,-48.526039,-81.870747,-100.622692,-114.339066,-39.075966,-65.545692,-80.229321,-92.226219,-18.81356,-20.460135,-9.196304,2.453529,7.169593,19.774149,26.34464,31.938239,24.820763,35.067627,40.605959,45.349009,38.232706,48.848466,53.884583,57.660867,47.238139,57.834942,60.858613,62.649066,21.704235,42.623234,59.034233,75.609741,16.965523,10.409889,5.058117,-0.207653,-0.408669,-1.390114,4.867859,8.385944,-16.672554,-16.231384,-8.277798,-4.129829,-31.534252,-32.547741,-25.03418,-20.768509,-12.668004,-37.591613,-55.757473,-61.197221,-68.986017,-98.856204,-120.117519,-139.532404,-66.541194,-70.443728,-44.981316,-33.408578,-60.601113,-61.017218,-38.513979,-30.609895,-51.677963,-54.57347,-38.609136,-32.231955,50.278101,288.150702,-281.494131,28.759884
51,0.157471,-0.713835,-3.993816,-16.108861,-25.497322,-49.84211,-73.173065,-88.728447,-62.336197,-95.349369,-112.393284,-124.888973,-57.057381,-93.190327,-113.396187,-128.457813,-48.890533,-82.29784,-101.326275,-115.111198,-39.387703,-65.776348,-80.46278,-92.542133,-18.433609,-19.828057,-8.406701,2.450997,6.680468,19.340353,25.988587,31.718593,24.132246,34.624382,40.303444,45.180553,37.631195,48.332727,53.467088,57.312225,46.970204,57.717246,60.869851,62.658884,22.401066,42.083988,58.425808,76.603489,19.677601,16.541233,12.491283,7.38636,2.086201,-1.312294,6.13266,9.879684,-14.535542,-16.676788,-7.822838,-3.657761,-29.397297,-31.375751,-24.415512,-21.195717,-19.194529,-40.433058,-56.36346,-63.07783,-68.220466,-94.904702,-115.42847,-134.344412,-66.149666,-77.899935,-55.01656,-43.584583,-60.923358,-67.842769,-47.7155,-39.763653,-52.32452,-62.440442,-48.370271,-40.007783,49.857244,287.764808,-286.066275,12.978964
52,-0.449524,-0.792814,-5.139141,-16.257062,-26.079025,-50.650635,-73.707275,-89.205608,-63.313694,-95.591297,-112.104435,-124.531345,-57.890739,-93.235016,-113.056927,-128.219891,-49.547882,-82.196045,-100.776043,-114.684677,-39.551811,-65.250492,-79.798107,-92.058048,-18.499868,-19.769086,-7.968273,3.158904,7.295688,19.807062,26.1379,31.271458,25.023675,35.545575,40.974301,45.429593,38.290813,49.059961,54.025559,57.568736,47.180588,58.021922,61.408685,63.245451,23.707924,43.785038,59.862556,77.276001,23.437328,21.518497,16.425476,13.832588,5.260792,2.157841,7.759953,13.680725,-11.144543,-14.207268,-8.935661,-2.748871,-25.232334,-28.944225,-25.495892,-21.23497,-27.670143,-49.786115,-66.18403,-75.702609,-69.573695,-90.297257,-104.956249,-119.225658,-68.375552,-85.87602,-68.229667,-57.600414,-65.114297,-78.013896,-62.701337,-53.03925,-60.588732,-74.322703,-64.219996,-54.205067,49.185905,288.286306,-291.427231,-1.963787
53,0.03582,0.047301,-1.623173,-51.142432,-25.999374,-50.610695,-73.692341,-89.87566,-63.325195,-95.872822,-112.630634,-125.039921,-57.848969,-93.494453,-113.23534,-128.345661,-49.638634,-82.584229,-101.141796,-114.833565,-39.979362,-65.758495,-80.047474,-91.915398,-18.792935,-20.125139,-8.315249,1.975025,6.969646,19.470522,25.837669,31.258738,24.811933,35.331177,40.851232,45.621143,38.237337,48.890703,53.661602,57.284252,47.286489,58.207976,61.581463,63.421502,24.19138,46.797695,65.444412,81.667614,22.69352,17.614174,14.275074,11.680698,4.954262,-1.050854,3.678646,9.194069,-11.573296,-15.94614,-10.312729,-5.351715,-26.945858,-33.089161,-27.825737,-22.933617,-15.4456,-39.737841,-56.184569,-61.525023,-72.925508,-108.113131,-129.325601,-146.612429,-70.337826,-77.792922,-54.978152,-40.210232,-64.398239,-67.441052,-47.267223,-36.361977,-55.921883,-64.875508,-50.847512,-42.675802,48.827906,289.231921,-293.444223,-52.207905
54,0.243073,-0.416445,-6.392097,-17.662254,-26.275063,-51.113777,-74.118004,-90.265789,-63.647633,-95.812683,-112.521286,-124.947281,-58.231201,-93.354263,-112.924232,-128.170395,-50.126152,-82.717323,-101.159763,-115.050831,-40.52948,-66.08036,-80.167236,-91.998539,-18.474797,-19.786191,-8.182732,1.985214,6.803599,19.365176,25.768817,31.093802,24.535847,35.208603,40.645665,45.359136,38.054926,48.78616,53.537545,57.224354,47.377386,58.365316,61.739976,63.554636,25.365257,48.31255,67.492733,86.187973,30.664616,27.526875,22.814426,20.268002,12.253933,6.175632,11.786785,18.186722,-4.422626,-9.321671,-4.098816,1.954422,-18.917427,-24.241333,-21.332874,-17.422485,-29.889114,-52.872092,-70.243224,-77.99111,-77.334888,-103.095586,-120.409753,-136.381497,-75.972072,-96.421678,-76.146332,-62.242192,-71.390701,-85.756471,-68.006593,-56.566187,-64.838643,-80.534887,-69.494469,-58.482642,48.897314,288.894239,-300.009985,-69.791396
55,-0.661354,0.423917,3.912277,-47.624666,-26.277351,-50.799294,-73.528919,-89.714184,-62.653084,-95.600395,-112.520542,-124.849377,-57.18956,-93.1703,-112.601795,-127.629261,-49.062195,-82.020721,-100.243435,-113.800564,-39.538651,-65.330772,-79.171371,-90.550861,-19.123115,-20.13823,-8.005941,2.277355,6.849726,19.264091,25.813154,31.31314,24.798533,35.351617,41.224328,46.352082,38.299211,48.984379,53.903355,57.771462,47.390786,58.340307,61.802591,63.710802,25.437584,47.882423,66.608334,82.893562,26.260414,23.153687,20.145035,17.521076,9.039459,3.789196,7.604084,12.525558,-6.982784,-10.458698,-5.679302,-1.399899,-22.494736,-26.850243,-22.195873,-18.33292,-16.466149,-39.639195,-55.829999,-60.578235,-73.203354,-108.911378,-129.789409,-147.841076,-70.44998,-84.233953,-60.106168,-44.097482,-64.713228,-73.414046,-51.451493,-39.262487,-56.231824,-69.544719,-55.350229,-46.572686,47.97349,289.598749,-296.360178,-117.135468
56,1.115456,0.485482,1.433887,-18.110747,-26.523514,-50.97599,-74.003849,-90.279121,-62.88866,-95.65361,-112.517338,-124.929543,-57.551422,-93.184204,-112.986488,-128.541298,-49.509544,-82.297726,-100.692101,-114.52034,-39.945831,-65.878944,-80.125294,-91.984463,-18.668508,-20.205167,-8.428808,1.684736,6.838796,18.970468,25.252213,30.679457,24.734313,34.508662,39.912441,45.027351,38.415672,48.716506,53.660861,57.750097,47.746715,58.384212,61.751338,63.622252,25.538521,46.950817,66.183872,85.180721,27.234192,26.018829,23.815727,21.076126,9.278297,5.811481,11.299839,14.903469,-7.847271,-10.655365,-3.723106,0.790558,-23.711929,-27.760162,-22.619419,-18.316498,-24.359704,-45.304919,-60.926584,-66.443042,-76.059418,-104.650785,-126.369949,-145.621296,-75.07612,-91.979384,-68.06186,-50.594644,-70.19915,-81.366002,-60.931895,-47.452814,-62.099147,-76.779397,-64.089024,-51.339123,49.157724,289.936339,-294.857512,-135.394108
57,-0.247765,-0.034704,1.787853,-16.506534,-26.363525,-50.771027,-73.395996,-89.412003,-62.080708,-94.669361,-111.408234,-123.794746,-57.108765,-92.565022,-112.532501,-128.153343,-49.320717,-81.829205,-100.35181,-114.456997,-39.71489,-64.749699,-78.759613,-90.788555,-17.951895,-19.338685,-7.882749,2.028316,7.509159,19.711164,25.907509,30.831548,25.035778,34.993897,40.381126,44.856734,38.359232,48.849948,54.083851,57.958813,47.305447,58.23033,62.037551,63.998065,25.77879,47.091751,65.553761,84.397144,27.318134,26.858482,24.586372,21.778622,9.80793,7.283134,11.574554,14.235077,-7.098026,-9.255238,-3.475628,0.066833,-23.611393,-26.654663,-21.805344,-18.597279,-24.900298,-46.295179,-62.291932,-68.640739,-74.774083,-99.954991,-119.668161,-136.88467,-73.95322,-92.080887,-69.665225,-50.50946,-69.298489,-82.066683,-62.234165,-46.369156,-61.473739,-78.575454,-66.630532,-51.243904,48.950672,289.880362,-293.028946,-151.921914
58,0.628166,0.659865,2.775307,-14.830905,-25.862045,-50.759697,-73.534584,-89.442387,-62.808952,-95.223026,-112.294464,-124.965534,-57.677307,-92.98645,-113.217888,-129.230118,-49.698944,-81.915264,-100.682087,-114.886494,-39.910927,-64.888401,-79.117012,-91.215878,-18.314616,-19.628974,-8.326426,1.332821,7.606169,19.710732,25.968704,31.17698,25.001445,34.882375,40.623126,45.757302,38.089754,48.485065,53.837652,58.047302,46.841022,57.495809,61.23035,63.40699,24.770737,45.613289,64.441109,83.711529,26.898308,25.070171,22.926807,20.107784,9.765244,5.866356,9.734745,12.092342,-7.036343,-9.750538,-3.70966,-0.24353,-23.688354,-25.36869,-20.343876,-17.806492,-20.443539,-41.471623,-57.146981,-62.83901,-71.120435,-96.371568,-115.799822,-132.203418,-70.605328,-88.398401,-65.336598,-46.906802,-65.943003,-76.628047,-55.544928,-41.345544,-57.737006,-72.360059,-58.898006,-45.413723,49.576635,290.506805,-290.255842,-166.786242
59,0.500908,0.385137,1.829796,-10.122668,-25.682487,-50.656013,-74.010201,-90.64682,-62.342148,-95.406075,-112.442551,-125.059891,-57.174568,-93.288746,-113.510056,-129.455795,-49.183273,-82.527409,-101.564312,-115.864735,-39.520683,-65.737438,-80.408421,-92.721233,-18.591258,-19.908827,-8.730026,1.170232,7.369912,19.301079,25.492176,30.693228,25.038187,34.480751,39.874341,44.760527,38.324961,48.159949,53.11789,57.145869,47.271114,57.483891,60.809706,62.799181,24.044151,45.848179,64.206734,83.353901,26.328163,25.629959,24.350681,21.446915,8.667355,8.123245,11.196899,12.07798,-7.835655,-7.658501,-2.355824,0.257378,-24.084778,-24.800549,-18.935509,-15.69849,-13.633148,-34.914347,-50.9291,-55.834074,-67.629252,-96.002192,-117.555934,-137.033002,-66.383345,-79.788279,-55.020821,-39.145346,-61.659299,-70.072253,-46.544697,-33.672947,-53.504663,-65.977598,-50.775604,-39.55205,50.043583,290.807437,-288.460007,-176.993415
60,-0.656662,-0.111274,0.63097,-2.501694,-25.640488,-50.150414,-73.523941,-90.210228,-61.743279,-95.77961,-112.950611,-125.665112,-56.230202,-93.483238,-113.740368,-129.275379,-48.001671,-82.114105,-101.37331,-115.621376,-38.443794,-65.305481,-80.412083,-92.938042,-18.548218,-19.80064,-8.739412,1.173011,7.26191,19.421925,25.79432,31.308879,25.081659,35.100848,40.496846,45.378711,38.521389,48.98654,54.059275,58.238728,47.521512,58.067679,61.022807,62.828327,23.540554,46.8326,65.523663,82.957878,26.619759,25.413837,23.920097,21.641579,9.264336,7.846298,9.654694,10.914288,-7.133503,-8.067684,-3.836803,-0.851212,-23.667297,-24.293633,-19.090462,-16.234989,-10.366582,-33.270165,-49.19768,-53.412455,-66.200764,-98.060233,-118.703002,-137.284898,-63.38263,-76.68356,-51.149395,-35.767537,-58.355436,-67.697239,-43.50423,-30.454145,-50.838034,-64.003237,-48.4258,-38.100699,49.333134,290.664747,-287.882824,-179.526525
61,-0.144997,1.052721,-0.093613,2.162854,-25.697365,-49.692078,-73.189259,-88.820915,-62.160645,-95.498371,-112.130871,-124.503136,-56.996841,-93.721218,-113.684464,-128.896809,-49.096527,-82.756577,-101.596413,-115.542984,-39.716492,-66.228962,-80.84713,-93.002129,-19.061364,-21.408683,-11.076604,-0.341974,5.999608,17.738794,23.885245,29.062955,23.786814,33.452051,38.547139,42.895171,37.483673,47.664773,52.745288,56.583014,47.078391,57.546135,60.559555,62.162966,23.839531,47.523193,67.46418,85.495033,26.71772,26.448097,24.525261,22.006187,9.377918,8.258514,10.545158,12.77298,-7.021294,-7.618961,-2.375107,1.758385,-23.2794,-23.855038,-17.47839,-13.342037,-9.573151,-32.365846,-48.063927,-54.02329,-66.819086,-100.109752,-120.91941,-138.925861,-63.709428,-79.357677,-54.892643,-38.746037,-58.303164,-68.75524,-44.470084,-30.458653,-50.066416,-63.217694,-47.038886,-36.24019,49.13106,291.7424,-288.033514,-177.338739
62,0.490608,-0.818687,0.677834,2.82928,-26.054192,-50.116081,-72.961578,-89.116173,-62.287102,-95.030651,-111.84557,-124.14814,-57.430573,-92.812214,-112.81065,-128.484364,-49.730988,-82.532043,-101.169033,-115.209961,-40.117149,-65.516624,-79.853725,-92.17804,-18.208406,-20.207637,-9.331352,0.427004,7.166382,19.0316,25.26197,30.191752,24.771981,34.304083,39.443878,43.722441,38.20251,48.111351,53.19588,57.108201,47.316871,57.898113,61.748683,64.066793,23.614311,46.447906,66.093349,83.376274,26.173267,25.430088,23.384342,20.678329,8.780766,7.193928,9.794769,11.909466,-7.880974,-8.894119,-3.201714,0.668907,-24.212894,-25.209961,-18.427963,-14.44376,-10.409113,-32.903275,-48.786175,-54.214191,-67.665345,-101.300555,-122.057902,-140.088745,-64.541716,-79.11066,-53.79611,-37.859795,-59.096765,-69.55693,-45.028493,-31.745609,-50.853209,-63.672332,-46.977243,-36.476107,49.595804,290.982391,-287.381544,-174.45078
63,-0.651741,-0.079411,-1.056862,2.190164,-25.829315,-49.701691,-72.35796,-88.438339,-61.99894,-94.487286,-111.206074,-123.590984,-56.990776,-92.356853,-112.314148,-127.783585,-49.192085,-81.789665,-100.401764,-114.423065,-39.458656,-64.524479,-78.757153,-91.14212,-18.296524,-20.304523,-9.492891,0.133751,7.345582,19.506832,26.040951,31.311843,24.889121,34.74035,40.020813,44.401942,38.287725,48.265357,53.40046,57.337048,47.404371,57.826606,61.604743,64.015108,23.947506,47.032528,67.232609,85.140495,26.978302,26.206284,24.489613,22.207661,9.57653,7.927895,10.721912,13.26519,-6.892204,-8.034554,-2.183361,2.099819,-23.081875,-24.3116,-17.625561,-13.325729,-11.324161,-33.58361,-49.268292,-54.616727,-68.601018,-101.922899,-122.471429,-140.490832,-65.465209,-79.843252,-54.52796,-38.806367,-59.974269,-70.109272,-45.793179,-32.602164,-51.598845,-64.828361,-48.582584,-38.156243,48.879805,291.021819,-288.502665,-172.141778
64,0.481911,-0.057304,0.049267,1.161572,-25.662346,-49.715881,-72.395267,-88.287106,-62.214947,-94.547081,-111.234283,-123.464184,-57.248268,-92.161789,-112.260361,-127.888241,-49.32209,-81.750183,-100.408802,-114.439659,-39.316292,-64.270821,-78.559742,-90.872383,-18.139492,-20.308105,-9.653874,0.139,7.735906,19.69869,26.129502,31.409347,25.139025,34.936592,40.148204,44.558171,38.287355,48.327416,53.379341,57.353103,47.133287,57.741884,61.643152,64.208017,24.148979,47.365379,67.521973,85.241032,27.104759,26.458626,24.756145,22.432938,9.990921,8.508968,10.870171,13.13982,-6.378479,-7.201996,-1.9491,1.906528,-22.456455,-23.289356,-17.153835,-13.223877,-11.189453,-33.862398,-50.031326,-55.137576,-68.949661,-102.407454,-123.16308,-141.21667,-66.031599,-79.192896,-53.864992,-38.187505,-60.851372,-69.773797,-45.585698,-32.626031,-52.898784,-64.785522,-48.288158,-38.070781,49.291964,291.088092,-288.523149,-170.856628
65,-0.220642,-0.008645,-0.15358,1.586106,-25.768547,-49.646416,-72.660656,-89.596367,-61.361046,-94.308529,-111.084709,-123.310089,-56.152725,-92.015076,-111.815872,-127.135448,-48.164749,-81.146336,-99.72147,-113.60899,-38.422165,-63.821869,-78.117485,-90.28616,-18.187102,-20.066846,-9.182657,0.561682,7.866694,20.153173,26.646908,31.885937,25.344901,35.416208,40.834189,45.399829,38.422774,48.744231,53.964611,58.049833,47.063694,57.732621,61.664641,64.30268,24.135303,47.278175,67.754059,85.849743,27.787113,27.296963,25.576172,23.414783,10.471287,8.730755,11.007729,13.657722,-6.07481,-7.081604,-1.834545,2.284698,-22.151928,-22.941284,-16.790371,-12.704144,-11.202405,-34.296997,-50.900216,-55.75772,-69.225238,-102.824193,-123.80222,-142.143104,-66.507216,-79.4068,-53.570366,-38.039057,-61.481288,-70.035635,-45.445185,-32.658635,-53.681115,-65.069435,-48.376554,-38.348009,49.07032,291.118535,-288.677731,-169.231435
66,-0.117302,0.244717,-0.179615,0.930301,-25.596428,-49.444656,-72.400589,-88.872814,-61.203346,-94.162445,-110.905952,-122.977238,-55.986671,-91.907787,-111.749783,-126.958809,-47.981987,-81.02623,-99.694805,-113.57729,-38.312645,-64.005775,-78.333206,-90.440426,-18.507339,-20.569,-9.709264,0.381988,7.170767,19.664604,26.463386,32.228775,24.975757,35.047187,40.625287,45.504064,38.413635,48.783505,54.123495,58.412493,47.37189,58.05218,61.834763,64.333185,24.549065,47.893524,68.520813,86.990032,28.786354,28.257923,26.470699,24.039288,11.562996,9.168262,11.460228,14.539261,-4.868088,-6.651821,-1.425419,3.024101,-20.920658,-22.275124,-16.409912,-12.279053,-11.611933,-34.841914,-51.482013,-55.852445,-69.222166,-103.124454,-123.890886,-142.139082,-66.345909,-80.18839,-53.903741,-38.381123,-61.422872,-70.981404,-46.027877,-33.156235,-53.804354,-66.019789,-49.197973,-39.040401,48.949413,291.34394,-288.86095,-168.320446
67,0.459938,-0.271949,0.690022,0.990616,-25.530853,-49.420395,-72.369404,-88.749046,-61.120949,-93.867931,-110.782928,-123.159599,-56.07193,-91.391773,-111.289215,-126.838131,-48.066673,-80.804672,-99.521255,-113.684063,-38.219032,-63.459835,-77.767982,-90.012531,-18.105838,-20.151876,-9.315297,0.941941,7.360093,19.881163,26.499881,31.936263,25.023737,35.212802,40.626399,45.166227,38.207635,48.708416,54.16283,58.412493,46.877331,57.807648,61.947211,64.689299,24.083118,46.949387,67.084351,85.457954,28.340492,27.620831,25.653648,23.078957,11.156044,8.664837,10.838242,13.942337,-5.323849,-7.142429,-1.983204,2.438221,-21.513863,-23.060875,-17.272282,-13.197498,-11.611733,-35.128281,-52.206809,-56.551707,-69.720183,-103.821045,-124.685629,-143.324397,-66.608533,-80.761064,-54.268315,-39.494159,-61.667543,-71.855404,-46.808279,-34.629214,-54.116517,-66.870864,-49.922676,-40.038705,49.413757,291.006149,-288.166523,-167.395672
68,0.112152,-0.009695,0.050755,0.659927,-25.587387,-49.496498,-72.200489,-88.502083,-60.906487,-93.721504,-110.524292,-122.801571,-55.883675,-91.274414,-111.182098,-126.734219,-47.96608,-80.552559,-99.219475,-113.452663,-38.181496,-63.183174,-77.495155,-89.799728,-18.123684,-20.39647,-9.701545,0.446764,7.660571,19.960203,26.562866,31.754964,25.384606,35.446033,40.889888,45.333818,38.537568,48.965792,54.523453,58.81029,47.147489,57.826297,61.863539,64.473482,24.0061,46.360989,66.227474,85.349464,28.124428,27.373981,25.662174,23.179951,11.031017,8.893375,11.277351,14.301224,-5.221539,-6.862564,-1.463814,3.054543,-21.315479,-22.669144,-16.656418,-12.474174,-11.907255,-35.703702,-52.894816,-57.220479,-70.143204,-104.324542,-125.177741,-143.764693,-66.96491,-81.448716,-55.036259,-39.92899,-61.924625,-72.031979,-47.030225,-34.520441,-54.266771,-67.343008,-50.839871,-40.807868,49.557295,290.932728,-288.084383,-166.799472
69,-0.277863,0.548035,-0.585651,0.547772,-25.522614,-49.266243,-72.137947,-88.981133,-60.63858,-93.557167,-110.375862,-122.784634,-55.666695,-91.22858,-110.933933,-126.310215,-47.749214,-80.4249,-98.932743,-113.049088,-38.086395,-63.368511,-77.592773,-89.713268,-18.613797,-20.897327,-10.03154,0.278247,7.026332,19.464841,26.130243,31.610345,24.90567,35.228054,40.655607,45.219271,38.203621,48.66939,54.101759,58.389831,46.927843,57.563611,61.442648,63.994051,24.191666,46.533108,66.451893,85.8395,28.725529,28.030987,26.376915,23.890343,11.559563,9.059372,11.090298,14.077663,-4.724522,-6.882877,-1.97897,2.599182,-20.913105,-22.755375,-17.326469,-13.183479,-12.077485,-35.789628,-52.957014,-57.193124,-70.394868,-104.582813,-125.378191,-143.792388,-67.302669,-81.672176,-55.960199,-40.895121,-62.313298,-71.958187,-47.337866,-34.644775,-54.654471,-68.130742,-52.394283,-42.46724,49.290905,291.458672,-288.658562,-166.273791
70,0.627022,-0.616887,-0.517044,1.096039,-25.842133,-49.768982,-72.462387,-89.328918,-60.490265,-93.456116,-110.490131,-123.115482,-55.536232,-90.835819,-111.036186,-127.121315,-47.503052,-80.223885,-99.229202,-113.881531,-37.452393,-62.659721,-77.204475,-89.842529,-17.925527,-19.891228,-8.904903,0.991959,7.661497,19.993672,26.356867,31.529946,25.224055,35.35526,40.694324,45.205933,38.248946,48.857729,54.427307,58.848575,46.726351,57.818455,62.165807,65.03257,24.696808,47.230511,66.78051,85.882759,28.914585,28.391647,26.620789,23.938808,11.661758,10.163212,12.183552,14.645348,-4.79147,-5.830765,-1.121635,2.804375,-21.13615,-22.082577,-16.413918,-12.520924,-12.337624,-36.295256,-53.473572,-57.893944,-70.775574,-105.119517,-125.925963,-144.09806,-67.769225,-81.96461,-56.688082,-41.070292,-62.715586,-72.064784,-47.761211,-34.61373,-54.985917,-67.828304,-51.839363,-41.426252,49.915266,290.901745,-289.178267,-165.117792
71,-0.172806,0.447629,-0.0844,1.438368,-25.881958,-49.974632,-72.657509,-90.239124,-60.518074,-93.189697,-110.30056,-122.993259,-55.481758,-90.788326,-110.772343,-126.644154,-47.568512,-79.86145,-98.672619,-113.221493,-37.816772,-62.676601,-77.030525,-89.485474,-18.60719,-20.373252,-8.955601,0.73094,7.249869,19.994783,26.835,32.254093,25.099875,35.735457,41.287931,45.884817,38.274079,49.047488,54.707716,58.998999,46.814284,57.779613,62.111652,64.876465,24.576359,47.170315,67.043324,86.102257,28.949089,28.419628,26.572838,23.922787,11.659241,9.597588,11.708565,14.468479,-4.919071,-6.353874,-1.447277,2.798023,-21.214485,-22.504807,-16.735554,-12.58461,-12.398912,-36.414064,-53.658484,-58.103047,-71.114075,-105.654692,-126.559121,-144.882406,-68.127145,-82.679356,-57.277166,-41.551744,-62.930771,-72.737478,-48.382019,-35.190772,-55.047003,-67.391945,-50.959064,-40.48499,49.792013,291.342581,-289.213114,-163.686217
72,0.318947,-0.102753,0.089607,1.630859,-25.80883,-49.859505,-72.328262,-89.347115,-60.567741,-93.175335,-110.354977,-123.156738,-55.698509,-90.735683,-110.75346,-126.751785,-47.906914,-80.174103,-99.030819,-113.619862,-38.17646,-62.892551,-77.184219,-89.591103,-18.140357,-19.83732,-8.697916,0.733163,7.350893,19.673002,26.372798,31.786951,25.04041,35.332598,40.783924,45.443116,38.201213,48.926333,54.559083,58.929283,46.778839,57.925097,62.355937,65.199234,24.187489,46.827621,66.437359,85.614395,28.832531,28.292542,26.449871,23.774128,11.581593,9.365101,11.211605,13.740292,-4.950886,-6.580982,-1.905327,2.210197,-21.329498,-22.824612,-17.298546,-13.199272,-12.419613,-36.715637,-54.389994,-58.927214,-71.68187,-106.265281,-127.164569,-145.509134,-68.811587,-83.144969,-57.449851,-41.672096,-63.855592,-73.506656,-48.829679,-35.527606,-56.113093,-68.893638,-52.476179,-41.851033,50.17024,291.22788,-289.064226,-162.067306
73,0.555382,0.326536,0.148087,0.697919,-25.159836,-49.569168,-72.926102,-90.76767,-60.675201,-93.695984,-111.039505,-123.908958,-55.580406,-91.370831,-111.538525,-127.342472,-47.536812,-80.565262,-99.476509,-113.705635,-37.625771,-63.267059,-77.930775,-90.134525,-18.969974,-20.650264,-9.275591,0.549332,7.897569,19.966502,26.521925,32.183635,25.602338,35.581328,41.102741,46.047159,38.78389,49.15728,54.573285,58.977448,47.474952,57.955664,61.876321,64.486573,24.098797,46.939545,66.841393,85.953884,28.734798,28.465462,26.729279,24.124203,11.393394,9.422379,11.236954,13.786983,-5.234871,-6.687183,-2.16013,1.982288,-21.751328,-23.323631,-17.879219,-13.586254,-12.508673,-36.775072,-54.209297,-58.520989,-72.248877,-106.292281,-126.78796,-144.932871,-69.452325,-82.556796,-57.020608,-41.379152,-64.451993,-72.733942,-48.437656,-35.085118,-56.520723,-68.926381,-53.124142,-42.421252,50.86647,291.491322,-288.775291,-161.432481
74,0.554352,0.501105,-0.272198,1.319822,-25.547447,-50.204544,-73.69709,-91.099491,-61.481323,-94.174805,-111.598549,-124.733562,-56.416512,-91.874657,-112.066669,-127.844353,-48.547783,-81.236286,-100.381908,-114.802494,-38.933601,-64.471607,-79.29554,-91.778011,-19.337883,-21.095917,-9.964479,0.220819,6.825767,19.207589,25.762087,31.391316,24.738203,35.046385,40.225824,44.727799,38.213563,48.727497,54.228286,58.582739,47.273522,57.75479,61.574176,64.012577,24.342899,47.712822,68.091545,86.764297,28.650398,28.57584,27.10968,24.937191,11.089096,9.739437,11.662331,14.032917,-5.675583,-6.788921,-2.166309,1.901894,-22.230434,-23.724861,-18.166637,-13.786068,-12.424739,-36.401312,-53.416654,-57.913504,-71.728568,-105.928972,-126.58626,-144.593229,-68.982744,-81.95351,-56.460795,-40.510833,-64.03899,-72.393682,-48.287139,-34.819313,-56.246999,-68.913028,-53.3943,-42.858398,51.444712,291.953833,-289.0236,-160.151253
75,0.526428,-0.586876,0.520191,1.593053,-25.694847,-50.242081,-73.448181,-91.24815,-61.592102,-94.193687,-111.355934,-124.266644,-56.751938,-91.964664,-112.138023,-128.153687,-48.9505,-81.525536,-100.45023,-114.964085,-39.129295,-64.413071,-78.965721,-91.389828,-18.799172,-20.338239,-8.70088,0.909707,7.542134,19.639225,25.836496,30.902808,25.228748,35.448256,40.676293,45.146467,38.48613,49.149993,54.55513,58.810475,47.375348,58.348891,62.58114,65.244127,24.215469,47.516899,67.716236,85.91898,28.657837,28.411674,27.07346,25.181236,11.048241,9.584312,11.468697,13.758888,-5.924606,-6.845398,-2.396736,1.406994,-22.697868,-23.709755,-18.159542,-13.963451,-12.383412,-36.02235,-52.767888,-57.446269,-71.507178,-105.326798,-125.80677,-143.74792,-68.974284,-81.608465,-56.237706,-40.230409,-64.05398,-71.912152,-48.090758,-34.793208,-56.330347,-68.733519,-53.013423,-42.441907,52.021809,291.347614,-288.45274,-158.577543
76,0.248108,0.633621,1.407394,2.377159,-25.608788,-50.439835,-73.742752,-91.506214,-61.876259,-94.676514,-111.913776,-124.720173,-56.84967,-92.257347,-112.234783,-127.895737,-48.96595,-81.556606,-100.391178,-114.757462,-39.161682,-64.374275,-78.845615,-91.054287,-19.248406,-20.769257,-8.97005,0.795284,6.892025,19.579512,26.084486,31.292886,24.838362,35.451282,40.940647,45.619414,38.23215,48.992221,54.602678,58.998443,47.156505,57.880761,62.225581,65.017565,24.436741,47.745838,67.736435,85.270329,27.682629,27.953396,26.991177,25.394497,10.26226,9.932156,11.898823,13.714485,-6.472549,-6.017132,-1.64217,1.521549,-23.012466,-22.91399,-17.19492,-13.386784,-11.826315,-35.178947,-51.557951,-56.547631,-70.885876,-104.64444,-125.364127,-143.226499,-68.516219,-81.394731,-55.863683,-39.230098,-63.607926,-71.674876,-47.690383,-33.905036,-55.802643,-67.67382,-51.763348,-40.936062,52.286797,291.983473,-287.028465,-156.198146
77,-0.659294,0.275469,0.546284,5.427583,-25.814667,-50.201225,-73.262501,-90.897102,-62.00695,-94.993687,-111.92173,-124.352074,-56.755257,-92.383804,-112.042751,-127.339554,-48.763046,-81.474323,-100.001793,-113.987045,-38.91449,-63.997135,-78.207607,-90.077534,-19.410748,-20.86639,-9.310048,0.414778,6.760188,19.539621,25.865148,30.768193,24.825395,35.39089,40.673761,45.092065,38.272473,48.975302,54.491034,58.743784,47.100435,57.746701,61.997661,64.721286,25.515747,47.495956,65.56406,85.277653,29.037895,29.013805,28.254204,26.674919,11.651917,11.752682,13.688679,14.465275,-4.865913,-3.475628,-0.42675,0.221157,-21.695766,-21.263466,-15.878677,-13.551235,-15.151081,-36.695568,-51.72639,-55.689918,-69.934071,-101.429251,-122.617886,-141.698794,-68.32115,-80.738679,-55.337354,-38.98637,-63.213619,-71.951704,-48.950416,-36.314229,-54.641319,-66.988283,-51.678904,-41.133725,51.72801,292.251655,-286.381674,-150.777849
78,0.683784,-0.19297,1.671867,8.491268,-26.057053,-50.671005,-73.985252,-91.606979,-61.95282,-94.969139,-112.144432,-124.735966,-56.879196,-92.292767,-112.159767,-127.772026,-49.085426,-81.707783,-100.433636,-114.541225,-39.45385,-64.514809,-78.828049,-90.807152,-19.328064,-20.487799,-8.540761,1.659481,7.081352,19.510537,25.685269,30.597638,25.153536,35.231142,40.300851,44.60436,38.568566,49.035261,54.45423,58.671722,47.358861,58.187722,62.480364,65.134149,25.748405,47.604275,65.934906,86.122284,30.286961,30.82695,28.990631,26.967659,12.243919,12.569046,15.187168,17.690105,-4.671936,-3.000069,0.896244,3.157368,-21.511002,-21.749153,-15.725498,-11.703072,-15.822401,-37.572964,-52.187712,-56.967549,-70.482059,-102.889046,-124.566158,-143.269925,-69.344169,-80.411124,-56.190482,-39.892634,-64.765777,-71.532048,-49.166851,-36.560921,-56.500732,-67.218133,-51.371573,-40.277478,52.593126,291.843917,-284.528475,-142.501349
79,0.280952,0.401995,2.773418,9.716366,-25.962982,-50.817947,-74.030685,-91.261253,-62.234573,-95.023098,-112.342243,-125.121117,-57.051773,-92.280521,-112.094936,-127.598419,-49.229622,-81.60799,-100.232906,-114.293518,-39.577332,-64.656372,-78.940201,-90.815163,-19.225373,-20.296928,-8.379407,1.793047,7.3801,19.90506,26.109927,30.954802,25.390905,35.747622,41.105397,45.603235,38.711457,49.257501,54.858078,59.135529,47.479645,58.201986,62.611645,65.307112,26.180477,48.808594,67.88578,88.008213,30.62273,31.914482,30.681381,29.242115,12.68589,13.933353,16.538086,18.716412,-4.28484,-1.811886,1.971416,3.960743,-21.359825,-20.874481,-14.830341,-10.969906,-14.457346,-35.172402,-49.181378,-54.19193,-68.384413,-101.149629,-122.760575,-141.291866,-67.483675,-78.743925,-54.991382,-38.615034,-62.97449,-69.956887,-48.223753,-35.488656,-54.805297,-65.776539,-50.106245,-38.781605,53.045139,292.262739,-281.583996,-132.768156
80,0.242043,-0.086698,5.50787,14.84202,-26.237869,-50.984001,-74.090824,-91.37249,-62.257118,-94.924507,-112.252064,-125.091076,-57.065964,-92.204247,-112.102146,-127.765789,-49.139786,-81.296082,-99.958992,-114.129524,-39.345131,-64.291191,-78.550987,-90.523796,-18.832641,-19.805333,-7.83551,2.175097,8.034902,20.486378,26.496608,31.169755,25.793147,36.215876,41.578775,46.196533,38.96241,49.768856,55.333803,59.61076,47.626179,58.590458,63.050011,65.750851,25.442276,48.548527,67.868443,87.132683,29.540691,31.738586,31.616707,30.815792,12.22887,14.816895,17.026863,17.86829,-4.569969,-0.860882,2.27972,2.859135,-21.781769,-20.483036,-15.406437,-13.264275,-12.382131,-33.118537,-47.02757,-52.096399,-67.191719,-99.781317,-121.371191,-140.145586,-66.403614,-77.197247,-53.389576,-37.102859,-62.061109,-69.15634,-46.913316,-33.359441,-54.18469,-67.315807,-52.296764,-41.151293,53.557348,292.288443,-275.80596,-117.813735
81,0.12886,0.436452,4.309731,19.705668,-26.376801,-51.567421,-74.666176,-91.956768,-61.809311,-94.7402,-112.380009,-125.488129,-56.361122,-91.868305,-111.685925,-127.285652,-48.537369,-81.057472,-99.970493,-114.39743,-39.195099,-64.203644,-78.614845,-90.8745,-18.977445,-19.719685,-7.403195,2.585119,8.264305,20.763638,26.839878,31.405704,26.151546,36.479303,41.583592,45.923473,39.253749,49.858703,55.259147,59.375862,47.73208,58.801953,63.187529,65.817171,27.209759,50.359383,68.588619,87.097664,33.678417,35.194073,34.289989,33.650608,15.373821,16.602001,18.854542,21.536064,-1.89085,-0.060024,3.25573,6.022167,-19.068832,-18.78828,-13.409157,-9.336433,-13.384896,-32.999482,-46.775505,-53.205992,-65.777017,-99.710274,-120.671729,-138.630153,-65.481619,-76.361841,-53.271694,-37.414636,-61.997568,-68.929901,-47.705219,-34.897134,-55.303468,-65.787206,-50.171314,-38.683484,53.909512,292.959917,-271.272926,-97.873044
82,-0.487862,0.502587,9.35051,25.234707,-25.832062,-51.281319,-74.655418,-91.489105,-61.029968,-94.172974,-111.578465,-124.467087,-55.45166,-91.636848,-111.499271,-126.827946,-47.809181,-80.916939,-99.916077,-114.173698,-38.971825,-64.611511,-79.37439,-91.56189,-19.01431,-19.467003,-7.346014,3.464816,8.585592,20.661317,26.670744,31.094296,26.785167,36.695491,41.248534,45.009628,39.996792,50.43434,55.392651,59.077792,48.439061,59.338317,63.071686,65.082773,27.552452,50.876026,68.996086,86.847782,31.998596,34.326611,35.566463,36.168766,14.53846,17.463226,19.194031,19.392815,-2.335281,1.251183,3.630466,3.820667,-19.776878,-17.882595,-13.509178,-12.040272,-13.932313,-34.337922,-49.898439,-55.908391,-67.429783,-98.403295,-119.660782,-138.474496,-66.862852,-78.696701,-55.659598,-38.454143,-63.181972,-71.300515,-50.231305,-36.733684,-56.451424,-68.889068,-53.987552,-42.103438,53.429804,293.447575,-261.914263,-72.653265
83,-0.079536,0.446579,8.030605,31.477983,-26.042175,-51.162415,-74.588242,-92.048607,-60.331306,-93.451023,-110.962772,-124.275513,-54.984055,-91.459007,-111.549625,-127.112389,-47.624931,-81.071606,-100.380993,-114.937305,-39.069214,-65.089531,-80.040207,-92.621555,-18.568164,-19.055374,-7.121243,3.334399,8.573736,21.003723,27.16765,31.986899,26.548602,36.765578,41.224822,44.990053,39.76566,50.331773,55.392713,59.252237,48.364713,59.34863,63.295222,65.761657,27.385483,50.530071,67.860432,83.217087,32.5387,35.901661,37.617989,37.76104,15.316944,18.584633,21.135464,21.372414,-1.372147,1.442471,5.337181,6.470261,-18.346939,-16.379185,-11.12566,-8.857098,-16.513233,-40.653723,-58.428796,-67.031585,-73.300209,-106.749049,-126.65661,-144.638932,-71.399006,-82.892271,-59.05161,-42.193902,-66.712027,-73.755587,-52.290311,-38.98637,-59.357676,-70.273574,-55.084177,-44.404382,53.664036,293.895868,-253.569889,-41.173569
84,-0.790787,0.553963,10.711956,28.561696,-25.88253,-51.093864,-74.57943,-91.676846,-60.782089,-93.755836,-110.748825,-123.47065,-54.964943,-91.277561,-111.003456,-126.237774,-47.072067,-80.190239,-99.087009,-113.364601,-37.904778,-63.561859,-78.352661,-90.748844,-18.426385,-19.129969,-7.502366,3.619809,9.184695,21.521315,27.601817,32.199567,27.226498,37.201721,41.728026,45.486218,40.40385,51.007755,56.138967,59.917969,48.758125,59.829048,63.693389,65.958209,27.733612,49.416904,62.242184,73.598156,30.650597,36.036243,38.786488,40.258255,14.017124,17.985134,20.472507,20.545921,-2.403088,1.755009,5.43108,6.155949,-18.863125,-15.495415,-10.335331,-8.437042,-16.231621,-41.476517,-62.046011,-74.503261,-70.646485,-101.110125,-118.874792,-134.721352,-69.665333,-78.614141,-55.6734,-40.256761,-64.790416,-69.039801,-48.016966,-35.728788,-57.258872,-64.658424,-49.007751,-39.232754,53.757877,294.384206,-241.973305,-12.677499
85,-2.25174,1.888081,11.551437,34.303033,-25.696449,-49.869804,-72.749462,-89.591331,-59.652672,-93.03154,-109.568195,-121.816521,-53.899727,-91.029339,-110.226059,-124.978809,-46.160431,-79.676628,-97.987804,-111.861076,-37.350883,-63.380756,-78.001442,-90.372906,-19.28101,-20.403509,-8.680626,2.298103,7.687,20.019978,25.844585,30.176191,26.433252,36.075393,40.042178,43.274689,40.05459,50.077917,54.867464,58.158885,48.69162,59.446195,63.060632,65.111425,29.039497,48.729572,55.977516,63.300076,27.974167,33.317528,37.379436,40.672531,11.84824,18.582916,21.816959,21.201096,-3.73312,2.5811,6.761799,6.211739,-19.794044,-15.00824,-8.432178,-5.697041,-17.748859,-43.588659,-65.198277,-82.41951,-71.103778,-96.1972,-108.932111,-118.930676,-70.915285,-81.491278,-61.596623,-47.510489,-66.779736,-73.772847,-53.759662,-40.08951,-59.594705,-69.875655,-55.7588,-43.398159,53.758078,296.508621,-228.169928,21.861869
86,0.658264,-0.428733,19.489174,11.991714,-25.887794,-50.260162,-73.492928,-90.41748,-60.179329,-92.615204,-109.518642,-122.443657,-54.596786,-90.096302,-109.296856,-124.393845,-46.865959,-79.168167,-97.499256,-111.482735,-37.953644,-63.089619,-77.467461,-89.469509,-18.601694,-20.008492,-8.794802,2.543129,8.859085,21.023792,26.880325,31.628129,27.188953,36.893833,41.10799,44.78109,40.636773,51.184978,56.108277,59.843868,49.367602,60.637361,64.488858,66.77881,22.454681,35.877686,38.092175,28.321552,17.954979,23.530655,28.733997,30.895615,2.983418,8.663692,15.485172,15.130978,-11.145916,-5.551529,1.826248,1.874371,-24.427071,-20.830135,-12.862301,-10.530853,-14.982626,-40.558319,-61.083508,-73.148365,-61.696041,-84.011405,-70.316522,-56.175863,-57.565185,-66.631288,-44.762318,-29.252343,-50.173476,-54.69552,-34.187869,-19.686402,-41.894444,-49.983778,-36.216215,-24.498272,58.249426,294.691537,-204.84767,32.465233
87,-0.97229,-0.71649,12.985325,39.415535,-25.904961,-50.04673,-72.59428,-89.396896,-59.966125,-91.838436,-108.652325,-121.610241,-54.287453,-89.403763,-109.151058,-124.841423,-46.43383,-78.426819,-97.291145,-112.061577,-37.046013,-61.935425,-76.68045,-89.582577,-17.881437,-19.100761,-7.903188,3.216826,9.914831,22.265284,28.082914,32.455276,27.698827,37.679175,42.091921,45.699874,40.724211,51.421421,56.740416,60.434634,49.166481,60.678363,65.079253,67.702966,24.300928,39.477368,41.798515,31.143837,16.434689,23.9433,32.84008,36.450377,0.827065,9.044523,18.648548,19.653483,-13.067837,-4.518871,4.70355,5.618506,-25.304003,-18.839407,-9.715175,-7.084064,-17.405403,-43.509016,-61.844674,-69.808825,-67.963677,-87.15024,-70.89855,-56.360512,-62.789656,-70.588826,-49.00028,-33.803935,-54.001322,-57.075829,-38.170245,-24.331391,-43.323209,-49.907872,-36.799108,-25.499153,58.941622,293.815809,-190.197859,71.721529
88,-0.97435,0.60324,12.985325,39.415535,-25.556717,-49.798279,-72.53603,-89.122581,-60.194378,-91.988125,-108.302021,-120.930748,-54.420891,-89.713898,-108.802471,-123.854599,-46.452713,-78.582115,-97.070732,-111.44371,-37.050591,-62.53109,-77.311878,-89.901581,-18.449788,-19.737655,-8.840992,2.453159,9.15067,21.329642,27.10806,31.476161,27.150853,37.218641,41.601561,45.220444,40.30505,51.033628,56.232025,59.938902,48.888851,60.213074,64.315524,66.721444,26.147175,43.077049,45.504856,33.966122,14.914398,24.355946,36.946163,42.005138,-1.329288,9.425354,21.811924,24.175987,-14.989758,-3.486214,7.580853,9.36264,-26.180935,-16.848679,-6.56805,-3.637276,-19.828181,-46.459713,-62.60584,-66.469286,-74.231313,-90.289075,-71.480579,-56.545161,-68.014127,-74.546363,-53.238241,-38.355527,-57.829168,-59.456137,-42.152622,-28.976381,-44.751975,-49.831965,-37.382001,-26.500035,59.274731,293.711759,-175.905075,110.429775
89,-1.231842,-1.305218,1.097345,27.934852,-25.91732,-50.080147,-72.686291,-88.927059,-59.947758,-91.644115,-107.845631,-120.199013,-54.173813,-89.197884,-107.993488,-122.574978,-46.140175,-78.164005,-96.612167,-110.896225,-36.725235,-61.713696,-76.429195,-88.927631,-18.287817,-19.100576,-7.615246,4.258123,9.975841,21.7141,27.56773,32.206421,28.166956,38.082714,42.54554,46.190667,41.369195,52.254804,57.348904,60.971245,49.865187,61.861501,65.995012,68.309973,26.046152,45.340863,55.015526,52.980881,21.034327,42.829314,54.381724,57.200833,8.367463,32.447205,39.886351,37.309599,-0.674715,22.896853,28.34733,24.840861,-6.718597,11.844178,17.304755,15.082198,-21.987593,-45.464173,-56.584465,-56.755467,-72.021003,-81.818138,-65.114899,-53.114246,-62.186215,-62.780146,-45.377753,-34.880338,-48.73625,-44.63786,-31.803531,-24.353652,-33.093173,-33.455509,-23.960349,-16.84349,59.003592,293.031578,-173.847027,138.989664
90,-0.483742,-0.471835,1.097346,27.934852,-25.880356,-50.133705,-72.759991,-89.648552,-59.740791,-91.390343,-107.955093,-120.850639,-53.962326,-89.05838,-108.144264,-123.234673,-45.958443,-77.895069,-96.677742,-111.396046,-36.41613,-61.668777,-76.633415,-89.584522,-18.203466,-18.855365,-7.08691,4.170685,10.348999,22.538777,28.460394,33.219375,28.380798,38.767032,43.16113,46.936735,41.522089,52.739421,57.941091,61.827044,50.033704,62.198843,66.722061,69.546525,25.945129,47.604675,64.526196,71.99564,27.154255,61.302681,71.817284,72.396526,18.064213,55.469055,57.960777,50.443211,13.640327,49.279919,49.113808,40.31908,12.74374,40.537033,41.177559,33.80167,-24.147005,-44.468633,-50.56309,-47.041649,-69.810693,-73.347201,-58.749218,-49.683332,-56.358304,-51.01393,-37.517266,-31.405148,-39.643332,-29.819583,-21.45444,-19.730924,-21.434371,-17.079052,-10.538696,-7.186945,59.4522,292.941099,-171.817331,167.305872
91,-0.262413,-0.053414,10.51569,17.127094,-26.210403,-50.85331,-73.713455,-90.413589,-59.650555,-91.594105,-108.072567,-120.858936,-53.660774,-89.130535,-108.090019,-123.081894,-45.569458,-77.91275,-96.644039,-111.50362,-36.098328,-61.518745,-76.435719,-89.580116,-18.333574,-18.975099,-7.538923,3.936033,10.486702,23.006227,28.841641,33.24531,28.428037,38.911219,43.338662,47.005649,41.443419,52.700827,57.989997,61.78104,49.847835,62.114431,66.849329,69.855154,15.346928,39.102287,64.128628,79.066029,25.841904,63.682137,74.716702,75.135498,23.386345,60.115185,58.458138,51.195087,23.091259,55.984211,51.83424,44.577999,24.344845,50.02636,46.167526,39.968033,-24.866953,-40.668636,-37.990768,-28.313058,-49.371492,-49.501909,-37.694242,-30.538913,-32.185858,-31.264975,-22.832771,-22.148329,-13.821162,-11.875716,-7.848724,-8.526497,3.628022,2.990572,4.204647,3.445117,59.932337,293.037738,-160.559092,184.583019
92,-1.847305,0.272752,10.308323,17.311728,-25.882187,-50.037003,-72.661514,-89.127445,-60.224876,-91.90012,-107.872181,-120.020542,-54.328766,-89.253559,-107.614861,-121.84845,-46.21067,-77.932205,-96.160183,-110.400181,-36.65451,-61.402988,-75.986996,-88.86034,-18.559148,-19.458481,-8.277025,3.417206,9.82801,22.494934,28.689303,33.440009,27.812324,38.83539,43.218434,46.66244,40.918355,52.330016,57.56077,61.088633,49.346483,61.591096,66.432328,69.477179,21.207848,47.325039,70.216198,82.573471,29.895573,69.171867,82.747021,82.605,23.584957,63.507385,60.155296,50.105896,19.170856,55.282516,50.676727,42.206726,16.394577,45.777054,43.384151,36.950569,-18.573845,-27.341168,-21.076342,-10.404142,-37.387404,-33.691519,-20.069625,-10.988424,-20.190964,-4.297458,1.770693,-2.762775,-1.221053,14.825039,14.681593,8.637462,16.25981,29.212761,25.949931,20.511696,58.288708,293.229658,-150.047092,201.813916
93,-0.386696,-0.231626,27.043819,18.952992,-26.104889,-50.480576,-73.206768,-89.546642,-60.446148,-92.157555,-108.269463,-120.366955,-54.391022,-89.062901,-107.355881,-121.43446,-46.215706,-78.043499,-96.110115,-109.733677,-36.755447,-61.438637,-75.738659,-87.877464,-18.69432,-19.658676,-8.745093,3.390036,9.981645,21.962954,28.156212,33.25235,28.348194,38.658722,43.110865,46.784088,41.582666,52.809323,57.723668,61.142047,49.802572,62.199152,66.992404,70.085297,20.91116,45.686359,67.086697,73.803177,26.250916,52.980137,43.531151,31.06041,18.008366,51.662464,44.174366,33.942432,13.173122,47.495041,40.243549,30.447922,11.096077,37.693806,34.180183,26.538048,-19.091931,-29.02609,-21.065906,-4.485673,-16.830384,-9.803372,-13.114923,-15.897582,2.428829,9.493076,3.677299,2.000837,20.555045,25.818959,18.186855,16.976115,36.205934,39.835808,32.127504,29.388935,58.257322,292.669705,-122.647963,220.438581
94,-1.73481,0.147522,1.582546,15.915304,-25.401993,-49.610825,-72.634335,-89.618626,-59.835205,-92.043056,-108.120632,-119.945412,-53.697624,-89.344368,-107.685356,-121.382561,-45.474129,-78.020668,-96.325378,-110.04982,-35.960197,-61.462383,-76.081467,-88.437653,-19.030612,-20.019237,-8.618937,3.477721,9.555197,21.575717,27.82208,33.209433,27.833998,38.777221,43.150694,46.765193,40.976215,53.033786,58.029826,61.612523,49.211312,61.92072,66.583617,69.770432,21.220894,44.626122,63.697357,74.822617,28.443489,56.254234,67.611752,74.743309,21.72266,50.888157,60.919418,64.830894,17.391701,46.689377,55.300713,56.076221,15.187168,37.875881,42.616253,42.164326,-18.064589,-25.693729,-22.101646,-10.264709,-14.156282,-5.939216,-0.867717,1.481516,1.930133,7.644948,8.143459,6.973783,16.208248,22.780838,20.135698,16.519594,28.323988,30.725461,27.582736,23.602613,57.298536,293.069169,-120.289392,236.605827
95,-0.071754,-1.158993,19.629421,25.918994,-25.849342,-49.524879,-71.875706,-88.289337,-60.028152,-91.173363,-107.040997,-119.092655,-54.418144,-88.794537,-107.478447,-122.162132,-46.539688,-77.926826,-96.031723,-109.936466,-37.142143,-61.546383,-75.685558,-87.94899,-18.646216,-19.877334,-8.17137,3.647288,10.598779,22.382548,28.512203,33.674414,28.492813,39.087579,43.901579,47.960927,41.511714,53.338462,58.634177,62.3878,49.840178,62.607261,67.676476,70.789437,20.187721,41.025639,59.854374,66.026287,38.505306,68.918152,72.352123,65.740414,37.961712,75.06918,76.799927,64.354935,38.359737,72.527676,75.354309,65.94492,39.56068,66.984444,75.113182,72.561893,-25.191698,-34.267094,-25.029294,-6.873871,-7.8662,3.117161,11.582957,17.094428,17.385211,37.977985,51.427287,58.458683,39.63586,59.65448,71.790967,78.620995,56.90603,73.024864,82.051354,86.425136,57.642317,292.176289,-100.244436,262.790935
96,-0.571747,-1.276505,-2.747211,5.273856,-26.057625,-49.0662,-67.204113,-77.550144,-60.76767,-89.968357,-104.700336,-113.947849,-55.462189,-88.101711,-106.909618,-121.229382,-47.621498,-76.568012,-94.407177,-108.434086,-38.2267,-60.831356,-74.541893,-86.526089,-18.537412,-19.708755,-10.561852,-0.261266,14.032596,25.647354,28.602482,30.186318,31.178401,42.725604,47.478966,51.22913,43.175579,55.720114,61.285987,65.058999,50.597794,63.55655,69.389123,73.07624,22.780609,49.323177,72.001076,80.865555,29.577484,72.718792,82.878399,85.182266,25.264492,73.322868,86.444206,87.018929,23.920898,67.891788,78.829651,77.673569,24.889355,57.205811,67.150555,65.667686,-19.368202,-26.025205,-15.603712,1.59915,-1.450208,10.32541,7.688359,6.69498,21.669331,33.746909,28.416799,25.887687,39.259615,49.601018,43.055351,40.343644,50.718701,60.215791,56.018862,52.023302,57.371521,291.215777,-102.690697,268.380783
97,2.085342,-2.696949,2.098732,6.772291,-25.947304,-49.24015,-65.103779,-72.658539,-64.54874,-90.475159,-107.088089,-119.584866,-59.443645,-87.671242,-107.37196,-122.883854,-51.530571,-77.430382,-95.080433,-109.608135,-40.980263,-60.937729,-74.446163,-87.731781,-15.685469,-15.948773,-9.725196,-5.502764,18.819056,33.491077,37.957916,39.644011,32.141892,47.228815,52.671805,55.998608,41.991515,57.353412,63.996151,68.622368,49.049278,62.61887,69.070182,74.134395,27.206268,54.667397,76.600685,85.218315,41.117878,79.568481,84.732227,80.344276,33.617592,75.559731,80.96077,74.490852,28.338203,66.779137,72.865162,68.355389,25.482273,53.858242,59.656448,56.554298,-15.921479,-18.942742,-9.647637,5.4391,8.961714,20.453527,9.952437,3.753622,28.491578,38.367816,26.856983,21.162731,42.259141,52.351011,42.02344,36.180616,50.948227,59.911917,51.369488,45.155421,59.715815,289.010963,-100.333014,275.645209
98,-0.501137,1.787366,4.839935,6.007574,-30.470467,-54.943085,-72.098522,-87.824249,-59.914112,-86.38916,-104.733696,-119.139175,-56.212349,-86.66153,-107.035446,-123.343334,-50.562973,-78.388252,-97.338696,-112.32851,-43.948288,-62.925968,-76.201172,-88.103485,-2.140702,9.615651,21.126298,29.813655,27.1532,33.950191,34.388434,34.452037,32.792186,40.755704,40.175436,37.922163,36.149432,46.606,46.969957,45.547536,37.17733,48.918985,53.307463,55.448844,26.572495,54.095364,76.764278,86.167603,45.267963,81.403999,91.843014,92.076702,37.923832,76.784019,89.852371,90.442944,32.327557,67.305622,80.084381,82.475796,29.323139,54.401779,67.015629,71.547546,-15.98607,-17.296723,-7.056034,7.773759,12.252578,21.311426,15.040363,11.107108,30.816975,38.894794,33.208692,29.359913,43.827231,53.531185,48.092765,42.836817,51.370291,61.960857,58.157403,52.377934,59.539633,291.140426,-95.168123,281.994881
99,2.288017,-1.824107,6.487141,4.290913,-29.551735,-55.008659,-72.166271,-84.116478,-51.452408,-82.582169,-102.306061,-117.678223,-48.105011,-82.444038,-104.875031,-122.376652,-43.638382,-75.855103,-98.296909,-116.849384,-37.700386,-60.938988,-77.669106,-93.867188,-13.911503,-13.160927,-4.859572,0.637388,21.020519,28.497568,26.966899,23.897903,34.645686,43.502609,41.19475,38.192198,43.643647,55.246056,56.412089,55.207277,48.643455,63.926064,70.875641,75.279866,26.067009,51.249104,72.475491,88.262901,44.75893,79.365921,95.711117,103.057308,37.341442,75.909863,96.477528,105.564594,31.789398,66.332302,86.451244,97.548008,28.75494,53.858986,70.038242,80.571671,-15.35035,-15.290822,-6.481323,4.270226,13.146292,24.337196,20.046654,15.562833,31.438679,42.152313,39.034844,34.798086,43.536572,57.292403,56.679839,53.281281,49.678824,63.685855,64.401234,61.597827,61.961374,289.557407,-88.547258,286.526883
100,0.454559,0.222116,6.549339,2.952781,-34.101334,-61.017551,-78.935623,-90.751705,-42.981148,-71.907806,-95.212898,-113.691158,-35.991211,-69.5961,-95.14555,-115.152912,-31.420326,-62.376995,-86.440258,-105.22459,-28.354568,-49.697914,-65.925922,-80.578079,-5.126396,-0.501599,7.571959,16.815563,34.174345,45.966389,44.114124,40.261145,40.106275,51.27569,46.360419,40.545259,40.705254,52.769309,51.008002,45.924399,36.904393,51.05487,56.134953,57.514704,26.33955,50.455227,71.362324,87.014065,44.839554,81.391125,96.96207,104.061069,37.558594,77.907715,99.859486,111.699085,31.815434,67.645397,89.064388,102.302914,28.326874,53.858814,70.510368,82.628746,-15.187267,-14.906982,-6.226418,4.995053,13.98511,24.286005,18.422988,13.164076,31.610777,42.23685,39.164458,34.898245,43.238997,57.407567,56.857248,52.934182,48.964804,63.68462,65.609874,63.375065,62.420082,289.911453,-81.993771,289.611593
101,-1.358757,1.714809,6.03138,1.354001,-30.18425,-52.618904,-68.165874,-79.627132,-40.258484,-65.442352,-84.741669,-100.383396,-35.979996,-64.148884,-86.025181,-102.726574,-33.594933,-59.353695,-79.061508,-93.589611,-32.223129,-52.760239,-67.288227,-79.366837,-7.291427,-3.485811,1.647501,5.772243,29.196274,36.620156,38.948208,40.349263,35.419728,44.940838,45.908159,45.696108,37.221172,48.327848,49.349262,48.321673,35.599977,46.7069,49.617074,50.634659,25.714188,50.642738,71.904373,89.979801,47.022057,82.925091,100.918636,111.390667,38.456554,79.482536,101.037426,112.733402,31.53471,68.053093,88.852787,101.543484,26.79697,52.499371,68.244839,79.210682,-14.882837,-13.97418,-4.504384,4.481227,13.711741,25.826986,23.969719,21.099066,31.255589,41.901545,39.168101,34.798704,42.920365,56.911588,55.429949,50.413283,49.141966,63.384698,63.836217,60.091117,61.055374,291.737321,-75.968342,291.076653
102,-8.442764,0.216095,6.028061,1.68943,-23.896122,-46.412745,-64.424201,-79.928542,-50.053511,-61.355725,-61.324368,-60.943079,-47.825346,-57.383852,-57.277422,-54.990893,-44.525271,-52.977076,-51.549511,-49.067774,-40.710497,-53.119097,-55.991078,-56.381665,14.772058,26.699366,34.034481,38.631737,35.853339,46.902649,49.875808,50.180855,30.210124,44.357081,48.039598,47.602004,21.478523,36.220847,40.340155,40.425649,11.08423,21.209291,26.122709,29.348211,24.272118,48.4758,69.655838,88.423061,49.263439,84.834766,102.418613,113.449345,40.418186,80.207005,101.015682,114.054279,32.286415,68.712673,88.929234,102.350063,25.742226,53.441162,69.442692,81.009922,-16.854219,-15.466379,-5.905809,1.83584,12.470187,25.429684,26.821785,26.615848,30.089617,40.876858,41.047413,39.123517,41.910375,54.685918,55.418648,52.807903,47.963398,60.92907,61.945605,59.249397,52.631608,292.043093,-69.921284,292.855759
103,-8.442765,0.216096,4.734535,0.942744,-17.607994,-40.206585,-60.682526,-80.22995,-59.848537,-57.269096,-37.907066,-21.502762,-59.670696,-50.61882,-28.529663,-7.255211,-55.455608,-46.600456,-24.037514,-4.545937,-49.197865,-53.477955,-44.693928,-33.396492,36.835541,56.884541,66.42146,71.491231,42.510404,57.185142,60.803408,60.012447,25.000519,43.773323,50.171036,49.507899,5.735872,24.113845,31.331048,32.529623,-13.431517,-4.288319,2.628345,8.061763,23.26601,47.505283,69.027786,87.397213,51.669331,85.023251,102.435093,115.027943,42.770233,79.736309,99.843807,113.745518,33.680763,69.001579,88.245106,101.801319,24.987144,53.259373,68.847656,80.937252,-17.055155,-16.663966,-7.044672,-1.210432,12.144639,26.898418,31.348091,33.595373,30.312968,41.371603,44.232191,44.52285,42.84824,54.787436,56.881824,55.501703,50.033951,61.951718,63.102684,60.783709,44.349375,292.301966,-65.026217,293.841281
104,-8.097839,11.457171,1.382275,0.053167,-12.417984,-28.137131,-42.93829,-55.391121,-46.534252,-36.340656,-16.763649,-1.549759,-46.851254,-31.529961,-8.627357,9.940338,-43.648796,-32.479191,-9.907608,7.973557,-38.501873,-48.547554,-53.789463,-56.621647,13.208475,24.375666,36.412304,47.317612,23.060938,34.14489,37.421367,40.376186,20.079937,28.371412,32.631449,36.52296,15.906968,25.232639,28.852324,32.316584,12.266349,21.580719,29.734491,37.983852,24.10635,48.340416,70.031662,87.588844,53.90625,85.860214,103.106689,115.784225,44.45509,79.432182,99.017029,112.609863,33.934479,67.022552,85.748291,99.201736,23.446941,49.740314,64.71817,76.444359,-15.368443,-15.145091,-6.572405,-1.478243,14.203398,28.638606,34.324831,38.236349,31.226936,43.077396,48.124072,50.854181,42.830395,55.802798,59.544687,60.043569,49.85932,62.327284,64.380671,63.228038,36.25371,303.706526,-63.641768,293.841836
105,-43.593693,-4.980788,1.315613,1.123734,-0.111866,-2.233486,-6.84145,-15.137043,-5.264854,21.142216,38.744373,45.893154,-7.668228,26.586285,43.687077,54.584026,-11.172352,18.29916,37.801495,49.555378,-14.493084,-2.445545,9.076595,17.255116,4.477955,18.588974,33.51942,44.062006,20.505336,38.482486,41.355424,41.421435,21.37614,39.895336,42.970197,42.05518,19.351529,37.875912,39.473827,39.240411,16.906645,32.792927,36.015804,37.789832,24.087868,48.509789,70.276222,87.875175,54.334202,87.333984,104.600945,117.035522,45.042171,80.545578,99.866295,113.349037,34.577522,67.922401,86.502571,99.69944,24.321041,50.823841,65.915565,78.201828,-15.594202,-15.332133,-6.794583,-0.722727,13.046133,26.717304,31.995111,35.567929,30.416894,41.470959,46.117431,48.887492,42.402279,54.66696,57.941214,58.170617,49.584963,62.3095,64.204991,63.122506,-7.381496,298.714839,-62.367668,294.954671
106,39.231663,-5.810837,0.188656,-0.566251,-18.076973,-36.586132,-51.616116,-68.450489,-52.697411,-45.925941,-25.062675,-7.039032,-51.611881,-34.161358,-11.085663,10.926933,-46.361103,-29.42585,-5.377693,15.488319,-38.807659,-32.697945,-17.70298,-1.423073,34.207567,53.590589,62.990669,69.955127,38.101424,53.127276,60.125573,63.128372,22.988073,41.435576,51.163921,54.518883,6.89326,26.485307,36.251567,40.479618,-7.84397,6.543321,16.910042,24.20116,23.986816,48.742275,70.164585,87.822132,54.012165,86.863804,104.272671,116.669483,44.620457,80.347996,99.853191,113.32243,34.216747,68.046284,86.588917,99.75832,24.20969,50.973816,66.469231,78.759441,-15.355722,-13.839688,-4.945343,0.305171,14.123369,27.653563,32.585322,35.362917,31.50259,42.770126,46.876961,48.668711,43.508908,56.060112,58.93731,58.681108,50.545306,63.929708,65.610615,63.905254,31.727514,292.808242,-62.301664,294.292661
107,-17.287445,11.587341,-1.006393,-0.106952,-7.092133,-18.146896,-28.470669,-38.209362,-34.766235,-14.437408,4.978981,19.616203,-33.661366,-7.908669,15.100937,33.693123,-29.118118,-6.610909,16.358986,33.604202,-22.285538,-20.759926,-18.537941,-16.118889,23.520794,40.011735,50.45515,59.587666,33.413518,43.02602,47.189788,51.229253,20.419379,27.515675,35.395027,40.841352,5.68604,13.157654,22.702292,29.01232,-8.706993,-5.948417,-0.446147,4.55045,24.464436,49.562702,70.9762,88.556271,53.633595,86.593952,103.837223,116.28027,44.336243,80.564861,100.262775,114.081059,34.291649,68.353786,87.195568,100.430775,24.50346,51.231823,66.427174,77.974262,-15.535477,-13.972266,-4.367545,2.110506,13.235336,26.924785,32.08854,35.247876,30.82877,42.477614,46.949764,49.151105,42.85775,55.452302,58.746687,58.712539,49.925332,62.880815,64.673121,62.842962,14.198942,304.214763,-63.549185,294.004888
108,-15.147114,2.563815,-0.484657,-0.283743,-0.323238,0.099964,-2.716484,-7.704964,-8.059101,14.396496,32.051868,40.141811,-12.368946,17.443829,33.369427,44.256306,-16.152935,8.668499,25.163441,35.35017,-19.228878,-9.614582,1.030941,8.392467,-16.124576,-12.277402,-0.817205,9.462016,3.045222,18.157709,20.860956,21.010516,16.520088,29.872071,32.71506,33.26575,25.414,38.493231,38.810813,38.324837,31.744034,44.564037,45.238537,44.719031,24.051704,49.236145,70.612507,87.457066,52.996159,86.218243,103.108349,115.40514,43.707275,80.329227,99.955616,113.618717,33.884583,68.407459,87.265263,100.509853,24.609261,51.481018,66.664181,77.814388,-15.686642,-13.895819,-4.02236,3.089991,12.603321,26.846362,32.609652,36.339315,30.230099,42.722578,47.713864,50.110645,42.271986,55.755558,59.378826,59.580811,49.224279,61.957091,63.886297,62.196188,-1.186695,306.640273,-64.272366,293.58284
109,29.691181,-11.859969,-0.317402,-0.012659,-17.975235,-35.696697,-49.044056,-62.618237,-48.094082,-36.222668,-19.04171,-7.034798,-45.574665,-20.920143,-2.687645,13.697777,-39.875965,-17.23217,3.086128,19.043427,-32.804089,-21.967163,-7.311401,6.300201,22.431022,39.849146,51.407156,59.62626,33.127614,49.339629,53.066452,53.166858,23.625708,41.994788,47.229988,47.390292,12.022867,31.571751,36.563036,37.268597,0.884204,17.544527,24.386658,28.393827,23.924561,48.835659,70.245209,86.999016,51.054382,85.606041,103.302155,116.328392,42.073631,80.30159,100.750122,114.891357,33.30431,69.019547,88.572807,102.238541,25.360508,52.663593,68.157806,79.457588,-15.350411,-14.364134,-4.987828,2.381652,13.242993,26.010447,30.481918,33.338739,31.299555,42.424015,46.135585,47.98396,43.50088,56.027137,58.736374,58.36544,50.321769,62.737925,64.064632,61.831984,28.336601,294.46019,-64.757652,293.250067
