takenoko1/special-research/HandMotion_SimilarSearch_自分用/NewProject/handData/key/d4_feature_d2/52.csv
,vel_0x_L,vel_0y_L,vel_0x_R,vel_0y_R,posFromWrist_1x_L,posFromWrist_2x_L,posFromWrist_3x_L,posFromWrist_4x_L,posFromWrist_5x_L,posFromWrist_6x_L,posFromWrist_7x_L,posFromWrist_8x_L,posFromWrist_9x_L,posFromWrist_10x_L,posFromWrist_11x_L,posFromWrist_12x_L,posFromWrist_13x_L,posFromWrist_14x_L,posFromWrist_15x_L,posFromWrist_16x_L,posFromWrist_17x_L,posFromWrist_18x_L,posFromWrist_19x_L,posFromWrist_20x_L,posFromWrist_1y_L,posFromWrist_2y_L,posFromWrist_3y_L,posFromWrist_4y_L,posFromWrist_5y_L,posFromWrist_6y_L,posFromWrist_7y_L,posFromWrist_8y_L,posFromWrist_9y_L,posFromWrist_10y_L,posFromWrist_11y_L,posFromWrist_12y_L,posFromWrist_13y_L,posFromWrist_14y_L,posFromWrist_15y_L,posFromWrist_16y_L,posFromWrist_17y_L,posFromWrist_18y_L,posFromWrist_19y_L,posFromWrist_20y_L,posFromWrist_1x_R,posFromWrist_2x_R,posFromWrist_3x_R,posFromWrist_4x_R,posFromWrist_5x_R,posFromWrist_6x_R,posFromWrist_7x_R,posFromWrist_8x_R,posFromWrist_9x_R,posFromWrist_10x_R,posFromWrist_11x_R,posFromWrist_12x_R,posFromWrist_13x_R,posFromWrist_14x_R,posFromWrist_15x_R,posFromWrist_16x_R,posFromWrist_17x_R,posFromWrist_18x_R,posFromWrist_19x_R,posFromWrist_20x_R,posFromWrist_1y_R,posFromWrist_2y_R,posFromWrist_3y_R,posFromWrist_4y_R,posFromWrist_5y_R,posFromWrist_6y_R,posFromWrist_7y_R,posFromWrist_8y_R,posFromWrist_9y_R,posFromWrist_10y_R,posFromWrist_11y_R,posFromWrist_12y_R,posFromWrist_13y_R,posFromWrist_14y_R,posFromWrist_15y_R,posFromWrist_16y_R,posFromWrist_17y_R,posFromWrist_18y_R,posFromWrist_19y_R,posFromWrist_20y_R,posFromBody_0x_L,posFromBody_0y_L,posFromBody_0x_R,posFromBody_0y_R
2,-29.354095,24.502193,-1.755524,2.298536,5.823212,7.057343,6.224327,4.310989,-15.041656,5.124779,22.049675,32.253456,-23.081532,-0.065117,19.754333,37.539139,-26.363125,-9.539394,5.905495,20.481377,-26.458683,-28.517532,-33.466301,-36.095295,-19.817807,-30.793201,-34.040717,-36.529074,-14.707096,-7.989948,-3.078876,1.401055,1.04809,7.945734,12.078689,15.723569,13.381314,17.874089,19.846459,23.041919,23.180858,26.644191,24.821381,24.001335,28.239155,54.070473,76.620369,96.969795,49.211025,81.725121,99.44767,112.021523,38.039875,75.271454,95.394402,108.02124,28.766785,63.435173,82.47757,94.796791,21.874352,48.007908,63.853455,75.753479,-12.683535,-9.890193,0.696174,8.804806,21.67316,38.323602,44.113939,47.111736,38.914369,54.866044,58.325178,58.067185,50.03253,67.396808,69.501262,67.280038,55.711098,72.285835,73.853369,71.179515,1.185637,341.241638,-70.561266,301.356367
3,-13.656979,5.193024,0.15707,-0.927306,6.133862,8.568935,9.864979,10.893574,-1.698418,22.771969,38.150082,47.849293,-10.040646,16.496487,33.275013,46.706829,-14.729977,9.287853,24.422779,34.822712,-16.547413,-12.237453,-10.970078,-9.104748,-15.374,-27.833566,-37.955755,-43.928687,-17.24442,-5.482881,2.931354,6.725361,-4.196681,9.787811,15.702945,17.354892,6.883318,18.572486,20.469891,19.638916,15.15633,23.720186,25.692,25.92838,28.814964,54.405098,76.269779,96.257915,49.402084,82.122402,99.515133,112.105122,38.202038,75.177898,95.154018,108.278217,28.632202,62.517357,81.424198,94.166737,20.958366,45.990944,61.410427,73.384495,-12.264126,-8.956342,1.897343,9.34327,21.344833,38.451302,44.420653,47.709233,38.220109,54.418724,58.497647,58.934161,49.307148,66.683344,70.185333,69.324965,54.929708,71.707789,74.762644,73.468108,-13.760948,346.327093,-71.693802,300.321492
4,44.426708,-24.666202,1.320591,1.231982,-8.652191,-21.257629,-37.926464,-53.043079,-50.704937,-40.275936,-17.261696,-1.687088,-58.135357,-42.936687,-17.515526,3.722534,-60.181274,-51.830063,-27.679367,-7.599792,-59.647408,-70.64312,-74.100952,-74.870911,-11.824648,-14.311522,-5.42959,4.967203,1.191104,17.904964,22.505493,26.339391,17.745586,27.629172,30.43931,33.9371,29.454514,36.840728,37.356406,39.159333,38.58388,45.678632,45.882223,48.022678,27.746315,52.976131,74.937057,95.018349,48.080235,81.485138,99.188576,111.289787,36.916466,74.887047,95.188751,107.481766,27.649384,63.094368,82.230034,94.143333,20.602627,47.374706,63.161831,74.574852,-12.891016,-10.071739,0.719269,8.047005,20.298842,37.243896,43.18126,46.602665,37.866526,54.287566,58.286152,58.682343,49.396439,66.636722,69.0934,67.420767,55.156085,71.718349,73.468108,70.879778,29.663258,321.549817,-71.375713,301.442401
5,-32.649994,13.036315,-0.482426,-0.205258,0.898247,-1.101952,-6.348495,-13.991318,-20.853424,2.6754,21.410294,30.694771,-29.444962,-2.74395,19.359398,35.781212,-32.509575,-10.198631,9.426155,24.190865,-32.926025,-24.292717,-12.61425,-2.090607,-17.690382,-25.94777,-22.065522,-14.229394,-12.133524,-0.987945,5.027039,9.488136,3.858536,14.555807,20.780372,25.734361,17.02428,24.897828,26.599422,28.365052,26.937938,34.707437,32.100087,29.11853,28.174782,53.73024,75.634747,95.583858,48.795376,81.75642,99.209805,111.899471,37.634068,75.165653,95.339413,108.447933,28.212261,62.99057,82.125034,94.863796,20.772057,46.710434,62.389984,74.256077,-13.389404,-10.432115,0.725506,8.11561,19.897403,36.964661,42.800013,45.946012,37.513252,53.229411,57.055343,57.369467,49.288685,65.915107,68.839483,67.529077,55.377152,71.706863,74.180091,72.251811,-3.564119,334.50899,-72.435522,301.160001
6,31.009941,-12.339585,0.237694,0.996096,-3.022842,-11.931038,-25.88047,-36.742344,-45.442085,-33.089905,-11.64814,3.21167,-56.005325,-39.959736,-15.31105,4.917984,-60.418053,-50.634041,-27.742767,-8.947105,-61.522751,-66.344433,-60.119991,-52.446957,-15.792915,-22.168213,-18.64387,-12.460739,-2.876272,13.322713,18.632137,22.005192,15.669105,25.610983,30.362492,34.405848,29.11606,35.447824,37.76612,40.010994,39.132162,46.786126,45.214516,44.000503,27.749634,53.042908,75.003605,95.204144,48.436947,81.619778,99.29266,111.617718,37.491875,74.87772,95.064297,107.721233,28.327446,62.976723,82.060032,94.370327,21.229992,47.429581,63.074741,74.647808,-13.406323,-10.912842,-0.218782,7.210349,19.615327,36.333757,42.189178,45.530184,37.063585,53.110233,57.100976,57.620853,48.626782,65.540282,68.213087,66.781712,54.515054,70.907504,72.927792,70.642718,27.046795,322.08825,-72.596855,302.074942
7,-38.675137,18.656034,-0.101566,0.087439,8.195972,12.710552,15.222759,16.077061,-7.050247,16.469479,34.042797,43.968258,-17.345982,9.531612,29.824963,47.087002,-22.466469,-0.652771,16.649494,30.599041,-24.480572,-22.443638,-22.268143,-20.237389,-22.030262,-36.726552,-43.189411,-46.869983,-15.933027,-6.503677,-2.020844,1.72296,0.932431,11.624639,15.445322,18.723836,13.575643,20.676693,21.28759,23.232481,22.884456,28.890177,26.195019,23.135409,27.897549,53.091202,74.795723,94.911118,48.068275,81.618004,99.147148,111.463394,37.093678,74.85157,94.823112,107.636833,28.007183,62.915154,82.054367,94.69162,21.072979,47.304382,63.025246,74.862328,-13.375201,-10.907099,-0.330179,7.19627,19.503312,36.36914,42.093218,45.388961,37.014802,52.436721,56.250859,56.874291,48.685013,65.015959,67.914956,66.995739,54.735256,70.7966,73.010847,71.112701,-11.865635,340.571106,-72.935715,301.989201
8,-1.95837,-0.619789,0.210285,0.535623,7.091789,10.114517,13.537331,16.147614,-6.137695,18.988838,36.196404,45.243874,-14.596252,13.283043,30.305328,43.966827,-19.122162,6.292992,22.69043,33.685341,-20.077744,-26.082287,-34.307842,-41.39185,-19.467003,-33.324351,-40.761262,-43.020401,-15.79063,-1.316704,5.983121,8.546813,0.726494,14.884813,18.800716,20.655019,12.983209,23.979476,25.148596,24.590496,21.992718,26.986536,28.135711,28.108849,27.799187,52.814083,74.519176,94.668903,47.566509,81.184216,98.950367,111.256313,36.48571,74.501553,94.970684,107.704296,27.442474,62.615833,82.138538,94.677715,20.651493,47.154522,63.101749,74.826794,-13.889644,-11.369054,-0.599473,7.066408,19.208454,35.944297,41.764644,45.145109,36.797318,52.455184,56.174967,56.658473,48.468084,64.98601,67.520741,66.161861,54.331779,70.382502,72.365431,70.114258,-13.994007,339.851003,-72.895432,302.424511
9,-4.269562,0.30375,0.046635,0.190624,8.056412,12.335358,16.123581,19.680748,-0.049896,26.066322,43.400688,53.067169,-9.200935,18.901405,35.852737,47.453728,-15.481796,10.57663,25.396729,33.93116,-17.791042,-14.130535,-10.195026,-6.370926,-17.475428,-31.03551,-38.21029,-40.488942,-15.600748,0.277198,8.656976,13.021927,-0.654246,14.258232,19.101811,22.130421,10.831331,23.412236,25.190463,25.321065,19.435139,28.779644,31.339878,33.078275,27.689323,52.906094,74.758759,94.684868,47.848949,81.324921,98.945389,111.167221,36.914978,74.681969,94.969711,107.599869,27.837696,62.680664,82.036972,94.554176,20.917282,47.0117,62.794762,74.539375,-13.994064,-11.608151,-1.157882,6.766054,19.179678,35.776892,41.481086,44.785968,36.612313,52.269501,55.89777,56.335704,48.194468,64.823421,67.403045,66.094739,54.068661,70.222877,72.390687,70.235413,-18.351831,340.076238,-72.937059,302.536619
10,8.127937,-1.600632,0.135498,-0.09065,5.544777,6.694679,8.273506,9.808273,-8.96101,11.669312,28.351135,38.711815,-17.98027,7.387733,24.566803,38.731956,-22.203083,-0.355453,15.610085,26.459885,-22.13459,-23.735962,-25.060043,-25.380249,-17.634436,-28.540855,-33.909127,-33.502933,-13.217367,0.91792,8.520322,10.791687,0.591816,15.134532,20.033624,21.624315,11.598333,25.269936,26.344517,25.395783,19.420752,28.740433,31.255095,33.3677,27.600117,52.796288,74.596939,94.435959,48.242283,81.191483,98.682861,110.982742,37.441521,74.443932,94.470291,107.324524,28.320751,62.428436,81.571655,94.152031,21.155148,47.00861,62.669964,74.41967,-13.712543,-11.417157,-1.025983,6.795201,19.468608,35.958438,41.839424,45.299979,36.669741,52.47408,56.380473,57.001188,48.003412,64.723509,67.670239,66.587445,53.781583,70.040837,72.349129,70.33199,-10.263405,338.337331,-72.841072,302.307694
11,-10.041904,8.631658,0.478592,0.23564,8.045082,13.416653,17.63792,21.353474,4.013844,28.825779,45.062428,55.238514,-4.593487,20.427761,35.968952,47.88168,-10.215912,11.214924,25.851231,34.997807,-13.400574,-17.64616,-24.565773,-31.004677,-16.515518,-30.213921,-41.183511,-48.68316,-18.475168,-6.818419,2.462668,7.361884,-4.370756,9.874694,16.077646,18.889389,6.821445,18.924649,20.866699,20.933451,15.410124,20.531209,22.264358,22.896559,27.180119,52.286282,74.147987,94.185562,48.59745,81.334763,98.849373,111.116753,37.68259,74.408569,94.272537,106.625404,28.352909,62.318802,81.252251,93.347969,21.001053,46.985435,62.499962,73.850441,-13.992952,-11.728997,-1.332265,6.304223,19.338624,35.629555,41.554137,44.985669,36.712349,52.537621,56.399183,56.851567,48.006499,64.977242,67.627075,66.042992,53.670185,70.03108,71.96887,69.530779,-20.317812,346.93007,-72.374983,302.504416
12,46.642513,-26.718415,-0.357971,-0.299119,-5.611038,-15.676804,-29.512825,-40.771236,-44.500122,-32.869949,-13.017426,1.013603,-54.095764,-38.264408,-15.058594,4.460564,-58.302441,-47.630768,-24.820518,-6.341515,-59.507389,-65.409966,-60.068436,-52.830849,-15.087231,-18.677647,-11.724551,-3.424369,-2.376526,14.863262,20.611361,23.583717,15.268592,27.159931,32.495228,36.206737,28.064327,36.272377,39.290367,41.236369,37.798724,47.421105,47.163236,45.849804,27.168617,52.408562,74.414864,94.550056,48.593445,81.487198,99.076309,111.364861,37.796688,74.753265,94.488144,106.806679,28.517818,62.875385,81.749725,93.786278,21.142902,47.468491,62.945251,74.187927,-13.717545,-11.392951,-1.056117,6.579136,19.434337,35.999873,41.987501,45.378711,36.696479,52.570534,56.467849,56.87145,48.000201,64.96168,67.717848,66.254055,53.722982,70.150815,72.140536,69.744373,26.252718,320.177584,-72.804937,302.171226
13,-42.983265,22.263185,-0.400486,-0.3697,8.892345,13.799229,15.727901,15.86729,-1.791115,23.031979,40.080585,49.309559,-10.805683,16.578884,35.351887,51.454525,-15.846519,4.604301,20.348911,33.214588,-18.172245,-21.566162,-28.793278,-34.205418,-21.237263,-36.576189,-44.839197,-49.907053,-16.497178,-6.157628,-1.118794,2.637607,-0.296587,11.343551,15.285882,18.064033,12.169401,19.583896,20.386775,22.104548,21.645742,26.164761,25.784687,24.41247,26.935787,52.517223,74.732265,94.971371,48.609982,81.622639,99.555416,112.094021,38.023338,75.164509,95.418606,108.317242,29.001503,63.961201,82.992382,94.991856,21.838131,49.193573,64.900417,75.835018,-13.61541,-11.202574,-0.65616,6.885912,19.345787,35.871432,41.859431,45.073046,36.803184,52.411588,56.543679,56.984453,48.593437,65.094382,67.489125,65.433824,54.87827,71.24744,72.593043,69.353246,-16.766367,342.320016,-73.241243,301.680773
14,-6.059532,-6.451807,0.029354,0.326474,9.908638,17.626133,25.009289,29.941578,2.238579,30.151348,47.728901,58.392162,-7.842636,22.935162,39.45631,52.446728,-13.898449,13.504143,28.33643,37.768993,-15.358429,-15.231514,-19.418049,-23.100529,-19.970268,-31.436764,-34.731025,-33.00893,-13.442879,4.400334,10.736729,12.080542,4.06151,20.960375,23.498811,23.12096,16.726396,31.102818,29.986556,27.254532,25.249805,34.41017,34.130873,32.514247,26.775398,52.307796,74.644318,95.101776,48.60014,81.572685,99.301414,111.792183,38.241062,75.469437,95.580597,108.358955,29.327087,64.468231,83.339882,95.308914,22.11628,49.434872,64.956608,75.824318,-13.873527,-11.590429,-0.973927,6.567836,19.523381,35.886684,41.802868,45.014136,36.940331,52.237205,56.254811,56.64532,48.644752,64.677505,66.971533,64.959581,54.911554,70.923991,72.253787,69.194918,-22.898655,335.818701,-73.284645,301.957739
15,-10.974541,13.796709,-0.07782,-0.203838,13.376656,23.444538,29.486904,32.138615,17.518044,46.145496,63.360271,71.848583,8.493748,38.918552,57.28632,71.933498,1.043015,24.701385,37.012196,47.386494,-4.86517,1.132107,0.039482,-1.340046,-22.802822,-35.87878,-42.595496,-46.802428,-26.76374,-15.676762,-8.293698,-2.838234,-9.611699,3.888609,9.326782,12.424245,5.405508,14.998187,16.090861,16.946845,17.037,21.801786,18.949534,14.598847,26.566315,52.144032,74.542923,95.016632,48.316326,81.782799,99.750595,112.100601,37.680073,75.582733,95.773773,108.046074,28.687305,64.285812,83.251877,94.87896,21.632996,49.287243,64.96582,75.780602,-13.608432,-11.069379,-0.394647,6.89888,19.789957,36.192534,41.955823,45.116333,37.422108,53.124867,56.946786,57.219476,49.043597,65.576529,67.611699,65.608639,54.949469,71.104673,72.293801,69.304278,-33.908157,349.598136,-73.397427,301.736627
16,62.114697,-32.640465,-1.061611,0.149189,-8.360138,-19.345779,-33.779068,-46.38731,-49.630566,-39.011135,-17.057991,-1.868362,-57.17577,-42.559834,-18.385162,1.371918,-59.040241,-51.629219,-28.829498,-9.869843,-57.938862,-69.245796,-72.418098,-72.487793,-8.524644,-9.153202,0.571994,10.972307,1.919018,20.394556,25.95234,29.308722,17.341245,29.924867,34.647539,38.620375,28.665962,37.956681,40.583668,42.602474,37.755066,46.140525,48.387561,50.8619,26.998158,53.073063,75.799656,96.22839,48.828793,82.734203,100.704861,113.171482,38.131714,76.870365,97.195759,109.805317,29.038582,65.157623,84.311657,96.391354,21.945419,49.76469,65.47205,76.304226,-14.031361,-11.5619,-0.838632,6.806995,19.151396,35.410959,40.654866,43.343355,36.899638,52.44197,56.207819,56.627907,48.769796,65.210102,67.445097,65.775613,54.908034,70.821486,72.204695,69.394742,28.16946,316.928417,-74.496117,301.856561
17,-35.633926,21.135746,0.365582,-0.168023,5.98423,9.31675,10.195885,8.602409,-13.612061,9.215584,28.291512,38.844566,-23.855095,2.642326,23.941612,40.657196,-28.138103,-8.396988,9.352112,23.399391,-28.955784,-28.996696,-30.126858,-29.897346,-19.94952,-32.786752,-36.258422,-35.691862,-13.729772,-2.721588,2.130574,6.145463,3.110862,13.996595,17.190821,20.284084,15.499168,23.358761,23.739081,25.610366,24.381409,30.349648,28.437794,26.639745,27.045422,52.865467,75.356598,95.695381,48.597164,82.536278,100.38826,112.630806,37.910786,76.269493,96.252365,108.318558,28.926315,64.683094,83.501701,95.121117,21.988735,49.696827,65.400982,76.285057,-13.514201,-11.179665,-0.5581,6.999718,19.695047,36.344934,41.896358,45.081197,37.53437,53.417009,57.191132,57.7128,49.291464,66.102025,68.350296,66.748367,55.160902,71.306165,72.62892,69.871023,-7.482347,338.031265,-74.148417,301.655641
18,-14.711838,10.140838,-0.562248,-0.413172,8.660374,14.057007,17.081337,19.857674,1.971531,31.452141,48.728027,58.580017,-6.098728,22.423096,38.948364,51.897697,-12.049313,14.060898,28.76152,37.35054,-15.153694,-16.230698,-21.632195,-27.354813,-18.617502,-33.434205,-44.471782,-53.642583,-21.520636,-7.531636,1.300402,6.425995,-5.749396,10.09786,15.706588,19.106689,6.61279,18.968986,19.633358,19.653304,15.933706,20.779199,21.685818,22.172226,27.446938,53.501129,75.992432,96.169968,47.978325,82.295265,100.450974,112.647171,37.349567,76.617851,97.002068,109.317856,28.667965,65.376091,84.528236,96.241264,22.139568,50.331974,66.141357,76.885757,-13.465665,-10.970331,-0.206617,7.773821,19.798294,36.375933,41.881538,44.872419,37.731663,53.677472,57.280794,57.514828,49.600648,66.223612,68.164674,66.199591,55.652744,71.608742,72.717285,69.736222,-22.208977,348.151895,-74.725456,301.222261
19,46.247978,-31.322464,0.262585,0.339442,-6.074638,-13.646164,-24.639015,-33.780212,-46.126785,-33.373032,-12.067795,2.505226,-54.501801,-38.466225,-14.07486,6.235657,-57.261772,-48.223972,-26.090813,-7.381783,-56.440487,-62.886257,-59.69593,-53.798275,-10.300154,-12.103142,-3.838961,5.340731,2.223756,19.052225,25.031271,28.822005,18.860305,30.117034,35.558789,40.240582,31.090962,38.713001,41.976386,45.06261,40.541986,48.950107,49.4656,50.670721,27.673931,53.555775,76.179485,96.229649,48.527813,82.357006,100.211277,112.395344,38.014297,76.949902,97.286053,109.807491,29.303169,65.691948,84.622707,96.236401,22.580452,50.610695,66.136837,76.494427,-13.704886,-11.455442,-0.476034,7.649394,19.764454,36.160115,41.640402,44.584847,37.885854,53.568482,57.207311,57.390648,49.847773,66.140002,67.980535,65.721828,56.052022,71.711309,72.700242,69.407401,24.00939,316.769486,-74.492483,301.501759
20,-39.335747,24.132185,-0.392418,-0.067493,9.037628,13.26725,15.333138,15.796051,-6.711903,20.08152,37.514877,46.124496,-16.212387,13.048782,33.845329,50.25341,-20.850105,4.212284,21.305466,34.012985,-22.555904,-13.300266,-7.675037,-3.12149,-20.570174,-34.559915,-40.344076,-42.453285,-16.928073,-6.129902,-1.253348,2.516021,-0.227303,11.209244,15.049193,17.837162,12.679212,20.610312,21.092953,22.170868,22.147156,29.145145,25.564053,21.59097,27.611446,53.724289,76.145039,96.143932,49.43018,83.109684,100.739079,112.866383,38.68372,77.336941,97.350826,109.675198,29.594078,65.784874,84.445553,95.937939,22.443924,50.25032,65.673351,76.11414,-13.671912,-11.289149,-0.483135,7.577887,19.660096,36.594097,42.42667,45.539817,37.641569,53.383972,57.381323,57.860074,49.463562,65.780676,68.13454,66.485557,55.557154,71.452513,72.743838,69.849287,-15.334597,340.868959,-74.893141,301.401553
21,-2.805233,-0.513887,0.572891,-0.283002,9.614754,14.975224,19.778996,22.761326,-3.677788,25.319767,42.877293,52.327938,-12.718735,18.664455,35.114536,47.013531,-17.762775,11.323643,26.529865,35.651264,-18.445873,-16.841698,-18.046017,-18.940659,-18.878583,-32.312015,-38.073946,-39.778627,-15.946241,0.49493,7.556954,10.132316,0.518148,16.589125,20.448402,22.260962,12.520328,26.198786,26.827405,25.897814,21.162298,29.697132,30.710765,30.84396,27.043648,52.996731,75.550747,95.704021,49.156666,82.676182,100.492687,112.641506,38.593941,76.693668,96.692219,108.841038,29.503269,65.359211,83.986759,95.403156,22.260876,50.000267,65.45311,76.031399,-13.48771,-10.998613,-0.286831,7.486249,20.422158,37.164177,43.033492,46.272362,38.108649,54.183887,58.170926,58.480851,49.776698,66.458263,68.676462,66.691186,55.802057,71.931326,73.142869,70.171254,-18.148298,340.334864,-74.328718,301.098343
22,0.468063,3.447711,-0.885544,0.005372,9.68977,15.126629,18.58263,19.93372,-2.163563,26.110325,42.927303,51.509457,-11.103344,19.023342,34.63789,45.786266,-16.302967,11.860256,26.099453,34.236546,-17.824402,-13.556328,-11.700325,-10.068855,-17.994441,-32.22155,-40.350189,-45.035502,-18.07484,-3.279626,3.446661,5.92736,-2.514045,12.546757,16.716392,18.307392,9.271577,22.3999,23.226368,22.163396,18.070023,27.227053,27.741496,26.897924,27.441616,53.725262,76.486073,96.712589,49.635258,83.166332,100.942326,113.135777,39.126263,77.420483,97.390308,109.75565,30.091553,65.950699,84.562511,96.192684,22.804012,50.286198,65.742416,76.612072,-13.297087,-11.059746,-0.568907,7.510209,20.083889,37.068834,42.968715,46.059941,37.680842,53.562431,57.491795,57.772018,49.423856,66.004954,68.479601,66.772326,55.664971,71.96887,73.440506,70.720894,-17.677889,343.753922,-75.211916,301.075063
23,44.113255,-26.66883,0.482311,0.505674,-6.328926,-16.397781,-30.775223,-42.6931,-49.384346,-36.789837,-14.61422,0.474358,-58.136959,-41.757317,-16.074142,5.051765,-61.117229,-51.217976,-28.038025,-8.600121,-60.568943,-64.835758,-58.787613,-50.998993,-9.590518,-11.152186,-2.939937,6.935806,2.686452,20.712014,26.306911,29.728316,19.075073,30.993396,35.795232,39.978699,31.132273,39.536504,42.065739,44.354456,40.502898,49.705809,49.105595,49.184574,27.243004,53.226814,76.007652,96.623268,49.575462,83.258858,101.191864,113.125648,38.949795,77.427979,97.568092,109.317741,29.803104,66.007633,84.413567,95.018005,22.564316,50.484924,65.793972,75.835762,-13.541804,-11.320703,-0.786206,6.763399,19.956807,36.555935,42.540476,45.800034,37.807801,53.933674,57.751888,57.772512,49.603427,66.317781,68.006284,65.452411,55.795696,71.931511,72.619534,68.859243,26.450872,317.069254,-74.714098,301.564899
24,-44.721565,25.673722,-0.301552,-0.197663,10.777359,16.676102,18.716812,18.519745,-1.703339,22.925034,40.558777,49.036102,-11.819057,15.957527,36.221352,51.809692,-17.673454,6.092377,21.786346,33.147011,-21.326008,-9.955158,-3.272095,2.010727,-22.343893,-38.046343,-45.569458,-50.532647,-19.71666,-8.752256,-4.271276,-0.825233,-2.75129,9.165428,12.347242,14.648741,10.664667,19.026352,19.0069,20.398631,20.65434,28.071923,24.390239,20.399187,27.539692,53.569851,76.204262,96.63105,50.280361,83.650131,101.29303,113.293762,39.521255,77.30484,97.039719,108.695412,30.122738,65.522633,83.795471,94.520531,22.538567,49.883766,65.072479,75.13813,-13.763488,-11.370289,-0.635967,7.296984,20.302856,37.435817,43.412701,46.561972,38.033437,54.228286,58.014512,58.179077,49.553656,66.591397,68.800951,66.763496,55.406236,71.737677,72.872773,69.634643,-18.255615,342.713737,-75.000572,301.337997
25,48.865242,-27.669186,-0.201244,-0.515739,-15.543709,-32.81868,-50.942402,-66.235142,-59.656963,-46.924496,-24.263763,-8.010406,-63.943691,-46.84742,-21.755333,-0.108833,-63.148212,-50.797691,-27.40345,-6.916695,-59.636993,-58.767872,-47.262669,-35.18177,1.493063,5.061743,14.883517,25.847487,9.674437,26.588431,32.202655,35.598866,20.708062,33.191834,38.833352,42.510219,29.161447,40.281523,43.307293,44.561135,35.581452,46.911726,46.824843,46.521711,27.531681,52.819805,75.119762,95.584316,50.170956,83.405857,101.096363,113.273449,39.381981,77.012501,96.843967,108.94186,29.845963,64.984989,83.568592,94.780483,22.124691,48.915482,64.281578,75.084286,-13.38823,-11.038133,-0.211372,8.24368,20.568939,37.948407,44.144814,47.539543,37.933957,54.452872,58.576441,59.181657,49.155057,66.387003,68.985399,67.551369,54.852582,71.516425,73.281066,70.871812,30.74235,314.991877,-75.069094,300.769584
26,-59.809856,34.973025,0.593376,0.754034,13.694687,25.503216,30.459423,32.124653,17.573776,40.882473,54.294033,63.186092,9.523602,32.898045,48.277302,62.772961,2.544537,21.449375,32.275257,42.229214,-3.999252,4.30418,7.086468,10.954628,-23.359008,-40.879452,-51.009113,-59.833,-25.560039,-17.944793,-13.368408,-9.96065,-9.460287,-0.017661,2.651933,4.77096,3.952767,10.182272,10.740187,12.007429,14.548644,20.467359,16.914735,11.857499,27.260799,52.434196,74.790287,95.427189,50.139999,83.227558,100.804768,112.807789,39.420605,77.018452,96.800251,108.760242,29.935226,65.1301,83.518467,94.560986,22.211094,49.069462,64.392071,75.149746,-13.628625,-11.523368,-0.772992,7.311805,20.55665,37.366595,43.355335,46.619276,37.962486,53.821103,57.845439,58.370627,49.298627,65.92122,68.261437,66.582752,55.239016,71.583115,73.051355,70.368793,-29.036894,349.870687,-74.445105,301.429403
27,48.963375,-31.537356,0.252571,0.489434,-0.880394,-6.588593,-15.690422,-22.457199,-44.168816,-26.661873,-5.468216,8.801193,-55.259857,-34.009724,-9.149323,10.926704,-59.86187,-43.928947,-20.417175,-1.663513,-60.665932,-55.495949,-41.338234,-28.233032,-13.76003,-18.39625,-14.023889,-7.485261,-2.317616,14.432553,20.895413,24.837806,16.313039,28.579696,34.76258,39.108265,30.832042,39.967584,42.340467,43.929799,41.931494,51.302119,49.390388,47.436049,27.409229,52.872734,75.199642,95.72176,49.390125,82.696667,100.417614,112.519283,38.580265,76.793346,96.770382,108.712635,29.311752,65.254154,83.69173,94.635143,21.889915,49.335709,64.590797,74.974079,-14.332579,-12.267213,-1.330104,6.976994,19.019559,36.399645,42.856453,46.484475,37.022213,53.288444,57.400034,57.954676,48.884899,65.539664,67.684503,65.828594,55.135708,71.265162,72.52907,69.66842,19.946966,318.225345,-74.172049,301.810851
28,-42.324944,24.211966,0.506401,0.181546,12.423306,21.311073,27.400246,32.064514,4.682465,28.765182,45.039825,52.889328,-6.46122,19.304008,38.410606,53.124275,-13.931293,8.50668,23.908653,34.548225,-18.881035,-9.395084,-3.252411,0.964108,-20.364915,-34.814821,-42.820514,-47.104511,-18.370748,-6.466009,-1.165477,2.576042,-2.085188,11.267104,14.846652,17.130614,10.923154,20.054002,20.501322,21.558736,20.39931,27.86123,25.407825,21.817841,27.440071,52.734661,74.788914,95.085354,48.973618,82.211323,100.044994,112.241764,38.171082,76.360874,96.511745,108.748684,28.907375,64.890518,83.599491,94.861622,21.387863,48.873596,64.433441,75.228367,-14.324305,-12.499765,-1.936616,6.069448,18.467078,35.907865,42.31731,45.834861,36.509314,52.832788,57.046019,57.720518,48.595042,65.304333,67.650293,65.89689,55.069388,71.284243,72.698081,69.945124,-22.300987,342.391338,-73.588657,301.946424
29,38.949623,-23.330232,0.764923,0.64029,-0.997353,-7.18792,-17.713737,-26.675892,-40.106964,-21.633797,-0.342293,13.04203,-51.274109,-28.697033,-4.846001,14.034805,-56.246681,-40.254421,-16.921234,1.002502,-57.8088,-58.147144,-50.4035,-42.170849,-15.841759,-20.834342,-16.14551,-8.915833,-3.522985,13.933301,19.951373,23.632191,15.960814,29.132054,34.21862,37.449525,30.25659,39.332975,41.590878,43.461916,40.84129,50.02512,48.101595,45.866415,27.03907,52.419834,74.922352,95.383472,49.00177,81.747608,99.54031,111.509686,38.613796,76.104183,96.116924,107.856617,29.5261,64.926853,83.289928,93.865528,22.012653,49.442883,64.67823,74.977627,-14.696413,-13.319811,-3.182246,4.693587,18.034825,35.409415,41.968235,45.767121,36.143442,52.677362,57.085971,57.707736,48.272891,65.129642,67.481468,65.503108,54.935698,71.145058,72.396368,69.453899,16.70846,318.992687,-72.76391,302.518294
30,-40.225697,20.424443,0.846176,0.011239,10.810146,20.091076,28.955212,37.405872,6.579723,32.512951,49.157124,58.133068,-4.090862,23.887768,42.673702,58.266506,-11.870842,12.155628,26.308079,37.716465,-16.579227,-10.481129,-8.057842,-4.366951,-20.697009,-34.915041,-40.186118,-37.678805,-16.975991,-3.475745,3.79024,9.928602,0.279482,16.4161,20.907207,24.541898,13.559958,24.331515,25.291734,26.865072,23.088911,30.043304,27.900997,24.496759,27.112656,52.05328,74.234676,94.175091,47.440281,80.622311,98.969707,111.256886,36.688385,75.508633,96.591969,109.221897,27.741165,64.176006,83.278599,94.061909,20.902634,49.108257,64.893208,75.221157,-14.567478,-13.26263,-3.607953,4.132214,18.597989,36.183457,43.453086,47.950245,36.553959,54.320232,59.006038,60.406661,48.267889,65.864286,67.875621,65.90146,54.410758,70.14711,71.376498,68.264278,-23.508654,339.352585,-71.909151,302.464988
31,-23.965588,-13.768736,0.560818,-3.11253,18.000698,38.35041,50.296669,59.049454,36.464596,63.831367,79.264984,90.708046,24.257469,52.392311,68.044052,80.47863,12.769833,36.517467,50.066071,57.750092,4.737511,6.39616,1.742592,-2.936382,-19.291878,-26.966775,-29.70942,-29.818224,-4.219961,18.795529,27.369079,31.138016,12.734664,35.648266,41.025306,43.320508,23.671341,43.66631,43.394979,41.052415,29.761414,42.357386,41.810463,40.173768,27.206612,52.639217,75.397224,95.055771,50.652294,82.310028,99.762268,112.336464,39.817429,75.67646,95.779724,109.497871,29.523697,62.576981,80.723419,92.610397,20.55479,46.039467,61.104527,72.82299,-14.103979,-12.160817,-2.87726,3.604001,19.432422,38.252775,47.583324,53.748114,36.254655,55.919876,64.542148,69.443711,47.27488,66.82574,72.496404,73.715666,53.628566,70.975121,75.155624,75.110916,-47.453527,325.50524,-71.32762,299.27385
32,68.296967,-8.196997,1.640053,-6.88338,4.356537,1.580086,-8.482246,-21.423569,-31.348858,-12.875748,6.854897,18.196907,-45.396938,-24.895363,-4.743576,12.274933,-53.285637,-41.726189,-23.931084,-10.225754,-57.914371,-68.701172,-73.195095,-76.625347,-16.846439,-25.593693,-26.614736,-25.793703,-3.664763,20.703308,31.681234,39.851616,14.400011,32.111264,40.369579,43.940235,26.814375,39.140066,44.718166,48.399849,37.837256,45.364323,49.013278,52.701507,28.681812,52.902603,73.970032,92.927628,54.192581,83.484879,98.986359,110.236702,42.314014,74.135513,91.880264,104.854431,29.379272,58.238182,75.591431,88.222847,16.850281,39.365044,53.335762,65.133133,-13.848456,-12.417329,-4.249293,-0.017537,16.917513,36.986521,48.191318,56.640195,32.869436,55.993421,68.447862,76.628186,43.991117,66.339023,76.405884,81.754767,51.165156,70.659514,77.756736,80.347413,20.87966,317.180698,-69.651346,292.262925
33,11.25927,12.38491,3.313065,-12.096165,-10.136261,-22.860832,-32.778511,-38.588562,-52.569466,-63.063126,-64.357967,-65.234299,-55.692329,-66.72821,-67.471733,-67.749596,-54.411449,-70.194683,-79.080849,-86.944714,-48.675156,-63.79858,-73.736858,-83.359222,-21.56559,-33.946857,-37.583709,-40.462328,-14.493995,-7.729484,-2.110012,1.815277,0.975039,6.253155,10.266376,13.740455,14.289292,21.657413,25.733002,28.96928,26.221448,31.247561,34.319212,36.58187,29.633961,56.336346,76.968613,94.476242,57.021618,82.466927,94.830208,102.228813,44.663029,72.252502,85.657425,94.633484,30.439568,52.240219,63.230782,69.52858,16.050282,29.986382,36.97998,40.030518,-16.350151,-13.328332,-2.066972,6.45088,11.558504,33.46119,46.616436,56.34509,28.404819,52.487603,66.158897,75.644749,41.954033,65.529722,76.804792,83.062826,51.221781,71.999004,78.86528,79.905651,32.459707,329.474912,-66.017504,280.076064
34,-6.783028,-20.896092,20.712948,-13.062312,-17.76741,-31.621399,-33.876057,-32.350044,-50.650177,-76.702194,-87.370434,-93.273869,-47.877274,-81.002598,-93.296299,-96.093979,-41.891327,-70.253677,-80.383072,-84.630146,-33.622456,-52.333317,-62.213402,-67.499256,-24.541157,-40.298134,-54.30004,-61.672606,4.213169,15.67843,20.909184,21.636418,25.182621,40.676849,43.334648,41.863198,39.959803,54.264163,54.218961,51.412714,48.983638,61.794996,62.49716,59.761431,13.131351,27.57843,31.914024,31.544495,44.07835,39.272175,30.587254,20.225372,40.366917,33.563118,14.126587,-5.211353,32.132435,21.415844,-1.036835,-19.681149,20.560741,11.374626,-3.685627,-17.21386,7.330824,21.487908,37.832995,53.066822,24.374246,50.968667,65.62982,73.333184,29.108527,60.8257,77.28132,84.864641,34.174469,64.263592,77.699185,82.351584,36.501965,61.507115,71.603925,75.585962,26.089554,308.585643,-44.891682,267.020576
35,12.400818,-3.139453,-21.147022,-54.85252,-24.97261,-46.98904,-66.810722,-82.654495,-55.696449,-85.823364,-100.350437,-110.438576,-48.574047,-82.171955,-100.715389,-113.458385,-39.463463,-70.24538,-87.694187,-99.971123,-30.207481,-54.32951,-67.741127,-78.18346,-16.310383,-16.753072,-7.897816,1.209135,6.919381,20.326445,28.026659,32.68616,23.369629,38.500023,45.16666,48.355513,36.106269,50.444097,55.909811,58.907608,44.3941,57.498526,60.907951,61.957646,33.596878,59.746399,79.268303,88.985138,77.957382,89.082069,84.95121,76.045761,71.65432,79.655228,70.076408,57.772293,60.312653,66.329956,57.026367,44.752522,46.33112,54.345875,48.484325,38.624496,-7.815379,-2.326447,6.60433,14.581125,30.182243,65.018614,77.673991,80.912368,40.26201,77.129167,90.026481,94.580019,47.593945,79.34718,90.365985,93.574969,52.036578,75.349211,83.790431,86.073344,38.925047,305.525493,-65.604029,212.247358
36,6.44165,-1.893762,2.714024,-31.098989,-24.529495,-47.839279,-69.420433,-85.215912,-55.09901,-86.158733,-102.679996,-115.007572,-48.879776,-83.038731,-102.538719,-118.037224,-40.025711,-71.65369,-89.331207,-102.37421,-30.359688,-56.073017,-69.873276,-81.219578,-17.400957,-16.959071,-4.336423,5.989296,8.812895,23.100644,29.935735,34.909237,25.466858,38.10408,44.765838,49.804918,38.099881,50.219387,56.735599,60.913756,46.709555,58.203221,62.984185,65.520089,20.439548,43.32613,57.169819,66.316051,48.884411,64.693966,71.681614,73.888378,42.352695,57.403049,64.873066,66.575489,33.25407,46.359215,53.884563,57.018871,24.094162,35.403328,40.183697,42.834835,-18.478811,-28.984594,-39.619188,-48.338902,-12.457219,-11.933267,-11.227275,-9.881054,2.119027,14.217415,22.305793,28.672878,15.941301,30.036635,38.02967,43.291794,27.762862,41.314854,46.039069,47.997607,45.761232,304.21447,-62.49547,181.731107
37,0.435333,-2.074196,-13.069782,-44.176492,-25.535088,-48.374519,-69.033852,-85.7551,-56.051788,-85.842533,-102.259884,-115.132084,-50.320015,-82.805901,-102.163582,-117.627811,-42.149277,-71.945686,-89.587898,-102.993279,-32.799797,-56.187401,-70.026169,-81.640034,-17.12975,-16.271666,-2.988041,6.296072,11.361644,25.052883,31.979242,37.605322,28.290519,40.393847,46.320404,51.386655,40.847898,53.058177,58.873584,63.190123,48.938869,60.539363,64.5708,67.256573,19.824543,44.591732,58.126602,63.583603,50.536251,70.391464,79.404259,83.489227,44.055462,64.91478,64.297886,61.548386,34.323349,48.512192,49.28896,49.17778,23.581409,32.851753,33.013115,33.167095,-20.656007,-35.224473,-48.677047,-64.240744,-18.324744,-15.602971,-15.084823,-15.327687,-6.909933,9.287818,14.88716,19.280949,3.50094,21.552252,24.475826,26.686367,13.321787,27.462137,27.321223,26.147965,45.260725,303.070852,-76.501093,138.485194
38,0.647736,-0.674747,-0.058765,-18.871605,-25.214539,-48.7714,-69.885063,-86.548004,-56.989174,-86.75909,-103.113613,-115.921955,-51.504593,-84.459,-103.975697,-119.713726,-43.61515,-73.869495,-91.986809,-106.121235,-34.439278,-58.372192,-72.669296,-84.972496,-18.223473,-17.190697,-3.804319,5.781753,10.814905,24.644281,31.519386,36.913717,27.670051,40.017848,45.601012,50.275765,40.103682,52.412268,58.225143,62.435286,48.196567,60.079446,64.39722,67.332155,36.343517,62.168427,73.762722,75.49696,52.923431,56.257954,60.311165,58.591232,33.214359,45.407238,50.864925,48.305626,15.385609,28.320751,32.001801,28.586369,-0.090237,12.983494,18.791828,17.216034,-5.973303,-19.15223,-30.026539,-40.207021,-58.510985,-91.581264,-105.460163,-114.510489,-60.796862,-49.615098,-25.558002,-15.48441,-54.770423,-39.307904,-22.689108,-17.750959,-45.294483,-34.827016,-23.03173,-18.923568,45.823288,303.919534,-76.645031,121.137018
39,0.1894,-1.081744,10.72649,-31.561562,-25.819588,-49.43367,-70.946388,-87.84462,-57.448082,-87.873173,-104.057121,-116.526375,-51.426659,-84.883518,-104.089508,-119.354038,-42.934456,-73.804607,-91.688004,-105.208569,-33.200111,-57.4716,-71.402721,-83.129425,-16.801608,-15.656817,-2.40345,7.056467,11.641373,25.645193,32.646702,38.349476,28.18153,40.491042,46.817186,52.291546,40.477025,53.076393,59.205739,63.858139,48.478828,60.760368,65.251228,68.100269,31.615391,51.888657,54.937763,49.130287,41.283531,40.720596,40.485592,39.684963,21.528397,32.998924,40.084534,40.69519,4.632969,16.748543,22.292118,22.300816,-11.461487,0.702438,8.319397,10.469341,-10.451936,-29.717355,-45.079005,-55.738948,-69.841476,-102.227313,-119.652353,-132.489739,-70.144763,-66.835651,-45.619105,-30.653893,-63.985499,-55.232965,-37.691865,-25.533579,-54.82745,-51.569807,-37.562683,-27.148569,46.416664,304.943804,-65.514565,91.68147
40,-0.119705,-0.229526,9.85342,-32.743434,-26.022377,-49.67926,-71.100655,-87.815151,-57.957745,-88.161392,-104.211445,-116.610832,-51.935692,-85.355186,-104.578915,-119.73381,-43.590317,-74.28297,-92.083969,-105.421658,-34.052925,-58.132381,-71.996155,-83.78334,-16.946227,-15.629523,-2.075308,7.438887,11.070367,25.465499,32.636822,38.255986,27.740755,40.506418,46.830401,52.03028,40.19007,52.974567,59.064393,63.428973,48.39565,60.791119,65.200655,67.845363,26.511269,42.083073,43.977985,40.171452,31.417122,32.060623,30.860424,30.012932,13.051071,21.175919,28.459911,30.882397,-3.449135,5.521088,11.077137,12.085876,-19.687443,-10.37693,-2.608337,0.42675,-9.974204,-30.917474,-46.136789,-56.748474,-70.006535,-103.448829,-121.595361,-134.948331,-70.517087,-64.165934,-41.161157,-24.07204,-64.379806,-53.927715,-35.624677,-21.639382,-55.645025,-55.754015,-41.666893,-29.354633,46.032686,306.008875,-55.925417,60.232633
41,0.198326,-0.65227,-6.28109,-15.647678,-26.523514,-49.883881,-70.980949,-87.950878,-57.902756,-88.304157,-104.366627,-116.717606,-51.921616,-85.382366,-104.606094,-119.844818,-43.561363,-74.521122,-91.984119,-105.086002,-33.828392,-57.808113,-71.129436,-82.326622,-16.429068,-15.128542,-1.742967,7.53707,11.610498,25.903866,32.791815,38.011022,28.142503,40.987206,47.566898,52.764986,40.449978,53.444426,59.708449,64.065991,48.588312,61.277095,65.881823,68.421679,30.191574,50.629234,54.435654,44.57119,36.840649,40.864849,41.689339,42.1138,18.677559,29.730034,33.892593,34.173546,2.172775,14.827709,19.170513,20.851479,-13.234406,-1.907158,4.962444,7.821236,-13.423027,-31.489314,-47.830047,-60.697475,-71.8475,-99.856159,-120.129437,-136.460753,-73.977951,-71.124402,-48.185606,-29.526083,-70.476208,-63.214607,-43.775392,-28.724377,-62.419447,-62.474034,-47.584003,-34.486617,45.575323,305.804975,-62.862196,45.033325
42,1.17897,0.215138,4.08514,-14.073691,-26.255608,-50.088844,-71.685162,-88.888893,-57.774582,-88.645992,-104.954224,-117.399559,-51.815186,-85.851173,-105.203419,-120.488434,-43.553581,-74.924068,-92.399998,-105.368328,-34.123535,-58.422318,-71.73111,-82.755947,-16.378556,-15.055244,-1.770446,7.786418,11.600556,26.03879,32.971879,38.338855,28.030982,40.908228,47.406347,52.729541,40.250648,53.544338,59.95965,64.571418,48.256897,61.062327,65.574986,68.191968,29.769573,50.534363,54.487839,42.77235,36.018562,39.048786,37.861862,36.148224,17.698975,28.63575,33.698788,34.380741,0.965652,13.211403,18.415089,20.412598,-14.435005,-2.623386,4.574604,7.412682,-12.835749,-30.90815,-48.548915,-62.071823,-70.365891,-100.179021,-122.364061,-139.598076,-72.84585,-70.31998,-47.394769,-28.304814,-69.603058,-62.146881,-42.829098,-27.073171,-61.688322,-59.694679,-44.453164,-30.716909,44.525385,305.990983,-61.005964,30.930503
43,0.946999,0.133875,9.115963,-7.315911,-25.976372,-49.761429,-71.545086,-88.550205,-58.083057,-89.275703,-105.827923,-118.366871,-52.14901,-86.571064,-106.120548,-121.35601,-43.882713,-75.540161,-93.204517,-106.163521,-34.54628,-59.164238,-72.654018,-83.643036,-16.73325,-15.539121,-2.281245,7.787838,11.409191,25.89732,33.010041,38.780247,27.910383,41.009313,47.561835,53.074294,40.149871,53.663825,60.038073,64.783222,48.159455,61.08147,65.593511,68.34937,25.186729,44.65971,46.531048,34.735565,28.665905,30.372791,29.627552,29.709034,9.13702,18.441467,22.272606,24.239101,-7.662563,4.484196,9.03986,11.782093,-23.058071,-11.325874,-3.498287,0.675144,-9.662457,-28.432885,-46.306788,-57.513037,-71.464061,-103.772586,-124.027339,-141.133839,-72.990315,-68.325843,-43.243134,-23.871536,-67.760549,-56.636243,-36.357099,-21.373639,-58.229373,-53.212244,-37.541256,-25.397914,43.768272,306.756426,-53.594112,24.24616
44,1.071739,0.10584,-2.137241,2.383195,-25.974884,-50.101089,-72.135429,-89.578285,-58.895302,-90.397739,-106.866016,-119.360676,-52.914047,-87.270069,-106.451969,-121.498775,-44.520035,-76.201458,-93.757267,-106.591015,-35.062408,-59.870567,-73.271999,-84.095135,-17.119252,-15.968224,-2.298474,7.587026,11.203686,25.746587,32.87382,38.652115,28.015483,41.111078,47.626364,53.105601,40.338827,53.520132,59.61533,64.054196,48.303395,60.831628,65.070052,67.55668,25.595856,44.575882,47.074356,35.548782,32.837162,31.84021,30.717316,28.734398,13.070812,19.994602,23.939209,25.267868,-5.384159,4.745522,9.816456,12.032948,-22.510757,-12.957001,-5.452366,-1.785736,-6.652557,-25.52478,-42.559804,-53.389653,-67.003643,-102.969769,-122.719743,-139.544229,-67.859843,-65.796916,-42.823664,-27.631704,-63.255918,-55.512972,-36.366084,-23.245232,-55.882857,-55.12626,-39.725028,-28.20484,44.384336,307.359712,-56.187029,27.126802
45,0.697861,-0.117449,0.243473,8.757567,-25.878983,-50.249634,-72.636795,-90.327244,-59.230385,-91.252327,-107.582932,-119.940548,-53.233452,-87.979488,-107.063313,-121.950302,-44.797325,-76.863613,-94.682751,-107.829094,-35.319672,-60.418167,-74.149876,-85.404682,-17.274554,-15.809032,-2.242343,6.875106,10.672447,25.05912,32.241866,38.085616,27.528951,40.40595,46.88468,52.297597,39.912502,52.920968,59.0823,63.600454,47.919369,60.305885,64.619645,67.305911,23.016987,39.4701,42.413063,34.220066,29.138317,26.934128,26.075306,26.044006,9.891529,14.298191,19.70787,23.483047,-7.940769,0.566483,6.797676,10.119553,-23.991966,-16.289692,-8.275967,-3.358154,-6.808786,-24.155835,-39.57763,-51.358373,-68.455272,-102.960013,-121.03408,-135.984442,-69.544178,-65.189817,-41.6174,-25.175458,-63.46343,-53.126195,-33.355133,-19.258749,-54.628953,-52.395132,-37.761921,-26.271281,45.081568,308.766,-55.944185,37.408106
46,1.146469,-0.075397,-1.100464,8.859208,-26.253433,-50.751343,-73.049583,-90.615692,-59.485588,-90.974751,-107.443314,-119.98764,-53.695564,-87.885303,-107.158356,-122.602959,-45.476761,-77.154522,-95.126266,-108.541031,-36.037216,-60.630684,-74.239082,-85.509109,-17.290486,-15.886899,-2.364423,6.795139,10.839667,24.781922,31.634119,36.790834,27.823315,40.384769,46.709555,51.8659,40.181364,52.725095,58.607007,62.814495,48.147105,60.479218,64.982799,67.760888,23.042107,36.673107,38.39098,31.25782,28.726215,26.251717,23.579636,22.30093,8.926563,13.69051,18.71418,23.250103,-9.031734,-1.54089,4.114094,7.963486,-24.645309,-18.265629,-10.609303,-6.251564,-5.714229,-20.866174,-33.921076,-44.790877,-65.370067,-98.948181,-116.007998,-130.179687,-67.519413,-55.510502,-31.998816,-17.713908,-60.269761,-44.82237,-26.35733,-15.583427,-50.544194,-44.778373,-31.54174,-23.477074,45.858078,308.775371,-57.414608,46.352082
47,0.808525,-0.167035,0.728645,10.021752,-26.437798,-51.168823,-73.831444,-91.739159,-59.401588,-91.040955,-107.683811,-120.2211,-53.32695,-88.176956,-107.607937,-122.971573,-45.030899,-77.086716,-95.148582,-108.555679,-35.867615,-61.285858,-75.324554,-86.874046,-17.663644,-16.208063,-2.486257,6.846947,10.806137,24.773957,31.648506,36.5434,28.175787,40.527783,46.789954,51.66904,40.791828,52.999699,58.496845,62.189457,48.819011,60.676202,64.702699,66.968445,22.514877,34.651337,35.18034,26.353512,26.073017,26.431961,24.505978,23.360939,6.447201,9.098282,13.494358,18.626633,-11.166744,-5.101032,0.12886,4.150143,-26.007786,-21.311188,-14.694443,-10.855694,-5.665569,-18.982138,-29.552234,-38.116769,-63.069987,-95.43909,-110.993309,-124.022738,-65.567545,-51.85108,-26.493459,-10.847787,-58.651498,-40.196956,-20.412525,-8.029468,-48.774952,-40.034984,-25.77101,-16.740722,46.590271,309.97285,-56.762295,57.738349
48,0.024834,0.084289,-3.489761,8.153617,-26.292343,-50.960884,-73.697147,-91.742935,-59.150963,-91.005192,-107.922993,-120.691795,-53.176689,-88.340721,-108.062668,-123.269749,-45.035477,-77.393303,-95.782242,-109.182816,-36.097298,-61.944981,-76.329403,-88.002834,-18.014324,-16.466735,-2.776113,6.37783,10.483491,24.531895,31.678641,37.217653,27.993561,40.576134,46.619894,51.493483,40.789914,53.310119,58.684504,62.488762,48.989134,61.038368,64.848986,67.24626,23.288841,37.719898,38.131256,27.473545,28.809643,28.947773,27.893257,26.306705,8.615456,12.050056,16.743908,20.938339,-9.716091,-2.272968,2.936211,6.339512,-25.162697,-19.079533,-11.882057,-7.055111,-5.182866,-21.549165,-35.125672,-44.450015,-64.156424,-94.242151,-110.925075,-124.643237,-67.415457,-54.191915,-30.643271,-15.667778,-61.752295,-42.745457,-23.475716,-11.288346,-52.777182,-41.146523,-26.367611,-17.417352,46.471682,311.723366,-60.395479,67.558193
49,-0.019913,0.272258,-5.24271,-7.649641,-26.766472,-51.173515,-73.821487,-91.656246,-60.154266,-91.870422,-108.43483,-121.210384,-53.778763,-89.035149,-108.554707,-123.77861,-45.277748,-77.608395,-95.97187,-109.628906,-36.070633,-62.04031,-76.698647,-88.790932,-18.319062,-17.19749,-4.008281,5.168942,10.339427,23.925382,30.849209,36.328879,28.111319,40.108498,45.873023,50.576551,40.998692,53.348033,58.433859,61.965365,49.069471,61.007616,64.503616,66.506367,24.490814,40.734329,40.563927,30.49633,34.355621,35.605488,36.019192,35.074997,15.257092,17.695713,19.927998,21.611252,-3.019009,-0.685043,3.613472,7.528496,-19.42091,-17.511635,-11.476421,-6.352043,-3.127566,-20.456306,-34.41406,-42.717515,-62.01387,-91.076702,-109.837712,-127.675522,-67.424534,-54.676995,-33.550512,-24.099982,-63.491156,-47.374885,-30.303984,-23.681592,-55.419204,-45.188025,-29.871607,-23.599495,45.479622,311.775854,-66.610336,59.688782
50,-0.316315,0.008213,-10.289726,-16.04461,-26.814537,-51.271019,-74.045334,-92.078533,-60.118504,-92.146568,-108.739185,-121.367855,-53.88176,-89.462357,-108.916111,-123.951302,-45.532494,-78.233356,-96.350327,-109.616547,-36.569138,-62.815819,-77.301407,-89.068108,-18.436759,-17.026132,-3.638087,5.476706,10.266623,24.051909,31.037239,36.52049,28.101871,40.110783,45.696046,50.250695,41.068779,53.319813,58.237987,61.757266,49.238976,60.990079,64.389254,66.393178,26.802521,44.380016,46.001186,38.011036,40.908394,42.710094,41.977615,41.084576,23.521214,25.928364,29.625778,31.876488,5.989666,8.506966,13.94537,17.936268,-10.243092,-8.113003,-2.093525,2.837906,-8.995121,-25.143842,-41.168351,-53.553137,-62.865686,-84.670343,-102.883998,-118.561964,-67.7486,-66.137069,-45.370343,-32.481242,-66.668493,-60.820327,-41.953786,-31.362818,-60.89273,-59.168504,-43.977686,-34.199231,44.874945,311.678381,-77.188425,43.538486
51,-0.131836,-0.370626,8.121872,-47.980502,-27.273674,-51.829491,-74.692268,-92.487316,-60.3792,-92.373676,-108.903809,-121.507759,-53.988304,-89.471626,-108.882408,-123.845844,-45.604362,-78.233528,-96.371326,-109.632797,-36.657257,-62.666187,-77.073154,-88.776627,-18.214581,-16.735411,-3.24412,5.984418,10.521159,24.49645,31.371371,36.771753,28.195917,40.53754,46.169363,50.665349,41.124725,53.729342,58.609724,61.94931,49.369825,61.635988,64.944761,66.737684,24.622822,42.82774,46.811714,41.31031,34.564991,26.706047,22.710972,19.074154,14.974251,15.409184,22.600822,25.035553,-3.050423,-0.042286,6.239147,6.203098,-19.198952,-15.313454,-8.479671,-8.096581,-7.799139,-26.164205,-39.273077,-48.634717,-68.180112,-108.732997,-130.483283,-146.332823,-68.87607,-61.080852,-35.311633,-21.358325,-62.524515,-53.2396,-33.746075,-23.84276,-53.645856,-53.811439,-39.169305,-30.383395,42.937975,309.830824,-70.871687,-5.918947
52,-0.792046,-0.901,6.085567,-40.257317,-27.422676,-51.6045,-74.13929,-92.073212,-59.608383,-91.445904,-107.869492,-120.520134,-53.294449,-88.678322,-107.726612,-122.491093,-45.157928,-77.663612,-95.616188,-108.875656,-36.494064,-62.360229,-76.699505,-88.506832,-17.74429,-15.990825,-2.249197,6.782912,11.18547,24.831693,31.510988,36.693947,28.738086,40.911809,46.300953,50.594274,41.486212,54.056743,58.908782,62.310303,49.674193,62.017112,65.348979,67.132393,29.726715,49.988766,61.790943,67.596416,29.425392,26.043034,24.85508,23.33828,6.785831,3.922176,7.242165,9.476051,-12.763653,-4.723892,3.322392,7.204056,-27.806568,-20.412426,-12.384682,-9.774399,-14.447837,-37.122372,-50.133369,-56.968861,-76.291214,-116.987128,-136.293564,-148.844119,-75.302096,-114.326226,-128.367976,-133.494634,-66.362211,-73.151946,-54.831865,-40.966921,-53.315244,-63.440737,-52.433108,-42.308171,41.70619,308.115012,-65.225859,-46.991076
53,-0.147629,0.836348,-14.92733,-15.698313,-27.670555,-51.776962,-74.086933,-91.887531,-59.881668,-91.285229,-107.0644,-119.227467,-53.81813,-88.384724,-107.033043,-121.489449,-45.924339,-78.246517,-95.909042,-109.042168,-37.378464,-62.80735,-76.825733,-88.424492,-17.907434,-16.688234,-3.351874,5.158938,10.075135,23.582606,30.4545,35.611895,27.65801,39.584855,44.848707,48.930718,40.477025,52.417455,57.14519,60.424692,48.773007,60.712511,63.952987,65.699845,30.946598,52.01746,62.086601,67.279415,37.17041,36.823025,36.756821,35.596619,16.864529,16.25267,23.271503,27.118549,-1.043587,0.190029,8.633595,12.755127,-17.436962,-16.478176,-8.94453,-3.156624,-17.998362,-38.253053,-54.359937,-66.121724,-80.973423,-113.183364,-135.69122,-153.983961,-82.053114,-101.727968,-79.765909,-61.889474,-78.026987,-90.346271,-69.594659,-53.344761,-69.667741,-81.464972,-67.609507,-53.738018,39.070559,308.840872,-82.641191,-62.799876
54,-0.478477,0.510799,31.371574,-53.449088,-26.491013,-50.886497,-73.505459,-91.295986,-59.799557,-90.839081,-106.663628,-118.865833,-53.991508,-88.493729,-107.313366,-121.895027,-46.056175,-78.421955,-96.116467,-109.213715,-37.333145,-63.028278,-77.097359,-88.762264,-18.463373,-17.50266,-4.546436,4.108564,9.233107,22.823385,29.238882,33.994034,26.695691,38.156074,43.116793,46.918457,39.65914,50.959404,55.522265,58.582492,48.14445,59.86474,63.234027,64.923457,30.305042,47.35548,51.415615,49.268246,22.069302,14.547157,12.776585,12.48848,-4.057903,-12.260113,-2.084312,6.172543,-25.057182,-23.764286,-12.046509,-4.184132,-42.314358,-43.460312,-32.806149,-27.322712,-6.945748,-17.479288,-20.829572,-22.775744,-83.80363,-122.560118,-137.687163,-140.40767,-84.557031,-113.670452,-111.43396,-103.467956,-73.117428,-68.666906,-44.196715,-26.942261,-56.364541,-62.754443,-46.07507,-33.38465,37.758808,309.259479,-52.10289,-116.341157
55,-0.850067,0.196922,-22.256813,-14.397788,-25.810776,-50.381699,-73.209515,-90.887146,-59.501152,-91.05875,-107.324982,-119.760189,-53.456841,-88.819599,-108.029537,-122.748413,-45.290909,-78.5602,-96.578865,-109.806862,-36.504822,-63.11594,-77.461681,-89.292526,-18.727233,-17.942261,-5.248106,3.967711,9.493508,23.210004,29.58382,34.348296,26.888538,38.168918,42.938211,46.745371,39.572196,50.694865,55.101004,58.114115,47.542815,58.951945,62.417316,64.485832,24.647141,38.600693,36.185188,28.711109,26.731453,25.176144,22.716579,19.503994,7.518711,10.992508,15.968971,18.514423,-10.880527,-5.084267,2.317886,5.976334,-29.04871,-23.481388,-13.658695,-7.724934,-16.978554,-37.957762,-57.648178,-74.10034,-82.461176,-119.384758,-143.219413,-163.404658,-81.2356,-92.492824,-68.444666,-51.547005,-75.586472,-78.038843,-56.503371,-42.682394,-66.951294,-73.506502,-58.340354,-46.341646,36.381483,310.28523,-74.886961,-129.910115
56,-0.770302,0.322522,-6.475754,-16.19173,-25.880928,-50.073395,-72.637653,-90.260983,-59.776039,-91.538887,-107.788525,-120.148487,-53.872375,-89.232445,-108.010368,-122.519817,-45.999527,-78.855743,-96.583672,-109.614315,-37.564888,-63.917084,-78.080235,-89.639454,-19.081804,-18.279851,-5.607678,3.246157,8.912437,22.072253,28.5269,33.762717,26.369278,37.143429,41.84035,45.953175,39.180328,49.997147,54.404583,57.742378,47.451795,58.560324,61.751956,63.839922,22.655067,32.26902,29.972076,23.436184,30.203247,29.120407,28.080826,25.933743,11.92955,9.177532,13.545456,17.66201,-5.684509,-6.832294,1.235447,7.142944,-21.925793,-24.158478,-15.908375,-9.011021,-21.64091,-44.191729,-65.652065,-84.212865,-81.595991,-116.726819,-141.052638,-162.424718,-79.684708,-94.437838,-70.832663,-54.457009,-74.397529,-83.74191,-62.348882,-48.054124,-65.464715,-77.355575,-62.725111,-49.652673,35.261078,310.85778,-81.712818,-145.851818
57,-0.654488,-0.629484,1.777267,-13.925166,-26.11599,-49.817963,-72.282543,-89.838982,-59.481354,-91.173534,-107.401886,-119.780159,-53.543701,-88.705845,-107.394905,-121.62077,-45.633774,-78.483753,-96.029091,-108.675442,-37.190895,-63.256302,-77.113552,-88.162422,-18.517899,-17.820243,-5.514312,3.301548,9.096083,22.091519,28.499729,33.602845,26.720515,37.910801,42.890848,47.036647,39.727313,51.058513,55.425997,58.646528,48.151181,59.637622,62.66685,64.384191,20.846786,31.246662,28.679237,19.781971,26.137505,27.375298,27.25708,26.593895,8.843021,7.168579,12.054863,16.930904,-7.7001,-7.313404,1.276016,7.764931,-23.469372,-23.429031,-14.928989,-8.139782,-19.228893,-41.605961,-63.525057,-79.919128,-78.704451,-114.619849,-138.027547,-158.996149,-76.314663,-87.977803,-63.679202,-47.113959,-70.006766,-75.50229,-53.53753,-40.207021,-60.517056,-68.702567,-52.372084,-40.385804,34.583445,310.298306,-79.958696,-159.706974
58,0.109406,-0.641155,2.087631,-6.919442,-25.893974,-49.963303,-72.544613,-90.042458,-58.771534,-90.72567,-107.225475,-119.901466,-52.963257,-88.328648,-107.459908,-122.122021,-45.169487,-78.191071,-96.272449,-109.323006,-36.767921,-62.74086,-76.851482,-88.246078,-18.371056,-17.383914,-4.811469,3.759859,9.058662,22.169942,28.650277,33.791246,26.512786,37.826635,43.009965,47.187936,39.441532,50.984289,55.729562,59.158438,47.894731,59.550554,62.835737,64.840897,19.258461,28.748589,25.989246,17.138958,22.938995,23.64687,23.36483,22.276211,5.368252,3.044357,8.362656,14.14959,-10.820217,-10.819244,-2.627964,4.166737,-25.23634,-25.544815,-17.32687,-10.312958,-15.026052,-37.353766,-58.710671,-74.49917,-75.631982,-113.002065,-135.152062,-155.192818,-71.518741,-85.178796,-60.347813,-44.923842,-64.149879,-69.971553,-47.246753,-34.598926,-54.758583,-63.284956,-47.110871,-36.73532,34.53867,309.838991,-78.025246,-166.444577
59,0.25692,0.685553,0.27483,-1.272568,-25.633736,-49.742432,-72.512798,-90.484428,-58.975754,-90.744781,-107.303925,-119.916687,-53.220062,-88.610859,-107.729073,-122.463512,-45.495186,-78.432827,-96.303062,-109.241066,-37.288971,-63.632298,-77.711163,-88.933067,-18.801642,-18.201613,-5.792003,2.753945,8.654691,21.74337,28.283912,33.441306,26.435722,37.522144,42.280754,46.239326,39.488647,50.674302,55.001956,58.240086,47.933572,59.307566,62.274117,64.045737,20.126038,30.664902,28.533726,19.640064,23.051205,23.889656,23.29771,21.505337,5.583,4.556408,10.198803,15.351391,-10.827999,-9.902573,-1.34222,5.050678,-25.689411,-25.150394,-16.577225,-10.021076,-12.705935,-35.270878,-55.928058,-70.231337,-73.629925,-111.104521,-133.811815,-153.812897,-69.837261,-82.617543,-58.677079,-42.705026,-62.726964,-69.167069,-47.107954,-33.346365,-53.633151,-62.46948,-46.530572,-35.582517,34.708128,310.578822,-77.837877,-167.662866
60,-0.01339,-0.295105,0.184765,1.080941,-25.952339,-49.815216,-72.512856,-90.570259,-58.96574,-90.748615,-107.212429,-119.811459,-53.158264,-88.465405,-107.517643,-122.185364,-45.313911,-78.202171,-96.021824,-108.884525,-36.871376,-62.884655,-76.907158,-88.108177,-18.369636,-17.800483,-5.435827,2.906345,8.846426,21.850136,28.374376,33.703251,26.361498,37.633665,42.499351,46.589574,39.373298,51.018005,55.521277,58.868212,47.864906,59.749637,62.89156,64.697636,20.003929,31.471596,29.552307,20.362988,23.037472,23.809662,23.442249,22.121716,5.501633,4.004116,8.910599,13.565769,-11.11948,-10.029087,-2.174492,3.75309,-26.281815,-25.792236,-17.970257,-12.04319,-11.651515,-34.173064,-54.866461,-69.255773,-73.006107,-109.07159,-131.642268,-151.99674,-69.31456,-82.174685,-57.983174,-41.622803,-62.429265,-68.16151,-45.404399,-31.111432,-53.581496,-62.063147,-45.563653,-34.330234,34.573603,310.323114,-77.774248,-166.542528
61,-0.297203,-1.196661,-0.407524,-1.724427,-26.425552,-49.922104,-72.177486,-90.499191,-58.388786,-90.011616,-106.419125,-119.272156,-52.323761,-87.409172,-106.628265,-121.898232,-44.189644,-76.927013,-95.028305,-108.525696,-35.435944,-61.199169,-75.292511,-87.028656,-17.937198,-17.165194,-4.654561,3.688537,9.639425,23.275953,29.667491,34.534659,26.871495,38.719237,43.934554,47.887877,39.696808,51.768273,56.787593,60.395978,48.03404,60.215852,63.949715,66.359463,19.744263,30.67131,28.578358,20.128269,23.827858,24.471531,24.049015,22.492275,6.340313,5.173302,9.821663,14.809513,-10.264492,-8.580837,-0.775166,5.702934,-25.148907,-23.653793,-15.477161,-8.924904,-11.004001,-32.783772,-53.877358,-69.488248,-71.461143,-108.036769,-130.686966,-150.876001,-68.277986,-80.314299,-55.341553,-39.16225,-61.732844,-66.94921,-44.065063,-30.100779,-53.251317,-61.277126,-44.69873,-33.371976,34.163904,309.121327,-78.294268,-168.27208
62,0.325699,0.428733,0.638752,-0.05945,-26.537819,-50.319557,-72.504044,-90.911636,-58.518276,-89.83469,-106.475029,-119.447994,-52.430992,-87.285976,-106.582203,-122.009869,-44.269638,-76.853657,-95.211639,-108.951015,-35.303993,-61.170044,-75.507889,-87.512341,-18.487703,-17.913115,-5.165916,3.319023,9.324559,22.937005,29.363865,34.297352,26.790478,38.106241,43.078199,47.119393,39.736761,51.063515,55.906168,59.429893,48.129321,59.872088,63.617806,65.994703,19.041767,29.765282,28.102455,20.139771,22.253609,23.381596,23.45192,22.582169,4.956379,4.208336,8.965473,13.855705,-11.523743,-9.499454,-1.548786,4.82008,-26.536388,-25.319653,-17.098846,-10.528851,-11.359421,-32.93645,-53.604467,-69.102925,-71.178449,-107.524124,-130.557707,-151.113941,-67.69673,-81.07843,-56.860335,-40.644183,-61.023718,-67.509132,-44.707715,-30.309325,-52.487758,-61.928423,-45.850561,-34.4368,34.501333,309.567937,-77.643785,-168.313654
63,-0.460739,0.316471,-0.215664,-1.413961,-26.069069,-49.822998,-72.037697,-90.327187,-57.854977,-89.729061,-106.423073,-119.155598,-51.772499,-87.364426,-106.813259,-122.136726,-43.548431,-76.719818,-95.198822,-108.933678,-34.531059,-60.758457,-75.118217,-87.072144,-18.546304,-17.954241,-5.293986,3.307414,9.615218,23.178573,29.641186,34.518974,26.959304,37.968044,43.068381,47.364789,39.67464,50.653307,55.645025,59.395437,47.73807,59.170665,63.066313,65.673971,19.095154,29.725914,28.335171,20.157108,22.339497,23.702774,23.512688,21.922131,5.136166,4.725895,9.34948,14.052029,-11.133327,-9.118137,-1.514168,4.576893,-26.082001,-24.929752,-16.824188,-10.490227,-11.286401,-32.747201,-53.260024,-68.367787,-70.214417,-106.921965,-129.884111,-150.0734,-66.929249,-79.688166,-55.171415,-39.035569,-60.478091,-67.420335,-44.862462,-30.806586,-52.187342,-62.54957,-46.610847,-35.058256,34.17655,309.885103,-77.723494,-169.72692
64,0.379829,0.159625,-0.905743,-1.23737,-26.462746,-50.26268,-72.337532,-90.442543,-58.01199,-89.512997,-106.073914,-119.013805,-52.053452,-87.025394,-106.30537,-121.618652,-44.118805,-76.608467,-94.890633,-108.531017,-35.350113,-61.203461,-75.494614,-87.425308,-18.875989,-18.336291,-5.419278,3.327791,9.002222,22.472395,28.867021,33.805757,26.509514,37.659786,42.64891,46.741727,39.451165,50.68832,55.739874,59.469228,47.867314,59.326276,63.049517,65.469578,19.705753,30.753708,29.475975,22.18832,24.057255,25.169163,24.903259,23.426056,6.711216,5.5509,10.002708,14.8423,-9.78241,-8.316936,-0.816021,5.350285,-24.905891,-24.074364,-16.268063,-9.992523,-9.690878,-30.98259,-51.214711,-66.646834,-69.507452,-106.247504,-129.224423,-149.591816,-66.459251,-79.841785,-55.29331,-39.249504,-60.180223,-67.538494,-44.566168,-30.447662,-52.149952,-62.095751,-45.603621,-34.013069,34.668703,310.050733,-78.516912,-170.958285
65,-0.303841,-0.116523,0.492954,0.060747,-25.887451,-49.33857,-71.392822,-89.774609,-57.680569,-89.361992,-105.977383,-118.879967,-51.959038,-87.064762,-106.589756,-122.103424,-43.986053,-76.640224,-95.067673,-108.879948,-34.925308,-60.682297,-75.017967,-86.997814,-18.138566,-17.731013,-5.274782,3.091349,9.509378,22.698031,28.956559,33.655395,26.526618,37.606495,42.787169,46.965449,39.068806,50.284595,55.561168,59.426312,47.240856,58.945832,62.869021,65.244127,19.390583,29.837952,27.997799,20.091019,22.6688,24.029503,24.374714,23.657284,5.443439,4.33445,8.72057,13.332653,-10.942726,-9.502716,-1.948242,4.022884,-25.848713,-24.754086,-16.870251,-10.799732,-10.935597,-32.164246,-52.712683,-68.271255,-69.805136,-105.523527,-128.388361,-148.972128,-66.728005,-80.743912,-56.347066,-40.594721,-60.581029,-68.327263,-45.380903,-31.317185,-52.508938,-62.872942,-46.647805,-35.312745,34.453354,310.054438,-77.935467,-170.77731
66,0.173035,0.115412,0.107117,-2.368252,-25.895805,-49.551201,-71.730652,-89.924755,-57.894001,-89.648666,-106.300106,-119.17717,-52.124634,-87.320766,-106.897888,-122.426376,-44.021187,-76.882782,-95.451336,-109.332619,-34.908943,-61.017494,-75.531807,-87.655106,-18.668446,-18.101763,-5.489241,3.051829,9.166725,22.444793,28.73506,33.51658,26.312036,37.195484,42.35047,46.602233,38.958211,49.908721,55.171894,59.125649,47.159654,58.613306,62.578053,65.155268,18.914738,29.385052,28.253231,21.578293,23.817158,24.739208,23.992939,22.304363,6.434326,5.075054,9.09977,14.060669,-9.912701,-8.664608,-1.808281,4.142303,-24.821434,-24.111385,-16.734352,-10.666924,-10.149329,-30.948905,-50.734926,-65.346494,-68.517115,-105.10658,-128.489339,-149.06869,-65.594283,-78.941341,-55.23227,-39.539869,-59.432981,-66.647189,-44.441463,-30.766525,-51.477984,-60.372189,-44.383294,-33.42593,34.738255,310.345143,-77.716484,-172.970268
67,-0.032959,0.323263,-0.238094,-0.223737,-26.05442,-49.549484,-71.66954,-89.928074,-57.941666,-89.641514,-106.32082,-119.151764,-52.27684,-87.401218,-106.948586,-122.369041,-44.264832,-76.947498,-95.331974,-109.005947,-35.191727,-61.08427,-75.400944,-87.306862,-18.561186,-18.127204,-5.504432,3.041455,9.209889,22.366308,28.635457,33.422102,26.183842,37.246922,42.468414,46.725363,38.664588,49.828445,55.015603,58.896061,46.699181,58.321288,62.20329,64.576049,19.497013,30.455647,29.180717,21.453838,23.040791,24.164886,24.175129,23.163815,5.765533,4.682922,8.845482,13.056049,-10.560894,-8.933201,-1.667747,3.793201,-25.445366,-24.523659,-16.927814,-11.362667,-10.418545,-31.135793,-51.450767,-66.798956,-68.932896,-104.510836,-127.332499,-147.781742,-65.690289,-79.628561,-55.638541,-40.102555,-59.216391,-66.491933,-43.642181,-29.889098,-51.074646,-60.136766,-43.662373,-32.643352,34.788609,310.772039,-77.871265,-173.090372
68,0.283928,-0.191612,-0.011387,-0.285827,-26.014709,-49.672966,-71.942768,-90.536556,-58.071098,-89.941463,-106.602917,-119.493141,-52.233238,-87.472687,-106.857948,-122.286816,-44.098663,-76.903954,-95.240135,-108.988495,-34.984131,-61.193447,-75.64024,-87.598,-18.486653,-17.88613,-5.3361,3.121792,9.25404,22.310177,28.617055,33.691766,26.291967,37.305956,42.497436,46.840405,38.882258,50.153808,55.433468,59.488124,46.999103,58.584468,62.453379,64.937227,19.435787,30.425949,29.473,21.996403,23.140755,23.99374,23.706436,22.389393,5.703564,5.363159,9.47731,13.516788,-10.636196,-8.538208,-1.164036,4.206619,-25.630589,-24.910126,-17.099075,-11.516075,-10.005589,-30.725091,-50.733259,-65.892043,-68.428642,-104.638945,-127.762413,-148.275244,-65.047344,-78.504935,-54.11766,-38.566328,-58.44025,-65.977398,-43.061465,-29.448648,-50.252671,-60.030972,-43.782076,-32.718301,35.130386,310.663127,-77.824802,-173.2935
69,-0.261383,0.003088,-0.20834,-0.47202,-25.849113,-49.183502,-71.467609,-90.04097,-57.437096,-89.714355,-106.526127,-119.358444,-51.739426,-87.593307,-107.111664,-122.374821,-43.85479,-77.095985,-95.547123,-109.22905,-35.126953,-61.68251,-76.176624,-88.120079,-18.640844,-18.089351,-5.618546,3.245478,9.04625,21.931153,28.319974,33.478542,26.305429,37.140959,42.119524,46.300582,38.982541,50.068222,55.100448,58.949352,47.061162,58.643996,62.515747,65.055109,19.435043,30.702152,30.0107,22.603283,23.301029,24.097195,23.892002,22.710514,5.95911,6.257973,10.256596,14.036407,-10.304089,-7.778378,-0.970917,3.996906,-25.324059,-23.961926,-16.504669,-11.221447,-9.604829,-30.033224,-49.199625,-63.144983,-68.192863,-104.25992,-127.243779,-147.707804,-64.908776,-78.461494,-55.069172,-39.216868,-58.300725,-65.449648,-43.34266,-29.705051,-50.007367,-59.327357,-43.540092,-32.715152,34.938698,310.747895,-77.963448,-173.68384
70,-0.059853,-0.203344,0.121651,-0.157834,-25.777016,-49.246101,-71.538048,-90.036392,-57.245979,-89.550648,-106.300049,-119.206753,-51.35685,-87.193336,-106.51474,-121.784134,-43.428154,-76.693497,-94.979553,-108.640652,-34.84314,-61.37043,-75.800114,-87.633991,-18.636213,-18.02334,-5.64479,3.067452,9.110532,22.197668,28.480957,33.369367,26.349395,37.432729,42.297859,46.288603,39.039845,50.440948,55.44199,59.238158,47.146563,58.951019,62.713718,65.237211,19.544392,30.882339,30.452499,23.247185,23.339767,24.397087,24.250488,23.070717,5.944805,6.226788,10.09037,13.843288,-10.431747,-7.952328,-1.206551,3.782272,-25.545101,-24.203053,-16.858692,-11.670227,-9.366519,-29.539591,-48.423037,-62.303279,-67.373806,-104.055141,-127.13621,-147.589081,-64.347881,-77.280069,-53.608265,-37.931071,-58.024284,-65.095849,-42.718827,-29.103031,-50.025506,-59.492801,-43.596887,-32.863199,34.931831,310.731284,-77.788811,-173.654941
71,0.014992,0.244964,0.821857,0.638453,-25.750351,-49.219551,-71.457882,-89.824734,-57.249241,-89.476948,-106.410999,-119.499035,-51.439362,-87.098122,-106.553135,-121.846504,-43.63884,-76.674271,-95.121002,-108.862495,-35.112534,-61.341305,-75.813618,-87.744255,-18.580452,-18.060205,-5.81516,2.735234,9.09423,22.046873,28.388455,33.434822,26.358781,37.448167,42.275444,46.416364,38.983653,50.415136,55.410188,59.360115,46.996263,58.904521,62.791462,65.483718,20.197678,31.797695,30.407181,21.595402,23.855953,24.157448,23.478756,22.09322,5.97599,5.829964,9.629803,13.269825,-10.724316,-8.245411,-1.33358,3.646717,-26.0285,-24.897537,-17.529545,-12.458382,-8.744198,-29.44113,-48.611823,-62.946085,-67.891228,-104.335812,-127.439999,-147.792456,-64.559176,-77.146797,-53.221152,-37.284945,-57.93348,-64.147424,-41.243548,-27.168313,-49.811356,-58.326058,-41.927094,-30.884299,35.014057,311.13314,-76.899719,-172.859596
72,-0.035362,0.014017,0.484772,1.132209,-25.808716,-49.215202,-71.440887,-89.737129,-57.092457,-89.41864,-106.345081,-119.437351,-51.272049,-87.049599,-106.596222,-121.964207,-43.430901,-76.673241,-95.176506,-108.945808,-34.859161,-61.265831,-75.782375,-87.762451,-18.5878,-18.104109,-5.818865,2.777348,8.941954,21.937575,28.312564,33.341764,26.276344,37.358814,42.227093,46.322442,38.981244,50.333811,55.319477,59.168072,47.055419,58.834805,62.650671,65.266419,20.094852,31.784019,30.44529,21.691418,23.490314,24.006615,23.747349,22.726421,5.965805,5.54575,9.499855,13.512268,-10.554428,-8.252392,-1.32534,4.00732,-25.911655,-24.822006,-17.454472,-11.994038,-8.974774,-29.384582,-48.624621,-62.964286,-67.968092,-104.125999,-127.194456,-147.552347,-64.730641,-77.473317,-53.881109,-37.759867,-58.345371,-64.668736,-41.985958,-27.49153,-50.377267,-59.37614,-43.391073,-32.181953,34.997606,311.254403,-76.396036,-171.620141
73,-0.311279,-0.017784,0.413303,0.186054,-25.03315,-48.211327,-70.649929,-88.718777,-57.131653,-89.756069,-106.55405,-119.280109,-51.192741,-87.501183,-106.862984,-121.818523,-43.035049,-76.740818,-95.262794,-109.044056,-34.144363,-60.885887,-75.732021,-87.969818,-18.243233,-18.088116,-6.325589,2.760861,9.437501,22.216501,28.433595,33.30811,26.726011,37.569321,42.341393,46.273536,39.297036,50.451013,55.443225,59.143248,47.263642,58.582925,62.071885,64.264457,20.221138,31.764107,30.05928,21.166534,24.008503,24.856339,24.68668,23.848858,6.418076,5.963173,9.568691,13.641529,-10.033264,-8.217773,-1.833115,3.636417,-25.389576,-24.486465,-17.52491,-11.99192,-9.769811,-30.17525,-49.119118,-62.373752,-67.958351,-103.970975,-126.865797,-146.961419,-64.516352,-77.653675,-54.970232,-38.934638,-58.105038,-64.149045,-42.014394,-27.430243,-50.059098,-59.603088,-44.022841,-32.846572,34.594059,311.314393,-76.075001,-171.356313
74,0.459709,0.334564,0.012417,0.659325,-24.881172,-48.129044,-70.768204,-88.895016,-57.325058,-90.248165,-106.86367,-119.537315,-51.654396,-88.060284,-107.444401,-122.388382,-43.726044,-77.502708,-96.28727,-110.358067,-34.828835,-61.553421,-76.536827,-88.830185,-18.653997,-18.7289,-7.29118,1.985461,9.178581,21.379475,27.343391,32.080574,26.707547,37.252295,41.823678,45.630529,39.393243,50.46151,55.372027,59.043953,47.523179,58.685183,61.968082,64.030299,20.625916,32.516899,30.8111,21.555805,24.161282,24.904118,24.868412,24.264679,6.800423,6.893978,10.568733,14.333496,-9.748192,-7.238216,-0.79668,4.445801,-25.284233,-23.857784,-16.900291,-11.543999,-10.644644,-31.472996,-50.599723,-63.918747,-67.995663,-103.569875,-126.202682,-146.282403,-64.397482,-77.421756,-54.218452,-37.635718,-57.978635,-64.280542,-42.110678,-27.391201,-50.108267,-59.508054,-43.83123,-32.628424,35.028877,311.678288,-76.087475,-170.667657
75,0.200157,-0.613799,1.644859,0.888573,-25.157776,-48.413773,-70.960178,-88.952122,-57.46479,-90.405464,-107.11338,-119.933281,-51.751556,-88.077564,-107.594433,-122.735195,-43.750992,-77.467804,-96.267643,-110.307312,-34.832497,-61.415462,-76.333065,-88.63203,-18.127821,-17.980114,-6.419141,2.654712,9.387174,21.927571,28.025733,32.87172,26.701187,37.554316,42.417655,46.343869,39.324947,50.728643,55.855841,59.569387,47.51651,58.960096,62.319566,64.385487,20.137596,31.291523,28.720837,19.153576,23.175545,24.104805,24.0271,23.491058,5.583744,4.879761,8.735847,12.93457,-10.873032,-8.903561,-2.306442,3.150673,-26.18866,-25.228672,-18.222656,-12.731724,-10.365069,-31.185841,-49.889933,-62.919486,-68.317136,-103.614274,-126.213473,-146.158301,-64.4563,-78.479509,-55.801701,-39.236304,-57.711873,-64.855084,-42.690978,-27.789631,-49.411275,-59.485885,-43.998311,-32.824697,35.209408,311.072471,-74.462242,-169.771102
76,0.199585,-0.194823,-1.237564,0.118283,-25.214424,-48.608551,-71.177959,-89.380016,-57.776241,-90.494385,-107.185421,-120.067978,-52.021523,-88.156128,-107.599525,-122.69268,-44.04911,-77.597466,-96.415215,-110.457573,-35.119972,-61.732864,-76.718388,-89.081898,-18.036863,-17.777758,-6.205793,2.587466,9.551183,22.14166,28.187272,33.019736,26.769668,37.598961,42.291375,46.123544,39.479076,50.844363,55.940007,59.691036,47.83366,59.445022,62.888287,65.011636,20.483265,32.561588,30.986023,22.105751,24.807587,25.755215,25.551395,24.654694,7.219162,6.693134,10.10788,13.759918,-9.453735,-7.382584,-1.056519,3.922119,-25.045738,-23.821163,-16.876488,-11.73912,-8.909396,-29.56724,-48.744957,-62.398714,-67.17358,-103.126878,-125.942312,-146.081352,-63.7416,-77.115381,-53.857274,-37.791391,-57.402751,-64.09861,-41.693075,-27.33646,-49.568538,-59.132982,-43.296039,-32.405675,35.425472,310.88407,-75.683327,-169.646397
77,0.416794,0.348272,0.861397,0.958536,-25.313988,-48.759155,-71.499538,-89.661827,-58.001575,-90.893841,-107.573261,-120.373993,-52.375603,-88.600788,-108.010197,-122.98542,-44.53228,-78.114395,-96.876926,-110.764675,-35.671349,-62.282238,-77.307987,-89.55122,-18.299055,-18.081262,-6.505776,2.564433,9.529324,21.702429,27.691046,32.62725,26.954178,37.380365,41.778908,45.534013,39.638392,50.690419,55.538382,59.21599,47.745357,58.984488,62.346427,64.471073,19.665871,31.440468,30.187111,21.469173,24.06126,24.925232,24.886436,24.472618,6.55592,5.732803,9.42564,13.560734,-10.051517,-8.36071,-1.920948,3.576393,-25.680313,-24.687138,-17.732849,-12.221031,-9.517992,-29.600755,-48.138491,-61.212396,-67.290767,-103.137445,-125.967506,-146.18554,-63.63806,-77.511109,-55.011265,-39.064947,-57.162434,-63.895575,-41.976819,-27.59998,-49.133568,-58.842508,-43.378815,-32.522429,35.857115,311.26578,-74.807081,-168.654423
78,0.373764,0.189821,0.239811,0.451056,-25.587845,-48.993759,-71.820316,-90.243702,-58.387814,-91.175709,-107.897644,-120.819969,-52.711372,-88.85313,-108.237076,-123.260193,-44.79332,-78.261566,-96.851692,-110.678844,-35.94017,-62.427063,-77.210999,-89.316559,-18.280468,-18.345492,-6.882454,2.162252,8.954674,21.596095,27.731801,32.559881,26.418308,37.246552,41.842944,45.50851,39.176993,50.574637,55.491822,59.083597,47.358058,58.710007,62.033291,64.042526,19.885712,31.405449,29.718304,21.532001,24.225025,25.192165,24.976273,24.213638,6.475067,5.684795,9.337692,13.563251,-10.293045,-8.77058,-2.10228,3.586864,-26.042633,-24.959164,-17.776394,-12.090397,-9.031631,-29.32771,-47.929172,-61.355657,-67.123146,-103.052854,-125.89234,-146.039778,-63.599096,-77.221885,-54.565072,-38.74454,-57.122049,-63.810622,-41.620642,-27.300814,-49.14598,-58.771001,-43.145383,-32.320999,36.257286,311.505217,-74.540863,-168.153751
79,0.274315,-0.29634,-0.445232,0.6454,-25.863533,-49.433556,-72.156601,-90.363007,-58.751621,-91.369686,-108.118916,-120.943451,-52.918739,-88.787155,-108.212986,-123.235016,-44.878349,-77.848663,-96.221981,-109.644928,-36.045914,-62.144566,-76.635189,-88.390903,-18.02865,-17.609241,-5.663871,3.284566,9.179199,21.946035,28.228398,33.429635,26.41695,37.525108,42.489841,46.574939,39.063372,50.975336,56.146871,59.898949,47.06073,58.956885,62.548166,64.676641,19.970398,32.210197,31.124325,22.230778,24.06498,25.221691,25.341911,24.766674,6.513062,6.324062,10.145187,13.992977,-10.062275,-8.19603,-1.473427,3.764763,-25.70652,-24.647598,-17.406921,-12.092571,-9.098367,-29.070396,-47.744245,-61.0792,-66.940349,-102.83635,-125.641116,-145.705878,-63.265906,-77.642297,-55.323414,-39.929592,-56.836129,-64.166196,-42.156157,-28.077403,-48.945939,-59.25764,-43.657958,-32.798654,36.519613,311.222941,-74.998083,-167.494287
80,-0.134354,-0.429845,0.165482,0.617458,-25.721283,-49.374847,-72.094345,-90.587597,-58.374424,-90.944538,-107.558613,-120.332165,-52.663422,-88.674431,-108.247032,-123.476601,-44.643517,-77.910233,-96.460419,-110.127811,-35.800095,-62.290764,-76.983719,-88.949604,-17.808016,-17.09202,-4.836169,3.708606,9.065887,22.328393,28.564506,33.366279,26.17143,37.600629,42.672499,46.611372,38.966239,50.84603,56.063137,59.664483,47.368494,59.315593,62.941824,64.979094,20.322876,32.887173,31.991329,23.315907,24.734344,25.272217,24.984856,24.202881,6.912289,5.440979,8.951225,13.118534,-9.916706,-8.865738,-2.316055,3.281765,-25.53978,-24.852276,-17.750988,-12.174168,-8.954921,-29.483244,-48.465938,-62.027903,-67.098013,-103.122555,-126.113546,-146.422778,-63.540958,-77.167545,-54.284278,-38.702596,-57.068063,-64.071394,-41.940895,-28.019821,-49.101689,-58.413173,-42.67307,-32.125112,36.37104,310.813752,-74.846821,-166.856174
81,-0.15667,-0.06879,0.613003,1.190934,-25.437927,-49.32209,-72.058811,-90.458565,-58.342037,-91.202946,-107.859249,-120.42263,-52.517052,-88.819427,-108.400612,-123.340187,-44.356613,-77.940788,-96.49641,-109.963703,-35.401154,-62.041626,-76.685028,-88.447266,-18.080706,-17.092514,-4.348588,4.423985,9.285224,22.797388,29.216466,34.170949,26.544773,38.289578,43.372934,47.310757,39.247944,51.172134,56.370593,59.998059,47.388501,59.271071,62.994745,65.124207,19.329071,31.614075,30.683098,22.15456,22.697697,23.695107,24.193096,24.109497,5.10149,4.568024,8.600349,12.855434,-11.462574,-9.754028,-2.854214,2.881508,-27.014694,-26.010075,-18.477402,-12.609043,-9.620622,-29.849871,-48.781807,-62.211827,-67.760811,-103.191584,-125.982558,-146.150705,-64.019076,-78.204952,-55.774902,-39.844206,-57.486191,-64.681457,-42.597719,-28.023618,-49.238513,-59.767159,-44.477618,-33.583425,36.272049,310.78933,-74.17614,-165.620873
82,0.428696,0.1658,-1.475658,-0.052117,-25.991249,-49.508514,-72.284946,-90.429783,-58.488064,-91.256618,-108.009968,-120.832386,-52.662163,-88.74361,-108.246574,-123.281193,-44.614105,-77.901764,-96.192799,-109.478874,-35.92186,-62.296028,-76.657505,-88.13221,-17.883846,-17.262945,-4.808443,4.3836,8.853342,22.36921,28.711533,33.584752,26.228179,38.194297,43.416591,47.368185,39.205151,51.556592,56.741157,60.222583,47.656374,59.789528,63.378091,65.305198,20.185318,32.440681,32.112923,26.203365,24.773598,25.839844,25.815353,24.716148,7.152672,7.182541,11.233234,15.210514,-9.480515,-7.463837,-0.787926,4.097214,-25.075722,-23.677254,-16.175194,-10.948734,-8.244004,-28.101655,-46.350261,-60.008634,-66.519211,-102.651986,-125.922181,-146.525376,-63.363317,-77.959293,-55.083344,-39.321366,-57.084474,-66.159638,-44.074418,-30.097691,-49.077329,-60.097462,-44.72519,-33.894832,36.797276,311.07139,-75.555267,-165.556729
83,0.32135,0.08855,1.741791,0.881889,-25.838699,-49.637375,-72.365227,-90.434532,-58.853703,-91.415462,-108.032742,-120.734138,-53.063965,-88.815479,-108.189869,-123.224831,-45.052414,-78.173904,-96.43507,-109.889088,-36.28933,-62.559757,-76.948242,-88.579159,-18.059958,-17.293944,-5.080824,3.785918,9.265773,22.504938,28.87369,33.861888,26.571079,38.207635,43.43524,47.58036,39.435789,51.454889,56.564798,60.217149,47.774256,59.60687,63.156098,65.260058,19.4034,31.036148,29.882412,22.850361,23.402767,24.824867,25.149078,24.604225,5.712948,6.407375,10.414238,14.0415,-10.843906,-8.417988,-1.875458,2.746868,-26.545773,-24.561882,-17.156696,-12.239456,-8.56049,-28.263318,-46.899731,-60.936279,-67.340739,-102.89289,-125.925917,-146.193892,-63.892904,-78.607858,-56.038391,-40.446921,-57.341865,-66.087066,-43.97429,-29.862623,-49.141734,-60.014454,-44.57347,-33.65399,37.160969,311.32679,-73.771133,-164.507991
84,0.280495,-0.109545,0.441055,1.900261,-26.170921,-49.821625,-72.322426,-90.319977,-58.977299,-91.202431,-107.847004,-120.673084,-53.254509,-88.2934,-107.579842,-122.59798,-45.317688,-77.842827,-95.939884,-109.262695,-36.491547,-62.048664,-76.076832,-87.585411,-17.629804,-17.245408,-4.916753,3.880643,9.271577,22.846294,29.399618,34.560409,26.429609,38.442163,43.877928,48.180203,39.225282,51.486691,56.778825,60.577092,47.548311,59.69085,63.367161,65.515335,19.93618,31.291981,29.657993,23.636913,24.072876,25.219231,24.997845,23.551197,6.404171,6.363258,10.404453,13.964081,-10.415096,-8.402939,-1.384678,3.227005,-26.31815,-24.399605,-16.693153,-11.941681,-7.098966,-27.608192,-47.09494,-61.7133,-66.510319,-103.116565,-126.14456,-146.299871,-63.172354,-77.409483,-53.815608,-38.286413,-56.735198,-64.931407,-42.01234,-27.975515,-48.864058,-59.255232,-43.024399,-31.776577,37.488127,311.26524,-73.283415,-162.559735
85,-0.32959,0.104358,0.384693,5.404242,-26.2286,-49.993286,-72.296848,-90.066948,-59.078579,-90.843945,-107.333736,-119.899693,-52.769623,-88.245964,-107.68198,-122.94136,-44.32148,-77.381287,-95.645084,-109.286842,-35.035057,-61.191788,-75.691738,-87.824135,-17.953068,-17.182052,-4.655734,4.424355,10.480342,23.906487,30.260913,35.050707,27.807013,38.680705,43.661061,47.700588,40.392241,51.766976,56.628401,60.014546,48.195641,60.006086,63.811208,66.018353,19.794044,32.318859,30.918331,22.064667,23.259544,24.188004,24.468498,23.982239,5.821609,5.694752,10.028286,14.027252,-10.816898,-8.705864,-1.649323,3.595448,-26.64957,-24.682961,-17.370815,-12.527676,-9.178334,-30.762342,-50.71989,-63.534829,-67.644875,-104.745171,-126.990463,-146.574444,-64.076704,-76.919709,-53.639943,-37.317982,-57.54717,-63.661031,-41.501773,-26.961218,-49.554814,-58.989057,-43.250004,-32.142988,37.501087,311.654329,-72.556171,-156.870762
86,1.462097,0.074594,0.22356,9.567485,-25.970192,-50.319901,-72.985554,-90.579987,-58.448067,-90.487232,-107.256432,-120.234146,-52.704849,-88.20385,-108.044758,-123.493881,-44.933624,-78.214188,-96.941986,-110.593758,-36.376877,-62.572231,-77.262211,-89.276962,-18.146717,-17.4695,-5.387785,3.692675,9.829863,23.080945,29.35522,34.03269,27.480045,38.315575,43.04615,46.693624,40.449546,51.471191,56.320513,59.703571,48.795361,60.134157,63.532405,65.524103,20.659618,32.154465,30.149345,22.275867,23.021564,23.443165,23.133087,23.24564,5.666027,8.614998,13.64296,17.724323,-11.088867,-5.310516,1.086273,5.149212,-27.520237,-21.815128,-14.684715,-10.803795,-11.338719,-35.959874,-56.550333,-69.742027,-69.993876,-106.124582,-127.461542,-146.225809,-65.250302,-78.840039,-56.912483,-41.46639,-58.08554,-64.460113,-43.565502,-29.370719,-50.02583,-59.302348,-44.205731,-32.985094,38.738337,311.757607,-72.557459,-147.274594
87,0.226364,1.076804,-0.409298,11.647718,-25.713043,-49.919815,-72.630043,-90.217896,-58.964882,-90.952034,-107.977867,-121.003819,-52.938995,-88.614464,-108.468933,-123.897228,-44.785995,-77.99509,-96.556778,-110.209751,-35.950241,-62.567482,-77.268677,-89.34597,-18.180186,-17.80604,-5.876663,3.094992,9.690183,23.011106,29.603395,34.738435,27.290595,38.285688,43.316,47.594192,40.127888,51.124154,56.028989,59.709561,48.142165,59.479973,63.115528,65.48588,21.492405,33.505325,31.957397,23.983097,22.066727,22.634125,23.074837,24.966717,4.493065,8.403854,14.906445,19.311848,-11.951008,-4.897499,1.978855,5.504265,-27.508163,-21.481705,-14.594765,-11.556301,-11.313802,-33.872633,-53.471318,-66.298314,-68.810398,-106.270468,-126.039893,-142.287499,-64.92673,-75.750481,-55.702546,-40.451769,-56.912823,-57.795298,-38.411026,-24.189921,-47.962286,-53.916322,-40.101891,-29.116369,38.616686,312.141478,-73.314772,-136.319808
88,0.379601,0.006978,-1.292324,10.362954,-25.943184,-50.106239,-72.782364,-90.386124,-58.911095,-91.264286,-108.137684,-120.996838,-52.588234,-88.693829,-108.20612,-123.436775,-44.234276,-77.84111,-96.092033,-109.581928,-35.388908,-62.302208,-76.715641,-88.439598,-18.183891,-17.31815,-4.859387,4.649991,10.158375,23.40353,29.854719,34.967962,27.71377,38.785496,44.086027,48.487164,40.403295,51.676944,56.697438,60.458408,48.181994,59.501585,62.920397,65.222699,24.139938,37.19593,38.647385,37.321758,20.843925,24.548264,26.211433,29.467735,3.461666,8.029518,15.491409,21.099758,-11.460743,-5.184975,2.917442,7.275238,-24.414024,-20.022182,-11.937561,-7.509499,-9.172097,-28.109343,-42.057079,-50.167208,-64.624461,-98.413762,-114.732018,-128.608741,-63.441215,-67.0113,-44.353036,-26.650737,-54.466997,-53.177664,-33.241698,-17.395801,-43.704719,-46.827128,-34.485274,-23.87169,39.103174,311.576416,-74.500208,-126.528894
89,1.39492,0.182843,-1.560088,39.77219,-25.991592,-50.157051,-73.072701,-90.635891,-59.13414,-91.097031,-107.823143,-120.747356,-53.228073,-88.539333,-108.133221,-123.382015,-45.335312,-78.204403,-96.407776,-109.733391,-36.947594,-62.944164,-77.352619,-88.99807,-18.446454,-18.077865,-6.531341,2.900726,9.78565,23.056369,29.339597,33.881648,27.543092,38.854285,43.906334,47.66397,40.488201,52.158165,57.124689,60.583267,48.584915,60.055054,63.366791,65.378804,25.928421,42.688809,47.099877,45.372992,25.864907,27.267523,27.780133,29.572478,8.162213,13.521052,20.328684,25.292788,-7.30957,-0.008325,7.381525,11.752625,-21.510858,-16.122865,-8.272161,-3.659763,-10.444156,-30.243855,-45.168999,-55.011559,-69.403048,-105.223906,-123.149017,-137.997274,-67.841064,-74.640826,-51.562196,-33.319797,-59.422584,-58.193342,-36.770456,-19.526021,-48.536503,-52.898167,-38.627731,-26.020497,41.404066,310.901731,-75.154324,-87.614232
90,0.583534,0.109854,-1.560087,39.77219,-26.036911,-50.276642,-73.174038,-91.202888,-59.649582,-91.838493,-108.579426,-121.245403,-53.403625,-89.025249,-108.362274,-123.32428,-45.109863,-78.22506,-96.451778,-109.916439,-36.221581,-62.868519,-77.408524,-89.227695,-18.147582,-17.497844,-5.221059,4.181676,9.984856,23.122751,29.424565,34.254991,27.656219,38.866821,44.060463,48.359465,40.440345,52.039789,56.967904,60.600558,48.267951,59.709005,63.298495,65.675577,27.716904,48.181686,55.552368,53.424225,30.885887,29.986782,29.348831,29.677219,12.862759,19.012585,25.165958,29.485817,-3.158398,5.168324,11.845608,16.230011,-18.607693,-12.223549,-4.606762,0.189972,-11.716214,-32.378365,-48.280918,-59.855909,-74.181634,-112.03405,-131.566014,-147.385806,-72.240912,-82.270352,-58.771356,-39.988857,-64.37817,-63.209018,-40.299214,-21.65624,-53.368288,-58.969204,-42.770188,-28.169303,45.552864,309.41177,-73.149147,-49.441857
91,1.108704,-0.276395,-3.814201,38.245056,-26.324043,-50.853195,-73.944225,-91.831112,-59.982605,-92.123108,-108.901463,-121.739902,-53.953743,-89.061928,-108.437061,-123.387394,-45.81871,-78.494396,-96.561584,-109.845886,-36.977005,-62.998009,-77.263241,-88.784008,-18.206244,-17.575526,-5.278116,4.190198,9.822947,23.12238,29.429444,34.302292,27.580822,38.944812,44.154262,48.346682,40.584038,52.444625,57.544283,61.199784,48.742935,60.406538,63.915073,66.194651,25.578003,44.746113,49.252281,42.544556,32.862453,32.772388,32.666702,33.010082,16.01675,24.478397,30.248337,31.14212,0.440483,9.324875,15.521164,16.464729,-14.864731,-6.495438,1.353436,3.842926,-7.140849,-27.779689,-43.981669,-57.033792,-67.502895,-106.482503,-124.948501,-138.026003,-67.916098,-64.845003,-40.544055,-24.789055,-62.614115,-56.296708,-36.211183,-21.783014,-55.066702,-57.379224,-42.817952,-31.048292,46.781359,308.952687,-76.843557,-11.379489
92,1.281166,-0.462758,-0.111694,43.710986,-26.623764,-50.77034,-73.855705,-91.91843,-59.021187,-91.920147,-109.156437,-122.245674,-52.952957,-88.958988,-108.654041,-123.614159,-44.927559,-78.307457,-96.752357,-110.090275,-36.224098,-62.29454,-76.667919,-88.22731,-17.930776,-17.511799,-5.603788,3.775667,9.918042,22.973068,29.338732,34.299822,27.900997,39.038487,43.871939,47.610864,40.99017,53.030698,58.177595,61.827106,49.022355,61.254494,65.091356,67.448493,26.670198,47.200698,52.456512,45.452785,33.42616,35.651893,38.120326,40.666208,16.112165,26.679553,32.244272,32.636575,0.88746,12.279739,17.979269,18.159456,-13.704472,-3.201256,4.188737,6.327323,-9.261713,-29.458683,-44.733342,-55.337277,-68.07174,-102.136262,-118.359855,-129.636638,-68.253209,-64.169346,-41.099052,-25.902384,-62.418814,-54.850406,-35.995427,-22.284087,-53.839644,-52.762609,-38.570049,-26.976193,50.014601,308.091408,-75.003175,31.932975
93,0.864258,-0.292512,-0.111695,43.710986,-26.188431,-50.338211,-73.486404,-91.37598,-59.208984,-91.929817,-108.947296,-122.002029,-53.412094,-89.45715,-108.946209,-123.533592,-45.533066,-78.447189,-97.121658,-110.803471,-36.779022,-62.583847,-77.263985,-89.080696,-18.827207,-18.931318,-7.425672,2.538498,9.292819,21.679211,27.891426,32.741365,27.577178,38.425614,43.040222,46.311512,40.944784,52.729418,57.601217,60.538992,49.218907,61.152236,64.735859,66.741574,27.762394,49.655285,55.660744,48.361015,33.989868,38.531399,43.573952,48.322334,16.207581,28.880711,34.240208,34.131031,1.334438,15.234604,20.437374,19.854183,-12.544212,0.092926,7.02404,8.811722,-11.382577,-31.137676,-45.485014,-53.640761,-68.640585,-97.790021,-111.77121,-121.247274,-68.59032,-63.493688,-41.654049,-27.015713,-62.223513,-53.404103,-35.779671,-22.785161,-52.612586,-48.145993,-34.322145,-22.904092,53.616028,307.540563,-72.377701,75.385629
94,1.588554,-1.168071,-7.214784,32.198116,-26.322327,-50.359268,-73.6413,-92.383404,-58.908463,-91.87048,-109.044228,-122.371616,-53.008461,-89.370232,-108.839378,-123.575935,-45.107803,-78.307571,-97.145176,-110.717697,-36.655083,-63.026505,-77.868576,-89.632645,-18.349073,-18.382912,-6.800943,2.860279,8.971347,21.362432,27.638435,32.622063,27.251815,38.175957,42.793283,46.260506,40.661164,52.430608,57.224477,60.386037,49.112758,61.141676,64.729869,66.780662,29.740762,52.871217,63.265199,62.440366,40.638341,51.690359,59.070024,64.061594,26.423006,43.434276,51.273536,53.781194,14.221057,31.816005,37.447328,37.519826,3.297586,19.447374,25.353956,26.716861,-8.502599,-21.161357,-28.518918,-31.818922,-56.045168,-78.862516,-87.49067,-93.554607,-55.129718,-56.893248,-44.811734,-37.185789,-47.496163,-36.570138,-18.722293,-7.321654,-35.889339,-27.880558,-14.731564,-5.823342,56.229429,305.329698,-78.567638,106.54095
95,1.158714,-1.042409,-7.214785,32.198116,-26.333084,-50.692291,-73.814163,-92.448864,-58.512383,-91.790657,-108.89637,-121.947212,-52.467957,-88.955956,-108.279991,-123.028221,-44.552193,-77.862797,-96.793156,-110.864468,-35.975533,-61.884613,-76.667747,-88.886433,-18.285038,-17.983881,-5.889507,3.917014,9.739584,22.433307,28.517514,33.225365,27.849498,38.633528,42.968777,46.306202,40.987453,52.796232,57.583062,60.883251,49.114549,61.188607,65.298776,68.292992,31.719131,56.087151,70.869656,76.519718,47.286816,64.849319,74.566097,79.800854,36.638432,57.987843,68.306866,73.431358,27.107677,48.397408,54.457283,55.185471,19.139385,38.801823,43.683872,44.622002,-5.622622,-11.185037,-11.552823,-9.997083,-43.449751,-59.935012,-63.21013,-65.86194,-41.669116,-50.292808,-47.969418,-47.355866,-32.768813,-19.736173,-1.664915,8.141854,-19.166093,-7.615123,4.859016,11.257409,58.138533,302.452684,-85.032034,136.904461
96,1.248665,0.135974,6.210136,32.677454,-26.137848,-50.942345,-74.268379,-92.827206,-58.492928,-91.1689,-108.443069,-121.730404,-52.891846,-88.973637,-108.526955,-123.545265,-45.444946,-78.605404,-97.722702,-112.142429,-37.141457,-63.037148,-78.07188,-90.670624,-18.735384,-18.633187,-6.3803,3.375154,9.306158,22.125234,28.346156,33.107483,27.60688,38.338299,42.376899,45.286949,41.056367,52.368487,56.654521,59.327882,49.725569,61.388802,65.312793,67.89606,22.230091,46.29015,68.16925,83.785,55.407486,84.293346,80.049076,71.886005,55.950794,79.027462,70.704861,61.50547,51.918983,69.523888,61.299019,52.807961,47.072124,58.932953,50.533161,43.20425,-27.465904,-40.122207,-40.205817,-33.820392,-36.973985,-30.541383,-24.227527,-23.225256,-17.949363,-0.283434,2.676695,-0.262439,2.030539,20.08216,21.297717,17.293203,20.959695,37.382958,35.611771,29.284207,60.906,301.075141,-77.303095,168.068397
97,0.268478,-0.898468,3.860435,10.259399,-26.739578,-50.564919,-73.13118,-91.54644,-57.679825,-90.489292,-107.740974,-120.8214,-51.61972,-87.613049,-107.143078,-122.339458,-43.874817,-76.558228,-95.142975,-109.258575,-35.371399,-60.548172,-75.091553,-87.475777,-17.184522,-16.679774,-4.028041,6.055369,11.286987,24.270135,30.125618,34.418753,28.902589,39.593561,44.120114,47.747271,41.532895,53.580524,58.87803,62.667282,49.396501,62.119062,67.126279,70.66958,32.972488,59.871368,78.56329,92.108288,41.260643,63.835831,76.786938,86.574383,27.727489,51.86039,68.087368,77.98399,16.701851,40.445538,56.073303,66.987247,10.028458,25.297794,38.995628,49.10471,-14.502887,-12.650004,-1.733025,7.393253,-14.029385,2.051719,17.94751,30.636232,-4.325246,12.878604,32.051119,45.269165,6.65441,22.54631,39.56213,50.542959,18.695061,32.501835,44.48265,52.682364,62.270708,298.413513,-72.34643,176.564636
98,-0.333481,0.162898,-18.452911,38.545039,-27.027054,-49.332619,-70.672073,-89.334927,-55.894775,-89.447823,-106.398811,-119.76202,-51.296654,-87.113914,-106.307945,-121.794949,-44.710922,-77.470322,-96.621037,-111.594372,-36.822624,-62.178612,-77.375336,-90.476761,-14.818555,-13.08448,-3.42369,3.393,12.325691,23.144363,28.608595,32.874993,29.004539,39.396948,43.575907,46.933771,41.116327,52.837419,57.833645,60.762714,48.481916,61.460123,67.053599,70.6823,34.086914,66.872864,89.214649,101.772251,68.816643,106.194363,110.790768,104.241428,57.288437,98.094578,101.109982,94.063282,45.744495,84.576702,85.781651,77.774506,33.883896,66.550541,71.296864,66.909485,-10.49615,-5.20346,8.357239,21.134696,3.593874,29.974638,36.122077,35.26566,18.604288,47.547138,49.5552,46.630947,33.330649,58.261822,56.606356,52.005579,46.704121,63.010306,59.249273,53.455294,62.79253,297.786978,-89.944038,214.320242
99,1.450539,2.818598,-9.240131,16.771288,-26.936302,-49.61895,-68.274422,-82.807732,-57.857323,-86.646996,-104.341335,-119.830513,-55.526619,-86.494446,-107.006664,-123.996048,-49.942131,-77.01107,-95.576591,-110.456772,-42.015381,-61.290665,-74.357643,-86.364155,-4.068055,0.891923,5.820038,9.929219,12.094497,21.131176,25.075113,28.190854,22.067806,32.522398,38.87738,42.808597,30.902314,43.447405,50.399575,54.01642,38.37362,50.55111,57.092455,61.432644,39.393826,72.238426,96.360054,113.636169,69.861717,99.881973,113.612595,122.206993,56.440887,90.660839,107.125854,117.693443,43.141823,77.5387,94.169197,104.30603,30.423832,59.691811,73.066063,80.172672,-9.086944,-4.537173,4.096275,10.39562,4.349637,27.901677,40.802202,49.967939,17.775412,42.613651,54.255085,61.582204,31.447324,54.214824,62.804615,67.266268,44.349516,61.226027,64.882022,65.065483,64.867258,299.79507,-98.55998,230.281026
100,1.71936,-0.317027,-0.897503,14.86635,-19.751472,-43.434792,-66.974716,-86.138248,-52.60128,-80.289116,-100.846024,-119.250641,-53.037872,-82.400379,-102.112827,-120.310192,-49.600296,-75.314999,-87.158661,-97.781181,-43.796768,-63.340187,-67.888527,-70.425224,31.847713,49.849564,58.294118,68.291324,42.720355,45.790586,49.285783,52.07227,25.975002,28.861896,30.479571,31.12511,7.80976,6.541715,4.712606,2.703001,-10.739817,-15.564377,-18.529878,-21.873848,39.210835,71.224709,92.827091,109.765835,66.402225,93.867531,109.798565,121.750088,54.148979,85.312099,103.064861,115.962238,42.925701,75.101738,92.128773,103.795338,31.43034,57.720337,70.395927,78.460064,-9.849191,-5.196729,3.042628,6.999224,6.652372,27.300722,41.154797,53.483267,22.295542,44.667531,55.541655,64.580866,36.995289,56.744059,65.744984,71.553228,49.611763,65.350832,69.614944,70.595479,67.522945,299.068515,-98.521156,244.737847
101,-1.849136,-1.920932,16.376724,24.599697,-21.745834,-46.081924,-68.526878,-86.958504,-49.791641,-78.188324,-99.415226,-117.742825,-48.010139,-79.864712,-98.346634,-113.969994,-44.870796,-75.322723,-89.261513,-99.308853,-41.60614,-64.827919,-74.218884,-80.681992,30.256899,48.594363,57.674453,66.255969,45.452317,48.906265,48.382992,47.436852,29.679595,29.148911,21.850939,13.40904,12.058373,10.531101,3.40078,-3.431285,-7.236037,-7.935545,-10.006469,-12.394543,40.706291,73.431301,93.838749,97.189236,69.440174,111.760082,115.777874,108.293324,56.823292,100.838413,109.019794,101.1759,46.05835,86.81448,93.978939,86.475849,35.006561,68.157692,77.188396,73.534641,-13.982393,-9.667212,1.113916,10.762479,23.901114,52.097402,48.494636,40.288871,40.421079,66.64512,59.525545,49.310915,53.204278,75.748304,71.40336,64.511088,62.283318,83.150697,80.401939,74.140632,65.853596,297.238835,-81.964645,269.428796
102,1.24752,-2.977234,-8.088398,1.067912,-29.529076,-55.334358,-74.897003,-91.648922,-54.113274,-79.074726,-97.105637,-112.752228,-49.742317,-77.376137,-94.375935,-109.225502,-44.729576,-71.961365,-85.781307,-96.292934,-39.823723,-60.369873,-72.794781,-83.819218,6.723941,19.650278,27.893155,33.858121,38.56906,42.500462,40.360316,36.772062,37.749694,39.029286,31.82221,23.005301,34.105308,36.29998,31.187169,24.450755,27.385073,34.62358,37.076491,36.76496,36.822453,70.681515,96.049347,111.583443,67.115421,107.501678,121.378441,122.916412,54.604568,99.059372,114.368477,116.006584,43.50563,85.691586,100.411835,102.031288,34.13578,66.659431,81.312046,85.634766,-10.961748,-4.972699,7.295194,19.622058,19.369993,48.892926,49.790777,46.037093,37.485464,64.58914,64.162754,59.286694,50.774153,74.518298,74.699659,70.1644,59.475774,79.48581,80.548534,76.27837,67.358694,293.532204,-89.795465,269.767311
103,-2.639694,-1.387038,-4.675026,0.975163,-27.892914,-52.870445,-72.571964,-91.523552,-47.59449,-70.310154,-89.578915,-107.05759,-45.002747,-70.911484,-92.444115,-112.035542,-40.919952,-65.270805,-86.257381,-104.661942,-36.428375,-55.907249,-72.570133,-89.145012,-12.963943,-10.690293,-8.01298,-8.946585,26.778004,28.661824,26.88051,22.178587,37.807801,41.417545,37.588649,31.592067,45.00228,53.422937,51.372947,47.517683,46.976564,58.081697,60.450504,60.140332,35.323563,66.299744,91.827507,111.737137,62.522678,99.572983,117.41169,128.442535,52.557278,94.21669,114.28299,125.258675,43.461628,82.247543,101.769447,112.103004,35.538998,63.494968,79.741974,89.654617,-9.468932,-4.818755,4.859819,11.110505,23.194134,45.001724,51.539364,54.389578,42.185967,63.234027,69.124708,69.498545,54.857213,76.120103,80.601516,78.680461,62.113443,80.492527,84.091279,82.527326,64.759741,291.809893,-94.42975,270.4072
104,-1.375122,2.280319,0.232029,4.905885,-22.562027,-46.850281,-66.108284,-82.079086,-57.759933,-71.549778,-67.861404,-60.362778,-55.190849,-67.554188,-59.771233,-48.295097,-50.378265,-62.883682,-56.010132,-45.77282,-43.668938,-53.927536,-53.01075,-48.399582,-12.415353,-13.582682,-11.973281,-12.835502,12.882433,22.698649,31.806402,37.990397,24.560485,35.814498,44.533718,48.151119,33.667807,45.285776,51.020166,52.541388,40.391932,50.503748,54.260087,55.140895,34.121876,64.174061,89.353008,109.312191,65.601654,100.04385,116.758404,128.397961,54.710369,94.009838,113.909855,127.674236,44.342251,80.0984,99.189892,112.477856,35.340328,61.16375,76.142464,88.813763,-10.006901,-6.765869,2.111864,6.312065,22.16494,41.58211,50.280088,56.384857,39.707861,59.667509,68.110334,72.011601,51.694728,72.528761,79.25511,80.560575,59.056056,77.689737,82.930124,84.036444,63.253756,294.121056,-94.328585,275.343929
105,-1.935883,2.107109,3.278503,3.602457,-17.758141,-41.14048,-60.196495,-75.325871,-55.343628,-62.600098,-51.358452,-37.196274,-53.551712,-61.655388,-47.47982,-29.443703,-49.534492,-58.491669,-46.283684,-31.307487,-43.303413,-53.133774,-49.369583,-42.498779,-14.821272,-18.767803,-15.905918,-16.24536,6.57858,20.251233,28.526591,33.737708,19.905307,32.220624,42.421854,48.953442,30.902376,41.001224,49.657952,55.138301,39.436592,49.149746,54.44046,58.113189,32.525826,61.927643,86.859341,108.059406,65.025444,100.135288,116.829586,128.247242,54.730625,93.892765,114.01823,127.831821,44.682083,80.116768,98.928852,112.057743,35.475254,61.498604,76.377583,89.340076,-10.466016,-8.302713,0.554951,3.148654,20.451736,38.562021,46.715669,52.839642,37.76402,56.397145,64.605134,69.017386,49.53933,68.685724,75.446962,77.398152,57.163406,74.386214,79.663713,81.250945,61.402702,296.308719,-90.965252,279.02694
106,-3.211327,1.656208,5.264854,1.642499,-15.070839,-36.494293,-55.242004,-70.767231,-40.584869,-51.696968,-44.753151,-35.558167,-38.582611,-50.424957,-39.17347,-25.304832,-35.486526,-46.586609,-36.037331,-24.843979,-31.228638,-41.179848,-36.517982,-30.458794,-15.611122,-20.839529,-18.393904,-16.913129,1.964651,13.625537,20.927276,24.316015,16.584308,27.100156,35.912434,40.088676,28.560121,36.668568,44.42689,48.362861,37.425937,45.970094,50.513875,52.996241,31.287575,59.786625,83.85252,104.188099,63.159714,98.62421,115.700283,127.191639,53.566132,92.862797,113.505878,127.517796,43.984337,79.760799,99.06023,112.523174,35.10046,61.953564,77.176094,90.190144,-12.02614,-9.84283,-0.616887,1.889995,19.488801,36.300165,43.828837,49.319004,37.364248,54.653437,62.472027,66.438071,49.22255,67.219461,73.373322,75.079177,56.453153,72.274905,76.688331,77.572103,58.351908,298.216807,-85.539865,280.921319
107,-8.928795,0.71365,3.426704,2.203996,-11.380806,-29.305401,-46.706314,-62.008982,-47.893496,-47.994318,-32.733879,-19.921017,-50.076285,-47.336169,-29.741364,-12.436009,-48.831768,-47.832756,-30.302754,-14.599457,-45.441027,-54.088784,-51.670904,-47.125998,-8.250813,-9.283588,-3.97966,1.063774,6.118261,21.829727,28.312471,31.255032,18.168731,30.884067,38.428794,41.807468,26.696771,37.153432,43.02923,46.089859,33.285293,42.796153,48.333714,52.942178,31.005535,59.226208,83.279743,103.165569,62.314796,98.057613,115.046597,126.788349,52.492046,92.033901,112.488384,126.768665,42.833176,78.930187,98.157177,111.670246,33.877373,61.106186,76.528645,89.582348,-11.266548,-9.776449,-1.070196,1.655899,19.815954,36.330608,43.559358,48.61505,37.240809,53.614054,60.634829,63.922112,48.548668,65.797596,71.407374,72.615459,55.422292,70.904602,74.932149,75.338899,49.65643,299.118054,-81.879845,283.312913
108,-8.928795,0.713649,3.354607,0.577922,-7.690773,-22.116508,-38.170624,-53.250732,-55.202122,-44.291668,-20.714607,-4.283867,-61.569958,-44.247379,-20.309258,0.432816,-62.17701,-49.078903,-24.568176,-4.354935,-59.653416,-66.997719,-66.823826,-63.793201,-0.890503,2.272353,10.434585,19.040678,10.271872,30.033918,35.697666,38.19405,19.753154,34.667978,40.945154,43.52626,24.833422,37.638296,41.631572,43.816857,29.144651,39.622214,46.153555,52.888116,30.935154,58.901482,82.328167,101.964283,59.772835,95.486355,112.603054,124.059963,49.269905,89.081326,109.464054,123.188839,39.482346,75.711536,95.264912,108.661709,30.770016,58.116875,73.879795,86.156902,-11.631308,-8.844512,0.829987,5.178513,20.869107,38.926533,46.189802,50.914944,38.489526,55.828671,62.145615,64.49034,49.638069,67.733842,72.636948,72.74637,55.581175,71.553105,75.023416,74.271543,40.900812,299.938007,-78.35206,283.997138
109,-9.060974,9.780401,0.352077,0.119302,-2.526627,-11.524086,-22.277641,-30.738945,-48.148384,-29.779816,-8.494263,6.716995,-53.013668,-30.601044,-5.83477,14.308891,-51.50362,-36.990452,-13.661385,5.06916,-46.57608,-54.461231,-60.553436,-65.399666,-13.546805,-15.127307,-11.364052,-7.287351,6.448657,20.700158,24.015291,27.852153,17.834569,26.655553,29.420552,34.396832,25.471551,33.580553,34.506192,38.448524,31.358773,39.480929,45.950643,53.976282,30.566883,58.830872,82.526779,102.339363,58.176956,93.338356,111.152229,124.123535,47.4856,87.212791,107.441711,121.410484,37.784328,73.882942,93.373375,107.145309,29.353752,55.931454,71.53347,83.608704,-11.650882,-8.331798,1.543328,6.891716,21.862363,38.397209,44.85692,49.178152,39.875823,56.679283,62.694329,65.355401,50.965517,68.854241,73.435813,73.619644,56.495822,72.075451,75.071828,74.018305,31.940718,309.805568,-77.899103,284.2036
