takenoko1/special-research/HandMotion_SimilarSearch_自分用/NewProject/handData/key/d4_feature_d2/54.csv
,vel_0x_L,vel_0y_L,vel_0x_R,vel_0y_R,posFromWrist_1x_L,posFromWrist_2x_L,posFromWrist_3x_L,posFromWrist_4x_L,posFromWrist_5x_L,posFromWrist_6x_L,posFromWrist_7x_L,posFromWrist_8x_L,posFromWrist_9x_L,posFromWrist_10x_L,posFromWrist_11x_L,posFromWrist_12x_L,posFromWrist_13x_L,posFromWrist_14x_L,posFromWrist_15x_L,posFromWrist_16x_L,posFromWrist_17x_L,posFromWrist_18x_L,posFromWrist_19x_L,posFromWrist_20x_L,posFromWrist_1y_L,posFromWrist_2y_L,posFromWrist_3y_L,posFromWrist_4y_L,posFromWrist_5y_L,posFromWrist_6y_L,posFromWrist_7y_L,posFromWrist_8y_L,posFromWrist_9y_L,posFromWrist_10y_L,posFromWrist_11y_L,posFromWrist_12y_L,posFromWrist_13y_L,posFromWrist_14y_L,posFromWrist_15y_L,posFromWrist_16y_L,posFromWrist_17y_L,posFromWrist_18y_L,posFromWrist_19y_L,posFromWrist_20y_L,posFromWrist_1x_R,posFromWrist_2x_R,posFromWrist_3x_R,posFromWrist_4x_R,posFromWrist_5x_R,posFromWrist_6x_R,posFromWrist_7x_R,posFromWrist_8x_R,posFromWrist_9x_R,posFromWrist_10x_R,posFromWrist_11x_R,posFromWrist_12x_R,posFromWrist_13x_R,posFromWrist_14x_R,posFromWrist_15x_R,posFromWrist_16x_R,posFromWrist_17x_R,posFromWrist_18x_R,posFromWrist_19x_R,posFromWrist_20x_R,posFromWrist_1y_R,posFromWrist_2y_R,posFromWrist_3y_R,posFromWrist_4y_R,posFromWrist_5y_R,posFromWrist_6y_R,posFromWrist_7y_R,posFromWrist_8y_R,posFromWrist_9y_R,posFromWrist_10y_R,posFromWrist_11y_R,posFromWrist_12y_R,posFromWrist_13y_R,posFromWrist_14y_R,posFromWrist_15y_R,posFromWrist_16y_R,posFromWrist_17y_R,posFromWrist_18y_R,posFromWrist_19y_R,posFromWrist_20y_R,posFromBody_0x_L,posFromBody_0y_L,posFromBody_0x_R,posFromBody_0y_R
2,7.567291,-0.530313,0.653458,0.579466,15.193119,28.751965,36.594143,38.101673,16.342335,43.794994,60.053959,66.214085,7.344761,38.291416,54.71323,65.333004,-3.488388,21.452522,37.57925,46.409054,-13.149433,-14.168587,-16.930733,-20.133305,-21.990433,-28.668926,-29.576286,-29.393073,-4.842591,18.691479,23.100582,22.251576,16.747329,39.028792,40.178832,36.728713,31.940462,50.756739,49.719209,46.573396,43.544229,56.736773,59.174741,59.63756,26.904316,52.060318,74.79475,94.777851,52.457428,85.737019,103.211689,115.685177,43.736801,80.710316,100.161724,113.016415,35.017376,70.001621,87.971134,99.810963,27.352695,54.199162,68.983555,79.863796,-13.996781,-14.853753,-7.827235,-1.83973,13.428121,28.456442,33.967358,37.527207,31.206188,44.633754,49.248671,51.587097,43.434684,57.408926,60.605127,60.590307,50.863259,64.01622,64.998545,62.800539,-27.847881,295.910213,-70.978947,289.222334
3,3.819923,1.116324,0.793076,0.66147,12.54673,23.722515,28.790989,27.806911,12.63588,39.259815,54.989376,60.327015,4.659805,34.550228,49.539013,59.2626,-5.587578,18.589668,33.853626,41.972866,-14.971104,-17.729073,-21.907196,-26.514874,-23.393526,-30.044848,-30.775664,-30.168411,-4.516672,18.933911,22.599539,20.796304,17.052315,38.922334,39.467467,35.595099,31.920826,49.939534,48.105856,44.430039,43.184224,55.238893,57.262083,57.513901,26.390877,51.448402,74.172192,93.91531,52.330799,85.239544,102.293301,114.39394,43.380775,80.320301,99.566631,112.209606,34.38652,69.691715,87.462101,99.128666,26.437569,53.82082,68.432636,78.647976,-14.787865,-16.051649,-9.003087,-2.876458,12.575533,27.91131,33.546344,37.179491,30.638208,44.107084,48.746701,51.013003,43.126302,57.113635,60.202144,60.170898,50.721109,63.558588,64.275695,62.077936,-23.963728,296.882427,-70.121641,289.739695
4,-9.860973,-0.277568,0.055161,-0.088674,17.60931,34.932861,45.65506,49.367867,23.492432,51.781769,67.425842,73.265076,14.243088,46.364479,61.963005,71.576157,2.690449,29.3466,45.046005,53.569679,-8.004913,-6.300716,-9.051933,-12.199173,-22.506481,-31.228727,-34.474576,-36.444908,-6.395614,15.925802,20.253085,20.19047,15.748702,37.360173,38.558501,35.428743,31.182106,49.490362,48.753679,45.55013,43.285866,56.749925,58.752182,58.249658,25.798302,50.834198,73.463459,93.437748,52.487526,85.040188,102.039127,114.128437,43.697376,80.179768,99.560566,112.330685,34.68996,69.519596,87.261257,98.879185,26.587143,53.849545,68.150082,78.103237,-15.003559,-15.905115,-8.781032,-2.828416,12.84458,28.091683,33.926973,37.606804,30.832722,44.199833,48.948564,51.231168,43.274627,57.049415,60.257102,60.185039,50.848747,63.637258,64.406235,62.129313,-33.734751,296.38248,-69.97653,289.428642
5,0.071411,0.599658,0.708103,-0.121525,16.99791,35.320358,47.81559,52.497253,21.870403,48.777008,65.214615,72.024765,13.088551,42.915802,59.987526,71.610603,2.142277,26.981792,43.911552,53.856125,-7.845669,-7.817631,-11.296234,-14.920006,-22.725263,-32.11781,-35.7412,-37.89561,-6.147254,15.631191,19.873197,19.79428,15.998173,36.842025,38.121802,35.382554,30.999571,48.766338,48.062322,45.149184,42.577341,55.364864,57.928802,58.099666,25.470657,50.332203,73.108978,93.045845,52.001781,84.589577,101.821175,114.09977,43.036423,79.590912,99.161339,111.865311,33.878288,68.996544,86.79142,98.32283,25.54287,53.099556,67.39357,77.11853,-14.554881,-15.555917,-8.371936,-2.367449,13.433617,28.657131,34.364104,37.924139,31.532539,44.85025,49.48783,51.448467,43.992599,57.694954,60.609017,60.236354,51.517566,64.042958,64.592845,62.156174,-33.543119,296.813436,-69.148207,289.138416
6,11.292,-0.039582,-0.135384,0.734459,12.881813,25.224266,32.961617,34.939957,6.593914,29.81369,49.715652,59.91806,-1.028538,24.099998,45.28347,61.780586,-9.870129,10.847626,31.035118,44.394836,-17.65377,-21.530628,-24.47113,-26.938419,-22.177043,-31.117268,-34.526323,-35.738792,-5.135967,16.501254,21.505569,21.459935,16.552877,36.903837,38.545039,35.299561,31.241324,48.568058,48.432577,45.795402,42.309283,53.874023,57.525758,59.06606,25.34523,50.320988,73.211746,92.994003,51.990795,84.610291,101.615067,114.003067,43.144855,79.6661,98.964157,111.683006,34.049149,68.923416,86.761322,98.634338,25.713959,53.084278,67.537651,77.974892,-15.096988,-16.428697,-9.251941,-2.92981,12.591033,27.663814,33.269331,36.668259,30.811171,44.115668,48.68032,50.421002,43.343293,57.106411,60.149718,59.749946,50.797927,63.508137,64.410064,62.113072,-22.139482,296.657578,-69.171953,289.756599
7,-4.755878,0.133813,-0.155926,-0.150115,14.400101,29.23914,39.365444,42.85738,11.236725,35.930958,55.639172,65.382328,3.387394,30.150661,50.63879,66.079845,-5.920086,16.008453,35.655842,48.257847,-14.195938,-16.526871,-19.256229,-21.737194,-22.112452,-31.140918,-34.433944,-35.329016,-5.360183,16.256969,21.102586,20.830266,16.588569,36.883151,38.515276,35.210517,31.301284,48.505134,48.322785,45.387417,42.35399,53.837282,57.327477,58.389152,25.302715,50.222969,72.880611,92.555408,52.45863,84.430676,101.513958,114.009876,43.553524,79.536724,98.999462,112.024899,34.255886,68.661289,86.48592,98.340626,25.713158,52.770023,67.149696,77.359257,-15.029309,-15.972979,-8.806473,-2.835764,13.556747,28.303116,33.804337,37.130461,31.274484,44.243738,48.807155,50.882154,43.471611,56.960186,60.00658,59.783661,50.788355,63.454415,64.314968,62.033723,-26.842976,296.718927,-69.275494,289.53402
8,-1.284485,0.362104,-0.118961,0.515369,15.242558,31.391773,42.545528,46.040897,13.263245,37.854137,57.457294,67.401524,5.437202,31.256046,51.866741,67.953014,-3.919029,17.627792,37.64185,51.052952,-12.060928,-14.985695,-18.310719,-21.008778,-22.280413,-31.647395,-35.317037,-36.353456,-5.565009,15.001954,19.792366,20.031834,16.25913,35.646969,37.740123,35.207677,30.821298,47.39622,47.293282,44.881434,42.03684,53.135612,56.737637,58.023034,25.304031,50.291977,72.979774,92.669334,52.150841,84.456253,101.506119,114.142685,43.199043,79.606361,99.16523,112.209206,33.974762,68.480873,86.631546,98.787231,25.527363,52.348137,66.826401,77.15847,-15.30027,-16.121365,-8.681243,-2.792909,12.927819,27.526481,33.045486,36.444537,30.951653,44.101465,48.571639,50.416124,43.260177,57.076091,59.995033,59.612057,50.474355,63.075391,63.951938,61.664332,-28.037367,297.056887,-69.304361,290.025244
9,5.997791,-0.058231,-0.160847,-0.158822,13.905945,27.211647,35.664024,37.232323,10.322399,33.137741,51.69754,60.468178,1.102524,25.637169,45.82489,61.300278,-9.110298,10.342369,29.671211,42.42485,-17.841969,-22.725163,-25.88213,-28.287964,-22.042736,-30.786409,-33.306567,-33.650578,-5.026916,16.180522,21.346068,21.573433,16.344099,36.014508,38.109452,35.734531,30.878788,47.421414,47.468591,45.826648,42.111743,52.749672,56.211709,57.595227,25.344429,50.391426,73.090954,92.774334,52.813339,84.866352,101.610775,113.985615,43.819599,79.664555,98.916149,112.115993,34.304581,68.254452,86.323299,98.704891,25.460987,51.939526,66.42643,77.249966,-15.466626,-16.211953,-8.560768,-2.600372,12.78215,27.518392,33.125082,36.534878,30.639566,43.999762,48.882429,51.018437,42.886896,56.988282,60.278467,60.004296,50.148559,63.432493,64.806934,62.688092,-22.017889,296.993191,-69.443521,289.860957
10,-2.098789,-1.681093,0.169144,-0.162898,14.601173,27.485104,35.799465,37.668285,13.392792,36.249676,54.984341,64.315968,2.97987,28.500423,49.589825,65.250034,-8.300686,11.780548,31.828823,44.982548,-17.972088,-22.048073,-22.889843,-22.949982,-20.962968,-26.82407,-26.965479,-25.442034,-5.966634,16.81439,23.746924,24.539799,15.481878,37.278724,40.729337,38.311561,30.90676,48.838277,49.965161,48.030952,42.73499,54.765823,58.500241,59.459039,25.511341,50.265198,72.804394,92.232571,53.09721,84.754887,101.555386,113.904819,44.197254,79.649792,98.857327,111.958637,34.673481,68.143787,86.037312,98.313274,25.690899,51.687813,65.899029,76.455975,-15.348559,-16.067395,-8.423806,-2.401597,13.116837,28.018694,33.867013,37.541904,30.728302,44.003591,49.068915,51.538252,42.893874,56.950367,60.428644,60.480021,50.211051,63.632441,65.052824,63.010491,-24.095221,295.320002,-69.25292,289.705964
11,0.167999,0.222178,-0.028267,0.169011,15.413132,29.634304,39.663792,42.673016,11.858025,33.733463,53.471546,64.25005,1.797123,25.835552,47.961788,65.225201,-8.97028,9.627857,30.037937,44.245663,-18.093109,-23.510227,-25.658855,-26.594124,-20.558132,-27.90322,-30.058742,-30.902006,-5.037413,17.335502,23.849676,24.502193,16.003237,36.942925,39.999694,37.557774,30.976538,48.174337,49.66141,48.530452,42.629829,54.05594,58.563905,60.798776,25.298882,50.123062,72.796955,92.343121,53.243866,84.840603,101.603909,113.91489,44.261112,79.803257,99.010563,111.998234,34.639778,68.182468,86.002293,98.130169,25.560265,51.619377,65.788021,76.151218,-15.505467,-16.37553,-8.705388,-2.830454,12.713545,27.513822,33.387028,37.119963,30.624623,43.884536,48.994259,51.49194,42.998479,57.017922,60.459767,60.421543,50.484235,63.719941,64.961557,62.804862,-23.909769,295.566109,-69.263735,289.898903
12,2.826347,1.346282,0.034618,0.164997,14.718075,27.669811,35.552731,36.878529,8.92725,30.842571,49.474468,59.071255,-0.786037,23.125477,44.225979,61.125469,-11.25555,7.414227,27.56773,41.498051,-20.147896,-26.480999,-30.328674,-33.388996,-21.219726,-29.286862,-31.011674,-31.801092,-4.585339,16.730904,22.295727,22.545878,16.140261,36.786758,38.987111,36.659676,30.449313,47.9529,48.469627,47.161568,41.761865,52.613698,56.95716,59.582293,25.462818,50.257301,73.035965,92.745667,52.884464,84.769478,101.614265,113.791122,43.868351,79.837646,99.215813,112.072563,34.297829,68.353615,86.236496,98.130684,25.318737,51.843395,66.051464,76.236191,-15.749134,-16.508911,-8.575835,-2.776669,11.977172,27.240885,33.320522,37.152321,30.057631,43.743992,49.020503,51.513614,42.606735,56.796732,60.25667,60.202082,50.230008,63.442929,64.71227,62.52964,-21.057901,296.876591,-69.203596,290.0281
13,2.599812,-0.595583,1.206207,-0.57045,14.358616,25.237541,30.722351,30.655518,8.787117,31.516228,48.765106,56.204224,-2.131233,22.491989,42.671356,57.994308,-13.961334,4.351559,23.699455,36.307068,-24.113102,-31.022987,-34.506512,-37.385845,-20.770863,-27.747671,-28.530481,-29.370225,-3.125188,18.598236,24.189798,24.495277,16.976732,38.405669,40.934966,39.128149,30.900956,48.70891,49.782379,49.586384,41.95817,53.648758,58.210446,61.270179,25.740566,49.926395,72.11586,91.773376,51.641464,84.139709,101.431618,113.670616,42.525387,79.422913,99.146919,111.90136,32.926254,68.169136,86.280785,97.823296,24.236012,51.183529,65.61676,75.529633,-15.119341,-15.730794,-8.084117,-2.289644,12.596961,28.274032,34.194846,37.999166,30.443632,44.543598,49.698275,52.397015,42.750983,57.260231,60.583823,60.804025,50.180546,63.835106,64.958655,62.768244,-18.390198,296.276099,-67.929497,289.452741
14,3.928986,-0.823936,-0.696316,0.749712,12.292557,21.13987,25.716934,25.619202,5.64537,27.423592,44.590073,51.183701,-4.421082,19.558983,38.421478,52.676582,-15.512695,2.485714,20.72937,32.26593,-25.18364,-32.493725,-36.482563,-40.373268,-21.404051,-27.876359,-28.22883,-28.142503,-2.268957,19.723699,24.650332,24.514543,18.441822,40.157898,41.896605,39.421648,32.62441,50.492015,50.421681,49.470972,43.441538,55.272732,59.235997,61.572386,25.651073,50.450935,73.160305,92.908802,51.745892,84.547977,101.797543,114.262218,42.607956,79.868832,99.696178,112.564144,33.172703,68.683262,86.958447,98.664265,24.71735,51.97958,66.54808,76.717701,-15.446372,-16.354473,-8.697175,-2.384863,11.659651,27.057116,33.036162,36.72155,29.990014,44.19724,49.240458,51.478046,42.56882,57.176497,60.329782,59.983918,50.067296,63.734082,64.746727,62.236511,-14.422188,295.421674,-68.586788,290.171963
15,-2.809868,0.657333,0.373135,-0.323634,12.993851,22.680359,27.674904,27.204781,11.213093,34.238434,49.042854,53.68515,1.264057,26.170578,42.408829,53.997116,-10.694275,8.373127,24.730339,34.630737,-21.665611,-27.076378,-31.181316,-35.265713,-21.885149,-29.117172,-30.347672,-31.484374,-2.845397,19.034009,23.337889,22.681729,18.087128,40.025691,41.132382,38.19652,32.56093,50.430944,50.064888,48.638144,43.570103,55.741356,59.13837,60.698,25.484161,49.973202,72.492943,92.576523,51.87767,84.479828,101.710739,113.92868,42.785683,79.980011,99.69635,112.396317,33.264542,68.727036,86.789246,98.235397,24.64365,51.856098,66.221523,76.120148,-15.532266,-16.259192,-8.387188,-2.408266,12.300682,27.826279,33.854231,37.570247,30.463269,44.577375,49.688519,52.242886,42.985079,57.424981,60.573017,60.516207,50.513751,64.145649,65.082711,62.668394,-17.230368,296.053782,-68.211966,289.823104
16,1.402473,0.123377,0.231171,-0.088859,12.759933,22.130127,27.635651,27.569504,8.534603,30.155869,46.663399,53.541756,-1.169872,21.594887,40.523758,54.97982,-12.58873,4.913979,23.478928,35.837402,-22.887783,-29.726315,-33.579884,-36.966133,-21.666491,-28.974343,-30.398246,-31.532045,-3.315441,17.531868,22.524821,22.481225,17.589852,38.550844,40.064655,37.246367,32.238223,49.66598,49.586631,48.357859,43.558679,55.438408,59.644723,61.905097,25.779591,50.453968,72.778702,92.645416,52.05431,84.529724,101.663132,113.825226,42.743511,79.733505,99.241333,111.85627,33.033199,68.359337,86.371193,97.769623,24.265366,51.200123,65.562057,75.235977,-15.056171,-15.636625,-8.054168,-1.875669,12.880024,28.239266,34.089068,37.407659,30.913306,45.221247,50.009189,52.052942,43.216829,58.060578,61.101539,60.782104,50.52147,64.472308,65.262281,62.510066,-15.83353,296.138319,-67.986431,289.695404
17,-2.1068,-1.192339,-0.52803,-0.060268,13.993092,23.377247,27.381077,27.06419,9.904976,30.261326,48.45377,57.628155,-1.071682,21.392269,42.68034,58.850498,-13.431072,3.923321,25.0387,39.524632,-24.48,-30.788841,-31.162605,-30.594349,-20.37955,-26.418617,-26.712425,-25.410665,-4.961893,18.230883,25.723493,26.946398,15.974338,37.961251,42.278037,40.780219,31.144006,48.663462,50.84566,50.514801,43.361386,55.291936,60.38122,63.014319,25.999146,50.716953,73.065834,92.903709,52.691803,84.895935,102.08519,114.486008,43.371048,79.859962,99.341354,112.23278,33.615417,68.356247,86.37085,98.120384,24.734058,51.1409,65.415058,75.377083,-14.903153,-15.698622,-8.291845,-1.980089,12.834082,28.228028,34.210778,37.566172,30.758251,45.285653,50.339986,52.583378,42.997738,58.046808,61.399978,61.217135,50.312074,64.602108,65.715468,63.12899,-17.946739,294.870459,-68.52087,289.559615
18,5.238533,-0.335799,0.346928,-0.204456,11.227169,17.204762,18.735638,17.179241,4.097328,23.163586,41.086407,49.687443,-5.648975,16.413975,36.377506,51.786518,-16.773949,0.608139,20.200596,33.670063,-26.903572,-33.697414,-35.278587,-36.368294,-20.648288,-25.469698,-23.508938,-20.513363,-3.868787,19.194807,26.155313,26.89286,16.885341,38.958397,42.607599,40.753852,31.925086,49.355128,51.004976,50.490224,43.630803,55.37425,60.375416,63.339621,25.989361,50.522289,72.957058,92.993374,51.842823,84.703617,102.068081,114.29266,42.684059,80.111446,99.944401,112.598362,33.285542,69.016628,87.165928,98.598919,24.920197,52.23278,66.531315,76.014347,-14.944155,-15.605749,-7.909919,-1.848869,13.278376,28.675718,34.601658,38.041712,31.419845,45.537347,50.503809,52.662913,43.695703,58.253918,61.401646,61.189039,50.978114,64.623041,65.457907,62.848458,-12.719278,294.53429,-68.185015,289.354789
19,0.099506,0.846907,-0.076447,0.248422,11.339378,18.537598,20.858459,19.67926,5.387306,24.930954,42.40551,50.473595,-4.945564,17.780685,37.812424,53.031235,-16.710835,0.239925,19.384003,32.510033,-27.380104,-34.973316,-37.361412,-39.120197,-21.397938,-26.850376,-25.922452,-24.598709,-3.756401,19.051114,25.75128,26.329758,16.980499,38.64384,42.081547,40.830793,31.86136,49.491658,51.044558,51.105752,43.42715,55.297988,60.203255,63.495664,25.522556,50.356064,73.247051,93.246861,52.381554,85.004025,102.260113,114.530582,43.303185,80.350285,99.955616,112.499371,33.843555,69.329967,87.295246,98.674679,25.177917,52.543087,66.807575,76.328831,-15.106621,-16.029851,-8.373047,-1.957303,13.165744,28.344612,34.311555,37.791252,31.448065,45.524812,50.353756,52.33792,43.809015,58.3718,61.25999,60.659961,51.117856,64.793658,65.417275,62.619302,-12.670097,295.372876,-68.311787,289.59489
20,2.502651,-0.756257,-0.30138,-0.076015,10.685863,16.086903,15.972118,12.880154,1.339302,19.194431,37.960567,47.64925,-8.78912,12.795925,34.046116,50.665455,-19.87896,-3.247204,17.131176,31.58884,-29.54361,-36.996403,-38.608818,-39.409904,-20.456059,-25.578132,-24.940744,-23.263541,-3.282405,20.432841,27.415824,27.689873,17.024959,39.557684,43.037567,40.946451,31.797078,50.007274,51.807052,51.640388,43.371699,55.369433,60.910853,64.627734,26.234436,50.85165,73.591805,93.453827,52.866211,85.046425,102.174339,114.428558,43.775368,80.291862,99.709969,112.354546,34.278316,69.17038,87.068939,98.534317,25.470943,52.216015,66.384315,75.970917,-14.804908,-15.648728,-8.170259,-1.7547,13.672344,28.815398,34.607463,37.865229,31.493204,45.539385,50.497943,52.727874,43.677795,58.24515,61.364534,61.063747,51.045361,64.797486,65.658843,63.096941,-10.209446,294.558604,-68.655167,289.460861
21,-3.643112,0.245767,0.095043,-0.232614,9.723186,15.361805,14.017582,10.544128,5.84959,27.499638,43.327961,49.041195,-2.572803,23.677082,40.114346,51.587963,-12.874146,6.766148,22.84647,32.443829,-22.763557,-28.218269,-31.970615,-36.619663,-21.415228,-25.125193,-20.199486,-15.483854,-0.703214,22.402061,27.150359,26.2995,19.315097,40.664375,43.092649,41.241556,33.291994,50.669115,51.063824,50.01135,44.0244,55.389132,60.069566,63.700552,26.364956,50.960426,73.705044,93.707256,52.21447,84.885578,102.202778,114.423237,43.180332,80.24992,100.084591,112.882061,33.879147,69.309254,87.474461,98.92828,25.426998,52.718868,67.239132,77.078075,-14.623671,-15.335962,-7.698547,-1.323805,13.536925,28.690785,34.590852,38.049986,31.577308,45.522774,50.265206,52.176505,43.846127,58.39051,61.397323,60.909124,51.173925,64.886468,65.772216,63.095398,-13.921766,294.750386,-68.629332,289.174262
22,6.857929,1.099528,0.108719,0.388348,7.678413,10.730324,9.775658,6.100044,-2.274799,18.576851,35.642509,42.48745,-10.550308,13.970032,31.702766,45.212975,-19.603729,-0.845947,16.410942,27.353554,-27.73653,-34.816475,-39.11356,-43.849754,-23.036794,-28.759266,-28.197523,-27.602619,-1.28058,20.733071,24.693434,23.447249,19.730739,40.755704,41.231429,37.970081,34.25672,51.204738,50.017772,48.0538,45.027165,56.36979,60.321507,62.800725,26.089268,50.875626,73.63718,93.524036,52.117252,84.563084,101.981449,114.42049,43.361893,80.101604,99.933071,112.726078,34.333076,69.6488,87.732525,99.089642,26.085377,53.794613,68.175373,77.767239,-14.977562,-15.723816,-8.028603,-1.608907,13.570147,28.31806,34.130379,37.501951,31.760336,45.274105,49.73477,51.331327,44.240342,58.27868,61.0275,60.32688,51.713747,65.006882,65.414373,62.463753,-7.175303,295.763216,-68.632078,289.475912
23,3.065414,0.65369,0.490551,0.324745,6.710129,7.951927,5.531044,1.35149,-6.650105,13.76255,31.391144,39.341125,-13.822803,9.833221,27.933655,42.070084,-22.238674,-3.629093,14.229813,25.955315,-30.062599,-37.764931,-41.970692,-46.216278,-23.821148,-29.881889,-29.167004,-27.316344,-3.52317,18.683205,23.623979,23.132322,17.587135,38.932585,40.267567,37.323246,32.676095,50.150227,49.545134,47.580483,44.225213,55.50831,59.75785,62.452576,25.50333,50.05497,72.687035,92.402,51.886654,84.274292,101.583939,113.925362,43.293285,79.834785,99.605484,112.467613,34.267044,69.374428,87.415924,98.912086,25.899582,53.590965,67.954216,77.771873,-15.204866,-16.260674,-8.559286,-1.942668,13.174142,28.052471,33.855157,37.283417,31.273434,44.887486,49.553718,51.504722,43.690145,57.715023,60.712141,60.21048,51.160896,64.363257,65.154156,62.533778,-4.269447,296.391758,-68.301086,289.77551
24,14.693985,-4.665552,-0.091839,-0.188648,-24.093704,-40.01936,-50.607033,-66.551971,-40.995941,-19.727039,0.230713,16.557083,-37.531757,-10.848083,10.716133,25.871773,-31.811199,-6.777191,13.450127,26.241646,-24.228172,-15.74152,-2.830811,7.675323,11.160152,28.104897,45.733961,58.766694,31.797448,39.24072,40.84938,40.718716,33.529115,41.737597,43.775176,42.49861,32.98954,38.799328,37.744075,36.336721,32.324612,41.247237,38.341263,34.453828,25.661144,50.40596,72.952824,92.791271,51.64238,83.927593,101.328335,113.906651,42.935829,79.554348,99.617214,112.722073,33.84304,68.983555,87.151623,98.672962,25.43272,52.860317,67.225857,76.938686,-15.097173,-15.88622,-8.189216,-1.728641,12.879716,28.043209,33.975879,37.368756,31.002412,45.094782,50.036791,52.130315,43.55343,57.996851,61.016817,60.404562,51.13953,64.712641,65.484336,62.614239,10.281458,291.699035,-68.536005,289.559692
25,-13.693314,1.785575,-0.184822,0.338145,7.622223,10.195656,7.701416,3.057976,-10.622749,8.989563,29.257851,39.183311,-18.765106,5.121689,26.480827,42.75753,-26.698551,-7.756691,12.672272,25.93483,-33.195934,-41.162109,-44.59774,-48.240795,-19.921671,-24.190724,-20.713929,-15.918453,-0.919402,22.604973,28.531593,28.481019,19.116446,40.403665,43.78697,41.061369,33.326389,50.903273,51.46267,49.561128,44.347108,55.5235,60.878496,64.603466,25.324745,50.731602,73.673573,93.781986,52.219563,84.269085,101.401234,113.792324,43.522282,79.822254,99.689426,112.690601,34.437561,69.213123,87.213764,98.841534,26.076794,53.586388,68.01115,78.154278,-15.769203,-16.161935,-8.018167,-2.335092,12.706259,27.779781,33.707944,37.186654,30.922877,44.653143,49.63424,51.590184,43.506438,57.713541,60.72517,59.962182,51.043817,64.404753,65.25376,62.507843,-3.622828,293.365926,-68.931799,289.779153
26,-6.82869,8.96159,0.20216,-0.463375,-8.459873,-9.068012,-7.454739,-14.715672,-10.692158,15.486603,34.505882,48.092194,-15.63549,14.660683,36.125908,49.535522,-17.558899,6.429234,26.802292,39.691772,-17.368641,-9.963684,2.302151,13.223076,-7.576837,-2.340464,12.121853,26.793998,3.618142,14.133743,20.575237,24.884984,17.230464,26.403859,33.778649,34.946658,27.519689,34.658839,37.459529,36.960894,37.225186,44.288939,42.2224,38.319712,25.676594,50.710373,73.415337,93.43998,51.794472,84.182854,101.397171,113.746948,43.052387,79.665871,99.55925,112.565346,34.024258,69.1222,87.056122,98.497696,25.804825,53.360367,67.678986,77.548828,-15.219871,-15.766053,-7.813403,-2.126808,12.853163,28.264707,34.279506,37.904132,30.987406,45.068785,50.307196,52.545155,43.541018,57.805302,61.079062,60.600866,51.15824,64.509729,65.489214,62.875751,-10.574255,302.228592,-68.852377,289.216854
27,-18.523865,-5.133682,0.318832,0.01976,14.09277,27.597198,31.008453,28.601189,20.155334,48.223801,63.463097,68.567848,10.827484,44.120064,59.565239,67.936592,0.078621,26.835022,42.194138,49.034615,-10.029545,-8.98138,-11.538277,-15.982933,-22.013528,-27.128747,-22.342164,-18.064774,-4.358591,17.315001,21.118517,21.206079,16.495141,35.944668,38.138166,36.119298,31.396812,47.301433,46.766675,44.288013,43.582947,54.919149,58.267009,60.317308,25.447083,50.457001,73.372307,93.254013,51.97197,84.475594,101.605339,113.604012,43.280354,79.820595,99.560165,112.39872,34.08411,69.378433,87.302513,98.644409,25.575256,53.671818,68.194427,78.04882,-15.538935,-16.338974,-8.593126,-2.38795,12.440238,28.162449,34.159587,37.594268,30.559229,44.789426,49.917613,51.941668,43.172924,57.588619,60.907087,60.397707,50.900865,64.401234,65.382756,62.771826,-29.298477,296.821695,-68.733902,288.963399
28,-0.262985,-1.817685,0.808926,-1.311023,7.852306,15.639439,13.898849,8.971024,17.883453,44.756241,59.213104,64.243927,11.971951,44.867592,60.704613,68.721313,2.537441,30.445976,46.877861,54.082146,-7.816715,-3.102093,-1.736183,-3.346138,-13.951209,-12.473213,-0.100097,11.692379,5.325417,23.979229,27.712412,29.544052,19.847756,37.178132,40.122021,40.019701,29.023558,44.899219,45.227113,43.79296,37.590255,49.521237,53.288321,55.989778,25.554943,50.232697,72.539005,91.831112,51.952229,84.081173,100.830631,112.666454,42.926559,79.244671,98.854694,111.940784,33.263969,68.281574,86.542225,98.430119,24.357605,51.93758,66.80666,77.16917,-14.99794,-15.495648,-7.724359,-1.652503,13.208104,29.369052,35.417875,39.132101,31.043846,45.400014,50.895863,53.708656,43.463336,58.253177,61.971972,62.129498,51.075804,64.753211,66.26659,64.188257,-29.764338,294.744859,-68.127851,287.393225
29,32.117615,-5.420019,-0.181274,-0.79905,5.816345,5.889244,1.591759,-5.956364,-16.585751,2.147827,22.554131,32.068634,-25.517578,-0.597725,21.017303,37.122345,-32.790585,-13.712196,6.31485,18.78994,-38.408432,-47.025547,-50.655727,-54.646225,-18.511415,-19.851708,-12.598998,-5.5647,2.090931,25.193427,31.728411,32.411618,21.081776,42.577588,46.237906,43.70972,34.596903,53.280293,54.393468,52.955239,45.041059,56.973956,63.110774,67.915141,25.434608,49.903107,72.532024,91.293697,51.535606,84.85033,102.033634,114.408474,42.44379,79.428463,99.020748,112.354488,33.0546,67.84956,86.546803,99.132328,24.374371,51.372471,66.483822,77.497044,-15.692385,-16.662978,-9.292572,-2.633346,11.480143,27.348516,34.035777,38.788768,29.527009,44.081458,50.042349,53.436584,42.070432,56.96457,60.894057,61.391519,49.444666,63.321466,65.390228,63.604406,2.144966,288.995494,-68.517437,286.264829
30,2.40303,-0.217732,2.353535,-6.325959,-14.295101,-24.257755,-33.57399,-47.012901,-37.609463,-12.798386,9.749908,27.478638,-37.862949,-4.39682,21.666069,40.892372,-32.489662,-2.75116,21.95446,39.244423,-24.16729,-16.14275,-4.767838,5.400696,21.494269,38.022693,51.298537,63.580324,28.184679,43.018857,49.030259,52.136799,21.406645,37.39889,45.065945,48.29333,13.523587,27.092438,32.864557,36.815843,5.82257,18.156844,20.395173,22.050084,26.120682,49.583244,71.014023,90.785522,52.173328,83.24192,99.53064,111.569824,42.942581,76.939659,96.615829,110.429764,32.552662,64.055443,82.869644,95.821037,22.185917,46.536827,61.022873,71.552696,-17.215459,-17.588308,-9.274418,-4.031808,9.245951,27.533027,36.250888,42.232527,27.127512,45.501223,54.146528,58.695681,40.224033,58.231997,64.738761,67.051314,48.887678,64.78563,68.458606,67.723653,4.511232,288.517778,-66.200666,279.678885
31,36.32309,-14.584953,-0.471039,-11.841136,-8.631592,-21.622124,-36.510086,-52.055511,-57.962036,-56.825638,-37.762413,-21.614799,-63.11491,-58.343582,-36.08242,-15.26104,-62.010784,-57.977028,-37.056427,-18.381157,-56.650486,-64.526367,-58.293171,-49.621868,24.619766,41.251622,56.740478,66.703227,29.438459,42.667435,50.550493,56.004968,25.845264,37.334978,48.973202,54.330112,21.20188,34.59573,44.228609,49.659867,17.690876,27.969417,36.610152,45.444042,27.714615,52.873707,72.086906,87.588615,51.061192,78.435173,93.992729,106.532478,41.341095,70.616112,89.005051,104.58847,30.300636,55.63036,71.33709,83.092461,19.108887,37.053452,47.559814,54.236012,-17.900456,-16.391462,-7.764373,-3.805369,3.772147,22.8571,34.872125,44.989868,21.333532,42.793221,55.167942,64.596982,35.607881,56.772217,67.097812,73.785691,46.536716,65.395415,72.184688,73.484102,40.684175,273.94644,-66.821852,267.851366
32,30.048866,-27.153817,4.575405,-16.831063,-31.773148,-54.831619,-70.960121,-81.922932,-61.386108,-92.933693,-105.934982,-106.039238,-56.88961,-95.628605,-104.445019,-99.230747,-53.096008,-89.645176,-89.565067,-80.842724,-48.832169,-78.870907,-79.60928,-72.374496,18.21915,32.490165,36.848694,37.800021,67.884451,88.090297,80.294802,73.044315,62.392555,80.523772,72.069091,64.047651,46.583091,45.8574,32.760755,26.217928,23.953355,15.895729,8.099061,6.335716,26.124916,46.671009,58.075218,66.743603,49.490376,73.12254,82.864895,88.945141,42.084332,64.753704,72.740765,74.591732,32.517071,48.973675,50.438175,47.834759,20.687943,32.318401,31.602974,26.795025,3.139947,15.140398,31.274978,45.958979,15.262232,32.460154,45.72334,57.601155,22.720447,44.051138,59.881598,73.151391,30.821421,54.081999,66.925714,75.908608,39.926767,57.308396,62.523836,64.843428,70.609245,246.568639,-62.370243,250.796319
33,-19.601784,-8.382063,-12.603378,-43.915781,-30.321236,-52.870445,-68.353271,-74.682198,-54.496307,-73.430557,-75.786495,-74.385624,-41.083603,-61.075401,-63.395977,-59.491596,-26.531525,-42.625809,-46.601028,-46.411514,-12.530937,-21.508141,-27.140808,-30.133667,-8.292895,-9.348395,-12.511498,-15.840339,20.583265,50.463239,55.625203,53.33451,34.760912,69.903689,70.708544,62.660119,43.231031,74.267097,73.760188,67.242308,46.014307,70.852052,74.992356,72.797437,27.738934,54.469242,71.296234,78.546581,86.267338,110.979023,110.265942,100.685863,81.699772,104.060841,97.977505,83.442822,70.532799,87.728405,80.58569,65.619106,55.336647,69.879742,66.074753,56.588001,-18.687589,-20.564493,-18.120597,-8.703227,14.802747,45.202784,68.720304,85.599841,26.205208,61.671557,86.35085,103.270092,35.982583,68.011533,90.323439,104.665034,44.440475,69.885041,85.508636,95.721166,50.992785,238.27193,-74.988298,206.965892
34,52.957077,-78.706025,-14.68111,-50.476269,-41.773109,-72.724457,-88.277664,-95.589867,-86.413422,-110.856628,-114.011478,-112.208405,-74.925728,-99.659729,-103.787613,-102.335014,-60.343094,-83.330841,-89.333382,-90.48214,-44.953995,-64.314537,-72.883759,-77.408524,-2.666445,16.246286,35.939419,52.58239,30.413992,66.350509,80.890817,84.740893,41.638118,83.00231,95.214813,95.916297,51.415987,88.633577,99.149364,99.368269,57.949118,85.121399,95.76859,99.272618,24.564056,49.7715,65.128384,69.600391,63.289776,95.654755,102.981949,100.377617,54.842834,91.34079,101.142998,101.855965,44.278736,79.301319,88.009872,87.502441,32.344036,61.901722,68.891888,68.132343,-20.31391,-33.739128,-45.677336,-57.681616,-6.665401,20.369423,37.025547,45.450897,11.661874,39.690139,58.372541,70.231831,27.303192,48.899101,62.406448,72.241622,39.878663,49.224279,53.688587,57.382744,102.839241,160.600379,-90.780029,157.524097
35,13.538132,-49.983809,0.675144,-43.543704,-34.002113,-66.909828,-87.307205,-99.905434,-80.168381,-109.828835,-119.807739,-123.957767,-71.337891,-103.213921,-111.471977,-112.697983,-59.627037,-89.874916,-98.159752,-98.874779,-46.246719,-71.038513,-78.997078,-81.165504,-17.129317,-8.736819,9.516171,24.235246,3.722037,34.19744,52.049669,63.027658,19.183939,52.863231,68.214383,73.610505,33.626804,62.232003,75.111534,78.812668,45.69512,67.68123,77.248222,79.421589,3.996563,19.192657,30.084915,29.687176,47.098961,66.655884,56.776543,46.717358,54.582825,70.055237,56.801834,45.854473,56.36673,69.610577,57.148247,47.863369,55.276337,68.988247,62.238293,55.042362,-31.091055,-54.914117,-74.129394,-91.351923,-38.661192,-32.878636,-30.367124,-29.656037,-18.93033,-14.96688,-14.220472,-13.211161,0.651312,3.884255,3.601562,3.576429,19.075104,18.894545,15.478513,13.62174,115.239115,111.699595,-91.243143,115.063417
36,14.001045,-47.344504,-14.411488,-55.939328,-31.657104,-62.817307,-84.035797,-94.009895,-78.365936,-112.295723,-113.780022,-107.223701,-72.287064,-103.714371,-105.260582,-98.024025,-63.207321,-93.797722,-94.77562,-86.743698,-51.477814,-78.420067,-83.225327,-79.874725,-18.257158,-21.903149,-15.507227,-9.012936,-22.460755,-8.211508,5.341781,11.070645,-10.751426,5.919981,18.76277,23.291885,1.417635,16.173081,24.343741,24.755215,12.647472,25.810715,32.098049,31.461434,32.829609,54.296436,65.56366,66.666183,47.51152,58.719006,59.345512,55.000477,35.895195,45.719604,47.549973,44.598427,22.234268,32.023945,35.273952,34.032726,7.153873,6.933002,8.437443,8.898926,0.817421,-11.121033,-22.890168,-27.646246,-44.123201,-61.368208,-53.622483,-44.066947,-51.811405,-71.892361,-63.861659,-54.093021,-55.045058,-75.241549,-69.579407,-62.305209,-55.059168,-76.193401,-87.800101,-96.350372,129.124804,65.030347,-105.769987,59.799346
37,6.89415,-49.868182,-15.775394,-54.996492,-26.629143,-50.216904,-68.180695,-76.775436,-63.023071,-89.796867,-89.219055,-80.602684,-61.269264,-86.15284,-82.539368,-73.317032,-57.076378,-80.084724,-74.48204,-64.026604,-51.007576,-70.677681,-66.84803,-58.597527,-28.15581,-41.186413,-42.161174,-36.871171,-57.169149,-54.097529,-40.759409,-35.412812,-43.963947,-35.952788,-24.617697,-22.958741,-28.983389,-21.213798,-13.864048,-14.169682,-13.47289,-8.504421,-5.272096,-6.727152,26.140766,35.99802,35.934849,26.215096,29.110279,44.270153,50.877743,50.924034,21.432152,36.903133,41.326447,41.34922,14.542923,29.862957,32.71986,30.913296,9.014912,16.049137,15.894012,12.990131,-27.514316,-52.407883,-70.938441,-82.372641,-76.383654,-94.856444,-86.057227,-76.937185,-70.96873,-88.014468,-79.56309,-68.135343,-61.822845,-78.518613,-71.923761,-62.51553,-50.586524,-62.75682,-65.14792,-64.742436,137.640667,20.998459,-119.923668,10.639148
38,6.482658,-47.506095,-14.333725,-53.368349,-19.84539,-38.227424,-52.034416,-59.940185,-45.176849,-65.398979,-65.865211,-60.409202,-41.20079,-60.371895,-59.152374,-54.071388,-36.569595,-53.289757,-50.46505,-44.2099,-30.643082,-43.929558,-42.296753,-38.089943,-31.725416,-49.38483,-56.174128,-58.222945,-59.718293,-59.132884,-53.254512,-52.055155,-46.013227,-41.461007,-35.689721,-35.572827,-31.5174,-26.652476,-22.337264,-22.927372,-17.453574,-14.345536,-12.228156,-12.715037,5.561085,11.264992,13.303585,13.573551,21.064625,34.831352,36.33419,34.397907,17.584591,32.237377,30.499706,28.278179,11.743641,24.486465,23.213539,21.960754,5.23962,9.158134,5.87162,3.79921,-34.597984,-58.495146,-77.270112,-94.02303,-83.908559,-112.605612,-118.978193,-117.186258,-78.02427,-109.438881,-113.271127,-111.841312,-69.958555,-97.515942,-102.341258,-103.101977,-60.18541,-78.050359,-85.67388,-91.114246,144.461613,-24.884279,-133.919106,-41.105844
39,6.482659,-47.506094,-12.37278,-39.694091,-13.061638,-26.237946,-35.888138,-43.104935,-27.330628,-41.001091,-42.511368,-40.215722,-21.132317,-34.59095,-35.765381,-34.825745,-16.062813,-26.49479,-26.44806,-24.393197,-10.278588,-17.181435,-17.745476,-17.58236,-35.295023,-57.583247,-70.187083,-79.57472,-62.267438,-64.168239,-65.749616,-68.697498,-48.062507,-46.969226,-46.761745,-48.186914,-34.051411,-32.091154,-30.810482,-31.685063,-21.434258,-20.186653,-19.184217,-18.702924,0.570889,0.965023,-3.069935,-10.712471,17.940445,28.198185,25.82222,22.99593,14.636307,23.946476,20.780125,19.233284,7.484951,12.22023,11.969776,13.686848,-3.415775,-8.138237,-11.771278,-12.446823,-38.396005,-65.445788,-85.771384,-98.923573,-76.343161,-109.233252,-121.46269,-124.777853,-68.35221,-102.275988,-115.260386,-117.986173,-57.196566,-87.674007,-102.632488,-111.140537,-43.651922,-63.788407,-76.127513,-84.968737,146.270619,-72.497803,-150.965538,-80.907366
40,6.482658,-47.506095,-6.746292,-31.057339,-6.277885,-14.248466,-19.741859,-26.269684,-9.484406,-16.603203,-19.157524,-20.02224,-1.063843,-8.810005,-12.378387,-15.580101,4.44397,0.300179,-2.431068,-4.576492,10.085907,9.566689,6.805801,2.925224,-38.864629,-65.781664,-84.200037,-100.926494,-64.816582,-69.203594,-78.244719,-85.339841,-50.111787,-52.477445,-57.833769,-60.800999,-36.585421,-37.529832,-39.283698,-40.442753,-25.414941,-26.027768,-26.140277,-24.69081,-9.183598,-14.962177,-22.914505,-33.340874,0.670395,11.536217,12.655964,11.435452,1.532536,16.315098,16.751347,15.024605,0.597897,10.975342,11.94849,11.759949,-3.110962,-1.704311,-2.922077,-3.944092,-32.97702,-56.908068,-71.85017,-84.165487,-75.562497,-107.725801,-123.274046,-131.348437,-69.588515,-103.862943,-121.396941,-129.829207,-60.046579,-90.954204,-108.103158,-120.033245,-47.646309,-69.37262,-82.702342,-92.444519,151.199827,-117.227569,-159.26528,-109.188375
41,6.917152,-7.252493,-11.39677,-32.729247,7.760353,10.792923,14.891167,20.300331,5.782814,-5.91671,-13.747787,-21.523247,1.551247,-9.674492,-17.481308,-24.494019,-3.457146,-11.512642,-17.745667,-23.547249,-8.893547,-11.922569,-14.881668,-17.620468,-25.594311,-46.689054,-60.738261,-70.856128,-60.383999,-83.564718,-101.263559,-116.349215,-59.01845,-84.559054,-105.553221,-122.893509,-55.307112,-80.039402,-99.165913,-114.152089,-49.20702,-70.069999,-83.767954,-95.511817,-15.996838,-25.744743,-33.170471,-43.219357,-17.253399,-1.562119,6.040306,10.319653,-9.173069,8.406658,15.42635,18.650665,0.789299,16.100121,22.21138,23.937721,11.227283,20.757809,24.966774,27.830887,-21.407818,-43.043403,-56.692636,-67.071553,-64.573811,-96.767604,-112.083157,-121.946967,-61.12627,-96.941802,-115.394585,-127.468905,-55.047374,-90.106741,-108.345652,-122.24692,-46.737467,-75.4356,-90.989742,-103.890391,158.24029,-122.681041,-170.53874,-140.118601
42,3.669891,-8.18619,1.125927,-10.119735,3.335495,8.903046,15.72052,20.922318,5.23819,1.468048,-3.517456,-9.048729,3.376122,0.475845,-5.021782,-11.049271,0.479507,-0.558128,-5.100861,-9.930267,-3.276443,-0.642242,-2.011871,-3.825188,-26.978369,-48.598701,-64.903913,-78.774846,-59.245074,-80.462161,-96.343302,-109.618035,-58.930641,-82.618238,-101.485876,-116.528585,-56.781356,-80.242499,-98.029628,-111.80156,-52.188253,-71.52754,-85.836654,-98.116866,-16.793404,-29.851627,-41.522884,-52.724476,-26.315517,-13.307877,-3.829994,4.034443,-15.126286,-2.829952,6.872978,14.459038,-1.533451,9.041233,17.07819,22.886524,13.237267,17.572403,21.097069,23.798447,-23.097217,-42.069938,-56.437885,-63.388558,-66.251647,-93.308176,-109.797651,-123.089126,-64.817246,-95.613705,-116.009279,-132.131285,-62.581387,-93.035903,-111.975279,-126.539654,-58.699015,-83.917945,-98.071726,-110.038015,161.766901,-129.573159,-169.556093,-148.944263
43,-1.800671,-15.686782,3.442326,-12.610731,11.322899,19.842739,27.857952,33.678074,15.054188,7.260075,0.881996,-5.093651,10.243607,2.663384,-3.946667,-10.489712,3.387852,-2.029266,-7.484665,-12.973366,-3.923321,-5.875397,-7.821579,-9.984684,-27.023369,-48.11061,-64.402337,-75.83602,-67.279667,-92.429479,-107.668551,-118.941714,-68.725916,-95.48538,-111.582786,-122.826942,-67.765118,-93.337021,-108.586393,-119.670245,-64.204682,-86.58581,-100.029268,-111.298086,-19.319916,-35.116997,-47.908058,-60.079994,-29.127102,-20.216389,-11.089325,-2.627163,-18.04842,-10.19846,0.281868,9.291401,-4.668961,2.675629,11.067123,18.478146,10.09758,12.78883,16.139488,19.803658,-23.492728,-40.900632,-53.989558,-61.491894,-67.073853,-91.885045,-108.898565,-123.25278,-67.048319,-96.330303,-116.923016,-132.659468,-66.080845,-94.586039,-114.19472,-129.764114,-63.091106,-87.708788,-102.218853,-114.232643,160.853119,-142.105992,-165.226879,-158.401045
44,-1.800671,-15.686781,1.413345,-12.551188,19.310303,30.782433,39.995384,46.43383,24.870186,13.052101,5.281448,-1.138573,17.111092,4.850922,-2.871552,-9.930153,6.296196,-3.500404,-9.868469,-16.016464,-4.570198,-11.108551,-13.631287,-16.14418,-27.06837,-47.62252,-63.900762,-72.897195,-75.31426,-104.396798,-118.9938,-128.265393,-78.521191,-108.352522,-121.679696,-129.125299,-78.74888,-106.431544,-119.143159,-127.53893,-76.221112,-101.64408,-114.221883,-124.479306,-22.128239,-37.790337,-50.473938,-62.227249,-26.671143,-18.276157,-8.955173,-1.537514,-15.042114,-7.943115,1.393719,9.441204,-2.093525,5.001411,12.038956,18.20652,11.366673,13.915215,16.808052,20.324993,-21.795889,-38.43977,-50.584795,-57.209009,-69.24668,-94.069057,-108.905443,-121.425647,-69.886986,-98.630243,-116.490979,-129.85491,-68.932093,-95.474921,-112.692132,-126.362639,-65.883738,-89.193252,-102.104862,-112.97887,160.308809,-155.034953,-162.557173,-168.194414
45,-6.610107,-8.381661,4.122162,-11.763345,22.325363,37.109184,45.959244,54.674721,28.1567,24.351082,19.057961,12.610359,18.05294,14.381561,8.803596,2.472725,6.773758,4.062881,0.077705,-4.131088,-5.063782,-6.786346,-8.587532,-11.000748,-23.07034,-41.33818,-56.69134,-66.457322,-73.450695,-98.691716,-111.987321,-121.862038,-77.308783,-102.099304,-115.658908,-125.646821,-77.19206,-100.422109,-113.696063,-123.334299,-73.533996,-94.521495,-105.96796,-115.787742,-23.207474,-39.701786,-52.71286,-65.270061,-26.404037,-19.227047,-11.955585,-5.877457,-13.418083,-6.9841,0.226078,6.301231,0.39505,5.886784,11.056023,15.29932,14.141121,16.836491,18.413486,19.843254,-18.629791,-34.341534,-46.540529,-51.577418,-68.145146,-92.539384,-106.218288,-117.206002,-69.777734,-96.816788,-112.961704,-124.546397,-68.803976,-93.306293,-108.749901,-120.137349,-65.661482,-87.136469,-99.575287,-110.041835,154.811239,-159.822015,-157.322474,-176.36316
46,-1.194534,-9.511061,4.824371,-9.972753,22.198563,36.331673,45.345154,54.124031,25.560722,21.825714,16.439896,10.95314,14.167557,9.807587,4.862595,-0.292282,1.780815,-2.019424,-5.914078,-9.011536,-11.096878,-12.96833,-14.840698,-16.390343,-21.915021,-38.483274,-53.526646,-63.663532,-69.987655,-94.370893,-105.889097,-113.436325,-74.18148,-98.698941,-110.529826,-117.052614,-73.925324,-96.150494,-107.747669,-114.477113,-70.564774,-90.413317,-101.286252,-109.325345,-23.87392,-40.658398,-52.716694,-65.119457,-26.696377,-18.977966,-11.879025,-5.407162,-13.245049,-6.822109,0.059624,6.076298,1.09623,6.611595,11.802006,15.992832,15.544281,18.114853,19.667587,20.570755,-16.420793,-31.83385,-44.14486,-49.69633,-67.59461,-90.707774,-103.571342,-113.451763,-69.034591,-94.56401,-108.452604,-118.091804,-67.33207,-91.190415,-104.623214,-114.314223,-63.334457,-84.16487,-95.957825,-106.040301,154.092636,-164.760952,-152.022171,-181.763789
47,-7.014198,-10.475942,3.925323,-8.887582,23.3535,37.765274,48.185577,56.390762,29.511108,23.853264,17.581787,13.101196,17.060509,11.904945,6.683807,1.997681,3.202972,-0.097618,-3.698044,-6.682892,-10.819817,-13.029556,-14.479408,-15.757027,-17.257882,-31.127503,-45.35435,-54.451205,-64.751127,-87.968479,-98.087342,-103.108175,-69.95116,-94.032184,-104.463751,-108.352776,-70.569969,-92.52762,-102.913993,-108.008387,-67.657703,-87.826005,-97.805814,-104.506305,-23.359108,-40.15749,-52.431793,-64.308243,-22.852421,-14.10759,-6.750126,-0.668449,-8.832607,-1.380043,5.486526,10.666466,5.303993,11.000748,15.6633,18.669949,19.068089,20.869675,21.811066,21.835384,-16.098579,-30.601327,-42.065044,-47.472158,-65.632128,-88.03855,-99.499334,-107.129647,-66.317719,-90.750412,-103.500113,-110.841457,-63.802139,-86.704487,-98.811913,-106.280332,-59.436447,-79.364424,-89.868416,-97.9318,147.119064,-171.978556,-148.056221,-187.393034
48,-6.130257,-6.401773,6.925049,-6.6426,23.594742,38.358879,49.098816,57.020416,27.397385,20.717468,13.311195,8.837357,14.664116,8.715706,2.285385,-2.261467,0.581818,-2.719345,-7.43763,-10.636711,-13.209801,-15.864143,-17.474213,-18.286858,-12.837756,-26.595995,-41.749562,-51.658187,-60.440763,-84.070716,-93.404399,-97.691822,-65.324449,-90.017605,-99.243904,-102.234978,-65.81257,-87.716862,-96.782262,-101.129923,-62.473031,-83.782434,-92.985484,-98.556575,-23.465881,-40.328636,-52.623081,-64.679432,-22.182255,-11.834564,-3.594017,3.292007,-7.960625,0.878849,7.858372,12.854462,6.039047,12.541637,17.795506,20.814514,19.415646,22.384701,24.08432,24.427929,-14.984262,-29.840285,-41.190412,-46.1846,-63.645393,-84.889488,-95.88597,-103.213544,-64.205616,-86.572611,-98.511513,-105.220896,-61.754626,-82.772398,-94.056035,-100.563757,-57.50724,-76.263619,-85.892399,-93.305814,141.025114,-176.562907,-141.094866,-192.218211
49,-7.108383,-4.380775,6.709957,-4.623948,23.537407,38.571854,49.439964,57.166557,28.574638,21.049576,14.040184,11.940079,15.598869,8.752098,2.488747,-0.651398,1.030998,-3.162346,-8.340569,-11.173897,-13.279152,-16.789398,-18.223457,-18.36937,-9.951573,-22.252842,-37.945659,-48.611622,-55.902463,-75.886116,-81.67314,-83.176825,-61.743982,-84.068354,-88.87445,-87.561343,-62.838292,-83.806741,-88.246279,-88.796845,-59.770902,-80.046889,-87.464333,-90.822521,-23.038101,-39.830303,-52.386932,-64.186306,-21.018505,-9.56028,-0.389214,7.724533,-6.350212,2.798538,10.674706,16.901379,8.100014,14.805279,20.49305,24.136562,21.975803,24.951782,26.198273,26.166515,-14.286267,-29.50552,-41.721164,-47.81955,-61.089829,-81.817768,-92.152208,-98.891239,-60.874413,-82.701987,-93.835216,-100.082876,-57.182726,-78.107633,-88.517425,-94.66474,-51.299888,-70.261842,-79.851534,-87.528561,132.914085,-179.502967,-135.387554,-195.401444
50,-5.718956,-1.438121,7.659016,-2.616303,23.161011,37.676353,48.391685,57.164841,26.662331,17.443886,10.133743,7.750854,13.363838,5.566978,-0.265617,-2.674026,-0.738487,-5.689774,-10.352669,-12.481499,-13.976898,-18.089447,-19.657745,-20.099945,-9.187489,-21.959512,-37.161105,-47.455006,-55.660664,-73.581976,-77.639889,-78.395714,-60.290354,-80.737521,-83.927725,-81.694182,-60.001679,-79.86207,-82.135612,-81.399524,-55.544403,-74.235697,-80.362488,-83.257432,-23.210049,-39.88409,-52.760239,-64.703121,-19.527912,-6.712074,2.548084,9.999847,-4.896355,4.887657,12.369175,17.847404,9.335632,16.534767,21.509628,24.603481,22.923374,26.172638,27.524929,27.587585,-13.312926,-28.581888,-41.589242,-48.325263,-60.699991,-79.526642,-87.088829,-91.759414,-60.855209,-80.871427,-88.754207,-92.406281,-57.370988,-76.783658,-84.340627,-88.270894,-51.631063,-69.968219,-77.807611,-83.533796,126.739197,-178.22126,-128.184471,-195.29792
51,-10.471687,-3.173369,6.183758,-1.709051,24.352455,40.687866,52.230721,61.106987,30.753708,24.262161,18.350945,17.302666,16.559029,11.825638,7.298355,5.279961,1.214218,-1.262054,-4.911003,-6.467972,-13.392677,-14.808426,-15.604706,-15.71846,-5.941964,-18.152784,-34.255223,-44.670356,-52.484377,-62.410987,-57.152723,-50.94179,-59.329819,-71.653295,-67.586382,-61.049576,-61.226205,-74.889834,-71.569252,-65.813172,-59.488602,-75.914096,-75.579826,-71.062775,-22.191582,-37.579422,-51.176434,-63.744221,-18.93671,-1.887245,8.139668,14.637337,-4.803028,8.381023,16.539688,20.542145,9.382896,18.943462,24.272747,26.212921,23.048687,27.763367,29.759388,29.747486,-12.856698,-27.873225,-40.320186,-46.617254,-59.558782,-77.687645,-82.171289,-83.660894,-59.070104,-79.560721,-85.15997,-84.934805,-54.759802,-75.599671,-79.883197,-79.364246,-48.56419,-67.699454,-73.880316,-76.423522,116.903744,-182.144357,-121.364479,-197.756698
52,-6.585388,-0.31519,5.943832,1.115568,24.92981,40.609131,51.125565,59.2733,29.271355,23.166046,17.830009,17.417793,14.352837,10.836067,6.801453,5.43354,-1.189156,-2.294998,-5.374603,-6.640778,-16.059837,-16.40625,-16.645546,-16.743507,-5.662837,-17.329682,-33.215145,-44.156052,-51.718594,-59.739741,-53.277067,-46.738053,-57.308713,-68.36808,-64.352034,-58.483121,-58.020649,-71.095959,-67.916692,-62.640868,-55.079824,-69.740776,-69.060488,-65.229909,-21.845055,-36.783886,-50.481377,-62.621555,-17.879162,-1.135826,7.592812,12.251129,-3.787136,9.73732,16.771488,19.241066,10.625267,20.21719,24.225197,24.617901,24.189548,29.531422,31.392403,31.122952,-12.658634,-27.175584,-40.478985,-48.017043,-57.838554,-75.894876,-79.0438,-79.298652,-57.38411,-78.041066,-82.824701,-81.205296,-53.205699,-74.466265,-78.137227,-76.001975,-47.106989,-66.267424,-72.930038,-75.169186,110.472422,-182.990723,-115.266581,-197.172307
53,-3.059464,2.993907,7.865181,1.192956,24.353371,38.628159,47.744865,57.305946,26.776428,20.411682,14.361076,12.761765,11.825294,6.786575,2.200813,0.59063,-3.53508,-6.327095,-9.815254,-11.048584,-18.181915,-19.840508,-20.867271,-21.13987,-6.92517,-18.694675,-34.724649,-45.351803,-52.525456,-61.520623,-57.202463,-52.466639,-57.502524,-69.03781,-65.88065,-60.640904,-57.423445,-71.351405,-69.238738,-64.82833,-53.514914,-69.160438,-70.312909,-68.134386,-22.259045,-36.759739,-50.963173,-63.651581,-19.103279,-1.080208,6.519012,8.958092,-5.455055,10.121899,16.564236,17.649136,8.807602,20.036945,24.263248,23.703632,22.875652,28.892155,29.988213,28.507862,-12.570871,-26.882795,-40.596844,-48.367786,-59.592806,-74.67441,-72.115605,-68.40899,-60.208404,-78.801754,-76.328164,-69.124291,-56.355718,-75.513174,-72.900885,-66.565454,-50.505677,-68.247034,-70.248975,-67.73483,107.102451,-180.325653,-107.711906,-196.308188
54,-2.502251,-0.635365,2.780628,2.71285,24.80175,39.463348,48.034401,57.190018,28.616867,21.454926,15.552864,14.30397,13.162651,7.759895,2.785721,0.751419,-2.131805,-5.049019,-9.126434,-11.038055,-16.477547,-18.543549,-19.817162,-20.372543,-6.11962,-16.992648,-32.445905,-43.750337,-51.068532,-58.686071,-57.253932,-54.936632,-56.342666,-66.663043,-65.944716,-62.203876,-56.842906,-69.294591,-68.522063,-65.691161,-53.413381,-67.015082,-69.337901,-68.799507,-20.464096,-34.333248,-48.051224,-61.59977,-14.709778,4.865055,11.144028,11.687222,-0.730534,15.983562,20.410309,19.377708,12.889881,25.118866,27.611504,25.445423,25.98547,32.708359,32.529888,29.970818,-13.830394,-28.965559,-42.577102,-49.996074,-61.465457,-77.352101,-74.111756,-69.150095,-60.850438,-79.825993,-75.743287,-67.480264,-56.289298,-75.533675,-71.563239,-64.099845,-49.956963,-66.723906,-67.132586,-63.418229,104.431772,-181.207433,-105.099707,-193.841753
55,0.006065,-0.438412,5.844955,1.08443,25.733871,41.133614,49.498329,57.318535,29.731407,23.830032,18.549957,17.555695,13.98159,10.441818,6.464882,4.188995,-1.522751,-2.60067,-5.739212,-7.737579,-16.340218,-16.874542,-17.239037,-17.985649,-6.456747,-16.995087,-32.110816,-42.501821,-53.203738,-57.2221,-51.600852,-45.289728,-59.363843,-65.205317,-61.23123,-54.931816,-60.226659,-69.472324,-65.660448,-60.057355,-57.070518,-69.822117,-68.512877,-63.659465,-22.141056,-36.353416,-49.57798,-63.599281,-18.056316,1.472454,7.405243,7.001438,-3.711319,13.286133,18.39529,17.626877,10.683002,23.310413,26.402035,24.5014,24.747334,31.3167,31.268864,28.905315,-12.916689,-27.72788,-42.536771,-50.944213,-61.890524,-76.157532,-71.391195,-65.671416,-62.045733,-79.003523,-73.587881,-65.018259,-57.902844,-75.093673,-69.604725,-62.085663,-51.968514,-67.110417,-65.613626,-61.259959,104.506159,-182.045077,-99.18643,-193.156555
56,0.287476,0.113189,0.558414,0.47378,24.446411,39.355431,48.062897,56.217499,28.859253,21.399307,15.751648,15.371933,13.163223,8.223267,3.726654,1.953621,-2.351418,-4.822197,-8.343773,-9.588432,-17.116356,-18.571129,-19.341087,-19.641266,-7.016236,-17.677784,-33.066682,-43.985745,-53.034743,-58.275014,-53.155774,-47.490374,-59.129933,-66.248891,-63.03384,-57.159539,-60.132582,-69.835447,-66.946894,-62.184695,-56.870416,-68.51226,-67.837783,-64.281353,-22.838974,-37.014484,-49.548912,-62.294426,-18.8134,-0.567284,5.13113,4.862537,-3.639622,12.293129,16.91328,16.074314,11.029129,23.021107,26.026897,24.168262,24.769707,31.188583,30.802574,28.071213,-12.89662,-26.707933,-40.817316,-49.324624,-62.671095,-76.06496,-71.271615,-64.647078,-62.579674,-79.963974,-74.790038,-65.438617,-58.107253,-75.80256,-70.172057,-61.506783,-51.404092,-67.342884,-65.709385,-59.925687,104.807968,-182.121494,-98.613682,-192.872379
57,-0.867233,-0.305186,1.139717,-0.403508,24.721642,39.744072,48.342819,56.45153,29.944382,22.714348,17.037048,16.402245,14.311981,8.625984,3.901634,1.892738,-1.283569,-4.468575,-8.014755,-9.284019,-16.304626,-18.43277,-19.366379,-19.922905,-5.99067,-16.869008,-32.310178,-42.891991,-52.488529,-56.896089,-50.897129,-44.564439,-59.211868,-64.559454,-59.692649,-53.129175,-60.327127,-68.614966,-64.217897,-58.635482,-57.214512,-68.994716,-67.190824,-62.533315,-23.09721,-37.637901,-50.272636,-63.245144,-20.459518,-2.174549,3.68494,3.25304,-5.235672,10.747833,15.597267,14.72414,9.632835,21.973114,25.069942,22.989807,23.750839,30.680122,30.676174,27.956715,-12.762189,-26.752116,-40.987639,-49.464419,-63.075645,-76.20958,-70.657345,-63.501275,-63.430278,-80.09852,-74.358711,-64.951275,-59.383357,-76.088966,-69.768379,-60.849636,-53.012729,-68.153714,-65.144655,-58.450532,103.853273,-182.692808,-97.561426,-193.542016
58,0.729218,-0.184881,-0.029182,0.504979,24.4067,39.903717,48.635445,56.237411,28.466606,19.910774,14.385452,14.168816,13.634148,7.005844,2.519417,0.942535,-1.256104,-4.801941,-8.384972,-9.522743,-15.615463,-17.672539,-18.305969,-18.561287,-7.139444,-17.609072,-32.921013,-42.769555,-52.049191,-59.594157,-54.316241,-47.215199,-58.806754,-66.352709,-62.143299,-55.11266,-60.053163,-69.644338,-65.338335,-58.90909,-57.194806,-69.457357,-67.770923,-62.613127,-22.758751,-36.77393,-49.369812,-62.332935,-19.722462,-1.379185,4.800797,4.813271,-4.813213,11.410103,16.527901,16.070423,9.857311,22.516022,25.821247,24.051876,23.821392,31.299133,31.273556,28.676319,-13.197175,-26.963333,-40.911917,-49.157249,-62.771007,-76.800786,-72.431489,-65.94643,-63.150139,-81.044513,-76.116352,-66.942387,-59.174385,-77.053916,-71.389968,-62.655526,-52.862984,-69.11357,-67.176151,-60.982283,104.535513,-183.114301,-97.637587,-193.273649
59,0.727386,0.033886,1.580429,-0.213857,24.382324,39.571266,47.996521,56.032333,28.180046,20.961342,15.304413,14.779472,12.777672,7.422981,2.925682,1.174965,-2.470093,-5.196075,-8.574486,-9.764671,-16.954994,-18.634758,-19.257431,-19.474068,-6.729267,-17.407163,-32.900959,-43.294186,-52.076284,-58.444851,-53.089685,-46.608177,-58.439857,-65.546287,-61.333535,-54.792468,-59.387301,-69.026849,-65.204259,-59.537154,-56.217328,-68.596649,-67.372594,-62.84026,-23.362312,-37.66634,-50.057316,-62.804317,-21.275139,-2.134151,3.957653,3.516312,-6.461964,10.435867,15.473328,14.615479,8.364429,21.483307,24.701958,22.478657,22.651806,30.249596,30.421543,27.650871,-12.630337,-26.278227,-40.223323,-48.574094,-63.14239,-76.504399,-71.173224,-64.273024,-63.761083,-80.58844,-74.876303,-65.699845,-59.948612,-76.968276,-70.50036,-61.562289,-53.72952,-69.295062,-66.349976,-59.650782,105.146713,-183.265404,-96.173344,-193.672495
60,-0.030212,-0.189419,0.094929,0.301651,24.705276,40.239487,48.832054,56.398544,28.500023,22.2789,16.799698,16.045303,12.985497,8.706551,4.272537,2.183876,-2.294655,-4.313736,-7.617188,-9.075623,-16.805305,-18.326111,-18.85952,-19.222069,-6.633507,-17.186761,-32.462068,-43.056339,-52.350919,-57.843849,-52.170206,-45.764465,-58.499932,-65.007893,-60.70602,-54.23683,-59.333362,-68.661078,-64.74259,-59.236599,-56.050818,-68.172192,-66.901685,-62.495778,-23.78952,-38.069229,-50.430508,-63.103752,-20.482178,-1.925983,4.111519,3.570957,-5.41523,10.891399,15.779343,14.855747,9.49728,22.105808,25.533314,23.314934,23.833981,30.992947,31.331234,28.508377,-12.585722,-26.705278,-40.883728,-49.484457,-63.679881,-76.864342,-71.405236,-64.571256,-64.439511,-80.593149,-74.586416,-65.216239,-60.78137,-76.95358,-70.271714,-61.30621,-54.693683,-69.256051,-65.594445,-58.613869,104.953852,-183.515586,-96.241064,-193.431606
61,0.202789,1.336572,1.021442,-0.730214,24.559708,39.423065,47.683411,55.289268,29.031944,19.966278,14.657707,14.858093,13.692284,7.243538,2.896843,1.640968,-1.560745,-4.980469,-8.348007,-9.250145,-16.250381,-18.094254,-18.582344,-18.644829,-7.177158,-17.91699,-33.221644,-43.606489,-54.433235,-59.909007,-53.379511,-46.442963,-60.487933,-66.017373,-60.755073,-53.61407,-61.04195,-69.366191,-64.678516,-58.53063,-57.514642,-69.238012,-67.145592,-62.120745,-24.448128,-39.407387,-52.125435,-65.311604,-22.527809,-4.745064,1.233158,0.805435,-6.855869,8.702431,13.588085,13.003178,8.346462,20.254326,23.24461,21.076469,22.872849,29.674129,29.599228,26.837139,-12.710411,-26.582364,-40.797602,-49.369701,-62.942025,-75.205178,-69.465323,-62.363154,-63.908519,-79.826988,-74.070005,-64.60166,-60.345058,-76.290643,-69.697937,-60.779487,-54.427701,-68.597483,-64.932719,-58.159842,104.934969,-182.677942,-95.441294,-194.660748
62,0.465889,-0.141594,-0.833817,0.882707,24.8489,39.42318,47.259064,54.942513,27.449455,21.464539,16.853828,16.358643,11.260757,7.965546,4.589767,2.897644,-3.977509,-4.680977,-7.266655,-8.617058,-18.208466,-18.275299,-18.147354,-18.378639,-7.743548,-18.579665,-33.634925,-43.9459,-56.239682,-57.924943,-51.044403,-44.548723,-61.175076,-64.377313,-59.022881,-52.209093,-60.674913,-67.405484,-62.808096,-57.199962,-56.071898,-66.552765,-64.496885,-59.976068,-23.216057,-37.840462,-50.610352,-64.376736,-20.522118,-3.487988,2.344723,1.857719,-4.722805,10.732956,15.541019,14.910278,10.483875,22.424812,25.600033,23.412838,25.105476,31.725025,31.818924,29.128132,-13.605993,-27.874846,-42.067669,-50.341421,-63.801907,-76.148192,-69.996701,-62.643184,-64.837794,-80.565732,-74.764296,-65.124038,-61.221875,-76.744261,-70.034261,-60.907797,-55.141273,-69.125379,-65.079215,-57.928316,105.260696,-183.554705,-96.415272,-194.513211
63,-1.547356,-0.660899,0.945911,-0.288853,25.362968,40.250015,48.159256,56.161423,30.516472,22.027245,16.938629,17.01828,14.701195,8.947678,4.927711,3.650894,-0.914841,-3.630524,-6.911316,-8.067284,-15.728874,-16.853142,-17.240295,-17.411957,-6.054674,-16.816999,-32.191617,-42.318792,-53.986502,-57.030156,-49.864106,-43.09958,-59.642392,-63.496065,-57.682534,-50.756199,-59.865334,-66.818145,-61.639199,-55.751977,-56.010526,-66.417647,-63.325711,-58.170038,-23.878841,-38.672619,-51.30764,-64.393501,-21.870975,-4.126453,2.258949,2.105198,-6.148224,9.995098,15.196896,14.61216,9.169693,21.688099,24.915447,22.752056,23.759193,31.103668,31.217766,28.428612,-12.925797,-26.949624,-41.128028,-49.546771,-63.16787,-75.445465,-69.990788,-63.085271,-64.30752,-80.00723,-74.449755,-65.136372,-60.714858,-76.019744,-69.412048,-60.43864,-54.618564,-68.202373,-64.077229,-56.974728,103.479738,-185.231954,-95.702963,-195.818414
64,1.472626,0.153728,0.016651,0.545796,24.526291,39.480515,47.493324,54.574814,28.287392,19.623642,14.403191,14.534569,12.732811,6.233482,2.067947,0.723381,-2.563133,-6.137352,-9.468956,-10.278397,-17.147141,-18.496513,-18.648834,-18.373604,-6.742512,-16.667069,-31.361691,-41.256377,-53.253478,-57.978311,-51.453222,-43.964672,-59.490609,-64.828516,-59.677265,-52.390979,-60.230194,-68.26982,-63.33079,-56.752704,-56.669619,-67.27729,-64.009829,-58.154747,-23.386059,-38.044567,-50.620136,-63.436031,-20.827904,-2.507229,3.558941,3.139515,-5.226631,10.874977,15.849037,14.975967,9.77457,22.175217,25.170765,22.754345,23.930912,31.033459,31.167126,28.386841,-13.372144,-27.162555,-41.027514,-49.17535,-63.735935,-77.274257,-72.154399,-65.188567,-64.555085,-81.129536,-75.505409,-66.132352,-60.830223,-76.523874,-69.749568,-60.68937,-54.600741,-68.498435,-64.192085,-56.876915,104.877892,-186.88895,-95.760784,-197.08334
65,0.107231,0.817251,0.609341,-0.154222,23.943558,38.66478,46.963921,54.834824,28.379517,19.229965,13.481255,13.298721,13.098564,6.429291,1.881065,0.458679,-2.041054,-5.926666,-9.539108,-10.53257,-16.420784,-18.474197,-19.103966,-19.065971,-7.137576,-17.612206,-32.614869,-42.59139,-54.06051,-58.811401,-52.44197,-45.705463,-60.298081,-65.312554,-60.348377,-53.49818,-60.89882,-68.468247,-63.939966,-57.857805,-57.285502,-67.573499,-64.957219,-59.79984,-23.708439,-38.589592,-51.397018,-64.526024,-21.443367,-2.99469,3.504982,3.460178,-6.023712,10.165386,15.24353,14.472656,9.011822,21.157436,24.381752,22.266483,23.329124,30.129662,30.205307,27.498951,-12.61459,-26.590005,-40.937621,-49.292073,-62.828389,-76.13754,-71.816848,-65.722932,-63.785235,-79.956896,-75.037264,-66.366688,-60.352113,-76.00781,-69.814066,-61.227239,-54.526787,-68.43809,-64.915877,-58.335668,104.829369,-186.769632,-95.307198,-197.935496
66,-1.158485,-0.484154,0.134354,-0.00704,25.143127,40.106735,48.082809,55.345001,29.959831,21.515121,16.128044,15.985451,14.66011,8.105278,3.793488,2.328415,-0.617409,-4.436188,-7.839661,-8.748779,-15.325928,-17.173004,-17.419281,-17.288589,-6.492269,-17.02712,-32.432551,-42.309098,-53.239723,-57.801875,-50.71884,-43.141277,-59.824818,-64.370003,-58.676816,-51.389712,-60.830115,-68.010283,-62.898167,-56.321663,-57.873567,-68.470061,-65.015619,-58.915543,-23.431664,-38.20055,-51.039104,-64.503765,-20.910187,-2.847862,3.086128,2.431297,-5.496368,10.553284,15.422745,14.472485,9.380722,21.752243,24.978561,22.572041,23.582268,30.652199,30.855675,28.013706,-13.074754,-26.885419,-40.649972,-48.625069,-63.402081,-76.119131,-70.384015,-63.315538,-64.488526,-79.884794,-73.925818,-64.580904,-61.047021,-75.75038,-68.886012,-59.916672,-55.13181,-67.977231,-63.44641,-56.227887,103.64954,-187.621896,-95.194187,-198.310645
67,1.371918,0.468747,0.295715,0.430987,24.354057,38.805084,46.557426,53.711014,28.595924,21.429176,16.091766,15.426064,13.232002,7.828903,3.317299,1.229668,-2.030296,-5.090332,-8.403511,-9.686165,-16.658249,-18.214188,-18.825073,-19.047089,-6.950379,-17.363691,-32.381731,-42.498532,-54.033587,-56.66481,-50.178385,-43.312665,-60.701435,-63.738127,-58.62774,-51.810309,-61.56415,-67.698883,-63.03956,-56.797728,-58.203283,-67.702403,-64.64876,-58.886768,-23.745461,-38.60836,-51.321545,-64.512634,-22.098026,-3.418236,3.276901,3.082638,-6.833839,9.703674,15.045605,14.177456,8.220921,20.823212,24.1856,21.869831,22.570496,29.814777,30.112839,27.298508,-12.48334,-26.307312,-40.506819,-48.603618,-63.098423,-76.159716,-71.262322,-64.928783,-64.480135,-80.260592,-74.836606,-65.920402,-61.331343,-76.37646,-69.633863,-60.900688,-55.645411,-68.729227,-64.33662,-57.331375,105.049438,-187.653806,-94.870491,-198.380315
68,-1.170616,-0.306328,0.117245,0.19243,24.44355,39.286194,47.201042,53.97274,30.407181,21.895065,16.288261,15.827866,15.295715,8.526878,4.055672,2.465057,-0.212975,-4.432526,-7.766647,-8.595657,-15.154266,-17.475815,-18.055573,-17.901192,-6.644916,-17.068092,-32.326464,-42.533761,-53.570428,-57.21577,-50.478507,-43.439794,-60.516569,-63.468617,-57.763281,-50.983672,-61.597078,-66.504985,-61.289198,-55.164005,-58.53205,-66.942881,-63.507528,-57.722116,-23.852177,-39.013882,-51.828518,-65.121517,-22.316608,-4.247017,2.140045,1.705227,-6.927567,8.943787,14.199314,13.439312,8.22504,20.283508,23.900585,21.77496,22.894478,29.876747,30.260811,27.543297,-12.563955,-26.576374,-41.008572,-49.576743,-62.964232,-75.939491,-70.358296,-63.282185,-64.446381,-80.189394,-74.509429,-65.203804,-61.307932,-76.635441,-69.98222,-60.966429,-55.648738,-69.279763,-65.09723,-57.885986,103.88669,-188.40591,-94.745378,-198.633662
69,0.268822,0.355204,-0.231285,0.945368,24.38427,38.973312,46.552734,53.262177,29.033089,22.34745,16.876602,15.851669,13.799286,8.929482,4.506912,2.158813,-1.480064,-4.05304,-7.438087,-8.878441,-16.160545,-17.245445,-17.888031,-18.338356,-6.575616,-16.968334,-32.438973,-42.754225,-53.669151,-56.821888,-50.638086,-43.729589,-60.752471,-63.373174,-58.308459,-51.671664,-61.892747,-67.18079,-62.339472,-56.06631,-58.84541,-67.856856,-64.655707,-58.685616,-23.515949,-38.686924,-51.604443,-64.890461,-22.207775,-3.406162,3.031712,2.496243,-6.983757,9.53516,14.925041,14.101295,8.014183,20.669003,24.324417,21.984043,22.520885,30.032444,30.526714,27.656078,-12.832785,-27.261032,-41.942532,-50.61283,-63.90774,-76.878823,-71.36076,-64.489398,-65.547275,-80.973933,-75.025516,-65.862302,-62.53837,-77.425052,-70.637608,-61.725449,-57.034093,-70.307506,-66.125722,-59.004711,104.157887,-188.237856,-94.974289,-197.875444
70,-0.884285,-0.734367,-0.220299,0.150656,24.354172,38.801308,46.596909,53.461075,30.321121,24.111671,18.88607,17.719002,15.249252,10.788231,6.444054,3.869362,-0.088005,-2.166367,-5.336952,-6.945648,-15.017281,-16.016693,-16.766739,-17.548714,-6.197179,-16.679033,-32.023609,-41.68037,-53.751387,-55.150775,-48.125477,-41.31155,-60.966467,-61.38576,-55.330114,-48.622244,-62.076099,-65.239249,-59.756923,-53.678105,-59.153282,-66.782237,-62.912694,-56.923807,-23.783512,-38.749924,-51.535378,-64.7295,-22.258644,-3.740387,2.808437,2.583046,-6.956291,9.073792,14.478493,14.014091,8.009605,20.099716,23.725204,21.651535,22.41148,29.50161,29.821301,27.047195,-13.039989,-27.375579,-41.878697,-50.362964,-64.127679,-76.296578,-70.931857,-64.389347,-65.661668,-80.656875,-75.120603,-66.127914,-62.706841,-77.276503,-70.721049,-61.777088,-57.388726,-70.660603,-66.575512,-59.433977,103.293114,-189.04038,-95.175076,-197.792945
71,0.487633,-0.992206,-0.620613,-0.157355,24.194756,38.497581,45.955696,52.591095,29.624748,22.975616,17.966309,17.347412,14.375153,8.90522,4.758568,2.736969,-1.099663,-4.152603,-7.268715,-8.326263,-16.197968,-17.334709,-17.731018,-18.174477,-5.722488,-15.819205,-31.101228,-41.06637,-52.554108,-53.903996,-47.100991,-40.12744,-59.67089,-61.095997,-55.529444,-48.700234,-60.82871,-65.124485,-59.953876,-53.954855,-57.771331,-66.018739,-62.274565,-56.538515,-23.9118,-38.737736,-51.39719,-64.554749,-22.031536,-5.280132,1.447105,1.741104,-6.68438,8.320541,14.029541,14.069939,8.332443,19.807091,23.879471,22.346249,22.759781,29.790916,30.274944,27.650528,-12.212178,-26.662408,-41.353294,-50.148305,-63.354495,-74.422646,-69.222073,-62.837096,-65.282458,-79.59642,-75.130738,-66.456542,-62.368881,-76.321703,-70.732411,-62.124604,-56.979853,-69.408544,-65.950575,-59.107355,103.821745,-190.09554,-95.75469,-198.013255
72,-0.254517,-0.143909,-0.833073,0.591785,24.537506,38.97274,46.432228,52.890244,29.465332,22.077942,17.171631,17.066803,14.164352,8.081017,4.006348,2.619553,-1.232071,-4.487114,-7.626114,-8.330956,-16.041985,-17.586479,-17.858505,-17.776337,-6.057252,-16.181371,-31.233436,-41.198177,-51.92992,-55.198562,-48.633389,-41.466853,-58.869385,-62.152708,-56.647458,-49.741501,-60.070106,-65.671833,-60.573696,-54.388551,-57.131033,-66.165196,-62.702835,-56.906223,-23.286209,-37.968578,-50.47102,-63.388252,-21.883678,-3.785706,3.099518,3.106327,-6.761856,9.708595,15.441799,14.997311,8.071117,20.695152,24.511185,22.263222,22.428017,30.197811,30.857449,27.975197,-12.545878,-26.821137,-41.206837,-49.660932,-63.861219,-74.267684,-68.442775,-61.720471,-65.866278,-79.512084,-74.141265,-65.21319,-62.885786,-76.027902,-69.322224,-60.389935,-57.355882,-69.447894,-65.061824,-57.761212,103.779602,-190.290224,-96.375389,-197.472245
73,1.959915,-0.624173,-1.177425,-0.211835,24.203339,37.89917,44.641914,51.356735,27.881355,20.207748,15.619583,15.335884,12.191162,6.5728,2.454185,0.770073,-3.409309,-6.26461,-9.278984,-10.147247,-18.421783,-20.253181,-20.664825,-20.712662,-6.783869,-16.428759,-30.972648,-41.132304,-53.538286,-54.24908,-47.906572,-41.48334,-59.68916,-60.66741,-55.263585,-48.990955,-60.065181,-64.244295,-59.23091,-53.371761,-56.48585,-64.561376,-62.2804,-57.693132,-23.998318,-37.89156,-50.474453,-63.937511,-21.222038,-3.875313,3.418407,4.579525,-6.149426,8.810978,14.754009,15.304642,8.360023,19.767036,23.974056,22.896023,22.073078,29.039211,29.481125,26.99913,-12.559679,-26.919644,-41.595788,-50.098156,-63.179718,-74.29842,-70.227709,-64.588121,-64.77294,-78.639057,-74.419211,-66.131148,-61.739096,-75.649503,-70.764783,-62.753347,-56.505594,-69.317053,-66.462347,-60.101661,105.972633,-191.563317,-97.319698,-198.332999
74,1.246147,0.555028,-2.324467,-0.540038,23.907051,37.871704,44.761734,51.131859,28.090782,19.542961,14.794121,15.167885,12.440071,5.758781,1.621971,0.663986,-3.135567,-6.949768,-10.012436,-10.511513,-18.032684,-20.381584,-20.685539,-20.443497,-6.65285,-17.043901,-31.874606,-42.093357,-54.307203,-55.527445,-48.868767,-42.131658,-60.774539,-62.399602,-56.647667,-49.974809,-61.238393,-66.249802,-60.788163,-54.715805,-57.339935,-65.853248,-62.723876,-57.512929,-24.009075,-37.850819,-49.854183,-62.525253,-21.109486,-5.016632,1.710033,2.323265,-6.047058,8.066711,13.539104,13.611431,8.416615,19.265099,23.156261,21.83876,22.20314,28.941078,28.84409,26.058884,-11.873771,-26.229707,-40.473458,-49.07604,-62.705899,-73.336804,-68.203299,-61.405019,-64.251049,-78.16625,-72.92205,-64.019794,-61.205418,-76.068086,-71.033228,-62.607963,-55.799054,-70.222707,-68.158947,-61.762021,107.315969,-191.413526,-99.546976,-199.278274
75,1.986465,0.184063,-2.722149,0.201414,23.801422,38.070946,45.284157,51.635056,28.344383,19.753189,15.252228,15.747414,12.723885,5.947151,1.963005,1.055946,-3.078461,-6.70166,-9.630775,-10.303001,-18.118286,-20.255127,-20.686455,-20.769539,-6.396046,-17.131108,-31.34014,-41.033612,-55.427147,-54.965894,-47.8365,-41.150119,-61.785031,-62.180388,-55.870152,-48.869585,-62.003126,-66.221829,-60.550848,-54.530029,-57.761374,-66.133433,-62.636021,-57.216542,-24.665279,-38.721828,-50.467014,-62.879505,-23.696251,-7.953644,-0.762863,0.501995,-8.631592,5.900288,12.19883,13.104229,6.28212,17.543678,22.366562,21.94891,20.733032,27.933941,28.853645,27.042332,-10.942821,-25.363982,-39.665285,-48.758527,-60.909804,-71.521234,-66.587677,-59.980383,-62.98657,-77.358523,-72.556248,-64.213204,-60.583074,-76.358491,-71.747549,-63.634039,-55.679235,-70.696217,-68.890929,-62.521536,109.509916,-191.389814,-102.061644,-199.23721
76,2.38575,1.083287,-5.193615,1.638377,25.287437,39.741783,46.53019,52.77935,30.976639,20.831795,16.044273,16.542549,15.638466,7.027931,2.793388,1.900978,-0.2425,-5.805359,-9.296265,-9.971352,-15.663414,-19.171143,-19.922791,-19.919243,-7.085613,-17.876775,-32.352199,-41.541926,-56.086849,-57.272766,-50.225516,-42.993709,-62.734567,-63.818063,-57.196088,-49.896803,-63.200505,-66.817496,-61.195631,-54.87296,-59.504982,-67.55935,-63.507072,-56.898952,-23.791065,-37.850475,-49.523621,-60.843315,-22.791996,-4.02689,3.567867,4.236202,-8.291531,8.673134,15.168343,15.278893,6.207848,19.312649,24.313717,23.250217,20.452423,28.855534,30.007782,27.953568,-11.697597,-25.705045,-39.795346,-48.847887,-61.393201,-74.616133,-69.511976,-62.433773,-62.941747,-79.376789,-73.546068,-64.872775,-60.276291,-77.703523,-71.808203,-63.244834,-55.143566,-71.563417,-68.577437,-61.360744,112.417946,-190.502259,-106.732979,-197.794566
77,7.245483,3.20392,-4.732475,2.217257,24.355202,37.298126,43.727646,50.360756,28.038139,16.709747,11.143227,11.612091,12.859268,3.517113,-1.112251,-1.641541,-2.558899,-8.468971,-12.36042,-13.154411,-17.113953,-21.598778,-22.957993,-23.050117,-8.91256,-20.023806,-33.706648,-43.323765,-56.660588,-60.586401,-56.906401,-52.012403,-62.13724,-67.647098,-63.032435,-56.594438,-61.873419,-71.53749,-67.907723,-62.757924,-57.129351,-69.121319,-69.187454,-66.298384,-23.940239,-37.872791,-49.603043,-60.417938,-23.234596,-4.581585,4.100647,6.343975,-8.684807,7.665367,14.869366,16.178226,6.148624,18.155708,23.800564,24.083576,20.660934,28.362637,30.17046,29.169159,-11.008601,-24.320832,-37.657146,-46.459003,-60.265098,-75.032432,-73.273981,-68.833277,-61.554501,-79.976718,-77.842376,-71.202841,-58.653737,-78.044339,-75.046464,-67.848381,-53.34067,-71.146085,-70.780306,-64.901759,119.701624,-187.075621,-111.427259,-195.354591
78,2.92511,0.681987,-6.283894,3.290047,24.265709,38.128395,45.830498,52.767792,31.301079,20.652237,14.016609,13.148689,17.3489,7.992325,2.978554,2.20356,2.555695,-4.080391,-8.349953,-9.314919,-11.824837,-16.911278,-18.72551,-19.077301,-6.791743,-17.415947,-31.580905,-40.884562,-52.531106,-60.169308,-56.517204,-51.332639,-59.766325,-66.86983,-61.669889,-54.980143,-60.983495,-70.44047,-65.781417,-59.707176,-57.703043,-69.735427,-68.232878,-63.029232,-23.06488,-37.020378,-49.084511,-60.323811,-22.252235,-4.201126,5.135536,8.528137,-7.696266,7.885151,15.185852,16.563377,7.282734,18.724709,24.484119,25.170994,21.694336,29.056549,31.416149,31.144524,-11.122345,-24.181183,-37.066179,-45.447145,-59.777239,-77.183214,-78.950982,-76.63531,-60.251398,-80.493877,-81.703452,-77.514821,-56.423667,-77.749975,-78.064879,-73.115205,-49.881689,-68.983809,-73.377212,-71.377409,122.414503,-184.634951,-117.923384,-190.305862
79,5.795517,3.94528,-4.840908,5.279537,23.846054,36.875725,44.339676,51.702003,29.707603,19.995689,13.44017,12.04216,15.943451,6.598091,1.041183,-0.49015,1.244888,-5.913963,-10.86319,-12.264519,-13.224335,-17.894096,-19.528656,-19.83593,-5.25303,-16.734269,-31.661474,-41.819864,-50.646499,-62.661107,-62.131937,-58.571424,-56.567005,-70.081824,-67.578107,-61.754951,-57.327971,-72.001606,-69.739032,-64.998414,-54.066839,-69.377036,-70.384509,-67.079403,-24.703217,-38.265095,-49.283409,-59.80608,-22.117882,-3.71212,5.765076,10.002022,-7.30545,8.834839,16.1903,18.287773,7.744331,19.387093,25.449371,27.114315,22.034111,29.333439,32.019882,32.41333,-9.822545,-23.163027,-36.962994,-46.866293,-57.797583,-78.108636,-82.424218,-81.802932,-58.68638,-80.842729,-84.531312,-81.894824,-55.809621,-78.397497,-80.724399,-77.348728,-50.35885,-70.68643,-75.362349,-73.540279,128.347006,-180.223842,-122.627306,-184.560496
80,6.015472,6.033602,-5.801182,6.429005,23.712845,35.051537,41.448555,47.392731,28.373795,15.726929,8.786545,7.175903,15.041428,3.333664,-2.514725,-3.949928,1.059837,-8.06591,-13.467751,-14.71344,-12.843132,-19.293594,-22.199135,-23.21228,-5.41775,-18.267347,-33.500895,-43.987057,-51.680788,-65.618983,-66.348672,-64.639112,-55.868855,-71.514017,-70.277434,-65.984483,-55.27037,-72.246701,-71.223188,-68.219339,-51.02313,-68.22397,-71.489841,-70.936681,-25.064564,-38.857441,-49.609852,-59.969788,-20.658417,-3.660164,5.167637,9.570522,-5.192528,8.842735,15.681324,18.382416,9.698811,19.764004,24.927406,27.072659,23.40786,28.791618,31.143093,32.017021,-9.110501,-23.2739,-37.000214,-46.952173,-56.717923,-78.769582,-86.495099,-88.574837,-56.300691,-80.849807,-88.680353,-89.566742,-52.565656,-76.982857,-83.465747,-83.667486,-46.622858,-68.092195,-75.839556,-78.170348,133.20631,-174.424938,-129.584656,-178.366189
81,5.088158,7.955923,-6.105537,8.216232,23.250504,34.503136,39.004211,45.200844,25.592422,16.39904,9.238586,5.19825,12.328491,3.08567,-3.762817,-6.900787,-0.949287,-7.840805,-13.894958,-17.047234,-13.87928,-18.540001,-21.579552,-23.537521,-4.320769,-17.869226,-33.376144,-44.0152,-48.831191,-65.355864,-69.049712,-68.967476,-52.09416,-70.157345,-72.406001,-70.577757,-50.913137,-68.29753,-71.626742,-72.285202,-46.466135,-64.12487,-70.055271,-72.38056,-25.799904,-39.174843,-49.159184,-59.982204,-20.38868,-5.777092,2.77216,7.834396,-4.05035,8.706951,15.785065,19.597206,11.522427,21.114235,25.456524,27.907562,25.889339,30.934753,32.3386,32.852612,-6.195403,-19.981661,-34.045179,-45.238182,-52.178681,-78.461633,-89.040181,-92.948557,-51.708714,-80.151734,-90.77925,-93.503678,-47.869521,-74.785793,-84.411686,-86.937834,-41.681358,-64.453366,-73.878116,-77.525311,137.624044,-167.690005,-136.360617,-171.370947
82,6.188049,9.472421,-5.950527,9.091451,22.434425,32.154121,36.108398,40.069427,23.358307,13.441315,6.39164,3.69278,9.813652,-0.341263,-6.752243,-8.121643,-3.806076,-11.777573,-17.514267,-19.515839,-16.928444,-23.223724,-26.432762,-27.309952,-5.270367,-18.729564,-34.332874,-45.162353,-46.707579,-64.439612,-64.666498,-61.380079,-49.421525,-68.389245,-69.098232,-65.656681,-47.973833,-67.476265,-68.404343,-66.068448,-43.326852,-62.260594,-66.992003,-67.020779,-27.010231,-39.440918,-48.536797,-59.429684,-18.581829,-7.862034,-0.919418,3.55299,-2.423401,6.993713,12.969532,16.740932,12.361908,20.602798,23.525734,25.190334,25.503101,30.512753,31.533794,31.731262,-5.782231,-17.996756,-31.136734,-41.802513,-49.033841,-75.243572,-85.589506,-89.706938,-49.074642,-77.440512,-88.68446,-93.039145,-45.726118,-71.654777,-82.286005,-87.200644,-40.294135,-61.889705,-71.96305,-77.357736,143.119469,-161.297371,-143.003769,-165.359282
83,4.17366,3.523479,-3.384247,6.792808,18.447075,27.273445,31.768799,33.29155,17.67128,9.597816,3.898659,2.796936,4.134407,-4.667244,-8.34137,-7.12635,-8.786774,-15.349731,-18.660851,-17.719231,-20.353317,-26.822662,-29.134827,-28.142967,-5.458026,-16.488811,-28.401438,-36.727323,-36.281238,-54.190695,-51.538021,-45.14622,-38.706223,-57.384118,-52.439006,-44.614595,-37.073774,-56.294748,-51.219929,-44.132587,-33.05515,-49.958445,-49.881998,-46.24933,-26.313343,-38.870888,-47.210312,-58.490639,-19.885082,-8.722057,-2.604561,1.203804,-3.349743,5.271091,10.927963,15.071983,11.212749,18.609238,21.525879,24.221992,24.008904,28.569489,30.109921,31.488304,-5.941686,-16.166412,-27.382402,-35.464543,-38.398676,-65.971439,-77.122189,-82.860145,-37.514132,-67.938591,-80.832818,-86.205381,-34.58795,-62.020153,-74.278706,-81.114014,-30.548485,-53.470145,-63.939356,-70.465325,147.314243,-162.245981,-146.366901,-163.038563
84,-7.190094,60.625227,-2.359943,1.090342,24.979248,32.976036,34.165421,32.974319,23.391609,11.912384,5.814171,4.486084,8.65036,-1.879578,-6.51123,-6.560326,-6.439705,-14.13311,-17.443199,-17.601242,-20.117683,-27.668037,-30.065918,-29.763107,-23.173139,-45.291133,-63.599219,-74.861537,-74.273843,-94.345305,-89.301192,-81.011878,-77.098415,-97.254537,-92.427183,-83.623983,-74.869071,-95.051699,-91.625014,-83.545498,-69.315131,-87.251125,-89.557039,-86.418528,-25.188332,-37.774315,-46.986408,-57.601204,-20.104809,-9.804382,-4.385948,-0.007496,-4.566994,5.871792,12.536831,17.184563,9.138279,19.034386,23.058128,26.107464,21.017532,29.15102,32.136383,33.66909,-3.016168,-7.423418,-14.536649,-20.466757,-19.607022,-44.61265,-55.290856,-61.73922,-18.027647,-46.536701,-59.90074,-66.006497,-16.323814,-42.233083,-55.207462,-63.564284,-14.624721,-35.328368,-45.013364,-52.226322,140.737467,-101.475394,-148.113527,-161.80286
85,-0.802689,5.708208,7.531986,3.87666,23.0793,29.686546,28.476562,24.150352,13.483086,3.138313,-3.073654,-5.166435,-1.43177,-12.973938,-16.609497,-16.1166,-14.62429,-22.412224,-25.620117,-25.610733,-25.687981,-32.378197,-34.715767,-34.721603,-14.470036,-36.596212,-54.821985,-63.06091,-62.689497,-81.746662,-77.413188,-69.098835,-63.270661,-82.647215,-77.298147,-66.874137,-59.220004,-76.913704,-71.741104,-62.457995,-52.326697,-66.606495,-66.372909,-60.89344,-25.333557,-39.12077,-50.165634,-61.234932,-19.253254,-16.403561,-15.687847,-12.474117,-2.65749,1.530647,0.412159,3.273182,11.604424,15.934982,13.349304,14.639797,23.423653,27.687778,23.676624,21.54768,4.592347,4.458441,0.64523,-3.614236,-8.273675,-11.064362,-10.792598,-12.533975,-12.385404,-20.938592,-23.08482,-21.683456,-14.917695,-23.078228,-25.673768,-26.632644,-16.408273,-21.117761,-22.87402,-23.64397,140.226717,-97.942761,-140.289602,-160.101775
86,-6.1195,40.954031,-1.457576,66.652546,20.553418,23.490658,18.409768,10.838471,6.532288,-8.661747,-12.111053,-11.294174,-8.632164,-25.088081,-25.738449,-22.764072,-22.108841,-34.619922,-34.408493,-31.219196,-33.09019,-42.855377,-42.288837,-39.526405,-24.324646,-50.049458,-69.224111,-76.793616,-76.546622,-98.036151,-90.701352,-80.326094,-73.654819,-96.483869,-87.276582,-74.547143,-66.354322,-87.228254,-78.572923,-67.455247,-55.874297,-73.169499,-69.358272,-61.590741,-22.745333,-33.50853,-41.498108,-52.418776,-14.367228,-1.511851,1.308574,2.073555,1.792087,14.93391,15.324125,15.375852,16.129417,26.939821,26.226825,25.717249,28.26971,35.417118,33.100404,30.937757,-10.006639,-24.950239,-39.175789,-48.431149,-38.100645,-60.163566,-63.11725,-63.375853,-37.777127,-63.965585,-70.631858,-70.847915,-35.648652,-60.57348,-67.77161,-69.624586,-32.653549,-52.412399,-59.643056,-62.482116,136.045017,-58.226532,-139.809379,-94.687032
87,-6.119499,40.954031,-1.457577,66.652545,18.027534,17.294769,8.342972,-2.473412,-0.41851,-20.461807,-21.148453,-17.421913,-15.832558,-37.202225,-34.867401,-29.411545,-29.593391,-46.827621,-43.196869,-36.82766,-40.492401,-53.332558,-49.861908,-44.331207,-34.179254,-63.502703,-83.626236,-90.52632,-90.403746,-114.325639,-103.989515,-91.553353,-84.038976,-110.320523,-97.255015,-82.220149,-73.48864,-97.542803,-85.404741,-72.452499,-59.421897,-79.732502,-72.343633,-62.288042,-20.157108,-27.89629,-32.830582,-43.602619,-9.481201,13.37986,18.304996,16.621227,6.241665,28.337173,30.236092,27.478523,20.654411,37.94466,39.104347,36.794701,33.115768,43.146458,42.524185,40.327835,-24.605625,-54.358919,-78.996808,-93.248062,-67.927614,-109.262769,-115.441901,-114.21773,-63.16885,-106.992577,-118.178896,-120.012373,-56.379608,-98.068732,-109.869451,-112.616527,-48.898824,-83.707037,-96.412091,-101.320261,133.722525,-13.649898,-137.46995,-24.411883
88,-8.978004,30.243514,6.37516,3.133741,12.905674,8.088741,-4.647789,-16.443901,-12.620316,-39.792595,-45.037937,-43.251114,-26.761437,-55.669041,-55.805626,-50.42244,-38.002968,-62.642384,-61.526699,-55.33865,-46.50507,-66.133003,-65.773144,-60.90025,-33.237468,-61.38877,-79.79047,-88.214014,-77.208423,-102.545667,-99.678472,-92.215055,-66.960587,-93.930242,-88.697628,-79.028331,-54.047032,-79.142076,-74.87415,-67.157602,-39.124675,-59.917181,-59.128041,-54.545435,-19.873123,-25.815639,-31.902981,-38.470001,9.104118,20.572987,17.987938,13.704815,25.265293,34.031868,29.093914,25.263977,35.829105,41.541939,36.024284,32.280407,42.071686,43.290653,37.265797,33.064957,-18.43821,-41.671895,-60.974117,-73.585589,-65.87395,-82.652031,-79.589766,-75.540143,-62.560053,-80.485641,-77.685198,-70.419182,-54.265305,-71.196527,-68.660005,-61.044358,-43.311121,-57.652222,-57.411241,-51.932096,128.038988,17.459759,-127.800322,-20.412
89,-8.978005,30.243515,3.336411,45.223933,7.783813,-1.117287,-17.63855,-30.414391,-24.822121,-59.123383,-68.927422,-69.080315,-37.690315,-74.135857,-76.743851,-71.433334,-46.412544,-78.457146,-79.856529,-73.84964,-52.517738,-78.933449,-81.68438,-77.469292,-32.295682,-59.274838,-75.954705,-85.901708,-64.013101,-90.765696,-95.367429,-92.876757,-49.882199,-77.539961,-80.14024,-75.836515,-34.605425,-60.741349,-64.343559,-61.862705,-18.827454,-40.10186,-45.91245,-46.802829,-15.708332,-18.178711,-20.090161,-23.288212,16.460695,33.224973,29.573021,24.12652,32.483997,45.963535,40.181493,35.754289,42.949619,53.277826,47.018451,42.309408,48.989553,54.874477,48.547668,43.5991,-25.989282,-51.757497,-72.33539,-85.385876,-72.796063,-91.593429,-89.008418,-84.215659,-65.837548,-85.679005,-84.970558,-79.552083,-54.675451,-74.62,-73.342369,-66.303825,-41.654558,-59.334566,-61.275103,-57.342034,121.328802,44.719973,-122.196092,21.828631
90,-10.102043,36.503679,3.33641,45.223933,0.253716,-14.513569,-34.646702,-49.681549,-36.399078,-77.112636,-81.935291,-76.953564,-47.758655,-90.711651,-90.650253,-83.359966,-55.102672,-93.554907,-91.747627,-83.307495,-59.058895,-90.308103,-90.931949,-84.446411,-36.258437,-62.313051,-75.790356,-80.91263,-57.453355,-79.732811,-83.743964,-80.195507,-39.983855,-63.806068,-68.584562,-64.891223,-23.350687,-47.122125,-53.098284,-50.790316,-8.046218,-26.923072,-34.407515,-35.567851,-11.543541,-10.541782,-8.27734,-8.106422,23.817272,45.876961,41.158104,34.548225,39.702702,57.895203,51.269073,46.244602,50.070133,65.013714,58.012619,52.338409,55.907421,66.458302,59.82954,54.133244,-33.540354,-61.843099,-83.696663,-97.186164,-79.718176,-100.534827,-98.427069,-92.891176,-69.115044,-90.872369,-92.255918,-88.684985,-55.085597,-78.043474,-78.024733,-71.563293,-39.997996,-61.01691,-65.138966,-62.751973,111.340027,72.316355,-118.746414,58.145269
91,-10.102043,36.503679,3.47188,34.359674,-7.276382,-27.909851,-51.654854,-68.948708,-47.976036,-95.101891,-94.943161,-84.826813,-57.826996,-107.287445,-104.556656,-95.286598,-63.792801,-108.652668,-103.638725,-92.76535,-65.600052,-101.682758,-100.17952,-91.423531,-40.221193,-65.351264,-75.626007,-75.923552,-50.893609,-68.699927,-72.120498,-67.514257,-30.085511,-50.072174,-57.028883,-53.945932,-12.095949,-33.502902,-41.853009,-39.717927,2.735018,-13.744283,-22.902579,-24.332873,-6.328812,-0.990629,7.293148,12.505589,27.529821,59.697933,55.149021,47.068663,40.118866,70.082359,64.059763,58.059225,49.146681,75.740604,69.324389,63.314524,55.070429,74.682942,70.155974,65.197592,-33.300855,-61.001765,-80.391611,-88.616334,-65.649534,-87.484232,-87.028468,-82.723878,-51.306349,-76.010249,-78.422421,-75.099909,-36.176402,-61.847144,-63.881172,-58.12716,-21.969299,-45.415437,-50.990573,-48.648225,101.428928,106.446503,-115.08359,90.131411
92,-5.340042,24.033013,3.47188,34.359674,-5.286255,-27.483902,-50.724335,-67.849045,-47.129517,-78.804474,-76.277733,-66.830978,-57.081985,-101.079311,-115.817528,-119.07011,-61.508904,-103.680897,-112.878914,-112.247143,-60.709534,-91.282997,-101.712513,-104.398327,-37.677446,-63.107254,-74.033866,-68.00082,-53.458937,-65.163357,-68.306453,-67.26707,-31.492988,-43.942983,-54.281298,-58.474429,-12.404114,-25.011047,-33.298107,-37.274525,1.417975,-7.196578,-11.72276,-15.12953,-1.114082,8.560524,22.863636,33.117599,31.242371,73.518906,69.139938,59.5891,40.53503,82.269516,76.850452,69.873848,48.223228,86.467495,80.636158,74.290638,54.233437,82.907581,80.482407,76.26194,-33.061356,-60.160432,-77.086559,-80.046503,-51.580891,-74.433638,-75.629867,-72.55658,-33.497653,-61.148129,-64.588924,-61.514834,-17.267206,-45.650814,-49.73761,-44.691027,-3.940603,-29.813963,-36.842179,-34.544477,95.319872,128.158133,-112.380724,122.169701
93,-7.232323,34.543242,6.340427,28.875913,-23.907967,-57.641373,-85.113144,-100.857124,-71.385269,-118.505001,-143.778133,-160.988045,-72.558861,-122.301407,-146.759892,-164.663486,-69.350052,-112.928753,-115.262432,-109.285412,-63.574562,-101.307392,-103.193779,-95.698242,-34.974878,-49.107231,-43.728554,-31.114736,-33.861456,-37.866773,-46.791467,-54.022533,-10.440266,-17.340627,-30.377806,-38.201645,9.741313,-0.226068,-13.170313,-19.199068,26.514454,17.588864,6.095013,0.446147,5.35738,21.941586,42.126045,55.050774,32.18771,74.425964,83.463707,79.924564,40.924072,83.494434,90.173321,86.748676,47.119732,87.758503,89.622231,83.252792,50.727253,82.165489,86.013851,82.318211,-32.62759,-54.189352,-62.482772,-61.052509,-36.769962,-51.208196,-58.454082,-59.368081,-18.466831,-37.598344,-48.706965,-51.809398,-3.292038,-24.734066,-35.309904,-36.554268,9.627507,-8.062504,-18.665359,-21.048739,86.336145,161.457583,-107.7917,149.801822
94,-6.703777,27.052238,-6.522903,34.525273,-31.552849,-69.48266,-98.149252,-113.582869,-76.563549,-124.879074,-134.536142,-136.116142,-72.754841,-123.082523,-132.076922,-134.273586,-66.780167,-112.007074,-108.618708,-97.352486,-58.98119,-96.968308,-96.757965,-87.776156,-30.581768,-41.222522,-35.825952,-24.518464,-27.021085,-25.666311,-33.325138,-39.828923,-3.874992,-3.853503,-15.277607,-22.915145,17.238832,14.26487,2.635045,-4.09047,35.308608,34.140568,23.335512,16.748379,38.168736,74.480782,95.470104,96.775703,63.160172,108.35495,110.902348,103.659611,49.979496,99.210663,105.497131,99.952869,37.767334,84.255981,87.27459,78.293896,26.571465,63.169613,68.934631,63.924522,13.7336,10.38222,-8.350199,-26.979743,-0.851291,-26.115546,-21.967709,-13.900018,-19.736605,-42.16806,-36.133933,-29.948765,-36.076443,-51.007755,-40.042919,-31.632328,-47.834524,-55.956556,-46.322442,-40.427624,79.342661,187.407406,-114.604311,183.22468
95,-6.703777,27.052238,-3.808193,2.856759,-39.197731,-81.323948,-111.18536,-126.308613,-81.741829,-131.253147,-125.294151,-111.24424,-72.950821,-123.86364,-117.393951,-103.883686,-64.210281,-111.085396,-101.974983,-85.419559,-54.387817,-92.629223,-90.322151,-79.854069,-26.188658,-33.337812,-27.923351,-17.922193,-20.180714,-13.465851,-19.858809,-25.635313,2.69028,9.63362,-0.177409,-7.628646,24.736351,28.755808,18.440402,11.018126,44.102762,50.692272,40.57601,33.050611,29.998226,58.543625,78.604374,92.334824,65.103436,102.570934,120.7691,131.311626,57.658195,98.466339,119.345455,132.634106,50.090961,89.320793,111.130886,124.64716,41.752224,71.196499,86.503315,96.258316,-18.151163,-24.824345,-28.859734,-29.50694,-10.149174,-7.413137,-4.735269,-2.442908,-2.861205,-1.065009,0.310666,1.729567,4.392245,6.86856,7.144461,7.413446,11.751165,9.354138,7.823715,5.745135,72.322712,213.235936,-118.728676,184.857731
96,-0.15255,21.863228,20.285024,29.067215,-31.520634,-69.424925,-97.984886,-113.473063,-77.767782,-125.231152,-123.90481,-114.974814,-75.431299,-125.701275,-125.604286,-117.717247,-71.666165,-118.468895,-114.674635,-102.962523,-66.165018,-103.138247,-105.355368,-99.968233,-2.972326,0.442688,8.766026,18.10025,-1.347363,4.948739,-0.143014,-5.590574,8.122772,14.326589,8.743765,2.896187,17.522698,21.922507,16.402391,10.408896,24.830056,27.780985,21.451599,15.649962,21.571684,43.087836,59.866305,72.686177,52.77895,90.796252,100.830145,102.185784,52.061949,92.439022,100.524073,99.865122,50.120259,87.125817,96.717768,97.080603,45.923052,71.756087,80.067988,81.320715,-10.066089,-14.121948,-15.592318,-13.548194,3.946901,7.305167,10.679086,13.286497,9.002655,14.199106,17.089612,19.041388,12.993213,20.890319,24.790753,25.768972,16.826586,23.004468,27.232951,27.405142,71.825209,234.484052,-98.788605,213.309835
97,-0.15255,21.863227,20.285025,29.067216,-23.843536,-57.525902,-84.784412,-100.637512,-73.793736,-119.209156,-122.515469,-118.705387,-77.911777,-127.53891,-133.814621,-131.550808,-79.122047,-125.852394,-127.374287,-120.505486,-77.942219,-113.64727,-120.388584,-120.082397,20.244008,34.22319,45.455405,54.122692,17.485988,23.36333,19.572781,14.454166,13.555265,19.019559,17.66494,13.42102,10.309046,15.089207,14.364381,9.799667,5.557352,4.869699,2.327188,-1.750686,13.145142,27.632046,41.128235,53.037529,40.454464,79.021568,80.89119,73.05994,46.465702,86.411705,81.70269,67.096138,50.149555,84.93084,82.304649,69.514046,50.09388,72.315674,73.63266,66.383114,-1.981015,-3.419553,-2.324903,2.410551,18.042976,22.02347,26.093439,29.015901,20.866514,29.463221,33.868557,36.353209,21.594181,34.912077,42.437044,44.124498,21.902007,36.654798,46.642186,49.065148,71.576529,256.074281,-78.59971,242.104053
98,9.127121,13.181181,-13.711939,12.547437,-35.73452,-70.452576,-94.644527,-105.571232,-79.712906,-124.671535,-126.544361,-117.343483,-74.916916,-120.935783,-124.12199,-113.585701,-68.24913,-109.555435,-111.941357,-103.106232,-60.330391,-91.241913,-98.009834,-96.809921,-16.815625,-14.941994,0.42157,16.664707,2.70084,7.950674,-0.803682,-7.161442,24.127491,29.810814,20.209119,11.457357,41.375184,48.583001,40.012106,32.008635,54.187654,62.480919,57.280917,51.596853,21.636257,42.286549,59.688492,72.310324,53.489599,97.210665,103.460112,97.642822,54.512673,99.447699,101.267996,90.89324,54.343415,93.627577,97.330713,89.337187,52.132559,80.287142,87.667008,84.551611,-11.457326,-10.865417,-4.791647,3.272741,18.959445,30.99284,33.325678,34.112471,30.151244,45.984173,47.852339,46.910738,36.246535,53.311786,58.778364,59.299754,39.502171,55.19363,62.149721,62.919965,80.523577,268.789293,-92.491722,254.185321
99,6.227188,3.254247,-13.711939,12.547437,-36.69754,-65.732574,-87.214508,-99.619102,-73.982849,-114.107094,-134.476719,-147.624435,-68.730812,-109.771614,-133.402748,-150.47905,-60.122566,-95.700417,-117.230301,-135.174122,-49.516296,-73.267365,-89.106674,-104.764137,-14.013577,-12.176811,1.415999,13.527231,12.491738,18.635225,14.338878,9.556185,32.714504,40.488016,36.227052,31.439111,47.715284,60.677807,63.32301,63.494367,56.621423,73.124653,81.074277,86.57593,30.127373,56.941051,78.248749,91.583118,66.524734,115.399761,126.029034,122.225704,62.559643,112.483692,120.833302,114.690342,58.537273,102.324314,112.356777,109.160328,54.171238,88.25861,101.701355,102.720108,-20.933637,-18.311282,-7.25839,4.134931,19.875914,39.962211,40.557918,39.209042,39.435974,62.505126,61.836122,57.468268,50.898889,71.711494,75.119685,74.475011,57.102335,73.732462,77.657256,76.774781,86.929808,271.891417,-106.024618,266.580635
100,-1.675758,1.351717,-6.368122,6.575369,-36.12236,-64.540787,-83.13961,-91.474686,-68.53054,-101.827183,-121.070366,-137.051067,-64.611969,-97.951756,-119.390373,-138.79446,-58.148804,-86.721153,-106.526871,-125.421009,-49.451637,-67.757263,-81.50322,-96.554661,-7.031766,-0.096825,14.608171,26.939914,30.978144,35.078495,28.153618,22.335495,45.822634,54.004996,49.315979,43.632347,56.412398,71.940094,75.776524,76.51228,62.131721,78.913383,87.910233,94.366362,33.616276,66.153488,93.318386,110.382557,72.897491,115.512085,132.172394,137.757912,64.292393,109.882908,126.618118,131.178474,55.894833,96.350212,112.614784,118.826752,47.500134,79.050808,94.547768,102.230473,-17.036692,-13.020754,-0.764841,12.228619,22.981095,40.811465,38.872502,35.406328,42.794209,60.472734,56.735908,50.695236,53.245219,70.527492,69.950805,66.160935,58.003026,71.296593,70.135315,65.670205,85.338879,273.121686,-112.307911,273.034556
101,-3.300133,7.958578,3.121662,4.046196,-34.384003,-64.626732,-83.274879,-91.55159,-62.394562,-98.276939,-119.083099,-134.754868,-58.429642,-95.9198,-119.596825,-138.249264,-53.184013,-85.817928,-108.167953,-127.282963,-46.553879,-68.456612,-83.566189,-98.754616,-9.859935,-3.765231,8.7404,14.00098,32.953231,34.975619,28.364249,22.384092,47.872316,53.590713,48.858531,44.08541,56.707935,69.519602,72.333074,72.430393,60.371278,78.291371,87.580177,94.631951,36.528568,67.849846,92.828979,110.350628,72.310925,108.840694,126.67345,138.424129,62.054501,102.986698,121.763706,133.358059,52.0578,87.844677,105.828953,117.563839,42.487507,69.285851,84.464436,94.501419,-12.047567,-6.424266,6.94087,17.287954,28.539003,45.119791,50.28546,54.324987,46.329729,64.778467,68.815771,70.237389,56.264752,73.441247,77.606065,78.522565,61.159522,73.560611,74.107596,72.570751,82.075882,281.004806,-109.149113,277.005293
102,-3.724594,1.744449,6.849918,5.831338,-35.397949,-62.219925,-77.880592,-86.405983,-55.199776,-84.009705,-106.380672,-124.24015,-49.563789,-85.05209,-109.857845,-128.530941,-45.48317,-78.235588,-101.983223,-120.891609,-41.879539,-65.740242,-82.673092,-97.781067,-9.785279,-0.552049,12.230472,17.447826,40.066693,54.667948,54.830105,53.303388,51.368994,63.241437,59.333377,53.287765,56.367567,68.109161,67.811091,62.903848,56.743318,72.664921,78.529234,80.368223,34.419479,64.602413,89.764423,109.901505,69.221306,105.278893,122.986336,134.686661,57.935715,98.951397,119.578743,133.065834,46.894855,82.009735,100.855923,113.364143,37.481403,63.170929,77.746925,87.728062,-11.091671,-5.777677,6.556782,13.638752,26.680562,45.141095,53.10097,58.943485,44.903294,65.284203,72.524315,75.960479,55.770934,74.561338,79.973453,81.187342,61.609065,76.874632,79.337917,78.907826,78.347626,282.641809,-102.302856,282.729186
103,-2.132721,-0.291462,7.038174,2.214432,-38.24707,-64.275627,-78.902092,-89.608612,-58.272057,-80.944004,-98.990765,-112.787762,-50.917168,-79.835587,-99.526749,-114.06435,-44.88018,-72.813492,-89.636478,-100.048313,-39.865837,-61.150932,-74.353981,-82.743874,-0.687529,11.098278,22.02878,27.130723,45.850113,62.963746,69.28106,70.559602,50.500907,65.108152,67.69179,64.084331,49.067495,59.898702,59.623666,53.261583,44.071269,52.752018,53.91731,51.184546,32.642956,62.223244,86.066666,104.199085,67.637501,103.175182,119.980145,131.629887,56.610203,95.677471,115.650043,129.008045,45.096016,78.78994,96.849461,108.649921,35.132561,58.627167,71.828098,80.703449,-10.83695,-6.692077,4.92052,11.957165,25.730409,45.110961,53.299992,58.519136,43.360398,63.912232,72.459415,76.815722,54.263236,73.803228,80.37131,82.009734,59.956007,77.030366,81.354007,81.211734,76.284399,282.221196,-95.195189,284.814466
104,-4.538612,-2.546587,5.830021,1.895305,-31.289864,-55.723915,-68.086967,-75.970573,-68.826599,-78.557453,-70.566559,-59.864616,-64.471664,-71.809387,-59.606438,-46.945267,-59.429626,-66.558495,-54.429932,-40.34832,-54.31469,-58.46077,-53.43338,-45.791588,16.410481,32.394081,44.354271,54.36037,41.538452,59.496707,69.45921,74.309149,40.090035,61.942147,72.169683,75.481048,37.177144,58.206865,65.200778,64.489907,32.268419,48.24325,56.279881,59.406058,33.575993,62.783833,86.224136,104.765053,66.406231,100.861931,116.740379,126.976204,55.52021,93.624344,113.110085,126.585159,44.410858,76.61602,94.270248,106.636505,34.214172,56.875648,70.18816,80.375633,-10.831763,-7.147425,4.574718,12.840195,23.78453,43.721144,52.229301,57.890147,40.755272,61.745966,70.758068,75.536191,51.229933,71.999313,80.426145,83.478159,56.609134,74.075609,79.337979,79.503717,71.890612,279.63779,-89.220343,286.672953
105,-3.532448,0.645477,5.983658,1.163316,-24.212494,-43.894272,-54.904518,-62.683182,-62.268906,-72.043247,-60.830841,-47.922707,-60.673141,-67.164001,-51.708069,-34.689217,-57.741966,-61.205063,-46.192017,-29.852142,-54.29615,-56.11805,-49.390068,-40.356445,20.885657,38.248823,52.288149,62.991287,40.889641,61.466422,72.341534,76.838508,37.990027,61.823895,74.790246,79.860388,34.254065,57.235654,68.237602,71.874516,29.023126,47.536146,57.06652,62.349082,31.718616,60.59166,83.614998,100.926132,65.124722,97.823639,112.475739,121.677246,54.053192,90.266304,108.261108,120.648766,43.027954,73.940048,90.980186,102.678108,32.848206,55.33493,68.998032,79.94957,-11.439511,-8.146238,2.885164,11.172317,24.380236,43.381023,51.344788,56.428206,40.751505,60.389186,68.542463,72.751433,50.632189,69.850152,77.809965,80.71279,55.712333,72.225814,77.974715,79.071094,68.454351,280.266271,-83.140497,287.819272
106,-1.398468,0.801706,2.051926,-0.798062,-24.009247,-43.603249,-54.023209,-60.891495,-59.64489,-69.424381,-60.518188,-49.722977,-57.427025,-64.872665,-51.019363,-36.167336,-54.110641,-58.575096,-44.477692,-29.687462,-50.444641,-51.409721,-44.849854,-36.967163,16.881266,32.590077,45.12047,54.58829,38.455254,57.664325,68.509303,73.509666,36.983742,59.718762,72.169683,77.328188,34.436538,56.359663,66.682109,69.955498,30.437396,48.186255,57.092084,61.830811,31.17485,59.819355,82.363472,99.712143,61.928329,94.177666,108.947296,118.458023,50.586834,86.776199,104.594307,117.267952,39.502316,70.446682,87.527161,99.614182,29.204636,50.798035,64.413414,74.749031,-11.254198,-7.803153,3.492665,11.82082,24.482927,43.193116,50.938779,56.146068,41.369133,60.301253,67.762803,71.139439,51.543748,70.51156,77.865294,79.536815,56.607776,72.806206,78.222458,78.361026,67.184916,281.036113,-80.959539,286.989347
107,0.894012,1.823737,1.153736,-0.000926,-23.627586,-43.421516,-54.390221,-61.364594,-56.773224,-65.551987,-57.73098,-48.477745,-53.95649,-60.934639,-48.440666,-35.561714,-50.313034,-55.291557,-42.490654,-29.26712,-46.324425,-47.813644,-42.314301,-35.576248,12.495752,24.929568,34.695766,43.18336,36.391309,54.536729,63.570135,67.234404,36.312268,57.838462,68.680846,72.906859,34.45531,54.917852,63.518265,65.41851,31.128568,47.59271,55.329048,58.90273,30.212402,58.075047,80.165119,98.16885,59.75172,92.504025,108.305569,118.664303,48.243771,84.97839,103.646564,116.867352,37.132416,68.853378,86.252689,98.697796,27.047825,49.329643,63.44902,74.737816,-11.307488,-7.578937,3.854461,12.288023,23.745874,42.51769,49.656347,53.861056,40.690557,59.481578,66.563857,69.358618,50.900988,69.853857,76.709758,77.980582,56.079686,73.303729,78.649894,78.725106,68.173628,282.863385,-79.711103,286.991956
108,-0.906143,3.20534,0.76498,0.28504,-25.391922,-45.814247,-58.88752,-66.874352,-50.891647,-59.81987,-56.372795,-50.739555,-46.432571,-54.275436,-47.147713,-38.520927,-41.453362,-48.081093,-40.497894,-31.530991,-36.120987,-39.260445,-37.175102,-33.229523,0.328018,7.221896,12.700331,16.00404,32.227972,46.761117,52.885523,55.416734,36.965279,54.091447,60.664593,63.07502,39.300062,55.80465,59.726851,59.959094,39.899102,52.958327,57.890702,59.836952,29.810028,57.009315,78.844528,97.012825,58.13324,90.574837,106.572876,117.356987,46.929474,83.988876,102.821159,115.68306,36.21912,69.436569,87.247925,99.356461,26.533642,50.798378,65.516682,77.118359,-10.953967,-7.379915,3.836738,12.121668,21.464196,40.402245,47.847183,52.28642,38.760301,57.626658,64.920431,68.058649,49.518582,68.751612,75.037557,75.993206,55.293727,72.003697,76.698087,76.661037,67.337437,286.082171,-78.876171,287.290442
