takenoko1/special-research/HandMotion_SimilarSearch_自分用/NewProject/handData/key/d4_feature_d2/55.csv
,vel_0x_L,vel_0y_L,vel_0x_R,vel_0y_R,posFromWrist_1x_L,posFromWrist_2x_L,posFromWrist_3x_L,posFromWrist_4x_L,posFromWrist_5x_L,posFromWrist_6x_L,posFromWrist_7x_L,posFromWrist_8x_L,posFromWrist_9x_L,posFromWrist_10x_L,posFromWrist_11x_L,posFromWrist_12x_L,posFromWrist_13x_L,posFromWrist_14x_L,posFromWrist_15x_L,posFromWrist_16x_L,posFromWrist_17x_L,posFromWrist_18x_L,posFromWrist_19x_L,posFromWrist_20x_L,posFromWrist_1y_L,posFromWrist_2y_L,posFromWrist_3y_L,posFromWrist_4y_L,posFromWrist_5y_L,posFromWrist_6y_L,posFromWrist_7y_L,posFromWrist_8y_L,posFromWrist_9y_L,posFromWrist_10y_L,posFromWrist_11y_L,posFromWrist_12y_L,posFromWrist_13y_L,posFromWrist_14y_L,posFromWrist_15y_L,posFromWrist_16y_L,posFromWrist_17y_L,posFromWrist_18y_L,posFromWrist_19y_L,posFromWrist_20y_L,posFromWrist_1x_R,posFromWrist_2x_R,posFromWrist_3x_R,posFromWrist_4x_R,posFromWrist_5x_R,posFromWrist_6x_R,posFromWrist_7x_R,posFromWrist_8x_R,posFromWrist_9x_R,posFromWrist_10x_R,posFromWrist_11x_R,posFromWrist_12x_R,posFromWrist_13x_R,posFromWrist_14x_R,posFromWrist_15x_R,posFromWrist_16x_R,posFromWrist_17x_R,posFromWrist_18x_R,posFromWrist_19x_R,posFromWrist_20x_R,posFromWrist_1y_R,posFromWrist_2y_R,posFromWrist_3y_R,posFromWrist_4y_R,posFromWrist_5y_R,posFromWrist_6y_R,posFromWrist_7y_R,posFromWrist_8y_R,posFromWrist_9y_R,posFromWrist_10y_R,posFromWrist_11y_R,posFromWrist_12y_R,posFromWrist_13y_R,posFromWrist_14y_R,posFromWrist_15y_R,posFromWrist_16y_R,posFromWrist_17y_R,posFromWrist_18y_R,posFromWrist_19y_R,posFromWrist_20y_R,posFromBody_0x_L,posFromBody_0y_L,posFromBody_0x_R,posFromBody_0y_R
2,9.499111,-10.787426,1.241341,0.498696,2.450008,4.993858,3.938484,-1.333981,-17.887859,3.227692,26.002636,39.818974,-28.278408,-1.059208,24.429417,45.823002,-34.95369,-13.501396,10.223522,29.12138,-38.685093,-43.911209,-42.437725,-38.084393,-14.668131,-5.62855,16.620741,35.487715,4.848704,25.612342,33.867075,36.645411,24.215177,42.892639,50.061553,49.57533,39.106721,55.217033,59.646328,60.003061,51.111804,63.756806,71.772874,77.790143,26.717777,51.386776,72.685604,90.60854,50.481148,82.672634,99.313831,110.626087,40.980263,77.501965,97.462063,110.731144,31.734638,65.657272,84.213581,96.644039,23.35968,48.349171,63.638821,76.670895,-12.768812,-11.07895,-0.416568,7.929864,16.190217,32.83819,39.741886,44.280541,33.58432,49.085958,55.016283,57.771277,45.359259,61.444562,66.059232,66.366873,52.318592,68.113298,72.423415,72.391181,-7.303705,292.724524,-71.035166,289.97589
3,-20.970726,3.354344,0.748901,0.65122,7.815971,19.700317,34.993,43.53693,-0.919132,31.029453,54.213924,69.822636,-10.045109,24.71323,53.568134,72.350063,-14.323597,11.961594,38.698025,56.282787,-14.41721,-6.380081,6.984787,19.237919,-11.772531,-7.717628,6.086429,18.762554,12.280675,29.46742,39.390094,45.699566,27.05514,42.108409,50.262674,52.118953,38.181144,50.810153,56.716086,57.396884,46.908947,62.024707,66.873967,69.001022,25.857182,50.279446,71.16251,89.027653,49.789181,81.901417,98.430119,109.760571,40.271473,76.76897,96.738338,110.204258,30.898075,64.869633,83.700085,96.497326,22.323475,47.476387,62.759171,76.097088,-13.767995,-12.071465,-0.998257,7.508109,15.090627,32.109967,39.104745,43.707189,32.427364,48.0806,54.175551,57.157663,44.145184,60.21999,65.073696,65.718617,51.073642,67.045695,71.628378,72.030065,-28.355112,296.096498,-70.366945,290.64474
4,16.303711,-1.464288,0.665359,0.62158,4.636974,9.241219,10.41069,7.791023,-12.349205,10.827942,31.736698,43.543453,-22.044468,6.672249,29.352207,48.152332,-28.529892,-5.478516,16.056919,31.844158,-32.282181,-37.603054,-38.608246,-37.493305,-18.726553,-12.339338,6.232222,23.151279,6.463971,25.004718,31.315054,33.382087,25.999085,42.637548,47.863609,46.709741,40.24367,54.421564,57.116352,56.841872,51.378998,62.114122,70.495444,77.419332,25.482273,49.671135,70.36417,88.46632,49.095039,81.32864,97.889271,109.138012,39.592953,76.132908,95.987034,109.404659,30.183048,64.345207,83.174801,95.943432,21.558552,46.968956,62.20047,75.35368,-14.34814,-12.56979,-1.559198,6.543012,14.133187,31.343089,38.193865,42.553753,31.459365,47.039611,53.179393,56.184168,43.251224,59.256375,63.998374,64.645271,50.196725,66.06374,70.558923,70.899724,-12.114029,294.545359,-69.764214,291.179467
5,-9.211349,-12.120062,0.652313,0.021921,-9.049587,-7.786217,-5.544491,-11.348705,-16.907501,12.110195,34.62862,51.747379,-17.337341,17.60788,42.237797,59.528561,-14.212418,17.717514,41.867008,57.604923,-9.027729,10.639915,27.363567,41.05505,21.05195,44.043852,65.652976,82.02017,43.987041,62.536556,68.610512,71.60831,40.33821,57.215709,65.30032,67.095157,33.960565,50.107372,55.900116,57.364774,27.057734,44.49321,49.458745,50.656518,25.409946,49.361744,70.191364,88.2934,48.921947,80.525723,96.976719,108.298588,39.517879,75.407352,95.092678,108.557796,30.037479,63.789825,82.313404,94.897556,21.07172,46.37907,61.360703,74.442387,-13.885136,-12.360271,-1.394201,6.536775,14.094902,31.170682,37.957855,42.589568,31.098742,46.334298,52.653033,56.28513,42.813043,58.411011,63.328444,64.47132,49.917613,65.622904,70.163659,70.744359,-21.394215,282.38942,-69.180737,291.165512
6,10.760078,7.752641,1.198254,0.721492,1.498833,1.22509,-1.778812,-8.492088,-14.982433,6.226959,28.044605,41.034107,-23.499584,4.114437,27.147045,46.380901,-29.740734,-6.143017,15.931377,32.884998,-33.755894,-37.141685,-35.938911,-33.082523,-6.864979,6.423154,29.307672,46.343128,15.393575,34.958884,41.832693,44.723539,29.066475,46.77711,53.122521,53.03076,38.826992,54.857708,58.883155,60.037888,47.196766,60.178988,70.241711,78.836566,24.528809,48.221912,68.934174,87.035294,47.8022,79.471207,95.924149,107.159615,38.610077,74.63459,94.372787,107.532005,29.302197,63.307285,81.851807,94.293365,20.515995,46.05835,61.118374,74.195251,-14.374261,-12.99877,-1.989043,5.981392,13.338768,30.367062,37.074268,41.568216,30.536381,45.492764,51.562273,54.933722,42.435439,57.655619,62.272759,63.284601,49.634611,65.266913,69.748449,70.409734,-10.685148,290.07202,-68.033495,291.816963
7,-11.521511,-0.041929,0.889835,0.292265,-0.27483,2.65995,4.734707,0.72361,-9.883232,19.470406,40.63591,55.905304,-13.648567,21.912804,47.266388,64.821968,-13.558559,17.12471,41.4505,57.712898,-10.842934,7.249374,20.525322,31.733322,16.720962,35.969924,55.032152,71.279118,35.940778,54.812383,60.814399,63.559946,34.817291,50.57297,55.841392,56.872253,30.694586,45.989237,51.572524,54.292691,25.680576,44.635606,50.59415,54.545868,23.651791,47.174492,68.016415,86.17487,47.005463,78.92252,95.604916,106.907444,37.655697,73.745556,93.520374,106.545696,28.152466,62.33614,80.962887,93.290005,19.318027,45.016708,60.145912,73.026867,-14.960025,-13.38397,-2.24154,5.805835,13.29863,30.433814,37.13676,41.492448,30.475557,45.623242,51.683551,54.960707,42.266798,57.835868,62.265287,63.093236,49.191675,65.026086,69.349726,69.948767,-22.248831,289.929963,-67.185831,292.0091
8,11.632233,0.517345,0.24931,0.069222,2.885113,3.765507,1.16724,-5.023155,-14.193592,8.099785,29.409256,41.648827,-23.592739,4.570827,27.50267,46.660652,-30.551376,-6.640205,16.032486,33.209839,-35.111103,-39.113503,-38.403225,-35.893993,-8.276222,3.819695,25.824331,42.180842,14.538888,34.578193,41.482507,44.347417,28.808667,46.27193,52.7309,53.152717,38.96062,54.80559,58.943362,60.585058,47.701576,60.150582,70.089188,78.980691,23.213711,46.883583,67.869987,86.280327,46.48922,78.905983,95.88501,107.482567,37.022038,73.727989,93.671379,106.904182,27.514,62.136726,80.9095,93.502464,18.848934,44.807167,59.933624,72.911682,-15.120268,-13.648014,-2.434695,5.752113,12.98253,30.320193,37.303239,41.77298,30.196198,45.404707,51.681699,55.167448,42.03579,57.689026,62.215393,63.20272,48.952639,64.895669,69.07611,69.604076,-10.627756,290.39303,-66.94768,292.024043
9,-8.948708,3.296731,-0.135612,-0.304183,-2.232056,1.017265,5.095081,1.887474,-10.166416,16.871395,37.038345,51.697426,-13.86795,18.911133,44.440498,61.67244,-13.950748,13.496704,37.464294,53.225212,-11.360893,2.223358,15.039997,26.132011,9.253731,25.067641,42.943151,59.700669,25.10957,44.270044,52.43104,56.686322,29.042886,45.249405,52.437832,54.544262,30.305867,45.912172,52.23455,54.562355,30.710703,49.041745,54.607186,57.136545,23.232536,46.943779,68.005943,86.324158,46.5905,78.665886,95.665283,107.45533,37.094135,73.459396,93.424072,106.843987,27.476578,61.807938,80.562057,93.216705,18.647919,44.434891,59.546413,72.594337,-14.823866,-13.30567,-2.208936,6.005166,13.407682,30.689955,37.648053,42.070864,30.463886,45.860858,52.238008,55.763648,42.16491,58.141162,62.769541,63.75551,49.01686,65.185093,69.458592,70.027931,-19.578924,293.665246,-67.085752,291.695346
10,2.866688,-0.34926,0.294113,-0.0268,6.001568,10.641117,11.49004,9.122658,-7.149811,16.628895,36.954517,47.355022,-16.512566,12.241802,33.659191,50.473194,-23.740482,-0.135498,20.35635,34.61031,-28.255348,-31.852627,-32.125683,-31.074486,-16.844957,-9.536857,9.856292,26.699952,8.404108,27.210998,33.540539,35.987276,26.723417,43.721082,49.342284,49.196738,40.229158,54.738714,57.769116,58.429598,51.315951,62.583919,70.944246,77.862885,23.321514,46.838837,67.671204,85.797386,46.416035,78.477859,95.387421,106.982346,36.968708,73.351822,93.379784,106.874886,27.434406,61.890736,80.805702,93.642998,18.635502,44.558601,59.713955,72.874489,-14.888457,-13.407311,-2.17417,6.138732,13.349266,30.723547,37.634838,42.08445,30.324578,45.646707,51.912645,55.435444,42.031282,57.87014,62.544584,63.638246,48.981847,65.077586,69.431731,70.11679,-16.727571,293.278734,-66.806974,291.631295
11,-9.10429,4.243241,0.21389,-0.134184,10.541153,20.039577,23.97892,23.722057,4.284782,29.895859,48.666229,57.527275,-5.797462,23.971825,44.044418,59.73484,-14.619083,10.005741,28.753166,41.318893,-20.904408,-23.372955,-24.247971,-24.076595,-20.60216,-16.78969,-0.150177,15.845588,3.772641,20.700899,26.491544,28.500841,23.290959,39.566144,44.614426,44.19724,37.795945,51.89449,54.581807,54.852335,49.430402,60.239441,67.884451,73.879737,23.398476,46.990814,67.747536,85.871887,45.848293,77.99984,95.00473,106.851997,36.501446,72.841187,92.939758,106.575623,27.277622,61.62941,80.657272,93.628922,18.886929,44.700222,59.843273,72.952995,-14.769093,-13.174574,-2.029119,6.300148,13.774788,30.962212,37.832069,42.363994,30.679581,45.907047,52.031638,55.423094,42.333242,58.204209,62.85982,63.910565,49.210509,65.316622,69.582031,70.128708,-25.846052,297.487874,-66.607275,291.46301
12,14.601002,-6.011897,-0.127945,0.359387,2.173176,3.121719,0.808754,-4.428749,-14.032059,7.057686,28.049641,39.735889,-22.677898,3.977795,25.675564,43.483028,-29.170933,-6.437702,14.007168,29.082584,-33.117371,-37.22517,-37.263451,-35.666313,-11.288902,-0.508206,21.600973,39.510013,12.715707,31.394403,37.646077,40.062124,28.533692,44.666481,50.960639,51.211222,40.184883,54.697897,58.412308,59.317261,50.104655,61.250542,70.426901,78.030538,23.501472,47.12534,67.908211,85.977058,46.195221,78.471107,95.577278,107.504196,36.903305,73.144455,93.202286,106.87809,27.580833,61.68726,80.697784,93.829651,19.026661,44.538746,59.523926,72.601204,-15.008808,-13.597502,-2.402462,5.971018,13.12962,30.192185,37.222469,41.931247,30.046886,45.214578,51.670645,55.441681,41.705673,57.454806,62.316663,63.648558,48.681061,64.825768,69.029057,69.630259,-11.300755,291.42244,-66.790924,291.76886
13,-14.932137,7.865026,0.115356,0.279976,3.871593,15.037708,27.613392,31.829052,1.659336,29.502583,51.149426,66.579494,-6.132774,26.732769,52.502804,69.554386,-10.031204,14.119835,36.78297,51.910458,-10.541039,-4.06414,5.070992,14.161663,-10.066058,-6.677134,4.680249,18.818809,6.052034,23.943413,35.131847,43.020401,20.959757,35.486048,45.351108,50.955452,31.596636,46.816075,54.017037,57.471541,40.71674,56.990937,62.910393,66.279558,23.298168,46.994648,67.727737,85.440903,46.587868,79.594231,96.589508,108.135338,36.702232,73.505173,93.437805,106.526413,26.951809,61.695328,80.626831,93.226662,18.176479,44.582348,59.778385,72.493401,-14.955641,-14.090703,-3.448822,4.889212,12.597269,30.150009,37.217961,41.995529,29.836502,45.03896,51.502375,55.36085,41.684801,57.282584,61.98494,63.335977,48.618014,64.494106,68.603287,69.29057,-26.300812,299.289566,-66.743488,292.050935
14,19.602699,-11.413329,-0.085316,-0.33796,1.476345,0.605392,-3.540745,-12.12307,-19.063625,0.838909,23.717823,38.206844,-28.363152,-2.69949,22.230434,43.345356,-34.91478,-12.689266,11.230373,30.326328,-38.76194,-41.996727,-39.523602,-35.209408,-3.33446,11.486565,34.762086,51.270811,18.004876,37.704802,44.678276,47.845639,29.324653,47.273707,54.650164,55.717397,37.540051,54.073045,59.950326,63.097806,45.03933,58.779044,69.822673,79.879592,23.709126,47.203903,67.921658,85.570278,47.240238,79.536152,96.107082,107.425632,37.394142,73.490009,93.083439,106.165752,27.494545,61.539402,80.13525,92.642956,18.412457,44.368858,59.322338,71.85957,-14.915997,-14.100027,-3.488898,5.052974,12.497357,30.106043,37.269832,41.97194,29.716274,45.222235,51.958711,55.725301,41.535982,57.514025,62.498024,63.871292,48.408927,64.484658,68.834234,69.389185,-6.756105,287.877765,-66.886797,291.714504
15,-14.987068,8.816724,0.380974,-0.229218,-0.981617,2.839108,5.551414,0.915928,-7.180538,20.749855,43.439083,59.983578,-12.304974,21.831264,49.143047,68.781452,-13.263531,13.345928,37.147236,54.067554,-11.284676,-5.18858,0.689907,6.859818,2.659714,15.992369,33.884118,51.242097,13.035574,34.590975,44.902738,51.290695,22.321107,40.082501,48.338964,51.082349,29.281304,45.988064,53.385516,56.854469,34.96333,53.724279,59.84887,63.114726,23.722687,47.047005,67.615299,85.474033,47.347412,79.274998,95.913563,107.406979,37.471561,73.213978,92.793102,105.806522,27.450027,61.299248,79.745235,92.02383,18.153133,44.089222,59.217567,71.948948,-14.844429,-13.785038,-3.01058,5.222912,12.619252,30.506309,37.617548,42.225858,29.751842,45.3353,52.02219,55.85405,41.611935,57.65074,62.504385,63.842763,48.729226,64.863497,69.209491,69.794082,-21.825285,296.683158,-66.587934,291.473955
16,14.701481,-11.519292,0.29274,0.217794,1.7906,0.30304,-4.486771,-14.338417,-19.245815,0.455074,23.328896,38.073006,-28.684559,-3.142548,21.825714,43.939934,-35.418949,-12.997742,11.42807,31.198425,-39.217243,-39.987202,-35.083179,-28.562164,7.070978,25.561707,49.493326,64.982861,24.383262,45.671346,53.08615,55.770811,30.89052,50.5056,59.112002,60.051843,35.049781,53.052249,60.383814,64.144414,39.052443,54.557847,66.333281,76.614848,23.45787,46.699047,67.392483,85.755901,46.88776,79.128971,95.953846,107.58791,37.116394,73.39983,93.137569,106.224117,27.353096,61.728115,80.284939,92.493496,18.435001,44.663944,59.82954,72.536831,-14.975339,-13.875503,-2.969763,5.064522,12.719906,30.368173,37.279341,41.701103,29.944813,45.213158,51.550355,55.276128,41.822381,57.498526,62.078615,63.3001,48.929544,64.749382,68.923587,69.531273,-7.275581,285.152843,-66.446972,291.680726
17,-4.372616,0.888588,-0.408154,0.08818,2.787609,2.371101,-1.522865,-9.608288,-13.982449,6.555347,29.325886,43.43874,-23.926678,2.359943,27.627239,49.590969,-31.624432,-8.326378,16.35046,35.77589,-36.532173,-35.39463,-29.217339,-22.388821,2.150705,18.924711,42.549677,59.548763,19.811261,41.389572,49.686172,52.965119,29.100067,49.433119,58.329995,58.968185,35.544031,54.11096,61.553119,64.676332,41.046734,56.732265,67.53976,76.35988,23.149166,46.81469,67.821693,85.660973,47.034359,78.949013,95.906639,107.898788,37.586803,73.532867,93.517456,107.163391,27.899895,61.974277,80.724335,93.442268,18.762074,44.874115,60.005207,73.038483,-14.899386,-14.287255,-3.534347,5.071314,12.529467,29.917272,36.910568,41.282559,29.620438,44.669631,51.110198,54.769466,41.428413,56.918875,61.77573,63.012961,48.604367,64.50201,68.840965,69.490826,-11.808958,286.06482,-67.015886,291.792294
18,-11.878681,3.023238,0.471954,-0.18945,7.516823,11.539707,10.627842,4.55452,-0.154839,21.513062,43.371735,56.831474,-9.653435,17.13398,41.577873,62.508087,-18.73661,5.275154,29.548874,48.34877,-25.965672,-22.052593,-13.926487,-5.988464,1.733334,17.639376,40.188588,56.202384,17.275975,37.797674,46.017333,49.502033,25.951352,45.753042,54.370682,54.973922,31.977698,50.484358,57.812835,60.75975,37.125274,53.009024,63.282131,71.148886,23.553314,46.962605,67.677727,86.029587,46.949387,79.046402,96.056671,108.005562,37.348022,73.334541,93.325539,106.715813,27.632504,61.683254,80.368309,92.838249,18.66497,44.723625,59.848938,72.720108,-14.809231,-13.738417,-2.946915,5.089654,12.68724,30.204535,37.017828,41.345606,29.807356,44.997402,51.268465,54.82535,41.699312,57.388178,61.945543,63.044021,48.952639,64.951677,69.090189,69.58092,-23.895149,289.11847,-66.751442,291.633256
19,2.309589,3.704654,0.019112,0.377974,8.103447,13.593178,14.566727,13.40292,-1.586609,20.252838,43.014507,55.95892,-11.411991,15.59824,39.657497,59.177799,-19.939384,3.116169,26.083889,43.392277,-26.198788,-27.026882,-23.422909,-19.057388,-14.861039,-6.071671,13.856175,30.81926,6.120886,26.161921,33.542515,36.197351,23.897718,42.645082,48.809687,48.07708,36.947248,52.754674,57.450607,59.130774,47.466739,59.915128,68.135713,74.609688,23.459873,47.101822,67.896309,85.565414,46.97382,79.31179,96.134491,107.901878,37.237415,73.61824,93.591499,106.995392,27.532997,61.920948,80.640106,93.152161,18.693008,44.609928,59.764938,72.583008,-15.125393,-14.373211,-3.515327,4.924534,12.392011,29.744371,36.590021,40.861915,29.687499,44.769049,51.165095,54.684127,41.590755,57.237692,61.961598,63.074217,48.695572,64.635515,68.727097,68.923278,-21.786118,292.860375,-66.932888,292.048481
20,3.680992,-2.732085,0.213375,-0.484864,4.757824,8.259087,8.73539,6.410065,-8.092976,15.783806,38.627529,51.337566,-17.620525,12.672501,36.925678,56.198559,-24.867954,0.340347,23.114262,40.177059,-29.445591,-29.175167,-25.798416,-21.537037,-13.500987,-3.890585,17.328401,35.211814,8.346124,28.92272,36.849867,40.04224,26.773373,45.389949,52.531816,52.370092,40.057739,55.628847,60.747462,62.61041,50.539069,63.111515,70.918681,76.919092,23.415985,47.233315,68.277798,85.427685,47.370243,79.247532,96.095409,108.219395,37.462463,73.333111,93.22649,106.877232,27.364769,61.12627,79.688931,92.397709,17.992916,43.5149,58.559361,71.655064,-14.530798,-13.796277,-2.988967,5.836834,13.590463,30.730031,37.39253,41.533389,30.71731,45.629047,52.044544,55.62366,42.35541,58.001544,62.874949,64.102979,49.285968,65.326872,69.546402,69.8688,-18.26972,290.095593,-66.884108,291.53092
21,-15.671082,5.760634,0.527287,0.139432,9.212265,24.263363,36.376705,39.075451,10.443077,41.332226,62.498989,76.602917,-0.225849,35.544491,59.388371,73.426838,-7.856369,18.44593,41.027699,55.493946,-12.295532,-0.718861,9.382668,17.876186,-6.370481,-0.622815,11.186828,24.842191,5.28423,27.212604,39.135682,46.711531,21.378425,38.918259,50.063838,56.354784,33.421669,51.255868,58.886119,61.633951,43.44796,59.68202,65.867991,69.182445,23.489799,47.084026,68.167191,85.160065,47.363892,79.549713,96.316452,108.074913,38.006802,73.688622,93.260422,106.635361,28.439426,62.065887,80.49305,93.179398,19.514923,45.05722,59.852371,72.919006,-14.712344,-14.178265,-3.461913,5.675172,13.500493,30.376633,37.460949,42.140519,30.525699,45.111208,51.40271,54.969537,42.191216,57.42035,62.430531,63.665416,49.20032,65.373494,69.648413,70.104255,-34.107313,295.857586,-66.523333,291.671711
22,26.501083,-8.002792,-0.350246,0.027355,3.066902,2.73428,-0.783749,-6.801739,-16.83815,3.044071,26.357861,40.733128,-27.207584,-1.573448,24.12878,45.114269,-34.570541,-12.945156,11.539135,30.766811,-38.936291,-39.712772,-33.85643,-26.833248,-9.098244,3.023794,25.410295,42.765865,11.710966,33.751911,42.131689,45.341228,28.242168,47.552943,55.495589,55.872205,40.460722,56.245301,62.464,64.894311,50.471452,63.44756,71.901686,78.541955,23.535805,47.310333,68.413525,86.303501,47.887974,79.627361,96.336193,108.283138,38.240147,73.887234,93.645,107.253857,28.45808,62.143364,80.600452,93.318157,19.332848,44.960518,59.836006,72.681484,-14.869746,-14.240263,-3.516192,4.814618,13.254541,30.243561,36.867342,41.147696,30.462713,45.062487,51.321447,54.902971,42.286744,57.4419,62.310859,63.601319,49.435527,65.352314,69.29483,69.36609,-7.802868,287.8744,-67.070217,291.718672
23,-23.341141,11.615314,0.248165,0.272566,7.307396,22.540798,40.127048,50.848789,6.909599,36.953373,58.867779,73.894215,-3.478489,31.271954,57.273273,75.069294,-9.228802,18.926926,42.675877,58.742466,-10.804138,1.452599,14.38797,26.267796,-16.747576,-18.184941,-7.977906,5.086196,-1.324793,17.294747,29.326876,38.794388,19.204625,35.105974,45.355554,49.992825,35.665432,48.041944,54.057052,55.2476,48.207065,60.417591,63.464356,63.776814,23.435154,46.807251,67.81208,85.834465,47.288933,79.429321,96.301231,108.338814,37.878056,73.878479,93.817406,107.48909,28.371677,62.514038,81.349754,94.315796,19.539986,45.4743,60.470753,73.565483,-15.061111,-14.434159,-4.071452,4.117209,13.456094,30.522179,37.055619,41.279039,30.481485,45.000613,51.048819,54.454354,42.147373,57.187612,61.90343,63.078787,49.067989,64.908822,68.951128,69.278466,-31.262569,299.543993,-66.940613,292.045517
24,-26.382408,3.066278,-0.249596,-0.839312,21.85009,47.349758,66.808376,76.511936,38.277168,68.071346,83.647671,88.474216,29.384136,63.875599,82.244968,93.270092,18.249264,49.786663,68.238316,76.408939,8.260689,14.638367,14.705601,12.353611,-27.528581,-32.872091,-32.118551,-29.783088,-6.804093,12.115122,17.197737,17.673647,17.376319,39.522363,41.361105,35.467522,33.496387,51.908199,52.922882,48.536565,45.011913,58.755394,63.618115,63.879257,23.694305,47.642555,68.730927,86.950607,46.922836,78.92395,96.360512,109.344864,37.082577,72.89669,93.468704,107.833557,27.429771,60.964851,80.14904,93.555565,18.647404,44.580631,59.669552,72.831573,-14.375619,-13.698773,-3.789808,4.233485,13.816531,31.876551,39.258133,44.107949,30.803576,46.820274,53.943184,57.935966,42.427782,59.137135,64.693251,66.323092,49.2998,65.93814,70.417947,71.12221,-57.774782,302.628009,-67.320013,291.223943
25,-3.007565,-7.458647,-0.550518,0.13369,27.061958,54.452763,76.692009,88.100395,40.586872,73.997612,91.292839,100.769119,28.120651,65.845413,86.373482,102.348175,15.502911,48.707542,67.677155,79.008408,5.223656,13.226681,13.342323,13.440685,-20.682559,-25.048684,-22.213784,-17.846363,1.894626,22.947132,31.082749,34.664829,23.372222,47.741652,54.723586,56.217143,37.256185,58.185252,63.781939,65.042388,47.087715,61.992412,66.169271,66.5788,23.912487,48.033371,69.515362,87.762051,48.073711,77.582645,94.134464,106.252155,39.129066,72.549648,92.900333,107.351589,29.776211,60.802288,79.293194,92.518787,20.539513,45.315685,59.698906,72.75919,-14.102868,-13.582621,-3.313157,4.211255,12.974194,32.313188,41.938101,48.745219,29.776975,47.085677,56.979019,63.488563,41.642749,58.710007,66.989934,70.942517,49.594164,66.118574,72.057729,74.451422,-61.057835,295.192796,-68.146019,291.381067
26,4.073811,2.398757,-0.03376,-0.547356,28.431129,54.338837,74.653759,84.610577,40.041046,70.060215,87.817211,98.142643,26.310596,59.440441,80.357037,96.816959,12.81498,39.344215,57.03043,69.414539,1.371231,6.602154,8.278885,11.247311,-20.634579,-24.294279,-18.526297,-10.742966,-1.154362,20.667307,31.759163,38.125692,19.761243,42.726345,52.291916,56.129148,33.677995,53.214467,60.398942,63.728833,43.688478,58.921008,63.6564,65.294268,23.854237,47.631912,68.656597,86.746273,48.631268,76.6012,92.776966,104.732265,39.869041,71.701069,91.550388,105.923367,30.296745,59.686489,77.160587,89.764652,20.705795,44.057236,57.883358,70.428829,-14.27299,-14.074339,-3.798762,3.440239,13.481412,33.183375,43.51002,51.387952,30.285675,48.335073,59.293548,67.530559,42.152745,59.264526,67.522964,72.31072,49.990972,66.186747,72.258912,75.246459,-57.224636,297.593498,-68.420391,290.835656
27,98.378849,-11.410179,0.845032,-8.547801,-30.257492,-60.544395,-82.132988,-94.671192,-71.90443,-92.628479,-94.125824,-91.354523,-64.082336,-81.404343,-80.537853,-74.034691,-54.690514,-68.687439,-62.87653,-54.498768,-43.979359,-55.146046,-55.091343,-52.315407,30.143155,50.060194,66.673587,78.461432,43.448207,54.267744,62.055336,68.798234,31.660424,41.607489,51.936543,58.591878,19.729257,29.632417,37.931364,42.913511,7.533365,16.467415,25.050413,32.343693,27.353897,54.083233,71.828327,84.42564,47.357712,74.048023,80.010395,79.001026,35.198994,65.071507,70.271244,66.162014,22.981396,47.695198,50.230808,45.254974,11.943455,26.236267,26.137447,19.676914,-14.920011,-12.184962,0.19192,11.021028,4.115727,32.719012,44.062686,47.514349,21.983147,53.602754,66.880142,71.294247,36.600519,65.075733,77.242355,82.674663,46.254825,66.81234,74.920849,77.503251,40.635767,286.23292,-68.093805,282.337457
28,8.350639,1.539808,10.868683,-18.960588,-26.892815,-49.761429,-64.003887,-71.782436,-61.16478,-89.082642,-103.517189,-114.642849,-55.202579,-85.542698,-102.680912,-115.786572,-46.654015,-72.417297,-88.084831,-101.62159,-35.526581,-53.334675,-65.367737,-77.605019,-11.084199,-12.42196,-13.161359,-14.849554,23.395132,37.751608,45.54309,50.966629,35.234538,53.599728,62.584228,68.409021,42.949079,61.570718,70.85199,77.696159,48.329022,65.399676,74.208064,80.881492,21.647072,39.04335,47.356682,53.260288,55.630703,53.878212,44.989929,32.706928,44.711952,37.004242,23.643208,9.383984,31.110535,21.309357,7.947521,-5.517082,15.956097,10.577774,1.214161,-9.158192,-1.017215,7.604069,20.617413,33.428586,45.016236,73.155837,89.782876,98.174572,48.493957,77.151767,89.736934,96.023311,47.897942,73.552151,85.21421,91.244138,44.440845,64.674603,74.492054,81.032472,48.540831,287.944518,-57.670698,263.548659
29,1.460724,-4.70958,-26.885319,-36.153816,-27.425766,-51.308784,-71.543083,-86.009331,-59.845047,-90.507774,-106.220112,-116.763783,-51.660919,-84.549122,-102.259598,-115.087051,-41.287651,-70.967045,-87.884617,-99.722157,-30.435448,-54.392681,-67.567978,-77.863998,-13.416759,-9.308442,6.585496,20.3693,18.077433,39.105054,49.743971,58.015871,34.15545,55.459342,66.618629,75.547183,45.70253,65.719111,76.050202,83.559299,53.200141,70.643089,79.126299,85.022166,25.624752,47.825089,64.137039,70.07761,61.283569,84.131927,78.122005,68.330097,59.910622,80.327911,72.386627,59.546185,54.722385,72.313156,64.575806,50.855885,47.618809,64.766521,61.209641,51.666698,-4.216503,-2.673978,4.556748,12.183356,-5.980774,10.514984,20.76864,24.718319,-0.294488,20.149036,30.049479,33.191773,8.174334,28.175725,36.262929,38.202942,18.098428,34.1657,40.091578,41.388584,49.458389,283.338168,-85.099182,227.498074
30,-0.689392,-0.234775,-4.324379,-35.422321,-28.367729,-52.04464,-71.742268,-85.491371,-60.787697,-90.193577,-104.952164,-115.495949,-52.59716,-84.703903,-101.808701,-114.765301,-42.253876,-71.982079,-88.368645,-100.388489,-30.945511,-53.847885,-66.420364,-77.034531,-13.736194,-8.885823,7.587335,21.266965,18.890624,38.605678,48.800177,56.767277,35.113075,54.811333,65.648036,74.184784,46.607791,65.173546,75.19749,82.67633,53.923239,70.855387,78.619143,84.187671,13.251572,30.781174,43.64399,51.106968,49.804459,68.1007,67.067928,62.578468,51.15921,68.6166,63.590584,56.294289,48.609695,63.425789,57.146244,49.685211,42.763023,55.102959,51.489544,46.63084,-22.324441,-37.258099,-48.380398,-55.201225,-20.900353,-21.624933,-23.315041,-24.328119,-6.25686,-5.407113,-7.201271,-7.673538,8.018291,9.451024,7.419188,6.763337,21.333841,24.114339,20.995511,18.156165,48.437805,283.642444,-89.754753,192.614803
31,-0.248795,0.557606,-5.990982,-33.694051,-29.425049,-53.122959,-72.865791,-87.000332,-60.336914,-89.854145,-104.466076,-114.93988,-51.885223,-84.443378,-101.392708,-114.383755,-41.509094,-71.429901,-87.560177,-99.358521,-30.372963,-53.288212,-65.749569,-76.186237,-13.979614,-9.328079,7.41783,20.931475,19.233277,38.784199,48.587262,56.007747,35.355507,54.789782,65.082279,73.325959,46.56049,65.083267,74.544048,81.706601,53.39379,70.206884,77.624837,83.097097,31.196537,51.989651,63.181114,60.482483,43.487492,47.256317,49.225731,48.943348,31.504211,34.892578,38.722115,39.112244,20.465069,25.567989,30.729618,33.312664,11.007614,17.345409,22.497196,25.542927,-3.48896,-13.396134,-22.692227,-27.51691,-47.311962,-72.659302,-86.121231,-95.78446,-50.579608,-75.818607,-88.365334,-97.004124,-49.244904,-71.866581,-84.118387,-92.818526,-43.854525,-63.239616,-73.770438,-81.798177,46.846046,284.762442,-97.088699,159.483144
32,0.636864,0.199886,2.060223,-37.900612,-29.475517,-53.20919,-73.457794,-87.020416,-60.202618,-89.617481,-104.548073,-115.499554,-52.092819,-84.326305,-101.657639,-115.154514,-42.085533,-71.703129,-87.917976,-99.853821,-31.18,-53.932571,-66.423626,-76.904411,-13.689696,-9.716613,6.429453,20.73091,18.977569,38.179045,48.01428,55.833735,35.039469,54.311772,64.486449,72.787372,46.315897,64.747345,74.150697,81.203583,53.226323,69.891401,77.281752,82.710046,26.08881,44.66383,52.391968,46.488762,30.845776,32.457218,32.063999,30.898361,17.595177,19.750328,21.728725,22.231407,5.169582,11.639957,17.995548,20.988865,-4.980984,3.88979,10.927849,13.788986,-11.756661,-28.852757,-44.013656,-58.325271,-68.514243,-96.637789,-113.569227,-127.9672,-67.675488,-96.664064,-114.762523,-130.41934,-59.856928,-80.215576,-92.297538,-102.50979,-45.948543,-57.309569,-59.695358,-61.483403,47.300663,285.804943,-95.210724,122.425147
33,-0.999069,-0.181855,1.285686,-39.563211,-29.153137,-52.742615,-72.796268,-85.716648,-60.512238,-89.609299,-104.358044,-114.961624,-52.44215,-84.209461,-101.330051,-114.34948,-42.2089,-71.45525,-87.711582,-99.716148,-30.815506,-53.341942,-65.63736,-76.144466,-13.651658,-9.850611,6.004795,20.199177,18.326843,38.050727,48.1413,55.963287,34.40276,54.024262,64.724003,73.224935,45.949037,64.255503,74.110992,81.460094,53.234721,69.708373,77.570435,83.352806,22.847843,38.108311,40.246696,31.436005,21.365433,22.030792,21.483192,21.298943,5.622711,6.916752,9.897251,11.730251,-7.859917,4.401112,13.960819,16.721478,-17.805061,-6.591682,1.47892,3.495598,-15.462025,-35.077414,-51.540197,-63.156314,-72.55553,-104.985148,-121.413506,-136.214555,-70.355919,-104.502754,-123.217235,-137.831211,-61.985928,-66.22636,-48.562346,-37.204438,-50.096967,-54.255054,-43.132941,-35.046014,46.818438,286.304334,-93.408194,83.543182
34,0.429382,-0.037297,-3.899975,-32.588626,-29.126701,-53.296337,-73.464718,-87.025623,-60.781975,-89.551392,-104.287605,-114.937649,-52.917309,-84.397717,-101.371078,-114.570751,-42.894974,-72.187386,-88.566513,-100.675106,-31.722336,-54.311199,-66.670818,-77.258492,-14.473,-10.519368,6.050923,20.300077,18.532719,37.995399,47.939006,55.549806,34.794072,53.781954,64.148798,72.436938,46.223333,63.94354,73.51757,80.584349,53.311539,69.265684,77.049509,82.835831,22.497196,37.87199,39.732971,29.237366,21.677742,22.512703,21.921787,20.387936,5.545521,8.073578,10.875149,12.325516,-8.706665,5.301247,17.351589,22.153358,-19.687672,-3.489304,10.122757,16.361961,-14.667514,-35.839877,-52.755816,-64.42263,-74.277903,-105.987975,-123.546612,-139.75134,-72.105555,-107.087626,-127.085065,-142.641661,-63.499925,-74.097469,-57.113728,-43.403377,-51.73925,-58.388287,-47.471308,-36.115531,47.634459,287.120983,-96.92153,51.808503
35,-0.409126,-0.984425,-7.755547,-14.61518,-28.97953,-53.267727,-73.416595,-87.618828,-60.030384,-89.190788,-104.162178,-114.85651,-52.18483,-84.165459,-101.337547,-114.535103,-42.323914,-71.884117,-88.473301,-100.534515,-31.402359,-54.122543,-66.637688,-77.229595,-14.365184,-10.052844,6.64737,20.584562,18.69432,38.426726,48.600909,56.341879,34.900345,54.410758,65.075486,73.491512,46.285515,64.551781,74.57412,82.105077,53.320307,69.573078,77.721971,83.830198,26.401577,42.04073,44.236221,35.71804,26.220989,28.56142,28.831615,27.204037,11.791134,14.587555,16.668491,17.46563,-2.580528,10.188847,22.016487,27.528362,-14.705544,-0.4636,13.272915,22.317753,-18.197383,-41.459474,-61.18132,-78.948488,-75.281842,-103.500668,-123.389797,-141.000057,-74.735227,-107.242774,-130.855823,-150.572637,-68.134324,-85.909643,-71.401013,-55.267977,-58.720103,-70.455738,-61.009314,-48.396762,46.796865,286.760206,-105.105543,37.816971
36,-0.644875,0.059651,-0.182476,-14.567354,-28.718491,-52.761555,-72.686291,-86.837254,-59.913197,-88.603134,-103.376083,-113.991394,-52.021751,-83.691902,-100.606728,-113.640919,-42.209015,-71.226254,-87.353325,-99.011078,-31.441498,-53.648186,-65.865612,-76.265316,-14.382474,-10.274157,6.256552,19.880669,19.171589,38.486932,48.635612,56.462292,35.585527,54.754337,65.278645,73.637613,46.714557,64.971869,74.918502,82.298726,53.236883,69.670396,77.693566,83.504341,25.991707,40.93523,43.584766,35.912762,26.108723,27.758446,28.221531,27.139206,12.652473,15.161591,18.401928,20.422382,-1.072311,9.927635,21.152916,26.419601,-13.181648,-0.528202,13.342838,23.153515,-20.139866,-43.775454,-64.17146,-81.793114,-75.02851,-103.403535,-122.243678,-138.796,-74.865057,-108.18453,-131.14358,-150.988248,-69.106214,-92.144428,-79.126144,-63.459046,-60.362818,-74.367688,-67.069932,-55.750186,44.766626,287.318971,-106.673384,23.74873
37,0.060081,0.745389,1.993046,-12.955422,-28.740578,-52.347336,-72.567444,-87.687607,-59.527931,-89.385452,-104.440498,-114.857883,-51.62178,-84.229488,-101.223679,-113.865967,-41.685677,-71.637039,-88.0299,-99.597301,-30.806236,-53.801594,-66.258316,-76.55365,-14.648247,-11.086916,5.431566,18.809608,16.981734,36.727169,46.988544,55.004735,33.338245,53.050396,63.701108,72.219762,44.877544,63.323689,73.190602,80.62035,52.223497,68.848807,76.747302,82.5017,24.644337,40.351124,43.808613,34.376335,25.662346,28.422203,28.911209,26.797657,12.368088,15.545483,18.227463,19.2033,-1.189671,10.214252,20.876656,25.148792,-12.975655,-0.30344,13.519936,23.122501,-18.116953,-41.661336,-62.547826,-79.893825,-75.31883,-104.808789,-124.310495,-142.205857,-74.830693,-108.982777,-133.265231,-154.76373,-68.875699,-90.967959,-77.019714,-61.028704,-60.724707,-76.100251,-68.488401,-56.668754,44.067249,288.483799,-105.439796,11.212748
38,-0.279465,-0.126835,3.046646,-10.051145,-28.928032,-52.664108,-72.993622,-87.410603,-59.421844,-88.742638,-103.778057,-114.38776,-51.439362,-83.374615,-100.425396,-113.339539,-41.530266,-70.704117,-87.147617,-98.974915,-30.786438,-53.267784,-65.726051,-76.104355,-14.534071,-10.847201,5.510669,19.691774,17.743549,37.740617,48.161987,56.090493,34.296549,54.189692,64.791867,73.059074,45.869688,64.509359,74.228626,81.261072,52.933256,69.78482,78.011827,83.824702,23.369923,38.287296,41.272602,31.456375,23.282089,25.484905,26.239815,24.881401,9.656925,10.044136,11.666107,12.41169,-3.204288,7.557449,19.867401,25.443707,-13.487549,0.006866,14.151649,23.591537,-14.05427,-39.52119,-60.807915,-77.011347,-74.096048,-104.58482,-124.010882,-142.261031,-73.443686,-108.882371,-133.032463,-154.258226,-67.170493,-89.519264,-74.982167,-59.490625,-58.906528,-75.419576,-68.10666,-57.19388,42.902699,288.58913,-103.278236,1.393769
39,-0.722122,-0.605648,4.517841,-5.14841,-28.762093,-52.055168,-71.790733,-85.824566,-59.755955,-89.072628,-103.972378,-114.46209,-51.710472,-83.378792,-100.254478,-112.900314,-41.481171,-70.686779,-86.99461,-98.625469,-30.145683,-52.688141,-65.042152,-75.332737,-14.215068,-10.101009,6.198259,19.750375,17.422323,37.155902,47.304706,55.209191,33.536155,53.589416,64.33726,72.869623,44.961895,63.684435,73.798535,81.409891,52.191757,69.184359,77.447305,83.517926,22.634697,35.707169,37.492447,27.195969,20.617161,22.875996,23.548279,22.29784,7.162056,7.239418,9.240761,10.3759,-5.639362,4.638233,18.279762,24.984226,-15.833702,-2.867374,11.896305,21.997147,-12.461449,-38.215663,-59.314235,-73.720451,-72.888735,-103.055417,-121.427029,-138.320228,-72.354594,-106.745189,-128.714566,-147.728891,-65.280313,-86.722773,-72.444811,-58.367107,-55.859948,-72.006198,-66.460363,-57.38719,41.235924,288.253949,-99.705048,-3.484174
40,0.601044,-0.131158,0.773335,2.056937,-28.663788,-52.372456,-72.223549,-86.492271,-59.626236,-88.437538,-103.310966,-113.812695,-51.660461,-82.947636,-99.717121,-112.43082,-41.642876,-69.954872,-86.066837,-97.65192,-30.655518,-52.681446,-64.978695,-75.212917,-14.258047,-10.271564,6.174053,20.287851,18.483689,38.164719,48.400837,56.353426,34.727444,54.504804,65.106732,73.559561,45.980962,64.762041,74.757642,82.173126,52.801666,69.703062,78.090312,84.117337,22.858143,36.046715,37.681732,28.396568,21.892776,23.679886,24.211464,22.627888,8.89658,10.01318,12.834663,14.194565,-3.837261,5.901661,19.655857,26.751022,-14.706688,-3.445187,11.065006,20.624084,-12.444005,-38.449666,-59.566084,-74.660756,-72.298,-100.903045,-118.997768,-135.297036,-71.580275,-104.310741,-125.680644,-144.110302,-64.91228,-85.232056,-72.64973,-60.029582,-56.205503,-71.202856,-65.506041,-56.280252,41.528978,288.398985,-99.239702,-1.151043
41,0.398827,0.128626,2.788925,1.474631,-28.738289,-52.507725,-72.351608,-86.683388,-59.902096,-88.701725,-103.642273,-114.243679,-51.836243,-83.181152,-100.118465,-113.042679,-41.751022,-70.31147,-86.51104,-98.122044,-30.665932,-52.500572,-64.76572,-75.021229,-14.532465,-10.595383,6.063396,19.936059,17.99407,37.782545,47.998472,55.955074,34.504339,54.141403,64.522264,72.900375,45.882162,64.290392,74.087095,81.461514,52.721637,69.379552,77.644289,83.698793,22.4156,34.758739,36.295967,27.861729,21.145992,22.527523,22.686024,20.643368,8.095036,8.915119,11.145859,11.871357,-4.743176,4.659691,18.786163,26.400604,-15.37096,-4.273911,10.419903,20.704937,-11.202821,-36.742082,-57.202494,-71.667528,-70.806295,-100.039002,-118.934937,-135.452801,-69.98909,-103.276916,-125.255277,-144.056641,-62.955286,-84.338713,-71.040175,-57.447335,-53.681887,-68.932263,-63.384945,-54.080115,41.818457,288.60818,-96.560125,0.404156
42,1.164436,0.21273,1.430454,4.585153,-28.663445,-52.632408,-72.632732,-87.659454,-59.103642,-88.250885,-103.56926,-114.478111,-51.295738,-83.024483,-100.165958,-113.380966,-41.587601,-70.465221,-86.824322,-98.554344,-30.953522,-52.978649,-65.414886,-75.759659,-14.599156,-10.613661,6.260072,19.655341,18.201798,37.833304,48.022493,55.90802,34.756096,54.516783,64.95532,73.344855,46.076181,64.742899,74.650011,82.054071,52.794935,69.51108,77.925685,84.074297,21.702175,34.204159,37.426357,30.701694,20.583286,23.426228,24.640217,23.392582,8.587074,9.611034,12.359962,13.770847,-3.427734,6.226616,19.131775,25.910454,-13.983994,-2.569828,11.439285,20.279903,-10.897064,-34.778944,-54.433945,-69.015595,-68.594612,-97.074859,-114.910292,-130.254683,-68.402259,-101.8896,-123.332369,-141.684128,-62.369244,-84.14142,-69.926938,-56.406161,-53.956398,-70.339647,-63.858756,-54.139612,42.916203,288.83059,-95.196362,4.998989
43,1.162834,-0.196922,1.591244,3.39124,-28.769302,-52.787247,-72.837982,-87.148991,-59.466877,-88.865891,-104.163208,-115.025597,-51.628876,-83.52499,-100.832691,-114.175129,-41.733971,-71.012306,-87.586212,-99.531326,-30.749817,-53.222008,-65.803585,-76.364079,-14.329615,-10.422729,6.229814,19.950694,17.727555,37.295705,47.415424,55.449956,34.017314,53.869516,64.520412,73.151391,45.315849,63.943231,74.058998,81.731857,52.284074,69.106059,77.54308,83.916278,21.188164,34.088173,36.930599,28.851242,20.19865,22.785473,24.044209,23.116379,7.776546,7.97699,10.58836,11.843548,-4.608593,3.45314,17.172775,25.072575,-15.625305,-4.876099,9.475307,19.291534,-9.912794,-34.714353,-54.697095,-69.339599,-68.539932,-97.744511,-116.69599,-132.956603,-67.965313,-101.831771,-124.084952,-143.202571,-60.9446,-83.819145,-71.26544,-58.524879,-51.649156,-67.615404,-61.578005,-51.926292,44.139833,288.697595,-93.544321,8.454156
44,0.46978,-0.4572,0.146427,1.937018,-28.846092,-53.00354,-72.81229,-87.331467,-59.555168,-89.023132,-104.422817,-115.263062,-51.474953,-83.445396,-100.741367,-113.989849,-41.404381,-70.889969,-87.483616,-99.446983,-30.366669,-52.823524,-65.487785,-76.106529,-14.575814,-10.190794,6.909007,20.714114,18.218718,38.462047,48.760657,56.534169,34.60771,54.689005,65.654767,74.123713,45.751374,64.503369,74.833287,82.460574,52.445613,69.112975,77.54166,83.666621,20.713406,33.779125,36.954918,28.805981,19.451122,22.612782,24.200478,23.838902,6.880989,6.998177,9.175243,10.231705,-5.512676,3.625145,17.165337,24.890099,-16.139088,-4.793987,9.8176,20.430679,-11.089849,-36.407364,-57.153835,-72.629476,-68.834728,-98.415522,-117.592298,-134.203869,-67.889885,-101.627871,-124.090479,-143.794757,-60.552794,-81.762115,-68.584546,-55.752471,-51.216965,-66.935995,-61.817813,-52.903677,44.656677,288.243328,-93.35083,10.394107
45,0.218353,-0.355003,-1.508102,0.410084,-28.822975,-52.828903,-72.648239,-87.260857,-59.543324,-88.781662,-104.375668,-115.651817,-51.419792,-83.444366,-100.918179,-114.427071,-41.38607,-70.934772,-87.541523,-99.610519,-30.512924,-53.036957,-65.552101,-76.03981,-14.17209,-9.704509,7.059925,20.517315,18.983682,39.046515,49.332528,57.182302,35.253495,55.055062,65.878118,74.339777,46.303052,64.897089,75.212496,82.906844,52.871938,69.524295,77.817622,83.846315,20.907669,34.669418,38.153458,29.151649,19.372559,22.182198,23.536606,23.020821,6.611481,6.824684,8.955631,10.048943,-5.84547,4.535637,18.341961,25.902271,-16.143837,-4.138298,10.768204,21.776276,-10.989813,-36.290161,-57.383824,-72.564391,-68.800642,-98.913755,-118.290324,-135.299012,-67.925175,-101.474236,-124.324605,-144.31942,-60.684693,-81.311615,-67.732298,-54.347433,-51.291961,-66.631442,-61.713454,-52.903647,44.974709,287.818006,-94.759254,10.733873
46,0.043373,0.186857,-0.122166,-0.798896,-29.012146,-52.864037,-72.818756,-87.728577,-59.151592,-88.86097,-104.435349,-115.60461,-50.893135,-83.581638,-101.082001,-114.565258,-40.81089,-71.042747,-87.852001,-100.013294,-29.940033,-53.187675,-65.970325,-76.570072,-14.232914,-9.901864,6.813973,20.333176,18.573412,38.618522,48.928309,56.908068,34.929862,54.566246,65.312855,73.922468,46.201102,64.466813,74.631548,82.473109,53.06392,69.39184,77.349245,83.402576,21.066055,34.391212,37.335033,28.122425,17.933006,20.270233,21.565876,21.085854,5.047874,5.181656,7.674465,8.7953,-7.133389,3.53302,17.949028,25.653133,-17.105598,-5.116997,9.780865,20.423756,-11.231134,-36.755111,-57.411149,-71.961831,-69.614975,-99.456541,-118.586788,-135.545736,-68.375336,-101.820687,-124.72024,-144.530699,-60.730295,-81.727072,-68.552961,-54.843196,-50.723981,-66.436373,-61.369968,-52.263202,45.229025,288.025719,-94.670477,9.955834
47,0.548286,0.176297,-0.674114,-1.334797,-29.218826,-53.121185,-72.870369,-87.829685,-58.802204,-88.271942,-104.13969,-115.586357,-50.727654,-83.133259,-100.867195,-114.635239,-40.965843,-70.813866,-87.610073,-99.78281,-30.493927,-53.30349,-66.010151,-76.663456,-14.577482,-10.430756,6.602725,19.914323,18.46998,38.224925,48.64753,56.784444,35.045767,54.375622,64.951368,73.622237,46.496331,64.587411,74.528425,82.258403,53.53384,69.700531,77.634162,83.710835,20.84404,34.160786,37.388363,27.858524,18.167953,20.588665,21.610909,20.875053,5.303478,5.400238,7.650719,8.81876,-6.97443,4.390469,18.149128,24.932613,-17.003918,-4.778996,9.880543,20.071163,-11.464365,-36.528703,-57.122898,-71.755893,-69.421604,-99.43922,-118.227308,-134.906496,-68.181501,-101.570968,-124.17906,-143.967844,-60.540629,-80.974859,-67.036772,-53.33874,-50.830006,-66.969433,-61.987564,-53.06321,45.964622,288.225389,-95.15728,8.644409
48,-0.679321,-0.212113,-0.547543,-0.753849,-29.163551,-52.5951,-72.245922,-86.959019,-58.198242,-88.047123,-103.876076,-115.165501,-49.912376,-82.679958,-100.471344,-114.058685,-39.876938,-69.91333,-86.850643,-99.118023,-29.128532,-52.170067,-64.983387,-75.677605,-14.388525,-10.241059,6.741786,20.490824,18.336229,38.380783,49.046932,57.485249,34.874471,54.628243,65.609257,74.562696,46.333495,64.813356,75.137593,83.158168,53.348095,69.853054,78.096364,84.55453,20.777893,34.161301,37.378178,28.605137,19.117012,21.670818,22.781639,22.133446,5.883522,5.912075,7.783241,8.800049,-6.65411,4.419193,18.690033,26.297779,-16.965179,-5.191727,9.631462,20.268402,-10.691466,-35.648575,-56.246752,-71.027022,-69.327249,-99.311706,-118.414196,-135.074024,-68.11515,-101.479361,-124.223366,-143.927088,-60.394342,-80.40197,-66.398458,-52.63707,-50.709963,-66.468977,-61.124819,-51.830795,45.390759,288.028591,-95.599365,7.905874
49,-1.153564,0.006113,-0.096416,0.232151,-28.303757,-52.088814,-72.132053,-87.071571,-58.07642,-88.047581,-103.558788,-114.642162,-49.761887,-82.463665,-99.985199,-113.174057,-39.416885,-69.259415,-86.005611,-97.983971,-28.284988,-50.978165,-63.682022,-74.197197,-14.120405,-9.645167,7.032384,20.564678,18.170676,38.703738,49.200814,57.354153,34.218126,54.737541,65.876451,74.857925,45.50357,64.766364,75.312408,83.506996,52.551515,69.572831,78.148913,84.763494,20.791798,34.009037,37.065868,28.623276,19.99649,22.65295,23.978462,23.482761,6.728954,6.389637,8.150768,8.9958,-5.805588,3.689346,18.354721,26.76115,-16.439781,-5.50312,9.423466,20.43211,-10.353692,-35.47555,-56.483781,-71.438496,-68.586646,-98.559122,-117.680385,-134.327153,-67.50941,-101.369692,-124.303826,-144.249703,-60.179389,-81.770143,-68.537122,-55.148521,-51.079601,-67.947158,-62.897889,-53.557398,44.468422,288.039582,-95.464554,8.142903
50,-0.182076,-0.310111,-0.062485,-0.825881,-28.355598,-52.127609,-72.19059,-87.340279,-57.71616,-87.169819,-102.772121,-114.103374,-49.380684,-81.733475,-99.364529,-112.759094,-39.311142,-68.985958,-85.657368,-97.733746,-28.580475,-51.125908,-63.678875,-74.363594,-14.043279,-9.461151,7.530586,20.873801,18.875742,39.09468,49.660608,57.868472,35.163155,55.350352,66.145621,74.67008,46.6173,65.671131,75.829753,83.688543,53.691242,70.72639,79.201881,85.765579,20.984516,34.527454,37.527637,28.310452,19.947853,22.104149,23.367519,23.061161,6.422768,5.768566,7.823811,9.12838,-6.438904,3.258419,17.960587,26.365585,-17.241383,-6.236,8.735504,19.876213,-9.934314,-34.778635,-55.549034,-70.037533,-69.084138,-99.296391,-118.622418,-135.588127,-67.82304,-101.493193,-124.375179,-144.21571,-60.035912,-81.521906,-67.918661,-53.997308,-50.189747,-66.728205,-61.462377,-52.032379,44.628725,287.732451,-95.18466,7.320002
51,-0.052071,0.265589,0.102024,0.53905,-28.47599,-52.176704,-71.944714,-86.872673,-57.802334,-87.149734,-102.560577,-113.763771,-49.448318,-81.634083,-99.022694,-112.456284,-39.2276,-68.813553,-85.398388,-97.529411,-28.253288,-50.605202,-62.914925,-73.290081,-13.6863,-9.048164,7.671192,20.705778,18.601077,38.63291,49.216499,57.572688,34.688109,54.862833,65.920541,75.043114,46.004551,64.818852,75.306789,83.612404,53.099365,70.168413,78.675768,85.309553,20.81171,34.091663,36.894665,28.064976,19.563847,21.411324,22.421265,21.946507,6.0989,5.084724,7.006302,8.336792,-6.845341,2.418251,17.338314,25.899239,-17.800999,-7.057056,7.993984,19.22636,-9.771725,-34.615706,-55.637399,-70.803578,-69.022511,-99.385775,-118.869327,-135.782116,-67.971025,-101.97074,-125.130386,-145.000218,-60.373687,-82.262942,-68.148063,-53.914254,-50.584301,-67.311067,-62.026714,-52.661276,44.656992,287.990877,-95.002298,7.851889
52,-0.128059,-0.235207,-0.367985,0.573661,-28.496933,-52.120285,-71.704502,-86.449642,-57.808628,-86.787643,-102.191448,-113.414326,-49.495468,-81.231079,-98.736877,-112.234097,-39.221191,-68.529396,-85.188446,-97.36639,-28.041573,-50.319443,-62.755108,-73.353138,-13.386872,-8.768188,7.864903,21.013727,18.735013,38.800995,49.41657,57.75374,34.797777,54.856225,65.899607,74.811303,46.183257,64.853988,75.238431,83.336689,53.393358,70.270919,78.779447,85.344503,21.162529,34.210968,36.410236,27.626781,19.337196,21.108799,22.081547,21.26667,6.00523,5.104752,6.937923,7.944088,-6.808262,2.687874,17.538528,25.809574,-17.826519,-7.287426,7.623138,18.47208,-9.965343,-35.152503,-56.280653,-71.19063,-68.925038,-99.552069,-119.081995,-136.170897,-67.802261,-102.096217,-125.078547,-144.980612,-60.322619,-81.817196,-67.53905,-53.526338,-50.760444,-67.707536,-62.547641,-53.321419,44.562836,287.753076,-95.33638,8.422957
53,-0.208511,0.829432,-0.314369,0.12066,-28.28476,-51.812553,-71.484261,-86.157131,-57.911167,-86.986027,-102.346516,-113.45953,-49.807777,-81.484509,-98.912144,-112.175617,-39.59507,-68.804569,-85.485764,-97.552986,-28.402977,-50.760841,-63.259907,-73.764381,-13.883283,-9.492459,7.085983,20.054681,18.393472,38.031091,48.60764,57.139632,34.471118,54.161657,65.185155,74.245793,45.865983,64.239509,74.577702,82.729929,53.043789,69.619514,78.086113,84.719095,21.154861,34.260235,36.467686,27.413063,19.2346,20.808277,21.838703,21.170597,5.688343,4.830551,6.809464,7.900772,-7.08807,2.4226,17.347355,25.798302,-17.815876,-7.376232,7.890816,19.355621,-10.436468,-35.566447,-56.6351,-71.262291,-69.546093,-100.054625,-119.554386,-136.801677,-68.162606,-102.131415,-125.332434,-145.401163,-60.461063,-82.082816,-68.263845,-54.270214,-50.580997,-67.897449,-63.291888,-54.290623,44.406481,288.572041,-95.598593,8.53315
54,-0.198669,-0.027355,-0.040741,-0.202325,-28.119736,-51.58287,-71.198559,-85.934486,-57.744999,-86.374168,-101.963081,-113.336105,-49.710388,-81.116409,-98.852463,-112.377377,-39.639702,-68.631763,-85.38208,-97.5107,-28.500023,-50.717239,-63.248806,-73.861942,-13.844628,-9.431573,7.159652,20.071971,18.872037,38.62198,49.240396,57.684209,34.954376,54.511473,65.507925,74.318041,46.235991,64.592722,75.085784,83.126429,53.268561,69.869912,78.398508,84.837903,21.04929,34.171143,36.440392,27.710896,19.38612,21.623383,22.584629,21.777878,5.793228,5.777721,7.452278,8.403111,-7.104893,3.308029,17.959385,26.086006,-17.838593,-6.613483,8.654709,19.824543,-10.215803,-35.257694,-56.075549,-70.917569,-69.479958,-99.610948,-118.789021,-135.872581,-68.289317,-101.762147,-124.82114,-145.042517,-60.827583,-81.446293,-67.158791,-53.052064,-51.32614,-67.544144,-62.304529,-52.93622,44.233103,288.529726,-95.614042,8.315866
55,0.057335,0.522038,0.215836,-0.093428,-28.356056,-51.827087,-71.262417,-86.182594,-57.921638,-86.88858,-102.283859,-113.440418,-49.62616,-81.415901,-98.892517,-112.210121,-39.321899,-68.600121,-85.251102,-97.280331,-28.102455,-50.904808,-63.51305,-73.952522,-14.210993,-9.699631,7.095431,20.127053,18.337835,38.191642,48.734228,57.085909,34.430918,54.337213,65.373617,74.310569,45.708087,64.390304,74.890838,83.088267,52.678288,69.48354,78.117914,84.726382,20.844498,33.886013,36.174946,27.296391,19.074211,21.31279,22.346306,21.609249,5.588322,5.482235,7.18626,8.221664,-7.318726,3.536968,18.003216,25.760021,-18.043842,-6.594658,8.611736,19.630966,-10.084799,-35.283784,-56.248419,-70.996641,-69.238884,-99.521101,-118.717791,-135.907964,-68.063249,-101.794751,-125.024917,-145.402831,-60.630321,-81.161191,-66.362859,-51.994681,-51.207147,-67.622135,-62.438126,-53.205174,44.312067,289.021615,-95.376577,8.192288
56,0.352821,-0.102567,-0.170345,0.09559,-28.256607,-52.061234,-71.833076,-86.974297,-58.114128,-86.934128,-102.327919,-113.490715,-49.962387,-81.535549,-99.026756,-112.349739,-39.863548,-68.958321,-85.599289,-97.602882,-28.83625,-51.405945,-63.965378,-74.467564,-14.264901,-9.639363,7.281979,20.343611,18.349073,38.322491,48.840192,57.160936,34.377628,54.375005,65.405789,74.178176,45.614844,64.516522,74.938941,82.997926,52.597642,69.564,78.224249,84.841917,20.960484,33.897057,36.080132,27.203293,19.273739,21.645813,22.775059,21.937923,5.848103,5.544548,7.574158,8.599834,-6.986961,3.096657,17.699833,25.257568,-17.757568,-6.361828,8.783112,19.22121,-10.125555,-35.557585,-56.699043,-71.634368,-69.287328,-99.313558,-118.451832,-135.535177,-68.345541,-101.782895,-124.950322,-145.152031,-60.911131,-82.155681,-67.535592,-53.318825,-51.210666,-67.678266,-61.929179,-52.33934,44.715986,288.913968,-95.495825,8.282799
57,0.222015,0.287695,-0.174923,-0.229279,-28.142395,-52.039719,-72.006054,-87.411804,-57.889767,-86.950207,-102.393951,-113.551483,-49.770355,-81.817818,-99.517765,-112.747364,-39.761009,-69.307423,-86.113644,-98.038158,-28.799858,-51.750641,-64.504166,-74.889221,-14.471271,-9.905137,7.091911,20.457047,19.143801,39.135744,49.443493,57.501737,35.178654,55.025236,65.86373,74.347928,46.206784,64.924568,75.389534,83.44469,52.831923,69.461927,78.094573,84.793937,21.020222,34.253254,36.859303,28.330536,19.780941,22.397804,23.52356,22.738838,6.308498,6.472206,8.787632,10.033321,-6.612968,4.010124,18.159084,25.126362,-17.303753,-5.57642,9.48595,19.582901,-9.465844,-34.618979,-55.670621,-70.67983,-69.00942,-99.166901,-118.405427,-135.61573,-68.07458,-101.851253,-125.161015,-145.426234,-60.701983,-81.709627,-66.401144,-51.770002,-51.058884,-67.591661,-61.604835,-51.694697,45.017567,289.169785,-95.591183,8.021641
58,0.343437,-0.113497,0.418739,0.155241,-28.340378,-52.464981,-72.248154,-87.315788,-58.483772,-87.564411,-102.831573,-113.829288,-50.249748,-82.146435,-99.468155,-112.648373,-40.049744,-69.702873,-86.38298,-98.376617,-28.882713,-51.984558,-64.669132,-75.103054,-14.303495,-9.854069,7.076906,20.273463,18.510674,38.352255,48.904412,57.27573,34.679525,54.664367,65.678603,74.676564,45.986335,64.652681,75.113263,83.423201,52.988646,69.735358,78.392148,85.24243,21.121902,34.157639,36.582584,27.746716,19.396935,21.709843,22.599735,21.4991,5.881233,6.149311,8.460274,9.659214,-7.104092,3.661537,18.41898,25.880356,-17.984333,-6.561642,8.446369,18.655815,-9.606203,-34.689591,-55.587412,-70.523849,-69.645326,-99.56269,-118.729401,-135.649785,-68.622862,-102.090629,-125.016241,-144.789279,-61.062883,-82.010166,-66.552001,-51.698927,-51.030046,-67.462232,-61.302351,-51.273621,45.415163,289.025706,-95.118284,8.1463
59,-0.231972,-0.041064,-0.158043,0.309493,-28.221931,-52.185059,-72.160721,-87.127533,-58.397999,-87.282085,-102.544727,-113.604355,-50.215302,-82.188606,-99.727478,-112.981625,-40.146561,-69.835625,-86.572609,-98.655167,-29.15863,-52.299042,-65.047417,-75.693913,-14.304359,-9.820909,6.894742,20.133722,18.86438,38.721707,49.156107,57.257514,34.936531,54.759586,65.670946,74.217326,46.215058,64.922839,75.32976,83.385719,53.208169,69.862255,78.429816,85.169935,20.95396,34.171143,36.702404,27.562695,19.500332,21.977291,23.035183,22.103806,6.112347,6.54808,8.925419,10.22438,-6.859818,4.047375,18.486786,25.769348,-17.716942,-6.279774,8.823109,19.255257,-9.75922,-35.0688,-56.175677,-70.980277,-69.846632,-99.796076,-119.063501,-136.071479,-68.860818,-102.363812,-125.309926,-145.228447,-61.366571,-81.749024,-66.238586,-51.538283,-51.454642,-67.490916,-61.67131,-52.043772,45.228825,288.964912,-95.230694,8.436063
60,0.091553,0.308135,0.269222,0.313816,-28.283958,-52.37606,-72.414322,-87.395039,-58.433475,-87.630501,-103.02784,-113.985786,-50.145607,-82.385216,-99.858112,-112.892132,-40.087166,-69.901943,-86.582336,-98.405914,-29.20269,-52.465897,-65.275784,-75.762234,-14.237792,-9.879325,6.878008,20.281182,19.194189,38.849222,49.321783,57.576331,35.395398,55.021099,66.036076,74.791481,46.599825,65.124578,75.485186,83.544849,53.465236,69.994092,78.409747,84.935098,21.081676,34.276485,37.160225,28.420486,19.545765,21.924019,23.143444,22.369308,6.483135,6.553574,9.132786,10.596714,-6.144161,4.389153,18.460064,25.425568,-16.58638,-5.848217,9.100857,19.407578,-9.728314,-34.286114,-55.233027,-70.199844,-69.614481,-99.86641,-119.305408,-136.386931,-68.63617,-102.827681,-125.963801,-145.924436,-61.253074,-82.018317,-66.222377,-51.186244,-51.29511,-68.146304,-62.824036,-53.265103,45.393248,289.245259,-94.888601,8.722091
61,0.280266,0.214644,-0.391273,0.908966,-28.643761,-52.51236,-72.272587,-86.26894,-57.775726,-87.477608,-102.84874,-113.628273,-49.752617,-82.334633,-99.825668,-113.168221,-39.740181,-69.769535,-86.263905,-98.232422,-28.828125,-51.517639,-63.913879,-74.236221,-14.429898,-10.071863,6.851702,20.698059,18.26923,38.435494,48.713542,56.528303,34.709166,54.804602,65.587768,74.204544,46.04543,65.037263,75.307838,83.026825,52.844521,70.009406,78.339784,84.436772,20.847931,34.115982,37.417202,28.345928,19.268074,21.692619,23.037872,22.370453,6.596889,6.581097,9.490871,11.09024,-5.699158,4.45673,18.699245,25.897408,-16.009254,-4.535866,10.316963,20.252438,-10.491333,-35.320711,-55.983109,-70.716078,-69.903381,-100.403422,-119.869128,-136.942129,-68.808824,-103.128035,-126.049047,-145.84873,-61.052107,-82.938368,-67.882876,-53.434515,-50.777055,-68.010051,-61.921584,-51.934196,45.770159,289.411754,-95.183229,9.582907
62,-0.513611,-0.478936,-0.294914,0.289609,-28.590775,-51.987762,-71.487637,-85.864449,-57.640743,-87.409573,-102.710724,-113.484707,-49.435959,-81.938667,-99.2799,-112.455711,-39.201393,-68.975029,-85.43787,-97.410793,-28.005753,-50.587006,-63.054886,-73.463173,-13.920395,-9.39761,7.392512,21.165077,18.583663,38.851939,49.238914,57.314509,35.009273,55.083591,65.960926,74.643095,46.366964,65.292416,75.754232,83.740907,53.127029,70.250047,78.754746,85.095279,21.218147,34.758339,38.296165,29.70211,20.40493,23.185444,24.744244,24.272118,7.436886,7.399406,10.147877,11.696033,-4.966393,4.93515,19.641209,27.638054,-15.234661,-4.177608,10.970478,21.64999,-9.995292,-34.861936,-55.730426,-70.565592,-69.583915,-100.160465,-119.739143,-136.996932,-68.677048,-103.136156,-126.295678,-146.380494,-61.157886,-82.955967,-68.193326,-53.834997,-51.200169,-68.185021,-62.312989,-52.4554,45.274544,288.909306,-95.460148,9.849005
63,0.277405,0.228477,1.019039,1.497293,-28.691368,-52.492676,-71.816769,-85.947132,-58.752823,-88.333797,-103.620529,-114.388046,-50.225372,-82.332172,-99.603195,-112.759724,-39.489784,-68.974857,-85.420818,-97.334118,-27.766342,-50.392685,-62.864056,-73.06469,-14.607986,-9.724023,7.494215,21.385958,18.30276,39.041945,49.627509,58.043226,34.756466,55.02431,66.216078,75.460856,46.03697,64.984775,75.699213,84.131293,52.634013,69.710534,78.302548,84.875941,21.058617,34.57798,37.958336,29.173393,20.577736,22.716351,23.821106,23.117294,7.508583,7.382126,9.976501,11.67326,-5.208893,4.136581,18.48793,26.429844,-15.922451,-5.193729,9.810905,20.342846,-9.981553,-34.418414,-54.897351,-69.783863,-70.087181,-100.459955,-120.108071,-137.225007,-68.913491,-103.238445,-126.62274,-146.722715,-61.097093,-82.678892,-68.609864,-54.473805,-50.754084,-67.274202,-61.501867,-51.622449,45.676603,289.118331,-94.316454,11.326847
64,-0.347672,-0.15345,-0.144024,0.013307,-28.802948,-52.310829,-71.786156,-86.194382,-58.308277,-88.053875,-103.204937,-113.88382,-49.798279,-82.269173,-99.643478,-112.797661,-39.213409,-68.99374,-85.513,-97.503891,-27.787514,-50.824471,-63.481464,-73.813705,-14.117503,-9.366241,7.599932,21.582386,18.796764,39.222318,49.642391,57.783874,35.231759,55.172141,66.152969,74.973954,46.632553,65.427649,76.00852,84.210457,53.464989,70.514401,78.98631,85.354692,21.257458,34.858074,38.036156,29.001904,20.884323,23.068485,24.155388,23.535118,7.649918,7.457199,9.628887,11.046295,-5.120087,5.27298,19.634972,27.436867,-15.605679,-3.946438,11.174297,21.895523,-10.143061,-35.040642,-55.76479,-70.400811,-69.820512,-100.551901,-120.384404,-137.775173,-68.766185,-103.125596,-126.562132,-146.831488,-60.925457,-81.649637,-67.341449,-53.327995,-50.757202,-66.435755,-60.807051,-51.370199,45.49181,288.899272,-94.2976,11.274545
65,1.036263,0.636585,0.935783,3.158009,-29.021873,-52.941742,-72.735901,-87.180805,-59.452515,-88.55547,-103.861427,-114.995441,-51.212311,-82.572212,-99.830818,-113.272305,-40.827942,-69.590664,-85.988388,-98.112602,-29.412231,-51.795845,-64.140644,-74.494286,-14.463984,-10.000109,6.884059,20.742828,17.387805,37.410623,48.100607,56.736896,34.107408,54.36673,65.456054,74.663596,45.86728,64.864424,75.601338,83.948882,53.094363,70.137538,78.776112,85.241998,20.996704,34.601612,38.47229,30.60854,21.08717,23.900414,25.346546,24.563541,8.589935,9.215813,12.182751,13.909836,-3.912907,5.117397,18.935509,26.841831,-14.695473,-4.00795,10.897751,21.158066,-9.957439,-33.812241,-53.883101,-68.644784,-69.171916,-99.418688,-119.498872,-136.853146,-68.245351,-102.834258,-126.166281,-146.309111,-60.787013,-81.924735,-67.057706,-53.130147,-50.82556,-67.293222,-60.983626,-51.001888,46.812315,289.506834,-93.077574,14.403531
66,0.108719,0.056872,0.595608,3.084186,-29.128189,-53.126335,-73.319778,-88.379459,-59.924526,-88.903084,-104.263573,-115.761509,-51.87561,-82.887955,-100.32692,-113.988361,-41.583023,-69.830589,-86.290913,-98.44883,-30.076103,-52.329712,-64.736996,-75.213432,-14.681654,-10.173813,6.128543,19.398583,17.36965,36.763355,46.967116,55.121258,33.814032,53.255778,63.87617,72.278548,45.631393,64.220428,74.704166,82.567896,53.007109,69.844532,78.630072,85.162216,21.372128,35.332775,39.847126,32.416821,21.433468,25.059471,27.060699,26.630917,8.770752,9.945831,13.325329,15.181789,-3.661079,6.779594,20.515995,27.934341,-14.015007,-2.037449,12.871685,22.587833,-9.975532,-33.176798,-52.820438,-67.420335,-68.649075,-99.223619,-119.342366,-136.636495,-67.862591,-102.618471,-125.794852,-145.798805,-60.520498,-82.166426,-66.859734,-52.609653,-50.596929,-67.709203,-61.036392,-50.66717,47.328987,289.597175,-92.074013,17.521185
67,0.673828,0.314989,1.262455,4.607847,-28.971748,-53.204727,-73.660984,-89.565525,-59.908562,-89.589787,-105.075245,-116.73214,-51.78257,-83.702602,-101.382122,-115.11795,-41.509094,-70.807228,-87.691498,-100.093117,-30.081367,-53.070259,-66.069603,-76.945152,-15.168248,-10.6969,5.569393,18.074716,16.406776,35.547613,45.41644,53.246269,32.921985,52.322297,62.397062,70.417762,44.756452,63.314982,73.315647,80.9756,52.143345,68.700359,77.150532,83.681627,21.613884,35.830479,40.175629,32.680721,21.674423,25.601692,27.813206,27.458611,8.741341,10.812378,14.234276,16.437721,-4.064026,7.05368,21.396103,29.959145,-14.422417,-1.123466,14.269753,24.897766,-10.030089,-33.190383,-52.814788,-67.540131,-68.379813,-99.141985,-119.452343,-136.774322,-67.586166,-102.246116,-125.297545,-144.990739,-60.277202,-80.684972,-66.246243,-52.944494,-50.355948,-65.804172,-59.477503,-49.740821,48.329458,289.964096,-90.484915,22.180964
68,1.516685,-0.294302,1.796265,6.284648,-28.648109,-53.246384,-74.354439,-90.593777,-59.852028,-90.3368,-106.153393,-117.971306,-52.01992,-84.745846,-102.856636,-116.906776,-42.059898,-72.053375,-89.659939,-102.878609,-31.055832,-54.827042,-68.505363,-80.350628,-14.747048,-10.925624,4.673642,16.83168,15.375173,33.26822,42.747896,50.795024,32.012834,49.82968,59.164552,66.900211,44.132155,61.591528,70.884595,78.147122,51.831629,67.682959,75.364649,81.407544,21.559238,35.403728,39.295464,32.614403,21.920815,25.805569,28.589001,29.118919,8.927536,11.215668,14.927959,17.418194,-3.770485,8.259315,22.297554,30.085545,-14.16029,-2.497787,12.368546,23.23637,-8.370207,-31.095933,-50.375924,-64.450974,-66.707365,-96.538525,-116.804177,-134.23073,-65.849991,-99.752264,-123.642418,-144.011841,-58.726556,-77.891908,-62.83441,-48.038486,-49.159225,-65.120317,-59.705362,-50.094188,50.639935,289.689723,-87.894859,28.485542
69,-0.032387,-0.6498,5.026073,8.088285,-28.115387,-52.274437,-73.40641,-89.020214,-58.894329,-89.665718,-105.749645,-117.968903,-51.389923,-85.293503,-104.49995,-119.28772,-41.831589,-73.034248,-91.415462,-105.380344,-31.560059,-56.562538,-71.273861,-83.967133,-15.120391,-11.490949,3.193423,15.697387,14.915503,32.146894,40.549026,47.197692,31.465293,48.32439,55.965942,61.589182,43.766654,60.425866,68.332759,74.000644,51.759442,67.259228,73.98181,78.857067,21.617374,34.789238,37.513847,30.671482,19.052238,23.296795,25.497437,24.822121,5.670147,11.205826,16.626034,20.205631,-7.37154,8.63205,21.649361,27.744083,-17.804203,-1.906872,12.193165,20.084038,-9.432839,-30.757602,-48.664296,-60.881244,-66.518285,-96.321102,-115.242602,-132.168297,-65.404585,-99.113734,-121.528053,-140.191343,-58.262193,-74.520644,-58.338208,-43.778263,-48.289718,-61.514896,-53.590589,-43.256966,50.821323,288.836965,-82.65501,36.370869
70,1.57917,0.937371,4.140186,11.218753,-26.86409,-51.540413,-73.348732,-89.178543,-59.810085,-90.820484,-107.351704,-119.926128,-52.846527,-87.356644,-106.601143,-121.113682,-43.729134,-75.426292,-93.682709,-107.151031,-33.861465,-59.080524,-73.65715,-85.970993,-16.983339,-14.433047,-0.097072,12.191199,13.347166,29.746841,37.562035,43.858539,30.191011,45.114357,51.471253,56.240052,42.474589,57.401763,64.461873,69.363497,50.257364,64.332505,70.207625,74.452904,20.815372,34.547768,38.919582,31.110077,19.400196,24.355659,27.329006,27.434464,6.246586,11.470356,15.631771,18.716812,-6.712132,9.21793,21.69651,27.834435,-16.301136,0.576611,14.572449,22.707596,-8.912931,-28.124688,-44.096587,-54.072458,-67.075397,-97.285242,-115.587848,-132.374543,-65.358674,-98.562333,-120.066791,-138.134745,-57.22562,-69.062711,-53.260687,-39.782981,-45.265275,-55.929756,-47.714574,-37.392375,53.00128,289.72188,-77.914038,47.537165
71,2.352562,-0.094663,3.727512,14.4529,-27.027512,-52.449303,-75.317917,-92.15229,-59.916458,-92.119274,-109.255886,-122.195091,-53.015556,-88.457336,-107.95887,-122.903023,-44.08596,-76.642056,-95.160599,-108.87394,-34.47464,-60.374222,-74.964294,-87.22023,-17.238739,-15.422474,-1.397597,10.601805,12.704406,28.290334,35.70557,41.716479,30.182119,44.353654,50.882278,56.050911,42.752465,57.100297,63.686596,68.514861,50.681342,64.355724,70.11148,74.514099,20.303249,34.920845,40.338879,33.328857,19.885941,26.558704,30.185795,31.954651,6.039333,12.393665,18.437862,23.33456,-6.55323,13.463802,23.157692,26.382694,-15.308018,5.007019,16.708431,22.308598,-10.549564,-28.458357,-42.095565,-50.01453,-65.25024,-95.736048,-112.049241,-127.824866,-63.092495,-95.68143,-114.862096,-131.689423,-54.717688,-58.236474,-42.480362,-32.079895,-41.407387,-47.615619,-39.227443,-30.483461,55.605726,289.487506,-73.934641,61.850355
72,-0.705299,-0.725753,2.470264,11.874975,-26.892242,-52.014542,-74.782104,-92.100334,-59.704971,-91.948872,-108.874855,-121.485214,-52.851219,-88.393192,-107.788124,-122.455902,-43.982735,-76.673813,-95.273438,-109.295368,-34.341087,-60.027065,-74.869881,-87.608528,-16.895283,-14.918653,-0.962257,10.500225,13.063485,28.941986,36.796515,43.101602,30.523352,45.139551,51.702694,56.768018,43.135936,57.618383,64.30867,69.303105,51.106308,64.734254,70.318776,74.580789,20.257931,35.336609,41.467724,36.035328,20.380039,27.087822,31.809826,33.74548,6.118927,12.978458,19.138756,23.586845,-6.812668,13.184681,23.373356,26.661129,-15.258293,5.075626,17.060909,22.19799,-9.695216,-28.13287,-41.94335,-49.054219,-65.031705,-95.641354,-113.532455,-130.275801,-63.095799,-95.712212,-117.069086,-135.673837,-54.656185,-60.053634,-43.824422,-31.629796,-41.906701,-47.416937,-38.029794,-28.074115,54.95656,288.533277,-71.408243,73.496853
73,1.653099,1.100578,-2.449322,31.22073,-27.22847,-52.523117,-75.205879,-92.398281,-61.735554,-93.18512,-109.431095,-121.580601,-54.67804,-89.157543,-107.738514,-121.829853,-45.623474,-77.237778,-95.159683,-108.425274,-35.755234,-60.364265,-74.269409,-85.952911,-17.027985,-15.267295,-1.124228,10.650464,12.842604,28.434891,35.972888,41.899198,30.287033,44.91231,51.434512,56.558067,42.603832,57.466168,64.411731,69.485763,50.092058,64.25859,70.412204,75.017056,24.440002,43.087234,52.72356,48.129358,25.678167,37.023668,45.833073,50.721731,13.150549,29.899778,35.372801,36.035128,4.079819,30.864372,36.500015,34.090948,-0.621929,24.119196,31.958084,31.974792,-13.080574,-29.610634,-41.149764,-46.403597,-64.324369,-90.229794,-104.822482,-117.726851,-60.528371,-75.968428,-82.682628,-90.190336,-49.822131,-45.239308,-32.298938,-25.102237,-34.874486,-32.514741,-25.03516,-19.486716,55.863247,289.149654,-74.603977,104.233383
74,0.895844,-0.078423,-2.449322,31.220731,-27.564697,-52.62989,-74.87709,-91.781044,-61.243973,-93.135052,-109.642925,-121.759186,-54.536476,-89.227295,-108.087502,-122.496986,-45.746155,-77.547112,-95.34296,-108.354263,-35.841751,-60.094414,-73.772621,-85.135975,-17.07368,-14.876168,-0.452816,10.916917,12.887373,28.680535,36.398225,42.26686,30.319082,44.800294,51.70152,57.200456,42.741783,57.400342,64.773897,70.25684,50.17857,64.100015,70.331311,74.900471,28.622074,50.83786,63.979397,60.223389,30.976295,46.959515,59.856319,67.697983,20.182171,46.821098,51.606846,48.48341,14.972305,48.544064,49.626675,41.520767,14.014435,43.162766,46.855259,41.751595,-16.465933,-31.088399,-40.356179,-43.752977,-63.617034,-84.818236,-96.112509,-105.177902,-57.960944,-56.224645,-48.29617,-44.706835,-44.988077,-30.424984,-20.773456,-18.574678,-27.842273,-17.612545,-12.040528,-10.899318,56.199846,288.958799,-77.612543,135.341682
75,1.525841,0.343024,-0.087376,8.17878,-27.693329,-52.665253,-74.844532,-91.283112,-61.803589,-93.40765,-109.956436,-122.200928,-55.01049,-89.379044,-108.196735,-122.594948,-46.182861,-77.75774,-95.44241,-108.418636,-36.216774,-60.438995,-73.97438,-85.039215,-16.896024,-15.142066,-0.853946,11.174478,13.034894,28.488553,36.235389,42.281001,30.327727,44.898478,51.782722,57.432267,42.613095,57.39355,64.553572,69.98026,50.075509,63.987012,70.125126,74.724668,20.91711,43.632545,61.600456,68.160782,34.856987,64.977207,79.915123,86.103859,26.186771,62.222672,77.198753,82.518883,22.249317,56.582794,63.183346,61.159058,21.840019,48.075771,54.54134,53.490543,-24.581326,-35.77612,-33.842313,-21.446289,-55.594452,-72.811084,-66.524275,-58.118963,-41.868508,-52.047817,-43.208832,-34.976946,-22.916195,-15.473048,-7.303962,-3.476795,-2.201773,4.258185,10.50745,14.46312,57.154226,289.205091,-78.271379,143.42373
76,0.014534,0.689505,7.939453,26.609673,-26.935959,-52.023582,-74.68071,-91.073112,-61.530533,-93.589325,-109.936466,-121.687775,-55.040817,-89.872284,-108.593159,-122.74332,-46.422844,-78.211784,-95.817261,-108.782558,-36.520615,-60.527916,-74.009914,-85.208874,-17.210396,-15.59414,-1.645772,10.924759,12.471792,28.151828,35.849263,41.591002,30.063929,44.608868,51.617849,56.967904,42.437909,57.088565,64.580063,69.948829,49.82826,63.605333,69.856636,74.377568,18.641968,45.843945,72.144585,85.177917,40.035782,78.439751,86.998901,85.210075,38.98201,76.022415,75.860939,69.145203,37.317467,67.07016,62.675171,55.029373,35.117569,56.200447,52.109127,46.354351,-25.278334,-37.501704,-30.416215,-19.14201,-46.460578,-45.055941,-33.226476,-25.185091,-29.144712,-26.718107,-17.889527,-14.561612,-11.176578,-4.15358,-1.479849,-2.435066,6.042895,12.993769,13.303262,11.06271,56.452932,289.691668,-71.047754,169.830475
77,-0.085716,0.283249,-1.835289,21.832692,-26.934242,-51.261864,-73.709335,-89.973278,-60.92617,-93.265915,-109.668961,-121.305313,-54.401779,-89.860725,-108.607121,-122.491665,-45.758743,-78.429737,-96.013069,-108.445702,-36.154289,-60.765152,-74.186897,-84.769535,-16.863914,-15.521337,-1.83127,10.610944,12.549598,28.073343,35.952263,41.797248,30.166682,44.725885,51.581848,57.018354,42.753392,57.173657,63.985283,68.879435,50.488125,63.948418,69.615315,73.596241,24.344587,55.417556,80.470047,91.881923,49.519815,89.398098,99.174442,98.615341,44.364824,86.04309,87.351265,80.834312,38.96141,75.42612,71.74776,62.83699,33.635072,62.435703,60.182447,53.546877,-19.972492,-24.708934,-12.48791,0.646804,-31.317277,-20.928234,-8.153617,-1.042224,-13.295759,-2.924314,3.873171,4.999838,5.405662,16.573255,17.182175,14.938814,23.05995,29.608736,27.154589,23.831614,56.018801,289.864045,-73.231458,191.552295
78,0.769615,-0.974854,-1.835289,21.832692,-27.375069,-51.450005,-73.751907,-91.285629,-60.262756,-92.765808,-109.400826,-121.551933,-53.797989,-89.0308,-107.908173,-122.37957,-45.302124,-77.620354,-95.501633,-108.439007,-35.932617,-60.536728,-74.006138,-85.020676,-15.714801,-13.436951,0.204517,11.175343,12.970798,29.030227,36.876358,42.518987,30.319576,45.435521,52.757761,58.448432,42.957415,57.834077,65.309459,70.705951,50.761988,64.774515,71.015135,75.490126,30.047207,64.991169,88.795509,98.58593,59.003849,100.356445,111.349983,112.020607,49.747639,96.063766,98.841591,92.523422,40.605354,83.782082,80.820351,70.644608,32.152576,68.670959,68.255768,60.739403,-14.666649,-11.916162,5.440397,20.43562,-16.173977,3.199474,16.919242,23.100644,2.553194,20.869478,25.635869,24.561288,21.987901,37.300089,35.8442,32.312694,40.077005,46.223703,41.005917,36.600519,56.610689,288.931768,-75.244474,213.427563
79,-1.935425,1.561421,-4.129772,15.366961,-32.640381,-54.671059,-73.372478,-84.130898,-59.629097,-91.671238,-107.632027,-120.3685,-54.871216,-87.70134,-107.196064,-122.239151,-47.593002,-77.474728,-95.979652,-109.708099,-38.343315,-59.951935,-73.269367,-84.816227,-6.472493,-2.748202,4.742432,14.397973,12.417884,26.054907,34.212507,40.178276,26.657468,41.772116,49.76089,54.994423,39.002857,54.309796,61.907629,66.01681,48.481422,62.605038,69.189175,73.160838,34.72784,63.950958,82.982197,95.755177,60.51693,91.766682,108.446445,121.348515,50.944691,87.071285,108.073826,126.505795,42.248211,77.916927,97.998562,114.122257,33.741703,61.139202,75.799198,86.217556,-9.634546,-6.037461,2.889734,11.315145,-3.216826,7.175274,19.696467,30.471235,8.596151,21.421774,33.413765,43.745906,22.598181,33.869545,42.391102,49.568785,37.147072,42.947041,44.095784,44.779423,54.636354,290.495659,-79.413157,228.796994
80,-3.509331,4.253801,36.454983,34.291486,-33.157768,-58.113098,-75.885429,-90.153637,-59.767685,-85.468597,-101.921368,-117.040215,-54.612122,-81.570168,-99.88615,-115.263062,-47.138443,-71.443233,-87.409172,-98.928852,-37.57782,-55.880814,-68.230705,-77.594662,4.4485,16.682491,33.322931,48.961902,18.403908,26.210086,31.54773,35.646228,27.494865,38.946294,46.570123,52.612092,35.633075,49.408851,56.020283,60.123721,42.385668,54.13708,61.060722,65.538121,36.095123,53.920441,60.55069,57.041817,61.364479,61.767769,51.973,40.652161,47.591743,47.839851,31.099834,13.781605,32.299175,27.020702,9.965057,-5.942516,16.928959,13.942966,1.049023,-10.457783,3.088447,13.50358,28.851645,40.714393,14.853938,47.861571,61.783448,66.832162,18.844064,59.513874,75.47475,80.204214,26.013226,63.363642,78.836133,81.893026,33.749873,62.26504,75.186622,79.195891,50.984774,294.963085,-43.100424,263.302105
81,-0.211601,8.578305,-23.300285,10.892155,-24.826813,-49.698257,-69.927979,-85.050774,-51.345749,-75.269966,-94.968395,-113.155918,-44.766197,-67.49897,-82.770481,-93.803844,-35.518913,-57.643661,-66.48634,-70.837841,-25.506363,-42.904587,-48.437691,-51.230049,27.584465,44.279244,53.959116,63.181848,38.652794,36.497705,37.070687,38.365716,21.897252,17.67303,13.10529,9.693456,2.162808,-1.457001,-4.59843,-6.611987,-18.575635,-21.928683,-23.287254,-23.146339,40.167561,72.692871,93.904724,100.57869,71.769791,107.022972,107.454529,99.69841,58.463631,98.137093,96.08448,83.057098,43.587799,76.457405,71.732597,58.616295,27.212505,50.516911,48.3708,40.286751,-6.675281,1.251125,15.488794,26.0483,8.14525,34.636053,44.086089,44.853215,24.146511,51.43939,57.560338,54.801638,40.215018,66.108015,69.298165,65.879847,54.496282,75.237381,77.416183,75.020576,50.601912,303.66151,-66.57197,274.31438
82,-8.354988,-3.764552,-9.864464,9.92891,-18.309174,-41.795883,-61.182232,-78.700562,-65.195446,-63.210239,-45.280266,-29.437408,-63.501377,-57.916031,-37.343102,-16.066017,-57.477264,-51.50116,-31.059837,-12.661972,-49.084625,-49.578667,-37.203827,-24.999847,33.518618,50.292623,56.847244,66.340073,34.185893,42.766421,47.597835,50.881043,17.82333,28.473362,38.397765,43.495446,0.327956,11.205539,21.728056,27.7607,-16.598387,-6.771056,2.619082,9.60997,41.032219,73.713226,96.728897,109.129486,58.37328,93.273354,107.066574,112.52655,41.590748,82.079887,100.446739,108.141403,28.58551,68.276253,87.076836,96.34243,19.08371,50.898972,66.901188,75.520706,-6.426551,-1.148249,10.949768,22.75725,6.562772,34.736398,43.616107,45.336658,21.679829,49.700004,57.413125,57.056022,36.148938,61.786412,66.802831,64.254947,47.979823,67.815908,72.018085,69.740483,42.142353,299.948875,-76.541004,284.295207
83,-4.649391,-2.359792,-7.688198,10.144975,-11.141396,-28.907661,-43.638954,-53.666725,-56.99461,-53.286438,-37.30545,-22.373085,-56.682587,-49.795303,-30.046463,-10.634995,-51.864395,-44.647636,-25.148506,-8.29319,-44.096832,-42.693214,-32.149429,-20.670547,32.957121,53.114864,63.003019,73.328799,39.303334,54.078911,60.936048,64.151515,23.968793,38.677556,48.473024,53.651475,7.103026,20.395358,30.798574,35.872173,-10.670348,0.284114,9.742733,15.538256,33.218079,61.171017,84.342442,101.451702,54.007816,87.341709,104.829769,117.435207,44.682026,82.792454,103.625164,117.405567,36.820278,73.04409,93.281422,106.19997,30.234718,57.682972,74.536915,87.447796,-11.382021,-9.559828,0.377789,8.970359,10.734383,29.794142,37.317873,41.844302,28.552773,46.755004,53.981531,57.116044,42.355596,59.967678,65.951293,66.562992,51.875842,67.863024,72.227357,71.493515,37.605085,297.586628,-84.117079,294.437728
84,-16.292496,1.585288,3.296986,4.769231,-3.069648,-12.511425,-21.324348,-26.391105,-44.607324,-31.093082,-12.280941,2.570172,-50.783815,-35.049247,-11.726703,9.520913,-51.327982,-37.057199,-13.085346,6.32515,-48.474083,-41.139307,-25.482673,-10.786686,5.298556,15.116007,25.672641,37.052161,19.732406,38.699477,47.740725,51.82181,22.848671,40.892913,51.834716,56.370901,23.353172,38.472946,47.199514,50.858318,21.351007,33.787293,39.443724,41.795488,30.029812,55.50642,79.155693,99.780579,50.552101,84.528008,102.386856,114.038544,41.497822,79.338455,100.836754,114.340096,33.63636,68.74752,88.942108,101.844292,26.974239,53.906078,70.740051,84.156876,-10.26051,-7.409679,1.227722,7.659892,18.133564,35.299808,41.241618,44.708163,34.526261,50.102555,55.032029,56.731091,45.719696,62.317898,67.099788,67.390571,52.834949,68.895923,72.94817,73.242719,21.300373,299.167856,-80.83231,299.202899
85,-16.292495,1.585287,1.648235,2.927525,5.002098,3.884811,0.990257,0.884514,-32.220039,-8.899727,12.743568,27.513428,-44.885044,-20.303192,6.593056,29.676819,-50.791569,-29.466763,-1.022186,20.943489,-52.851334,-39.5854,-18.815918,-0.902824,-22.360009,-22.88285,-11.657737,0.775523,0.161477,23.320043,34.545403,39.492105,21.72855,43.108271,55.196409,59.090328,39.603318,56.550533,63.600454,65.844464,53.372363,67.290474,69.144715,68.052721,28.413162,53.949623,76.326199,95.27853,49.107685,83.044224,100.695934,113.338337,40.050259,77.968769,98.578892,112.666569,32.31966,67.118969,86.801548,100.601063,26.004124,51.939983,67.783356,81.645069,-10.337945,-8.838645,0.212051,8.682972,18.198402,34.463214,40.283561,43.916646,34.470871,49.553903,54.679805,56.337927,45.209761,61.576585,66.413865,66.292031,51.658048,67.690061,71.960163,72.039513,5.167665,300.805322,-79.024286,302.182603
86,-22.414799,13.730019,2.242069,2.969886,7.82095,14.453945,20.574474,26.04681,-17.439766,9.930782,31.48859,45.38229,-26.485577,3.91674,30.827236,52.872906,-28.375854,0.15873,25.356274,44.97591,-26.158676,-10.04282,8.886909,25.400791,-18.054585,-21.412141,-8.241025,4.699762,-8.050278,5.836649,16.69126,22.816592,13.421082,27.358397,36.940208,38.258456,31.434541,43.423631,47.90844,46.866278,45.271635,54.97633,54.601382,50.66893,27.096577,51.283264,72.675819,92.125854,49.029408,82.777405,100.246239,112.367134,39.740753,77.286987,97.741356,111.691017,31.344738,65.581226,84.998245,98.770752,24.377174,50.436401,66.28418,79.931831,-12.416773,-11.271117,-1.528817,5.880121,19.10743,34.295129,39.164643,42.459336,35.626097,49.749466,53.431396,54.701849,45.926004,61.861007,65.653162,65.534971,51.342257,66.581888,70.086718,70.06671,-17.040682,314.55419,-76.575766,305.171339
87,-3.779411,20.503977,0.331364,0.954476,5.829849,12.038097,20.23962,26.526203,-0.95026,19.582043,33.073826,43.159733,-8.825512,13.564625,32.030582,48.5919,-13.361893,7.215157,23.011494,36.908855,-15.206108,-4.243412,8.321228,20.141888,-23.671897,-32.451879,-25.93295,-20.499037,-17.465981,-11.5125,-3.564913,2.389679,-0.18062,9.822021,14.572603,15.022146,15.375667,24.135643,26.514639,25.337553,27.681598,34.359102,34.242456,31.332283,26.158962,50.734577,72.391605,91.724911,50.552731,84.359837,101.739635,114.015827,41.506863,78.685169,98.54948,112.272205,32.910175,66.889343,86.20245,99.910183,25.424938,52.231064,67.501888,80.2141,-14.316833,-13.61788,-3.728305,4.24108,17.925651,31.726435,36.681227,40.558782,34.609377,47.044304,51.209061,53.77405,45.319739,59.485716,63.697711,64.613532,50.978485,65.121676,68.383888,68.71061,-20.701504,335.062614,-76.125813,306.130261
88,-11.775913,2.669223,0.569,-0.52105,12.759018,24.743156,31.987038,36.189308,14.90839,34.286499,51.948509,66.46328,8.747692,31.707573,51.188622,68.75164,4.04377,27.578087,45.941048,60.452957,1.305256,11.410446,22.269287,32.455215,-17.417568,-28.045555,-33.345222,-34.788083,-13.629613,-3.670938,3.616475,6.113723,1.082608,12.792648,16.919057,17.558359,13.625352,24.872881,25.282039,22.848023,23.552533,32.707094,32.828001,30.276042,25.770721,49.846573,71.20863,90.257893,50.890331,83.963528,101.147633,113.024998,42.044792,78.485813,98.269329,112.057629,33.400669,66.888199,86.311169,100.184612,25.678253,51.828518,67.320385,80.401554,-14.745937,-13.918419,-4.073613,3.506435,18.682587,31.790779,35.986041,38.664465,35.289681,46.870847,50.078411,51.616367,45.657946,59.091316,62.657217,62.951272,51.156944,64.892643,67.967876,67.927429,-32.388268,337.749961,-75.467663,305.627335
89,48.217735,-40.117328,0.645218,0.103494,-0.23735,-5.609665,-9.039917,-9.423065,-42.200775,-22.285194,0.569458,16.83609,-52.460804,-32.768097,-4.726295,19.380798,-56.820488,-38.80537,-11.216469,9.816971,-57.900639,-47.017937,-26.028156,-8.677483,-17.610044,-16.883242,-3.217011,9.472575,3.611041,28.441808,39.079674,43.119633,23.231555,44.945408,56.392514,60.446305,39.961347,57.720457,63.47189,65.276916,53.95362,68.958476,69.201031,67.976027,25.800076,50.087929,71.662617,90.796566,50.748653,84.479885,101.806011,113.562412,41.810589,78.928585,98.712788,111.503162,33.051796,67.10535,86.289654,99.197788,25.455608,51.84042,67.18935,79.648762,-14.811454,-14.093667,-4.312093,3.185766,17.603993,30.424613,34.877065,38.390972,34.628273,46.127249,49.63566,51.906285,45.415452,58.598918,62.003156,62.516858,51.011089,64.92216,68.011286,68.036542,15.912724,297.711302,-74.739189,305.809498
90,-21.728554,17.616158,-0.167484,-1.184682,3.452339,6.969337,13.845291,17.422829,-20.132446,-3.482437,15.546455,29.851341,-27.312927,-6.659946,19.544106,41.662674,-29.602776,-9.826756,14.743309,34.261208,-28.641529,-17.995605,-0.881538,14.161148,-16.643774,-19.475833,-6.440691,5.850481,-5.604282,5.476027,14.808243,21.015271,12.18243,23.190305,32.944092,36.284233,27.356235,37.44088,42.045979,42.124773,39.531811,47.570171,47.601725,45.584092,25.876465,50.711632,72.500839,90.765953,50.932846,84.773483,101.902199,113.831406,42.32008,79.543991,99.322243,112.522888,33.698616,68.161926,87.705688,101.03508,25.912743,52.678642,68.105392,80.728912,-15.680714,-15.48231,-5.853075,2.339414,15.900484,29.175341,33.811253,37.325839,33.158489,44.598124,48.058987,50.086685,44.337907,57.133581,60.719921,61.104688,50.308308,64.10582,67.287571,67.297575,-5.742502,315.360821,-74.833345,304.658177
91,-14.872799,-2.636187,1.607895,-0.882846,10.046825,18.823528,23.026142,27.425823,-0.666733,23.659229,43.83379,54.899883,-10.231075,14.773693,39.061375,57.731838,-18.141575,4.359684,28.22897,44.889736,-25.498924,-9.599648,10.120354,24.546604,-24.367207,-30.668713,-25.054859,-15.217463,-12.338597,5.655288,15.012266,19.853313,9.529262,26.767013,35.982583,39.71206,27.962995,41.774462,45.137946,46.67973,42.822429,55.135708,53.146171,50.10836,25.115891,49.165249,70.44754,88.382492,50.381069,84.22142,101.570778,113.425026,41.4188,78.804588,98.65139,111.820564,32.465343,67.261505,86.691399,100.082474,24.613552,51.356277,67.018661,80.224113,-15.286129,-15.053392,-5.534195,2.746967,16.368923,29.748755,34.02565,36.817139,33.627113,45.574151,49.248053,51.158364,44.618625,58.317089,61.986607,62.185444,50.596003,64.883628,68.04846,67.715317,-20.51651,312.775964,-73.126659,303.826662
92,-7.750568,0.542107,-1.119518,-0.806275,6.71196,15.653915,29.335213,39.176216,-4.847374,22.629433,41.992378,53.380508,-12.640228,20.81646,46.728401,64.546852,-14.155312,16.944008,40.522041,55.906105,-12.405682,9.650803,27.024765,39.876022,-22.737737,-27.44565,-15.364552,-3.311798,-13.375201,-0.534079,10.000788,16.895221,10.742225,26.057254,35.533719,36.069836,30.723547,42.4108,45.320171,41.88833,46.784891,54.685609,52.752883,46.893139,25.423393,49.351158,70.402737,88.924999,50.268631,83.706379,101.160336,113.074322,41.349277,79.061794,99.168034,112.713032,32.467175,67.346821,87.24947,100.935688,24.372196,51.005287,66.884136,80.26125,-16.95197,-17.248434,-8.099678,-0.951574,14.967621,29.238141,34.033925,37.034871,32.425141,44.802517,48.835128,51.08167,43.836185,57.397934,61.49458,62.163028,50.25335,64.750432,68.377466,68.415813,-28.177786,313.328692,-74.156885,303.031008
93,1.460323,3.068254,-0.84589,-0.685183,4.670563,12.090626,24.738522,33.716869,-0.667534,25.099125,42.37936,53.508167,-7.896709,20.642567,44.198742,60.557384,-10.728264,15.722866,37.440205,52.206745,-11.279469,6.428661,22.679386,36.055813,-21.75183,-26.45542,-17.551443,-7.495018,-9.808065,0.880252,10.385493,16.670203,10.781498,25.081721,33.380791,35.826292,27.135848,38.954012,42.582405,41.884625,39.729536,50.12565,50.421126,48.218488,25.062275,49.131489,70.929565,90.237122,51.120071,84.829903,102.177544,114.268341,42.083244,79.447632,99.565659,113.403282,32.983246,67.883835,87.891884,101.880913,24.789162,51.959553,68.1427,81.727638,-17.093502,-18.24101,-11.093338,-4.84432,15.424265,29.204919,33.980572,37.180417,32.724631,44.725638,48.521498,50.372096,44.162413,57.84371,61.613944,61.874654,50.575996,65.126369,68.553825,68.259091,-26.628485,316.38827,-74.913797,302.337149
94,-8.665867,0.145916,-0.174408,0.90557,8.824883,24.153957,39.296494,49.994202,9.535789,37.548866,57.014008,72.057266,1.517773,34.144363,58.036537,76.779442,-2.542419,26.687393,47.243385,63.220139,-3.417721,14.358387,25.97208,36.625099,-16.938015,-20.705716,-16.052205,-9.890316,-12.561207,1.254213,10.990091,19.995524,6.549928,23.054825,32.406122,36.457567,23.841711,39.181933,44.265227,44.775409,38.478534,52.781473,54.398778,53.509449,25.344486,49.396648,71.407127,90.567856,51.608047,84.640274,101.7342,113.888283,42.790318,79.89006,99.862289,113.375702,33.81649,68.043365,87.751808,101.399574,25.732384,52.496624,68.422966,81.845512,-17.124377,-18.676721,-11.446303,-5.13183,14.725127,28.714621,33.61254,36.88383,32.033458,44.447453,48.732869,50.955761,43.36997,57.541813,61.33866,61.633271,49.792692,64.074944,67.174753,66.884588,-35.156479,316.501027,-74.950333,303.209559
95,71.957817,-20.598455,-0.855446,-0.332649,-13.919449,-33.519859,-51.299286,-65.161629,-70.483704,-55.464535,-29.223289,-11.4394,-75.854359,-59.070168,-29.248352,-4.370728,-73.930321,-58.772449,-30.746269,-8.640175,-68.236828,-60.168457,-40.900612,-25.075607,4.556192,11.910605,25.81161,38.702132,13.988753,38.872378,47.933757,50.308802,26.412318,47.011268,55.733575,55.983912,36.844804,53.442944,57.884157,56.537813,45.628861,58.777006,57.692237,55.48855,25.451546,50.066586,72.213593,91.681252,51.554375,84.254379,101.311455,113.581352,42.728691,79.87896,99.756088,113.220177,34.035645,68.557377,88.142395,101.775398,26.273403,52.900143,68.883934,82.345161,-16.24499,-16.765669,-9.119239,-3.120434,15.786184,29.667059,34.154091,36.552601,33.264144,45.443178,48.485806,48.679517,44.568113,58.39403,61.164586,60.196525,50.761062,64.979279,67.911745,67.253609,36.957865,295.919136,-75.649252,302.893474
96,-18.067589,12.711878,1.112652,0.405885,-1.254845,-5.115852,-8.239746,-9.6595,-37.084694,-27.338047,-7.412224,8.521385,-43.825493,-31.760845,-7.396889,14.631844,-45.153465,-34.358711,-12.033577,6.588478,-43.290253,-36.50362,-21.52359,-7.751427,-10.116076,-6.946674,5.872835,15.832497,6.533749,20.804764,28.165104,33.148609,20.0511,32.3729,40.552854,44.143702,30.565775,41.898704,46.29731,47.965806,38.439323,48.168471,50.48337,51.968776,25.2491,49.648819,72.032833,91.791859,51.292076,84.671345,101.711597,113.651562,42.840271,80.125408,99.543972,112.133846,34.189568,68.95071,87.860813,100.396328,26.381207,53.239746,68.91901,81.685009,-16.442467,-17.432759,-10.052905,-3.668283,15.3091,29.3743,34.100862,36.638434,32.870238,45.17833,48.380954,48.486609,44.417071,58.267565,61.131735,59.830406,50.698385,65.091665,67.932925,66.880327,19.062967,308.690695,-74.363909,303.359041
97,2.667961,-4.607075,-1.308975,-0.273307,-3.066673,-10.332756,-18.244286,-21.643524,-47.886715,-28.698978,-5.884895,9.204941,-56.342926,-35.865269,-8.587532,13.040085,-58.632603,-40.037327,-13.6623,5.635757,-57.313728,-46.489849,-27.632675,-13.07991,-14.986207,-19.008568,-14.306027,-7.221649,2.430805,21.679705,29.383254,31.175128,21.788942,37.879246,44.765035,44.603619,37.451007,50.115214,51.806311,50.001161,49.935644,61.812965,58.844129,54.393036,26.034851,50.955334,73.800373,93.925266,51.005917,84.394741,101.552067,113.379536,42.826138,80.285625,99.956303,112.590694,34.732933,69.456882,88.409786,100.562267,27.493515,54.061546,69.675007,82.245541,-15.86436,-17.063306,-9.912053,-3.440301,15.24772,29.352503,34.105432,36.883521,32.595758,44.940097,48.095111,48.069732,44.067008,57.649691,60.542265,59.237541,50.53277,64.709121,67.689567,66.61548,21.880245,304.240637,-75.523567,303.24275
98,-30.556126,24.359056,0.486832,-0.216806,6.005802,8.422222,16.303654,24.225025,-12.996197,5.642452,21.877956,33.285999,-20.685711,3.217907,25.149364,44.122982,-22.983742,-1.226635,18.057461,33.479404,-22.051105,-8.506393,5.027332,16.349888,-21.374535,-33.910424,-31.416263,-24.654655,-13.612261,-6.087788,0.812882,5.389082,4.439978,12.657723,19.368017,20.437349,19.175849,27.132699,30.333902,29.499407,30.531441,37.865167,37.37703,33.587099,26.434021,51.259232,73.769131,93.331776,51.231766,84.196301,100.959721,112.569408,42.947845,79.991398,99.270458,111.600895,34.647331,69.077282,87.509937,99.485378,27.257652,53.474007,68.95483,81.604786,-15.295515,-16.111053,-8.542614,-1.737286,15.010043,29.38486,34.231341,36.763108,32.620705,45.262681,48.583186,48.543975,44.315862,58.048845,60.878434,59.50844,50.909386,65.057332,67.821774,66.60455,-8.547335,328.668003,-74.90819,303.094256
99,-5.196075,9.732606,-0.311966,-0.252436,7.346249,13.644733,21.458302,29.821644,-3.790569,16.644688,33.348713,45.399456,-12.0084,13.039913,32.000599,48.482151,-15.334339,7.504063,24.140224,37.976475,-15.936298,-4.791183,6.696453,17.022686,-18.349629,-31.842217,-38.880097,-40.632265,-16.904978,-7.460747,-0.370441,3.172366,-2.161017,7.887195,13.086641,14.050256,10.395682,19.720859,23.32665,22.835426,20.577337,28.671643,29.766354,26.582935,26.321411,51.394558,74.293957,94.294453,51.179638,84.277325,101.296062,113.149738,42.942581,80.099545,99.342442,111.692677,34.830093,69.296436,87.621746,99.509869,27.67519,54.098625,69.502544,81.982327,-15.08754,-15.829903,-8.618382,-2.0059,15.390981,29.21517,33.895357,36.346539,33.028196,45.221185,48.210214,47.868117,44.717734,58.264107,60.904925,59.275023,51.233144,65.262775,67.950524,66.531993,-13.61867,338.474772,-75.095415,302.915982
100,-17.058792,-7.636673,-0.67297,0.243297,12.317677,26.453648,37.708569,45.355282,15.579987,38.269329,55.932026,70.758305,9.084377,36.307011,53.12273,69.850101,5.169811,30.935841,46.929073,60.804348,3.419495,16.260624,27.803936,38.510571,-17.192426,-25.818527,-30.039291,-34.435858,-9.178952,0.034457,5.174499,7.534538,5.78694,15.970262,19.988485,21.388861,17.743549,28.568087,29.098276,27.778979,26.853834,37.625514,36.640039,33.922404,26.664391,51.585846,74.230156,93.978081,51.300201,84.471359,101.546516,113.461876,42.802391,80.283508,99.627914,111.899414,34.581871,69.223709,87.645149,99.522858,27.426853,53.736992,69.306679,81.847687,-14.745504,-15.797793,-9.096391,-2.659467,15.647246,29.231534,33.967111,36.478068,33.24389,45.274846,48.01465,47.502492,44.828267,58.330057,60.816067,59.148311,51.225672,65.015033,67.636585,66.198171,-30.525112,331.082584,-75.616035,303.403764
101,44.899578,-23.668686,0.026035,-0.717108,1.205864,-2.902908,-9.275322,-12.090797,-40.189991,-20.010223,2.496986,17.430725,-49.963131,-27.60006,-0.536156,20.828247,-53.488255,-33.827991,-8.48568,10.120811,-53.899841,-41.336403,-23.280087,-9.68811,-16.576034,-24.624088,-23.34851,-17.976533,-2.539239,14.927792,23.273545,25.959317,19.060253,33.697323,40.976585,41.18981,36.556614,47.934251,50.132875,49.155427,50.513998,61.547685,57.958813,53.11332,26.760521,51.547508,73.988171,93.491535,51.873779,85.043621,101.976757,113.713703,42.931938,79.890003,98.951168,110.954189,34.242325,68.272305,86.56168,98.307209,26.586227,52.580395,68.167934,80.804157,-15.351152,-16.069927,-8.608254,-1.972679,15.689051,29.40252,34.448455,37.497752,33.325154,45.616079,48.731511,48.598562,44.760589,58.632942,61.531877,60.228697,51.035728,65.245053,68.270144,67.295167,14.697704,307.512065,-75.266762,302.784824
102,-27.669811,22.763301,0.513439,-0.077806,5.488529,8.146305,17.89999,28.891239,-13.62093,7.473965,26.248798,38.601665,-21.077328,8.432064,32.692738,51.937695,-22.149181,4.679718,25.79607,41.836452,-20.115852,-2.383518,12.57597,23.878727,-22.898164,-38.543681,-35.957265,-25.213928,-18.627074,-12.81778,-6.616371,-3.186321,0.909398,10.889376,15.871091,15.290267,17.471538,26.80394,29.021397,26.720268,30.634441,37.526652,35.93065,30.746024,26.143169,50.760155,73.288994,93.019295,49.940872,84.095421,101.526031,113.604469,41.340351,79.67823,99.279671,111.367836,33.240395,68.678169,87.212906,98.812408,26.590919,53.764572,69.38942,81.593628,-15.193504,-16.084068,-8.611959,-1.586306,14.954468,29.385786,34.636424,37.963165,33.007942,46.073835,49.350065,49.610713,44.862724,59.189746,61.785733,60.616921,51.1152,65.377075,67.805966,66.551815,-12.7246,330.32557,-74.505816,302.757222
103,-29.008884,-3.639816,-1.240139,-0.281829,12.893314,28.591976,44.755898,58.139305,20.675812,44.711723,63.096085,77.381058,15.414219,43.897934,62.782974,80.514908,11.929893,37.628746,56.102943,71.475792,10.431175,26.826496,40.647697,52.965431,-22.496169,-34.145261,-33.682627,-26.803075,-13.049653,-4.12678,2.460507,6.993975,6.366653,17.390707,22.71032,25.598325,21.214416,31.83314,33.373257,32.732905,31.936016,42.413332,40.554151,36.169995,26.044922,51.068459,73.765469,93.443127,50.922604,84.787502,102.054462,113.932056,41.965141,79.931202,99.267826,110.849819,33.589611,68.788891,87.226582,98.538151,26.599503,53.614082,69.405785,81.73811,-15.326761,-16.153229,-8.682355,-1.734137,15.829656,29.998844,35.190881,38.537074,33.864111,46.550054,49.183277,48.822469,45.399644,59.424274,61.636791,60.124215,51.464028,65.586903,68.076309,66.89842,-41.405811,326.750283,-75.418282,302.539922
104,1.576595,-8.761087,-0.3162,0.142952,17.959671,34.029922,43.597012,47.715168,21.857471,55.521755,69.847469,75.873013,13.400803,46.695385,62.945423,72.748547,4.722118,35.897999,53.250103,63.395176,-4.727669,20.866241,35.393658,44.026165,-24.476567,-36.182283,-37.568148,-33.546282,-18.821464,-2.859106,2.178616,3.579424,3.38911,20.679348,23.586805,21.591032,22.947997,36.821832,36.49332,34.550776,39.387933,51.653479,46.993237,41.132999,26.310711,51.157837,73.692455,93.522549,51.442223,85.151539,102.16444,113.65694,42.39212,80.334377,99.61092,111.287441,33.682938,68.852692,87.192936,98.366375,26.306305,53.285809,69.063492,81.354847,-15.114216,-16.117413,-8.62962,-1.870111,15.664289,29.882877,35.057747,38.159655,33.384743,45.863822,48.548236,48.125678,44.957511,58.755023,61.125745,59.553147,51.273652,65.489893,68.164057,66.979746,-39.555101,318.057307,-75.460367,302.750985
105,12.331867,-4.560083,0.347443,0.402983,15.478878,26.56105,31.90979,35.849876,7.450104,36.353416,54.184227,62.781601,-2.595463,26.04847,47.19841,62.626762,-11.500282,15.345669,37.538681,52.547035,-20.090733,1.14378,18.891621,30.75222,-23.142264,-33.044251,-33.43649,-29.409683,-12.683288,3.765046,10.303241,12.851866,8.88749,26.145433,30.676617,29.569247,27.921066,41.751553,42.442664,41.252733,43.840137,55.988049,52.279196,47.009045,25.920238,50.640507,73.169346,92.98811,50.016804,84.291515,101.857624,113.858128,41.101685,80.138226,99.976788,111.875782,32.829952,68.991508,87.768345,99.296665,26.081314,53.597374,69.466667,81.831951,-15.626498,-16.704227,-9.319063,-2.221903,15.129715,29.689969,34.57949,37.241673,33.226168,46.329976,48.689706,47.919184,45.02698,59.369193,61.200339,59.229513,51.258708,65.431416,67.63572,66.132839,-27.103786,313.54454,-74.993477,303.201285
106,-1.121922,0.008583,-0.95787,-0.591075,14.48925,25.261288,32.269077,37.307682,5.915108,33.613071,52.562542,63.247089,-3.002472,23.098755,45.243244,62.441311,-10.968876,13.818111,37.381268,54.287739,-18.707829,1.437607,19.972458,33.131161,-23.051429,-33.299836,-33.394376,-28.851707,-14.11528,0.854626,8.361068,11.873554,7.616975,23.646703,29.672617,29.682806,27.009013,39.989258,42.037581,41.706414,43.623887,55.168868,51.856205,46.648237,26.252174,51.310272,73.762493,93.579998,51.290359,85.38763,102.655849,114.192867,41.893959,80.301533,99.791393,111.310673,33.035717,68.617859,87.352352,98.669529,25.626011,52.839317,69.065208,81.638432,-15.687569,-16.436045,-8.685813,-1.799654,15.1567,29.820262,34.992353,37.900612,33.296687,46.122309,48.395465,47.476434,45.063104,58.993874,60.894304,58.913722,51.393015,65.767462,68.186966,66.676489,-28.03236,313.59905,-75.757999,302.656136
107,-16.011944,0.738041,-0.081654,-0.176977,18.25922,36.417961,49.262695,56.710968,22.391911,54.074936,71.179047,80.347023,13.827438,45.004692,65.152588,79.53598,5.121918,34.342918,56.034508,70.564041,-4.137325,20.423927,38.489342,50.665283,-23.863817,-34.677055,-35.187114,-29.935797,-17.114127,-2.309651,4.534827,7.900842,4.973069,22.048479,27.433856,26.990364,24.691396,38.409868,39.672231,38.650077,41.668869,53.796774,50.309543,44.812336,26.523113,51.159382,73.742981,93.907585,51.058388,85.225182,102.513771,114.116592,42.047482,80.222855,99.780235,111.618805,33.50069,68.851032,87.323341,98.513031,26.239815,53.320255,69.107552,81.299744,-15.447298,-16.146436,-8.405281,-1.831641,15.517385,29.554673,34.634386,37.681954,33.497993,46.066425,48.635674,48.194962,45.176416,58.884699,60.922833,59.080756,51.458841,65.609442,68.086869,66.588742,-43.838339,314.358874,-75.633688,302.500942
108,2.42775,-0.943979,-0.051327,-0.186363,18.430824,35.431824,45.549774,49.84417,21.201267,54.951324,70.947533,78.325424,11.381779,44.631271,63.919144,77.299347,1.760674,32.789612,53.390923,66.627159,-8.228645,17.425346,34.881134,46.059151,-22.243733,-31.801215,-31.637021,-27.574091,-15.399441,2.491073,9.190808,11.972232,6.511087,25.522186,30.094619,29.360962,26.024526,41.533204,41.756678,40.437813,42.833359,55.892027,51.82638,46.379808,26.373482,51.145248,73.745327,93.568897,51.103249,84.946346,102.231045,113.935032,42.06356,80.059834,99.527721,111.304379,33.465786,68.714848,87.044506,98.172741,26.212864,53.375931,69.172211,81.42683,-15.315152,-15.783714,-7.983958,-1.164613,15.693497,29.781544,34.963763,37.97286,33.597473,46.351279,49.028963,48.63765,45.260458,59.256251,61.328842,59.503253,51.587591,65.72541,68.096996,66.568241,-41.254549,313.41346,-75.528975,302.313144
109,28.098049,-2.615871,0.809956,0.4706,10.331669,15.884113,16.342678,17.027378,-7.276325,19.220295,38.405857,49.505596,-17.702122,7.183571,30.623074,49.327297,-26.679096,-3.322048,20.216961,37.59985,-34.689331,-17.887516,1.475658,15.782146,-20.989027,-29.126681,-27.89087,-22.566873,-11.683178,6.802178,15.363811,19.447181,9.791207,27.482515,34.181508,36.354197,28.521466,43.174591,45.396495,46.6441,44.75744,58.771202,55.539988,51.470389,25.967274,50.774231,72.990646,92.057991,50.882721,85.188789,102.643547,114.36573,41.565914,80.164146,99.879227,111.958923,32.778111,68.165245,86.760979,98.27282,25.409317,52.1311,67.996788,80.528183,-15.670032,-16.650566,-8.622889,-1.090512,15.381842,28.950075,33.812735,36.679312,33.414198,45.761501,48.241089,47.969202,44.985854,58.465475,60.564619,58.851724,51.163427,65.044488,67.524137,66.097764,-13.062057,310.738355,-74.624577,302.72451
110,-7.096996,13.694451,-0.373421,-0.131528,5.385532,10.885048,22.85614,34.551659,-11.63681,10.842018,29.999084,42.850227,-19.204617,11.166401,36.9104,56.876907,-20.672379,8.443623,30.859795,48.177452,-18.412514,-0.055389,16.788254,30.449638,-23.481335,-37.300583,-30.5822,-18.271206,-21.830067,-10.326027,0.926688,7.721827,0.603363,14.81485,24.077535,23.007524,19.301203,30.29716,34.689035,30.71731,34.496374,41.728088,41.077362,35.230339,26.012993,50.89159,72.989388,91.741562,50.663338,84.809875,102.24884,114.125519,41.57198,79.875183,99.625053,112.095909,33.066444,68.111172,86.979675,98.90522,25.742683,52.235928,68.263893,81.047745,-15.659596,-16.599005,-8.456348,-0.938359,15.27662,28.443475,33.068272,35.831973,33.373319,45.432619,47.781296,47.36448,45.02204,58.29103,60.56925,58.87204,51.393942,65.341569,68.04988,66.766954,-20.059404,324.363706,-74.898348,302.523883
