takenoko1/special-research/HandMotion_SimilarSearch_自分用/NewProject/handData/key/d4_feature_d2/6.csv
,vel_0x_L,vel_0y_L,vel_0x_R,vel_0y_R,posFromWrist_1x_L,posFromWrist_2x_L,posFromWrist_3x_L,posFromWrist_4x_L,posFromWrist_5x_L,posFromWrist_6x_L,posFromWrist_7x_L,posFromWrist_8x_L,posFromWrist_9x_L,posFromWrist_10x_L,posFromWrist_11x_L,posFromWrist_12x_L,posFromWrist_13x_L,posFromWrist_14x_L,posFromWrist_15x_L,posFromWrist_16x_L,posFromWrist_17x_L,posFromWrist_18x_L,posFromWrist_19x_L,posFromWrist_20x_L,posFromWrist_1y_L,posFromWrist_2y_L,posFromWrist_3y_L,posFromWrist_4y_L,posFromWrist_5y_L,posFromWrist_6y_L,posFromWrist_7y_L,posFromWrist_8y_L,posFromWrist_9y_L,posFromWrist_10y_L,posFromWrist_11y_L,posFromWrist_12y_L,posFromWrist_13y_L,posFromWrist_14y_L,posFromWrist_15y_L,posFromWrist_16y_L,posFromWrist_17y_L,posFromWrist_18y_L,posFromWrist_19y_L,posFromWrist_20y_L,posFromWrist_1x_R,posFromWrist_2x_R,posFromWrist_3x_R,posFromWrist_4x_R,posFromWrist_5x_R,posFromWrist_6x_R,posFromWrist_7x_R,posFromWrist_8x_R,posFromWrist_9x_R,posFromWrist_10x_R,posFromWrist_11x_R,posFromWrist_12x_R,posFromWrist_13x_R,posFromWrist_14x_R,posFromWrist_15x_R,posFromWrist_16x_R,posFromWrist_17x_R,posFromWrist_18x_R,posFromWrist_19x_R,posFromWrist_20x_R,posFromWrist_1y_R,posFromWrist_2y_R,posFromWrist_3y_R,posFromWrist_4y_R,posFromWrist_5y_R,posFromWrist_6y_R,posFromWrist_7y_R,posFromWrist_8y_R,posFromWrist_9y_R,posFromWrist_10y_R,posFromWrist_11y_R,posFromWrist_12y_R,posFromWrist_13y_R,posFromWrist_14y_R,posFromWrist_15y_R,posFromWrist_16y_R,posFromWrist_17y_R,posFromWrist_18y_R,posFromWrist_19y_R,posFromWrist_20y_R,posFromBody_0x_L,posFromBody_0y_L,posFromBody_0x_R,posFromBody_0y_R
2,74.903069,-24.582901,-0.865917,-0.214706,-17.69886,-37.072449,-52.506065,-60.883827,-68.681202,-67.418518,-45.24456,-26.07605,-73.897877,-70.183411,-43.2621,-17.665558,-74.163895,-71.029243,-45.20874,-21.947136,-71.68396,-73.050785,-56.289253,-39.450531,-5.493749,-6.355229,-0.4304,7.867435,17.043361,32.894753,39.780295,43.022438,30.974439,43.237083,50.785268,52.453393,41.397723,50.880981,54.973119,55.436185,49.336788,59.793603,58.339875,56.149588,26.367645,51.344662,72.792435,91.471138,50.269203,83.677597,101.91925,115.700684,40.52742,78.165321,99.431305,114.3433,32.135811,66.995888,87.071571,100.855637,25.498753,52.898884,69.038658,82.095222,-14.333197,-11.124584,0.121093,6.557153,19.227658,37.350169,44.096895,48.161863,36.588848,54.012344,59.017586,60.908445,47.677617,65.29538,69.120632,68.928527,53.38107,68.90395,72.274782,72.250761,45.82881,296.302914,-82.253923,291.278592
3,-3.281364,7.275125,-0.356655,0.247249,-12.91935,-29.642029,-44.728317,-53.934059,-59.956284,-54.326935,-33.477974,-17.018852,-65.387135,-57.427368,-33.708572,-10.551796,-66.114635,-62.492981,-41.012192,-20.312691,-63.704281,-71.9244,-67.609692,-58.631687,-15.727892,-19.293916,-11.660269,-5.373521,4.100536,26.261215,33.112362,35.512662,21.801786,37.883013,42.050302,43.529409,35.577438,46.764019,49.237062,49.841289,46.8099,56.604441,55.135708,52.692368,27.062073,52.192726,72.76228,90.62582,51.976604,85.275707,103.399258,117.001019,42.033405,78.950558,99.678097,114.490871,33.01918,66.939869,86.605282,100.467167,25.395756,52.517681,68.323689,81.434727,-15.255192,-11.509042,0.500734,6.499787,19.015175,36.746435,43.55942,47.500084,36.37161,53.317035,58.553284,60.890599,47.439198,64.76834,68.812066,68.913645,53.306908,68.957611,72.203583,72.049948,41.762066,302.997971,-83.395958,290.945773
4,-12.161407,7.780058,-0.500622,0.140359,-6.38443,-18.36113,-32.215576,-41.104202,-52.682705,-39.618988,-18.60878,-2.402344,-61.059494,-44.970016,-20.452423,2.326241,-62.870407,-50.266628,-27.099266,-7.530899,-61.30188,-57.860126,-45.946312,-33.957939,-16.87046,-22.891372,-19.897774,-17.7517,-3.056522,15.961432,23.470591,26.752316,14.915627,29.20955,35.36477,38.413326,28.871096,39.40584,42.210173,43.727751,39.918616,49.301838,47.89257,45.556366,26.883488,52.039661,72.813034,91.190071,52.150326,85.297394,103.286247,116.863632,42.396297,79.301491,100.135918,114.981651,33.419952,67.289257,87.029343,100.871773,25.699196,52.609119,68.311043,81.280174,-14.916306,-11.291433,0.470229,5.942119,19.228029,36.731739,43.271848,46.968784,36.361421,53.121903,58.393598,60.77352,47.267038,64.535603,68.54518,68.663741,53.118013,68.812313,72.04223,71.848519,29.224434,310.386192,-84.272804,290.694294
5,-22.831421,13.52297,0.100365,0.077682,0.966797,-4.24427,-12.430458,-19.087715,-28.536472,-13.864517,5.496025,20.047531,-34.415817,-15.545769,6.075897,24.757805,-35.661736,-23.468914,-4.715538,10.927162,-34.34309,-38.160553,-40.396214,-41.223106,-17.624988,-28.463791,-32.656829,-37.797859,-8.570895,3.203797,8.52415,11.232709,7.204976,15.661201,20.533309,23.513816,18.491593,24.664597,28.212652,31.202174,27.1398,31.176425,31.747369,30.995064,26.794567,51.806774,72.569389,90.863228,51.988792,85.078812,102.977829,116.319809,42.120495,79.076614,99.835968,114.414825,33.072453,66.969566,86.636467,100.28801,25.358276,52.374916,68.152657,81.002197,-15.025789,-11.654773,-0.034024,6.247289,19.506708,37.011159,43.499028,47.187627,36.762182,53.517847,58.763112,61.119323,47.685768,64.867511,68.84362,68.85739,53.420405,68.828862,72.013948,71.661724,6.247988,323.66216,-84.317465,290.524975
6,34.068146,-26.195451,-0.452271,-0.596818,-14.866905,-33.052711,-48.184547,-58.474789,-65.631523,-59.093914,-37.465782,-18.625145,-72.941666,-63.11039,-36.770325,-11.045265,-74.171562,-64.756851,-39.006844,-15.948257,-72.852058,-69.328365,-50.836372,-33.281937,-5.327764,-4.669751,2.987547,11.921473,11.481007,30.168473,40.072683,45.159682,24.88307,39.68242,49.987144,54.634233,35.760713,47.633959,54.19068,56.839525,44.487035,56.27383,56.663043,55.533751,26.755199,51.92522,72.752495,91.276932,51.275368,84.64222,102.631645,116.091614,41.402607,78.819237,99.821892,114.697723,32.473927,66.874638,86.695404,100.514259,24.946918,52.124691,68.029289,81.0149,-14.599341,-10.707027,1.229759,7.071781,19.837505,37.351157,43.696321,47.201459,37.183875,53.942196,59.043953,61.250542,48.102892,65.356636,69.306872,69.317678,53.768739,69.574066,72.855483,72.578717,40.214739,297.339241,-84.87113,289.800689
7,-6.485939,8.793197,-0.264587,0.511973,-9.143944,-22.632751,-36.42849,-44.693298,-50.284424,-42.575226,-24.351768,-9.113731,-57.175312,-48.756638,-27.763138,-5.811424,-59.224834,-54.784412,-35.616302,-17.087173,-57.855835,-62.286186,-56.883602,-48.222656,-16.017933,-19.321025,-11.997611,-7.08339,1.436438,20.696824,27.751006,30.769551,18.0791,33.1391,38.805503,41.633795,31.22496,42.461806,46.034376,47.525958,41.613356,51.135084,51.158487,49.638069,27.082958,52.345619,73.265419,91.893883,51.283321,84.782867,102.762337,116.326904,41.379204,78.863754,99.877968,114.849129,32.602501,67.155418,86.898537,100.840874,25.298195,52.832565,68.756104,81.744576,-15.227713,-11.59364,0.249472,6.003807,19.109159,36.95793,43.492235,47.093458,36.707718,53.741384,58.779661,60.725293,47.8746,65.363182,69.196338,69.0059,53.671235,69.315578,72.485659,72.101572,33.613329,306.018894,-85.251188,290.199118
8,-20.784187,12.379414,-0.401802,0.273801,0.713539,-6.030579,-16.410141,-24.245796,-33.115597,-18.211098,1.199341,16.1269,-40.317764,-22.138596,-0.469322,19.617233,-42.443676,-30.55727,-12.082672,4.882965,-41.732025,-41.982594,-37.365074,-30.181732,-18.687959,-28.468113,-29.080677,-28.75198,-6.510222,7.228874,12.382872,15.196715,10.868073,21.077639,25.782588,28.846643,22.950652,30.136362,33.140767,35.925525,32.269963,37.714496,36.658935,34.285372,26.555443,51.931858,72.960892,91.80954,52.087727,85.721397,103.794479,117.213593,41.974354,79.361,100.211334,114.863319,32.814503,67.277069,87.042046,100.795441,25.112629,52.621136,68.596287,81.543846,-15.441432,-11.857067,0.039459,6.139102,19.109591,36.942431,43.344961,46.705356,36.564642,53.565395,58.500858,60.478045,47.53911,65.020899,68.792923,68.611253,53.17575,68.741979,72.00555,71.819434,12.763166,318.372481,-85.718966,290.447092
9,26.774139,-20.045666,-0.120907,-0.249595,-13.493385,-30.962448,-46.368828,-56.233521,-65.116882,-56.840572,-35.493164,-16.991844,-73.197269,-61.21542,-35.539055,-11.068382,-74.827023,-63.661766,-37.864494,-15.997696,-73.504429,-68.631649,-49.689102,-32.721405,-9.600707,-10.889623,-3.682548,4.478202,8.112399,27.272625,36.486095,40.470232,23.839179,39.025705,48.206879,51.695037,36.671594,49.107756,53.951211,55.269397,46.90691,58.843758,58.231565,56.221033,26.521454,51.895065,73.131237,91.978855,51.601868,85.452518,103.714657,117.326832,41.6922,79.529972,100.663548,115.443249,32.878189,67.719383,87.471371,101.163998,25.566101,53.169994,69.101315,81.941013,-14.819975,-11.401905,-0.15629,5.191234,19.165105,36.816892,43.347184,46.828116,36.639669,53.710138,58.790529,60.668236,47.659771,65.290563,68.993982,68.571918,53.370511,68.97663,72.284044,71.957446,39.467497,298.308043,-85.909681,290.178725
10,-6.860275,7.893185,-0.481339,0.162959,-9.575157,-23.14991,-35.387306,-41.334343,-52.356091,-44.822044,-25.351524,-9.576645,-58.816624,-49.655914,-27.282715,-4.923706,-60.167027,-55.603809,-34.689789,-15.147057,-58.226109,-64.73568,-61.001759,-53.629303,-17.155623,-20.250368,-11.409006,-4.313575,0.862283,20.537446,27.372414,30.093137,18.318074,32.943166,37.812124,40.059654,31.952751,42.476812,45.219456,46.37388,42.479776,51.067899,50.56698,48.916762,26.531582,52.079086,73.357944,92.246418,52.276726,85.916576,104.012318,117.525616,42.216511,79.984646,100.944157,115.702686,33.047276,67.67664,87.472744,101.354656,25.337734,52.742901,68.620777,81.604099,-15.186464,-12.129942,-0.405268,6.3895,18.749463,36.532655,42.949573,46.387959,36.205131,53.2777,58.414655,60.57629,47.208313,64.69603,68.661148,68.554875,52.916275,68.71592,72.136584,71.950654,32.645588,306.162556,-86.352654,290.303013
11,-27.155914,9.052796,-0.140533,-0.022477,-0.698318,-4.926109,-9.752312,-11.449814,-30.464115,-15.729675,3.634758,18.126411,-35.981426,-17.82074,5.049706,25.422478,-37.346935,-24.503002,-4.23008,12.988243,-36.433182,-35.204201,-29.146843,-21.49395,-18.435833,-27.521973,-27.143505,-24.076053,-3.63994,10.392224,15.816627,18.479614,14.39044,24.848736,29.693365,32.431749,26.663643,34.590975,36.784041,38.156753,35.509636,42.436489,41.211669,38.409312,26.63435,51.937981,73.494244,92.872753,51.730556,85.580578,103.814678,117.331409,41.721668,79.785976,101.044178,115.786457,32.733078,67.69289,87.4716,101.105175,25.288811,52.876854,68.807201,81.678829,-14.832819,-11.847434,-0.463066,6.253402,19.158559,37.033945,43.488036,47.020839,36.540745,53.78572,58.999987,61.196881,47.539728,65.050601,68.88771,68.732037,53.260718,68.806385,72.096632,71.793437,5.48461,315.197892,-86.498251,290.263076
12,36.275253,-18.839248,0.065975,-0.204517,-18.139229,-38.180923,-52.294693,-60.401859,-70.656624,-65.704079,-43.904457,-24.554558,-75.405521,-66.837788,-40.669441,-14.082069,-74.497318,-67.107582,-41.573982,-17.91584,-70.679398,-68.866711,-51.05999,-33.774033,-1.062848,1.738274,9.838878,17.875695,16.908868,34.284137,43.332734,47.906278,26.834938,41.633425,51.262846,55.388946,34.512738,47.327615,52.899787,54.600023,39.777207,52.249741,53.394346,52.756897,26.529293,51.981926,73.599815,93.047218,51.333733,85.290756,103.507805,117.098923,41.433792,79.751015,100.898209,115.69519,32.731819,67.976131,87.744942,101.589775,25.595741,53.521271,69.465466,82.415085,-14.937239,-11.5485,0.326536,7.122663,18.954412,37.012209,43.553862,47.191456,36.548525,53.940652,58.973743,60.869789,47.731278,65.39276,69.119397,68.828553,53.507967,69.165216,72.382227,72.002154,41.790533,296.319232,-86.401606,290.019146
13,-14.073601,15.177078,0.358543,-0.787627,-8.95237,-21.753502,-30.702324,-29.121323,-43.840828,-36.092949,-19.291649,-5.352745,-48.562431,-41.110725,-21.781425,-0.999298,-49.653854,-45.35202,-27.407341,-9.24305,-47.839108,-48.752975,-39.531097,-28.135643,-19.850967,-26.425657,-19.841395,-13.969487,-4.139871,9.983498,16.253141,20.004108,13.853643,26.672473,31.805599,34.105679,27.974172,37.587476,39.69582,40.131778,38.634207,46.126878,45.345983,43.394608,26.571064,51.539154,72.796783,92.047577,51.937008,85.464363,103.384323,116.862946,41.795311,79.074211,99.690857,114.402008,32.658234,67.128353,86.807098,100.646896,24.897366,52.505836,68.402023,81.4991,-14.71148,-11.080617,1.034443,8.042374,20.479339,38.265681,44.74299,48.46197,37.851335,54.57804,59.699125,61.846496,48.742008,65.696325,69.702321,69.887573,54.353762,69.599445,72.711604,72.507272,27.726202,311.370277,-86.033792,289.105487
14,-35.201225,12.32742,0.098934,0.401254,4.869804,6.773415,8.661346,11.034508,-11.592922,4.808121,20.182571,31.015091,-15.9478,2.736626,21.468086,36.29528,-17.29723,-1.536369,15.987167,29.045792,-16.433601,-7.236328,1.9384,9.327736,-17.066085,-26.322348,-29.857003,-31.808255,-9.952931,-1.905556,2.351764,3.992164,4.291345,12.255851,17.310246,18.138566,15.473912,21.896079,25.954563,27.18778,24.003435,29.237462,31.049527,29.794018,26.666851,51.784115,72.967587,91.941547,51.748123,85.349522,103.240643,116.758518,41.595898,79.053555,99.679356,114.426785,32.542477,67.155876,86.771793,100.643406,24.943943,52.739925,68.706665,81.913319,-14.884011,-11.644646,0.502834,7.881267,20.00948,37.955323,44.4209,48.17798,37.551784,54.257679,59.302317,61.590046,48.619866,65.452658,69.443278,69.705779,54.367965,69.157312,72.152454,71.917741,-7.465811,323.539169,-85.925646,289.348213
15,46.943893,-27.917608,0.276203,-0.091823,-16.777382,-38.044052,-53.668785,-64.572315,-73.632889,-63.997536,-39.984856,-20.561371,-77.087402,-63.05603,-35.496254,-9.000206,-74.631386,-62.483425,-35.274925,-10.947075,-68.979607,-63.365421,-44.469109,-26.237526,14.687521,23.170916,30.279932,36.752795,27.405265,45.13282,53.179887,57.528104,28.549315,44.315492,53.027549,56.9466,26.986844,41.411185,46.776122,48.987528,23.754951,37.416057,40.039029,40.824741,26.786842,51.773243,72.775154,91.689262,52.013969,85.287094,103.026581,116.373596,41.728077,78.882866,99.254723,113.82328,32.466545,66.890202,86.310997,100.017128,24.597988,52.369595,68.232765,81.248474,-14.822198,-11.617229,0.473749,8.025269,19.719562,37.833057,44.39305,48.127345,37.256,54.09015,59.299353,61.521071,48.403554,65.411841,69.584008,69.830392,54.261507,69.26482,72.346597,72.045194,39.475365,295.4898,-85.652161,289.12463
16,-15.993805,15.760866,-0.215034,0.034518,-6.457329,-16.492996,-23.158836,-21.6362,-43.651772,-31.780586,-13.647537,0.501709,-48.834457,-35.982399,-15.638924,5.155792,-49.698715,-42.152939,-23.545303,-5.180511,-47.45224,-48.83646,-41.840973,-32.176323,-18.088795,-23.740378,-17.500252,-11.081852,-2.947224,11.970626,17.77677,20.927709,14.748962,27.606633,31.991592,33.709982,28.462556,38.328975,40.018342,40.012106,38.773145,46.364494,44.870196,41.982623,26.863918,51.926365,73.002777,91.971474,51.973228,85.492859,103.396912,116.829414,41.609974,78.928299,99.553528,114.244537,32.331963,66.76157,86.502457,100.407829,24.492302,52.122631,68.131313,81.320915,-14.835104,-11.647239,0.085586,7.205841,19.783844,37.6843,44.177047,47.879232,37.197213,53.979617,59.199317,61.422579,48.244856,65.410359,69.592529,69.770741,54.019075,69.378255,72.672763,72.421871,23.477926,311.153533,-85.870829,289.062015
17,15.862312,-17.040829,0.130463,0.195749,-17.090263,-39.365616,-56.380005,-68.644123,-75.399971,-65.424385,-40.935059,-21.201439,-78.107586,-63.446617,-36.038361,-9.76284,-74.71241,-61.913223,-34.729958,-10.839043,-68.118382,-61.551762,-42.350464,-24.02607,20.204488,30.916888,38.176389,44.750585,33.133357,50.549381,58.312087,62.556193,30.59523,46.611372,55.599762,59.293734,25.238073,40.385819,46.537766,49.319313,18.500979,32.900558,36.561122,38.016332,26.660957,51.628475,72.765884,91.887245,52.070904,85.372353,103.121567,116.426697,41.756859,78.87291,99.334946,113.858414,32.429695,66.753387,86.308708,99.954643,24.508381,52.091217,67.933445,80.961227,-15.106436,-11.919435,-0.044399,7.128715,19.630579,37.521712,44.020695,47.761968,37.067661,53.704827,58.875004,61.07159,48.144882,65.023246,69.186891,69.413391,53.997154,69.213073,72.471519,72.38303,39.324961,294.021422,-85.755644,289.166481
18,-14.02153,12.537124,-0.055103,0.333637,-8.558807,-20.270462,-27.731323,-26.781349,-47.860279,-36.078987,-17.234688,-2.541618,-52.762814,-40.230331,-18.401527,3.526955,-53.09761,-45.089092,-25.119781,-5.960541,-50.511646,-49.48946,-38.989449,-26.764297,-17.942632,-21.832661,-12.02756,-3.790549,-0.752738,16.180769,22.762746,26.489939,17.368106,31.953677,37.326889,39.725522,31.669625,42.784761,44.790723,45.076998,42.554679,51.253768,49.929654,47.706331,26.645851,51.557922,72.684917,91.765308,52.328682,85.44508,103.121967,116.367474,42.181435,79.099216,99.478626,113.929996,32.833271,66.993771,86.476421,100.030003,24.813824,52.250347,68.01939,81.057644,-15.119774,-12.019718,-0.271023,6.734253,19.272118,37.120643,43.691813,47.308349,36.654736,53.256334,58.570328,60.679475,47.785927,64.582101,68.81892,68.946929,53.757439,69.001701,72.392601,72.362282,25.300627,306.482269,-85.813551,289.423841
19,-38.418503,19.122435,-0.050755,0.084042,6.865196,9.587517,11.676636,13.794937,-7.931213,9.13456,25.875549,37.569466,-12.302341,7.012253,26.242676,42.193794,-14.179058,1.749802,19.328842,33.987923,-14.03532,-7.867355,-2.93129,2.105141,-19.255384,-29.604877,-33.408393,-34.535276,-11.370721,-4.470359,-0.992453,0.797692,3.689464,11.491875,15.203631,16.502859,15.280572,21.298211,23.644047,24.88838,23.974597,28.08347,27.396064,24.02585,26.623878,51.250076,72.375412,91.519318,52.036171,84.970436,102.635422,115.902786,42.007885,78.802071,99.210434,113.714676,32.773876,66.851749,86.331482,99.911842,24.773941,52.024899,67.748737,80.772743,-14.617372,-11.652858,0.034333,7.064988,19.371969,36.936441,43.198921,46.675346,36.649858,53.187482,58.272629,60.278344,47.720348,64.482682,68.594148,68.696222,53.673335,68.795146,72.10892,72.043218,-13.115587,325.579248,-85.862017,289.482427
20,56.845894,-33.173001,0.194492,0.236998,-19.719543,-43.505745,-61.115742,-73.822632,-77.649937,-71.683216,-48.224716,-28.626366,-80.47102,-70.008659,-42.812004,-16.624489,-77.284012,-68.06488,-41.032219,-16.745224,-70.859756,-67.011166,-48.473969,-30.173035,16.954996,26.021562,32.878513,39.881257,31.104238,49.108991,58.086451,62.739654,30.83797,47.069993,56.570479,60.814893,28.408339,43.486307,50.027899,52.756341,24.363131,39.090913,42.583208,43.824082,26.441002,51.102161,72.18195,91.069508,51.51329,84.685993,102.322483,115.502415,41.754799,78.826275,99.192982,113.598118,32.799225,67.059002,86.504345,100.034122,25.035038,52.601738,68.325291,81.242466,-14.752976,-11.863242,-0.342468,6.83256,19.09508,36.620897,42.812363,46.249206,36.439783,53.079604,58.178089,60.227029,47.579248,64.585559,68.636324,68.620331,53.534396,68.628543,71.808381,71.528096,43.730736,292.309839,-85.667095,289.623017
21,-5.176964,9.944163,0.054703,0.322646,-14.75029,-32.868004,-43.486748,-43.839226,-59.47197,-52.98214,-33.737183,-17.667847,-63.766251,-56.278324,-33.411942,-10.091858,-63.265457,-59.269867,-38.595543,-18.456001,-59.213562,-61.622086,-51.657486,-39.126892,-15.742403,-16.114573,-1.972864,7.006202,2.248641,21.654943,29.585487,33.561905,19.078593,35.471968,41.746366,44.414416,33.343493,46.074699,48.739415,48.904844,45.024078,55.36085,54.366977,52.336006,26.463375,51.105881,72.137203,91.024075,51.775589,84.971638,102.671642,115.779362,41.861458,78.883038,99.229374,113.493862,32.740974,66.839561,86.306705,99.79826,24.858799,52.195072,67.939281,80.903263,-14.874933,-12.046517,-0.433858,6.894063,18.837087,36.398533,42.66021,46.08742,36.221001,52.944309,58.166603,60.284272,47.278091,64.309226,68.344862,68.327448,53.098932,68.316395,71.607322,71.434544,38.553858,302.186185,-85.612307,289.877846
22,-17.350502,14.55272,-0.014019,-0.383223,-6.670189,-16.857948,-25.613022,-26.878166,-37.859116,-29.394722,-12.943611,0.547829,-41.282501,-32.296257,-14.019928,3.970528,-41.317806,-35.484467,-18.426933,-2.487259,-39.112473,-39.965801,-32.222099,-22.78347,-18.891983,-27.825538,-26.827775,-22.693462,-5.922112,4.17334,8.229539,10.388457,10.56,19.72339,22.967139,24.261366,23.000793,29.776975,31.469615,32.235691,32.446198,38.397765,38.146626,36.575819,26.559219,51.374245,72.445564,91.424103,51.378536,85.069199,103.017197,116.25,41.433449,78.862152,99.440804,113.799362,32.471352,66.966476,86.591377,100.134888,24.866524,52.428818,68.286438,81.25946,-14.63633,-11.616117,-0.073421,7.085736,19.305649,36.827637,42.847561,46.011035,36.674681,53.345749,58.212299,59.788231,47.630563,64.761362,68.651082,68.371044,53.266646,68.676523,71.943367,71.587438,21.206589,316.633883,-85.623093,289.389601
23,22.231064,-23.49597,-0.040855,0.971025,-18.664513,-40.752411,-56.246796,-65.169697,-75.145855,-69.501514,-46.827965,-27.751694,-79.269791,-69.795685,-43.762207,-18.122635,-77.263699,-68.697796,-43.219185,-20.137367,-72.34417,-68.558178,-50.727196,-34.128685,3.635926,7.413137,14.236496,22.352229,22.29863,41.384879,49.733597,53.231449,29.66002,45.679435,54.27571,57.496426,34.526014,48.060037,53.060215,54.25947,37.004243,49.899767,51.304836,50.794469,26.385098,51.31794,72.567902,91.624718,51.433868,85.123444,102.849426,115.954742,41.625996,79.43573,99.723701,113.885078,32.884827,67.828503,87.2295,100.751381,25.625725,53.825169,69.686394,82.418976,-15.461006,-12.941528,-1.430634,6.066052,18.152213,35.958623,42.038754,45.366793,35.904221,52.6907,57.393982,59.021353,47.197507,64.183996,67.918475,67.71192,53.0851,67.784847,70.640248,70.12914,43.440342,293.081689,-85.661259,290.304402
24,-3.136597,6.476939,-0.315857,-0.647021,-16.267662,-35.156708,-45.810699,-46.509018,-61.828823,-57.047653,-38.093834,-21.986961,-64.286041,-58.87888,-36.828804,-14.074173,-62.222614,-58.748703,-38.059731,-18.124237,-56.639328,-57.250843,-46.296616,-33.659935,-12.828648,-11.581475,2.006518,10.62916,6.683618,25.191081,32.932483,36.80164,21.772454,37.800638,44.501299,47.017011,34.395906,47.430677,50.391485,50.320411,44.178282,54.950765,54.604469,52.89812,26.303501,51.381798,72.705688,91.785622,51.976433,86.226425,104.292641,117.379761,41.721611,79.683723,100.110512,113.876152,32.495899,67.378922,87.000847,100.180206,24.881516,52.418289,68.25983,80.944061,-15.10872,-12.18984,-0.743784,6.540912,18.737669,36.487083,42.392028,45.276514,36.253111,53.15105,58.063171,59.603535,47.195161,64.412966,68.200366,67.910448,52.628147,68.074148,71.333397,71.034648,40.30901,299.485947,-85.971851,289.584701
25,-10.173454,13.576693,-0.382462,-0.187227,-9.539452,-21.96167,-34.030609,-41.884804,-41.785812,-36.665497,-23.075523,-11.25824,-43.072128,-37.834511,-21.663094,-5.036545,-41.743011,-37.555161,-21.604042,-7.00882,-38.239174,-38.318825,-29.330406,-20.217133,-16.626113,-23.512272,-22.471407,-20.69244,-2.412218,8.333527,12.36058,13.48666,12.744791,23.233593,27.510056,28.348194,24.28724,31.79257,34.775918,35.667038,33.193625,39.597699,40.932063,40.874697,26.867352,52.281418,73.739891,92.760658,52.224998,86.151924,104.070511,117.140808,41.738148,80.137367,100.810204,114.84066,32.527313,68.120499,87.698364,100.943642,24.994755,53.176117,69.010849,81.606216,-15.039251,-12.366014,-1.53635,4.886557,17.937074,35.965292,42.561718,46.178131,35.922499,52.964131,58.024886,59.601189,47.384549,64.569565,68.502449,68.349246,53.190014,68.03895,71.248119,70.964623,30.10952,312.948618,-86.380348,289.283452
26,11.511269,-22.383289,-0.65609,-0.063047,-14.876976,-36.98719,-54.969406,-67.592468,-75.481052,-67.077312,-43.736,-25.523872,-81.595173,-69.045181,-42.078438,-17.067719,-80.694923,-68.350811,-41.289482,-18.635216,-76.037006,-68.45747,-48.60878,-31.525726,10.901973,17.281285,24.134963,32.304975,23.167087,45.881174,56.021209,59.837816,27.664926,47.616113,57.71916,60.827243,30.870945,48.691744,54.93823,56.200717,32.528697,49.019453,51.469277,50.714996,26.777,52.493019,74.416924,93.663254,52.548237,86.626625,104.706345,117.981606,42.251415,80.52887,101.227684,115.193596,33.183117,68.659687,88.196526,101.3134,25.808716,53.900986,69.791851,82.368622,-14.996458,-12.347921,-1.70073,4.840985,18.261388,36.06397,42.573389,46.135956,36.15252,53.168093,58.100098,59.611563,47.504283,64.699488,68.354619,67.963121,53.166734,68.108667,71.077441,70.468891,41.643476,290.48581,-87.01375,289.140886
27,-2.332878,7.984205,-0.004005,-0.153203,-13.357773,-31.0215,-43.519707,-48.430367,-63.965836,-56.886806,-36.168022,-20.415802,-68.269272,-60.024319,-36.135406,-13.475418,-67.000523,-60.9585,-38.854294,-18.946495,-62.109146,-61.132851,-48.937912,-36.070175,-13.395579,-14.129174,-2.194486,6.533008,2.512686,24.284585,32.991022,37.002329,19.263782,37.094831,44.307279,47.659153,33.358005,47.267162,51.184669,52.383677,44.532853,56.011823,56.661314,56.552262,27.117748,52.600594,74.308548,93.488159,52.498226,86.217957,104.082985,117.187042,42.351894,80.485382,101.22345,115.17128,33.34774,68.730526,88.234177,101.18454,25.996742,53.839588,69.658642,82.134933,-14.985034,-12.674025,-1.911114,4.935834,17.691987,35.880941,42.486259,46.078034,35.880818,53.43294,58.480542,59.791318,47.541642,65.065977,68.760134,68.145346,53.505312,68.563705,71.591884,70.890523,39.323816,298.43477,-87.004538,288.952439
28,-9.01165,11.281739,0.011959,-0.862406,-8.109856,-21.419106,-34.374161,-39.983826,-50.449333,-42.058525,-23.464508,-9.168892,-54.040775,-44.892426,-23.951454,-4.360085,-52.835484,-45.507088,-26.243477,-9.547005,-48.601627,-45.882912,-34.638977,-24.043007,-16.448395,-23.404394,-20.303782,-16.032445,-5.518634,9.613675,15.921294,18.417616,11.15231,24.653296,30.144513,31.741132,24.423214,35.004827,38.279574,39.146674,35.228548,43.818525,44.577746,43.863726,27.079639,52.627544,74.331036,93.501148,51.824913,85.946331,104.0415,117.34148,41.63023,80.160999,101.133671,115.276051,32.822571,68.628616,88.36092,101.563282,25.758305,53.942642,69.998989,82.563915,-14.633921,-12.084,-1.291757,5.755509,18.403352,36.517897,43.049423,46.555303,36.619785,54.095893,59.040125,60.199056,48.205397,65.82174,69.53541,68.862577,54.072798,69.330707,72.411744,71.643939,30.321636,309.700701,-86.983109,288.074224
29,3.82164,-16.672673,0.56385,0.637079,-8.472862,-25.009117,-40.146103,-50.237732,-64.006405,-52.658558,-30.070152,-12.94178,-74.222088,-60.008125,-32.464027,-8.052063,-77.196293,-63.855057,-36.531258,-14.572792,-76.464729,-69.484921,-48.862724,-31.766052,-3.165079,-1.92297,4.650918,12.531011,6.530106,28.13744,39.650928,44.714955,20.242217,38.401099,50.652443,56.113464,32.060814,46.826017,54.262495,57.339889,42.024119,55.361653,57.376322,57.595968,26.549549,52.197933,74.315128,93.637333,52.218304,86.448383,104.311466,117.487278,42.251644,80.815029,101.271915,115.317936,33.511333,69.371681,88.538303,101.649342,26.392994,54.861488,70.606098,82.938824,-15.033755,-13.327344,-2.983965,4.302583,18.097625,35.505252,41.930876,45.519316,36.131216,52.695517,57.862853,59.760011,47.701638,64.746295,68.707028,68.620269,53.69433,68.505228,71.419847,70.973948,34.14362,292.999036,-86.418915,288.682312
30,-12.409401,16.551025,0.374393,-1.703447,0.861626,-7.759666,-21.838188,-34.671936,-49.438705,-34.870605,-11.122398,5.247688,-59.831028,-42.089138,-14.519234,7.563858,-62.538986,-48.204861,-23.527679,-4.533234,-61.509018,-52.451191,-36.136665,-22.817802,-17.923675,-25.855083,-23.174868,-18.767123,-9.754466,8.540885,17.67093,22.807391,8.864951,21.910405,31.55409,36.62596,24.327748,34.497794,40.190317,43.05177,37.165226,46.275388,47.282537,47.0653,27.327347,53.067055,74.837379,93.835487,52.826042,86.335258,103.951836,116.703072,43.13261,80.434799,101.082458,115.255852,34.07896,68.030376,87.664032,101.325645,26.153584,52.904949,68.423996,81.336594,-14.695054,-12.163287,-0.707968,6.23815,19.122682,35.980792,42.49546,46.310339,36.602618,53.456158,59.960638,62.824622,47.477237,65.166383,70.484329,71.378289,53.054163,68.878262,73.375977,74.21251,21.734962,309.527861,-86.043777,286.956665
31,-26.736603,1.105518,0.140476,-4.182417,7.347908,8.876152,8.980293,10.269127,-28.30061,-7.789536,12.287292,26.617928,-36.674595,-11.560478,12.771263,32.093353,-38.190651,-17.710476,5.376549,23.826599,-35.58506,-26.261044,-13.043232,-1.567726,-9.342096,-11.469892,-6.468911,0.743413,-3.566148,13.821718,23.871042,30.284872,7.635809,22.751692,33.584999,40.872412,18.198958,32.407419,41.450211,47.497738,27.173516,39.383178,44.100292,47.536332,27.777328,53.660088,75.515614,93.919201,53.33353,85.331326,102.323399,115.403652,43.355598,77.964993,97.867527,112.271519,33.905354,65.100117,83.855381,97.456112,25.416641,50.302162,64.773045,76.923809,-14.34283,-11.455936,0.025873,6.925432,18.051066,35.703532,44.676732,51.123475,35.910088,55.887457,65.920479,72.161717,47.0251,67.547108,76.640783,80.971092,53.362668,71.273005,77.775385,80.561502,-4.991884,310.551544,-85.893545,282.692414
32,3.360214,-18.599533,2.318459,-13.178341,-5.488586,-15.925999,-28.049126,-42.657623,-28.280411,-16.781216,-6.190224,2.498932,-28.067036,-11.372681,0.2425,12.708435,-25.797501,-9.332657,4.191513,16.673241,-22.821579,-15.095901,-4.428864,6.398048,31.458809,50.104593,56.760485,58.723716,34.40276,44.364522,48.380522,48.082205,16.151623,30.165879,37.975577,39.582261,-2.366523,10.593036,18.517837,21.991792,-20.150024,-12.083506,-5.044021,-0.745204,31.59605,58.400002,78.6339,95.819035,57.536087,84.500828,99.486637,110.848331,47.13604,76.437778,93.087444,106.609325,35.23201,61.003132,76.8326,88.937817,22.526608,40.951023,52.830677,61.347198,-12.33835,-7.082093,5.581867,14.353389,16.020095,36.056066,47.073451,54.255888,32.171965,54.141711,65.835263,72.628735,44.374031,66.689457,76.047917,80.004019,53.035823,73.488301,78.534236,77.850906,-1.570101,291.96572,-83.513517,269.527781
33,7.83577,-6.434887,7.123146,-15.071732,-36.966991,-59.071369,-75.814705,-83.630733,-47.116184,-60.552578,-59.59362,-59.393291,-33.823471,-53.949451,-61.424675,-62.871265,-22.947922,-44.679222,-49.950085,-54.051418,-14.418755,-29.421444,-37.670345,-44.675617,-27.392174,-36.835479,-42.33423,-41.815526,6.246733,20.794142,19.046976,14.895311,28.510721,44.387616,42.841695,36.340426,43.754675,58.249719,55.795635,47.95043,52.525147,66.694582,66.025023,61.106911,17.529831,39.431934,53.573055,61.170902,45.400314,65.162144,60.947971,53.365231,41.187515,63.036976,63.085384,55.341682,34.473324,53.682404,57.000332,53.944016,27.315388,42.862587,51.323376,54.782238,32.550927,55.535974,73.197642,82.19832,36.982136,63.166287,78.458468,86.960882,23.939461,50.984413,67.711179,74.45982,12.227199,36.204081,50.857578,57.726817,3.573496,17.997899,27.653749,35.633322,6.521158,285.563777,-76.134882,254.488993
34,37.321243,-3.870084,-0.030041,-45.272747,-32.294197,-59.213562,-78.750973,-88.893757,-68.039188,-100.114975,-115.236626,-122.325497,-60.685673,-95.746708,-111.400852,-115.908909,-51.599808,-82.920513,-97.86644,-104.826221,-42.023163,-66.428146,-78.825016,-85.553226,-16.363921,-15.986441,-4.86902,9.627013,10.68665,26.921698,33.862012,36.305105,29.053754,45.933414,50.646082,50.230687,42.58611,57.962889,61.921955,62.430902,52.022376,65.498415,67.049771,66.26906,33.310604,68.170395,93.01403,101.560593,56.415138,96.724892,100.720482,95.793114,42.64492,82.512932,82.140083,74.486618,29.900322,66.968307,65.881462,57.084732,19.263897,53.223839,54.975071,47.739658,-11.050051,-7.694595,5.718706,19.379749,-3.774062,18.278184,20.463901,16.488163,11.829156,31.433615,27.72081,21.884223,27.090276,45.41255,39.44536,34.566893,40.869078,53.926203,47.893558,43.156375,44.212561,281.710999,-75.794764,209.233552
35,10.062675,4.816532,-8.906479,-43.915473,-27.352638,-54.400864,-78.489361,-94.673939,-63.609581,-97.738266,-113.562012,-123.613243,-57.6511,-95.217361,-114.133701,-125.69355,-49.380913,-84.398861,-102.287407,-113.92868,-40.59597,-67.667427,-82.194672,-92.802486,-16.215967,-16.733435,-4.569469,8.312038,10.986016,23.915502,28.679608,31.161172,29.334286,42.080374,45.501779,46.964091,42.359918,55.518375,58.56125,59.192895,50.966752,63.206548,65.738068,66.411271,32.691021,66.587391,93.710747,107.686729,63.675041,100.813751,106.903839,104.409943,55.606842,88.901596,79.447174,70.13031,47.267933,78.466988,66.25946,55.453949,39.300213,66.233139,57.940865,48.840122,-20.767096,-25.189475,-18.565755,-7.042881,-19.930131,-5.820717,-2.617415,-3.430729,-1.78965,13.252071,11.968094,8.167665,16.653036,29.609508,25.89238,22.907365,34.080732,43.085485,37.177515,33.031716,54.513502,287.127621,-84.462976,165.91817
36,2.655945,-0.441454,-5.210609,-44.178282,-28.887177,-54.894218,-78.611698,-95.378551,-64.054413,-97.680588,-113.928909,-125.482292,-58.241501,-94.910889,-112.924461,-126.407204,-50.529213,-84.576015,-102.075348,-114.554729,-42.711182,-68.462219,-82.303963,-93.266888,-16.789196,-15.821938,-2.462298,9.517715,11.503114,25.022255,30.436222,33.769201,29.484648,41.162516,45.432001,47.819396,42.509478,53.770221,58.199763,60.131131,50.927973,62.024954,65.293712,66.480864,23.830605,54.864922,82.941971,99.860001,49.510632,87.790833,104.761963,112.881546,48.344536,86.738205,77.644615,67.131157,46.969814,82.903976,70.103817,58.490467,46.022987,74.009857,64.345493,54.580593,-26.038481,-39.65948,-38.439354,-31.945155,-41.60045,-39.126852,-35.699272,-34.560501,-21.285614,-13.171209,-8.71675,-10.177579,-0.062491,7.122601,8.611589,8.329204,19.888326,23.936065,22.08133,19.43094,57.137861,287.763712,-89.705172,122.817432
37,0.062943,0.387731,6.886082,-34.426596,-29.287376,-55.582008,-79.376392,-96.884995,-64.368668,-97.503662,-113.640747,-125.309772,-58.60611,-94.759254,-112.926121,-126.707268,-51.160927,-84.452419,-101.922054,-114.845238,-43.317375,-68.656311,-82.516994,-93.749771,-17.472588,-16.531326,-3.767948,8.733361,11.64409,24.544245,29.899735,33.245372,29.610496,40.463501,43.760109,45.429655,42.259697,53.38354,57.177362,58.769411,49.998938,61.19824,64.548014,66.053119,28.839054,56.797028,80.802898,98.406544,45.881481,73.78149,65.228577,53.397903,42.554913,71.611233,60.638866,48.83606,40.277367,70.177288,57.701054,45.385838,38.452892,61.89497,55.375729,47.033558,-30.216669,-51.403544,-63.000858,-66.586643,-46.975206,-55.022797,-48.779985,-45.194169,-31.979736,-42.484716,-36.533921,-32.531321,-16.43444,-25.807164,-20.149437,-14.916491,-1.114163,-10.194098,-8.054724,-6.135768,57.151251,288.398152,-82.868643,88.637545
38,-1.354637,-0.604228,-2.396479,-33.700874,-29.396095,-55.367317,-79.156322,-96.095982,-62.952003,-96.643467,-113.059616,-124.854584,-57.306061,-94.050465,-112.575703,-126.290932,-50.034485,-83.817501,-101.616383,-114.587231,-42.339249,-67.882004,-82.036343,-93.534679,-16.983833,-16.18361,-3.678102,9.084597,12.147047,25.331995,30.444929,33.481506,30.273139,41.121452,44.051818,45.402176,42.944571,54.056743,57.451225,58.598362,50.443047,61.798022,65.030903,66.333836,21.107712,45.49882,67.720843,83.727064,48.622513,79.580469,80.609894,75.301552,48.646403,79.296542,75.218039,66.990738,48.381586,76.981345,69.102431,58.667536,47.685328,69.679671,63.853998,55.49881,-33.552874,-56.327846,-67.463838,-69.417096,-54.279446,-67.147661,-66.070116,-64.05398,-38.148988,-51.215035,-49.088243,-46.335317,-21.528201,-33.122983,-30.540056,-26.398193,-4.860776,-16.389825,-16.600919,-14.736273,56.33091,288.459115,-84.730826,55.601862
39,-1.746025,0.390201,-2.396478,-33.700874,-28.774681,-54.51107,-78.31152,-95.813255,-62.762604,-96.675739,-112.702675,-123.874683,-56.72802,-94.003143,-112.040234,-125.079174,-49.000282,-83.085423,-100.27319,-112.636356,-41.121483,-67.352486,-81.056442,-91.94006,-17.773004,-16.908745,-3.998648,8.797334,11.263769,25.081041,30.772453,34.246655,29.460072,40.912241,44.439116,45.998499,42.270812,53.726625,57.523473,58.946449,50.137877,61.308773,64.220181,65.414434,13.376369,34.200611,54.638786,69.047585,51.363544,85.379448,95.991211,97.2052,54.737892,86.98185,89.797211,85.145416,56.485806,83.7854,80.503807,71.949234,56.917763,77.464371,72.332268,63.964062,-36.889079,-61.252148,-71.926818,-72.24755,-61.583686,-79.272524,-83.360247,-82.913791,-44.31824,-59.945355,-61.642565,-60.139313,-26.621961,-40.438801,-40.930674,-37.879895,-8.60739,-22.585553,-25.147114,-23.336777,54.554758,289.812838,-87.157431,22.86451
40,-0.457764,-0.698706,-7.495022,-13.611057,-28.776054,-54.472389,-78.400497,-95.664368,-63.10421,-96.347752,-112.342014,-123.587608,-57.147446,-93.999825,-111.960354,-125.002899,-49.461937,-83.385658,-100.622635,-112.902203,-41.649742,-67.600937,-81.534863,-92.463799,-17.04404,-16.198739,-3.594368,9.34963,12.031821,25.019723,30.629254,34.274813,29.839343,40.630104,44.258188,45.987446,42.523433,53.682412,57.378853,58.719208,50.508194,61.940974,64.861336,65.774563,12.762852,33.614559,55.92968,72.338619,46.667233,77.534351,98.186474,112.153645,54.077225,89.685001,113.589191,129.569836,59.784393,93.674641,109.869289,118.661098,63.587494,89.282627,96.125164,99.042606,-35.454092,-56.312331,-65.145481,-65.68027,-62.967636,-81.407946,-90.853999,-98.034213,-47.711054,-67.715687,-80.076699,-88.688998,-30.533356,-45.719912,-55.670003,-62.427814,-13.716681,-22.881739,-28.761088,-32.972188,53.498154,290.908121,-95.251293,11.047442
41,-0.559158,-0.578601,1.422787,-8.773684,-28.767128,-54.594841,-78.356495,-94.946709,-63.086014,-96.123734,-111.816216,-122.831154,-56.95015,-93.393631,-111.11824,-124.127426,-48.928185,-82.614899,-100.003109,-112.825127,-40.608444,-66.161613,-80.278473,-92.004719,-16.909671,-16.12717,-3.628701,9.124735,12.499765,25.341196,30.825744,34.367562,30.224974,40.333578,43.721021,45.570507,42.892268,53.830613,57.442765,58.898037,50.900618,62.380204,65.49261,66.666918,10.19537,27.556171,45.457134,58.646164,39.972782,67.361927,83.761139,95.6036,50.911388,74.532852,72.059326,65.632553,58.664017,78.537827,71.307735,62.033844,64.127312,80.728683,74.929676,67.271118,-36.010586,-55.86816,-63.732415,-67.366211,-67.67135,-88.732965,-101.353514,-110.799567,-53.044252,-66.899655,-68.779678,-68.617644,-37.08844,-46.703164,-46.764606,-44.784888,-21.926645,-31.121621,-32.472782,-29.906435,50.368853,291.362387,-96.398649,3.306626
42,0.155983,0.074656,1.859093,-10.821698,-28.272972,-54.385757,-78.026848,-94.895954,-63.124352,-95.529785,-111.277542,-122.5173,-57.08004,-92.732906,-110.462265,-123.440037,-49.143448,-82.199249,-99.636612,-112.491016,-40.824623,-66.194115,-80.200825,-91.71072,-16.942708,-16.005954,-3.334522,9.01945,12.348662,25.29056,30.785421,34.397202,30.063435,40.304185,43.537869,45.29331,42.668423,53.646288,57.21577,58.615282,50.52289,61.965983,65.15533,66.37243,8.061333,25.90353,43.904285,55.893803,39.759979,67.129154,82.664223,94.24118,51.205215,71.938477,65.570469,57.318134,59.355469,75.239639,67.892876,58.816795,65.06813,78.289261,71.724014,63.660851,-36.087219,-56.037079,-62.840338,-64.211969,-70.937021,-87.816465,-96.767311,-103.557942,-56.663166,-65.252556,-61.719815,-60.369395,-40.761972,-48.016565,-45.35577,-42.754256,-25.717379,-33.568543,-32.71966,-29.275963,49.560013,293.021883,-95.504379,-5.930232
43,0.05024,0.18451,3.86507,-6.2011,-28.033218,-53.943443,-77.337399,-94.073524,-61.884499,-94.699402,-110.948067,-122.614861,-55.895462,-91.992302,-110.186234,-123.63327,-48.227577,-81.94685,-99.678497,-112.538109,-40.312958,-66.210022,-80.425415,-91.906128,-17.223054,-16.001755,-3.136736,8.955168,12.198732,25.506316,30.804255,33.866211,30.126976,40.5594,43.78907,45.302943,42.768768,53.40225,56.936165,58.26596,50.580874,61.551267,64.701711,65.870893,5.278587,21.013927,37.258644,49.543705,36.236229,66.330185,81.924992,92.876415,48.131275,68.251877,61.206608,53.320026,56.768131,72.178059,64.699116,55.669384,63.107071,76.219883,69.661331,62.244987,-35.153645,-56.385444,-64.911261,-67.228507,-71.298045,-86.588805,-94.246752,-99.994758,-57.178411,-65.267005,-61.231338,-59.777486,-41.338258,-48.575776,-45.737141,-43.262431,-26.051109,-35.02752,-34.018055,-30.133275,49.186077,294.008192,-92.063484,-11.329533
44,-0.134926,0.765335,2.654285,-4.013252,-27.449913,-52.88166,-76.027107,-92.965508,-61.513824,-94.528484,-110.830421,-122.19532,-55.650101,-92.117558,-110.443497,-123.839664,-48.032112,-81.876526,-99.537563,-112.421722,-40.17231,-66.418648,-80.60051,-91.927586,-17.516678,-16.527807,-3.688352,8.076398,11.761416,24.847069,30.065411,33.293661,29.698305,40.099112,43.391768,45.152025,42.414382,53.090534,56.542567,57.956899,50.320905,61.208429,64.038574,65.127727,3.452225,17.858162,34.411583,46.330776,34.203129,64.434929,79.812126,90.011902,45.90517,65.232697,58.302441,50.84444,54.497337,68.420219,60.84549,51.981583,60.695572,71.991234,64.854298,57.354183,-33.630756,-55.46385,-64.37851,-66.700356,-69.844224,-85.859811,-92.974261,-98.172534,-56.328942,-62.262817,-57.16847,-54.882716,-40.589132,-44.779701,-41.175916,-38.638159,-24.960474,-31.538869,-29.3743,-25.528577,48.782587,295.311141,-89.677763,-14.805171
45,0.955009,-0.467204,0.095787,-1.819136,-27.707291,-53.074837,-76.029453,-92.632198,-61.482582,-94.376564,-110.559483,-122.1912,-55.808029,-91.838436,-110.03088,-123.786392,-48.214989,-81.647873,-99.368134,-112.59676,-40.223236,-65.801468,-79.952259,-91.551075,-17.092576,-16.025776,-3.148468,8.432513,11.998167,24.573144,29.733935,33.078461,29.626983,39.522548,42.808473,44.62622,42.278716,52.729665,56.385783,58.011486,50.328932,61.296423,64.293911,65.292354,3.998909,18.097286,34.438019,46.818581,33.209324,63.340015,78.794746,88.736,44.53125,64.705124,57.334728,49.358768,53.169708,68.361454,60.761662,51.734962,59.474201,72.19883,65.373802,57.596226,-32.518168,-54.497023,-63.1364,-64.799061,-68.966781,-84.833519,-91.369985,-95.822437,-55.799988,-59.139049,-53.031316,-51.021371,-40.228881,-43.436104,-38.691264,-35.816381,-24.634802,-31.191492,-28.186778,-24.177386,49.567595,295.307297,-89.751978,-16.160947
46,-0.54554,0.354447,0.591602,-1.123981,-27.554512,-52.982712,-75.90414,-93.39632,-60.732994,-93.936882,-110.35841,-121.991215,-55.027084,-91.744709,-110.362186,-124.361687,-47.567482,-81.518898,-99.52549,-113.092175,-39.777603,-65.781326,-79.988136,-91.740417,-17.324078,-16.211274,-3.456912,7.809698,11.40561,24.422473,29.820509,33.085068,29.062214,39.227073,42.610069,44.555331,41.723148,52.350826,55.97576,57.650185,49.712169,60.71035,63.817816,65.274879,3.743935,17.998924,34.456043,46.948814,32.475929,62.356052,77.833385,87.715931,44.278622,63.679218,56.610775,48.809853,53.337593,67.777519,60.566998,51.791668,60.070724,71.934757,65.217419,57.738361,-31.420678,-52.979908,-61.722779,-63.336379,-68.060687,-84.081677,-90.47692,-94.726213,-55.320372,-59.092057,-52.713949,-50.493405,-39.917535,-43.395287,-38.495238,-35.555671,-24.39555,-30.770385,-27.367319,-23.253013,48.928127,295.924647,-89.254303,-17.022026
47,0.151978,0.142149,-1.145954,-0.031771,-27.293587,-52.463722,-75.497761,-92.742691,-60.912895,-93.424988,-109.597607,-121.233673,-55.314217,-91.54707,-110.14389,-124.404602,-47.700806,-81.356564,-99.115276,-112.630005,-39.533844,-65.379524,-79.587364,-91.357784,-17.260846,-16.352312,-3.886509,7.428636,11.198005,23.654483,28.955694,32.131209,28.80774,38.952407,42.552765,44.722551,41.490102,52.222447,56.119454,58.102259,49.528709,60.530718,63.697094,65.014909,3.873253,18.145008,34.565392,46.820126,32.787609,62.431068,77.919159,87.572021,44.165726,63.575535,56.512413,48.771057,52.943001,67.584229,60.661011,52.088814,59.25396,71.533699,65.064926,57.671928,-31.459612,-52.888116,-61.665536,-63.30257,-67.231533,-82.810668,-89.531799,-94.110376,-54.570599,-56.728529,-50.434124,-48.707027,-39.184681,-41.640402,-36.78083,-33.909529,-23.679924,-29.3785,-25.973427,-21.907317,48.957853,296.389519,-90.522509,-16.731073
48,-0.456047,-0.49777,-2.545967,1.448819,-27.122154,-52.032509,-74.875488,-92.224617,-59.979057,-92.923737,-109.356709,-121.262856,-54.333801,-90.853157,-109.631424,-123.954506,-46.732063,-80.630779,-98.66209,-112.318039,-38.575745,-64.49192,-78.755951,-90.61758,-16.917452,-15.724495,-3.121483,7.834275,11.429693,24.147128,29.441794,32.62194,28.950631,39.393243,42.988167,45.128498,41.583345,52.567632,56.505023,58.49808,49.559769,60.877199,64.294899,65.784999,3.055573,17.117443,33.867989,46.563091,32.035332,60.70673,75.638008,85.176773,43.980217,61.744823,54.178619,47.054329,53.238831,66.907997,59.618397,51.45607,60.206337,72.162323,65.425415,58.492355,-30.875113,-52.490598,-61.170915,-62.526615,-66.045616,-81.976914,-88.860479,-93.463386,-53.43822,-58.949382,-52.839673,-50.411832,-38.466894,-43.656183,-38.782902,-35.14784,-23.21763,-31.700562,-28.598252,-23.88895,47.949686,296.051837,-93.620596,-15.122166
49,0.133896,0.484802,-4.848232,0.82727,-26.566658,-51.686554,-74.881439,-92.470665,-59.495659,-93.812199,-110.500488,-122.325382,-53.840675,-91.663456,-110.592785,-124.663925,-46.269608,-81.231365,-99.548378,-113.169651,-38.393326,-65.174789,-79.60825,-91.137085,-17.690011,-16.53287,-3.935786,7.26333,11.195041,23.380991,28.390184,31.506419,29.236535,39.117898,42.166578,43.943878,41.929332,52.607275,55.933091,57.426278,49.564524,60.480947,63.14029,64.116256,2.557583,17.094955,33.912334,46.592274,30.631886,60.359802,76.194534,86.456966,42.473717,61.455231,54.518623,47.383175,51.949883,66.99028,60.347786,52.617245,59.273586,72.496262,66.155148,59.361248,-31.12724,-51.872816,-59.888297,-60.706861,-65.234648,-81.23242,-88.35567,-92.839954,-52.684155,-59.313216,-53.649437,-50.906854,-37.678249,-44.27381,-39.668619,-35.777664,-22.218447,-32.075696,-29.440219,-24.375049,47.152262,296.51637,-99.400148,-14.315166
50,1.416435,-0.091699,-6.971283,1.265945,-27.469597,-52.647171,-75.898876,-93.356781,-60.648537,-94.029007,-110.309486,-122.087631,-54.970894,-91.854687,-110.507812,-124.991856,-47.363205,-81.275253,-99.239616,-112.81374,-39.423637,-65.409508,-79.443684,-90.888062,-17.655925,-16.625249,-3.772518,7.301801,11.106614,23.263974,28.311699,31.461958,28.853992,38.631366,42.229378,44.568792,41.495906,52.047879,55.94081,58.050636,49.379334,60.204614,63.121209,64.399134,1.918888,16.375294,33.322506,46.035233,29.902153,58.905144,74.140434,83.61454,42.225609,62.449951,56.389675,49.544106,51.960468,67.701302,61.627235,54.147034,59.009171,72.241917,65.612297,58.526001,-30.27845,-50.48726,-57.94881,-58.668048,-63.782865,-80.483418,-87.859474,-92.732323,-51.282729,-58.397642,-52.896607,-50.118147,-36.301801,-43.658776,-39.230592,-35.038758,-20.807079,-31.323113,-29.373529,-24.4975,47.329731,296.348733,-107.610397,-13.125158
51,-0.161591,0.070581,-7.998734,1.066924,-27.126846,-52.3946,-75.673027,-93.469162,-59.757042,-94.24387,-110.934105,-122.652512,-54.058113,-92.370529,-111.463966,-125.817261,-46.579056,-81.891117,-100.371666,-114.047813,-38.868942,-65.726395,-80.152187,-91.698074,-17.596089,-16.533982,-3.941405,7.270555,11.293348,23.798918,28.629591,31.343583,29.268337,39.014898,42.112978,44.041629,41.961381,52.188855,55.61557,57.364836,49.567982,60.251112,62.928239,64.05043,0.913754,15.734367,33.499031,45.963478,27.986698,57.101727,73.660641,85.057812,39.146118,55.894775,49.236946,43.041401,48.06015,60.654602,52.163372,44.370403,55.179005,65.905724,57.203579,49.888973,-28.327971,-48.263813,-55.966992,-57.832688,-62.551006,-80.550171,-89.321076,-95.118482,-49.799608,-57.679547,-52.045933,-47.786575,-34.505327,-41.910066,-36.900194,-31.557147,-18.704447,-28.920373,-25.684713,-19.958906,47.069292,296.083917,-115.707979,-12.393632
52,0.752792,-0.003767,-8.374214,3.15523,-27.244034,-52.476768,-75.688934,-92.668591,-61.249924,-95.066586,-111.339569,-122.768154,-55.602837,-92.92923,-111.878014,-126.314793,-47.951317,-82.050934,-100.138378,-113.664665,-39.809532,-65.767021,-79.820824,-91.175251,-17.46209,-16.835262,-4.281033,7.462661,11.205539,23.54006,28.654229,31.824804,28.968415,38.809825,42.463597,44.762565,41.640773,52.11636,56.021271,58.145855,49.565882,60.281308,63.021297,64.129161,0.864944,14.405937,31.920605,44.575481,25.45681,53.969193,68.02969,77.451153,36.806087,54.179535,47.02177,40.857468,46.279221,60.28101,51.215286,43.507748,53.937263,65.427876,56.78484,49.976063,-30.26752,-51.109087,-60.281277,-63.561274,-62.233053,-81.563896,-91.047123,-97.268014,-49.648535,-59.774522,-54.772214,-50.276321,-34.497609,-45.051279,-40.433182,-35.00705,-18.871667,-31.109611,-28.411982,-22.822119,47.714653,295.710697,-124.189625,-9.607855
53,0.677948,-0.854749,-5.554276,3.503965,-27.493286,-52.587433,-75.974808,-93.171043,-60.723267,-94.498672,-110.891533,-122.997322,-55.221748,-92.514553,-111.49292,-126.281776,-47.683525,-81.988964,-100.600319,-114.682961,-39.652634,-65.507812,-79.941559,-91.971016,-16.779933,-15.825766,-3.498346,7.614876,11.61939,23.866596,28.899872,31.832029,29.239808,39.167298,42.76531,44.895637,41.658557,52.265796,56.280128,58.277631,49.313879,60.621553,64.003067,65.458524,0.638638,13.033047,28.973408,41.745186,22.685223,50.818062,66.186905,77.227192,34.374218,55.949249,49.114265,41.880512,44.649239,61.214161,53.661633,46.217365,53.339825,66.288013,59.220028,52.963028,-29.436699,-49.739278,-58.6205,-60.972943,-63.411467,-83.101667,-92.940082,-100.135209,-51.53924,-61.197252,-55.000814,-51.006149,-36.929371,-46.711717,-41.289135,-36.250826,-21.657845,-33.999808,-30.376077,-24.456158,48.11202,294.766086,-130.024481,-6.193752
54,-1.449394,0.44979,-3.159199,2.029458,-26.79245,-52.122688,-75.525398,-93.314896,-59.786682,-94.699631,-111.603813,-123.588352,-53.904648,-92.500877,-111.644955,-125.784931,-46.341476,-81.825542,-100.451889,-114.222507,-38.543243,-65.499916,-80.165405,-92.158012,-17.35483,-16.244743,-3.591898,7.849342,11.360594,24.444765,29.555847,32.478741,29.44272,39.811849,43.134701,44.921263,42.067839,52.590665,56.201396,57.821419,49.593176,60.552763,63.685485,65.190095,0.92577,12.756958,27.960377,40.123272,22.980938,51.100044,66.813984,78.098717,33.747196,56.53141,51.037445,43.926373,43.511124,60.840111,54.830303,47.374821,52.559452,66.734333,61.06636,54.369278,-28.69767,-48.854579,-57.692669,-59.760351,-63.927855,-83.358147,-92.779407,-100.316601,-52.850171,-62.743081,-55.506149,-51.124586,-38.740263,-47.983034,-41.980956,-36.840296,-23.341193,-35.729437,-32.383552,-26.460546,46.484585,295.162029,-133.361721,-4.21814
55,0.687561,-0.129244,-1.396179,1.174091,-27.946815,-53.159294,-76.620712,-94.137325,-61.541519,-95.380783,-111.901245,-123.957138,-55.805054,-93.056202,-112.05883,-126.575432,-48.1493,-82.332172,-100.816154,-114.727192,-40.001221,-65.927467,-80.205173,-91.882153,-16.956478,-16.12964,-3.639075,7.772833,11.335585,23.695671,28.955139,32.191848,28.907961,39.024408,42.729865,44.787944,41.521903,52.07968,55.950875,57.698412,49.575392,60.546588,63.581003,64.876094,1.861897,13.992062,29.371891,42.117462,22.866383,51.068859,67.205257,78.747482,32.692566,58.362923,53.427143,45.620327,42.053947,62.217922,56.388416,48.091965,50.927525,67.374229,61.976624,54.422436,-28.903207,-49.554891,-59.05371,-61.67909,-64.191066,-83.158786,-92.376887,-100.303139,-52.940141,-63.337027,-55.871835,-51.306287,-38.562083,-47.997298,-41.452311,-36.288463,-22.862843,-34.672671,-31.22496,-25.734484,47.055845,294.949206,-134.874201,-3.127627
56,-0.938072,-0.116647,0.327473,0.355188,-28.132668,-53.477211,-76.954994,-94.732304,-60.743637,-94.905624,-111.333733,-123.219967,-54.907722,-92.625446,-111.415501,-125.583458,-47.299004,-81.923275,-100.072861,-113.508911,-39.434738,-65.719757,-79.884396,-91.379814,-17.279186,-16.115437,-3.447649,8.119129,11.274081,24.147066,29.490638,32.442987,29.336077,39.67254,43.413812,45.414649,42.064936,52.665074,56.589127,58.340245,49.825543,60.767592,63.89099,65.263516,1.925983,13.941593,29.103012,41.956673,21.936207,50.250435,66.511402,78.088932,31.860638,57.827339,53.433208,46.042671,41.376629,61.749516,56.241989,48.17831,50.410023,66.736622,61.583004,54.435997,-29.048598,-49.837276,-59.970642,-63.166009,-64.041754,-83.326685,-92.670881,-100.670369,-52.899015,-63.677951,-55.822959,-51.132645,-38.570789,-48.392192,-41.621044,-36.351634,-22.999281,-35.014799,-31.467423,-25.977997,46.114826,294.809481,-134.549675,-2.795518
57,-0.644989,-0.155117,-0.510921,-0.982079,-28.02269,-53.124275,-76.341305,-93.84613,-60.70507,-94.534264,-110.709629,-122.303753,-54.856339,-92.467403,-111.205788,-125.359325,-47.104683,-81.729412,-99.789104,-113.227158,-39.13868,-65.462379,-79.619808,-91.141605,-17.113262,-15.901225,-2.987485,8.542737,11.038195,24.050983,29.500024,32.491523,28.926733,39.600477,43.472722,45.476832,41.715367,52.563803,56.574554,58.406689,49.772561,60.875347,63.95768,65.25413,2.321434,14.935799,30.306072,42.874203,22.073421,50.912876,67.526035,79.252052,31.816692,58.01897,53.429718,45.710964,41.169605,62.016048,56.51453,48.300648,49.956264,66.925106,61.733723,54.242935,-29.121309,-49.925795,-59.823429,-62.995146,-63.757609,-82.586051,-91.714213,-99.584395,-52.069244,-62.920335,-55.246612,-50.757141,-37.416767,-47.632323,-41.084926,-35.932781,-21.639536,-34.272806,-31.154133,-25.871014,45.475502,294.639636,-135.054932,-3.792324
58,-0.235062,-0.102444,0.058651,0.177563,-28.06675,-53.224411,-76.447678,-93.85334,-60.589485,-94.42852,-110.557823,-122.137527,-54.693146,-92.207394,-110.760384,-124.787865,-46.93325,-81.510143,-99.448586,-112.726822,-39.006271,-65.309258,-79.433784,-90.892467,-17.162539,-15.816442,-2.878619,8.495128,11.041653,24.117056,29.767589,33.114893,28.978974,39.728177,43.644882,45.780397,41.783849,52.718858,56.767709,58.676662,49.771511,60.765246,63.796018,65.023925,1.739845,14.356899,30.015392,43.094845,21.639404,50.264111,66.947651,78.949528,31.808681,57.787914,53.095322,45.481968,41.399174,61.991215,56.269169,48.062725,50.317612,66.867943,61.699562,54.32642,-28.686277,-49.22678,-59.061305,-62.38286,-63.548924,-82.642614,-91.770992,-99.544474,-52.266907,-63.560317,-56.296739,-51.876058,-37.912345,-48.128703,-41.791259,-36.701203,-22.459551,-34.884691,-31.779633,-26.499788,45.221272,294.520473,-135.01545,-3.63148
59,-0.15667,0.072001,-0.208511,-0.102938,-28.175011,-53.165474,-76.297474,-93.827019,-60.442543,-93.919258,-109.965248,-121.618881,-54.616928,-91.834087,-110.113335,-124.002571,-46.953392,-81.323261,-98.872948,-111.919384,-39.179535,-65.376434,-79.2243,-90.385666,-17.067937,-15.793903,-3.085606,8.191624,10.961192,23.826458,29.447042,32.895556,28.940319,39.722558,43.476736,45.552908,41.923837,52.988708,56.856445,58.690556,50.124353,61.147234,63.951135,64.944699,2.043629,14.885674,30.630512,43.539963,21.98988,50.709915,67.288342,79.186077,31.644287,57.910538,52.920971,45.027122,40.771809,61.869793,55.931282,47.549572,49.241982,66.424656,61.122952,53.636341,-29.023033,-49.943332,-60.00587,-63.601535,-63.756312,-82.14858,-91.103254,-98.963402,-52.094716,-62.644928,-55.397005,-51.275165,-37.491855,-47.420982,-41.070045,-36.131339,-21.871471,-34.115775,-30.932016,-25.783452,45.208197,294.406899,-135.080366,-3.919993
60,-0.296974,0.169505,0.077763,-0.410856,-27.879753,-52.583885,-75.64024,-92.996292,-60.437164,-93.735523,-109.604187,-121.000328,-54.835052,-91.658306,-109.911518,-123.665199,-47.180443,-81.133633,-98.668957,-111.759224,-39.189606,-65.040092,-78.903923,-90.127945,-17.011497,-15.968163,-3.394544,7.947031,11.093523,23.631389,28.940751,32.166531,28.982247,39.507914,42.989896,44.866306,41.827074,52.756835,56.476001,58.223846,49.917613,60.989832,63.804231,64.793164,1.875343,14.613476,30.303841,42.969303,21.914635,50.496254,67.033138,79.010868,31.813774,57.556801,52.403011,44.527817,41.102142,61.667461,55.619316,47.169971,49.664154,66.331844,61.00256,53.677368,-28.629621,-49.287018,-59.044509,-62.158829,-63.38723,-81.892377,-90.773291,-98.519818,-51.79745,-62.299342,-55.061978,-50.923527,-37.274309,-47.014263,-40.771914,-35.885295,-21.803021,-33.950994,-30.72543,-25.570475,45.023489,294.353608,-134.890337,-4.553645
61,1.456261,-0.150671,-0.0634,-0.230669,-27.570648,-53.172913,-76.590042,-93.718414,-61.355667,-94.267101,-110.316124,-122.145081,-55.514946,-92.127628,-110.628204,-124.862366,-47.453842,-81.420593,-99.290714,-112.663364,-38.847198,-64.920387,-79.112606,-90.508804,-17.433006,-16.09932,-3.475807,8.205889,11.407895,23.91859,28.849978,31.921381,29.237215,39.425045,42.966863,45.127139,42.005162,52.745905,56.62062,58.561806,50.094713,61.010642,63.880801,64.851271,2.036247,14.923725,30.989342,44.152794,22.799664,50.80204,66.911259,78.50893,33.238506,57.585697,52.715206,45.391617,42.716789,61.982803,56.238728,48.128014,51.32761,67.17905,61.790714,54.480171,-28.421615,-49.279762,-59.370026,-62.878777,-62.885045,-81.541049,-90.548365,-98.31385,-51.340126,-62.464926,-55.734563,-51.603646,-36.881607,-47.183274,-41.359901,-36.367072,-21.274499,-33.961214,-31.162191,-25.839213,46.493683,294.038372,-134.939804,-4.948879
62,-0.132408,-0.166417,-0.718689,0.071106,-27.599602,-53.140755,-76.417637,-94.057732,-61.202316,-94.364605,-110.439949,-122.22044,-55.252762,-92.192116,-110.824699,-125.167923,-47.114296,-81.353989,-99.320869,-112.970753,-38.485107,-64.72332,-79.070263,-90.813217,-17.287522,-15.790754,-3.096413,8.146114,11.404869,24.303665,29.275809,32.05044,29.164287,39.875205,43.487542,45.488626,41.942115,52.966848,56.860582,58.745143,50.01771,61.260978,64.187454,65.228566,2.75774,15.72155,31.727314,44.846764,23.08073,50.97805,66.926079,78.430939,33.142776,58.630543,53.89864,46.363277,42.284145,62.441425,56.68293,48.491936,50.685081,67.21344,61.824703,54.405556,-28.619463,-49.375846,-59.522025,-63.346691,-62.649189,-81.197037,-90.149056,-97.8958,-50.874528,-62.3677,-55.502166,-51.339323,-36.202105,-46.732341,-40.85151,-35.928767,-20.487305,-33.315582,-30.665131,-25.488872,46.383505,293.790753,-135.636263,-4.958975
63,0.50766,-0.102814,-0.020084,-0.141594,-28.197327,-53.936348,-77.147484,-94.536152,-61.679192,-94.81636,-110.844784,-122.671738,-55.796928,-92.607307,-111.091747,-125.34153,-47.73159,-81.963959,-99.831676,-113.339081,-39.220848,-65.406876,-79.664612,-91.255474,-17.311975,-15.643973,-2.934627,8.278692,11.393383,23.890432,28.965328,31.92731,29.277044,39.798573,43.352803,45.209885,42.125699,53.062994,56.852802,58.542416,50.263971,61.390963,64.214994,65.071473,2.494011,14.931221,30.354538,43.185482,23.01384,51.159897,67.077885,78.342762,32.913494,58.377857,53.792725,46.369343,41.989174,61.861725,56.269855,48.289261,50.416431,66.749096,61.428051,54.151268,-28.178535,-48.749171,-58.919866,-62.800941,-62.699608,-81.049515,-89.830794,-97.523599,-51.218663,-61.886603,-54.509775,-50.178138,-36.619692,-46.132343,-39.68205,-34.664397,-20.788554,-32.750319,-29.483907,-24.158367,46.931734,293.590188,-135.615778,-5.198319
64,-0.154037,-0.312642,-0.298405,0.559304,-28.120537,-53.740196,-77.056732,-94.280148,-61.375237,-94.660892,-110.692005,-122.38987,-55.386887,-92.49939,-111.037788,-125.107727,-47.290993,-81.868687,-99.75769,-113.213139,-38.872375,-65.181885,-79.521446,-91.180973,-16.862432,-15.292366,-2.74672,8.741512,11.669037,24.279953,29.40499,32.281325,29.523119,40.342347,43.960798,45.723093,42.285941,53.565518,57.381817,58.991095,50.314421,61.64661,64.499973,65.355031,1.990299,14.745827,30.253544,42.9566,23.309555,51.116982,67.020607,78.547897,33.394947,58.267479,53.348637,45.849438,42.475262,62.060738,56.327477,48.357067,50.857372,66.997032,61.748028,54.584942,-28.465118,-48.653366,-58.130881,-61.39862,-62.790351,-81.218804,-90.246344,-98.136441,-51.240492,-61.987348,-54.781353,-50.416463,-36.562913,-46.616899,-40.412773,-35.290515,-20.639118,-33.343061,-30.340787,-24.909777,46.830626,293.123247,-135.861254,-4.793314
65,0.409241,-0.303997,-0.061169,0.970192,-28.497391,-53.993225,-77.300892,-94.186134,-61.51886,-94.627075,-110.610466,-122.508545,-55.614052,-92.434158,-110.878601,-125.214386,-47.560158,-81.738682,-99.643421,-113.312359,-39.152641,-65.242653,-79.505424,-91.332264,-16.917884,-15.343063,-2.798343,8.890392,11.611856,24.276125,29.471619,32.428599,29.434569,40.138879,44.057128,46.158865,42.281742,53.403671,57.433873,59.213273,50.512393,61.777953,64.751235,65.701327,1.932907,14.506016,30.013103,42.918606,22.441864,50.568066,66.521244,77.969456,32.351074,57.834549,53.104935,45.601044,41.563225,61.906986,56.377258,48.450165,50.28511,67.026672,61.881866,54.5755,-28.419114,-48.735926,-58.596571,-62.500062,-63.030622,-81.604003,-90.593659,-98.446922,-51.51593,-63.139796,-55.640332,-51.064349,-36.948513,-47.707843,-41.06529,-35.689515,-21.205462,-34.326066,-31.167193,-25.671561,47.331161,292.622343,-135.831127,-4.020029
66,-0.169258,0.18803,-0.452042,0.686572,-28.025665,-53.549652,-76.851768,-93.999195,-61.46862,-94.679604,-110.785847,-122.542419,-55.519867,-92.44606,-111.095695,-125.323219,-47.503624,-81.749268,-99.719925,-113.230705,-39.110069,-65.246544,-79.557381,-91.208038,-17.004087,-15.478852,-3.045036,8.629126,11.873122,24.501699,29.530467,32.21908,29.871638,40.568971,44.144937,45.924769,42.526768,53.730207,57.577257,59.243778,50.266317,61.550279,64.461687,65.431725,1.687202,13.960819,29.18644,41.83897,23.153687,51.383114,67.068272,78.204861,33.069077,57.528419,52.654839,45.507259,42.277851,61.987782,56.613636,48.887043,51.105881,67.849445,62.764549,55.279713,-27.874321,-47.861262,-57.338345,-61.241496,-62.452916,-81.415109,-90.916367,-99.197683,-50.788602,-62.279057,-55.241949,-50.604123,-36.257588,-47.331783,-41.215251,-35.823112,-20.455349,-34.353699,-31.931848,-26.676209,47.244844,292.693418,-136.200228,-3.450412
67,-0.087662,0.20989,0.320606,1.103233,-28.002663,-53.257942,-76.501293,-93.05912,-61.583061,-94.909859,-110.958138,-122.624588,-55.660973,-92.593918,-111.084538,-125.193558,-47.633629,-81.800079,-99.584999,-113.070831,-39.240875,-65.192528,-79.403,-91.054344,-17.108075,-15.963778,-3.506435,8.484692,11.805073,24.098098,29.010529,31.787321,29.748076,40.15938,43.668595,45.583598,42.429079,53.453874,57.249486,59.010299,50.369996,61.570286,64.24834,65.024048,2.453842,15.421715,31.628094,45.036621,23.377018,51.690559,67.186661,78.019981,33.504868,58.051929,53.261147,46.014805,42.877922,62.231827,56.669254,48.626747,51.783314,68.069344,62.965336,55.558434,-28.672631,-49.334102,-59.07912,-62.654253,-63.075144,-81.572665,-90.772519,-98.980754,-51.451956,-62.24352,-55.57815,-51.563292,-36.823561,-46.956279,-41.076714,-36.010741,-21.053772,-33.897673,-31.090931,-25.716515,47.242441,292.876029,-135.794363,-2.374458
68,0.044518,0.040632,0.701752,1.464627,-28.19149,-53.235626,-76.396008,-92.997093,-61.604805,-94.838848,-110.871849,-122.566738,-55.792007,-92.564735,-110.999851,-125.083752,-47.821198,-81.878128,-99.618301,-113.051834,-39.430275,-65.316582,-79.492607,-91.097775,-17.019216,-15.78921,-3.356258,8.479073,11.798898,24.089206,28.943591,31.616026,29.767465,40.151662,43.568003,45.280713,42.444084,53.366744,57.046327,58.606143,50.304479,61.637532,64.366406,65.022011,2.609253,16.140461,33.039894,46.935425,24.444466,52.292976,67.781582,79.032612,34.55761,58.855591,53.493805,46.09972,43.716545,62.946396,56.807556,48.531475,52.237759,68.425941,62.835617,55.285206,-28.74352,-49.465662,-59.432734,-63.10287,-62.571075,-81.731394,-90.833281,-98.774693,-50.701781,-61.549538,-55.365944,-51.648693,-35.897243,-46.058397,-40.562796,-35.639899,-20.051347,-32.608694,-29.682528,-24.380699,47.42054,292.778541,-134.95903,-1.047951
69,0.634804,-0.198775,0.689678,3.079524,-28.208199,-53.644066,-77.019138,-93.970585,-61.453171,-94.654541,-110.717468,-122.458534,-55.648842,-92.494411,-111.016788,-125.113049,-47.719116,-81.860046,-99.848557,-113.456783,-39.451103,-65.262337,-79.569626,-91.313725,-16.948697,-15.52782,-2.961797,9.014263,12.217504,24.406727,29.052025,31.639367,30.143093,40.504195,43.651057,45.106515,42.713192,53.764231,57.20941,58.510244,50.341653,61.744607,64.465084,65.1063,2.721977,16.227551,33.046875,47.026634,25.446854,52.809219,67.893219,79.097385,35.666256,59.530735,54.425526,47.406235,44.75378,63.198566,57.012348,48.898773,53.21743,68.434238,62.821827,55.626469,-28.735801,-49.364483,-59.12182,-61.984786,-61.826056,-81.671249,-90.931279,-98.686143,-49.615283,-61.357556,-55.118202,-50.838342,-34.595452,-45.778575,-40.47335,-35.163216,-18.632044,-32.250604,-29.488539,-23.982656,48.353891,292.075713,-133.970804,1.52752
70,-0.157127,0.152709,2.59346,5.046923,-28.030586,-53.802452,-77.29454,-94.650478,-61.450768,-94.75565,-111.062279,-122.803631,-55.438614,-92.205105,-110.808964,-124.85899,-47.413101,-81.447086,-99.357262,-112.848988,-39.099083,-65.107498,-79.436588,-91.053543,-17.129564,-15.587286,-2.891895,8.888416,12.27734,25.158415,29.833724,32.194504,30.282958,40.955034,44.168711,45.671716,42.877572,54.110713,57.728052,59.242604,50.52888,61.872554,64.73907,65.636365,2.974205,16.826191,34.166565,48.546295,25.445137,52.961025,67.659187,78.740444,35.683937,59.027653,53.147335,46.270752,44.751492,62.870407,56.115532,48.467617,53.371296,68.010464,61.753063,55.256023,-29.469087,-50.167795,-60.52337,-63.638585,-61.40285,-81.73831,-91.730052,-100.095534,-48.90259,-60.455629,-54.555038,-50.34968,-33.772968,-45.306802,-40.06376,-34.540618,-17.585807,-31.494377,-28.431372,-22.771669,48.740273,291.644664,-130.833836,5.990685
71,0.26104,-0.115288,0.795135,5.553029,-28.107033,-53.805542,-77.21838,-94.755878,-61.665001,-94.492207,-110.515652,-122.152462,-55.674362,-91.819496,-110.116882,-124.064369,-47.634201,-81.098042,-98.791122,-112.282505,-39.278069,-64.828491,-78.964462,-90.533981,-17.119005,-15.566723,-2.912026,8.651541,12.272215,25.459201,30.210772,32.789592,30.206202,41.165109,44.35563,45.990287,42.841016,54.422676,58.168456,59.904136,50.46892,62.302028,65.450003,66.593497,4.560299,19.294167,36.373043,50.605888,28.703098,56.133442,70.565014,81.68993,38.601723,62.180328,55.313473,48.353004,46.925468,64.979725,57.163696,49.996834,54.552269,69.55164,62.419395,55.692215,-28.325809,-47.305231,-55.881344,-58.282262,-58.678452,-79.208211,-89.918171,-98.611641,-45.758012,-57.404819,-51.451431,-46.688375,-29.941231,-41.93878,-36.430736,-30.622863,-12.481209,-26.924878,-24.013871,-18.217236,50.706768,291.275489,-128.333244,11.289828
72,0.239754,0.051129,3.374119,8.964801,-28.170547,-54.038086,-77.567596,-95.610466,-61.694984,-94.404716,-110.282879,-122.087288,-55.897751,-91.661911,-109.989567,-124.003429,-47.997093,-81.136551,-98.773155,-112.074623,-39.504662,-64.947968,-79.067059,-90.585194,-17.47444,-15.795447,-2.834653,8.162972,11.836875,24.992862,29.804639,32.607799,29.921533,41.081623,44.282455,45.97349,42.67855,54.261754,58.077189,59.819291,50.337824,62.203351,65.647789,67.144063,4.130917,20.277214,39.471588,54.70974,29.69656,59.161034,73.489151,84.597816,39.966488,65.569267,57.76823,50.051422,48.039379,67.923088,59.190617,51.379566,54.690571,69.908981,62.056675,55.572166,-29.899457,-49.820387,-57.999198,-60.196802,-57.029747,-74.983309,-84.132652,-90.725311,-42.440194,-53.999068,-49.941078,-45.363674,-25.340887,-37.833767,-33.441615,-27.592523,-7.027907,-21.541755,-19.694676,-14.367654,52.834339,290.500151,-123.071308,19.428162
73,-0.069923,0.595891,4.912605,12.120463,-27.771492,-53.516121,-77.233887,-95.72485,-60.873184,-93.949928,-110.0564,-121.772518,-54.741096,-91.194077,-109.776363,-123.954964,-46.902924,-80.920315,-98.927021,-112.376575,-38.681145,-64.718399,-78.983746,-90.570087,-17.1132,-15.79026,-3.092275,7.91029,11.467978,25.631423,30.645309,33.196589,29.305202,41.143373,44.891685,46.912838,41.786442,53.277638,57.430971,59.680229,49.407307,61.246467,65.210226,67.363216,4.612999,22.083035,40.847397,55.095406,32.135468,61.464043,76.702881,89.192619,41.548119,68.727779,60.446091,51.637115,48.110447,71.098022,61.765251,53.794842,52.835712,69.781666,61.6008,54.848042,-30.973821,-50.827567,-59.300094,-63.251842,-54.818465,-69.775341,-77.478582,-82.163215,-39.049077,-49.901064,-46.946862,-42.829437,-21.005823,-33.009146,-29.482765,-24.629955,-2.16818,-15.058455,-13.932498,-10.328497,53.591509,290.298768,-117.33161,30.75135
74,-0.025063,0.3161,5.577507,14.549076,-27.82402,-53.407059,-77.141876,-95.667629,-60.821457,-93.915596,-110.070076,-121.781731,-54.612122,-91.128502,-109.573631,-123.555737,-46.760559,-80.687828,-98.592224,-111.881733,-38.574486,-64.665527,-78.909245,-90.419483,-17.382988,-16.126182,-3.390468,7.689717,11.296991,25.190401,30.226888,32.978919,29.167807,40.991652,44.607386,46.615077,41.739944,53.489504,57.462649,59.591926,49.344384,61.246529,65.057764,67.134554,6.347408,25.497723,45.08131,58.071613,34.748154,65.619793,75.701122,79.861965,41.817341,68.880501,61.862011,53.127995,46.917057,70.660114,61.63147,53.323803,50.210552,68.791065,60.950832,53.086681,-30.129292,-48.930749,-53.617203,-55.313456,-52.874747,-64.026347,-68.251835,-69.955344,-36.485972,-44.271803,-39.91701,-36.518731,-17.551505,-26.192981,-22.023439,-18.00781,2.378935,-6.351709,-4.658698,-2.554368,54.117537,289.633623,-111.203012,44.319182
75,0.34893,-0.11924,4.479103,17.543014,-27.521439,-52.931099,-76.55302,-95.247288,-61.054802,-93.673897,-109.900303,-121.787109,-55.076637,-90.82489,-109.379711,-123.609352,-47.245102,-80.493908,-98.407059,-111.814842,-38.948822,-64.670105,-78.989811,-90.666389,-17.149695,-16.115561,-3.631789,7.289389,11.563876,25.067703,30.147354,33.060862,29.323665,40.853579,44.52921,46.562775,41.828803,53.411698,57.454004,59.623913,49.450409,61.187619,64.974277,67.015561,12.146873,33.34774,53.273849,65.240707,41.879082,71.976871,67.89505,60.661182,45.427723,74.203663,66.411324,57.993622,47.201328,73.119106,63.915482,55.294418,47.005577,67.127094,59.955597,51.844196,-28.334115,-44.548754,-51.149781,-52.688261,-44.511272,-52.38837,-49.286215,-45.249837,-29.170956,-38.49391,-34.350427,-30.448202,-11.946636,-21.094496,-17.943836,-14.511131,5.264562,-2.737674,-2.878495,-1.940599,55.606642,289.104159,-105.583735,61.451972
76,-0.29068,-0.212421,4.836702,26.511536,-27.44648,-52.619705,-76.027622,-94.718857,-60.371475,-93.18449,-109.332905,-121.147499,-54.313316,-90.345497,-108.956738,-123.101749,-46.472855,-79.908142,-97.898369,-111.313877,-38.204041,-64.082451,-78.429394,-90.150433,-16.880525,-15.640268,-3.049112,7.659706,11.42821,25.691629,30.863103,33.810759,29.045418,40.924283,44.62974,46.787176,41.567475,53.37965,57.752876,60.291867,49.239285,61.196017,65.320327,67.747797,17.452812,43.110952,64.58745,77.166567,51.262236,84.889355,87.849054,83.360767,51.566591,85.315018,84.894132,79.309816,49.654055,80.573959,77.159357,70.491457,45.956297,69.690142,66.983757,60.880251,-28.174227,-42.244491,-46.554577,-46.70937,-37.499805,-42.601609,-40.305296,-37.67337,-19.516711,-25.222295,-24.02727,-23.104179,-0.747905,-6.475673,-7.311851,-7.668737,16.844108,11.1941,7.91912,5.590805,55.563927,288.775339,-100.499067,87.847108
77,-0.041084,0.375319,4.836702,26.511536,-27.095833,-52.351685,-75.522537,-94.087601,-59.744797,-92.824688,-109.197865,-121.26915,-53.910141,-90.057049,-108.939228,-123.393974,-46.263428,-79.72578,-97.924061,-111.677055,-38.040504,-63.718185,-78.057632,-89.990959,-17.054167,-15.765065,-3.240106,6.99873,10.777238,24.831014,30.075168,33.152499,28.38685,40.171607,43.740102,45.845667,41.012648,52.876384,57.320005,60.038135,48.779861,60.920919,65.335517,68.113792,22.758751,52.874165,75.901051,89.092426,60.64539,97.801838,107.803059,106.060352,57.70546,96.426373,103.376942,100.626011,52.106781,88.028812,90.403233,85.688496,44.907017,72.253189,74.011917,69.916306,-28.01434,-39.940228,-41.959374,-40.730479,-30.48834,-32.814848,-31.324378,-30.096904,-9.862467,-11.950681,-13.704115,-15.760156,10.450825,8.14315,3.320134,-0.826344,28.423653,25.125872,18.716735,13.12221,55.523529,289.114997,-95.661678,114.322984
78,0.635948,-0.17568,3.345595,30.20012,-26.909981,-52.15519,-75.447178,-93.81649,-59.347229,-92.215233,-108.715553,-121.012802,-53.66169,-89.56953,-108.560314,-123.189697,-46.175308,-79.281521,-97.616558,-111.402054,-38.182068,-63.709946,-78.284626,-90.468063,-16.814822,-15.541714,-3.066834,7.275495,11.262843,24.886713,29.94685,33.005039,28.891042,40.46276,43.811547,45.792191,41.513999,53.426209,57.736326,60.314344,49.246633,61.45364,65.815812,68.466449,24.571552,56.198358,79.812383,91.564722,58.560133,101.876878,111.171655,107.878046,53.944587,100.420217,108.406248,104.934911,47.761459,91.583433,96.773042,92.803888,40.504217,74.289779,79.771671,77.41436,-23.575705,-32.974936,-34.8626,-33.939617,-21.925626,-16.418107,-14.376916,-14.56155,-1.485499,3.743557,1.717696,-1.034057,18.240639,21.882895,16.91986,12.994695,35.304501,35.251612,28.328341,22.585306,56.126003,288.804577,-92.349557,144.388364
79,0.211372,0.895875,3.345594,30.200119,-26.609344,-51.650276,-74.49646,-92.582932,-58.488693,-91.451626,-108.418865,-121.169014,-52.920227,-88.792648,-108.304996,-123.318043,-45.676689,-78.990154,-97.777748,-112.028904,-37.677612,-62.988396,-77.657146,-90.070438,-16.731583,-16.235418,-4.053668,6.117243,10.871407,23.891914,28.734257,31.542543,28.369992,39.367864,42.5138,44.412317,40.98097,52.234179,56.38603,58.853885,48.91491,60.951609,65.268703,67.907237,26.384354,59.522552,83.723717,94.037018,56.474876,105.95192,114.540253,109.69574,50.183716,104.414062,113.435555,109.243813,43.416138,95.138054,103.142853,99.919281,36.101418,76.32637,85.531425,84.912415,-19.13707,-26.009644,-27.765826,-27.148754,-13.362913,-0.021366,2.570546,0.973804,6.891469,19.437795,17.139506,13.692042,26.030454,35.622639,30.519585,26.815734,42.18535,45.377352,37.939947,32.048402,56.383495,289.520064,-88.957844,174.408095
80,-0.396309,0.191303,-9.33197,21.351193,-26.512756,-50.119286,-72.773781,-91.142578,-56.385498,-90.329704,-107.479019,-120.558586,-50.986061,-88.00375,-107.410069,-122.42878,-44.030342,-78.485699,-97.579021,-112.347794,-36.240921,-62.259064,-77.470093,-90.593376,-16.195342,-16.334466,-5.393343,4.740826,11.469645,23.837635,28.44119,31.120726,29.053075,39.379658,42.341208,44.183346,41.291883,51.971925,56.263085,58.873584,48.463267,60.359175,64.763091,67.560508,34.55349,67.284222,91.438637,107.494011,67.049274,102.386742,118.518677,128.656883,58.427639,96.643181,115.33802,127.207718,49.789352,84.722099,103.243103,113.779907,40.828228,68.049374,81.151543,89.171448,-18.51722,-20.853052,-21.862178,-22.553535,-3.593133,11.517008,21.668837,30.163409,10.548885,27.563902,36.035441,42.228822,23.717901,39.449559,44.513217,46.253837,35.751142,45.593602,45.866848,42.967295,56.192322,289.751458,-98.084679,195.79938
81,-0.197754,7.157243,20.141773,28.346588,-23.677483,-43.41774,-61.222,-74.133797,-56.216469,-87.142239,-103.726616,-117.442474,-54.070473,-86.494045,-105.869179,-121.876259,-49.004402,-78.60569,-96.904678,-111.945992,-42.083588,-63.580055,-77.285156,-90.456448,-16.079128,-23.749764,-29.024484,-32.35876,6.323921,15.155898,19.070997,21.894288,20.897327,30.500998,34.570042,36.92582,32.440764,42.869668,46.940811,48.626535,41.655531,52.43598,56.117601,58.41873,19.755478,47.955036,71.021976,80.63879,74.424992,84.417057,65.149097,44.269638,75.556927,85.534801,65.451908,41.14706,68.92622,82.314892,66.274166,45.518246,57.173195,77.473583,72.218571,58.935013,40.642948,62.065833,69.485392,73.52708,47.522685,92.558681,113.478547,121.348884,32.410815,82.512259,103.156039,105.135016,20.013062,64.351154,85.930083,89.929533,9.709882,38.099201,56.322489,61.327236,56.2605,296.620944,-77.676973,223.858211
82,0.488434,-4.383044,-19.048004,25.294945,-21.10611,-46.367111,-70.440445,-88.368301,-46.338959,-77.739658,-99.504948,-115.863361,-45.417023,-81.551342,-103.39016,-119.873314,-43.875389,-77.599239,-94.726753,-105.936699,-42.449112,-71.379776,-83.918095,-92.101593,30.199162,47.433764,55.458477,61.557565,43.444379,47.634144,49.015872,49.973126,27.094228,25.994145,22.018838,16.187685,7.704537,2.221286,-4.433927,-10.989412,-12.342055,-18.930145,-23.767301,-28.341957,31.492195,64.71159,90.204563,107.487202,62.812729,100.99062,116.277866,122.449322,51.988163,93.350544,108.803272,112.473164,41.182308,78.365192,91.013203,93.355236,31.290894,60.119419,71.151352,72.650471,-14.151465,-13.137771,-9.266082,-10.027711,12.00675,37.592972,46.567097,51.048572,32.352523,58.410703,65.324588,66.606217,47.908687,71.637826,74.493351,72.326714,57.461475,76.037049,77.460087,73.827064,56.713343,291.918342,-96.760569,248.833597
83,-2.054214,-4.149998,-8.471203,10.823983,-29.65107,-56.108437,-76.070423,-90.654202,-45.763092,-73.763695,-95.556736,-112.918739,-41.536102,-75.06031,-97.658787,-115.968304,-37.977676,-69.868126,-91.385021,-108.760643,-35.481262,-59.388313,-74.097691,-87.107048,-8.207062,-4.4196,-0.230514,3.323284,33.1102,36.343699,31.26411,24.658051,39.495996,40.055763,31.147958,21.620239,40.903905,43.66668,37.824721,30.106228,37.935501,45.787807,46.859671,45.329372,37.609692,67.841835,92.633972,112.223511,62.973576,95.826759,113.589821,126.312218,51.755676,88.012905,108.066673,121.577454,42.529678,74.350147,93.563919,106.374092,34.940357,57.996655,71.229687,81.497211,-8.546381,-7.270432,-3.798268,-5.870797,19.49195,38.681878,48.982773,56.676504,36.210812,58.791703,68.072049,73.495093,48.743552,71.140118,79.207315,82.515532,56.353426,76.098614,82.966248,85.302822,54.490299,287.608873,-105.4006,259.49811
84,-0.962563,-0.159069,-1.274872,13.088926,-26.13945,-53.210907,-72.56876,-87.073002,-55.733757,-74.813461,-85.229645,-92.418938,-50.469933,-69.029388,-78.506927,-83.636913,-43.360977,-60.404434,-68.010864,-71.276951,-35.135651,-49.020081,-55.962982,-59.906731,-13.419476,-13.360319,-10.959093,-10.306947,15.882515,24.030173,28.291445,30.005513,28.443413,39.426959,43.437154,43.673843,37.578831,49.561992,51.74456,50.124477,43.379109,53.394531,54.46411,52.573375,36.221123,64.797478,89.326973,110.67318,62.262726,92.020226,109.085884,121.504211,51.104393,85.702686,106.372833,121.152763,41.330166,72.309895,91.505585,105.454559,32.912521,56.973782,71.687393,83.69173,-8.384162,-7.117105,-2.800505,-2.240737,20.993226,39.868104,49.818503,56.887505,37.32516,58.274481,67.826344,73.53591,48.858593,70.066031,78.162128,81.616322,55.40284,74.212695,80.291529,82.183068,53.177319,287.376121,-107.02589,272.513352
85,1.098976,-0.165368,2.387466,7.888368,-25.40062,-50.772171,-71.117935,-86.97504,-55.036125,-70.893745,-71.622391,-68.208618,-49.436874,-64.488602,-64.023285,-59.370003,-41.157303,-55.673218,-54.504776,-49.606819,-31.03878,-43.313599,-44.792633,-43.259811,-15.648295,-16.478221,-10.553207,-9.50802,7.621853,20.239624,28.882273,33.397031,22.821779,36.315664,44.654378,48.189466,34.541451,47.593451,54.32616,56.57653,42.838916,53.629986,60.287915,63.382414,32.517357,60.784435,85.444221,105.293312,57.537174,87.419529,104.083672,116.575241,45.990601,81.677456,102.950363,118.011246,36.280174,68.997116,88.630257,102.617226,28.653717,53.92067,69.013081,80.976048,-9.044336,-7.548185,-3.618821,-6.151761,21.980615,42.202578,52.024907,58.72174,38.721954,60.934072,70.109195,75.733361,50.129355,71.802144,79.134758,82.167568,56.255428,74.538614,80.035326,82.097975,53.953171,287.13991,-104.961548,280.330877
86,-0.711021,2.038443,2.884998,4.718781,-24.754028,-45.770187,-61.921806,-71.762867,-58.487206,-72.993908,-73.534584,-69.535332,-50.529671,-62.501106,-61.617165,-56.460457,-39.574013,-50.173874,-48.500519,-43.900795,-27.636566,-37.483406,-38.003082,-35.268173,-17.544774,-20.287172,-14.164371,-8.401144,10.303303,11.583266,6.236915,1.772978,25.187623,22.345869,15.458289,10.840655,34.622159,33.486754,27.510117,23.663252,40.275162,42.193563,39.190146,36.613363,29.703026,57.041988,81.530342,101.312084,56.183167,87.208271,104.495831,117.776012,44.487247,80.148067,101.828098,117.221889,34.132805,67.155533,86.994953,101.67635,25.599174,51.23909,66.756592,79.666615,-10.083101,-8.492102,-4.780285,-9.485604,23.377286,43.411898,52.609375,58.712415,39.921765,61.736518,70.922324,76.062428,50.675723,71.859757,79.526009,82.780194,57.041943,75.060713,80.06404,82.046414,53.085279,289.124414,-102.233419,284.995719
87,-0.885544,-0.354571,-0.911407,3.90769,-23.832893,-44.141235,-58.618355,-64.837761,-55.462074,-71.710968,-75.655632,-74.055862,-48.973274,-61.45649,-60.895271,-56.638184,-39.160194,-49.916496,-47.670593,-42.780533,-28.08815,-37.501144,-37.854309,-35.225487,-17.498214,-19.708755,-13.099547,-6.852505,7.715035,12.455676,8.580714,3.634629,22.337841,22.87754,16.933939,12.298583,32.083538,33.827617,28.271191,24.223637,38.384427,40.61479,37.732404,34.942829,29.632015,56.496906,80.91568,101.320667,54.984055,87.680454,105.155239,119.140148,45.329876,81.962013,103.755398,119.637737,36.638489,70.571823,90.699406,105.235691,29.053001,55.398788,71.000118,84.143486,-11.408574,-11.585551,-7.840697,-12.309636,20.457109,39.210585,48.617334,55.515843,37.212404,56.800561,65.885714,70.706506,48.165321,67.530621,75.025701,77.528507,54.855361,71.692537,76.771941,78.258891,52.143316,288.679363,-103.201246,288.812929
88,-9.612522,5.736984,4.322433,0.677032,-19.216175,-38.062191,-53.408032,-60.097275,-58.437023,-65.081406,-59.329319,-50.641079,-57.523298,-62.689247,-51.223297,-37.873535,-52.466068,-56.079598,-43.9468,-31.906872,-45.283785,-49.259548,-41.857853,-33.709431,-18.350463,-22.740948,-17.986012,-11.655359,8.45465,19.499452,20.668141,18.940148,24.700875,32.500539,32.528357,30.996237,36.926561,42.927126,41.821547,39.974284,45.766874,51.853118,49.521082,46.578243,27.190933,53.137093,77.027378,97.02055,52.475338,85.948849,104.540348,118.838024,43.310394,80.372486,103.318005,118.790188,35.177879,69.798431,90.658436,105.24931,28.27383,55.889339,72.505646,86.137562,-12.309451,-11.169785,-6.949947,-11.469645,22.300359,41.047351,50.266132,57.008351,39.099682,57.886133,65.636489,69.286618,50.045189,68.592419,74.486496,75.973817,56.470937,72.362159,76.349753,77.400683,42.564011,294.343944,-98.845596,289.417558
89,-9.612522,5.736984,2.585278,0.287572,-14.599457,-31.983147,-48.197708,-55.356789,-61.411972,-58.451843,-43.003006,-27.226295,-66.073322,-63.922005,-41.551323,-19.108887,-65.771942,-62.242699,-40.223007,-21.033211,-62.47942,-61.017952,-45.861397,-32.193375,-19.202711,-25.77314,-22.872476,-16.458214,9.194266,26.543229,32.755568,34.245667,27.063909,42.123538,48.122775,49.693891,41.769584,52.026636,55.371903,55.72493,53.149321,63.091446,61.309761,58.213657,26.853905,52.525978,75.839367,95.584373,53.971767,86.640015,104.42173,118.45459,44.562607,80.916367,102.379189,117.79953,35.788536,68.930111,88.361206,102.227097,27.803822,54.024696,69.575386,82.510643,-12.528603,-11.636927,-6.968102,-11.26593,22.191307,40.09306,49.192972,55.767106,38.476064,56.356637,64.37184,68.178506,49.121218,66.99543,73.404629,75.003965,55.42859,71.12925,75.790974,77.065934,33.077459,300.020351,-96.134348,289.644553
90,-11.805153,11.684783,0.355568,0.493571,-5.553589,-18.658104,-34.431381,-47.588253,-39.439774,-36.303291,-22.234726,-9.75769,-43.974895,-39.925919,-21.72718,-3.053398,-45.020485,-43.45974,-27.914772,-13.444977,-44.080639,-46.638107,-37.874107,-28.132324,-23.314609,-31.74422,-29.535469,-29.45155,-1.387347,14.992197,21.042194,23.633056,17.048733,30.517115,36.002837,39.075167,31.006858,38.526391,42.708252,45.69018,41.674612,47.324342,48.236643,47.926039,27.181721,52.809906,76.182632,96.920128,53.650875,86.103516,103.635864,117.154884,44.425449,80.80719,101.895332,116.223793,36.161041,69.481144,88.742867,101.757202,29.165554,55.152454,70.391407,82.448959,-12.96629,-12.017556,-5.850296,-7.963518,21.747692,39.995063,49.347471,56.224059,38.581102,55.841145,63.434593,67.145422,49.394031,66.938249,72.623672,73.877946,55.383821,70.661552,74.929864,75.8949,21.40892,311.665661,-95.642166,290.09865
91,15.713539,-10.917967,0.75222,-0.891058,-15.00618,-35.459404,-54.103031,-64.846973,-66.799221,-64.284325,-47.531433,-30.601273,-71.848698,-68.699856,-44.449997,-22.096596,-71.509209,-66.698685,-42.751579,-23.783455,-68.238544,-65.682278,-49.371986,-36.333961,-17.409294,-24.066606,-21.420415,-16.2277,11.49805,26.941211,32.358019,33.426177,29.026152,41.774833,45.936193,45.918162,43.299265,51.417469,52.680944,51.904803,54.506101,62.704394,58.804362,54.443239,27.158718,52.714462,75.596294,95.785561,52.045784,84.568977,102.262573,116.170349,43.004379,79.562416,101.145744,116.273003,35.217762,68.510857,88.181076,101.840401,28.700066,54.561768,70.029659,82.499084,-12.662045,-11.504596,-4.68945,-5.318316,20.653475,39.379781,48.504825,54.902538,37.90055,56.06042,63.566862,66.78764,49.071756,67.364636,72.905624,73.736537,55.360726,71.091829,75.609921,76.439723,37.23959,300.684369,-94.772816,289.144266
92,-9.590263,5.810961,1.267319,-0.279976,-5.46833,-18.176079,-31.802559,-39.437027,-47.930546,-46.519547,-30.167656,-14.148216,-54.573784,-53.533916,-31.254845,-7.914505,-56.178303,-56.600246,-37.237129,-19.025917,-55.325546,-56.952839,-44.504414,-32.276917,-21.420045,-27.260954,-21.256653,-13.680125,-2.74388,15.864916,25.159897,30.175142,15.569131,31.83666,40.705131,44.846978,30.584732,42.135888,48.707428,51.587282,43.140876,51.917029,53.056077,52.404178,27.773266,53.207302,75.936069,95.918884,51.689472,84.07814,101.781807,115.333672,42.329636,78.516655,99.659843,114.362297,34.193287,67.14695,86.508636,99.739151,27.385254,53.011951,68.395901,80.83992,-12.792462,-11.630814,-4.719646,-4.934846,21.269621,39.984997,48.615111,54.27182,37.897339,55.924816,63.002896,65.754803,48.691003,66.846797,72.483004,73.113352,54.773727,70.788758,75.482654,76.239096,27.811604,306.403846,-93.34322,288.772807
93,-39.803696,24.352325,1.767998,0.257931,6.715393,10.27565,7.928467,6.078987,-2.432671,3.60878,15.838051,26.648827,-7.949924,-1.512566,13.580704,28.810616,-12.243404,-6.830006,7.053909,19.629707,-15.71022,-13.951435,-5.175419,4.278374,-23.395811,-37.507509,-42.699422,-46.068648,-17.995552,-13.143822,-8.810302,-6.014922,-2.063699,4.589044,9.588789,12.296236,10.604028,14.995532,18.498262,20.373931,20.777532,24.482556,26.226388,26.487098,27.461758,52.377033,74.761677,94.664841,49.97263,82.775803,100.933685,114.718437,40.497723,77.347641,98.982697,113.991737,32.607937,66.504993,86.35746,100.126648,26.379032,52.556705,68.434639,81.442223,-12.93949,-12.10481,-5.297444,-4.829994,21.271782,40.121651,48.176313,53.032365,38.077404,56.686075,62.715818,64.271434,48.849948,67.651775,72.579829,72.573283,54.722721,71.048604,75.618505,76.187905,-11.936846,330.729371,-91.519976,289.003939
94,52.018661,-31.417375,0.141392,0.489557,-16.233559,-35.772285,-52.651291,-59.954681,-66.791725,-65.761299,-50.349083,-34.775734,-70.824738,-69.940567,-47.401428,-26.184196,-70.130653,-68.779507,-47.287102,-28.967628,-66.669846,-65.969639,-51.95137,-39.792023,-17.786774,-23.719074,-20.052088,-15.286561,10.043458,25.443949,29.992546,29.846382,27.884016,41.476517,44.191374,42.96501,42.744376,51.67892,51.512688,49.069347,54.344191,62.818015,58.551802,53.938059,27.164783,52.239189,74.651527,94.15575,51.038589,83.272305,101.172695,114.950237,41.448841,77.654972,98.856754,114.028187,33.267345,66.269646,85.814724,99.715862,26.530781,52.20583,67.864609,80.962315,-13.395085,-12.996733,-6.26001,-5.611939,20.665146,39.344707,47.250427,51.918573,37.523194,55.490649,61.845693,64.120763,48.414978,66.536872,71.922187,72.541235,54.519253,70.665195,75.304195,76.142642,40.13031,299.248147,-91.33009,289.429646
95,-6.374931,4.999252,0.283527,0.663199,-9.551582,-23.227615,-37.033424,-45.288162,-48.790398,-50.312405,-36.954231,-22.040977,-53.906994,-56.855392,-37.952843,-17.453156,-54.878368,-58.661442,-41.097908,-24.348335,-53.317394,-57.468853,-47.631912,-37.238045,-19.576733,-24.341457,-18.847646,-11.930365,-0.401563,16.955675,26.273504,30.630489,16.612775,32.458178,41.356042,44.859081,30.807095,42.446492,48.776033,50.336528,42.637301,52.531755,54.501408,53.596085,27.200432,52.153358,74.708519,94.58931,50.324192,82.554016,100.477753,114.349136,40.792408,77.045403,98.284264,113.102646,32.853584,66.169281,85.635452,99.234467,26.470127,52.298298,67.962284,80.938225,-13.585585,-13.471038,-6.83645,-6.433405,19.541227,38.691511,46.881098,51.832123,36.767369,55.075933,61.357371,63.478806,47.995631,66.178349,71.192359,71.540014,54.244958,70.080049,74.51873,75.19749,33.732061,304.201085,-91.06988,290.046533
96,3.271866,-2.080927,0.890408,0.286707,-13.565254,-30.292854,-45.716171,-53.065395,-57.016811,-57.577343,-44.628067,-30.236607,-61.445818,-62.775965,-42.870712,-22.27644,-61.658278,-63.132048,-44.193935,-26.846352,-59.479837,-61.490765,-49.823113,-38.59829,-19.016225,-23.292009,-17.861801,-11.277879,4.633349,20.60568,27.742823,29.774196,21.976632,36.809822,42.330463,42.847005,36.540621,46.883012,49.766941,48.940814,48.292125,57.537799,56.386616,53.32605,27.159576,51.814556,74.288464,94.151058,49.047604,81.503849,99.63953,113.671246,39.649944,76.182346,97.7635,112.84338,31.900806,65.656815,85.502415,99.341297,25.800533,51.871262,67.729626,80.864697,-13.572926,-13.358837,-6.879058,-6.296257,19.596308,38.668849,46.711099,51.358003,36.72791,55.155406,61.094067,62.654562,47.827794,66.179213,70.986792,70.928931,53.928858,69.841383,74.338851,74.855455,37.032337,302.059751,-90.151062,290.272832
97,3.271866,-2.080927,-0.042915,0.367724,-17.578926,-37.358093,-54.398918,-60.842628,-65.243225,-64.842281,-52.301903,-38.432236,-68.984642,-68.696537,-47.788582,-27.099724,-68.438187,-67.602654,-47.289963,-29.344368,-65.642281,-65.512676,-52.014313,-39.958534,-18.455716,-22.24256,-16.875955,-10.625393,9.668262,24.255685,29.212144,28.917903,27.340489,41.161466,43.304885,40.83493,42.274147,51.319532,50.757851,47.5451,53.946951,62.543843,58.271826,53.056016,26.500797,51.331158,74.094028,94.103909,49.632397,81.393299,99.134846,113.20467,40.844879,76.63599,98.216228,113.834095,33.322735,66.355305,86.330395,100.88316,27.077866,52.783871,68.417358,81.809635,-13.768489,-13.433493,-7.245423,-7.000582,18.601571,37.077294,45.175984,50.129108,35.850066,53.581944,59.879004,61.736333,47.350525,65.289637,70.368114,70.537804,53.929475,69.808408,74.208249,74.822789,40.295992,299.95999,-90.202188,290.621722
98,-7.670975,7.516816,0.926914,1.154053,-11.394081,-27.32563,-44.595337,-56.006699,-45.277519,-44.102325,-33.018379,-20.797806,-50.619564,-51.151257,-35.871048,-17.809868,-52.912731,-54.840946,-39.206657,-23.793526,-52.592697,-56.466351,-48.43586,-38.96553,-21.45444,-26.300241,-22.022667,-18.58181,-0.978682,15.953836,22.589289,24.567093,16.646738,32.319178,37.732342,39.301852,31.420833,42.466129,45.573904,45.576374,43.391829,52.624813,52.091598,49.253487,26.086121,50.413799,73.265533,93.583946,49.284611,81.460762,99.25106,112.793541,40.754757,76.995049,98.517838,113.509369,33.354435,66.886253,86.706276,100.563812,27.222919,53.126221,68.727951,81.859932,-14.438728,-14.668625,-8.556693,-8.075842,18.068912,36.356111,44.479995,49.121218,35.448565,52.621355,58.423362,59.660346,46.938711,64.114897,68.544378,68.058958,53.573052,68.879188,73.101002,73.507258,32.611027,307.427869,-89.289265,291.726838
99,3.544521,-3.901545,-0.034218,-0.464054,-14.679679,-32.660808,-49.635772,-58.662128,-55.164728,-54.00155,-41.84618,-28.672084,-59.35338,-59.055891,-40.772552,-21.441879,-60.019712,-60.17126,-42.036266,-25.290527,-58.371276,-59.858551,-49.007721,-38.120842,-19.662196,-23.756094,-18.812603,-14.273299,4.854848,20.846167,26.346987,26.996169,22.385389,37.468668,41.217443,40.639274,37.170969,47.356607,48.656361,46.885112,48.83661,57.840777,55.569041,51.450536,25.968418,50.41975,73.217583,93.214417,49.26487,81.463165,99.494133,113.567963,40.38929,76.549873,98.33519,113.715019,32.787724,66.446171,86.573181,100.722656,26.500797,52.667198,68.448887,81.717453,-14.411002,-14.073289,-7.722074,-7.479025,17.589914,36.485972,44.78745,49.651592,34.991303,52.938505,59.117066,60.626431,46.453538,64.378324,69.125017,68.864121,52.965119,68.814042,73.288538,73.752963,36.123447,303.472075,-89.355583,291.208536
100,3.544522,-3.901545,0.595207,0.659803,-17.965279,-37.995987,-54.676208,-61.317558,-65.051937,-63.900776,-50.673981,-36.546364,-68.087196,-66.960526,-45.674057,-25.073891,-67.126694,-65.501575,-44.865875,-26.787529,-64.149857,-63.250751,-49.579582,-37.276154,-17.869952,-21.211946,-15.602538,-9.964787,10.688379,25.738498,30.104684,29.425245,28.12404,42.618158,44.702543,41.976695,42.921106,52.247085,51.738818,48.19385,54.281391,63.056742,59.046485,53.647585,26.333256,50.921803,73.980217,94.206734,49.651909,81.74263,99.722328,113.683434,40.675163,76.628609,97.992897,112.801437,32.869034,66.314507,86.009331,99.969292,26.439171,52.918568,68.896179,82.225571,-14.300531,-14.374199,-8.333033,-7.333355,18.325793,36.825476,45.052483,50.009621,35.655367,53.042739,58.763483,59.959218,46.930251,64.508618,68.889933,68.361596,53.246022,68.663309,72.662883,72.768723,39.567747,299.50807,-88.860598,291.805879
101,-10.136032,9.975717,0.376053,1.100022,-7.390251,-20.358582,-34.86557,-43.039055,-42.551079,-39.577904,-27.643318,-15.223618,-48.905125,-47.512264,-30.724297,-12.193565,-51.648273,-51.94931,-35.563431,-20.19619,-51.496696,-53.547878,-44.752808,-35.443497,-21.780111,-27.398164,-22.868771,-18.18562,-3.616413,12.957892,19.595258,22.16389,13.753052,29.179107,35.015201,37.203018,28.181097,39.227567,43.004037,43.806545,40.103188,49.017168,49.368405,47.797598,25.741482,50.412197,73.614006,94.004974,49.857445,81.941643,99.758835,113.389664,40.987873,77.291908,98.613968,113.1007,33.245201,67.130013,86.770248,100.346031,26.863289,53.392982,69.228745,82.324791,-14.867832,-15.134841,-9.255646,-8.885329,16.795248,35.556011,44.06003,49.079413,34.689776,52.387259,58.213348,59.253658,46.522946,63.985777,68.152633,67.176853,53.170686,68.25483,72.218589,72.244956,29.435778,309.403002,-88.480482,292.825116
102,3.266487,-4.618252,0.023575,-0.314557,-11.488266,-26.759777,-41.843376,-48.95176,-52.582283,-49.271508,-35.591126,-21.13163,-58.169146,-56.33214,-36.525479,-15.701351,-59.657479,-58.761091,-39.576073,-21.973801,-58.146115,-58.56102,-46.765137,-35.423298,-19.810983,-24.109861,-18.611852,-12.579238,2.251359,17.85964,24.859636,27.146902,19.513717,33.510374,39.179247,40.458623,33.845895,43.783451,46.468884,46.197707,45.352127,54.853138,53.533162,50.567691,26.217384,51.265697,74.595566,94.875641,50.131702,82.712288,100.875778,114.890671,40.601635,77.176208,98.440132,112.677498,32.556782,66.705666,86.23661,99.538651,26.271515,53.13961,69.089642,81.953659,-14.227542,-14.1054,-8.632028,-8.632584,17.507662,36.439289,45.036551,50.233528,35.446404,53.424419,58.878462,59.701533,47.089012,64.766426,68.679858,67.606883,53.355876,68.489234,72.237608,72.002524,32.691937,304.712718,-88.467236,292.438527
103,3.266487,-4.618251,-0.270309,0.094972,-15.586281,-33.160973,-48.821182,-54.864464,-62.613487,-58.965111,-43.538933,-27.039642,-67.433167,-65.152016,-42.32666,-19.209137,-67.666683,-65.572872,-43.588715,-23.751411,-64.795532,-63.574162,-48.777466,-35.403099,-17.841855,-20.82156,-14.354933,-6.972857,8.119129,22.761387,30.124012,32.129913,25.274382,37.84164,43.343293,43.714228,39.510692,48.339334,49.93373,48.588867,50.601066,60.689108,57.697918,53.337783,26.252632,51.338425,74.857521,95.603027,51.242237,83.420334,101.120338,114.762955,42.053375,78.106842,98.81115,112.697754,33.982544,67.440662,86.43528,99.175758,27.285461,53.698368,69.290257,81.820793,-14.339063,-14.530181,-8.73367,-8.217189,17.69316,36.040875,44.729096,50.182399,35.37749,52.45611,58.079535,59.008385,47.078885,64.0642,68.175295,67.135789,53.646473,68.374934,72.32517,72.309794,35.970068,300.070199,-88.725901,292.509232
104,-11.169205,10.847942,0.096703,-0.393659,-5.676727,-17.242813,-29.919662,-36.716766,-41.818542,-37.136879,-23.115349,-9.067497,-48.69072,-45.293255,-26.48037,-5.599709,-51.259861,-49.993,-32.018967,-15.261269,-50.962143,-52.579308,-41.696892,-30.567398,-22.285971,-28.752165,-23.706971,-18.682464,-4.448253,9.952437,16.875647,20.626675,13.088062,26.710882,33.592595,36.888276,27.608115,37.450328,42.206283,44.259237,39.827595,48.247943,49.144189,48.477717,26.304989,51.096668,74.205208,94.689217,51.50219,83.409348,101.199074,114.877625,41.990719,77.602272,98.231392,111.934547,33.653183,66.789036,85.630302,98.272362,26.856937,52.966061,68.617916,81.250648,-14.262122,-14.277498,-8.596522,-7.881884,18.781141,37.51671,46.157507,51.352075,36.272007,53.665986,59.151831,59.835346,47.56202,64.772107,68.744634,67.60503,53.763861,68.692579,72.603047,72.473124,24.84252,310.839625,-88.587542,292.037057
105,-34.093323,16.09685,-0.233974,0.056069,7.984543,10.490112,9.382782,9.251633,-9.691086,1.817665,16.612129,27.749977,-17.237034,-4.551773,13.18325,28.777885,-21.271248,-10.010433,6.428719,19.149971,-22.871361,-17.106686,-6.361542,3.350716,-19.412786,-29.457664,-32.618914,-34.882684,-13.302953,-5.16678,-0.582306,2.024673,1.471451,9.923723,15.945191,18.694999,13.357293,20.001699,24.334355,26.405896,22.552918,28.929142,31.195752,31.216871,26.377716,51.225357,74.252529,94.453182,52.101059,83.853779,101.488552,115.007,42.73756,78.204861,98.616772,112.424641,34.382401,67.24165,86.00481,98.715992,27.422447,53.418274,68.934574,81.511402,-14.339187,-14.151836,-8.181621,-7.756963,18.998564,37.248096,45.520983,50.457064,36.252123,53.402189,59.058218,60.13286,47.500578,64.628722,68.882091,68.093908,53.751264,68.542834,72.540617,72.639541,-9.144716,326.890657,-88.715429,292.047308
106,48.086357,-28.937416,0.188026,-0.076509,-16.054573,-34.864655,-50.716782,-56.782436,-64.661636,-64.557781,-48.937912,-31.727142,-68.833637,-69.79351,-46.952248,-24.033165,-68.420277,-68.152485,-46.518631,-27.116318,-65.074997,-65.172787,-50.690346,-37.532158,-15.978228,-18.371118,-11.961672,-5.218774,13.039464,28.304413,35.590035,38.358553,28.708508,41.760569,47.454821,48.588929,41.644354,50.256499,52.463459,51.989586,51.479775,60.938332,58.490546,55.19505,26.550121,51.301975,74.042187,94.004116,51.833096,83.626041,101.223965,114.613209,42.495003,78.318729,98.921871,112.961597,34.172344,67.337494,86.116848,98.794155,27.170849,53.10482,68.614826,81.180897,-14.159616,-14.116391,-8.174643,-7.410852,19.228029,37.225063,45.432372,50.287621,36.436016,53.583673,59.023267,59.96916,47.584373,64.838118,68.873199,67.891614,53.782077,68.724257,72.705861,72.674801,39.03986,297.898205,-88.429184,291.915764
107,-6.083107,9.211185,-0.139675,0.312395,-10.997543,-25.1437,-40.493317,-49.791813,-44.031372,-44.649353,-34.64962,-22.511902,-49.796677,-52.823753,-38.043137,-20.086441,-52.726707,-57.103386,-42.25399,-27.465019,-52.995758,-58.023376,-50.250607,-41.251144,-19.960327,-23.976697,-18.816956,-13.745333,-1.241122,14.597612,22.459119,25.700089,15.572466,30.591895,36.8616,38.895844,29.926596,41.319362,45.616635,46.192581,41.81775,51.661444,52.459754,50.745192,26.676121,51.622639,74.502869,94.526939,51.924591,84.030762,101.870041,115.416527,42.38308,78.386536,98.943329,112.71286,34.0979,67.24474,86.077538,98.700256,27.341709,53.344803,68.914948,81.364059,-14.48288,-14.152824,-8.016809,-7.517557,19.633976,37.51918,45.733961,50.605883,36.994054,54.212663,59.422854,60.143049,48.018973,65.257835,69.000281,67.814858,53.938244,68.658986,72.552473,72.538085,33.055859,307.075135,-88.469753,292.193903
108,-5.487328,-2.228449,-0.5797,-0.148633,-9.511299,-22.681332,-35.811596,-42.246409,-48.15362,-42.046194,-28.411617,-14.798298,-54.246025,-50.003786,-30.913353,-10.734844,-56.232977,-53.530197,-34.704781,-17.658234,-55.499182,-55.079327,-42.995596,-31.713982,-18.264197,-22.700316,-17.889773,-12.027498,1.648397,16.816367,24.317776,26.845621,18.978495,32.679739,39.522703,41.092738,33.422226,43.982843,47.951449,48.178073,44.923209,55.462584,55.192549,52.552843,26.672688,51.845798,75.134525,95.539341,52.147121,84.406872,102.219715,115.779591,42.838326,78.942661,99.439716,113.19952,34.68544,67.980309,86.615353,98.89864,27.989101,54.22451,69.710827,82.040348,-14.382474,-14.181291,-8.166121,-7.671068,19.361101,37.302498,45.622007,50.713267,36.721426,53.87143,59.277493,60.107851,47.975624,65.216833,69.224435,68.157326,54.212354,69.207886,73.226417,73.194986,27.61734,304.805359,-89.000645,292.003943
109,-5.487328,-2.228449,0.233803,0.75354,-8.025055,-20.218964,-31.129875,-34.701004,-52.275867,-39.443035,-22.173615,-7.084694,-58.695374,-47.183819,-23.783569,-1.383247,-59.739246,-49.957008,-27.155571,-7.851448,-58.002605,-52.135277,-35.740585,-22.176819,-16.568068,-21.423935,-16.962591,-10.309664,4.537914,19.03512,26.176432,27.991153,22.384524,34.767581,42.183806,43.289632,36.917854,46.646323,50.286263,50.163565,48.028668,59.263723,57.925344,54.360493,26.736488,51.545906,74.758587,95.177937,50.656528,84.28442,102.528591,116.116161,41.347446,78.92561,99.971981,113.634396,33.647804,68.460903,87.373867,99.581165,27.750893,54.491386,70.216827,82.842922,-14.057728,-14.561426,-8.70051,-7.333849,17.186498,36.087311,45.325852,51.246482,35.420777,53.639125,59.207901,60.104331,47.400666,65.100989,68.836148,67.464178,54.228286,69.5774,73.401912,73.17535,22.393484,302.528406,-88.50337,292.708979
