takenoko1/special-research/HandMotion_SimilarSearch_自分用/NewProject/handData/key/d4_feature_d2/60.csv
,vel_0x_L,vel_0y_L,vel_0x_R,vel_0y_R,posFromWrist_1x_L,posFromWrist_2x_L,posFromWrist_3x_L,posFromWrist_4x_L,posFromWrist_5x_L,posFromWrist_6x_L,posFromWrist_7x_L,posFromWrist_8x_L,posFromWrist_9x_L,posFromWrist_10x_L,posFromWrist_11x_L,posFromWrist_12x_L,posFromWrist_13x_L,posFromWrist_14x_L,posFromWrist_15x_L,posFromWrist_16x_L,posFromWrist_17x_L,posFromWrist_18x_L,posFromWrist_19x_L,posFromWrist_20x_L,posFromWrist_1y_L,posFromWrist_2y_L,posFromWrist_3y_L,posFromWrist_4y_L,posFromWrist_5y_L,posFromWrist_6y_L,posFromWrist_7y_L,posFromWrist_8y_L,posFromWrist_9y_L,posFromWrist_10y_L,posFromWrist_11y_L,posFromWrist_12y_L,posFromWrist_13y_L,posFromWrist_14y_L,posFromWrist_15y_L,posFromWrist_16y_L,posFromWrist_17y_L,posFromWrist_18y_L,posFromWrist_19y_L,posFromWrist_20y_L,posFromWrist_1x_R,posFromWrist_2x_R,posFromWrist_3x_R,posFromWrist_4x_R,posFromWrist_5x_R,posFromWrist_6x_R,posFromWrist_7x_R,posFromWrist_8x_R,posFromWrist_9x_R,posFromWrist_10x_R,posFromWrist_11x_R,posFromWrist_12x_R,posFromWrist_13x_R,posFromWrist_14x_R,posFromWrist_15x_R,posFromWrist_16x_R,posFromWrist_17x_R,posFromWrist_18x_R,posFromWrist_19x_R,posFromWrist_20x_R,posFromWrist_1y_R,posFromWrist_2y_R,posFromWrist_3y_R,posFromWrist_4y_R,posFromWrist_5y_R,posFromWrist_6y_R,posFromWrist_7y_R,posFromWrist_8y_R,posFromWrist_9y_R,posFromWrist_10y_R,posFromWrist_11y_R,posFromWrist_12y_R,posFromWrist_13y_R,posFromWrist_14y_R,posFromWrist_15y_R,posFromWrist_16y_R,posFromWrist_17y_R,posFromWrist_18y_R,posFromWrist_19y_R,posFromWrist_20y_R,posFromBody_0x_L,posFromBody_0y_L,posFromBody_0x_R,posFromBody_0y_R
2,-16.021042,10.969652,0.613861,-2.318913,-2.112808,-5.160313,-10.28017,-19.36655,-20.2668,7.330742,25.195084,32.867088,-29.016037,2.950001,24.178391,38.857841,-32.994862,-7.840633,10.859184,24.141884,-33.877144,-28.890209,-23.058071,-17.199955,-13.194458,-11.766973,2.090128,13.61751,2.506264,17.87094,24.350719,30.300371,19.43798,31.67543,36.365188,39.631785,31.638379,41.515728,42.966986,44.209466,40.464366,47.942835,45.790956,44.310799,25.427742,49.952202,71.859283,90.912781,51.8997,83.535576,100.370636,112.102203,42.242603,77.729988,97.583427,110.855598,31.971531,65.232124,83.847427,96.284294,22.371883,48.00951,63.180027,75.676689,-14.537097,-13.000314,-2.701334,3.268696,16.019354,32.809044,39.829818,44.44313,33.288412,49.080771,55.519981,59.146768,45.161534,60.83947,65.448768,66.672414,52.39541,68.231859,71.865562,71.990483,-8.968306,301.193794,-77.634573,285.517279
3,-10.521183,-7.704784,-0.440998,-0.256017,11.811848,17.124996,16.660366,13.647652,-0.650253,20.050106,38.44717,48.235645,-12.662773,10.69416,31.546383,48.270321,-23.757992,-4.53867,16.297359,30.793476,-32.740002,-31.496372,-22.344017,-13.467178,-18.012719,-20.394062,-15.148241,-8.482716,-0.500549,23.332702,30.865079,32.433292,18.637633,41.655037,46.928708,47.405544,32.357278,51.91246,54.62108,55.26983,42.906224,58.626335,59.134418,57.628757,25.71682,50.303078,72.35075,91.538601,52.255554,83.566761,100.26495,112.057858,42.910824,77.991199,97.861805,111.529369,32.858047,65.610123,84.230862,96.902218,23.228474,48.674297,63.729515,76.321735,-14.308435,-12.867798,-2.598087,3.369473,16.728557,33.255129,40.255711,44.771766,33.938335,49.055515,55.250872,58.554519,45.773296,61.297473,66.018847,67.012103,53.026376,68.805273,72.618114,72.784964,-18.53734,294.339699,-77.123423,286.111951
4,-19.7715,-1.505969,0.327415,0.670795,16.002731,28.233891,33.926182,35.162945,15.553036,43.827038,60.382061,67.974758,3.719788,38.108311,56.966915,70.399303,-7.014141,21.121044,39.776745,50.439205,-15.896072,-6.975517,-0.521164,3.377094,-18.522962,-19.902467,-14.711665,-8.856244,2.541894,28.68671,34.053314,34.201639,21.451661,46.875108,50.463733,49.960838,34.334588,55.685101,57.121848,56.380164,44.023104,60.145334,59.659481,56.840451,25.450287,49.8246,71.801262,91.072254,51.768608,84.1749,100.964527,112.445698,42.204552,78.548641,98.519268,111.866741,32.247448,66.329098,85.167675,97.81992,22.972584,49.396477,64.692822,77.249966,-14.967065,-13.857039,-3.722438,2.733011,16.098209,32.67097,39.553485,44.064106,33.573884,48.568922,54.390998,57.416274,45.53074,61.004097,65.379484,66.146239,52.72701,68.205738,71.794611,71.878838,-37.905407,293.222032,-76.392574,287.171047
5,1.735382,1.898949,-0.10397,0.265403,15.298004,27.395782,31.899948,31.679134,16.563549,43.533382,59.362164,65.920658,4.195404,36.736164,55.43169,69.0695,-7.782154,18.623028,36.494808,47.26141,-18.128014,-10.932484,-4.646015,-0.031872,-19.183877,-20.833663,-14.758287,-8.297094,-0.255214,24.835522,30.789867,31.669378,19.009803,42.867074,47.255367,47.745851,32.462439,52.001257,54.012468,54.185925,42.693123,57.657656,57.42035,55.220923,25.869827,50.562229,72.560463,91.910706,51.682663,84.239044,101.044006,112.483635,42.168274,78.728371,98.757248,112.090759,32.544994,66.781826,85.668068,98.152428,23.700428,49.997177,65.218449,77.603645,-15.086058,-14.169991,-4.081208,2.099576,15.362206,32.267554,39.211141,43.818031,33.024738,48.259799,54.038341,57.054231,45.29016,60.751167,65.12359,65.836746,52.737569,68.246988,71.819125,71.759783,-35.977306,295.354274,-76.303825,287.669744
6,6.344776,0.270096,0.481796,0.2801,13.363438,21.818619,23.385143,21.661949,7.648659,34.728813,51.424484,58.421974,-4.862137,28.153267,48.161888,63.518028,-16.006851,11.110954,30.666389,43.183937,-25.161495,-20.002384,-14.725628,-10.42511,-19.953349,-21.122037,-15.220674,-9.827146,-0.623062,24.912586,31.562365,32.529376,18.651588,43.153102,47.363245,47.301618,32.313867,52.11284,54.030005,54.315601,42.444146,57.868411,58.14604,56.473469,26.010933,50.339642,72.364311,91.829453,52.173214,84.47422,101.201935,112.553558,42.68549,78.784103,98.651733,111.887512,32.82692,66.618977,85.140953,97.279472,23.632851,49.592228,64.56213,76.748772,-14.698327,-14.08848,-4.314378,1.855847,15.293045,31.987454,38.958397,43.53756,32.706847,47.973401,53.878902,57.056454,44.830552,60.221534,64.657374,65.463526,52.343663,67.789788,71.343153,71.280847,-29.50902,295.684546,-75.698519,288.010019
7,0.39053,0.1792,-0.093269,-0.598979,13.056908,22.400322,26.244793,26.356258,7.826443,33.652782,51.173801,59.185467,-4.539814,26.072788,47.023602,63.486958,-15.653286,8.877239,28.961391,42.543468,-25.067883,-20.500031,-13.731995,-7.455025,-19.790513,-21.833031,-16.568068,-10.842693,-1.525359,22.645482,29.776234,31.63628,17.917623,41.388769,46.190543,46.757103,31.994,50.33591,53.268067,54.645348,42.625754,57.626596,58.442381,57.241026,26.154156,50.440407,72.119522,91.271896,52.127037,84.237671,101.324844,113.17543,42.730694,78.336411,98.304863,111.889,32.845631,66.059647,84.760666,97.2369,23.469315,48.928127,63.900547,76.363335,-14.307138,-13.379153,-3.711262,2.386715,15.751357,32.406554,39.44147,43.914361,32.822814,48.337914,54.619783,58.013895,44.686427,60.201403,65.076351,66.229602,52.135441,67.985413,71.911072,72.068165,-28.962135,295.872668,-75.635433,287.419963
8,2.364521,0.712415,0.628796,-0.295846,11.263847,18.878174,20.508728,19.91684,4.078045,30.059967,47.730217,55.832176,-7.368221,24.59713,45.368958,61.983604,-17.420139,8.337593,28.267822,41.443863,-25.691357,-23.473892,-20.428333,-17.777138,-20.826376,-22.004945,-15.044253,-7.383003,-1.736545,22.572431,29.56338,30.884283,17.95702,41.129665,45.74347,45.859129,31.997087,50.1874,52.629135,53.376871,42.519172,56.707009,58.487891,58.340616,25.934429,50.093651,71.85442,91.100636,52.174301,84.093418,100.990047,112.554188,42.622089,77.976665,97.823467,111.306782,32.543907,65.645313,84.161625,96.483135,22.992954,48.516369,63.472652,75.941219,-14.055505,-12.939861,-3.044542,3.223433,16.212385,32.7426,39.717433,44.296905,33.23401,48.531501,54.790461,58.337837,45.04779,60.43519,65.180339,66.306913,52.409551,68.024563,71.793499,71.922804,-26.494703,296.572671,-74.903727,287.111705
9,15.109177,-2.348059,0.581074,0.325363,8.789406,12.579117,10.881386,8.634911,-10.255508,11.957474,31.723938,42.11483,-22.081776,4.858017,27.988358,46.864357,-31.306515,-9.483433,12.956429,28.760262,-37.80098,-38.24398,-32.681923,-26.5975,-18.169997,-18.327955,-10.705113,-2.792786,0.620283,24.271493,31.943612,34.532683,19.371104,41.328501,47.167929,48.862607,32.683937,49.825419,52.808397,54.695736,43.236589,57.062012,59.76878,61.355889,26.305332,50.362415,72.109108,91.54541,51.987133,83.567505,100.076752,111.445999,42.252502,77.612915,97.307968,110.655327,32.253857,65.316067,83.978119,96.514549,22.871132,48.325253,63.366222,75.856247,-14.336037,-13.299248,-3.47025,2.742274,16.437836,33.060615,39.827163,44.178035,33.557891,48.780417,54.531727,57.527487,45.409215,60.981805,65.428267,66.203481,52.716141,68.137751,71.741999,71.707234,-11.247053,294.217696,-74.184179,287.430152
10,-5.343304,4.322714,0.009785,-0.229279,-0.807323,1.639595,3.010025,-4.190655,-8.723888,18.73312,38.012295,48.844357,-17.564449,12.872944,34.971256,48.082638,-21.275368,1.782646,22.526951,35.374775,-21.957951,-16.54026,-5.393772,4.985218,-10.740064,-7.830261,6.549928,19.572225,5.046861,18.428608,26.096403,32.155971,21.653708,33.125947,39.985183,42.112916,34.212939,43.53719,47.471617,48.430786,44.684451,52.337179,51.669781,49.701239,26.365929,50.496941,72.270641,91.454601,52.439232,83.959522,100.599003,112.198162,42.741623,77.834644,97.534046,111.172543,32.515297,65.150299,83.9641,96.906452,22.732658,48.035774,63.175278,75.923824,-14.272558,-13.38539,-3.66359,2.437289,16.5191,32.999297,39.878231,44.343403,33.556347,48.509395,54.392974,57.484632,45.297262,60.897948,65.649704,66.650739,52.530643,68.199749,72.160729,72.352525,-16.52298,298.557854,-74.107018,287.218317
11,36.171055,-3.739543,0.184307,-0.509379,-4.521675,-13.245964,-27.728519,-39.58643,-45.611801,-27.950993,-4.135094,11.603851,-56.052418,-32.471008,-7.02404,14.471855,-59.870453,-42.360821,-16.682739,4.230766,-60.491524,-66.258087,-61.975994,-54.519882,-11.903627,-10.022277,0.306035,11.156323,0.171172,25.747143,34.082337,37.874862,18.073605,38.15101,45.671407,49.438491,31.307953,46.77779,50.648429,53.462025,42.261797,54.877653,56.852493,58.635906,26.37291,50.678444,72.406197,91.709061,52.444782,83.762169,100.434723,112.194557,42.850056,77.633171,97.369308,111.118698,32.719975,65.115166,83.932114,96.952744,23.048115,48.241539,63.381615,76.260796,-13.97418,-12.641668,-2.563692,3.813273,17.19786,33.719368,40.558103,44.988633,34.038371,49.004077,54.94459,58.062122,45.603729,61.234426,66.051946,67.02507,52.689342,68.497694,72.290343,72.322206,19.67308,294.838318,-73.897705,286.728945
12,-32.253284,18.263981,1.136742,0.399278,4.585476,5.331173,6.578121,6.535378,-11.154785,15.546055,32.670536,40.586872,-19.78426,8.952827,29.15102,43.876476,-23.702717,2.045746,21.965504,36.314335,-25.122757,-11.355,3.446159,15.616779,-18.667952,-27.143876,-23.458796,-14.078538,-9.409219,3.859339,11.027265,15.670958,7.527066,22.596575,29.377141,33.061912,21.232015,33.90851,36.2005,36.312639,31.156788,41.099036,40.779663,38.17466,25.739136,49.490662,71.05751,90.296631,51.793957,83.278313,99.764557,111.144791,42.487907,77.523651,97.141457,110.558739,32.637119,65.223141,83.61866,96.031609,23.386345,48.54229,63.493824,75.878906,-14.214821,-13.348401,-3.402015,3.45086,17.435414,33.623161,40.312151,44.487343,34.392942,48.957147,54.695119,57.468577,45.906985,61.244306,65.818653,66.357857,52.885338,68.415319,71.987704,71.648015,-12.5457,313.118895,-72.72646,287.144819
13,23.969021,-15.573145,0.395393,0.10442,3.025131,-1.120491,-12.774353,-23.479214,-29.978943,-10.846367,10.255508,21.579552,-44.364166,-19.513035,2.979927,19.579582,-52.531528,-33.88052,-11.575584,3.77552,-56.920567,-56.951523,-46.967468,-36.884136,-16.444814,-18.722354,-12.017865,-1.252607,-2.029427,24.77019,32.999914,35.507969,17.555148,39.25202,45.819485,48.137842,31.777009,47.418018,50.501154,52.163475,42.901346,55.615262,55.181527,54.57909,25.821075,49.318657,70.998001,90.288506,52.324905,82.922173,99.199791,110.714264,43.083286,77.318573,96.625786,110.193558,32.910061,64.918728,83.174973,95.745735,22.870903,47.650108,62.414589,74.982719,-13.905267,-13.278932,-3.919484,2.516823,17.194834,33.198936,39.930286,44.259423,33.916352,48.255415,53.929969,56.943328,45.442622,60.67614,65.387017,66.344951,52.832109,68.314481,72.160358,72.409645,11.424408,297.463884,-72.329979,287.167373
14,-27.064934,10.163624,1.115742,0.422249,-4.392471,-8.631935,-14.315701,-23.052464,-12.891712,15.977783,33.786049,41.972809,-16.831112,14.598427,35.232124,49.143448,-18.584232,8.970165,28.329849,41.487579,-18.032799,-6.361542,6.483364,18.064728,-11.702321,-10.307996,2.472054,17.169023,0.256202,14.341039,21.430789,26.454247,12.855571,27.395262,34.525643,37.395061,23.02148,36.05798,38.645384,38.213254,30.457526,40.314621,40.939782,39.112773,25.144215,48.382816,69.978848,89.385853,51.419277,82.254925,98.735676,110.322132,42.099323,76.666546,95.905666,109.047489,32.051926,64.555378,82.6478,94.864597,22.447987,47.448177,62.267017,74.798298,-14.139548,-13.428245,-3.891202,2.33398,16.505206,32.925752,39.650742,43.890649,33.425436,48.131606,53.964303,56.895718,45.105341,60.421605,65.004844,65.859408,52.476426,67.895628,71.532171,71.645607,-15.64167,307.567178,-71.215382,287.529292
15,18.782959,-9.879263,0.57066,0.634856,5.538254,5.371857,-2.305183,-10.266438,-20.85783,-0.266647,18.402557,27.960434,-35.249805,-8.45644,12.068367,27.255135,-43.820114,-23.049374,-3.044472,9.604683,-48.699074,-48.979912,-44.251728,-39.350739,-17.383667,-22.623251,-19.712708,-12.450736,0.558409,25.76326,31.743417,32.751184,20.330891,41.39939,44.995117,44.418492,33.783033,48.882429,49.991899,49.743909,43.672176,55.186405,55.288725,54.777247,25.609875,48.718128,70.111198,89.569244,50.872936,81.721001,98.148537,109.769783,41.521626,76.25473,95.611153,108.927383,31.635361,64.147224,82.19902,94.32621,22.18071,46.942635,61.652412,74.029655,-14.26027,-14.026297,-4.781273,1.709437,15.648789,31.979983,38.919432,43.456976,32.731115,47.448646,53.379403,56.485819,44.59905,59.850599,64.451622,65.359477,52.132477,67.398105,71.102821,71.160434,3.165464,297.643794,-70.620546,288.120028
16,-21.095066,9.878831,0.489063,-0.155179,7.184372,12.951279,19.868946,21.276226,-3.276215,27.684345,45.636921,53.854237,-14.540806,19.791584,39.703045,51.188908,-20.767479,7.411652,25.75613,36.699314,-23.635197,-11.434822,-1.68623,5.137539,-17.707795,-23.17672,-17.026009,-10.299598,-2.706335,13.304867,22.157962,28.974961,14.850727,29.092286,34.946225,36.46825,27.823315,38.34787,40.789852,40.971151,37.733639,45.859808,43.942705,40.457944,25.19474,48.434029,69.959965,89.362278,50.517426,81.491032,98.187618,109.868031,41.201305,76.031284,95.412312,108.505955,31.253071,64.124966,82.169552,94.094181,21.771526,47.049294,61.885471,74.239368,-14.238966,-13.960718,-4.745704,1.758466,15.478297,31.865683,38.853297,43.457223,32.365182,47.253515,53.421208,56.750296,44.156423,59.578279,64.272855,65.319277,51.660395,67.064405,70.773876,70.807715,-17.963076,307.462526,-70.164957,287.90475
17,-4.253483,5.04575,0.612373,0.433858,7.611294,17.622986,27.385712,29.440269,6.492748,34.211769,51.397133,61.300392,-1.905727,26.093674,46.891251,61.442642,-7.189808,13.141308,30.83519,45.056076,-10.322628,-6.023083,-0.774651,5.806675,-13.525193,-14.123678,-6.717889,1.9297,-4.908911,5.064275,12.299324,19.808235,9.623493,21.720769,29.519537,34.085486,21.834699,32.084341,37.866835,41.876289,32.36759,42.536216,43.464262,44.281035,25.258656,48.170128,69.587574,88.945141,50.65979,81.124249,97.506809,109.049206,41.340694,75.768299,95.015087,108.103809,31.284199,63.824959,81.933117,94.098873,21.498756,46.644001,61.57671,74.202175,-14.224393,-14.22958,-5.176414,1.337329,15.079574,31.504504,38.219923,42.583331,31.833264,46.555612,52.435115,55.585807,43.514713,58.807573,63.477139,64.440939,51.153671,66.35971,70.094807,70.117469,-22.298326,312.38391,-69.634352,288.214243
18,26.162682,-18.161908,-0.31065,-0.688023,5.429306,5.949783,0.461197,-4.737053,-22.570095,-3.032455,17.511063,29.365654,-36.952,-11.242332,12.197113,31.072884,-45.67091,-26.822205,-3.387337,13.569717,-50.635185,-56.502686,-54.271717,-49.975262,-17.404045,-19.218087,-12.845815,-4.608557,-1.367031,24.36838,33.088217,35.954363,18.788489,40.522782,47.28229,48.397688,33.234442,48.296109,53.153087,54.996028,44.664135,55.150034,58.429043,60.761232,24.609375,48.063869,69.716263,89.272041,50.905094,81.649132,98.448715,110.289688,41.617985,76.091995,95.264626,108.27404,31.446419,64.073925,81.938324,93.984489,21.679115,46.852512,61.652527,74.118004,-13.794425,-13.530442,-4.285479,2.184421,15.176214,32.070817,39.13914,43.847486,31.848084,46.929387,53.350071,57.018354,43.470561,59.045559,63.970031,65.421536,50.962245,66.707365,70.396025,70.408499,3.790569,294.148551,-70.018787,287.452768
19,-21.465511,16.090552,-0.199413,0.128194,7.96257,14.179401,21.082935,23.44408,-3.187809,25.347347,43.184566,51.595402,-14.443245,18.467388,38.642635,50.393085,-20.46833,8.317623,28.207226,39.449787,-23.465137,-8.770981,5.408249,15.176411,-19.73642,-27.969232,-24.532698,-18.781017,-6.20147,6.730239,15.150155,21.522983,11.649709,24.75926,31.287019,33.159848,25.090983,34.413072,37.396976,37.709556,35.362794,44.001862,42.57129,38.436112,25.010662,48.369141,70.092945,89.903126,51.259689,82.099857,98.629246,110.278072,42.024536,76.723652,95.854855,108.796635,31.944866,64.827347,82.716351,94.759083,22.339096,47.690048,62.437019,74.858952,-14.122072,-13.856051,-4.50426,2.094944,14.735377,31.719396,38.726956,43.313221,31.638503,46.589821,52.727874,56.194295,43.489827,58.951513,63.65356,64.970758,51.116868,66.526806,69.986929,69.987238,-17.814875,310.193932,-70.358133,287.535792
20,2.328415,-0.879696,0.378628,-0.509997,3.512592,8.982468,15.501423,15.037937,-2.670364,26.940708,44.65353,53.997517,-10.610733,19.954205,41.138363,56.064548,-14.851513,7.835827,25.606556,39.104748,-16.600571,-12.7248,-7.207375,-0.959129,-13.150306,-13.455847,-4.77306,3.557379,-0.266144,10.794898,17.811783,24.778094,14.771069,25.797099,31.903968,34.979632,26.363536,35.808076,39.913676,42.890231,35.141233,43.532064,43.105122,43.128772,25.392723,49.115753,70.690842,90.189972,50.579338,81.912918,98.650703,110.38353,41.411762,76.547813,95.890388,108.936081,31.715927,65.10458,83.114433,95.209236,22.548809,48.309574,63.097401,75.395508,-14.059951,-13.237868,-3.539348,2.768456,14.258973,31.804488,39.01144,43.728554,31.369395,46.946553,53.321666,56.84181,43.517059,59.126822,63.906181,65.182685,51.243456,66.717183,70.192681,70.098574,-15.606165,309.299663,-70.099211,287.011222
21,5.709915,-17.07226,0.168915,0.567054,9.601994,13.087864,10.698338,7.302189,-6.553688,17.250423,34.143505,40.901241,-19.864883,10.570278,29.071941,41.177731,-29.886703,-5.94841,11.891041,21.353588,-36.8997,-34.157696,-29.473,-26.373768,-19.666086,-20.534111,-13.70044,-6.001276,4.16735,29.675581,34.254621,32.857765,23.152082,46.68504,49.561992,47.561279,36.289112,53.918422,55.938772,55.391231,46.137129,59.793665,60.171269,58.289795,25.202808,48.654671,70.355759,90.039139,51.529083,82.645454,99.231834,110.771484,42.259426,77.138557,96.180496,108.809509,32.248363,65.334835,82.97287,94.577751,22.774487,48.336353,62.996693,75.08194,-14.487388,-14.13856,-4.65487,1.841089,14.098792,31.45424,38.683237,43.404797,31.158517,46.521402,52.943506,56.647728,43.20664,58.610959,63.324615,64.783098,50.943843,66.224353,69.536892,69.528309,-10.043964,292.195308,-70.078011,287.546181
22,13.193264,3.995746,0.161934,-0.272752,-16.011086,-27.921124,-38.57563,-55.863476,-25.926361,-6.726494,10.532799,22.521286,-28.190575,-5.363388,14.635048,28.80249,-28.347187,-11.449871,7.595558,20.903091,-26.546516,-26.027584,-15.650311,-4.766464,4.366927,15.453843,32.997691,47.049862,17.889959,27.97269,33.904187,38.316069,26.844695,34.253015,40.801646,42.37091,32.3863,39.641912,43.488901,44.985793,37.610509,47.091111,47.412213,45.248541,25.580978,49.318485,71.040001,90.897446,50.511246,82.138939,98.997574,110.695496,41.228199,76.717529,96.166306,109.061279,31.676731,65.307999,83.353157,95.280647,22.932301,48.673897,63.514366,75.605164,-14.384203,-13.565763,-4.067314,2.067404,14.655719,31.807699,38.615805,42.857318,31.912736,47.292171,53.357728,56.528241,44.000318,59.248162,63.584029,64.660153,51.504537,66.61406,69.762219,69.50861,2.98336,296.093179,-70.082016,287.175555
23,-28.956013,-1.751674,-0.344353,-0.142335,15.102711,25.544758,29.532566,30.756512,11.112442,36.357937,52.806072,58.792591,-0.909004,29.809513,49.218807,62.530231,-12.522354,12.24947,31.008968,41.175442,-22.007275,-20.973072,-18.94392,-18.722591,-21.31686,-23.709812,-17.346555,-10.575623,-0.182102,23.89389,29.570296,29.902884,19.689613,43.135071,46.520908,44.421517,33.522014,51.232464,54.109478,53.819621,44.296411,56.682309,59.020426,58.965283,25.671787,49.349041,71.021004,90.950546,50.357437,82.024727,98.842964,110.386047,41.125374,77.016335,96.601753,109.627647,31.805534,65.867786,83.979378,95.885925,23.306065,49.491062,64.338741,76.320877,-14.605763,-14.342459,-4.831599,2.149841,13.951826,31.273681,38.202386,42.515035,31.474247,46.744074,52.863416,56.12637,43.813708,59.149608,63.709814,64.833857,51.631125,66.78906,70.008542,69.70615,-26.128836,294.287952,-70.582552,286.979667
24,-0.885773,0.536055,0.218468,0.285657,15.059738,26.81963,31.8857,33.304195,11.981735,37.509327,54.154186,60.96674,0.08234,29.538975,49.424686,63.8978,-11.489525,11.8186,30.388241,41.874561,-21.286011,-19.808178,-16.885014,-14.660339,-21.75115,-25.830506,-21.363667,-16.305876,-2.542882,21.957026,28.20518,28.68072,17.77677,41.507701,45.566308,44.1048,32.16758,50.376974,53.307216,53.246454,43.429744,56.878243,58.248793,56.985565,26.105919,49.679661,71.669655,91.875,51.20224,82.470703,99.109497,110.75901,42.005939,76.921577,96.121902,109.191055,32.5284,65.575333,83.423653,95.362015,23.697224,49.174576,63.780212,75.831413,-14.04791,-14.046057,-5.284539,1.150781,15.027395,31.102942,37.610015,41.574638,32.078166,46.659846,52.634816,55.706035,43.902567,58.829741,63.45991,64.416054,51.371032,66.36465,69.681264,69.435313,-27.162066,294.735535,-70.511541,287.176852
25,-21.011868,-0.510491,0.142193,0.3923,22.606373,44.214821,58.349533,65.670319,37.207088,65.767593,80.182571,85.893173,24.254608,58.148346,75.17498,85.573082,10.57394,37.725163,53.919067,62.059937,-1.542377,6.841393,10.387802,11.242962,-21.087642,-26.732309,-26.612637,-23.900744,-2.968651,22.326541,26.993884,26.259116,17.194464,42.375603,45.194756,42.167689,31.567058,51.121437,54.106699,52.156189,42.527756,57.441345,58.288499,55.060866,25.917206,50.338039,72.737446,92.592373,50.221081,83.124905,100.720539,112.754688,40.559063,77.496815,97.137051,109.534092,31.071224,65.828247,83.850918,95.28677,22.771454,49.150829,64.350185,76.378727,-13.883716,-13.456465,-5.00166,0.928664,14.706231,30.466357,36.870059,40.694201,32.286697,47.691881,53.48938,56.017936,44.208478,59.959465,63.917357,64.016158,51.257164,66.447148,69.625072,69.096735,-48.224344,294.131044,-70.41976,287.475153
26,1.310291,-2.342872,-0.536671,-1.236861,22.291775,44.494915,59.064732,66.08923,32.976322,57.461414,74.85918,85.177517,18.993015,48.243656,70.015011,86.484661,4.77602,29.533997,50.548038,64.546452,-7.283592,-0.896702,7.221165,14.29985,-20.17812,-24.053947,-20.825944,-14.950886,-4.225828,19.276256,27.559641,30.316427,16.13705,40.806278,48.440852,49.06978,31.127765,50.341653,57.444618,58.685739,43.355026,57.07924,60.789884,60.349913,25.919495,51.053467,73.633575,93.42556,50.408592,83.165932,100.681229,112.822723,40.82737,77.384262,97.470016,110.968437,31.178055,65.267658,84.170609,96.849174,22.358093,47.990341,63.360958,76.469994,-13.783124,-12.967834,-3.6731,2.476068,16.115931,31.856482,38.455748,42.663298,33.233392,48.660868,55.316822,58.916933,44.593739,60.402092,65.423018,66.336306,51.363005,67.466586,71.825424,72.29343,-46.949043,291.682347,-70.991421,286.132467
27,4.330215,1.2573,0.570374,-1.451999,22.648144,44.31284,56.623478,59.877262,31.434917,53.764515,71.163769,81.572628,18.089333,43.783436,64.600582,80.822124,4.81842,26.830845,45.839024,59.068394,-6.106339,-5.008106,-4.220467,-2.402401,-22.173461,-28.161337,-29.83712,-28.354245,-2.831689,17.398055,25.534104,29.615127,16.262094,38.680026,46.161953,48.207188,29.870897,47.698241,54.9541,58.794173,41.067791,52.154213,58.873831,63.444041,27.349663,52.052822,74.283142,93.20343,50.373516,81.781883,99.074936,112.075996,41.304531,75.538445,95.538712,110.679817,31.988754,63.767567,83.037186,97.165146,22.745304,46.225834,60.961132,74.362335,-12.896388,-13.002105,-4.386379,1.836519,15.52251,30.665008,37.84479,42.437044,31.987022,47.701638,55.432604,60.264944,43.433326,59.417234,66.276902,69.002257,50.827629,68.349987,75.17489,77.984595,-42.658997,292.853089,-70.461216,284.593909
28,-6.472492,-14.468492,2.219124,-8.788751,6.234055,12.119751,11.595497,3.268032,32.749386,60.349731,65.580139,61.050453,31.851425,63.348656,68.750954,66.276169,24.292774,52.671776,62.13707,61.219597,13.681583,21.728611,17.166138,8.372383,-2.001393,10.836024,24.772166,31.710813,22.384216,39.674948,44.515749,47.453648,27.912174,49.573169,56.028557,58.877289,27.941012,49.15975,55.135646,58.07089,26.618256,40.761447,48.91775,58.037977,30.353794,56.560764,77.041512,93.251038,54.257355,81.666527,96.104393,106.39492,43.253403,71.120911,87.371407,100.893745,30.598583,53.249073,67.679329,78.028107,17.84071,31.091709,38.869286,44.265976,-14.153441,-12.395345,-2.409378,6.177079,8.213855,25.667917,35.036196,41.294724,24.184055,42.658358,52.028551,58.305912,36.727478,56.132792,67.365933,74.248819,44.974986,64.7521,73.89079,77.630395,-49.157438,278.374809,-68.268042,275.795371
29,81.045456,5.546422,14.778442,-16.520829,-37.630291,-74.838066,-106.376724,-131.624565,-58.80558,-86.066895,-97.39769,-104.23605,-45.965767,-76.788311,-93.097286,-101.324043,-34.962959,-63.770714,-78.331947,-89.156055,-24.666138,-44.318161,-57.145157,-67.448444,-24.347385,-32.854615,-38.477546,-39.390156,6.919936,25.230107,30.09888,31.437011,25.121611,46.744197,50.765075,50.037964,38.518301,58.074163,61.865577,61.799071,46.349118,62.986099,68.493557,70.66254,14.198685,27.072144,32.692909,35.1297,39.161396,47.108402,37.220936,25.289841,35.699844,38.505878,25.053921,9.472675,28.32756,26.280441,11.427498,-1.873798,19.100933,13.16494,4.541073,-2.821083,24.822739,47.543186,65.862928,80.17198,41.65936,69.295757,80.009762,84.147842,32.614962,62.142836,73.734191,77.750993,23.699808,51.341824,62.457948,65.221403,14.229333,36.022967,48.301913,54.614411,31.989527,283.937564,-53.38809,259.290875
30,15.157242,-6.439765,-9.22205,-43.383493,-32.710419,-59.504986,-82.027874,-97.005959,-64.426231,-95.720959,-109.144478,-117.945671,-57.089081,-91.407108,-109.021053,-120.299721,-48.436089,-78.809338,-96.873035,-110.835686,-39.935646,-62.693996,-75.441113,-86.957645,-17.464128,-26.262018,-29.901217,-28.866897,8.910955,26.109124,36.803246,43.921771,26.992958,47.859719,58.27973,64.297369,41.226119,59.575562,67.355867,72.836278,51.504845,68.167391,74.031396,78.2077,26.511898,54.932613,76.239223,85.529423,49.066029,90.11095,86.74284,76.038723,44.5998,90.61861,88.247395,77.957897,41.310711,84.786472,80.688,68.445683,38.258686,73.596897,73.215351,65.210667,5.702774,10.930132,19.533261,27.764097,-1.743708,12.139513,18.580884,19.588898,-3.562258,9.316408,14.446262,14.037165,-2.243516,10.115891,13.527107,13.03755,1.687454,9.561434,12.183727,12.944739,47.356539,277.518377,-62.40037,215.927961
31,5.426331,4.484747,-2.586479,-41.795025,-28.470268,-54.767418,-78.071651,-92.983246,-62.226448,-95.767136,-111.405258,-121.961288,-54.510727,-90.52866,-110.757008,-125.17416,-45.490952,-78.230495,-97.477684,-110.633183,-36.387177,-61.403389,-75.559044,-86.336861,-17.177977,-18.235144,-5.26132,8.62715,12.228311,28.352022,36.862773,43.257646,29.279575,45.002218,53.510067,59.670843,41.549876,56.470011,64.200421,68.868197,50.125279,62.911814,68.49226,71.920705,20.033226,49.296684,75.937328,88.165913,30.108318,82.391224,74.486675,62.856159,30.797825,81.170597,72.467251,58.974094,34.596863,80.482922,70.878582,57.626839,38.535862,75.553837,71.977901,63.267918,16.355585,16.922021,7.738932,-0.912239,13.62986,11.089942,4.574718,0.080646,-1.975766,-2.959512,-7.277904,-8.462153,-17.297649,-20.555477,-21.522859,-19.597172,-30.275671,-36.652142,-35.567126,-32.253846,52.772942,283.046321,-64.996777,175.176131
32,-0.270081,0.61701,-1.72863,-48.732622,-28.293343,-52.5103,-74.872913,-91.019096,-61.055832,-92.510033,-108.509789,-120.294456,-54.598846,-89.790115,-108.71006,-123.351231,-46.134453,-78.24028,-95.879173,-109.202156,-36.487656,-60.996838,-74.144325,-85.42551,-15.874672,-14.843749,-1.058773,10.649291,12.167857,29.064807,37.062597,42.570858,28.893759,45.211861,53.540695,59.875299,40.941202,56.698981,64.369556,69.996192,48.600971,62.713965,68.720613,73.045983,8.793354,28.456478,51.686211,66.013012,23.130169,59.090366,52.253437,41.375256,30.227852,65.47617,56.92131,46.683254,38.871346,74.580059,65.78516,55.606956,47.223015,77.549572,79.71983,74.585323,-33.651103,-56.542104,-68.582323,-64.754446,-40.919096,-55.028447,-52.284074,-48.835931,-21.45657,-36.749708,-34.425546,-29.668356,-3.790858,-20.566561,-20.031957,-14.993834,10.805519,-1.954648,-5.677209,-4.53563,51.858616,284.17714,-67.369652,126.957319
33,0.341949,0.624235,-0.281982,-46.905675,-27.751923,-52.299042,-74.498692,-91.137886,-60.719433,-92.757053,-109.17366,-121.352005,-54.304276,-89.86845,-108.983631,-123.972759,-45.894241,-78.892136,-96.756821,-110.066299,-36.295509,-61.671066,-75.446835,-86.950893,-17.032184,-15.600933,-1.562347,9.597311,12.732132,28.188075,35.767382,41.237913,29.867378,44.319814,52.115557,58.218103,41.903089,55.93729,63.188023,68.657072,49.374333,62.692415,68.170232,72.03908,39.63398,68.375187,85.855007,86.350422,54.352741,68.438129,76.118946,75.892811,37.901459,54.446468,59.531994,55.082588,22.477398,40.40205,45.98156,40.543327,8.1633,22.914848,31.44619,30.83519,-4.328766,-14.184996,-26.816691,-40.319221,-50.138401,-79.926152,-72.988647,-63.144922,-55.247661,-79.110768,-63.51456,-50.567382,-56.74937,-77.59884,-62.819929,-49.333639,-55.058304,-74.501409,-67.458836,-57.683128,52.388935,285.651401,-67.463264,80.901669
34,-0.657578,-0.217794,-7.40736,-49.164258,-27.514801,-51.80706,-73.773251,-90.097847,-60.706787,-93.049278,-109.524136,-121.631699,-53.881416,-89.795036,-109.145737,-123.878403,-44.998169,-78.473568,-96.430492,-109.481907,-35.057259,-60.859909,-74.777756,-86.242104,-16.793025,-15.01733,-1.224017,10.002887,12.214478,28.096746,35.852536,41.67066,29.257222,44.190447,52.146741,58.273308,41.406862,55.840712,63.176908,68.764086,49.128875,62.743359,67.913412,71.534086,0.878849,10.687294,25.862446,40.544815,57.107964,87.922096,98.868599,104.239769,62.15847,84.885521,78.395691,69.992065,60.739403,76.353378,60.860367,47.09198,54.418144,67.84441,56.052475,44.44376,-36.676688,-65.099075,-77.099897,-77.074209,-78.097506,-95.727218,-107.209552,-115.821512,-60.266611,-78.14317,-84.113756,-86.844637,-41.20429,-54.846315,-56.844898,-54.500975,-21.025089,-33.694298,-37.223395,-36.728095,51.922159,286.165179,-74.679823,32.468984
35,-0.65815,-0.368218,-5.20792,-21.378775,-27.479324,-51.643181,-73.507519,-89.201431,-60.323639,-92.684956,-109.17429,-121.306915,-53.568535,-89.332237,-108.705025,-123.591671,-44.780846,-78.102493,-96.035328,-109.157753,-34.909859,-60.509205,-74.371033,-85.845451,-16.462969,-14.531971,-0.627755,11.075122,12.606902,28.391975,36.115099,41.899878,29.563936,44.305612,52.301796,58.518334,41.617431,55.785137,63.077428,68.704496,49.287265,62.890819,68.199193,71.888162,-0.286198,10.363521,25.939369,40.45021,47.268867,78.17482,83.635063,84.524803,53.333359,77.398014,70.12701,61.684284,55.125313,73.946819,60.414943,47.905693,53.309727,70.712032,64.143257,56.946525,-37.013907,-65.611758,-78.566171,-77.914231,-77.376076,-98.265221,-102.362052,-104.748304,-61.364925,-80.546465,-81.09412,-79.245714,-44.204969,-61.17109,-59.970508,-54.915907,-26.226563,-43.236177,-47.387637,-46.875139,51.371784,288.27516,-79.779968,13.568408
36,0.375481,0.885686,-5.20792,-21.378775,-27.191849,-51.233025,-73.298035,-89.43758,-60.587368,-92.904797,-109.286041,-121.265602,-53.819847,-89.615421,-108.615017,-123.092136,-45.026207,-78.348656,-96.008205,-108.750572,-35.38456,-61.209583,-74.931335,-85.992565,-16.937274,-15.420807,-1.650095,9.761814,11.974084,27.874939,35.598248,41.415322,28.990398,43.387815,51.112422,57.281102,41.130653,54.900377,62.030574,67.628495,48.818208,61.982594,66.983204,70.552007,-1.451245,10.039749,26.016292,40.355606,37.429771,68.427543,68.401527,64.809837,44.508247,69.910507,61.858329,53.376503,49.511223,71.54026,59.96952,48.719406,52.201309,73.579654,72.234039,69.449291,-37.351126,-66.12444,-80.032445,-78.754252,-76.654646,-100.803225,-97.514552,-93.675097,-62.463238,-82.94976,-78.074483,-71.64679,-47.205648,-67.495866,-63.096118,-55.330839,-31.428037,-52.778056,-57.551878,-57.022183,51.035299,291.63676,-85.699854,-5.334454
37,-1.063385,-1.093044,-5.20792,-21.378775,-27.268867,-51.101761,-72.825451,-88.504372,-60.028381,-92.134209,-108.191013,-119.890537,-53.352242,-88.819599,-107.693081,-122.104511,-44.473572,-77.528801,-94.954376,-107.545853,-34.660263,-60.2215,-73.847179,-84.937477,-16.919489,-14.77675,-0.346543,11.584254,13.133078,29.242402,36.975035,42.550109,30.390651,44.976654,52.640806,58.372356,42.537574,56.647852,63.547225,68.540364,49.979116,63.316094,68.344059,71.583671,-2.616291,9.715977,26.093216,40.261002,27.590675,58.680267,53.167992,45.094872,35.683136,62.423,53.589649,45.068722,43.897133,69.133701,59.524097,49.533119,51.092892,76.447277,80.324821,81.952057,-37.688345,-66.637123,-81.498719,-79.594274,-75.933216,-103.341229,-92.667053,-82.60189,-63.561552,-85.353056,-75.054847,-64.047867,-50.206327,-73.820642,-66.221728,-55.745771,-36.629511,-62.319936,-67.716119,-67.169227,47.59635,291.621369,-93.283339,-25.635575
38,1.802559,0.358832,-8.259602,-2.597191,-27.588844,-52.053452,-74.266205,-90.039482,-60.681667,-92.347355,-108.485012,-120.402203,-53.874893,-88.964367,-107.883282,-122.663612,-44.931793,-77.771301,-95.260391,-108.17728,-35.262566,-60.827694,-74.592648,-85.874119,-17.095231,-15.324229,-0.556556,11.750856,13.268929,28.82114,36.135909,41.611256,30.699897,44.580463,51.613526,57.050156,42.875534,56.488165,62.822399,67.478936,50.380617,63.422119,68.177889,71.300854,-2.316742,6.18988,21.941013,37.935333,19.468975,54.396629,54.614868,46.294327,31.705685,61.547756,60.482941,54.083519,44.031258,70.28532,69.490871,63.019352,54.981251,79.006004,91.957741,101.037483,-37.568117,-65.310755,-82.808692,-81.94468,-81.358453,-98.150798,-89.375138,-80.039834,-71.442479,-88.810307,-81.385252,-74.142083,-57.851861,-77.877983,-72.346474,-65.011729,-42.801341,-62.794642,-72.80775,-80.010595,47.759142,292.985173,-103.182707,-27.227794
39,0.510864,0.564461,0.478535,-7.170643,-27.430229,-51.698685,-73.976784,-90.361748,-60.648823,-92.804146,-109.039879,-120.967369,-53.866425,-89.460869,-108.644485,-123.156452,-45.148315,-78.150043,-95.874939,-108.607063,-35.668488,-61.250153,-75.044861,-85.98032,-17.672227,-15.747961,-0.991588,10.741237,13.21607,28.425999,35.704397,41.270332,30.772947,44.57719,51.175407,56.220107,42.877448,56.746653,62.811222,67.154808,50.000976,63.163508,67.709821,70.545338,-1.411343,5.630779,17.993946,30.96983,20.290489,49.78775,51.061306,44.331665,32.582588,58.228512,58.414249,53.54845,44.916687,68.938923,68.504963,62.194748,55.473747,78.543377,92.189484,102.365742,-39.293979,-64.652805,-81.830936,-88.162267,-82.74407,-95.885885,-88.135097,-80.077903,-72.670787,-85.676782,-78.558998,-73.115452,-58.576719,-73.864886,-68.129538,-62.172291,-43.311214,-61.573281,-72.296425,-82.796249,47.821455,293.801297,-103.152723,-34.146774
40,0.4953,0.104049,2.182217,-3.701351,-27.410088,-51.776962,-74.383335,-90.946026,-60.452957,-93.169785,-109.498959,-121.636791,-53.799019,-89.942036,-109.264412,-124.02071,-45.173492,-78.812599,-96.816673,-109.820766,-35.824814,-61.758041,-75.713425,-86.746559,-17.728852,-15.790013,-1.138554,10.704372,13.006551,28.237722,35.607696,41.42372,30.43227,44.096463,50.692951,55.932473,42.564929,56.115131,62.276772,66.923429,49.840487,62.981036,67.561064,70.604927,-4.008865,2.072067,15.561104,29.80196,17.875042,47.127628,46.789284,38.761368,31.356697,55.378704,54.217701,48.119431,44.253159,66.464825,64.932346,57.846794,55.097752,78.192215,92.306786,103.121452,-38.134862,-64.141357,-81.207349,-84.731384,-81.658498,-92.795462,-84.570493,-76.778548,-71.492682,-82.943833,-75.610446,-69.443803,-57.63731,-71.298786,-64.793658,-58.012073,-42.99817,-60.697598,-71.464215,-81.854648,48.45314,293.933103,-100.834122,-37.820367
41,-0.359573,-0.571809,1.304455,-3.159058,-27.546501,-51.615601,-74.037151,-90.748386,-60.328045,-93.051739,-109.437847,-121.68972,-53.467827,-89.652157,-108.962345,-123.74033,-44.70314,-78.201199,-96.210766,-109.331932,-35.2985,-61.076603,-75.059509,-86.421833,-17.117646,-14.939401,-0.458559,11.071231,13.11764,28.445513,35.813325,41.527399,30.326739,44.348405,51.341454,56.754557,42.447727,56.327306,62.740642,67.536302,49.837214,63.300347,67.95392,71.055952,-5.509129,-0.151405,12.800446,27.00016,16.056175,42.489738,41.486893,33.647919,30.108604,51.196003,49.705925,43.969688,43.477879,63.170815,61.487331,54.82338,54.634666,76.32185,89.841843,100.133801,-37.586303,-62.242779,-79.108854,-82.711651,-80.177414,-90.640558,-81.765326,-73.816319,-70.237234,-81.216828,-73.839568,-67.460442,-56.508018,-69.476871,-62.576972,-55.254547,-42.184578,-60.286865,-71.470513,-81.611506,48.189697,293.364243,-99.433537,-40.976477
42,1.100121,0.675426,-1.866131,-2.945001,-27.474976,-51.912575,-74.977684,-92.044373,-60.259266,-93.544235,-110.196934,-122.616348,-53.451118,-90.186424,-109.562874,-124.498672,-44.832001,-78.924923,-97.14941,-110.391426,-35.758553,-62.213745,-76.440926,-87.654934,-17.489075,-15.71301,-1.617367,10.159795,12.596652,27.607621,34.944682,40.598611,29.89498,43.683168,50.434217,55.86992,42.00862,55.629649,61.754735,66.425474,49.455658,62.539582,66.922441,69.85645,-7.069931,-1.434517,12.446022,25.8494,11.842175,38.286667,36.913605,28.835793,26.473503,47.782116,45.924683,39.920597,40.697994,60.250511,58.008957,50.999565,53.126965,75.404778,89.700451,101.167374,-36.109511,-60.30465,-74.933631,-77.297529,-79.677761,-87.438398,-77.404512,-69.147278,-69.685957,-78.834806,-70.333472,-63.007712,-55.806873,-67.50907,-59.712432,-51.962045,-41.438695,-58.806862,-68.500411,-77.417819,48.942919,293.988277,-101.646566,-43.97287
43,-0.049553,-0.255523,-2.023087,-4.060059,-27.362366,-51.669159,-74.669437,-91.906586,-60.430984,-93.549099,-109.94442,-122.0228,-53.770752,-90.326214,-109.608307,-124.350929,-45.242043,-78.96492,-97.130699,-110.331802,-36.14296,-62.103939,-76.206722,-87.394638,-17.843584,-15.971991,-1.61817,10.269711,12.223124,27.526172,35.040518,40.688458,29.874973,43.709597,50.49078,55.688251,42.185967,55.935808,62.210761,66.789493,49.634611,62.945406,67.486223,70.434125,-8.070831,-3.273869,10.075321,23.592567,9.588318,34.063797,31.946583,24.280529,24.159508,44.989643,42.502041,36.908169,38.365116,57.155514,54.504776,48.438721,50.313377,73.105602,87.823105,100.207672,-33.417223,-56.62837,-71.485766,-73.892488,-73.268469,-83.311803,-73.407593,-64.702483,-63.799723,-74.710527,-67.909182,-61.891049,-51.238794,-64.17004,-58.527936,-51.486475,-38.389614,-54.734207,-63.73964,-71.47993,47.358627,293.641348,-105.204391,-48.124335
44,0.344696,-0.015067,-4.368439,1.774336,-27.710495,-52.059517,-74.993019,-92.036934,-60.529518,-93.660164,-110.271034,-122.645073,-53.602295,-90.193005,-109.453011,-124.233227,-44.972076,-78.811512,-96.836014,-109.810467,-36.06205,-62.259121,-76.305485,-87.408257,-17.829073,-16.015525,-1.847634,10.10706,12.339832,27.60935,34.940977,40.153205,30.126235,43.713055,50.315718,55.347512,42.571475,56.004042,61.979753,66.297651,50.10589,63.081998,67.287077,69.926537,-10.175457,-3.953705,11.002865,22.521858,4.284954,28.148918,26.564655,20.871334,19.323864,40.05621,37.096882,31.906471,34.067059,52.746792,50.21862,44.541893,46.64629,67.205601,80.552788,91.45237,-31.941697,-55.028293,-69.311503,-72.558031,-70.685913,-81.821303,-71.882605,-63.080361,-63.214823,-74.115716,-66.063308,-59.476391,-52.264314,-65.209732,-58.555724,-51.238608,-40.261454,-56.414837,-64.430225,-70.549352,45.44323,293.619859,-111.832924,-46.35642
45,-0.053444,0.04409,-9.759407,0.295815,-27.439384,-51.675453,-74.621601,-91.732292,-60.804806,-93.926983,-110.434856,-122.78738,-53.755417,-90.381317,-109.720345,-124.509373,-44.848709,-78.592472,-96.740055,-109.929886,-35.563202,-61.871681,-76.027966,-87.397556,-17.71045,-15.902028,-2.02424,9.807509,12.108268,27.535435,34.846251,40.259169,29.770182,43.590233,50.235813,55.344918,42.273344,55.921235,62.186432,66.686122,49.872041,63.052111,67.340739,69.989893,-10.543327,-6.319771,5.608749,18.097572,4.251194,24.776859,22.630405,16.833401,19.137611,37.003956,33.83234,28.662701,33.763676,49.584846,45.451527,38.317108,47.115269,66.25248,78.923149,88.448639,-29.295445,-53.334973,-68.351068,-72.006106,-68.19027,-81.436937,-71.498888,-63.376331,-59.893886,-71.445782,-63.368211,-57.679176,-48.696004,-62.657742,-54.812506,-46.901105,-37.367366,-57.181221,-67.030906,-74.720067,41.981964,294.053131,-125.000153,-45.671423
46,0.678635,0.332526,-9.761353,1.986758,-27.623634,-51.690559,-74.854088,-91.958942,-60.285702,-93.729172,-110.669575,-123.424187,-53.45787,-90.331135,-109.891663,-124.984188,-44.905586,-78.975849,-97.363987,-110.790768,-36.02932,-62.610855,-76.993389,-88.535156,-17.68044,-16.283275,-2.666136,9.313753,12.001007,26.965973,34.30433,39.921641,29.776851,43.205405,49.715998,54.833934,42.38079,55.669478,61.581216,65.899731,50.084462,63.022409,67.082313,69.502991,-11.65987,-9.774342,-0.615921,10.295448,1.952019,19.726067,17.571831,12.067451,16.666718,32.837677,30.196609,25.089455,30.355167,44.661884,40.603065,33.943462,42.975254,58.770905,67.572784,72.509537,-28.223026,-53.044561,-70.756586,-76.859132,-65.60796,-82.485675,-73.249574,-63.937488,-58.723716,-73.328398,-66.231053,-59.74269,-48.561358,-64.653453,-57.297158,-49.286338,-37.580868,-57.382311,-67.639086,-74.310508,41.741524,294.3221,-135.68058,-43.748222
47,0.256233,0.835915,-11.651058,0.665422,-27.430458,-51.326866,-74.379044,-91.07563,-59.572105,-93.135109,-110.115051,-122.843685,-53.116379,-90.358086,-110.246372,-125.43932,-44.878693,-79.299202,-97.842751,-111.306267,-36.306953,-63.1497,-77.612286,-89.122581,-17.620048,-16.712008,-3.620056,8.273073,11.395853,26.160068,33.421793,38.726462,29.298533,42.452914,48.787642,53.455047,41.985217,54.909454,60.65181,64.595747,49.840919,62.500618,66.112585,68.025365,-12.432632,-10.988045,-2.066288,8.570137,-5.157566,15.783863,15.236835,10.169392,10.21328,29.284458,28.397484,23.98962,25.292988,41.280785,38.755302,33.064156,39.582939,54.348164,61.413975,65.112362,-28.191564,-52.946965,-70.494579,-76.971642,-63.886945,-85.437901,-75.735831,-66.087082,-56.550719,-75.616004,-67.817483,-61.12204,-46.133301,-66.723389,-60.112729,-52.757638,-35.200081,-57.71527,-67.608118,-73.515564,40.485907,295.086045,-148.843489,-43.154769
48,-0.13813,0.439292,-3.583717,0.331013,-27.297935,-51.079102,-73.85582,-90.526543,-59.480667,-92.779884,-109.77459,-122.582016,-53.169365,-90.117531,-109.996948,-125.111046,-44.989471,-79.171658,-97.538223,-110.718613,-36.383858,-62.939816,-77.094955,-88.16843,-17.862171,-16.851132,-3.477289,8.170568,10.957611,25.994639,33.323116,38.651682,28.749757,42.188499,48.63765,53.305426,41.423967,54.3671,60.349048,64.425934,49.345927,61.891512,65.63124,67.645971,-13.599873,-12.530251,-3.782902,7.230663,-9.963799,12.784996,13.04924,6.769466,5.962086,26.230602,25.287895,19.515495,22.151413,38.572998,37.418575,31.664028,36.748352,50.66803,57.247124,60.719261,-27.044303,-50.663249,-67.400328,-74.369911,-66.205241,-86.752073,-76.311375,-67.603425,-58.737208,-77.830899,-69.566903,-62.50917,-48.063124,-68.65522,-61.940634,-54.539662,-37.036539,-59.298334,-67.820663,-72.737014,38.347807,295.372259,-154.427176,-42.976836
49,-0.696831,-0.23354,0.660439,-1.715365,-27.334557,-51.416245,-73.787098,-90.160961,-60.748215,-93.254185,-109.678173,-121.849136,-53.882904,-89.964066,-109.182472,-123.55545,-45.263329,-78.698502,-96.66996,-109.559498,-36.166077,-62.400684,-76.700077,-88.11224,-17.82438,-16.343235,-2.715721,9.22088,11.569434,26.603004,33.997183,39.231951,29.24518,42.910608,49.314003,53.760835,41.709748,55.131262,61.073874,65.114327,49.233603,61.961598,66.225958,68.850598,-12.735271,-10.896721,-1.713581,7.3843,-7.690659,20.539684,24.967289,19.244156,6.068058,32.681007,35.949383,30.797253,21.148796,43.334198,45.710907,40.743999,35.702591,53.638458,63.431568,69.244652,-27.724638,-53.291408,-74.310971,-85.736958,-67.709543,-86.329299,-77.31908,-68.630025,-58.699726,-78.949384,-70.426592,-63.418538,-46.593897,-67.744648,-60.536862,-53.706711,-34.140722,-55.848091,-65.733097,-73.971004,37.319527,295.353116,-154.098186,-44.477803
50,-0.91095,0.261328,4.972858,1.435419,-27.071686,-51.031723,-73.492298,-90.22419,-60.399513,-93.26128,-109.788895,-121.915169,-53.563042,-90.08091,-109.349499,-123.637218,-44.944839,-78.706341,-96.803856,-109.764233,-35.964661,-62.571373,-77.031841,-88.549061,-17.99901,-16.667424,-3.1778,8.668585,11.285938,26.313456,33.663669,38.897881,29.041651,42.885661,49.145239,53.395952,41.533698,55.115083,61.037318,65.059431,49.044832,61.776718,65.907635,68.460953,-5.328197,0.452728,10.84465,19.892292,5.220451,32.714596,47.557411,56.013851,15.568256,42.050171,58.638725,69.756317,27.395496,51.624699,66.136494,76.30703,40.896034,58.74012,70.144215,80.481834,-30.44283,-58.082932,-79.819787,-94.495884,-65.830385,-83.238042,-87.79337,-87.373962,-56.62062,-77.521899,-83.403101,-85.156196,-44.260627,-67.859998,-73.859915,-76.505982,-30.204072,-51.991964,-61.828495,-69.617229,36.064253,296.100126,-149.469652,-42.556701
51,-0.008125,0.456644,24.530811,-11.419071,-27.094803,-50.959167,-73.604679,-90.655518,-60.606594,-93.38871,-109.962101,-122.23011,-54.007759,-90.338459,-109.622498,-124.097786,-45.527916,-79.331074,-97.364273,-110.203629,-36.548882,-62.994804,-77.258377,-88.578529,-18.110531,-17.180261,-3.9264,7.748195,10.821636,25.652418,33.117363,38.537012,28.567964,42.237529,48.739477,53.224841,41.173446,54.465531,60.365535,64.33232,48.942574,61.554354,65.67039,68.089956,11.218987,26.171093,37.833138,45.290108,39.152412,81.888313,97.725906,102.353554,35.41626,82.879486,94.32375,95.652866,33.443012,76.393261,83.139896,81.555634,32.622757,64.732761,71.755657,73.677063,-32.800923,-57.263164,-71.235708,-77.375983,-75.646045,-90.883531,-89.882834,-86.33921,-64.857754,-79.73911,-77.515323,-72.567016,-50.104809,-65.997821,-63.086351,-58.687808,-32.847854,-49.911747,-52.7062,-53.258341,36.206789,296.595025,-124.788179,-53.937518
52,-0.668564,-0.322522,44.245262,-8.178642,-27.217484,-50.92392,-73.323669,-90.223961,-60.743008,-93.238564,-109.913692,-122.349586,-54.307938,-90.393333,-109.854183,-124.536095,-45.89859,-79.553318,-97.668285,-110.675011,-36.882019,-63.06427,-77.318974,-88.789558,-17.910769,-17.106161,-4.091706,7.20053,10.778226,25.565041,32.894383,38.102598,28.335288,41.881723,48.430292,52.895712,40.868584,53.968069,60.064379,64.160037,48.678529,61.290865,65.471368,67.89711,2.182589,9.583083,11.83877,10.712901,46.852312,77.982645,83.661547,81.584044,50.420065,83.964816,83.519326,77.997094,48.720875,71.882,63.812371,54.871016,42.996912,55.085507,49.2762,43.163081,-37.152089,-64.318982,-81.877048,-92.413775,-82.012351,-104.256539,-111.612974,-112.628606,-69.856118,-93.456832,-96.503443,-94.355818,-53.451342,-73.825435,-74.624277,-71.490212,-35.631794,-53.064892,-57.341016,-57.365654,37.691917,295.822975,-78.389225,-62.565687
53,0.038338,-0.508576,44.245263,-8.178641,-27.305946,-51.387062,-73.709335,-90.346298,-60.848064,-92.849178,-109.617748,-122.317715,-54.385529,-89.803619,-109.019108,-123.857117,-45.951233,-79.294968,-97.217731,-110.364075,-36.723862,-62.901764,-77.031212,-88.578415,-18.084102,-17.050215,-3.910839,7.042017,11.170032,25.788454,33.098406,38.145514,28.867885,42.154845,48.960852,53.686117,41.373702,54.000674,60.218878,64.660647,49.286956,61.462161,65.923628,68.762665,-6.853809,-7.004929,-14.155598,-23.864307,54.552212,74.076977,69.597187,60.814533,65.42387,85.050144,72.714901,60.34132,63.998737,67.370739,44.484844,28.186398,53.371067,45.438251,26.796741,12.649097,-41.503255,-71.3748,-92.518388,-107.451568,-88.378656,-117.629548,-133.343114,-138.918003,-74.854482,-107.174555,-115.491564,-116.144621,-56.797875,-81.653048,-86.162202,-84.292616,-38.415734,-56.218038,-61.975832,-61.472967,37.527351,295.874042,-34.346867,-70.184685
54,0.003777,0.532783,2.842164,6.090156,-26.833649,-50.84301,-73.289738,-90.294685,-60.574665,-93.015862,-109.563046,-121.937714,-54.254036,-90.218811,-109.41576,-124.103508,-45.854416,-79.389038,-97.43185,-110.623627,-36.694336,-63.180828,-77.45018,-89.050484,-18.333759,-17.722121,-4.577496,6.245622,10.116261,24.848119,32.233098,37.600937,27.968491,41.038151,47.526205,52.30371,40.725199,53.229596,59.258227,63.710061,48.781343,60.64156,64.909934,67.777376,-1.917228,1.724053,-1.711693,-8.079365,58.068139,79.21553,78.080063,72.701683,67.296949,89.192587,81.364158,73.118346,65.65773,73.123496,56.313858,44.599163,55.825719,52.598795,38.909422,28.776578,-37.419029,-63.792745,-82.679377,-96.156167,-76.90443,-102.654013,-116.712491,-121.867944,-64.959435,-93.505901,-101.499734,-102.520742,-49.466645,-71.518462,-75.928249,-74.704087,-33.800834,-49.713452,-55.020495,-54.84885,37.424726,296.121893,-31.611104,-64.37946
55,-0.071068,-0.382976,2.842165,6.090157,-27.194252,-50.977478,-72.893829,-89.567757,-60.492554,-92.635002,-109.272079,-121.726742,-54.23584,-89.592018,-108.636074,-123.377094,-45.894127,-79.103737,-96.949539,-110.230808,-36.503792,-62.525139,-76.668148,-88.391018,-18.142456,-17.316668,-3.889041,6.623226,10.397781,24.834287,32.186661,37.448476,28.160164,41.24767,47.969696,52.995192,40.770833,53.140182,59.43224,64.256244,48.796225,60.643906,65.26401,68.414208,3.019352,10.453033,10.732212,7.705577,61.584067,84.354082,86.562939,84.588833,69.170028,93.335029,90.013414,85.895372,67.316723,78.876253,68.142872,61.011927,58.28037,59.759339,51.022102,44.904058,-33.334805,-56.21069,-72.840367,-84.860766,-65.430205,-87.678477,-100.081868,-104.817887,-55.064389,-79.837247,-87.507905,-88.896864,-42.135416,-61.383877,-65.694296,-65.115558,-29.185936,-43.208868,-48.065158,-48.224734,37.343473,296.282599,-28.779124,-57.745622
56,-0.02758,0.189759,2.842165,6.090156,-26.911812,-50.779953,-72.756386,-89.859009,-59.953823,-92.296486,-109.102192,-121.714725,-53.907623,-89.445591,-108.599739,-123.409252,-45.704727,-78.798923,-96.774387,-110.153332,-36.31176,-62.136898,-76.331577,-88.043461,-18.099416,-17.383852,-4.057002,5.785334,10.441748,24.692014,32.003633,37.311884,28.16566,41.190427,47.889235,53.101896,40.682715,52.993277,59.250879,64.168064,48.614988,60.225547,64.697203,67.821157,7.955932,19.182014,23.176117,23.490519,65.099994,89.492634,95.045814,96.475982,71.043107,97.477471,98.66267,98.672398,68.975715,84.629009,79.971885,77.424692,60.735021,66.919882,63.134782,61.031537,-29.250579,-48.628635,-63.001356,-73.565365,-53.955979,-72.702941,-83.451244,-87.767828,-45.169341,-66.168592,-73.516075,-75.272985,-34.804186,-51.249291,-55.460343,-55.527029,-24.571036,-36.704282,-41.109821,-41.600617,36.577835,297.633991,-26.675017,-50.493832
57,-0.267906,-0.071939,2.842164,6.090157,-26.696892,-50.212898,-72.275333,-89.048424,-59.942951,-92.224731,-108.840294,-121.412544,-53.888969,-89.466934,-108.580227,-123.435059,-45.56694,-78.702679,-96.809521,-110.431595,-36.243896,-62.371216,-76.804848,-88.859596,-18.340366,-17.920772,-4.921693,5.522339,9.977817,24.084081,31.219341,36.421443,27.927303,40.541924,46.971809,51.864727,40.702599,52.573189,58.473935,62.90533,48.923369,60.364424,64.434147,67.060886,12.892514,27.910996,35.620022,39.275461,68.615922,94.631187,103.528691,108.363133,72.916187,101.619914,107.311928,111.449425,70.634709,90.381767,91.8009,93.837458,63.189673,74.080427,75.247463,77.159018,-25.166354,-41.04658,-53.162346,-62.269965,-42.481754,-57.727406,-66.820622,-70.71777,-35.274295,-52.499938,-59.524246,-61.649106,-27.472957,-41.114706,-45.22639,-45.938501,-19.956137,-30.199697,-34.154484,-34.976501,35.240421,298.619466,-24.902361,-43.346261
58,0.22316,-0.029084,2.842165,6.090156,-26.649742,-50.129013,-72.259769,-88.998528,-59.459667,-92.198067,-109.093323,-121.88221,-53.356934,-89.3466,-108.630638,-123.602886,-45.144653,-78.622513,-96.837902,-110.488815,-36.020622,-62.218494,-76.638393,-88.511467,-18.433733,-18.264969,-5.469481,5.116516,9.547972,23.625399,30.730957,35.783005,27.495915,40.306099,46.659723,51.456124,40.357538,52.642597,58.58348,63.172277,48.594795,60.337192,64.477804,67.282693,17.829094,36.639977,48.063927,55.060403,72.131849,99.76974,112.011566,120.250282,74.789265,105.762356,115.961184,124.22645,72.293701,96.134524,103.629913,110.250222,65.644324,81.24097,87.360142,93.286498,-21.082129,-33.464524,-43.323335,-50.974564,-31.007528,-42.75187,-50.189998,-53.667711,-25.379247,-38.831283,-45.532416,-48.025227,-20.141727,-30.98012,-34.992437,-36.349971,-15.341237,-23.695111,-27.199147,-28.352384,34.63191,298.901835,-22.891866,-36.944652
59,0.303955,0.158328,2.842165,6.090156,-26.16806,-49.661064,-71.610146,-88.207741,-59.349518,-91.918602,-109.063168,-121.970329,-53.693962,-89.459324,-109.285126,-124.694309,-45.736198,-78.836803,-97.298985,-111.133461,-36.510544,-62.057934,-76.31115,-88.297005,-18.350617,-18.398412,-5.906365,4.068796,9.426139,23.322019,30.14087,34.934431,26.932319,39.378114,45.746249,50.643983,39.621781,51.76747,57.833213,62.476906,47.827176,59.575748,63.990223,67.090588,22.765674,45.368957,60.507831,70.845345,75.647776,104.908292,120.494442,132.137432,76.662344,109.904799,124.61044,137.003476,73.952694,101.88728,115.458927,126.662987,68.098975,88.401514,99.472822,109.413978,-16.997903,-25.882469,-33.484324,-39.679163,-19.533302,-27.776334,-33.559375,-36.617652,-15.4842,-25.162629,-31.540586,-34.401348,-12.810497,-20.845534,-24.758483,-26.761442,-10.726337,-17.190525,-20.243809,-21.728267,34.488802,299.189793,-20.496765,-30.724866
60,0.016022,0.642637,2.842165,6.090157,-25.534859,-49.234543,-71.382408,-87.762108,-59.986668,-92.586823,-109.539757,-122.136383,-54.150352,-89.999256,-109.693279,-124.732304,-45.926743,-79.048977,-97.279301,-110.708656,-36.429977,-62.147484,-76.345196,-88.038712,-18.809361,-19.068527,-6.903696,3.096783,9.200503,22.962632,29.681879,34.36608,26.528039,38.856076,45.385256,50.479603,39.117774,51.180532,57.123392,61.728305,47.262345,58.729397,63.07255,66.178225,27.702255,54.097939,72.951736,86.630287,79.163704,110.046844,128.977318,144.024582,78.535423,114.047241,133.259697,149.780502,75.611687,107.640038,127.287941,143.075752,70.553627,95.562057,111.585503,125.541458,-12.913678,-18.300414,-23.645313,-28.383762,-8.059077,-12.800799,-16.928752,-19.567594,-5.589153,-11.493975,-17.548757,-20.77747,-5.479268,-10.710949,-14.524531,-17.172913,-6.111438,-10.68594,-13.288473,-15.104151,34.462194,301.588117,-17.697229,-22.879022
61,0.948257,0.942867,-3.519402,3.110677,-25.455208,-49.480019,-72.366772,-89.695187,-59.304886,-92.895699,-110.120029,-122.727871,-54.007301,-90.997353,-111.026974,-126.080589,-46.323967,-80.833225,-99.482174,-112.653866,-37.440491,-63.966637,-78.1604,-89.188042,-19.405746,-19.48843,-7.36843,2.320148,8.009584,21.488896,28.25526,33.154599,25.653282,37.710174,44.063303,49.210324,38.355157,49.784047,55.573642,60.300265,46.586796,57.637341,61.710336,64.68331,30.25898,54.499397,70.525932,83.027687,74.736557,103.138275,118.961105,130.536346,72.991219,105.807152,121.812515,133.245621,68.795128,99.21627,116.302643,128.959007,62.242928,85.74852,99.742813,111.123161,-15.600315,-23.514927,-28.423221,-34.707622,-11.839376,-25.86629,-34.66134,-40.163209,-8.410066,-23.915965,-34.269256,-40.652396,-9.252682,-22.463225,-32.42017,-38.584189,-11.967322,-23.181784,-29.877412,-34.931621,35.43417,303.165006,-21.192913,-19.134322
62,0.050926,-1.064639,-4.819164,1.854025,-25.641174,-49.52877,-72.28323,-89.371433,-58.961849,-92.711678,-109.864769,-122.233543,-53.777733,-91.060123,-111.18988,-126.257515,-46.003876,-80.992069,-99.770279,-113.011723,-36.958351,-63.830509,-78.127842,-89.575596,-18.940889,-18.693702,-6.531156,3.052817,8.031073,21.815927,28.692699,33.407961,25.710587,37.981196,44.594604,49.634364,38.670393,50.246001,56.061285,60.566286,47.336137,58.586012,62.809246,65.864904,33.536282,57.904415,72.907391,84.980793,68.763714,94.79147,108.492336,116.761036,64.892406,94.325466,107.863255,116.345844,58.046436,85.39484,100.602436,110.998592,48.5079,69.468555,83.516521,95.142574,-5.558432,-14.750136,-22.532262,-31.397985,-13.123352,-30.461663,-41.156125,-49.082932,-12.06708,-31.366523,-43.591499,-52.241219,-13.978286,-30.367803,-42.632577,-51.614668,-17.526372,-31.675152,-39.055715,-45.235079,34.774246,301.28114,-26.722927,-18.099524
63,1.618996,-0.23743,-2.656975,1.035987,-25.766029,-50.198364,-73.11058,-89.972019,-59.706001,-93.175163,-110.459175,-123.145409,-54.338608,-91.125927,-111.324463,-126.738167,-46.511078,-81.170254,-99.852505,-113.150253,-37.512131,-64.350986,-78.649235,-90.159645,-18.846411,-18.63399,-6.45156,3.379353,8.275605,22.216007,29.200535,34.185707,25.76079,38.303287,45.026363,50.235133,38.627414,50.440577,56.350338,61.107405,47.273645,58.670795,62.909282,66.102705,28.707333,50.222225,63.371029,73.622074,55.945072,78.092022,87.072773,91.633701,52.516994,77.473927,88.129749,93.583546,47.90823,71.749363,83.875523,91.681767,41.28931,60.56036,71.58926,80.139942,-7.053503,-15.703377,-23.865454,-32.369504,-13.879547,-23.722007,-31.959234,-37.91182,-12.774555,-24.815237,-34.810251,-42.90607,-13.461034,-23.919207,-33.475485,-41.216794,-14.495261,-22.793189,-28.157786,-33.515499,35.904522,298.342098,-29.868622,-19.765149
64,1.227722,-0.454298,-23.084593,-0.305472,-25.339851,-49.772072,-72.953568,-90.224934,-59.384537,-93.023643,-110.56818,-123.521805,-53.971596,-91.174107,-111.540184,-126.962357,-46.214104,-81.174202,-100.026054,-113.382568,-37.334175,-64.438477,-78.896313,-90.394993,-18.852895,-18.384086,-6.070065,3.728613,8.880141,22.713284,29.823226,35.115669,26.404291,38.939872,45.666097,51.00405,39.093013,51.212642,57.218179,62.265472,47.423822,58.836287,63.137635,66.587198,29.211931,51.509743,65.144978,75.274701,60.888105,84.376288,93.198424,96.687613,57.481284,84.473477,94.555693,98.871861,52.598634,77.862682,88.74135,94.713392,45.886874,65.921774,75.6319,82.161169,-4.481104,-12.477072,-19.59305,-26.189947,-14.949991,-23.646324,-30.663595,-35.527474,-13.750072,-24.33451,-32.424979,-39.011594,-13.332084,-22.137384,-29.368056,-35.375283,-12.419497,-19.33762,-23.507216,-27.484591,35.627489,293.120391,-54.45797,-24.83803
65,0.917473,0.211989,-23.084593,-0.305471,-25.996857,-50.385475,-73.289795,-90.174122,-59.434204,-92.910404,-110.240993,-123.20549,-53.938065,-91.07357,-111.423626,-127.085381,-46.043472,-80.957222,-99.710026,-113.280602,-37.052422,-64.161987,-78.601284,-90.311508,-18.621022,-18.278245,-6.034127,3.812162,8.465364,23.004004,30.026755,34.921834,25.942336,38.882814,45.722784,50.991761,38.733193,51.080126,57.236457,62.172723,47.210413,58.817206,63.158754,66.440603,29.71653,52.797261,66.918927,76.927328,65.831137,90.660553,99.324074,101.741524,62.445574,91.473027,100.981636,104.160176,57.289038,83.976002,93.607178,97.745018,50.484438,71.283188,79.67454,84.182396,-1.908706,-9.250768,-15.320648,-20.010391,-16.020435,-23.570642,-29.367956,-33.143129,-14.72559,-23.853783,-30.039708,-35.11712,-13.203134,-20.355561,-25.260627,-29.533771,-10.343735,-15.882052,-18.856647,-21.453684,36.439648,291.400966,-77.647877,-27.074915
66,1.286659,-0.572612,-23.084592,-0.305472,-26.267395,-50.800438,-73.771534,-91.208382,-58.723984,-91.552792,-109.383545,-123.288517,-53.361053,-89.821072,-110.615673,-127.050133,-45.786896,-80.203915,-99.348564,-113.626328,-37.14386,-63.866959,-78.529816,-90.739403,-17.930591,-17.444491,-4.991965,4.340498,9.440588,24.017576,31.030385,35.944668,26.816537,39.836241,46.314847,51.34485,39.612087,52.043062,58.156291,63.015431,48.045402,59.968295,64.578519,67.964726,30.221128,54.084777,68.692874,78.579955,70.774168,96.944818,105.449724,106.795434,67.409863,98.472576,107.407579,109.44849,61.979441,90.089321,98.473005,100.776643,55.082001,76.644601,83.717179,86.203622,0.663693,-6.024463,-11.048245,-13.830834,-17.090878,-23.494959,-28.072316,-30.758783,-15.701107,-23.373056,-27.654436,-31.222645,-13.074183,-18.573737,-21.153198,-23.692259,-8.267971,-12.426483,-14.206076,-15.422775,37.898026,289.15799,-100.56075,-29.050752
67,-0.852928,0.502093,-23.084593,-0.305472,-25.93277,-50.045586,-72.554512,-89.853573,-58.842659,-91.737156,-109.053898,-122.364807,-53.186646,-89.505787,-109.649906,-125.383301,-45.363922,-78.91119,-97.691689,-111.75087,-36.445541,-62.578354,-77.211456,-89.433918,-18.623739,-18.024513,-5.249464,3.770851,9.440465,23.889258,31.229962,36.545129,27.043161,40.240335,47.054987,52.503905,39.750284,52.42752,58.714638,63.739825,47.747395,59.562163,64.119281,67.47733,30.725727,55.372295,70.466824,80.232582,75.717201,103.229084,111.575375,111.849346,72.374153,105.472126,113.833523,114.736805,66.669846,96.202641,103.338833,103.80827,59.679565,82.006016,87.759819,88.22485,3.236092,-2.798158,-6.775842,-7.651277,-18.161321,-23.419276,-26.776677,-28.374438,-16.676625,-22.892329,-25.269164,-27.32817,-12.945233,-16.791913,-17.045769,-17.850747,-6.192208,-8.970915,-9.555506,-9.391867,37.763643,287.963259,-122.926798,-31.053047
68,-0.401001,0.539328,-27.297192,-3.382456,-26.207771,-50.490646,-72.888622,-90.078106,-59.0728,-91.829567,-109.098587,-122.308044,-53.343201,-89.466133,-109.413986,-124.965649,-45.567513,-79.170341,-97.765503,-111.644955,-36.706696,-63.00642,-77.55518,-89.578514,-19.035861,-18.389458,-5.41088,3.993893,9.423113,23.669983,30.860448,35.932626,27.328818,40.240582,46.852878,52.091351,40.093801,52.532125,58.815785,63.779037,48.085849,59.892033,64.516892,67.913288,31.600113,56.7556,72.561579,85.02491,58.826809,74.388943,79.5397,80.058861,48.45191,66.663408,71.629515,71.933298,36.760941,52.746906,58.277922,59.62781,25.439158,36.176891,40.88831,42.238083,0.446116,-8.082696,-15.359658,-19.244824,-28.068263,-35.647571,-33.117872,-30.010731,-27.431076,-34.594078,-30.366027,-27.599902,-23.145227,-29.675796,-25.435473,-22.650915,-15.26978,-19.464285,-18.525015,-17.338203,38.28126,288.265481,-149.305372,-34.67261
69,-0.81356,-0.746995,-27.297192,-3.382456,-26.325531,-50.477943,-72.523899,-89.542122,-59.310493,-91.711521,-108.673496,-121.692009,-53.366432,-88.879738,-108.608894,-123.921432,-45.212975,-78.317986,-96.866112,-110.770226,-35.790596,-61.689434,-76.280079,-88.499737,-18.515182,-17.762877,-4.924657,4.096769,9.94935,24.527387,31.905141,37.218888,27.718401,41.11892,47.970622,53.386504,40.541183,53.347416,59.987005,65.210102,48.720952,60.846633,65.651927,69.066786,32.474499,58.138905,74.656334,89.817238,41.936417,45.548801,47.504025,48.268375,24.529667,27.854691,29.425507,29.129791,6.852036,9.291172,13.21701,15.44735,-8.80125,-9.652233,-5.9832,-3.748684,-2.34386,-13.367235,-23.943475,-30.838372,-37.975207,-47.875866,-39.459069,-31.647024,-38.185529,-46.295828,-35.462891,-27.871635,-33.345222,-42.559681,-33.825178,-27.451084,-24.347354,-29.957657,-27.494525,-25.28454,39.708796,289.468981,-174.361467,-36.104571
70,-0.302811,0.028035,-19.324379,-8.846117,-26.302643,-50.709915,-72.678223,-89.463272,-59.753151,-92.474155,-109.601898,-122.541332,-53.343201,-89.246407,-108.908958,-124.080963,-44.839668,-78.186836,-96.6152,-110.347538,-35.249176,-61.410656,-75.934467,-87.801018,-18.364326,-17.34038,-4.388478,5.058903,10.281197,24.702511,32.077795,37.586488,27.969046,41.388522,48.471048,54.193211,40.668821,53.577745,60.289397,65.706267,48.692114,60.83243,65.594807,69.042271,27.687035,50.959854,67.84544,83.875008,43.1147,50.874481,48.800354,45.823002,30.996208,39.010334,33.817177,27.773438,19.211025,26.832619,21.28767,15.230541,10.107479,13.265705,9.496765,5.199738,3.433786,-3.004219,-11.201,-20.358956,-21.886631,-23.653681,-17.877393,-13.587684,-24.990546,-26.217156,-19.611468,-15.409692,-25.904792,-26.761826,-20.709112,-17.071797,-25.32372,-26.559902,-24.322901,-22.220978,40.604553,290.063344,-192.487278,-44.384359
71,-0.316429,-0.775462,-29.869737,13.238069,-26.402321,-50.4776,-72.195053,-88.549976,-59.640999,-92.0854,-109.072552,-121.828537,-53.444138,-88.682499,-108.103638,-123.111877,-44.997711,-77.726955,-95.887928,-109.301834,-35.35675,-60.993462,-75.149975,-86.818428,-17.948869,-16.720468,-3.677793,5.900808,10.588096,25.336379,32.868386,38.554178,28.047222,41.901236,49.273556,55.264396,40.741378,53.907924,60.934936,66.59609,49.013896,61.326187,66.124502,69.44087,33.320961,56.52729,73.849039,90.168972,42.355156,48.620481,50.740728,52.358065,26.705131,32.296543,32.443285,30.798969,12.645464,17.494097,17.674684,16.320848,1.349916,4.272566,5.810423,5.900659,-3.615301,-10.9119,-17.433098,-25.592026,-20.882646,-21.992039,-19.655156,-18.420163,-22.66961,-21.869788,-19.290304,-16.992679,-23.170684,-23.18643,-20.705885,-17.989871,-22.102587,-24.426672,-24.088218,-21.867596,41.022835,288.848343,-221.622305,-31.58583
72,-0.527916,0.497523,-29.869738,13.238069,-26.424637,-50.354805,-71.956387,-88.099079,-59.1782,-91.614246,-108.504868,-121.021156,-53.100128,-88.600502,-108.068619,-122.924023,-44.812546,-77.678661,-95.666714,-108.776779,-35.371628,-61.022072,-74.998856,-86.329594,-18.07132,-17.056761,-4.090162,5.393219,10.098724,24.883255,32.620273,38.417093,27.690922,41.388214,48.820802,54.885125,40.456215,53.424233,60.310825,65.879539,48.698227,60.843422,65.597648,68.935258,38.954887,62.094727,79.852638,96.462936,41.595612,46.366482,52.681103,58.893127,22.414055,25.582752,31.069393,33.824501,6.079903,8.155575,14.061699,17.411156,-7.407646,-4.720573,2.124081,6.601582,-10.664389,-18.81958,-23.665197,-30.825096,-19.878662,-20.330397,-21.43292,-23.252643,-20.348675,-17.52242,-18.96914,-18.575666,-20.436577,-19.611035,-20.702659,-18.907945,-18.881454,-22.293442,-23.853536,-21.514214,41.10652,288.859582,-250.880442,-18.834045
73,0.499763,0.246137,16.418552,-15.398484,-26.445923,-50.541115,-72.514572,-89.083099,-59.363365,-91.656418,-108.607292,-121.304283,-53.450203,-88.863373,-108.562202,-123.764019,-45.033989,-78.051739,-96.274567,-109.759426,-35.059433,-60.758858,-74.991016,-86.731281,-18.247617,-17.946707,-5.10466,4.784916,9.866604,24.771301,32.434774,38.122543,27.407797,41.260576,48.737254,54.717472,40.114611,53.276341,60.345899,66.063987,48.298085,60.554986,65.657052,69.374056,24.99939,39.168491,48.933048,58.8204,16.438751,11.001663,6.912174,1.909447,0.796223,-9.972439,-20.368938,-31.352863,-10.57291,-21.448116,-30.785809,-38.523502,-17.505913,-27.032032,-33.989525,-40.038757,2.743787,1.704744,-2.212548,-7.982908,-3.151895,-3.095703,-3.706661,-2.694479,-6.337723,-3.709008,-2.808378,-1.481825,-7.769406,-4.803626,-4.627236,-3.518785,-8.462029,-12.032963,-10.651637,-6.643789,42.175655,288.790977,-233.892517,-34.547271
74,0.2211,-0.162959,-41.295147,5.888581,-26.57959,-50.580254,-72.558517,-89.489307,-59.666519,-91.761761,-108.808994,-121.545811,-53.71891,-88.980846,-108.729229,-124.118729,-45.321465,-78.219795,-96.454468,-109.968624,-35.339928,-60.623245,-74.708004,-86.418571,-18.150175,-17.675314,-4.643446,5.036302,10.00579,25.04677,32.751307,38.479275,27.405265,41.183635,48.644875,54.701911,39.953072,53.058671,60.181952,65.99248,48.001374,60.280073,65.450991,69.248826,28.767757,48.577194,62.369614,75.989857,19.465542,16.724854,17.502995,19.079132,1.220226,-7.052364,-10.480843,-14.011459,-12.703571,-21.924477,-26.348877,-30.223904,-22.381325,-30.669651,-35.694752,-40.309467,-4.309623,-9.145946,-12.974657,-19.341557,-17.783532,-11.706921,-9.900135,-10.766061,-17.490835,-7.744768,-5.917357,-4.550604,-14.723799,-6.577222,-5.231063,-4.654962,-9.533739,-9.679809,-8.763341,-7.493721,42.799959,288.301265,-274.78446,-28.985443
75,-0.450211,0.044831,-12.466106,-1.882863,-26.227798,-50.346222,-72.460442,-89.227581,-59.353981,-91.670837,-108.81712,-121.476002,-53.307037,-88.977642,-108.716011,-123.96286,-44.935112,-77.951488,-96.240807,-109.62038,-35.196075,-60.506744,-74.688148,-86.292343,-18.317025,-17.915771,-5.002092,4.971896,9.785835,24.939324,32.901237,38.80754,27.532718,41.318991,48.990554,55.179427,40.240891,53.250468,60.411848,66.13111,48.270976,60.46483,65.597463,69.280134,25.648785,43.22073,56.244335,68.846226,18.215389,9.812737,6.479702,2.913837,2.045345,-10.235596,-15.010643,-19.595947,-9.838715,-22.030678,-28.421803,-33.829823,-18.072052,-30.346756,-37.012424,-43.783207,-5.070048,-10.366536,-15.273779,-23.850479,-13.317372,-8.167449,-6.884924,-9.045077,-14.522369,-9.458681,-8.45604,-7.710126,-14.628271,-11.687408,-11.051903,-11.344786,-12.063468,-17.201411,-19.379657,-19.830219,42.657824,288.039567,-286.942492,-31.174834
76,0.097847,-0.860924,-7.529182,-7.545159,-26.364899,-50.628433,-72.66489,-89.609299,-59.282799,-91.393433,-108.521862,-121.313381,-53.150024,-88.510609,-108.378754,-123.884411,-44.557915,-77.623386,-96.035671,-109.637718,-34.501305,-59.993591,-74.296074,-86.19936,-17.620851,-16.879413,-4.026806,5.99368,10.505227,25.827172,33.652554,39.443323,27.815535,41.924454,49.606329,55.770687,40.312768,53.803937,61.103391,66.984562,48.402072,60.908877,66.125552,69.935614,21.057987,37.557392,50.149212,59.583149,16.51165,13.284245,12.335472,11.369534,0.957699,-6.912975,-9.709911,-12.845821,-11.4184,-21.144333,-27.571621,-33.609695,-20.613842,-34.397221,-43.150463,-52.0891,-3.952983,-9.105623,-14.419987,-22.684415,-9.952407,-7.077246,-5.367222,-6.755927,-12.604988,-9.068202,-5.744764,-5.267156,-13.370631,-12.14609,-9.495361,-9.837335,-11.672403,-17.010664,-19.135773,-20.435187,43.148861,287.069854,-294.078484,-38.828783
77,-0.057449,-0.022971,-10.326977,2.576629,-26.005898,-50.175247,-72.378101,-89.448166,-58.780975,-91.217194,-108.312035,-121.025505,-52.635956,-88.532181,-108.470421,-123.947468,-44.081612,-77.462883,-96.056614,-109.745636,-34.195862,-60.04715,-74.551163,-86.460228,-17.78134,-16.740537,-3.812223,6.106498,10.341465,25.905162,33.785256,39.562686,27.708089,42.024984,49.774908,56.072523,40.199703,53.842592,61.207996,67.157772,48.234111,60.916905,66.139014,70.010518,22.681561,37.68425,49.360085,58.175526,21.284008,17.067089,16.03466,14.3046,4.621582,-3.660336,-8.075237,-11.905174,-8.792782,-17.836533,-25.578632,-32.33448,-18.330288,-30.139446,-40.494518,-50.181599,-5.767797,-11.475079,-15.480242,-24.428494,-10.134817,-3.129264,-3.703481,-5.559637,-12.474973,-5.97074,-6.426829,-7.89195,-15.492437,-14.398158,-13.087382,-12.363945,-18.242924,-21.157142,-23.309669,-24.646288,44.342279,287.005525,-303.154593,-36.293511
78,-0.014992,0.042237,-3.137341,1.737163,-26.12915,-50.184631,-72.214737,-89.471912,-58.771477,-91.285915,-108.271923,-120.907459,-52.652779,-88.622475,-108.419781,-123.806877,-44.167442,-77.643585,-96.165447,-109.735508,-34.380226,-60.414162,-74.769802,-86.430416,-17.953809,-16.859653,-3.760044,6.157319,10.517454,25.774684,33.540292,39.315129,28.016532,42.057897,49.699449,55.942045,40.673576,53.998142,61.187742,67.00988,48.817467,61.234055,66.377432,70.245601,21.429749,35.639477,47.443142,56.99398,16.526241,9.420605,5.922375,0.167828,-0.021687,-13.551121,-20.67318,-28.901482,-12.604809,-25.441818,-32.840881,-41.317348,-20.016747,-35.066128,-45.309963,-55.889111,-4.576941,-10.758466,-16.67082,-25.107501,-15.29252,-14.950516,-16.886453,-17.57815,-18.668168,-17.027059,-18.595426,-17.999689,-19.584205,-18.727912,-18.117015,-16.054212,-17.837131,-23.657941,-25.668164,-25.263267,44.975109,286.934543,-305.644112,-34.669568
79,-0.082512,-0.721245,-5.760956,5.038031,-26.323814,-50.486526,-72.420959,-89.641972,-59.036064,-91.278248,-108.069534,-120.729389,-53.050919,-88.434849,-108.222485,-123.57336,-44.517746,-77.564678,-96.130085,-109.829178,-34.408264,-59.87606,-74.207039,-86.219101,-17.199281,-16.042695,-3.277588,6.080254,10.97348,26.182175,33.626619,39.11481,27.981273,42.522136,50.278544,56.512495,40.453992,54.559144,61.949063,67.88371,48.704464,61.541881,66.958812,71.081393,20.11076,32.576637,44.521408,54.254379,15.755825,6.071835,3.773518,1.737843,0.29211,-10.870857,-13.763466,-15.787582,-12.63216,-22.514534,-25.99474,-29.029713,-22.2682,-34.427376,-46.093941,-58.21043,-3.0681,-11.633839,-20.123626,-30.160074,-22.085158,-20.095097,-22.079601,-25.449166,-23.565377,-19.982341,-21.963078,-22.580026,-23.436844,-20.864229,-19.799899,-17.327227,-21.238344,-23.25962,-26.04336,-26.292986,45.72278,286.160224,-310.574884,-29.684612
80,0.597954,-0.431018,-1.503983,0.538649,-26.581078,-51.02829,-72.569675,-89.464531,-59.761505,-91.248207,-108.234329,-121.263084,-53.905907,-88.516102,-108.517685,-124.430065,-45.539246,-78.004131,-96.427517,-110.28059,-35.410194,-60.174179,-74.243889,-86.186256,-17.138518,-15.819653,-2.781547,6.777231,11.377019,26.487407,34.107037,39.64537,28.333003,42.806188,50.514431,56.825508,40.617321,54.71951,62.17791,68.281568,48.694708,61.401152,66.992837,71.375943,20.196819,33.595047,45.629253,55.93071,15.576382,7.276096,4.463425,2.303925,0.579014,-8.139954,-10.438843,-12.090454,-12.299366,-20.371284,-22.230434,-24.213467,-22.39809,-33.611298,-44.616795,-56.206169,-3.930445,-11.655051,-19.319234,-28.458511,-17.380147,-17.314846,-20.545906,-24.307093,-18.668662,-19.437764,-23.135008,-23.904202,-18.572023,-20.105749,-20.078393,-17.949332,-16.102809,-19.315591,-23.369505,-24.832311,46.836576,285.550223,-311.563025,-29.324946
81,0.16468,-0.135913,-0.062313,1.750192,-27.071342,-51.516495,-73.372536,-90.344009,-59.304771,-91.242828,-108.421898,-121.466904,-53.206215,-88.542709,-108.513908,-124.323978,-44.900436,-77.915382,-96.246758,-109.790783,-35.195847,-60.575294,-74.670582,-86.196556,-17.517048,-16.006818,-2.586787,7.324402,11.228818,26.902308,34.8021,40.421079,28.541843,43.029416,50.663867,56.811985,41.032964,54.813926,62.131659,68.005173,49.107694,61.650623,67.19334,71.398049,20.349197,33.896599,46.267719,57.435551,14.104843,6.049976,4.493408,2.717171,-0.522594,-8.58633,-9.087696,-9.98148,-12.866993,-20.383015,-19.991169,-20.651608,-22.382984,-33.439121,-44.285202,-55.623436,-2.949663,-10.577321,-18.567392,-28.198727,-17.301941,-16.659397,-20.428827,-24.243088,-18.70031,-18.325176,-22.419074,-23.343693,-18.387204,-18.31826,-18.580946,-16.741648,-15.49395,-17.684484,-21.11614,-22.38437,47.591171,285.285576,-311.035423,-27.703489
82,-0.250397,0.445653,-0.869007,0.59725,-26.774139,-51.09787,-73.191948,-89.975624,-59.201546,-91.257992,-108.225803,-120.957756,-53.370552,-88.884659,-108.880177,-124.368038,-45.23735,-78.200169,-96.600437,-109.963245,-35.805931,-61.284542,-75.394478,-86.81076,-17.701126,-16.256907,-2.931848,6.9384,10.506215,26.165193,34.08209,39.815122,27.919893,42.575798,50.287621,56.423266,40.548593,54.366051,61.633765,67.373713,48.693905,61.296732,66.726384,70.712188,22.023296,36.682434,49.525223,59.656792,19.707012,13.17873,11.554756,10.54121,4.359283,-3.175392,-5.607491,-7.304478,-9.048672,-16.910992,-19.466171,-22.086296,-19.616261,-29.502754,-39.865437,-50.505924,-4.294155,-11.102107,-17.455761,-27.095834,-14.084621,-11.427006,-15.189582,-19.491332,-15.606212,-15.63789,-18.874106,-20.208069,-16.516105,-17.297248,-17.002358,-15.737216,-15.38845,-16.752949,-19.769271,-20.88578,47.930689,285.642617,-311.314516,-27.194851
83,-0.35511,-0.424102,2.746983,0.648071,-27.012749,-51.109772,-72.990646,-89.471798,-59.122925,-91.263885,-108.377151,-121.148643,-53.129539,-88.554211,-108.265057,-123.627319,-44.869194,-77.771358,-95.807133,-108.797379,-35.295982,-60.460968,-74.315701,-85.575542,-17.72453,-16.294884,-2.895106,7.603452,10.837877,26.613378,34.673721,40.61726,28.334115,42.951549,50.760135,57.219537,40.927679,54.561429,61.851497,67.84845,48.983885,61.515637,67.079843,71.316045,22.10741,38.290215,51.06308,61.058979,18.532047,15.183334,13.675804,10.538521,2.446976,-5.075397,-8.041077,-11.838226,-11.47007,-19.676857,-23.648815,-28.288879,-21.674652,-33.949871,-42.70174,-51.230164,-5.212352,-12.049574,-17.814901,-26.547644,-14.041179,-17.212773,-21.425293,-24.558664,-17.372027,-17.056483,-20.787597,-22.863615,-17.912776,-18.798431,-20.061258,-19.630271,-15.58355,-19.302376,-22.433369,-23.2021,48.099375,285.195482,-308.043737,-26.569813
84,0.219955,0.281952,2.634029,2.502343,-26.856079,-51.048317,-72.853432,-89.247952,-59.272957,-91.444016,-108.578739,-121.220455,-53.236313,-88.704529,-108.328114,-123.559456,-45.003777,-77.965908,-95.89016,-108.784847,-35.459404,-60.624275,-74.31942,-85.35862,-17.805855,-16.453706,-2.993536,7.483532,10.624591,26.375392,34.435302,40.440962,28.077789,42.729865,50.51264,57.02984,40.586014,54.3043,61.621107,67.664064,48.570342,61.259064,66.779736,70.938071,21.497555,36.151829,49.320889,60.603962,16.164207,6.441879,5.32362,4.040737,0.837307,-8.80394,-10.085506,-11.357803,-11.910152,-21.874294,-23.203411,-24.35051,-20.99659,-33.347912,-43.004723,-52.39254,-5.387229,-13.308758,-19.972955,-28.361501,-19.613722,-16.570538,-20.587865,-24.294557,-20.306839,-16.934526,-20.481222,-21.028393,-19.833954,-16.051402,-15.492653,-13.327869,-17.129256,-19.707891,-24.039868,-25.638833,48.80722,285.466458,-304.921818,-24.078446
85,0.704613,0.096269,0.241814,0.955155,-26.983566,-50.632668,-72.366486,-88.887863,-59.439468,-91.388741,-108.487873,-121.054573,-53.553543,-88.688793,-108.224258,-123.472424,-45.286331,-77.991085,-95.81892,-108.873081,-35.402069,-60.574722,-74.357014,-85.776558,-17.682354,-17.263192,-3.790734,6.751728,11.077406,26.087697,34.02386,40.018898,28.696651,42.440564,50.046733,56.439012,41.261008,54.126891,61.189595,66.962209,49.347286,61.364966,66.635117,70.475683,22.043037,36.126022,48.504696,60.721264,18.165722,9.111729,5.760784,2.932549,2.017708,-5.973473,-8.755131,-11.008472,-11.650715,-19.767895,-22.122059,-24.473476,-22.047729,-33.19416,-43.493214,-53.780823,-5.213711,-13.796493,-21.136024,-30.322632,-18.622627,-17.003964,-20.163486,-23.767054,-19.346373,-17.591488,-21.44916,-22.596514,-18.73631,-17.029961,-17.427911,-15.55919,-16.080487,-17.932227,-21.155753,-22.049003,49.999781,285.544341,-304.192057,-23.141677
86,-0.492897,0.589161,2.34129,-1.033486,-26.395912,-50.006104,-71.670113,-88.286247,-59.193192,-91.516571,-108.289833,-120.412331,-53.387032,-88.83831,-108.260708,-123.142433,-45.193634,-77.971058,-95.74894,-108.602543,-35.490074,-60.858765,-74.578915,-85.647068,-18.355186,-17.748427,-4.177477,6.072412,10.672385,25.511812,33.356832,39.364344,28.418589,42.072779,49.63072,55.996941,41.00462,53.839073,60.759997,66.486669,48.929853,60.908383,66.037126,69.926414,22.630463,36.814156,48.421383,59.226322,15.911808,8.529682,7.319584,5.7094,-0.035648,-7.448673,-9.234753,-11.291142,-13.284531,-21.327095,-23.038216,-24.693031,-23.134918,-34.589653,-44.436665,-53.700256,-4.295359,-12.356813,-19.456937,-28.494573,-17.024897,-15.693095,-19.892123,-23.587052,-18.094847,-15.897891,-20.232152,-21.846123,-17.4829,-14.94042,-14.626295,-12.886971,-14.697493,-17.318212,-21.349186,-23.116051,49.949312,286.066842,-301.408339,-24.241822
87,0.033875,-0.316965,-1.400814,1.714809,-26.431732,-50.078316,-71.736202,-88.208828,-59.600143,-91.489677,-108.299274,-120.520592,-53.703232,-88.736916,-108.087044,-122.922306,-45.362206,-78.051567,-95.815315,-108.665829,-35.444756,-60.652313,-74.335213,-85.546303,-18.183953,-17.546935,-4.025695,6.440197,10.476204,25.812475,33.846512,39.945415,28.081679,42.107544,49.698646,55.878689,40.675367,53.792081,60.74036,66.351312,48.752074,61.07585,66.292958,70.173353,22.497654,37.011223,50.336781,62.544765,19.967251,10.515575,8.153,6.95715,4.082909,-3.982944,-5.366192,-5.749855,-9.727192,-17.706356,-18.437061,-19.177723,-20.551472,-31.401043,-41.258984,-51.192856,-5.025032,-13.822428,-21.91343,-31.410736,-20.058757,-17.240283,-19.283017,-22.178463,-20.780619,-19.310651,-20.535995,-19.939579,-20.300016,-19.074455,-18.24913,-15.917589,-17.693747,-19.063464,-21.729352,-22.298413,50.215559,285.72669,-302.57678,-22.550201
88,0.915298,-0.442874,4.402885,-2.453714,-26.635323,-50.480461,-72.294044,-88.9571,-59.538574,-91.716785,-108.848305,-121.360874,-53.371468,-88.742695,-108.489532,-123.831768,-44.77272,-77.85038,-95.90229,-109.129658,-34.667931,-60.335426,-74.425793,-86.104317,-17.801347,-17.08319,-3.707989,6.870721,10.877829,26.295363,34.166441,40.127579,28.243589,42.276308,49.881859,56.235174,40.66561,54.01432,61.048125,66.84019,48.653458,61.223063,66.497228,70.355208,22.075253,37.070503,48.729973,60.182476,14.154167,6.033897,4.977722,2.750759,-1.685886,-9.999104,-11.265736,-13.277321,-14.726944,-22.894535,-25.182896,-27.346458,-24.024525,-35.55994,-44.279938,-52.157993,-5.649329,-13.088494,-19.499761,-27.804235,-16.868545,-15.140769,-18.530403,-21.339615,-18.321656,-14.726671,-18.948639,-20.225884,-17.621067,-14.369784,-14.861997,-13.327067,-14.474636,-17.710234,-21.400377,-22.163489,51.317797,285.281747,-297.986956,-25.005984
89,-0.306816,-0.377604,-2.268448,4.599294,-26.18866,-49.898529,-71.448212,-88.120193,-59.428368,-91.322708,-108.031311,-120.52351,-53.537521,-88.614864,-108.392544,-123.659019,-45.055847,-77.681694,-95.769653,-109.167824,-34.962044,-60.075874,-73.912411,-85.544815,-17.124377,-16.253017,-3.185272,6.571479,11.078888,26.627086,34.356324,40.062124,28.05772,42.623284,50.32708,56.538801,40.381373,54.401742,61.572139,67.320855,48.392748,61.276972,66.617332,70.578313,23.040104,37.824554,51.098671,63.93837,20.426846,10.906734,7.746563,4.782543,3.99313,-4.951458,-7.818375,-10.380135,-9.704533,-18.579597,-21.814213,-25.502415,-20.199451,-29.788456,-38.418045,-47.983074,-6.957975,-15.360137,-22.775003,-32.315349,-19.920282,-18.185589,-21.001624,-24.810204,-20.28711,-19.120428,-22.669502,-23.644511,-19.719407,-19.265542,-20.004046,-18.110192,-17.525601,-20.427839,-23.963637,-24.329971,51.107368,284.920955,-300.159016,-20.389878
90,0.289536,-0.1637,3.748798,-1.719656,-26.092415,-50.051079,-71.725674,-88.600044,-59.384079,-91.41552,-108.458118,-121.05629,-53.349495,-88.613319,-108.450851,-123.710461,-44.898834,-77.841682,-96.001167,-109.273853,-34.930687,-60.219955,-74.111423,-85.599346,-17.131726,-16.26722,-2.988226,7.085366,11.338672,26.715266,34.62642,40.681171,28.515846,42.805262,50.383273,56.58252,40.829125,54.468989,61.535829,67.299366,48.714468,61.469509,66.688716,70.610114,23.789349,39.38736,50.881462,62.512665,16.79781,9.482574,7.085552,3.994846,0.148315,-7.666168,-10.155487,-13.116817,-13.250084,-21.62344,-25.642834,-29.291439,-22.696266,-33.817291,-41.965714,-49.147911,-5.786291,-13.519018,-20.558596,-29.447228,-17.313673,-17.019062,-19.563055,-21.878449,-19.187088,-16.133499,-19.616037,-21.202899,-19.067663,-16.573347,-16.845729,-15.450231,-16.771258,-20.154192,-22.529453,-22.243239,51.555948,284.775178,-296.251173,-22.091611
91,0.509949,-0.121648,0.665874,5.458335,-26.141281,-50.099716,-72.059212,-88.898506,-58.733253,-91.352806,-108.416233,-121.106529,-52.714005,-88.469296,-108.267918,-123.400097,-44.331207,-77.713566,-96.130257,-109.516239,-34.650536,-60.443687,-74.607582,-86.248856,-17.429548,-16.608391,-3.650746,7.133099,10.894502,26.517603,34.371638,40.079167,28.160349,42.976805,50.774709,56.71516,40.582309,54.568901,61.89639,67.61701,48.606343,61.634815,67.18346,71.258246,23.793526,39.489555,52.528496,64.783115,18.045101,9.30479,6.781254,4.375191,1.720905,-6.236801,-8.321285,-10.17128,-11.371021,-19.998493,-21.188679,-22.383957,-21.247387,-32.014046,-38.754616,-44.978771,-6.209529,-15.724989,-23.550063,-33.348156,-23.225627,-23.97185,-27.19729,-30.031016,-22.514169,-22.413146,-26.362795,-27.155114,-20.489404,-20.431019,-21.401242,-19.275237,-17.161674,-21.854768,-25.443732,-25.847024,52.426214,284.63133,-295.224981,-16.655475
92,0.662384,0.161724,1.774807,1.90111,-26.690712,-50.752258,-72.855091,-90.107574,-58.87001,-91.524925,-108.582916,-121.298676,-52.584915,-88.458138,-108.040295,-123.131561,-44.052429,-77.5811,-95.859547,-109.229336,-34.426003,-60.429039,-74.534569,-86.112328,-17.459805,-16.655445,-3.666369,6.880663,10.235316,25.981054,33.818663,39.595599,27.589467,42.375294,50.012214,56.071597,40.22323,54.249589,61.363484,67.021118,48.445359,61.573744,66.988267,71.00544,25.398788,42.064075,54.992695,67.653809,19.64653,12.980919,10.744286,8.413925,2.399883,-3.701591,-6.667671,-9.535789,-11.136646,-18.504066,-21.486168,-24.046383,-21.105938,-30.972233,-37.753716,-43.520164,-6.684482,-16.352374,-24.341827,-34.86206,-23.323285,-25.090397,-29.706116,-33.055366,-22.769693,-23.243133,-28.591923,-30.727345,-20.846167,-22.341484,-23.752605,-21.987346,-17.408584,-23.130562,-26.852167,-27.153725,53.396845,284.78407,-293.141928,-14.76335
93,0.393105,-0.208469,2.643185,4.122705,-26.259842,-50.362473,-72.783337,-90.038967,-58.2621,-91.425591,-108.633156,-121.148186,-51.732674,-88.276463,-108.053741,-123.159828,-43.078308,-76.981144,-95.424099,-108.914909,-33.722191,-60.181503,-74.485245,-86.105003,-17.301724,-16.48384,-3.611041,7.462105,10.113112,26.252941,34.27648,40.066323,27.647388,42.516085,50.063097,55.782173,40.496723,54.833934,61.928747,67.269849,48.738365,62.149381,67.504315,71.18112,26.982365,44.643288,58.639698,71.284733,23.298969,18.317013,16.412315,15.785351,5.461006,1.145325,0.033245,-0.507946,-9.121227,-14.344139,-16.435719,-18.000641,-19.959641,-28.179474,-33.504696,-37.517567,-7.937768,-18.541426,-27.557264,-39.187583,-26.568393,-28.661762,-31.147988,-31.978377,-27.616328,-27.097408,-30.052567,-30.140222,-26.415746,-28.117741,-27.744892,-24.659502,-22.986189,-28.191811,-30.581768,-29.825603,54.245424,284.148828,-290.043268,-11.067418
94,2.222672,-0.012659,5.936337,3.157916,-26.834335,-51.13884,-73.793621,-91.087074,-58.617668,-91.349487,-108.656445,-121.506672,-52.00264,-87.883301,-107.859821,-123.218651,-43.25489,-76.61665,-95.317612,-109.073524,-33.811913,-59.925499,-74.160118,-85.977116,-16.742266,-15.947353,-3.338783,7.842117,9.773485,26.220892,34.340701,40.315732,26.954981,42.190845,49.998815,55.946429,39.871377,54.676655,62.204586,67.872471,48.557807,62.495245,68.250693,72.314487,26.117535,44.463043,58.9575,73.63512,24.692802,17.804775,15.584221,16.091137,5.843353,-1.741791,-0.982246,1.828423,-9.539566,-16.986351,-16.538944,-14.170132,-20.228863,-28.420143,-30.240669,-29.621658,-7.732726,-20.055268,-30.919203,-41.655192,-31.865189,-29.296495,-28.851861,-28.527332,-33.89653,-25.861073,-24.855344,-23.585354,-32.565901,-26.935252,-24.192329,-21.665688,-27.972443,-29.315854,-28.662287,-26.575834,56.801033,283.869484,-283.773994,-8.176187
95,1.890793,-0.267318,11.897278,2.259417,-27.026939,-51.265297,-73.902683,-91.913452,-58.275833,-90.404778,-108.050423,-121.435146,-51.930885,-87.127419,-107.334595,-123.317413,-43.545456,-75.858936,-94.615059,-108.74033,-34.284782,-59.34185,-73.455734,-85.531197,-16.928443,-16.306123,-4.030141,6.244449,10.51696,26.443441,34.524655,40.240335,27.754834,42.820761,50.690543,56.532873,40.392179,55.405989,63.105031,68.664791,48.494204,62.830982,69.326447,73.776119,24.895477,42.863903,56.372795,71.018143,22.434826,16.570473,18.53817,22.618618,3.9921,-2.447605,4.139729,10.644493,-11.784611,-18.04018,-10.946159,-5.60194,-23.099442,-28.781891,-25.089111,-22.153416,-7.180832,-19.811199,-32.126547,-45.096851,-35.351555,-27.057116,-21.318187,-20.67024,-37.312285,-23.270952,-15.698035,-15.672625,-34.837421,-22.932405,-15.711096,-15.917465,-28.561295,-25.358085,-21.405348,-19.668803,59.176569,283.594896,-271.391973,-5.924041
96,1.213417,-0.245273,13.415565,7.486126,-26.610947,-50.956764,-73.569374,-91.62735,-58.356743,-90.692368,-107.96299,-121.09045,-51.957207,-87.141781,-107.104683,-122.766953,-43.252487,-75.627766,-94.496555,-108.818092,-33.488617,-58.517418,-72.805195,-85.041389,-16.778822,-16.071162,-3.873109,6.459958,10.973048,26.803384,34.421532,39.703168,28.204809,42.927466,50.252671,55.661574,40.865188,55.548448,63.113305,68.583774,48.897681,63.047418,69.713992,74.499032,24.282131,41.083832,52.900887,66.073093,19.114323,17.605534,21.773758,25.827427,0.936642,0.75119,8.385887,13.235836,-14.174252,-14.570675,-6.673737,-2.628765,-25.08173,-26.546688,-21.666126,-18.693123,-10.47145,-24.693218,-38.197848,-51.171486,-38.567856,-36.653624,-30.890983,-28.938497,-38.30977,-30.993118,-26.139814,-24.055861,-33.528374,-27.406284,-23.612586,-22.715105,-26.041106,-25.653221,-24.712021,-22.785007,60.764351,283.499491,-257.602043,1.711953
97,1.562347,0.823318,11.544342,13.955871,-26.799431,-51.433983,-74.289951,-92.519875,-58.60302,-91.55674,-108.742104,-121.576195,-51.760025,-87.537975,-107.034588,-122.06646,-43.02578,-76.09766,-94.738541,-108.659306,-33.569412,-58.975067,-73.269711,-85.242577,-17.960663,-17.117646,-3.908431,6.306878,10.388087,26.056821,33.835397,39.753989,28.016409,42.468352,49.287265,54.661526,40.792075,55.125149,62.002539,67.314371,48.735216,62.509448,68.527149,73.34152,22.828388,40.549049,50.89777,61.98864,19.480305,23.053036,29.307461,35.331745,4.012299,8.391781,15.961475,20.872936,-9.954185,-5.900574,3.066387,9.047928,-21.929913,-21.673393,-14.229984,-7.858601,-10.86128,-28.715794,-42.588487,-55.490896,-45.680238,-51.915702,-43.38868,-36.932551,-42.863554,-49.222149,-41.672698,-34.322701,-36.190434,-41.754548,-37.361685,-32.721698,-27.515459,-33.027702,-32.016137,-28.798385,63.180285,284.331439,-245.204115,15.676454
98,0.386467,-0.985722,0.266819,12.602703,-26.566086,-50.872192,-73.669682,-91.842155,-57.699394,-90.869293,-108.118458,-121.090565,-51.069603,-87.218227,-107.162418,-122.605877,-42.442245,-75.763206,-94.814243,-109.13269,-32.943306,-58.542023,-73.126259,-85.442162,-16.979202,-16.097406,-3.396952,6.677257,11.691453,27.102873,34.688664,40.400022,29.089446,43.298524,50.223833,55.65719,41.686406,56.064311,63.047356,68.38642,49.48431,63.201855,69.048693,73.66503,25.502586,44.961548,55.086136,65.145435,32.631969,48.521175,58.339462,66.107769,18.941803,35.442867,43.593979,47.823601,6.261463,22.371998,27.146587,27.769032,-5.77858,8.638115,14.412632,15.622673,-11.223323,-28.372246,-41.864031,-50.872768,-53.301906,-55.466443,-44.454986,-35.526463,-52.096075,-50.018698,-38.811122,-30.945601,-44.619767,-39.183261,-27.755668,-20.51432,-34.283643,-31.773427,-23.821611,-17.878628,64.084969,283.16414,-244.419079,28.09758
99,0.204048,0.341789,9.537907,7.728712,-26.512871,-50.853996,-73.726902,-91.669464,-57.686234,-91.117458,-108.513279,-121.488533,-50.933762,-87.978573,-108.097973,-123.069191,-42.245522,-76.560574,-95.92289,-110.132275,-33.019295,-60.068779,-75.367756,-88.060226,-17.412319,-16.660632,-3.917878,6.465268,11.448156,26.638942,34.576032,40.902053,29.062708,42.934753,49.850058,55.28113,41.752973,55.653547,62.608496,67.859627,49.481284,62.684572,68.12571,72.51672,22.482891,36.886196,46.332664,58.593407,25.328293,42.804337,57.174397,68.353443,16.620712,35.363102,53.024082,64.293022,9.192524,26.466579,44.241829,54.795227,2.672997,16.518803,30.54594,40.301685,-15.66364,-30.720429,-43.252582,-50.000204,-48.17937,-53.723136,-46.551598,-38.012566,-42.995175,-49.605619,-40.612351,-30.861127,-32.483032,-38.079657,-29.18871,-20.484619,-19.479075,-20.00982,-16.996153,-12.807468,64.294195,283.066019,-234.875994,35.386382
100,-0.382919,-0.648688,17.215919,21.423287,-26.824379,-50.973244,-73.949318,-91.551933,-58.366241,-91.04908,-108.293209,-121.543121,-51.41922,-87.798615,-107.663956,-122.520161,-42.666321,-76.378899,-95.314636,-109.240608,-33.473053,-60.169716,-75.342293,-88.024635,-17.388854,-16.841499,-4.693155,6.26532,11.372573,26.833827,34.816303,41.015056,29.167251,43.451357,50.149547,55.132559,42.094144,56.523054,63.227976,68.211358,50.12355,63.481832,68.276751,71.981282,31.484013,54.462261,72.244492,81.69445,39.496479,72.816238,83.294392,85.33905,26.753483,67.657928,78.848076,79.656372,17.208195,56.243534,69.027042,71.737576,11.397858,39.915504,50.888042,55.156975,-18.863578,-35.66392,-46.646323,-55.035055,-54.403595,-41.227971,-25.388713,-17.908052,-45.196269,-28.788258,-14.448639,-6.86575,-31.304217,-17.567282,-6.207985,-0.980658,-14.23137,-3.48297,1.978576,2.981866,63.856573,282.434775,-217.714777,56.827113
101,0.393105,-0.264848,5.402069,1.607919,-26.663132,-51.144791,-74.123096,-91.679649,-58.84449,-91.676044,-108.862839,-122.091408,-52.007561,-88.445148,-108.579998,-123.866844,-43.220901,-76.961632,-96.333389,-110.814114,-33.914795,-60.762978,-76.177711,-89.17448,-17.273196,-16.770424,-4.871675,5.803551,11.170773,26.326671,34.004161,39.88101,28.843247,42.695593,49.383472,54.453489,41.685604,55.664971,62.312711,67.235948,49.695126,62.880383,67.823503,71.580337,28.088264,55.981579,77.1912,92.670307,44.076862,67.850876,84.302101,98.591366,34.80875,60.233688,81.435127,98.077583,25.604725,51.207104,72.164612,89.380245,18.480778,41.456795,58.765297,75.014477,-16.025899,-27.327954,-32.270117,-35.556813,-36.286117,-25.798149,-12.708729,-0.362629,-24.415804,-7.932921,3.657076,15.132741,-9.780617,2.380262,12.225007,20.752461,5.613545,15.077475,20.4074,26.069079,64.731474,283.295375,-211.830912,59.56048
102,-0.292511,-0.547479,27.324257,23.33335,-26.367416,-50.913277,-74.213333,-92.252769,-58.976669,-91.989098,-108.994446,-122.06892,-52.326279,-89.010315,-109.17635,-124.487057,-43.652229,-77.432613,-96.875668,-111.552486,-34.424515,-61.469879,-76.941605,-90.092125,-16.99995,-16.447963,-4.690747,6.071486,11.646375,26.48364,34.010954,39.777763,29.107415,42.702386,49.2617,54.197904,41.719011,55.732402,62.385638,67.318385,49.458004,62.685992,67.936013,72.018394,27.241402,54.195385,73.614635,85.458069,57.857666,84.553413,98.019505,106.25164,46.665573,73.15424,91.181717,103.396912,33.741932,59.984035,78.032799,91.244717,21.004772,41.832333,56.11948,67.404099,-16.899544,-23.673749,-25.185739,-28.409172,-19.231672,-2.465231,8.673957,17.189802,-10.534157,6.277856,19.50606,30.466573,0.754868,15.823883,28.256958,37.440294,14.415263,24.920953,32.682177,38.104172,63.916397,283.728246,-185.029221,83.87418
103,-0.464859,-0.421817,6.58556,21.655252,-26.497078,-51.251335,-74.451199,-92.590256,-59.395294,-92.306557,-109.477558,-122.683468,-52.68631,-89.24366,-109.47464,-124.893093,-44.100838,-77.877445,-97.357349,-112.028847,-34.946709,-61.934395,-77.427521,-90.586967,-17.31179,-16.550901,-4.323579,6.150279,12.050284,26.552368,34.128341,40.106646,29.758018,43.024723,49.318881,54.222296,42.399624,56.041154,62.373041,67.218596,50.03605,63.175117,68.277122,72.349932,28.163624,56.440544,77.108517,95.319386,55.685749,81.145821,99.344444,113.961239,47.642097,74.919949,94.956951,112.288399,37.304592,63.159084,82.264938,98.241806,25.835609,45.389671,59.14856,70.997143,-17.363012,-23.380651,-24.746879,-28.230467,-22.041069,-7.668845,5.321805,17.378635,-12.665812,3.585877,16.11658,28.001249,-1.348598,13.984832,24.531802,34.715989,11.59012,22.791305,29.432871,36.502428,62.456417,283.537082,-179.438782,105.760085
104,-1.242027,0.267812,17.764549,25.299931,-26.226311,-50.817261,-73.998013,-92.487602,-59.549103,-92.365665,-109.36655,-122.471352,-52.751656,-89.329433,-109.089375,-123.968182,-44.16481,-77.692738,-96.724606,-110.934734,-35.231209,-61.942062,-77.153893,-89.810715,-17.482838,-16.572946,-4.555204,6.051973,11.692749,26.159389,33.514913,39.131915,29.623525,43.218743,49.110473,53.460851,42.346642,56.31829,62.376252,66.810241,49.880563,63.270892,68.188819,71.878035,27.13892,55.613423,76.96538,94.338742,58.005781,87.878638,104.718275,116.566601,49.664326,82.128124,101.696663,115.292273,39.144287,70.418902,89.41206,102.833204,27.611675,52.890444,67.695437,78.502894,-16.430689,-22.096443,-22.153748,-25.123696,-16.541917,0.94543,13.765541,23.936883,-3.849552,14.785935,27.476849,37.65412,10.280471,26.701079,36.556661,44.564639,24.932501,35.462906,41.392027,46.869504,61.192846,283.877805,-161.695776,131.132928
105,-1.420784,0.279606,17.764549,25.299931,-26.481056,-50.899544,-73.874187,-92.087116,-59.50161,-92.242012,-108.900318,-121.759415,-52.520142,-89.214706,-108.883553,-123.739986,-43.788528,-77.47736,-96.302948,-110.315781,-34.850464,-61.659508,-76.772461,-89.395409,-17.894281,-16.834583,-4.47956,5.97392,11.280257,25.834335,33.089946,38.552635,29.318787,42.727086,48.681246,53.140923,42.194736,55.982491,61.917694,66.224291,49.961517,63.159989,67.798741,71.200633,26.114216,54.786301,76.822243,93.358097,60.325813,94.611454,110.092106,119.171963,51.686554,89.3363,108.436375,118.296146,40.983982,77.678719,96.559181,107.424603,29.387741,60.391216,76.242313,86.008644,-15.498365,-20.812235,-19.560616,-22.016924,-11.042764,9.559705,22.209277,30.495132,4.966709,25.985994,38.837119,47.306991,21.90954,39.417326,48.581519,54.41329,38.274881,48.134508,53.351183,57.23658,59.801788,284.227251,-143.901501,156.502699
106,-1.203346,0.326968,2.331219,23.62614,-25.438271,-49.927368,-73.371677,-91.97588,-58.969345,-92.765293,-109.759483,-122.528458,-52.225456,-89.683514,-109.398079,-123.853855,-43.606911,-77.87899,-96.865883,-110.616531,-34.729385,-62.079964,-77.407379,-89.86433,-18.387914,-17.145619,-4.313575,6.678678,11.181703,25.595052,32.850478,38.774813,29.304337,42.686207,48.551138,53.244354,42.037087,55.78983,61.981359,66.819565,49.460783,62.446092,67.253362,71.126965,30.593662,59.295273,81.276569,98.660431,62.463684,91.676273,107.826233,120.514126,53.873634,86.137676,106.712379,123.273697,44.794521,75.705986,96.637516,112.280216,34.934006,61.739388,78.549271,93.511505,-19.355728,-24.935372,-24.589508,-25.473712,-7.767523,5.989111,16.467662,27.821339,6.650643,21.67458,32.904325,43.388865,20.444203,35.207615,45.559701,53.476721,33.725358,46.782359,53.518959,58.360067,58.507233,284.599251,-141.661491,180.17387
107,-0.915871,0.364204,20.943832,25.062578,-26.402893,-50.544662,-73.042088,-91.744652,-58.737488,-92.67374,-109.625702,-122.465687,-52.505493,-89.565639,-109.356422,-123.999481,-44.311981,-78.089561,-97.050591,-110.774288,-35.802498,-62.506256,-77.718315,-90.23632,-16.687184,-14.650903,-2.964884,5.438544,11.625009,26.002543,33.221413,38.892138,29.183306,43.020462,49.012105,53.533223,41.8661,56.198432,62.432939,66.694767,49.403108,62.740765,67.958613,71.470791,27.752838,56.135445,78.369713,94.428577,64.095097,105.971661,117.221375,116.778259,56.506348,101.802235,115.473976,116.405869,47.256145,90.857277,104.190903,106.037064,37.516708,72.835121,87.124329,91.991158,-16.764805,-20.014544,-17.69878,-15.882329,-1.404884,23.913341,33.274951,36.439474,16.919922,40.601575,47.48477,48.435294,33.322251,53.23151,56.187564,54.365742,46.475521,58.067,58.566252,56.552571,57.599859,284.61458,-120.709162,204.887574
108,0.647507,0.658383,-1.39555,14.848319,-26.691971,-47.929459,-65.548553,-77.626133,-58.318405,-88.546314,-106.177082,-120.403061,-54.739151,-87.604065,-108.445587,-125.025501,-48.651352,-78.521061,-98.001766,-113.402996,-40.548019,-63.178482,-77.707958,-91.219769,-16.926838,-20.957164,-20.538311,-21.832476,12.104501,23.837944,30.084739,34.677673,26.911879,40.810477,46.954272,51.11094,38.651003,52.822537,59.382592,63.543953,47.572517,61.295126,66.897679,70.87243,36.612339,65.696526,87.832775,104.830914,68.947964,100.460758,116.635723,127.756519,58.620987,93.900089,113.223438,126.559811,48.612499,82.608204,102.732754,116.259098,38.695164,66.911774,82.242565,93.916397,-14.488931,-17.010386,-14.100954,-12.826178,2.055054,21.537123,32.246065,41.502884,18.156721,38.885284,50.430512,59.453667,32.797188,51.353372,61.334708,67.499128,45.079653,60.72801,66.300306,68.597174,58.246737,285.031442,-122.105341,219.494371
