takenoko1/special-research/HandMotion_SimilarSearch_自分用/NewProject/handData/key/d4_feature_d2/61.csv
,vel_0x_L,vel_0y_L,vel_0x_R,vel_0y_R,posFromWrist_1x_L,posFromWrist_2x_L,posFromWrist_3x_L,posFromWrist_4x_L,posFromWrist_5x_L,posFromWrist_6x_L,posFromWrist_7x_L,posFromWrist_8x_L,posFromWrist_9x_L,posFromWrist_10x_L,posFromWrist_11x_L,posFromWrist_12x_L,posFromWrist_13x_L,posFromWrist_14x_L,posFromWrist_15x_L,posFromWrist_16x_L,posFromWrist_17x_L,posFromWrist_18x_L,posFromWrist_19x_L,posFromWrist_20x_L,posFromWrist_1y_L,posFromWrist_2y_L,posFromWrist_3y_L,posFromWrist_4y_L,posFromWrist_5y_L,posFromWrist_6y_L,posFromWrist_7y_L,posFromWrist_8y_L,posFromWrist_9y_L,posFromWrist_10y_L,posFromWrist_11y_L,posFromWrist_12y_L,posFromWrist_13y_L,posFromWrist_14y_L,posFromWrist_15y_L,posFromWrist_16y_L,posFromWrist_17y_L,posFromWrist_18y_L,posFromWrist_19y_L,posFromWrist_20y_L,posFromWrist_1x_R,posFromWrist_2x_R,posFromWrist_3x_R,posFromWrist_4x_R,posFromWrist_5x_R,posFromWrist_6x_R,posFromWrist_7x_R,posFromWrist_8x_R,posFromWrist_9x_R,posFromWrist_10x_R,posFromWrist_11x_R,posFromWrist_12x_R,posFromWrist_13x_R,posFromWrist_14x_R,posFromWrist_15x_R,posFromWrist_16x_R,posFromWrist_17x_R,posFromWrist_18x_R,posFromWrist_19x_R,posFromWrist_20x_R,posFromWrist_1y_R,posFromWrist_2y_R,posFromWrist_3y_R,posFromWrist_4y_R,posFromWrist_5y_R,posFromWrist_6y_R,posFromWrist_7y_R,posFromWrist_8y_R,posFromWrist_9y_R,posFromWrist_10y_R,posFromWrist_11y_R,posFromWrist_12y_R,posFromWrist_13y_R,posFromWrist_14y_R,posFromWrist_15y_R,posFromWrist_16y_R,posFromWrist_17y_R,posFromWrist_18y_R,posFromWrist_19y_R,posFromWrist_20y_R,posFromBody_0x_L,posFromBody_0y_L,posFromBody_0x_R,posFromBody_0y_R
2,-2.910347,8.709834,0.369587,-0.813562,-11.918049,-24.683819,-36.114407,-48.855629,-37.418861,-13.023777,7.768021,22.254066,-34.740372,-5.642166,18.073769,35.780411,-29.703369,-2.951775,19.385147,36.267586,-21.71236,-14.365883,-7.893219,-1.819611,21.004094,37.848495,49.172409,58.085278,35.064416,48.789001,53.252135,56.986676,23.536787,36.256569,43.544662,48.154453,10.787612,23.742416,31.993629,37.942726,-0.684874,12.011628,18.146902,24.256118,25.119839,48.983631,69.794312,86.9244,49.144592,81.876068,99.177017,111.306381,39.103489,75.445175,95.121346,108.075485,28.906975,63.385506,81.974144,94.126854,19.818192,45.633888,61.181431,73.371964,-13.517227,-12.039725,-2.45285,5.559081,12.396395,29.217084,36.04458,40.417188,29.56585,45.379513,52.162734,55.512138,41.930506,58.708957,63.369261,63.940329,49.527041,65.993592,69.603397,68.452431,0.735769,298.810583,-69.656153,286.31619
3,14.368629,-8.43029,-0.057449,0.008707,-8.570251,-20.046387,-33.347397,-46.772518,-40.545387,-25.668468,-3.463326,11.375313,-46.948757,-24.382324,-1.872368,17.032471,-49.762745,-32.214775,-10.319366,6.903191,-50.393372,-57.464848,-55.760765,-51.649075,-3.002984,9.246013,28.147196,43.029231,11.55591,34.206641,40.688828,41.814353,24.290698,43.655257,48.576085,47.720718,33.111559,50.298489,52.96586,52.68644,39.596217,53.039096,60.53504,67.41311,25.534916,49.083996,69.885521,86.845436,48.518944,81.467628,99.05674,111.751328,38.561554,74.951134,94.691048,107.977982,28.669739,62.962646,81.877213,94.740143,19.842968,45.909462,61.496773,73.758888,-13.058236,-11.709298,-2.287915,5.938475,13.263371,29.464888,36.124238,40.556436,30.100177,45.226002,51.59568,55.004303,42.252164,58.554705,63.127137,63.881851,49.623866,65.471554,68.730987,67.628681,15.256233,290.365304,-69.561768,286.309907
4,-16.810341,15.234629,0.816765,0.157031,-4.50016,-7.823009,-9.043808,-14.120407,-25.883446,2.11235,22.419662,35.693436,-29.541264,1.059837,25.812035,44.512253,-29.995594,-6.747379,16.323509,34.281006,-26.831131,-32.413731,-37.143459,-39.460487,-4.941824,2.096859,15.62446,28.645769,9.501783,23.785271,30.917135,36.961018,17.282829,29.179416,35.616526,40.083304,22.557178,33.835027,38.039736,41.605513,27.093858,38.670084,45.224396,51.742461,25.124874,48.629665,69.360008,86.367531,48.672981,81.611252,99.033852,111.510201,38.706264,74.817924,94.387321,107.502022,28.711395,62.630539,81.321831,94.015388,19.823456,45.538445,60.912266,73.255348,-13.110415,-11.938825,-2.465138,6.133174,12.799131,29.351885,36.28942,40.899706,29.510707,44.60047,51.044126,54.365001,41.668808,57.905955,62.628318,63.417303,49.051378,65.285314,68.723454,67.685368,-1.467533,305.581856,-68.658428,286.448861
5,17.389526,-15.257292,0.51899,-0.097195,-9.870758,-22.713432,-36.707954,-51.023083,-41.479168,-27.843533,-5.688629,10.043793,-46.581917,-25.504017,-2.690277,17.580185,-48.422012,-31.611328,-9.146347,9.183426,-48.398838,-54.870071,-52.314606,-46.938515,4.830549,19.36178,37.957793,51.452481,17.639314,38.643964,44.516119,45.848569,25.068568,43.814881,49.008708,48.298455,29.544423,47.700711,50.751182,50.526101,32.745317,47.861509,56.443026,64.020604,25.071602,48.661079,69.235954,85.907478,47.786236,80.936508,98.43544,111.067314,37.818432,74.224892,94.06311,107.320175,28.104858,62.495499,81.419334,94.277115,19.662323,45.872326,61.547585,74.130478,-13.01038,-11.539176,-2.085435,6.235124,12.430296,28.891598,35.798937,40.29906,29.399186,44.419047,50.782983,53.790043,41.801077,57.963815,62.657464,63.143625,49.426697,65.51058,68.939086,67.606018,15.97003,290.310006,-68.091402,286.337108
6,-15.815163,16.341444,-0.072212,0.821033,-0.095787,-0.262756,1.351204,-0.168915,-20.600281,6.586533,25.740509,38.881531,-26.439056,4.269562,26.610489,44.065704,-28.56514,-5.794716,15.412445,32.758827,-27.016468,-31.368713,-34.972687,-35.846901,-8.229601,-4.617572,6.317993,17.420594,7.288092,20.571223,28.140651,34.345641,17.368847,27.815967,34.160451,37.717152,24.516149,34.393868,38.515584,40.971892,30.147169,40.077005,45.34623,49.632017,24.778748,48.407135,69.217415,86.175499,47.979927,80.958023,98.428116,111.205559,38.234081,74.463959,94.203987,107.534294,28.68679,62.857704,81.602554,94.519501,20.334835,46.249638,61.606979,74.103012,-13.638813,-12.654944,-3.304635,5.197038,11.707878,27.797071,34.618516,39.166681,28.764886,43.248321,49.531179,52.591282,41.269035,56.994889,61.67415,62.210082,49.098802,64.971252,68.284717,66.920836,0.219784,306.636228,-68.098698,287.14292
7,-0.183105,-13.697909,0.474586,0.02927,-2.129517,-6.743317,-13.439827,-21.15921,-21.087513,-1.343193,19.17263,30.141563,-28.829327,-0.723839,19.910431,35.507355,-34.496384,-12.493515,7.163773,21.050262,-38.173141,-40.91692,-38.689384,-35.59021,-12.857239,-5.446633,11.424073,26.418185,6.426612,26.329141,31.293936,31.831041,22.426638,40.599414,43.834086,42.425744,33.49083,49.503329,50.988612,50.464968,41.709192,54.455959,60.456309,65.441234,24.51004,48.134766,68.908195,85.792694,48.092594,81.02108,98.448944,111.05793,38.181152,74.184494,93.820724,106.805992,28.336487,62.433701,81.059875,93.691521,19.737282,45.760002,61.085129,73.409843,-14.007649,-12.772579,-3.412081,5.122197,11.884423,27.866108,34.624815,39.187367,28.868318,43.271354,49.517902,52.55627,41.361476,57.064297,61.67662,62.115542,49.264973,65.032076,68.342268,67.021859,0.086489,292.918683,-67.574301,287.152553
8,-10.831318,10.216729,0.20834,-0.305788,-2.594147,-0.388412,3.57851,1.305656,-10.263233,19.72784,40.189075,52.759838,-16.641827,15.56448,38.822651,54.336605,-19.954147,3.035717,23.545818,38.022594,-19.253368,-21.361313,-22.203484,-21.856785,-9.520802,-5.200064,8.111719,19.794712,6.672873,20.116432,28.5742,34.94993,19.001405,29.8583,36.184259,39.114996,28.375673,38.393195,43.706386,46.236918,35.566385,46.292308,51.79674,56.333357,24.566746,48.381214,69.160709,85.73164,48.055916,80.703678,98.086567,110.73904,38.134403,73.93404,93.496571,106.545811,28.184395,62.217579,80.739613,93.354435,19.405403,45.466347,60.843716,73.152294,-13.632144,-12.285553,-2.994216,5.654732,11.901157,28.193509,35.153707,39.825249,28.742903,43.529841,49.884391,52.986485,41.268974,57.334949,62.095535,62.607199,49.258983,65.249931,68.494174,66.989996,-10.695763,303.077923,-67.316895,286.789275
9,-6.82663,-9.542291,-0.263786,-0.156105,6.575546,8.792553,7.699013,3.383446,-0.258751,21.878757,41.188946,50.660076,-8.497353,21.260433,41.185284,55.679226,-16.838207,6.683521,26.05711,39.260845,-23.993168,-21.752529,-16.325397,-11.695175,-12.953384,-5.474174,11.465569,25.804386,5.030436,24.575614,30.104561,31.507901,20.58944,39.667847,43.403994,42.89622,31.651903,49.549086,51.815141,52.271724,40.062432,54.730316,60.555727,64.842255,24.233837,48.059521,69.035168,85.98547,47.878704,80.637531,98.121357,110.797863,38.127708,74.069767,93.871021,107.026005,28.285618,62.481709,81.123791,93.635845,19.520245,45.504799,60.797138,72.952824,-13.589043,-12.427085,-3.380897,4.940959,11.920114,27.906987,34.787403,39.440853,28.842197,43.441353,49.769659,52.791045,41.374999,57.327847,61.948199,62.333583,49.26911,65.456178,68.776065,67.325177,-17.500162,293.462797,-67.558451,286.560336
10,11.621532,-7.024295,-0.286388,-0.019328,-2.978497,-8.602123,-13.802319,-23.399048,-19.826946,0.512466,20.182915,31.450653,-23.793068,6.468315,27.937775,44.383507,-26.415596,-0.540161,22.125206,37.723961,-27.500954,-20.569496,-9.630947,0.14225,8.832779,27.786018,46.717274,57.350448,26.09665,47.358305,52.194906,53.558047,26.805113,48.789371,53.058733,52.930168,24.744687,46.452674,50.448111,52.686193,22.599292,40.80529,48.622583,55.997311,24.270344,48.049278,68.925247,85.733414,47.527771,80.588722,98.104591,110.723419,37.711716,73.960304,93.780212,107.00592,27.957573,62.351189,81.020279,93.598595,19.411812,45.709419,61.215477,73.533554,-13.442324,-12.431778,-3.373055,5.020617,11.674101,27.916991,34.802409,39.417881,28.654476,43.513786,49.845859,53.027487,41.191477,57.471541,62.14827,62.670864,49.105595,65.267468,68.485468,66.847785,-5.830393,286.413648,-67.796602,286.516153
11,11.203766,2.427656,0.305443,-0.238233,-5.631638,-13.357086,-21.725864,-32.758141,-29.952908,-12.981777,8.893433,22.770882,-35.601025,-9.601021,12.803993,30.710793,-38.402309,-17.887344,3.669205,19.604645,-39.072762,-41.218643,-37.725163,-33.337269,1.140962,15.604761,33.700411,44.923795,16.951847,38.987605,44.987707,46.468544,24.577775,45.237426,50.280026,49.897173,28.837381,47.87213,51.905173,53.112517,31.548779,46.949456,56.164037,64.946737,24.20454,47.629795,68.349838,85.45475,47.638493,80.532303,97.99118,110.56675,37.884979,73.749733,93.620224,107.051582,28.052502,61.957626,80.603371,93.349113,19.297543,45.058422,60.415478,72.85984,-13.402927,-12.366014,-3.338598,5.002401,11.938886,27.927488,34.604437,38.858732,28.807123,43.437895,49.629362,52.473586,41.202654,57.464501,62.121594,62.432939,48.96221,65.609133,69.046408,67.426942,5.395145,288.826406,-67.469387,286.263023
12,-3.615417,-0.49882,0.235233,0.309184,-5.115852,-12.676048,-20.682335,-32.039852,-26.107121,-8.217087,12.332497,24.855423,-31.035347,-3.852654,17.7174,34.68029,-33.912678,-12.070312,9.087868,24.278183,-34.901619,-34.457703,-29.249153,-23.640404,4.250898,20.865279,39.407013,50.228897,20.140761,41.552284,46.994657,48.187613,24.895111,45.884323,50.556915,50.005175,26.727493,46.867204,50.993058,52.518231,27.67425,44.451096,53.291532,61.523294,24.23521,47.460136,68.06036,85.267696,47.7705,80.713291,98.191738,110.678387,37.988377,73.786983,93.618336,106.932735,28.046608,61.787395,80.478573,93.240108,19.230366,45.061626,60.493984,73.05582,-13.668886,-12.64173,-3.527184,4.723968,12.009467,27.915509,34.449752,38.679779,28.72481,43.133466,49.303875,52.340205,40.957258,56.952837,61.569792,61.995191,48.661301,65.000521,68.42594,67.026429,1.813202,288.325533,-67.20068,286.570154
13,-5.047531,0.178891,-0.586338,-0.331229,-5.221939,-11.866322,-19.206734,-30.092182,-20.623283,-1.207237,18.228378,29.158516,-25.16716,3.382416,23.580551,38.847427,-28.436737,-4.137669,16.563492,31.328316,-29.991646,-24.056911,-12.962666,-2.610397,1.577847,16.912944,34.896763,46.722091,19.280825,41.195738,46.430629,47.681322,25.272838,46.322689,50.790393,50.151338,28.057102,47.210722,51.035295,52.523357,29.672987,45.430643,52.122226,57.912994,23.62421,46.840668,67.783585,86.019859,47.103996,80.423584,98.456497,111.360283,37.527237,73.835106,94.133949,107.462425,27.676449,62.056618,81.021194,93.81649,19.016075,44.858494,60.327473,72.948074,-13.418859,-12.434001,-3.815187,4.157285,12.606285,28.446377,35.045335,39.188849,29.345587,43.89843,50.094404,53.075591,41.418286,57.793878,62.242933,62.603185,48.951651,65.720037,69.057215,67.828258,-3.208036,288.521128,-67.760725,286.255628
14,-24.333401,6.896842,0.317802,-0.09312,14.645176,25.371494,31.52544,32.848034,14.70417,39.358234,57.614536,65.872021,2.975693,33.914852,52.479572,65.775204,-8.161011,16.353893,33.932133,45.750446,-17.154636,-14.719505,-12.130394,-9.442291,-19.164426,-18.777436,-9.708276,-0.700311,-0.675735,19.420875,25.045288,25.277469,18.35673,38.664959,41.074892,39.165569,31.977821,48.643023,50.432611,50.73914,41.808116,55.129348,60.290138,64.260381,24.128609,47.606392,68.462334,86.379089,47.099075,80.293808,98.152885,110.921402,37.321529,73.786125,93.921318,107.15332,27.753925,62.23629,81.156693,93.877029,19.516869,45.558128,61.10321,73.643532,-13.571876,-12.378117,-3.311613,5.003265,12.361197,28.649289,35.447021,39.661487,29.334718,44.300487,50.41705,53.165376,41.525423,57.987836,62.338955,62.480302,49.032421,65.522004,68.655467,67.187165,-27.544098,295.424052,-67.445583,286.168591
15,11.856937,-2.140146,0.107746,-0.070581,9.995956,14.998169,16.259193,14.119034,-0.541592,20.37014,40.378418,50.675812,-11.592579,16.76136,37.049217,52.401695,-21.088829,1.319218,20.249863,33.770256,-28.160877,-28.607712,-26.904316,-24.576931,-16.797038,-13.922927,-2.286,8.659507,2.199364,22.128322,28.478611,29.349662,20.098401,39.878293,43.34564,41.861284,32.952984,49.030506,51.655146,52.555282,42.476318,54.584277,61.160696,66.888046,23.779221,47.586365,68.592396,85.999775,47.176552,80.576191,98.385029,110.975819,37.230434,74.052944,94.138241,107.121563,27.402534,62.291508,81.144619,93.68185,18.881149,45.192146,60.875473,73.416653,-13.49123,-12.376388,-3.525146,4.68136,12.03497,28.407413,35.163772,39.286785,29.204981,44.272637,50.307443,52.921153,41.56624,58.146226,62.44566,62.435595,49.052675,65.682863,68.826206,67.216064,-15.674915,293.283968,-67.325592,286.098072
16,14.459839,-4.999128,-0.161133,-0.010189,-2.70092,-8.10585,-14.169617,-23.547306,-21.549511,-5.326653,15.642929,28.516846,-28.246307,-3.567009,18.008194,34.660378,-33.04018,-12.108135,9.066353,24.673119,-35.645542,-32.715111,-23.583927,-15.203991,-3.21485,9.681291,27.362781,39.948318,13.490674,35.805359,42.928639,44.912433,23.984107,44.736321,50.79311,50.598967,31.030879,49.425586,54.254591,55.680655,36.173453,50.974409,58.342283,64.431615,23.896751,47.701435,68.767376,86.226025,47.4119,80.537624,98.215313,110.773029,37.539768,74.120808,94.059505,107.007809,27.689495,62.357769,81.07275,93.514767,19.100761,45.283184,60.885372,73.293858,-13.579842,-12.55318,-3.810865,4.414475,11.818288,27.896181,34.690208,38.928756,29.105933,44.270599,50.458608,53.248554,41.555557,58.12239,62.521366,62.679262,49.199764,65.757705,68.873631,67.312086,-1.205063,288.286985,-67.476711,286.090029
17,0.321121,1.022772,-0.19289,-0.395573,-1.129646,-5.461349,-11.793594,-20.428104,-20.814571,-4.737854,16.98143,30.404091,-28.972836,-4.532318,17.538071,34.562645,-34.731503,-14.654102,6.157036,21.795502,-38.06179,-38.112831,-32.342033,-26.192951,-7.158787,3.821177,21.216701,34.558495,8.61375,30.533664,38.196952,40.554336,22.600157,41.767299,48.047996,48.352919,32.531723,48.653705,53.366682,54.85073,39.901078,53.11826,60.452048,66.464377,24.168091,47.953091,69.076881,86.749535,47.425575,80.653381,98.403511,111.051521,37.342129,74.036293,94.01207,106.831627,27.362366,62.154236,80.949783,93.293495,18.767223,45.013676,60.751877,73.248596,-13.32012,-12.049914,-3.137662,4.808258,12.272586,28.41686,35.015695,39.182736,29.476374,44.584971,50.579886,53.302523,41.871349,58.550259,62.832897,62.91626,49.421942,66.123267,69.358989,67.83221,-0.873671,289.372944,-67.65933,285.757642
18,0.380974,1.681155,-0.347557,-0.188339,2.296371,0.516586,-4.597206,-11.081944,-19.223614,-3.366051,18.63842,32.057762,-29.41103,-5.492592,16.993561,34.724808,-36.527138,-17.534981,3.26683,19.164047,-40.678883,-43.083057,-39.242992,-34.132061,-12.161373,-5.87197,8.614121,21.702244,5.154863,26.270231,33.883192,35.340872,21.722375,40.481038,46.244822,46.025855,33.661446,48.5244,52.60672,53.789425,42.595928,54.316527,60.884918,66.368478,24.605656,48.3815,69.441376,86.929092,47.364235,80.284882,97.968979,110.740013,37.458916,73.889809,94.029579,107.236748,27.79953,62.149315,81.094666,93.744049,19.470291,45.277691,60.934982,73.51799,-13.075403,-11.825636,-2.77247,5.454043,12.02157,28.282491,34.98025,39.082762,29.133474,44.470732,50.74266,53.511549,41.555434,58.414655,62.960658,63.164126,49.148326,66.042621,69.444205,67.976397,-0.483627,291.069274,-67.997818,285.584479
19,-5.456085,9.564027,0.592232,-0.562546,-8.490486,-11.663589,-13.498592,-22.392254,-21.169281,9.55719,30.736885,44.428253,-24.231091,9.009705,32.815704,49.582329,-24.225368,-0.562019,20.534935,36.751328,-20.35326,-25.674934,-30.107803,-32.41951,-2.265684,6.898015,22.671602,36.828872,11.734307,26.156734,34.160266,40.400516,20.641866,31.453746,37.652684,39.669267,27.060204,36.717351,42.874423,45.623427,32.399824,42.277481,48.505443,53.414662,24.151211,47.625332,68.532486,86.292,47.308388,80.291634,98.193054,111.047974,37.47139,73.77491,94.046745,107.396851,27.620487,62.130547,81.11515,93.72654,18.978424,45.125027,60.848751,73.44326,-13.123877,-11.49805,-2.384616,5.273485,13.013035,29.413512,36.001787,39.95369,29.83255,44.551687,50.405441,52.969627,42.127737,58.575947,62.848828,62.926943,49.704574,66.709464,70.019286,68.513935,-5.931387,300.633517,-67.397261,285.022148
20,7.045326,-9.161044,-0.050697,0.327586,1.804047,-0.019226,-5.576363,-12.06768,-21.446571,-3.696671,17.789955,30.1157,-31.634388,-6.073265,16.230698,33.007851,-38.44368,-18.092365,2.848206,17.756996,-42.380962,-44.616108,-41.5341,-37.727623,-14.293244,-9.443429,4.480857,17.380765,4.790226,25.470501,31.722545,32.002522,23.119787,41.159614,45.715559,44.3066,35.894218,49.812637,52.544908,52.453517,45.08731,55.911417,61.573188,65.95543,24.354916,48.106213,68.945732,86.846237,46.65802,79.971771,97.956963,110.891075,36.668072,73.399773,93.627892,106.704483,27.126446,61.996651,80.927582,93.326225,19.057388,45.285988,61.044502,73.523712,-13.098497,-11.783522,-2.666321,5.546422,12.398618,29.142366,35.81456,39.962767,29.498604,44.925401,50.724999,53.2262,41.976016,58.902977,63.093175,63.013825,49.656409,66.581085,69.69275,67.906681,1.120949,291.463195,-67.440948,285.340456
21,-6.261177,6.571541,0.159416,0.179076,-7.616215,-10.779533,-13.015652,-22.631264,-23.266468,7.291374,28.046837,41.652946,-27.074547,7.32914,31.964149,48.789597,-27.208443,-1.229324,21.220322,37.728882,-22.79583,-27.322483,-30.081711,-30.711365,-0.507959,9.832703,26.162044,41.477937,13.376189,28.740803,36.529259,42.281557,21.811234,33.466994,39.314758,40.814985,27.935886,38.480387,44.475487,46.591242,33.369799,44.111963,50.237418,54.688017,24.307823,47.952175,68.798904,86.632233,46.863499,79.926224,97.740555,110.644455,36.87624,73.357773,93.425331,106.5271,27.249069,61.89045,80.667114,93.067589,19.005718,45.085316,60.718117,73.205223,-13.222122,-11.919559,-2.822488,5.384265,12.488156,29.149529,35.659875,39.652657,29.544855,44.775656,50.47244,52.966601,41.9557,58.68506,62.78467,62.74095,49.601574,66.38546,69.432719,67.678822,-5.130014,297.99415,-67.271318,285.478947
22,-16.332321,-3.831243,-0.477562,0.376863,11.330681,19.62616,23.276024,23.803482,4.963074,27.954826,47.587852,57.087364,-5.788364,23.676109,44.814949,60.120163,-15.759315,8.166161,28.122025,41.232491,-23.646755,-22.069645,-18.857861,-16.419353,-17.926947,-16.959257,-6.652866,4.178403,-1.516899,18.910076,25.841127,27.199945,19.008259,38.08185,42.266304,40.743848,33.687443,48.573615,51.191894,51.097663,44.474561,56.093333,61.566087,64.882146,24.545975,48.138599,69.050446,87.098579,46.397839,79.68235,97.763443,110.881462,36.738052,73.465919,93.812943,107.088432,27.511196,62.325554,81.127396,93.448448,19.612942,45.705357,61.200542,73.444176,-13.222245,-12.263817,-3.319085,4.938798,11.654217,28.425135,35.114866,39.197,28.822314,44.199278,50.065382,52.641053,41.461388,58.155118,62.259482,62.193595,49.403541,66.210212,69.117113,67.157463,-21.455612,294.121983,-67.742157,285.814885
23,9.47794,-3.316244,0.430698,0.0021,4.428692,4.361229,0.40575,-4.491463,-7.731285,13.328991,34.088573,45.442371,-15.878162,13.351307,35.229092,51.918125,-23.403511,0.893211,22.325535,37.381039,-29.519005,-27.975368,-23.283978,-19.330845,-8.651603,-0.197787,15.542332,28.789462,7.069064,28.141762,34.554543,36.379823,21.416401,40.611949,45.787436,44.812336,31.403172,47.649705,50.959157,51.122302,39.347116,51.86485,58.985105,64.558512,23.997231,47.558899,68.676968,86.840572,46.375465,79.547367,97.562428,110.679989,36.850662,73.364811,93.65942,106.99522,27.523441,62.127056,80.914021,93.33807,19.361401,45.278378,60.736942,73.048496,-13.531491,-12.506249,-3.490195,4.566566,11.514908,28.076307,34.71003,38.678976,28.663677,43.805681,49.581444,51.977545,41.266936,58.110349,62.130856,61.767887,49.182536,66.424609,69.443278,67.380691,-11.944342,290.772455,-67.278128,285.783701
24,-9.099827,3.088262,-0.259266,-0.422929,11.63332,19.750557,22.473793,21.805344,3.772316,26.644363,47.212143,57.832832,-6.731586,22.764931,44.62841,61.669693,-16.429138,7.156677,28.084946,42.757187,-24.29163,-25.736046,-25.448685,-24.956245,-18.581131,-17.833148,-8.014524,2.237711,-1.318804,18.635225,25.708055,27.137145,18.51055,37.762353,42.008497,40.110351,32.714566,48.425476,50.626816,50.113979,43.412948,54.579769,61.309699,66.299318,23.949909,47.50185,68.482018,86.803894,46.514854,79.690704,97.824097,110.794258,36.798763,73.409386,93.865356,107.118416,27.071056,61.903954,80.798607,93.123436,18.528214,44.502983,60.091953,72.526245,-13.547855,-12.420354,-3.327112,4.60831,11.203192,28.346774,35.108073,39.097088,28.257977,43.821242,49.943857,52.699778,40.932496,58.092565,62.347353,62.445351,48.998334,66.509516,69.704791,67.970531,-21.013527,293.742974,-67.506752,285.24303
25,-15.937386,-2.901467,0.741405,0.441392,15.574665,30.045605,36.179352,36.380997,23.685608,50.85434,68.262863,74.713554,12.738819,46.240654,64.282837,75.567398,0.83931,27.568474,44.594307,54.15287,-9.932041,-6.103191,-4.08165,-3.616333,-16.441109,-13.536431,-0.60818,11.321506,1.680167,23.546667,28.435447,27.366918,20.816928,42.837805,45.54945,42.145521,34.485012,53.488392,55.227407,52.829639,44.678523,58.533895,62.861487,64.687509,23.328667,46.49128,67.247715,85.103817,48.180885,79.63274,96.731358,109.451466,38.325977,73.450298,93.220539,106.585178,27.95826,61.169872,79.884396,92.812672,18.497086,44.142723,59.355412,72.115231,-14.895928,-13.631774,-3.724847,4.152036,12.010023,28.758464,35.950164,40.659682,28.89345,44.073492,50.933407,54.638617,41.033272,57.525943,62.491232,63.654733,48.636415,65.012439,68.694863,68.276751,-36.951399,290.758824,-66.765833,285.601738
26,1.869736,-1.456507,-0.12434,-3.128091,17.33923,34.865112,47.57618,51.035614,14.743195,42.771149,62.022057,72.960777,4.540386,35.381584,56.817169,74.090424,-4.366093,20.737438,38.871918,50.041695,-10.358505,-14.360847,-18.630924,-22.812252,-19.241922,-20.736715,-15.960814,-9.586443,3.240106,26.129131,31.285414,30.583435,21.93035,48.944179,51.924007,48.494389,34.544909,58.938113,60.145951,57.9033,43.232266,58.033099,62.690253,64.41204,24.40567,47.00449,67.301674,85.273247,47.143536,79.43985,96.725807,109.259377,37.699528,72.948761,93.386536,107.412643,28.257008,60.657806,79.595833,92.842255,19.691963,44.495602,59.075603,71.149406,-14.686409,-13.477274,-3.255914,5.675913,11.296312,28.180048,36.698208,42.997553,28.554749,45.133808,53.535261,58.831038,40.704513,57.738673,64.288539,67.149683,48.380769,64.362763,68.653614,68.96249,-35.084009,289.255556,-66.892519,282.426887
27,12.449684,-5.852087,2.245903,-10.093167,-11.317577,-17.267761,-24.482403,-31.135941,-7.907867,0.697746,1.687431,0.199471,-1.111794,7.79068,5.826759,4.405003,3.340645,12.335644,14.550819,14.830513,5.285625,14.776554,16.518517,15.166512,23.461699,44.053176,60.460631,67.083425,40.525622,54.870552,56.572763,57.260231,27.260893,41.145226,42.996874,44.034713,12.871626,25.450803,28.87758,31.010439,0.393535,10.493248,14.346905,17.521494,30.808296,58.139763,75.627022,88.911667,47.505455,73.99189,88.472557,97.262878,36.416817,66.198349,82.867928,92.135239,25.537949,51.794815,67.428474,76.124268,15.468235,34.870377,45.109806,49.973259,-6.247907,3.512178,18.233847,30.814691,9.722417,31.639182,42.212458,50.354682,20.077282,43.323101,53.875752,60.515033,29.196521,52.767333,61.244244,66.095171,36.362409,57.483397,63.231681,64.662932,-22.637644,283.399085,-64.649935,272.329336
28,46.399384,0.127823,20.589924,-10.002764,-47.508659,-91.581345,-125.785675,-153.265514,-49.689159,-66.92276,-73.65509,-79.555149,-32.502594,-59.400558,-78.212414,-90.568428,-22.470474,-50.09737,-68.333988,-82.231693,-15.092583,-34.63789,-51.096439,-65.139141,-22.761511,-32.649728,-38.157988,-42.490952,-4.02341,13.050147,17.781402,20.203006,16.378247,37.301016,46.863808,49.285227,34.002679,53.23361,60.985695,60.950312,46.845098,64.16226,72.213278,75.129936,7.734032,16.785965,19.799824,20.227032,34.778709,33.220997,23.555889,11.945515,32.768269,24.688225,8.056355,-9.669628,27.102871,16.035004,-3.207779,-19.997578,17.137012,5.348053,-7.876625,-19.229507,19.464903,38.842306,54.617684,69.994771,35.992957,63.89488,75.893479,81.643801,30.927694,63.040934,74.875092,80.142834,27.382664,54.927856,65.661621,70.054237,22.542729,44.570768,54.512214,60.920239,23.967619,283.64442,-43.854132,262.444083
29,27.110825,-0.855428,-23.965702,-51.225425,-29.569588,-56.394997,-78.875999,-91.81469,-67.965031,-99.677353,-113.169365,-120.650368,-61.474857,-96.799049,-113.988819,-123.519859,-51.787949,-84.40733,-101.247025,-112.244568,-40.785828,-65.872478,-78.5392,-88.741322,-12.507916,-10.739199,2.183371,16.616727,14.608604,31.231197,38.060669,41.844611,31.811157,48.86588,55.55135,59.232292,44.337722,60.884362,67.248916,70.664454,53.128202,68.634348,74.334714,77.533509,27.194252,56.136246,79.471893,88.817139,53.240948,86.453705,93.804131,88.86898,44.926987,80.148926,88.463974,85.038185,36.448402,70.271873,76.512794,71.636124,28.22485,56.729851,65.049248,62.381401,-17.021254,-21.231335,-13.500122,-0.906867,-3.444623,9.454729,5.293369,-0.424225,15.094332,26.331117,19.758897,13.914344,30.047503,40.212362,34.525026,29.012505,41.820405,49.064654,44.224348,39.235841,51.579294,282.841618,-67.318983,211.271285
30,1.984062,1.458606,-15.473099,-48.291724,-30.612259,-55.832634,-78.293552,-91.379814,-66.488228,-98.066254,-112.879372,-122.903709,-60.204277,-95.613384,-113.496323,-126.129913,-51.530914,-83.331642,-99.741898,-111.365089,-41.980247,-65.884953,-78.433685,-89.164639,-14.4956,-13.201559,1.929762,16.110003,13.578298,28.998611,36.724699,41.789221,31.146043,46.590624,54.237178,59.510663,43.714166,59.522334,65.830879,69.382948,52.063254,66.414297,71.105044,73.552151,21.969452,55.806942,86.537132,103.673744,40.576572,88.057709,99.355431,97.573357,35.62294,84.963799,87.485504,79.553719,33.429279,81.649246,81.317024,71.668568,33.972187,71.224308,71.520996,64.544163,-25.843906,-40.360316,-40.778799,-33.542145,-37.916605,-32.608231,-24.080685,-21.565158,-14.672515,-9.260277,-5.834858,-7.002373,8.841486,11.261546,10.306576,8.712983,29.548313,28.529246,24.116747,20.546585,53.833923,284.625958,-82.521515,163.305294
31,-0.700264,0.261142,-5.695896,-36.235265,-30.330276,-55.265465,-77.722721,-91.610584,-66.044083,-97.35775,-112.223225,-122.403717,-59.833374,-94.352131,-112.010307,-124.690361,-51.198463,-82.624226,-98.987503,-110.675068,-41.371422,-64.828949,-77.440853,-88.041687,-15.105324,-13.435655,1.732161,16.217881,13.895572,29.139649,36.619229,41.393833,31.353339,46.276376,53.44597,58.333638,43.720897,58.670487,64.844108,68.222967,51.755799,65.945488,70.541324,72.731426,17.031841,42.044449,67.231064,84.519825,30.815048,66.830292,83.560009,88.734798,32.309132,72.35693,68.433952,58.612175,35.460148,73.322353,65.191154,54.423981,39.947548,70.31004,64.332561,55.950108,-31.307768,-53.844229,-64.977427,-67.731588,-51.352291,-65.108739,-64.27656,-62.080375,-31.095223,-39.297345,-32.644448,-29.435217,-10.712708,-18.58848,-12.88515,-8.554717,7.949501,0.203097,0.992144,2.457666,53.294849,285.235157,-88.056221,127.418085
32,-1.092453,0.35383,-2.834187,-29.805751,-29.897232,-54.860916,-77.658806,-91.592674,-65.14658,-97.006073,-111.856728,-122.088261,-58.618183,-93.76442,-111.422424,-124.187508,-49.830208,-81.790123,-98.330154,-110.226631,-40.020218,-64.142647,-77.002373,-87.769604,-15.441061,-13.782445,1.096132,16.077523,13.569653,28.610448,36.009012,40.925765,31.121281,46.065931,53.360322,58.351608,43.607091,58.249843,64.425069,67.829493,51.540661,65.418942,69.999773,72.225134,10.557518,27.835121,46.654415,61.683655,27.908478,59.382248,59.918804,53.323345,32.519875,64.416332,60.098877,50.649261,37.487698,67.864666,60.196667,49.759197,43.530865,65.978966,58.586197,49.31591,-36.687772,-64.446867,-79.396179,-79.967617,-68.275609,-90.985651,-77.875297,-68.497725,-50.791196,-69.932712,-58.786639,-51.115818,-33.265811,-48.193572,-38.932554,-30.856712,-15.943648,-29.365532,-24.742217,-19.209689,52.51997,286.506474,-90.572834,98.529822
33,-1.426506,-0.063973,4.566222,-31.503332,-29.760361,-54.391251,-76.835976,-90.684128,-64.841995,-95.894852,-110.802784,-121.449108,-58.289909,-92.561016,-110.00639,-122.726898,-49.540215,-80.838718,-97.060719,-108.664284,-39.986572,-63.75246,-76.492882,-87.143726,-15.500341,-14.02957,0.89816,15.801128,13.481473,28.64367,36.171848,41.055996,31.308694,46.083468,53.172662,57.773191,43.864529,58.562362,64.630822,67.73662,51.727888,65.589312,69.934379,71.923607,12.218685,25.86399,39.377346,47.90265,25.291957,48.856086,54.929866,54.906063,25.939207,53.204898,55.199689,50.547351,27.704086,55.16035,51.304464,43.298606,31.360702,53.645181,49.962158,42.803306,-35.115822,-63.30115,-79.464104,-83.447005,-69.778397,-96.641772,-95.074099,-92.481816,-54.607525,-79.715968,-72.420589,-63.932995,-38.401963,-58.727436,-50.835486,-41.874143,-21.948798,-39.968834,-36.256106,-30.10595,51.971569,286.908238,-85.128507,67.492227
34,-2.268448,-0.838879,4.566221,-31.503331,-29.833031,-54.225941,-76.531391,-89.866104,-63.912449,-95.246944,-109.785576,-120.142593,-57.05595,-91.500378,-108.850021,-121.254501,-47.985077,-79.266758,-95.490704,-107.211342,-38.069687,-62.182674,-75.134125,-85.910683,-15.385177,-13.642272,1.61996,17.068246,13.14691,28.847261,36.587613,41.9289,30.907995,46.212032,53.366312,57.953503,43.676128,58.676662,64.877144,67.926441,51.737027,65.59703,69.792477,71.569839,13.879852,23.89286,32.100277,34.121647,22.675438,38.329926,49.940929,56.488781,19.35854,41.993465,50.300503,50.445442,17.920475,42.456036,42.412262,36.838017,19.19054,41.311398,41.33812,36.290703,-33.543874,-62.155433,-79.53203,-86.926395,-71.281187,-102.297894,-112.272901,-116.465908,-58.423856,-89.499225,-86.054541,-76.750174,-43.538116,-69.2613,-62.738419,-52.891574,-27.953948,-50.572136,-47.769995,-41.002212,50.193272,286.905088,-80.072136,36.824627
35,-1.424103,-2.139837,-13.464317,1.09959,-29.654617,-53.67754,-75.33205,-87.671585,-63.169956,-94.118843,-108.400669,-118.485203,-56.341324,-90.488777,-108.055115,-120.662155,-46.918831,-78.14724,-94.659863,-106.730347,-36.438675,-60.116444,-73.217812,-84.476452,-14.368703,-12.070971,3.526937,18.82239,14.054023,29.893313,37.516772,42.82743,31.288563,46.82966,54.499987,59.608661,43.783142,59.327943,65.915663,69.319654,51.87967,66.406517,71.189395,73.372828,-1.470966,7.773056,23.467598,35.319099,4.7089,24.277554,35.69767,43.260098,16.207809,41.776085,40.281544,33.691177,29.080868,51.585331,47.269764,40.131054,41.717548,58.66436,53.839188,47.724609,-34.816025,-59.935567,-76.330024,-85.211493,-71.110385,-103.272809,-121.099536,-134.708462,-61.090578,-88.016382,-79.930937,-71.589815,-49.137798,-73.669291,-65.167309,-56.642294,-37.497475,-58.814674,-53.831447,-46.28885,49.086971,285.959396,-93.218651,39.118361
36,-0.604706,-0.624852,3.666773,-13.355472,-29.607353,-53.090286,-74.547501,-86.352425,-62.9286,-93.566608,-107.798309,-117.918205,-56.049099,-89.950962,-107.468948,-119.902325,-46.594276,-77.7598,-94.335594,-106.415176,-35.981483,-59.918289,-73.113499,-84.396229,-14.193147,-12.011567,3.156558,18.986893,14.843008,30.22411,37.355047,42.568573,31.690867,46.939514,54.353392,59.556667,43.889167,59.398586,65.97908,69.72486,51.825762,66.955725,72.133435,74.821739,2.756682,13.088694,26.948777,36.535464,11.290169,30.788784,43.740464,51.613913,17.886486,46.899605,46.954794,40.381565,27.122555,55.013352,50.208206,41.184254,37.756863,60.752449,57.467537,50.562859,-34.730855,-62.138096,-78.785266,-87.141548,-75.085244,-106.623186,-120.743406,-128.250372,-63.744055,-86.032187,-76.678049,-67.33214,-48.716505,-68.255633,-57.871236,-48.968972,-32.983674,-50.925534,-46.066209,-40.022155,48.61167,286.1576,-89.422474,26.585945
37,0.406723,0.288498,3.666773,-13.355472,-29.143066,-53.307323,-75.102825,-86.695175,-62.658749,-93.354893,-107.791729,-117.845936,-55.858212,-89.905872,-107.497044,-120.200272,-46.764908,-78.233414,-94.980125,-107.238579,-36.791267,-61.016178,-74.374237,-85.685749,-15.07556,-13.025076,2.461989,18.48196,14.341471,29.863981,37.645398,43.53509,31.425402,46.177946,53.424357,58.673574,43.767087,58.316533,64.645765,68.468486,51.907458,66.265787,71.298261,74.023492,6.984329,18.404331,30.429955,37.751827,17.871437,37.300014,51.783257,59.967728,19.565163,52.023125,53.628044,47.071953,25.164242,58.441372,53.146648,42.237453,33.796177,62.840538,61.095886,53.401108,-34.645686,-64.340626,-81.240509,-89.071604,-79.060102,-109.973563,-120.387276,-121.792283,-66.397532,-84.047992,-73.425161,-63.074464,-48.295213,-62.841974,-50.575162,-41.29565,-28.469873,-43.036394,-38.300971,-33.755461,48.853941,287.157725,-85.920153,13.942101
38,-0.262413,-0.552543,-4.137383,9.032665,-29.077148,-53.273163,-74.881439,-86.206226,-62.997837,-93.046818,-107.112064,-116.780891,-56.396084,-89.926357,-107.49218,-120.131664,-47.187424,-78.184547,-94.866028,-107.235432,-36.750755,-60.595493,-73.779831,-85.14513,-14.896052,-12.70984,2.827304,18.93632,14.317204,29.746285,37.271499,42.768644,31.110846,45.899205,53.308204,58.811463,43.312974,57.977524,64.453166,68.446565,51.521827,66.027925,71.376931,74.386955,-1.530075,7.456169,21.727867,33.0439,7.458344,28.453217,41.414566,49.312305,16.51886,48.823929,49.717598,42.449512,27.505016,56.53347,55.295963,47.881107,38.483219,62.158012,61.03775,55.898209,-29.643594,-54.966512,-68.981787,-77.526006,-72.431906,-103.577331,-119.261041,-128.661707,-63.216923,-80.775251,-69.602533,-61.282097,-49.800133,-67.864289,-57.708848,-49.532105,-34.419402,-51.711462,-46.241827,-39.857421,48.75123,287.029145,-89.897833,23.398729
39,0.865517,0.288004,0.404377,5.441662,-29.262428,-53.516521,-74.967785,-85.337563,-62.815132,-92.491207,-106.566353,-116.397171,-56.221046,-89.598942,-107.315826,-120.245132,-46.998138,-77.818165,-94.48019,-106.924438,-36.41407,-60.24416,-73.317261,-84.637413,-14.601441,-13.022668,2.282604,18.588912,14.022284,29.430185,36.773297,41.984352,30.48976,45.273241,52.781473,58.492522,42.503735,57.282399,63.806392,67.891058,50.685603,65.135199,70.777458,74.086045,-2.256546,7.834854,21.983757,34.814358,6.434784,25.315132,37.110329,44.862728,17.296886,47.024059,44.729118,36.395931,29.296989,54.676723,50.48584,42.710209,40.840588,60.408554,56.357059,49.688644,-30.946095,-54.995411,-68.271626,-76.091451,-70.733769,-102.127833,-119.141893,-132.11902,-62.169666,-81.735068,-72.259468,-65.440524,-50.048153,-68.204071,-59.716909,-53.011555,-36.499588,-54.063813,-48.905925,-42.67855,49.773989,287.779027,-89.336214,29.302269
40,0.510521,-0.553716,-0.201473,4.098776,-29.453201,-53.638344,-74.85363,-85.93483,-61.807823,-91.319389,-105.491524,-115.290184,-55.359421,-88.682041,-106.596222,-120.104713,-46.21685,-76.885586,-93.705311,-106.602173,-35.634041,-59.403763,-72.607384,-84.215755,-14.418845,-12.560837,2.827366,18.9843,15.127245,30.451907,37.490466,42.251114,31.491722,46.245995,53.614919,59.350112,43.297598,58.137025,64.691831,69.01825,51.178618,65.455004,71.31092,74.850885,-3.211269,5.800838,19.138699,31.487389,6.827602,24.31818,35.491676,43.349705,18.013916,45.803947,42.454834,34.006348,30.212688,53.97068,48.856201,41.259556,41.888409,59.894028,55.271358,48.737068,-30.630057,-53.645238,-65.159961,-70.04482,-70.320289,-100.419693,-117.809072,-131.822371,-61.709379,-80.345067,-70.996517,-64.087202,-49.61871,-66.771214,-58.494251,-51.80628,-36.199018,-53.193071,-47.793213,-41.698942,50.450792,287.489232,-89.371405,33.664966
41,-0.292511,0.009016,1.992588,4.737522,-28.607826,-52.555046,-73.697262,-84.818115,-61.466904,-91.158886,-105.429783,-115.301971,-55.007343,-88.382492,-106.074886,-119.004593,-45.870667,-76.598682,-93.105297,-105.475845,-35.480461,-59.207268,-72.216225,-83.477783,-14.393465,-12.558367,3.009468,18.970962,15.202457,30.648582,37.963227,43.443761,31.652767,46.104648,53.537051,59.378949,43.693789,58.095776,64.559438,68.734013,51.841756,65.900595,71.328951,74.444568,-4.712963,3.014832,15.33102,27.457752,5.270119,21.771011,32.41785,39.724503,16.6008,44.414577,42.097836,33.922405,28.805294,52.559681,48.283825,40.498295,40.63076,59.077721,55.388889,49.017792,-29.949289,-53.816009,-67.518425,-73.833115,-69.306656,-99.769832,-117.325814,-131.394842,-60.475976,-80.593643,-71.453995,-63.790429,-47.93984,-65.996648,-57.478827,-50.233096,-34.170609,-51.092631,-45.929586,-39.680166,49.985018,287.361671,-87.55208,38.265912
42,-0.002632,0.500487,2.125282,5.325263,-28.040085,-51.689644,-72.728977,-83.573685,-61.438465,-91.175251,-105.527744,-115.404453,-54.849186,-88.309765,-105.888634,-118.693714,-45.650139,-76.403961,-92.8549,-105.115356,-35.232353,-58.98468,-71.787128,-82.80138,-14.319365,-12.653462,2.468534,18.229339,15.074572,30.608135,37.964709,43.401215,31.427934,45.981889,53.578548,59.502573,43.33965,57.953873,64.553819,68.871346,51.397276,65.661683,70.969316,74.093702,-5.044098,2.754421,14.927616,25.385914,3.58263,19.304924,29.484215,36.499157,15.713711,42.591019,40.420647,32.662354,28.368816,51.484451,47.232399,39.599018,40.639744,58.126316,54.386158,48.317699,-30.14405,-55.400092,-72.555931,-83.857955,-66.906108,-98.546927,-116.468996,-130.505575,-57.718203,-79.446351,-70.502205,-62.683522,-45.205501,-64.783623,-56.307453,-49.157095,-31.646314,-48.910247,-43.637843,-37.429456,50.189981,287.37785,-85.219202,43.106867
43,1.389313,0.455656,0.676575,5.840879,-28.09845,-52.173729,-73.168201,-83.097038,-61.819038,-91.606522,-106.214046,-116.317863,-54.990864,-88.254318,-105.980816,-119.10387,-45.588226,-76.083012,-92.659149,-105.15667,-35.003128,-58.719978,-71.572609,-82.701302,-14.703205,-13.090223,2.228634,18.223967,14.768846,30.611902,37.892708,43.22146,31.254909,45.76391,53.404473,59.437118,43.176135,57.693533,64.386722,68.777238,51.184237,65.246844,70.726699,74.045043,-5.06052,3.167496,16.051598,26.128521,3.134708,18.734093,28.538017,35.142231,15.563107,41.443748,39.128666,31.120319,28.443604,50.448475,46.071281,38.333702,40.769062,57.539349,53.973427,48.058033,-29.452754,-55.064942,-73.093253,-83.937273,-65.59703,-96.993502,-115.15189,-129.818354,-55.951276,-77.743583,-68.450455,-60.225949,-43.254249,-63.137326,-54.630806,-47.181823,-29.638932,-47.487364,-42.516332,-36.373123,52.108927,287.049816,-84.012995,48.164055
44,1.506729,-0.141347,1.387939,4.53282,-28.341637,-52.519455,-73.494473,-83.394985,-61.757412,-91.614761,-106.523895,-116.865463,-54.83036,-88.122425,-106.093254,-119.414921,-45.451927,-75.923309,-92.558327,-104.905357,-34.967651,-58.641415,-71.523628,-82.565689,-14.826336,-13.147095,2.354975,18.451764,14.799042,31.026742,38.513917,44.016496,31.249352,45.905071,53.726502,59.924699,43.183051,57.722556,64.726164,69.329966,51.090068,65.006882,70.482908,73.774884,-5.116482,2.950745,16.901779,29.76265,3.246117,17.242012,26.268711,32.679062,16.018696,40.43335,37.847385,30.142994,28.913555,49.885197,44.489594,36.415157,40.9758,56.472015,51.848202,45.53112,-29.196428,-54.268732,-71.406447,-80.852933,-65.241842,-96.411443,-114.721397,-129.239166,-55.743394,-77.678653,-68.987035,-60.678301,-43.019042,-62.036069,-53.917403,-46.093225,-29.538248,-46.364093,-41.720801,-35.56728,53.930426,286.371627,-82.310286,52.160033
45,0.609856,-0.454854,-0.13258,1.70956,-28.807869,-52.991524,-73.740234,-84.521828,-61.52338,-90.848808,-105.274944,-115.630531,-54.539452,-87.678051,-105.43602,-118.834419,-45.152206,-75.723896,-92.354622,-104.786339,-34.581184,-58.509922,-71.656551,-82.813225,-14.435085,-12.148776,3.382873,19.249394,16.254005,32.556608,39.842354,45.004874,32.567908,47.302112,54.785213,60.638596,44.168711,58.775895,65.542073,69.931045,51.700224,65.592523,70.886632,73.860285,-5.02018,2.960701,16.37661,29.128075,4.388695,17.592087,26.167946,32.622242,17.074413,41.124287,38.779278,31.068077,29.810658,50.449619,45.445061,37.500687,41.054935,55.875034,51.220264,44.914513,-28.13111,-52.230567,-67.700373,-76.14326,-63.429066,-95.707643,-114.242399,-128.704099,-54.096603,-75.526805,-66.579047,-58.458127,-41.56343,-60.636373,-52.596994,-44.895822,-28.509949,-45.288864,-40.68111,-34.484085,54.590406,285.609333,-82.39274,53.562153
46,0.912437,-0.795098,0.737114,1.708202,-28.387184,-52.394371,-73.285618,-83.36792,-61.06081,-91.117973,-106.106472,-117.03455,-53.624039,-87.290726,-105.119133,-118.441143,-43.950119,-75.051556,-91.923866,-104.443989,-33.473167,-57.825737,-71.324158,-82.677784,-14.185181,-12.071279,3.634259,19.902034,16.502304,33.073274,40.669686,46.3259,33.19733,48.298455,55.943156,61.734913,44.975542,59.881412,66.752504,71.18569,52.537559,66.887429,72.111514,75.046572,-5.188808,2.223473,14.669838,25.760422,2.162533,15.219383,23.441048,29.675674,14.406281,38.780651,36.739712,28.69772,27.2085,48.533134,43.899708,35.738354,38.909168,54.514446,49.804802,42.905674,-28.260354,-52.779683,-69.063297,-78.573324,-63.917018,-96.579497,-115.397842,-130.325912,-55.000197,-76.703336,-66.948407,-58.549425,-43.139918,-62.445845,-53.425345,-45.251103,-30.533973,-47.72359,-42.356244,-35.527297,55.657253,284.750848,-81.501217,55.206968
47,0.94471,0.21662,-0.894184,0.574124,-28.54454,-52.425385,-73.450527,-83.581524,-60.733795,-91.105156,-106.038952,-117.026539,-53.499527,-87.400188,-105.113926,-118.312225,-43.963623,-75.069237,-91.850224,-104.469337,-33.744164,-58.118706,-71.573296,-82.885551,-13.877417,-12.053433,3.267276,19.356469,16.13069,31.6511,39.217687,45.117074,32.950699,47.625808,55.292492,61.247517,44.818017,59.826331,66.689827,71.238425,52.365152,66.837905,71.79634,74.55047,-5.672264,2.091408,15.426064,27.423534,0.677891,14.755669,22.786446,28.425179,13.80518,37.778893,35.435143,27.686977,27.324142,47.951317,43.09536,35.280075,39.400349,54.181652,49.319,42.972622,-28.930902,-54.347464,-71.685096,-81.975401,-63.873638,-97.19626,-116.120569,-131.088498,-54.810839,-78.305358,-68.829942,-59.960823,-42.913819,-64.361127,-56.032324,-47.681013,-30.534899,-49.390079,-44.821753,-37.7739,56.878595,284.762241,-82.118769,55.575865
48,0.093498,-0.758727,-1.70557,0.041589,-28.718719,-52.448616,-72.892113,-82.324448,-60.670223,-90.606136,-105.434132,-116.374569,-53.370094,-86.897507,-104.80093,-118.238869,-43.782806,-74.504986,-91.247635,-104.056778,-33.474083,-57.18235,-70.593395,-82.24371,-13.26121,-11.097846,4.216812,19.969898,16.549357,32.828001,40.594042,46.394505,32.981821,48.360823,56.288773,62.22095,44.602137,60.199489,67.301898,71.908602,51.96081,66.84019,72.154245,75.0659,-5.916767,0.880737,13.063431,24.414139,1.333122,14.858551,23.294106,29.603806,13.989201,38.368492,36.530743,28.717289,27.289696,48.386536,43.967113,36.032295,39.357376,54.691429,50.033054,43.371048,-28.159855,-52.819851,-68.960421,-77.912563,-63.962991,-97.330691,-116.440899,-131.460946,-54.898988,-77.823952,-68.271842,-59.516375,-42.808164,-63.847178,-55.412844,-47.052301,-30.28552,-49.11353,-44.447576,-37.567253,57.471628,283.741476,-83.324804,55.355416
49,0.811615,-0.344197,0.175037,1.481022,-28.66745,-52.642708,-73.25386,-82.807274,-60.086918,-90.456161,-105.60276,-116.734085,-52.642365,-86.47871,-104.301338,-117.68137,-42.929077,-74.23439,-91.150475,-103.925972,-32.446976,-57.004738,-70.614166,-82.183342,-13.394899,-10.985645,4.4619,20.411475,16.296675,33.137803,41.31189,47.323354,33.051723,49.041683,57.27678,63.370064,44.972331,60.59148,67.916314,72.817383,52.633458,67.167714,72.544014,75.637894,-6.112804,0.439568,12.814865,24.859657,0.700493,13.171978,21.770782,28.331966,13.374996,37.936134,37.364788,30.130749,26.897449,47.978668,44.606552,36.990166,39.346275,54.961281,51.392269,45.079765,-27.525092,-51.871581,-67.727203,-76.502431,-63.98025,-97.87993,-117.076898,-131.776305,-55.470302,-77.855413,-68.548854,-59.795209,-43.794102,-64.152781,-55.593186,-47.041989,-31.472641,-49.802263,-45.400725,-38.721491,58.544283,283.188594,-82.888727,56.627752
50,0.423203,0.496165,0.342522,0.426078,-28.62339,-52.658272,-73.447895,-83.371468,-60.568027,-90.563221,-105.569744,-116.491241,-52.93808,-86.579361,-104.209614,-117.131882,-43.169174,-74.186497,-90.838909,-103.034706,-32.790413,-57.209702,-70.871315,-82.137165,-13.619856,-11.293162,4.070278,20.281429,16.920169,33.658297,41.778167,47.887938,33.710908,49.509875,57.533291,63.55198,45.543584,60.76117,67.888156,72.464726,53.029093,67.104358,72.116948,74.688852,-6.674423,-0.590057,11.835938,24.201393,0.423832,12.978745,21.264038,27.681656,13.523655,36.750126,35.672207,28.655033,27.160091,46.913681,43.381805,36.061077,39.481773,54.084263,50.290203,44.104557,-28.402874,-52.839395,-68.641357,-77.525265,-64.239324,-97.916579,-117.369008,-132.582735,-55.916048,-78.6113,-69.623373,-61.051706,-44.56342,-65.288402,-57.22738,-48.829848,-32.565037,-51.546126,-48.012427,-41.51968,59.26549,283.477431,-82.248201,56.846503
51,0.846863,-0.606451,0.518703,0.348519,-29.071999,-53.317909,-74.077263,-83.715019,-60.817852,-90.554008,-105.488491,-116.581993,-53.105392,-86.453876,-103.958015,-117.079182,-43.280754,-73.898506,-90.618896,-103.113785,-32.936668,-57.030029,-70.596256,-81.948795,-13.335125,-10.719316,4.964671,21.379722,17.339392,33.797606,42.026404,48.268877,34.133528,49.863828,57.975733,64.065064,45.986273,61.557689,68.74062,73.324724,53.430161,67.949659,73.199432,76.007285,-6.260662,0.208855,12.915802,24.808846,-0.780716,11.726532,19.715652,25.686264,12.245808,36.18742,35.082607,27.716789,26.119537,46.450996,42.769775,35.194187,38.854351,53.571568,49.848175,43.673344,-28.899749,-54.170209,-71.52791,-81.883269,-64.571387,-98.094142,-117.409887,-132.686507,-56.390569,-79.616288,-70.230009,-61.396397,-45.281917,-66.176867,-57.354431,-48.640491,-33.48342,-52.41341,-48.348813,-41.640989,60.331593,282.724416,-81.510258,57.048458
52,0.406952,0.73767,-0.417595,-0.141378,-28.7883,-52.979622,-73.755684,-83.256912,-60.655861,-90.737686,-105.706844,-116.596985,-52.963486,-86.69466,-104.187469,-116.915359,-43.344612,-74.180374,-90.751247,-102.807026,-33.245888,-57.217484,-70.544128,-81.50877,-13.776887,-11.496506,4.238116,20.453404,17.23596,33.784638,41.967371,48.021443,34.114694,49.926752,57.756457,63.483808,45.902539,61.327854,68.216668,72.455957,53.224286,67.442503,72.460218,75.07825,-7.351112,-1.526642,10.098152,20.932961,-0.744038,11.490784,19.392815,25.305691,12.111626,35.643368,34.576778,27.499352,25.791721,46.017723,42.580833,35.388622,38.422165,53.753757,50.157051,44.104042,-28.116692,-52.921153,-69.271211,-79.148868,-64.808601,-98.355562,-117.714193,-132.774069,-56.513174,-79.560558,-70.351967,-61.661738,-45.110374,-66.045153,-57.478765,-48.998551,-33.071174,-52.051584,-47.919987,-41.183912,60.995121,283.170393,-81.671276,56.615387
53,0.612259,-0.253115,-0.458565,-0.453866,-28.866463,-53.098755,-73.765583,-82.581253,-60.638123,-90.764122,-105.873413,-117.023678,-52.89299,-86.570148,-104.149876,-117.112484,-43.177757,-74.130878,-90.954208,-103.511639,-33.049622,-57.117119,-70.511513,-81.735535,-13.3794,-10.968787,4.882296,21.158593,17.468018,34.098145,42.230922,48.255786,34.220905,50.075756,58.128565,64.086801,45.952619,61.603076,68.589517,72.9591,53.315491,67.86784,72.874872,75.546442,-7.066841,-1.011772,10.926132,21.781025,-0.711937,12.09486,20.148582,26.032448,12.411919,35.971413,34.904251,27.813435,26.309795,46.388283,43.050728,35.881176,39.165802,54.395199,50.984573,44.988899,-28.156243,-52.970985,-69.361799,-79.037749,-64.844108,-98.33395,-117.660038,-132.85524,-56.458155,-79.986081,-70.655593,-61.890616,-44.912279,-66.071737,-57.41541,-48.950756,-32.721358,-51.978348,-48.092425,-41.434002,61.907215,282.590232,-81.830006,55.834476
54,0.948486,-0.007287,0.544395,-1.08196,-28.88443,-53.142586,-74.028854,-83.132629,-60.609283,-90.736885,-105.787525,-117.03043,-52.815514,-86.885891,-104.591675,-117.786255,-43.177299,-74.465847,-91.397209,-103.954868,-33.148956,-57.592964,-71.195698,-82.549896,-13.409164,-11.038504,4.593057,20.973219,17.83636,34.098269,42.171826,48.420906,34.227636,49.673143,57.843896,64.146143,45.709446,61.055473,68.245135,73.014243,53.040269,67.340677,72.260517,75.072446,-6.885738,-0.226765,12.207241,22.905006,-0.794392,11.846466,19.653339,25.413723,12.526817,35.361214,33.77243,26.467953,26.464176,45.929775,42.114029,34.856873,39.237385,53.710785,49.825916,44.057465,-28.541504,-53.998142,-71.564528,-82.601797,-65.016515,-98.857624,-117.970272,-133.073682,-56.634236,-80.611581,-71.707018,-63.156098,-45.207446,-66.58831,-57.974127,-49.600401,-33.155309,-52.392693,-48.189898,-41.34857,63.322735,282.466793,-80.818577,54.636363
55,-0.075989,-0.23743,-0.199642,-0.900321,-28.674774,-52.881317,-73.587627,-83.140182,-60.167198,-90.475159,-105.900822,-117.507935,-52.451019,-86.555214,-104.686718,-118.28373,-42.941208,-73.995266,-91.168327,-104.065704,-33.070679,-57.18235,-70.75613,-82.285538,-13.41293,-10.916917,4.756943,20.604754,17.681489,34.25882,42.68664,49.37742,33.835027,49.746255,58.180682,64.841205,45.126398,61.008666,68.578834,73.805698,52.261535,67.029022,72.405075,75.735707,-6.205101,0.303154,12.591648,23.956776,-0.757942,12.127705,20.232754,26.014481,12.144699,35.873508,34.995747,27.791519,26.048756,46.591988,43.574066,36.290359,38.994942,54.96048,51.945877,46.076088,-28.690291,-54.383557,-72.012126,-82.751573,-65.12569,-98.786333,-117.866439,-132.883367,-56.820877,-80.949541,-71.666324,-62.684696,-45.587365,-67.233293,-58.318633,-49.496537,-33.682256,-52.979908,-49.067464,-42.378104,64.047489,282.106309,-80.217476,53.612989
56,-0.193748,0.173827,-0.247879,-0.557544,-28.667564,-53.300858,-74.259396,-85.007687,-59.994965,-90.511551,-106.22097,-118.060856,-51.921158,-86.344528,-104.562206,-118.087463,-42.345543,-73.972778,-91.092968,-103.62648,-32.558098,-57.205811,-70.852203,-82.131443,-13.589969,-10.766925,5.110896,21.044479,18.500423,35.624492,44.188101,50.746859,34.707004,51.258585,59.536907,65.822852,45.859376,62.273253,69.525345,74.340333,52.596284,67.402242,72.57952,75.612268,-6.119328,-0.383778,11.399403,23.270645,-0.374279,11.956272,20.269089,26.349449,12.538319,36.159325,35.112247,27.781391,26.402779,47.194004,44.098206,36.582184,39.394112,55.94347,52.85574,46.424675,-28.878908,-53.419849,-69.430218,-78.452231,-65.432373,-98.788494,-118.220268,-133.407998,-57.337172,-80.991223,-72.085455,-63.47402,-46.249669,-67.207142,-58.647979,-50.130034,-34.493965,-53.235154,-49.408944,-42.816408,64.623613,282.157948,-79.695482,52.933256
57,-0.055046,0.063047,0.815163,-2.002689,-29.23645,-53.399048,-73.992119,-84.130955,-60.324097,-91.073055,-106.38176,-117.770119,-52.409019,-86.95673,-105.000057,-118.855991,-42.753296,-74.380074,-91.392345,-104.363136,-32.792473,-57.444649,-70.982552,-82.565231,-13.889644,-11.141133,4.792573,20.184419,17.534832,34.049733,42.415802,48.958382,33.798594,49.645849,58.02291,64.74154,45.111825,60.769013,68.306824,73.718692,52.244307,66.555953,71.813753,75.410591,-6.01656,0.068092,11.78112,22.431393,-1.736412,11.27718,19.472809,24.992523,11.101799,33.950615,34.183159,27.405109,25.06319,45.149746,43.269253,36.167965,38.221035,54.44767,52.088013,46.190014,-28.761428,-53.790691,-70.882742,-81.473092,-65.292477,-99.29423,-118.908693,-134.390139,-57.134507,-81.670416,-73.282271,-65.051805,-46.288634,-67.82199,-59.432209,-51.044558,-34.872588,-54.411931,-51.132552,-44.64987,64.941444,282.175115,-78.507442,50.884686
58,-0.953636,-0.363833,-0.459538,-1.541476,-29.250984,-53.816185,-74.631844,-85.307293,-60.407867,-90.84795,-106.19379,-117.650185,-52.175446,-86.432533,-104.345169,-117.607155,-42.259254,-73.77903,-90.645962,-102.962093,-32.143478,-56.755714,-70.272675,-81.51495,-13.554895,-10.442056,5.535183,21.388367,18.345553,35.446959,44.039715,50.711908,34.684959,51.066788,59.426373,65.865459,46.085691,62.245712,69.401412,74.156996,53.026993,67.867408,72.839798,75.696804,-5.586433,0.348301,12.298164,24.102402,-0.430069,12.011948,20.377522,26.142483,12.337303,36.342945,35.718899,28.390045,26.215897,47.269592,44.347229,36.715736,39.333229,56.25967,53.304234,46.805649,-28.722278,-53.614672,-70.251159,-80.232743,-65.698332,-98.573047,-117.965116,-133.328248,-57.843587,-80.066078,-70.741889,-62.523218,-46.988667,-66.559596,-57.567532,-49.249751,-35.454153,-53.791216,-49.464704,-42.777073,64.403458,281.852994,-78.551331,49.384923
59,0.202332,0.323943,1.367283,-2.514816,-29.079552,-53.330383,-74.160118,-84.82275,-60.334282,-90.805721,-106.249237,-117.583294,-52.509842,-86.828098,-104.876518,-118.558903,-42.886276,-74.26569,-91.408825,-104.331093,-32.951431,-57.416267,-71.135845,-82.913189,-13.839317,-10.994229,4.756696,20.15447,17.600349,33.694853,42.171703,49.094542,34.091908,49.319375,57.561079,64.33726,45.669987,60.89381,68.222534,73.401727,52.90343,67.404403,72.615767,75.926207,-5.54369,0.927601,13.379116,24.525433,-1.67141,11.666336,20.501518,26.440029,11.409931,35.679474,35.812168,28.754826,25.313301,46.425247,43.946285,36.16293,38.259315,54.585915,51.747894,45.398941,-28.229108,-53.42624,-70.210218,-80.66129,-65.601507,-98.818783,-117.830994,-132.940826,-57.713541,-81.23418,-72.982719,-65.075857,-46.793135,-66.537458,-58.001946,-50.070661,-35.141789,-52.480749,-48.367338,-41.973206,64.802284,282.298616,-76.987553,46.991786
60,-0.868721,0.22471,0.546341,-1.038241,-28.910294,-53.113403,-74.097977,-85.381165,-59.810944,-90.337658,-105.798454,-117.123184,-52.032051,-86.308308,-104.523125,-118.097649,-42.473488,-73.650341,-90.62994,-103.190861,-32.587166,-57.10556,-70.668068,-82.010708,-13.733539,-10.80873,4.649065,20.186271,17.159575,33.543565,42.115201,48.822901,33.846389,49.892727,58.162651,64.458106,45.705679,61.827909,69.044494,73.732462,53.134871,68.027156,73.192516,76.078298,-5.740471,0.179787,12.457066,24.876709,-0.650311,12.210903,20.905952,26.714687,12.094345,35.991554,35.934105,28.995724,25.926762,46.651382,44.232159,36.658745,38.981209,55.248299,52.534389,46.136284,-28.084674,-52.49066,-68.776868,-78.556281,-65.237056,-98.381714,-117.423503,-132.048934,-58.125694,-80.677901,-72.282778,-64.227962,-47.704725,-67.185313,-58.74505,-50.482104,-36.42101,-53.514327,-49.237617,-42.666138,64.03307,282.738587,-76.341705,46.168807
61,-1.360817,-0.351113,0.530777,-1.478984,-28.659668,-52.100716,-72.757301,-85.059357,-59.977856,-90.031071,-104.812489,-115.519352,-52.237129,-85.936604,-103.712139,-117.153282,-42.604752,-73.211117,-90.088749,-102.858353,-32.425919,-56.477165,-70.109539,-81.901646,-13.687411,-10.597482,4.950222,19.615945,16.586655,33.22944,42.054068,49.278434,33.178929,49.136655,57.550705,64.145402,45.240822,61.04232,68.724936,74.095246,53.014766,67.971889,73.690039,77.277985,-6.036415,0.277061,11.500282,21.090488,0.096474,12.598286,20.914421,26.92606,12.963238,37.531185,36.515579,29.133339,26.797485,47.99818,44.900494,37.121429,39.533157,56.123371,53.276539,46.780071,-28.155687,-53.15318,-69.923944,-81.406,-64.986041,-98.234408,-117.63929,-132.771907,-57.452305,-78.640632,-69.813256,-61.858877,-46.759326,-65.402053,-56.718247,-48.771927,-35.430966,-51.772194,-47.543927,-41.431254,62.686701,282.863709,-75.79648,45.166058
62,-1.137886,-0.296649,0.920277,-1.174863,-28.458481,-51.976776,-72.619858,-85.003681,-59.101238,-88.937187,-103.640156,-114.566975,-51.375389,-84.812622,-102.663059,-116.464348,-41.733742,-72.222805,-89.057865,-102.016525,-31.580429,-55.290642,-68.670616,-80.430794,-13.2404,-10.194376,5.239214,19.977926,16.447778,33.998233,42.738819,49.535995,33.066049,49.795532,58.170123,64.515472,45.113369,61.42789,69.032947,74.244311,52.73689,67.887785,73.658053,77.224077,-6.954575,-1.815147,8.169079,16.719532,-0.321007,12.415237,20.623341,26.335659,12.577229,37.132187,36.232166,29.060783,26.253262,47.497444,44.995022,37.564316,38.52356,55.510483,53.08176,46.788082,-28.14593,-52.76514,-69.141658,-79.923867,-65.258916,-98.492555,-117.510046,-132.425549,-57.331583,-78.527165,-69.663202,-61.492542,-46.108415,-65.166568,-56.913039,-48.863441,-34.229149,-50.831056,-47.227981,-41.213738,61.511192,282.854663,-74.913826,44.278797
63,-0.321236,0.53093,-0.990429,-0.563596,-28.12809,-51.515579,-71.864548,-83.622265,-59.308949,-89.13002,-104.169331,-115.138664,-51.598778,-84.860229,-102.735043,-116.380463,-41.826668,-72.140179,-88.955498,-101.803608,-31.448364,-54.880257,-68.190708,-79.833469,-13.662896,-10.996575,4.321911,19.22562,16.317238,33.522323,42.332686,49.344631,32.920133,49.226626,57.778193,64.42686,44.777879,60.823724,68.545366,74.023615,52.162549,67.233602,72.963114,76.580947,-6.476612,-0.812302,9.372883,17.92448,0.445004,13.750534,22.164745,28.006325,13.254719,38.171768,37.243481,29.918118,27.060471,48.606663,46.286945,39.064007,39.591866,56.980305,54.861546,48.847218,-28.39287,-52.736828,-69.045513,-79.804812,-65.13628,-98.327558,-117.548578,-132.691632,-57.502478,-78.688982,-69.948613,-61.954435,-46.564658,-66.027894,-57.966625,-49.928481,-34.946318,-51.6934,-48.211943,-42.228328,61.165352,283.625092,-75.92886,43.9547
64,-0.199356,0.082005,-0.263329,-0.684256,-28.154411,-51.61068,-72.027798,-84.521084,-58.937702,-88.924999,-104.141006,-115.193653,-51.25843,-84.517593,-102.357101,-115.97517,-41.56414,-71.944427,-88.77903,-101.586571,-31.275444,-54.680557,-67.910614,-79.426174,-14.078044,-11.108158,4.522291,19.086805,16.315138,33.788405,42.66725,49.707538,32.84066,49.339629,57.837782,64.521894,44.584538,60.757033,68.608721,74.266912,51.841076,67.022168,72.998929,76.903099,-5.839691,0.416794,11.432934,21.361542,1.034203,14.400444,23.064709,28.902798,13.598385,39.333344,38.65757,31.076431,27.044964,49.374905,47.124252,39.572182,39.298325,57.3769,55.25671,49.033642,-28.85816,-53.062808,-68.499578,-77.933466,-65.821709,-98.019609,-116.763175,-131.785136,-57.885639,-78.391037,-69.474092,-61.56127,-46.539217,-65.144523,-56.66684,-48.61542,-34.504679,-50.303121,-46.3372,-40.488387,60.946741,283.950208,-76.211443,43.513555
65,-0.876389,-0.622074,0.508976,-0.036741,-28.133698,-51.297684,-71.425552,-83.507652,-58.786697,-88.17461,-102.972221,-113.906937,-51.292992,-84.029617,-101.813221,-115.599518,-41.653976,-71.504745,-88.140106,-101.035252,-31.209297,-54.107208,-67.184029,-78.813229,-13.344388,-10.405871,4.963992,19.559999,16.832298,34.254621,42.983906,49.777378,33.161947,49.505367,58.021922,64.531465,44.873654,60.78939,68.629346,74.046401,52.113087,67.085339,73.001399,76.707782,-6.164017,-0.461826,9.828529,18.555737,1.025162,14.351807,22.901573,28.810215,13.699436,38.501472,37.877941,30.792961,27.20644,48.466988,46.105385,38.82328,39.552441,56.531124,53.839703,47.381001,-28.695787,-52.83251,-68.399882,-77.97842,-65.942493,-98.032855,-116.784201,-131.772724,-58.187475,-79.316366,-70.672389,-62.940898,-47.086573,-66.052594,-57.834602,-49.820047,-35.189121,-51.561131,-47.536393,-41.330786,60.051985,283.48623,-75.720835,43.63491
66,-0.125771,1.166836,0.428982,-0.321534,-27.514915,-50.918198,-71.174641,-83.414612,-59.183865,-88.742352,-103.825264,-114.725933,-51.831551,-84.883347,-102.803307,-116.219559,-42.467079,-72.463188,-89.130878,-101.451588,-32.342491,-55.509224,-68.70575,-80.015087,-14.126395,-11.590058,3.893549,18.482145,16.188179,33.230614,42.028318,48.907191,32.832015,48.564723,56.799264,63.08101,44.670372,59.883574,67.711982,73.075932,51.979027,66.167542,71.846419,75.326919,-6.12545,-0.34481,10.107193,19.446888,0.65855,13.710308,22.402554,28.524742,13.047523,38.292675,37.667427,30.175552,26.654663,48.397179,46.180401,38.643436,39.237385,56.604939,54.062347,47.532349,-28.370424,-52.522739,-68.007766,-77.596,-65.68981,-98.155028,-117.127317,-132.132574,-58.345124,-78.715689,-69.740082,-62.135982,-47.6079,-65.849775,-57.167945,-49.241199,-35.91827,-51.511823,-46.779858,-40.394217,59.880095,284.796621,-75.337973,43.45693
67,-0.260468,0.12807,-0.006466,-0.357875,-27.935143,-51.277313,-71.437111,-83.339081,-59.358101,-89.040699,-103.929234,-114.536304,-51.988907,-85.142269,-102.934456,-116.33194,-42.566071,-72.736759,-89.179916,-101.331024,-32.465744,-55.734901,-68.716965,-79.727726,-14.160543,-11.694478,4.079788,19.084335,15.745305,32.467626,41.241371,48.259491,32.534316,48.070781,56.373927,62.966463,44.61245,59.748649,67.251262,72.52518,52.21584,66.417076,71.911628,75.329204,-6.347809,-0.405693,10.162296,18.820496,0.304985,13.756027,22.38842,28.450241,12.876606,38.04594,36.802082,28.847351,26.57999,48.208179,45.421715,37.702446,39.100742,56.433907,53.475952,46.864243,-28.425444,-52.833066,-68.969035,-79.773474,-65.507492,-98.185038,-116.920638,-131.762103,-58.103988,-78.783553,-69.750703,-62.255438,-47.39974,-65.940949,-57.142627,-49.30934,-35.780103,-51.750149,-46.82506,-40.271859,59.61339,285.050507,-75.350676,43.224872
68,-0.229225,-0.453866,-0.010529,-0.50129,-27.940178,-51.311302,-71.582794,-84.125462,-59.172421,-89.10696,-104.054146,-114.717007,-51.732559,-84.965286,-102.749004,-116.162968,-42.050514,-72.589874,-89.314842,-101.728764,-31.523666,-55.004539,-68.101959,-79.319515,-14.208461,-11.367016,4.487588,18.972258,16.102655,33.404565,42.07599,48.976784,32.437306,48.414299,56.943451,63.777678,44.227436,59.817439,67.624852,73.357513,51.679908,66.345816,72.111761,76.036555,-5.794544,0.496674,11.810074,21.617146,-0.335484,13.466148,22.393169,28.632431,12.138634,38.175488,36.869087,28.437195,26.045036,48.605747,45.960159,38.00211,38.894291,56.889496,54.248371,47.762089,-29.021181,-53.849354,-70.428321,-81.439315,-65.221187,-98.279918,-117.166714,-132.069404,-57.695911,-78.316288,-69.211251,-61.746583,-47.01451,-65.96991,-57.314448,-49.54779,-35.685378,-51.8659,-46.974773,-40.554583,59.389029,284.66168,-75.35634,42.78862
69,0.019112,0.296155,-0.505829,-0.426664,-27.919235,-51.315308,-71.638527,-84.471245,-59.204063,-89.346142,-104.260654,-114.89748,-51.886024,-85.347347,-103.101768,-116.476192,-42.293129,-73.098392,-89.820728,-102.210732,-31.743965,-55.495491,-68.711414,-79.969425,-14.521597,-11.697813,4.387614,18.858452,15.667994,32.789531,41.500167,48.389228,32.157453,48.266098,56.74375,63.481894,44.004764,59.700175,67.575761,73.391785,51.431856,65.944129,71.722301,75.702856,-6.304607,0.24313,11.880341,21.889572,0.420113,14.315071,23.031464,28.850327,12.617054,38.438931,36.936035,28.649311,26.154213,48.375492,45.251255,37.370224,38.665009,56.689396,53.603611,46.905613,-28.558207,-53.638538,-70.043369,-81.054641,-65.798985,-98.006765,-116.393907,-130.857181,-58.116091,-77.987714,-68.633854,-60.805291,-47.144,-65.37899,-56.469609,-48.514396,-35.330683,-51.66092,-46.688653,-39.880793,59.437523,284.974616,-75.832787,42.378737
70,-0.246162,-0.803558,-0.130405,-0.496998,-28.40744,-51.83075,-72.087936,-84.634438,-59.119778,-89.011574,-103.798885,-114.539795,-51.74057,-85.036011,-102.853718,-116.608715,-42.140923,-72.933598,-89.619827,-102.247009,-31.655731,-55.418358,-68.50462,-79.807777,-13.989124,-10.773347,5.345054,19.958474,15.988602,33.242779,41.604278,47.861695,32.417917,48.472653,56.834585,63.310721,44.325681,59.962799,67.631892,73.185353,51.946299,66.558546,72.285341,76.135973,-6.277542,0.527458,12.899323,24.128323,0.580215,14.314785,22.999935,28.945713,13.100452,38.71994,36.925678,28.617096,26.634293,48.623486,45.205822,37.252579,38.971596,56.648998,53.595886,47.009525,-28.393303,-53.595313,-69.897267,-80.12647,-65.167124,-97.848036,-116.320332,-130.750909,-57.180851,-77.504424,-68.368327,-60.553288,-45.947741,-64.707207,-56.175739,-48.33001,-34.091908,-50.296822,-45.981919,-39.677789,59.253531,284.191899,-75.901022,41.902579
71,0.136299,0.872225,-0.251598,0.024175,-27.826195,-51.562729,-71.968975,-84.194527,-59.646263,-89.706974,-104.744053,-115.395641,-52.156105,-85.55706,-103.36338,-116.801605,-42.441444,-73.165283,-89.842358,-102.252388,-31.891479,-55.692902,-68.848572,-80.002613,-14.622745,-11.939319,4.140489,18.965898,15.51652,32.723643,41.381853,48.095605,32.207718,48.095543,56.494587,63.099103,44.161116,59.565744,67.198466,72.608481,51.648724,66.15476,71.796895,75.385397,-6.607761,-0.165997,11.86615,22.994499,1.040211,14.766827,23.452034,29.368629,13.949718,38.561611,36.800766,28.791904,27.398415,48.31913,44.798927,37.035198,39.462318,56.267681,52.952728,46.383133,-28.53857,-53.446896,-69.229313,-78.210633,-65.381892,-97.748587,-116.101396,-130.775825,-57.082204,-77.730863,-68.729444,-60.840396,-45.553989,-64.313178,-56.000028,-48.092487,-33.408023,-49.770338,-45.597214,-39.28484,59.497719,285.032831,-76.044731,41.895462
72,0.457993,0.677032,-0.49902,0.765118,-27.897606,-51.739883,-72.472286,-85.028114,-59.940548,-90.34647,-105.244045,-115.787086,-52.53788,-86.384239,-104.107933,-117.639027,-42.865677,-74.145756,-90.750046,-103.045177,-32.399254,-56.800117,-69.904346,-80.827904,-15.212399,-12.666739,3.311489,17.94399,14.591684,31.663265,40.244411,46.791189,31.506048,47.276362,55.673492,62.261829,43.685267,58.903224,66.322165,71.515437,51.444206,65.650074,70.968822,74.323166,-6.608334,-0.545654,10.825539,21.179409,0.544338,14.425392,22.992725,28.690968,13.290424,37.883205,35.936165,27.831631,26.779232,47.938786,44.22884,36.363316,38.965931,56.075134,52.579021,46.032772,-28.71354,-53.666542,-69.895168,-79.296761,-65.637909,-97.427423,-115.503374,-130.190246,-57.249054,-78.274019,-69.278003,-61.301363,-45.721672,-64.714648,-56.269013,-48.384165,-33.586605,-50.135684,-45.788023,-39.535084,60.030756,285.733143,-76.468706,42.683861
73,-0.195351,-0.495238,-0.719318,0.2734,-28.173866,-52.159882,-73.034534,-85.460529,-59.785938,-90.112438,-105.033646,-115.571537,-52.1418,-86.041603,-104.01844,-117.773838,-42.163239,-73.455448,-90.416565,-103.246593,-31.306801,-55.955772,-69.348221,-80.818748,-14.285711,-11.538991,3.99309,18.88377,15.106065,32.630091,40.879761,47.039241,31.558289,47.8273,56.631365,63.408843,43.597705,58.945214,66.695879,72.079095,51.532139,66.013352,71.994126,75.733855,-5.898972,2.000656,15.582962,27.724972,0.975952,14.969616,23.826084,30.138931,13.99807,39.052505,35.950127,27.175655,27.476807,48.90667,43.57172,35.159397,39.23933,55.084305,50.950298,44.84808,-28.237661,-53.780379,-70.890399,-80.893318,-63.947183,-97.169337,-115.704773,-129.991472,-55.250594,-75.556909,-66.697268,-58.448031,-43.337798,-61.889536,-53.563326,-45.777093,-31.267661,-46.89564,-42.265378,-36.139706,59.887247,285.243709,-77.136183,42.963065
74,0.030556,-0.0515,0.043144,4.053853,-28.139992,-52.003555,-73.003178,-85.488396,-59.786911,-89.942951,-105.021229,-115.89489,-52.032051,-85.883846,-103.970146,-117.67725,-42.108879,-73.311653,-90.28101,-102.979889,-31.442528,-55.972137,-69.472446,-80.933819,-14.178512,-11.407709,3.790055,18.719761,15.837437,32.868448,40.965409,47.024606,32.373827,48.413805,56.987479,63.545743,44.222002,59.655221,67.17747,72.223714,51.771237,66.239482,71.845308,75.128083,-5.492363,3.279018,16.745739,27.93354,0.690365,14.875145,24.292717,30.956612,13.411388,39.324188,37.387276,28.99704,27.109795,49.201756,45.145226,36.998005,39.888783,56.616383,53.535976,48.129044,-28.747596,-54.043374,-71.870317,-82.916539,-63.072581,-96.058293,-114.579557,-128.510295,-53.979648,-75.502568,-66.753245,-58.591292,-42.126656,-62.042955,-53.686426,-45.784256,-30.002395,-47.033961,-42.173308,-36.073572,59.989328,285.273442,-77.021513,47.098151
75,-0.650482,-0.057181,-1.388855,5.205529,-27.832031,-51.505508,-72.507534,-85.009289,-59.483242,-89.90633,-104.972935,-115.814838,-51.797218,-85.751038,-103.795452,-117.202377,-41.931267,-73.051872,-89.956455,-102.551365,-31.377068,-55.963554,-69.545517,-81.011295,-14.111636,-11.279269,3.772209,18.433609,16.021577,32.89852,41.176842,47.454512,32.638613,48.855567,57.37027,63.721979,44.5239,60.439759,67.924589,72.80071,52.045655,66.790048,72.035808,74.977968,-3.519058,5.859489,19.820309,32.658119,3.662052,19.473724,30.455532,38.359623,15.320435,42.910538,41.097851,32.901535,27.616768,51.949825,47.504025,39.077454,39.346504,57.19059,53.297424,47.100849,-29.996096,-54.392881,-70.621291,-79.849705,-62.836231,-93.140277,-110.596717,-124.592849,-53.140089,-73.762905,-64.755341,-57.281195,-40.262287,-59.464041,-51.334414,-44.222712,-26.833827,-43.264531,-37.980085,-32.253969,59.375353,285.146128,-78.373861,52.233547
76,-0.028725,-0.16617,0.029926,7.136711,-27.98893,-51.48056,-72.442875,-85.028057,-59.372234,-89.830227,-104.911938,-115.837898,-51.838989,-85.759106,-103.710594,-117.122898,-42.188187,-73.055534,-89.928131,-102.638912,-31.852112,-56.18185,-69.636555,-81.163216,-13.911256,-11.087472,4.11548,18.768235,16.096171,32.244707,40.292885,46.545979,32.783232,48.614494,56.928384,63.261136,44.782696,60.674596,67.998689,72.77144,52.458086,67.361981,72.598354,75.60245,-3.86776,4.50325,18.025532,30.401745,4.428177,24.556389,37.276268,45.737972,16.116772,46.32431,46.59193,40.114632,28.019142,53.869801,50.9622,43.40189,39.393253,58.694172,55.480042,49.422054,-29.825017,-52.351258,-65.418664,-72.879843,-60.5996,-88.972711,-104.355819,-115.588713,-49.336541,-71.72792,-65.962655,-59.998831,-35.556319,-57.0584,-51.151973,-44.692478,-21.370027,-39.806755,-38.078175,-34.242271,59.467936,284.862014,-78.222628,59.252315
77,0.958672,1.153004,2.625332,9.682403,-28.041115,-51.899185,-73.337803,-86.003323,-59.933567,-90.586452,-105.827293,-116.770649,-52.288513,-86.507492,-104.666862,-118.024578,-42.579689,-73.672199,-90.726299,-103.283501,-32.348442,-57.113857,-70.788002,-82.140083,-14.639294,-12.404052,2.48848,17.44974,15.081735,31.024642,39.140313,45.462444,31.957999,47.673232,56.100435,62.486786,44.060216,59.830715,67.209889,71.955841,51.793467,66.376135,71.468136,74.330515,-3.06118,7.006302,22.237816,34.833813,5.348969,27.853432,41.220818,51.333275,16.658478,46.477776,43.214893,35.594673,28.00415,53.200722,46.739044,38.745747,38.873291,56.340408,50.526924,43.900394,-30.727283,-54.398192,-68.586059,-76.464578,-56.995661,-85.114699,-100.348927,-112.015124,-43.583101,-67.422496,-61.325724,-54.820843,-28.725643,-51.675987,-45.458554,-38.54822,-14.520177,-33.218974,-30.967183,-27.075024,60.435333,286.001155,-75.58857,68.920854
78,0.427094,-0.286769,0.421772,12.032407,-28.082657,-51.903191,-73.18943,-86.096706,-60.101509,-90.799656,-106.104012,-117.226467,-52.304306,-86.268082,-104.189701,-117.61076,-42.420616,-73.540649,-90.448837,-103.14743,-31.921234,-56.433792,-69.901886,-81.298599,-14.38939,-11.899551,3.096536,17.890391,15.6294,31.584286,39.342484,45.145726,32.442431,48.037621,56.158356,62.359889,44.280294,59.887464,67.064097,71.795784,51.635942,66.419669,71.703158,74.721457,1.480808,14.576912,30.893669,43.322067,8.185215,33.709831,47.326584,56.868668,15.813904,48.931046,44.692612,36.254025,24.962025,54.262218,47.180958,39.000607,35.32711,56.352596,50.012283,43.157215,-31.842434,-56.863701,-72.058841,-79.282002,-53.933119,-78.448866,-92.019538,-101.841404,-38.099541,-60.149934,-54.32897,-47.981799,-21.322819,-42.635109,-36.743687,-30.64534,-5.491279,-23.047168,-21.198484,-18.117478,61.176138,285.511629,-74.853086,80.750504
79,0.569572,0.385076,1.186409,14.270891,-28.161621,-52.235641,-73.626995,-87.029743,-60.288448,-91.162033,-106.494427,-117.596912,-52.645226,-86.867981,-104.88224,-118.216038,-42.831573,-73.970547,-90.964966,-103.596325,-32.244644,-56.75766,-70.321484,-81.683578,-14.784963,-12.054483,3.166005,17.517789,15.666203,31.295479,38.94333,44.945593,32.463797,47.708245,55.592167,61.879162,44.338834,59.642994,66.746206,71.572309,51.637177,65.983773,71.172413,74.263268,4.592915,19.170742,35.25095,46.649895,11.700897,40.120525,50.573845,54.989605,17.053928,51.24836,47.762833,40.095348,24.243965,55.45269,49.333992,42.080441,32.485714,55.158863,50.270748,43.979645,-31.480607,-53.523127,-66.783256,-72.445645,-49.865557,-71.296995,-78.039491,-80.712204,-33.592656,-54.089779,-49.470879,-44.358625,-16.118,-35.411083,-30.615113,-26.494508,0.20566,-14.311368,-12.811265,-10.514798,61.630983,285.668197,-73.781404,94.792888
80,0.948029,0.336107,10.186958,8.700973,-28.148003,-52.338181,-74.014606,-87.502041,-60.64024,-91.454144,-106.827278,-117.991219,-53.061905,-87.107677,-105.030384,-118.383293,-43.397141,-74.306202,-91.209869,-103.818169,-33.030739,-57.506905,-71.023808,-82.42527,-14.934646,-12.558614,2.456678,17.109495,15.507998,30.764488,38.309523,44.309749,32.402294,47.484708,55.180106,61.228868,44.313948,59.886908,66.702054,71.165497,51.623653,66.390585,71.560947,74.595362,7.587547,23.790321,43.257179,55.414181,9.806156,30.316658,41.012363,47.585621,13.440628,36.577778,36.094151,31.245861,19.487343,41.580219,35.925694,29.944954,27.084274,41.148949,35.265827,28.206081,-29.722665,-48.057135,-59.526811,-68.307163,-32.764954,-44.372055,-49.419472,-52.149767,-17.228797,-33.238086,-31.37063,-28.441962,-2.576536,-17.39506,-16.392882,-14.911459,10.018047,0.333576,0.16086,1.271256,62.176437,285.334775,-63.997021,102.824331
81,0.972061,-0.137703,19.810009,-11.327434,-28.328934,-52.809334,-74.83429,-89.023132,-60.91135,-91.500721,-106.800213,-118.262501,-53.714104,-87.336903,-105.346012,-119.080753,-44.345284,-74.802818,-91.773949,-104.655075,-34.083138,-58.063087,-71.407642,-82.933159,-15.119033,-12.555588,2.48638,16.761841,15.336703,30.51693,37.972798,43.773632,32.088602,46.931548,54.364692,60.058265,43.94888,59.310283,66.295736,70.833959,51.133417,65.681999,71.170499,74.558621,17.716255,29.262543,41.053963,51.798363,10.414753,10.075722,13.648796,14.833145,2.827606,-1.063042,0.691166,1.060066,-3.25161,-4.948254,-3.4869,-3.361473,-6.807976,-6.468544,-5.266285,-8.161068,-16.137575,-24.874054,-26.718848,-31.332036,-4.252874,3.198239,5.312017,6.181556,7.440338,18.757305,23.775607,28.048025,15.415373,23.389049,29.109082,33.555421,20.313971,29.872441,34.352989,38.060731,62.353535,285.019277,-44.981976,91.319103
82,1.002045,-0.696606,-34.202499,71.302521,-28.566742,-52.86541,-74.638138,-89.327831,-60.337658,-91.304054,-106.926212,-118.566628,-52.82341,-86.87851,-104.912853,-118.772392,-43.359375,-74.306488,-91.407223,-104.368458,-33.248177,-57.674789,-71.205082,-82.851219,-14.736118,-12.071588,2.781115,16.743007,15.354425,30.92016,38.266422,43.756342,32.361662,47.264259,54.585882,60.235674,44.345873,59.763531,66.821541,71.494998,51.508674,66.238679,71.938489,75.533289,18.523178,48.935051,77.82074,95.32402,25.523129,63.655357,75.801945,80.583687,27.246609,70.514889,62.359257,50.497112,31.559143,71.976528,61.43652,49.908543,36.675568,65.610867,57.297421,47.730904,-30.602393,-50.156124,-56.784228,-61.27021,-39.830745,-46.126477,-51.417901,-55.443009,-19.384381,-27.764467,-25.78938,-23.423413,0.55421,-9.640042,-7.839771,-4.511115,17.443256,8.138951,7.96815,10.360608,62.87487,284.688449,-79.665184,162.987403
83,-0.391388,0.539205,1.122494,19.576116,-28.63369,-53.66684,-75.474529,-89.22884,-60.508804,-91.339531,-106.746769,-118.128948,-53.067856,-87.079811,-104.961433,-118.463516,-43.843575,-74.353809,-91.191902,-103.970261,-33.950386,-58.295517,-71.881828,-83.534946,-15.644467,-13.00791,2.023005,16.709106,14.713703,30.12994,37.555119,43.196389,31.94602,46.628045,53.330743,58.303627,44.284184,59.267243,65.859161,69.940616,51.923328,66.269801,71.895511,75.258068,23.774071,55.831776,85.440273,102.085133,33.474598,76.238537,72.470284,63.966579,30.143566,73.562393,67.598133,54.619503,31.201286,71.173897,63.618107,51.936722,34.432354,61.02356,54.587975,45.194607,-31.163766,-45.79991,-46.018198,-47.409496,-38.151381,-35.273441,-32.967063,-34.111669,-16.877499,-18.15882,-16.428327,-16.428018,4.057805,-0.762185,0.122822,-0.054402,22.817395,13.350501,12.486921,13.501295,61.726627,285.428976,-79.299545,182.76484
84,0.753021,0.895628,-0.568199,18.109605,-28.062515,-52.935333,-74.683914,-89.084301,-60.673027,-91.494312,-107.100048,-118.634377,-53.440475,-87.332382,-105.11673,-118.496361,-44.353523,-75.198784,-92.070236,-104.784737,-34.519958,-58.696175,-72.110367,-83.462906,-15.403455,-13.07071,1.593531,15.392649,14.651026,29.742271,36.93181,42.270133,31.767314,46.009182,52.622404,57.664634,43.770112,58.336849,64.764758,68.984102,51.01393,65.143474,70.585414,73.901349,33.231583,66.278057,92.862225,109.34309,43.910694,80.8255,76.563892,67.937508,34.605045,73.295517,67.951698,55.58939,29.372921,66.462021,59.876289,49.081707,26.998558,52.339668,47.065201,38.639431,-26.896812,-36.08725,-33.064567,-32.979598,-38.051036,-21.990186,-17.562188,-19.968231,-19.011285,-2.840889,-0.209519,-4.33352,2.10007,11.802788,13.623561,9.640351,22.737181,25.287102,24.654161,22.056568,61.611557,286.109774,-80.735836,200.659616
85,-1.257248,-0.087562,5.019665,23.394576,-26.593781,-50.48996,-72.601204,-88.319721,-59.847107,-90.437222,-106.168156,-117.836895,-52.905922,-87.058811,-104.998627,-118.237953,-44.143867,-75.376339,-92.493324,-105.13504,-34.730072,-59.351807,-73.16843,-84.762039,-15.191219,-13.338212,0.385323,14.297196,14.851653,29.572581,36.925944,42.899555,31.936202,45.746187,52.113334,57.018725,44.056572,58.051686,64.371532,68.625518,51.505031,65.415114,70.72602,74.111671,24.036484,58.199329,86.397285,102.174797,37.849617,76.028481,65.768738,54.580593,32.818451,73.451385,62.179813,49.918385,29.651699,70.155087,59.186325,45.767155,28.317375,58.49287,52.206688,41.636066,-22.26831,-27.311281,-22.080651,-17.083684,-13.025138,-10.593468,-15.016403,-16.380655,6.40784,5.606011,-0.847216,-0.346667,23.905499,21.792832,14.195246,15.45125,38.196211,33.725667,26.465424,27.056499,58.911009,285.8283,-77.159472,223.86028
86,0.086403,0.478133,-2.008896,14.948046,-28.515701,-51.591454,-71.277809,-83.5952,-60.375538,-90.822487,-106.300449,-118.304615,-53.799934,-87.191334,-105.781918,-120.283642,-45.482483,-75.864372,-93.487358,-107.184792,-36.147766,-60.046749,-73.812561,-85.798416,-14.334864,-13.196001,-0.819551,12.074984,13.683644,27.990906,35.308515,40.588855,31.285352,44.334202,50.288177,54.425763,43.927761,57.599426,63.339374,66.582505,51.76253,65.377755,70.67736,73.662931,26.087666,60.126972,86.381035,102.358589,44.765053,84.010735,77.816162,68.950424,36.458359,78.614502,70.670986,59.286118,30.312996,69.58334,63.149357,52.024269,26.078796,57.183838,53.679886,46.033802,-16.715343,-19.527518,-13.626525,-6.539122,-8.943559,-6.222095,-6.264024,-6.128975,7.142114,8.401391,4.72051,4.930523,21.384291,23.327885,18.030935,17.882919,33.472552,30.793387,25.121797,24.767596,57.153797,286.722539,-81.011982,239.224431
87,-0.03994,2.127796,-1.774807,12.861376,-26.998787,-49.779396,-71.383152,-88.142052,-58.749962,-88.292027,-104.541206,-117.217712,-53.975945,-85.575371,-104.312096,-119.195251,-46.717072,-75.031128,-92.960987,-107.693596,-38.335648,-59.152451,-72.648983,-85.582123,-13.311289,-18.980101,-20.594442,-19.67294,15.346645,27.432188,33.539119,37.436187,30.042687,42.164108,47.853111,51.497621,41.067729,54.050691,59.859182,62.702665,48.708169,61.635927,67.028158,70.627898,24.784355,53.735104,75.843372,89.652958,44.607296,80.909672,100.928822,115.271931,38.474293,78.072968,89.473743,92.168713,34.145336,72.2192,81.532803,81.920757,30.835018,61.557083,69.900684,70.951996,-19.110147,-22.837464,-16.683788,-7.002126,-1.287373,6.789334,8.997159,11.572953,16.769065,21.632343,15.265937,11.412958,30.563922,34.458459,25.198244,18.965775,40.256205,41.117438,33.471132,27.469856,55.039186,289.081976,-84.86146,252.317448
88,-2.815361,0.774597,1.119003,10.081619,-26.233521,-47.910461,-67.244911,-85.106392,-52.976074,-78.88916,-91.289749,-101.25412,-50.522232,-77.474785,-95.312405,-111.007576,-45.99987,-70.652332,-87.398815,-101.894932,-39.39846,-57.097092,-69.371624,-80.997734,-8.189587,-10.494483,-13.938056,-15.263405,9.784044,14.672762,16.550284,17.847351,21.8284,30.434123,36.096759,39.473889,31.294738,42.962726,49.726804,53.392802,37.622241,50.59909,58.562115,63.573716,26.942654,55.935688,78.173962,92.648335,44.844761,75.754623,94.563847,107.749958,38.862476,73.773365,88.866749,95.478573,34.577751,67.64843,79.559155,83.230076,31.303024,57.796383,68.213081,71.459084,-16.276112,-18.410144,-11.96334,-3.139638,0.680304,11.037824,16.608514,21.394295,19.513007,31.124245,30.160815,28.746175,33.981499,42.889798,38.712568,34.338848,44.03107,49.964728,45.52969,40.118008,50.76745,290.111093,-85.198832,262.653587
89,-9.225769,9.956328,2.777195,7.556274,-18.852196,-39.332542,-58.129807,-73.387585,-31.075058,-51.214314,-66.294708,-82.482662,-30.002861,-53.859329,-73.527374,-92.044716,-28.446465,-53.244038,-72.228756,-88.066063,-26.238098,-44.517288,-59.730892,-73.852158,-11.647486,-17.388484,-20.45575,-20.494221,3.602951,1.080941,-0.656963,-2.944074,14.493933,13.782507,11.786363,8.183659,23.516903,27.964909,28.284529,26.714401,30.198174,39.67711,46.091743,49.982883,26.914158,53.315506,74.251328,92.117043,48.743362,77.480621,96.572456,110.131187,40.587559,73.057995,90.80658,100.823593,33.202686,64.167938,80.018578,88.869781,26.906834,51.619492,64.900532,72.791748,-15.142127,-15.450138,-8.905274,-2.99508,6.347263,18.918288,26.422075,31.602502,24.518557,38.079812,41.619222,42.795938,37.650029,50.414704,51.478416,50.279594,45.406807,56.308286,57.192985,55.281624,40.256166,299.892389,-83.707151,270.034829
90,-10.341225,-11.358618,3.789253,4.54199,-14.50058,-38.259373,-62.048893,-80.321617,-55.114861,-60.670795,-61.464214,-61.06842,-54.847126,-55.013123,-55.084076,-50.443268,-50.147152,-48.14621,-45.94471,-42.375469,-43.515873,-46.126442,-46.165752,-43.925743,31.368036,51.41259,62.529085,68.02024,44.635977,55.586054,51.009113,44.574658,27.944223,41.871905,38.329036,32.657199,10.037962,22.104054,19.912841,17.7609,-8.746205,-2.892575,-2.977049,-2.171206,26.561966,51.96516,73.239098,93.528557,47.825089,78.00808,98.295822,113.419418,37.951813,71.494446,92.051125,104.889565,29.160004,61.105042,80.122032,92.811813,21.616631,47.293968,61.994305,72.781563,-13.046195,-12.205401,-5.46664,-2.138787,12.350576,26.827219,33.720418,38.435865,29.633467,45.43021,51.055611,54.490601,42.114707,58.423362,62.596454,64.10372,49.085649,63.295469,66.52094,67.673573,29.014492,288.638052,-80.818348,274.6811
91,-5.454597,13.168831,3.301849,3.560282,-4.501648,-16.661224,-30.145912,-43.598957,-46.526127,-30.397453,-10.98587,2.032585,-52.91914,-35.531387,-13.445435,4.297829,-53.503647,-45.222073,-25.887222,-10.449371,-50.627518,-62.542934,-69.690971,-74.632301,-7.249128,-5.20945,4.909652,14.339434,0.667213,14.825842,18.989054,21.814506,12.831427,23.125715,25.330637,27.292818,22.565824,32.561301,33.324845,35.348838,31.385141,39.033485,44.962389,53.641595,26.052933,51.091003,72.840271,92.082825,48.211155,78.340073,96.663666,110.653839,37.931271,70.996513,92.81559,106.810913,28.516102,59.623661,79.103508,91.76651,20.255013,43.096275,56.842003,67.164288,-12.193792,-11.763268,-4.89372,-1.908458,13.682471,30.075909,37.344426,42.919192,30.66297,47.808342,54.083666,58.168024,43.440242,61.458147,66.102519,67.340306,51.562953,69.275502,72.94922,73.394193,22.338839,301.963405,-78.737555,278.397904
92,-18.633385,17.32062,3.378124,2.29693,0.943794,-1.7062,-8.122444,-14.517117,-25.511456,-7.152672,10.06588,20.530815,-32.847176,-13.104973,4.619751,18.992729,-34.869232,-22.550983,-5.817146,7.521286,-33.639851,-42.671928,-52.633438,-61.352234,-14.493377,-21.397815,-23.44552,-22.834376,-10.962798,2.331325,10.577599,17.141112,1.272058,11.886399,18.862034,24.430068,11.137675,21.078071,24.957108,28.433348,19.761367,25.166813,29.764625,35.367363,24.355602,48.975849,71.238155,90.28616,48.99416,78.672581,96.241665,109.950428,38.571339,71.020031,92.064342,106.148472,28.472614,58.630772,77.640667,90.970402,19.101162,41.627769,55.12104,65.620937,-12.335201,-11.078209,-4.5,-2.189793,16.356202,33.606921,41.781749,47.813159,32.480284,50.079399,57.055405,61.07937,44.197425,63.0108,68.952301,70.899847,51.328795,69.092845,73.263529,74.047142,2.54611,319.545245,-76.518774,280.956054
93,-53.322144,-24.507874,1.969528,2.945433,20.417576,39.495392,49.623184,50.029335,27.587872,58.18737,75.354309,83.413811,17.546368,49.794502,66.726265,78.38871,6.814156,33.523979,48.681793,55.893402,-1.555023,2.158298,0.109406,-3.028851,-20.383317,-26.240899,-24.357944,-21.927077,0.289115,20.292359,26.43319,28.062969,20.601975,44.268376,48.206385,47.709048,34.079744,54.677643,55.99972,55.975946,43.480318,57.554163,61.090732,62.198288,25.066051,48.695755,71.065922,90.140934,50.749683,80.159168,96.539783,108.911762,40.632248,72.270069,91.730976,104.846706,30.431042,59.275303,77.005177,89.824047,20.69149,43.013248,56.939678,68.74609,-13.062003,-12.925905,-7.213436,-4.437323,17.037433,33.688123,41.90809,47.648409,33.433526,49.867471,56.885344,60.284766,44.811348,63.080948,69.268833,70.957151,51.527631,68.720675,73.297986,73.915367,-51.793184,295.298606,-75.566397,284.162722
94,-1.48922,-0.526052,1.68148,2.336203,23.580666,42.679138,52.908211,54.528809,32.317486,65.90126,80.818062,86.37989,20.787334,58.156242,72.09137,79.545822,9.434681,42.209244,56.493988,61.739616,0.271454,12.145615,14.569759,14.936028,-18.403908,-23.962803,-24.004361,-22.500183,3.146245,25.463029,29.299644,28.463297,23.041055,49.795162,50.778722,48.532057,35.70767,59.114534,59.629162,58.076386,44.726132,62.959485,64.581174,62.244848,25.558777,49.352188,71.853046,91.54501,50.942974,80.884266,97.382984,109.488544,40.749149,73.175755,91.923695,103.990688,30.89819,60.588341,78.173046,90.671711,21.808662,44.487019,58.483829,70.474262,-12.951778,-12.910406,-7.419744,-5.578285,17.799803,34.351137,42.453593,47.900474,34.794134,50.740993,57.335999,60.264944,46.253837,64.048268,69.970318,71.574285,52.639139,68.894749,73.682012,74.761656,-54.012995,294.989344,-74.615507,286.715715
95,8.37513,4.450723,0.723667,0.592001,19.811897,36.980438,43.68885,42.852516,23.640518,55.461845,70.509224,75.983963,12.885876,48.255844,62.651367,71.262589,1.487217,31.728401,46.067963,51.793098,-7.645054,-4.288044,-7.81414,-13.09267,-19.930933,-26.871001,-27.509685,-28.387591,1.017462,24.973225,29.257592,28.343069,20.80711,48.020949,48.832967,45.873764,33.256487,56.613025,55.812678,53.418985,42.447912,57.573676,59.74692,59.653368,25.580063,49.668903,72.623863,92.026062,52.546349,81.497612,97.113876,108.870506,42.554054,74.372406,92.731819,105.099792,32.31657,61.230583,78.512764,90.963821,22.577591,44.70274,58.559303,70.598602,-12.804627,-12.891078,-7.904485,-6.432479,18.528582,34.999269,42.923267,48.159517,34.581836,50.650714,57.826544,61.084743,45.364508,63.170301,69.666506,71.73249,51.70646,68.540055,73.910735,75.281842,-46.331062,299.601606,-74.585037,287.469256
96,-3.256187,-1.581119,-0.264416,-0.504439,20.92947,40.107307,48.936653,49.395332,29.440384,60.427208,75.472298,81.130371,18.093624,52.058601,66.993599,76.327286,5.750942,34.713421,48.947182,54.700127,-4.430065,1.646862,0.200272,-3.266144,-21.0304,-27.406809,-27.026365,-24.898075,-0.084536,23.098174,28.160596,28.4867,20.646312,46.523378,48.596895,46.202955,34.142297,56.531329,56.641986,54.486155,43.733988,59.600942,61.060289,59.64744,26.027927,50.29541,72.687435,92.128429,51.361198,80.303135,96.374874,108.493252,40.832462,73.428669,92.386494,105.007267,30.377998,60.345783,78.29504,90.701122,21.018505,43.460255,57.571907,69.015026,-12.241402,-12.003354,-6.450819,-3.846989,19.2736,37.015173,44.979371,50.043645,35.926451,52.646055,59.65627,62.683893,47.224492,65.464391,71.130547,72.355551,53.642953,70.209045,74.598326,74.829087,-50.197821,298.2284,-75.460024,287.17273
97,11.708679,2.260003,-0.775967,0.865,17.087975,30.277405,34.410553,31.971016,13.766098,42.252617,58.555298,64.761887,3.000984,33.711205,49.404602,60.007553,-7.360554,17.46151,32.0961,38.206444,-15.150604,-15.705929,-19.76841,-25.801849,-21.556698,-28.518378,-28.640582,-28.537953,1.47954,25.502364,28.398706,26.291288,20.893005,46.92173,46.411301,41.671586,33.069075,55.898634,53.700381,50.406985,41.446753,56.22128,57.718481,57.438813,25.593739,50.374203,73.345299,92.648621,49.641895,80.085411,96.48571,108.842468,39.483204,73.941307,93.128128,106.004105,29.955082,61.734066,80.091476,92.91172,21.745777,45.824604,60.782776,72.551765,-12.745532,-12.055842,-6.158492,-2.941481,19.967366,36.35432,43.52132,48.275422,36.805716,52.775669,58.879018,61.394668,47.611667,64.743146,69.602409,70.349651,53.429667,68.795949,72.182897,71.790288,-38.954573,300.552501,-76.701422,288.101827
98,1.699333,1.947546,0.049381,-0.337651,16.652126,28.983421,33.95359,33.016434,14.281483,39.159393,54.512558,60.771446,3.34053,29.254189,45.415192,57.503929,-7.866325,12.062302,26.926918,34.625359,-17.081165,-20.503407,-24.570007,-30.00309,-22.951764,-30.866993,-31.816097,-31.770896,-0.683021,20.11637,24.487929,24.369059,19.192028,40.822024,43.074679,41.611997,32.027592,50.549073,50.984042,50.393091,41.488064,53.183839,56.460316,58.229095,25.518894,50.569954,73.678722,92.914295,49.917011,79.950886,95.933247,107.563534,39.196701,73.630199,92.383518,104.544353,29.141064,60.990314,79.079647,91.383533,20.47617,44.433517,59.327431,70.525761,-12.60542,-11.768147,-5.693264,-1.829541,19.920312,37.345785,44.439795,48.681246,37.126571,53.804678,59.556605,61.178788,48.207312,65.906153,70.391209,70.626354,54.033957,69.836875,72.808738,71.722116,-37.485151,302.557042,-76.881952,287.821171
99,-10.193653,-1.931182,-0.688591,-0.013091,19.53455,36.382656,46.899319,49.952831,24.302273,50.340443,66.443081,73.907604,12.620544,40.575085,57.935658,70.913601,0.758171,23.113174,39.61195,48.659763,-9.059315,-9.10841,-10.762482,-13.315887,-22.954295,-29.567147,-29.328729,-28.11663,-3.125497,17.211754,22.503826,23.229085,18.183212,39.874032,42.821255,41.214695,32.913896,51.20832,52.600668,51.746783,44.039776,56.408199,59.607487,60.561717,26.076908,51.729984,74.971104,94.224072,50.009823,80.286541,96.458073,108.135166,39.246883,73.835621,92.848835,105.065517,29.258194,61.551018,79.632511,91.386509,20.590382,45.178013,60.288219,70.994968,-11.928451,-10.845842,-5.012898,-1.244888,20.012444,37.396852,44.560888,48.772698,37.210613,54.337831,59.779586,61.053497,48.366998,66.418681,70.168043,69.489591,54.308561,70.315997,72.442187,70.244552,-47.865286,300.64667,-77.757025,287.82889
100,3.980656,-0.616331,-0.83519,0.235207,16.583633,31.272812,39.030647,39.575844,18.294468,44.456635,60.856819,68.449974,7.266769,35.518799,53.093948,66.182098,-3.45829,18.965435,35.884323,44.647408,-11.947231,-12.756329,-15.134354,-18.852425,-22.165496,-28.015483,-27.00821,-24.349052,-1.026292,20.183246,25.177989,25.545404,19.999106,42.008373,44.693898,42.697693,34.119881,53.179331,53.953002,52.650254,44.636532,57.07498,60.918449,62.440226,27.047939,52.728596,75.898876,95.901661,50.665798,80.522518,96.72472,108.211613,39.888268,74.087391,93.05872,105.044003,30.045261,62.02961,79.92239,91.267147,21.561699,45.88028,60.778942,71.04475,-12.022558,-11.000589,-5.014874,-0.978127,20.019051,37.105761,44.020387,47.891767,37.323308,54.733466,59.835655,60.427595,48.633451,67.142952,70.427024,68.830344,54.738591,71.148516,72.788051,69.621614,-44.022846,300.041794,-78.730431,288.075552
101,0.301037,-0.920822,-0.400085,-0.474428,17.005634,31.038723,40.345745,43.858852,17.016792,41.620274,58.919849,67.09528,5.366364,32.204647,51.421795,66.432438,-5.883751,15.623074,33.784504,44.380589,-14.711952,-16.106014,-17.606106,-19.323578,-21.697613,-26.54218,-24.359426,-20.610188,-2.427532,19.662875,26.174024,27.391557,18.942803,41.597424,45.25947,43.468647,33.543812,52.466732,54.413969,53.850805,44.337846,56.300568,60.79927,63.103302,27.388802,53.116608,76.064587,96.151142,50.456028,80.567722,96.947765,108.713322,39.923744,73.79282,92.800999,105.048466,30.253143,61.640053,79.295826,90.68121,21.95961,45.420456,60.054474,70.551395,-11.461185,-10.492692,-4.483389,0.203653,20.958152,37.61619,44.288754,48.023728,38.134276,54.975713,60.033936,60.612228,49.28356,67.330735,70.742692,69.139405,55.250625,71.787941,73.607603,70.424122,-43.814306,299.07682,-79.223013,287.556972
102,-3.271179,2.902949,0.538616,0.082066,18.384647,34.0452,45.362606,49.681263,20.730972,47.51524,62.323437,68.281689,10.039902,38.127308,54.025898,66.007175,-0.97887,21.351757,36.296139,44.745884,-9.399261,-12.793007,-17.786064,-22.967892,-25.13075,-32.795459,-35.19545,-36.770209,-5.443114,17.477775,22.298259,22.496107,15.986749,40.80214,42.991934,40.618371,30.829078,51.203689,51.991562,50.799964,41.988428,54.091694,58.500611,61.772642,27.326546,52.686253,75.38681,95.267372,49.761143,80.401154,96.974144,108.803215,38.85767,73.625565,92.984619,105.281868,29.039154,61.142979,79.187737,90.776367,20.709229,44.550934,59.397812,70.024109,-11.763206,-10.902467,-4.305547,1.266871,20.349787,37.240377,43.777152,47.388378,37.563084,54.958731,59.952116,60.401598,48.788815,67.181546,70.592639,68.916733,54.77385,71.474496,73.577345,70.537557,-47.094383,302.011076,-78.693295,287.670346
103,14.237251,-0.371737,-0.683727,-0.15592,14.010487,23.071918,25.645351,23.822651,8.861561,31.664371,45.346127,50.163746,-0.604763,22.402668,36.401196,47.117329,-11.051674,6.366978,19.745922,27.122326,-19.099503,-24.59507,-29.429913,-35.251236,-23.088726,-30.002981,-31.131655,-31.344756,-0.077497,22.179204,26.055463,25.598386,19.327261,41.93452,44.146111,42.519543,32.367652,51.699297,51.760122,50.249213,42.299094,54.016914,58.094047,61.104564,27.438068,52.944145,75.43745,95.258617,50.250778,80.440121,96.770496,108.621311,39.285679,73.329334,92.406864,104.693241,29.46207,60.955582,78.91119,90.629711,21.128883,44.944839,59.887447,70.8605,-12.122038,-11.165462,-4.424911,1.00999,19.963167,37.046851,43.781227,47.705466,37.388084,54.998931,60.083583,60.735173,48.725274,67.330179,70.806666,69.183865,54.677396,71.430962,73.627918,70.694589,-32.854729,301.637918,-79.374619,287.513006
104,-14.94976,-0.300478,0.561275,-0.479924,18.321018,35.150356,46.979542,50.906582,23.964615,49.263897,62.650738,66.850719,12.377872,38.983669,52.769566,62.990627,0.133724,20.888271,33.397465,39.857883,-9.543228,-11.933098,-16.482525,-21.111774,-23.111203,-30.973142,-33.633659,-35.468016,-6.498984,17.049042,22.490426,22.924223,15.341334,40.702661,43.540277,40.492833,30.958507,50.897098,52.598877,51.356397,42.418828,54.710124,58.592681,60.79538,27.282257,52.282104,74.264145,93.835258,50.026131,79.657173,95.818634,107.67334,39.056568,72.411575,91.466217,103.869553,28.951721,59.794636,77.704811,89.554367,20.24992,43.05851,57.892628,69.013367,-11.543499,-10.530854,-3.722191,1.942915,20.6494,37.40136,43.884042,47.398937,38.038192,55.162508,60.127858,60.48564,49.296774,67.629607,71.099918,69.394557,55.315957,72.202225,74.666066,71.772072,-47.771645,301.318329,-78.780499,287.01397
105,-1.625748,0.407738,0.134983,0.043534,17.442913,34.292679,46.90733,51.006489,22.281303,49.373646,63.998508,69.098682,11.720066,40.011692,55.613194,67.05946,1.025391,23.352184,37.636814,45.326443,-6.920414,-9.610291,-14.183464,-19.032211,-24.207891,-31.589844,-32.741612,-32.232233,-6.827867,14.811145,20.428333,21.155938,15.870041,39.601836,41.938472,38.452167,31.982144,51.130206,51.605499,49.375506,43.718612,55.340163,58.690988,59.945077,27.078094,52.112846,73.979702,93.461323,49.334221,79.530315,96.042995,107.783375,37.779408,71.95776,91.303768,103.324871,27.419071,59.136429,77.127743,88.578358,18.713036,41.644707,56.286221,66.912518,-11.932526,-10.718884,-3.682918,2.573016,20.02146,37.299904,44.145246,47.937277,37.475028,55.400741,60.178741,60.322434,48.685939,67.629175,70.96697,69.054992,54.531974,72.029694,74.523361,71.330927,-49.339142,301.741057,-78.587265,287.072494
106,-11.555214,0.12523,-1.054688,0.481838,19.813499,39.672489,53.986988,59.02914,27.54324,61.114712,76.33215,80.95499,17.522278,53.822765,71.114559,81.936092,8.047085,38.514576,54.96809,61.721706,1.699963,3.484097,-0.456562,-6.260033,-24.699362,-31.843452,-32.611504,-32.751122,-7.504589,15.189058,20.437534,20.182505,15.81743,41.094096,41.279903,35.547551,32.190799,52.422765,50.838867,46.549931,43.94326,56.903375,59.409577,59.957736,27.258625,52.46315,74.285946,93.821354,49.379768,79.969311,96.646099,108.604259,37.54612,72.182293,91.742535,103.994923,27.152653,59.152508,77.464886,89.106731,18.61805,41.932983,56.779175,67.502003,-12.338473,-11.17491,-3.960548,2.33608,19.12577,36.628801,43.52978,47.434135,36.874814,54.780025,59.647749,59.934765,48.423315,67.26176,70.664022,68.942915,54.559206,71.900821,74.278706,70.91337,-60.787296,301.845755,-79.534893,287.5338
107,-1.457691,0.828382,0.216007,-0.358276,18.418007,38.857784,54.468613,61.142921,26.030731,59.144211,75.118103,81.270447,16.72245,52.489014,71.260643,83.593483,8.069057,38.227558,56.49559,64.523392,2.366695,4.217148,1.009598,-4.013958,-25.498165,-31.928174,-32.333751,-33.484531,-9.115596,12.156557,18.377849,18.721119,14.852333,38.354107,39.306422,34.279321,31.896187,50.910621,50.116881,45.847952,44.219841,56.827237,59.650095,59.853131,26.667194,51.760025,73.731537,93.256531,48.976936,79.435387,95.953674,107.668648,37.549152,72.174568,91.380386,103.291855,27.237797,59.505272,77.55352,89.041557,18.532104,42.357388,57.102642,67.892761,-12.464691,-10.913397,-3.185024,3.255049,19.479538,37.098783,44.128079,48.085169,36.885435,54.786695,59.844856,60.299833,48.197123,66.956836,70.592392,69.180283,54.186728,71.631528,74.221093,71.421144,-62.208939,302.638136,-79.282837,287.139524
108,-0.3899,-3.505139,-1.263084,0.012041,21.20779,40.972023,54.95842,59.488449,27.112656,59.379501,76.052742,82.863808,15.659809,51.89415,71.365929,84.751511,5.614243,36.854668,55.918007,64.895325,-1.0429,2.474613,1.532478,-1.231041,-23.910501,-28.465828,-26.79406,-24.707143,-6.894866,15.07519,21.981479,22.687101,15.839783,40.72841,42.659222,38.390725,32.427611,52.65081,53.260471,50.236986,44.402992,58.77256,62.127028,62.171797,27.114944,52.301788,74.272728,93.832626,49.677944,80.312691,96.849403,108.788567,38.310471,72.521324,91.998367,104.351692,28.136959,59.843845,78.012657,89.734955,19.555893,42.945499,57.48476,68.303146,-12.563986,-11.156323,-3.505015,3.053496,18.602497,36.465409,43.783265,47.832425,36.098426,54.373584,59.651145,59.989228,47.606233,66.777575,70.59023,68.933158,53.822215,71.715693,74.561091,71.701861,-62.5811,299.099668,-80.528183,287.118235
109,21.696568,0.401501,-0.388527,0.77824,14.935799,26.222878,33.983288,35.057888,8.737965,35.680676,52.06049,58.639469,-2.629967,27.316074,45.586224,59.901867,-12.415581,10.616913,28.493214,38.577404,-18.729229,-23.449974,-26.589203,-30.426693,-22.451338,-25.867124,-22.734711,-19.927043,-0.142582,20.594627,27.11652,28.813607,20.258519,40.728287,44.935219,43.56788,34.751465,52.013854,53.599481,53.030883,45.276637,56.42623,61.37182,64.255441,27.257824,51.87252,73.553123,92.756081,49.201241,80.251122,97.12429,109.177895,38.069286,72.907791,92.553749,105.015907,28.061485,60.270081,78.640251,90.378914,19.490318,43.42701,58.197384,68.753586,-12.202869,-11.602223,-4.488267,2.379367,18.444416,35.627085,42.524112,46.677507,35.829009,53.42201,58.738412,59.780944,47.33978,65.689471,69.40277,68.113792,53.709953,70.529839,72.793362,69.680956,-40.849085,299.496924,-80.881262,287.89223
