takenoko1/special-research/HandMotion_SimilarSearch_自分用/NewProject/handData/key/d4_feature_d2/62.csv
,vel_0x_L,vel_0y_L,vel_0x_R,vel_0y_R,posFromWrist_1x_L,posFromWrist_2x_L,posFromWrist_3x_L,posFromWrist_4x_L,posFromWrist_5x_L,posFromWrist_6x_L,posFromWrist_7x_L,posFromWrist_8x_L,posFromWrist_9x_L,posFromWrist_10x_L,posFromWrist_11x_L,posFromWrist_12x_L,posFromWrist_13x_L,posFromWrist_14x_L,posFromWrist_15x_L,posFromWrist_16x_L,posFromWrist_17x_L,posFromWrist_18x_L,posFromWrist_19x_L,posFromWrist_20x_L,posFromWrist_1y_L,posFromWrist_2y_L,posFromWrist_3y_L,posFromWrist_4y_L,posFromWrist_5y_L,posFromWrist_6y_L,posFromWrist_7y_L,posFromWrist_8y_L,posFromWrist_9y_L,posFromWrist_10y_L,posFromWrist_11y_L,posFromWrist_12y_L,posFromWrist_13y_L,posFromWrist_14y_L,posFromWrist_15y_L,posFromWrist_16y_L,posFromWrist_17y_L,posFromWrist_18y_L,posFromWrist_19y_L,posFromWrist_20y_L,posFromWrist_1x_R,posFromWrist_2x_R,posFromWrist_3x_R,posFromWrist_4x_R,posFromWrist_5x_R,posFromWrist_6x_R,posFromWrist_7x_R,posFromWrist_8x_R,posFromWrist_9x_R,posFromWrist_10x_R,posFromWrist_11x_R,posFromWrist_12x_R,posFromWrist_13x_R,posFromWrist_14x_R,posFromWrist_15x_R,posFromWrist_16x_R,posFromWrist_17x_R,posFromWrist_18x_R,posFromWrist_19x_R,posFromWrist_20x_R,posFromWrist_1y_R,posFromWrist_2y_R,posFromWrist_3y_R,posFromWrist_4y_R,posFromWrist_5y_R,posFromWrist_6y_R,posFromWrist_7y_R,posFromWrist_8y_R,posFromWrist_9y_R,posFromWrist_10y_R,posFromWrist_11y_R,posFromWrist_12y_R,posFromWrist_13y_R,posFromWrist_14y_R,posFromWrist_15y_R,posFromWrist_16y_R,posFromWrist_17y_R,posFromWrist_18y_R,posFromWrist_19y_R,posFromWrist_20y_R,posFromBody_0x_L,posFromBody_0y_L,posFromBody_0x_R,posFromBody_0y_R
2,9.060631,-3.947704,0.256577,0.269232,13.343353,22.057171,26.608143,27.155743,8.821392,29.882069,48.679562,56.733685,-1.032085,22.563744,42.958202,59.147129,-10.580921,7.000408,26.480598,39.332256,-18.475056,-24.302158,-26.031647,-28.655663,-19.522084,-19.159547,-10.797368,-0.606266,-5.399703,16.542935,25.020464,27.370006,15.946673,36.994363,42.427164,38.970006,31.96331,48.195209,51.806928,49.858209,44.174392,53.959857,60.375724,63.758721,26.682758,51.424713,73.225136,92.510262,49.412785,81.660347,98.612366,109.878159,38.851318,74.498634,93.836288,105.404549,29.189873,62.006378,79.859619,90.60997,20.995674,45.069122,59.326458,69.135246,-13.382549,-12.401767,-3.948815,4.092447,17.127094,33.141199,39.277461,42.455076,34.649021,51.292053,55.633478,55.702824,46.119777,64.159851,67.283249,65.270062,52.212382,69.688304,71.781705,68.20191,-34.814243,298.43795,-75.535469,290.6377
3,7.68837,-2.329411,0.058365,-0.154129,13.041286,19.652996,22.426929,23.366032,1.909561,22.791195,41.423092,49.43018,-8.460732,15.045719,35.68079,51.061649,-18.185463,-0.420971,19.021854,30.798283,-25.378876,-30.963936,-32.263527,-35.02985,-18.689441,-18.157523,-9.937864,0.19192,-1.324114,21.896079,28.746237,29.338176,18.862281,40.993196,46.482746,43.881448,33.82033,50.814599,54.745816,53.485305,45.107997,56.296739,63.16499,67.514566,26.685219,51.061707,72.463531,91.806564,48.838062,81.049347,98.064995,109.420395,38.342171,74.311867,93.72757,105.425377,28.775997,62.184734,80.149727,90.810585,20.668087,44.946098,59.451599,69.519882,-13.160124,-12.288394,-3.680448,4.477893,16.69515,33.061912,39.40689,42.833606,34.52799,50.998122,55.261061,55.31818,46.227532,63.748285,66.723852,64.722336,52.525209,69.47755,71.386255,67.722974,-26.016712,295.77995,-74.367943,290.154982
4,-11.224709,1.783908,0.633316,0.33796,15.698719,27.99757,37.202282,41.862545,11.453419,34.519444,53.406887,62.241383,1.763821,26.560879,48.047276,65.1507,-7.586231,10.822735,30.876675,43.853474,-14.983406,-21.727066,-24.104919,-27.575569,-20.844222,-21.534098,-15.1475,-7.113462,-3.957213,19.145159,26.505253,27.740446,17.292832,39.881504,44.155805,39.820803,32.951502,50.662261,53.470423,50.533203,44.643448,55.759881,62.041936,64.933769,26.412678,50.427132,71.605339,90.674744,48.827305,80.721474,97.748108,109.072495,38.356876,73.990059,93.214302,104.70829,28.491497,61.726456,79.512863,89.915771,20.027218,44.477634,58.906288,68.715363,-13.388107,-12.706074,-4.352231,4.21885,16.394179,32.833497,39.203546,42.559063,33.91839,50.887094,55.090383,55.243771,45.445771,63.411683,66.280237,64.374187,51.674165,68.953042,70.625058,66.827901,-36.321459,297.351159,-72.814665,290.280242
5,4.085941,1.371909,-0.353394,0.319064,15.636463,26.336174,34.473495,37.814941,5.673466,27.316933,46.732407,56.55304,-4.434414,18.711662,40.564957,58.668137,-12.917004,4.055214,24.555645,37.971382,-18.531933,-26.879997,-29.822388,-33.61908,-21.203795,-24.671266,-23.130284,-20.883866,-3.96839,18.562297,25.993959,27.618242,17.177544,39.418437,43.668286,38.931967,32.681529,50.673438,53.688957,50.58742,44.208355,54.252368,60.478662,63.164311,26.035423,50.359154,71.472015,90.571289,48.960571,80.852966,97.662277,108.876801,38.241405,73.840942,93.126869,104.495201,28.425007,61.47995,79.174004,89.464073,20.213013,44.494343,58.932152,68.686981,-13.715322,-12.791536,-3.978147,4.278192,16.399674,32.801572,39.163408,42.540909,34.441725,50.933716,55.073772,55.153801,46.144848,63.493132,66.118327,63.969845,52.339217,68.877892,70.291111,66.346804,-31.643772,298.581042,-72.576313,290.457281
6,-26.854649,0.113003,0.18219,-0.040014,23.102531,46.457806,65.381985,74.999714,36.27388,64.126339,80.332775,87.901897,25.065308,54.36842,73.373051,86.978245,13.122196,37.682304,56.042461,65.963001,3.638992,8.465881,9.15556,8.101501,-23.349683,-30.637899,-33.963035,-36.5949,-7.892999,13.483202,20.374178,21.718361,15.65268,38.071599,41.377654,36.551983,32.810279,50.319855,53.475672,50.555927,45.319121,57.507294,61.01657,60.031034,26.278095,50.396233,71.737061,90.897331,48.954678,80.789452,97.833252,109.390755,38.738594,73.803291,93.034744,104.544067,28.933926,61.574879,79.207077,89.726601,20.323563,44.525986,58.813877,68.770638,-13.673826,-13.21854,-4.941885,3.341871,16.702498,32.733832,38.988716,42.287979,34.205035,50.615516,54.957249,55.166274,45.742297,63.151282,66.123576,64.093037,51.917956,69.19535,71.084604,67.436328,-58.080454,298.586537,-71.976156,290.309759
7,1.460037,0.057181,0.180874,-0.122513,22.991352,45.448151,63.184948,71.998158,34.694481,62.332821,78.458004,85.943928,23.393669,52.508183,71.713085,85.578518,11.620674,35.707912,54.430676,64.809666,2.28756,6.447144,7.315464,6.458416,-22.967139,-29.931227,-33.061294,-35.770902,-7.57727,14.13257,20.882507,21.962522,15.638848,38.426664,41.719813,36.709138,32.710675,50.687887,53.93917,50.825344,45.277255,57.752196,61.326928,60.206899,26.033535,50.072136,70.995197,89.857349,48.250065,79.985676,97.056599,108.622227,37.781754,73.127346,92.768383,104.35873,28.048954,61.117001,79.125309,89.656849,19.719944,43.975697,58.451385,68.240032,-13.631959,-12.89892,-4.250281,3.822412,16.328167,32.821332,39.103819,42.374738,34.286731,50.888947,54.974292,54.840356,46.184553,63.594403,66.109929,63.668503,52.628209,69.485701,70.957769,66.773499,-56.293602,298.562208,-71.468468,290.105736
8,-2.521935,-1.078471,0.0317,-0.188895,24.516563,48.596363,68.005657,77.750645,37.92841,67.831135,83.43401,90.13773,25.899639,57.759991,76.057949,88.169346,13.629856,40.236912,58.244076,67.194386,4.054413,10.645638,11.881542,10.810089,-22.565824,-29.06277,-31.855,-33.702449,-6.321081,16.00583,22.240214,22.719212,16.772832,40.023283,42.550295,37.179491,33.704054,51.973655,54.441942,50.789961,46.043268,59.239887,61.972219,60.162006,26.042175,50.299816,71.455021,90.283298,48.140087,80.201397,97.202625,108.73106,37.581654,72.989559,92.423801,104.083271,27.739849,60.687504,78.81094,89.823933,19.246731,43.842602,58.461685,68.641605,-13.701058,-12.853534,-4.350749,3.997536,16.54874,32.887775,39.042068,42.3099,34.204912,50.943472,55.077045,55.01196,45.889325,63.77811,66.616653,64.328245,52.037566,69.441055,71.252133,67.264724,-58.465061,297.419099,-71.086292,289.852204
9,0.463772,0.051315,0.186138,0.228353,22.781639,46.350174,65.161858,74.653015,34.959583,63.098145,79.658661,87.938576,23.524246,53.700371,73.757172,88.364067,11.981792,36.97134,56.088753,66.558037,3.209209,6.253452,5.177708,2.365437,-22.906809,-29.218504,-31.727362,-33.137865,-5.910502,16.116117,22.752001,23.16258,16.92338,40.287266,43.573622,38.298161,33.504786,52.231648,55.24303,51.814647,45.371733,57.780416,62.315922,62.529085,26.234779,50.389481,71.35746,90.224419,47.859936,79.847031,96.778564,108.374634,37.249775,72.811546,92.39994,104.12796,27.588329,60.579472,78.731003,89.793091,19.408607,43.685188,58.300152,68.710899,-13.543656,-12.894289,-4.330927,3.961412,16.254561,32.566488,38.673974,42.091304,34.141556,50.640525,54.666219,54.657204,45.99288,63.534381,66.357548,64.292615,52.231586,69.254569,71.1529,67.527904,-57.751379,297.422465,-70.650244,290.032608
10,-0.39053,0.011486,0.441055,0.203468,23.034954,46.027737,64.254513,73.963451,35.003529,64.235859,80.647144,88.090267,23.757763,55.706463,74.552479,87.507534,12.593708,39.375858,57.291927,66.223125,4.242897,7.656956,5.576248,1.35006,-23.542159,-29.093027,-30.664884,-31.06268,-5.241684,16.182066,21.882493,21.640741,17.966591,41.14572,43.333784,37.719807,34.494089,53.350195,55.463356,51.487679,46.077293,58.48857,62.965228,63.391059,26.030045,49.97715,70.993538,90.103455,47.833672,79.760284,96.626015,108.140488,37.230778,72.677193,92.045403,103.539619,27.465019,60.36993,78.38871,89.308548,19.091549,43.188171,57.6511,67.965431,-13.447634,-12.698231,-4.302707,3.887435,16.168481,32.333195,38.307856,41.587112,33.841696,50.562349,54.54488,54.43163,45.5371,63.41403,66.252141,64.167632,51.716526,68.968109,71.016802,67.498017,-57.921152,297.318925,-69.988432,290.12105
11,-2.949944,2.020967,0.180588,-0.170863,22.591953,47.322178,67.429447,78.414173,38.442593,67.625256,82.52306,87.390461,28.103256,60.434589,77.989483,89.021816,17.233944,44.476433,61.780529,69.295406,8.639259,12.546158,9.579334,3.716469,-25.004533,-31.956394,-35.145309,-37.537952,-7.562326,12.888237,18.34827,18.119115,17.002605,39.367864,41.571798,35.65654,34.253448,52.313344,53.961771,49.500612,46.143366,57.105361,61.587082,61.868294,25.532398,49.60722,70.748634,89.901237,47.340832,79.464226,96.460419,108.050423,36.669559,72.48539,92.026749,103.596954,26.89476,60.293598,78.471451,89.403305,18.664455,43.304386,58.001575,68.279114,-13.50216,-12.533975,-3.830131,4.399408,16.372998,32.703265,38.60327,41.88197,34.182682,51.111742,54.94459,54.821151,45.897352,63.950703,66.510504,64.320464,51.975878,69.265746,70.931895,67.136345,-60.731392,299.279006,-69.66814,289.889301
12,0.009155,-0.180373,0.222473,0.00389,23.233395,48.398609,69.358578,81.017246,39.681988,68.464336,83.114376,87.954769,28.85725,60.59927,77.827549,88.67506,17.326813,43.925114,60.793819,68.042393,8.136063,11.484318,8.62421,2.919159,-25.296859,-32.015551,-34.991735,-37.486637,-8.325623,11.727144,17.289498,17.36576,16.394734,38.648657,41.432921,35.721502,33.83268,51.743819,54.120284,50.010918,45.750324,56.026519,60.696332,61.162239,25.792809,49.748096,70.871773,90.162392,47.24184,79.886398,96.946678,108.459549,36.548252,72.762222,92.387123,103.909836,27.004738,60.598812,78.938828,89.835777,19.136238,44.156113,58.993492,69.274521,-13.493638,-12.38423,-3.629813,4.259729,16.689901,32.384263,38.135202,41.382594,34.469142,51.132923,54.737232,54.339189,46.134536,64.081737,66.444555,64.010107,52.100058,69.348677,70.948012,67.058848,-60.539989,299.046887,-69.26342,289.841444
13,-4.13126,1.426682,-0.550919,0.436267,24.546318,52.117081,76.079063,89.362106,46.72039,77.141647,90.347328,93.928528,35.459747,69.14669,84.129524,92.095642,22.842407,51.194,65.553017,70.782509,12.010288,19.36861,17.605247,12.969418,-26.933245,-34.741955,-38.692067,-41.533142,-10.756551,8.939669,13.511608,12.758191,14.729696,37.738579,39.895212,34.384482,32.934273,51.325213,53.523652,49.419843,45.573842,57.530574,60.01362,57.49198,26.190319,50.841465,72.552681,92.044945,47.653885,80.42942,97.438087,108.986092,37.061863,73.918991,93.656502,105.546799,27.527905,61.590042,79.789352,91.086273,19.622841,44.775696,59.684086,70.726318,-14.162951,-13.703404,-5.131397,3.761218,14.848566,31.64122,37.520106,40.854381,32.742044,49.469737,53.618191,53.875444,44.893599,62.536556,65.727509,64.370482,51.324596,68.70005,71.185937,68.603596,-64.615431,300.462005,-69.75852,290.266148
14,2.862854,-0.30233,-0.067806,-0.328203,22.986031,49.268188,71.15284,82.763214,43.737144,73.753853,86.77803,90.351791,32.906284,65.71312,80.682335,89.336586,20.652924,47.420025,61.814461,67.440834,10.150852,14.404793,10.634308,4.292336,-26.799,-35.157165,-39.365023,-41.974349,-8.399847,10.291077,14.84023,14.410879,16.596102,38.48193,40.6067,35.137405,34.055723,51.808163,53.550081,49.365502,45.970218,56.875032,60.196895,59.079954,26.229286,50.625343,72.040844,91.604176,47.537613,79.634457,96.752186,108.583431,36.804199,73.240643,93.315868,105.26144,27.260113,61.062984,79.366779,90.361233,19.456501,43.987598,58.728619,69.432163,-13.72477,-12.719288,-3.897254,4.189148,15.369925,32.279163,38.626859,42.235491,33.664596,50.170048,54.212663,53.995672,45.938293,63.296087,65.979945,63.736182,52.527494,69.296992,71.363654,68.02623,-61.69095,300.142231,-69.7647,289.9205
15,-0.954952,-1.077298,0.359287,0.505983,24.162712,50.679646,72.36208,82.321758,44.513168,76.976566,89.122982,90.805607,33.48793,70.190449,83.268299,88.444347,21.290302,51.697655,64.556751,68.056698,11.067066,18.941231,16.020184,9.904003,-25.331625,-32.68579,-35.439488,-37.287307,-7.812724,13.602875,16.752084,14.635712,17.027614,42.425559,42.449888,35.241763,34.471982,55.114219,54.98022,49.423671,46.542088,59.863752,61.353974,58.513641,26.060772,50.426388,72.233849,91.353951,47.372761,80.222969,97.202339,108.438148,36.503792,73.479881,93.175392,104.612503,26.762123,60.947685,79.098015,89.947357,18.747883,43.60857,58.449783,69.144058,-14.010921,-13.683336,-5.462874,3.376451,14.929274,31.63239,37.652314,41.066123,32.900434,49.973312,54.009751,54.072736,44.850868,62.873467,65.788518,64.005784,51.047769,68.424582,70.89608,67.999307,-62.603588,299.049712,-69.363098,290.411261
16,-0.860538,-0.294302,-0.019169,-0.147892,25.947762,52.427216,73.96534,83.852921,45.970917,78.216248,91.180458,94.040337,34.2243,69.273834,83.529968,90.24662,21.47192,51.140785,65.134506,69.902687,10.933056,20.586891,20.467529,17.341347,-24.069261,-31.082379,-33.502686,-35.032923,-8.518716,12.809938,16.628336,15.042092,15.804956,40.613925,41.368515,34.56893,33.508367,53.081086,54.173019,49.654741,45.971329,59.929886,61.272958,57.830681,26.112499,50.878029,72.483158,91.652355,47.487202,80.082264,97.109013,108.451824,36.478558,73.332081,93.168011,104.548931,26.821404,61.050568,79.128284,89.481869,19.17635,44.304085,59.016781,68.947964,-14.004129,-13.117208,-4.431642,4.080158,15.418152,32.120341,38.35349,41.830902,33.853367,50.622061,54.410511,54.16493,46.100882,63.747544,66.003039,63.478497,52.490876,69.466311,70.785609,66.659076,-63.400898,298.722759,-69.319038,290.230719
17,4.908772,-0.07972,-0.348129,0.526052,24.15041,49.543819,71.439342,82.350368,39.514618,70.255222,84.31406,88.769932,27.974396,61.842098,77.51318,86.449184,16.343479,44.167271,58.935413,64.699116,7.322388,13.065376,11.641445,7.458,-22.869018,-29.621549,-30.963262,-31.274422,-7.974448,14.508074,19.102305,17.172234,15.892827,40.653198,41.833928,34.872495,33.486507,53.340932,53.856857,48.2577,46.143551,59.564571,61.298769,58.189945,26.019859,50.837116,72.438297,91.583805,48.023758,80.844898,97.85265,109.133549,37.182426,74.368801,94.083652,105.465488,27.451401,61.983833,80.11488,90.704212,19.42606,44.939461,59.829712,70.074406,-14.448485,-14.119046,-5.607864,3.191632,14.33332,30.971228,36.98473,40.37668,32.701351,49.676292,53.56805,53.651969,45.026918,62.867168,65.354969,63.349068,51.480269,68.691282,70.282096,66.622087,-58.471298,298.591678,-69.646339,290.705409
18,2.268906,0.139124,-0.538788,-0.756875,23.28661,47.423172,67.789593,77.478046,37.510014,68.05315,82.337093,87.16959,25.814381,58.231487,74.690151,84.90572,14.091053,40.259914,55.625896,62.319317,4.956436,8.952084,6.907711,2.580814,-22.282883,-28.755067,-29.842801,-30.121419,-7.02343,15.108659,20.552266,19.510969,16.403194,40.663017,42.709611,36.737914,33.403144,52.967774,54.310846,49.730633,45.729144,58.458374,61.44061,59.62663,25.994625,51.110744,72.896862,92.440395,48.517113,80.941143,98.125248,109.713192,37.659931,74.462872,94.191113,105.662899,27.822704,62.282124,80.297527,90.693798,19.639778,44.849911,59.570904,69.498653,-13.806342,-12.927881,-4.311784,3.917014,14.978983,31.915762,38.353922,41.958787,33.283904,50.282928,54.383032,54.3445,45.535927,63.239338,65.619631,63.218652,52.054486,69.115445,70.541571,66.496055,-56.18288,298.689321,-70.165615,289.907054
19,-0.517845,1.027156,-0.029354,-0.437996,21.464767,46.119976,66.773586,77.021542,35.121231,64.852467,80.106068,86.09087,24.515648,57.314472,75.444088,87.229099,14.181633,41.356373,59.051113,67.337208,6.440506,10.02594,8.194313,3.700275,-23.802314,-30.334087,-31.023592,-31.001053,-7.518483,13.852779,18.837272,17.571574,16.486742,39.560525,41.3574,34.896702,33.64323,51.982361,52.748993,47.454204,45.689192,57.414977,60.306873,58.896617,26.464405,51.142101,72.981491,92.386894,48.832111,81.159554,98.210335,109.669418,38.307781,74.612961,94.074669,105.592461,28.457222,62.426834,80.193787,90.616493,20.062008,44.859009,59.308891,69.394913,-13.373781,-12.848902,-4.686239,3.674891,15.155465,31.870746,38.255924,41.807561,32.983056,50.181225,54.482635,54.57415,45.019694,62.927066,65.877069,63.970154,51.559556,69.116372,71.180811,67.699261,-56.659985,299.659574,-70.154228,289.412155
20,-5.940914,0.922304,0.189228,0.139247,22.842808,49.304409,72.774811,85.705261,42.276993,74.430542,87.349319,89.687347,32.265358,68.325233,82.403297,89.165611,21.062679,51.459503,65.102234,69.233437,11.827469,18.831997,15.713482,9.210033,-26.559655,-33.241605,-35.523345,-37.317503,-10.19172,10.350172,14.04896,12.379043,15.127616,39.392996,40.246881,33.575984,33.196342,52.905592,52.963328,47.312548,45.696231,58.254659,60.103467,57.607206,26.729279,51.419506,72.961636,92.530003,48.070164,80.154705,97.411366,108.858433,37.324276,73.741436,93.674641,105.036106,27.731609,62.069263,80.024929,89.941349,19.886169,45.038681,59.579716,68.879642,-13.286651,-12.443017,-4.080776,4.012851,15.599142,32.376976,38.770799,42.14268,34.070111,51.276554,55.031597,54.357776,46.482623,64.336087,66.194342,63.010553,53.293631,70.330199,71.06645,66.098011,-62.58007,300.51948,-69.944172,289.489003
21,-0.00103,-0.917549,-0.559559,-0.460967,23.431835,49.363747,72.626724,84.815254,42.712727,75.624619,88.613663,91.40213,32.071438,68.97171,83.672676,91.028137,20.33844,51.859474,66.695023,71.826439,10.604897,20.457573,20.420151,17.02343,-25.238381,-32.196974,-34.213742,-35.136108,-10.080817,10.600199,14.806637,13.469123,14.819358,38.475755,39.888049,33.42556,33.046597,51.919005,52.691441,47.116861,45.893647,59.853563,61.101847,57.136112,26.698265,51.947536,74.341393,93.733749,48.732948,81.360855,98.631935,110.267601,38.241005,74.476433,94.309387,106.214447,28.610172,62.114754,80.409622,91.36322,20.491447,45.409756,60.441971,71.063576,-13.649558,-12.888793,-4.954915,3.531136,15.921788,32.16332,38.213378,41.568957,33.673241,50.799594,54.887718,54.850606,45.519316,63.856595,66.717059,64.448226,51.711895,69.388691,71.523217,67.970593,-62.553205,299.590028,-70.475836,289.016134
22,-0.508232,-0.182843,0.170174,-0.552728,23.269043,49.437447,71.682816,83.40374,43.585911,76.856461,89.156456,91.014633,33.287659,70.252075,83.070374,88.548775,21.536064,53.070889,66.599007,70.303345,11.711884,18.556824,14.147587,6.250134,-26.993266,-34.154029,-37.340227,-39.161741,-7.087404,14.431998,17.881623,16.036273,17.908546,43.082583,43.006568,35.867789,34.941038,55.461318,54.604099,48.621039,46.442485,59.416555,61.626911,60.029058,26.521854,51.726265,73.708992,93.418465,48.142605,80.494881,97.922859,109.623871,37.135792,73.821945,94.096298,105.687561,27.554855,61.923637,80.18177,90.406609,19.955006,44.781075,59.436836,69.037971,-13.08343,-12.06776,-3.65124,4.417007,16.770733,33.156451,39.370951,42.747587,35.22861,52.557258,56.23999,55.528008,47.32107,65.590608,67.463807,64.1785,53.622699,71.173834,72.229148,67.396252,-63.05131,299.360285,-70.295534,288.416507
23,1.342506,-0.696606,-0.259666,-0.104111,22.80653,48.137627,70.863304,82.896538,40.542183,73.356285,86.373253,89.883041,29.99754,66.289558,81.473351,89.508934,18.742561,49.978466,64.753304,70.010605,10.000134,16.11042,12.627411,6.472664,-26.076149,-33.357264,-35.271465,-35.774669,-9.113496,12.46852,16.992231,15.705044,15.894062,40.575949,41.363143,34.933505,33.574317,53.639495,53.042986,47.168361,45.834676,59.071123,61.121237,59.159118,27.06562,52.260303,74.538574,94.212914,49.380112,81.80706,98.704262,110.044327,38.905392,75.274429,94.727325,106.425591,29.112396,62.809925,80.744362,91.448822,20.767078,45.80904,60.689507,71.122169,-13.98054,-13.27708,-4.62597,3.906825,15.777724,32.113364,37.885977,41.025245,33.639834,50.463054,54.429036,54.548153,45.606631,63.448487,66.363724,64.544803,51.959081,69.4518,71.185937,67.359881,-61.702452,298.571794,-70.548849,288.220511
24,6.943474,0.996158,0.88131,-1.28799,20.333233,43.081741,60.967712,70.064507,34.446774,62.83699,76.243057,79.82254,24.772396,55.966301,72.435722,82.737579,13.954754,39.462547,55.601578,62.411499,5.226402,4.336052,-0.410328,-7.588749,-27.65239,-35.257077,-38.144032,-39.832659,-9.299242,10.202835,15.300023,14.897349,14.865856,37.600814,39.724966,34.262154,31.788186,50.603351,51.547144,46.810579,43.612525,53.758921,57.758433,58.583048,26.454563,51.485538,73.710594,93.300819,49.344635,81.350098,98.681145,110.688744,39.121113,74.934654,94.552116,106.496544,29.554653,63.132706,80.935135,91.662712,21.175747,45.869064,60.247192,70.27668,-13.477213,-12.525762,-4.307523,3.564851,16.560472,32.371851,38.809208,42.371959,34.456236,51.008187,55.405557,55.458292,46.25359,63.783853,66.544343,64.101003,52.538053,69.697073,71.524391,67.615466,-54.716291,299.480869,-69.624853,286.845437
25,1.973591,-4.41466,1.147614,-4.920335,20.733261,43.153267,59.921436,67.770596,33.024216,64.033756,77.303181,80.778408,23.579578,56.84515,72.574596,82.444324,12.67868,41.21664,56.947346,63.172474,4.02071,6.008778,1.91328,-5.37014,-26.713228,-34.328845,-35.974123,-36.362718,-5.27577,14.64516,19.22772,19.028204,18.961823,43.05319,43.967467,37.519427,35.121782,54.750015,53.716622,48.395589,46.578645,57.681492,61.472782,62.081518,26.594925,51.993027,74.163666,93.476486,50.00782,79.957008,96.194344,108.195992,39.539051,73.557587,91.969872,103.925972,29.35976,61.503239,78.568039,89.563408,20.178223,43.884487,57.629585,67.84893,-13.053605,-10.536658,-1.266439,6.384437,16.886329,35.372859,43.482788,48.647222,33.868187,51.932035,58.411814,60.963094,45.550253,63.598972,68.267674,68.431498,52.282962,69.251482,72.260209,70.825067,-52.725048,295.021269,-68.459587,281.880164
26,20.446587,-7.369294,1.013603,-6.873006,18.050423,35.100918,47.935238,52.707767,12.337017,39.601307,56.841602,65.754147,0.888348,30.412045,48.867817,62.710133,-8.598461,15.373592,30.438137,37.998905,-14.628582,-16.84021,-21.130943,-25.472775,-20.679904,-19.620205,-10.280209,-2.940246,3.173539,23.225256,29.198435,30.650434,22.035635,44.644251,48.398861,47.564243,34.780117,55.517819,57.334146,57.30148,43.849832,57.842722,63.933227,68.235873,26.75972,50.790939,71.803551,90.806923,49.458618,78.944321,94.800682,106.23539,39.41803,72.448196,90.852242,103.512154,29.297562,59.700394,76.946983,88.494072,20.014973,42.895145,56.430187,67.888641,-14.527772,-11.779323,-0.68543,7.063383,14.273608,35.608066,46.050617,53.274674,30.326801,51.926045,62.129127,67.617689,41.749392,62.149567,70.126176,73.154787,49.453929,67.588049,73.506023,75.189648,-32.314253,287.632693,-67.481775,274.987876
27,64.330158,-8.252696,4.509201,-14.868696,-19.971771,-45.927601,-68.193169,-84.355602,-64.941902,-62.028122,-56.18248,-51.884022,-59.505844,-51.274338,-41.628056,-31.086731,-50.817089,-43.460197,-30.825691,-19.09893,-40.938835,-45.413017,-42.866364,-38.773899,26.353903,45.006294,60.144531,68.884067,35.248741,48.768746,56.039919,61.163166,22.764475,38.388255,47.513855,51.806867,10.906914,26.783438,34.812598,38.573259,-0.071939,14.516534,24.103903,31.573603,29.736671,54.997559,73.722267,90.014763,51.432781,77.976723,91.17485,99.330368,38.816757,66.436844,81.038132,90.832787,25.554199,49.801369,64.617577,74.462013,12.92696,30.442371,42.092915,50.408592,-15.027333,-7.524658,6.200668,13.584226,12.791413,35.65901,47.893558,57.114253,28.953471,54.148566,67.795345,76.633867,41.696101,66.604427,78.221902,84.527792,50.404638,71.606519,79.621228,81.623918,31.911764,279.165338,-63.076715,259.90452
28,5.638962,13.199398,6.448689,-13.406632,-22.552528,-39.654236,-52.665424,-60.789585,-53.274708,-74.720707,-86.941509,-96.919727,-46.673012,-69.371166,-83.380165,-95.605717,-36.858673,-56.570034,-69.168549,-81.046543,-23.979034,-36.920357,-46.268234,-55.442047,-15.486201,-22.437259,-23.582853,-26.426953,7.429748,20.136624,27.002282,32.352338,19.550119,32.829298,40.974362,48.538664,27.566866,40.976277,48.931088,57.199654,32.619593,46.879307,55.795388,64.40852,29.805508,52.019978,65.60194,77.177753,44.483299,68.169079,79.641209,84.260387,31.891937,55.673733,67.955418,71.748791,19.216404,36.546593,45.950947,48.987064,7.554531,20.375748,26.856251,28.130951,-1.957488,10.742781,26.557185,39.174338,12.566085,34.50718,48.621533,59.699125,23.522646,49.868521,64.476507,74.760606,33.762532,61.189903,73.928952,82.780935,42.790874,65.447903,75.078621,81.455154,37.481833,292.103609,-56.69692,246.236761
29,0.718689,-2.81304,-17.176151,-39.214815,-20.14389,-38.925362,-53.446426,-63.045731,-41.090927,-63.104153,-76.151848,-87.139606,-33.634529,-58.808327,-74.139748,-86.75972,-24.903831,-47.758884,-62.783489,-75.553207,-15.006981,-31.413918,-41.810131,-51.31382,-11.494036,-16.518853,-17.8907,-19.154607,0.893714,17.070593,27.589899,36.467015,12.858906,30.677728,42.136073,51.836939,22.906748,38.66817,49.752616,59.148682,31.416448,46.211168,55.783284,63.724326,33.73455,61.563835,79.114151,88.68742,60.955553,89.274158,92.7281,90.152492,47.075357,77.142963,82.094421,79.380254,31.77123,58.183365,63.832283,62.539816,16.674728,33.982773,40.825681,41.936674,-8.493245,0.497461,15.962481,29.362166,2.944383,28.265046,38.344937,41.907627,15.764725,44.79557,55.049566,58.80961,28.885823,57.348719,67.40817,71.338799,40.398416,64.272113,74.26688,79.057848,38.041563,289.579885,-74.03203,207.311262
30,-4.428406,-16.410357,-17.176152,-39.214816,-19.515953,-31.646461,-39.088497,-46.063271,-31.436119,-46.137772,-54.907436,-61.978912,-27.3983,-43.067036,-52.911301,-60.447693,-23.199005,-37.668171,-47.649593,-56.70639,-17.881966,-28.404579,-35.29747,-41.892242,4.686115,13.4669,23.244275,31.03446,21.21528,37.42322,47.449264,55.613409,25.986858,42.036099,52.417022,60.39005,29.242216,43.308034,52.918251,61.075109,31.017108,42.724987,50.115461,56.58005,37.663593,71.107693,92.626362,100.197086,77.427807,110.379238,105.814991,96.044598,62.258778,98.612194,96.233425,87.011719,44.326057,79.820137,81.713619,76.092567,25.794926,47.589798,54.795113,55.742397,-15.029001,-9.747858,5.367778,19.549995,-6.677319,22.022914,28.068341,24.116129,8.006805,39.72262,45.622625,42.858614,24.009116,53.507535,60.887388,59.896665,38.005958,63.096324,73.455141,76.660543,33.374176,273.639494,-91.447163,168.566414
31,50.380211,-50.041978,-7.629375,-29.854966,-21.558609,-43.204193,-57.569618,-68.149567,-64.193344,-83.155518,-97.780209,-106.910477,-62.913437,-85.225525,-98.946819,-107.818336,-60.785637,-83.033066,-98.30555,-110.836029,-57.777443,-78.147469,-90.490894,-100.976486,-12.351009,-11.301005,-6.606615,0.108989,30.617398,53.146233,64.087295,73.295763,36.035997,63.271819,75.986908,88.600726,37.657501,63.170177,77.403462,91.423584,33.459522,54.479177,65.464391,76.094724,26.172638,56.94025,81.267643,96.321487,56.687565,95.661163,102.152596,97.085724,49.57449,90.356598,99.803009,97.747307,38.335075,74.223461,84.529552,85.796127,25.729408,46.400585,57.187328,62.563477,-20.548376,-23.825779,-19.314726,-13.406817,-19.708694,-14.317451,-4.895387,-1.555431,-2.838049,7.998963,15.897767,17.936148,15.330219,28.98941,35.067194,35.92923,31.68321,49.5284,58.218412,61.749486,83.186989,224.964809,-99.643936,140.078741
32,1.758156,-11.017323,-4.486542,-11.253148,-13.147316,-27.001762,-40.044136,-50.844612,-61.096573,-89.595509,-105.796795,-119.887676,-64.097328,-95.00473,-111.452808,-125.7304,-62.666588,-91.375751,-107.709446,-121.63662,-58.702927,-80.299644,-93.519402,-105.053329,-10.072789,-9.361609,-6.012823,-0.45226,19.950817,33.282422,42.610378,52.257336,25.011325,38.13372,49.098926,59.997318,27.650785,38.659833,47.739676,57.715084,26.984066,35.327534,42.545046,50.161897,31.600914,57.925644,75.949173,93.415947,55.203953,80.754833,95.850792,105.409012,50.00988,77.060108,91.735783,96.730328,42.333927,67.440434,80.184574,84.880714,32.809467,47.719574,57.707977,63.022842,-8.438132,-9.946077,-6.51331,-4.97097,-11.627726,-18.786019,-20.08531,-21.356905,-3.311489,-9.102072,-9.773299,-9.69006,6.64737,8.168344,5.994174,2.651748,20.95667,30.655313,31.218477,30.189282,85.040646,215.374584,-104.034977,130.252691
33,-0.556641,-15.967298,-3.815117,-38.192105,-10.762596,-23.294334,-36.665955,-48.46756,-62.115898,-89.594307,-106.273727,-121.899891,-65.841064,-95.658588,-113.422279,-130.096207,-65.131874,-91.636734,-108.620453,-125.248775,-61.082382,-82.825813,-96.021996,-108.737755,-12.569358,-14.456945,-12.106107,-6.991814,12.893671,25.391708,32.254957,38.596601,18.72643,30.770107,38.751286,46.536963,22.582311,32.092492,38.558501,45.209391,24.217771,32.264343,37.276624,42.100628,20.353661,47.174206,69.423237,84.034824,45.959301,84.110928,96.065655,93.872509,45.261555,88.610344,102.639656,102.539864,41.825123,80.249977,91.124668,90.936184,36.110001,62.356281,70.450974,70.580063,-25.561058,-36.371085,-35.200359,-28.798632,-33.146571,-37.523626,-29.362074,-23.453609,-13.074137,-15.138361,-10.38574,-7.277132,7.545561,7.441357,8.974743,8.821726,26.233767,34.395319,36.708181,36.255674,83.900785,201.593374,-108.433313,94.246674
34,-3.030167,-15.624707,-8.768635,-14.818524,-13.322411,-28.268623,-42.114372,-53.489799,-61.878891,-90.005322,-109.13332,-126.832123,-64.006805,-93.998795,-114.262733,-132.774925,-62.954292,-89.83469,-108.78067,-126.93758,-59.451828,-82.28508,-96.131687,-109.82626,-15.460512,-16.662299,-12.775851,-7.930791,10.56389,24.475826,32.029939,39.38713,16.043498,29.866575,38.460627,46.615633,19.970268,30.998954,37.83738,44.340501,21.590229,30.705022,35.515132,39.348227,22.855225,50.604572,73.51759,90.916443,50.224285,78.00602,89.882641,94.270477,49.69471,81.346836,99.719238,109.484997,47.455959,77.301807,92.102222,100.157318,44.140377,68.417358,77.441883,80.134563,-24.603248,-31.763578,-29.486501,-27.94132,-28.356098,-36.760206,-33.386564,-28.884836,-11.604848,-15.62659,-14.338631,-13.145953,6.838951,8.120117,9.155981,8.298329,25.780643,34.882746,35.761084,35.195018,80.667744,189.479981,-117.404823,82.939464
35,-2.434387,-5.557537,-0.678749,-8.738764,-13.278122,-30.819855,-46.312294,-59.823189,-58.817711,-88.921452,-111.963043,-132.26532,-60.827522,-92.012329,-115.300369,-137.305584,-59.262085,-87.965412,-109.042053,-127.616158,-54.994125,-77.841225,-93.170929,-106.750317,-18.505055,-20.147863,-15.292243,-9.480417,7.017934,19.401424,26.030886,32.855233,13.763611,25.929677,32.637254,39.504764,17.068925,26.002419,32.53586,38.955927,15.937102,22.975105,26.536066,29.554612,20.04982,43.406582,64.212341,79.253712,46.884098,74.031029,87.529678,95.614586,47.612,79.344406,99.113216,114.093075,45.813103,74.312496,91.344566,103.570747,41.798058,64.047661,75.19249,83.167362,-22.85886,-30.563212,-30.712092,-31.705873,-26.798289,-35.536127,-35.528161,-32.801109,-11.546987,-15.758983,-16.141033,-15.740334,5.899696,6.97968,7.319616,6.960723,22.758083,31.473351,36.076351,38.807016,77.093868,186.164602,-119.223061,76.442857
36,-4.000969,-2.192942,0.643215,-7.548772,-14.342079,-33.216476,-49.317398,-62.797508,-57.852974,-88.020287,-109.902763,-129.620762,-59.800072,-90.582619,-113.272018,-135.459824,-58.029327,-85.79092,-107.425804,-126.360569,-53.211021,-75.340691,-90.583591,-103.982792,-19.243837,-21.251837,-14.572356,-7.785924,4.791585,17.381444,24.769758,32.640836,11.674903,23.988985,31.360935,38.864907,15.260565,24.848057,32.925814,40.947686,14.89068,21.85625,25.567696,29.783212,18.155422,42.585869,65.458145,81.663666,44.654846,71.193695,85.808144,94.566593,44.621029,77.185478,99.157848,116.536903,43.051929,73.379459,92.262554,106.094685,39.108639,62.967567,75.889549,86.252518,-25.93789,-35.658486,-38.649243,-42.093342,-28.79255,-34.014319,-33.83938,-32.257396,-11.764225,-12.145442,-11.41021,-10.755532,6.9832,11.093215,13.042829,13.823725,24.140737,35.733234,42.961522,47.464886,72.209215,185.314901,-119.46353,70.237327
37,-3.768997,-3.315194,1.792316,-2.468843,-19.603958,-40.109024,-54.049187,-61.891823,-60.654144,-88.404808,-108.026505,-125.689316,-57.922554,-85.690441,-106.793003,-126.936951,-52.275696,-77.688103,-98.621521,-116.446495,-44.321709,-64.140015,-78.806305,-91.786251,-17.085845,-17.267144,-9.27979,-1.410565,9.304614,23.291823,32.595819,42.047214,15.314658,29.278155,40.34105,51.802791,17.672844,28.733702,38.533924,48.810304,15.697757,22.44257,27.231561,33.455262,19.7085,45.487919,70.060444,86.458111,45.779457,68.239689,83.377762,94.2449,45.382862,77.429466,100.922585,118.891468,42.759762,73.727016,93.289318,106.572933,36.843281,59.569588,74.375095,86.994553,-24.694576,-35.0286,-38.109884,-38.060546,-24.418274,-29.007133,-28.802677,-27.405265,-6.980853,-6.23355,-4.129744,-0.209457,11.057183,16.813248,19.959925,22.637639,26.906106,40.620965,48.753,54.255548,67.142973,182.805055,-118.968458,68.573833
38,-0.782089,0.556124,3.476658,-4.275722,-15.697861,-33.657188,-47.911491,-55.660973,-58.660812,-86.150093,-105.059109,-122.636318,-58.382263,-85.942841,-106.485043,-126.576519,-54.486122,-79.984474,-100.127621,-117.639427,-48.778152,-70.835381,-85.633278,-99.126148,-16.787097,-17.293573,-10.318617,-2.561778,12.119321,26.95634,37.251739,48.233309,18.16975,32.622249,45.140663,57.683592,20.701764,33.418829,44.872975,55.1312,19.490283,28.164239,33.888441,40.078117,20.315037,47.235775,73.179646,90.610256,46.676788,70.166759,85.942326,98.217087,47.306614,76.701565,99.742699,117.774467,44.855461,73.350677,94.118786,109.144936,38.51675,59.525528,74.102554,87.20747,-24.972114,-34.121178,-35.847226,-34.84057,-17.851149,-20.001607,-19.473085,-18.146223,0.272752,2.3777,3.764768,6.330282,17.610816,24.012574,26.875848,29.652332,32.295064,46.270201,55.380239,62.521922,65.313835,183.439649,-116.538849,64.37658
39,5.335579,3.49285,5.932446,-3.956195,-11.750908,-26.919823,-40.232277,-48.430939,-55.517349,-84.264336,-104.920006,-124.76263,-57.510452,-87.263775,-108.45211,-130.010147,-55.128708,-82.950954,-103.560219,-121.775894,-51.019478,-75.093384,-90.929375,-105.322838,-17.676426,-20.560047,-16.217387,-8.933556,10.991944,25.473465,35.97968,47.472605,18.69963,32.963234,44.86964,56.840822,22.205695,34.210901,45.164745,55.192518,21.684645,29.744185,35.592011,42.230304,18.999882,42.298908,64.93824,83.320026,42.854691,65.611782,81.354561,94.227962,46.0742,73.386326,96.981068,116.832333,46.952648,74.285603,97.203484,114.805698,44.500351,67.922001,84.496708,98.723946,-25.290313,-35.223485,-38.844344,-39.868598,-19.267549,-21.212996,-22.622294,-22.539209,-1.460428,-1.23967,-0.860677,1.205615,16.216121,21.567165,23.743898,26.682754,31.740391,43.757361,51.421915,58.125107,69.512272,187.267557,-111.743546,60.755443
40,9.451447,2.813225,6.028061,-3.850787,-12.493973,-26.419258,-35.620651,-39.779778,-53.137894,-81.181183,-100.169792,-117.253933,-56.150436,-83.897095,-102.11071,-119.224606,-56.261673,-81.402168,-98.389721,-113.005257,-55.328064,-74.721794,-87.417984,-98.360538,-20.18763,-22.664439,-18.957129,-11.26414,9.796703,24.616122,34.461732,44.432509,18.579834,32.515235,42.043571,52.327855,22.978255,34.038494,43.355088,52.054733,23.396305,31.572986,37.380735,43.601348,16.501694,37.39151,57.671413,75.951405,43.556957,62.682667,77.4436,90.528431,48.911419,72.032661,93.453484,111.730213,50.89817,75.658092,96.608448,112.472477,49.781914,72.113171,88.655548,103.280582,-23.789593,-34.793486,-39.573554,-40.729985,-19.317814,-22.583392,-26.394473,-28.845871,-3.347274,-3.452466,-5.292751,-6.032151,12.3775,16.825413,17.893973,19.403492,26.119405,38.012319,45.558095,52.224979,78.492022,190.193569,-106.187181,57.017444
41,5.541802,5.655226,6.193027,-5.738991,-4.503651,-11.539707,-16.450825,-17.958584,-42.419243,-61.514511,-75.762577,-88.577414,-50.098343,-70.952568,-85.233307,-98.405256,-54.644909,-74.462929,-88.170462,-100.210648,-57.526016,-74.171391,-84.959164,-94.041224,-14.829207,-18.692838,-18.288866,-15.432972,9.695062,21.433784,30.213334,38.762771,17.568425,30.662105,39.77835,49.005621,22.043353,33.628657,42.747371,50.723703,23.519713,33.962202,40.733598,47.125259,17.42466,36.611595,54.606056,71.883202,46.272755,65.999279,78.734722,89.28875,49.900475,72.186241,91.962776,108.78788,50.23756,73.584538,94.324837,110.755234,47.391644,68.029003,82.473965,94.479446,-22.880627,-31.756539,-36.776662,-37.942572,-18.276239,-21.602919,-24.897797,-26.006773,-3.41875,-3.674026,-5.005735,-4.395116,11.372326,17.658395,21.00749,25.001352,24.252073,35.348004,41.493961,47.494249,83.931885,195.837387,-100.096092,51.267045
42,5.541801,5.655226,6.740971,-2.53822,3.486671,3.339844,2.719002,3.86261,-31.700592,-41.847839,-51.355362,-59.900894,-44.046249,-58.008041,-68.355904,-77.585907,-53.028145,-67.523689,-77.951202,-87.416039,-59.723969,-73.620987,-82.500343,-89.721909,-9.470784,-14.721236,-17.620604,-19.601804,9.593421,18.251446,25.964937,33.093034,16.557014,28.808975,37.513128,45.683387,21.108452,33.218819,42.139654,49.392673,23.643121,36.351418,44.08646,50.64917,16.312122,33.905182,50.804729,65.983772,40.841789,60.107574,73.448296,85.830631,44.678993,66.864624,86.500454,103.750019,45.742664,69.03511,89.370975,106.056004,43.450413,64.395332,79.279919,92.695255,-20.932525,-28.881162,-32.795582,-34.583997,-20.243854,-24.737833,-27.866016,-28.776495,-5.696568,-7.5392,-9.418914,-9.239992,8.943281,13.554277,15.084236,16.773944,21.931369,32.555682,38.319403,43.312449,89.419184,202.116431,-93.409624,49.352643
43,-4.5821,-1.14442,-7.13007,-7.117105,9.132156,10.828056,11.316605,12.812119,-23.856239,-37.546921,-46.025963,-54.675636,-35.670204,-52.111931,-60.301208,-67.339897,-42.240829,-59.340477,-67.380524,-73.334427,-45.179443,-60.502968,-68.495178,-74.623604,-6.344176,-11.435435,-14.329862,-14.985466,7.654952,19.749079,31.316907,40.445161,14.580322,29.301867,40.822024,50.664978,20.49595,33.64959,44.612882,53.874826,25.238937,35.252384,43.54744,51.246976,15.980129,41.686764,63.856716,73.389645,68.057785,94.932289,88.522511,79.348984,70.947647,110.634956,130.717735,144.469757,66.687412,103.286247,123.174706,139.749413,57.748375,84.56852,98.469315,111.12236,-31.124832,-48.229542,-50.291295,-39.978699,-27.893309,-35.313362,-35.588368,-34.422582,-7.275032,-8.762322,-7.369171,-5.194167,11.948396,16.559021,20.233572,22.509044,29.411505,41.8347,49.871701,56.493507,84.983683,202.789758,-100.393095,44.053284
44,0.797882,-2.070491,-2.991085,1.172918,11.97361,13.567429,12.336159,9.803238,-21.583672,-34.965019,-45.346756,-57.768517,-32.939758,-47.656517,-58.518791,-70.677338,-40.285606,-55.445595,-66.103821,-76.627808,-44.60186,-58.929863,-68.305779,-76.878548,-6.375545,-10.81367,-15.225861,-18.657702,9.610711,22.49549,32.376976,41.671092,17.02323,30.446288,40.592066,51.148916,22.06052,34.124389,43.736458,53.034403,24.446432,34.381394,42.805077,51.022019,19.554749,43.359261,66.254253,77.352047,68.652306,96.727581,94.626789,87.196426,71.418514,109.966793,131.928463,147.507076,67.836456,102.6824,125.128498,141.618519,59.277477,85.228958,101.163654,114.042721,-29.849933,-47.152892,-51.762128,-41.649665,-25.544015,-32.082581,-32.757235,-31.53291,-6.34609,-7.653192,-8.352824,-8.498277,12.130591,17.341584,20.158762,21.866438,27.921221,41.618327,49.156632,54.784564,85.9126,202.717463,-103.253145,47.224399
45,7.375259,-0.238418,-2.112064,0.669621,10.237427,7.413025,1.180458,-5.779953,-31.131248,-47.435875,-61.160545,-74.281769,-39.72496,-58.88443,-72.245293,-85.355301,-44.641113,-62.341232,-74.114914,-85.181808,-46.800385,-62.555351,-72.477379,-81.317024,-11.929871,-16.390041,-20.275069,-23.372037,4.955718,17.295055,27.39063,37.548758,13.801155,26.955599,38.104512,49.636957,19.972368,32.553026,42.986376,53.257754,22.77454,33.139717,41.867026,49.878031,19.733734,43.189087,65.867214,77.548141,68.445454,96.808319,93.038578,84.13805,71.036167,109.466171,131.823463,147.828712,67.41703,101.75663,124.302406,140.818176,58.896046,84.677925,100.960007,114.011421,-29.058509,-46.107705,-50.828586,-40.920516,-26.55666,-32.93875,-32.566395,-30.887062,-7.252802,-8.542089,-8.795235,-8.797211,11.395452,16.770702,19.685784,21.578311,27.421722,41.17536,48.487442,53.925523,93.404732,203.423826,-105.248337,48.838802
46,1.440582,-3.822783,-1.579514,0.494868,4.55658,-1.763878,-6.765289,-10.73925,-37.7528,-56.263962,-70.810547,-84.819145,-43.813934,-63.904724,-77.168655,-92.258492,-46.731033,-65.686798,-78.21167,-91.303139,-46.484985,-63.13694,-74.059639,-85.18055,-12.754362,-18.308874,-21.642037,-24.236234,5.716359,18.767432,28.932538,39.268939,15.027766,29.205598,38.727327,48.814256,20.862191,33.665769,42.166084,50.851279,23.414027,33.477862,40.853826,48.171373,19.39539,42.553368,65.763931,78.130817,67.920513,97.079887,94.436588,86.242733,70.493431,108.974419,131.297836,147.267151,66.772499,101.687164,124.270935,140.816803,58.295002,84.912758,101.413307,114.54277,-29.062986,-46.553172,-51.320212,-39.995217,-26.323552,-31.373717,-31.755767,-30.971815,-7.010586,-7.634574,-8.144787,-8.438225,11.761632,17.464684,20.529233,22.572616,27.995723,41.324271,48.438814,53.700165,94.83181,199.828486,-106.841354,49.561112
47,-5.799294,-1.971011,-0.745926,0.948147,5.959854,1.258049,-3.97419,-8.837585,-33.420067,-52.976074,-67.714348,-81.30558,-39.821777,-61.316986,-75.206909,-90.618553,-42.887421,-62.536011,-75.748558,-88.863716,-43.386383,-60.560188,-71.412964,-82.314491,-13.130546,-19.052225,-21.346438,-22.372792,5.877528,19.557899,30.863967,42.182139,15.629647,30.090173,40.58095,50.895616,21.864339,34.767581,43.804137,52.080606,25.089316,34.660074,42.233206,49.690001,18.834286,42.186756,65.58506,77.858963,67.412338,97.653923,94.480247,85.719051,70.164413,108.892708,131.22963,147.111969,66.50322,101.635208,124.347839,140.8881,58.243618,85.060215,101.851959,115.297165,-29.13616,-47.031553,-52.456172,-41.276445,-26.513744,-32.08218,-32.588101,-31.846787,-7.063691,-8.620913,-9.650293,-10.317444,11.668173,17.066486,19.893389,21.791504,27.621206,40.505461,47.375904,52.529285,89.095802,197.752144,-107.523994,50.403928
48,-3.912506,0.853514,-0.552292,1.007643,7.750282,3.934479,-1.569901,-7.966347,-30.166969,-49.319801,-64.234314,-78.157883,-37.128296,-58.295059,-72.454605,-88.154755,-40.868797,-59.896774,-73.48526,-86.818771,-42.202148,-59.231186,-69.825211,-80.541344,-13.520006,-19.205366,-22.386871,-24.258773,4.846666,18.532657,29.977602,41.400378,14.445953,29.203375,40.248733,51.245061,20.795563,33.923268,43.855328,52.971973,24.186463,34.335082,42.603091,50.89753,18.600826,41.753654,65.338383,77.242298,67.46315,96.737423,94.346008,86.816425,70.416355,108.375549,130.423393,146.410103,66.96167,101.178017,123.719902,140.513992,58.800716,85.438442,102.480583,116.417427,-29.216497,-46.920402,-52.103732,-41.919175,-26.343899,-33.010782,-34.477416,-33.970878,-7.475567,-9.996342,-11.588453,-12.380958,10.794497,15.81604,18.564736,20.60392,26.377923,38.534789,45.132326,50.329735,85.365515,198.426026,-107.894068,51.231939
49,3.301277,2.232833,0.706329,-0.325363,3.747597,-2.177124,-8.958664,-13.491783,-35.704994,-55.403481,-69.676781,-83.393898,-41.749992,-63.57193,-77.425117,-93.307228,-44.345512,-64.410782,-78.162231,-91.809883,-44.739304,-62.370987,-73.920479,-85.525589,-13.741813,-20.348984,-23.942487,-25.391831,5.373521,19.71456,31.540628,43.197315,15.303605,30.032375,41.6107,52.960426,21.37614,34.10994,44.424296,53.616956,24.52856,34.017376,41.903089,49.92879,18.589153,42.303543,65.641708,77.249622,67.909985,95.829792,92.038078,83.279285,71.052303,108.467102,130.352325,146.123657,67.463436,101.617126,123.798294,140.009537,58.731194,84.7015,101.32061,114.883003,-29.228292,-47.09954,-52.271353,-41.1556,-24.998018,-33.761791,-34.97145,-34.204047,-5.974074,-9.588666,-10.95548,-11.738198,11.98239,16.712842,19.278818,20.967939,26.853402,39.251433,45.618426,50.140841,88.822803,200.231716,-107.031727,50.479433
50,-0.924454,-1.659975,-0.371532,-0.096022,1.926155,-3.648262,-8.935547,-11.573982,-36.254539,-55.82119,-69.932556,-83.604584,-41.561394,-62.765465,-76.397552,-92.096558,-43.538246,-63.376694,-76.602974,-90.105743,-43.542137,-60.882683,-72.116661,-83.863449,-13.433246,-18.459051,-20.579498,-20.233202,9.626333,25.073261,37.732219,49.858703,19.27959,34.547071,46.820089,58.631954,24.848922,37.6864,48.482965,57.895828,27.322396,36.420949,44.334573,52.627344,18.419781,41.697693,65.065498,77.273426,67.619247,96.37104,93.43317,85.006313,70.724201,108.60014,130.743313,146.755085,67.07943,101.362324,123.777981,140.509815,58.43153,84.582195,101.464291,115.591106,-28.565463,-46.196873,-51.848301,-41.663713,-25.356757,-33.541033,-34.901055,-34.307356,-6.543537,-9.921964,-11.420862,-12.138525,11.384738,16.121859,18.656559,20.349231,26.342695,38.656314,45.284263,50.099622,88.092699,198.329634,-107.20891,50.141304
51,-1.303024,4.369336,-0.446491,-0.22826,3.3181,-1.564407,-7.721901,-12.290268,-34.595947,-53.275795,-67.590752,-81.567192,-40.701942,-62.609024,-76.310234,-92.439651,-43.231087,-62.868233,-76.160774,-89.803619,-43.570061,-60.751419,-71.842003,-83.025169,-14.183699,-19.983236,-23.023332,-23.678134,6.343743,20.95914,33.269146,45.648622,16.192811,31.219094,42.72369,54.001785,22.173461,34.986116,45.588909,54.777,25.009843,35.130427,43.214606,51.003247,18.357639,41.193523,64.440651,77.134953,68.03215,97.026958,93.010998,83.726006,70.838585,109.12571,131.477737,147.574768,66.91246,101.504745,123.842697,140.438004,58.058395,84.914474,101.928864,116.071243,-28.660929,-46.579787,-52.846497,-42.636159,-26.1065,-32.618822,-33.431766,-32.974226,-7.311156,-9.869105,-11.417435,-12.662138,10.985367,15.950348,18.384549,19.624188,26.526896,38.853297,45.186451,49.502434,86.983366,202.524463,-107.46171,49.738537
52,-2.45121,-0.024083,-0.165424,0.3944,4.135551,-0.52906,-5.860977,-10.421562,-33.307114,-52.448044,-67.520828,-82.41394,-39.416771,-61.090279,-75.33268,-91.888733,-42.04422,-61.917801,-75.623703,-89.44416,-42.835808,-60.174751,-71.645393,-83.479958,-14.21124,-19.456073,-21.123828,-19.769209,8.71181,24.445012,37.431309,50.158686,18.445033,34.00305,46.210612,57.808389,24.192947,37.219258,48.115365,57.549902,26.61628,36.048841,44.317283,52.712313,18.591557,41.32513,64.26527,76.572018,67.987175,97.298927,93.284798,83.77533,71.084518,109.265728,131.502972,147.245464,67.498283,102.112026,124.473324,140.817318,58.97501,85.957489,102.869511,116.834393,-28.884805,-46.852044,-53.393821,-43.500417,-26.740244,-33.137926,-33.672376,-32.916767,-7.867867,-11.0038,-12.534377,-13.58682,10.615359,15.209466,17.486636,18.780245,26.597292,38.569153,44.69995,49.050544,84.625168,202.460026,-107.534122,50.092583
53,-0.680122,2.520158,0.006809,-0.270189,4.541016,0.194664,-5.452423,-10.53154,-32.981186,-52.02507,-66.666641,-80.60463,-39.128036,-60.756569,-74.600372,-90.415993,-41.984825,-62.182617,-75.659065,-88.967056,-42.808228,-60.586624,-71.762123,-82.768936,-15.336024,-21.088692,-21.925966,-19.658552,6.402221,21.379042,34.601658,47.826003,17.08356,32.740562,44.814559,56.986738,23.774773,37.131634,47.831005,57.594795,27.106949,36.803554,45.330051,54.029758,18.681393,41.168633,64.242439,76.880436,67.360668,96.695766,93.82822,85.096436,70.70509,108.838921,131.007385,146.728592,67.367592,101.984024,124.459419,140.867615,59.030685,86.000748,103.114014,117.249298,-28.617518,-46.768898,-53.098315,-42.862011,-26.452271,-33.329291,-34.022069,-33.366434,-7.465687,-10.710732,-12.315224,-13.384062,11.013927,15.468046,17.6039,18.790836,26.999874,38.929343,45.011203,49.302332,84.132185,204.880025,-107.340174,49.722234
54,-1.607323,2.225114,0.191231,0.138414,6.287727,2.323265,-3.602486,-9.552498,-31.191216,-50.36396,-64.915352,-78.80619,-37.850533,-58.822975,-72.406883,-87.804222,-41.308708,-60.91713,-74.008942,-87.11998,-42.48848,-60.155869,-71.07914,-81.913834,-15.410186,-21.330198,-22.782876,-21.343906,6.506517,21.590846,34.593322,47.166694,17.277642,32.790086,44.602508,56.306434,24.024183,37.483982,47.947528,57.483273,27.490666,37.228088,45.910567,54.851162,18.609753,41.055279,63.885956,76.257477,67.027473,96.762257,93.36153,84.298611,70.051975,108.781815,131.060715,146.764526,66.449947,101.618156,124.362488,141.006775,57.960777,85.383167,102.480698,116.591949,-28.517421,-46.708228,-53.410093,-43.186231,-26.484628,-33.850588,-34.524594,-33.947598,-7.215103,-10.224818,-11.573046,-12.662447,11.388567,16.036705,18.368648,19.626874,27.218995,39.069084,44.978228,49.076202,82.728138,206.926665,-106.945667,49.682174
55,3.154678,0.272319,-0.553608,1.445021,4.14608,-0.776596,-6.144104,-11.052017,-33.646202,-53.868141,-69.008217,-82.849388,-39.679527,-61.609383,-75.70015,-90.454788,-42.603951,-62.900505,-76.679764,-89.243202,-43.058395,-60.578842,-71.552124,-81.523361,-14.920382,-20.861389,-22.887667,-22.793374,8.311544,23.207596,35.757811,48.373729,18.410453,32.959715,44.045334,55.877516,24.380545,36.519749,46.595132,56.317302,26.975667,35.784364,43.769618,52.214234,18.840237,42.239456,65.431366,76.916599,68.005486,96.640263,92.994976,84.505577,71.10466,108.852139,130.874119,146.636066,67.604141,102.066135,124.776134,141.568508,59.372864,86.089611,103.034763,117.047825,-29.247805,-47.507463,-53.654933,-43.334432,-25.894263,-34.188795,-35.823483,-35.324941,-6.68689,-10.362553,-12.397568,-13.696118,11.5573,16.019199,18.506074,20.175156,26.793288,38.151319,43.951535,48.173719,86.228371,207.021359,-107.153721,50.94957
56,-1.321106,1.272738,0.132408,1.268384,5.092506,0.965309,-4.542274,-9.818344,-31.88221,-51.811638,-66.800079,-80.513077,-38.299484,-59.624519,-73.191032,-87.795067,-41.588516,-61.305428,-74.562035,-87.009773,-42.784767,-60.309677,-71.205482,-81.432495,-15.406851,-20.936539,-21.747075,-20.230114,7.900471,23.272248,35.935714,48.552002,18.251693,33.344914,44.583303,56.139461,24.64885,37.125583,47.177438,56.496069,27.780461,36.871047,44.928241,53.420528,18.686085,41.665421,64.361916,76.052685,67.216759,96.258659,93.185062,84.851303,70.602379,108.653126,130.770321,146.569462,67.700214,102.272816,124.724865,141.335506,60.12886,86.839886,103.49905,117.39069,-29.272381,-47.437531,-53.686302,-44.443933,-27.262004,-34.668657,-36.079222,-35.712548,-8.155377,-11.343829,-13.073735,-14.137602,10.180636,14.513261,16.691754,17.954334,25.795061,37.336676,43.22992,47.630254,85.107908,208.032337,-106.820669,51.956195
57,-0.32856,1.063404,-0.540333,0.785311,6.188507,2.404976,-3.88401,-10.672531,-30.296059,-48.758354,-63.061981,-76.453514,-37.624397,-58.494987,-72.056923,-86.845894,-41.659584,-60.831985,-74.13414,-86.677666,-43.091469,-60.105515,-71.042175,-81.399307,-14.11176,-19.466447,-20.567148,-19.447613,7.966544,21.898425,34.023551,46.022026,18.299179,33.094207,44.247381,55.786742,24.803473,37.48145,47.53979,56.853357,27.937677,38.040353,46.154357,54.249528,17.916412,40.882015,64.003944,76.035175,66.794643,95.798378,93.221626,85.141754,70.72752,108.780556,131.246338,147.346458,67.900143,102.059441,124.912949,141.672707,60.083599,86.420689,103.635178,117.831688,-29.087439,-47.029114,-53.377025,-44.448965,-26.746543,-35.445138,-36.773142,-36.003639,-8.143243,-11.884639,-13.712111,-14.78027,9.926471,14.500324,16.721425,18.085739,25.356788,37.015266,43.022747,47.462293,84.873734,208.859576,-107.266617,52.505341
58,-0.829124,2.21826,-0.307617,0.386712,7.295265,3.497887,-3.175163,-10.741425,-28.99807,-47.17495,-61.474686,-74.749603,-36.884651,-57.583923,-71.406212,-86.655693,-41.441689,-60.464745,-73.833275,-86.792336,-43.409157,-60.376854,-71.158333,-81.413269,-14.92384,-20.267535,-21.21985,-19.634161,6.318796,20.013741,32.177584,44.224287,17.030578,32.074028,43.533917,55.319724,23.881107,37.000476,47.421414,57.338592,27.27102,37.824474,46.262235,54.713273,18.090191,40.837212,63.977737,76.232643,66.872692,96.053638,93.341045,85.299282,70.622292,108.833885,131.165543,147.128334,67.80138,102.161179,124.984016,141.804314,60.09716,86.712627,103.935471,118.100853,-28.859703,-46.805083,-53.376994,-44.649932,-26.258251,-34.982102,-36.38995,-35.658393,-7.750016,-11.966612,-13.87328,-15.070929,10.304106,14.228376,16.382045,17.642432,25.64013,37.16819,43.131922,47.428392,84.175587,210.897355,-107.443256,52.711572
59,3.101921,-2.601977,-0.348186,0.853576,2.328415,-3.224373,-7.258759,-10.440788,-33.60466,-53.513489,-68.216743,-81.742859,-39.256439,-61.518402,-75.844002,-90.272827,-41.990776,-62.772903,-76.992874,-89.043045,-42.621918,-59.580688,-70.696907,-80.140343,-12.301794,-16.531203,-18.34438,-17.481789,11.933144,26.170936,38.025101,49.638377,20.760797,35.584972,46.864611,58.850057,25.913066,38.697995,49.197603,59.460336,27.756934,37.7379,46.201473,55.085011,17.707043,40.621662,64.064713,76.308975,67.249432,96.853008,93.956051,85.823708,71.041431,109.399052,131.146145,146.602535,68.231506,102.759304,125.185833,141.735821,60.537758,86.997757,103.992519,118.060741,-28.765719,-46.74182,-53.308822,-44.686766,-26.659938,-35.255379,-36.528796,-35.703285,-8.244236,-12.572415,-14.710893,-16.12223,9.729765,13.458564,15.480026,16.657853,24.937379,36.225972,42.00615,46.108662,87.293329,208.129794,-107.775621,53.399564
60,-3.234787,4.283379,-0.761833,-0.218288,5.981369,2.164993,-3.633041,-10.313187,-29.513512,-47.053185,-61.269493,-74.30294,-36.261292,-57.092972,-70.974083,-86.209373,-39.957504,-59.3367,-72.6408,-85.841331,-41.389046,-58.651428,-69.411736,-79.574203,-14.946255,-20.417774,-21.930968,-21.748186,5.265211,18.79806,31.363652,43.911274,16.389362,31.405086,42.641994,54.106452,23.721483,36.852275,47.238571,57.069916,27.782684,38.034364,46.484105,54.815841,18.292809,41.709595,65.428505,77.592602,68.361626,97.682648,93.691235,84.570007,71.874733,109.894352,131.825237,147.295589,68.691101,103.029156,125.604343,142.003384,60.555954,87.395153,104.710178,118.762493,-29.139772,-47.345955,-53.537082,-43.734791,-26.259239,-34.36676,-35.719186,-35.03351,-7.499217,-11.757093,-14.304792,-15.893939,10.673312,14.555437,16.392758,17.564874,26.054845,37.101068,42.669072,46.746451,84.106979,212.073685,-108.489017,52.841788
61,0.366554,1.020981,-0.215034,0.625346,6.150513,1.969986,-4.695396,-11.757202,-30.860481,-49.254112,-63.877144,-77.521706,-37.449188,-58.061142,-71.777916,-87.081642,-40.932541,-59.796181,-72.922897,-85.891457,-42.072945,-59.020271,-69.582138,-80.211296,-14.104782,-19.619341,-21.390528,-21.564232,6.298419,20.816187,32.954034,45.043097,16.588013,31.577123,42.846573,54.251318,23.289724,36.474486,46.644347,56.141375,26.961835,37.115332,45.339561,53.658391,18.484039,41.682758,65.185547,77.613831,68.971252,98.409176,93.583088,83.73373,72.105789,110.225315,132.345829,148.303585,68.550854,102.930508,125.5406,142.312717,60.060654,86.263161,103.40086,117.590733,-28.950878,-47.286489,-54.246533,-44.895606,-27.050879,-35.033417,-36.135415,-35.168805,-8.492781,-12.435946,-14.536572,-15.637273,9.529941,13.758023,15.800263,17.306448,24.755154,36.114296,42.109181,46.764513,84.489756,212.766015,-108.68783,53.138483
62,-0.397453,0.369823,-0.160675,0.578941,5.995445,1.818924,-4.43985,-11.369362,-29.955597,-48.757439,-63.834457,-77.565994,-36.55014,-57.227669,-71.112328,-86.317177,-40.214539,-59.218826,-72.51297,-85.460472,-41.628571,-58.753624,-69.243851,-79.550514,-14.390069,-20.061659,-21.705393,-21.372373,6.525104,20.714052,32.862828,45.045135,16.939003,31.400084,42.479529,53.795847,23.74081,36.554515,46.399198,55.776554,27.250333,37.238648,45.376487,53.822338,18.25367,41.928005,65.59988,77.674942,69.388332,98.116894,93.426361,83.968277,72.625179,110.659161,132.476864,148.119335,69.216671,103.60548,126.209965,142.792797,60.808926,87.077866,104.491253,118.726215,-29.482765,-47.922303,-54.746279,-44.898385,-27.579772,-35.490154,-36.824426,-36.125535,-8.944825,-12.945572,-15.626096,-17.180848,9.236966,13.634707,15.300764,16.499,24.569316,35.760034,41.33236,45.653284,84.109869,212.870374,-108.830938,53.451959
63,-1.490135,0.634856,0.219669,1.058402,6.641464,2.825089,-3.397408,-9.917793,-27.980232,-45.960732,-60.53833,-74.440727,-35.055542,-55.4916,-69.551125,-85.518608,-39.324646,-58.201561,-71.709595,-85.237312,-41.31649,-58.146973,-68.95443,-79.81739,-14.657387,-20.329347,-22.51068,-22.663389,6.029125,19.399756,31.021925,42.669226,16.761841,31.412249,42.570981,53.798441,23.65331,36.44781,46.335533,55.718879,27.106393,37.439213,45.583228,53.852658,18.162231,41.704445,65.409851,77.378998,68.9744,97.447243,93.539085,84.988403,72.595711,110.796547,132.44957,147.922668,69.542427,103.922081,126.44783,142.86335,61.491623,87.657681,104.861183,118.818512,-29.818379,-48.559011,-55.582349,-46.078404,-27.788612,-36.768542,-38.516325,-37.922534,-8.876622,-13.358127,-16.345087,-18.327985,9.444077,13.605777,15.154169,16.062394,24.623502,35.785444,41.057972,44.841389,82.624826,213.433522,-108.606176,54.438654
64,1.208839,-1.555246,0.070839,0.868334,5.635185,1.061096,-4.970856,-11.51104,-30.214348,-49.15535,-64.766006,-79.220581,-36.637802,-57.422791,-71.754684,-87.700539,-40.109253,-59.116173,-73.019485,-86.706619,-41.663589,-58.090897,-69.038773,-79.93515,-14.716914,-19.76501,-21.154209,-20.444326,8.563362,22.515744,34.268638,46.196903,18.842274,33.306628,44.645424,56.286365,25.26197,37.848865,47.830325,57.535082,28.159176,37.829043,45.815656,54.149307,18.560028,42.450142,66.535721,78.445702,68.749981,97.418289,94.475384,86.931152,72.505531,110.643654,132.161636,147.593422,69.395142,103.74836,126.048203,142.330742,61.3797,87.561893,104.770088,118.782463,-30.878448,-49.767899,-55.894281,-45.552878,-27.916157,-37.906386,-40.27649,-39.79919,-8.725549,-13.625043,-16.628089,-18.327491,9.535993,12.909294,14.202934,15.067008,24.635543,35.78211,41.177274,44.960321,83.889542,211.803558,-108.479462,55.23227
65,1.980629,0.570389,-0.631599,0.330488,5.360641,-0.226135,-7.387047,-15.760002,-33.343163,-52.164917,-67.6157,-82.18174,-39.466209,-60.944824,-75.880051,-92.82486,-42.289925,-61.61293,-75.986137,-90.590973,-43.216095,-60.220757,-71.713028,-83.285065,-14.647445,-19.225003,-19.95409,-18.557728,7.626732,20.759007,32.442678,44.405648,17.657283,32.624966,43.883548,55.161581,24.103532,36.726675,46.872206,56.29748,27.259225,36.903343,44.512229,52.040901,18.708572,42.02282,66.049519,78.542976,67.815628,96.948338,93.535309,84.931068,71.586285,110.156708,132.503357,148.494759,68.745232,103.497963,126.312332,142.889099,60.934982,88.003407,105.729675,120.009613,-30.235256,-49.182906,-55.240097,-44.24275,-27.936535,-37.775104,-39.570374,-38.725628,-8.544528,-13.459676,-16.228657,-18.016949,9.892262,13.130453,14.634786,15.644652,25.189105,36.17651,41.511714,45.132542,85.979147,212.23402,-109.002085,55.422832
66,2.167168,-0.95849,0.203304,3.60854,3.404846,-3.968582,-10.717278,-16.841812,-31.497116,-52.05574,-68.757248,-84.574699,-38.37204,-61.339073,-77.401085,-95.574875,-42.196999,-63.493652,-79.256058,-94.986191,-44.052658,-62.50946,-74.869308,-86.977272,-17.188968,-23.258416,-24.138977,-22.136596,8.105544,21.665503,32.853504,44.025203,19.699246,33.91981,44.974554,55.670405,26.269552,38.009478,47.99946,57.486731,28.811816,37.430938,45.019014,52.791477,18.612671,41.782093,65.621796,77.729588,67.977791,96.053867,91.921692,83.453007,71.767445,109.446087,131.629658,147.443333,68.893089,102.979488,125.567379,142.088985,61.354923,88.148975,105.558414,119.952106,-30.778381,-50.134048,-56.851381,-46.870539,-28.362551,-39.097829,-41.271505,-40.561468,-9.355959,-15.066761,-18.16552,-20.014698,8.866711,11.417095,12.649757,13.359486,24.066606,34.216397,39.05448,42.245649,88.628225,211.212746,-108.31687,58.968587
67,2.944679,-1.903889,0.458736,3.840505,-0.523453,-10.937119,-21.922302,-28.502884,-32.807007,-54.91127,-73.025551,-90.053215,-39.207687,-65.108185,-83.726807,-104.507675,-42.738762,-66.197319,-83.551941,-100.909424,-44.40033,-64.995346,-78.762589,-92.27005,-18.050819,-25.101851,-26.6043,-22.648631,9.628001,21.952827,31.939536,41.897531,21.275487,35.552244,46.267175,56.31477,27.268241,38.696637,48.554102,57.250351,28.981074,38.194606,44.896872,50.981325,17.71225,40.13031,64.006176,77.196579,65.697498,94.478645,92.818737,86.534557,70.1437,109.247818,131.905975,148.047523,68.100471,103.068008,126.028404,142.631035,61.448135,88.502083,105.770073,119.795494,-30.076156,-49.641187,-57.46586,-48.836981,-27.697808,-40.025567,-43.906457,-44.296967,-9.206431,-15.188718,-18.415825,-20.34463,8.547338,9.930979,10.478366,10.751735,23.304297,32.681406,36.818838,39.200582,91.836147,209.228458,-107.594891,62.728693
68,3.265114,-0.476528,0.077362,3.548704,-5.618248,-19.183731,-33.083153,-42.727203,-34.780655,-60.64064,-80.346794,-99.316864,-39.442863,-68.981438,-89.628868,-111.717625,-43.147316,-70.125618,-89.737358,-108.268204,-46.146584,-69.120941,-84.183884,-98.238029,-20.658971,-27.307576,-27.84993,-25.3244,9.18982,20.61661,28.114469,35.655676,22.439729,36.154619,44.395644,52.304822,29.399618,39.832844,47.56696,54.36037,31.609727,40.021615,45.620278,50.921983,18.011971,40.771637,64.742603,77.345982,65.802727,95.021152,94.159985,89.018841,70.10273,108.621483,130.548935,146.421776,68.190937,102.89257,125.733719,142.527237,61.834259,89.008141,106.26091,120.400085,-30.356348,-49.935335,-57.488893,-49.099451,-27.968213,-41.157483,-45.77027,-46.725086,-9.420334,-15.787913,-19.159362,-21.282743,8.189154,8.982184,9.420982,9.617534,22.862936,31.539733,35.419203,37.485248,95.48564,208.690828,-107.13315,66.216294
69,0.192833,2.575424,0.661869,3.986298,-8.833694,-25.310898,-41.674919,-55.964012,-34.59034,-61.037292,-82.365646,-103.468895,-38.535118,-68.600807,-91.824303,-116.026382,-43.086891,-70.321999,-91.690865,-111.82497,-47.393303,-70.45166,-86.570663,-101.571579,-23.847021,-31.632698,-33.053946,-32.923529,4.5607,15.756297,21.972711,27.285037,20.780496,33.52294,38.561712,42.476009,29.795068,40.374148,45.730997,49.099235,33.301071,42.620567,48.309756,52.354531,18.484612,41.249599,64.809723,77.905998,66.335506,94.37685,93.911819,89.717503,70.205898,108.687458,130.440502,146.287251,68.027859,103.153667,125.651264,142.16898,61.604347,89.156342,106.451511,120.737171,-30.639536,-49.603766,-56.122449,-47.486592,-27.046711,-39.685076,-45.503323,-47.139647,-8.548665,-14.580507,-18.424748,-20.457016,8.948098,8.927967,8.73722,8.901384,23.930322,31.187663,34.076008,35.665587,96.126852,211.185884,-106.022902,70.122224
70,-2.745209,3.076961,0.347729,7.181202,-12.979431,-31.530762,-50.420036,-68.240089,-36.23497,-65.065155,-87.579002,-108.592701,-38.735733,-71.078796,-95.562057,-118.860111,-42.256165,-71.21109,-94.701233,-115.01461,-45.356827,-68.732071,-85.559006,-101.363125,-25.789072,-35.202366,-36.460593,-34.629755,1.912163,11.158546,15.581667,19.553947,20.096919,30.957519,34.393991,36.563407,31.155615,41.310532,45.157397,47.199977,36.07175,47.724053,52.888549,55.4628,18.414173,41.07296,64.428864,76.243916,65.387363,94.132175,94.0345,90.221329,69.626999,107.846375,128.994827,144.803581,68.37244,103.128548,125.174446,141.735306,63.138599,90.651684,107.918015,122.440338,-30.357707,-50.188574,-57.123793,-48.912872,-27.876266,-40.883898,-45.993498,-47.323972,-9.30801,-15.81181,-19.514458,-21.769089,7.9985,6.984713,6.413398,5.918005,22.956302,28.612393,30.775695,31.682809,93.5921,213.587203,-105.464716,76.627784
71,-4.480591,-0.200565,0.197296,9.780833,-16.227837,-37.429504,-58.425522,-78.551903,-39.200821,-71.875076,-95.229149,-115.264835,-38.830948,-74.518318,-99.67392,-121.220627,-39.878883,-71.351395,-95.624084,-115.379391,-40.87326,-65.228119,-82.602196,-98.411922,-24.893505,-32.442308,-31.317895,-28.970206,1.73741,13.118258,17.182299,20.058757,20.51923,31.358156,33.81644,35.250408,32.675292,43.841928,47.651743,49.84802,39.216266,51.047213,55.247847,58.155241,18.194389,40.799274,65.219936,79.276199,63.395805,92.392616,90.02615,84.007015,68.49123,107.031441,128.463478,143.870888,68.002796,103.661041,125.778236,141.703949,63.596821,91.499863,108.913193,122.789154,-31.498515,-51.338891,-59.520821,-52.776163,-29.350002,-42.450012,-45.899915,-45.478592,-11.035972,-17.568702,-21.422206,-24.312341,6.040456,4.574872,3.432211,2.251173,20.569587,25.568129,27.046217,27.237582,89.698648,212.4074,-104.680281,85.429379
72,-2.327156,2.51071,0.410328,13.107328,-19.758911,-43.029327,-65.379753,-86.101799,-41.993294,-75.227509,-98.584671,-118.456936,-40.160751,-75.869179,-101.473103,-122.901592,-39.739037,-70.789146,-95.140285,-114.837799,-39.144974,-62.852211,-79.698372,-94.959698,-23.499613,-30.016937,-26.786773,-22.62004,1.054327,13.339756,18.184385,21.96561,20.255061,31.000621,33.937532,36.175923,33.431673,44.522912,48.719778,51.659098,41.248287,53.421084,57.592818,60.754254,17.903996,40.456982,64.895039,81.857758,61.879807,92.986107,89.522095,81.784229,67.131958,106.924152,128.611965,143.396473,67.338467,104.089222,126.50362,141.839275,63.783474,92.640152,109.879589,122.660694,-32.337425,-53.593893,-63.848753,-59.500844,-33.651474,-47.442903,-50.009497,-49.355036,-14.955147,-21.766989,-25.315014,-29.028159,2.556683,0.393721,-1.145995,-3.419275,17.403088,20.89282,21.008694,19.638391,87.552853,214.023964,-104.088593,97.642561
73,-3.74279,4.906194,-0.186481,12.996887,-19.252167,-44.089394,-67.643166,-88.926315,-43.246422,-76.395264,-99.100056,-118.923454,-40.903244,-75.86071,-99.787045,-120.087204,-39.548149,-70.090485,-92.902107,-111.581554,-38.044624,-61.4328,-77.346611,-92.070751,-22.588177,-27.915015,-22.927743,-17.931949,3.198177,14.359503,20.105687,25.801298,22.123197,30.476978,33.78186,37.448043,35.170318,43.989758,48.55157,52.409365,42.981374,54.561306,58.807079,62.503211,16.190643,38.759365,62.836189,81.227703,61.121407,93.152733,95.053425,91.767139,67.161369,106.766739,126.959267,140.839462,68.228416,105.290909,126.38443,140.869446,65.377636,94.771099,111.804199,124.637375,-32.462161,-52.099872,-62.830488,-66.34384,-34.958112,-47.165428,-51.006983,-51.419568,-16.257772,-23.611135,-27.429564,-31.393107,1.382561,-1.854396,-4.871984,-8.563424,17.337385,18.533213,16.343605,12.69996,83.750839,217.957295,-104.334297,109.666586
74,-4.510574,4.949419,-1.177082,15.265227,-22.190781,-48.003387,-70.37075,-90.94614,-47.419853,-77.758713,-99.706478,-119.124641,-43.196526,-75.298805,-98.92662,-119.664402,-39.421577,-68.32386,-90.97126,-109.843884,-35.480804,-58.023262,-74.500809,-90.326385,-20.929005,-24.60581,-17.310369,-10.56,4.131041,17.46314,24.943276,32.150043,22.719273,34.095305,38.961916,44.125795,36.044456,47.259628,53.145245,58.069223,44.513217,57.366503,62.028598,65.716332,17.463284,41.671772,66.46986,85.668411,58.983307,95.11734,100.894375,99.764156,63.243427,105.455074,127.292576,141.727123,63.30986,102.543468,124.885654,139.152775,60.583191,93.216476,111.457615,123.69833,-32.92603,-52.631914,-63.568869,-67.858701,-34.697371,-45.991089,-52.216303,-54.577639,-15.130642,-22.470203,-27.482669,-31.893131,2.654743,-1.552097,-5.779962,-10.751611,18.394738,17.829042,13.852563,8.294037,79.247246,222.489359,-105.504398,124.514457
75,-3.45108,8.076151,0.258064,14.106295,-23.577003,-50.754662,-73.084488,-92.746353,-49.344749,-78.453026,-99.641476,-117.717361,-44.709206,-75.917244,-98.73127,-118.167515,-40.245323,-69.030304,-90.39156,-108.095226,-35.671577,-58.56823,-74.393921,-89.396324,-20.418391,-22.473692,-13.126347,-5.477817,4.035883,17.4088,26.445108,35.208541,22.52655,34.271355,40.51883,47.244252,35.914595,47.502184,54.721486,61.132908,44.710139,57.685815,62.708099,66.868286,21.196575,46.610641,70.658283,89.217796,59.974365,98.47578,106.787853,106.009083,61.494026,103.563709,125.210209,138.853168,60.379543,100.220432,122.435017,136.01984,57.048626,90.781288,109.91827,122.887287,-31.791366,-49.310081,-58.212175,-63.080145,-32.260546,-41.183202,-47.536764,-50.550616,-13.034524,-18.786482,-24.087168,-29.161045,5.032226,1.642376,-3.594738,-9.57224,21.294259,21.521809,17.496609,10.938159,75.73514,229.546412,-105.30736,137.601654
76,-4.704895,8.320065,1.081238,14.602429,-24.515991,-50.963058,-72.133713,-90.776024,-51.964531,-79.501648,-99.904861,-117.073288,-46.673584,-76.463928,-98.512802,-117.240314,-40.702744,-68.720169,-89.430084,-106.30188,-34.37851,-57.267723,-72.76783,-87.470856,-19.568644,-20.381958,-8.511245,0.210013,3.724167,19.683932,30.811603,40.831472,22.633873,37.375425,44.943494,52.351876,36.707038,50.045807,58.453866,65.381274,46.390676,60.274639,66.349212,71.099548,21.914692,47.082481,70.115261,88.825893,59.405251,97.935791,111.240864,115.690784,59.814377,101.718807,123.015118,135.944309,58.108635,98.274937,120.771961,135.129833,54.56749,88.444748,107.680378,121.533222,-29.432747,-44.962327,-52.337056,-58.304307,-28.175385,-36.170736,-40.319005,-42.372176,-9.739769,-14.684865,-18.859811,-23.475716,8.016006,5.690671,1.155474,-4.360752,24.184611,25.01114,21.487044,15.177819,70.870628,236.628289,-104.385738,150.965894
77,-3.658905,9.064899,0.662327,17.098257,-24.41803,-50.053825,-71.284904,-89.744911,-51.955032,-79.628735,-100.075893,-117.32872,-45.838165,-75.675545,-98.199863,-117.26944,-38.825226,-67.083435,-88.313599,-105.722294,-31.504097,-54.905319,-70.544586,-85.247898,-18.327893,-18.396621,-5.21334,3.882557,5.148749,22.773737,34.370588,44.345935,24.119217,40.852467,50.519618,58.873213,38.197076,53.573175,63.44861,70.865946,47.848356,62.398483,69.848608,75.66068,24.88718,51.674366,75.102997,93.567638,57.733669,95.780811,113.811836,124.760399,56.130352,98.462677,121.375237,136.686172,53.971939,94.435444,117.386856,132.630615,50.903492,85.19577,104.298363,118.004379,-29.151011,-44.353067,-50.777302,-55.126939,-24.467921,-27.587676,-31.050515,-32.499921,-5.966201,-7.153847,-11.838233,-15.317869,11.195597,11.815509,7.245423,2.892822,26.60041,28.834293,24.907831,18.797381,66.931715,244.655796,-104.00342,167.02676
78,-3.23204,8.503834,0.66988,15.688001,-24.872932,-49.657288,-70.037727,-88.10154,-53.114204,-80.229263,-99.745045,-116.306019,-46.290894,-76.116543,-98.264008,-116.616554,-38.487167,-66.725006,-87.427025,-104.385109,-30.216064,-53.463936,-68.696594,-83.326893,-17.591334,-17.034469,-3.012,6.502565,6.199124,25.265675,37.262422,47.241103,24.778526,42.875534,52.766159,61.035527,38.636677,55.279463,65.501503,73.03814,48.165445,63.354564,71.243797,77.470338,27.031345,54.815712,77.889233,96.358681,57.828312,93.19891,112.573299,126.867657,54.452534,95.129757,118.238583,135.618725,50.724392,90.146542,113.614368,130.467281,46.333523,79.089432,99.461918,115.35696,-27.274292,-40.86105,-46.974032,-50.992255,-16.951538,-16.787838,-19.50714,-20.938577,0.511355,1.26119,-2.799764,-5.597057,16.058874,17.050524,13.609791,10.000232,29.225544,32.562289,29.734923,24.459153,63.206577,252.255219,-103.826637,181.810349
79,-2.071838,8.367366,2.593517,17.328586,-24.601135,-48.804703,-69.023037,-86.077023,-53.381424,-81.024055,-99.688854,-116.045265,-46.962318,-76.083241,-98.027973,-116.742783,-38.651733,-66.385918,-87.501755,-104.541206,-29.440269,-52.281189,-67.479401,-82.097282,-15.519916,-14.988801,-2.910235,5.55834,9.101084,28.449279,39.754298,49.226564,27.016855,45.355245,56.094568,64.780443,40.398849,57.277336,68.527705,76.420149,49.298565,63.800834,72.665785,79.414673,26.956501,54.557648,77.095699,98.249245,60.11713,92.595119,111.762772,127.546806,55.334244,92.339287,115.7444,134.488564,50.31332,84.494991,107.294655,125.201683,44.522438,71.092987,88.716774,103.875961,-27.55149,-38.172993,-41.37821,-45.109849,-12.910529,-9.148324,-8.714589,-7.675267,4.101586,10.522023,10.753278,11.868491,17.959984,24.257723,24.941238,24.93389,28.724748,35.93275,36.68697,35.074852,60.855246,259.780108,-101.512613,198.296458
80,-2.327271,8.132221,2.861309,15.035237,-28.559761,-50.742874,-66.456356,-73.89782,-55.728607,-81.418934,-98.901329,-115.216484,-48.52581,-75.746269,-95.788708,-113.392296,-39.213409,-65.651207,-85.447598,-102.161179,-29.00528,-51.077843,-64.872894,-78.468361,-11.286493,-10.107184,-3.758686,3.274624,11.555602,28.087545,37.38938,44.70631,26.411392,43.445305,53.965599,61.926771,38.482424,55.206227,66.894283,74.625558,47.243943,61.425914,70.801293,77.37271,28.065605,55.994511,78.475857,100.174427,61.08284,90.049381,108.866558,125.699215,54.725246,87.030716,109.15781,127.071362,47.605648,76.581573,97.639103,114.491673,39.386215,60.131721,76.075802,90.148773,-24.646504,-32.696226,-34.484518,-38.12032,-6.615877,-1.057352,1.318248,4.129188,8.453199,17.67303,20.780743,24.061727,20.792784,29.99977,33.017575,35.124869,30.066337,40.566995,44.546685,46.18338,58.050928,266.822403,-99.128351,212.24177
81,-0.885429,6.848429,3.241882,14.383029,-25.948677,-49.731216,-69.376431,-83.790207,-55.634651,-80.219135,-97.386189,-113.466682,-48.881149,-75.21944,-94.584618,-112.268486,-39.875565,-64.87896,-82.920685,-99.122372,-28.615837,-48.637276,-61.697845,-75.335312,-12.435977,-15.359118,-13.803687,-9.946262,13.17692,27.485047,36.297757,43.714846,27.041493,42.566164,53.139749,61.935169,37.870416,53.88026,64.884925,73.15559,45.691044,60.380726,70.110492,77.665222,28.98325,57.047482,79.343491,99.982166,59.837265,87.475033,107.799854,126.650333,53.076038,84.610863,107.322063,125.541744,46.519661,75.088463,96.090031,112.130413,39.936275,61.498203,77.532349,91.268406,-22.402123,-26.818389,-27.633124,-31.025136,2.94074,10.891476,13.575828,15.670834,17.122586,29.410548,33.055366,36.233783,27.925698,38.870958,42.980633,45.796637,34.407391,43.6568,47.583262,49.39965,56.775169,272.699483,-96.276798,225.65345
82,-0.842743,3.152544,11.882687,22.706738,-31.150475,-56.046867,-72.770462,-81.953545,-53.627014,-79.403629,-97.675152,-114.193268,-45.520477,-73.760662,-93.364792,-110.202141,-35.944405,-62.767067,-80.757236,-95.054684,-25.557289,-46.381645,-59.911652,-72.426338,-4.064783,2.019485,10.65244,18.397547,15.330096,24.965506,31.649741,36.880742,24.031099,33.029431,38.529911,41.751738,30.276968,41.656087,49.442443,53.822647,33.843363,47.279265,56.630377,62.728539,23.692303,51.747551,77.160072,97.483749,59.524155,106.282883,124.966965,131.916275,56.714973,107.169685,121.305656,120.284958,52.938766,95.480461,106.130447,104.136429,48.357124,78.224487,87.347488,85.564384,-24.361217,-29.835761,-28.587477,-27.282752,5.084591,19.875667,20.656007,21.82062,29.447289,46.972365,47.624573,47.734056,47.28229,66.823826,69.877939,71.647336,58.287264,77.088103,80.899647,81.314795,55.259485,275.171121,-85.067053,247.679282
83,2.020798,5.88043,-8.788605,4.494565,-30.628338,-55.923214,-76.317587,-88.238296,-57.789345,-86.03322,-101.047411,-111.605673,-52.915363,-84.129181,-99.193668,-107.301922,-46.542492,-75.671997,-89.734783,-98.890314,-39.624195,-61.897259,-73.730106,-82.588177,-7.012963,0.811833,13.766297,25.838688,20.440128,25.807813,25.452069,26.178192,31.06549,35.595469,33.622914,31.796522,37.400434,44.143425,44.355753,44.278164,39.82633,51.102881,56.56205,60.461805,30.776825,62.923279,89.296417,109.24736,61.244888,100.409889,120.51899,134.119377,53.269444,97.470703,118.719177,130.275307,46.40625,87.196999,107.126541,117.162552,40.430374,71.428528,87.281685,95.381584,-17.311481,-18.792132,-16.109633,-13.830302,13.038167,30.426713,35.717735,38.707937,33.918575,51.010472,53.331855,52.633766,48.638391,66.180572,67.265341,64.229012,57.08665,71.91842,72.410139,68.532027,56.892242,280.429724,-94.243698,251.55202
84,2.020798,5.88043,-0.381317,10.543883,-30.106201,-55.799561,-79.864712,-94.523048,-61.951675,-92.662811,-104.41967,-109.018078,-60.310249,-94.4977,-105.022545,-104.401703,-57.140579,-88.576927,-98.71233,-102.725945,-53.691101,-77.412872,-87.548561,-92.750015,-9.961144,-0.39582,16.880154,33.279829,25.550159,26.650119,19.254396,15.475641,38.099881,38.161508,28.715918,21.841306,44.5239,46.630762,39.269063,34.73368,45.809296,54.926497,56.493723,58.19507,33.35598,63.320618,89.611816,110.532646,63.797264,98.902359,118.736,133.573723,53.976746,93.814316,116.284103,130.867424,45.517044,81.129341,102.498779,117.030945,38.769321,65.041237,80.516968,91.761703,-14.203212,-15.525844,-12.249059,-10.860045,15.783158,33.327006,41.235937,46.331705,34.827171,53.961586,59.812746,61.437646,47.837303,68.246555,73.226603,73.434701,54.818805,71.872601,76.065578,76.403352,58.292828,286.085923,-95.245228,261.871672
85,-0.0951,0.806584,2.067547,9.100961,-24.258385,-48.511162,-67.820549,-86.781693,-59.834862,-77.302094,-77.33448,-74.682884,-57.093658,-74.531193,-78.547611,-77.333508,-51.851921,-74.145927,-83.378391,-86.848869,-44.211159,-65.229721,-78.713951,-88.778057,-10.719625,-9.218349,-2.96754,3.322049,17.613935,29.406905,31.757805,30.225777,30.441039,41.966259,43.775485,40.305111,39.547866,51.428954,53.08158,50.089958,44.407438,57.712491,62.823696,65.173793,34.128513,62.984161,87.1562,107.56525,66.36549,97.331486,115.023937,126.954174,56.066551,91.047077,111.738567,126.158924,45.917759,76.66523,95.578709,109.090405,36.545448,59.180889,72.535,83.318195,-11.676138,-11.996438,-7.719543,-7.430242,19.190546,36.354567,44.001862,48.712059,36.095771,56.060729,63.165484,66.984068,47.969881,67.914647,74.041831,75.969309,55.092977,72.627871,77.928711,79.781779,57.383366,286.802166,-93.992043,270.882292
86,-1.869278,3.414736,1.485558,7.452904,-17.681923,-39.343185,-57.836609,-75.212116,-64.363861,-69.996872,-54.618759,-37.274437,-63.770142,-69.167233,-50.235672,-29.011803,-60.107689,-66.026802,-49.180756,-30.944252,-53.891373,-61.224174,-54.590149,-45.127831,-9.78108,-13.162533,-11.234808,-8.087204,14.125221,30.554474,41.959096,49.394402,25.734669,40.070707,51.950498,59.198947,35.139628,46.822435,56.912144,62.060893,42.295821,53.507349,59.104839,62.327593,32.611084,61.392059,86.543369,107.873898,65.010738,95.800266,113.362484,125.991955,55.127392,89.800014,110.193272,125.030537,45.448208,76.23848,94.858532,108.496227,36.253166,59.814491,74.019127,85.843449,-10.397349,-9.739398,-4.785163,-6.654286,20.453404,37.215985,45.616635,51.851636,37.218702,56.326997,65.208126,71.213601,49.276088,68.392966,76.214952,79.93245,57.050341,74.018984,79.756956,82.127739,54.845037,290.122856,-93.175535,278.24115
87,-5.793915,2.365411,2.242012,7.780984,-12.402191,-31.744194,-49.176178,-64.145851,-54.16008,-57.50988,-43.720665,-28.858681,-54.413681,-56.480942,-38.017044,-19.292908,-51.297913,-52.495766,-36.031723,-20.187378,-46.017036,-48.666916,-39.652519,-29.930534,-7.501872,-10.499052,-8.225402,-3.0099,16.440985,33.708253,42.93043,47.564119,25.622222,41.245632,52.123708,59.549689,33.036717,45.825907,56.848973,63.656709,37.909875,50.509676,57.384102,61.281171,31.477261,60.176296,85.986729,107.550602,62.523994,93.813343,111.323719,123.696613,52.890015,88.696461,109.502621,124.441738,43.573151,75.646305,94.822369,109.06271,34.757366,58.912582,73.315773,85.724201,-10.550675,-10.661456,-6.438036,-8.639562,21.478461,37.351774,45.372906,51.499164,38.184294,56.193678,63.980899,69.206898,49.857406,68.41359,75.517358,78.866576,57.30358,74.311866,80.198162,83.043807,48.680019,292.488684,-91.304626,286.022551
88,-27.761708,8.378945,1.871223,8.160132,-2.16093,-11.158104,-23.57151,-35.002327,-36.296024,-26.848869,-9.593582,3.633099,-42.678766,-30.479965,-9.461231,9.013939,-45.359659,-34.6457,-14.132995,1.956253,-45.131893,-44.067306,-33.629894,-23.290472,-13.015227,-17.990088,-16.877561,-12.844518,11.388443,30.815277,37.963443,41.046394,25.43027,42.651102,50.236924,54.107131,35.336395,48.924511,55.611217,59.952857,42.420588,55.451005,58.933821,60.002659,31.376896,59.271183,84.650974,105.941105,61.120949,93.224773,110.767651,122.854786,51.66853,88.003407,108.8447,123.184719,42.669182,75.13052,94.459362,108.436146,34.708443,58.558846,73.380203,85.937519,-10.863997,-10.785327,-7.14724,-9.192722,23.513013,38.141809,44.581451,48.664018,39.72898,55.742344,61.447588,64.779146,50.370923,67.463066,72.655905,74.701943,56.530897,72.568714,76.822082,78.572336,20.795059,300.885536,-89.556656,294.200591
89,-27.761707,8.378944,2.179012,6.421302,8.08033,9.427986,2.033157,-5.858803,-18.431969,3.812141,24.533501,36.124878,-30.943851,-4.478989,19.094582,37.320786,-39.421406,-16.795635,7.765732,24.099884,-44.24675,-39.467697,-27.607269,-16.65041,-18.528582,-25.481122,-25.52972,-22.679136,6.335901,27.922301,32.996456,34.528669,25.23832,44.056572,48.35014,48.664573,37.636073,52.023117,54.373461,56.249006,46.931301,60.392335,60.483541,58.724148,29.563293,56.644249,81.443024,101.919022,60.449009,92.184677,109.27002,121.065674,51.499443,87.393723,107.780113,121.843414,42.803478,75.433159,94.585876,108.40107,34.981213,58.754654,73.677979,86.483803,-12.404361,-12.640248,-8.470057,-9.173147,24.132617,38.362567,44.302957,48.017244,40.195566,54.367965,59.328808,61.797528,50.577601,66.443011,70.580597,71.294556,56.457661,71.926386,75.633078,76.394522,-6.951714,309.241525,-87.362709,300.598937
90,8.738251,-1.107864,-0.202961,2.355099,-5.538368,-13.320351,-23.266869,-35.157452,-34.227676,-9.864578,11.138649,26.857681,-42.016068,-16.251411,9.085579,29.650612,-42.626781,-20.89817,4.179955,24.179878,-40.728264,-30.521049,-13.722553,1.833572,-9.728777,-4.606087,11.641002,25.396154,12.431655,27.683327,35.196747,41.060566,27.459729,40.021368,49.101272,54.782187,38.72745,48.300555,52.771593,55.418278,48.070164,56.63791,55.327752,53.271092,28.517361,55.256939,79.052067,99.209118,57.587528,90.461597,107.907772,120.299206,48.893566,85.957203,105.883083,119.769688,40.81604,74.364853,93.172817,106.325054,33.907814,58.499107,74.165897,87.088909,-12.946838,-13.534085,-8.308765,-6.267729,23.964347,38.028065,43.571646,47.079749,40.868337,54.441757,58.298193,59.461015,51.334167,66.338529,69.945371,69.851202,56.945798,71.665737,74.333232,73.41488,1.829967,308.10771,-87.52224,302.928085
91,11.441917,2.998785,-0.068607,0.109669,0.854301,-5.907211,-20.513535,-31.824074,-43.169289,-25.372639,-0.917816,14.641571,-55.014153,-32.274456,-5.241623,16.451797,-60.716171,-41.321869,-12.881699,8.216515,-62.283554,-61.184921,-47.792301,-34.339085,-16.54732,-22.079601,-20.518859,-16.149709,4.073675,25.649577,31.516793,32.96342,23.262862,40.91712,46.040922,46.867204,36.8327,49.893962,51.550232,52.11389,47.520956,59.538512,59.123673,57.141546,28.182278,54.589462,78.443184,99.016228,57.1451,90.486374,107.79911,120.169373,48.30883,85.495949,104.559975,118.072014,39.831562,73.674717,91.894913,104.793663,32.483482,58.052273,73.468552,86.147461,-13.524143,-14.270705,-9.354755,-7.867188,23.37463,36.953114,42.135517,45.437065,39.796535,53.433002,57.105855,58.114115,49.826901,65.590053,69.471931,69.706891,55.281748,70.365953,73.461439,73.198568,13.394222,311.078954,-87.46851,303.010213
92,-30.441113,12.002428,1.39555,-0.741499,5.863781,10.123158,11.901684,12.063618,-14.023933,14.285831,33.923206,44.945354,-23.870888,5.638905,29.366398,48.992786,-27.817841,-0.537128,23.89452,42.107105,-29.090881,-12.922554,3.582802,17.604733,-23.759274,-32.656705,-30.51304,-25.698916,-8.178533,6.553756,15.193442,20.133598,13.20514,26.371748,33.576231,35.191869,29.531085,38.744308,41.215004,40.476901,40.908907,48.122467,46.837564,42.515344,27.763367,53.712101,77.774105,98.487225,54.319324,88.521252,106.617565,119.580059,45.876446,84.121571,103.927059,117.872028,37.94054,72.922668,91.876087,105.183964,31.184635,57.68692,73.67981,86.681614,-13.211501,-14.143067,-9.193154,-6.761979,23.839549,37.492812,42.77766,46.072785,40.21545,53.99913,58.001359,59.149732,50.222351,66.017551,69.865651,69.966243,55.618473,70.628886,73.629153,73.028384,-17.031097,323.230725,-86.057167,302.418058
93,-13.01199,12.132906,-0.083199,0.510305,9.628143,17.888889,24.494247,30.519905,5.113392,32.839737,51.41922,62.077217,-4.182816,23.536034,46.101265,64.20639,-10.034409,15.155582,33.815346,49.342918,-14.710751,2.181301,16.72245,29.058838,-19.833183,-28.395124,-29.163979,-27.797565,-13.205511,-3.942023,4.79881,12.03602,2.787784,14.950577,21.8016,24.997617,17.197798,27.388963,31.129803,31.57632,29.05678,36.851658,36.888152,33.730669,27.530651,53.228931,77.004948,97.573185,54.293175,87.979259,105.962048,119.104443,45.980186,83.849201,103.74876,118.31583,38.051376,72.664833,91.918659,106.045246,31.196423,57.343941,73.381691,86.890011,-13.894769,-14.84449,-9.139431,-6.296566,22.468258,36.605582,41.906917,45.087681,38.782223,52.507302,56.345831,57.581827,48.889345,64.496515,68.647933,69.195289,54.517771,69.737149,72.920815,72.80423,-30.018568,335.477422,-86.115847,303.042154
94,50.821724,-24.090997,1.112938,0.206617,-2.469406,-12.565041,-28.82618,-40.412693,-44.522209,-33.37286,-11.068954,3.529701,-54.011192,-38.763885,-14.529991,5.093307,-58.60302,-46.514111,-20.924034,-2.005577,-60.695858,-67.086811,-58.46014,-49.199181,-15.596981,-20.448834,-18.783611,-14.762486,7.959319,26.392126,31.175189,32.675539,25.810746,41.11151,44.654255,45.501162,37.838862,49.522842,50.077238,50.254894,46.656141,56.678912,56.125937,54.722104,27.072258,52.690372,76.553936,97.081776,53.343716,87.041073,105.138874,118.288136,45.075016,83.320942,103.549404,117.861156,37.037659,72.212105,91.534595,105.389385,30.109749,57.007656,73.37122,86.735516,-13.606827,-14.647445,-9.152708,-5.518634,22.393725,36.955337,42.403699,45.441264,39.174214,53.029278,57.187304,58.179694,49.679503,65.439073,69.434325,69.398015,55.336273,70.28401,73.130148,72.301273,20.911016,311.361509,-84.895048,303.223854
95,-17.168083,1.069764,-0.047379,-0.010992,-9.199791,-20.338497,-32.448578,-43.418941,-39.961281,-15.61924,4.375305,18.520775,-43.357143,-18.216248,5.839577,25.561867,-41.49416,-18.440838,6.860161,26.002579,-37.232323,-23.658886,-5.606918,9.04438,-6.139596,-1.512885,12.048493,22.843824,14.295653,32.159182,37.181467,39.779986,24.80514,38.38418,45.866971,49.450347,31.991468,43.732383,47.090123,48.752938,37.131449,47.440619,47.802661,47.199051,27.403793,53.29525,77.116184,97.536106,53.553143,87.199459,105.121937,118.224506,45.035934,82.940197,102.889309,117.279224,36.987534,71.72636,90.870152,104.849567,30.072155,56.597157,72.605209,85.771923,-13.574284,-14.647939,-9.05261,-5.433419,22.212117,36.693824,41.937854,44.82623,38.793523,52.358298,56.103584,56.886147,49.140299,64.513064,68.550367,68.726171,54.740876,69.797355,72.925446,72.538826,3.896456,312.348882,-84.788904,303.130472
96,26.52729,-7.009475,1.545467,-0.238851,-3.971672,-15.924911,-32.628593,-46.223831,-54.494476,-45.528774,-22.002983,-4.947968,-65.22995,-51.949368,-25.938835,-4.414215,-69.063663,-58.677578,-31.082954,-10.044594,-69.017315,-68.377876,-51.681862,-35.784073,-4.216318,-5.923285,-4.703158,-0.563658,13.889952,35.306848,41.842141,43.673535,26.930466,44.300054,51.92623,54.689438,36.454911,50.701534,54.77595,55.787113,43.652169,56.407458,57.797151,56.934744,26.892128,52.633953,76.40007,96.704521,52.180367,85.80574,103.786011,116.873016,43.510323,81.912575,102.10453,116.370735,35.44138,70.768661,90.002747,103.898735,28.707104,55.792351,72.074089,85.183296,-13.323454,-14.41903,-8.772078,-4.618066,22.274856,37.00307,42.490582,45.55649,39.118515,53.167722,57.239853,58.16506,49.655544,65.499218,69.389679,69.173861,55.223579,69.932836,72.78941,71.910948,30.602674,305.390522,-83.064508,302.942736
97,-19.131546,12.297595,0.410328,0.497214,-1.763878,-8.007774,-16.165123,-22.209435,-36.239777,-19.199524,-0.739288,12.024422,-41.18803,-23.50359,-0.547714,18.545609,-41.205196,-26.947174,-4.458389,13.132439,-38.678455,-32.463913,-19.097214,-7.23793,-11.974455,-11.526332,-2.859415,4.814803,10.118176,22.57169,25.910967,29.009541,22.948429,31.889518,37.932599,42.528558,31.977389,39.978884,42.781488,45.078604,38.097287,45.749769,46.352268,46.492441,26.645393,52.335835,76.162891,96.558781,51.493435,85.660114,103.711109,116.920223,42.957344,82.346134,102.643948,116.921139,35.24992,71.598186,91.149502,105.451298,28.890896,56.738262,73.157558,86.325245,-14.061372,-15.071917,-8.757011,-4.189889,20.098895,35.480984,41.011042,44.260472,37.555921,51.6373,55.765006,57.211818,48.842106,64.409199,68.23649,68.724565,54.879382,70.024658,72.478373,71.735268,11.610518,317.641973,-82.514791,303.393807
98,15.14946,-7.751529,0.570145,0.076571,-2.921333,-12.884903,-28.450012,-39.121513,-47.441597,-35.626373,-15.415764,-0.482483,-57.990017,-43.566971,-21.869774,-3.443069,-62.575951,-52.960854,-30.459824,-12.912941,-63.79755,-70.684662,-62.522221,-53.28764,-11.030291,-12.886323,-8.737498,-3.046827,9.132454,26.072938,30.723794,32.96873,24.97693,36.722908,42.230242,46.643976,36.476895,45.296829,47.860892,50.217658,45.509498,54.280835,55.141574,55.551226,27.342968,52.640133,75.838451,95.781155,51.194687,85.107021,103.236179,116.399632,42.598801,81.606617,101.958447,116.192608,34.720745,70.712929,90.141277,104.202862,28.1464,55.71825,72.054577,85.112972,-13.761265,-14.766006,-8.509701,-3.801294,20.13508,35.37854,40.895198,43.962712,37.449031,51.465387,55.507631,56.514224,48.70008,64.215365,68.036172,68.139912,54.770825,69.735852,72.243042,71.255406,26.860313,309.754562,-81.844311,303.334496
99,-21.8573,6.902955,0.878391,-0.067308,-2.739944,-8.228645,-15.226479,-23.049259,-34.031982,-12.873459,6.107712,18.572044,-40.249043,-16.698189,7.091904,25.98175,-40.930023,-20.709,2.256775,19.742775,-39.287567,-27.232933,-10.756187,2.464027,-12.607026,-12.935415,-4.484315,2.633408,8.467216,22.360874,26.966961,30.453759,22.66166,32.699004,39.734044,44.242441,32.950267,42.045856,44.811101,46.885482,40.434849,50.00042,49.876549,49.151228,26.889553,51.954346,75.230827,95.211868,50.703564,84.525604,102.568588,115.677567,42.213707,81.028519,101.379204,115.710983,34.372673,70.341568,89.852943,104.148903,27.744198,55.595341,72.029228,85.198402,-13.901067,-14.990839,-8.950043,-4.247132,20.073639,34.887439,40.447817,43.56436,37.454712,51.082658,55.117985,56.119886,48.747875,63.971883,67.651528,67.579713,54.781631,69.504349,71.96782,70.920472,5.070934,316.589854,-80.897999,303.199525
100,11.120796,-8.003594,0.478878,0.761753,0.476761,-5.678558,-17.770615,-25.652962,-40.204525,-26.139336,-4.329185,10.698853,-51.887741,-33.375778,-8.255196,12.170334,-57.960262,-42.928619,-16.699219,2.994003,-60.820427,-59.751377,-44.496746,-30.104027,-14.622683,-15.706526,-9.446825,-2.369857,4.868341,23.895186,30.671368,34.095058,22.766389,37.678434,44.768431,49.484063,35.757626,47.45865,50.996084,53.877667,45.624354,56.957036,57.722988,57.401454,26.212177,51.182327,74.576283,94.739628,50.262566,84.453106,102.567959,115.473232,41.767216,81.247387,101.549892,115.445766,33.979225,70.572681,90.200214,104.294415,27.599545,55.871029,72.507191,85.642948,-14.648494,-16.024232,-9.946324,-5.309424,19.528012,34.148287,39.518782,42.660396,37.074515,50.252979,54.136216,55.22469,48.520571,63.182528,66.617518,66.693841,54.562541,68.897158,71.195014,70.276662,16.33152,308.412155,-80.279331,303.787172
101,-23.298912,17.886686,-0.354252,-0.161971,4.831009,7.796059,10.153198,11.211319,-18.535309,4.466057,23.478012,36.286354,-27.578545,-1.941719,22.672806,43.485947,-30.68676,-7.828045,15.567627,34.778824,-31.296158,-17.051926,-0.369759,14.039497,-20.779631,-30.75152,-28.580869,-24.436244,-9.66184,1.943471,9.949659,15.222094,9.008335,19.554256,27.644486,31.129741,24.066173,32.646517,36.918719,37.866155,35.930774,43.234057,43.020339,40.060148,27.015381,51.965618,75.121193,95.209923,50.19453,84.378891,102.511597,115.614052,41.626625,80.902405,101.122856,115.220146,34.039764,70.2911,89.848824,104.105072,27.838955,55.746918,72.247353,85.547218,-14.351846,-15.780071,-9.639425,-4.874207,18.59342,33.132554,38.550412,41.958664,36.349627,49.572304,53.424233,54.627008,47.976242,62.828389,66.441406,66.632276,54.264224,68.85844,71.251948,70.235166,-6.854925,326.283218,-80.521116,303.609578
102,27.470055,-16.460313,0.337257,0.054773,-0.317802,-8.081703,-21.873322,-31.491623,-43.95853,-31.392632,-9.368019,6.069489,-55.517349,-38.752041,-13.29586,7.157707,-60.897732,-47.700062,-21.262436,-1.378212,-63.160229,-61.85194,-46.119518,-31.62672,-14.306212,-16.390721,-10.575746,-3.334955,4.26084,22.304249,28.96224,33.093775,21.839577,35.799307,42.818909,47.913194,34.628334,45.651153,49.373653,52.573745,44.477895,55.072908,55.588338,55.119962,26.868267,51.781712,74.842072,94.764862,50.221939,83.966103,101.981049,114.991608,41.718464,80.626488,100.791321,114.765358,34.003601,69.976387,89.424248,103.550148,27.578602,55.465736,71.930008,85.125961,-14.255021,-15.737648,-9.682403,-4.653079,18.35531,33.041596,38.534604,41.801262,36.101637,49.462574,53.517168,54.580263,47.800685,62.752806,66.434675,66.439924,54.168202,68.565681,70.945975,69.775002,20.834255,309.750271,-79.964733,303.591717
103,-21.444969,16.590668,0.096474,-0.501599,2.572746,1.819153,-1.152306,-4.658661,-24.535046,-3.251152,15.227966,27.239113,-32.113495,-8.072548,15.531921,34.744034,-33.984833,-13.374767,9.392624,27.407341,-33.445301,-21.403542,-5.540771,7.941856,-19.057042,-27.919955,-26.062935,-22.848579,-4.296717,5.983306,12.349403,17.349458,12.181319,20.392827,27.170305,32.014563,24.884119,32.205433,35.086214,37.605383,34.557445,41.334182,40.3915,38.751656,27.004623,51.88139,74.812775,94.411469,50.605545,83.762627,101.69735,114.811935,42.020473,80.051079,100.252647,114.505119,34.041767,69.368992,88.830414,103.115616,27.257423,54.779491,71.114845,84.293289,-14.121949,-15.332627,-9.283804,-4.278254,18.887969,33.646626,39.09116,42.185658,36.335548,49.918971,54.026794,55.11249,47.830325,62.882791,66.692421,66.778625,54.102315,68.474353,70.911333,69.78976,-0.522394,326.256403,-79.77994,303.005582
104,23.032951,-15.617358,-0.235348,0.695433,-2.008781,-11.615067,-26.507835,-36.957779,-46.91494,-34.186478,-11.545944,4.637604,-56.978245,-39.561081,-14.177055,6.623268,-60.819683,-47.122936,-20.740929,-0.780373,-61.656761,-63.460464,-50.566177,-37.901802,-14.065385,-16.992231,-12.33872,-5.49486,5.252058,22.585707,28.113666,31.46801,22.553103,35.280419,41.792741,46.283478,34.730469,44.200019,47.332308,49.986279,44.127462,53.71551,54.421811,54.522712,26.72081,51.70023,74.795208,94.894466,50.434513,83.958721,101.942654,115.019703,41.810875,80.260448,100.665607,114.881573,33.891106,69.563484,89.226437,103.648624,27.313786,55.016041,71.55756,84.9436,-14.553955,-16.079746,-10.149915,-5.567417,18.145791,32.791877,38.058384,41.060813,35.708966,49.170124,53.198659,54.309611,47.213192,62.306413,65.91486,65.92264,53.462148,67.916685,70.339956,69.288223,22.624798,310.588533,-79.901047,303.650503
105,-18.177109,14.57532,-0.107689,0.51364,1.889305,-1.567039,-8.510742,-15.201588,-28.354225,-6.903305,11.990433,24.343185,-36.13781,-11.637497,12.119179,30.891151,-38.0266,-17.199898,5.446243,22.693405,-37.869301,-26.222935,-10.541954,2.497673,-19.208392,-28.225311,-27.259534,-24.873498,-2.452294,9.424904,14.800647,18.332709,14.516904,23.343014,28.636013,32.120156,27.285222,34.321249,36.11726,37.284899,36.73143,43.650008,42.335465,39.757262,26.98019,52.160397,75.412159,95.666828,50.530758,84.218273,102.317448,115.486507,41.854362,80.532246,101.131496,115.261517,33.994789,69.877224,89.699192,104.055233,27.493229,55.529995,72.045765,85.258999,-15.073214,-16.57449,-10.359496,-5.533393,17.272022,32.186599,37.737529,41.066,35.023413,48.624683,52.819697,54.015185,46.728081,61.794317,65.389302,65.230171,53.105663,67.479924,69.865589,68.675103,4.599123,325.073188,-79.857302,304.073478
106,23.007317,-15.489906,0.139961,-0.004878,-6.630135,-19.428978,-36.199379,-48.462181,-52.467957,-41.050873,-18.710518,-1.603088,-61.027393,-45.019226,-19.686356,1.830139,-63.658733,-50.963287,-24.42112,-3.752518,-63.669891,-64.599037,-50.478287,-36.958237,-6.361651,-6.140461,0.224401,8.649504,9.735199,26.418185,31.896743,35.678585,23.039449,35.599668,43.165205,48.508901,32.179251,42.29014,46.58414,49.820788,39.47216,48.945476,50.253165,51.245,27.201977,52.239246,75.372791,95.862751,50.738983,84.237499,102.276707,115.459957,41.961193,80.366879,100.963726,115.087452,34.072323,69.862232,89.620457,103.804607,27.502556,55.534286,71.913242,84.944057,-15.000534,-16.502983,-10.1903,-5.15159,16.775673,31.950651,37.826203,41.388646,34.543427,48.662474,53.117704,54.372535,46.405064,61.732813,65.453584,65.095061,53.054781,67.3542,69.791859,68.468363,27.758274,309.536321,-79.565506,304.021639
107,-22.982941,16.14693,-0.132408,0.278186,2.903137,0.228882,-4.85836,-8.089943,-27.76989,-5.78968,12.749176,25.823708,-35.100517,-10.957146,12.337646,32.087746,-36.415386,-16.429138,5.595474,23.12748,-35.490017,-25.859814,-11.550751,1.843185,-18.767803,-28.951495,-31.008093,-32.086626,-2.295078,9.182533,14.132323,17.325375,13.78967,23.163629,28.276996,30.827411,26.042372,33.854169,36.532038,37.503866,35.068553,43.412824,43.153102,40.495364,27.092228,52.229748,75.542622,95.974789,50.775375,84.401264,102.45203,115.78886,42.376328,80.783901,101.495876,115.775585,34.733448,70.465107,90.382862,104.752979,28.292828,56.476364,73.011074,86.221104,-15.162443,-16.964444,-10.85529,-5.637319,16.511875,31.376372,37.072477,40.538219,34.265983,47.983528,52.445922,53.664875,46.145836,61.242083,65.057702,64.79903,52.878607,67.204085,69.708743,68.390002,5.122118,325.78077,-79.35113,304.397344
108,21.86142,-16.355832,-0.286217,-0.188771,-8.072433,-21.034126,-37.15456,-48.984146,-48.968296,-38.517494,-16.835289,-0.409241,-56.911812,-41.234951,-17.222557,3.394547,-60.00309,-47.685013,-22.209892,-2.3489,-61.438122,-65.116024,-53.144588,-40.567474,-9.865616,-9.281457,-0.603549,9.76768,9.293499,26.766828,31.94355,35.339329,23.866472,37.885854,44.193411,48.442395,33.901347,44.981223,48.316548,50.984228,41.653864,52.148223,53.220334,53.691736,26.902828,52.138424,75.82346,96.713619,50.389423,84.51376,102.931881,116.509151,42.03392,80.981541,102.012463,116.266193,34.517899,70.764828,90.988712,105.479336,28.323727,56.747818,73.40086,86.672916,-14.954036,-16.467723,-10.477007,-5.504432,17.198292,31.996655,37.494603,40.775279,34.769866,48.5985,52.941407,54.040873,46.346401,61.671804,65.280992,64.808786,52.70163,67.287386,69.907209,68.680105,27.221518,309.484682,-79.399366,304.268316
109,-30.303268,14.686409,1.055374,-0.727111,5.371857,5.993614,2.76535,-0.873642,-22.567348,1.14109,20.793686,33.959084,-30.143166,-2.387352,22.763901,43.129234,-31.566238,-7.193813,16.598396,34.902763,-30.434418,-15.973892,0.362778,14.348373,-18.224276,-28.54209,-29.259568,-28.333374,-3.110677,7.761842,14.2197,18.600336,13.589228,22.045082,28.63768,31.550756,26.487592,33.847809,37.044875,38.067215,36.484119,44.401016,43.75523,41.113733,26.756573,51.498013,74.595394,94.524021,51.002426,84.209347,102.215824,115.532856,42.326431,80.2141,100.732899,114.936161,34.228191,69.126263,88.53899,102.579517,27.318993,54.396687,70.644436,83.597889,-14.186478,-15.824222,-10.110148,-4.721066,18.451332,33.370849,38.86219,42.050302,35.860132,50.028578,54.429036,55.612977,47.173054,63.096386,66.985365,66.560399,53.397372,68.08798,70.752943,69.34491,-2.873297,324.084178,-78.135538,303.454291
110,14.770088,-12.777025,0.089779,-0.096825,-2.290993,-9.081688,-19.684753,-27.234192,-34.156437,-18.419609,1.619568,15.061226,-42.351151,-22.620163,0.311966,19.051208,-46.741447,-30.28204,-4.320602,14.964066,-49.834328,-46.244888,-29.990158,-15.195122,-20.48502,-23.294602,-17.042002,-8.81623,3.110739,18.075704,23.974227,28.14028,22.144253,34.239368,40.463625,44.947199,35.868159,44.371561,46.2878,49.013587,46.027028,55.361159,53.850682,51.927218,26.492672,51.468086,74.661942,94.468117,50.366249,84.086494,102.195396,115.405655,41.60305,80.194931,100.639343,114.579735,33.686256,69.307823,88.815422,102.815895,27.169762,54.51479,70.833893,83.819389,-14.484115,-16.019477,-10.080384,-4.482339,18.045076,33.308604,38.868118,42.179916,35.873346,50.019007,54.250824,55.384686,47.512187,63.318749,66.884773,66.397439,53.753919,68.564879,71.056384,69.739989,12.20335,311.294047,-77.739201,303.34436
