takenoko1/special-research/HandMotion_SimilarSearch_自分用/NewProject/handData/key/d4_feature_d2/65.csv
,vel_0x_L,vel_0y_L,vel_0x_R,vel_0y_R,posFromWrist_1x_L,posFromWrist_2x_L,posFromWrist_3x_L,posFromWrist_4x_L,posFromWrist_5x_L,posFromWrist_6x_L,posFromWrist_7x_L,posFromWrist_8x_L,posFromWrist_9x_L,posFromWrist_10x_L,posFromWrist_11x_L,posFromWrist_12x_L,posFromWrist_13x_L,posFromWrist_14x_L,posFromWrist_15x_L,posFromWrist_16x_L,posFromWrist_17x_L,posFromWrist_18x_L,posFromWrist_19x_L,posFromWrist_20x_L,posFromWrist_1y_L,posFromWrist_2y_L,posFromWrist_3y_L,posFromWrist_4y_L,posFromWrist_5y_L,posFromWrist_6y_L,posFromWrist_7y_L,posFromWrist_8y_L,posFromWrist_9y_L,posFromWrist_10y_L,posFromWrist_11y_L,posFromWrist_12y_L,posFromWrist_13y_L,posFromWrist_14y_L,posFromWrist_15y_L,posFromWrist_16y_L,posFromWrist_17y_L,posFromWrist_18y_L,posFromWrist_19y_L,posFromWrist_20y_L,posFromWrist_1x_R,posFromWrist_2x_R,posFromWrist_3x_R,posFromWrist_4x_R,posFromWrist_5x_R,posFromWrist_6x_R,posFromWrist_7x_R,posFromWrist_8x_R,posFromWrist_9x_R,posFromWrist_10x_R,posFromWrist_11x_R,posFromWrist_12x_R,posFromWrist_13x_R,posFromWrist_14x_R,posFromWrist_15x_R,posFromWrist_16x_R,posFromWrist_17x_R,posFromWrist_18x_R,posFromWrist_19x_R,posFromWrist_20x_R,posFromWrist_1y_R,posFromWrist_2y_R,posFromWrist_3y_R,posFromWrist_4y_R,posFromWrist_5y_R,posFromWrist_6y_R,posFromWrist_7y_R,posFromWrist_8y_R,posFromWrist_9y_R,posFromWrist_10y_R,posFromWrist_11y_R,posFromWrist_12y_R,posFromWrist_13y_R,posFromWrist_14y_R,posFromWrist_15y_R,posFromWrist_16y_R,posFromWrist_17y_R,posFromWrist_18y_R,posFromWrist_19y_R,posFromWrist_20y_R,posFromBody_0x_L,posFromBody_0y_L,posFromBody_0x_R,posFromBody_0y_R
2,-24.593468,6.100447,0.523853,0.28047,2.509632,1.906757,-2.920074,-10.409031,-15.069809,13.070869,33.022156,44.024277,-23.887081,8.975887,31.603432,49.159698,-28.295403,-0.498676,21.510887,39.421234,-28.85107,-26.115017,-26.334171,-24.629688,-12.359962,-10.082669,0.204517,9.982942,-2.110135,14.927298,25.236405,33.262662,10.895243,26.731568,35.475488,41.041609,20.601049,33.658112,40.25602,44.213233,28.405931,40.256082,46.209624,50.889194,26.637096,49.602642,70.180435,88.51862,51.604843,83.469028,100.341282,112.297153,41.729908,76.961002,96.91618,110.70013,31.491051,64.110546,82.806988,95.752201,21.868515,46.957798,62.000828,74.18169,-13.612693,-13.304991,-4.823819,1.59174,12.131548,28.793847,36.46368,41.573341,29.317428,45.841098,53.320122,57.477098,41.691223,58.663262,64.580927,66.410777,49.594288,65.528055,69.728503,69.655082,-15.492983,313.275957,-76.517744,292.449272
3,21.796074,-15.25933,0.290222,0.362537,-11.834393,-26.690311,-43.324413,-60.076675,-37.031822,-20.675583,-0.432014,13.091469,-39.536076,-14.548874,5.663338,23.449974,-40.083046,-20.799065,-1.047363,14.70314,-40.112057,-47.851295,-50.430279,-49.412727,8.980671,24.556163,43.763134,57.770968,18.985658,39.182551,46.249021,50.402477,23.799412,41.686962,49.104422,50.817193,26.714093,44.103503,48.78369,50.632683,29.30514,43.525889,53.340747,62.825919,25.859585,48.458176,69.236698,87.632275,51.166248,82.606716,99.72044,112.163258,41.665363,76.586552,96.714878,110.650806,31.369801,63.9818,82.865238,95.945606,21.480732,47.019138,62.111263,74.43655,-13.470297,-13.612384,-5.649483,0.734645,12.158594,28.829044,36.573287,41.79237,28.911234,45.314428,52.922944,57.494697,41.180176,57.92306,64.204126,66.671673,49.278558,65.081661,69.269513,69.599569,7.230806,298.080539,-75.299807,292.87572
4,-14.178085,-0.255153,0.094185,-0.180929,-4.171829,-10.26638,-20.14801,-31.829796,-21.172085,-2.928486,18.273582,31.242599,-27.415009,-0.590401,21.100159,38.795128,-32.280064,-11.542511,8.811264,24.62574,-35.977421,-41.635151,-42.984924,-42.387314,-3.098512,8.208729,26.914473,41.481642,10.828923,30.183663,38.191395,43.041149,23.002893,40.133692,47.321131,48.460427,31.925086,47.448584,52.068133,53.471287,39.778319,51.822119,61.271044,69.570669,25.694847,48.599396,69.5121,88.012104,50.750713,82.198505,99.364529,111.762714,41.31443,76.063671,96.301517,110.178509,31.235332,63.917141,82.752399,95.594273,21.799393,47.312908,62.287331,74.551105,-13.207425,-12.806665,-4.676297,1.684242,12.7317,29.265126,36.89371,42.100566,29.396469,45.691538,53.18316,57.685197,41.495042,58.384397,64.590746,67.030998,49.43775,65.61395,69.836443,70.267832,-6.417904,297.887214,-74.676247,292.756619
5,1.599712,-0.228353,-0.501194,0.612194,-3.043327,-8.497124,-18.263168,-29.545898,-22.972584,-6.664467,15.405293,29.308491,-30.880337,-5.326195,17.365894,36.198635,-36.554203,-16.367741,4.961987,21.953716,-40.599461,-46.125469,-47.438221,-46.580658,-4.339387,5.62503,23.977808,38.651929,8.110855,28.052965,37.024621,42.220115,21.82803,39.539406,47.612099,49.511542,32.007585,47.559118,53.10801,55.070561,40.894334,52.243442,61.914174,70.556576,25.922012,49.003601,69.777088,88.385239,50.510845,82.150726,99.345932,111.913147,40.965672,76.221542,96.587448,110.578079,31.061611,64.127083,83.030434,95.905495,21.911488,47.640553,62.791557,75.09922,-13.402803,-13.404965,-5.39044,0.897604,11.653105,28.228645,35.907432,41.176163,28.753091,44.797516,52.176258,56.589807,41.220129,57.885145,63.840663,65.976548,49.429414,65.26259,69.266549,69.288223,-4.455271,297.756457,-74.81452,293.466409
6,-0.905514,2.10853,0.426064,-0.269973,5.598564,8.507996,5.812225,-1.210728,-19.591942,-3.09494,19.206505,32.619209,-31.663628,-7.211781,16.907158,36.198349,-39.597874,-20.974274,2.269363,19.398193,-44.388885,-51.437073,-53.527279,-54.111385,-16.734794,-13.872724,-1.595445,9.89081,-1.605325,19.20586,29.693118,34.257832,18.675362,38.291183,46.29626,47.252218,34.030837,49.543776,54.647324,55.810022,46.319169,55.664847,63.827449,71.028844,25.480099,48.174191,68.899384,87.274933,50.285339,81.888771,98.954201,111.483536,40.748634,75.869751,96.169395,110.158081,30.671711,63.636131,82.564201,95.658989,21.164818,47.003517,62.033615,74.441071,-13.618127,-13.512596,-5.195433,1.441563,11.765121,28.669358,36.242243,41.510418,28.794217,45.020743,52.413564,56.855642,41.219265,58.074039,64.198692,66.607267,49.321907,65.322735,69.458963,69.730541,-5.168409,299.995635,-74.196081,293.327085
7,0.526428,-6.808477,0.075817,0.441948,-10.510311,-24.067154,-37.074108,-52.894878,-38.853893,-10.536861,11.783638,26.488953,-39.890671,-3.681107,22.18586,40.182266,-36.655941,-2.058792,24.228859,41.697235,-29.218197,-19.09647,-7.454967,1.508904,29.337374,50.892405,64.740614,75.223487,44.824315,62.472151,66.757815,70.571458,32.034014,48.041882,54.345056,58.392672,17.604116,33.766299,41.787121,47.730969,4.379586,19.792304,25.466549,31.312275,25.464363,47.99469,68.555946,87.035465,50.13073,81.659946,98.751125,111.315136,40.747204,76.000614,96.378307,110.418262,30.87965,64.021454,83.010921,96.132259,21.567879,47.494125,62.523651,74.84808,-13.861979,-13.931757,-5.57563,1.067726,11.26593,28.135464,35.807582,41.085513,28.464223,44.582748,51.923143,56.287106,41.062851,57.701993,63.669677,65.930297,49.343766,65.021208,69.078148,69.296312,-4.518929,293.27435,-73.997211,293.856224
8,-15.763664,13.026249,0.155411,-0.309987,0.772247,2.247677,2.134781,-4.957581,-9.307308,22.475052,41.356201,52.377319,-15.123253,18.597565,42.732124,60.390472,-17.814789,6.358395,28.159447,43.948631,-17.15847,-18.088989,-19.743233,-21.873264,1.093291,13.841355,31.06762,46.799464,11.387208,25.011325,33.248583,40.715258,19.572411,31.547359,40.146289,44.954176,26.635237,39.693721,48.011563,53.445661,32.442802,45.148628,53.491418,61.468213,25.417957,48.1394,68.886967,87.346745,50.499344,81.674366,98.660259,111.200237,41.021461,75.706272,96.065655,110.156879,30.812874,63.633842,82.661304,95.739841,21.057529,46.965179,62.040253,74.410686,-13.668577,-13.511793,-5.046861,1.359497,11.739556,28.704988,36.311033,41.542651,28.754265,44.939171,52.382133,56.919863,41.199443,57.91003,63.961509,66.334639,49.458931,65.303284,69.365411,69.780621,-20.187435,306.330842,-73.746643,293.576479
9,11.640244,-5.221615,-0.122566,0.415086,6.036873,9.287338,6.64032,-0.579987,-13.626709,3.437805,24.025726,35.386848,-24.551811,-0.841656,20.881577,38.083992,-32.842197,-14.928703,5.715294,20.60463,-38.81916,-45.107002,-47.383347,-48.349686,-16.761717,-14.135472,-1.710672,9.544576,-0.604351,19.32652,28.986199,33.368317,19.471696,37.333805,44.908975,46.423774,34.290251,48.41047,52.901146,54.393159,45.979172,54.829858,62.688401,69.68182,25.496807,48.254642,69.050903,87.618198,50.406876,81.804943,98.943157,111.472034,40.996399,76.030712,96.447201,110.436115,30.911121,64.04726,83.091488,96.041965,21.284237,47.296829,62.395191,74.730206,-13.823385,-13.808257,-5.468308,0.853946,11.464581,28.44718,35.94862,41.080573,28.383639,44.509326,51.787415,56.332122,40.816343,57.522485,63.490106,65.959073,49.088737,64.919011,68.930997,69.367264,-8.4904,301.129203,-73.812418,294.011542
10,-7.027359,-0.838447,-0.116329,-0.579836,-4.072781,-5.675411,-8.141441,-18.190956,-17.31823,13.538589,35.038834,49.271164,-23.527737,12.697678,38.515549,56.025925,-25.590363,1.668777,26.374397,44.04213,-23.208733,-24.276409,-23.147049,-20.912762,4.812271,17.718416,36.165302,51.628099,16.5819,34.247458,43.47229,50.677575,24.46224,37.579263,45.590947,48.879403,30.189529,43.752946,50.033704,52.639139,35.361744,48.403122,55.500962,61.31643,25.652733,48.495255,69.339752,87.887077,50.764389,81.894951,99.085007,111.818619,41.348534,75.986481,96.336479,110.473938,31.207581,63.951015,82.861519,95.837059,21.517181,47.206593,62.09301,74.325485,-13.407867,-13.204338,-4.848025,1.318927,11.988719,28.742779,36.234957,41.456571,28.966069,45.097623,52.525024,57.153711,41.358018,58.146349,64.295949,66.894098,49.549025,65.593696,69.738939,70.323654,-15.459309,300.318806,-73.870296,293.459756
11,19.037819,-0.276889,0.192604,-0.250707,3.580284,2.290764,-5.764046,-15.579872,-25.417213,-11.820545,9.246826,21.94416,-37.35157,-14.987011,7.657585,25.795097,-44.882126,-28.685646,-6.96722,9.313774,-49.58828,-56.677494,-58.310223,-58.215866,-11.362138,-8.344704,3.573558,13.853643,2.722205,22.983997,32.443049,37.12231,20.162251,37.79224,46.035673,49.086761,32.831706,47.052147,52.615118,55.788965,43.18725,53.180381,61.994882,71.158767,26.023235,48.862267,69.758034,88.262787,50.393944,81.786346,99.148521,112.083092,41.006927,75.667191,96.160812,110.347137,30.993576,63.645229,82.636642,95.632439,21.361599,46.827621,61.778641,74.054604,-13.081948,-12.704777,-4.161978,1.885549,12.420478,29.055113,36.327212,41.370491,29.386342,45.42879,52.844706,57.338839,41.769275,58.563103,64.611988,66.985427,49.884762,66.206322,70.321246,70.648708,3.647861,299.982236,-73.608341,293.149367
12,-10.001965,4.072193,0.056934,0.256326,-8.029003,-16.092854,-27.115688,-41.993523,-26.823349,2.868862,23.509884,36.332645,-30.836277,3.944836,28.604794,46.153736,-31.516972,-4.203873,19.875927,37.599277,-28.817654,-34.437447,-38.865738,-41.714745,7.93783,22.402864,38.222764,51.544057,19.46657,36.909333,43.807533,50.010362,22.436271,37.726538,44.170625,47.243635,24.32429,38.938328,46.22253,50.798235,26.404476,39.588807,47.003549,53.97622,25.884705,48.605175,69.357719,87.81435,50.218906,81.893864,99.408131,112.459087,40.916977,75.681095,96.095409,110.276699,31.00914,63.507557,82.40942,95.467815,21.492176,46.820984,61.666203,73.797283,-13.341362,-13.171301,-4.767502,1.602114,12.670258,29.010344,36.231869,41.161034,29.577459,45.464976,52.80815,57.125059,41.824604,58.590643,64.530354,66.651727,49.803313,66.090231,70.093078,70.222507,-6.29179,303.974925,-73.489094,293.32619
13,15.098248,-8.582752,0.336571,0.268182,-5.773888,-15.410671,-28.601017,-45.211544,-33.62154,-21.010723,-0.345955,14.734268,-40.444794,-18.841782,3.909645,22.926521,-43.637581,-26.571007,-3.28022,14.86496,-44.512081,-45.908604,-41.647682,-34.570827,22.084356,38.44593,52.81803,63.099844,26.638387,45.235697,53.946271,58.566437,23.984663,40.359884,50.975397,55.996138,19.848558,35.616032,44.777138,50.574267,16.161071,29.545967,40.352474,50.362216,24.817028,47.359257,68.267727,86.578274,50.845642,82.276211,99.526119,111.989079,41.826954,76.324024,96.661663,110.79237,31.567039,63.703709,82.769451,96.025829,21.297741,46.961117,62.018166,74.334469,-14.490537,-14.017467,-5.109291,0.849747,13.102696,29.121494,36.148629,40.800164,29.617721,45.021052,52.228251,56.381646,41.454842,57.754605,63.699564,65.848355,49.118254,64.962236,69.102663,69.513056,8.850174,295.337014,-73.108807,293.539213
14,7.531357,0.580701,-0.121765,-0.008707,-11.272659,-26.616898,-43.769302,-62.228966,-45.047092,-31.929073,-10.65834,5.912476,-48.486729,-27.468109,-4.339714,16.333809,-47.831554,-30.068092,-5.308228,14.449654,-45.371475,-47.892609,-43.065376,-34.315567,26.903728,43.879472,56.877316,67.233849,30.620794,48.788136,57.304382,62.746446,23.735315,39.812899,50.67881,56.255984,15.969398,31.74175,41.426499,47.694721,9.340429,23.009624,33.4439,43.104999,25.030117,47.766724,68.640461,86.804523,50.89468,82.717495,99.954357,112.311687,41.830502,76.856174,97.235355,111.355534,31.7062,64.176121,83.188992,96.300488,21.769352,47.589798,62.517071,74.645748,-14.53086,-14.108487,-5.08879,1.025551,12.54614,28.73117,35.889031,40.652457,29.495455,45.064771,52.319766,56.504961,41.56976,57.861433,63.819915,65.965742,49.241137,65.010216,69.124152,69.422407,16.410055,295.834028,-73.202047,293.446819
15,4.165077,1.012028,-0.501423,-0.104852,-10.996628,-27.554054,-45.990658,-64.564705,-48.843327,-35.419407,-14.175339,2.222328,-52.078629,-31.896286,-8.722687,12.490997,-51.148109,-34.808865,-10.095863,9.955559,-48.540344,-54.887123,-53.831406,-48.307171,25.727012,41.558274,54.267682,64.378201,28.881409,47.774071,55.334421,60.310454,23.197716,39.306298,49.338579,54.868823,16.762088,32.183512,40.888653,46.988544,11.814645,24.768646,35.392557,46.15374,25.788116,48.725281,69.514618,87.788887,50.848331,82.99221,100.2911,112.646255,41.561394,76.875916,97.308426,111.372528,31.517429,64.336452,83.43235,96.458473,21.924534,48.118916,63.207378,75.325928,-14.362096,-13.858521,-4.856361,1.249828,12.14291,28.683622,36.017966,41.101815,29.261482,45.262434,52.754859,57.159207,41.517334,58.032852,64.190603,66.567129,49.37705,64.902338,69.010902,69.437227,20.613327,296.696759,-73.665276,293.19267
16,9.870415,-3.926709,0.804291,-0.248978,-16.416893,-38.611736,-60.568542,-81.321945,-61.292953,-52.47551,-31.458778,-14.09626,-60.960102,-46.757069,-22.25338,-0.448837,-55.38208,-42.678452,-16.558342,4.348869,-48.196735,-52.275925,-43.868008,-32.28241,35.010631,54.738653,65.452967,75.305183,40.20909,56.713863,65.034731,71.389775,25.766471,42.337503,54.619968,62.93213,11.011272,25.653221,36.591256,45.075886,-2.813287,5.413103,13.003958,21.739171,25.148392,48.017693,69.162254,87.357216,51.337738,83.01281,100.04837,112.395401,42.134514,76.928215,97.110558,111.101074,31.78196,64.037018,82.727394,95.602455,21.549568,46.965466,61.729088,73.679581,-14.158443,-13.757251,-4.846605,1.131082,13.033845,29.25858,36.704754,41.96663,29.959941,45.691538,53.281528,57.737129,42.036408,58.493572,64.67769,66.9732,49.696855,65.486374,69.613956,69.95062,30.510292,292.63372,-72.834435,292.807363
17,-14.26609,11.643287,0.39259,0.36161,-5.283394,-15.709648,-25.665894,-33.219223,-43.082485,-23.295078,-3.992043,8.987503,-46.287689,-24.489098,-1.412773,18.562775,-45.04961,-28.345127,-5.803757,12.24678,-41.012535,-47.891636,-50.502491,-51.582355,1.9205,11.996561,26.347048,36.191052,16.172001,32.350053,37.700356,42.861146,21.42375,33.597535,40.366368,46.555303,24.16905,36.27423,41.707772,47.450684,26.554283,38.193865,48.218118,59.548145,25.050087,47.945023,68.834496,86.875706,51.094151,82.657642,99.618244,111.857357,41.729393,76.773548,96.815243,110.579624,31.440125,64.093037,82.806301,95.545406,21.483707,47.17432,61.942406,73.735142,-14.433727,-14.119417,-5.153628,0.927738,12.729477,29.09525,36.434966,41.387102,29.831748,45.827698,53.357234,57.734536,41.897161,58.339134,64.233581,66.292772,49.492152,65.16873,69.252778,69.741471,16.303854,304.174363,-72.382193,293.066328
18,-3.598824,-8.908547,0.375309,-0.204332,-13.335457,-30.64682,-48.519287,-67.969437,-43.731823,-29.939175,-8.808517,7.68837,-45.295486,-23.260975,-0.535469,19.214859,-44.096317,-25.582066,-1.618309,16.478462,-42.095089,-49.136696,-49.274483,-45.889721,27.359755,45.344686,59.973544,69.550662,35.401141,52.051151,59.484419,64.796189,24.686703,41.454904,51.48348,56.712752,13.4937,30.490192,39.191381,45.537347,4.347414,17.322534,29.535593,42.481937,25.039845,48.006706,68.835125,86.859398,51.031723,82.621536,99.504433,111.589851,41.598988,76.692352,96.618462,110.35183,31.142292,63.925552,82.627945,95.449448,20.975361,46.873341,61.763134,73.499107,-14.352463,-13.897115,-4.801959,1.516961,12.541509,29.304646,36.811705,41.876783,29.598887,45.885311,53.529271,57.911204,41.71228,58.558039,64.492254,66.574045,49.351238,65.186452,69.2232,69.52096,12.805681,295.170412,-71.906233,292.766592
19,-24.325962,17.666608,0.367069,-0.047054,3.787136,8.879814,16.011486,21.370068,-10.423679,15.770245,34.450893,45.175381,-17.45985,8.986473,31.531963,49.03307,-20.70013,-1.439724,19.850636,36.605587,-20.644398,-24.470959,-27.304802,-30.05619,-17.944299,-18.836037,-9.453926,-2.614018,-1.924205,9.75533,19.007147,27.189818,13.781642,24.461129,32.707094,38.076354,25.77314,35.634557,41.874313,45.843691,34.784069,43.84341,51.840891,59.372157,25.444794,48.616676,69.432621,87.469997,51.058559,82.938709,99.876995,111.735477,41.418743,76.62077,96.625729,110.270748,30.873699,63.626003,82.407932,95.19762,20.728741,46.567726,61.54541,73.229885,-14.538888,-13.877726,-4.505557,1.682822,12.484081,29.411412,36.853696,41.938225,29.591353,45.892536,53.585834,58.102012,41.73062,58.543034,64.520412,66.773685,49.299553,65.034361,69.055609,69.32021,-11.434507,312.680621,-71.45339,292.56314
20,17.104511,-12.467408,0.76355,0.03421,-4.80526,-9.753742,-18.823986,-29.553051,-28.071785,-10.358562,8.787689,19.676399,-36.961727,-12.798386,8.055725,25.36377,-42.937031,-26.011791,-5.773315,9.20311,-46.971645,-58.540878,-62.527313,-64.29966,-14.645407,-8.493831,9.87173,27.681845,3.688537,23.021418,32.298985,37.410623,21.684213,37.848927,46.288171,48.325502,35.242936,49.097197,53.038602,53.355505,47.156814,55.283415,62.326605,68.352766,25.102501,48.3181,68.974171,86.921024,50.578423,82.65604,99.588833,111.419048,40.735416,76.364079,96.350956,109.808407,30.082111,63.288174,82.079029,94.748669,19.996548,45.937786,60.957012,72.732067,-14.680605,-14.065879,-4.569469,1.51023,12.144083,29.359604,36.567915,41.533451,29.402953,45.940639,53.494135,57.945846,41.613603,58.606884,64.47978,66.811785,49.142954,65.022381,69.081112,69.520034,5.782843,300.12772,-70.577002,292.511856
21,-16.006565,-1.770014,0.160789,0.180929,-9.741726,-16.578255,-23.353672,-34.214344,-27.221546,3.292122,25.321255,40.001392,-29.281082,5.930386,31.982059,49.989223,-27.740536,2.982674,28.400059,45.451527,-21.952915,-20.728512,-17.420311,-14.342194,16.267837,35.034281,50.115152,62.620599,31.746072,49.899273,56.690707,62.488329,26.261771,43.978767,50.565251,53.362915,19.900985,36.619723,45.276575,50.432364,14.376237,31.789544,41.259835,48.782023,25.144787,48.481693,69.240475,87.242947,50.49654,82.557278,99.453678,111.24258,40.754128,76.357555,96.30415,109.733219,30.247936,63.533363,82.283192,94.929829,20.29192,46.440411,61.47131,73.303814,-14.682889,-14.31708,-5.044329,1.143803,11.685154,28.897649,36.095895,40.89983,28.981444,45.534322,53.040208,57.4306,41.2833,58.207791,64.037832,66.284559,48.960296,64.925433,68.956747,69.280751,-10.177116,298.296835,-70.369606,292.631914
22,-6.961613,2.305019,0.202904,0.042361,6.827488,10.393867,9.31921,4.57077,-1.960258,19.303436,37.890816,46.86161,-12.150822,15.435791,36.113548,51.833382,-21.582584,-0.899563,18.952446,33.776093,-29.526558,-34.65929,-36.03796,-35.83128,-15.736413,-10.078593,6.120269,20.056102,-0.552172,18.222732,28.262114,34.4458,17.208049,34.654949,42.9216,45.485786,31.422129,45.558836,50.558273,53.319196,44.015941,52.96975,61.76128,70.080666,25.208015,48.260307,68.930225,87.02528,50.180283,82.312832,99.289227,111.24361,40.627728,76.183262,96.185474,109.636631,30.313969,63.365479,82.143803,94.740086,20.609093,46.364822,61.20266,72.905788,-14.460711,-14.316648,-5.256627,1.036295,11.903256,28.772419,36.021918,41.198455,29.128843,45.395383,52.930909,57.530204,41.357894,58.075274,63.989729,66.436157,48.940166,64.815517,68.812683,69.234006,-17.14016,300.542389,-70.168133,292.614809
23,-17.322979,-1.889995,0.602989,-0.113991,13.829556,27.160664,36.357365,36.478786,13.10915,45.93996,66.699429,81.083965,-0.250111,37.346363,62.828693,79.119701,-8.821793,20.341473,45.250912,61.468563,-13.293915,-4.648819,1.966839,7.865639,5.970153,15.30873,27.544018,40.579715,10.56,27.650291,38.213131,45.683881,19.97348,33.77624,44.627702,51.329783,26.395893,42.440873,50.977126,56.574554,31.87334,48.45524,57.043981,64.376101,24.862118,47.964249,68.7533,86.778431,50.082836,82.375431,99.552898,111.719341,40.405369,75.975437,96.057072,109.615688,29.946671,63.060436,81.853352,94.660091,20.041809,45.901394,60.731907,72.583752,-14.315722,-14.088727,-4.971896,1.163131,12.150937,28.866774,36.040813,41.117809,29.215478,45.360556,52.865639,57.42072,41.330168,57.972337,63.992137,66.496734,48.853344,64.891902,69.029304,69.56258,-34.469919,298.65349,-69.571924,292.501914
24,28.195896,1.641635,0.235062,0.444973,6.172256,8.671646,8.024712,4.611855,-15.034847,5.16449,24.447098,34.237518,-25.195312,-0.09922,21.617088,38.108826,-32.923222,-15.052013,6.03138,20.474968,-38.031178,-47.258835,-50.628433,-53.159809,-19.401424,-16.251844,-2.537016,10.223522,-0.293253,19.250382,28.448785,33.443282,18.949287,36.656527,43.798023,45.464111,33.617171,48.734413,52.394669,53.425036,46.257542,55.039068,63.575322,71.964733,24.939594,48.169212,68.950367,86.953068,50.060349,82.38699,99.675465,111.871662,40.408287,76.099148,96.252537,109.832096,30.008812,63.195019,82.146778,94.954319,20.145321,46.209583,61.244087,73.144054,-14.77817,-14.434838,-5.151219,0.9659,11.996376,28.460827,35.493458,40.207114,29.241537,45.212108,52.635063,57.010512,41.338566,57.834201,63.642445,65.953824,48.770784,64.468542,68.433474,68.825342,-6.384344,300.305916,-69.447184,292.957678
25,0.051842,-9.043595,-0.094185,0.27411,-13.525028,-23.193054,-33.422928,-48.095798,-33.925438,-4.398136,18.96801,34.224586,-34.180069,1.547985,28.753624,47.640381,-30.527458,0.322895,26.913757,44.466248,-23.057327,-17.814617,-9.872246,-3.317184,22.403482,43.498163,60.129649,74.018675,38.874787,58.572489,65.296244,71.242747,30.867858,48.4997,55.379622,58.775956,21.13482,37.890732,45.840851,51.130144,11.880594,29.510213,36.469299,42.987426,25.350494,48.292866,68.87495,87.399273,49.259834,81.667728,98.877697,110.873051,39.559536,75.638409,95.913906,109.506054,29.483929,63.571243,82.77277,95.78619,20.259132,47.342033,63.053226,75.487804,-14.440704,-14.317821,-5.222479,1.246494,10.680228,28.031106,35.343528,40.114797,28.038083,44.395212,51.695098,55.922779,40.670983,57.180511,62.775407,64.783469,48.878168,64.110266,67.821157,67.876115,-6.485653,291.225749,-69.694519,293.195217
26,14.857979,8.910584,0.758572,0.466154,-2.200241,-5.427818,-14.373379,-26.208229,-29.453831,-14.326687,6.765747,19.436646,-40.26289,-16.731205,6.38855,25.112686,-46.536827,-30.235748,-8.167992,8.450775,-50.039291,-61.027966,-65.120373,-67.313061,-14.304483,-10.230808,5.673813,20.948272,1.188263,20.574311,29.732453,34.772892,19.157571,36.731183,44.431583,45.822387,32.970644,47.949627,52.072332,52.750289,44.836727,53.812767,61.301857,68.144667,25.266609,47.952805,68.355904,86.877136,48.427448,80.956879,98.262177,110.537567,38.682003,74.890938,95.368767,109.227333,28.583794,62.749844,82.023468,95.138741,19.237289,46.238651,61.985493,74.536629,-14.39044,-14.651706,-5.805465,0.808436,10.531471,27.731184,34.732878,39.252761,27.980347,43.938197,51.170467,55.423774,40.754222,57.137409,62.818756,65.122725,49.120662,64.368506,68.037221,68.142506,8.146677,300.092537,-69.161596,293.617574
27,-18.487358,7.01954,1.540489,-1.025057,-4.824314,-6.759682,-8.425884,-14.69141,-18.314667,13.336716,35.010452,48.187752,-24.175873,10.006027,34.917183,53.101616,-26.383381,1.15242,25.548935,42.88044,-24.258842,-28.187828,-29.297905,-29.602776,-6.918887,1.003012,15.655273,29.874973,8.829136,26.835432,36.885188,44.368042,17.987833,35.103812,43.257707,46.062782,24.89579,39.220712,46.359492,49.488324,31.035572,43.970801,52.18799,58.324931,25.031719,47.302322,67.366104,86.343384,46.993675,78.852882,96.886482,109.980812,37.133102,72.513542,93.701363,108.212357,27.238884,60.097389,79.809036,93.850822,18.137741,43.732738,58.984222,71.348648,-14.882035,-14.566058,-5.442558,1.958414,12.827598,30.47284,38.013245,42.936111,29.65897,46.916172,54.95904,59.680291,41.442492,59.399697,66.310248,69.524912,48.779059,65.238569,69.916842,70.828772,-10.818901,307.08395,-68.099327,292.56439
28,16.450195,-7.195961,1.432972,-1.833987,5.585289,8.911514,7.566719,1.805305,-27.823219,-9.199219,15.110664,32.058105,-40.736217,-14.784164,11.777916,34.694023,-46.287403,-27.444935,-2.375107,15.256577,-47.109718,-57.42588,-61.038551,-63.283653,-18.607375,-17.839571,-7.919243,3.249492,0.768484,22.109303,30.689584,34.618084,19.253161,40.931137,47.632539,48.170076,32.719135,51.589073,56.301494,57.527425,43.148903,54.376487,61.005764,66.788381,26.103916,48.681507,69.087124,88.176441,47.319031,77.881222,95.258961,108.076344,38.43441,72.430744,92.950344,107.401142,29.573021,60.834732,80.252094,94.074497,21.4674,45.832272,60.742264,73.745785,-15.68584,-15.717332,-6.425007,0.463807,9.235021,26.47092,35.731999,42.5674,26.528409,45.141157,55.422909,62.485365,39.303087,57.326551,66.259798,71.6101,47.917764,63.639975,69.646375,72.083355,5.042467,299.668049,-67.255182,290.510463
29,8.731613,1.965269,6.110229,-10.211974,-13.18325,-22.422466,-22.070675,-19.959412,-42.638912,-45.848579,-45.892925,-46.456432,-41.73563,-37.930183,-25.824337,-17.69228,-37.873363,-35.056572,-24.222507,-17.812443,-31.520348,-38.058758,-38.674107,-40.288525,-10.428348,-7.428389,6.708318,18.699507,5.784038,17.644871,26.335316,34.4324,18.15388,31.174572,40.788679,48.992406,28.643237,43.057945,50.074088,54.858449,38.668046,51.489161,57.735956,62.705259,28.533783,54.008503,73.658237,90.11095,48.500404,74.215794,89.041042,100.556316,37.894592,65.288029,82.969952,96.802769,27.087765,52.287998,69.678669,82.69495,16.936569,36.414528,49.433327,60.091496,-14.108919,-11.290754,-0.794851,5.133312,5.946009,23.362157,34.127662,43.168046,22.417746,44.591949,57.586829,67.039088,36.158942,58.049772,68.265945,74.65915,46.534431,65.601909,72.754706,75.270973,13.207083,301.581494,-61.71195,280.246665
30,20.076828,-9.143878,8.580894,-17.600349,-37.559853,-65.713234,-85.197372,-96.269703,-63.081322,-89.380646,-100.256195,-106.194706,-51.72987,-81.703777,-96.406631,-101.799946,-40.28595,-66.514606,-82.108269,-90.831013,-29.176598,-48.420811,-61.539574,-70.210705,-23.45046,-28.045123,-26.099306,-19.805951,9.983992,29.832797,38.94759,43.174838,28.264707,49.87272,56.412151,57.708662,42.929874,62.250899,67.722294,69.448218,53.116716,72.250761,77.143431,77.886721,27.014694,46.947155,57.725887,66.309757,44.662628,60.29829,68.451519,73.462658,33.503666,45.327988,49.005489,48.336582,20.951614,25.745945,25.537891,22.894077,7.885609,5.21656,-0.591259,-7.842407,-2.228202,7.867743,25.995503,41.549382,19.466262,44.425099,59.251373,70.140873,30.275054,60.387889,79.953384,96.265311,37.279341,66.110856,82.552644,94.940641,40.229652,62.757561,73.684235,81.861718,32.437763,292.490182,-53.977203,262.698881
31,8.424225,3.189532,-3.318959,-28.021504,-31.373978,-55.242462,-75.824833,-90.157528,-59.192104,-88.463974,-101.590862,-111.818218,-51.230164,-82.520485,-100.251846,-114.849529,-41.414452,-69.084949,-85.724316,-100.233822,-30.764923,-52.355576,-64.586391,-77.273426,-14.402049,-20.348366,-22.615718,-21.361258,8.551012,23.587422,33.056231,39.220959,24.265627,42.203319,51.677006,57.847045,37.251307,54.366977,63.227297,69.150026,46.965511,62.837775,70.283146,74.994332,23.714905,45.021401,57.985211,66.32206,49.76924,66.901303,74.211674,76.749802,39.585715,54.637671,59.095917,58.408185,27.410059,38.128767,40.174971,38.487568,14.622574,20.225316,19.526825,16.445132,-9.167466,-5.976976,5.55093,19.307224,11.00874,29.457911,38.608612,43.797931,22.821532,45.413476,56.071906,63.647879,30.988024,52.100984,60.04607,65.022381,35.559778,51.919222,56.542413,58.866174,40.235138,295.644393,-57.923012,234.642056
32,0.486259,-2.323545,-3.318958,-28.021503,-24.965973,-47.860565,-68.207703,-84.556217,-55.483017,-86.466694,-102.268524,-114.188976,-48.166695,-81.412468,-100.08997,-114.893875,-38.613052,-68.273163,-86.461201,-100.546875,-27.834892,-51.186562,-65.25135,-77.52142,-15.041721,-14.106017,-0.938915,9.391497,12.30519,27.854314,36.125103,42.500153,29.139031,45.624354,54.706419,61.133402,41.902903,58.932926,68.020178,74.346755,50.604586,65.497489,72.591314,76.988191,20.415115,43.095646,58.244534,66.334362,54.875851,73.504314,79.971828,80.036945,45.667763,63.947353,69.186344,68.479786,33.868504,50.511589,54.81205,54.081059,21.359539,35.23407,39.644909,40.73267,-16.10673,-19.821697,-14.893644,-2.934935,2.551218,14.490722,17.96585,17.454989,15.36801,30.439063,32.190428,31.030447,24.696707,38.091112,37.539496,35.104121,30.889903,41.080882,39.400591,35.870629,39.581537,293.802964,-62.38183,207.102669
33,1.546555,1.814351,-2.42712,-23.592239,-25.479813,-48.993587,-69.761295,-86.020432,-57.974682,-88.463173,-104.784393,-117.111626,-50.901146,-83.760796,-102.906647,-117.421474,-41.304817,-70.916519,-89.069939,-102.736874,-30.357285,-53.958378,-67.902889,-79.584332,-18.250458,-17.926947,-4.678705,5.809973,10.148557,25.332427,33.645329,40.723223,27.655416,42.991625,51.343553,58.260649,40.636958,55.96835,64.1002,70.323901,49.029086,63.19142,69.452603,74.084316,20.914135,38.849087,47.634373,50.602398,45.862942,61.380157,65.789108,65.707512,36.08448,54.379063,57.605782,55.295792,25.928249,40.680027,45.817051,46.308632,15.972691,29.806995,34.452038,36.404743,-18.581316,-30.498775,-40.907734,-44.133266,-12.322665,-5.135041,-7.544665,-9.962441,-2.767406,10.705484,10.439586,12.61036,5.347215,18.777621,18.528149,19.923215,11.451614,20.418082,20.639087,21.204783,40.33164,296.135031,-65.605402,184.028146
34,0.841484,-1.505969,4.457016,-13.041811,-26.691399,-50.018749,-70.817013,-87.132053,-59.164124,-89.778214,-106.325283,-119.00219,-52.375145,-84.582138,-103.299637,-117.760277,-42.926788,-72.313728,-90.18259,-103.697033,-31.728859,-55.522442,-69.376431,-80.857086,-18.396003,-17.177668,-3.498346,6.81354,11.077098,25.703918,33.691889,40.410087,28.312749,43.503597,51.923637,58.95176,40.848577,56.151996,64.652558,71.373596,48.965545,63.188517,69.939381,74.777835,24.697895,43.875675,55.390434,66.212883,35.708542,39.399719,45.770245,50.620708,24.285965,27.131481,34.762917,39.945602,12.956772,15.591316,23.163528,28.469009,2.559986,4.530258,9.709854,14.067192,-4.675494,-8.055094,-9.20217,-8.562744,-8.218795,-6.719803,-4.227371,-2.218754,-5.707776,-5.775825,-3.886633,-1.876904,-1.987067,-1.821452,0.047116,2.261238,2.865775,4.865315,3.05893,1.868876,39.352455,295.6845,-62.969055,172.041773
35,0.696259,-1.527211,-7.55991,-34.755849,-26.155472,-49.762516,-70.965214,-88.007126,-58.877048,-90.221386,-106.962891,-119.807739,-52.093449,-85.356617,-104.274616,-118.997269,-42.751122,-73.165283,-91.492023,-105.433502,-31.809082,-56.220131,-70.427856,-82.361698,-17.969987,-16.909054,-3.230411,7.096357,10.99744,25.739362,33.519853,40.116217,28.421924,43.414986,51.566966,58.448926,41.11361,56.176141,64.391045,71.002538,49.484804,63.645038,70.272401,75.231577,34.484024,57.755756,70.779133,77.125454,39.546947,44.374695,47.415562,44.493542,24.310741,42.608528,51.479874,51.761227,13.285618,34.618835,45.492439,48.017292,6.034527,27.520924,36.637917,39.012222,-4.732552,-11.461556,-13.634738,-11.578017,-46.396049,-68.168565,-72.146248,-74.292847,-44.732956,-42.880412,-26.141296,-15.622978,-34.503135,-23.98386,-8.271838,-1.006964,-20.702999,-13.515868,-2.104948,4.398482,37.901287,295.434858,-72.676392,138.563494
36,0.101166,-0.956884,11.929321,-18.126957,-26.610374,-50.335293,-71.428528,-87.5144,-59.440498,-90.605164,-107.046089,-119.57468,-52.944775,-85.953941,-104.753609,-119.275017,-43.905258,-74.209385,-92.119846,-105.702267,-33.177681,-57.010975,-70.929394,-82.725506,-17.842411,-17.022489,-3.9892,6.209066,10.584453,24.976066,33.098468,39.861435,28.119038,42.886711,51.012633,57.715084,41.115277,55.63249,63.719447,69.937096,49.785035,63.464171,69.731282,74.211336,34.930573,56.740665,67.310085,70.68449,38.102875,36.314735,38.375816,34.866657,18.62257,33.075314,44.504757,47.406006,3.733406,21.148338,31.774521,34.732761,-7.213154,10.618114,19.327927,21.658516,-4.301348,-14.356631,-16.956848,-13.863832,-54.923286,-85.153201,-88.750162,-86.291631,-54.812259,-48.47994,-25.365989,-10.209844,-44.928457,-29.368465,-13.631126,-5.61092,-31.862811,-23.053868,-12.827413,-6.45264,36.536407,296.189803,-62.213116,122.148366
37,0.49839,-1.418222,5.246372,-9.800964,-26.794624,-50.434513,-71.561108,-88.435707,-59.533195,-90.725784,-107.903366,-120.940304,-53.03524,-85.969963,-105.016766,-119.89254,-43.873215,-73.986568,-92.085342,-105.806694,-33.040123,-56.72596,-70.559177,-82.421379,-17.635671,-16.601537,-3.020521,7.024912,11.728317,26.051449,34.040409,40.931693,28.950013,43.512675,51.715414,58.692223,41.547406,56.279449,64.415128,70.87385,49.817021,63.564886,69.972665,74.615678,29.90324,49.778366,61.873856,65.837517,36.585846,39.040661,39.054222,36.881161,20.563431,33.471336,42.966328,45.812531,6.131516,20.795746,28.857365,31.453686,-6.999893,5.562859,14.480038,18.348141,-10.421432,-20.948395,-26.107302,-28.843926,-61.40251,-78.843204,-89.317957,-95.321178,-62.364427,-61.833497,-42.281186,-26.278721,-56.6887,-50.644539,-33.312773,-19.992777,-45.864439,-45.666004,-33.626279,-22.60414,36.179924,295.489615,-57.821617,113.065437
38,0.446548,-0.240888,1.127758,-13.739961,-26.547546,-50.271606,-71.371937,-88.156414,-60.31168,-91.20409,-107.814846,-120.534611,-53.878155,-86.947975,-105.980587,-120.815907,-44.701653,-75.306931,-93.353863,-106.984921,-33.676414,-57.712326,-71.769447,-83.701344,-17.675006,-16.762767,-3.597085,6.071795,11.233264,25.658716,33.512443,40.09022,28.665035,43.067516,50.814908,57.227997,41.431068,55.961434,63.68672,69.760552,49.791395,63.322824,69.621243,74.278521,30.000057,50.539684,61.870365,70.770321,38.855381,44.496632,46.54398,48.212986,24.324646,39.888096,49.337826,51.358051,10.277538,25.988789,33.556137,34.855328,-3.223858,9.591007,17.533779,19.977493,-9.814981,-20.609262,-26.982676,-30.824478,-59.133244,-72.464294,-86.219939,-96.82372,-62.073027,-58.99764,-40.116001,-23.174899,-58.355004,-49.524571,-32.09595,-18.364356,-49.896834,-46.330778,-34.434531,-23.475778,35.808506,296.089119,-57.511826,100.165868
39,0.346527,-0.805411,4.934235,-11.743292,-26.73317,-50.480804,-71.828899,-89.30294,-59.962406,-91.335411,-108.178711,-121.133595,-53.424511,-87.067852,-106.110764,-121.020527,-44.256592,-75.424232,-93.605804,-107.431755,-33.37635,-57.990932,-72.179489,-84.212608,-17.457335,-15.928766,-2.399374,6.851455,11.486997,25.939372,33.795445,40.436393,28.991077,43.495693,51.400549,58.010684,41.818861,56.471678,64.266371,70.451663,50.201726,63.906798,70.270178,74.99711,28.906574,49.478359,60.278034,68.750324,38.187962,44.110394,47.009983,49.752674,24.040031,39.429073,48.851223,51.413898,9.99424,25.707836,32.834473,34.055214,-3.700905,9.040775,16.257248,18.29298,-9.00673,-19.515137,-25.772461,-28.82818,-58.942003,-68.518906,-82.029309,-92.88463,-62.530906,-55.293202,-36.00753,-18.658659,-58.902699,-47.09247,-30.019531,-16.187562,-50.693599,-45.052637,-33.201776,-22.29619,34.645643,296.58005,-54.086981,89.718918
40,0.344009,-0.23564,6.797447,-10.151552,-27.268982,-51.214371,-72.532139,-89.516716,-60.203533,-91.690063,-108.649406,-121.6539,-53.502045,-87.175426,-106.314812,-121.145153,-44.403534,-75.497303,-93.7817,-107.700577,-33.74485,-58.248711,-72.466793,-84.683132,-17.37848,-16.036088,-2.510587,6.860718,10.886906,25.862184,33.841511,40.366121,28.389567,43.115064,50.964344,57.373296,41.425202,55.933894,63.761993,69.926661,50.117252,63.592674,69.781732,74.470812,28.538532,47.540188,56.666851,63.918743,34.964046,39.803181,43.53281,46.725254,20.781441,35.132618,45.551662,49.210453,6.597919,21.798935,29.419384,31.541233,-7.254009,4.17532,11.850128,14.883614,-7.959011,-17.630916,-23.63003,-26.071178,-58.57252,-66.409017,-78.512901,-86.591553,-62.072873,-52.822599,-33.984833,-16.130072,-58.102723,-45.481494,-28.260477,-13.802946,-49.119921,-43.892563,-31.919467,-21.006873,33.736639,297.8451,-48.542547,81.068056
41,0.452499,-0.400266,6.976261,-5.133343,-27.440643,-51.471291,-72.623234,-90.037422,-60.04549,-91.311035,-108.128929,-121.130104,-53.496437,-86.948376,-106.022301,-120.976696,-44.532967,-75.513096,-93.749313,-107.582932,-33.977623,-58.555813,-72.564411,-84.58168,-17.451716,-16.052761,-2.438647,6.591671,10.606807,25.372503,33.480271,39.976908,28.386664,43.097589,51.126624,57.677972,41.520915,55.849234,63.795894,69.994092,50.280458,63.585449,70.060906,74.901212,25.335045,43.387184,51.265297,57.114716,32.528572,37.127151,36.926308,37.359581,17.013874,31.555023,41.05648,44.932709,2.32235,16.657448,23.861103,25.7864,-11.872272,-1.347027,7.298584,10.864735,-6.601057,-16.843166,-21.971229,-21.980491,-56.953084,-68.037499,-81.202687,-92.753163,-60.028069,-53.107238,-33.715324,-16.951569,-55.440168,-44.099582,-27.152582,-14.475192,-46.600689,-42.980788,-31.485948,-21.552098,33.032484,298.767775,-42.72294,77.257654
42,0.251083,0.359696,4.236431,-3.233221,-27.293243,-51.046143,-72.449856,-90.09407,-59.232674,-91.244259,-108.312435,-121.497688,-52.638588,-87.143955,-106.458149,-121.473541,-43.779259,-75.506973,-94.059105,-108.037376,-33.503036,-58.693027,-73.002548,-85.128708,-17.640425,-16.603636,-3.221828,6.197457,9.93984,24.690717,32.722223,39.124938,27.789106,42.502253,50.611996,57.214288,41.079091,55.337261,63.259469,69.445254,49.997827,63.226309,69.600063,74.436478,22.136021,39.335003,47.360287,52.319813,30.454159,34.351902,32.555294,31.971645,14.554253,29.006023,36.71545,40.161381,-0.262356,13.632946,19.213428,20.888958,-14.960403,-4.992371,3.636818,7.88681,-5.115898,-14.281265,-18.706423,-21.081869,-54.854249,-69.238823,-81.5471,-92.398963,-57.988145,-50.471545,-30.531441,-14.275645,-53.491696,-40.981371,-22.912089,-10.245844,-45.12859,-40.617414,-28.030087,-17.8078,32.450752,299.381219,-39.319324,74.278181
43,-0.00927,-0.086018,0.037365,-0.966456,-27.162895,-51.032181,-72.54982,-89.844646,-59.603977,-91.532536,-108.321133,-121.119232,-53.071976,-87.400017,-106.280937,-120.801029,-44.28257,-75.790501,-93.975506,-107.571144,-34.084053,-58.841515,-72.98727,-84.729652,-18.05829,-16.667733,-2.962106,6.466874,10.566051,24.840029,32.719012,39.1744,28.364928,42.747155,50.627372,57.196196,41.488249,55.639776,63.214514,69.251543,50.148621,63.233904,69.321568,73.83435,19.968796,36.793785,45.628395,51.013985,28.641472,32.067375,31.070595,30.74501,13.676605,28.021317,31.449623,31.043701,-0.759602,12.367802,15.465717,15.429268,-15.603733,-5.707397,2.069435,5.894165,-4.655425,-13.487062,-16.238382,-17.676982,-51.80239,-68.28342,-79.40467,-88.359189,-55.235713,-46.104463,-25.701386,-10.246338,-51.361029,-38.548343,-20.330798,-7.887658,-44.391692,-37.633758,-24.348126,-14.916337,31.409426,299.394217,-40.314016,73.410742
44,0.510178,-0.285472,-4.137096,0.018834,-26.947746,-50.893936,-72.65379,-90.503941,-59.965038,-91.805363,-108.605118,-121.369457,-53.623295,-87.795124,-106.555882,-121.004677,-44.861183,-76.389427,-94.537525,-108.027191,-34.50119,-59.153309,-73.096333,-84.707451,-18.30344,-17.018043,-2.98168,6.600502,10.818116,25.394178,33.35288,39.915899,28.496086,43.118954,50.889997,57.428748,41.41526,55.638541,63.151838,69.186644,49.95349,63.196854,69.293781,73.880416,19.578381,37.060719,45.752964,48.00024,29.990902,34.296284,32.473812,31.045361,13.376942,26.408443,28.939648,28.676319,-2.437305,10.583496,12.173653,11.162968,-17.721863,-7.266312,-1.109962,1.057091,-2.042148,-9.574988,-10.858501,-11.598395,-48.25983,-66.583401,-77.633976,-86.224416,-53.221136,-43.02497,-23.278701,-9.084041,-49.870034,-34.295469,-17.364926,-5.730623,-42.959978,-32.872986,-20.101519,-11.582401,31.537428,299.205137,-44.833288,73.525969
45,0.923309,-0.09207,-7.977047,-4.480394,-26.885262,-50.867271,-72.744827,-90.520363,-60.177326,-92.283955,-109.17841,-121.904697,-53.901443,-88.297577,-107.061367,-121.568356,-45.14534,-76.704483,-94.779568,-108.18718,-34.854927,-59.495831,-73.348503,-84.965687,-18.517961,-17.431894,-3.296484,6.46181,10.000664,24.80934,32.837017,39.412694,27.519503,42.561224,50.623914,57.386696,40.453374,55.103042,62.882297,69.115939,49.151414,62.742371,69.149408,73.991814,20.195103,39.234924,49.191742,50.39566,29.345055,36.793442,38.847542,39.630661,12.672729,20.94635,22.708683,20.911274,-3.542061,5.553246,7.583027,5.594101,-19.355392,-12.225494,-6.407318,-5.397892,0.57255,-3.696102,-2.271983,-0.415766,-42.001148,-51.70609,-48.731912,-43.616601,-45.322209,-39.546538,-20.697904,-8.044844,-41.742661,-31.772964,-14.578562,-3.696966,-35.512075,-30.35922,-17.536808,-9.936691,32.398281,299.154795,-52.872791,69.087303
46,0.347443,0.051376,-14.089165,3.240013,-26.989403,-50.687828,-72.614937,-90.523796,-59.980488,-92.044601,-108.895168,-121.634045,-53.673363,-88.291855,-106.950932,-121.562004,-45.106888,-76.835232,-94.570656,-107.808552,-35.287743,-59.990845,-73.643131,-85.054836,-18.524444,-17.629557,-3.844642,6.103905,9.826281,24.649282,32.706476,39.054172,27.655663,42.638968,50.399143,56.713554,40.795842,55.476261,62.809061,68.528384,49.475048,63.200188,69.433769,73.931607,19.237003,37.466125,46.512222,42.222919,31.400585,34.81739,32.496643,30.238152,16.102123,18.68288,19.037533,18.492622,1.384449,4.429436,4.64962,5.22131,-11.987,-10.183983,-7.614212,-5.914879,4.335373,1.098756,1.327387,2.179635,-39.02694,-51.402031,-49.169908,-45.048315,-43.89914,-40.301808,-25.437218,-17.263902,-40.651778,-33.257568,-19.807433,-11.994338,-33.645546,-31.414133,-21.727438,-15.466317,32.275171,299.197542,-67.432508,72.318686
47,1.205177,-0.288374,-23.940239,6.836049,-27.452087,-51.188393,-72.960205,-90.381145,-60.132866,-91.974678,-108.961029,-121.904068,-53.891716,-88.123112,-107.065659,-122.11235,-45.242615,-76.598167,-94.356194,-107.795849,-35.229836,-59.837723,-73.430672,-85.027485,-18.187411,-17.387496,-3.808827,6.533873,9.941569,24.849292,32.772302,38.834772,27.662394,42.71733,50.508935,56.819086,40.760088,55.547027,62.96282,68.756058,49.405702,63.196236,69.544178,74.202074,21.812009,38.636999,41.940279,33.823414,33.006735,32.417049,29.603777,26.775226,17.461137,14.128389,15.072155,16.457576,1.622657,0.045232,2.393531,4.755106,-12.587185,-13.090697,-9.587374,-6.778879,-1.36348,-12.048185,-21.344648,-29.08588,-41.372529,-54.815903,-51.95939,-47.316686,-44.279739,-45.373184,-30.228386,-21.368669,-40.167362,-37.03447,-24.072179,-16.824919,-32.788404,-32.771824,-23.361293,-17.872854,33.049936,299.082656,-91.803159,79.328223
48,1.584549,0.406318,-23.940239,6.836048,-27.314987,-50.93502,-72.784767,-90.40844,-60.398083,-91.828537,-108.584404,-121.438923,-54.273148,-88.259583,-107.101936,-122.199154,-45.682068,-76.914997,-94.579639,-107.994289,-35.574303,-60.210915,-73.719635,-85.265522,-18.11189,-17.284496,-3.843654,6.084886,9.795838,24.71974,32.453485,38.518795,27.231376,42.177507,50.149856,56.788458,40.249166,54.812074,62.336238,68.310899,49.03909,62.58324,69.049311,73.869857,24.387016,39.807873,37.368336,25.423908,34.612885,30.016708,26.710911,23.312302,18.820152,9.573898,11.106777,14.422531,1.860867,-4.33897,0.137444,4.288902,-13.18737,-15.99741,-11.560535,-7.642879,-7.062333,-25.195125,-44.016682,-60.351395,-43.718118,-58.229774,-54.748872,-49.585056,-44.660337,-50.44456,-35.019554,-25.473434,-39.682945,-40.811372,-28.336924,-21.655499,-31.931262,-34.129514,-24.995147,-20.279391,34.07999,299.159643,-116.297894,85.834941
49,3.009796,-0.106334,-22.326823,3.272649,-27.132339,-51.833038,-73.992634,-91.635303,-61.008511,-92.583389,-109.70335,-122.744236,-54.753799,-88.684158,-108.092709,-123.409309,-45.990829,-77.274971,-95.50209,-109.166164,-35.715294,-60.62542,-74.436951,-86.119423,-17.8639,-16.963641,-4.012357,5.597984,10.159981,24.916723,32.353264,38.106241,27.237983,42.359177,50.208766,56.674466,40.052923,55.174981,62.89088,69.02918,48.780541,62.816471,69.333054,74.028246,20.705595,35.023156,34.528571,27.217284,32.06563,27.923327,23.221379,18.232041,17.081709,7.149697,7.367964,10.706292,1.057034,-5.960369,-3.246917,1.217537,-13.456363,-17.526226,-14.504671,-10.219459,-1.629594,-15.614472,-31.626755,-46.801934,-43.415218,-62.659379,-65.062689,-62.209527,-46.081585,-51.358544,-36.435522,-26.405032,-42.30828,-42.18958,-29.556187,-22.910052,-35.940577,-37.366132,-27.262128,-22.638798,36.632595,297.968462,-139.081908,88.022743
50,1.612473,-0.289609,-22.326822,3.272648,-27.370949,-51.797104,-73.993835,-91.718044,-60.35099,-92.318287,-109.856701,-123.212357,-54.298897,-88.850498,-108.626347,-124.211426,-45.914955,-77.228451,-95.461521,-109.274368,-36.003113,-60.29789,-73.98983,-85.706463,-17.335749,-16.250794,-3.292717,6.407408,10.558085,25.280804,32.80855,38.703367,27.531977,42.588086,50.440886,56.879972,40.26448,55.484227,63.454662,69.778151,48.76041,62.848767,69.715351,74.825753,17.024174,30.238438,31.688805,29.010658,29.518375,25.829945,19.731846,13.151779,15.343266,4.725494,3.62915,6.990051,0.253201,-7.581768,-6.631279,-1.853828,-13.725357,-19.055042,-17.448807,-12.79604,3.803146,-6.033818,-19.236828,-33.252473,-43.112316,-67.088982,-75.376505,-74.833997,-47.502832,-52.272527,-37.85149,-27.33663,-44.933614,-43.567787,-30.775448,-24.164603,-39.949892,-40.602748,-29.529109,-24.998203,37.621136,297.044259,-162.032661,90.660797
51,0.952606,0.344753,-7.621593,-2.869573,-27.036781,-51.488571,-73.58345,-91.342907,-60.550346,-92.690449,-109.816418,-122.80798,-54.480515,-89.134369,-108.882294,-124.503536,-45.822945,-77.69989,-96.234741,-110.143375,-35.505409,-60.322609,-74.304485,-86.145,-18.055326,-16.799447,-3.651055,5.444781,10.221607,25.195835,32.836831,38.650571,27.557974,42.392275,50.171222,56.405852,40.454856,55.212278,62.945715,68.910496,49.068545,62.784917,69.31212,74.014661,15.582962,24.8806,22.264252,14.796352,20.979366,15.69397,9.410076,3.486328,8.814125,-3.746967,-5.373287,-2.882481,-4.019966,-13.808441,-13.920879,-10.583038,-15.753765,-25.113602,-25.224895,-22.321701,4.187079,-2.542141,-12.085945,-22.073395,-41.477134,-63.822324,-67.501444,-63.016079,-44.737834,-44.502318,-28.892462,-19.26619,-41.588378,-35.798165,-21.867426,-13.885105,-36.315757,-38.028435,-26.906878,-19.852974,37.948465,296.61162,-170.279531,87.013833
52,-0.037537,0.00704,-12.108479,-6.31577,-27.558861,-51.801453,-73.689423,-91.880894,-60.292511,-92.477074,-109.333878,-122.147026,-53.956718,-88.654461,-108.250237,-123.822327,-45.170403,-77.011242,-95.418262,-109.314594,-34.767838,-59.363022,-73.241615,-85.225239,-17.49488,-16.122415,-3.057201,5.418352,10.323619,25.49551,33.030789,38.562083,27.627628,42.732397,50.452001,56.470628,40.453312,55.351032,63.151899,69.157868,49.000002,62.891066,69.503176,74.288957,17.971001,27.439213,19.095497,6.297855,24.337463,18.057289,10.728607,2.779827,9.12672,-2.538929,-1.262283,2.731133,-5.930614,-13.215122,-11.590977,-7.685337,-18.973331,-25.247269,-23.298855,-19.434414,6.277856,4.831939,5.428077,5.042045,-32.99025,-53.173095,-59.763685,-58.079844,-38.790127,-33.019335,-17.934975,-9.30131,-36.450496,-23.333844,-7.800497,0.360005,-31.29832,-25.081721,-13.100134,-6.256212,37.6159,295.60072,-182.683039,79.680123
53,0.296173,0.473996,-5.925121,-3.888238,-27.075806,-51.60244,-73.780861,-92.225647,-60.867233,-93.041267,-109.883652,-122.844143,-54.574127,-89.108219,-108.406105,-123.68185,-45.778084,-77.398453,-95.800896,-109.826775,-35.366249,-59.901123,-73.837967,-85.854034,-17.875756,-16.566771,-3.446908,5.204386,10.561111,24.938954,32.509678,38.470568,28.13744,42.622666,50.215559,56.376274,41.011227,55.789274,63.286268,69.056412,49.327588,63.145601,69.795997,74.733807,19.446831,30.449352,24.07711,13.4095,25.181007,21.004143,14.499207,6.591225,8.273506,-0.409584,2.137928,4.863567,-8.113174,-12.17783,-8.522301,-5.461292,-21.754646,-23.455982,-20.295353,-18.194218,3.940479,3.135902,5.28176,4.237252,-31.327466,-46.68748,-54.527929,-57.803573,-38.513361,-21.42412,-5.493811,3.531846,-35.530106,-14.515361,0.046313,7.673353,-29.369854,-17.379406,-5.656616,0.350773,37.489157,295.342171,-189.031076,75.059339
54,-1.134911,-1.036048,-1.698017,-0.279575,-26.946259,-51.345406,-73.062572,-90.582905,-60.762177,-92.892094,-109.851151,-122.654915,-54.59713,-88.962994,-108.504868,-123.514309,-45.76767,-77.346954,-95.985146,-109.968281,-35.256615,-59.533539,-73.422203,-85.461788,-16.998345,-16.042819,-3.296422,5.30893,11.065489,25.610736,33.489533,39.717927,28.405745,43.09166,51.208876,57.764176,41.422979,56.095001,63.873453,69.780497,50.199689,63.822509,70.150506,74.858851,18.707142,29.400387,24.543858,14.944553,26.435223,23.054237,16.976337,9.658527,9.16214,3.541031,4.951859,6.619034,-7.467213,-9.915161,-6.60038,-4.296341,-21.342659,-21.861362,-18.628006,-17.383461,2.056381,1.984782,7.215412,7.681442,-31.706922,-45.489244,-53.995517,-58.372479,-39.468918,-20.129801,-3.084093,6.242133,-37.024281,-16.169376,-1.396331,5.991828,-31.600959,-18.939006,-7.275835,-1.459934,36.073265,293.813956,-191.010075,74.287598
55,-1.102982,-0.125662,5.321445,3.6195,-27.361565,-51.645584,-73.444977,-90.730877,-60.915813,-92.948341,-109.629593,-122.225933,-54.704475,-89.057579,-108.504238,-123.431511,-45.931091,-77.439938,-96.049347,-110.078373,-35.409279,-59.692039,-73.738976,-85.999947,-16.966049,-16.035594,-3.598444,5.182095,11.108776,25.687739,33.630695,39.896756,28.30009,42.963714,50.900185,57.307779,41.343321,55.954024,63.598293,69.379737,50.205678,63.896795,70.17854,74.769992,17.728958,24.778061,17.829266,10.32938,20.429993,16.003132,11.808929,6.632309,3.89122,-0.864086,1.199913,2.518959,-11.213722,-13.844776,-9.805527,-7.359295,-23.007545,-25.754814,-21.547623,-19.242725,-2.810107,-9.369946,-10.221824,-12.7945,-40.017632,-47.515985,-55.254608,-61.319765,-45.204111,-27.199544,-9.103307,0.716614,-41.294199,-24.585865,-8.364649,-0.545256,-34.792405,-26.015696,-13.424817,-6.789797,34.846258,293.225598,-185.812654,77.444403
56,-0.653229,-0.422002,0.868378,0.079535,-27.661743,-52.032166,-73.980675,-91.293468,-60.906773,-93.283253,-110.105896,-122.672081,-54.611778,-89.238453,-108.642712,-123.495312,-45.750618,-77.339172,-96.008263,-110.074482,-35.209007,-59.750805,-73.781204,-86.020317,-17.268688,-16.161318,-3.422578,5.519684,10.476019,25.52089,33.549493,39.98438,27.623121,42.910176,51.43093,58.436638,40.83987,55.977057,64.114156,70.40078,50.017278,63.936809,70.517982,75.452334,18.924923,26.690197,21.272163,14.860783,23.993797,21.61417,18.043499,14.061012,6.790638,2.543278,2.672653,3.15033,-9.458599,-12.123585,-7.419491,-4.65065,-22.070675,-23.184128,-18.090763,-15.133724,-2.799856,-8.740153,-10.728331,-15.477494,-38.478349,-44.44665,-52.73689,-60.863182,-45.05838,-25.304022,-6.51859,4.988167,-42.982115,-23.733647,-7.308964,1.568893,-37.490528,-24.925924,-11.718839,-5.947645,34.112234,292.54392,-185.025072,77.264261
57,-0.83313,0.165182,6.788464,4.111559,-27.633934,-51.75087,-73.655376,-91.740189,-60.575695,-93.05151,-110.047646,-123.054657,-54.230461,-89.09729,-108.486786,-123.560429,-45.48111,-77.12883,-95.752888,-109.833641,-35.115738,-60.00658,-74.181061,-86.601906,-17.71749,-16.48878,-3.306241,5.384512,10.739323,25.363982,33.207519,39.454746,28.252542,42.925243,51.095317,57.855443,41.375061,56.269631,64.417783,70.810679,50.136456,64.081799,70.835874,75.902927,15.830727,22.119141,16.454315,11.707249,17.455959,12.501926,6.506538,1.178055,1.335068,-5.0037,-6.042309,-5.825329,-13.482342,-18.066158,-13.971405,-10.290871,-25.339622,-28.385124,-23.044796,-19.130173,-5.644821,-14.290774,-20.463129,-27.900534,-41.69959,-35.876773,-34.949375,-36.718215,-45.839091,-28.390462,-11.756383,-1.196198,-44.072504,-27.593696,-11.680739,-3.296422,-39.057753,-30.25057,-17.057162,-10.720551,33.268232,292.553893,-178.24748,81.22061
58,0.025063,0.12875,-1.718559,1.873353,-27.627869,-52.004356,-73.996754,-92.034416,-60.99884,-93.094311,-109.8983,-122.723179,-54.726677,-89.111538,-108.289776,-123.194275,-45.986824,-77.228794,-95.622253,-109.543304,-35.569382,-60.037823,-74.039726,-86.279469,-17.79159,-16.712687,-3.649635,5.147885,10.678375,25.1833,32.95249,39.109747,28.190916,42.665583,50.696965,57.420411,41.333503,56.102966,64.266556,70.711817,50.216114,64.013441,70.810803,75.91818,15.050583,24.447727,22.219162,18.714409,19.146824,17.138214,12.663803,9.34988,4.031239,-0.187683,-2.046432,-2.644958,-10.350895,-14.867077,-11.631489,-8.270245,-22.461605,-25.248184,-20.507069,-16.408253,-1.58078,-9.79377,-18.762986,-28.035768,-39.055468,-37.175817,-33.017143,-32.609991,-43.70299,-31.009513,-14.668409,-5.704225,-42.619054,-31.18507,-15.64987,-7.803276,-38.436791,-31.940678,-19.410161,-13.444392,33.187408,292.576447,-180.071926,82.987768
59,-0.362206,-0.376739,-1.140518,2.411045,-27.560806,-51.774902,-73.637466,-91.908188,-60.954037,-92.844658,-109.573574,-122.367153,-54.553299,-88.881798,-108.122234,-123.199253,-45.646935,-76.980858,-95.396805,-109.441223,-35.004845,-59.60701,-73.622875,-86.007385,-17.619986,-16.22523,-3.054175,5.586251,11.018003,25.717379,33.244631,39.104375,28.423715,43.020586,50.924639,57.446285,41.523571,56.25302,64.238336,70.465742,50.426868,64.294344,71.167597,76.314494,15.564766,25.011234,24.038601,22.8685,21.753559,17.513409,11.510124,7.59367,6.876125,1.690292,-0.837193,-1.059036,-7.181511,-12.446423,-10.874405,-7.693691,-19.492207,-22.999306,-19.709301,-15.93647,-0.135851,-8.375178,-20.237926,-33.579658,-40.749004,-40.142615,-33.014456,-29.702195,-46.139259,-34.711389,-17.653949,-8.616097,-45.988434,-34.835569,-18.18846,-10.184989,-42.365074,-36.334375,-22.735298,-16.138532,32.735195,292.100521,-181.302452,85.299626
60,-0.326614,0.387422,-2.085686,0.681107,-27.160034,-51.210365,-72.952194,-90.96674,-60.914726,-92.879219,-109.50016,-122.11544,-54.578705,-88.984966,-108.070679,-122.882881,-45.639954,-77.089977,-95.347881,-109.136009,-34.987679,-59.511166,-73.487835,-85.681057,-17.697298,-16.561831,-3.560158,5.050566,10.790761,25.304393,32.866719,38.803218,28.280948,42.820082,50.684182,57.13957,41.312816,55.938895,63.792745,69.94852,50.082795,63.855175,70.536322,75.454866,17.06955,27.975883,28.110523,26.903,26.084862,25.754929,24.080315,21.896496,10.82119,7.155304,5.254383,3.444729,-4.20639,-7.087841,-5.073338,-3.348255,-17.230225,-18.858376,-15.091839,-12.129135,0.007657,-10.228523,-23.373241,-38.698644,-40.034645,-44.753765,-50.522582,-56.621176,-47.184015,-36.49897,-18.901523,-7.404646,-47.674776,-35.580896,-19.032527,-9.658351,-44.193504,-37.4758,-23.126517,-15.474005,32.290306,292.32361,-183.506413,85.8164
61,0.433731,0.799915,1.705627,1.535702,-27.441673,-51.17569,-73.160477,-91.657677,-60.425205,-92.98708,-109.946079,-122.94508,-53.83049,-88.999557,-108.25367,-123.297215,-44.863358,-76.749744,-95.168324,-109.019337,-34.413872,-59.490566,-73.842659,-86.174927,-17.87026,-16.9227,-3.791969,5.152331,9.629174,24.400428,32.177275,38.38208,27.378589,42.207148,50.178014,56.740663,40.644245,55.609457,63.565998,69.907518,49.561622,63.480906,69.956795,74.673291,16.749573,27.250957,26.687222,23.350468,24.393997,22.970066,19.563503,16.420841,9.245396,5.415459,4.07032,3.342361,-5.888329,-8.157177,-6.100273,-3.634815,-18.877888,-20.146866,-16.063156,-12.267094,-2.990912,-15.232036,-29.070458,-42.684293,-43.775083,-46.110484,-48.124597,-50.678841,-49.435157,-40.478229,-23.16082,-11.251666,-49.44093,-38.703182,-21.854335,-12.167826,-45.542596,-38.648718,-24.089916,-16.526541,32.619925,293.001676,-181.904898,87.230253
62,0.257378,-0.064344,-0.561848,-1.139882,-27.710381,-51.430893,-73.273201,-91.66357,-60.470695,-93.017178,-110.134449,-123.24131,-53.887825,-88.818684,-108.085213,-123.069706,-44.912682,-76.620655,-95.106468,-109.050293,-34.361572,-59.475403,-73.871212,-86.325645,-18.104603,-17.066641,-3.807036,4.993077,9.46677,24.268468,32.045994,38.301372,27.14332,42.268219,50.357646,57.021318,40.46523,55.678062,63.745074,70.173292,49.471528,63.362653,69.922832,74.805005,16.709461,27.151394,26.562195,24.60783,24.65292,22.364731,18.283482,15.097675,9.752254,5.821896,4.337997,3.858547,-4.770184,-7.453995,-5.684566,-2.835102,-17.409782,-19.231396,-15.716057,-11.978188,-1.666582,-13.156574,-26.897275,-40.988194,-41.811698,-43.294912,-42.4083,-43.409212,-47.780832,-38.752459,-21.496584,-10.190578,-48.020517,-38.311962,-21.913122,-12.70382,-44.518558,-39.627246,-25.413567,-17.482993,32.746181,292.860375,-182.597866,86.013415
63,-0.157242,-0.433426,1.073914,0.028961,-27.335472,-50.883865,-72.57843,-91.270638,-59.695644,-92.373848,-109.615116,-122.888603,-53.212738,-88.361149,-107.979755,-123.306427,-44.347229,-76.30125,-95.104294,-109.32724,-33.884125,-59.076233,-73.590775,-86.172924,-17.559594,-16.541824,-3.584179,4.983443,9.831098,24.585309,32.379446,38.455995,27.382109,42.588209,50.730927,57.299442,40.542171,55.816506,63.970463,70.467409,49.474677,63.482635,69.947903,74.765423,16.291466,26.24342,26.390305,25.40554,22.810421,20.348282,16.284199,12.923069,8.248558,4.76532,3.295898,2.596493,-5.667973,-8.14127,-6.524162,-3.865643,-17.553749,-19.785576,-16.646976,-13.242188,-1.666551,-12.685356,-26.275263,-40.821901,-40.206342,-41.872213,-39.401518,-39.233927,-46.012517,-39.00545,-22.212055,-11.169106,-46.564751,-39.022555,-22.596328,-13.055334,-43.48359,-40.753543,-26.912157,-18.656189,32.381144,292.355025,-181.731749,85.970452
64,-0.347557,0.460843,0.21349,0.566745,-26.999245,-50.299072,-72.066879,-90.358086,-59.207096,-92.079906,-109.300747,-122.465172,-52.909355,-88.226051,-107.827778,-122.98233,-44.206123,-76.38176,-95.178051,-109.388924,-33.811226,-59.13105,-73.53035,-86.042175,-17.446653,-16.991182,-4.434853,4.475732,9.647823,24.085933,31.897175,38.135017,27.202168,42.131874,50.32356,56.948268,40.370011,55.259888,63.413598,69.951114,49.398168,63.153999,69.473907,74.319214,15.946941,25.725117,27.024364,28.4091,19.917698,18.595963,15.432243,12.692184,6.256828,4.420795,4.181786,4.405746,-6.699772,-8.03112,-6.085396,-3.311119,-17.963562,-19.344006,-16.351833,-13.05954,-1.917999,-13.320891,-26.525661,-39.694863,-40.599506,-40.973096,-31.158363,-24.737339,-45.511875,-38.641679,-22.790132,-12.473954,-45.553217,-38.699014,-23.145506,-13.887174,-42.041409,-41.284288,-29.069346,-21.245137,31.922922,292.74288,-181.628923,86.464208
65,0.100136,0.028282,-1.781445,-0.445437,-26.676979,-50.427017,-72.4403,-90.618324,-59.299564,-92.215405,-109.486198,-122.645073,-52.939224,-88.206081,-107.704639,-122.728271,-44.224663,-76.291924,-95.093307,-109.332161,-33.916168,-59.262772,-73.733082,-86.123142,-17.843523,-17.086215,-4.301904,4.92583,9.784723,24.056108,31.808996,38.155333,27.399461,42.037704,50.21031,56.934436,40.561376,55.366407,63.5957,70.272154,49.490609,63.158939,69.587527,74.576652,15.583248,25.279198,27.468681,30.681953,21.319027,22.811794,21.978035,21.307812,8.160839,6.967793,6.188965,5.674324,-4.306297,-5.431595,-3.922863,-2.077217,-14.827938,-16.66666,-13.820286,-10.90416,-0.077497,-9.207388,-21.554105,-34.57208,-34.568776,-39.775262,-41.532246,-43.63633,-39.620238,-38.011948,-23.39862,-13.079694,-40.034521,-37.54987,-22.426793,-12.879222,-37.67229,-40.044957,-30.168658,-22.869389,31.962719,292.730205,-183.470707,85.977816
66,-0.279808,0.246137,-1.339931,-2.014268,-26.680298,-50.324821,-72.280254,-90.467377,-59.393692,-92.270737,-109.274769,-122.187996,-52.987747,-88.231258,-107.38369,-122.110634,-44.151421,-76.196995,-94.750843,-108.747711,-33.686485,-58.869152,-73.167114,-85.380993,-17.995058,-17.353286,-4.453563,4.711803,9.832395,24.059566,31.835116,38.209673,27.522776,42.085191,50.162885,56.839525,40.633068,55.319415,63.396184,69.949076,49.434416,63.096509,69.576597,74.582086,15.183964,25.333958,28.72736,32.885971,21.622009,25.816841,28.361778,30.129719,9.523544,9.148235,9.452133,9.313202,-2.153149,-3.350315,-1.896114,-0.640354,-12.334099,-14.481583,-12.240314,-10.171165,1.094403,-6.163031,-16.438948,-27.137423,-28.651759,-36.477265,-45.193367,-52.995253,-34.375158,-34.306769,-22.328424,-13.957631,-35.637768,-34.913621,-22.316506,-14.124727,-34.157858,-37.769207,-29.854009,-23.384047,31.627722,292.956505,-184.865828,83.943711
67,0.405693,0.23706,2.821598,1.066275,-26.782036,-50.600967,-72.513771,-90.666847,-59.691353,-92.295456,-109.390755,-122.47776,-53.339539,-88.26519,-107.424145,-122.279434,-44.46579,-76.188526,-94.658146,-108.583031,-33.955536,-58.827724,-73.023262,-85.20195,-18.223535,-17.807646,-4.898166,4.243365,9.750575,23.927914,31.706305,38.085493,27.56841,42.037519,50.105211,56.842119,40.702537,55.344609,63.474792,70.081592,49.376,63.065264,69.539918,74.441665,14.802647,24.247112,27.628727,31.218967,16.546268,17.450581,17.712536,17.573032,5.054741,5.423813,7.162285,7.638817,-5.975189,-4.887371,-3.063126,-2.643185,-15.64333,-16.733837,-14.029884,-12.571049,-2.582124,-11.717357,-22.388785,-32.336035,-31.4225,-36.276762,-36.566494,-36.614475,-34.81902,-36.517712,-25.255208,-14.939432,-35.47626,-38.130818,-26.679389,-17.380703,-33.889707,-41.650282,-36.862155,-31.351672,32.010841,293.205529,-182.066803,85.02195
68,0.322037,0.057366,-2.196407,1.741269,-26.961136,-50.680618,-72.49506,-90.798855,-60.024719,-92.165222,-109.217491,-122.294884,-53.751411,-88.190861,-107.343235,-122.267475,-44.810944,-76.214447,-94.471722,-108.279419,-34.099731,-58.735085,-72.853603,-84.986057,-18.31264,-18.111643,-5.218342,4.120111,9.656035,23.960395,31.725941,37.973045,27.670236,42.057773,49.952564,56.553127,40.915946,55.554931,63.564207,70.026696,49.665918,63.297136,69.657429,74.347743,15.58176,26.065178,29.456635,33.670063,20.496769,22.583427,22.616215,22.778549,8.8167,9.097424,9.343128,9.225368,-2.182789,-1.71175,-0.418282,0.215206,-11.842003,-12.65213,-10.402737,-8.800278,0.815599,-6.864485,-17.746297,-29.409066,-30.146489,-36.317764,-39.376941,-42.902025,-35.065527,-35.269952,-23.265517,-15.301814,-36.342464,-36.06505,-23.617371,-15.892704,-35.213327,-38.628063,-31.91817,-26.38379,32.313595,293.245358,-184.282494,86.745682
69,0.679207,-0.372046,2.113266,-0.966363,-26.962852,-51.230278,-73.196125,-91.216736,-60.428696,-92.537613,-109.702206,-122.774849,-54.16523,-88.452702,-107.867146,-122.871952,-45.166168,-76.449738,-95.096512,-109.183502,-34.362259,-58.950806,-73.213291,-85.556545,-18.623986,-18.293992,-5.480967,4.010751,9.634979,24.03678,31.781949,38.153048,27.484367,42.008929,50.015487,56.801857,40.670921,55.397097,63.552845,70.18453,49.470046,63.118801,69.661196,74.610491,19.623013,34.033585,33.468761,25.557404,33.493595,28.095016,21.537952,13.447437,17.956638,10.302887,13.944683,18.42556,1.516457,-4.240208,0.912781,7.110729,-12.60458,-16.022015,-12.245808,-6.994743,5.118523,-3.713917,-9.682248,-17.800421,-49.414347,-73.002078,-79.370707,-77.336772,-57.156336,-41.346285,-21.817007,-10.867949,-54.389084,-31.221564,-17.200238,-12.453422,-48.256064,-32.249153,-19.686402,-16.372165,32.911892,292.835999,-182.250137,85.742006
70,-0.015221,0.024206,4.021053,-0.480974,-26.946831,-51.088486,-73.104172,-91.798153,-60.228939,-92.559814,-109.60453,-122.687187,-53.94207,-88.664074,-108.015633,-123.004303,-44.953766,-76.389313,-94.747868,-108.556423,-34.269562,-59.041557,-73.206367,-85.266781,-18.456642,-17.653517,-4.687536,4.316971,9.892045,24.337628,31.98764,38.152554,27.68024,42.305393,50.357152,57.102644,40.818134,55.804341,63.904575,70.419923,49.385139,63.075699,69.665518,74.537687,17.645187,29.157486,29.384594,25.378876,28.507519,23.54044,15.939617,8.610821,12.563152,5.451908,7.569695,12.514057,-3.616619,-7.999878,-5.93359,-1.005878,-17.737198,-22.089844,-20.201054,-15.850811,3.307692,-6.259917,-13.321941,-23.815065,-49.14598,-73.267667,-79.065814,-74.373555,-55.332908,-39.981323,-21.886754,-9.748136,-51.701181,-34.229427,-19.909383,-12.447216,-45.668166,-38.54822,-26.208079,-19.8472,32.849808,292.833606,-178.275948,85.234433
71,0.591888,0.22755,1.9491,0.745389,-26.76796,-51.052437,-73.398228,-92.003517,-60.650024,-93.000126,-110.027847,-123.002472,-54.569778,-89.24881,-108.575134,-123.478832,-45.712395,-77.20911,-95.690231,-109.561272,-35.151215,-59.796982,-73.98531,-85.993881,-18.681723,-18.202972,-5.320662,3.898736,9.728036,23.976882,31.664562,37.893387,27.701358,42.192513,50.024812,56.642233,40.960592,55.876898,63.732662,70.039417,49.651654,63.393899,69.735234,74.349102,17.794704,26.264706,23.955517,19.71405,27.085876,21.417332,14.608955,8.900013,10.073605,1.818352,4.396362,10.612621,-6.42786,-11.320095,-8.185616,-2.298889,-20.063553,-24.254837,-21.049519,-16.271782,2.022974,-7.846193,-14.187281,-23.937208,-50.139359,-72.888272,-77.441315,-72.714229,-56.730165,-38.592958,-20.730169,-9.669991,-52.497051,-32.33125,-18.766382,-13.353496,-46.166337,-34.748439,-22.867505,-18.451394,33.399382,293.052959,-176.369162,85.971625
72,0.339203,-0.606513,-1.013374,-0.011794,-26.923256,-51.351929,-73.820686,-92.651539,-60.873985,-93.417892,-110.537224,-123.554592,-54.694519,-89.489937,-108.82885,-123.765564,-45.737801,-77.325039,-95.879288,-109.854298,-35.094452,-59.69696,-73.96328,-86.189003,-18.371921,-17.556507,-4.597874,4.333212,10.123918,24.619828,32.353202,38.594007,27.961204,42.766545,50.673808,57.243126,41.180362,56.426909,64.351957,70.627219,49.778921,63.793733,70.347922,75.133579,18.57399,27.846222,25.761223,20.247574,28.171749,22.581997,15.267792,8.978977,10.447884,1.961689,4.710674,11.375656,-6.412582,-11.349106,-7.876854,-1.664772,-20.077972,-24.099941,-20.233097,-15.264759,1.898053,-7.195529,-12.53697,-21.356905,-48.637125,-71.549183,-76.811245,-73.814683,-55.822095,-36.861878,-18.741775,-8.103784,-51.711833,-31.361768,-17.953624,-13.344665,-45.338943,-33.457299,-21.979102,-18.681198,33.724794,292.443684,-177.396326,85.957067
73,0.365982,-0.032728,-1.014576,0.159162,-27.16507,-51.403084,-73.953667,-93.249893,-61.040268,-93.951187,-110.915966,-123.72345,-54.574242,-89.893227,-108.90192,-123.640194,-45.483398,-77.477818,-95.950527,-109.885082,-34.739799,-59.814262,-74.125443,-86.512928,-18.629791,-17.71996,-4.455045,4.558415,10.13034,24.653358,32.259033,38.368433,27.820598,42.820823,50.852823,57.50575,40.893099,56.286921,64.326269,70.770048,49.45325,63.44614,70.071712,75.164022,18.582802,28.516502,26.067009,20.390167,28.381176,23.418846,16.170673,9.717464,10.739479,1.608582,4.535294,11.411533,-6.300774,-12.254276,-8.197975,-1.79203,-20.240593,-25.195427,-20.901718,-15.435905,2.156386,-7.355122,-13.128971,-22.096984,-48.025642,-69.16923,-75.390183,-74.501996,-55.133886,-36.365682,-17.77393,-8.001927,-50.965703,-32.779095,-19.110641,-14.715061,-44.66219,-34.604437,-22.928669,-19.327601,34.081993,292.399733,-178.419685,86.105006
74,0.209312,-0.599473,0.938931,0.5355,-27.312355,-51.669846,-74.183693,-93.172016,-61.032887,-93.540344,-110.522118,-123.595676,-54.731712,-89.600029,-108.834743,-124.078732,-45.835533,-77.60004,-96.05587,-110.179081,-35.274696,-60.050697,-74.31776,-86.946831,-17.957823,-16.901705,-4.029955,4.543101,10.627369,25.287596,32.827137,38.551153,28.100019,43.175332,51.101739,57.394414,41.051303,56.578568,64.602478,70.83186,49.517347,63.767983,70.575966,75.690876,18.68866,28.103027,25.165901,18.70966,27.095833,21.983471,14.457378,7.293091,8.72366,1.514225,4.622383,10.67831,-8.674793,-12.25193,-8.068371,-2.256203,-22.708626,-25.189075,-20.448589,-15.446491,1.632033,-8.313026,-14.466115,-24.173588,-49.240396,-68.585627,-74.623057,-74.200654,-56.373279,-36.434534,-17.77711,-7.847242,-51.855526,-31.873587,-18.398751,-14.445861,-45.040936,-32.847082,-21.102802,-18.25265,34.286499,291.793745,-177.485561,86.633991
75,-0.573235,-0.052117,0.669594,0.682929,-27.596054,-51.563759,-73.700523,-92.576466,-60.747986,-92.998352,-109.628277,-122.504196,-54.306793,-89.123669,-108.234501,-123.417606,-45.342751,-76.96764,-95.288029,-109.353333,-34.704437,-59.365425,-73.524284,-86.107578,-17.713291,-16.743624,-3.932328,4.471594,10.570003,25.43376,33.061047,38.680026,27.931749,43.300006,51.301748,57.530389,40.799547,56.499219,64.552707,70.744977,49.283127,63.635282,70.411895,75.39997,18.331833,27.39172,23.704262,17.469063,25.732098,20.666714,14.051685,7.769966,7.614269,1.821613,4.665012,10.104275,-9.220562,-11.816769,-7.947807,-2.755337,-22.693176,-25.224953,-21.007118,-16.516571,1.126914,-9.505704,-16.20726,-25.910133,-49.185932,-67.571222,-74.133315,-75.200825,-56.491531,-35.83185,-17.141328,-7.037725,-52.079186,-31.743911,-17.75911,-12.969655,-45.261632,-33.294433,-21.316891,-17.69702,33.726597,291.747463,-176.802635,87.322755
76,0.51693,0.229032,0.425892,0.945491,-27.372093,-51.448402,-73.844662,-92.992001,-60.341949,-92.797852,-109.727783,-122.775593,-53.897781,-88.891754,-108.232212,-123.533421,-44.961662,-76.785164,-95.245056,-109.354534,-34.421425,-59.306831,-73.569546,-86.103287,-17.645921,-16.659397,-3.773815,4.700318,10.510723,25.325696,33.122242,39.068806,27.92224,43.05109,50.969963,57.286042,40.730263,56.323601,64.325342,70.575287,49.155427,63.569764,70.384355,75.41831,18.31255,27.63319,24.029675,18.848076,24.677181,20.093994,14.181404,8.352928,6.470432,2.019196,5.165806,10.03046,-10.299625,-11.449585,-7.130527,-2.152863,-23.597317,-24.884663,-19.945278,-15.446548,-0.018371,-11.307982,-19.259552,-30.464381,-50.02123,-66.386726,-73.671607,-76.852556,-57.513871,-35.968318,-17.208759,-6.892704,-53.143825,-31.452387,-17.186159,-12.040929,-46.051636,-32.307414,-20.080987,-16.589433,34.23975,291.996888,-176.38052,88.28864
77,-0.608139,0.363772,0.578384,-0.178459,-26.758003,-50.751343,-73.038483,-92.18153,-60.390358,-93.311348,-109.959812,-122.59552,-53.822479,-89.26712,-108.500862,-123.296185,-44.541092,-76.725311,-95.304565,-109.401569,-33.542061,-58.703384,-73.152065,-85.668755,-17.978941,-16.909115,-3.92288,4.628996,10.423655,25.18293,32.788543,38.722387,27.749647,42.875596,50.7857,57.122033,40.536799,56.241719,64.30972,70.645065,48.928989,63.312883,69.989955,75.022243,17.911949,27.441387,23.271847,16.273899,24.061375,19.832268,14.290352,8.392582,5.522232,1.831284,5.52269,10.240746,-11.303787,-12.225494,-7.106094,-2.38718,-24.571667,-25.480042,-20.233555,-16.110935,0.273894,-8.498647,-13.31274,-21.822626,-48.696066,-64.101497,-72.007464,-76.231717,-56.468251,-35.397652,-17.862727,-8.362117,-52.222663,-31.337346,-18.117077,-13.356985,-45.242273,-31.274577,-19.484324,-16.342864,33.654528,292.376885,-175.779219,88.126406
78,0.74913,-0.425522,1.136971,0.158143,-27.34417,-51.486855,-73.559704,-92.360229,-60.705414,-92.778969,-109.714451,-122.854671,-54.305077,-88.771534,-108.112679,-123.422813,-45.239296,-76.666718,-95.104008,-109.113865,-34.388695,-58.981247,-73.191032,-85.657711,-17.262081,-16.207075,-3.500878,4.79739,10.67924,25.272653,33.059195,39.113514,28.073281,43.29272,51.181644,57.58936,40.915391,56.709108,64.778529,71.106093,49.429167,64.002573,70.769368,75.737313,17.447147,27.218513,22.255611,13.08157,22.818661,19.481964,14.363708,8.938866,4.030952,2.13501,5.623798,9.771194,-12.880211,-12.398987,-7.295322,-2.851467,-25.947819,-25.579033,-20.132275,-16.206207,-0.307023,-8.875479,-12.391393,-19.724811,-48.291539,-62.152562,-70.175762,-75.936736,-55.991167,-34.667484,-16.98408,-7.106299,-51.7001,-30.209784,-16.705215,-11.50015,-44.255285,-30.207746,-18.525309,-15.360631,34.433756,291.99005,-174.61215,88.323235
79,-0.344582,0.170493,-1.205063,0.048536,-27.384224,-51.307411,-73.183479,-91.750488,-60.292282,-92.354164,-109.110947,-122.127285,-53.980179,-88.505116,-107.957439,-123.20034,-45.012016,-76.39658,-94.867229,-108.868046,-34.306183,-58.699608,-72.791576,-85.09449,-17.386322,-16.280311,-3.57714,4.732428,10.490222,25.098023,32.934026,38.972846,27.87074,43.053869,51.177198,57.702364,40.770957,56.569614,64.728696,71.108872,49.271148,63.724326,70.426715,75.460856,17.158871,28.204536,24.625854,17.831841,24.134331,20.94429,16.419125,11.451473,6.045456,3.79549,5.932217,8.812351,-10.505619,-10.55048,-6.118412,-2.163506,-23.697338,-23.947048,-18.845158,-15.103741,0.548807,-7.370035,-12.526411,-22.650082,-46.764513,-59.232354,-68.448726,-76.614848,-55.29984,-33.945406,-14.961723,-3.775358,-52.017899,-30.448634,-15.655767,-8.762229,-45.245947,-30.752693,-18.159901,-13.993137,34.128971,292.212969,-175.777416,88.424197
80,-0.094872,-0.49635,1.020641,0.820509,-27.493858,-51.510315,-73.24276,-91.883125,-60.068893,-91.827965,-108.675213,-121.870422,-53.516693,-87.613735,-107.00489,-122.454014,-44.459953,-75.622616,-93.944664,-108.138714,-33.86261,-58.342323,-72.441788,-85.013523,-16.817354,-15.224564,-2.508055,5.647507,11.137181,26.197798,34.022933,39.827472,28.311329,43.652725,51.757034,58.101704,41.168629,57.192058,65.508666,71.835922,49.703215,64.251921,71.129559,76.154128,17.662926,28.70636,24.574013,18.658276,23.734589,19.358425,15.488262,11.92091,6.357708,2.825546,5.156193,7.656898,-10.06422,-11.393337,-7.015572,-3.370399,-23.317223,-24.280701,-19.011269,-14.86639,0.167807,-8.733546,-15.043141,-25.726704,-46.635517,-56.932552,-66.919199,-76.728376,-55.287923,-35.474438,-16.767491,-6.072042,-52.599186,-32.765942,-18.147798,-11.971799,-46.385458,-32.122595,-19.842075,-16.299021,34.125137,291.730821,-174.665737,89.258908
81,-0.462914,1.441872,-0.29726,-0.106334,-26.85276,-50.591469,-72.476578,-90.916557,-59.681969,-91.654186,-108.23204,-121.049767,-53.021736,-87.699165,-106.713409,-121.608067,-44.078064,-75.516415,-93.711834,-107.702179,-33.722534,-58.743553,-72.940693,-85.398216,-17.976162,-17.132096,-4.188654,4.599047,10.597667,25.177989,32.95039,38.865586,28.435262,43.097836,50.998307,57.367985,41.645466,56.787284,64.515348,70.519341,50.385187,64.317006,70.704839,75.443072,17.834129,29.63459,27.407341,22.374172,25.03315,22.163372,18.364506,14.203377,7.348766,5.146465,7.393913,8.977261,-9.374428,-9.53476,-4.286041,-0.967598,-22.608261,-22.213097,-16.250896,-12.153969,-0.28785,-8.862141,-15.690996,-27.785092,-46.587073,-56.209918,-66.521527,-76.3747,-54.848538,-34.955056,-15.852164,-4.748144,-52.188762,-32.011074,-16.458584,-9.596446,-45.584988,-31.116341,-18.491253,-14.671219,33.885441,293.06108,-174.73978,89.04096
82,1.42765,0.425831,1.033115,0.549733,-27.106018,-51.262093,-73.271084,-91.407051,-60.600357,-92.212372,-109.004631,-122.187538,-53.951225,-87.744884,-106.740475,-121.929989,-44.949188,-75.956097,-94.236946,-108.421612,-34.374847,-58.934555,-73.019314,-85.517464,-18.013583,-17.652899,-5.075143,3.973145,10.397781,24.77865,32.341161,38.251848,28.210367,42.417037,50.067419,56.433084,41.333688,56.041401,63.886729,70.095918,49.949167,63.814605,70.276106,75.124378,17.616463,29.619484,27.962265,22.001896,24.719238,21.88385,18.643284,15.375309,6.994171,5.635071,8.729553,11.043892,-9.720726,-9.566689,-4.011211,-0.365353,-22.900829,-21.999264,-15.856361,-11.739464,-1.199903,-11.127764,-19.436282,-32.121144,-47.31721,-56.236378,-66.396636,-77.420721,-55.536993,-34.366358,-15.781615,-6.94263,-52.705335,-32.006257,-17.003316,-12.170358,-45.804696,-30.417203,-17.955816,-15.271741,35.699072,293.041381,-173.320684,89.145164
83,-0.07267,0.430153,1.013374,-0.743197,-26.421661,-50.074997,-72.181778,-90.603905,-60.237465,-92.194805,-108.930302,-121.817436,-53.698196,-88.242302,-107.313309,-122.265072,-44.779472,-76.312523,-94.745522,-108.881092,-34.34166,-59.278336,-73.683357,-86.236439,-18.277937,-17.964492,-5.606258,3.247948,10.391112,24.551038,31.931632,37.652375,28.103292,41.936681,49.288932,55.269706,41.057849,55.382215,62.650671,68.33103,49.441147,62.909344,68.839483,73.22932,17.523537,29.47031,27.838154,22.995644,24.832706,22.261677,18.940544,15.416679,7.736549,5.303249,7.807217,10.13586,-8.71439,-9.511585,-4.315624,-0.598125,-22.125492,-22.00161,-16.092911,-11.874104,-0.545164,-9.003642,-15.992924,-27.586348,-44.866306,-55.579477,-65.589157,-75.681799,-52.667112,-35.461872,-16.427678,-5.988586,-50.034414,-32.156434,-16.395815,-9.953981,-44.046013,-30.332512,-17.670683,-14.24863,35.811653,293.32781,-172.122059,88.258243
84,1.649551,0.293067,3.979626,0.299088,-26.699753,-51.183815,-73.360291,-91.503067,-60.51075,-92.039795,-109.16399,-122.496758,-54.191322,-88.187771,-107.652683,-123.158455,-45.375595,-76.692352,-95.142174,-109.200954,-34.980011,-59.569016,-73.687592,-86.047153,-18.200316,-18.118497,-5.798487,2.823476,9.801643,24.328366,31.878033,37.629343,27.462384,41.625088,48.899595,54.729205,40.541492,54.93082,62.351367,67.943114,49.203778,62.77621,68.684242,72.793732,18.319359,28.971405,25.251217,16.913452,22.902431,20.787563,17.766037,14.860897,4.923992,6.217403,8.595886,10.265694,-12.115917,-8.971825,-3.439121,-0.037937,-25.588303,-22.168121,-15.376339,-11.411362,-3.13053,-11.198561,-15.803721,-24.461716,-45.696386,-55.661266,-64.9853,-74.467508,-51.928577,-33.034865,-13.686238,-2.378194,-48.368882,-27.591381,-11.683765,-4.77414,-41.280984,-26.412411,-13.705133,-9.723807,37.978134,293.246809,-167.625504,88.183262
85,0.605965,-0.261636,1.910934,-3.163628,-26.881371,-50.9095,-72.696762,-90.909748,-59.985924,-91.449566,-108.418865,-121.671181,-53.615341,-87.299824,-106.438351,-121.876717,-44.778442,-75.646076,-93.492279,-107.200356,-34.368896,-58.500023,-72.169704,-84.060116,-17.665867,-17.158649,-5.002401,2.880965,10.328436,25.002865,32.711725,38.521698,27.960154,42.386594,49.929098,55.996879,41.089218,55.705602,63.402853,69.210109,49.682529,63.319119,69.509722,73.831263,16.44556,26.654663,27.310066,23.976631,23.315792,22.836227,21.465054,19.665127,4.448261,9.120941,12.368374,13.170319,-12.450371,-9.17038,-2.918358,-0.604134,-26.789417,-22.542915,-15.216007,-12.798443,-4.642797,-7.445525,-1.883943,0.681879,-41.709285,-46.327598,-54.060355,-62.711279,-46.486822,-26.109371,-6.030916,6.069818,-42.052617,-21.452742,-5.010521,3.688846,-34.000487,-21.422453,-9.204393,-3.721234,39.259472,292.87941,-165.039196,84.913871
86,0.342178,0.508638,3.958511,0.936013,-26.539307,-50.352745,-72.145042,-89.667721,-59.706573,-91.609497,-108.434143,-121.532478,-53.192024,-87.352238,-106.789627,-122.129173,-44.113541,-75.150719,-93.397064,-107.422771,-33.442841,-57.772751,-71.945686,-84.199619,-18.032355,-17.9535,-6.140276,2.251544,10.80379,25.427523,32.778662,38.122296,28.438535,42.674475,50.00536,55.735304,41.308,56.123097,63.778049,69.39326,49.369146,63.106019,69.016027,72.955889,17.682781,24.984856,24.706421,20.851994,20.879974,21.125851,20.729713,19.545422,3.460293,8.344574,11.840229,14.228439,-12.1455,-8.412666,-3.050137,-0.067577,-24.437084,-21.603012,-15.822659,-13.532467,-5.73686,-11.444513,-12.912166,-17.059972,-39.455951,-42.64996,-46.71749,-51.43374,-42.317434,-20.343241,-0.770522,11.919929,-36.523485,-16.027536,0.126959,9.329499,-28.668648,-15.945006,-3.993337,1.534127,40.008202,293.362344,-160.674133,85.824181
87,0.982933,0.326907,-2.572689,-7.050199,-26.224022,-50.525093,-72.673244,-89.940777,-59.958229,-91.931534,-108.637276,-121.428909,-53.509712,-87.887306,-107.577438,-123.075657,-44.508476,-75.60442,-94.000053,-108.11182,-34.078102,-58.273544,-72.47097,-84.731426,-18.047114,-17.996293,-6.590189,2.224497,11.247961,26.217681,33.194551,37.808419,28.587662,42.989958,50.116326,55.462985,41.176039,56.067213,63.671529,68.991265,48.97277,62.785287,68.884314,72.965892,17.080765,24.903946,27.505302,26.501884,22.712917,29.28051,31.107559,30.372276,5.782642,18.951931,26.777744,31.407337,-8.723202,2.098045,9.984741,15.222301,-19.501076,-9.866009,-3.826046,-1.711006,-7.405326,-15.273594,-20.905262,-27.33805,-29.096022,-26.017301,-23.40038,-20.71998,-27.638342,-3.368886,14.483312,27.457722,-19.289501,3.080944,18.935733,27.916281,-10.024377,7.132605,18.826373,24.32571,41.708965,293.628411,-162.528992,78.713142
88,0.911407,0.405638,-6.533146,33.749194,-26.084976,-50.64045,-73.163853,-91.378098,-60.044289,-92.193089,-109.090405,-121.897659,-53.515434,-88.317089,-107.904167,-123.22998,-44.678307,-76.176739,-94.616375,-108.527184,-34.67514,-59.060555,-73.265591,-85.410347,-17.805917,-17.416704,-6.093098,2.47014,11.876642,26.204405,33.320461,38.346697,29.464394,43.320014,50.359128,55.655646,42.17794,56.640936,63.726796,68.704682,49.988132,63.667577,69.584008,73.45193,31.299877,50.642738,60.419083,64.336109,37.890415,35.684395,35.444756,33.630466,16.386051,32.041683,44.708118,49.082222,-0.039139,19.983673,29.892025,32.529716,-13.33746,4.640751,13.358116,16.398697,-4.04882,-11.963494,-9.349568,-4.096337,-51.657245,-63.609501,-65.314615,-63.939063,-52.805278,-25.387725,-4.4577,9.62232,-41.480222,-10.998242,3.546388,10.754699,-27.06712,-10.35894,-0.996713,3.498099,43.528719,293.995271,-168.153791,112.423557
89,0.235863,0.292265,8.041649,5.978798,-25.878983,-50.297127,-72.908878,-90.923367,-59.822845,-92.762547,-110.103779,-123.21825,-53.461876,-88.906975,-108.899746,-123.978596,-44.719505,-76.849422,-95.614529,-109.497414,-34.736595,-59.338074,-73.694515,-85.746861,-17.544157,-17.273381,-6.197086,2.519602,11.672186,26.356373,33.326018,38.314402,28.965945,43.172183,49.911438,54.966635,41.604031,56.369296,63.557785,68.835346,49.466464,63.538642,69.564741,73.967546,28.286476,44.860497,57.108765,65.416718,32.989254,34.16193,32.470551,30.649624,9.916592,30.926914,47.649593,58.40498,-6.004028,17.827206,31.108704,37.440891,-16.503124,5.297527,16.33152,21.040821,-3.842605,-10.905246,-5.41758,0.477886,-45.544016,-53.389005,-50.730372,-47.739552,-45.250856,-15.426488,9.315914,23.676034,-33.125422,-2.138324,13.948862,21.40825,-18.935486,1.304663,12.439682,16.150635,44.599543,293.418599,-159.277182,117.533419
90,0.216064,0.564275,6.546364,-7.762336,-26.593666,-51.124878,-74.061871,-92.611027,-60.742264,-93.659191,-110.807648,-123.685455,-54.052849,-89.246292,-108.729973,-123.377266,-45.061798,-76.87809,-95.20277,-108.620338,-34.879074,-59.222946,-73.301697,-84.946404,-17.661791,-17.131293,-5.827572,3.071218,11.942468,26.377368,33.26575,38.245241,29.257654,43.405106,50.2389,55.355786,41.738771,56.628339,63.958174,69.319716,49.273741,63.504124,69.759255,74.131061,20.120544,36.154861,50.321617,59.434662,27.016468,39.213409,45.255318,49.372501,10.233536,28.565712,42.085304,52.674408,-1.521206,15.413761,26.585941,34.733391,-8.516521,3.860722,12.871513,19.425488,-1.919666,-4.030079,2.8215,12.116419,-23.573282,-13.53708,3.399515,15.252969,-17.185479,8.83494,29.268646,44.402498,-5.598385,20.645818,35.131106,44.541684,5.162705,24.543875,33.306258,39.229913,45.48131,292.915071,-152.065115,108.703279
91,-1.305313,0.317829,2.966309,12.772208,-26.411934,-50.742188,-73.503342,-92.024002,-59.839325,-93.08979,-110.130386,-123.022556,-52.849846,-88.686905,-107.914696,-122.406063,-43.888893,-76.276417,-94.483624,-108.097572,-34.012871,-58.763351,-72.838383,-84.654064,-17.384717,-16.689716,-5.088481,3.850817,12.388368,27.155361,33.899803,38.513979,29.763452,44.038912,50.740499,55.693808,42.175531,57.238556,64.607418,70.046765,49.599475,63.930387,70.03213,74.53812,15.801888,30.205135,40.100098,45.507889,23.812809,35.856457,45.318489,53.437729,12.786484,27.354012,39.123287,48.3181,2.817078,15.699692,27.45266,36.256828,-4.856186,4.675198,14.384651,21.664181,-10.396546,-11.386776,-5.804076,-0.472452,-17.346277,-11.669747,-1.335106,8.348594,-9.788305,0.62584,14.793299,26.620726,-0.762247,12.173106,25.031703,34.19991,8.428375,21.37614,29.391529,34.607277,46.360216,292.560747,-146.914587,120.803334
92,0.397568,-0.510491,-7.477226,34.310134,-27.11895,-51.757736,-74.433861,-92.365379,-59.921265,-92.514095,-109.523735,-122.640896,-53.238831,-88.148117,-107.45121,-122.627735,-44.551849,-76.214275,-94.524479,-108.516026,-34.754791,-58.859138,-72.943954,-85.038185,-16.799941,-16.12328,-4.263001,5.277375,13.456279,27.376428,34.350643,39.46827,31.164445,44.190509,50.604154,55.60322,43.657788,57.564228,64.612173,69.856142,50.985895,64.660832,70.58634,74.828593,30.718803,61.588383,83.90974,99.734287,39.328537,61.986523,77.838707,91.209011,22.439404,52.769852,67.427616,73.86097,10.705833,40.761108,56.078682,63.629379,3.876858,29.867134,40.34935,45.654488,-10.807001,-8.040459,2.072344,10.986819,-19.480094,2.668421,13.443559,20.01195,-8.21157,22.998632,34.982411,39.597699,6.466133,33.189858,40.920146,43.257707,22.31487,39.565403,40.949662,38.994397,48.819122,292.417177,-152.330475,155.48039
93,-1.188126,0.863086,-1.230125,11.457789,-26.503258,-51.186218,-73.840599,-92.087402,-60.172348,-92.518158,-109.411125,-122.511635,-53.123131,-88.343868,-107.950001,-123.001671,-44.043961,-75.919762,-94.604301,-108.649693,-33.966637,-58.527031,-73.241615,-85.625725,-17.495559,-16.991799,-5.015368,3.973824,13.378597,27.688391,34.64828,39.538665,31.243424,44.663208,50.604154,55.251984,43.580724,57.892555,64.615508,69.373994,50.481765,64.381906,69.737149,73.324662,33.626575,65.58094,89.093399,106.726227,52.826328,76.868248,90.386238,103.534813,38.099499,62.841911,78.15731,90.825233,23.908596,47.809639,62.335854,73.140907,12.039642,29.371376,40.8074,50.173702,-7.371394,-1.847264,6.873006,13.734156,-6.391291,12.044294,25.676809,36.452874,0.981955,26.929355,42.551159,53.638322,9.565201,31.81443,45.055262,53.251765,19.036541,36.312083,46.339485,52.747634,48.709288,293.662498,-152.482309,167.320414
94,-1.862755,-0.01093,16.115227,28.366472,-26.383667,-50.669403,-73.298492,-91.709061,-59.542122,-92.293682,-109.207134,-122.286587,-52.49279,-88.457451,-107.770042,-122.542877,-43.561707,-76.072655,-94.757595,-108.795261,-33.876228,-59.059868,-73.841114,-86.350822,-17.710389,-16.847118,-4.797884,4.301595,13.70501,27.767617,34.232329,38.845085,31.60559,44.397188,49.668203,53.849076,44.059166,57.971904,64.199372,68.709869,51.187819,64.908328,70.09703,73.704859,35.232124,66.183529,87.951107,99.940338,52.380695,81.029949,87.876091,84.887924,36.678486,70.851002,77.255058,73.346729,23.349609,57.501869,62.012444,57.093601,12.781448,42.518234,46.363678,42.36208,-6.61174,2.180778,14.03451,17.421335,9.210197,42.472366,41.064086,34.767952,22.675369,54.670604,49.660978,44.005196,35.022858,61.594245,53.092263,46.747594,45.329989,61.593257,53.428556,47.935301,47.919044,293.998281,-135.294571,196.033599
95,-1.090965,0.057737,12.881126,20.409005,-26.741409,-50.873222,-73.544025,-91.553993,-59.422531,-91.616821,-108.152046,-121.12524,-52.49073,-88.243046,-107.44051,-122.15744,-43.759804,-75.86586,-94.246273,-107.8335,-34.399109,-59.473572,-74.062042,-86.139679,-17.662285,-16.865087,-4.8676,5.312944,14.503381,28.271747,34.718552,39.604059,32.075387,45.043591,50.516839,54.849371,44.117088,58.440528,64.825274,69.394928,50.931555,64.686829,69.766974,73.281499,32.716026,62.299576,82.992668,96.505337,50.906181,79.695797,84.571209,80.813942,35.379353,68.223553,73.614006,68.924904,20.784531,53.499069,58.447552,53.479958,8.327751,37.450962,41.053276,36.001167,-6.214314,4.741567,16.8846,19.582414,20.174786,51.625259,47.01312,39.050775,34.255856,61.88441,53.541868,46.40457,45.239772,67.602375,58.061566,51.663544,53.199585,67.864506,59.872891,54.378339,48.287802,294.357499,-120.953722,216.744085
96,-1.38073,-1.814845,-4.821281,14.739391,-27.919121,-51.320114,-67.324333,-74.785194,-61.602917,-89.557686,-106.335926,-119.711666,-55.921326,-87.450027,-107.69268,-123.233414,-47.755508,-76.257591,-95.441494,-110.509872,-37.399979,-59.409256,-73.854275,-87.184639,-17.102147,-15.762225,-4.791894,1.0019,15.287735,29.927584,37.154852,42.216904,30.708171,46.07859,52.211332,56.63896,42.411541,58.097258,64.428033,69.102107,50.627249,64.209313,69.99298,74.801176,35.407333,65.112419,87.150135,107.301064,53.946762,79.745693,96.307926,107.677231,39.398346,70.312901,88.119564,98.386917,27.36105,58.15218,75.603218,84.913158,18.885212,43.23864,58.449211,67.681217,-7.612406,3.477783,16.97315,21.163904,18.022599,45.44324,57.465613,64.014429,34.137727,62.359456,67.091884,66.446407,46.257542,71.88384,73.992555,70.78777,53.172848,73.631994,74.390166,69.970133,48.233528,292.815653,-124.448547,231.756475
97,1.14521,0.470909,12.421875,25.488779,-26.698036,-51.823311,-73.83213,-90.047207,-58.775482,-87.9039,-105.651741,-118.652687,-54.460716,-87.504444,-108.832169,-125.890732,-47.494011,-76.725426,-96.01799,-111.615314,-38.3741,-59.769173,-74.26157,-87.686806,-14.847331,-18.67104,-21.066524,-27.096945,19.436683,26.053178,27.188274,26.810547,33.934013,46.026843,50.566733,54.420453,43.914423,59.100825,64.493427,69.152866,49.693088,64.300333,70.110553,74.767831,36.602726,68.003712,88.159332,98.748608,72.11998,101.1763,91.66008,78.863411,63.430996,97.695751,86.492443,69.620419,55.377502,88.037567,76.621056,59.671783,46.460094,73.9147,69.610176,57.315331,-2.010902,3.9398,14.848257,24.860654,38.089568,72.055691,82.710601,84.308578,51.540969,81.470715,90.037041,88.904847,59.660593,82.930927,92.433945,91.937039,63.804354,85.585701,92.785675,92.148534,50.008907,293.643386,-111.396503,257.602079
98,-1.345367,-3.870886,-3.190613,4.574594,-26.000862,-52.161369,-73.408699,-91.079807,-55.536461,-82.154732,-99.722729,-112.234097,-53.694763,-84.190292,-106.034031,-124.051266,-48.499146,-75.799999,-96.075611,-114.017487,-40.63179,-60.691795,-75.683498,-90.281525,-11.430866,-10.8401,-10.488987,-15.179919,27.957499,31.256638,25.964628,19.35968,40.806463,50.816637,52.250358,51.777782,48.724657,64.055617,68.611377,70.738617,52.019412,68.466449,75.508095,79.591094,39.462662,72.892227,96.641579,114.249344,65.142174,100.656395,108.414116,105.32032,50.460949,88.332825,98.315163,97.202797,38.992939,73.652916,83.520756,83.674908,30.075016,56.080284,66.116009,67.700672,-4.110107,6.442976,19.416553,27.030131,38.54331,68.863195,72.448053,70.629751,54.051062,83.158292,82.460142,76.598793,62.408548,86.23445,87.269758,82.448224,65.529784,85.038345,85.426878,79.643705,49.600725,290.145518,-113.649931,262.549692
99,-1.167984,-0.770089,2.146225,7.27673,-25.857124,-49.10202,-67.670174,-85.747719,-55.595398,-79.373817,-99.178219,-115.736904,-52.917023,-82.438145,-105.810471,-123.371315,-47.903366,-75.106945,-97.452965,-117.154827,-40.930138,-60.724297,-77.003403,-94.038563,-10.44008,-7.382818,-3.129696,-3.958325,34.120375,40.92311,39.641912,37.394938,45.264781,52.997723,45.752362,36.289853,51.293474,62.315984,60.386222,55.298729,52.378243,70.059177,77.741484,82.086675,37.041321,67.842464,92.480164,113.763199,65.978394,98.605843,115.308609,125.401611,52.015915,88.195438,105.476761,114.107552,39.837742,71.433506,87.69865,96.311874,30.209713,52.336864,65.721016,74.03841,-3.640434,6.759941,17.819193,19.057412,35.404907,63.027781,68.950387,69.008061,51.004791,78.414563,81.309608,77.37518,59.978546,85.759034,88.693105,85.043223,63.79398,84.682909,87.469088,85.348085,49.745321,289.636957,-110.191126,270.08795
100,0.815048,2.914928,16.670837,17.108693,-27.048111,-48.929901,-67.904949,-86.173267,-39.622765,-71.998844,-97.193413,-118.924084,-37.772484,-74.006023,-100.417099,-120.464859,-37.340698,-71.615295,-96.203728,-115.149937,-38.94413,-66.369038,-84.914303,-100.373325,-11.044432,-8.596275,-3.096104,0.516295,39.579668,43.797468,40.01896,34.874471,51.313913,55.130274,46.787855,36.63053,54.002711,59.369131,52.625368,43.007742,49.616703,57.835683,55.517572,49.710564,32.370186,63.844757,87.219658,104.34494,58.817024,97.18174,112.077713,115.352669,44.688892,88.174896,103.754768,106.117401,33.261909,71.831188,88.492126,93.30162,25.366287,55.636768,69.993324,75.234947,-12.572693,-6.66429,0.092379,5.441138,30.662167,60.98835,58.512406,50.898271,47.868117,74.392944,67.718281,57.85427,57.711379,80.677222,76.219892,67.1884,61.627343,81.72068,80.286836,73.648481,51.364803,292.780933,-92.715855,287.425691
101,-24.253063,4.683984,-4.750271,-1.613353,-10.818673,-21.961441,-35.543833,-49.193287,-36.724062,-43.262186,-43.635807,-47.113295,-42.45349,-47.787266,-48.152791,-47.962933,-45.515128,-52.42404,-52.477284,-53.370009,-47.560788,-64.64593,-74.206496,-81.42766,-13.483295,-12.433939,-4.446184,3.424802,23.905067,38.326474,39.446441,37.398983,38.833476,50.630275,48.868381,43.349438,46.419236,56.945489,54.813772,49.842309,49.246633,58.88754,61.579703,62.090379,33.5923,64.32106,89.268894,109.623013,63.067589,96.7626,113.164043,124.80051,50.371513,87.699795,106.240826,118.397541,39.35154,71.988201,89.871769,102.031231,29.898663,52.906094,67.525234,78.035316,-8.894529,-3.54577,4.324505,7.482297,32.715615,54.60237,59.619282,61.297781,48.279807,69.438338,72.89525,72.643617,56.379114,78.288037,82.47984,81.678073,59.33875,77.641387,81.367468,81.637441,28.138276,297.566451,-96.43959,285.913871
102,-24.253064,4.683985,5.680676,2.705039,5.410767,5.007019,-3.182716,-12.213306,-33.825359,-14.525528,9.921799,24.697495,-47.134495,-21.568508,4.111519,24.538994,-53.689556,-33.232784,-8.750839,8.40992,-56.177444,-62.922821,-63.498688,-62.481995,-15.922158,-16.271604,-5.796264,6.333308,8.230465,32.85548,38.873922,39.923494,26.353038,46.130275,50.948906,50.068346,38.83576,54.521847,57.002176,56.676875,48.876563,59.939396,67.641834,74.470194,33.046646,62.14222,86.277809,106.339874,62.580929,95.203056,110.970497,122.070236,50.680103,87.353325,106.316872,118.80249,39.815826,73.31028,91.3377,103.7677,30.682297,55.090485,70.14576,82.26099,-8.285053,-4.497344,2.272168,3.156434,29.63816,49.849132,56.324403,59.445084,45.524318,66.169086,71.21144,71.252195,55.081614,76.296092,80.999374,80.370878,59.937049,77.572041,81.547532,81.681592,4.501562,302.097233,-90.142565,288.465707
103,-10.681801,7.87114,2.862396,4.515684,1.416664,1.536713,2.919159,-1.046391,-24.565372,4.363289,27.140121,40.923729,-33.98283,-2.458363,22.080917,39.28299,-36.623611,-13.478451,10.346146,26.479797,-35.603828,-40.55975,-37.479916,-33.426018,-19.081804,-19.924511,-7.531451,3.74825,5.29022,22.226999,28.467187,31.791026,24.812674,37.373572,41.608539,41.755505,38.283773,46.792424,48.924234,49.136594,49.185438,57.356191,59.005606,58.198034,31.86779,60.378227,84.305305,104.578629,60.943108,95.065155,111.905479,123.401299,50.344563,89.069824,108.972702,121.854401,40.61451,75.45433,93.873253,106.084671,32.11647,56.337204,71.865578,85.355873,-10.418777,-9.247989,-2.469769,-0.25577,26.565953,43.462904,48.754544,50.831334,42.664224,60.353309,63.838811,62.798069,52.545463,71.868032,75.796346,74.60975,57.881934,75.781711,80.213044,80.540013,-5.600767,309.950033,-86.700697,292.963051
104,-13.494816,10.637064,2.024574,1.71308,-1.762447,0.70919,13.068523,18.403873,-13.991947,18.220882,39.994984,54.223309,-19.425888,12.596855,38.219318,56.507778,-20.156822,4.023628,27.858868,44.302769,-17.859993,-14.426651,-6.199951,1.679249,-19.441191,-25.872435,-21.991051,-17.399661,-1.350852,12.010826,18.660975,22.509075,17.821601,27.179691,32.285832,32.800707,31.256391,38.167991,41.18172,40.46486,41.017526,50.03074,50.711785,48.745528,29.87875,57.551365,81.260834,101.844406,58.691769,92.857704,110.451851,122.051582,48.674183,87.286949,107.582245,120.738945,39.744759,74.492054,93.147926,105.080795,32.399883,56.608028,72.270241,85.266266,-10.163809,-8.56824,-1.931985,0.338886,27.056684,42.376652,46.964399,48.631537,43.145075,58.829,61.684401,60.521394,53.010135,70.254246,73.312497,71.576632,58.371738,75.261958,78.879482,78.263151,-18.310461,320.490875,-83.891001,294.579908
105,-3.641911,-2.594567,0.648365,0.439972,-0.142021,4.605503,13.401718,15.288448,-7.56506,20.819778,40.542412,53.805199,-12.705517,15.810814,39.173012,56.645164,-13.929634,7.43145,26.977043,41.404724,-12.759132,-7.788734,-0.69603,6.622009,-9.090402,-7.516445,0.321781,7.897692,6.876526,19.245442,27.090832,33.032395,19.5918,30.722991,37.850347,40.633315,29.235547,38.795499,44.010321,46.84837,36.296892,48.179647,51.021587,53.232498,28.669052,55.663376,79.308872,100.690441,56.903458,91.573391,108.731861,119.917431,46.997681,86.269169,105.868549,118.018169,37.962971,73.9571,92.389011,103.927288,30.524712,55.971222,71.820431,84.287968,-11.803777,-10.315406,-2.68744,2.13959,24.318671,41.0526,45.393407,46.918395,41.427055,56.87781,59.201911,58.050698,51.93259,69.232586,71.751817,70.194163,57.385275,73.768895,76.553591,75.63351,-21.297884,317.932926,-82.588148,295.056498
106,33.714066,-15.018194,0.759945,0.709944,-2.338028,-10.533028,-23.557777,-35.52578,-34.461594,-22.079773,-0.743637,12.540207,-44.186211,-26.487122,-4.259377,14.47197,-50.433655,-36.615543,-14.14547,3.26889,-54.257984,-61.975822,-58.285103,-52.18832,-7.285561,-2.658911,10.624097,23.425328,8.446468,30.742443,37.556971,40.548161,22.835117,41.618481,48.715456,52.022129,33.093713,48.589423,52.985497,55.793164,41.542837,54.74668,60.583761,65.639823,28.202477,54.431419,77.413673,98.456841,55.212879,89.797096,106.974106,118.110237,45.453587,84.485092,104.041786,116.106949,36.79224,72.809086,91.161575,102.554512,29.821301,55.862732,71.536045,83.527222,-12.720461,-11.330336,-2.919992,2.76895,23.172274,39.800796,44.066823,45.446574,40.869448,56.088455,58.124675,56.926038,51.752897,68.530607,70.651055,69.031465,57.404294,72.939648,75.198231,74.075732,12.858438,302.972592,-81.385946,295.824302
107,-25.073605,17.56157,0.025406,0.242679,1.494083,4.208393,11.214466,13.751278,-15.808868,12.666492,31.930561,42.341022,-23.877983,4.563732,28.349934,45.353107,-26.666679,-3.375206,17.859364,33.609066,-26.340866,-18.987408,-8.243809,1.605263,-18.427311,-24.510653,-17.452828,-10.467745,-5.405816,8.499821,16.800373,22.66907,13.078614,26.161427,33.112238,34.903432,26.972518,36.630591,40.71921,40.907425,37.784892,46.023941,45.700677,43.154028,28.058167,54.154873,76.896229,97.498741,55.30695,89.333382,106.026764,116.715431,45.30447,83.345146,102.457695,114.119225,36.268559,71.27552,89.260826,100.356331,28.919849,54.614811,70.010376,81.756935,-12.82976,-11.679411,-3.521502,1.705793,22.76114,39.150873,43.940296,45.982136,40.374148,55.394195,58.152524,57.552495,51.248519,67.780895,70.647905,69.495272,56.92505,72.733032,75.340875,74.23721,-11.925631,320.563339,-81.071005,296.096159
108,42.49403,-12.630615,0.106602,0.474552,-7.727051,-22.24102,-41.452045,-58.40538,-55.404968,-44.237423,-19.816589,-3.227005,-65.017776,-48.429623,-22.15416,0.184708,-67.320156,-57.513943,-31.573792,-10.135803,-66.980839,-82.373314,-87.108192,-88.592777,-4.829932,-2.616303,9.510551,23.11602,1.660963,25.299391,33.631312,38.392331,16.284572,34.731334,42.425188,46.96372,27.812386,42.579626,47.231161,50.28898,38.343548,47.498046,52.980989,58.640785,27.473316,52.816715,75.491123,95.996647,53.770695,88.018284,105.12331,116.291828,44.243431,82.631664,101.907749,113.636227,35.657902,71.118908,89.194965,100.435123,28.582993,54.383411,69.931641,82.020092,-12.691006,-12.044294,-4.303633,1.242851,22.162532,37.7224,42.44149,44.388296,39.745961,54.292321,56.806304,55.989407,50.621444,66.821356,69.423333,68.069579,56.338421,71.993138,74.736647,73.623719,30.830584,307.946341,-80.702219,296.584327
109,-5.745506,-1.734384,0.51281,0.196552,-20.908813,-44.614735,-64.849606,-82.382298,-63.991127,-47.704754,-24.44252,-7.133102,-60.96571,-40.450687,-14.175568,7.705536,-53.344975,-36.187878,-8.859558,11.650429,-42.969933,-48.049793,-45.203362,-42.034035,19.38611,36.566247,50.883945,61.724477,31.499503,49.12412,52.266228,53.538657,23.910315,42.403205,47.467603,49.805289,15.279151,34.321064,38.493601,40.894828,8.078868,23.864496,31.620533,39.624622,27.983837,53.526878,76.258736,96.270962,54.138222,86.568089,102.945271,114.347019,45.117702,80.832081,99.764156,112.598133,36.544876,69.412823,87.312183,99.568348,28.768272,53.558292,68.679085,80.927639,-12.879283,-11.899057,-4.304498,0.327339,21.449623,37.026906,42.323485,44.751759,38.321009,52.93869,56.307731,56.038622,49.226008,65.593387,69.204922,68.389384,55.454402,71.343153,74.450125,73.835709,25.160122,306.21526,-80.114365,296.784182
