takenoko1/special-research/HandMotion_SimilarSearch_自分用/NewProject/handData/key/d4_feature_d2/67.csv
,vel_0x_L,vel_0y_L,vel_0x_R,vel_0y_R,posFromWrist_1x_L,posFromWrist_2x_L,posFromWrist_3x_L,posFromWrist_4x_L,posFromWrist_5x_L,posFromWrist_6x_L,posFromWrist_7x_L,posFromWrist_8x_L,posFromWrist_9x_L,posFromWrist_10x_L,posFromWrist_11x_L,posFromWrist_12x_L,posFromWrist_13x_L,posFromWrist_14x_L,posFromWrist_15x_L,posFromWrist_16x_L,posFromWrist_17x_L,posFromWrist_18x_L,posFromWrist_19x_L,posFromWrist_20x_L,posFromWrist_1y_L,posFromWrist_2y_L,posFromWrist_3y_L,posFromWrist_4y_L,posFromWrist_5y_L,posFromWrist_6y_L,posFromWrist_7y_L,posFromWrist_8y_L,posFromWrist_9y_L,posFromWrist_10y_L,posFromWrist_11y_L,posFromWrist_12y_L,posFromWrist_13y_L,posFromWrist_14y_L,posFromWrist_15y_L,posFromWrist_16y_L,posFromWrist_17y_L,posFromWrist_18y_L,posFromWrist_19y_L,posFromWrist_20y_L,posFromWrist_1x_R,posFromWrist_2x_R,posFromWrist_3x_R,posFromWrist_4x_R,posFromWrist_5x_R,posFromWrist_6x_R,posFromWrist_7x_R,posFromWrist_8x_R,posFromWrist_9x_R,posFromWrist_10x_R,posFromWrist_11x_R,posFromWrist_12x_R,posFromWrist_13x_R,posFromWrist_14x_R,posFromWrist_15x_R,posFromWrist_16x_R,posFromWrist_17x_R,posFromWrist_18x_R,posFromWrist_19x_R,posFromWrist_20x_R,posFromWrist_1y_R,posFromWrist_2y_R,posFromWrist_3y_R,posFromWrist_4y_R,posFromWrist_5y_R,posFromWrist_6y_R,posFromWrist_7y_R,posFromWrist_8y_R,posFromWrist_9y_R,posFromWrist_10y_R,posFromWrist_11y_R,posFromWrist_12y_R,posFromWrist_13y_R,posFromWrist_14y_R,posFromWrist_15y_R,posFromWrist_16y_R,posFromWrist_17y_R,posFromWrist_18y_R,posFromWrist_19y_R,posFromWrist_20y_R,posFromBody_0x_L,posFromBody_0y_L,posFromBody_0x_R,posFromBody_0y_R
2,-17.888145,14.71253,4.110146,0.026306,1.693268,-1.416321,-3.884697,-4.695168,-30.509892,-18.364563,-1.762161,10.175858,-35.157967,-22.391739,-1.495743,14.81781,-35.338554,-26.486664,-8.560753,5.424957,-31.88427,-28.164253,-19.998093,-13.014107,-14.143747,-19.289347,-17.129194,-13.33531,-3.069242,8.075657,13.175006,16.539786,8.536562,17.837409,23.859062,27.937924,18.043347,25.61617,30.443818,34.094317,25.647046,30.893422,33.020168,35.261338,29.038982,53.965187,74.633217,89.626465,45.345726,77.039566,93.781128,105.580444,33.496628,69.667511,89.252243,102.156944,23.707523,58.695374,76.811371,89.149017,16.353607,43.114872,58.017197,69.116936,-9.835853,-8.369342,1.21778,12.438447,15.855221,36.855857,45.03933,49.863581,32.736857,53.288321,60.99681,64.47484,45.052854,64.932905,70.400101,70.955669,52.629259,69.282048,72.145415,70.579918,16.268663,322.968394,-69.562712,292.470421
3,16.339073,-14.565008,1.021099,1.058834,-15.136185,-31.245461,-48.436375,-65.411568,-57.710838,-47.744408,-24.775887,-7.901459,-62.125168,-47.999897,-22.403412,-0.241127,-61.993847,-52.348595,-28.677063,-7.678642,-59.424191,-62.611256,-54.448128,-44.226894,5.915195,13.093804,25.426967,37.561047,9.33376,26.181248,34.646489,40.600587,17.598065,31.322032,40.049156,45.122693,24.00609,35.578303,42.091057,46.30614,29.150455,38.246414,41.44947,45.46547,28.499737,53.09166,73.519077,88.743496,43.553638,75.260639,92.128315,103.943653,32.075214,68.6693,88.628025,101.48798,22.868786,58.440456,76.855488,88.840885,16.264172,43.652344,58.829899,69.720898,-10.372587,-9.348951,0.033036,11.127239,14.90482,35.973938,44.178159,49.015254,31.985417,52.643152,60.252162,63.868019,44.289742,64.188318,69.521516,70.240847,51.836136,68.23612,70.937391,69.320086,32.405806,308.024131,-68.743544,293.15
4,-24.185257,14.322452,0.750389,-0.027294,2.112007,2.517471,6.84803,13.001518,-27.082672,-12.579689,5.540657,18.197708,-32.8759,-17.283783,4.484596,22.637787,-34.452724,-25.762711,-7.008018,8.760452,-32.883053,-39.378376,-43.841457,-46.877689,-17.067752,-22.937685,-16.590174,-8.587692,-7.346508,4.208908,10.947237,16.491436,7.373987,17.701558,23.422611,28.461197,19.233277,26.45999,30.427516,34.973087,28.332077,32.353511,33.843857,35.929292,27.914143,52.329998,72.614765,87.786427,42.666092,74.341335,91.408024,103.402462,31.272125,67.803211,88.019428,101.087322,22.167892,57.384739,76.165638,88.554211,15.736256,42.807598,58.399487,69.984798,-10.783783,-10.021227,-0.625038,10.754822,15.486695,36.143998,44.07553,48.610974,32.584149,52.791539,60.121251,63.655844,44.667037,64.276436,69.634581,70.480129,51.826133,68.344677,71.347291,69.931601,8.118639,322.048498,-68.095064,292.824622
5,28.154755,-14.490537,0.989742,0.682157,-19.948196,-41.07502,-60.546455,-79.292793,-65.548611,-55.587444,-32.525253,-14.724884,-64.132004,-51.43816,-26.830559,-4.343948,-59.030571,-51.053638,-28.311996,-8.184357,-52.05677,-59.628353,-58.470554,-54.668941,14.776935,25.820503,37.505348,48.860446,15.145338,30.202744,38.326813,44.756081,17.689332,30.761215,39.271163,44.056572,19.016472,30.870019,37.7492,42.050549,19.199438,29.183183,33.430438,38.291122,27.606697,51.81879,72.042274,86.959076,42.96896,74.541779,91.281509,102.867508,31.368599,67.877197,87.517204,100.001221,22.020779,57.321625,75.627823,87.625694,15.287361,42.637081,57.931824,69.025154,-11.014297,-10.61928,-1.142938,10.407291,15.283783,35.874334,43.489518,47.754187,32.328131,52.066898,59.031294,62.277205,44.422999,63.578039,68.851771,69.950434,51.693863,67.70945,70.401583,69.177505,36.192684,307.398414,-67.186031,293.347231
6,-21.350441,14.648927,0.137215,0.169628,2.583046,1.402817,2.697029,5.475197,-30.48048,-16.517258,0.968742,13.593864,-36.482849,-21.707726,-0.023575,17.80426,-37.562828,-26.413994,-7.146492,8.486824,-34.963989,-29.664745,-20.422211,-11.952209,-17.334699,-24.277236,-19.178999,-10.681092,-8.04472,3.75708,10.142629,14.623177,6.646382,17.189339,23.850294,28.025548,19.034194,27.304427,31.901066,35.297338,28.90191,34.523667,35.775039,37.102797,26.837254,51.286125,71.569862,86.348877,42.916718,74.159889,91.146126,103.164711,31.32906,67.542229,87.515831,100.306892,21.915321,56.704788,75.216064,87.318878,15.065174,41.938705,57.092628,67.994614,-11.38338,-10.922413,-1.444713,9.982633,15.01171,35.394966,43.128587,47.417277,32.203025,51.953092,59.050313,62.419663,44.294312,63.535802,68.775633,69.619452,51.374429,67.568659,70.294384,68.749142,14.721107,321.911721,-67.169952,293.38124
7,19.819107,-17.271096,0.085487,0.381432,-23.213196,-45.187454,-63.64563,-81.247787,-68.909969,-58.924599,-35.861206,-17.907257,-64.980869,-51.272335,-27.099953,-4.00074,-56.698093,-44.417381,-21.118698,-1.03157,-45.99781,-43.471756,-30.996666,-17.42672,24.840029,38.878306,47.451734,56.343114,25.563065,40.544765,48.795484,55.07334,19.390494,34.931035,45.640841,51.149904,11.544054,26.165749,35.986473,42.400303,3.400472,15.213326,22.03372,28.530172,26.829472,51.24321,71.564255,86.181335,42.654018,73.742523,90.528374,102.397156,31.511364,67.465439,87.314758,100.232735,22.499428,57.077866,75.612144,88.006325,15.963135,42.841873,58.144341,69.570351,-11.50756,-11.253827,-1.81293,9.750267,14.863015,34.996367,42.723937,47.068881,31.837833,51.359238,58.363649,61.608571,43.826429,62.85772,68.193697,69.052522,50.923651,67.051067,70.060906,68.887401,34.377308,304.536946,-67.247372,293.658993
8,-23.817558,17.304194,-0.404835,0.503636,0.789757,-1.220856,1.428337,5.486412,-30.757141,-14.839897,4.237061,17.507401,-36.858215,-18.270378,5.081062,24.870186,-37.929783,-26.997356,-6.284752,11.425209,-35.731831,-43.432331,-50.019951,-54.901543,-18.167836,-27.278306,-23.315041,-16.106669,-7.82001,6.056542,12.813457,18.611451,7.744798,18.885499,23.47973,28.26693,19.859674,28.045246,30.843775,35.110976,29.343796,33.598893,35.701248,39.210215,26.961994,51.576519,72.088337,86.797657,42.703228,73.847866,90.859852,103.143139,31.499233,67.331028,87.432461,100.648327,22.600422,56.888065,75.54594,88.052158,16.335468,43.13467,58.300495,69.641247,-11.896093,-11.894117,-2.524913,9.099726,14.693264,34.756652,42.484222,46.988791,31.773674,51.177568,58.10016,61.41696,43.696074,62.621772,67.801829,68.516158,50.661582,66.416026,69.222582,67.874262,10.384312,321.805047,-67.827644,294.126537
9,15.009842,-14.486647,0.414734,-0.101271,-16.345711,-32.37957,-47.918358,-62.87138,-55.326405,-40.614567,-18.341675,-2.406921,-56.628914,-38.747578,-14.546928,7.293549,-53.713589,-40.207958,-17.966423,1.043015,-48.607864,-48.237305,-38.375244,-27.907104,8.690382,18.840792,30.934301,42.488791,11.927092,29.10513,36.992078,42.347815,17.776523,32.58668,41.708019,46.063276,21.429739,34.481986,40.901929,44.428619,23.495229,34.689405,38.562206,42.45946,26.783409,51.432095,71.876965,86.580334,42.597141,73.575497,90.27483,102.2616,31.452885,67.176762,87.127934,100.215054,22.5317,56.910496,75.463886,87.891941,16.183376,43.15979,58.439884,69.914417,-11.989522,-11.65255,-2.016151,9.551801,14.546853,34.813339,42.672499,47.27735,31.600526,51.101739,58.101148,61.383368,43.594556,62.649621,67.819736,68.546168,50.744389,66.632091,69.466929,68.226425,25.274019,307.271949,-67.533045,293.978814
10,-34.961929,23.221922,0.380974,0.231935,9.608459,17.116013,22.171097,27.034149,-0.884285,16.114998,30.029297,40.032921,-8.187218,9.182854,27.412605,42.991333,-13.295231,0.004807,15.825119,29.891739,-15.796051,-11.477051,-5.299129,1.348686,-18.861293,-28.985767,-29.507249,-25.624445,-15.50769,-7.372443,-0.843449,4.521797,-2.187447,6.727954,13.911133,19.17023,9.630594,16.553495,22.020073,25.611848,19.232845,24.263836,24.471627,23.136521,26.592178,51.064625,71.552067,86.618099,42.599716,73.924541,90.657406,102.549419,31.31464,67.32233,87.224178,100.095921,22.186146,57.008114,75.384808,87.523785,15.665874,42.916832,58.136959,69.403324,-11.888869,-11.724798,-2.360533,8.896135,14.390069,34.634015,42.472613,46.986321,31.48987,50.988056,57.954058,61.2314,43.499398,62.391134,67.388348,68.061798,50.652443,66.484878,69.155336,67.898036,-9.810104,330.425868,-67.274265,294.142746
11,1.193848,-2.125079,0.520878,0.188092,10.409546,14.662514,17.910004,20.262108,-8.402538,9.704132,26.966171,40.882645,-18.403301,2.010498,20.912819,38.967934,-23.404655,-5.036716,13.590317,29.152679,-24.612808,-19.615803,-13.231373,-6.775246,-13.65067,-22.539518,-27.054523,-32.229578,-15.978413,-4.695563,5.757238,11.220482,-4.077009,9.997083,19.068157,23.921122,7.145511,20.245058,26.409231,29.157371,17.268441,27.439907,30.562255,31.451893,26.501198,50.659218,70.924644,85.999374,42.689781,73.878021,90.496445,102.122726,31.431084,67.274895,86.945801,99.568863,22.206573,56.88858,75.084915,86.953239,15.555954,42.552395,57.613792,68.56842,-11.714547,-11.692996,-2.650142,8.411456,14.728647,34.670819,42.416173,46.781865,31.621954,50.694989,57.711626,61.119817,43.504771,61.95036,67.011424,67.887168,50.634041,66.241211,68.861713,67.558594,-8.727894,328.268833,-66.865025,294.298882
12,-5.604916,2.48953,0.21143,0.559582,9.137592,13.945942,19.228306,23.550625,-5.678959,17.404919,34.220638,46.676731,-15.211887,9.519596,28.026752,45.733624,-20.224743,2.486172,20.335064,35.336666,-20.692921,-24.491043,-30.735168,-34.087887,-15.152193,-27.033528,-32.085329,-36.708397,-16.516815,-3.031389,7.000212,12.224667,-3.428506,12.335448,21.61178,26.675313,7.588879,21.295494,27.187101,29.268707,17.506489,23.854308,26.935097,28.080568,26.485748,50.538254,70.721684,85.628872,42.724056,73.654804,90.08543,101.602535,31.593647,67.243137,86.814938,99.392452,22.419147,56.886234,75.120907,87.000904,15.714226,42.537575,57.647953,68.719082,-12.124693,-12.434001,-3.349651,7.965494,13.964362,33.640081,41.396179,45.854621,31.061322,49.887602,56.850393,60.259387,43.140937,61.446291,66.492164,67.409343,50.513319,66.032247,68.649909,67.364204,-14.421272,330.735454,-66.742058,294.835555
13,-0.301037,-2.464088,-0.02758,-0.356609,8.289528,13.414192,19.047318,23.19294,-2.222672,19.189568,35.929985,48.006134,-12.030487,11.831131,30.530663,48.385162,-17.620239,5.41729,23.040047,37.663879,-19.015789,-21.275654,-23.87495,-24.048729,-15.458969,-26.935406,-31.224466,-34.373367,-14.959655,0.422435,10.424581,15.688248,-1.217348,15.698869,24.62415,30.148651,9.994181,25.157921,29.66428,31.611827,19.788167,27.819672,30.312104,32.001657,26.095161,50.131474,70.140667,84.909267,41.733971,73.889866,90.531063,101.815968,30.28862,66.791782,86.705303,99.244709,21.17094,55.926075,74.592876,87.041988,14.729462,41.598072,56.904545,68.528767,-12.686746,-12.497666,-2.939628,8.4243,13.325245,33.730175,41.7137,46.515906,30.935721,50.900309,58.050945,61.473276,43.244184,62.718782,67.549825,68.183632,50.323992,66.502538,69.445378,68.34091,-14.75338,328.215929,-66.800709,294.42351
14,-1.572304,-1.25977,0.443001,0.105717,9.38942,16.086159,23.600693,29.125099,-1.580715,21.252823,37.858887,48.515511,-11.39328,14.342079,33.360443,51.197433,-16.913795,7.940025,25.877609,41.026382,-17.942276,-19.563675,-24.619331,-26.019344,-15.92821,-27.71624,-30.807034,-29.044183,-14.176598,1.077792,12.174094,18.841039,0.304306,17.960663,27.171169,33.022638,11.357939,26.063243,32.493808,35.914225,20.77253,28.033576,30.403309,31.038598,26.062317,50.170269,69.933186,84.154186,41.879654,73.985996,90.576382,101.578846,30.342007,66.992397,86.742382,99.130611,21.178093,56.175213,74.622059,86.74902,14.645004,41.908779,56.981335,68.080273,-12.821115,-12.577139,-2.659528,9.154005,13.168399,33.875782,42.07037,46.78946,30.754546,50.859183,58.044955,61.347985,43.157548,62.430408,67.272443,67.902112,50.465833,66.551754,69.335709,68.102862,-16.350861,326.933095,-66.382885,294.506163
15,5.667343,4.559465,0.409527,0.609106,9.155273,12.762108,16.255875,19.717598,-7.596188,15.929031,32.945824,44.355583,-16.777668,8.611565,28.08712,45.456963,-22.048931,1.266861,20.688744,36.240349,-22.743874,-25.932484,-32.558384,-36.426029,-15.935064,-30.012306,-36.81541,-39.424674,-19.134415,-6.937906,5.292504,13.172474,-4.854632,10.019128,19.614895,25.770608,7.248202,19.154299,26.488704,30.432023,17.603252,22.603924,25.89732,26.17353,25.851116,49.748211,69.447899,83.715935,41.307507,73.569374,90.104485,100.979347,30.064487,67.187691,87.031288,99.404869,21.304035,56.775627,75.13092,87.058296,15.170574,42.860813,57.965469,69.000435,-13.122889,-13.11869,-3.20991,8.696187,12.601839,32.906609,41.086069,45.782002,30.483461,50.226427,57.161183,60.197636,43.095736,61.903677,66.50859,66.991787,50.580874,66.227687,68.822872,67.535005,-10.70509,331.455741,-65.99493,295.07845
16,-7.65604,-11.514538,0.177612,-0.06385,11.028957,18.515911,26.940708,33.751659,0.828781,25.496464,41.824207,53.431377,-9.162998,18.078747,35.493565,51.379566,-14.365482,11.030331,28.107777,41.42149,-15.125713,-18.508587,-25.13792,-30.014133,-17.763556,-26.187917,-25.888366,-23.35555,-10.772977,9.011238,19.001528,23.708885,4.440225,25.240172,33.318608,37.851644,16.20689,34.752206,38.262099,39.228246,25.933382,35.41312,38.761969,41.445333,25.907936,49.687614,69.082146,83.644524,41.532097,73.573494,89.979744,100.798874,30.083027,67.039032,86.789474,99.16832,21.059818,56.287766,74.797325,86.961021,14.623375,41.946831,56.990547,67.98912,-13.252194,-13.028719,-3.236586,8.489879,13.068981,33.410246,41.343321,45.745878,30.844948,50.498252,57.320437,60.29162,43.191326,62.216072,66.911511,67.46603,50.286757,66.104248,68.891662,67.624049,-18.368282,319.919653,-65.824471,294.993049
17,1.702251,7.407271,-0.161819,-0.327154,6.826973,12.124443,22.642021,31.728859,-3.838863,18.568382,35.050392,45.728302,-11.447811,13.469696,35.083237,52.011681,-15.359573,3.889961,22.944603,38.81916,-15.911465,-14.400215,-11.704559,-7.795143,-20.640075,-31.366245,-28.673804,-20.437349,-13.91033,-1.954215,6.996939,13.79498,2.253334,15.692817,22.752495,26.227685,15.279645,25.020958,29.975873,32.260762,25.020835,29.793277,29.739245,28.146517,25.940838,50.034657,69.560394,84.215813,41.265392,73.493614,90.177956,101.306648,29.806881,67.066383,87.022476,99.543343,20.917397,56.374626,75.049667,87.264519,14.718304,42.380676,57.677307,68.781509,-13.019766,-12.503964,-2.759873,8.833273,13.214156,33.552951,41.58106,46.148615,30.815123,50.487754,57.517853,60.783709,43.190955,62.392863,67.307887,68.075074,50.440762,66.498031,69.415244,68.282309,-16.708803,327.30988,-66.029062,294.648852
18,40.44548,-24.902027,-0.031757,-0.252621,-13.613319,-28.401604,-44.454689,-61.216164,-53.261261,-40.946617,-17.537842,-0.068321,-56.577015,-38.262978,-12.699051,10.08522,-55.591335,-40.624123,-15.633316,5.574532,-52.032108,-50.617619,-38.168335,-24.102974,18.028712,30.523229,42.860158,54.082431,16.466118,35.832467,45.757426,51.657184,18.004012,35.98036,47.490822,52.325014,18.167897,34.067147,43.611784,49.012722,18.014139,30.902808,38.197261,44.887177,25.956116,50.088844,69.628429,84.34164,42.153225,73.654346,90.179958,101.395283,30.677204,67.224369,86.980419,99.551754,21.524391,56.438198,75.032101,87.304401,14.831429,42.144184,57.269726,68.256054,-12.803022,-12.299509,-2.424074,8.951525,13.229964,33.629151,41.815218,46.491515,30.808516,50.515974,57.765349,61.174713,43.254805,62.420651,67.56199,68.411923,50.678934,66.655618,69.467855,68.163872,23.723087,302.407082,-66.074409,294.39546
19,-9.150467,1.181965,0.726814,0.535314,-9.524231,-18.469849,-30.144825,-43.631401,-42.920551,-27.380791,-4.409866,12.198029,-48.632641,-27.031231,-2.593918,19.325294,-49.327354,-32.777538,-9.334717,10.882645,-47.456532,-49.534893,-43.520622,-34.830837,1.526964,9.328511,22.990234,34.90158,6.693745,27.682339,37.261989,43.225535,17.585653,33.803843,44.879335,50.110583,25.574118,38.924866,47.082281,51.920117,32.293551,43.986733,49.792259,54.808245,26.056709,49.931431,69.449558,83.9744,42.50988,73.951778,89.913425,100.48502,31.198826,67.388821,86.835537,99.030819,21.861992,56.745243,74.984493,86.73563,14.799042,42.321854,57.361164,68.16267,-12.978763,-12.915531,-3.114073,8.251028,13.170684,33.460881,41.60786,46.368076,30.700452,50.204999,57.425228,60.84725,43.127599,61.839209,66.721444,67.486346,50.670721,66.241458,68.783413,67.390633,14.542694,303.582701,-65.377522,294.924429
20,-27.181664,22.113131,0.560303,-0.23002,7.252464,12.219772,21.124878,31.525383,-6.398849,13.517418,29.713669,41.311569,-13.693886,7.948608,28.484802,45.597153,-17.191772,0.780602,19.335365,35.062981,-17.606163,-16.784935,-16.846333,-16.047764,-20.025782,-30.435049,-27.225139,-18.598483,-15.497748,-5.966263,3.191076,10.068466,0.526114,13.609173,20.695527,24.222217,13.997522,24.114153,30.54021,33.77871,24.183005,29.590427,31.463564,29.878369,25.833492,49.339085,68.679028,83.93137,41.36364,72.833004,89.432087,100.642376,30.135212,66.815586,87.007542,99.590206,20.899258,56.138592,74.817982,86.680813,14.047737,41.490498,56.900539,68.058987,-12.83896,-12.587513,-3.1016,7.517619,12.874035,33.288968,41.674797,46.824164,30.351871,50.195922,57.627769,61.440734,42.694358,61.770975,66.772202,67.735077,50.09953,66.153834,68.825095,67.510243,-12.707319,325.689966,-64.885569,294.688543
21,-11.490669,-23.301641,-0.948544,-0.625099,10.016098,19.349098,22.566833,19.51149,8.492832,29.642944,47.293739,56.680527,-2.245731,24.69738,44.768028,59.999657,-12.003994,10.675735,30.810356,45.159531,-20.417233,-11.010189,2.192745,12.425194,-11.545042,-6.043142,8.26591,21.253504,0.418236,19.835035,30.511249,37.22216,15.99348,33.765372,45.167648,50.481147,28.163375,44.511117,50.991144,54.205376,37.924016,52.190769,56.103213,57.188786,25.938492,49.862251,69.369507,84.847069,43.283329,74.505959,90.970688,102.112083,31.750431,67.523232,87.105217,99.419289,21.949883,55.597572,74.354782,86.632233,14.329376,40.201721,55.199203,66.337051,-12.895771,-12.39516,-2.557208,7.956788,12.816545,33.415618,42.612169,48.899904,29.639086,49.850552,58.59651,63.894263,41.437676,61.149395,67.654863,70.10796,48.580778,64.906352,68.646451,68.337514,-24.251375,302.381162,-65.887499,294.05628
22,-25.751553,-0.005805,0.706787,-1.816944,23.325291,47.10577,62.162762,67.587032,35.735264,68.567791,84.176731,90.351849,25.514774,64.43018,80.486698,90.629826,14.543324,48.789997,64.52528,72.695789,4.461536,16.932507,19.041424,19.516525,-22.089419,-23.357711,-13.828202,-2.231845,-0.164441,21.903056,31.091518,36.26614,18.934529,43.45605,50.461202,52.579982,31.710442,52.609931,55.907032,56.489894,40.588608,55.91401,56.989826,56.307607,26.117306,48.847218,67.89402,84.670944,44.799271,73.879738,90.370903,102.970276,33.797264,65.977364,85.739365,99.392395,23.156147,53.799591,72.708664,86.03302,13.620415,37.483921,51.623211,61.900177,-11.850398,-10.931058,-1.278419,7.665326,13.005625,34.173666,44.992153,53.142713,28.96718,50.989538,63.106575,71.963498,40.517409,61.141244,71.107328,77.116385,48.063186,65.018614,70.355332,71.89409,-50.031109,302.313483,-65.208893,292.177462
23,49.345264,-3.028858,1.075344,-4.246391,3.531647,6.484337,3.865585,-4.716225,-18.407421,1.912994,22.059975,32.68261,-28.522053,-2.821083,17.207451,32.593689,-33.863525,-14.70314,3.846359,17.07653,-36.708641,-41.249428,-42.64452,-43.182793,-10.242911,-2.352629,18.063354,36.954905,5.854001,27.670051,40.657459,49.23101,20.950495,39.225838,52.07017,58.746254,32.000854,47.75993,54.940638,60.195228,41.388337,50.7363,57.268382,64.073833,26.329079,48.17894,66.091175,82.194157,42.817898,71.769161,88.023663,100.130939,32.134666,64.288616,84.051304,98.155689,21.971684,52.357349,71.490498,85.375042,12.981777,36.405544,50.550671,60.865231,-12.506187,-11.128289,-0.192353,8.434612,8.417137,31.627141,43.597211,52.762701,25.198985,49.830298,63.296395,73.519608,38.265001,61.326063,72.514929,79.995127,47.361454,66.410654,72.612124,74.555718,-0.89118,299.198252,-64.338884,287.844698
24,23.115807,17.538476,4.067802,-5.279228,-13.511581,-31.101036,-45.779858,-55.73782,-42.783222,-62.00592,-72.767487,-81.51741,-40.281544,-59.733753,-70.228157,-78.55917,-33.72139,-48.047676,-54.61916,-59.388885,-24.394112,-32.480392,-35.810108,-37.655525,18.883214,30.169152,33.87887,39.798882,16.558929,20.308969,23.467009,27.083545,7.80025,13.390824,17.230711,20.000341,-0.326845,4.943553,8.335688,12.060041,-8.405096,-7.353054,-7.070113,-5.480287,24.84066,45.934238,60.792561,73.153782,37.037201,62.134495,77.992687,90.024891,28.026695,55.505962,73.072529,85.578976,19.562817,40.957146,53.596973,61.396465,11.916447,24.433308,30.034218,30.529404,-15.49182,-16.372813,-7.648838,3.183604,0.920081,20.652734,33.23543,44.006678,17.876806,39.3,51.919191,61.869467,31.524141,53.409352,64.025235,71.556748,41.55846,60.256299,66.894839,68.453419,22.214012,316.637696,-60.281696,282.466438
25,17.885056,-6.185539,11.252689,-16.738067,-28.08403,-52.347221,-71.265793,-82.131615,-72.012577,-94.868717,-100.72958,-103.382435,-68.092632,-92.874756,-100.114517,-102.395153,-60.978241,-82.421207,-88.623161,-90.928288,-51.324692,-67.344761,-74.254532,-78.01506,-24.544986,-34.258264,-41.9825,-47.160025,4.901562,13.244228,16.35719,17.148213,20.892449,32.362218,34.204603,33.894678,32.751431,42.776919,43.285866,42.833976,41.597609,48.911575,48.550953,47.690893,13.212318,26.048412,32.038479,37.100143,38.369522,38.923416,33.55854,25.170078,35.807133,31.726112,18.094997,2.85656,29.916115,23.362427,7.537079,-6.730843,20.440521,15.676918,5.218792,-5.514679,10.425878,25.441849,42.737707,57.917811,28.974034,55.242474,70.53552,78.74604,30.833216,59.414579,73.717827,80.789978,32.929951,58.356054,70.710644,75.435168,32.943413,53.833206,63.538519,68.260079,40.144787,310.381483,-48.983288,265.657698
26,6.399422,-12.716756,-9.950867,-36.873209,-27.230301,-51.844368,-73.596554,-88.837624,-57.417526,-89.705315,-103.185253,-110.893078,-49.665184,-86.239986,-103.051643,-112.693119,-40.617256,-74.951363,-92.87859,-104.248981,-31.924438,-59.331093,-74.252872,-86.407528,-14.100645,-13.546435,-4.409535,7.196023,5.770885,22.774169,31.19921,35.655305,22.201064,40.06694,46.891719,49.400453,35.707546,50.822936,55.895794,57.891196,45.328013,59.002889,63.03939,64.682569,18.866959,41.869011,56.98185,65.625343,66.864967,81.020966,73.936386,65.513306,66.202583,79.700203,69.87236,59.115372,60.023689,71.251144,62.492523,51.313934,50.809364,59.488449,52.433281,43.428783,12.039478,15.982056,17.889465,18.951325,9.895627,17.876127,23.968299,26.033418,2.282295,12.87459,19.169427,20.770924,-4.455169,4.192421,9.914584,11.018373,-10.57482,-5.690239,-0.655295,1.098478,46.605949,297.650864,-58.872414,228.770626
27,4.905167,-0.283311,-1.61705,-23.698635,-26.93264,-52.804527,-75.559731,-89.312038,-58.593979,-89.358959,-103.739033,-113.057899,-52.046242,-87.048397,-103.995724,-115.828629,-43.731194,-76.616364,-92.996521,-104.382648,-35.450706,-62.464714,-75.501766,-85.512028,-16.219425,-14.943661,-1.461818,13.389527,7.516631,22.849628,30.343103,35.599545,24.417101,39.187367,45.273735,49.832582,37.764329,51.344047,56.018245,58.90625,47.280376,59.037469,63.001228,65.543802,9.787846,26.621647,41.877995,51.688271,46.984634,65.36705,59.393692,52.17865,49.59938,66.434097,55.864906,46.493168,47.836475,61.687546,51.334534,42.526646,42.941093,54.34536,45.95787,38.837299,-22.442755,-39.767574,-45.894265,-43.943199,-44.676238,-48.514952,-43.095674,-39.383054,-31.934596,-35.335068,-30.405903,-27.753908,-17.959119,-19.602051,-16.79111,-15.354734,-3.817163,-4.363222,-3.876382,-3.989571,51.781597,297.451889,-60.218983,205.156327
28,1.585579,-1.159981,6.706982,-38.530837,-28.018913,-54.104805,-77.40921,-91.901379,-58.185883,-89.28566,-104.222317,-114.631519,-51.415787,-86.439972,-103.962307,-116.474247,-43.301353,-76.527729,-93.75658,-105.632973,-35.149384,-62.260551,-76.077404,-86.622276,-15.56203,-14.547162,-1.892465,12.384539,8.921144,23.708391,31.394218,36.692465,26.096218,40.315609,46.718571,50.995404,39.32186,52.410045,57.044043,59.560125,48.399355,59.776313,63.536666,65.860396,27.78265,45.637035,51.503048,44.010029,33.003273,36.537495,43.454647,44.848652,19.630966,22.475281,31.668949,33.986549,7.656155,12.333183,21.103878,22.536736,-3.384991,0.791588,7.89093,10.216827,-14.541666,-32.525054,-46.922718,-51.664964,-63.108952,-89.977328,-81.918745,-70.215807,-64.362454,-90.64272,-81.616662,-69.193807,-60.834283,-81.770513,-73.332412,-61.431872,-53.364521,-68.921858,-63.689251,-54.831741,53.836927,297.11521,-53.04225,167.448793
29,-0.307274,-0.060207,-5.90332,-52.762084,-27.944756,-53.580666,-76.398525,-90.788212,-58.412819,-88.815651,-103.28001,-113.507309,-51.778221,-86.184826,-103.089066,-115.293446,-43.81588,-76.302166,-92.919445,-104.795494,-35.788994,-62.43988,-76.222172,-86.789246,-15.69325,-14.808613,-2.223015,12.358048,9.34716,24.15991,31.826162,37.201659,26.403982,40.44442,46.377523,50.400192,39.636601,52.50372,56.791916,59.13837,48.919973,60.151138,63.557353,65.823469,24.979248,35.203342,40.710411,40.684891,14.076176,27.926731,39.533443,42.178974,4.930115,23.331757,35.991726,37.574158,-0.358887,21.803513,30.634289,28.82246,-2.213917,16.456432,24.203281,23.294106,-26.908823,-49.394216,-64.081459,-70.815959,-71.03011,-97.389415,-91.331792,-83.543645,-65.202538,-90.62475,-81.509587,-71.115078,-56.735661,-77.212221,-67.81563,-55.888075,-46.733484,-65.135014,-59.541384,-51.068023,54.472733,298.202342,-58.002491,115.834047
30,-0.110664,-0.385508,5.055187,-23.74898,-27.991676,-52.950668,-75.586452,-90.164394,-57.918777,-88.372364,-103.02269,-113.288326,-51.332932,-85.590248,-102.378559,-114.378548,-43.369446,-75.762863,-92.380142,-104.146557,-35.421066,-61.893539,-75.531349,-85.915146,-15.796249,-14.759954,-1.804903,13.156605,9.750884,24.414816,32.256069,37.942479,26.771212,41.165665,47.261048,51.372576,39.848097,53.123509,57.552248,60.015534,48.799992,60.252162,63.732538,65.900781,25.00367,34.375809,39.566391,39.630776,9.546135,18.185223,26.698666,28.284233,0.250363,12.401848,22.119141,23.333451,-5.612869,10.205864,16.928799,15.394856,-8.215725,5.004696,10.986752,10.147145,-30.122604,-54.864074,-70.752732,-78.643657,-74.213201,-102.432639,-102.290029,-99.641848,-67.659722,-95.494721,-93.216791,-88.311956,-58.735195,-82.38974,-80.150713,-74.537449,-48.280949,-69.014631,-68.482559,-65.146919,55.740681,299.054497,-51.568692,93.32273
31,0.08709,0.130108,5.055187,-23.74898,-27.968102,-52.499428,-74.7785,-89.367371,-57.918205,-88.428783,-102.788544,-112.793598,-51.389236,-85.540009,-102.328434,-114.444466,-43.467865,-75.530891,-92.337227,-104.41864,-35.411568,-61.823959,-75.62645,-86.2397,-15.572466,-14.845849,-2.149161,12.576398,9.514195,24.038694,31.934781,37.909751,26.29808,40.477395,46.713816,51.198563,39.307657,52.484454,57.155255,59.930998,48.502417,60.072221,63.689375,66.116043,25.028092,33.548275,38.422371,38.576661,5.016095,8.443715,13.863888,14.389493,-4.429389,1.47194,8.246556,9.092743,-10.866851,-1.391784,3.223309,1.967251,-14.217533,-6.44704,-2.229778,-2.999816,-33.336386,-60.333931,-77.424006,-86.471355,-77.396293,-107.475863,-113.248267,-115.74005,-70.116907,-100.364692,-104.923996,-105.508835,-60.734728,-87.567258,-92.485796,-93.186824,-49.828414,-72.894249,-77.423734,-79.225815,57.694674,300.706738,-44.646601,71.095883
32,-0.873184,-0.588728,5.055188,-23.74898,-27.962265,-52.977333,-75.367126,-90.450325,-57.549019,-87.770233,-102.258224,-112.245712,-50.463066,-84.826469,-101.510582,-113.259315,-41.923485,-74.665318,-91.308403,-103.108749,-33.468018,-60.222015,-73.958187,-84.428558,-15.567032,-14.088418,-0.739214,13.763858,10.832381,25.885032,33.525842,38.820385,27.793552,42.095688,48.143276,52.271538,40.647703,53.829625,58.276396,60.845027,49.275964,60.748141,64.582101,67.163515,25.052513,32.720741,37.278351,37.522545,0.486053,-1.297795,1.02911,0.494751,-9.109143,-9.45797,-5.62603,-5.147965,-16.120835,-12.989434,-10.482182,-11.460354,-20.219342,-17.898777,-15.446308,-16.146778,-36.550167,-65.803789,-84.09528,-94.299054,-80.579384,-112.519087,-124.206504,-131.838253,-72.574092,-105.234663,-116.631201,-122.705713,-62.734262,-92.744777,-104.820879,-111.836199,-51.375879,-76.773867,-86.36491,-93.304712,58.870697,301.511762,-37.542206,48.740656
33,0.522766,-0.155735,5.055187,-23.74898,-27.789116,-52.606201,-74.927502,-89.231243,-57.521782,-87.468967,-101.887436,-111.95715,-50.550156,-84.556732,-101.092186,-112.978477,-42.092857,-74.624519,-91.040726,-102.822533,-33.762016,-60.536728,-74.042759,-84.475708,-15.366837,-13.911565,-0.087747,14.487202,11.614758,26.025576,33.439824,38.622721,28.789956,42.447665,48.51452,52.437894,41.42125,54.261878,58.790282,61.271291,49.722296,61.331682,64.832252,66.962641,25.076935,31.893207,36.134331,36.468429,-4.043987,-11.039303,-11.805668,-13.39999,-13.788895,-20.387878,-19.498615,-19.388672,-21.374817,-24.587082,-24.187672,-24.887959,-26.22115,-29.350514,-28.662838,-29.293739,-39.763949,-71.273647,-90.766553,-102.126752,-83.762476,-117.562311,-135.164742,-147.936456,-75.031276,-110.104634,-128.338406,-139.902591,-64.733796,-97.922296,-117.155963,-130.485573,-52.923345,-80.653485,-95.306086,-107.383608,61.529932,303.328151,-30.35055,26.963799
34,0.020943,-0.531424,5.055187,-23.74898,-27.677879,-52.374115,-74.409828,-88.476734,-57.088165,-87.54261,-102.245064,-112.442207,-49.909058,-84.424438,-101.305847,-113.230476,-41.210289,-73.991947,-90.65094,-102.569275,-32.593346,-59.306717,-73.028355,-83.607845,-15.19585,-13.377671,0.715502,15.65021,12.46148,26.688281,34.087771,39.615236,29.738443,43.125191,49.048043,53.082136,42.253399,55.151763,59.887464,62.604729,50.243099,62.017544,65.683172,68.046237,25.101357,31.065674,34.990311,35.414314,-8.574028,-20.780811,-24.640446,-27.294731,-18.468647,-31.317787,-33.371201,-33.629379,-26.628799,-36.184731,-37.893162,-38.315563,-32.222958,-40.80225,-41.879368,-42.440701,-42.977731,-76.743505,-97.437828,-109.954451,-86.945568,-122.605536,-146.122979,-164.034659,-77.488462,-114.974605,-140.045612,-157.09947,-66.733331,-103.099815,-129.491046,-149.134948,-54.47081,-84.533103,-104.247262,-121.462505,64.407291,303.204881,-22.438946,3.622974
35,0.134811,-0.111212,-0.225942,-1.031782,-28.261299,-52.380753,-73.871956,-87.498207,-57.6931,-87.509251,-101.776829,-111.904049,-50.55851,-84.059486,-100.567131,-112.478313,-41.711082,-73.504429,-89.649181,-101.329994,-32.85656,-58.541565,-72.007484,-82.546692,-14.681346,-12.515759,1.913275,16.780304,12.860079,27.09818,34.721392,40.530994,29.810444,43.290126,49.600216,53.995486,42.148855,55.014986,60.089449,63.035932,50.163441,61.986669,65.625374,67.895504,23.750441,29.29005,33.355447,33.8041,-9.95552,-22.318021,-26.22124,-28.871435,-19.310661,-32.31904,-34.483582,-34.772506,-26.840488,-36.58313,-38.543301,-39.202466,-31.791823,-40.406764,-41.717076,-42.60259,-42.783503,-76.296035,-96.945238,-109.665592,-85.737394,-120.991687,-144.206958,-161.719849,-76.316044,-113.678217,-138.459733,-155.01263,-65.666713,-102.027903,-128.181372,-147.46898,-53.631057,-83.71101,-103.267044,-120.249278,66.363173,303.559082,-20.843818,3.056604
36,0.950775,0.368341,-0.225943,-1.031783,-28.43605,-53.329239,-75.296345,-89.68277,-57.407799,-87.345886,-101.600704,-111.687355,-50.350113,-83.916092,-100.364799,-112.215328,-41.660614,-73.544712,-89.815121,-101.445179,-33.1073,-58.972664,-72.499065,-82.986774,-15.014242,-12.987223,1.375367,16.053687,13.218911,28.227904,35.507475,40.911624,30.166311,43.544291,49.073238,53.144689,42.484654,55.022149,59.681156,62.609113,50.353756,61.762886,65.344471,67.900074,22.399527,27.514428,31.720583,32.193887,-11.337011,-23.85523,-27.802033,-30.448138,-20.152675,-33.320292,-35.595962,-35.915632,-27.052176,-36.981528,-39.193439,-40.089367,-31.360687,-40.011276,-41.554783,-42.764478,-42.589275,-75.848566,-96.452649,-109.376734,-84.529219,-119.377838,-142.290936,-159.405039,-75.143626,-112.381829,-136.873854,-152.925789,-64.600094,-100.955991,-126.871698,-145.803011,-52.791303,-82.888917,-102.286826,-119.036051,68.699169,304.366283,-19.68454,2.463681
37,0.057793,-0.667522,-0.225942,-1.031783,-27.762337,-52.181625,-73.636379,-87.679253,-56.885834,-86.87891,-101.453476,-111.951828,-49.544907,-83.452549,-100.028,-112.272205,-40.563812,-72.90041,-89.543209,-101.988029,-31.702652,-58.193207,-72.180233,-83.638916,-14.819049,-12.531999,2.03165,16.204111,13.912306,28.812927,36.036367,41.450149,30.876565,43.881819,49.573539,53.628689,43.10222,55.591241,60.661567,63.739949,51.064565,62.958435,66.78165,69.295448,21.048612,25.738804,30.085719,30.583672,-12.718503,-25.39244,-29.382827,-32.024843,-20.99469,-34.321545,-36.708343,-37.058758,-27.263866,-37.379928,-39.843579,-40.97627,-30.929553,-39.61579,-41.392491,-42.926367,-42.395047,-75.401096,-95.960059,-109.087875,-83.321045,-117.763989,-140.374914,-157.090228,-73.971208,-111.08544,-135.287975,-150.838948,-63.533476,-99.884078,-125.562023,-144.137043,-51.951549,-82.066824,-101.306608,-117.822825,70.261059,303.591177,-18.406385,1.324314
38,0.119705,0.184634,-0.225943,-1.031783,-28.221703,-52.580452,-73.808155,-88.052788,-57.076721,-86.502743,-100.649986,-110.854225,-49.641266,-82.709427,-98.753529,-110.596161,-40.713272,-72.310867,-88.454819,-100.472031,-31.881294,-57.528648,-70.957432,-81.839275,-14.70654,-12.030524,2.402709,16.274321,13.957754,29.027695,36.397051,42.07284,30.663155,43.980372,49.688457,53.972268,42.835705,55.479411,60.615316,63.931004,50.776438,62.916383,66.906386,69.714239,19.697697,23.963181,28.450856,28.973459,-14.099994,-26.929649,-30.96362,-33.601546,-21.836703,-35.322798,-37.820724,-38.201884,-27.475554,-37.778326,-40.493717,-41.863171,-30.498417,-39.220303,-41.230199,-43.088255,-42.200819,-74.953626,-95.467469,-108.799016,-82.11287,-116.150141,-138.458892,-154.775418,-72.79879,-109.789052,-133.702096,-148.752107,-62.466858,-98.812165,-124.252349,-142.471074,-51.111795,-81.244731,-100.32639,-116.609598,71.14397,303.729914,-17.869121,0.246635
39,0.132523,0.000432,-0.225942,-1.031782,-28.142853,-52.410278,-73.451843,-87.52882,-56.947975,-85.885048,-99.857426,-110.023441,-49.295311,-82.211494,-98.426228,-110.391541,-40.079269,-71.663074,-87.807083,-99.691772,-30.952606,-57.010345,-70.651588,-81.630821,-14.701909,-11.969576,2.541215,16.443517,14.052171,29.479955,36.854622,42.376035,30.842787,44.134501,50.04451,54.339004,43.082645,55.637492,60.784327,64.113168,51.095378,62.970291,67.042361,69.961797,18.346782,22.187558,26.815991,27.363245,-15.481486,-28.46686,-32.544414,-35.17825,-22.678718,-36.324051,-38.933105,-39.345011,-27.687243,-38.176726,-41.143856,-42.750074,-30.067283,-38.824817,-41.067907,-43.250145,-42.006592,-74.506158,-94.97488,-108.510158,-80.904696,-114.536293,-136.54287,-152.460609,-71.626373,-108.492665,-132.116217,-146.665268,-61.40024,-97.740254,-122.942675,-140.805106,-50.272043,-80.422638,-99.346172,-115.396372,72.017183,302.956089,-17.354373,-1.559405
40,1.381187,0.535747,-0.225943,-1.031783,-27.313957,-51.422195,-72.779045,-85.933456,-57.060013,-86.461029,-100.501671,-110.442181,-49.776878,-83.216858,-99.543171,-111.254025,-40.707207,-72.763538,-88.99641,-100.768833,-31.547012,-57.87323,-71.426182,-82.062664,-15.10693,-13.272263,0.46671,15.344977,13.402433,27.791946,35.048731,40.781331,30.191999,42.949264,49.077313,53.697479,42.472366,54.772554,60.064996,63.642074,50.713884,62.281836,66.0701,69.009852,16.995868,20.411935,25.181128,25.753031,-16.862978,-30.004069,-34.125207,-36.754953,-23.520732,-37.325303,-40.045485,-40.488137,-27.898931,-38.575124,-41.793995,-43.636975,-29.636147,-38.429329,-40.905614,-43.412033,-41.812364,-74.058688,-94.48229,-108.221299,-79.696522,-112.922444,-134.626848,-150.145799,-70.453955,-107.196276,-130.530338,-144.578427,-60.333622,-96.668341,-121.633001,-139.139138,-49.432289,-79.600545,-98.365954,-114.183145,74.232187,302.826367,-16.746499,-3.256657
41,1.074371,-0.178767,-0.225942,-1.031783,-27.053604,-50.829048,-71.762867,-85.628014,-56.633263,-85.765057,-100.113258,-110.806046,-49.288445,-82.527122,-99.186687,-111.651421,-40.258026,-72.334042,-88.793736,-100.778103,-31.121178,-57.307091,-71.074047,-82.078342,-14.845602,-12.365705,2.24858,16.162244,14.141091,29.041281,36.119545,41.748342,30.665749,43.357867,49.39823,54.100153,42.563756,54.651708,60.076111,63.937241,50.348816,61.790056,65.758693,68.909137,15.644952,18.636312,23.546264,24.142817,-18.24447,-31.541279,-35.706001,-38.331658,-24.362746,-38.326556,-41.157866,-41.631263,-28.11062,-38.973524,-42.444134,-44.523878,-29.205013,-38.033843,-40.743322,-43.573922,-41.618136,-73.611218,-93.989701,-107.93244,-78.488347,-111.308595,-132.710826,-147.830988,-69.281538,-105.899888,-128.944459,-142.491586,-59.267004,-95.596429,-120.323326,-137.473169,-48.592535,-78.778452,-97.385736,-112.969918,76.161575,301.640651,-16.117425,-5.295388
42,0.999756,0.726,-0.225943,-1.031783,-27.631073,-51.603355,-72.397099,-85.503387,-56.72493,-85.835381,-100.043449,-110.33432,-49.079475,-82.234726,-98.656311,-110.769882,-39.858856,-71.631374,-87.826138,-99.736462,-30.553894,-56.625366,-70.183754,-80.971298,-15.145524,-12.853781,1.868691,16.715157,13.602196,28.464779,36.03118,42.008929,30.523537,43.557135,49.868645,54.681225,42.750181,55.247847,60.638658,64.386784,50.721233,62.41108,66.466167,69.505584,14.294038,16.860689,21.9114,22.532604,-19.625961,-33.078488,-37.286793,-39.908361,-25.20476,-39.327808,-42.270247,-42.774389,-28.322308,-39.371922,-43.094273,-45.41078,-28.773877,-37.638356,-40.58103,-43.73581,-41.423908,-73.163748,-93.497111,-107.643581,-77.280172,-109.694746,-130.794804,-145.516178,-68.10912,-104.603499,-127.35858,-140.404745,-58.200385,-94.524516,-119.013652,-135.8072,-47.752781,-77.956359,-96.405518,-111.756691,78.068419,301.263371,-15.43628,-7.43045
43,0.686531,0.04903,-0.225942,-1.031782,-27.66758,-51.523361,-72.680511,-86.014423,-56.20903,-85.644035,-100.152626,-110.634499,-48.537827,-81.989994,-98.581238,-110.85886,-39.466667,-71.341724,-87.55228,-99.589462,-30.481911,-56.508636,-69.976158,-80.738354,-15.164543,-13.199398,1.195426,16.553495,13.487031,28.182024,35.713289,41.577726,30.65556,43.801975,50.163318,54.910442,42.907768,55.577223,60.902826,64.480089,50.752664,62.751016,66.52304,69.255187,12.943123,15.085065,20.276536,20.922389,-21.007453,-34.615698,-38.867587,-41.485065,-26.046774,-40.329061,-43.382628,-43.917516,-28.533997,-39.770322,-43.744412,-46.297682,-28.342742,-37.24287,-40.418738,-43.8977,-41.229681,-72.71628,-93.004522,-107.354723,-76.071999,-108.080898,-128.878783,-143.201369,-66.936703,-103.307112,-125.772702,-138.317906,-57.133768,-93.452604,-117.703978,-134.141233,-46.913028,-77.134266,-95.425301,-110.543466,79.460707,300.830285,-14.956465,-8.944349
44,-0.444717,-0.305109,-0.225943,-1.031783,-27.860184,-51.914864,-73.273544,-86.299725,-56.002121,-85.490456,-99.902744,-110.171127,-47.830353,-81.774273,-98.552971,-110.855312,-38.381538,-70.63345,-87.038898,-99.283047,-29.23645,-55.902443,-69.537964,-80.421638,-15.025666,-12.747385,1.853994,17.635485,14.204756,29.128102,36.776446,42.532572,31.490611,44.765344,51.118782,55.718076,43.642721,56.491315,61.773383,65.111055,51.297117,63.320601,67.092502,69.791304,11.592208,13.309443,18.641673,19.312176,-22.388944,-36.152907,-40.44838,-43.061768,-26.888788,-41.330313,-44.495008,-45.060642,-28.745685,-40.16872,-44.39455,-47.184584,-27.911607,-36.847383,-40.256445,-44.059588,-41.035453,-72.26881,-92.511932,-107.065864,-74.863824,-106.467049,-126.962761,-140.886558,-65.764285,-102.010724,-124.186822,-136.231065,-56.06715,-92.380692,-116.394304,-132.475264,-46.073274,-76.312173,-94.445083,-109.330239,79.687214,299.781454,-14.511184,-10.719854
45,1.115685,0.480171,-0.225942,-1.031783,-27.711067,-51.695366,-73.110809,-86.081657,-56.091385,-85.477982,-99.794083,-110.136395,-48.446159,-82.214355,-98.888969,-111.388035,-39.345703,-71.285934,-87.781734,-100.277882,-30.518188,-56.765556,-70.471802,-81.369896,-15.274458,-13.366309,0.900259,16.86237,14.240077,29.137302,36.051187,41.032531,31.453931,44.47382,50.159489,54.279415,43.4529,56.279881,61.468892,64.699426,51.015967,63.119542,66.755098,69.321754,10.241293,11.533819,17.006808,17.701962,-23.770436,-37.690117,-42.029174,-44.638473,-27.730803,-42.331567,-45.60739,-46.203768,-28.957374,-40.567119,-45.04469,-48.071486,-27.480472,-36.451896,-40.094153,-44.221477,-40.841225,-71.82134,-92.019343,-106.777005,-73.655649,-104.8532,-125.046739,-138.571748,-64.591867,-100.714335,-122.600943,-134.144224,-55.000531,-91.308779,-115.084629,-130.809295,-45.233521,-75.49008,-93.464864,-108.117012,81.102219,299.440931,-14.437806,-12.57233
46,-0.243073,-0.339257,-0.225943,-1.031783,-27.823334,-51.758308,-72.496605,-84.966946,-56.345329,-85.626354,-100.06588,-110.506897,-48.883095,-82.286453,-99.179649,-111.782455,-39.780922,-71.409016,-87.932396,-100.471287,-30.672112,-56.612206,-70.44136,-81.728439,-15.049625,-12.835194,1.657813,17.452889,14.066991,28.762045,36.011482,41.235567,31.298752,44.466163,50.446999,54.540557,43.529347,56.467355,61.671186,64.661573,51.459027,63.726981,67.500425,69.785067,8.890379,9.758196,15.371945,16.091748,-25.151927,-39.227326,-43.609967,-46.215176,-28.572816,-43.332819,-46.71977,-47.346894,-29.169063,-40.965518,-45.694828,-48.958388,-27.049337,-36.056409,-39.93186,-44.383365,-40.646997,-71.37387,-91.526753,-106.488146,-72.447474,-103.239352,-123.130717,-136.256938,-63.419449,-99.417947,-121.015064,-132.057383,-53.933913,-90.236866,-113.774955,-129.143327,-44.393767,-74.667987,-92.484646,-106.903785,81.353016,298.406535,-14.169879,-14.299253
47,0.131836,0.635782,-0.225942,-1.031782,-27.231102,-50.715866,-71.613693,-84.798603,-56.440201,-85.483131,-99.964371,-110.463581,-49.176979,-82.386646,-99.173012,-111.801224,-40.218773,-71.762066,-88.206768,-100.567532,-31.159286,-56.968689,-70.778618,-82.050533,-15.461933,-13.868463,0.201492,15.832744,13.920148,27.943729,35.209653,40.911933,30.975303,43.454506,49.406813,53.814064,43.084436,55.334544,60.448899,63.559082,50.947054,63.041922,66.926023,69.397521,7.539464,7.982573,13.737081,14.481534,-26.533419,-40.764536,-45.190761,-47.79188,-29.414831,-44.334072,-47.832151,-48.490021,-29.380752,-41.363917,-46.344967,-49.84529,-26.618202,-35.660923,-39.769569,-44.545254,-40.45277,-70.926402,-91.034164,-106.199288,-71.239301,-101.625504,-121.214696,-133.942128,-62.247032,-98.121559,-119.429186,-129.970543,-52.867295,-89.164955,-112.465281,-127.477359,-43.554014,-73.845895,-91.504429,-105.690559,81.862192,298.743183,-14.01848,-15.63017
48,-0.187912,0.104049,-0.225943,-1.031783,-27.308006,-50.829048,-71.770878,-85.416183,-55.797844,-84.92712,-99.456768,-110.046444,-48.392143,-81.597633,-98.476353,-111.377449,-39.544601,-71.191349,-87.776814,-100.334072,-30.697746,-56.426811,-70.453491,-82.073021,-15.367393,-13.161853,1.246432,16.284942,13.876059,28.680967,36.0615,41.456633,30.911145,44.137712,50.178941,54.421626,43.016695,55.712024,61.077826,64.334296,50.855231,63.257307,67.512837,70.229176,6.188549,6.20695,12.102217,12.871321,-27.914911,-42.301745,-46.771554,-49.368583,-30.256845,-45.335324,-48.944531,-49.633147,-29.59244,-41.762316,-46.995106,-50.732192,-26.187067,-35.265436,-39.607276,-44.707143,-40.258542,-70.478932,-90.541574,-105.91043,-70.031126,-100.011655,-119.298674,-131.627318,-61.074614,-96.825171,-117.843307,-127.883703,-51.800677,-88.093042,-111.155607,-125.81139,-42.71426,-73.023801,-90.524211,-104.477332,81.926966,298.727143,-13.991738,-16.782042
49,0.419197,0.163886,-0.225943,-1.031783,-28.110924,-51.380081,-72.096806,-86.636467,-56.481056,-85.823936,-100.627556,-111.654739,-48.536568,-81.911144,-98.894749,-111.863136,-39.348793,-71.326103,-88.031502,-100.378017,-30.180359,-56.393051,-70.472832,-81.718712,-15.880847,-13.937932,0.524508,15.09001,14.860792,29.096485,36.42206,41.892282,32.149549,44.644498,50.750502,55.061793,44.044531,56.048811,61.378613,64.789767,51.444824,63.408658,67.585455,70.421281,4.837635,4.431327,10.467354,11.261107,-29.296402,-43.838954,-48.352347,-50.945287,-31.098858,-46.336576,-50.056912,-50.776272,-29.804128,-42.160714,-47.645244,-51.619094,-25.755931,-34.869948,-39.444983,-44.869031,-40.064314,-70.031462,-90.048984,-105.621571,-68.822951,-98.397806,-117.382652,-129.312508,-59.902196,-95.528783,-116.257427,-125.796862,-50.734059,-87.021129,-109.845933,-124.145422,-41.874506,-72.201708,-89.543993,-103.264106,82.379665,298.762958,-14.184178,-17.941895
50,0.157356,0.378283,-0.225942,-1.031783,-27.951164,-51.324005,-71.983738,-87.186413,-56.579819,-85.992565,-100.713615,-111.930141,-48.797722,-82.164745,-99.113216,-112.245369,-39.8172,-71.66296,-88.533154,-101.210575,-30.76252,-56.799889,-70.848427,-82.171783,-15.53591,-13.404779,0.880005,14.668316,14.906982,28.885361,36.058906,41.591311,31.735327,44.530445,50.87635,55.54783,43.401771,55.77995,61.498409,65.319154,50.892961,62.844074,66.901384,69.800196,3.48672,2.655704,8.83249,9.650893,-30.677894,-45.376164,-49.933141,-52.521991,-31.940873,-47.337829,-51.169293,-51.919399,-30.015817,-42.559114,-48.295383,-52.505996,-25.324796,-34.474462,-39.282691,-45.03092,-39.870086,-69.583993,-89.556395,-105.332712,-67.614777,-96.783957,-115.466629,-126.997697,-58.729778,-94.232394,-114.671548,-123.710021,-49.66744,-85.949217,-108.536258,-122.479453,-41.034752,-71.379615,-88.563775,-102.050879,82.592468,299.081343,-14.354674,-19.033576
51,0.023689,0.388163,-0.225943,-1.031782,-27.935028,-51.494865,-72.520981,-87.679482,-56.907578,-86.331882,-101.01265,-112.099857,-49.135323,-82.410793,-99.445324,-112.70977,-40.060501,-71.60059,-88.52932,-101.408215,-30.819168,-56.635895,-70.72403,-82.262535,-15.615568,-13.965658,0.147954,14.465713,14.545927,28.519737,35.664568,41.332577,31.295232,43.963329,50.393276,55.377275,43.011447,55.335038,61.253445,65.342372,50.569018,62.569346,66.836176,69.959512,2.135805,0.880081,7.197626,8.04068,-32.059385,-46.913373,-51.513934,-54.098694,-32.782886,-48.339081,-52.281673,-53.062525,-30.227505,-42.957512,-48.945522,-53.392898,-24.893661,-34.078975,-39.120399,-45.192808,-39.675859,-69.136524,-89.063806,-105.043854,-66.406603,-95.170109,-113.550608,-124.682888,-57.557361,-92.936007,-113.08567,-121.623181,-48.600823,-84.877305,-107.226585,-120.813485,-40.194999,-70.557523,-87.583558,-100.837653,82.787104,299.47105,-14.409671,-20.063814
52,-0.184937,0.637203,-0.225942,-1.031783,-27.617798,-51.462593,-72.984924,-88.239784,-56.485863,-86.635036,-101.303616,-111.988678,-48.500977,-82.712116,-99.588203,-112.514191,-39.289513,-71.812763,-88.662071,-101.250916,-30.167885,-56.76487,-70.92659,-82.491531,-16.095307,-14.429589,-0.189512,14.443915,13.811035,28.426864,36.047853,42.158982,30.654448,43.606227,50.195181,55.344733,42.511454,54.690734,60.70331,64.843614,50.130652,62.07738,66.655741,70.037997,0.78489,-0.895542,5.562762,6.430465,-33.440877,-48.450583,-53.094728,-55.675398,-33.624901,-49.340334,-53.394055,-54.205652,-30.439194,-43.355912,-49.595661,-54.2798,-24.462526,-33.683489,-38.958107,-45.354698,-39.481631,-68.689054,-88.571216,-104.754995,-65.198428,-93.55626,-111.634586,-122.368078,-56.384943,-91.639618,-111.499791,-119.53634,-47.534205,-83.805392,-105.91691,-119.147517,-39.355246,-69.735429,-86.603339,-99.624426,82.683134,300.149564,-14.554646,-21.054286
53,-0.513268,0.355188,-0.225943,-1.031783,-27.100983,-51.153259,-72.695503,-87.377758,-56.580734,-87.103386,-101.997414,-112.609234,-48.451767,-83.069687,-100.360565,-113.140583,-38.945389,-72.18401,-89.487133,-102.062645,-29.470367,-56.90403,-71.283703,-82.817459,-16.262156,-14.57742,-0.491348,14.235384,13.907675,28.679979,36.596443,43.15866,30.83056,43.514898,50.194193,55.647804,42.764939,54.758598,60.748573,65.148352,50.343135,62.409227,67.168023,71.035574,-0.566025,-2.671165,3.927898,4.820251,-34.822369,-49.987793,-54.675522,-57.252102,-34.466915,-50.341587,-54.506435,-55.348778,-30.650883,-43.754311,-50.2458,-55.166702,-24.031391,-33.288002,-38.795815,-45.516586,-39.287403,-68.241584,-88.078626,-104.466136,-63.990254,-91.942411,-109.718564,-120.053268,-55.212525,-90.34323,-109.913912,-117.4495,-46.467586,-82.73348,-104.607236,-117.481548,-38.515492,-68.913336,-85.623121,-98.411199,82.303619,300.551976,-14.646835,-22.038846
54,-0.345383,0.228847,2.248249,9.82341,-27.406769,-51.624985,-72.915058,-88.064404,-57.300911,-87.336159,-101.840916,-112.253208,-49.111519,-83.126221,-100.076008,-112.769566,-39.654465,-72.331009,-89.316387,-101.817055,-30.212975,-56.926804,-71.011963,-82.38842,-16.402577,-14.471024,-0.175371,13.855187,13.854199,28.781805,36.576436,43.143901,30.686805,43.630433,50.220622,55.751298,42.637424,54.803799,60.858119,65.366454,50.294723,62.400891,67.033715,70.772456,0.206337,-2.50185,5.027103,10.439587,-43.563423,-55.285721,-58.790131,-61.634502,-43.070927,-53.976803,-58.553524,-62.485313,-38.099785,-48.36256,-53.135662,-58.288078,-28.363495,-37.909126,-42.798042,-47.751217,-33.981283,-62.050612,-85.760084,-103.853757,-57.627059,-86.424024,-105.450191,-119.594462,-52.152607,-87.959201,-109.045886,-123.130569,-47.375194,-84.194433,-106.568923,-121.387416,-44.640546,-74.936965,-91.728168,-103.749986,82.092247,300.802636,-12.264576,-12.193622
55,0.120163,0.445838,-3.52787,2.489962,-27.083359,-51.246071,-72.920208,-88.668594,-56.886406,-87.254677,-102.053719,-112.698212,-49.038849,-83.362942,-100.357189,-113.15649,-39.922714,-72.696133,-89.36554,-101.495819,-30.984535,-57.960548,-72.022362,-83.395672,-16.575416,-14.780208,-0.862777,13.364271,13.497035,28.36252,36.109233,42.193748,30.585905,43.877743,50.287127,55.05463,42.62032,55.216848,61.12593,65.157985,50.225068,62.358345,66.981722,70.586649,-2.165794,-6.492863,0.018196,5.758209,-48.996277,-55.860443,-57.690754,-59.53228,-47.000256,-52.903347,-56.311455,-59.316959,-38.164272,-44.985809,-50.388851,-55.803509,-24.25787,-31.234474,-35.691032,-41.259956,-30.64676,-56.484831,-79.004558,-93.89076,-50.42869,-83.262743,-103.023029,-117.155691,-45.426135,-87.185098,-110.525148,-127.080897,-42.722949,-85.208189,-108.911301,-125.91616,-43.41656,-78.640508,-96.241846,-109.516054,82.301731,301.259003,-15.703125,-9.693132
56,0.014076,-0.150424,-4.947567,-1.171282,-27.040443,-51.309814,-73.142052,-88.510895,-56.942596,-87.539177,-102.33593,-112.836399,-49.170456,-83.736534,-101.039715,-113.82391,-39.883232,-72.762508,-89.733524,-102.015209,-30.54142,-57.224579,-71.43425,-83.031063,-16.260242,-14.148748,-0.078917,14.12022,13.556871,28.621378,36.257742,42.182756,30.778381,43.962835,50.584332,55.487253,42.897949,55.348623,61.498594,65.669155,50.51017,62.548042,67.271578,70.839023,-14.006596,-27.845707,-33.74136,-36.067142,-52.187576,-57.106819,-57.918434,-58.546829,-46.104527,-51.818047,-53.476696,-54.358578,-33.309174,-41.310711,-44.998341,-48.099518,-16.322651,-25.498524,-29.371548,-33.753891,-23.010581,-43.332055,-61.23952,-73.842872,-44.026531,-79.825776,-99.482075,-114.679747,-41.458393,-82.943709,-106.317691,-124.421461,-41.480006,-81.977809,-104.549715,-121.600856,-44.671792,-77.221576,-94.333665,-108.788263,82.333088,301.11727,-20.633411,-10.855722
57,0.29068,-0.132949,-6.888542,1.265513,-27.44545,-51.90033,-73.716888,-88.672714,-57.482758,-87.765541,-102.500954,-113.216286,-49.60144,-83.648643,-100.868168,-113.900585,-40.242004,-72.679195,-89.725628,-102.542725,-30.728188,-56.977043,-71.243877,-83.184929,-16.417335,-14.422303,-0.383161,13.619671,13.871489,28.828612,36.529506,42.500462,31.244041,44.293324,51.089389,56.147921,43.370834,55.762969,62.076331,66.366935,51.031158,62.95226,67.691296,71.359888,-14.978542,-28.420086,-33.138657,-32.850552,-49.753933,-51.980152,-52.175903,-52.047157,-43.060055,-45.540619,-47.420998,-48.397808,-30.388527,-35.508614,-38.172398,-40.645752,-14.115944,-20.588493,-23.983612,-28.230686,-18.58604,-37.496147,-54.669029,-67.358893,-44.788624,-80.095935,-100.650053,-116.23842,-44.084298,-86.245565,-109.937192,-128.228281,-45.429932,-85.227486,-108.152666,-125.23598,-48.1321,-78.519014,-96.249719,-110.948663,82.672033,301.054362,-27.473688,-9.520169
58,-0.686188,0.336169,-1.056519,-3.686561,-27.584381,-52.227516,-73.927975,-89.622345,-57.79026,-88.096447,-102.601032,-113.027229,-50.031281,-83.935032,-100.92802,-113.880386,-40.831718,-73.02721,-89.99897,-103.016567,-31.393318,-57.380447,-71.630917,-83.67239,-16.524348,-14.587609,-0.477392,13.02909,13.107019,27.983928,35.948311,42.15466,30.337298,43.784932,50.627928,55.799834,42.638659,55.199558,61.534286,65.815256,50.717775,62.895079,67.749341,71.310055,-16.354122,-28.874016,-32.5811,-31.384048,-48.005562,-50.857944,-51.787033,-51.399136,-40.684948,-44.294128,-47.113667,-47.80489,-28.33025,-34.696255,-38.179893,-40.177574,-12.507992,-20.657444,-25.057182,-29.256306,-16.484519,-35.149817,-51.769261,-64.183255,-42.258246,-77.201199,-97.925903,-113.731075,-41.971817,-82.760774,-106.669792,-125.347871,-43.493316,-82.25547,-105.290288,-122.60745,-46.281718,-75.894714,-93.094581,-107.373531,82.019091,301.584643,-28.496962,-13.012618
59,-0.971718,0.23354,-1.504898,-2.214339,-27.086105,-51.597061,-73.621616,-89.273071,-57.165298,-87.8619,-102.763882,-113.136063,-49.451866,-84.194584,-101.518707,-114.255753,-40.304604,-73.275719,-90.356598,-102.975483,-31.181488,-57.805252,-72.156601,-84.050503,-16.754863,-14.75983,-0.197663,13.766575,12.421775,28.277675,36.738963,43.197686,29.885717,44.046754,50.832939,55.687571,42.302243,55.303607,61.565037,65.58783,50.333131,62.743112,67.724517,71.394283,-16.270237,-28.105545,-31.335583,-29.961891,-46.573792,-49.37233,-50.465698,-50.351086,-39.146404,-43.145599,-46.164093,-47.021942,-26.935673,-33.67075,-37.354546,-39.493847,-11.271858,-19.859734,-24.360352,-28.466377,-14.824174,-33.078337,-49.430958,-61.870146,-40.785777,-75.378913,-96.121648,-111.854727,-40.938269,-81.005055,-104.676551,-123.00327,-42.72758,-80.672405,-103.598234,-120.75784,-45.645349,-74.47674,-91.474251,-105.382944,81.049547,302.048775,-29.999685,-14.996365
60,-0.336227,0.242864,-0.604191,-1.276288,-27.237968,-52.023125,-74.319992,-89.668064,-56.882629,-88.319778,-103.262615,-113.388004,-48.930588,-84.410992,-101.666222,-114.021263,-39.673576,-73.365841,-90.239754,-102.368431,-30.68882,-57.87838,-72.111454,-83.541927,-16.935915,-15.007264,-0.325486,13.704948,12.714595,28.714991,37.050803,43.419926,30.144081,44.303883,51.356644,56.545099,42.428832,55.479905,61.788574,66.060035,50.313186,62.540385,67.268614,70.898797,-16.376095,-27.974281,-30.29211,-28.126602,-45.614319,-48.333836,-49.406891,-49.24839,-38.118954,-42.2616,-45.44014,-46.228008,-25.999031,-33.120461,-36.700058,-38.668556,-10.470257,-19.372559,-23.86591,-27.718506,-13.979552,-32.373611,-48.615636,-60.175591,-39.553362,-73.961278,-94.746776,-110.64056,-39.959155,-79.577077,-103.304302,-121.756344,-41.937206,-79.272616,-102.173745,-119.431997,-45.117599,-73.537238,-90.302104,-103.848694,80.752287,302.561504,-30.564909,-16.002789
61,-0.104599,-0.650047,-1.511593,-0.482518,-27.861786,-52.198448,-74.027309,-89.068851,-58.202477,-88.335285,-103.134384,-113.669128,-50.386963,-84.417915,-101.743641,-114.655209,-40.957718,-73.333511,-90.029526,-102.384453,-31.434402,-57.44545,-71.259041,-82.4897,-16.286856,-14.290898,-0.023033,13.894275,13.716496,28.981383,36.765701,42.603029,31.149069,44.866306,51.457421,56.237891,43.504709,56.67601,62.505805,66.44369,51.414937,63.828437,68.109408,71.258061,-15.957012,-27.086334,-28.926487,-26.210918,-45.091839,-46.693325,-47.428837,-47.504311,-37.715893,-41.14254,-44.152966,-45.146084,-25.270443,-31.512909,-34.910145,-37.102547,-9.341927,-17.29414,-21.518497,-25.478268,-13.576229,-31.714672,-47.882844,-58.934964,-38.967165,-73.122059,-93.542395,-109.032888,-39.525111,-79.279532,-102.866893,-120.821227,-41.382903,-78.610528,-101.467999,-118.432597,-44.061296,-72.471735,-89.130792,-102.406019,80.591927,302.167197,-32.132263,-16.229567
62,-0.882797,0.316162,-0.495923,8.986693,-27.861214,-52.254295,-74.240627,-89.71693,-57.919693,-88.320065,-103.174782,-113.753014,-50.026703,-84.463348,-101.769218,-114.781437,-40.822792,-73.399544,-90.237694,-102.896233,-31.663399,-58.081627,-72.136459,-83.829231,-16.332058,-14.543828,-0.49493,13.306535,13.403977,28.662442,36.672643,42.806868,30.852976,44.863712,51.652244,56.590795,43.334587,56.749555,62.676483,66.608564,51.528002,64.141511,68.577661,71.889768,-13.363981,-22.950103,-24.361285,-22.005458,-40.970063,-41.766382,-42.050428,-42.114097,-34.920366,-37.379111,-39.698971,-40.597536,-23.978297,-29.053935,-31.746189,-33.846581,-9.619603,-16.412315,-19.892817,-23.567923,-14.586028,-33.018163,-49.031195,-59.493943,-41.088868,-74.448521,-92.738555,-106.538653,-41.096263,-79.584066,-100.970628,-117.056055,-42.184191,-78.114965,-98.99178,-114.103841,-43.979355,-71.537547,-86.76907,-98.615579,79.746838,302.829655,-32.590478,-6.896578
63,-0.863228,-0.152709,-0.495922,8.986694,-28.130379,-52.570839,-74.22123,-89.566956,-58.337288,-88.795052,-103.592262,-114.002724,-50.439835,-84.501572,-101.563568,-114.302273,-41.157417,-73.425465,-90.264988,-102.981892,-31.90979,-58.109322,-72.126846,-83.741283,-16.338109,-14.261937,0.067802,13.934104,13.393664,28.719808,37.164732,43.858415,30.928435,45.277131,52.208491,57.255044,43.441971,56.994828,63.079651,67.111151,51.60167,64.136942,68.631322,71.935216,-10.770951,-18.813873,-19.796083,-17.799998,-36.848288,-36.83944,-36.67202,-36.723883,-32.124839,-33.615682,-35.244978,-36.04899,-22.686153,-26.594961,-28.582235,-30.590616,-9.89728,-15.530491,-18.267138,-21.657579,-15.595827,-34.321655,-50.179546,-60.052924,-43.210572,-75.774984,-91.934716,-104.044419,-42.667416,-79.8886,-99.074364,-113.290883,-42.985481,-77.619403,-96.515562,-109.775085,-43.897414,-70.60336,-84.407348,-94.82514,78.871679,303.202813,-33.09833,2.615983
64,-1.278992,-0.015129,-0.495923,8.986694,-27.912483,-52.09156,-73.790016,-89.24057,-57.758331,-88.362408,-103.245907,-113.589535,-50.017891,-84.420719,-101.618042,-114.131241,-40.862961,-73.45396,-90.167141,-102.438183,-31.835289,-58.031158,-71.848583,-83.05378,-16.024664,-14.132014,0.259228,14.082922,13.243302,28.81972,37.00906,43.125747,30.781592,45.277563,52.073567,56.767092,43.441106,57.085107,63.004192,66.766398,51.73468,64.495033,68.820031,71.815976,-8.177919,-14.677641,-15.230881,-13.594537,-32.726512,-31.912497,-31.293611,-31.333669,-29.329312,-29.852253,-30.790983,-31.500442,-21.394007,-24.135986,-25.418279,-27.334649,-10.174956,-14.648666,-16.641458,-19.747234,-16.605626,-35.625146,-51.327898,-60.611904,-45.332276,-77.101447,-91.130876,-101.550185,-44.238568,-80.193134,-97.1781,-109.525712,-43.78677,-77.123841,-94.039344,-105.446329,-43.815474,-69.669173,-82.045627,-91.034702,77.649622,303.674077,-33.537319,12.089069
65,-0.548058,0.567486,-0.495922,8.986694,-27.808113,-51.713448,-73.374996,-89.29224,-57.525558,-88.315372,-103.137817,-113.603611,-50.122948,-84.7439,-101.767731,-114.30748,-41.224022,-74.053173,-90.593605,-102.602634,-32.382545,-58.556671,-72.325287,-83.488541,-16.088267,-14.271693,-0.319682,12.860511,13.140611,27.868393,35.888537,42.236417,30.393923,44.0646,50.656456,55.485215,42.942225,55.919382,61.651982,65.431416,51.255559,63.782865,68.128365,71.13771,-5.584889,-10.541411,-10.665679,-9.389077,-28.604737,-26.985555,-25.915204,-25.943456,-26.533785,-26.088825,-26.33699,-26.951895,-20.101862,-21.677013,-22.254324,-24.078684,-10.452633,-13.766842,-15.015779,-17.836891,-17.615425,-36.928638,-52.476249,-61.170885,-47.45398,-78.42791,-90.327036,-99.055951,-45.809721,-80.497668,-95.281835,-105.760541,-44.588059,-76.628279,-91.563125,-101.117574,-43.733533,-68.734986,-79.683905,-87.244263,77.193689,304.71755,-33.941116,21.551751
66,-1.136971,0.443738,-0.495923,8.986693,-27.668037,-51.332016,-72.985039,-88.919849,-57.008858,-88.270798,-103.127575,-113.404999,-49.344063,-84.45425,-101.496162,-113.826771,-40.370178,-73.54414,-90.257721,-102.384796,-31.55571,-58.010216,-71.990376,-83.343029,-16.175891,-14.515299,-0.285163,13.35612,12.791845,27.923228,36.39347,43.087585,30.031448,44.26498,51.093279,56.133965,42.457422,55.947232,61.960981,66.022676,50.673129,63.485722,68.120584,71.519821,-2.991858,-6.405179,-6.100477,-5.183616,-24.482961,-22.058612,-20.536795,-20.553242,-23.738258,-22.325395,-21.882995,-22.403347,-18.809717,-19.218038,-19.090369,-20.822718,-10.730309,-12.885017,-13.390099,-15.926546,-18.625223,-38.232128,-53.6246,-61.729864,-49.575683,-79.754371,-89.523196,-96.561716,-47.380873,-80.802201,-93.38557,-101.995368,-45.389347,-76.132715,-89.086906,-96.788817,-43.651592,-67.800798,-77.322183,-83.453823,76.252527,305.341816,-34.24123,30.718971
67,-0.2314,0.530189,-0.495923,8.986694,-27.684746,-51.580124,-73.454247,-89.239826,-57.320023,-88.459225,-103.227024,-113.669586,-49.831123,-84.760895,-101.599159,-113.88216,-40.903358,-74.097805,-90.7798,-102.859154,-32.007751,-58.484573,-72.427311,-83.631134,-16.420484,-14.887777,-0.618183,13.465789,12.730218,27.301833,35.627826,42.349112,30.058248,43.998157,50.837076,55.975513,42.532449,55.574074,61.540955,65.622595,50.768472,63.242117,67.863579,71.229718,-0.398826,-2.268948,-1.535275,-0.978155,-20.361185,-17.131669,-15.158386,-15.163028,-20.94273,-18.561966,-17.429001,-17.8548,-17.517571,-16.759064,-15.926413,-17.566752,-11.007986,-12.003192,-11.764419,-14.016201,-19.635021,-39.53562,-54.772951,-62.288845,-51.697387,-81.080834,-88.719356,-94.067482,-48.952025,-81.106735,-91.489306,-98.230197,-46.190636,-75.637153,-86.610688,-92.460061,-43.569651,-66.866611,-74.960461,-79.663384,76.213188,305.978602,-34.545093,39.812262
68,-0.000572,0.055205,-0.495922,8.986694,-27.515259,-51.6782,-73.765068,-89.459839,-57.629929,-88.579731,-103.429241,-113.838158,-50.189896,-84.935131,-101.813736,-114.091244,-41.237297,-74.196625,-90.869694,-102.871799,-32.332191,-58.80764,-72.580204,-83.642578,-16.436045,-14.707343,-0.748785,13.178094,12.510633,27.148013,35.709646,42.777474,29.756597,43.695209,50.818366,56.224553,42.294957,55.55629,61.786968,66.037002,50.65942,63.358269,68.164983,71.62739,2.194204,1.867282,3.029927,3.227305,-16.23941,-12.204727,-9.779978,-9.772815,-18.147204,-14.798538,-12.975007,-13.306253,-16.225426,-14.30009,-12.762458,-14.310787,-11.285663,-11.121369,-10.138739,-12.105857,-20.64482,-40.839112,-55.921302,-62.847825,-53.819091,-82.407297,-87.915517,-91.573248,-50.523178,-81.411268,-89.593042,-94.465026,-46.991925,-75.141591,-84.134469,-88.131305,-43.48771,-65.932424,-72.59874,-75.872945,76.291094,306.18457,-34.962537,48.94972
69,0.008354,0.118376,-0.495923,8.986694,-27.499695,-51.901703,-74.09071,-89.930649,-57.446823,-88.929234,-103.922081,-114.256897,-50.064125,-85.230045,-102.271099,-114.407902,-41.242676,-74.566441,-91.523895,-103.650169,-32.410812,-59.045105,-73.013477,-84.049129,-16.626854,-15.036411,-0.941447,13.07707,12.441905,27.030193,35.606214,42.561657,29.869786,43.90479,50.950265,56.183365,42.460016,55.77007,61.984508,66.141299,50.80898,63.274103,67.998504,71.377116,4.787236,6.003514,7.595129,7.432766,-12.117634,-7.277784,-4.401569,-4.3826,-15.351677,-11.035108,-8.521013,-8.757705,-14.933281,-11.841116,-9.598503,-11.054821,-11.563339,-10.239544,-8.513059,-10.195512,-21.654619,-42.142603,-57.069654,-63.406805,-55.940795,-83.73376,-87.111677,-89.079014,-52.094331,-81.715802,-87.696778,-90.699854,-47.793214,-74.646029,-81.658251,-83.80255,-43.40577,-64.998237,-70.237018,-72.082507,76.494913,306.596384,-35.262995,58.229851
70,0.06958,-0.291771,-0.495922,8.986693,-27.985725,-52.761383,-74.969845,-91.308689,-57.701111,-89.616108,-104.630184,-115.073719,-50.154648,-85.498009,-102.400589,-114.567146,-41.150436,-74.44376,-91.273785,-103.529892,-32.251625,-59.000816,-72.894688,-83.940582,-16.848353,-14.861904,-0.228291,13.066881,12.381822,27.660109,36.24249,43.115249,29.809085,44.374031,51.357385,56.656497,42.574316,56.251847,62.424109,66.647467,50.979411,63.537839,68.288854,71.806281,7.380266,10.139744,12.160331,11.638226,-7.995858,-2.350842,0.976839,1.007613,-12.55615,-7.27168,-4.067019,-4.209159,-13.641136,-9.382142,-6.434548,-7.798856,-11.841016,-9.35772,-6.88738,-8.285169,-22.664417,-43.446094,-58.218004,-63.965785,-58.062497,-85.060221,-86.307836,-86.584779,-53.665482,-82.020335,-85.800512,-86.934682,-48.594502,-74.150465,-79.182032,-79.473793,-43.323828,-64.064049,-67.875296,-68.292067,76.599398,306.050449,-35.724013,66.96238
71,0.677032,-0.025441,-0.495923,8.986694,-28.07888,-52.522316,-74.809513,-91.589527,-58.119164,-89.785309,-104.737644,-115.402622,-50.861549,-85.840244,-102.721596,-115.260029,-42.116547,-75.078449,-91.776123,-103.988113,-33.316269,-59.59362,-73.289051,-84.246883,-16.482976,-14.668687,-0.442071,12.292037,12.315626,26.510687,34.742079,41.486026,29.742395,43.326003,49.999309,55.179304,42.535042,55.724622,61.59054,65.679035,51.025477,63.430579,67.908904,71.278501,9.973297,14.275975,16.725533,15.843687,-3.874082,2.576101,6.355248,6.397827,-9.760623,-3.508251,0.386975,0.339389,-12.34899,-6.923168,-3.270593,-4.542889,-12.118692,-8.475895,-5.2617,-6.374824,-23.674216,-44.749585,-59.366356,-64.524765,-60.184201,-86.386684,-85.503997,-84.090545,-55.236635,-82.324869,-83.904248,-83.169511,-49.395791,-73.654903,-76.705813,-75.145037,-43.241887,-63.129862,-65.513574,-64.501628,77.511206,305.384501,-35.98516,75.308568
72,1.198425,0.146225,-0.495922,8.986694,-27.750206,-52.433052,-75.140018,-91.969643,-57.400246,-89.524498,-104.833717,-115.644779,-50.203056,-85.901413,-103.04924,-115.870399,-41.724014,-75.156956,-92.14365,-104.553394,-33.322563,-59.945641,-73.704758,-84.694977,-16.603945,-15.2463,-1.394942,11.921843,12.109997,25.946597,34.003667,40.669068,29.646002,42.774263,49.446395,54.636024,42.376714,55.073216,60.878126,64.842564,50.793728,62.833514,67.267317,70.620735,12.566328,18.412206,21.290735,20.049147,0.247693,7.503043,11.733656,11.78804,-6.965096,0.255178,4.840968,4.887936,-11.056846,-4.464194,-0.106638,-1.286924,-12.396369,-7.594071,-3.636021,-4.46448,-24.684015,-46.053077,-60.514707,-65.083746,-62.305905,-87.713147,-84.700157,-81.596311,-56.807787,-82.629403,-82.007984,-79.40434,-50.19708,-73.159341,-74.229595,-70.816281,-43.159947,-62.195675,-63.151853,-60.711189,78.450136,305.428745,-36.740577,84.193281
73,2.054214,-0.294364,-0.495923,8.986694,-27.570534,-52.514191,-75.958214,-93.286514,-56.855164,-89.276905,-105.153294,-116.946487,-49.713707,-86.208,-104.522896,-118.391876,-41.196671,-75.648823,-93.622742,-106.897373,-32.838478,-60.781403,-75.382748,-86.988144,-16.842548,-16.00194,-2.518614,11.3735,11.848113,26.166181,33.906287,40.1784,29.336015,42.587407,48.901695,53.677966,41.929641,54.871169,60.582526,64.604269,50.158254,62.435348,66.7178,69.983903,15.159359,22.548437,25.855937,24.254608,4.369469,12.429986,17.112064,17.178254,-4.169569,4.018607,9.294963,9.436483,-9.7647,-2.005219,3.057318,1.969042,-12.674046,-6.712246,-2.010341,-2.554135,-25.693814,-47.356569,-61.663059,-65.642726,-64.427609,-89.03961,-83.896318,-79.102077,-58.37894,-82.933937,-80.11172,-75.639168,-50.998369,-72.663779,-71.753377,-66.487526,-43.078006,-61.261488,-60.790132,-56.92075,79.869003,304.966852,-37.871847,93.012446
74,0.832443,-0.804299,-0.495923,8.986694,-27.939034,-53.242836,-76.567097,-92.964935,-57.130394,-89.003963,-104.848766,-116.652775,-49.795418,-85.655537,-103.904915,-117.806225,-41.245308,-75.014019,-93.056145,-106.750317,-32.904625,-60.029755,-74.469795,-86.458111,-16.658594,-15.432478,-1.772854,12.4022,11.449391,26.489939,34.58937,40.827088,29.308351,43.203182,49.786455,54.415822,42.272233,55.636133,61.548303,65.365837,50.722715,63.273362,67.940459,71.462764,17.75239,26.684669,30.421139,28.460069,8.491245,17.356929,22.490473,22.568468,-1.374042,7.782037,13.748957,13.985031,-8.472554,0.453755,6.221273,5.225008,-12.951722,-5.830421,-0.38466,-0.64379,-26.703613,-48.66006,-62.81141,-66.201706,-66.549313,-90.366072,-83.092478,-76.607843,-59.950093,-83.238471,-78.215455,-71.873997,-51.799658,-72.168216,-69.277159,-62.15877,-42.996066,-60.327301,-58.42841,-53.130312,78.960857,304.028524,-40.108359,101.865111
75,1.017036,-0.104296,-0.495922,8.986693,-27.469368,-52.443123,-75.77179,-91.479321,-57.518806,-88.876934,-104.792118,-116.786957,-50.351143,-85.620289,-103.916874,-117.72995,-41.712112,-74.613876,-92.485142,-106.126213,-33.06633,-59.646034,-74.004936,-86.016598,-16.880463,-16.16811,-2.942098,11.466866,10.73852,24.907152,32.976387,39.52403,28.870108,42.873867,49.536304,54.278797,42.156698,55.912034,61.82303,65.824395,50.889688,63.643,68.034257,71.213169,20.345421,30.820899,34.986341,32.665529,12.61302,22.283871,27.868881,27.958681,1.421485,11.545465,18.202951,18.533578,-7.18041,2.912729,9.385228,8.480973,-13.229399,-4.948597,1.241019,1.266553,-27.713411,-49.963551,-63.95976,-66.760686,-68.671016,-91.692534,-82.288637,-74.113608,-61.521244,-83.543004,-76.31919,-68.108825,-52.600946,-71.672653,-66.800939,-57.830013,-42.914124,-59.393113,-56.066688,-49.339872,76.231184,303.14628,-44.350991,110.073857
76,1.141891,-0.118808,-0.495923,8.986694,-27.559776,-52.546234,-76.023846,-92.648563,-57.026024,-88.808899,-105.208683,-117.695045,-49.908714,-85.342083,-103.839626,-117.83884,-41.539764,-74.711952,-92.676888,-106.191845,-33.264885,-59.78714,-74.337502,-86.30579,-16.978832,-16.124329,-3.205649,10.145284,10.872519,24.617419,32.398033,38.635627,29.183306,42.699175,48.929421,53.324877,42.392955,55.83639,61.490072,65.262467,50.893887,63.383772,67.548837,70.409302,22.938452,34.95713,39.551543,36.87099,16.734796,27.210814,33.24729,33.348896,4.217012,15.308894,22.656945,23.082126,-5.888264,5.371703,12.549184,11.736939,-13.507075,-4.066772,2.866699,3.176898,-28.72321,-51.267043,-65.108112,-67.319666,-70.79272,-93.018997,-81.484798,-71.619374,-63.092397,-83.847538,-74.422926,-64.343653,-53.402235,-71.177091,-64.324721,-53.501257,-42.832183,-58.458926,-53.704966,-45.549433,75.506887,302.132524,-46.713102,118.165602
77,-0.061684,-0.589161,-0.495922,8.986694,-27.521782,-52.400436,-75.585194,-92.157669,-56.0495,-88.810787,-105.234489,-117.380619,-48.65284,-85.411434,-103.822575,-117.553368,-40.071259,-74.698277,-93.054485,-107.02383,-31.787453,-59.431801,-74.627438,-87.372379,-17.615787,-16.885465,-4.143947,8.999999,9.386557,24.362205,32.233777,38.13971,27.80584,41.85974,48.109869,52.397633,41.405133,54.791202,60.571905,64.121998,50.266503,62.758364,67.153573,70.287283,25.531483,39.093361,44.116745,41.07645,20.856571,32.137756,38.625698,38.739109,7.012539,19.072323,27.110939,27.630672,-4.596119,7.830677,15.713139,14.992905,-13.784752,-3.184948,4.492378,5.087242,-29.733009,-52.570534,-66.256463,-67.878646,-72.914423,-94.34546,-80.680958,-69.12514,-64.663549,-84.152072,-72.526662,-60.578482,-54.203524,-70.681528,-61.848503,-49.172501,-42.750242,-57.524739,-51.343245,-41.758994,73.477392,300.903799,-49.176836,126.512731
78,1.407852,-0.146287,-3.982859,30.587789,-27.185669,-51.948967,-75.110836,-91.026936,-57.079124,-88.94743,-105.327415,-117.742996,-49.96891,-86.005497,-104.486332,-118.352394,-41.429443,-75.146084,-93.17831,-106.703682,-33.043556,-60.283012,-75.046635,-87.21508,-17.821601,-17.627767,-5.576,8.209223,9.228908,23.080575,30.525266,36.193707,27.621947,40.746009,46.827437,50.978917,40.977944,53.796897,59.380431,62.80128,49.566685,61.945605,66.118945,68.776559,16.501722,29.350634,35.742417,34.357567,27.398729,43.697119,46.50424,44.279423,20.224457,35.931988,39.567661,37.207661,12.353668,25.828915,29.280653,26.163454,4.841538,16.043387,19.013643,17.033301,-28.211788,-50.863444,-64.683804,-67.949999,-63.586453,-79.328053,-68.383688,-59.428937,-53.596826,-66.263642,-57.208145,-48.647546,-41.822999,-52.250683,-46.0657,-37.709603,-29.112788,-39.221685,-34.316001,-27.440942,72.456951,299.860479,-55.587988,156.203488
79,1.30703,-1.100825,-3.982859,30.587788,-27.103043,-51.93718,-75.296516,-91.333637,-56.249886,-88.341522,-105.12989,-118.085175,-49.503593,-85.414181,-104.220428,-118.638668,-41.430702,-75.260181,-93.878288,-108.127441,-33.441353,-60.46257,-75.694771,-88.571377,-17.675314,-17.720886,-5.785458,7.311311,10.013756,23.600637,30.886198,36.460901,28.585624,41.357956,47.027817,50.798421,41.740808,54.040441,59.431684,62.749287,50.054884,62.140304,66.554285,69.546402,7.471962,19.607906,27.368088,27.638683,33.940887,55.256481,54.382782,49.819736,33.436375,52.791653,52.024384,46.784649,29.303455,43.827152,42.848167,37.334003,23.467827,35.271721,33.534908,28.979359,-26.690566,-49.156354,-63.111144,-68.021352,-54.258482,-64.310646,-56.086417,-49.732732,-42.530102,-48.375211,-41.889627,-36.71661,-29.442473,-33.819836,-30.282896,-26.246704,-15.475332,-20.918631,-17.288757,-13.122889,72.24987,298.001576,-61.084957,186.033197
80,0.20565,-0.207173,0.662899,20.870034,-27.604637,-53.027916,-76.296158,-92.390785,-56.196556,-88.473988,-105.190945,-118.024521,-49.634972,-85.685806,-104.840183,-119.664116,-41.80481,-75.633774,-94.436932,-109.000568,-33.87989,-60.604019,-75.782604,-88.915672,-17.739844,-18.087498,-6.936547,5.522895,8.589915,22.837155,30.218552,35.552429,27.145358,39.71027,45.375685,49.108435,40.646344,52.573498,57.933557,60.968343,49.401132,61.016694,65.40968,68.414393,23.069344,39.767189,50.165863,51.263752,40.628815,56.879253,52.854881,46.19791,28.965454,38.373356,35.342903,32.457905,14.539089,16.212387,16.311035,17.588825,0.863857,-1.342678,-2.365093,-2.627277,-17.027306,-31.688397,-35.080965,-32.45262,-34.510267,-26.067072,-19.367523,-16.505206,-19.360051,-6.881034,-4.495615,-4.642766,-4.512226,7.111733,4.851853,1.910064,8.914413,17.365698,14.851159,12.528479,70.128679,297.01749,-62.748899,206.126318
81,-0.519104,0.595953,3.603802,16.496314,-26.219902,-50.312233,-73.52417,-91.187954,-55.578346,-88.092728,-105.015564,-117.734184,-49.130974,-85.292015,-104.425106,-118.828125,-41.484032,-75.150661,-93.974819,-108.240108,-33.842583,-60.940018,-76.300335,-89.04911,-17.097392,-17.443689,-5.961447,5.396677,9.45936,22.684817,29.313723,34.49378,27.632939,39.102831,44.24874,48.339458,40.747183,52.278516,57.233122,60.69201,48.990369,60.917831,65.227763,68.19487,9.502602,20.693092,23.81773,24.533787,62.822857,37.678242,23.627014,17.889919,56.325359,21.930313,8.611507,6.616116,40.989933,7.471848,-1.478977,-0.28307,22.233124,-0.231972,-7.432652,-7.68877,-21.141612,-34.433944,-31.177907,-17.740955,-8.085722,1.118917,0.096084,-2.623219,12.990619,16.23443,7.847798,1.791565,28.142874,27.230079,17.081646,10.548946,37.256926,35.024463,25.296242,17.296723,68.342857,296.982895,-60.411816,221.992083
82,-0.051155,0.544762,0.968485,25.468741,-25.372009,-48.400726,-69.464607,-84.126434,-54.967804,-87.590904,-104.376812,-117.436466,-50.012283,-85.843678,-105.347443,-120.005379,-42.923584,-76.842499,-96.484966,-111.423798,-35.074654,-62.263756,-77.787094,-90.986023,-17.486605,-18.922549,-12.418872,-5.61725,4.768799,18.863454,26.877052,32.965951,22.696858,36.662763,42.713377,46.615757,36.968428,49.931321,55.739627,58.957441,47.05085,59.818859,65.133223,68.257362,3.894739,14.46682,20.893421,23.815584,63.678274,52.778521,37.225685,24.22288,62.489176,45.470696,24.200592,9.22677,53.479986,37.174587,20.312605,7.467156,41.076622,32.098274,20.090504,9.832964,-18.468437,-31.772717,-30.904939,-18.58039,0.829771,19.638638,26.668089,28.205489,21.450148,38.843109,40.274205,37.844481,36.632043,50.425448,48.878106,43.894169,46.877578,56.383128,56.03288,52.202224,66.28315,297.218194,-61.451883,247.151362
83,0.891037,-0.270652,0.968485,25.468741,-25.182953,-49.613914,-71.453018,-88.133068,-54.376717,-84.507294,-102.841988,-117.628555,-49.574432,-83.075867,-104.762363,-122.596436,-43.618011,-75.06197,-95.314064,-111.532288,-36.337624,-61.678734,-77.361832,-91.117859,-14.282623,-19.375921,-22.172967,-27.638435,12.782644,24.552149,29.796241,32.019565,26.920154,39.207374,44.03601,46.63212,38.345215,50.499981,55.111872,57.776711,46.895424,58.468069,63.406311,66.970236,-1.713123,8.240547,17.969112,23.097382,64.533691,67.878799,50.824356,30.55584,68.652992,69.011078,39.789677,11.837425,65.970039,66.877327,42.104187,15.217381,59.92012,64.42852,47.613659,27.354698,-15.795261,-29.111491,-30.631971,-19.419825,9.745265,38.158358,53.240094,59.034197,29.909677,61.451787,72.700613,73.897397,45.121211,73.620817,80.674567,77.239391,56.498231,77.741793,86.769518,87.107725,64.859562,296.449232,-62.798023,272.121793
84,-1.533279,-1.163687,0.152779,24.229133,-23.404655,-45.375366,-64.907684,-76.351147,-54.838943,-89.494228,-109.371643,-124.4133,-52.383957,-87.601089,-110.519714,-128.834953,-47.267876,-77.350559,-97.944489,-114.703617,-40.022507,-62.783546,-77.910519,-91.593189,-15.007203,-17.174519,-9.739584,-0.292944,10.060377,8.328216,3.384911,-1.245691,26.673337,30.014838,28.177022,26.293078,38.926101,49.072435,53.563172,56.627413,46.485093,60.010594,65.934867,69.981989,2.98708,9.878826,24.077225,36.063766,20.777321,35.188923,38.563099,36.108799,28.944111,45.428009,44.565182,36.428432,33.959141,50.293522,48.791828,38.831921,36.405659,50.037403,48.969269,37.759323,-28.979221,-40.916132,-36.371919,-23.119972,-8.332354,-7.632227,-5.915875,-2.706706,14.497391,21.467098,23.749517,26.473945,33.260316,42.385977,43.84341,44.47666,47.210845,56.87849,58.786577,57.031878,61.60944,295.487886,-64.362087,296.553266
85,-0.346298,2.130821,-34.192657,-13.67185,-27.32048,-50.970383,-69.626884,-79.735336,-56.081772,-86.715317,-105.223331,-119.011688,-53.366432,-87.042847,-108.169327,-123.914051,-48.789253,-80.438347,-99.342499,-112.479229,-41.953812,-65.929298,-81.114922,-93.505611,-16.653901,-17.339145,-6.962297,2.673422,12.500012,14.426316,11.05178,6.336519,28.268968,29.853854,25.861875,20.788955,39.863658,45.421936,44.000627,40.224404,47.96136,57.673341,60.249753,60.320211,32.517357,55.936203,72.276707,80.279903,49.049664,94.033585,109.232826,110.775948,42.491684,90.769615,106.32122,107.071037,39.617043,83.862076,98.21331,98.445168,38.022652,72.963467,85.169277,85.310898,-18.534695,-15.141633,0.96448,16.415112,29.360221,53.311601,45.66128,36.536669,49.241384,68.703323,55.428899,42.700286,61.002861,78.057152,66.472651,55.587597,65.838722,80.778925,72.962681,64.033325,60.304441,297.975779,-99.513445,283.238488
86,1.448135,3.380712,-9.234295,0.640043,-28.053932,-55.150452,-76.894112,-89.826565,-59.343681,-89.736099,-103.440685,-112.968979,-54.896278,-90.942478,-108.149529,-119.31839,-49.946709,-83.329582,-98.614597,-107.937355,-44.218369,-70.778046,-83.006401,-90.533123,-21.385341,-23.460031,-12.323406,-2.291249,9.204825,6.384066,2.821932,0.391683,28.01011,24.653296,20.385293,16.42703,40.311472,40.920763,35.601891,30.48587,47.713741,51.201033,46.642124,41.744699,28.632603,54.145947,76.303024,89.073658,45.656662,84.03059,105.113468,119.076061,39.741554,84.246941,107.250652,121.909962,37.336464,78.212128,99.982624,114.116764,36.85524,67.446613,85.772495,98.611279,-11.492246,-7.416533,8.94819,25.114881,31.623436,51.224313,54.510547,55.668305,50.022465,65.492919,64.837686,61.706878,60.257534,74.899112,74.635685,70.99661,64.276498,77.703754,79.362,77.984287,60.887146,301.883855,-109.613171,284.405895
87,0.46154,-0.047486,-0.495586,4.929412,-29.547501,-55.78949,-76.643772,-87.690067,-67.751427,-89.433231,-86.018372,-79.704323,-60.813103,-84.845066,-82.643509,-74.7995,-51.763458,-73.979645,-72.868767,-66.406059,-41.807671,-62.300491,-63.674927,-59.681854,-23.177461,-26.651972,-16.914488,-6.920801,7.580789,2.34701,-5.492699,-8.828209,26.535634,18.261141,9.51932,5.776257,39.277708,34.760048,25.96222,21.423811,47.085677,47.477484,40.142955,35.595716,30.056076,56.636868,78.569012,91.588669,50.835171,85.235081,105.041313,120.658607,42.91151,83.48814,105.702896,123.103409,37.549553,74.38179,95.191212,111.351929,34.622898,61.593933,78.45789,92.556667,-8.5139,-0.969728,16.082957,30.803946,34.609933,51.566472,55.462615,58.300293,51.382765,66.223241,68.728394,69.152249,60.497373,75.223302,77.850597,77.356347,64.289774,77.278356,79.780483,79.304016,60.526915,302.604698,-110.930529,290.103636
88,-2.649422,-0.492027,4.249077,7.121305,-28.356972,-52.81002,-72.38102,-84.481258,-65.746536,-78.859348,-72.921066,-64.866142,-57.644691,-71.234436,-67.100258,-57.476006,-47.193146,-59.871941,-56.06369,-48.144722,-35.916939,-49.04171,-47.855301,-42.900581,-19.943654,-24.513987,-17.896566,-10.862577,7.203741,0.905323,-6.358193,-8.376011,24.298417,14.467072,6.749814,4.479375,35.800419,29.959571,22.505617,19.639595,43.502856,42.842498,37.419885,34.572327,29.452057,55.176659,76.479149,92.359886,51.84494,86.777687,106.180687,121.046906,42.956486,82.177906,104.243774,121.210556,36.227131,71.905689,92.425976,108.578911,31.797523,58.800945,74.971333,88.603878,-10.169614,-3.183419,12.389726,25.29266,31.680123,47.804822,53.194213,56.805439,48.508036,64.749753,69.929501,72.310041,57.83877,74.271852,79.377499,80.527786,61.578375,77.036603,80.943737,80.883221,57.039471,302.99456,-107.519474,298.106829
89,-6.100273,-2.465632,5.9515,3.60184,-27.120552,-49.121361,-65.779781,-76.725311,-56.260414,-68.493347,-66.283722,-60.153122,-48.700676,-58.806267,-57.178917,-51.153374,-38.187904,-47.907257,-45.397453,-39.533958,-26.448212,-36.324234,-35.51651,-31.487961,-16.559917,-20.070798,-13.736503,-7.96321,8.598313,8.544281,3.259063,-0.359387,23.968793,19.589515,12.737196,8.968259,33.891158,31.999496,25.057761,20.744433,40.5594,40.970781,36.29189,32.777489,27.84668,52.801895,73.694344,90.578613,51.276913,86.864204,105.892639,119.886703,41.577301,81.264324,103.001175,119.064903,33.860607,69.992695,89.942322,105.487862,28.447838,56.47974,72.416325,85.48336,-11.589441,-6.09773,8.186561,20.43951,28.657316,44.570892,49.619914,52.578129,45.816706,61.831058,66.492473,68.521345,55.650953,71.648447,76.414282,77.355853,59.534437,74.627966,78.159966,77.908148,50.538454,301.231138,-101.968718,302.410879
90,-3.302994,-0.947313,4.440651,2.994895,-26.334114,-47.955208,-63.892593,-72.294502,-46.553307,-60.261841,-60.828552,-57.757301,-38.063622,-50.073967,-51.239319,-47.816963,-27.565727,-38.557091,-39.202766,-35.387306,-16.271782,-26.344986,-28.869553,-27.454033,-12.710705,-15.540047,-9.808621,-2.495643,7.776538,12.297409,8.905027,4.740023,20.60778,22.43553,16.719912,12.00144,28.581919,31.302642,25.002927,20.26173,33.669906,36.878272,32.361291,27.749956,26.339607,50.584946,71.169319,89.371948,51.629276,86.77906,105.24662,119.481697,42.230244,81.645241,103.161049,119.277191,34.167595,70.217857,90.134125,105.61615,28.246078,56.21315,72.033405,84.896736,-12.123458,-6.803846,7.484273,18.597989,27.782437,42.537018,46.837193,49.242866,44.664629,58.128256,61.349899,62.310056,54.084345,67.875188,71.617757,71.891559,57.55935,70.90312,73.614704,72.77885,46.804733,300.654883,-97.958794,305.776832
91,-18.085098,16.47748,3.937054,1.002333,-16.73584,-36.382027,-51.055241,-54.771366,-67.473392,-63.72076,-44.775639,-26.11187,-68.981037,-62.561703,-37.497368,-12.845764,-64.162216,-56.698437,-33.714066,-13.565712,-56.972237,-50.816116,-34.992142,-21.610565,-20.112974,-25.764371,-17.49241,-6.124035,11.02004,25.604191,30.327418,31.820852,28.49905,42.439885,46.275573,45.512832,41.224019,50.556297,51.021834,49.085402,50.503995,58.088613,54.561738,51.063021,25.834122,49.551659,69.74802,87.006168,49.393444,83.601322,101.970577,116.044865,39.457684,78.220425,99.610806,115.49715,31.056976,66.36858,86.528492,101.775913,24.647999,52.091846,67.963886,80.448017,-11.723069,-5.682643,8.6261,20.291124,28.599518,44.062377,48.506616,50.777858,45.326593,59.647378,62.326235,62.543473,54.570259,68.936431,71.837218,70.935601,57.664387,70.764675,73.055369,71.615349,28.401318,317.48082,-94.340057,307.127623
92,-2.567711,3.934119,0.571117,1.976013,-11.86203,-29.099236,-41.649284,-47.803974,-50.437374,-53.545246,-41.674919,-28.135071,-50.819092,-53.204441,-35.297356,-15.800171,-46.83712,-49.569569,-33.179283,-16.87912,-40.418816,-44.233818,-36.60141,-28.035736,-20.96587,-26.40707,-17.030764,-5.198273,-1.89759,8.79048,16.331008,21.927016,15.865163,29.472854,37.300028,40.946142,30.471729,40.277632,45.868824,47.886889,42.130824,50.637129,52.968886,53.067563,26.844177,51.214485,71.208916,86.140366,47.689648,81.350098,99.510269,113.391495,37.596645,76.501179,97.75177,113.137665,29.50716,65.029106,85.477295,100.657768,23.652363,51.13615,67.083092,79.294167,-11.32978,-5.439532,9.40854,22.126222,28.354678,44.050706,47.801673,49.358154,44.620168,58.665053,60.452418,59.692333,53.868528,67.732051,69.830268,68.068035,57.29407,69.57882,71.772257,70.320813,25.808401,321.608372,-93.794146,309.297069
93,5.845642,-3.209508,0.885429,0.274295,-15.968284,-35.498199,-50.185175,-55.114975,-62.643013,-63.78705,-48.779411,-33.149929,-63.255128,-63.079376,-41.887493,-20.6567,-58.875103,-58.893041,-39.402351,-21.574344,-51.938009,-53.142299,-42.155857,-31.423416,-18.021333,-23.550342,-15.459309,-4.064629,5.511008,19.974158,25.53398,27.70003,22.650082,38.300785,43.115712,42.971525,36.473776,47.384888,49.799638,48.415842,46.767662,55.923982,55.422013,52.858754,26.218815,50.676899,70.361023,85.62355,46.22406,79.400024,97.631378,111.868973,36.079731,74.665146,96.057587,111.830406,28.186455,62.838192,83.378105,98.808517,22.651062,49.469376,65.175018,77.375851,-12.091472,-5.529502,9.992884,22.395269,28.263349,44.103812,48.563735,50.745007,44.239107,58.7507,61.044605,60.953585,53.191928,67.365994,69.531828,67.930084,56.366147,68.749821,70.945975,69.700345,31.638422,318.482165,-92.924337,309.654666
94,5.845643,-3.209509,1.717072,-1.00894,-20.074539,-41.897163,-58.721066,-62.425976,-74.848652,-74.028854,-55.883904,-38.164787,-75.691166,-72.954311,-48.477631,-25.513229,-70.913086,-68.216515,-45.62542,-26.269569,-63.457203,-62.050781,-47.710304,-34.811096,-15.076795,-20.693613,-13.887853,-2.930983,12.919606,31.157838,34.736953,33.473046,29.435001,47.128717,48.931397,44.996908,42.475824,54.492145,53.730454,48.944797,51.404501,61.210837,57.875141,52.649945,23.994598,47.368126,66.814671,82.860031,43.417969,76.889877,95.471191,110.320358,33.752632,72.861214,94.178581,110.25444,26.487236,61.49168,82.078514,97.667999,21.676941,48.653584,64.457989,77.098846,-11.912148,-6.372951,9.107445,21.34508,27.831096,44.194091,48.359835,50.272554,43.96228,58.69037,60.790996,60.516762,53.151605,67.663693,69.763886,68.010298,56.604009,69.643967,72.25039,71.36773,37.346363,315.388222,-91.344967,308.761292
95,-2.068634,0.529942,1.254787,-0.375504,-18.120461,-38.975143,-53.061104,-57.46542,-56.838112,-66.690388,-61.796837,-51.635742,-54.788933,-63.590012,-50.035515,-32.107658,-49.847374,-56.37188,-42.371864,-25.850143,-42.293816,-46.682396,-39.317322,-29.92424,-17.938865,-21.205338,-12.314452,-2.213382,6.39796,20.594689,25.282162,27.170552,23.024073,38.667799,42.487247,42.996071,35.612389,47.340892,48.928124,47.585053,44.935837,52.832356,51.541834,49.463871,23.753471,46.98452,65.95911,82.2896,41.458054,74.731121,93.679447,108.426418,32.00449,70.846195,92.313023,108.359699,25.323257,60.173721,80.99802,96.56599,21.314278,48.567009,64.599667,77.211514,-12.017186,-6.027211,9.608673,21.526132,28.13003,44.150248,48.219291,50.028084,44.152286,58.790529,60.758268,60.413886,53.332349,67.504624,69.145765,66.985056,56.812973,69.589133,71.96146,70.761958,35.168238,316.384395,-90.199671,308.852018
96,0.015564,-0.408047,-0.0634,0.695927,-19.101791,-39.920711,-54.687337,-58.824434,-66.404113,-69.793853,-58.948602,-45.357341,-65.88581,-67.65378,-49.547767,-29.068565,-60.739088,-61.129503,-43.035564,-24.65538,-52.519168,-53.347663,-42.461128,-30.989742,-16.783144,-20.609416,-13.0704,-2.835702,12.305221,27.107104,30.497448,30.787552,28.014495,42.973224,45.442067,43.964503,39.423501,50.007553,49.66666,46.778191,47.197539,55.707178,52.430732,48.505196,23.221722,46.273441,65.119915,81.898441,40.78125,74.537029,93.896656,109.070492,32.015991,71.375542,93.075428,109.522305,26.258869,61.408424,82.410679,98.322659,23.162842,50.518856,66.692162,79.490948,-12.384601,-6.686396,8.954674,20.785312,26.723417,41.909572,46.479473,49.13752,42.806991,56.898806,59.171283,59.290584,52.464138,66.114499,67.643933,65.494957,56.500392,69.038196,71.30987,69.863366,35.099687,316.154514,-90.347185,309.726111
97,0.015564,-0.408046,-0.371647,-0.707721,-20.083122,-40.86628,-56.313572,-60.183449,-75.970116,-72.89732,-56.100368,-39.078941,-76.982689,-71.717548,-49.06002,-26.029472,-71.630802,-65.887127,-43.699265,-23.460617,-62.744522,-60.012932,-45.604935,-32.055244,-15.627424,-20.013494,-13.826349,-3.458023,18.212481,33.619518,35.712733,34.404551,33.004916,47.278647,48.396885,44.932934,43.234613,52.674213,50.405194,45.971329,49.459239,58.581998,53.319628,47.54652,24.07259,47.415962,66.045341,81.084824,41.584568,75.129776,93.825531,108.706856,32.512264,70.911369,91.820755,107.671738,26.358433,60.735855,81.013412,96.410637,22.796745,49.661407,65.658302,78.470306,-12.182554,-6.29601,9.74261,22.278314,27.664432,42.864789,46.961003,49.426635,43.739731,57.002855,59.410998,59.875546,53.145183,65.83162,67.924342,66.671117,57.003287,68.857082,71.16525,70.158966,35.110216,315.773854,-90.723867,309.045776
98,-2.192574,5.557475,0.373936,0.522347,-14.797668,-34.299774,-50.135536,-56.397686,-58.209,-64.528027,-53.543072,-38.396072,-58.818054,-61.568642,-43.117104,-20.929184,-55.358963,-56.043034,-39.381866,-20.912361,-48.955536,-50.16386,-40.277596,-29.078293,-20.574311,-26.355261,-19.540115,-10.009618,0.788368,12.640865,19.449713,23.45892,18.030379,31.215389,37.106378,38.754744,31.628932,41.391301,43.934677,43.413689,42.507625,49.828939,48.644999,46.430258,23.976116,46.849823,65.359039,80.991726,41.257267,74.499035,93.407536,108.345165,32.084999,70.314503,91.575222,107.651653,25.74543,60.00658,80.582485,95.982113,22.00058,48.937454,65.004158,77.69331,-12.362309,-6.731721,9.100529,21.661304,27.50845,42.55684,46.436125,48.640491,43.546946,56.997792,59.288485,59.694123,52.784252,65.356204,67.118993,65.62593,56.476495,68.14584,70.327606,69.203254,32.923794,321.320723,-90.343781,309.557517
99,-4.632225,-3.164894,0.320435,0.24589,-16.557426,-36.37207,-51.006832,-54.59444,-71.802521,-65.479031,-46.04393,-27.696762,-74.127617,-66.170082,-40.238914,-14.522209,-69.802265,-61.655502,-36.571541,-13.858452,-62.238922,-57.926044,-41.054535,-25.400391,-16.735597,-22.316414,-16.460807,-5.28108,12.696317,27.412305,31.893162,32.904386,28.212713,41.376111,46.331458,45.267066,39.257207,48.089739,48.429551,45.772308,47.318723,56.014725,51.901345,47.042575,23.613396,46.692696,65.205688,81.261463,40.916748,74.35461,93.189526,107.99715,31.878605,70.361938,91.635418,107.6441,25.696793,60.374165,80.928326,96.283779,22.155933,49.479504,65.451851,78.012028,-12.9335,-7.148166,8.761889,20.217394,26.529088,41.499488,45.765577,48.57096,42.556964,55.735984,58.257129,58.837336,51.99465,64.326269,66.022861,64.529242,56.036646,67.493509,69.544734,68.359312,28.322611,318.117174,-89.992304,309.764751
100,-2.14119,7.973954,0.360489,-0.133072,-12.734299,-28.754883,-42.418785,-48.653812,-49.306526,-53.741341,-41.788101,-28.014908,-50.321846,-52.925835,-35.891647,-16.567726,-48.029709,-50.452423,-33.687973,-16.474686,-43.705616,-48.528042,-40.981064,-31.459923,-21.455119,-28.521095,-24.651999,-17.745957,-1.421741,11.511018,17.361869,21.045775,14.519374,27.11016,31.677838,34.084684,27.134119,36.507523,38.752274,39.351809,37.516833,44.836357,44.356494,43.309392,23.529625,46.286716,64.633141,81.04208,40.781879,73.936787,92.682552,107.528629,31.535568,69.863777,91.167927,107.175465,25.004139,59.486103,80.060635,95.380268,21.228447,48.302479,64.259262,76.803188,-13.087506,-7.259255,8.423806,19.523196,26.000628,40.776267,45.021855,47.718187,42.201775,55.329234,57.766831,58.320115,51.850154,64.411052,65.983588,64.423526,55.923026,67.882166,69.874852,68.512576,26.193924,326.037853,-89.619312,309.578404
101,1.028252,-7.158602,0.331821,0.109669,-16.3591,-34.798279,-48.760643,-52.452278,-69.113388,-65.172386,-46.790142,-28.864517,-70.644379,-64.851952,-39.984398,-15.183105,-66.195488,-59.648323,-35.738983,-13.878593,-58.733711,-54.839916,-39.164658,-24.341011,-17.057996,-24.419694,-20.573138,-9.610278,12.195583,26.502536,30.448202,30.96178,27.770766,40.737056,45.033526,43.566212,38.807108,47.893434,47.787532,44.435226,46.54814,55.596242,51.492989,46.292184,23.361053,46.592274,65.145149,80.308113,40.86153,74.047165,92.918358,107.830009,31.429195,69.766674,91.255531,107.394676,24.588661,58.985481,79.704895,95.28614,20.593643,47.555237,63.513851,76.177254,-13.058854,-7.32082,8.469007,19.882892,25.224735,40.600587,45.081321,47.872316,41.134852,54.91637,57.782825,58.568105,50.689802,63.836094,66.141237,65.199605,54.849495,67.231687,69.579314,68.539438,27.265005,318.82789,-89.244661,309.636712
102,-0.178127,0.658506,0.291824,0.665546,-16.226349,-34.459362,-48.560515,-52.165118,-68.859787,-65.40144,-46.978941,-28.84964,-70.702086,-65.480004,-40.226384,-14.952164,-66.537381,-60.729704,-36.341286,-13.930836,-59.428454,-55.799418,-40.056496,-24.977475,-17.673091,-25.691043,-22.330863,-11.469954,10.882337,25.191606,29.114331,29.473719,26.819408,39.870481,44.051262,42.559465,38.317057,47.284668,47.00077,43.664488,46.575125,55.347172,51.080867,45.938385,22.915421,45.890923,64.537067,79.220695,40.604725,73.633118,92.489319,107.155952,31.344166,69.576359,91.177826,107.058907,24.579906,59.126987,79.895439,95.001984,20.439377,47.755966,63.719902,75.936928,-13.314315,-8.353225,7.108954,19.082483,24.545789,39.721632,44.570521,47.6368,40.648999,53.953558,56.89189,57.723853,50.40717,63.037291,65.127419,63.948665,54.703331,66.708414,68.676832,67.194946,27.140437,319.457374,-88.899279,310.273235
103,-0.178128,0.658506,0.176239,0.670548,-16.093597,-34.120445,-48.360386,-51.877956,-68.606186,-65.630493,-47.16774,-28.834763,-70.759792,-66.108055,-40.468369,-14.721222,-66.879272,-61.811085,-36.943588,-13.983078,-60.123196,-56.758919,-40.948334,-25.613937,-18.288187,-26.962391,-24.088589,-13.329629,9.569091,23.880675,27.780461,27.985657,25.86805,39.003907,43.068998,41.552717,37.827006,46.675901,46.214008,42.89375,46.60211,55.098102,50.668745,45.584586,23.030033,46.342278,65.275326,79.516068,40.158691,73.800774,93.148842,107.750244,30.78598,69.788189,91.800728,107.638779,24.153557,59.333668,80.424271,95.497513,20.397263,48.191013,64.413872,76.706886,-13.729401,-8.747316,6.881651,18.848696,23.066125,38.599195,43.375465,46.371966,39.463021,53.154075,55.984035,56.722693,49.500242,62.379896,64.291997,63.031054,54.136586,66.177299,67.912486,66.373974,27.042274,320.065831,-88.643074,310.893734
104,1.230812,-0.870372,1.280766,-0.10195,-16.54684,-34.865341,-49.5405,-53.512544,-70.125246,-67.469873,-48.609924,-29.944839,-72.481813,-68.386716,-42.536029,-16.489448,-68.713073,-63.862896,-38.871688,-15.782833,-62.002344,-58.725557,-42.643661,-27.063846,-17.8191,-25.710586,-22.197111,-11.677867,9.807448,24.06639,28.583957,29.459424,25.983555,39.152355,43.957278,42.902705,38.055081,46.899531,47.256942,44.400214,46.903699,55.562805,51.558383,46.700725,22.420292,45.349445,64.098186,77.800198,39.071674,72.978916,92.477589,107.129803,29.785595,68.810406,90.857449,106.536427,23.369522,58.520794,79.456959,94.181271,19.86311,47.302494,63.361645,75.455303,-13.438125,-9.042175,6.129408,18.258485,22.833388,38.234991,43.136677,46.377276,39.334642,53.097142,55.92636,56.721273,49.497772,62.548227,64.304039,62.842653,54.301769,66.489756,68.0915,66.40627,28.394937,319.161882,-87.240458,310.758207
105,1.230812,-0.870372,-0.367928,0.067246,-17.000084,-35.610237,-50.720615,-55.147133,-71.644306,-69.309254,-50.052109,-31.054916,-74.203835,-70.665379,-44.603691,-18.257675,-70.546875,-65.914707,-40.799789,-17.582588,-63.881493,-60.692196,-44.338989,-28.513756,-17.350013,-24.458782,-20.305635,-10.026106,10.045804,24.252104,29.387453,30.93319,26.099059,39.300803,44.845557,44.252692,38.283156,47.12316,48.299875,45.906677,47.205288,56.027507,52.448021,47.816864,23.271904,46.550274,65.240078,78.93568,40.895805,73.788357,92.676945,106.92564,31.102695,69.044552,90.497303,105.942249,23.880615,58.058109,78.622799,93.351688,19.435616,46.387081,62.346897,74.435177,-13.828264,-8.732126,6.690595,18.562297,22.816962,37.982987,42.808905,45.76144,39.309818,53.207675,56.086479,56.840328,49.270592,62.590526,64.413337,62.958127,53.781151,66.23306,67.991958,66.368725,29.668636,318.260419,-87.565498,310.794362
106,0.273629,-0.257592,-0.047092,0.388472,-17.227135,-36.336537,-51.409579,-56.131182,-72.254792,-70.094004,-50.620108,-31.390171,-74.475918,-71.332054,-45.137329,-18.637677,-70.606013,-66.346722,-41.338177,-18.054772,-63.558255,-60.776568,-44.691754,-28.993721,-16.881852,-23.216765,-18.408291,-7.853293,10.550213,24.574318,29.776358,31.537264,26.336983,39.228617,45.084162,44.773063,38.128842,46.75769,48.285859,46.152845,46.726568,55.526805,52.239768,47.877966,22.824612,46.01469,64.843254,78.461952,40.222149,73.205566,92.347755,106.757011,30.658092,68.935032,90.785408,106.268463,23.725719,58.25964,79.012985,93.564034,19.622211,46.941719,62.967911,74.935112,-14.229024,-9.676907,5.506655,17.812956,21.513041,37.071922,41.943906,45.064586,38.220109,52.270427,55.072537,55.897029,48.542246,62.033476,63.733094,62.18248,53.394655,65.742947,67.263674,65.460253,29.955797,317.980674,-87.599058,311.160681
107,0.273628,-0.257591,0.546741,0.225142,-17.454185,-37.062836,-52.098541,-57.115231,-72.865276,-70.878754,-51.188107,-31.725426,-74.748001,-71.99873,-45.670967,-19.017677,-70.66515,-66.778736,-41.876564,-18.526955,-63.235016,-60.860939,-45.044518,-29.473686,-16.413692,-21.974749,-16.510949,-5.680482,11.054621,24.896531,30.165262,32.141336,26.574907,39.15643,45.322765,45.293433,37.974527,46.39222,48.271841,46.399013,46.247848,55.026101,52.031515,47.939068,22.523975,45.67131,64.543018,78.039608,39.797516,72.410831,91.274128,105.331249,30.37611,68.283005,89.85117,104.80608,23.49432,57.841415,78.22649,92.050152,19.410439,46.66523,62.409782,73.698406,-14.088295,-9.676598,5.405631,17.721689,21.771158,37.10644,42.106618,45.290284,38.444448,52.340205,55.019988,55.73197,48.722063,61.678288,62.903601,60.892946,53.517477,65.208744,66.269801,63.96861,30.209684,317.706317,-87.072058,311.369058
108,2.149258,-1.753249,0.007267,0.413913,-18.83051,-39.648743,-55.063019,-60.138216,-76.161232,-73.881054,-53.970166,-34.417878,-77.860566,-74.487076,-47.629795,-20.495682,-73.681641,-68.996401,-43.549748,-19.847317,-65.955935,-62.928343,-46.757527,-31.102353,-14.052572,-17.935098,-11.742952,-1.432115,14.238441,28.870232,34.278951,36.265708,28.288543,41.59764,47.835852,47.754527,38.411381,47.74264,49.703802,47.919462,45.627565,55.238461,52.418752,48.529402,22.197533,45.070839,63.863983,77.972603,39.789734,72.602806,91.692123,105.903168,30.400658,68.41238,90.204849,105.523453,23.552856,57.905273,78.472137,92.509346,19.407978,46.554108,62.312851,73.760948,-14.410323,-10.354247,4.681422,16.871695,21.795487,36.332275,41.196417,44.478945,38.492428,51.605375,54.365063,55.506766,48.685507,61.032934,62.32185,60.716093,53.413736,65.125813,66.313026,64.235063,32.338057,315.90427,-87.085676,311.734173
