takenoko1/special-research/HandMotion_SimilarSearch_自分用/NewProject/handData/key/d4_feature_d2/69.csv
,vel_0x_L,vel_0y_L,vel_0x_R,vel_0y_R,posFromWrist_1x_L,posFromWrist_2x_L,posFromWrist_3x_L,posFromWrist_4x_L,posFromWrist_5x_L,posFromWrist_6x_L,posFromWrist_7x_L,posFromWrist_8x_L,posFromWrist_9x_L,posFromWrist_10x_L,posFromWrist_11x_L,posFromWrist_12x_L,posFromWrist_13x_L,posFromWrist_14x_L,posFromWrist_15x_L,posFromWrist_16x_L,posFromWrist_17x_L,posFromWrist_18x_L,posFromWrist_19x_L,posFromWrist_20x_L,posFromWrist_1y_L,posFromWrist_2y_L,posFromWrist_3y_L,posFromWrist_4y_L,posFromWrist_5y_L,posFromWrist_6y_L,posFromWrist_7y_L,posFromWrist_8y_L,posFromWrist_9y_L,posFromWrist_10y_L,posFromWrist_11y_L,posFromWrist_12y_L,posFromWrist_13y_L,posFromWrist_14y_L,posFromWrist_15y_L,posFromWrist_16y_L,posFromWrist_17y_L,posFromWrist_18y_L,posFromWrist_19y_L,posFromWrist_20y_L,posFromWrist_1x_R,posFromWrist_2x_R,posFromWrist_3x_R,posFromWrist_4x_R,posFromWrist_5x_R,posFromWrist_6x_R,posFromWrist_7x_R,posFromWrist_8x_R,posFromWrist_9x_R,posFromWrist_10x_R,posFromWrist_11x_R,posFromWrist_12x_R,posFromWrist_13x_R,posFromWrist_14x_R,posFromWrist_15x_R,posFromWrist_16x_R,posFromWrist_17x_R,posFromWrist_18x_R,posFromWrist_19x_R,posFromWrist_20x_R,posFromWrist_1y_R,posFromWrist_2y_R,posFromWrist_3y_R,posFromWrist_4y_R,posFromWrist_5y_R,posFromWrist_6y_R,posFromWrist_7y_R,posFromWrist_8y_R,posFromWrist_9y_R,posFromWrist_10y_R,posFromWrist_11y_R,posFromWrist_12y_R,posFromWrist_13y_R,posFromWrist_14y_R,posFromWrist_15y_R,posFromWrist_16y_R,posFromWrist_17y_R,posFromWrist_18y_R,posFromWrist_19y_R,posFromWrist_20y_R,posFromBody_0x_L,posFromBody_0y_L,posFromBody_0x_R,posFromBody_0y_R
2,5.131187,-2.377206,2.822971,1.280395,17.631569,29.860268,34.44191,33.42968,16.367798,41.067352,53.047829,58.511696,9.003754,37.087097,49.161186,56.27243,1.580772,27.230186,38.629189,44.807739,-7.015858,11.982307,21.994514,26.876678,-28.133488,-43.412392,-49.249226,-50.317632,-22.48246,-13.17655,-11.64551,-12.019409,-1.832258,11.39925,11.216468,8.928801,14.957247,25.651368,22.52371,19.52406,28.047593,36.884015,31.415337,25.161379,26.619816,51.449203,74.958744,95.224171,47.048893,80.352459,98.4268,111.355762,38.347321,76.509304,96.712818,110.58672,30.960903,66.23457,85.24538,98.472462,25.418987,52.840061,68.44717,79.991627,-13.135486,-13.978132,-7.764744,-1.997873,20.169043,32.895247,36.030686,37.486576,36.881669,48.921517,51.57061,52.022067,47.500702,60.809644,62.640729,61.106602,53.017483,65.836004,66.778131,64.315092,-17.787838,339.294153,-67.050247,311.086256
3,-17.919559,-5.60527,1.329803,-0.77151,22.574329,41.418858,52.962284,55.221348,32.701435,60.244389,71.047497,76.482525,24.148006,53.583813,65.988979,74.170589,14.465218,42.672329,55.004597,62.653713,4.082851,25.289898,36.470776,43.307476,-27.279727,-40.966211,-48.059913,-50.847327,-21.263446,-10.227041,-7.021516,-6.176338,0.042917,14.796572,16.883242,15.267604,18.112013,30.397381,29.703739,27.260707,32.757359,43.247519,39.213735,33.355411,26.570663,51.648903,74.680538,94.726925,46.731777,79.058704,96.668873,109.869747,37.67767,75.312366,95.177593,109.449062,30.156498,64.705868,83.773785,97.719898,24.469872,51.221981,66.832066,78.954334,-13.188468,-13.819619,-7.322734,-1.140221,20.065982,33.098468,35.843891,37.100759,36.845853,49.001298,51.35436,51.639461,47.750729,60.788649,62.786584,61.889103,53.43646,66.238432,67.296649,65.327119,-36.731358,333.649363,-66.744404,310.275226
4,1.938629,0.361055,0.133438,1.181285,21.299572,39.115391,50.061436,52.117825,29.753551,55.469112,67.984943,75.028095,21.743946,47.631626,61.689777,71.670856,12.201061,37.015514,51.272335,60.884571,1.832657,20.426044,32.591,40.898037,-26.693283,-40.910759,-47.541025,-50.035927,-19.718759,-10.714684,-8.102642,-7.07635,1.212902,14.392169,15.848614,14.710121,18.885005,30.14439,28.560862,26.485184,33.415988,43.259251,38.70911,33.102605,26.071358,51.140785,74.363651,94.624043,46.430168,78.724079,96.390209,109.585361,37.816544,75.354939,95.215816,109.377422,30.520134,64.94276,83.896923,97.684994,25.029831,51.516666,66.928196,78.930073,-13.386069,-14.60601,-8.414914,-2.435807,19.316085,31.687718,34.458891,35.781091,36.207354,48.11765,50.451198,50.838064,47.186454,59.897591,61.489393,60.410243,52.85119,65.464946,66.22213,64.119714,-35.408077,333.942755,-67.226315,311.388849
5,-7.819004,-0.37606,0.148716,-0.26318,23.53735,44.555855,59.144096,63.117943,35.866127,65.61161,77.596207,83.024254,28.171806,60.555611,72.479782,78.387337,19.485226,50.582314,61.911392,67.241821,10.097065,33.211899,43.522339,48.913422,-27.520738,-40.944228,-46.711037,-49.006177,-21.28864,-10.406735,-8.426461,-8.234109,0.538217,15.462612,16.235851,13.442941,18.973987,31.748727,29.980134,26.35452,33.481444,44.140244,39.590597,33.130702,26.236725,51.156349,74.038239,94.278603,45.612831,77.780342,95.524635,109.015274,36.798878,74.290123,94.291306,108.685455,29.52713,63.8237,82.924347,96.952858,24.108295,50.457344,65.84507,77.984276,-13.049344,-14.150416,-8.08387,-2.111061,19.275885,32.162826,34.841126,36.188088,36.029204,48.379966,50.652875,51.031343,46.936673,60.036035,61.674212,60.664099,52.419492,65.255798,66.204037,64.19789,-43.374624,333.670945,-67.225142,311.229919
6,7.836571,0.943238,0.565395,0.733286,21.360512,39.29821,49.922218,51.228218,29.195137,54.61338,66.950226,74.368858,20.916824,46.305656,60.338173,70.918808,11.661415,36.099358,50.319557,60.451355,1.391888,20.195503,32.867203,41.835365,-26.976902,-41.460832,-47.46538,-48.791347,-20.908689,-12.026881,-9.233292,-8.020144,0.101209,13.461899,14.990036,13.858645,17.816352,28.805147,27.145852,25.096479,32.251067,41.856282,37.026288,31.130359,25.730782,50.476799,73.305645,93.271694,46.64669,78.621082,96.023426,109.124508,37.849159,74.749432,94.403515,108.425617,30.214176,63.976879,82.841549,96.777477,24.242706,50.415401,65.751286,77.958813,-13.61683,-15.014242,-8.666732,-2.501139,19.040184,31.752124,34.715588,36.188397,35.710078,47.631983,49.885626,50.189315,46.533258,59.448974,61.089806,60.016584,52.030588,64.817987,65.899422,64.059322,-35.72917,334.60952,-66.850863,311.958543
7,-2.360115,0.262439,-0.473671,-0.444479,22.175446,41.210289,51.929512,52.355347,33.127556,60.215149,71.749191,77.66098,25.029488,53.18779,65.693779,73.802605,15.863228,43.314056,55.45784,62.629623,5.701332,27.158661,38.327293,44.871712,-26.834691,-41.339369,-47.530527,-49.030939,-21.568863,-12.097894,-10.334178,-10.231549,-0.561743,13.644001,14.581804,12.410351,16.986859,28.890177,27.315048,24.698374,31.056135,41.197775,36.621514,30.471111,25.589962,50.693378,73.596096,93.803387,45.968857,78.252468,95.981083,109.369068,36.960869,74.361362,94.351673,108.577366,29.379902,63.616962,82.776546,96.746693,23.698483,50.224628,65.605259,77.657719,-13.439854,-14.506901,-8.157044,-2.059253,18.934097,31.806032,34.510453,35.855377,35.798566,48.059234,50.445147,50.960701,46.67726,59.621505,61.344527,60.432226,52.011199,64.943526,65.928877,63.946442,-38.155775,334.930005,-67.391024,311.572109
8,7.066555,6.769142,-0.244904,0.885748,20.334263,36.185131,44.708233,46.208668,27.277279,51.614056,61.597767,66.857128,19.80463,48.144779,59.408169,66.744862,11.997986,38.652706,49.134007,55.155659,2.713165,22.287312,31.803417,36.810322,-30.49822,-48.03404,-55.804094,-57.163036,-26.844633,-20.38412,-18.741003,-18.177901,-5.166472,6.666019,6.759756,4.811407,12.8728,21.970488,18.809299,15.749072,27.257373,34.880214,28.789339,21.964128,25.649529,50.750427,73.841,94.059277,46.586781,78.883266,96.471233,109.627132,37.873192,75.46011,95.427761,109.432354,30.382118,64.927883,84.100971,97.97121,24.622993,51.600094,67.071018,79.147511,-14.049392,-15.453226,-9.126711,-3.028425,18.833135,31.486782,34.234181,35.512168,35.602138,47.027261,49.115845,49.212732,46.438409,58.753294,60.13076,58.932247,51.877386,64.332567,65.170212,63.232731,-31.080465,341.760202,-67.627172,312.518912
9,1.7173,-0.869384,-0.068722,-0.62442,20.980053,37.322903,46.44453,48.683453,25.826511,50.641766,60.523167,65.153103,17.809238,46.620541,57.360592,63.698444,9.797287,36.863537,46.98595,52.070103,0.39093,20.834141,30.290852,34.465885,-29.803898,-47.155887,-55.182021,-57.434367,-26.689207,-19.031724,-17.113077,-16.654889,-5.003265,7.618828,7.883305,5.736984,13.018037,22.903104,19.986632,16.818836,27.501843,35.965231,30.108822,23.227788,25.751896,50.918655,73.79528,93.906212,46.471138,78.620453,96.212425,109.465141,37.413082,74.713326,94.556808,108.685913,29.781876,63.961258,83.04142,97.031479,23.99683,50.560112,65.924606,78.030281,-13.567183,-14.742108,-8.432698,-2.351456,19.092672,32.053033,34.763321,36.08373,35.897429,47.920604,50.124724,50.535117,46.642247,59.498066,61.143405,60.206034,51.901901,64.661573,65.585792,63.633491,-29.344139,340.891467,-67.676868,311.89514
10,6.74057,-0.465166,-0.163078,0.340986,18.643169,31.946468,36.558323,35.505238,20.325336,44.326344,55.267124,60.476131,12.635365,38.127766,49.782429,57.79707,4.247303,27.813663,38.755703,45.432072,-5.111275,11.98431,21.53738,26.695347,-29.940552,-46.217713,-53.43609,-54.717719,-24.274704,-15.998111,-14.208585,-14.07119,-2.945001,9.292511,9.528336,7.839647,14.34919,23.655101,20.676323,17.996108,28.168747,36.07916,30.255232,23.836091,25.726547,51.064224,74.222488,94.416962,46.639652,78.786507,96.336136,109.587708,37.933731,75.300865,95.178795,109.473038,30.539761,64.690247,83.743057,97.852478,24.885464,51.481247,66.876068,79.055214,-13.836106,-15.016403,-8.601338,-2.6804,19.126758,31.471468,34.041397,35.346615,35.985114,47.200224,49.351856,49.864631,46.807306,59.014251,60.497064,59.6044,52.209973,64.566107,65.277719,63.251441,-22.566805,340.435826,-67.803183,312.245651
11,-6.199951,-1.773287,-0.039024,0.169443,20.107899,36.127453,44.057178,44.208927,26.109295,50.715351,62.674541,69.098225,18.555393,43.378201,56.676235,65.963459,9.75071,33.086643,46.046619,54.654522,-0.153065,17.569599,28.87373,36.301289,-28.431001,-44.761639,-51.217335,-52.425235,-24.928827,-17.45363,-14.984849,-13.688399,-3.945296,8.475676,10.281011,9.627074,13.769848,23.556485,22.128384,20.522441,28.275699,36.834183,31.942747,25.993342,25.599632,50.849762,73.993263,94.141273,46.306515,78.652382,96.243095,109.621582,37.710743,75.217209,95.238075,109.779739,30.397682,64.606361,83.765144,98.068771,24.897022,51.464195,66.866112,79.092751,-13.965411,-15.341458,-8.989316,-2.983842,18.678512,30.800488,33.321449,34.673289,35.7052,46.909256,49.106336,49.795223,46.658303,58.683701,60.253335,59.506279,52.087769,64.308917,65.097531,63.14239,-28.727217,338.66751,-67.802668,312.420065
12,7.098541,-0.359881,0.065689,0.185189,17.454815,30.252628,34.159184,31.78957,18.49268,41.661587,54.55965,61.724453,10.922642,34.45673,48.542576,59.481869,2.519245,24.377003,38.088627,47.891064,-6.961327,9.176159,20.677242,28.196697,-28.149296,-43.989388,-49.981401,-50.751737,-21.398803,-13.030634,-10.651452,-9.88303,-0.356176,11.523121,12.547437,11.386344,16.360895,25.440243,23.125591,21.059299,29.852681,37.591243,32.276199,26.345628,25.478039,50.681992,73.859482,93.974991,46.216507,78.59745,96.309929,109.589081,37.598648,75.324326,95.460434,109.866829,30.203247,64.825859,83.993683,98.002052,24.600792,51.446857,66.85215,78.84613,-13.974983,-15.372333,-9.079287,-3.134327,18.485789,30.706257,33.30175,34.656431,35.536312,46.78767,49.09732,49.938176,46.546164,58.601882,60.203626,59.462374,52.067392,64.255194,64.971313,62.922991,-21.58453,338.299756,-67.692833,312.597382
13,8.779392,-2.128475,0.608425,-0.324498,15.082512,23.741341,24.785156,20.154533,6.273537,27.206497,43.014793,52.860603,-1.424561,20.458603,38.046341,52.279472,-8.803654,11.305046,29.106903,42.701225,-17.215233,-2.487717,12.428398,23.786087,-23.758162,-38.688856,-42.768953,-42.202825,-19.451874,-12.354528,-9.73347,-8.757937,0.524076,12.551759,14.798054,13.791708,17.481789,28.102242,26.978384,25.19917,32.017897,41.379877,37.366595,31.648815,25.847397,51.014671,74.131336,94.719486,46.441841,79.039021,96.698627,109.37479,37.160339,75.249653,94.97961,108.479977,29.481468,64.993572,83.749866,96.805515,23.782825,51.470432,66.690388,78.052082,-13.948307,-15.012698,-8.480122,-2.302055,17.213792,30.683903,33.704425,35.104245,34.350396,46.662872,49.119489,49.712293,45.814977,58.774166,60.255805,59.225314,52.011199,64.795263,65.118218,62.705876,-12.765198,336.15944,-67.044468,312.261043
14,-14.168129,-7.305135,-0.298977,-0.019513,17.111893,32.483597,40.908394,41.026382,11.048985,33.603058,53.598404,69.093933,3.492336,32.253914,52.593498,68.545761,-0.562878,24.869385,44.26918,57.930565,-3.322048,13.474274,29.817009,41.956444,-19.972677,-29.709667,-30.26894,-27.555442,-7.107349,6.572776,11.23524,11.058202,10.307935,25.284385,28.37697,27.228474,23.76267,37.757413,38.786422,36.609411,33.470452,47.926471,47.126494,42.110632,25.953197,51.120701,74.27124,94.669075,46.310349,78.879547,96.695251,109.53289,37.225571,75.190201,95.344162,109.300346,29.807224,65.211067,84.256897,97.569923,24.249802,51.850777,67.199821,78.645287,-13.917555,-15.000842,-8.681614,-2.571658,16.944992,30.489698,33.51516,34.848228,34.190277,46.684793,49.139064,49.571502,45.78651,58.80961,60.347319,59.135282,52.174529,64.736477,65.123405,62.57515,-26.890068,328.809829,-67.300186,312.197054
15,-0.31477,9.050449,-0.047665,-0.084536,20.093708,36.464596,46.872425,49.273167,20.671749,41.975269,56.321125,66.447086,12.014866,34.730473,51.081448,63.327885,3.701305,25.156803,42.290554,54.802265,-5.792942,11.013393,25.782795,36.882763,-26.491606,-42.496634,-47.500393,-47.537875,-22.810293,-17.197304,-14.14035,-12.206204,-2.337562,9.090649,11.034675,10.320285,15.16164,25.486248,24.652802,23.244522,29.840207,38.984641,35.105974,29.59654,25.563812,50.824356,74.191761,94.660091,45.678463,78.58263,96.606617,109.586391,36.695652,75.207539,95.499973,109.496899,29.452171,65.336781,84.421291,97.694378,24.188919,51.953602,67.267971,78.651867,-13.732674,-14.988492,-8.909905,-2.733505,17.352236,30.619065,33.386348,34.610303,34.701941,47.133966,49.575269,50.172518,46.206845,59.252361,60.832863,59.756862,52.413564,65.114513,65.551273,63.04044,-27.147331,337.844408,-67.290344,312.096648
16,1.854458,-0.437872,-0.182705,-0.546306,17.350388,31.828423,38.93898,37.995987,17.535095,40.663719,56.175041,66.289215,10.38105,34.626961,51.160812,64.107285,3.099003,25.600319,41.727104,53.684235,-5.474567,11.925545,25.706978,35.611153,-26.043422,-40.82295,-45.018212,-44.557801,-19.67189,-12.628392,-9.479923,-7.720531,0.439539,11.577461,13.370446,12.686993,16.71207,26.55101,25.034852,23.190305,29.885347,38.177377,33.711341,27.974604,26.095676,51.557865,75.101852,95.829277,45.527058,78.34671,96.28109,109.35791,36.412582,75.106544,95.39566,109.50325,29.18644,65.095482,84.375572,97.962341,24.049244,51.782112,67.327538,78.996735,-13.676296,-14.271323,-7.818467,-2.164043,17.622518,31.051627,33.874424,35.159882,35.10548,47.53133,49.910079,50.294599,46.677075,59.782488,61.243256,60.090252,52.769864,65.467972,65.799448,63.226309,-25.25342,337.408064,-67.433596,311.55187
17,-1.460381,-0.342097,-0.469894,0.382667,18.083153,32.704926,39.559364,38.430405,19.831123,42.754784,57.925758,68.105164,11.94706,35.125694,51.587219,64.658661,3.696156,25.332642,41.563911,53.639145,-5.898056,10.904274,24.948235,35.273323,-25.676562,-40.420523,-44.515501,-44.329509,-20.641372,-13.491786,-10.049818,-8.238987,-0.65968,11.023807,13.440965,13.062991,15.914131,26.23491,25.381395,23.830534,29.654092,38.210476,34.239739,28.789833,26.434879,51.970425,75.644646,96.255112,45.721722,78.466301,96.247902,109.197922,36.731071,75.54245,95.680962,109.712906,29.657192,65.740471,84.895706,98.515434,24.642105,52.707138,68.244553,79.980583,-13.869575,-14.880059,-8.454496,-2.65959,17.077138,30.573185,33.352015,34.697309,34.679402,46.60211,48.810428,49.182721,46.406917,59.035308,60.374798,59.302008,52.690577,64.996508,65.152551,62.660984,-26.646166,337.040171,-67.835855,311.908741
18,2.92511,0.201492,-0.122509,-0.531609,18.028793,32.073784,39.2379,39.307594,15.907288,37.476883,54.030762,65.260162,7.572327,29.402962,47.336197,61.410255,-0.400658,19.858475,37.562828,50.555649,-9.388676,6.296253,21.124878,32.017593,-26.15871,-41.308617,-45.393778,-45.056312,-20.589008,-13.032054,-9.658814,-7.90714,-0.403909,11.407586,13.423675,12.256222,16.304332,26.573611,25.739671,23.990467,30.05232,38.887507,34.752576,29.094633,26.284046,52.017288,75.729389,96.332073,46.195335,78.807964,96.419735,109.112148,37.164059,75.526371,95.473423,109.275227,29.931965,65.685368,84.717579,98.182583,24.66568,52.458973,68.016186,79.819508,-13.460478,-14.379201,-8.1576,-2.281986,17.42646,30.884777,33.696829,34.928565,34.96401,46.9602,49.299306,49.657767,46.619338,59.513009,61.093264,60.069689,52.846003,65.416349,65.832485,63.455094,-23.583755,337.234715,-67.821064,311.370185
19,-3.77306,0.534512,-0.282269,-0.223722,19.280262,34.926968,43.457165,44.166241,20.871906,42.792606,57.75095,68.004284,12.398701,34.565907,51.334934,64.20599,4.04995,24.534359,40.959263,52.936764,-5.46587,10.54739,24.896564,35.36974,-26.145618,-41.478431,-45.319924,-44.376378,-21.662971,-15.050551,-11.643905,-9.509934,-1.424335,10.090573,12.081345,11.43772,15.39833,25.570105,24.592657,23.158072,29.261112,37.744013,33.686085,28.404757,26.531868,52.265167,75.905228,96.425743,46.491222,79.25869,96.818161,109.406662,37.40078,75.851898,95.687828,109.284439,30.179329,66.066513,84.936104,98.234482,24.97324,52.894936,68.479271,80.347939,-13.391318,-14.299728,-8.061331,-2.186829,17.248804,31.031311,34.032134,35.451035,34.774436,46.79051,49.198406,49.592867,46.609581,59.408713,61.131488,60.228511,53.095351,65.61253,65.99742,63.697958,-27.296333,337.748201,-68.04285,311.125437
20,4.863739,-1.032343,-0.180702,-0.139865,17.436733,31.564465,38.789806,39.192524,15.487003,35.607777,52.159367,63.747196,7.579823,27.6087,45.802402,60.833302,-0.242672,18.334179,35.912304,49.39642,-9.082832,5.207462,19.635029,30.623875,-26.034838,-41.198516,-45.056435,-44.535509,-20.035292,-13.383229,-9.607191,-7.313287,-0.006052,11.09729,13.612323,13.039587,16.393623,26.089302,25.492299,24.19801,29.972971,38.329222,34.465807,29.236227,26.371479,52.149982,75.891953,96.649246,46.294613,79.481049,97.365074,110.093193,37.02467,76.070366,96.15406,109.705925,29.838753,66.429176,85.507164,98.66684,24.840145,53.35453,69.084206,80.675697,-13.642951,-14.442989,-8.068124,-2.183001,17.275481,31.110722,34.011386,35.366313,34.962281,47.436049,49.719456,50.039385,46.850593,60.141258,61.462346,60.182754,53.261892,66.048302,66.168283,63.579644,-22.386217,336.689012,-68.177176,310.958726
21,-3.087845,1.572659,-0.104942,-0.179261,19.488316,34.490032,43.873043,45.888004,18.99519,40.039845,55.686893,66.286068,10.651417,32.117329,49.557438,62.753849,2.609711,22.77483,39.950123,52.025356,-6.508713,9.605598,24.511471,35.015202,-26.514886,-42.23932,-45.892227,-44.020634,-22.196988,-16.028863,-12.972403,-10.93501,-2.247221,8.867421,11.284888,10.763344,14.509433,24.238086,23.735129,22.592747,28.516526,36.89266,33.272542,28.212281,26.65163,52.678013,76.613846,97.291031,46.632843,79.861107,97.594414,110.199509,37.459087,76.591873,96.479874,110.135765,30.225277,66.884766,85.836754,99.219131,25.216713,53.671303,69.473076,81.410866,-13.474928,-14.338322,-7.894296,-1.898146,17.736941,31.309497,33.991935,35.193412,35.484998,47.451857,49.692594,50.095763,47.27309,60.12897,61.659268,60.573326,53.533285,66.177546,66.553915,64.133978,-25.412521,338.243779,-68.220577,310.761573
22,3.645916,-0.696174,-0.187225,-0.107878,18.709259,31.897202,39.984398,41.546516,13.935471,33.872452,50.376892,61.797981,5.205803,25.848083,44.536285,59.505043,-2.639179,16.72348,35.388336,49.262466,-11.193409,4.31179,19.995804,31.434975,-26.478391,-42.016833,-45.385194,-43.35058,-21.355639,-15.390364,-12.103513,-9.947127,-1.295524,9.781451,12.418687,12.073379,15.502379,24.965259,24.753949,24.015414,29.440744,37.695292,34.102468,29.125632,26.818485,52.533302,76.056976,96.354904,46.728344,79.465027,97.036743,109.826088,37.66428,76.439323,96.217346,110.101204,30.445862,66.767235,85.556145,99.116821,25.333157,53.375473,69.085922,81.251793,-13.246204,-14.277992,-7.834151,-1.422482,17.729161,31.444668,34.324708,35.62795,35.314999,47.366333,49.73477,50.260822,47.052702,59.897159,61.767332,61.042011,53.457826,66.074732,66.635487,64.428898,-21.689501,337.540025,-68.330698,310.646115
23,11.301041,-1.223152,-0.125542,0.45189,14.548531,22.786674,26.198845,24.370079,2.034531,20.755348,37.92572,49.882507,-6.453724,13.642159,33.090019,48.852425,-13.128777,5.212212,24.428101,38.70575,-20.182629,-6.460476,9.071045,20.432739,-25.609316,-40.531056,-43.784809,-41.741117,-18.926934,-12.246218,-9.072803,-7.579184,1.086993,11.593146,14.169805,13.138882,17.503587,26.533843,25.978954,24.363502,31.067867,38.974699,35.192239,29.831501,26.871929,52.622566,76.392288,97.034454,46.437721,79.850807,97.605171,110.349998,37.432823,76.755638,96.683464,110.349312,30.446262,67.220078,86.170006,99.575157,25.659313,54.287682,70.098267,82.013741,-13.584782,-14.858075,-8.50192,-2.341267,17.182855,30.552251,33.24142,34.585109,35.147099,46.988173,49.103187,49.419657,47.137856,59.77304,61.19188,60.074135,53.581882,65.859531,65.913995,63.267867,-10.319653,336.311547,-68.387432,311.092678
24,-23.070717,-2.421295,0.199642,-0.172037,14.779472,32.369614,49.431038,61.380272,17.335625,41.042976,58.388672,71.557159,10.685692,39.737892,60.336113,77.00901,7.099285,35.841293,56.077652,71.629143,4.455414,26.155243,42.30526,54.590263,-24.955256,-37.521279,-36.264226,-30.484079,-17.000259,-8.350076,-2.582464,-0.50376,2.992116,14.292565,18.281086,18.787254,19.397101,29.986309,31.556992,30.404236,31.949663,42.092601,40.003893,35.132465,26.91433,52.822781,76.580143,96.993771,47.039051,80.346966,97.867527,110.25095,37.686424,76.86533,96.558094,109.940472,30.264759,67.044697,85.686092,98.78706,25.049114,53.550968,69.23315,81.08923,-13.42102,-14.68363,-8.388979,-2.206713,17.088315,30.769798,33.66898,35.110543,35.006185,46.972303,49.343643,49.906189,46.961374,59.559631,61.21164,60.272107,53.479624,65.869535,66.135556,63.604777,-33.346596,333.873239,-68.144016,310.90363
25,8.992023,3.680695,0.378971,-0.28152,16.634502,33.426876,45.564594,50.9828,13.930035,30.69128,49.136066,64.213772,5.214558,22.898083,44.240398,62.718143,-2.154408,14.304943,35.679531,53.540554,-9.695778,3.522835,19.866199,33.832111,-26.957451,-42.537512,-46.390182,-43.322051,-25.544416,-21.317045,-15.300394,-11.345156,-4.362728,4.212428,9.169689,10.250507,14.357156,22.07534,23.900312,23.875735,30.274251,37.625082,34.716205,30.109316,26.295204,51.81118,75.669708,96.336823,45.866203,78.986435,96.942101,109.825516,37.274723,76.310005,96.538353,110.505753,30.590973,67.293549,86.31237,99.49585,25.877895,54.284935,69.934845,81.584702,-13.275474,-14.488314,-8.594793,-2.577092,18.480725,31.422809,34.231403,35.415158,35.996044,47.312733,49.628312,49.905942,47.659277,59.907965,61.304389,59.866345,53.991287,66.501242,66.535698,63.5576,-24.339037,337.538651,-67.74951,310.606826
26,7.084064,-1.922476,-0.595093,0.768299,14.288979,27.691383,37.02095,41.050644,4.549828,21.420593,41.666107,57.497406,-3.822727,14.110222,36.740913,56.398201,-10.209675,6.22776,28.159332,46.503525,-16.677475,-4.121704,12.515373,26.58886,-25.618517,-39.706873,-42.931171,-40.25355,-22.816901,-17.095355,-11.178554,-7.712626,-2.024426,7.684901,12.660502,13.689696,16.171321,24.628905,26.561693,26.937753,31.530872,39.450053,36.72439,32.355425,26.086349,51.898556,75.952835,96.503677,46.545467,80.075455,97.962914,110.709572,37.78038,77.548599,97.578964,111.112862,30.976067,68.272247,87.260284,100.314903,26.442089,55.117035,70.693359,82.144203,-14.155417,-15.46397,-9.557667,-3.706754,17.542304,30.704281,33.395734,34.622468,35.242133,46.540915,48.687051,48.929853,47.069746,59.292684,60.508179,59.127687,53.49537,65.98507,65.832114,62.909652,-17.253656,335.572178,-68.343287,311.331128
27,7.49897,0.706116,0.209141,-1.188757,12.181778,21.860504,28.34713,30.310593,-1.15551,15.934982,34.431267,49.116669,-9.524689,8.352242,30.039482,48.842239,-15.667591,0.115929,21.283607,38.936119,-21.625786,-9.970493,6.046143,19.383316,-26.669447,-40.910142,-43.708609,-40.172904,-23.12448,-17.976842,-12.881692,-9.671411,-2.084076,7.357685,11.409932,11.822857,16.216337,24.298664,25.393066,24.984278,31.742676,39.180328,36.170242,31.577617,26.513042,52.435284,76.285458,96.978207,46.830997,80.185032,98.018131,110.780926,37.853565,76.963177,96.96619,110.614872,30.75325,67.454052,86.383839,99.425983,25.763454,54.080486,69.677067,81.174946,-13.440718,-14.248599,-8.335318,-2.474092,18.556925,31.996285,34.846807,36.14301,36.036491,47.738935,50.206481,50.58427,47.617533,60.426113,62.186555,61.077085,53.818448,66.749602,66.93016,64.158802,-9.737864,336.186811,-68.117323,310.050887
28,-23.102303,-11.902145,-0.473328,0.50234,21.505852,40.605698,52.247887,52.236328,17.321434,43.445435,65.526352,82.985344,8.713989,39.542999,61.801071,78.666573,3.777237,31.458321,52.434082,66.166649,0.986481,18.893166,35.858231,48.830109,-19.071121,-28.743335,-28.86912,-26.219163,-8.503402,5.771441,13.062312,15.449274,9.714698,24.86226,31.391625,32.435454,24.687074,39.237509,42.439329,41.171593,36.364571,51.633842,51.449888,46.713199,26.684704,52.649174,76.757069,97.54755,46.503067,80.242825,98.15134,110.998249,37.747536,77.623386,97.764645,111.579609,30.977955,68.26807,87.321911,100.660229,26.387386,54.872646,70.539265,82.347736,-13.544212,-14.86635,-8.873102,-2.862317,17.475243,30.929052,33.698497,34.999948,35.255842,46.737714,48.988887,49.350744,47.196581,59.549133,61.115309,59.975396,53.655118,66.422016,66.77634,64.209746,-32.822943,324.257681,-68.573427,310.526242
29,10.532055,13.786459,0.196323,-0.696421,16.411228,30.731678,40.734158,44.251385,14.336414,33.617191,49.784145,62.323093,6.327209,25.271931,44.152737,60.473957,-1.126728,16.275158,35.544033,51.504307,-9.502831,4.174347,19.904995,32.745838,-27.46047,-43.301921,-46.858127,-43.614872,-24.542454,-19.844359,-15.274335,-12.210218,-3.64488,5.35481,8.721566,8.93442,14.649174,22.158394,22.540506,21.851804,30.3536,37.327136,33.709303,28.677941,26.801205,52.745934,76.723251,97.413483,46.484299,79.915581,97.822723,110.692062,37.857342,77.222214,97.32296,111.314507,31.039524,67.808418,86.775513,100.165672,26.218529,54.399033,70.079498,81.973457,-12.954495,-14.088542,-8.346988,-2.441673,18.043285,31.468998,34.329524,35.642832,35.593864,47.12952,49.504379,49.912364,47.427404,60.084695,61.867923,60.809768,53.869701,67.03847,67.454668,64.733513,-22.274523,338.03656,-68.360739,309.822241
30,-0.982647,-1.461632,-0.08606,0.33197,17.136154,32.301521,41.292686,43.554497,16.116486,35.658875,51.518326,63.442383,7.899914,27.522469,45.744896,61.270866,-0.132179,17.701836,35.840149,50.789909,-9.201622,4.779568,19.506454,31.574707,-26.994316,-42.492249,-46.867575,-45.531234,-23.252118,-16.329835,-11.91363,-9.34858,-2.775743,8.369651,11.418454,11.498791,14.78132,24.360785,24.125083,23.054825,29.567024,37.97249,34.174716,29.038502,26.452732,52.46069,76.506386,97.062721,47.348843,80.373573,97.857857,110.480576,38.504276,77.533264,97.179108,110.784073,31.357841,67.965088,86.724701,99.98291,26.218357,54.536591,70.217628,82.072792,-13.508705,-14.814727,-8.81271,-2.69238,17.78134,31.087072,33.979893,35.416393,35.477649,46.890855,49.140854,49.492029,47.229617,59.661704,61.151803,59.866963,53.58003,66.101778,66.276285,63.488377,-23.227301,336.551601,-68.416929,310.130885
31,-11.43322,-7.881761,-0.600929,-1.433906,19.992714,39.174957,52.470245,55.77404,27.842102,52.213554,66.787262,75.629425,20.537224,46.010971,61.244431,71.989975,12.253876,36.316681,51.191025,61.638451,3.076286,21.927567,35.209007,44.655304,-25.172988,-37.318491,-39.915158,-38.939378,-17.847475,-9.240887,-5.468555,-3.101661,2.747461,14.547718,17.016932,16.771227,20.195781,30.870822,30.646853,29.542262,34.426163,43.565286,40.024147,35.006926,27.072372,52.756691,76.40316,96.823654,47.154636,80.082779,97.767677,110.89016,38.215542,76.727943,96.51123,110.316811,31.092567,66.623611,85.560036,99.239502,25.946388,53.173714,68.805084,80.846558,-13.192111,-13.658574,-7.535279,-2.361645,17.738609,31.652952,35.197611,37.332447,35.371747,47.471555,50.095083,50.622308,47.115811,60.481812,62.577744,61.841247,53.318887,66.508652,67.206493,64.799524,-34.604788,328.605234,-68.962126,308.632372
32,-9.299412,-1.050189,1.169758,-0.145607,22.916622,46.239796,65.199909,73.272228,35.796719,63.406048,76.018581,82.987576,28.422604,60.150661,72.658596,79.445286,20.821495,51.369381,63.867474,70.60564,12.58707,36.197491,47.97781,54.495564,-26.175506,-38.514658,-41.377099,-39.831177,-19.8585,-11.867873,-9.220633,-7.472109,2.300141,14.407977,15.907215,14.165606,21.107094,31.84512,30.638393,27.621453,35.609363,45.079777,40.93688,34.648465,26.583023,51.732616,75.100422,95.385647,47.874813,80.497684,97.691631,110.209179,39.305077,77.170086,96.613598,110.029278,32.103539,67.610836,86.236668,99.699383,26.636467,54.544773,70.076694,82.101002,-13.973068,-15.03993,-8.586827,-3.022065,17.19891,29.998227,33.035915,34.525149,34.59079,45.901489,48.151736,48.181315,46.374374,58.792506,60.617971,59.581182,52.905283,65.096729,65.768388,63.624846,-43.909121,327.537847,-67.797289,308.469567
33,9.799461,-7.147734,-0.394077,-1.616564,19.84045,38.608303,50.053768,52.199993,28.667278,56.097965,68.66724,74.43037,20.06155,47.854443,60.91444,69.439716,10.919724,37.788334,51.854153,60.52454,1.840439,23.20673,36.574001,44.396267,-23.639046,-33.387954,-35.034775,-34.192376,-13.355256,-0.097689,3.137477,4.20051,7.288586,23.2628,24.991009,23.715801,24.318362,38.260432,37.00659,34.470994,37.967797,50.343999,47.056716,41.401613,26.420631,50.999565,73.865318,93.950615,48.603687,82.614098,100.483589,113.558578,40.500069,78.273926,98.146477,111.824684,33.472424,68.562126,87.849426,101.751137,27.930794,55.431175,71.166687,83.596916,-15.744873,-17.076953,-11.187199,-6.056542,14.654917,28.518378,32.602365,34.815068,31.912366,44.121966,46.930128,47.10482,43.842299,57.214782,59.843189,58.875251,50.580997,64.424822,66.277643,64.606986,-34.154119,320.383784,-68.235826,306.846674
34,-4.897213,-12.237882,-0.36684,-4.434297,19.974346,38.442535,49.661407,51.762772,32.23114,63.496742,72.535057,73.462257,23.495178,56.727791,65.411797,68.067284,13.838482,45.546227,56.940308,60.232086,4.405289,28.244476,39.517479,43.612633,-20.871516,-28.102489,-28.76223,-27.627567,-2.976987,16.724667,19.208824,19.038393,17.034716,38.723066,38.529478,35.760281,32.044388,51.504722,48.188107,43.737138,43.300068,60.90826,57.267826,50.606686,25.472488,48.912792,71.467037,91.917286,50.874481,83.553028,100.961666,113.185444,43.371506,79.449406,99.166317,112.569065,35.527267,68.39613,87.67519,101.059055,28.258667,53.435783,68.433323,81.174717,-17.711438,-20.668542,-16.600116,-14.065941,11.447538,24.957788,31.134928,35.227128,28.774395,41.139051,45.925078,47.792843,40.838264,54.041923,58.674624,59.161094,48.087145,62.155495,66.152352,66.112399,-39.048643,308.046762,-68.599977,302.313236
35,24.198875,-8.114807,-1.540031,-9.655047,11.770248,19.312019,22.695007,22.468987,2.463226,22.563286,39.668427,50.400238,-6.463795,16.294441,34.758224,49.627647,-14.990387,5.726051,25.138321,39.822006,-22.499886,-12.641258,1.38588,13.708305,-20.163671,-26.806595,-28.435879,-28.044814,-3.779866,15.847255,23.551669,26.872421,14.950392,34.434685,41.151277,43.304329,28.750807,45.670234,50.249274,52.135935,39.58115,55.930189,58.658939,58.175187,25.513458,50.523262,72.429943,90.4632,51.036816,81.754704,98.975773,112.56094,44.653816,77.521992,97.801723,114.300213,36.858959,66.555004,85.659199,100.575314,28.085461,51.402111,66.038876,79.665012,-19.560555,-22.215699,-17.393177,-15.920059,6.485337,20.540225,27.696171,33.473478,23.363083,38.214242,45.601815,50.855478,35.89959,51.176271,58.685924,62.668764,45.513635,61.118644,67.165244,68.813856,-14.896345,299.872243,-70.186586,292.598476
36,6.663437,-15.290143,0.765781,-12.807591,9.04747,13.799057,12.682114,12.223091,-0.455475,17.026405,23.93074,25.57354,-8.009949,11.565628,20.278816,27.028084,-16.33152,0.337944,11.018143,18.502922,-24.328709,-15.38332,-5.631752,1.609383,-18.725442,-17.488087,-5.468493,5.581805,-3.494024,16.732262,18.303007,14.755817,15.306383,36.175182,37.770504,34.116609,30.048985,50.237356,48.5646,43.358793,40.812947,60.449454,59.221177,55.043885,23.375931,47.42197,67.890129,85.446625,47.411957,74.630127,90.975723,106.000671,41.508465,69.981766,88.672485,106.631584,33.981514,58.568001,75.312424,90.629997,26.031189,44.009686,56.309395,67.846069,-21.073254,-24.28477,-21.278513,-22.109673,-1.56704,9.829863,17.413369,23.980587,15.689298,30.694154,40.092875,48.030211,29.549239,47.286428,56.912514,64.303606,40.59009,58.330674,66.351991,70.650375,-8.176804,284.549943,-69.3647,279.758729
37,15.540047,-17.6508,16.199741,-13.348154,-2.306786,-4.101791,-3.492393,-1.176453,-14.786911,-20.426216,-12.466621,-6.22982,-14.904556,-25.169621,-15.85041,-2.433472,-15.308189,-25.681973,-17.551689,-5.397377,-14.938431,-22.201996,-19.858246,-14.824791,-14.449411,-17.626161,-16.345766,-11.610498,-6.361342,1.545675,3.102958,0.91897,13.320922,23.023271,27.926747,24.019922,29.740172,41.822134,43.706818,38.011763,43.601657,60.015164,60.654342,56.288526,15.87513,36.546764,57.000904,75.500736,49.613972,62.018566,67.718868,73.40704,48.601055,63.502636,65.190639,65.507755,44.544125,58.631344,57.800961,56.385784,36.492462,50.795689,51.78812,52.171841,-26.575154,-41.221488,-51.793837,-52.036516,-10.52474,-9.225265,-7.246411,-3.990929,9.827455,19.399262,22.361738,26.254608,28.891906,44.165191,47.326442,46.861091,46.652745,64.355785,66.450668,63.303435,7.528868,266.572978,-52.999334,266.084409
38,92.584534,-35.155065,-25.972137,-34.456483,-42.928734,-75.475159,-94.846802,-101.186028,-84.013481,-124.184875,-135.562305,-134.712009,-74.542809,-116.182766,-128.848686,-129.28997,-63.317757,-100.364113,-111.931686,-112.715263,-50.677414,-76.673927,-88.180389,-92.716026,-12.935415,-3.501681,11.200351,23.966385,10.056178,22.811961,23.770451,22.161914,26.905704,43.457099,42.314779,37.878752,41.028764,57.875512,56.511878,51.087907,50.888391,66.956342,68.24884,66.253067,21.748981,43.135185,60.165768,79.404659,77.699718,102.240658,106.798382,100.498409,72.989216,97.391453,100.266552,94.26836,63.596649,84.241734,86.264706,81.452465,50.192757,63.784103,67.122631,65.434284,-18.276516,-25.922638,-27.975221,-30.590043,12.324024,27.687588,38.22579,41.046672,29.729118,50.590631,59.550245,60.21505,41.618357,60.586849,66.853898,65.84996,50.784033,66.720888,68.172084,64.644283,100.265207,231.085124,-78.819666,231.295137
39,7.118912,-18.794232,-11.092014,-35.784549,-34.806175,-64.567909,-86.891327,-98.255196,-74.439583,-116.854019,-118.706474,-111.903076,-67.620964,-114.968719,-116.449585,-106.823273,-58.725929,-101.760406,-105.216064,-97.750854,-48.499374,-80.233154,-85.784454,-81.508369,-14.929829,-8.931333,5.94533,21.121173,2.551527,22.660178,28.411426,29.351885,18.264969,42.075434,48.069114,48.991048,32.377161,54.325481,55.84664,53.398978,43.38516,60.210542,60.03727,57.512358,20.159454,44.480667,64.003372,79.287529,49.281521,79.05304,91.989555,98.545761,48.246231,86.094131,108.559456,122.744293,43.906288,78.644943,98.31665,111.08963,37.119541,63.200111,74.181061,78.067131,-24.6005,-36.16098,-41.157514,-41.986699,-14.90056,-8.747069,-3.065476,-1.420939,3.931896,18.815659,24.913883,25.674957,20.047704,33.83972,40.106769,41.49251,33.459584,45.054212,47.230605,45.627565,107.367125,212.410858,-89.928675,195.630554
40,13.81279,-33.083401,-18.115739,-28.907745,-24.1325,-56.041374,-80.915565,-96.505852,-63.06015,-107.344551,-110.917397,-103.669052,-60.206337,-106.776237,-110.834885,-104.31324,-54.665451,-97.151184,-99.032249,-92.392044,-46.175194,-76.911163,-77.885742,-71.984711,-23.188947,-25.970062,-14.762609,-2.269204,-21.887804,-12.69008,-3.842358,-0.875683,0.587679,15.586421,22.78337,23.055196,20.279144,35.826663,38.340337,35.619181,36.038775,48.218488,47.248513,42.81823,26.27778,50.781555,69.231462,83.359622,48.563661,72.593278,85.31393,91.842813,44.33175,74.255905,94.551172,106.56495,39.122257,68.537807,87.306604,98.426857,34.271049,56.021747,65.167522,68.765831,-25.032397,-41.848192,-52.153178,-57.072556,-33.650825,-41.184638,-41.478416,-42.651365,-19.195486,-19.015221,-16.634928,-15.212152,-2.773551,3.107018,8.217282,9.977076,15.989003,25.990872,30.566979,31.944847,121.175051,179.411932,-108.049278,166.807283
41,7.293663,-35.536683,-18.11574,-28.907745,-23.25222,-50.708656,-73.625107,-87.569046,-48.380585,-95.143204,-103.248253,-97.776718,-43.33786,-91.836548,-98.461761,-91.944809,-37.816772,-81.006546,-85.199432,-78.301735,-31.660767,-63.240738,-66.474838,-61.607552,-21.828215,-29.240889,-23.402295,-15.991319,-36.543122,-32.546203,-16.695891,-10.21889,-19.927661,-10.028884,4.63338,7.480692,-0.425707,12.516438,22.54878,22.650051,19.606559,34.483283,40.479803,39.061273,32.396107,57.082443,74.459553,87.431717,47.845802,66.133518,78.638306,85.139866,40.417271,62.417679,80.542889,90.385609,34.338226,58.430672,76.296558,85.764084,31.422558,48.843384,56.153984,59.464531,-25.464295,-47.535405,-63.148843,-72.158413,-52.401091,-73.622207,-79.891355,-83.881791,-42.322868,-56.846102,-58.183739,-56.099261,-25.594805,-27.625683,-23.672206,-21.538358,-1.481578,6.927532,13.903352,18.262129,128.678198,144.215262,-125.955534,138.239551
42,7.136192,-26.062873,-6.576519,-15.151884,-21.714134,-45.233459,-62.758255,-74.533882,-42.002907,-67.450676,-83.842506,-89.16996,-39.638672,-71.832275,-90.008354,-94.156723,-35.870247,-66.614227,-80.790825,-84.304619,-31.256561,-53.120384,-56.508293,-54.211464,-24.548321,-38.39196,-43.45605,-42.728445,-47.81813,-69.089109,-67.476867,-63.991396,-36.245207,-50.180639,-46.352823,-41.09317,-19.948131,-25.212662,-23.91402,-24.279644,-1.429707,2.793033,7.469021,8.626841,39.31818,63.981171,83.8377,104.101868,52.121716,60.268764,71.853275,82.653351,42.318077,46.083927,60.249996,71.191292,32.235889,44.216194,62.283325,73.633461,25.679512,42.275105,55.662403,64.129143,-20.485143,-33.500895,-36.961203,-44.239909,-54.442806,-74.789783,-94.397361,-109.126687,-47.354199,-65.786604,-85.728591,-101.376331,-33.56314,-42.914807,-57.066705,-67.287911,-16.137143,-16.461672,-21.395128,-26.723726,135.94883,120.039636,-132.397614,124.974914
43,1.539917,-6.701957,16.848679,-42.479127,-35.254211,-56.272202,-75.401802,-97.079887,-52.789536,-58.450813,-63.35186,-69.99527,-42.877922,-49.228477,-58.567543,-67.607117,-31.19133,-37.421951,-45.640869,-53.185959,-20.661736,-24.251289,-30.738029,-38.250504,-19.519552,-33.489718,-40.812978,-48.943191,-48.57025,-76.855242,-100.068611,-117.268355,-43.218156,-73.747591,-97.331154,-114.834956,-36.416904,-62.785287,-83.697836,-98.359144,-26.98456,-45.370035,-58.057583,-67.89711,35.692749,55.794754,71.069069,86.753082,40.358448,45.776539,57.687435,69.383411,28.413048,28.796082,41.374969,52.454796,17.937412,17.047806,29.366169,41.190491,11.102314,8.786373,16.219997,25.277138,-4.05021,-11.904306,-13.063238,-17.565924,-55.428806,-81.760664,-95.323926,-104.252634,-52.732567,-80.882666,-93.813078,-103.656989,-42.976527,-68.435882,-81.086164,-90.536694,-26.886531,-42.702386,-50.548486,-57.402133,137.340975,115.80257,-115.696707,84.960678
44,-8.297081,-37.941182,-9.235325,-12.494115,-33.472023,-55.020218,-73.166428,-91.609955,-44.053574,-47.775536,-53.049774,-59.401588,-36.460991,-37.635384,-44.107132,-51.171913,-28.910408,-29.446793,-35.090103,-42.488594,-22.248344,-21.142616,-25.373955,-30.420341,-14.135349,-28.084149,-32.788573,-36.514346,-63.511163,-91.102915,-107.65783,-122.238923,-59.128767,-91.323888,-109.405397,-124.907066,-49.75558,-80.426793,-97.469073,-112.162522,-36.162431,-58.499438,-71.857009,-83.199572,31.813202,55.617828,76.877689,91.318817,43.084259,49.856815,59.455605,70.46093,33.0546,37.82999,49.521046,61.313496,23.405113,26.159248,35.607834,45.583477,16.25845,18.294525,25.265236,31.863613,-8.447858,-17.500623,-17.804249,-16.233072,-53.590466,-78.669593,-93.944483,-106.495625,-50.912072,-79.154333,-95.962579,-109.722671,-42.68417,-67.035321,-82.315244,-94.869504,-28.957547,-45.975003,-56.608023,-65.642726,129.020777,78.40192,-124.955149,73.007095
45,6.346779,-14.757607,-4.016304,-13.108995,-34.386063,-57.220917,-79.432526,-99.901657,-50.837746,-56.993523,-62.690735,-69.980164,-41.958961,-47.374191,-52.884064,-59.897919,-32.577324,-35.572128,-39.66465,-45.653572,-24.251633,-26.1446,-29.765968,-33.190041,-16.643064,-29.453434,-32.468428,-35.469622,-60.629025,-87.377821,-108.4583,-127.64193,-56.460594,-87.132919,-108.993491,-129.096615,-47.084164,-73.79165,-95.235407,-114.858699,-33.603679,-50.224512,-63.25777,-74.893184,33.56638,57.6717,79.660721,95.969925,43.594666,50.422325,59.794006,70.059414,32.652912,37.658272,48.762016,59.156513,21.993942,24.260387,33.523521,43.597355,13.483601,16.428509,24.573555,32.32996,-7.831867,-15.541807,-13.542792,-12.977775,-51.904834,-78.507343,-95.453046,-110.793423,-48.508777,-78.997179,-97.525976,-114.519134,-38.138783,-63.339682,-79.569142,-94.043809,-21.893917,-36.492116,-42.801804,-47.737978,135.986423,63.950039,-128.352585,60.203827
46,0.676231,-14.813615,1.008282,-9.078669,-36.083679,-61.372147,-83.738708,-106.041985,-55.850258,-63.520317,-71.663246,-81.230164,-45.867805,-51.365547,-57.360992,-64.900818,-35.183372,-40.191536,-45.78083,-52.36702,-25.984612,-30.595894,-34.869919,-37.577477,-14.49381,-26.182298,-26.633817,-26.394689,-58.629083,-86.347762,-107.265467,-126.180977,-54.957373,-86.128085,-108.231553,-128.466607,-45.107781,-71.690746,-93.138455,-112.428419,-30.33631,-46.826881,-58.787658,-69.726188,32.422657,55.498409,77.937012,94.856014,44.411716,52.04361,62.825603,75.105228,33.826046,39.823952,51.863823,65.032139,22.422638,24.89193,34.062996,45.795364,12.4617,15.623932,23.481388,31.767082,-4.355812,-11.850707,-8.956866,-6.917991,-50.608816,-78.041097,-95.42461,-110.092031,-47.662179,-79.247268,-97.263568,-113.130398,-37.249917,-63.949622,-80.062373,-94.0301,-20.969051,-36.481927,-42.312833,-46.850562,137.032156,49.089571,-126.974802,51.078304
47,-3.290291,-8.219813,1.711979,-3.440239,-37.70359,-63.632011,-85.468254,-107.201958,-59.449081,-66.883163,-74.222832,-82.258759,-49.463539,-54.367447,-57.822647,-61.898117,-38.403282,-43.034935,-47.713737,-52.663994,-28.831444,-33.880806,-39.373283,-42.95002,-12.27768,-23.617649,-24.324753,-22.682069,-57.150593,-84.975761,-103.713707,-120.981068,-53.91731,-84.748149,-105.593729,-124.82747,-45.001755,-72.280679,-91.854633,-109.394097,-31.280412,-48.228492,-59.747939,-70.191786,31.210957,54.304733,76.075459,92.728672,44.609184,52.350769,63.0126,76.07975,33.047676,38.405914,49.906654,62.976494,21.224213,23.416386,33.272209,45.734825,10.965328,13.998871,22.092419,30.718689,-2.614976,-10.711288,-7.771351,-3.319517,-49.982945,-77.970732,-95.213084,-109.108038,-47.94583,-78.767374,-96.262625,-111.271278,-38.023187,-63.339312,-77.282925,-88.722004,-22.158394,-37.101006,-42.180194,-46.159637,133.998842,40.712957,-125.005846,47.481266
48,-6.320457,-4.538594,0.908203,-1.361689,-35.631752,-61.608925,-83.171883,-103.645935,-58.05851,-65.887871,-73.705673,-82.195587,-47.544823,-52.017632,-55.943871,-60.00721,-35.560799,-39.191322,-43.543167,-48.272781,-24.909325,-29.552307,-35.644913,-39.580193,-9.397795,-20.723191,-21.738492,-20.710347,-57.00727,-86.575066,-105.396066,-122.849295,-53.615382,-86.158683,-107.21406,-126.833339,-43.48146,-70.594707,-90.030372,-107.621798,-27.504035,-42.342288,-51.638473,-59.702336,30.632458,53.450432,74.820385,91.277504,44.347572,52.040577,62.297115,75.126743,32.517471,37.298813,47.895412,59.46825,21.06863,22.790852,32.237606,43.731136,11.104317,12.802448,20.135422,27.89875,-1.946342,-9.95713,-8.100697,-3.691131,-48.541597,-76.764623,-93.246642,-106.260943,-46.667318,-76.901647,-93.915368,-108.666986,-37.306481,-62.645916,-77.564723,-90.311552,-21.738399,-37.027739,-43.648557,-49.581351,128.103647,36.059956,-123.67238,46.005168
49,-2.353706,-4.075929,-1.536026,-4.944325,-35.638046,-61.758385,-83.706894,-102.435265,-55.025597,-63.911819,-72.539291,-82.772942,-44.124985,-49.254341,-54.842148,-60.65815,-32.672081,-36.509628,-41.749535,-47.784233,-23.177948,-25.941353,-32.745209,-38.367348,-8.499944,-18.092284,-17.865475,-17.330377,-56.173053,-86.686463,-105.088179,-122.282704,-51.957908,-85.849807,-106.514088,-126.023915,-40.340988,-67.974699,-86.166401,-102.318457,-22.496169,-36.47532,-44.435813,-50.842757,30.661354,54.079056,76.15139,92.680607,44.338017,51.976719,61.85606,74.540462,32.63031,36.802311,47.027779,58.893471,21.20882,22.464352,30.818081,42.131081,11.388702,13.642216,19.869347,26.826954,-1.865573,-9.262685,-5.900375,-0.595305,-48.287433,-75.699367,-92.322269,-105.489371,-45.889633,-75.682849,-93.108537,-107.67126,-35.724064,-60.165186,-75.716811,-89.008711,-19.503775,-33.749132,-40.753975,-47.308411,125.785789,31.498931,-125.172558,40.575748
50,-0.722351,-3.181999,-1.972675,-7.32647,-34.443626,-59.425735,-80.979767,-99.186516,-51.657372,-60.245018,-68.442993,-77.810326,-40.522156,-44.754753,-49.75193,-55.126534,-29.496918,-32.257462,-37.821465,-44.063072,-20.953217,-22.345161,-28.525085,-33.784218,-7.600333,-17.831142,-18.396189,-17.84556,-57.711873,-87.127423,-105.672924,-123.214734,-52.944278,-86.144202,-106.663771,-126.404884,-41.379476,-68.882924,-86.823364,-102.942198,-23.91896,-39.049479,-47.286428,-53.578517,30.897331,53.601494,75.747013,92.068634,41.548977,48.963718,58.960304,71.101398,29.480209,32.484684,42.722282,53.382225,18.032627,17.745609,25.053177,34.648876,9.593582,9.892101,14.939632,20.925064,-1.288114,-8.326055,-4.311537,0.1591,-49.172563,-78.106027,-96.139062,-111.137805,-45.632474,-77.057814,-96.137055,-111.953188,-33.577188,-58.650109,-75.551042,-89.422315,-15.839413,-30.745191,-38.845301,-45.663256,125.198565,27.406747,-127.010107,32.339092
51,2.937012,-7.522898,-5.294952,-8.338374,-33.957939,-58.063774,-79.28009,-96.443939,-50.359726,-58.415222,-65.56778,-74.900093,-39.380035,-42.757645,-46.201057,-51.111488,-28.467178,-29.422188,-33.332062,-38.558693,-20.205345,-20.071678,-25.318222,-30.522537,-7.379606,-16.955799,-17.580898,-16.810932,-57.708446,-85.241535,-103.779348,-121.231898,-52.977191,-85.40681,-107.291711,-128.14992,-41.924176,-68.785482,-88.760938,-107.261855,-24.894926,-40.288593,-48.464564,-54.601165,29.88287,51.917782,73.318577,90.215893,40.624237,45.857449,53.332787,62.613945,27.85984,28.749619,37.158051,44.907703,15.614491,15.271969,21.56496,29.615364,5.995216,5.426788,9.036541,14.181232,-2.519911,-10.017862,-6.985299,-2.840272,-51.164817,-81.642227,-99.896328,-115.672199,-47.752767,-78.686697,-98.335432,-115.22559,-35.648636,-60.226474,-77.17443,-91.025974,-17.613718,-32.469169,-41.675847,-49.019793,128.485909,18.135617,-131.954727,22.252487
52,5.532074,-7.291828,-7.006874,-10.594271,-33.334351,-56.530495,-78.507729,-94.609108,-46.332664,-50.55542,-55.656624,-63.246689,-36.289444,-35.929642,-38.281288,-42.157631,-26.128349,-23.885994,-27.197685,-32.705612,-18.119545,-14.629097,-18.948097,-25.046425,-9.116429,-17.79298,-18.410577,-20.376339,-57.96894,-84.781957,-104.324913,-122.814345,-51.500091,-84.016592,-105.628711,-126.690603,-39.30389,-65.545747,-84.972797,-103.440523,-22.322434,-36.961666,-45.402299,-52.518417,29.587154,51.464882,72.674217,89.571991,37.876053,41.356888,48.51614,57.287807,24.631577,23.761768,31.424961,37.580452,12.302856,11.520538,17.379456,24.114475,3.672009,3.053055,5.977707,10.351982,-5.030683,-13.097726,-9.016672,-3.499396,-54.566029,-85.475507,-105.361239,-122.139258,-50.338781,-80.537172,-100.723691,-117.855416,-36.849651,-60.691207,-78.77673,-94.057703,-17.246365,-30.554907,-40.218445,-48.696468,134.111052,7.873795,-138.868532,8.688221
53,7.444267,-8.487162,-7.46933,-9.405143,-30.448036,-52.370911,-74.57634,-90.1054,-41.726761,-46.505928,-49.426918,-54.140968,-29.797897,-28.209457,-28.335114,-29.780159,-18.22506,-14.948502,-16.213989,-19.213486,-10.245895,-4.515381,-4.241524,-7.421265,-11.826007,-20.992763,-19.784523,-21.588037,-55.849388,-85.634545,-107.751351,-126.791905,-49.37742,-81.671712,-103.191268,-123.364139,-36.223471,-61.042382,-81.133372,-99.092306,-17.926886,-28.651852,-37.365607,-45.889942,28.794823,50.756664,71.119308,87.618771,34.762173,37.40221,43.96946,51.895466,21.543903,19.836502,25.796814,29.969501,9.862518,7.690945,11.642246,15.88623,1.989384,-0.721092,0.497932,3.066444,-7.682616,-16.939095,-13.659593,-6.993172,-57.793106,-88.327295,-108.552315,-125.423639,-53.337165,-82.888998,-102.587133,-119.963328,-40.085959,-65.483039,-83.063104,-98.832399,-21.369811,-35.514854,-45.463463,-55.042279,141.245098,-4.958404,-146.648083,-5.061959
54,8.150711,-8.23133,-6.995487,-11.449206,-28.978729,-48.554306,-70.028114,-83.915977,-36.738968,-39.609604,-40.491028,-43.946228,-24.633751,-22.125893,-20.953445,-21.779137,-13.232803,-8.917007,-8.73848,-11.197357,-5.79586,1.49826,3.440094,1.361046,-12.369935,-21.541569,-21.061707,-25.973674,-57.949921,-86.416491,-107.748263,-125.158236,-51.203966,-82.230121,-102.443563,-120.107207,-37.829074,-61.580228,-80.191679,-96.131034,-19.2196,-30.401827,-39.609894,-48.832751,26.076565,45.539532,64.938526,80.647259,28.722439,29.850311,34.408436,41.372051,16.620598,12.282429,17.109776,20.766907,5.824127,3.316727,7.038174,10.220203,-0.415306,-3.594704,-4.76635,-4.544277,-12.351132,-21.828709,-17.58732,-10.4235,-59.570314,-89.15262,-109.8701,-126.724257,-54.679002,-82.65552,-101.970061,-117.697212,-41.802559,-65.700987,-83.198152,-97.094557,-24.178991,-36.38961,-47.230605,-57.562808,148.760118,-14.801342,-154.279261,-18.122773
55,7.418976,-5.132138,-10.436153,-15.869022,-25.425453,-41.480141,-62.198067,-76.746597,-30.169144,-31.557312,-31.579628,-33.461037,-20.914421,-17.018394,-13.642387,-13.293686,-12.180748,-8.343658,-6.594887,-8.909225,-7.113991,0.205193,4.6241,3.920631,-15.40117,-24.5691,-24.649776,-29.950957,-59.318557,-87.370318,-109.459861,-126.609247,-53.348342,-82.908234,-102.658856,-119.488097,-42.286929,-65.082649,-83.61012,-99.822073,-28.115889,-39.858069,-51.454117,-62.676668,23.076553,42.031517,61.388283,77.492523,21.836357,24.233322,28.677864,34.729328,12.422905,8.427029,12.491283,15.259495,4.452152,3.451138,6.801052,9.047012,1.196938,-0.589485,-3.232212,-6.013584,-9.588264,-17.12061,-13.399932,-7.659151,-50.450303,-78.715041,-101.15264,-119.083369,-50.58603,-75.116906,-94.610585,-110.1234,-43.241158,-65.347096,-83.202382,-97.293115,-31.799733,-44.416577,-56.65236,-67.387051,155.841608,-20.345093,-165.0529,-34.403408
56,46.851082,-13.478787,-33.731575,-2.452804,-29.789429,-54.427643,-75.189972,-94.802856,-36.431122,-43.45562,-48.481522,-53.9114,-23.421936,-19.645042,-19.643555,-19.311905,-13.818512,-7.646027,-7.245369,-7.915077,-6.592827,-2.892723,-3.933678,-4.449692,-8.955848,-23.004529,-23.861532,-23.323161,-71.106433,-103.24425,-118.934597,-134.080059,-67.834155,-101.511441,-119.568342,-135.286785,-55.442268,-81.36401,-98.378039,-114.646,-37.829661,-47.240424,-50.794561,-54.691877,27.916975,50.508642,71.197271,89.775753,29.706144,34.439564,41.153383,49.37233,16.461697,12.532368,16.451683,20.063496,6.751642,3.737697,7.313776,10.815582,1.70311,-0.496502,0.590572,1.394777,-10.996405,-22.775651,-21.368421,-16.485384,-64.163417,-93.781215,-114.660288,-130.853878,-62.953264,-93.938455,-112.669238,-126.738722,-53.438174,-77.614402,-92.564917,-103.382432,-39.009094,-49.29185,-53.236497,-56.018168,201.200094,-33.145877,-200.277071,-36.178208
57,11.32885,-3.097679,-33.731575,-2.452804,-30.863457,-52.542114,-74.24366,-89.63974,-31.998367,-33.933563,-37.573929,-44.259338,-17.634773,-8.975143,-5.508499,-3.782272,-6.530113,2.242126,5.886497,6.87767,-0.629425,10.314217,13.17524,12.32563,-12.204537,-25.34876,-28.504731,-29.152956,-72.210839,-101.093853,-118.994294,-137.03284,-65.847644,-99.177244,-120.012759,-140.041027,-51.797172,-77.741453,-96.783119,-115.105547,-32.701413,-42.214403,-47.414128,-52.580877,32.757397,58.985767,81.00626,102.058983,37.575932,44.645805,53.628902,64.015331,20.500488,16.637707,20.412083,24.867496,9.051132,4.024258,7.8265,12.584152,2.209282,-0.403519,4.413357,8.803139,-12.404546,-28.430692,-29.336911,-25.311617,-77.876532,-108.847389,-128.167936,-142.624386,-75.320497,-112.760004,-130.727892,-143.354045,-63.635189,-89.881708,-101.927453,-109.471748,-46.218454,-54.167122,-49.820634,-44.649284,210.943766,-34.38405,-235.593824,-36.771506
58,34.159927,-7.226218,-10.449429,-11.329904,-28.675117,-54.220505,-74.941978,-93.752518,-34.31488,-40.532227,-44.757729,-49.190941,-19.064484,-12.593651,-10.715446,-10.207329,-8.331299,0.201187,2.279091,1.744652,-0.34584,5.096855,4.764519,3.683739,-8.792518,-24.16235,-27.588201,-27.035905,-73.259948,-105.801828,-122.823731,-138.498764,-72.035808,-108.312013,-125.186008,-138.840151,-61.205156,-89.468844,-103.530988,-116.890736,-44.777972,-54.988773,-55.940408,-57.600692,31.228466,57.979832,82.268715,100.905933,33.084412,38.545017,46.132107,55.786858,16.997623,8.752098,9.732914,10.683517,5.221825,-5.280533,-4.46228,-2.209225,-2.0438,-10.783539,-10.470428,-7.738838,-11.372079,-23.277868,-22.53359,-19.33569,-72.061558,-101.415974,-119.836153,-135.099913,-68.656825,-100.672083,-120.489812,-137.687889,-55.641907,-80.077934,-98.331819,-114.40769,-37.116104,-48.192677,-54.615831,-61.075665,245.029392,-39.583481,-246.117554,-46.074622
59,7.748566,1.272892,-11.183567,-1.410503,-29.364166,-50.661163,-70.959663,-87.239799,-25.670471,-29.953766,-32.349358,-37.053108,-9.98806,0.83725,7.157135,11.163025,1.453514,13.475075,20.315094,23.800507,8.391838,20.237846,25.346146,26.663132,-11.617661,-26.894713,-32.32702,-33.651597,-73.264548,-101.992569,-118.158611,-134.957131,-68.149576,-100.755523,-120.582438,-140.393946,-54.996986,-80.432382,-97.04633,-113.529167,-36.911401,-45.966976,-50.498159,-54.827882,27.116432,52.583885,75.424061,92.540531,27.15786,31.007023,36.767693,45.055332,9.387932,1.992645,0.409927,-0.57827,-2.667732,-10.972767,-11.482773,-10.324173,-9.5228,-16.56538,-18.214359,-17.372475,-9.910571,-23.562846,-25.130071,-23.568465,-68.368049,-98.520004,-117.482027,-134.123902,-64.141234,-95.58547,-116.476931,-132.97556,-52.071683,-77.445792,-95.077295,-109.0185,-35.943217,-46.324511,-50.106044,-53.521799,253.310251,-34.983137,-256.768827,-44.157673
60,15.241241,0.72603,-14.008827,0.424225,-26.952896,-46.7593,-68.711472,-85.657654,-20.024872,-20.534477,-21.321716,-25.238457,-4.689102,6.567078,14.598427,20.34771,5.425415,16.975136,25.105133,30.768471,10.773125,22.279129,29.638023,33.694954,-11.894086,-25.805219,-32.475221,-37.502322,-70.409611,-101.051523,-119.307384,-137.144022,-64.285174,-96.227427,-115.805704,-134.675673,-50.032963,-74.321406,-90.87061,-106.869061,-31.819277,-38.559674,-43.006074,-48.543759,25.915546,49.988537,72.575855,90.996723,22.635555,25.687523,30.664673,37.148895,5.48933,-2.897644,-6.064053,-9.28997,-5.36974,-14.579258,-17.341805,-19.149914,-10.890999,-21.083679,-28.122883,-32.848492,-8.291413,-21.320503,-23.483805,-21.602888,-65.535311,-95.712614,-114.979298,-131.604917,-60.136225,-90.583069,-111.806207,-127.707478,-47.613859,-72.576741,-90.206762,-104.165381,-31.87405,-41.798205,-47.987079,-54.82603,268.592949,-32.861531,-270.736198,-42.337873
61,13.71254,4.281372,-13.734913,3.506682,-24.385529,-43.176842,-64.59549,-82.001724,-14.95388,-13.708992,-12.495575,-13.834305,-0.268936,12.619171,22.359238,29.735985,8.759651,21.298256,29.948959,35.711632,12.749405,23.5429,30.824776,34.220924,-12.361908,-26.661481,-32.980802,-39.512545,-69.330182,-99.571088,-117.607179,-135.220219,-62.892239,-93.972147,-112.096372,-129.842746,-49.395976,-71.657339,-86.235006,-100.683429,-32.450181,-38.274943,-42.07281,-47.644827,25.647411,48.378181,69.500656,87.104244,18.917255,19.950371,24.052963,30.122967,2.180729,-8.55423,-12.286377,-15.698147,-7.690887,-18.264427,-22.116051,-24.879799,-11.626053,-20.803585,-28.267651,-33.242226,-9.087407,-22.104517,-24.061449,-23.218495,-63.465128,-93.465856,-112.954008,-129.074385,-56.285254,-86.393242,-107.752261,-123.664308,-42.4443,-67.046035,-85.358799,-100.039743,-26.387865,-35.695567,-42.639493,-50.459287,282.863703,-27.383606,-283.912897,-37.634638
62,13.659554,5.83421,-11.377773,7.515612,-24.759407,-43.166656,-63.105011,-80.298042,-10.599632,-9.086037,-8.047028,-8.53466,3.614159,17.754478,28.430786,37.152214,11.67572,24.339294,33.665199,39.883804,14.665489,24.097939,30.349045,32.365379,-11.718314,-26.545391,-33.486322,-40.085095,-67.3115,-97.438816,-115.517391,-132.372737,-61.501373,-90.253291,-106.927507,-122.465486,-49.022232,-68.834265,-81.2243,-93.076674,-33.666602,-39.480589,-43.097064,-48.247295,23.885536,45.618267,66.108398,84.711285,15.271397,14.975681,18.607979,24.25827,-0.382805,-12.948875,-17.96814,-23.137493,-8.28352,-19.104424,-24.994068,-29.603119,-9.775543,-17.71162,-24.867668,-29.572048,-8.435693,-21.224388,-23.469664,-23.217013,-60.758484,-90.725712,-110.312078,-126.819584,-53.299251,-82.851238,-102.836913,-117.423889,-39.187707,-62.557058,-78.066785,-90.299696,-23.380991,-30.419797,-33.898661,-38.603888,295.992107,-21.585304,-295.821819,-30.154934
63,7.848129,6.133391,-4.634972,6.430719,-23.081932,-40.274849,-58.846321,-75.806122,-5.443268,-2.836189,-2.910347,-5.241623,8.966675,24.709282,34.902306,43.974495,16.718445,31.49437,41.106377,48.878975,18.847618,30.234489,36.302948,39.944687,-11.055794,-24.625632,-31.555572,-35.542179,-63.576588,-94.269507,-111.591176,-127.592298,-56.416967,-86.65636,-103.5681,-119.721359,-43.255824,-64.74049,-77.758465,-90.416466,-27.130074,-31.576382,-33.44708,-36.91628,24.262733,43.866177,61.399612,80.097542,10.193367,8.244839,10.641518,15.179443,-6.385975,-20.490589,-28.122025,-34.51458,-14.692783,-26.432018,-37.092876,-44.977913,-16.11248,-23.217773,-31.712837,-37.994728,-6.869085,-16.849279,-18.682711,-17.848463,-54.954223,-85.957531,-104.330192,-119.897224,-47.364079,-77.029934,-94.585267,-107.191645,-32.703173,-53.062716,-64.194185,-73.774483,-16.681658,-20.670271,-18.214766,-18.81992,304.112749,-15.497007,-300.184278,-23.769308
64,5.673409,7.826957,-1.003532,8.246706,-22.00779,-39.762611,-56.838799,-73.137245,-4.065399,-0.859108,0.5373,0.229568,12.181549,26.783752,36.537781,45.58754,21.084824,39.750252,50.984001,60.006523,24.984169,37.77832,45.407066,52.860374,-8.875109,-22.010656,-29.703585,-33.296131,-61.610208,-92.414215,-110.645253,-126.471575,-54.807381,-85.359848,-102.609147,-119.32205,-42.042181,-64.75423,-78.652241,-92.021637,-25.869069,-30.785915,-31.804611,-33.525071,23.343945,41.52729,57.100067,75.613689,6.535778,1.711979,2.346039,4.72887,-10.139351,-26.27758,-33.965836,-40.149536,-18.525581,-33.954906,-44.776955,-52.90844,-20.550442,-32.310619,-42.632675,-49.875641,-7.290779,-17.256554,-21.137845,-22.165249,-54.071995,-83.898031,-103.017101,-119.206546,-46.723264,-73.863651,-92.315322,-106.750345,-33.350996,-54.196885,-69.908043,-83.86589,-18.965713,-24.090596,-25.081196,-28.862019,309.298124,-8.07118,-301.675844,-15.923733
65,1.80439,10.844607,-0.75388,13.97807,-21.9627,-37.40799,-54.401321,-73.860397,-5.47554,0.074387,2.651024,3.904381,10.938034,27.458267,36.765976,45.641098,20.835228,40.947418,52.917137,62.997665,26.38195,42.197113,52.569351,63.192215,-9.510428,-25.295284,-34.449567,-38.576439,-64.589356,-95.274772,-114.451579,-130.962836,-57.536409,-88.437582,-108.167116,-125.560818,-43.48921,-66.905645,-82.084637,-95.444926,-25.328753,-31.938054,-36.017811,-40.759903,22.336121,39.12569,55.390434,76.088104,5.868187,1.022415,0.675488,1.635189,-10.87389,-26.206913,-33.259392,-38.962326,-20.14246,-37.471504,-47.348213,-53.860188,-23.551998,-39.375515,-48.793545,-54.77108,-10.547032,-25.620555,-32.432891,-32.868417,-61.159769,-91.747589,-111.917002,-128.765479,-53.458968,-82.600686,-102.74154,-118.35263,-39.178259,-62.214621,-78.965995,-93.573363,-21.382747,-29.888249,-35.874488,-42.831321,310.894461,2.256283,-302.637777,-2.462807
66,-2.153778,7.617531,4.1292,3.886911,-21.393585,-35.539856,-51.960297,-71.055222,-4.212914,0.818138,3.359985,4.595375,11.999817,28.58242,37.6371,46.097946,21.97197,42.152023,54.142685,64.522362,27.376442,45.826721,57.255249,67.993126,-11.498452,-29.621395,-40.984057,-47.241072,-66.214164,-97.59066,-117.902068,-135.430448,-60.533466,-92.054303,-113.346339,-131.5955,-47.180588,-71.535876,-88.921056,-104.512603,-29.143724,-35.418091,-39.491889,-43.593753,21.053123,37.318497,54.027615,74.931622,3.848763,-0.659981,-0.832844,0.990601,-12.403507,-27.436695,-34.692478,-41.222763,-21.502991,-37.550182,-45.547371,-50.923347,-25.172825,-42.02219,-49.583931,-54.400806,-11.169662,-29.484618,-37.531468,-37.060868,-65.532717,-96.878245,-116.917643,-133.416613,-59.016968,-88.491829,-109.009484,-125.59228,-44.687847,-68.451505,-85.515367,-99.950328,-25.712563,-34.106945,-40.35303,-46.426368,308.684292,9.622397,-298.564968,1.172687
67,-1.842041,1.003784,1.839867,-2.452171,-22.296638,-35.802498,-51.914177,-73.331337,-6.397934,-0.614433,2.054787,2.539673,9.693604,26.299553,35.882034,45.016365,20.450821,38.977661,51.240349,62.544823,26.401978,45.143166,56.977959,68.079872,-13.936358,-33.295884,-44.52603,-50.264804,-68.933776,-100.017204,-120.838424,-138.583115,-63.289325,-94.468713,-116.569309,-135.84186,-49.597344,-74.530864,-92.828684,-108.839547,-30.579669,-37.152938,-41.290864,-45.324679,21.411667,37.856312,55.796814,77.412357,4.961414,0.165138,-0.558529,1.190758,-11.347046,-27.15271,-34.510975,-40.19125,-20.57539,-36.82497,-44.358673,-49.075527,-24.472046,-40.540638,-47.637177,-52.196445,-11.717295,-30.305219,-39.360145,-40.948149,-66.360914,-97.959032,-117.80123,-134.688856,-60.348739,-89.704515,-109.357757,-126.232384,-46.452828,-69.261609,-85.487795,-100.303386,-28.127158,-36.45593,-42.627853,-49.644769,306.781454,10.225513,-296.785898,-1.680152
68,-1.725769,-1.094001,2.957096,-2.550539,-22.377777,-36.561928,-52.986717,-73.742523,-6.627846,-1.204376,1.105499,1.225662,9.270058,25.823822,35.24437,44.102783,19.698601,37.605972,49.376221,60.259094,25.479927,44.386826,56.07914,67.100372,-13.663112,-33.055798,-44.519855,-50.628051,-70.114351,-101.197779,-121.496282,-139.144303,-64.49423,-95.945938,-117.835934,-136.693707,-50.751614,-75.567622,-94.06008,-110.263265,-31.465694,-38.252219,-42.43266,-46.550795,21.116238,38.220406,55.668526,76.036263,4.303665,-0.157757,-0.612202,1.074429,-11.904545,-27.125988,-33.885784,-39.35955,-20.996304,-37.219334,-44.388084,-48.896484,-24.901886,-40.734615,-47.504597,-51.720486,-13.020877,-31.996779,-41.603259,-43.198211,-67.091298,-98.880163,-118.658974,-135.474723,-61.213585,-91.427753,-111.612511,-128.735067,-47.192104,-70.738524,-87.400236,-102.596611,-28.842784,-38.697347,-45.592336,-53.293106,304.897013,9.131497,-293.987474,-4.230706
69,-1.183891,-0.380568,1.173878,-1.271472,-22.853622,-37.759781,-53.790436,-74.092941,-7.772942,-2.406807,-0.260124,-0.240898,8.28392,24.743614,33.749542,42.36763,18.776436,36.561127,47.790756,58.474388,24.731827,43.699837,55.257225,66.286469,-13.762191,-33.424695,-45.068168,-51.285601,-70.861284,-102.254514,-122.581576,-140.030483,-65.119206,-96.997362,-118.826565,-137.617092,-51.330524,-76.373743,-94.515983,-110.501405,-32.130314,-39.03049,-43.496496,-47.835142,21.199951,38.377762,55.415668,74.567184,4.369297,0.153637,0.099335,2.044258,-12.063446,-26.63229,-33.162174,-38.447342,-21.578465,-37.048645,-43.589516,-47.432728,-25.839615,-42.36866,-49.619865,-54.387474,-13.078521,-32.551143,-42.368748,-42.763797,-67.930733,-99.777767,-119.375526,-136.182074,-62.412623,-92.918778,-113.276808,-130.005767,-48.924265,-73.090103,-89.582836,-104.227347,-30.867549,-40.102601,-46.320343,-53.144288,303.641253,8.809978,-292.885466,-5.443129
70,-2.127342,0.930887,0.985794,0.295445,-22.180138,-37.11937,-53.137093,-73.389244,-6.700516,-1.665573,0.406723,0.640984,9.612236,25.453606,34.260521,42.828369,19.944534,38.26664,49.330559,59.826736,25.580521,44.907875,56.304588,67.113419,-14.670879,-34.696939,-45.965525,-51.309529,-71.507162,-102.781585,-123.013768,-140.601767,-65.645504,-97.376911,-119.448515,-138.517598,-51.898967,-76.808651,-94.886702,-110.83884,-32.940356,-39.834234,-44.450911,-49.11143,21.188164,38.207302,55.16058,74.314327,4.137955,-0.306244,-0.434303,1.568756,-12.047939,-27.041473,-33.859119,-39.391022,-21.253796,-37.258186,-43.989258,-47.835846,-25.208874,-41.898537,-48.940487,-53.157005,-13.006767,-32.552718,-42.207858,-43.040284,-68.531039,-100.727303,-120.556966,-137.575935,-62.726068,-93.250687,-113.918796,-130.960397,-48.674114,-72.999793,-89.849566,-104.849668,-29.818873,-39.575654,-46.302836,-53.847039,301.421242,9.963321,-291.99234,-4.925228
71,0.658722,1.179464,0.522938,1.603751,-22.394371,-37.963943,-53.978119,-73.809242,-7.689629,-2.572517,-0.262985,0.101624,8.600693,24.695778,33.59642,42.16095,18.966637,37.51133,48.797836,59.378929,24.660759,44.050484,55.359764,65.944633,-14.651644,-34.364351,-45.852521,-51.677191,-71.847654,-103.249406,-123.382881,-140.919164,-65.970898,-97.742257,-119.416003,-138.28625,-52.139238,-77.100144,-94.93107,-110.750568,-33.042059,-39.92899,-44.314905,-48.642745,21.251392,38.479214,55.72998,75.338287,3.953476,-0.710506,-1.0639,0.662155,-12.2929,-27.223148,-34.053268,-39.783611,-21.530972,-37.594242,-44.384136,-48.381386,-25.416641,-42.156715,-48.951359,-52.635384,-13.263062,-33.139717,-42.385637,-43.032936,-69.416479,-101.585695,-121.422923,-138.525595,-63.336904,-93.268347,-113.448258,-129.95473,-49.08991,-73.167785,-90.12522,-105.013492,-29.851137,-39.36808,-46.084271,-53.418954,301.956997,11.243237,-291.592369,-3.221025
72,0.216408,1.350729,-0.133896,2.160153,-22.248802,-37.986031,-54.050903,-73.377686,-7.605629,-2.769928,-0.657578,-0.433044,8.702202,24.412994,33.213959,41.765671,18.882866,37.401924,48.603973,59.12075,24.506607,43.773537,54.849243,65.243111,-14.583163,-34.045966,-45.840851,-52.098143,-71.533592,-102.839846,-122.962021,-140.431706,-65.721612,-97.753835,-119.534502,-138.406602,-52.025247,-76.973309,-94.731955,-110.603479,-33.204771,-40.006857,-44.112765,-48.094061,21.504936,39.304104,56.788788,76.430626,4.578838,-0.011845,-0.628223,0.79565,-11.836739,-26.761551,-33.547783,-39.169922,-21.193943,-37.413826,-44.486675,-48.617764,-25.070057,-41.646709,-48.262825,-51.692047,-13.123753,-33.073027,-42.394406,-43.142821,-69.72097,-102.018751,-121.988556,-139.168262,-63.711667,-93.657128,-113.839725,-130.063658,-49.561714,-73.620848,-90.896359,-105.800748,-30.377158,-39.550768,-46.198108,-53.26288,302.073412,12.651486,-291.826258,-1.003352
73,-1.185379,0.536982,-0.367756,0.952377,-22.044983,-37.253494,-53.109741,-72.655678,-6.587219,-1.207123,1.096916,1.502495,9.476509,25.630531,34.459076,42.973022,19.51664,38.435211,49.776649,60.571976,24.898224,44.543037,55.846825,66.453781,-14.954437,-34.4123,-46.088748,-52.229548,-71.474064,-102.542703,-122.691214,-140.258929,-65.334993,-96.876146,-118.588116,-137.62938,-51.388785,-75.719652,-93.168558,-108.990743,-32.310502,-38.620035,-42.767008,-46.977984,21.731014,39.857883,57.260399,76.66872,5.597134,1.186752,0.769501,2.46912,-11.015625,-25.796356,-32.496014,-38.156891,-20.587978,-36.741199,-43.5569,-47.583675,-24.585743,-41.037025,-47.677002,-51.158409,-12.615177,-32.348571,-42.120759,-43.146927,-69.651933,-102.028291,-121.732076,-138.949048,-63.579058,-93.755496,-113.828054,-130.392417,-49.198066,-73.049132,-89.848177,-104.860752,-29.895628,-38.633898,-44.89434,-52.094191,300.702124,13.16985,-292.379923,-0.069593
74,-0.18734,0.794265,-0.10294,0.970963,-21.946564,-37.126007,-53.354416,-73.002548,-6.244469,-1.368599,0.907974,1.289749,9.919052,25.894547,34.850578,43.501282,20.007935,38.79776,50.125008,60.773048,25.449142,44.795723,56.007729,66.567192,-14.944155,-34.171319,-45.655229,-52.021357,-71.181275,-102.240404,-122.475181,-139.992568,-65.058567,-96.782409,-118.443095,-137.166622,-51.2115,-75.853743,-93.443842,-109.122426,-32.323037,-38.516789,-42.180657,-45.921836,21.816444,39.970493,57.48848,76.769199,6.263866,2.266216,2.018852,3.631725,-10.275879,-24.802666,-31.475945,-37.284222,-19.816761,-35.826988,-42.572021,-46.59502,-23.894806,-40.48954,-47.071495,-50.487328,-12.711415,-32.306982,-41.964376,-42.873002,-69.679134,-102.042401,-121.74316,-138.926725,-63.734545,-94.213684,-114.437932,-131.18875,-49.419503,-73.548724,-90.431255,-105.443244,-30.130743,-39.056796,-45.348206,-52.379756,300.330563,13.880412,-292.667084,0.817668
75,0.235176,0.095898,0.694199,0.367075,-22.266083,-37.578278,-53.64418,-72.831573,-6.247902,-1.004219,1.232758,1.494942,9.725075,25.849571,34.678917,43.226051,19.641953,38.368034,49.574776,60.109634,24.974213,44.308319,55.326118,65.584602,-14.728183,-34.074958,-45.621915,-52.110401,-70.979011,-102.161302,-122.284619,-139.789193,-64.586979,-96.116801,-117.611409,-136.497989,-50.460769,-74.962962,-92.638308,-108.524805,-31.297764,-37.56083,-41.497018,-45.497518,21.14954,38.416729,55.709324,74.816151,5.471077,1.464443,1.371174,3.417263,-11.002922,-25.762138,-32.170658,-37.410908,-20.455055,-36.697598,-43.471527,-47.407322,-24.509525,-41.239357,-47.97472,-51.597004,-12.916426,-32.165543,-42.393078,-44.453597,-70.252487,-102.382893,-122.004581,-139.225227,-64.066763,-94.25765,-114.113403,-130.607648,-49.550167,-73.214376,-89.915331,-104.965604,-30.110798,-39.131267,-45.559577,-52.798115,300.408468,13.856839,-292.130156,1.065272
76,0.570831,0.476127,0.41399,-0.350866,-22.295265,-37.801895,-53.925133,-73.232346,-6.669846,-1.66729,0.657578,1.005363,9.411163,25.425797,34.160156,42.602692,19.58107,38.129883,49.269905,59.693756,25.285034,44.219971,55.115891,65.328827,-14.65856,-34.25178,-46.063584,-52.471486,-71.233021,-102.448966,-122.72703,-140.445044,-64.848708,-96.520525,-118.16034,-137.20957,-50.816483,-75.716626,-93.593525,-109.683984,-31.76682,-38.399463,-42.297087,-46.291783,21.202755,38.235512,55.511742,74.706802,4.778137,0.7798,0.727329,2.72541,-11.305676,-26.118107,-32.776108,-38.420105,-20.36808,-36.278343,-42.843933,-46.53059,-24.042606,-40.737019,-47.227192,-50.40287,-13.036778,-31.997859,-41.834484,-43.922512,-70.328563,-102.060247,-121.465747,-138.714705,-63.879566,-93.436864,-113.202121,-129.88313,-49.046778,-72.198551,-88.849642,-104.032802,-29.301095,-37.985519,-44.345595,-51.622603,300.79608,14.21743,-291.899385,0.598871
77,0.55069,-0.588852,-0.082169,-0.037513,-22.42836,-37.889671,-53.865051,-73.37368,-7.354431,-2.151031,0.063629,0.208969,8.792953,24.795685,33.36525,41.602592,19.073181,37.346764,48.362389,58.665733,24.913902,43.821373,54.547005,64.476128,-14.829917,-34.656616,-46.225031,-52.119509,-71.194149,-102.602972,-122.735242,-140.460853,-64.812955,-96.862777,-118.463688,-137.59341,-50.692704,-75.964338,-93.87662,-110.166409,-31.41969,-38.38526,-42.240215,-46.177606,21.22015,38.464508,55.831261,75.298634,5.305252,1.479492,1.322479,3.23267,-10.93729,-25.658855,-32.321091,-37.859802,-20.175304,-36.046886,-42.634964,-46.220741,-24.017773,-40.394497,-46.908875,-50.089417,-12.91161,-31.941574,-41.655377,-43.308682,-70.153223,-101.955117,-121.351601,-138.50145,-63.886729,-93.434363,-113.068246,-129.63335,-49.213473,-72.50369,-89.084541,-104.251245,-29.615498,-38.273832,-44.616093,-51.965349,301.114655,13.392661,-292.213669,0.32544
78,-0.264816,-0.618307,0.204906,0.073174,-22.265625,-37.609062,-53.767433,-73.909378,-7.2472,-1.986351,-0.020714,-0.107803,9.058914,25.014839,33.5812,41.770363,19.301605,37.819748,48.861237,59.182777,24.957275,44.047508,54.883919,64.899902,-14.728276,-34.99541,-46.55132,-52.300808,-71.619425,-103.094875,-123.321624,-140.984496,-65.1871,-96.991372,-118.637825,-137.592484,-50.882833,-75.6328,-93.418215,-109.504414,-31.331881,-38.179014,-42.280692,-46.414296,21.42643,38.746319,56.086693,75.453815,5.69521,2.01622,1.692867,3.37492,-10.506306,-25.114174,-31.90464,-37.491932,-19.744606,-35.585861,-42.258396,-45.824203,-23.638172,-40.073318,-46.518517,-49.519901,-12.683473,-31.764968,-41.472966,-43.226091,-70.047043,-101.93511,-121.364167,-138.540723,-63.843504,-93.544248,-113.181188,-129.659254,-49.27828,-72.61867,-89.240677,-104.216047,-29.767126,-38.382234,-44.677967,-51.844411,300.549774,12.700145,-292.308826,0.324406
79,0.235863,-0.445004,0.422115,0.3429,-22.352257,-37.992783,-54.146461,-74.061012,-7.239876,-2.258835,-0.277405,-0.305328,9.040604,24.799118,33.319702,41.530838,19.225502,37.377663,48.236847,58.513069,24.860687,43.790245,54.613266,64.687614,-14.88398,-34.811857,-46.364494,-52.215191,-71.794055,-103.133747,-123.075148,-140.577252,-65.394736,-97.21213,-118.718625,-137.726297,-51.159506,-75.78591,-93.23846,-109.147682,-31.705317,-38.400945,-42.471439,-46.754139,21.594143,39.079742,56.544685,76.302052,5.780296,1.89394,1.677189,3.622971,-10.460701,-24.977245,-31.650524,-37.043495,-19.66095,-35.386448,-42.006569,-45.517902,-23.548851,-39.909554,-46.13102,-48.989582,-12.756153,-31.491938,-41.074892,-43.001875,-70.108176,-101.671158,-121.0644,-138.170499,-63.949437,-93.265568,-112.877931,-129.347322,-49.423795,-72.589462,-89.161265,-104.054755,-29.834681,-38.13162,-44.227621,-51.297086,300.440397,12.183418,-292.231951,0.595583
80,-0.057449,-0.503019,0.07576,0.124767,-22.360039,-37.997704,-53.842735,-73.374138,-7.660675,-2.691994,-0.608597,-0.512581,8.748093,24.477654,33.111191,41.44146,19.064255,37.09362,48.094597,58.569946,24.763641,43.710823,54.516792,64.566078,-14.924457,-34.909113,-46.606741,-52.547563,-71.825887,-103.210812,-122.960971,-140.475734,-65.476308,-97.13593,-118.30536,-137.200832,-51.30885,-75.736819,-92.887038,-108.63892,-31.907179,-38.545348,-42.469649,-46.657531,21.328983,38.716221,56.124458,75.727158,6.02869,2.445946,2.301807,4.343491,-10.257168,-24.790249,-31.306858,-36.441135,-19.519844,-35.047874,-41.672573,-45.092869,-23.580379,-39.84272,-46.368599,-49.50325,-12.412389,-31.677869,-41.505663,-43.405044,-70.081561,-101.920506,-121.388867,-138.540044,-63.976947,-93.466103,-112.901798,-129.185876,-49.500921,-72.781351,-89.252316,-103.996802,-30.046145,-38.490514,-44.624213,-51.744375,300.038338,11.62538,-292.500801,0.66533
81,0.248222,-0.060083,0.186882,0.199454,-22.358093,-38.220978,-54.459915,-74.015808,-7.701988,-3.054886,-1.196823,-1.327629,8.711472,24.158363,32.701836,40.900726,19.036331,37.072105,47.951546,58.200188,24.83036,43.828468,54.601135,64.541359,-14.945421,-35.024432,-46.731569,-52.837759,-72.09376,-103.394272,-123.123714,-140.497656,-65.842272,-97.376509,-118.589628,-137.307105,-51.779696,-76.137393,-93.439241,-109.218973,-32.455893,-39.14266,-43.199353,-47.473223,21.64032,38.701401,55.866222,75.382061,6.071777,2.290764,2.155552,4.245071,-10.185757,-24.680271,-31.215935,-36.432838,-19.292564,-35.043125,-41.746845,-45.326614,-23.072948,-39.161396,-45.420113,-48.38768,-12.620024,-31.792508,-41.561393,-43.854834,-70.497852,-102.235865,-121.637227,-138.784576,-64.03385,-93.381165,-112.743748,-129.147683,-49.206649,-72.049547,-88.59029,-103.627473,-29.339875,-37.497475,-43.677579,-51.046843,300.10108,11.561159,-292.499399,0.860646
82,0.045662,-0.501938,-0.131207,0.557267,-22.755318,-38.659515,-54.596901,-74.104958,-8.389549,-3.564835,-1.872139,-2.312508,8.02597,23.596573,32.110748,40.244637,18.435287,36.279144,47.10125,57.355499,24.364929,43.314171,54.100227,64.105225,-14.570473,-34.8402,-46.693253,-53.03959,-72.326714,-103.718431,-123.469547,-140.828978,-66.21824,-97.931862,-119.108795,-137.768349,-52.058685,-76.849839,-94.469022,-110.551022,-32.452744,-39.467992,-43.987288,-48.686186,21.904564,39.169292,56.452446,75.993633,6.487541,2.893982,2.660866,4.542389,-9.59444,-23.897438,-30.565338,-35.873909,-18.641453,-34.458504,-41.246567,-44.85878,-22.438488,-38.888969,-45.355167,-48.463554,-12.920224,-31.998353,-41.741982,-44.167939,-70.546419,-102.439302,-121.929646,-139.190153,-64.12169,-93.587597,-112.973212,-129.295205,-49.491628,-72.365246,-88.923928,-103.878766,-29.822516,-37.929697,-44.111499,-51.442477,300.006752,11.074689,-292.770596,1.433381
83,-0.026321,-0.157988,-0.433502,-0.009973,-22.561913,-38.62793,-54.585571,-73.940163,-8.409462,-3.764534,-2.23217,-2.830238,7.811165,23.15815,31.467934,39.400177,17.965164,35.801811,46.321106,56.260414,23.678398,42.848167,53.742371,63.846016,-14.810775,-34.968363,-46.697205,-52.888672,-72.568281,-104.010541,-123.845422,-141.159281,-66.389967,-98.02634,-119.302877,-138.150276,-52.434251,-76.660636,-93.823144,-109.592593,-33.181028,-40.080093,-44.531464,-49.159194,22.170639,39.814281,57.206326,76.466331,7.417316,3.957367,4.013214,6.190567,-8.799534,-23.161583,-29.523468,-34.606247,-17.969627,-33.731861,-40.286636,-43.810844,-21.921844,-38.295135,-44.728661,-47.831554,-12.89117,-31.713715,-41.543053,-43.97747,-70.793822,-102.760806,-122.140061,-139.238009,-64.476693,-94.16061,-113.482808,-129.655982,-49.738876,-72.725807,-89.031096,-103.582241,-30.021167,-38.132145,-44.322624,-51.608679,299.904099,10.91102,-293.28043,1.417728
84,-0.63549,0.386496,0.296688,0.098492,-22.669601,-38.521729,-54.228859,-73.431816,-8.668213,-3.986549,-2.42981,-3.007965,7.631493,23.122673,31.35498,39.151268,17.943192,35.857315,46.451454,56.492271,23.729782,42.935829,53.762741,63.868904,-15.375698,-35.241176,-46.746698,-53.181153,-72.870395,-104.346525,-124.200611,-141.616234,-66.622149,-98.175282,-119.467874,-138.409596,-52.610919,-77.012428,-94.432281,-110.463614,-33.373566,-40.558134,-45.139736,-49.822147,22.343616,39.831333,57.30938,76.671295,7.825298,4.279747,4.315453,6.64135,-8.376617,-22.818146,-29.36348,-34.516411,-17.580357,-33.595619,-40.238056,-43.778286,-21.600552,-37.950897,-44.074974,-46.785851,-13.323423,-32.145999,-41.910313,-44.719957,-70.990219,-103.165858,-122.689177,-139.960705,-64.812059,-94.629141,-114.016393,-130.376763,-50.282403,-73.320741,-89.653231,-104.307407,-30.670473,-38.819427,-45.049828,-52.197839,299.124384,11.276135,-293.127966,1.494839
85,0.968399,-0.044152,0.208855,-0.492521,-23.169823,-39.375114,-55.297165,-75.116386,-10.197716,-5.844727,-4.273453,-4.895554,6.245613,21.519127,29.789429,37.627487,16.672554,34.103966,44.39003,54.167404,22.39357,41.458282,52.533417,62.909431,-15.424172,-35.401048,-47.015066,-53.210824,-72.987381,-104.686091,-124.776711,-142.405651,-66.823795,-98.755736,-120.034248,-138.84327,-52.804043,-77.101657,-94.062982,-109.526459,-33.746847,-40.976338,-45.546579,-50.358048,22.325878,39.999046,57.60149,77.087402,8.184872,4.309158,4.509544,7.283592,-8.251247,-22.502117,-28.717289,-33.267918,-17.762146,-33.356094,-39.448071,-42.514687,-22.112904,-37.756062,-43.461914,-45.949917,-13.277327,-32.163289,-42.155987,-44.550761,-71.183158,-103.452534,-122.825521,-140.127369,-65.036151,-94.824149,-113.863036,-130.285743,-50.42128,-73.177696,-89.099484,-103.734826,-30.706936,-38.903346,-45.247244,-52.835567,299.825163,11.192756,-293.186731,0.96309
86,-1.176796,-0.155673,0.024433,0.26636,-23.032608,-39.418602,-55.776787,-75.550003,-9.621735,-5.248375,-3.995476,-4.990654,6.736221,21.885567,29.779472,37.236557,16.949158,34.748611,45.391159,55.402794,22.48558,41.699982,52.650604,62.737083,-15.470856,-35.58102,-47.074253,-53.518804,-72.807132,-104.817403,-124.862853,-142.298483,-66.666208,-98.715258,-120.200666,-138.983165,-52.776595,-77.351314,-94.785894,-110.935109,-33.825857,-40.973189,-45.177651,-49.727761,22.909527,40.876923,58.710423,78.304825,8.706322,5.082264,5.45763,8.104649,-7.470016,-21.560841,-27.912769,-32.881908,-16.85915,-32.113152,-38.04451,-41.119881,-21.180153,-36.794128,-42.370605,-44.756927,-13.402742,-32.370338,-42.302274,-44.997062,-71.697477,-103.734888,-122.953283,-140.289989,-65.676719,-95.203296,-114.308195,-130.965461,-51.107698,-73.842347,-89.775157,-104.437762,-31.337686,-39.472037,-45.932056,-53.580215,298.58285,11.023251,-293.227816,1.215619
87,-0.484428,0.761969,0.628853,0.591229,-23.233566,-39.647369,-55.660858,-74.764595,-10.170708,-6.391869,-5.265999,-6.248245,5.982056,20.546494,28.400803,36.004829,16.179314,33.602715,43.908119,53.728638,21.848831,41.017227,51.903877,62.108116,-15.890264,-35.766888,-47.378405,-54.150573,-73.168557,-105.020222,-125.022076,-142.500623,-66.989749,-99.121298,-120.560609,-139.599187,-53.117581,-77.453326,-94.582859,-110.416344,-34.30044,-41.666677,-46.076367,-50.729631,23.375015,41.593838,59.430714,78.647804,9.736748,5.679874,6.390152,9.482861,-6.334934,-20.448074,-26.774082,-31.606293,-15.716858,-31.069565,-36.819363,-39.714317,-20.161572,-35.610695,-40.717907,-42.629471,-14.084868,-33.118382,-43.264129,-46.513035,-71.47743,-103.771073,-123.300567,-140.861736,-65.283678,-95.17662,-114.394028,-131.063304,-50.78675,-73.520535,-89.272262,-103.584556,-31.314406,-39.643981,-46.274215,-53.691613,298.024492,11.830638,-292.672892,1.852265
88,-1.110878,1.084646,1.602859,0.824306,-23.270416,-40.003281,-55.940666,-75.352592,-10.874062,-7.50309,-6.632652,-7.769165,5.402412,19.543762,26.988029,34.213142,15.806351,32.549629,42.629814,52.302818,21.65657,40.473862,51.153946,61.163635,-15.970941,-36.645535,-48.770877,-55.949547,-73.858217,-105.690647,-125.429505,-142.690382,-67.609847,-99.392475,-120.422906,-139.183144,-53.610936,-77.539745,-94.389858,-110.11389,-34.615614,-42.327376,-46.982492,-51.969826,23.969193,42.546844,60.441971,79.507084,10.767517,6.921158,7.574043,10.703259,-5.406761,-19.039478,-25.411263,-29.976997,-15.078163,-29.626465,-35.101089,-37.384243,-19.841537,-34.645615,-39.023952,-40.044308,-14.561859,-33.482741,-43.568466,-47.089629,-72.013516,-104.314199,-123.695739,-141.189507,-65.814021,-95.763743,-114.748043,-131.519238,-51.309097,-74.103026,-89.315765,-102.902307,-31.770803,-40.861019,-47.564305,-54.576373,296.647367,12.954233,-291.336279,2.715521
89,-3.21476,2.048477,2.977467,2.230024,-22.612724,-39.278984,-55.189819,-74.76963,-10.379562,-7.990379,-7.632179,-8.776131,5.989838,19.118614,25.866852,32.497559,16.684799,31.945839,41.135101,49.88205,22.835197,40.811348,50.820236,59.896202,-16.300997,-38.040137,-51.497559,-59.408188,-74.10457,-105.790435,-125.07759,-142.384162,-67.910726,-99.538947,-120.190014,-138.73147,-54.134209,-77.886659,-94.669989,-110.472259,-35.367518,-43.303711,-48.247449,-53.754475,24.548264,42.75341,60.838737,80.016975,12.265205,8.177662,8.922787,11.963139,-3.41629,-16.511307,-22.835312,-27.318535,-13.065605,-27.018471,-32.144737,-33.965664,-18.036118,-33.104324,-37.596703,-38.603897,-15.266153,-34.494799,-45.269628,-49.751967,-72.366759,-104.162386,-123.379484,-141.106978,-66.207279,-96.182226,-115.225343,-132.133285,-51.976711,-75.215275,-90.180487,-103.315726,-32.528388,-42.20125,-49.302424,-56.460686,293.094835,15.016295,-288.696585,4.959129
90,-4.72435,4.443282,5.011997,1.727066,-22.160912,-38.17852,-53.572311,-73.227768,-9.743156,-8.923187,-9.261932,-10.682602,5.984802,17.372704,22.847099,28.410759,16.445389,30.284271,38.232422,46.042442,22.696495,39.812508,49.066544,57.668266,-17.771367,-41.175761,-55.80218,-63.876664,-74.389888,-105.84916,-124.702765,-141.574058,-68.93359,-99.986267,-120.123972,-138.385267,-56.343824,-79.786843,-96.403971,-112.582209,-38.802693,-47.749031,-52.891729,-58.985753,25.61348,44.45612,62.734337,82.668056,12.584782,8.705292,9.823036,13.40229,-3.438206,-15.011215,-20.062866,-23.316135,-13.717003,-26.004467,-30.163937,-30.779285,-19.769497,-32.261124,-33.317413,-31.46759,-16.363087,-36.270185,-46.451933,-51.173524,-72.017962,-103.132049,-122.22753,-139.559266,-66.129967,-95.692699,-113.750527,-130.212445,-52.763226,-75.625699,-90.529377,-103.49542,-34.291825,-43.238997,-47.359293,-50.35706,288.277874,19.388302,-283.777199,6.61492
91,-8.186073,5.99649,7.30751,3.648307,-21.634598,-37.785988,-51.80706,-69.37912,-10.27771,-9.343758,-10.710297,-13.332253,4.940643,15.015793,18.737869,21.916809,14.984779,26.705017,32.626534,37.401924,21.085396,36.180267,43.967743,50.153618,-17.869674,-42.863462,-58.685369,-69.092937,-74.976177,-105.796487,-122.812986,-138.18782,-69.665271,-98.012755,-114.511724,-129.7981,-57.364157,-79.418779,-96.050203,-112.754307,-40.10714,-48.992962,-54.881728,-62.122366,25.839901,44.967613,63.002472,81.754246,12.748318,9.470501,11.235752,15.324326,-2.294426,-13.324356,-17.321091,-19.778194,-12.237511,-23.202324,-24.301357,-22.167892,-18.274899,-29.226952,-28.468609,-25.09409,-16.836157,-37.019187,-47.717878,-54.628644,-72.397418,-102.570182,-121.411746,-138.258184,-66.567963,-95.511431,-113.942447,-129.958682,-53.46962,-76.156382,-90.963945,-102.776614,-35.39475,-46.23664,-51.758547,-55.240437,280.053864,25.394594,-276.507626,10.27303
92,-6.062164,8.392622,9.391308,5.400691,-24.104691,-41.821518,-55.563126,-71.423607,-16.717529,-17.454185,-20.15419,-23.942184,-3.9394,1.553764,2.425003,2.631798,5.969925,13.546371,14.936028,14.618912,13.93364,24.494133,27.391663,28.537674,-18.369636,-44.034805,-60.629241,-73.642121,-71.448191,-101.635991,-116.374271,-130.240233,-66.300059,-94.400356,-107.928049,-119.274873,-54.521446,-76.788552,-90.810125,-104.101747,-38.467543,-49.415922,-55.882301,-62.256024,25.303974,44.750748,62.581329,81.539612,14.429398,12.036438,14.234848,18.792973,-0.717659,-10.584869,-12.377071,-12.508507,-10.728607,-20.059547,-18.287601,-13.883858,-17.043171,-21.588764,-15.231342,-8.906307,-17.751082,-39.340199,-50.526904,-59.576643,-72.262092,-102.524827,-121.051093,-136.737642,-66.072385,-94.377786,-111.606923,-125.387083,-52.73442,-75.780229,-90.759243,-100.872663,-34.615737,-46.137438,-49.009696,-48.648395,273.967237,34.018132,-267.140779,15.904637
93,-8.548393,8.745649,10.351181,7.087095,-27.537231,-46.36631,-59.344597,-74.534683,-23.240776,-24.960594,-31.830482,-38.977776,-11.099281,-9.814568,-19.413986,-27.720222,-1.522408,2.332878,-6.652565,-13.564682,6.619492,12.568359,7.441177,3.244972,-18.290997,-42.432444,-57.638329,-71.51837,-64.101868,-92.103086,-105.351884,-115.787549,-57.628078,-84.765192,-95.973571,-103.021516,-46.601554,-69.483694,-79.300188,-85.915911,-32.310563,-45.640965,-51.317742,-55.736076,25.421848,44.357929,62.38678,81.37928,17.869263,15.466347,19.034786,25.613308,4.80463,-3.378983,-1.790257,1.482239,-4.605503,-12.849655,-9.585171,-4.297543,-10.724888,-16.271725,-12.758904,-8.306808,-18.413942,-40.591294,-52.30016,-61.997414,-71.050981,-99.658465,-117.610051,-132.028865,-64.244141,-92.595175,-109.114923,-121.913221,-51.417314,-74.198029,-88.65059,-99.368701,-34.248322,-47.459514,-55.456995,-61.739884,264.862862,43.053252,-257.345581,23.281202
94,-11.87542,8.369095,13.82206,7.533797,-28.874016,-48.139801,-62.907829,-80.959396,-26.453247,-33.320389,-45.819283,-57.554512,-15.889091,-21.6576,-35.5093,-45.260353,-8.205528,-9.92672,-22.905693,-31.409225,-3.918228,-3.893166,-12.631989,-19.083824,-17.331704,-39.890581,-53.675835,-66.745372,-57.891474,-80.918913,-90.51363,-95.565493,-51.17797,-73.929353,-75.475769,-75.014493,-41.182122,-60.005778,-59.719225,-59.20225,-28.954737,-40.061969,-42.479189,-44.606954,26.241302,43.340778,58.761005,77.111206,18.526154,15.812416,20.043411,28.2197,5.146236,-2.184334,1.379242,7.428589,-4.368954,-12.229786,-7.219963,0.629139,-10.50024,-16.900177,-13.767815,-8.559723,-16.739857,-37.88925,-50.098603,-61.79055,-67.189049,-95.411704,-112.381798,-125.558626,-59.305991,-87.033995,-102.378972,-112.964567,-45.093918,-67.855366,-80.468475,-88.719904,-26.664692,-39.876718,-47.169411,-52.768321,251.706362,51.876336,-244.804602,31.268988
95,-18.078576,18.387389,10.673447,6.420746,-27.341938,-50.456028,-69.896736,-87.210388,-33.592014,-56.858711,-69.38673,-73.720264,-25.978546,-50.580825,-63.358039,-66.129856,-20.632381,-42.129364,-52.779693,-53.879184,-17.677059,-32.775535,-40.167846,-40.911254,-24.109769,-44.663625,-51.884178,-54.307743,-62.758302,-77.047487,-73.766764,-71.436103,-52.692182,-64.750432,-58.80694,-55.255951,-39.446626,-49.15217,-43.882776,-40.985215,-24.339928,-30.071648,-28.833243,-28.480741,28.143539,46.928902,61.196537,78.070736,20.509415,17.805176,26.376915,39.741096,7.233696,0.343552,10.817757,22.816772,-1.984348,-9.000034,0.73597,11.267738,-6.821938,-11.328506,-6.711216,-1.204033,-15.354086,-35.317098,-47.455253,-60.288996,-60.246573,-88.843467,-103.726366,-113.411115,-51.700841,-79.828617,-90.732258,-95.086989,-37.339054,-58.985692,-67.777098,-71.644125,-19.937695,-28.085353,-32.31044,-35.459279,233.860874,69.253782,-233.898067,36.679791
96,-18.078575,18.387389,15.164051,6.38527,-25.80986,-52.772255,-76.885643,-93.46138,-40.730782,-80.397034,-92.954178,-89.886017,-36.068001,-79.504051,-91.206779,-86.999359,-33.059235,-74.332008,-82.653694,-76.349144,-31.43589,-61.657906,-67.703705,-62.738686,-30.887834,-49.43667,-50.092521,-41.870114,-67.62513,-73.17606,-57.019898,-47.306713,-54.206395,-55.571511,-42.138111,-35.49741,-37.711131,-38.298563,-28.046327,-22.76818,-19.725119,-20.081327,-15.187298,-12.354528,26.985569,44.974995,57.689095,74.057465,21.672363,25.961895,37.441578,50.313034,7.967834,8.483677,21.418877,32.495842,-2.576237,-3.471737,8.047943,17.243156,-8.61414,-10.404739,-4.260635,1.714382,-11.5192,-27.700062,-38.574618,-49.210354,-51.653077,-78.06555,-87.861759,-93.562897,-46.210087,-72.071067,-71.53248,-68.600354,-36.496469,-55.950072,-51.951702,-48.304383,-25.338139,-34.170146,-33.170407,-31.507962,218.52293,88.157096,-215.993385,43.580986
97,-4.295425,15.03746,13.683128,6.722304,-10.453377,-31.659508,-48.218422,-63.992844,-50.236015,-85.66452,-105.654373,-120.542908,-47.82589,-90.835991,-112.76001,-127.956276,-43.006897,-82.851334,-103.850555,-116.931725,-38.480301,-67.335777,-82.607918,-94.097328,-33.076701,-56.755359,-70.842512,-76.996681,-56.847028,-59.246124,-52.355581,-45.16916,-41.775574,-40.514785,-32.38877,-24.385886,-24.433681,-23.111543,-16.49443,-11.287203,-7.152828,-3.93486,0.864815,2.408791,19.95821,34.962559,43.976727,53.918896,14.224091,28.398571,43.043804,54.941883,7.961025,22.073479,39.021492,52.175503,6.843338,21.313648,35.808907,46.79163,9.72662,23.944073,39.131241,53.296795,-22.678549,-41.247145,-53.917033,-62.405923,-49.097753,-66.337387,-70.23427,-72.104381,-39.858409,-57.359896,-60.000158,-60.094575,-26.155282,-42.686454,-46.33896,-48.708015,-11.851695,-20.19223,-27.176449,-34.569486,215.053425,104.60651,-201.484337,51.715244
98,-35.846329,21.488958,12.914229,22.191215,-25.033379,-53.620605,-77.663841,-96.187134,-53.03936,-95.479546,-114.838028,-121.549301,-48.407593,-93.813744,-115.354271,-122.583275,-42.204437,-83.906136,-104.090424,-111.38546,-35.423698,-66.065025,-81.319313,-87.999229,-26.477836,-39.402814,-41.987038,-44.641411,-41.621507,-38.860924,-28.546999,-21.707184,-28.261867,-22.972821,-11.68818,-4.302336,-13.100844,-7.459048,1.203948,5.933165,3.214726,10.113235,14.748715,15.313917,22.01334,39.882002,54.130296,65.230636,22.496595,44.873571,59.670696,68.094806,15.271053,38.709898,55.878267,65.884866,12.184381,34.421739,50.210924,59.390258,12.933883,30.812273,44.565668,54.739122,-27.418526,-43.837699,-51.940387,-53.976869,-49.726743,-63.026284,-60.61581,-57.799112,-37.677261,-49.562085,-46.908438,-43.724155,-21.966922,-31.798699,-30.945278,-30.508857,-4.471842,-7.754478,-9.524492,-12.055904,179.75378,126.276212,-188.023424,74.087203
99,-7.395515,19.500595,12.914228,22.191214,-27.800102,-59.464417,-85.751724,-104.702911,-57.484016,-89.274673,-110.088272,-128.048744,-53.759995,-91.003532,-116.909866,-137.47673,-49.356079,-84.825783,-109.432526,-129.418488,-45.000916,-71.866951,-90.593605,-108.562889,-27.639268,-42.353095,-45.558713,-46.718231,-40.191923,-37.386787,-30.742443,-26.141142,-25.097282,-20.050606,-12.498469,-6.726596,-8.086587,-4.050086,2.27328,7.319462,9.019759,14.594586,20.631677,24.904744,24.06847,44.801445,64.283867,76.542377,30.7691,61.348572,76.297588,81.24773,22.581081,55.346317,72.735043,79.594231,17.525425,47.529831,64.612942,71.988888,16.141148,37.680473,50.000095,56.18145,-32.158503,-46.428251,-49.96374,-45.547814,-50.355732,-59.71518,-50.99735,-43.493841,-35.496113,-41.764274,-33.816718,-27.353734,-17.778561,-20.910943,-15.551594,-12.309698,2.908012,4.683275,8.127466,10.457679,173.228903,146.822071,-174.238558,97.323682
100,-36.164017,22.640912,7.916794,24.75821,-23.608704,-54.37088,-79.707069,-98.086166,-63.680534,-104.720306,-119.18232,-122.902794,-62.566223,-109.115639,-124.763145,-128.124733,-57.810402,-100.957832,-116.414337,-121.734581,-50.58609,-83.471375,-96.507797,-102.142525,-23.4575,-32.287129,-32.511654,-32.278422,-24.58253,-16.817416,-8.696619,-4.326851,-4.870564,4.93145,10.495903,12.696873,12.701936,21.488526,25.861628,28.148308,27.536423,36.076814,37.733207,36.594714,20.688229,47.94508,70.565186,86.19072,40.656452,77.522907,94.016705,100.125217,34.686298,72.754841,93.866787,104.543781,29.425735,64.605789,83.325462,93.424244,25.79298,49.447289,62.706013,70.966187,-27.204484,-43.092247,-48.563735,-52.051985,-45.968705,-49.685678,-41.543238,-34.989265,-29.860369,-29.689691,-22.966028,-19.382096,-10.468887,-7.747515,-2.318975,-0.812574,10.177826,15.456066,19.74562,21.083134,137.194376,169.577561,-166.192274,122.19647
101,-0.161591,19.070688,9.636898,17.858898,-36.62281,-68.443336,-93.689346,-113.715591,-67.988548,-100.738564,-120.379257,-136.469994,-63.260078,-100.38517,-123.817863,-143.887482,-56.761665,-92.944794,-116.729851,-134.832115,-48.782501,-76.956024,-95.484695,-110.94532,-23.456326,-32.977252,-35.490802,-37.762476,-22.207671,-18.282383,-9.667645,-1.340046,-5.04118,-0.206926,9.037976,17.827344,10.83059,16.144398,24.134778,30.769798,25.912017,32.816021,39.639689,43.977285,23.439674,51.530228,74.66177,89.924526,38.360939,67.832279,86.368618,103.446178,31.275158,64.491291,88.740349,107.558098,24.801064,56.824722,78.728828,96.885338,20.068245,43.383007,60.331078,75.289993,-22.939475,-38.118931,-47.609228,-57.68529,-39.226332,-38.1189,-33.926263,-30.546416,-23.588503,-18.888154,-14.516596,-10.315468,-6.23568,-2.329102,1.07915,3.563431,12.65939,16.648714,19.346528,21.280489,136.325083,188.381827,-157.263079,139.788946
102,-33.420868,18.91588,14.596767,28.091374,-30.119247,-59.652443,-82.722816,-99.375687,-69.288826,-108.211212,-123.415718,-129.669456,-64.916496,-105.624161,-122.753792,-129.914703,-57.366829,-93.98941,-111.425285,-120.832157,-47.552834,-75.641212,-90.233459,-100.679855,-18.738471,-24.537514,-23.416003,-20.882878,-12.010826,1.848807,10.421741,14.868388,6.137867,21.72046,27.99103,31.040821,21.957582,35.252816,41.520792,45.146899,34.541266,46.158927,49.984241,51.149904,22.326279,52.731056,78.327999,93.425331,56.450729,101.843033,109.649563,103.773422,52.962685,104.405422,112.082634,107.09507,48.589211,97.017574,103.439598,98.86591,43.651142,80.945091,86.192322,82.177906,-25.051833,-36.899514,-44.425469,-56.477452,-31.22564,-24.664288,-17.921143,-13.772997,-12.947332,-4.085037,-0.454792,1.805953,6.917343,15.59661,16.284448,16.771844,26.940593,32.338012,28.90827,26.660123,102.402391,207.338633,-143.168135,167.921245
103,-4.443054,15.046167,7.295609,15.704797,-35.019264,-64.706383,-90.887718,-108.589096,-64.911919,-98.14888,-111.942101,-120.575981,-60.496788,-98.044853,-118.770161,-132.989159,-55.552368,-90.428696,-111.425514,-127.125835,-49.902649,-76.438637,-92.214546,-106.257706,-21.293889,-29.079813,-27.268611,-21.356874,-12.731576,-7.279139,-3.078567,-0.700867,7.640811,17.365266,24.453163,28.369127,25.765915,35.809311,41.776377,44.449182,40.783986,49.198467,54.311525,56.081477,27.951965,57.43206,81.991997,98.206902,58.935299,86.920509,103.92025,119.054489,50.546207,79.986248,102.900066,123.563004,41.552696,71.626511,93.571301,112.651863,32.606964,58.821945,74.92979,90.190258,-22.755953,-34.025774,-41.628484,-49.231813,-22.09226,-19.208454,-13.309993,-5.60737,-5.590635,-0.26213,8.096776,17.145681,11.620872,19.1346,27.29856,34.992415,30.143031,36.6803,41.470465,46.541841,98.360338,222.456384,-135.471525,183.697626
104,-4.985619,12.54157,10.129738,12.795056,-35.994873,-64.235916,-84.914703,-100.562782,-67.011909,-94.460678,-112.028046,-125.100346,-62.59758,-93.689804,-115.608387,-132.027397,-56.767502,-87.243347,-109.185333,-124.715595,-49.998665,-73.686104,-89.740334,-103.926086,-17.854267,-21.612644,-18.832085,-12.755783,0.156723,10.027341,13.424787,13.079355,17.692358,29.028992,34.729728,37.123421,31.962445,43.227573,50.006039,53.198165,41.785948,51.211778,57.546012,61.264004,31.910191,59.386425,78.876972,97.456341,63.020096,84.193268,101.771908,119.389801,51.557808,73.426552,92.958412,112.302132,37.772198,58.215694,76.476231,92.68959,23.346233,36.904907,49.075928,60.098133,-13.747309,-21.82204,-27.609288,-38.841441,-9.2872,-0.440589,5.723337,12.592453,1.734878,13.155308,21.364222,28.726168,12.535766,22.660672,30.978885,37.554007,22.766204,32.981883,39.187799,44.674385,93.616705,235.047339,-125.099802,196.542067
105,-29.50779,25.382754,19.18848,33.784021,-26.410789,-59.592705,-88.202534,-106.359386,-66.940613,-116.402092,-124.083652,-118.674431,-68.88279,-119.814205,-126.523304,-119.345226,-70.505219,-116.24794,-125.076141,-120.91444,-70.626068,-105.962677,-114.525318,-112.643967,31.263678,43.86564,48.251093,51.748636,32.442555,19.535916,12.751522,9.575698,13.967017,-1.467066,-5.853569,-9.411319,-5.273423,-20.49595,-26.680501,-31.074783,-25.130071,-38.922828,-44.122769,-47.75289,30.346642,58.670483,80.884838,95.361271,78.644657,123.893795,128.108883,122.315655,73.890152,119.845333,121.792088,112.457829,65.930099,106.841068,109.991627,102.220058,55.794411,85.969963,92.548656,88.698978,-23.346349,-31.327096,-36.829304,-45.59212,-0.85759,18.041494,24.827988,26.390088,21.899845,44.46678,49.365935,47.870031,40.109301,61.58313,68.399449,68.767111,54.323319,75.291351,82.608034,83.826061,64.605789,260.475526,-105.414448,230.371521
106,4.722862,7.358117,-6.108627,14.161284,-34.777565,-68.875122,-94.428291,-107.428036,-59.302826,-110.546265,-113.214054,-104.237595,-55.415382,-111.837101,-118.803291,-110.422955,-53.127365,-103.709908,-113.40414,-109.702034,-52.428017,-88.102398,-99.429703,-102.723083,-14.596192,-11.649586,1.662445,19.376971,-0.965962,-6.006957,-17.346432,-23.001349,16.908127,10.74556,0.729087,-6.351092,30.771774,27.151594,17.86143,9.950585,38.920482,39.332295,35.025575,30.779863,36.95612,68.489971,93.485928,109.44849,74.29224,113.442707,130.922985,138.946438,66.521187,108.224773,125.841351,131.403522,58.292313,97.012539,113.956547,119.258022,49.769268,80.146637,93.383846,98.893261,-17.210025,-24.569748,-28.007949,-34.782525,2.05493,22.023099,29.690833,32.820467,22.279363,43.717624,51.902086,54.014876,39.031324,58.704758,65.542196,66.456596,51.434079,69.719858,75.226945,76.611204,69.728022,267.735692,-111.123705,244.434853
107,0.480423,11.770246,4.035702,15.303419,-36.203384,-68.625641,-91.454258,-100.171852,-60.696716,-97.564716,-108.235474,-110.34874,-57.636337,-98.709183,-116.489868,-123.785992,-54.573784,-94.302349,-115.413094,-127.003899,-50.772514,-79.957123,-97.91811,-111.955032,-17.130491,-24.03431,-24.159046,-23.893396,14.928965,5.836155,-10.350913,-20.125077,33.840461,29.620005,14.565872,2.140578,45.213713,48.104991,37.645336,26.012732,49.09979,60.087165,61.313837,59.038396,35.905552,66.770725,91.046677,110.203743,69.822006,100.247498,118.792992,132.781677,61.749115,94.350128,115.051346,130.090141,53.705578,81.96104,100.717506,114.605942,44.987526,66.946049,79.407635,89.801731,-15.327132,-21.253566,-24.658175,-31.338087,11.803221,26.64345,34.661927,41.518754,28.538756,45.548833,52.431843,57.300863,41.78391,59.890304,67.078546,71.251269,51.349605,69.566285,76.314308,79.604556,70.911999,279.189714,-106.384449,259.422049
108,-0.38681,0.180126,20.48933,24.423338,-37.196732,-67.717209,-86.082573,-97.084293,-76.365166,-95.848331,-97.299957,-93.277245,-67.490158,-88.331795,-88.206539,-80.822639,-59.078751,-82.246284,-79.653969,-68.566017,-51.82663,-68.301544,-69.16729,-63.785362,11.966489,24.011586,30.88521,37.120766,30.404853,42.486136,50.38494,54.292568,27.837518,42.24179,49.311285,51.769816,24.40154,37.693748,42.823478,43.091475,18.647081,28.443969,33.967543,36.397422,29.405479,57.094688,78.899975,94.106998,74.564152,112.825642,120.062885,117.818699,65.265656,105.744495,110.555477,104.338474,53.321972,89.332752,94.519901,90.132465,40.141468,69.372654,76.018353,74.72414,-25.526324,-28.948284,-30.008539,-37.319479,13.186986,33.149227,33.002137,29.906342,34.560347,53.036997,47.47489,41.191724,49.205384,66.221265,60.842372,55.220182,58.112572,74.345582,68.553208,61.446723,70.851603,279.044616,-85.568705,283.520162
