takenoko1/special-research/HandMotion_SimilarSearch_自分用/NewProject/handData/key/d4_feature_d2/7.csv
,vel_0x_L,vel_0y_L,vel_0x_R,vel_0y_R,posFromWrist_1x_L,posFromWrist_2x_L,posFromWrist_3x_L,posFromWrist_4x_L,posFromWrist_5x_L,posFromWrist_6x_L,posFromWrist_7x_L,posFromWrist_8x_L,posFromWrist_9x_L,posFromWrist_10x_L,posFromWrist_11x_L,posFromWrist_12x_L,posFromWrist_13x_L,posFromWrist_14x_L,posFromWrist_15x_L,posFromWrist_16x_L,posFromWrist_17x_L,posFromWrist_18x_L,posFromWrist_19x_L,posFromWrist_20x_L,posFromWrist_1y_L,posFromWrist_2y_L,posFromWrist_3y_L,posFromWrist_4y_L,posFromWrist_5y_L,posFromWrist_6y_L,posFromWrist_7y_L,posFromWrist_8y_L,posFromWrist_9y_L,posFromWrist_10y_L,posFromWrist_11y_L,posFromWrist_12y_L,posFromWrist_13y_L,posFromWrist_14y_L,posFromWrist_15y_L,posFromWrist_16y_L,posFromWrist_17y_L,posFromWrist_18y_L,posFromWrist_19y_L,posFromWrist_20y_L,posFromWrist_1x_R,posFromWrist_2x_R,posFromWrist_3x_R,posFromWrist_4x_R,posFromWrist_5x_R,posFromWrist_6x_R,posFromWrist_7x_R,posFromWrist_8x_R,posFromWrist_9x_R,posFromWrist_10x_R,posFromWrist_11x_R,posFromWrist_12x_R,posFromWrist_13x_R,posFromWrist_14x_R,posFromWrist_15x_R,posFromWrist_16x_R,posFromWrist_17x_R,posFromWrist_18x_R,posFromWrist_19x_R,posFromWrist_20x_R,posFromWrist_1y_R,posFromWrist_2y_R,posFromWrist_3y_R,posFromWrist_4y_R,posFromWrist_5y_R,posFromWrist_6y_R,posFromWrist_7y_R,posFromWrist_8y_R,posFromWrist_9y_R,posFromWrist_10y_R,posFromWrist_11y_R,posFromWrist_12y_R,posFromWrist_13y_R,posFromWrist_14y_R,posFromWrist_15y_R,posFromWrist_16y_R,posFromWrist_17y_R,posFromWrist_18y_R,posFromWrist_19y_R,posFromWrist_20y_R,posFromBody_0x_L,posFromBody_0y_L,posFromBody_0x_R,posFromBody_0y_R
2,5.257187,0.586135,63.074226,9.450221,-29.895401,-58.406181,-84.146633,-104.496803,-67.675495,-95.511532,-109.759598,-121.895828,-59.624176,-90.358829,-107.676659,-120.633144,-49.668617,-76.910877,-93.859119,-106.502495,-38.536835,-59.939804,-73.664646,-84.881516,-13.232681,-15.390796,-11.225978,-7.911216,20.776791,36.874197,43.787032,48.612888,36.193584,53.523528,59.936247,64.238583,46.842442,64.175968,70.491121,73.897089,53.258001,68.573894,73.649531,76.36587,-9.919167,-22.458744,-37.731342,-44.216194,-13.746185,-34.454784,-54.288654,-72.031689,-11.322212,-33.591156,-57.249413,-77.701893,-8.89492,-30.498619,-52.682076,-73.516731,-7.351913,-16.494141,-31.537056,-46.510334,-17.454063,-22.302458,-12.065845,1.695605,-2.981125,20.852497,31.82079,38.230298,11.162313,36.41854,43.588813,47.337248,20.692501,42.394931,47.03393,47.712691,26.618318,43.127846,49.337838,50.980708,56.218042,300.467347,11.570978,316.276008
3,-1.527901,1.125957,-46.57362,-12.931401,-28.912239,-57.333755,-83.363972,-103.530865,-65.973473,-93.927841,-108.054314,-119.597168,-58.077736,-89.099464,-106.558056,-120.029755,-48.570442,-76.492424,-92.965851,-105.505543,-38.396645,-61.089134,-74.006367,-84.64159,-14.203459,-16.733806,-12.045221,-9.097565,18.061996,35.332104,43.064058,48.02064,34.110248,51.432536,58.444542,62.978936,45.368954,62.242254,68.106567,71.503272,51.993106,67.33444,72.175055,74.812971,-2.453213,2.191429,15.027866,30.632229,31.661396,16.487045,-7.435455,-28.759174,41.174755,23.253193,-5.678101,-30.833817,45.945339,27.503529,-0.688477,-25.281029,47.645245,58.472271,56.875362,50.272121,-1.858934,2.027884,9.154252,20.060733,10.039629,38.278401,51.289522,56.979205,19.113976,47.155887,53.557614,54.484303,25.593508,47.464145,54.405509,58.185808,29.740357,44.454492,51.99397,55.612421,55.547562,301.387459,-34.145222,303.138762
4,-2.02961,0.549208,38.326778,22.369889,-27.710609,-55.499496,-81.239777,-101.44043,-64.393215,-92.20974,-106.4744,-118.331566,-56.894302,-87.907219,-105.57375,-119.030056,-47.66407,-75.820084,-92.849808,-105.789814,-37.542,-60.60482,-73.939762,-84.957047,-14.690114,-16.992602,-12.234486,-9.351174,17.557124,34.197996,41.899198,46.867945,33.787232,50.815711,57.731386,61.94295,45.265769,61.835628,67.146163,70.08011,52.138837,67.05329,71.154567,73.007389,-10.723801,-21.631622,-32.581215,-40.107651,-10.321426,-30.042057,-48.995018,-63.539658,-4.161072,-30.209885,-54.044724,-71.699638,0.577126,-22.927151,-44.947357,-63.312378,3.649406,-2.634544,-18.275642,-32.17392,-18.341293,-31.740206,-31.657707,-28.167697,-11.753573,4.039712,12.716448,19.262979,3.657415,21.776777,29.418576,34.997972,16.62494,33.107545,39.016504,42.234256,26.916511,39.150749,44.359335,48.226146,54.240103,301.839256,4.903708,325.41124
5,-0.664444,0.356238,-42.330265,-22.496972,-27.945557,-54.978333,-79.743919,-99.478741,-63.979797,-91.342907,-105.558758,-117.442646,-56.471214,-86.792679,-104.64283,-118.46117,-46.79306,-74.172707,-91.301765,-104.625149,-35.89325,-57.968674,-71.200333,-82.631493,-14.532033,-17.06732,-12.498036,-9.895565,16.770856,33.477924,41.241433,46.40667,32.628485,49.696608,56.910538,61.457283,44.010383,60.703619,66.709588,70.11395,51.022389,66.220586,70.989817,73.361712,-2.129917,3.080635,14.178658,27.753811,36.096439,21.000137,-4.450092,-26.373138,47.309246,28.481083,-1.609497,-27.316818,52.132702,33.608379,4.076271,-21.252937,53.285809,64.528027,61.744022,54.527149,-7.751159,-5.35444,2.415553,14.961322,6.820704,36.606941,49.377791,54.687523,19.910432,47.356514,53.108504,53.361372,29.650757,50.638055,55.817494,57.630733,36.599593,50.637067,56.736896,59.415135,54.007444,302.065494,-36.994772,302.784269
6,-1.170502,-0.095157,37.092419,8.810302,-27.944298,-54.296608,-78.663139,-98.050461,-62.261868,-89.962749,-104.379158,-116.439743,-54.566689,-85.139866,-103.031502,-116.93224,-44.677505,-72.528477,-89.77066,-103.114929,-33.696671,-56.107521,-69.408188,-80.986519,-14.734883,-17.223178,-12.122285,-9.063972,16.504465,33.462857,41.232047,46.397098,32.64028,49.797199,57.194467,61.947211,44.14963,60.887697,67.029269,70.594059,51.024736,66.174212,71.067623,73.67102,-5.99041,-13.504887,-19.523907,-21.990967,4.876213,-11.880455,-33.11245,-51.301804,10.742455,-15.291023,-42.587128,-64.369068,12.715759,-12.598515,-38.835468,-60.724812,12.170334,4.544449,-12.634678,-27.887993,-15.524486,-18.963552,-11.256297,-1.470463,-1.991636,20.279823,32.134297,39.438383,12.161064,34.179779,42.513738,47.375348,23.478989,43.979631,50.421928,53.075776,31.451276,48.670872,54.653128,57.879773,53.165789,301.727349,0.426493,311.351582
7,-0.198212,0.429165,-23.194828,-7.617531,-27.781219,-54.180679,-78.682137,-98.406544,-62.095814,-89.41246,-103.968773,-116.16806,-54.446182,-84.416542,-102.330208,-116.292915,-44.403992,-71.719723,-88.769131,-101.934643,-33.179626,-55.387688,-68.54702,-79.779167,-15.012822,-17.683342,-12.663095,-9.508205,15.66151,32.743835,40.744527,46.273906,31.906191,49.012228,56.826866,62.00717,43.477662,60.265932,66.805115,70.753005,50.536105,65.642355,70.744174,73.539615,-5.723476,-6.277428,0.645332,10.98032,21.303806,4.080219,-19.003372,-39.667397,31.63187,11.018486,-16.585121,-39.795971,36.988049,16.495171,-10.312042,-33.717155,39.396114,45.174122,39.321041,29.8736,-8.444925,-7.43475,-0.268985,12.175761,3.823153,33.067407,47.177932,53.526492,16.944992,44.623503,51.554987,52.873729,26.969184,47.99631,54.985222,57.78091,34.141185,48.634192,55.338867,58.27232,53.18224,301.950499,-22.553673,303.528037
8,-1.094627,0.653752,33.431225,18.90353,-27.182121,-53.264008,-77.876072,-97.821465,-61.624546,-89.099922,-103.603821,-115.57457,-54.014854,-84.097252,-101.929779,-115.657825,-44.185181,-71.748219,-88.821945,-101.955357,-33.30883,-55.868111,-69.127407,-80.18961,-15.285697,-18.243356,-13.593118,-10.310528,14.611197,31.567119,39.631538,45.185493,30.753866,48.056394,55.883938,60.907828,42.470328,59.480035,65.599192,69.18615,49.797385,64.959704,69.548131,71.839874,-11.648483,-24.80444,-36.96516,-45.467091,-18.353806,-41.169834,-60.008354,-73.518105,-11.170349,-39.09193,-61.339874,-77.205791,-5.144234,-30.871983,-51.539497,-68.063393,-0.442429,-6.685295,-19.382801,-31.12175,-17.355139,-28.985335,-28.74562,-27.495359,-11.767838,1.535486,8.876992,16.077893,3.100673,21.679026,30.052197,37.840158,16.284386,32.819294,40.656718,46.866772,27.706854,40.246572,45.95725,50.998183,52.205601,302.560886,10.995541,322.388203
9,-0.32032,-1.421556,-33.494968,-17.733298,-27.180977,-53.056183,-77.049179,-96.381569,-61.49374,-88.374825,-102.805824,-114.803581,-53.740082,-83.220062,-101.252174,-115.292301,-43.281326,-70.107594,-87.504101,-101.263332,-31.169014,-52.598991,-66.072636,-77.947941,-14.20735,-16.841684,-12.22158,-9.147768,16.205161,32.685975,40.455474,46.042898,31.54668,48.533601,56.42376,61.887621,42.689604,59.780203,66.778872,71.225148,49.716245,65.233753,70.821424,74.107843,-3.613071,-3.053398,5.498314,17.058563,23.34589,5.213356,-18.451195,-39.557934,32.375622,11.097393,-17.097187,-40.595398,36.727924,15.44426,-12.112827,-35.80616,38.49638,42.876034,34.612713,23.593197,-7.531574,-6.221231,2.010038,15.159603,2.87794,32.483187,46.722461,52.63179,15.429822,43.650131,50.58637,51.564126,25.212137,46.984839,54.187654,57.344582,32.332145,47.56239,53.958004,57.004646,51.957493,301.107235,-22.427216,304.62281
10,-0.248909,0.215077,-12.75404,-1.787057,-27.302284,-53.286552,-77.368469,-96.880016,-61.286087,-87.936573,-102.587471,-115.003681,-53.574829,-82.761383,-100.946674,-115.328579,-43.129349,-69.753914,-87.105331,-100.906849,-31.12381,-52.314377,-65.8041,-77.742805,-14.473,-17.153832,-12.213984,-9.248174,15.302123,32.389141,40.21193,45.589773,30.908366,48.233,56.15249,61.582945,42.23123,59.505291,66.446222,70.740407,49.356857,64.894434,70.488713,73.747406,-0.448208,5.581284,19.680862,36.616745,35.638962,18.966122,-5.420895,-26.390419,44.877548,24.843864,-4.274998,-27.974968,48.638992,27.911968,-0.408783,-23.673306,49.237404,54.186745,45.296974,34.850922,0.003952,4.537791,13.777258,25.459139,8.466043,39.276041,53.90496,59.218707,16.647664,45.963549,53.571879,54.587364,22.457328,46.126817,54.347526,58.488323,26.14957,43.667421,51.560977,56.009723,51.785316,301.299619,-35.104523,302.81306
11,-1.09623,0.955958,11.420403,2.264017,-26.508636,-52.25132,-76.425991,-95.818806,-60.65094,-87.775269,-102.50164,-114.670715,-53.018646,-83.04451,-101.339893,-115.444794,-42.73716,-70.2071,-87.693386,-101.271629,-31.022415,-53.079414,-66.722546,-78.353977,-15.403826,-18.053165,-13.249292,-10.306391,14.425575,31.600156,39.671676,45.122508,30.341806,47.53028,55.309103,60.258275,41.956626,59.087672,65.571033,69.420431,49.371245,64.736724,69.688366,72.263914,-6.168766,-7.036972,0.69952,11.880627,22.802925,4.289703,-18.382816,-38.527164,32.78286,11.394367,-17.150631,-40.447197,37.724075,15.80658,-12.231102,-35.737267,39.919739,40.593681,28.760376,16.252041,-10.23229,-10.658121,-3.789993,7.78259,1.228771,31.72625,45.789536,51.47255,14.742355,43.598137,50.388398,50.816637,25.483716,48.197617,54.866908,56.890408,33.224377,48.933064,55.40142,58.091824,50.776691,302.147452,-23.596516,304.968952
12,0.336113,-0.352718,-1.139545,-1.34548,-26.647682,-52.325134,-76.355953,-95.867901,-60.831242,-87.847538,-102.603951,-114.819374,-53.334618,-82.661762,-100.877495,-115.081043,-43.106804,-70.040359,-87.515316,-101.144714,-31.234589,-52.79377,-66.170254,-77.811127,-14.899139,-17.769237,-13.026435,-10.024685,15.18844,31.645234,39.331431,44.70841,30.862979,47.721212,55.361529,60.512501,42.206283,59.044756,65.807785,69.91394,49.39539,64.743022,70.312415,73.5059,-4.188023,-3.78828,5.072536,16.245975,22.484608,5.586147,-16.971359,-37.799721,31.722393,12.042904,-15.493927,-39.489784,36.542187,16.982517,-10.403824,-34.46188,39.290371,47.931461,44.051113,35.615902,-7.725162,-5.72593,1.701286,13.680866,4.977515,35.173961,49.139619,55.138425,16.699658,45.559454,52.113087,52.699284,25.437897,47.773083,54.439101,57.195949,31.458439,46.411116,52.784252,55.576976,51.17506,301.759798,-24.673805,303.588537
13,-0.961304,0.199083,31.586208,18.276825,-26.275864,-51.798592,-75.849495,-95.581627,-60.577869,-87.580261,-102.353611,-114.853535,-52.792282,-82.523174,-100.725288,-115.034466,-42.764626,-69.936161,-87.517204,-101.220303,-31.378441,-53.381882,-67.327709,-79.412899,-14.827632,-17.773498,-13.615534,-10.817128,15.421486,31.812145,39.598934,44.852165,31.055764,48.022369,55.443225,60.283346,42.433278,59.38358,65.46649,69.165587,49.756629,64.90487,69.948952,72.857088,-10.469055,-24.145546,-35.362301,-44.486103,-13.657665,-38.071117,-58.506031,-71.288853,-5.819206,-34.548912,-59.129505,-76.387482,0.220871,-26.509724,-48.638706,-65.27092,4.246674,2.197838,-5.275154,-13.122025,-16.279261,-28.943715,-30.142229,-31.363652,-14.910254,-5.544014,1.481639,8.284991,2.023993,20.277971,29.591847,36.326347,17.494015,34.398129,42.885538,47.730475,30.889841,42.059441,46.609026,49.584284,50.231895,301.928747,6.930542,321.835228
14,-0.038109,0.741746,-40.173225,-19.60273,-26.617813,-51.448174,-75.140591,-94.821167,-60.246048,-87.75135,-102.341595,-114.494247,-52.518539,-82.879944,-101.060944,-115.134315,-42.628326,-70.341225,-88.105259,-101.735344,-31.549416,-54.102058,-68.098927,-80.116596,-15.302617,-18.491284,-14.347029,-11.270994,14.694869,30.808083,38.639641,43.88009,30.519153,47.349598,54.800033,59.395807,42.083956,58.743908,64.646074,67.963738,49.541059,64.448534,69.272971,71.807578,-4.254913,-2.858562,1.876316,10.553455,33.218994,16.664772,-8.617287,-30.978642,42.412148,25.272846,-3.864098,-30.680695,45.82489,28.578987,0.834217,-23.355846,46.587868,62.801628,68.590279,68.309784,-15.248585,-18.759158,-16.464821,-7.287907,3.246837,32.213214,44.583242,49.941695,20.337622,47.013367,53.665986,53.526801,32.594337,52.748993,58.206,58.363093,41.97441,52.687181,57.319388,56.430923,50.263052,302.656337,-33.173418,302.218341
15,-0.361862,-0.256202,45.270882,12.244983,-26.452789,-51.231995,-74.890366,-94.528141,-59.991302,-87.321568,-101.897335,-114.055538,-52.236328,-82.424583,-100.521355,-114.453678,-42.23259,-69.701557,-87.41581,-101.010933,-30.980759,-53.129311,-66.975574,-78.950729,-15.155157,-18.160673,-13.717298,-10.456815,15.155033,31.329072,38.991124,44.067317,30.926768,47.90103,55.282056,59.903519,42.36739,59.217348,65.202631,68.533756,49.609972,64.732092,69.693614,72.320168,-13.079567,-28.397026,-38.927708,-46.083755,-12.140236,-34.490719,-54.503803,-69.971123,-3.187866,-32.743263,-59.701366,-79.998493,3.380928,-23.520527,-48.150501,-68.446541,8.010979,5.742073,-3.594589,-12.764168,-21.129632,-30.975242,-25.562324,-17.267885,-13.302459,8.983079,20.404189,27.2788,6.423278,29.97118,38.072031,42.657987,22.823014,43.303588,50.129293,52.550774,35.005197,48.029038,51.419136,52.585539,49.944735,302.384234,12.141008,314.447424
16,0.206566,0.176359,-23.856182,-8.6035,-26.419373,-51.579895,-75.307159,-95.16283,-60.452328,-87.051086,-101.656551,-114.104977,-52.882462,-82.228088,-100.313129,-114.530468,-42.864532,-69.447842,-86.956043,-100.58424,-31.454201,-52.884636,-66.626759,-78.59848,-15.198876,-18.377911,-13.901067,-10.898948,15.340593,31.688644,39.222194,44.223731,31.011983,47.831807,55.216045,60.03974,42.27248,58.981956,65.27846,68.903765,49.404837,64.318303,69.5259,72.474791,-9.926834,-18.737926,-22.134018,-18.644829,9.11253,-13.005924,-36.117954,-56.849327,16.816463,-3.189869,-29.941349,-54.047413,21.866741,3.012772,-22.653236,-45.325642,25.833149,36.650448,38.644924,35.193615,-18.870185,-27.196857,-28.278169,-20.986742,-2.625195,26.003284,37.073651,40.526116,16.651184,43.281728,49.35871,49.092627,31.290169,52.050163,56.577518,55.909379,42.690592,54.058595,58.117018,57.550396,50.180397,302.546946,-11.686077,305.830277
17,0.054016,-0.090156,-13.567257,4.22484,-26.371994,-51.542473,-75.408268,-95.36562,-60.329704,-87.051716,-101.827526,-114.362755,-52.750854,-82.119255,-100.196228,-114.305363,-42.77813,-69.4491,-86.860542,-100.298252,-31.414604,-52.754974,-66.406116,-78.155308,-15.11434,-18.183891,-13.865252,-10.887092,15.236544,31.648877,39.276411,44.339081,30.855137,47.946416,55.430875,60.311689,42.127428,59.089463,65.357748,69.035355,49.198282,64.33374,69.648228,72.743591,-1.967583,1.897087,6.395416,14.211617,28.967857,-0.335655,-23.370152,-38.301315,39.14772,6.144276,-19.508228,-36.379223,41.665077,16.115227,-11.127892,-30.288448,39.805984,39.031563,28.136559,17.937412,-17.54533,-22.141042,-10.912409,2.179357,-6.205546,14.161469,22.541679,28.485403,13.885815,32.277867,37.647868,41.523756,29.433643,44.038294,48.713789,52.242331,41.694804,51.563879,53.722241,56.30631,50.255785,302.428262,-25.231962,310.026588
18,-0.263443,0.247928,12.304058,-6.374125,-26.323013,-51.688614,-75.613689,-95.527897,-61.118889,-87.415009,-101.787815,-114.015999,-53.368378,-82.241535,-100.032406,-113.908367,-43.117561,-69.395199,-86.532154,-99.714088,-31.353493,-52.473793,-66.004601,-77.600269,-15.289032,-18.507957,-14.563094,-11.527937,15.005906,31.460353,39.033917,43.969319,30.621535,47.706639,55.200175,60.093278,41.807067,58.828197,65.1691,68.967368,48.810984,63.909083,69.285444,72.491896,-10.262833,-19.135151,-22.452621,-19.037991,12.341137,-10.4072,-33.624401,-54.812164,20.648746,-1.303997,-28.785381,-53.220634,25.396786,4.940643,-21.00563,-44.055805,28.552952,34.094868,30.034275,22.149982,-18.099293,-26.603312,-26.809929,-19.817498,-1.831023,27.300104,39.605417,43.620368,18.011237,44.57966,51.095564,50.623358,33.12076,54.56958,59.033579,58.063789,45.120717,58.098801,62.699516,62.597319,49.999752,302.663052,-12.920494,303.639327
19,-0.701408,0.705004,-14.155197,4.828388,-25.922012,-51.077614,-75.009499,-94.897842,-61.301594,-87.788544,-101.623077,-113.124905,-53.27282,-82.440033,-99.721527,-112.738838,-42.640228,-69.054508,-85.889225,-98.647728,-30.645332,-51.943016,-65.172043,-76.227036,-15.76136,-18.959538,-15.235617,-11.969391,14.493007,31.077377,38.791671,43.736705,30.158222,47.481559,55.235682,60.151138,41.409641,58.442442,64.823174,68.59069,48.376446,63.218899,68.188695,70.827908,0.12085,5.301876,11.674404,19.77396,32.289448,3.293781,-21.242638,-36.650906,41.662731,8.992195,-18.535709,-37.077484,43.166142,17.116985,-11.763039,-31.905556,40.214138,46.02499,40.987873,34.597607,-15.156824,-17.842288,-5.285774,8.575094,-3.547746,18.086387,26.868778,32.860482,15.124281,35.149323,40.73088,43.388865,29.337188,44.578363,50.319423,54.096757,40.560573,50.209322,52.720958,54.480289,49.342203,303.339806,-27.031832,308.439464
20,-0.220528,-0.513208,15.151806,-3.58103,-26.406555,-51.248817,-74.930134,-94.779968,-60.709705,-87.522984,-101.470184,-112.956104,-52.518539,-81.741886,-99.274693,-112.510357,-41.612778,-67.988777,-85.088253,-97.989292,-29.186783,-50.282936,-63.755894,-75.162392,-15.217772,-18.299117,-14.687953,-11.935614,15.756976,31.469677,38.851013,43.658653,31.273743,48.172052,55.623783,60.498175,42.178125,59.123241,65.564303,69.394187,48.75053,63.794906,68.881226,71.462949,-10.993881,-18.254128,-19.712849,-13.507805,13.209915,-11.715603,-34.259605,-54.719009,20.052109,-3.424702,-30.571289,-54.473248,23.721428,1.644287,-24.37706,-46.798553,26.420975,30.413246,25.431976,17.630653,-19.261436,-28.007393,-27.949471,-22.245154,-2.250556,26.904346,39.151058,43.509711,17.489693,44.456345,50.789467,50.477689,32.199752,54.108366,58.549518,57.645121,44.090659,57.762756,62.488823,62.466902,49.140329,302.794102,-11.861372,304.825938
21,0.457535,0.187351,-23.873634,-1.107864,-26.352539,-51.460648,-75.500736,-95.518684,-60.802231,-87.43927,-101.541367,-113.270302,-52.721672,-82.121315,-99.904575,-113.446941,-42.066078,-68.972855,-86.409187,-99.617901,-30.056534,-51.952171,-65.716782,-77.452698,-15.82873,-18.721058,-14.532712,-11.6247,14.686903,31.368407,39.166249,44.184828,30.537493,47.61846,55.246488,60.005778,42.037519,58.824863,65.137916,68.647254,49.245336,64.000165,69.124893,71.837465,8.374043,23.342113,38.299713,53.662491,44.729118,16.734409,-8.852577,-26.422806,51.386147,20.748768,-7.402439,-28.072586,50.561028,24.858055,-4.634228,-27.388859,45.528831,52.637329,46.489563,36.992912,-0.069407,7.399922,26.108198,41.854306,10.433103,33.051044,42.285632,48.605046,19.209256,41.824974,48.353784,51.899801,26.004642,44.491172,52.795305,58.708772,31.374273,45.44503,50.624717,54.748471,49.593515,302.926866,-35.739355,303.663486
22,0.081139,0.523767,24.098053,2.035602,-26.169205,-51.149826,-75.135784,-95.177593,-60.696201,-87.82362,-101.910439,-113.535175,-52.652779,-82.55373,-100.225239,-113.491287,-42.083015,-69.394512,-86.874847,-100.066051,-30.106773,-52.385445,-66.081905,-77.570858,-15.96878,-18.955092,-14.972931,-12.070477,14.371173,30.599367,38.251787,43.33965,30.189406,47.126185,54.672271,59.468734,41.716294,58.437255,64.653422,68.312937,49.034273,63.911738,68.827441,71.403607,-10.426769,-18.759441,-20.007362,-13.674545,11.76899,-12.807713,-35.579681,-56.259613,19.126625,-3.617592,-30.481796,-54.935818,23.541183,2.28075,-23.502674,-46.229382,26.81591,33.11348,30.762062,24.239616,-19.249147,-27.801023,-28.315898,-22.418672,-2.123905,27.276392,39.189467,43.256102,17.254177,43.933936,49.762558,49.470478,31.505925,53.129375,57.729534,57.186995,42.856083,55.349858,60.099144,60.278776,49.676113,303.372441,-11.639843,305.620897
23,0.914955,0.216435,-21.828461,-1.841644,-26.048698,-51.161957,-75.176125,-95.361671,-60.942993,-88.121338,-102.562408,-114.417515,-52.942543,-82.905293,-100.991364,-114.453964,-42.515602,-69.92569,-87.592621,-100.735874,-30.803719,-53.328438,-67.087383,-78.430367,-16.133962,-19.067848,-15.161579,-12.140996,14.476334,30.669392,38.392084,43.58165,30.310004,47.13588,54.590143,59.298241,41.720431,58.546554,64.797054,68.365919,48.886319,63.846777,68.766185,71.280724,6.291504,20.12455,33.629379,48.268433,40.528221,11.369991,-13.319321,-30.407982,48.184662,16.065273,-11.017342,-30.413189,48.577194,22.796631,-5.731544,-27.565327,44.598427,48.028336,38.97789,28.066807,-1.868938,4.438434,23.191787,40.194949,8.901137,31.423797,40.999001,47.491192,19.744941,41.339678,47.744616,51.896837,27.820722,45.691909,53.266832,58.68648,33.927529,48.577073,53.578795,58.222549,50.576906,303.509697,-33.482466,303.700073
24,0.280952,0.061997,30.900764,3.421158,-26.371536,-51.878815,-76.214333,-96.662693,-61.117859,-88.085461,-102.533684,-114.489899,-53.157692,-83.006172,-101.112785,-114.68565,-42.674332,-69.982224,-87.613106,-100.951309,-30.854874,-53.125191,-66.903362,-78.518772,-16.014475,-18.848387,-14.852271,-12.379599,14.214945,30.687423,38.392331,43.410046,30.119257,47.077835,54.505483,59.056612,41.591002,58.523274,64.792423,68.314172,48.775477,63.73013,68.747845,71.436026,-14.182034,-25.475864,-30.551319,-26.954269,2.236862,-23.181553,-44.886303,-64.691906,9.182854,-14.558487,-40.973454,-64.152832,13.988686,-8.670673,-34.280205,-56.524315,18.32016,17.606163,8.124733,-2.679634,-21.468827,-31.825854,-32.428599,-26.620603,-5.632996,22.710134,34.142976,37.721351,14.956753,41.250695,47.240424,46.551227,30.958446,52.970862,57.151674,55.390243,43.979631,58.150239,62.014642,60.777472,50.834942,303.468787,-2.604618,307.018324
25,1.065102,-0.856602,-17.717743,-1.891292,-26.812935,-52.428589,-76.495628,-96.57074,-61.631756,-88.123798,-102.64452,-115.155487,-53.937035,-82.755089,-101.039085,-115.828743,-43.41568,-69.888554,-87.657738,-101.663589,-30.988541,-52.144661,-65.993843,-78.415604,-14.988801,-18.26818,-13.989988,-11.471683,15.063272,30.630489,38.084073,43.396831,30.773874,46.81768,54.180058,59.411183,42.121376,58.179694,64.823174,68.998243,49.27053,64.160469,70.045407,73.556165,-8.144703,-11.973267,-10.328922,-3.026848,18.827591,0.329647,-22.862835,-43.617153,27.419128,9.310455,-17.851238,-42.226868,32.353706,14.535027,-11.568661,-34.432869,35.648117,48.923035,52.74559,50.37529,-17.158155,-23.379694,-24.15954,-17.627396,-0.931134,28.02561,40.409593,45.529752,17.23806,43.863973,50.481024,50.909139,30.794189,51.731161,56.861755,56.582273,40.93725,52.241096,56.616174,56.156257,51.79822,302.474745,-20.424185,304.989592
26,-0.746269,-1.134293,15.560303,2.539733,-26.588516,-52.300529,-75.73843,-95.2458,-61.304226,-87.367344,-102.352638,-115.197315,-53.645554,-81.849861,-100.457382,-115.396385,-43.238983,-68.869457,-86.33297,-100.179863,-30.862083,-51.296425,-64.896698,-77.307529,-14.617002,-17.99512,-13.28202,-10.207096,14.983058,31.27646,39.227134,45.225631,30.682977,47.146193,54.966018,60.631803,42.116683,58.716491,65.666994,70.218987,49.625533,64.950751,70.998401,74.752887,-11.317749,-19.005547,-24.380093,-27.283001,8.197861,-14.014835,-36.203899,-53.925991,19.05304,-11.065922,-40.288639,-61.896629,24.70768,-2.558556,-30.196838,-51.969624,26.752625,22.29332,8.049088,-4.888115,-18.854624,-26.29913,-18.409465,-7.986675,-7.036768,16.705462,30.101906,40.112574,12.76276,34.874533,44.785166,51.892514,28.099587,46.891596,54.437064,58.212546,39.351006,53.899341,59.348506,63.813184,50.974588,301.132476,-4.941244,307.321349
27,0.581818,-0.635844,16.324997,9.979793,-26.484718,-52.029877,-75.397568,-94.888802,-59.603004,-86.523914,-102.133427,-115.454292,-51.288528,-80.472679,-99.902744,-115.252304,-40.67791,-67.084122,-85.608902,-100.236053,-28.722038,-49.909515,-64.076843,-76.646633,-15.112055,-17.914289,-12.887928,-9.292387,14.582669,31.945094,40.629919,47.230914,30.162668,47.934498,56.519102,62.811346,41.330539,59.131268,67.237615,72.735687,48.392316,64.452981,70.780669,74.868484,-11.603279,-25.03046,-37.836628,-47.988167,-16.605892,-41.330452,-59.664516,-74.155025,-7.654495,-38.256397,-61.767082,-79.424915,0.817451,-27.336903,-48.725052,-66.919155,7.549324,2.588539,-4.783745,-13.617668,-20.081913,-31.288996,-29.713434,-25.089131,-13.394158,0.936507,11.25216,20.349416,4.216256,22.948923,32.795026,41.742908,19.030365,34.945608,43.6342,49.575454,30.909848,44.029279,49.613986,54.428357,51.468973,300.392999,11.29632,317.197509
28,0.316887,-1.449282,-54.558392,-18.634175,-26.269112,-51.699486,-75.184307,-94.941273,-58.518276,-86.717491,-102.645035,-115.417614,-50.070992,-80.612926,-100.246353,-115.08688,-39.526749,-67.196045,-86.336746,-100.916233,-28.069038,-50.851593,-65.505238,-77.907429,-15.60402,-18.257436,-12.938934,-9.417926,13.641531,31.58867,41.163627,48.887184,29.666009,48.161061,57.201877,63.969351,41.499364,60.056104,68.054882,73.609826,49.32308,65.84465,71.881493,75.853156,-3.754234,5.257587,19.407635,37.59161,42.955227,29.41618,6.090488,-13.018398,55.389576,38.267498,11.215038,-12.754612,60.234432,44.996281,19.245987,-4.532146,60.080624,70.82468,68.218288,60.169201,-4.05058,-0.434414,7.419065,18.535683,4.308203,35.586639,52.1707,60.336204,17.626655,47.003673,57.890826,60.959636,27.513267,50.517148,60.402586,64.042526,34.710895,47.868734,56.774996,60.656627,51.697483,298.799175,-43.350449,298.418792
29,1.523781,-2.647672,20.539742,2.873864,-27.484245,-51.937408,-74.566669,-93.854485,-56.974182,-86.423264,-102.118721,-114.493561,-48.692894,-79.949913,-99.095364,-114.024181,-38.125076,-66.664753,-85.694847,-100.581837,-26.679382,-50.550041,-65.298786,-78.485184,-15.678553,-17.615046,-11.537323,-7.318288,10.975024,28.879865,39.151058,47.941291,27.774347,46.623537,56.809082,65.03751,40.901929,59.302811,68.590196,75.440417,50.059083,66.834015,74.09117,79.034538,0.223732,8.070145,15.401173,24.161396,32.731075,12.432804,-8.317909,-24.075851,37.788563,11.454277,-12.515316,-31.426563,37.015514,14.394093,-7.215271,-25.216026,33.822727,38.234653,32.286015,23.580379,-3.159151,3.341624,17.495991,34.858787,12.344031,39.000696,55.522636,66.936088,18.433177,45.391863,57.065346,64.754014,20.36967,43.909853,53.576942,59.98293,19.267364,36.729701,45.855732,52.38942,53.054352,296.029175,-22.977619,301.170329
30,2.98439,-7.893987,-38.009377,-11.602655,-26.033821,-51.522217,-73.094501,-90.631599,-55.076752,-83.421135,-99.065495,-111.668644,-46.927071,-76.902351,-96.065025,-110.820522,-36.409492,-64.120045,-83.052979,-97.802296,-24.727707,-47.162361,-61.2743,-73.70842,-16.537501,-17.075409,-9.871977,-6.118354,10.961686,28.926301,39.845688,48.523227,27.788612,47.101485,58.690247,68.45416,40.561931,58.862963,69.843359,78.400176,49.336665,65.900781,75.172605,82.185167,19.711132,47.463169,73.848667,99.150524,75.889263,68.383999,45.08028,23.483562,76.183605,64.303951,38.164387,14.487247,69.480686,56.396198,30.024719,7.899399,60.025692,62.004948,50.154591,38.652248,32.90062,53.204093,63.042786,72.997138,31.828324,55.95847,71.7512,81.075574,20.13119,45.909764,59.36876,68.049448,7.921219,29.603703,42.026589,51.445812,-5.958977,7.676441,18.110346,26.844077,56.015568,288.171142,-61.01017,289.603628
31,5.628204,-10.252544,-0.596695,5.143254,-24.61235,-50.92907,-71.255322,-87.613049,-54.299355,-81.913662,-97.798004,-110.356293,-45.906143,-75.003662,-93.204403,-107.911835,-35.581627,-61.656647,-79.477158,-93.653698,-24.460716,-44.853516,-57.722855,-69.208317,-19.018756,-20.675829,-13.050764,-7.601352,10.643672,28.202525,39.177425,47.467109,27.668075,46.300088,56.288218,64.808539,40.290415,57.055652,66.560522,73.713999,48.626473,63.794474,71.638444,77.222472,24.411621,53.82225,75.54697,101.462917,72.361736,77.809811,62.562389,45.721951,64.8353,68.388348,51.634998,31.531391,53.998489,56.897793,40.904732,22.844639,41.797714,53.939953,54.635239,51.966076,23.344187,34.498288,44.608992,53.827587,17.739164,37.443968,49.183462,54.812877,10.496026,29.274388,39.441841,44.226757,2.966552,18.023093,28.837751,34.395782,-5.204942,1.496953,8.545887,14.073413,61.604033,278.014573,-61.646605,294.842857
32,3.966408,-12.744791,6.703377,3.313342,-21.370354,-45.873184,-64.825859,-83.553715,-42.918549,-72.383823,-90.579414,-105.47493,-35.378265,-66.929283,-87.612247,-104.81535,-27.792664,-54.144402,-74.261913,-90.654945,-20.944519,-41.319809,-55.521126,-67.378464,-19.112679,-22.822952,-17.26313,-13.062682,-0.474922,19.74772,30.759177,37.306944,19.108665,39.548854,49.437565,55.828486,34.552381,51.207579,58.836225,64.302063,45.462444,60.288594,65.4852,69.392087,23.431492,49.480076,71.659298,92.306271,61.483898,71.771679,60.775051,48.033657,59.510136,68.244724,55.470371,39.100628,54.301014,63.940372,49.096985,31.932449,45.3055,58.222332,57.230015,52.172184,25.122105,34.984634,34.37806,34.151374,21.330136,25.33817,26.56793,26.700199,6.143857,9.456335,12.475127,12.915346,-8.515382,-4.879765,0.8269,2.484219,-20.535779,-23.918343,-22.118195,-20.835577,65.716667,265.30183,-54.797001,298.188247
33,13.487091,-27.832145,16.537971,-50.413592,-19.315968,-42.053204,-58.692627,-71.729193,-62.627392,-91.602774,-106.852398,-115.841675,-56.729737,-85.965414,-99.657698,-108.045216,-47.816048,-72.026654,-83.317137,-89.834061,-37.272149,-54.840832,-63.983803,-69.839287,-20.82403,-28.576516,-27.214086,-24.818016,-0.054557,12.357091,19.024777,22.375045,18.606788,36.396958,44.406265,48.346836,32.65652,49.031741,56.030811,59.479077,42.509508,57.49621,62.723536,64.834011,13.223591,31.898575,52.400036,64.934521,48.153133,65.26926,57.94939,46.585522,48.301907,67.047558,54.750195,40.192852,49.004803,67.115765,55.310268,39.954929,48.233242,62.384319,58.7673,51.6255,38.973834,54.941503,58.842894,63.689498,36.884386,41.136025,40.079599,37.64935,15.806068,21.418069,20.368929,15.822061,-2.39147,4.304065,3.110677,-1.087054,-19.926302,-16.507367,-15.258774,-17.363598,79.598694,237.465316,-37.864094,247.770286
34,13.487091,-27.832146,-27.760906,-17.736787,-17.261581,-38.233223,-52.559395,-59.904671,-82.336235,-110.821724,-123.125381,-126.20842,-78.081207,-105.001545,-111.703148,-111.275082,-67.839432,-89.908905,-92.37236,-89.013176,-53.599777,-68.361855,-72.44648,-72.30011,-22.535381,-34.33008,-37.165041,-36.573349,0.365809,4.966462,7.290377,7.443148,18.104912,33.245063,39.374965,40.865188,30.760659,46.855904,53.225397,54.656092,39.556573,54.703825,59.961873,60.275936,22.089758,50.038576,75.749874,93.595791,75.189914,101.718921,100.244579,92.078762,74.639568,102.821045,98.02969,87.094459,72.505417,97.666855,91.329174,80.26062,67.104521,85.651016,87.99139,85.40514,30.479849,41.970026,44.194523,47.885129,22.734063,19.496828,14.983521,10.820679,6.654996,5.058347,0.610866,-5.016048,-7.208156,-6.291904,-10.129167,-15.018101,-20.014914,-20.239655,-21.944738,-25.620184,93.211555,210.153186,-65.499229,230.553515
35,15.632057,-33.203505,-27.760906,-17.736787,-17.421684,-34.831924,-49.639893,-59.884758,-81.455154,-102.934341,-105.489349,-104.186325,-80.529442,-100.507736,-98.671532,-95.408363,-72.316246,-88.535042,-85.047112,-79.952888,-58.912697,-73.924484,-73.455391,-68.067513,-29.108465,-42.86973,-46.864981,-44.072813,-10.479292,-0.257376,2.439821,3.138835,8.660928,18.041803,16.048747,15.660954,23.486954,29.455564,26.316791,25.361141,35.539832,40.540133,36.041616,32.189811,30.955925,68.178577,99.099712,122.257061,102.226696,138.168583,142.539768,137.572002,100.97723,138.594532,141.309185,133.996067,96.006031,128.217945,127.34808,120.566311,85.9758,108.917713,117.215481,119.18478,21.985864,28.998549,29.546152,32.080759,8.58374,-2.142369,-10.112556,-16.007992,-2.496075,-11.301375,-19.147197,-25.854156,-12.024843,-16.887873,-23.369011,-28.949149,-20.103526,-23.971942,-28.630702,-33.87677,108.937626,177.600051,-93.166122,213.467099
36,10.691299,-34.622931,-9.93084,-19.833183,-14.070453,-29.901237,-43.235149,-51.581897,-79.178409,-102.239284,-101.368103,-95.727195,-81.567192,-103.778457,-99.443149,-92.692451,-76.427478,-93.912162,-88.492183,-81.572227,-65.763931,-80.508213,-78.158569,-71.464519,-30.837585,-46.470613,-51.41503,-47.929512,-24.694484,-17.199528,-11.530578,-8.996603,-5.999393,2.042749,3.972666,4.870887,9.936119,15.274581,15.329292,15.579798,23.510851,27.419128,25.209482,22.962539,30.782604,63.540516,90.16674,106.042843,86.806755,130.783253,139.55698,136.791973,82.180996,120.720463,129.007473,127.909985,75.811157,106.401844,112.317638,110.577106,69.126835,93.248405,98.125305,97.592697,-23.046612,-28.253716,-28.249887,-28.987928,11.631987,20.302609,13.41892,7.458709,27.907913,35.354149,25.625927,17.701558,36.363644,43.223065,34.558865,27.091944,39.643888,46.021656,39.430973,33.060059,119.831972,147.492805,-102.893915,198.1496
37,10.6913,-34.622932,0.314255,-28.503249,-10.719223,-24.970551,-36.830406,-43.279037,-76.901665,-101.544228,-97.246857,-87.268066,-82.604942,-107.049179,-100.214767,-89.97654,-80.538712,-99.289284,-91.937256,-83.191566,-72.615166,-87.091942,-82.861748,-74.861526,-32.566704,-50.071495,-55.965078,-51.786211,-38.909676,-34.141679,-25.500975,-21.132041,-20.659712,-13.956303,-8.103414,-5.919178,-3.614715,1.0936,4.341795,5.798456,11.481872,14.298123,14.377348,13.735268,31.282139,61.056461,84.103718,101.334057,83.511314,126.660633,134.61565,130.833149,75.197353,116.470013,125.93153,126.026974,66.139526,98.741856,105.929203,104.711323,56.795254,79.778881,87.181377,88.45253,-23.396984,-27.674435,-27.65838,-26.938679,9.360868,19.332448,17.184707,14.372223,29.127855,35.759972,28.658798,21.09604,41.083846,44.016435,34.681687,26.582194,46.868254,51.660456,44.004579,36.057609,130.939407,115.148741,-102.163525,171.925219
38,7.304764,-30.777563,1.615162,-22.831906,-7.595158,-18.352604,-28.677521,-36.121331,-69.698868,-96.031094,-95.559197,-87.341195,-75.753594,-103.347474,-100.942154,-92.385636,-74.249268,-97.14283,-95.015374,-88.166142,-66.848317,-85.337964,-85.277482,-80.123291,-31.01876,-50.296498,-58.467436,-57.655526,-41.80259,-42.994866,-38.242431,-34.573469,-24.902706,-24.392941,-21.763871,-19.944657,-8.791761,-8.696727,-8.311744,-8.225587,6.980884,7.130042,5.044577,3.027839,31.193619,61.584148,84.747276,100.972366,80.594387,123.075485,134.354439,134.522667,72.873688,114.023094,125.441322,127.328453,64.703121,99.760094,106.449165,104.379272,56.522484,82.260246,89.826279,90.232372,-23.365738,-28.938991,-30.21213,-32.001287,6.344176,17.493151,17.058551,14.966941,27.483132,34.351816,28.277057,21.31334,40.61763,43.150076,33.373566,25.063195,47.199298,50.19728,42.338923,34.428633,138.424216,87.136284,-100.368319,151.858419
39,7.304763,-30.777563,6.898899,-18.210814,-4.471092,-11.734657,-20.524635,-28.963623,-62.496071,-90.51796,-93.871536,-87.414322,-68.902245,-99.645767,-101.66954,-94.794731,-67.959824,-94.996376,-98.093491,-93.140717,-61.081467,-83.583984,-87.693214,-85.385056,-29.470816,-50.521501,-60.969794,-63.524841,-44.695504,-51.848054,-50.983888,-48.014897,-29.1457,-34.829579,-35.424328,-33.970137,-13.968808,-18.487054,-20.965284,-22.249631,2.479897,-0.038038,-4.288196,-7.67959,27.76228,57.240772,80.993214,98.937664,78.413143,118.560734,133.088322,139.459591,71.735401,113.687267,130.445423,137.949657,62.646904,99.966145,116.530552,123.874454,53.191624,83.405228,97.931614,105.75285,-21.937945,-27.825971,-30.369501,-38.760332,7.150636,17.208543,18.559086,18.89328,26.947695,32.114784,29.423763,25.662607,39.267704,42.642426,38.248637,34.35231,44.983076,45.684499,40.917737,37.246799,146.550379,58.273802,-92.64802,135.562686
40,13.724785,-8.000877,1.56126,-8.892028,-1.793518,-16.279106,-31.426964,-42.065163,-34.877129,-75.742836,-93.5075,-104.082642,-41.270943,-85.314217,-104.187927,-116.85482,-45.504684,-83.317337,-101.087494,-114.089813,-48.084068,-76.991959,-90.156784,-101.388931,-29.983808,-53.052465,-66.185574,-73.619119,-44.433188,-56.744615,-61.14285,-64.624461,-25.639172,-41.215004,-47.0586,-50.519648,-7.73992,-23.273977,-32.517088,-38.294209,8.536161,-2.281709,-10.862268,-17.982121,26.79142,57.370491,82.9105,101.35643,75.931664,112.881889,128.954544,139.135895,70.79607,111.651993,129.988174,140.86544,62.7705,99.806671,117.511253,127.990837,53.649502,83.349037,97.757607,106.828079,-24.018317,-30.352798,-31.263462,-39.131452,4.966246,12.709933,16.015247,18.293529,26.003994,31.206034,31.820018,30.868259,39.722465,44.129469,42.869513,40.235488,47.133873,48.251062,45.177991,41.647843,161.402378,51.855387,-89.959545,128.25312
41,6.07235,-1.820248,6.694508,3.601624,-4.260292,-15.380516,-30.890465,-44.759445,-28.668709,-68.208961,-88.825493,-104.646606,-34.986763,-77.82177,-101.837997,-120.016479,-40.859871,-79.513435,-102.035866,-117.531967,-45.341377,-76.625519,-93.609467,-107.53727,-29.797785,-52.667235,-68.202651,-76.480664,-44.212338,-56.399245,-61.901886,-65.436788,-26.856427,-41.948691,-50.350638,-55.295858,-9.656282,-24.776612,-34.089716,-40.161171,6.193072,-5.780116,-13.423335,-20.758451,26.583138,56.184196,81.31628,99.376545,75.970001,110.844898,127.460232,137.647991,69.756947,108.000126,126.425114,138.174076,61.332493,95.289173,112.2159,123.184147,52.993126,80.630322,94.784489,104.500294,-24.437849,-30.319205,-30.709468,-37.35727,4.592193,13.561378,17.306603,19.9862,24.109893,30.425292,31.044464,30.375213,37.381476,42.820144,42.014733,39.825249,45.715806,48.572257,46.064943,42.547516,168.782129,51.109828,-81.957636,132.929433
42,-1.549988,4.391195,3.15731,7.143411,-4.405746,-13.981018,-29.307404,-44.674988,-25.985985,-65.011368,-87.62352,-105.317459,-32.936096,-74.991417,-99.945374,-118.046379,-39.179306,-77.196236,-100.123672,-115.611763,-43.744926,-74.540977,-91.448822,-104.194794,-32.149333,-55.009243,-69.440685,-77.914107,-41.764552,-53.92787,-57.952638,-60.683735,-22.392675,-37.746514,-44.894464,-50.205833,-4.894677,-20.491195,-29.51997,-36.422029,10.218396,-3.537835,-11.168859,-18.225572,28.864861,58.467808,82.49754,100.554943,74.888821,107.86726,124.785519,135.731106,68.273106,104.992504,123.672466,135.745182,59.779587,92.950687,109.938755,120.996952,50.969868,77.490749,91.724339,101.631947,-21.773041,-27.309583,-27.427248,-32.370986,7.022442,17.734101,23.260948,27.063415,26.600904,35.570646,37.302806,37.395988,40.325427,48.539344,48.396762,46.411918,48.789618,53.913235,52.039048,48.531378,167.868032,55.244543,-78.164434,139.816363
43,-2.365265,7.873425,2.192059,11.794082,-1.559944,-11.929436,-28.081284,-42.317848,-28.104973,-64.95163,-86.399689,-103.573952,-34.904022,-74.241142,-98.122559,-116.320267,-40.462418,-76.252441,-97.931786,-113.323288,-44.156227,-72.535858,-89.972878,-103.722382,-31.136132,-52.953788,-65.772556,-73.588645,-37.97391,-48.631846,-53.624305,-57.798077,-19.143492,-32.539904,-39.062323,-44.569255,-2.810076,-16.559948,-25.089069,-32.206452,11.371091,0.079936,-6.231049,-12.186722,30.438938,60.07925,84.349594,103.023949,76.293068,107.429352,124.259491,135.566826,69.465523,104.433746,123.242912,135.460052,61.030827,92.247047,109.240036,121.148071,52.14489,77.148972,91.16993,101.722641,-20.708124,-24.652061,-23.729356,-26.728141,8.888107,19.566915,25.946967,30.442089,28.111134,37.853435,40.422128,41.068594,41.413408,50.757851,51.571042,50.390559,49.691853,54.88883,53.795971,51.127797,167.217264,62.700365,-74.257879,151.192843
44,-3.066101,5.078447,4.729671,6.883504,-1.091537,-10.155029,-25.64621,-40.593452,-25.745201,-64.098587,-86.46389,-104.490738,-32.235603,-73.210258,-97.322845,-115.797958,-37.222481,-74.143181,-97.279243,-113.491974,-40.559578,-69.647026,-87.402306,-101.085091,-28.783781,-49.378933,-61.100983,-67.291153,-31.63063,-42.350409,-47.743103,-51.601547,-12.550586,-26.087851,-33.471903,-38.950894,3.419244,-10.265635,-18.711857,-25.334619,16.126954,5.007835,-1.051054,-6.315276,29.851913,59.389801,83.779964,103.232975,73.412418,105.251141,121.6749,132.134686,64.907398,101.286678,119.874287,131.928806,55.296078,88.262043,104.948673,116.266994,45.866089,72.096806,86.303387,96.419735,-19.541227,-22.421142,-21.198793,-24.741476,14.797375,26.532794,31.981465,35.532731,33.671512,44.477093,46.066363,45.898711,46.174241,56.231901,56.229678,54.766502,53.360013,59.911855,58.345988,55.27582,165.425234,68.140051,-68.254137,158.437586
45,-0.86586,0.766847,3.15136,-0.625717,-0.962448,-11.415367,-26.940193,-43.839455,-22.815056,-61.26915,-84.931068,-102.996483,-30.166855,-71.651688,-96.758308,-115.389061,-36.25351,-73.924599,-98.397446,-115.676765,-41.018486,-71.823578,-89.866447,-102.981491,-27.095278,-47.344967,-58.818626,-63.930973,-31.302179,-41.199813,-46.964708,-50.282836,-11.7771,-24.277607,-33.324845,-40.170681,4.71767,-8.300521,-17.931239,-25.168079,17.899221,7.621483,-0.166078,-6.733327,26.086521,55.074406,79.58353,99.39394,71.368275,104.021244,120.192661,130.470943,63.70039,100.259228,118.411503,130.080471,53.822422,86.450329,103.319263,114.05508,43.991432,70.497036,84.60371,94.162617,-20.60074,-22.435839,-19.070935,-22.90613,15.060061,26.83358,31.386376,34.366636,33.342999,42.735669,44.708286,44.802085,45.385935,53.793624,54.355615,52.802283,52.854895,58.331786,56.609814,53.664134,164.905243,68.85333,-64.756908,157.758301
46,0.999184,-2.14101,-0.498676,-6.846515,-0.35923,-11.920738,-28.605537,-43.883057,-24.366188,-60.727386,-83.072891,-101.357803,-32.32132,-72.003593,-96.373901,-115.388603,-38.914604,-75.403175,-98.460274,-116.169891,-43.875504,-74.463501,-91.46862,-105.463028,-29.225729,-49.456121,-60.894922,-68.051856,-34.137048,-45.290222,-51.552517,-55.209438,-14.405846,-28.227194,-38.353459,-44.914934,1.53246,-11.642114,-22.125234,-30.211605,14.290064,3.094653,-5.421192,-12.760136,25.38271,53.998375,78.305969,97.629204,69.606056,103.367844,118.417168,128.391266,62.948742,99.971123,117.125587,127.730141,53.733158,87.299194,104.111137,114.269142,43.847523,71.362152,85.113487,93.888702,-21.219665,-24.41426,-22.057926,-26.421828,10.691219,22.765771,27.953609,31.275904,30.43085,39.811911,42.895912,43.334401,43.619688,51.322867,52.085855,50.838497,51.208196,55.395739,53.583179,51.236416,166.115942,66.236796,-65.044069,150.436261
47,-0.041428,-9.440403,-1.01738,-9.928849,-2.117386,-15.15461,-31.378555,-45.262871,-24.429016,-58.748817,-80.709572,-99.035797,-31.95076,-69.54174,-93.523293,-112.817688,-38.51017,-73.105202,-96.150856,-114.006157,-43.837509,-73.208885,-90.377083,-104.075546,-30.059236,-49.851355,-61.413224,-71.090779,-36.447748,-47.484091,-53.827155,-58.209365,-17.904161,-31.283654,-41.158162,-48.032249,-1.963848,-14.191974,-24.642428,-33.756542,11.083828,0.733039,-7.664122,-15.662189,24.501858,53.167019,77.652969,97.254181,68.718281,102.978401,117.929535,127.356834,62.646446,99.586716,117.240486,128.049202,53.653622,86.667252,104.243202,114.738464,43.666878,70.690041,84.584427,93.534966,-22.838637,-26.266217,-24.309038,-28.748151,11.390049,21.258135,25.240234,27.60935,31.210511,37.594021,39.096965,38.638653,43.711388,49.417867,49.168333,47.391218,50.184745,53.03675,50.56062,47.709418,165.982046,56.855256,-66.153917,140.566276
48,-0.893555,-9.187689,-1.109619,-9.62479,-3.722992,-17.016335,-32.159157,-43.231659,-21.467171,-53.995514,-75.601845,-93.647232,-28.793335,-64.883194,-87.844734,-105.753708,-36.104965,-70.117607,-93.058434,-110.264053,-42.871399,-71.535759,-88.56102,-102.088623,-29.350527,-49.947623,-63.112132,-75.417353,-38.810875,-50.965517,-57.847199,-62.439022,-21.092459,-35.246796,-45.112597,-51.842528,-5.083325,-17.999134,-28.487534,-37.699707,8.514054,-2.792045,-11.207947,-19.039011,23.463593,52.186432,77.033844,96.665955,68.367119,102.535744,117.494545,127.033539,62.371845,99.335175,116.758575,127.332573,53.464794,86.945,104.143066,114.272919,43.538418,71.339722,85.270844,94.198723,-24.579072,-28.945228,-27.430058,-32.80963,8.541193,18.622072,22.360936,24.419571,28.609275,34.547132,35.655367,34.949622,41.422856,46.736108,46.113602,44.098871,48.213425,51.258646,48.496921,45.622254,165.699091,47.126973,-66.652937,130.400892
49,-1.865044,-5.313407,-2.658291,-6.530971,-1.871223,-14.226379,-28.362007,-38.965645,-18.524666,-48.49514,-70.099297,-88.229599,-27.124443,-60.833588,-84.300613,-102.58667,-35.288429,-67.496223,-89.84539,-106.577797,-42.412033,-70.08419,-86.945343,-99.919624,-29.593267,-50.73278,-65.635594,-78.849688,-40.140917,-52.194906,-59.830931,-65.205842,-23.115032,-36.399151,-47.171912,-54.961294,-7.452688,-19.147815,-30.963509,-41.085698,5.879226,-5.811393,-15.426982,-24.239013,24.31881,52.435112,77.012615,95.509129,69.995327,103.052273,118.417797,128.966961,64.331017,99.661274,117.093487,128.383656,55.606556,87.684689,104.759159,115.548649,45.525112,72.081299,85.640774,94.901104,-24.599573,-30.086097,-29.531208,-35.04163,5.582731,14.500849,17.799618,19.788537,25.33922,30.963015,31.951948,31.099483,38.422341,43.090858,42.651874,40.115167,46.349797,49.204704,46.833365,43.029416,164.077492,39.72597,-69.067783,121.782325
50,1.278305,-2.429014,1.798496,-0.530776,1.202774,-10.847397,-26.546974,-38.532829,-19.243011,-50.839462,-72.460442,-89.676933,-28.545914,-64.037819,-86.244965,-103.225021,-36.746063,-69.736404,-90.941048,-106.540833,-43.998871,-72.103729,-88.614349,-101.560936,-28.842969,-51.289306,-65.209269,-79.018976,-39.975117,-51.512719,-59.591525,-65.070948,-21.664731,-35.55456,-47.071536,-55.793751,-5.40066,-18.529631,-30.861744,-41.461758,8.35199,-4.566875,-14.597797,-23.673935,21.928825,49.790325,74.510307,93.683968,69.049072,101.85173,117.687035,127.421951,62.999268,99.455338,116.956902,127.017517,54.050217,87.466736,103.289909,111.745033,44.709778,72.557945,85.733528,93.367882,-24.226447,-29.356146,-28.717801,-34.417086,5.729666,13.332068,16.26546,18.680827,24.946271,29.586753,29.307023,28.859271,38.243049,42.462146,40.678485,38.515245,46.994503,49.601173,45.942584,42.118505,165.682383,36.67499,-66.942701,120.629584
51,0.370674,8.141607,-1.60326,3.690637,2.725525,-6.506195,-21.968079,-36.322174,-21.360626,-58.010216,-79.688416,-96.529999,-28.492584,-68.581123,-91.784706,-108.608437,-34.554176,-70.885162,-92.758255,-107.542076,-39.862633,-70.075378,-86.723213,-99.365616,-26.952202,-49.539145,-63.364321,-72.880399,-36.931995,-49.616827,-56.521047,-61.198888,-19.137317,-34.853569,-44.14926,-50.99241,-2.599631,-18.661222,-28.906788,-36.800529,11.623681,-2.714641,-10.833214,-17.59192,25.338821,54.671059,78.782673,97.003956,70.865135,101.225224,116.853275,127.173328,64.281864,98.077869,115.156345,125.559826,55.672989,86.11124,102.063046,111.652737,46.494198,70.945988,83.824482,92.010555,-22.466961,-26.038049,-25.251411,-31.082039,8.124471,16.327643,19.785666,21.669732,27.262591,33.334138,32.910345,31.516268,40.648536,46.443751,44.59834,40.938763,49.258582,53.070002,50.19478,45.941658,166.302023,43.989465,-68.296995,123.49309
52,-4.33342,17.885667,-0.674114,10.018109,3.325195,-3.956451,-18.155022,-28.920822,-21.378822,-55.77507,-75.7164,-91.896744,-27.972794,-64.595261,-86.735573,-103.39016,-32.79213,-66.404114,-87.139778,-102.08416,-36.300087,-63.387222,-80.931473,-94.495583,-29.176082,-51.091488,-64.417968,-74.308007,-37.234819,-48.468948,-54.652943,-59.923588,-21.190611,-35.401974,-42.148577,-47.833382,-7.366454,-21.497017,-28.315219,-35.014923,3.938349,-6.061266,-10.822254,-16.401002,28.168087,57.144814,81.157036,99.499741,71.217957,100.695763,116.698151,127.734947,64.324951,96.977463,114.459686,126.385002,55.916634,85.58979,101.962738,113.815956,46.825905,70.129795,82.993584,92.667503,-20.658415,-23.583532,-22.780252,-27.297387,10.147445,19.554997,23.914823,26.4272,28.395556,36.092128,36.164499,34.923254,41.487879,49.319437,47.533615,44.322964,49.975288,54.361913,52.598877,49.585519,161.932268,61.895417,-69.007444,133.531484
53,-1.649895,7.092035,-1.125469,11.715535,4.562531,-4.690247,-19.507828,-32.322693,-22.718582,-52.474594,-71.168633,-87.200317,-29.436951,-61.073227,-82.573128,-100.385056,-32.98851,-62.724838,-82.16011,-98.182983,-34.985962,-59.314499,-74.206924,-87.02076,-24.664998,-41.699281,-51.23197,-56.657145,-28.028605,-34.187467,-38.87139,-43.933257,-16.290284,-22.691825,-27.31795,-31.63736,-6.841853,-14.182896,-17.549313,-20.953582,-0.130417,-3.696565,-5.469327,-8.455824,30.132065,59.085503,82.615299,100.843334,71.57238,99.834194,116.075993,126.797733,64.153862,95.366535,113.355503,124.991741,55.361423,82.754345,99.027157,111.140385,45.943851,67.242451,80.151615,90.649509,-19.420381,-20.756536,-18.260955,-20.555817,14.129421,23.708762,28.65639,31.643319,32.029877,41.738771,42.539859,41.641637,44.231573,54.215935,53.348404,50.825035,51.471068,57.18082,56.326441,53.854634,160.283689,68.974994,-70.131598,145.234561
54,0.303383,31.061661,-0.300465,10.967244,2.74807,-4.993629,-17.809067,-34.501076,-29.249153,-68.077812,-83.485909,-90.363808,-40.112,-83.769264,-99.212379,-103.916588,-46.867905,-85.258713,-99.887352,-106.110878,-49.577408,-82.970467,-93.810883,-98.462791,-30.838773,-51.823169,-64.88616,-71.365322,-37.431926,-50.506526,-55.964923,-59.449376,-18.715593,-34.842022,-43.536757,-46.900827,-4.333243,-20.253425,-30.093878,-33.404163,6.137929,-5.106852,-16.27568,-21.815865,29.651184,58.015995,82.179451,101.707191,68.921986,99.43634,115.875092,126.713791,60.908775,95.268059,113.706551,124.842224,51.883678,83.261833,100.186615,111.712761,42.924271,67.783127,81.597061,91.50135,-19.623231,-20.3178,-16.31872,-17.19539,15.95643,26.769545,31.278313,33.998665,34.383123,43.437154,42.74382,40.91712,46.165102,55.08569,52.61944,49.165369,52.791292,57.838029,55.546719,52.464015,160.571623,100.929736,-70.447512,157.094885
55,7.552299,2.367789,-1.040668,3.533976,1.148758,-7.921829,-22.314491,-37.18174,-24.608116,-61.452026,-81.804886,-97.561798,-32.732506,-74.106789,-96.11618,-112.792854,-39.159279,-75.96199,-96.87355,-112.330856,-43.373222,-75.020256,-90.316086,-102.318993,-26.529583,-46.490805,-58.387361,-66.391202,-29.463098,-44.334171,-52.387043,-57.598191,-11.133321,-29.888589,-40.403048,-46.593557,3.577232,-14.873729,-25.941441,-32.830595,14.498287,0.204239,-8.304381,-15.144258,27.8825,57.08662,81.765919,101.464748,68.792095,100.027485,116.001377,126.476955,60.183449,94.818935,112.043781,122.527599,50.102177,81.162128,97.79829,108.657932,40.252819,64.837303,78.378582,87.329807,-19.565803,-19.057412,-14.4864,-15.743885,19.316455,29.044183,31.764412,32.907412,37.121013,45.034946,44.356,42.299156,47.769439,55.042279,53.675928,50.210927,53.360569,58.303627,55.469407,51.280444,168.240881,104.095726,-71.371222,161.427063
56,4.189682,-1.434122,-1.973248,-1.167268,1.516914,-8.84491,-24.558334,-39.384956,-24.217529,-60.444145,-80.891647,-97.416687,-32.847633,-72.303314,-94.8349,-112.064095,-39.6492,-75.848007,-97.410049,-113.305206,-44.367371,-75.101967,-90.854416,-103.25592,-26.776986,-46.263007,-57.459407,-63.096046,-27.549391,-42.147682,-49.786548,-54.897567,-7.968644,-26.701094,-39.564384,-48.262146,7.340951,-10.683562,-24.384466,-33.60337,18.741003,4.526058,-6.03706,-14.051615,27.445335,57.365341,82.001724,101.427727,69.807701,101.021576,115.755844,126.333504,61.481667,95.708542,112.174072,122.741203,50.975647,81.465225,97.768364,108.514137,40.097466,64.807549,78.438721,88.019142,-19.316887,-19.012211,-13.585646,-15.871276,18.740509,27.584959,30.043366,31.870252,36.878643,43.343973,43.41054,41.929765,47.60296,53.40046,53.063426,50.509984,53.311662,56.523795,54.626329,51.849907,172.421265,103.606786,-73.353767,161.204977
57,1.6436,-0.429875,-1.349144,-1.4859,1.102295,-9.434738,-24.897079,-39.238358,-24.150009,-59.656677,-80.735321,-97.887611,-32.41848,-71.286507,-95.064926,-113.933716,-39.331741,-75.152664,-98.080902,-115.511398,-44.908562,-75.794678,-92.049751,-104.680595,-27.408939,-46.508095,-57.791624,-64.566323,-26.744752,-42.208321,-51.430189,-58.518612,-7.83622,-27.846256,-41.07446,-50.794283,6.756205,-11.453899,-25.606105,-35.942167,17.014956,3.320289,-7.646492,-16.875245,27.139435,57.024422,82.305565,102.070312,70.204868,101.147919,116.095848,126.916351,61.902924,95.822182,112.675896,123.735924,51.207047,80.994072,97.184486,107.809753,39.86721,63.29607,76.400585,85.049744,-18.951016,-19.632617,-15.274458,-17.77745,17.82086,26.801037,29.498172,31.300234,36.19593,43.443391,44.350319,43.483282,47.290936,53.572681,53.64073,51.200292,53.551872,57.212621,55.087975,51.928206,174.018202,104.036384,-74.749575,160.57855
58,-0.716972,-1.148311,1.90424,-2.292052,1.761589,-9.521027,-25.400848,-39.473763,-24.697495,-59.89666,-81.084595,-98.685379,-32.912521,-71.0812,-94.668274,-113.875694,-39.616241,-74.523697,-96.977463,-114.786987,-44.865189,-75.26722,-90.996094,-103.706474,-28.154946,-47.187504,-58.511356,-66.875974,-29.363093,-43.994915,-53.105663,-59.977249,-10.456907,-28.910987,-41.604494,-50.860233,4.45415,-12.397074,-25.572266,-35.202428,14.993093,2.103003,-8.432636,-17.244358,26.211834,55.689926,80.638905,100.795155,69.537964,100.429287,115.328693,125.528584,60.927601,95.439205,112.237988,122.490406,49.752388,81.223011,97.482433,107.681065,38.331356,63.966637,77.97472,87.384396,-19.626874,-19.620638,-14.297505,-16.320943,18.15283,28.100019,31.019517,33.010103,36.760453,43.97642,44.427137,43.234427,48.291724,54.872836,54.743099,52.488097,54.576126,58.933667,56.903931,53.667283,173.031092,103.244311,-73.115473,158.642736
59,-0.58548,-2.215821,-1.107616,-1.485406,1.809082,-8.571396,-23.738937,-38.607559,-24.041176,-59.086761,-80.399551,-97.874565,-32.760315,-70.428658,-93.633499,-112.352829,-39.783325,-74.263916,-96.186333,-113.615799,-44.909821,-75.037079,-90.458794,-103.214378,-26.738793,-45.595238,-57.286413,-65.718432,-29.030659,-43.268545,-52.039727,-58.536241,-10.16066,-28.638452,-41.846834,-51.395146,4.788281,-12.398649,-26.234879,-36.178671,15.774359,2.223354,-8.398859,-16.887132,27.051773,56.494045,81.249733,100.775528,69.980278,100.352097,115.433578,126.696968,61.95013,95.25959,112.091675,123.587608,51.481647,81.157722,97.631607,108.928528,40.403309,64.283123,78.05666,87.930336,-19.400312,-19.548143,-14.81448,-17.725271,17.694828,27.68518,31.232988,33.411666,36.210689,43.8473,45.238784,44.630728,47.731525,54.593169,55.318489,53.191373,54.257555,58.439231,56.926532,53.772259,172.054367,101.352958,-74.614334,157.481798
60,-0.666618,-0.312797,-0.655518,-0.768422,1.906128,-8.518181,-23.583183,-38.056984,-23.417816,-58.62545,-79.94957,-97.441177,-31.896172,-69.536247,-92.918587,-111.857758,-38.787003,-73.612061,-95.804443,-113.440704,-44.018898,-74.439697,-90.364952,-103.570061,-26.459897,-45.536051,-57.236333,-65.303685,-29.332156,-43.268884,-51.95127,-58.357999,-10.552744,-28.889498,-42.390361,-52.152947,4.497066,-13.054469,-26.976038,-36.979203,15.82626,2.213536,-8.243804,-16.576311,26.904716,56.941795,82.580681,102.915688,70.34214,100.077553,115.341339,126.580925,61.72102,94.856071,111.96476,123.935852,50.799408,80.153389,96.730614,108.38665,39.481544,63.281536,76.692982,86.293945,-18.814239,-19.068033,-14.592796,-17.302465,18.273182,28.483242,31.927433,33.838732,36.170921,44.474684,46.365853,46.084456,47.694042,54.948666,56.019418,54.04958,54.817693,59.315593,57.61616,54.356973,171.202869,101.045148,-75.454731,156.718362
61,0.112839,1.89404,0.096817,1.118423,1.959,-8.538322,-23.959694,-39.353027,-24.848213,-58.555984,-80.166435,-98.441048,-33.434372,-70.024681,-93.731689,-112.874107,-40.257568,-74.05941,-96.206703,-113.729553,-45.198555,-74.856491,-91.469536,-105.068207,-27.523672,-46.845622,-58.506941,-66.448569,-30.247822,-44.093005,-53.12919,-59.546231,-11.745885,-28.632122,-41.902811,-51.549769,3.469817,-12.505385,-25.731551,-35.140369,15.54193,2.762281,-7.804171,-16.548555,27.026138,56.603794,81.711845,102.020988,70.632133,100.190392,115.693703,126.755104,62.025604,95.18589,112.884293,125.119514,50.950356,81.131516,97.612495,108.831367,39.587746,64.381714,78.314896,87.919235,-19.694676,-20.545412,-16.207322,-17.418,17.332414,27.31548,31.074845,33.304405,34.825442,43.120498,45.148752,45.117445,46.261,53.732368,54.607989,52.730282,53.336857,59.074026,57.538108,53.908789,171.050034,102.88954,-75.623589,157.787138
62,-0.498848,0.769935,0.213146,0.869261,1.608238,-9.103775,-24.649315,-40.143814,-25.512428,-59.804993,-81.341171,-99.157219,-33.880005,-70.923843,-94.156609,-112.491531,-40.78949,-74.937172,-96.84391,-113.896866,-45.758972,-75.441742,-91.870308,-105.603676,-27.492704,-46.977892,-58.645138,-66.392376,-29.697317,-43.541605,-52.517923,-58.748076,-10.792891,-28.264368,-41.732565,-51.357756,4.280168,-12.294939,-25.583782,-34.908619,15.884244,2.824803,-7.720531,-16.414927,26.308994,55.757389,80.870075,101.327763,69.863434,100.007343,115.470028,126.343746,61.553249,95.30508,112.942944,124.949741,50.71701,81.081791,97.781124,109.106083,39.4594,64.351444,78.486443,88.251858,-19.753833,-21.155135,-16.97735,-17.753182,16.596288,26.763555,30.251589,32.161961,34.188116,42.239196,43.648649,43.05109,45.619846,52.826798,53.333707,51.189733,52.687181,57.801226,56.018924,52.425112,170.287657,103.65455,-75.673971,158.651474
63,-0.401917,3.766158,-0.674286,1.401302,1.700134,-9.193153,-24.80175,-39.920425,-24.916534,-58.557014,-79.578552,-97.065926,-33.591957,-69.844322,-93.009109,-111.342659,-40.773239,-74.183807,-96.276283,-113.364258,-46.041527,-75.46566,-91.703224,-104.754524,-26.976964,-47.146995,-59.743184,-68.089617,-30.013263,-44.139503,-52.991579,-59.468117,-11.657027,-30.293424,-44.015694,-54.12649,3.273729,-14.612401,-28.502632,-38.553437,15.288939,1.282494,-9.80612,-18.996557,25.944557,55.224037,80.77898,101.298466,68.931084,99.247913,114.843807,126.056271,60.892925,95.663967,113.7216,125.588665,50.350857,82.226543,99.303303,110.487843,39.410877,65.235043,79.601383,89.159374,-20.191211,-22.017109,-18.2985,-20.404374,16.017933,25.483839,28.463235,30.410349,34.202997,41.112436,41.743773,41.088848,46.062843,52.342798,51.929873,49.515988,53.324754,57.865014,55.419636,51.631866,169.232426,107.514136,-77.001572,160.146205
64,-2.094498,3.015242,-0.751076,2.115754,1.402702,-9.656982,-24.957161,-39.941139,-25.316277,-59.999771,-81.781654,-99.854736,-34.388924,-70.662918,-94.011154,-112.583771,-41.819801,-75.002289,-96.906853,-113.90522,-47.055359,-75.879822,-91.637993,-104.649582,-27.406377,-47.648656,-60.246697,-69.245986,-29.912517,-44.086305,-53.552396,-60.826286,-11.290847,-28.918181,-42.893658,-53.25618,3.499118,-13.518647,-27.318321,-37.103322,14.733834,1.574203,-9.190684,-18.085893,25.481529,54.960308,80.66431,101.367016,68.640289,100.01833,116.068211,127.474194,60.837936,96.845226,115.089626,126.836529,50.684853,83.535061,100.63036,111.668301,40.291901,66.713219,80.834484,90.0947,-20.837862,-23.188144,-20.080246,-22.423118,15.119897,24.034187,26.548231,28.223829,33.570117,39.871191,40.068237,39.175141,45.409894,51.14305,50.44138,48.02558,52.45469,55.981133,53.191249,49.606638,166.819353,110.568543,-78.071222,162.301124
65,-2.246361,3.663436,-1.270237,1.568831,1.141319,-10.747948,-26.586342,-42.00222,-26.67263,-61.84124,-84.056969,-102.81189,-35.232697,-71.958961,-95.7827,-114.850731,-42.05864,-75.800629,-98.210106,-115.435982,-46.811829,-76.029396,-92.242241,-105.514183,-27.900195,-48.73818,-61.502422,-70.025338,-31.139745,-45.047574,-53.87742,-60.25247,-12.350793,-29.211218,-42.486445,-52.15872,2.706335,-13.337502,-26.587227,-35.989005,14.201205,1.872519,-8.626131,-17.507755,26.802006,56.389904,81.698284,101.246567,69.212494,100.917664,117.100182,128.555145,61.252327,96.32309,113.892288,125.082321,51.196575,83.240204,100.229187,111.167564,40.964184,67.464581,81.435757,90.634689,-20.344723,-23.415756,-21.567752,-25.223376,14.109105,23.021356,26.359213,28.779027,32.302258,39.176129,39.896879,39.504147,44.069602,50.752046,50.738152,48.708416,51.253645,56.232889,53.875258,50.228835,164.189272,114.208684,-79.72518,163.84666
66,-3.57605,2.536182,-1.002388,2.978222,0.420341,-11.615982,-27.479324,-43.696518,-26.720238,-62.179642,-84.94091,-103.865433,-34.747696,-72.646065,-97.321472,-116.445351,-41.202965,-76.080551,-99.279099,-116.319122,-45.76149,-75.786095,-92.544594,-106.137085,-27.995352,-48.734444,-61.116482,-69.408698,-30.441996,-43.609314,-51.88214,-57.382126,-11.318573,-27.012224,-39.299135,-48.021011,3.893641,-11.173181,-23.912168,-32.928191,15.600007,3.611782,-6.868066,-15.631777,25.917091,55.34317,80.910702,101.343727,69.039574,101.215096,117.890511,129.193382,60.730991,97.158852,115.956001,128.143501,50.472393,83.856354,101.692886,113.27076,40.268269,67.615814,82.438946,92.372704,-21.943997,-25.813648,-23.911674,-26.372428,11.070923,20.721833,24.435997,26.912682,29.31113,37.035921,38.370842,38.254565,41.376913,49.801213,50.31473,48.382189,48.844205,56.149897,54.89624,51.420618,160.462933,116.861497,-80.877857,166.941513
67,-2.912292,4.691735,-1.171074,4.08022,-0.197411,-13.817482,-30.801201,-46.858406,-30.447464,-65.342903,-87.571449,-106.039581,-37.262764,-74.107475,-97.906151,-116.885605,-42.241974,-76.404419,-99.21936,-116.15696,-45.719032,-74.862556,-91.246834,-104.46682,-27.346046,-48.254829,-60.768797,-69.609757,-29.539514,-41.004342,-48.093351,-52.936837,-11.195782,-25.722659,-36.313071,-44.20854,3.867428,-10.095729,-20.878833,-28.737005,16.03899,5.801853,-3.533389,-11.652797,25.565071,54.855995,80.519543,101.287193,68.459473,101.516533,118.578529,129.981422,60.657234,97.924461,117.04216,129.183311,51.077957,85.706291,103.402176,114.470444,41.731853,69.948177,84.663277,94.521332,-22.595279,-27.143505,-24.925554,-26.357299,8.41584,17.890206,21.366322,23.478927,27.241071,34.625,35.367548,34.75412,39.972215,48.187057,47.993655,45.460098,48.129074,55.599824,54.084098,50.343073,157.237902,121.547581,-82.36167,171.016083
68,-4.273338,7.112258,-2.690563,4.449179,-0.983162,-16.515541,-35.299072,-53.180809,-32.505341,-67.29023,-90.591087,-109.825172,-38.240433,-76.309319,-100.797501,-120.313797,-42.412262,-77.614632,-100.711899,-117.306976,-45.547256,-74.811058,-91.714668,-104.979286,-27.678171,-49.079135,-60.608925,-68.490716,-28.881625,-39.383487,-45.643126,-49.038102,-10.129229,-22.260591,-31.239317,-37.402163,5.019784,-5.70932,-15.138793,-22.126037,17.269707,9.476434,1.320378,-5.624135,26.839428,56.321239,81.840019,102.523899,68.68578,102.03661,119.399242,131.365643,61.234703,97.8475,117.059841,129.61813,52.09425,86.075993,104.116001,116.00172,42.796154,70.012836,84.79517,95.911961,-22.237682,-27.087991,-24.419941,-25.193489,4.960349,15.717456,20.426234,23.386487,24.50843,32.697769,34.286237,33.694545,38.457848,47.226839,47.872686,45.318874,47.816555,56.339779,55.563947,51.975754,152.245073,128.347012,-85.771723,175.152435
69,-6.720772,9.267224,0.310593,7.337431,-3.994446,-20.931129,-40.993538,-60.332222,-34.076729,-68.833694,-92.350273,-111.724205,-38.034897,-76.723824,-101.369934,-120.822144,-40.685005,-76.351089,-99.849586,-116.877251,-42.413292,-72.271042,-89.920349,-103.856964,-29.57394,-50.251127,-60.271737,-65.679838,-29.051068,-37.335411,-42.173247,-43.935048,-9.918783,-19.04994,-26.477928,-30.55713,5.393404,-1.853562,-9.477885,-14.621942,17.532794,12.364902,5.861534,0.901247,26.194782,54.769192,80.715122,102.534771,68.031521,101.466122,118.401775,129.876881,61.541862,98.332615,117.666378,130.048199,53.075409,87.950535,106.065273,117.773037,44.490395,72.640915,87.736759,99.50861,-22.102942,-27.32925,-24.488546,-24.987428,1.801198,13.677284,18.539326,21.857608,21.658092,31.156479,34.31421,35.348159,36.709323,46.188011,48.167544,47.427157,47.272596,56.151193,56.303779,53.995116,145.050974,136.147432,-85.934458,181.023062
70,-6.984673,9.174629,-0.247707,10.045125,-7.920456,-27.812233,-49.735222,-68.209991,-36.933289,-72.059097,-95.929985,-114.62677,-38.794899,-77.950172,-104.491882,-124.421654,-39.338608,-76.052284,-99.997215,-116.135559,-39.03717,-69.332199,-85.887108,-98.660202,-30.00258,-47.150237,-54.49619,-59.279191,-27.183735,-29.843171,-31.883961,-32.063654,-8.318769,-13.113564,-18.16376,-19.804222,7.134149,1.5642,-4.458194,-8.225093,19.500657,14.180735,9.21557,6.572158,26.153069,54.791336,80.552731,102.367172,67.354259,102.152023,119.253387,130.241661,61.527672,99.751167,119.665375,131.857452,53.633652,89.387054,107.728958,118.80661,45.261097,74.123497,89.185753,100.084991,-22.202299,-27.67709,-24.636438,-24.175225,-0.479862,10.665593,15.361712,18.958797,19.24748,29.02961,32.43181,33.782724,34.296241,43.940852,45.860364,45.13634,44.786956,53.910209,54.297137,52.252705,137.798796,142.577765,-86.449671,188.32389
71,-6.811523,12.017062,-2.37545,10.264771,-13.081055,-34.971085,-56.26236,-74.607353,-39.833221,-72.627754,-96.077614,-115.338478,-39.884377,-74.954224,-100.735016,-120.987625,-38.276482,-70.782852,-93.866844,-110.337524,-35.747337,-61.244431,-76.348343,-88.701897,-29.569555,-44.120144,-49.019978,-52.274595,-27.544945,-24.647986,-23.477383,-21.282959,-10.586923,-9.041742,-9.671967,-8.241642,3.904479,4.306906,3.616228,3.304759,15.302555,15.827927,14.537591,13.499752,28.289223,56.759033,80.11282,96.901588,68.472004,101.780548,119.103699,130.30117,63.167896,100.573425,120.654373,133.838882,55.539665,90.17807,108.979225,120.550919,46.704769,75.324211,90.283241,101.458054,-22.403543,-27.311034,-23.539134,-22.197359,-0.787688,10.415751,15.34226,18.696049,18.597619,29.108341,32.278793,33.930246,33.540724,44.014582,46.146639,46.035056,44.01452,53.730577,54.918285,53.602816,130.522385,150.860687,-89.290009,194.854521
72,-6.621552,11.830206,-1.602974,10.672077,-18.639221,-41.062431,-61.196365,-79.368324,-45.729675,-73.640785,-95.824242,-114.657784,-43.728218,-72.673531,-96.383171,-117.15889,-39.438171,-66.620178,-88.194809,-104.540634,-33.718071,-54.042435,-68.515091,-81.455154,-25.435056,-35.596395,-39.169645,-43.673782,-21.514585,-16.348669,-13.302706,-9.115843,-8.40738,-3.25085,-0.90662,3.518353,2.752339,4.930338,6.670218,9.486963,11.436115,12.813766,14.665723,17.337478,29.492741,58.486462,81.13884,96.421967,68.863449,103.01857,120.806122,132.4617,63.084698,100.913887,121.314125,134.715385,55.253735,91.141205,110.528984,122.993431,46.57774,76.216049,91.811371,104.009171,-22.239658,-26.625604,-23.02253,-20.158175,-1.307256,11.957226,17.44128,20.358987,18.283062,30.340077,33.589137,34.628952,33.720603,45.263299,47.338236,46.957854,44.764788,55.054197,55.875663,54.145972,123.180771,159.722736,-91.613045,202.558441
73,-8.636055,13.705627,-2.636948,10.133366,-22.523575,-45.815277,-63.887787,-80.865784,-45.933838,-68.383026,-88.066406,-104.153595,-42.687378,-64.315338,-86.554184,-105.782318,-38.235283,-59.616852,-79.952316,-94.586563,-33.236275,-48.728828,-61.784134,-73.399086,-20.326445,-27.934528,-29.587278,-31.815603,-21.362061,-16.357993,-10.695727,-5.934462,-10.088659,-3.027499,2.026463,8.612947,0.215818,4.289801,7.435429,12.402879,8.248991,9.146101,12.080233,16.994887,32.818279,63.116226,85.061531,99.502144,70.413666,100.115547,117.917061,131.862946,64.423714,96.372643,116.406898,131.798286,56.943398,87.541122,106.652985,120.378799,47.91069,73.480625,88.616524,101.490898,-21.052383,-26.029713,-22.954789,-17.623876,3.058807,15.152131,20.535347,23.665907,18.968986,33.56845,37.163683,39.218983,32.082859,44.883534,47.63859,48.267765,41.714071,52.519652,53.641965,51.936234,114.448013,171.370932,-94.346695,210.634376
74,-5.295982,24.949822,0.885143,14.23736,-27.946358,-57.142639,-80.874825,-97.700043,-66.504364,-105.611687,-125.322933,-136.917629,-60.24044,-100.453491,-123.686771,-137.487545,-51.573372,-87.078323,-111.437531,-127.766533,-41.935501,-71.207314,-89.427223,-104.295273,-21.93918,-28.956435,-26.213791,-23.582112,-7.652729,7.560288,13.928732,15.300147,12.635308,27.88908,33.95507,36.047791,29.117295,43.930725,52.229363,56.52114,41.07236,55.718446,62.573977,65.504899,32.901478,61.049194,81.137924,100.655308,66.756821,98.225956,119.371662,137.036304,62.34787,95.018864,117.730923,136.387768,55.158005,86.192322,107.216091,124.218578,45.25486,67.590408,84.384098,99.953785,-14.429836,-14.167829,-8.403922,-5.633675,3.943505,10.6115,13.446646,16.363983,13.607877,14.193888,11.564988,9.334995,21.081344,21.618696,18.883399,15.845279,27.990165,34.250669,35.924537,35.865874,109.24593,195.242051,-93.367653,223.793033
75,-0.120392,17.5993,2.691135,8.900272,-30.357742,-58.604279,-83.751068,-104.64901,-66.716766,-99.587746,-118.030701,-132.648983,-60.663872,-95.237503,-117.384796,-134.174423,-53.218002,-84.906693,-106.154709,-121.842613,-44.768143,-69.073906,-84.805183,-98.802223,-22.806341,-29.366149,-25.409554,-21.5751,-2.566224,14.854247,22.040019,25.097035,16.392017,32.941622,40.511173,44.908728,31.371679,47.293159,55.376102,59.738398,41.374443,54.999548,60.881028,63.974353,28.588715,53.835812,72.604465,93.206749,55.945473,87.799931,111.362114,131.041145,55.206413,88.31995,113.308296,132.840385,52.873707,83.681374,106.663513,124.965363,48.031769,71.021805,88.434734,103.929405,-5.784593,1.541537,10.017893,15.441864,19.816325,25.965986,24.266245,21.904724,21.722683,24.486632,19.436807,16.060665,19.975641,22.11696,19.093042,17.288819,15.801375,19.830466,20.687067,21.108267,109.159184,211.938822,-90.642872,231.790777
76,-17.022858,21.581954,0.920219,14.39927,-28.296432,-57.932281,-82.197189,-100.531483,-62.8022,-100.64043,-119.306202,-131.098022,-56.050186,-94.69099,-115.905933,-129.697666,-48.08567,-81.214943,-102.128334,-117.160492,-40.088425,-66.362114,-81.535721,-93.634644,-20.76901,-24.797298,-19.542091,-15.492252,3.235475,19.265141,25.748563,27.621947,22.760523,42.175346,48.765597,50.733274,37.497382,56.058753,63.691845,67.368464,47.201521,64.095507,69.301932,71.639926,31.323051,60.319805,82.341385,100.090141,49.936581,80.403557,101.041145,117.700539,47.097988,80.510216,105.950775,125.344276,46.065845,78.34322,102.167587,119.189529,45.036564,72.074718,91.587524,108.101578,-21.745902,-27.258299,-24.309408,-18.768482,-1.187028,-1.021228,-3.956905,-6.541406,19.241737,21.913924,16.225291,10.468547,35.76553,43.119572,41.283361,37.882581,48.613753,61.692305,65.45661,64.572344,92.155609,232.776221,-89.703369,245.445491
77,-2.358398,11.999093,-0.512581,8.377987,-32.212143,-61.66935,-87.412262,-107.741833,-65.369225,-97.103291,-115.550137,-130.651131,-57.115402,-91.464329,-114.23727,-131.360722,-47.728615,-77.603645,-99.437084,-116.024666,-37.954216,-61.316299,-76.839294,-89.934311,-17.850686,-21.020272,-13.379832,-8.951648,8.019711,26.407317,36.532532,44.201068,26.277764,44.989436,54.304918,61.220408,39.304137,57.958628,67.256881,72.947738,47.296493,62.114925,67.944472,71.479436,32.857933,62.031898,86.056023,108.596878,51.050949,82.020435,103.907204,120.9795,46.406193,79.724407,105.282211,123.792229,42.646351,73.200588,96.240921,113.736763,39.77623,65.72319,84.553471,100.906219,-17.924477,-21.447277,-21.84427,-23.73161,8.773993,11.122175,6.663672,1.873569,27.14369,35.250346,33.003125,29.342808,40.736191,53.575028,55.572592,54.808616,49.082253,63.50258,67.646218,66.728483,89.910107,244.57143,-90.103054,253.619594
78,-4.689217,10.853129,-2.672539,9.742548,-33.412971,-62.851639,-87.6091,-107.572517,-68.695793,-97.079201,-115.832005,-132.204609,-60.970345,-91.346684,-114.371567,-132.302399,-51.869087,-78.823357,-101.234608,-119.123211,-42.276535,-64.102364,-80.29026,-95.787964,-15.651074,-17.270355,-9.845486,-5.781753,10.341094,28.397594,39.625857,48.566452,28.77705,48.446039,59.204628,67.395635,42.084882,62.413364,73.399627,80.384216,49.90446,65.692867,71.981097,75.720949,33.717327,62.120247,85.814896,107.344437,51.013184,80.780182,101.932869,117.077179,45.75388,78.31295,102.770004,120.412331,41.79388,69.805584,92.589455,110.137024,39.087067,63.348827,81.181583,96.881561,-16.938447,-18.891242,-17.980053,-18.94762,14.035992,20.862562,17.457027,13.505741,31.396997,43.532867,43.305193,41.825777,43.009409,60.628654,65.287661,66.749911,49.128504,65.761719,71.626402,73.035917,85.282373,255.423092,-92.714109,263.360675
79,-4.649734,10.327324,-1.375751,10.522455,-33.495712,-62.730675,-86.673203,-106.177998,-71.08429,-100.093117,-120.270138,-138.358841,-63.718185,-93.433628,-116.677437,-134.551105,-54.502487,-80.902176,-103.295059,-121.160374,-43.77697,-65.009995,-80.843925,-96.072979,-15.001892,-16.67329,-10.126203,-6.700105,13.339077,29.823041,39.766277,47.966485,30.542371,48.77418,58.375999,66.036138,42.504229,61.883731,71.993076,78.777718,49.568167,65.501626,71.699206,75.891936,32.182674,60.707302,83.428516,102.002277,62.965736,89.294872,95.752773,98.111973,56.328506,82.751541,90.999241,93.146553,48.743019,73.678322,83.838329,89.286404,40.76437,61.666489,72.769032,80.955677,-13.454242,-15.691212,-15.649777,-17.144878,8.260106,20.324284,26.009335,28.806505,23.347522,37.679669,45.213405,46.79403,34.692308,50.668251,60.508055,63.489983,43.028613,55.241919,63.633429,67.232614,80.959339,265.762782,-93.763161,273.895496
80,-6.424942,8.681676,4.615631,13.546311,-33.802185,-63.128357,-87.606297,-105.803776,-72.949791,-101.85688,-119.778614,-135.405407,-65.210152,-95.501003,-116.825867,-132.387028,-55.098495,-81.145248,-101.380577,-117.05904,-42.966156,-62.939987,-77.054958,-90.027981,-15.609207,-17.684206,-11.544425,-7.24178,12.61777,27.667396,37.375981,44.830737,29.456984,47.608209,56.925235,63.699749,41.394883,61.30019,70.842234,76.856601,48.636292,63.940576,69.68534,72.982071,23.88073,48.59333,70.973969,88.507519,63.488274,77.066059,68.238316,56.482372,64.244041,76.837006,66.096725,48.849907,61.180458,73.65921,65.488701,52.969666,56.055622,75.476933,84.033508,87.401104,-16.729545,-21.959929,-21.712742,-22.408051,0.285225,9.783735,17.510441,20.178676,18.605955,30.401951,40.415089,42.713192,33.368873,45.86518,55.388823,57.535082,44.442513,52.843162,60.046718,62.048852,74.752121,274.362885,-88.929806,287.360235
81,-8.418846,4.104982,8.526993,5.592117,-31.391716,-60.926399,-85.899754,-104.957027,-72.686977,-101.721153,-118.581676,-132.327747,-66.301575,-97.053051,-117.443905,-133.001404,-56.608543,-83.087196,-102.076435,-117.291069,-44.631729,-64.527168,-78.198853,-91.176624,-14.78311,-17.315618,-12.221456,-9.170492,12.613016,27.236872,35.280542,40.569033,29.05468,46.06309,54.181973,60.329844,40.786456,59.53598,67.895813,73.610381,48.182364,63.331284,69.532755,73.594079,12.328548,33.737411,53.302631,71.423149,63.974934,63.085098,41.92955,22.551899,66.108742,65.148926,41.90546,18.276844,63.064613,65.463409,45.263729,25.173969,56.373882,73.099136,79.413357,81.264095,-14.319921,-22.017048,-23.142449,-21.273387,-1.681464,21.122284,35.132156,40.873771,15.378014,35.704891,46.190914,47.950492,29.343734,46.84553,54.823868,55.827498,40.105102,51.268774,60.004481,64.460823,66.307697,278.468377,-80.428391,292.952862
82,-7.416229,5.617064,8.2057,3.129511,-28.70636,-58.653259,-84.627228,-103.878536,-73.287563,-103.29586,-119.548359,-132.160778,-67.187748,-99.529266,-119.020958,-133.54557,-58.09845,-86.6502,-104.806023,-119.224434,-46.925354,-68.535519,-81.751556,-93.438835,-16.495573,-20.610744,-15.64459,-13.079417,10.594333,23.821642,30.179526,34.187807,26.950597,41.383274,47.569059,52.204786,38.47909,53.723476,59.363697,63.023211,45.871541,58.958923,63.452006,66.344828,7.067757,26.876736,44.571133,58.154984,57.015038,45.203991,23.710155,5.537395,59.591103,48.928471,25.143986,3.911304,56.189919,51.996288,30.451584,11.38052,49.405918,67.902317,76.186409,81.05896,-16.909115,-24.488546,-22.468011,-17.271281,-3.179158,15.764695,25.789627,30.072327,13.516362,33.538316,41.987872,44.214839,28.542769,46.153616,51.99891,52.678412,40.270346,53.66648,62.190322,65.214857,58.906975,284.056526,-72.207184,296.053458
83,-6.267586,2.632914,13.107147,2.862193,-28.182793,-56.766815,-82.460747,-101.341553,-69.889126,-100.774555,-116.65781,-129.099255,-64.150372,-97.202568,-115.340023,-129.352913,-55.642776,-84.455338,-101.686306,-115.76128,-45.517159,-67.612495,-80.499744,-91.853828,-16.878178,-21.896511,-17.656975,-14.81627,9.208221,21.761463,27.598297,31.035078,26.636102,41.04729,46.687634,50.454841,39.051578,54.07039,59.303799,62.002168,46.897091,60.445132,64.700291,66.407258,4.319916,17.588825,29.449539,38.7117,42.641315,24.773483,2.069492,-15.445576,46.86676,29.217911,5.83374,-13.153667,45.702896,37.632523,21.149311,9.012222,41.206913,57.217026,66.243668,74.626465,-20.609076,-29.627971,-28.058337,-19.889067,-2.022388,12.738678,20.940553,23.781874,15.013316,32.697399,39.977711,41.862704,29.955248,45.867712,51.524359,51.159167,41.668499,54.623859,61.074677,60.742151,52.626343,286.609011,-59.113083,298.835222
84,-5.120659,1.211173,22.804012,1.802556,-27.831001,-55.364628,-80.047016,-98.850288,-67.475967,-98.454151,-114.200993,-126.270504,-60.918331,-94.562187,-112.763214,-126.350727,-51.984787,-81.783314,-99.616413,-113.765831,-41.817856,-65.902863,-79.801941,-91.169815,-17.105914,-20.510832,-15.362082,-12.642347,11.739309,24.482556,30.072018,32.967125,29.142489,44.425284,49.968495,52.71503,41.464846,57.308581,61.469448,62.99493,49.056565,63.045812,65.841933,65.535403,-0.794678,0.421486,3.301506,5.657043,17.918987,-6.897984,-30.202961,-47.628193,23.95895,1.618538,-21.272564,-39.61853,26.830559,13.280983,-2.397594,-14.42625,26.213837,36.726322,45.527859,53.592396,-19.186285,-29.831439,-27.650167,-18.788427,-0.671968,17.347296,25.423941,29.690277,15.79804,37.364804,43.192314,46.849358,29.958706,49.125664,53.602507,55.718199,40.780713,54.299422,58.816156,59.483987,47.537613,287.609506,-36.277142,300.427101
85,-1.86573,2.283283,15.230713,14.516719,-27.703972,-55.092316,-79.278374,-97.430305,-68.488712,-97.319469,-112.65873,-124.648705,-61.718216,-92.394047,-109.769154,-122.494297,-52.357121,-79.436245,-96.392612,-109.437504,-41.730652,-63.147011,-76.302853,-87.340107,-16.303467,-19.675719,-13.730081,-10.121757,12.707432,26.57781,32.775328,36.486342,29.7306,45.596751,51.613711,54.849556,41.673933,57.175756,61.763318,63.757424,48.978574,62.829006,66.275914,66.707056,-8.316822,-14.017982,-17.044373,-20.741844,0.932922,-23.139095,-40.633736,-49.562588,9.683762,-16.009998,-39.913788,-57.54015,16.056004,-5.426216,-27.928562,-44.271755,20.628719,30.774479,35.779781,38.99889,-19.97527,-34.950239,-35.268069,-33.866149,-17.397376,-4.257567,3.626169,11.827242,0.121772,18.285223,25.90368,30.08091,14.897472,29.991372,37.238339,40.724767,27.302389,36.188273,38.799822,38.340584,45.798311,289.860803,-20.92,314.911833
86,-1.741562,1.859552,13.648968,-12.891078,-26.924744,-54.178047,-78.674412,-97.271061,-66.700401,-95.704365,-110.39835,-122.023544,-59.706745,-91.122723,-108.322849,-120.844002,-50.054512,-78.407707,-95.29129,-108.275127,-39.354973,-62.176609,-75.502682,-86.642647,-16.354905,-18.936196,-13.196125,-10.152076,12.672049,27.689934,33.980634,37.409326,29.745606,45.714386,51.286743,53.564654,41.935693,57.706254,61.793576,63.005366,49.30369,63.329,66.694767,66.952761,-12.057896,-22.600079,-26.85791,-22.66983,-3.003616,-30.275059,-51.863136,-68.43029,2.709274,-19.86454,-43.902569,-65.705738,7.203541,-15.320892,-40.955257,-61.015491,11.670227,26.945686,37.461891,43.422432,-18.54581,-27.636829,-30.502604,-27.552108,-1.322756,23.447249,30.858348,31.53044,17.868346,42.186276,44.882361,42.009114,31.020443,51.807793,52.362003,48.918121,40.330923,53.299868,51.492804,46.261556,44.236193,291.580212,-7.091589,301.880613
87,-0.233803,1.090327,-27.7981,-1.586121,-26.618156,-53.949337,-78.970642,-98.060417,-65.904922,-95.106983,-109.872208,-121.579342,-59.708233,-90.847435,-107.806492,-120.409184,-50.617561,-78.431911,-95.044498,-107.957211,-40.31868,-62.310791,-75.275631,-86.124516,-15.882144,-19.010235,-13.902982,-11.295879,13.773244,27.128129,32.359377,34.974137,30.195581,44.360384,48.959864,50.747662,41.685851,56.081662,60.04573,61.357618,48.400343,61.796046,65.319709,65.972411,-3.346481,-5.916023,0.175667,11.399746,19.218521,-0.596809,-24.167461,-45.121365,27.027454,10.463276,-17.653484,-44.978771,32.516785,15.668221,-11.468124,-33.857288,36.958866,52.932873,59.841785,60.618839,-13.614299,-18.725195,-17.028788,-9.639425,0.62794,25.887502,35.51155,38.235979,16.471428,39.473889,44.043358,43.368302,26.914473,45.717967,49.016366,48.539282,33.784083,44.350937,48.387499,47.560538,44.291182,292.417054,-34.600897,300.041007
88,0.573349,0.487705,33.242168,12.771961,-26.548119,-54.259701,-79.615059,-99.200535,-66.162243,-95.758667,-111.001568,-122.979069,-60.417824,-91.731834,-109.075756,-121.749401,-51.533947,-79.548111,-96.526394,-109.493809,-41.43322,-63.342018,-76.706543,-87.796669,-16.503724,-19.748338,-14.956753,-13.238609,12.090237,24.61285,29.371892,31.752803,28.579881,41.929271,46.369434,48.203668,40.204026,54.087309,57.980549,59.327635,47.089073,60.164044,63.685423,64.501208,-11.326447,-25.201149,-35.673523,-44.732437,-13.395939,-42.999229,-66.388206,-81.395187,-6.267643,-37.188892,-61.722565,-79.395847,-0.17704,-26.045666,-48.101063,-63.237877,4.391441,12.570877,17.358398,20.814743,-19.747411,-34.046522,-34.060663,-29.925793,-16.093022,1.298117,7.455436,11.99156,1.598533,22.030015,26.498831,28.384565,16.649331,33.575737,37.826388,39.686496,29.232336,39.939302,41.931247,41.059948,45.265217,292.830241,-0.958042,312.73845
89,0.305672,-0.198528,-9.317093,-11.259508,-26.024551,-54.09668,-79.429607,-99.33403,-66.299114,-95.254784,-110.447159,-122.277031,-59.862843,-90.567856,-108.035603,-120.487289,-50.398979,-78.094597,-95.301132,-108.160915,-39.634552,-61.261997,-74.519119,-85.184555,-16.336133,-19.50819,-14.906364,-12.954989,12.194471,25.909608,31.324811,34.155635,28.705173,43.44302,48.262887,50.042843,40.432441,55.161705,59.257177,60.505153,47.35318,60.598149,64.190171,64.870166,-7.982941,-17.993717,-22.295094,-17.569199,0.545425,-25.211449,-48.367424,-67.503204,5.540199,-14.66732,-40.531254,-65.195618,9.48761,-10.005054,-35.318184,-56.509552,13.629913,29.26712,39.10183,43.123856,-21.366569,-30.92825,-31.69309,-24.614887,-5.535307,20.090558,28.664171,30.032683,15.728386,39.530699,43.399301,41.008202,30.651114,50.202591,51.239504,47.034116,41.43817,53.078555,52.364164,46.88894,45.916529,292.621525,-9.929495,301.468753
90,-0.106544,0.837583,1.069736,-0.407738,-25.841103,-53.397503,-78.844185,-98.884048,-64.629707,-94.389267,-109.819736,-121.573105,-58.655262,-90.362091,-107.882767,-120.501022,-49.743977,-78.363476,-95.753975,-108.820496,-39.845924,-62.534122,-75.938015,-86.814423,-17.230773,-20.749744,-16.093948,-14.430392,11.115445,24.677749,29.857497,32.395192,28.042221,42.125761,46.8325,48.546692,40.058913,54.099104,58.048475,59.248718,47.051467,59.890428,63.276018,63.889879,-10.544128,-19.600124,-23.080502,-19.673595,1.102352,-26.493244,-49.571457,-67.838688,6.842136,-15.971889,-42.949448,-67.331829,10.442791,-11.592007,-38.569107,-60.042515,14.051228,28.740978,37.411709,40.755215,-18.632261,-27.474981,-27.40366,-21.737071,-6.571911,18.64776,27.129179,29.305696,14.509309,38.77154,41.941991,39.822223,30.279809,50.709377,51.698248,48.295985,41.824851,53.701184,53.874517,50.052661,46.205034,293.523806,-8.464708,301.125714
91,-0.636177,0.308196,1.571674,1.506525,-25.647583,-53.172455,-78.378468,-98.111687,-64.135036,-93.415031,-108.860092,-120.617752,-57.864532,-89.325428,-107.169514,-119.978943,-48.799038,-77.286816,-94.734306,-108.028965,-38.81321,-61.308231,-74.579029,-85.412292,-17.047745,-20.407153,-15.871955,-14.27052,10.927044,24.855035,30.255232,32.738957,27.766937,42.227031,46.999906,48.768623,39.872673,54.465531,58.548406,59.900493,47.060174,60.169354,63.735008,64.579445,-8.209648,-17.793674,-23.195972,-19.545879,0.890179,-27.749233,-50.859604,-68.650932,4.434757,-17.431641,-42.805824,-66.002598,6.813068,-14.535313,-40.710182,-61.280022,9.266739,25.884361,36.310616,41.601791,-20.984828,-30.26258,-31.382239,-25.095491,-5.59008,21.138648,28.542522,29.255678,15.305334,39.788816,41.825962,38.980874,30.22553,50.081437,49.559954,45.488626,40.813503,53.387245,52.278949,47.617286,45.969172,293.864113,-6.49272,302.664349
92,-0.134468,-0.448246,7.167721,0.320485,-25.431633,-52.756405,-77.596378,-97.27066,-63.684254,-92.374077,-108.025646,-120.158958,-57.488422,-88.580818,-106.623917,-119.658337,-48.292694,-76.402588,-93.963318,-107.434158,-37.915192,-59.778042,-73.03854,-83.976002,-16.484087,-19.823611,-14.954962,-12.934859,11.97853,25.4387,30.702367,33.202023,28.600074,42.92759,47.766228,49.565018,40.472455,55.392034,59.595631,60.722762,47.455006,60.726528,64.271126,64.749074,-10.14473,-20.387249,-25.521355,-22.503147,-4.522247,-33.332405,-56.238556,-73.728561,-1.592388,-25.751953,-50.23613,-72.582035,0.488777,-23.188076,-48.19067,-67.869301,3.280849,16.927814,25.986614,30.413532,-21.377931,-30.017555,-30.589981,-25.542873,-6.010353,19.978605,27.339501,28.032526,14.870302,38.978157,41.098542,38.001883,29.54819,49.377173,48.623015,44.159819,40.456091,53.45023,52.062884,46.635146,46.117601,293.427815,0.957899,302.996783
93,-0.350304,0.319929,4.373302,1.451876,-25.674133,-52.399521,-77.285442,-97.03886,-63.074169,-92.193031,-107.501907,-119.650841,-57.119064,-88.857937,-106.591072,-119.652786,-48.34013,-77.301579,-94.72641,-107.991486,-38.528366,-61.529388,-75.057907,-86.144028,-16.729051,-20.203809,-15.426241,-12.803516,11.390851,24.572712,29.594379,32.002089,27.843137,41.586432,46.404879,48.491302,39.657288,53.87038,57.880637,59.22377,46.914567,59.688072,62.954113,63.553586,-10.143414,-21.135292,-29.028854,-28.261757,-8.124218,-38.666382,-60.666046,-77.652283,-6.23909,-32.051868,-56.093502,-78.179626,-4.194717,-28.839283,-54.057713,-73.3358,-0.818138,10.496063,18.085098,21.126022,-22.609111,-31.499317,-32.32986,-27.693146,-7.05801,16.290623,22.784976,23.398343,14.139424,35.996106,38.032696,35.543969,28.714497,47.767772,46.751916,42.261303,39.464688,52.542685,51.531769,46.403397,46.103125,293.710771,5.667028,304.411685
94,0.133781,-0.585394,-1.54335,0.47307,-24.952583,-52.057056,-76.853428,-96.801682,-63.139744,-92.017078,-107.61034,-119.815063,-57.014866,-88.526859,-106.763763,-119.982891,-47.859077,-76.640797,-94.393902,-107.694969,-37.427673,-60.511208,-74.200401,-85.270786,-16.560719,-19.926117,-15.387153,-13.392985,11.404931,24.50102,29.841875,32.618791,27.942988,42.004791,47.066905,49.308074,39.944921,54.682583,59.031294,60.465695,47.444324,60.54455,63.914579,64.337445,-8.713989,-20.515137,-29.371548,-28.185768,-7.834625,-37.957535,-59.453487,-76.800385,-6.332073,-29.890823,-53.464909,-75.64373,-4.188652,-27.102242,-52.646599,-71.887894,-0.637779,11.990433,21.000938,25.229988,-23.347646,-32.138372,-33.106248,-27.678511,-6.960136,16.24499,23.026667,23.71753,14.135966,35.811781,38.368989,36.387542,28.509733,46.94254,46.293666,42.415555,38.912207,51.714735,50.553272,45.609719,46.485729,293.1364,4.372501,304.895778
95,0.488319,0.721245,-4.075527,-0.617751,-24.955788,-52.172241,-77.232857,-97.243996,-62.639236,-91.904984,-107.491093,-119.712181,-56.501713,-88.537102,-106.678333,-119.911766,-47.501907,-76.721706,-94.565849,-108.083954,-37.580452,-60.986252,-74.627552,-85.742168,-17.214348,-20.723562,-16.138347,-13.779481,10.702767,24.055058,29.228261,31.889951,27.496409,41.589211,46.594144,48.673898,39.659943,54.236128,58.441084,59.797802,47.186516,60.098959,63.266385,63.649855,-8.307037,-19.714565,-27.478123,-26.145172,-6.216259,-34.038963,-55.673618,-73.553181,-2.712307,-24.225597,-48.274212,-71.357517,1.020756,-19.959354,-45.416164,-65.067844,5.68903,19.501934,28.59026,32.483883,-22.374521,-31.086578,-31.819246,-25.63519,-7.29649,16.108583,23.799041,25.201393,13.45313,35.168342,38.666441,37.226606,27.858945,46.003686,46.412721,42.772102,38.292233,50.387533,49.999,45.384453,47.123451,293.863017,0.446377,304.283399
96,0.426407,-0.38736,-1.167526,-1.160414,-25.000877,-52.180023,-77.361889,-97.436829,-62.165451,-91.521378,-107.356167,-119.739017,-56.038055,-88.120422,-106.650753,-120.05579,-47.071667,-76.266403,-94.310818,-107.88208,-37.230034,-60.613346,-74.405308,-85.588303,-17.004334,-20.227521,-15.368875,-12.748496,11.173367,24.649097,29.910541,32.53938,28.066674,42.149967,47.26815,49.361612,40.159195,54.947184,59.3377,60.697259,47.43679,60.531335,63.949838,64.47873,-8.278084,-19.388351,-26.349106,-24.783325,-5.322304,-32.81971,-54.604053,-73.395309,-1.568985,-23.276482,-48.094597,-72.154484,2.544651,-18.798237,-44.586353,-64.763832,7.519398,19.780827,27.873859,30.371761,-21.080726,-28.842382,-28.226052,-21.203054,-5.754706,17.219226,25.326561,26.880078,14.400134,35.479255,39.072141,37.570556,28.289284,45.829365,46.668491,43.109815,38.286984,50.309234,51.136936,47.170337,47.640581,293.48268,-0.630426,303.130009
97,0.144424,-0.101394,4.201298,-0.107137,-24.977989,-52.305508,-77.425175,-97.393169,-62.942791,-91.938286,-107.57,-120.214233,-56.730423,-88.334999,-106.787968,-120.222473,-47.390614,-76.443043,-94.303951,-107.814732,-36.955948,-60.51836,-74.49749,-85.943413,-16.832607,-20.053755,-14.915565,-12.038799,10.933651,24.568389,29.925299,32.591373,27.705557,41.874683,47.309399,49.782935,39.926149,54.707716,59.307257,60.92413,47.687064,60.964761,64.375484,64.877206,1.862526,0.488892,-3.325481,-0.323982,2.157326,-31.583004,-53.699169,-71.127033,-3.363075,-28.390732,-51.793213,-74.196854,-6.788063,-29.453087,-53.543129,-72.572136,-7.125378,6.384201,15.574036,19.946136,-21.413993,-26.49951,-23.251068,-18.571992,-6.00072,16.303097,22.072808,21.912442,14.804538,35.296721,37.020175,33.812241,29.795315,45.530678,44.363966,40.079537,40.558041,52.953387,51.672683,45.596566,47.886915,293.337258,3.672781,302.978844
98,0.535927,0.222116,-5.67215,-1.275702,-25.057755,-52.549496,-77.778683,-97.745934,-63.299847,-92.16917,-108.06221,-120.637436,-57.414722,-88.500023,-107.026291,-120.580273,-48.418236,-76.931419,-94.739456,-108.203259,-38.384399,-61.180115,-74.887447,-86.093102,-17.048671,-20.296002,-15.294774,-12.470866,10.877088,24.553508,29.929375,32.67239,27.556986,41.67208,47.091976,49.615159,39.616224,54.319244,58.940027,60.587713,47.041155,60.392829,64.066608,64.796992,-6.734219,-16.157913,-24.751167,-25.171967,1.547871,-27.197742,-49.490948,-68.561554,2.560272,-19.705181,-45.522251,-70.546131,3.362904,-17.789211,-43.799973,-65.064354,5.504837,20.426674,29.519005,33.154678,-22.943119,-30.743369,-30.14933,-24.494536,-5.505234,19.146333,26.543476,27.262066,15.983971,38.276302,41.507577,39.058185,31.046316,48.569416,49.552606,45.879259,42.140087,53.953002,53.990423,48.874525,48.501377,293.56291,-1.920834,301.706678
99,-0.238495,-0.876485,0.454845,-0.073359,-24.893417,-52.499485,-77.514782,-97.182598,-63.147354,-91.426048,-107.190342,-119.777527,-56.998615,-87.791405,-106.439724,-120.271454,-47.735882,-75.959587,-93.826103,-107.52388,-37.266197,-59.910393,-73.659267,-85.145073,-16.62352,-19.679795,-14.467751,-11.644213,11.288902,25.136184,30.787767,33.690531,27.948051,42.326264,48.222502,51.139468,39.985862,55.026965,60.085127,62.032611,47.4957,60.995019,64.730981,65.561771,-7.911186,-18.818436,-28.406353,-30.101738,-0.573864,-28.524742,-51.669846,-71.072273,2.236977,-19.917011,-46.457348,-71.657639,4.407921,-16.783962,-42.968559,-64.07856,7.300129,21.995487,31.185894,35.11591,-22.289861,-30.348166,-29.16157,-21.244241,-6.02789,19.575992,27.492518,28.558701,15.467614,38.502308,42.055859,39.600107,30.683162,48.894285,49.773673,45.764157,42.218757,53.153458,53.322037,48.386573,48.289518,292.683167,-1.439352,301.630061
100,-0.047035,0.086574,-2.164536,0.143261,-24.864693,-52.391224,-77.138672,-96.761513,-63.559227,-91.680679,-107.541561,-120.290051,-57.669067,-88.046551,-106.733837,-120.632572,-48.371143,-76.248207,-93.91016,-107.644787,-37.356606,-59.591103,-73.408928,-85.360794,-16.286054,-19.692515,-14.760448,-12.09246,11.234314,24.750615,30.276906,33.231169,27.438425,41.208767,46.91574,49.98171,39.279808,53.865996,58.916192,61.082026,47.005772,60.327003,64.424575,65.810316,-6.899242,-16.044674,-23.602409,-22.871132,0.099163,-27.617855,-49.737453,-68.843479,2.836018,-18.520489,-43.938446,-68.73951,5.379066,-15.196266,-41.07502,-62.179642,9.052105,24.411106,33.947124,37.904606,-21.215342,-27.940085,-26.132651,-18.519381,-5.31881,19.413218,27.242059,29.176514,15.546469,38.947899,41.861901,39.506802,29.837305,48.446347,48.857235,45.354257,40.125109,51.934875,52.147358,47.736588,48.282623,292.74413,-3.563747,301.747711
101,-1.139374,-0.177656,1.04044,-0.157958,-24.586372,-51.683521,-76.108761,-95.381985,-62.624817,-91.252728,-107.114925,-119.638882,-56.423206,-87.270126,-105.845833,-119.527645,-46.951675,-75.151405,-92.816277,-106.376324,-35.993958,-58.267593,-71.922569,-83.547878,-16.321437,-19.64225,-14.811207,-11.872258,11.251543,24.780626,30.21108,32.840783,27.686476,41.846587,47.647606,50.663064,39.566391,54.242365,59.302687,61.382071,47.087468,60.454024,64.33442,65.366146,-7.482204,-17.215176,-25.68203,-26.0079,-1.347485,-30.03582,-52.26305,-71.861115,1.017208,-20.955448,-46.18515,-70.860844,3.633442,-17.258492,-43.211861,-63.787251,7.566833,21.552429,30.159073,33.207207,-20.746224,-26.281346,-23.342397,-15.377767,-4.678335,19.988485,28.165351,29.775802,15.586977,38.144897,41.078041,38.770552,29.606359,47.320143,47.300877,43.625308,39.80518,51.407341,51.702632,47.38387,47.159729,292.48836,-2.506828,301.511639
102,0.004349,0.396376,0.132408,0.517468,-24.634209,-51.680775,-76.274529,-95.698528,-62.71843,-91.128159,-106.996307,-119.611473,-56.56517,-87.352409,-106.055031,-119.680424,-47.13501,-75.26968,-93.047733,-106.544209,-36.155205,-58.729076,-72.477322,-84.064636,-16.646244,-20.412216,-15.661139,-12.530085,11.100872,24.67423,30.260975,33.150338,27.453616,41.54753,47.32249,50.243531,39.326429,54.042293,58.994306,60.902764,46.977984,60.155461,63.966079,64.981564,-7.091732,-16.509304,-24.911385,-25.136089,-1.485558,-29.648952,-51.441021,-70.146217,0.487175,-21.097069,-46.043758,-70.13443,2.714939,-17.72049,-43.470325,-64.172173,6.116409,20.670204,29.548416,32.727242,-21.394048,-27.537411,-24.711033,-17.430104,-6.002572,18.77441,26.72527,28.324667,14.893211,38.092285,41.077424,38.975008,29.667059,47.945305,48.166927,44.670248,40.452139,52.198179,52.209171,47.798339,47.171001,292.758225,-2.367496,301.902596
103,-0.220757,0.259413,-0.300922,-0.614787,-24.760551,-51.49292,-76.045475,-95.433483,-62.157955,-90.912437,-106.827335,-119.268608,-55.881443,-86.994381,-105.765038,-119.268436,-46.351089,-74.697704,-92.449379,-105.682526,-35.482864,-57.960835,-71.349049,-82.29681,-16.871509,-20.694107,-15.787234,-12.523725,10.575993,24.130949,29.84558,32.736919,27.532162,41.659792,47.37751,50.11577,39.814875,54.454848,59.400006,61.136428,47.500702,60.636311,64.178315,64.655151,-9.081974,-20.217075,-28.886662,-29.823761,-3.97871,-31.38525,-53.177776,-71.889381,-0.113411,-21.634941,-47.010784,-71.242332,3.719673,-16.386852,-42.113857,-62.966194,8.509426,21.908169,30.350704,33.007793,-21.490317,-28.918335,-26.710388,-18.967936,-7.142176,16.740969,25.643094,28.174428,14.31356,36.750943,40.637329,39.052319,29.664404,47.705528,49.013155,45.825289,41.11151,52.066218,52.599248,48.107523,46.932049,292.897256,-2.686615,301.167427
104,0.27832,0.077929,-7.635841,-0.988995,-24.624939,-51.788521,-76.376839,-95.841122,-63.293781,-91.384048,-107.235146,-119.803505,-57.120838,-87.488136,-105.997581,-119.538918,-47.464428,-75.161934,-92.656116,-106.022987,-36.194229,-58.241615,-71.688995,-83.147736,-16.951661,-20.744495,-15.813478,-12.789128,10.763344,24.281744,29.956977,33.100135,27.135416,41.148869,47.163853,50.46151,39.056024,53.768554,59.032715,61.272649,46.761426,59.892157,64.009921,65.353549,-6.13884,-15.166855,-19.077358,-16.073227,2.375736,-23.639774,-46.401958,-66.269817,6.641464,-14.307861,-40.444336,-65.482635,10.481815,-9.34473,-35.673466,-56.829414,14.838123,28.052387,35.230579,36.167393,-18.106579,-23.610147,-20.038873,-11.992239,-3.569112,19.486084,29.18343,32.354993,15.912834,37.034748,41.427363,40.800967,29.367817,46.116196,48.420598,46.770318,39.153837,49.987329,52.360089,49.701239,47.222414,292.921879,-10.310411,300.125126
105,0.516243,-1.579452,-5.656872,-0.094849,-24.835854,-52.066498,-76.333523,-95.681763,-62.949028,-91.074486,-107.137127,-119.965439,-56.659813,-86.845665,-105.883255,-120.041313,-46.83672,-74.399185,-92.291336,-106.135426,-35.258331,-57.008514,-70.844936,-82.711143,-15.932841,-19.087855,-14.011662,-11.224558,11.69664,25.201702,30.822348,33.932716,27.86827,41.893579,48.009463,51.52794,39.590721,54.541669,60.061106,62.660428,47.184725,60.776546,65.196332,66.822282,-4.014187,-11.42292,-12.799473,-7.291145,7.817745,-15.786152,-39.640388,-60.202332,12.446537,-6.103592,-33.500748,-59.719276,16.091423,-1.410656,-28.152809,-49.712219,19.659576,35.251236,43.381348,45.424461,-16.618518,-21.817532,-18.178395,-9.265649,-2.916534,20.946481,30.499516,32.959591,15.491388,36.969725,41.361846,40.46628,28.475832,45.130042,47.470197,45.987631,37.9037,48.402134,50.60718,47.854161,47.745094,291.186183,-15.960846,299.874033
106,-0.252571,0.828382,14.547043,13.164323,-24.939537,-51.867542,-76.032028,-95.095596,-62.838764,-91.035576,-106.965523,-119.849796,-56.490097,-87.19162,-105.962505,-119.862213,-46.944523,-75.134068,-92.994976,-106.809654,-35.777092,-58.129292,-72.038326,-84.045753,-16.785182,-20.422529,-15.311385,-12.159953,10.93995,24.455386,29.966487,32.888702,27.149865,41.113301,47.087653,50.545306,38.980689,53.736876,58.774351,61.124386,46.761302,60.293411,64.262789,65.648901,-4.89624,-16.028709,-30.175037,-42.321682,-4.981384,-36.818333,-57.168846,-70.55975,0.357971,-37.226658,-60.306816,-75.652428,3.248463,-28.22319,-50.565491,-65.818005,4.933662,6.214371,6.124878,5.134735,-20.618277,-29.531023,-25.929986,-22.8973,-8.469687,0.016302,2.818412,7.85916,8.213669,17.88928,19.031847,20.713682,20.905787,29.752398,29.791301,30.145872,31.485794,42.013066,45.760019,47.834092,47.436647,291.886185,-1.469679,312.909978
107,-0.334625,0.197601,-23.733444,-13.096274,-24.832306,-51.546879,-75.699692,-94.811325,-62.289791,-90.612087,-106.359558,-118.856564,-55.920181,-86.765385,-105.448952,-119.210358,-46.318073,-74.466763,-92.229652,-105.893154,-35.269661,-57.714043,-71.385555,-83.162613,-16.906645,-20.532876,-15.3987,-12.269375,10.58575,24.157132,29.767033,32.6283,27.107381,41.102803,47.083454,50.308308,39.169583,53.863773,59.05303,61.236402,47.021148,60.380726,64.450943,65.676874,0.502911,-3.183289,-1.000843,6.728497,18.095226,-3.942604,-28.293114,-49.694309,21.578865,4.43819,-23.343773,-50.388908,23.906937,7.304649,-19.417133,-41.405525,26.082687,42.717476,50.890045,52.576675,-15.593461,-19.88036,-15.759508,-7.683913,-0.998813,23.048156,32.654853,35.085967,16.244928,37.722524,41.897469,41.091009,28.230621,44.731072,47.154467,46.185356,36.952867,46.943466,50.038397,48.338593,47.016449,291.927172,-25.288696,299.657089
108,0.4842,-1.045928,25.416126,16.064308,-25.260086,-52.446213,-76.308804,-95.290375,-63.105927,-90.684586,-106.533508,-119.589558,-56.520767,-86.224251,-105.040627,-119.208069,-46.331863,-73.588085,-91.514854,-105.631542,-34.116669,-55.525875,-69.470272,-81.741028,-16.443826,-19.874,-14.539629,-11.362632,11.801615,25.110805,30.633021,33.569438,27.859192,41.71265,47.876082,51.660086,39.469196,54.352157,59.896232,62.590465,47.142673,60.788649,65.287846,66.996974,-8.615227,-19.35585,-30.729904,-43.180733,-13.407898,-40.578346,-64.374733,-80.391312,-6.715622,-36.212311,-58.557758,-74.131279,-1.235847,-24.311485,-43.94949,-57.220116,2.735367,9.297581,16.091251,23.279057,-19.92834,-36.430088,-39.094989,-38.437347,-17.890268,-9.792566,-4.125051,1.793911,1.14794,13.269608,16.938756,19.57309,17.489013,28.247108,30.639319,32.395131,31.031188,39.231704,40.292206,39.769921,47.399397,290.766805,0.026178,315.606958
