takenoko1/special-research/HandMotion_SimilarSearch_自分用/NewProject/handData/key/d4_feature_d2/71.csv
,vel_0x_L,vel_0y_L,vel_0x_R,vel_0y_R,posFromWrist_1x_L,posFromWrist_2x_L,posFromWrist_3x_L,posFromWrist_4x_L,posFromWrist_5x_L,posFromWrist_6x_L,posFromWrist_7x_L,posFromWrist_8x_L,posFromWrist_9x_L,posFromWrist_10x_L,posFromWrist_11x_L,posFromWrist_12x_L,posFromWrist_13x_L,posFromWrist_14x_L,posFromWrist_15x_L,posFromWrist_16x_L,posFromWrist_17x_L,posFromWrist_18x_L,posFromWrist_19x_L,posFromWrist_20x_L,posFromWrist_1y_L,posFromWrist_2y_L,posFromWrist_3y_L,posFromWrist_4y_L,posFromWrist_5y_L,posFromWrist_6y_L,posFromWrist_7y_L,posFromWrist_8y_L,posFromWrist_9y_L,posFromWrist_10y_L,posFromWrist_11y_L,posFromWrist_12y_L,posFromWrist_13y_L,posFromWrist_14y_L,posFromWrist_15y_L,posFromWrist_16y_L,posFromWrist_17y_L,posFromWrist_18y_L,posFromWrist_19y_L,posFromWrist_20y_L,posFromWrist_1x_R,posFromWrist_2x_R,posFromWrist_3x_R,posFromWrist_4x_R,posFromWrist_5x_R,posFromWrist_6x_R,posFromWrist_7x_R,posFromWrist_8x_R,posFromWrist_9x_R,posFromWrist_10x_R,posFromWrist_11x_R,posFromWrist_12x_R,posFromWrist_13x_R,posFromWrist_14x_R,posFromWrist_15x_R,posFromWrist_16x_R,posFromWrist_17x_R,posFromWrist_18x_R,posFromWrist_19x_R,posFromWrist_20x_R,posFromWrist_1y_R,posFromWrist_2y_R,posFromWrist_3y_R,posFromWrist_4y_R,posFromWrist_5y_R,posFromWrist_6y_R,posFromWrist_7y_R,posFromWrist_8y_R,posFromWrist_9y_R,posFromWrist_10y_R,posFromWrist_11y_R,posFromWrist_12y_R,posFromWrist_13y_R,posFromWrist_14y_R,posFromWrist_15y_R,posFromWrist_16y_R,posFromWrist_17y_R,posFromWrist_18y_R,posFromWrist_19y_R,posFromWrist_20y_R,posFromBody_0x_L,posFromBody_0y_L,posFromBody_0x_R,posFromBody_0y_R
2,51.159496,-33.161885,-0.116272,-0.546553,-9.56646,-22.756348,-36.612282,-45.835819,-59.104557,-50.982113,-26.689682,-9.125061,-65.761414,-53.963013,-26.808472,-4.256287,-66.678944,-55.642147,-29.006424,-7.754974,-63.804131,-58.967056,-40.089226,-23.708839,-5.744641,-8.457028,-5.69944,-0.509935,13.10282,31.584286,37.43063,37.757969,26.628939,42.123476,48.572133,47.943576,35.845558,49.159256,50.719318,48.254242,42.960441,55.786001,53.615227,50.133492,25.897293,52.261505,75.699635,96.148853,50.766335,85.192738,103.442745,116.494045,41.111183,80.510044,100.929623,113.675137,32.615891,69.020634,88.403149,100.731068,25.925388,54.280415,70.208416,81.944332,-15.580061,-15.974523,-8.628879,-2.301253,17.771769,32.7673,37.459158,39.858656,35.645858,49.321968,51.832617,51.74666,47.1147,61.769987,63.340176,61.63605,52.796046,66.19181,67.949598,66.730644,34.799738,299.913693,-76.413202,298.273231
3,-21.853981,28.106935,0.339031,0.263613,0.172234,-4.607277,-11.577873,-16.828651,-27.368031,-14.378586,3.625145,17.234116,-33.540688,-17.492065,4.188538,23.608246,-34.828606,-21.604614,-2.932663,12.582436,-33.982201,-27.551594,-15.943336,-5.438004,-22.495366,-35.430225,-38.750545,-38.320021,-11.803406,-5.244215,-1.669114,0.984425,5.61126,12.743062,15.865842,16.406405,18.626333,23.66955,24.020293,23.375742,28.426679,32.470528,30.048985,26.161241,26.025753,52.165031,75.232315,95.756493,50.295696,84.831963,103.51696,116.816711,40.865364,80.434799,100.971451,113.497353,32.754021,69.478912,88.691139,100.555916,26.566143,55.503731,71.384811,82.848244,-15.408395,-15.46008,-7.892505,-1.831579,18.501844,33.082536,37.652869,40.139065,36.365373,49.732176,51.776856,51.498362,47.680025,62.002971,62.795044,60.775558,53.325433,66.505132,67.467265,65.851257,12.924814,327.996777,-76.095114,298.512993
4,12.548103,-25.951475,1.118717,0.553963,-1.555595,-9.021835,-20.694923,-29.901009,-47.158585,-34.294624,-10.343285,5.162773,-57.178345,-39.442806,-11.528091,9.851532,-61.805305,-46.662197,-18.880234,1.566467,-62.635803,-56.439629,-36.841278,-20.564919,-11.938825,-19.527395,-18.499559,-14.008513,4.471286,23.155416,29.319713,29.72035,22.702971,38.641864,43.93795,42.915734,36.804789,50.663064,50.889379,47.827794,47.866511,61.272587,58.128689,52.876013,25.168018,50.895309,74.214993,94.263439,49.273052,83.906193,102.835293,116.005154,39.860744,80.378208,101.205769,113.89349,31.894398,69.901485,89.570446,101.792393,26.025352,56.197128,72.551594,84.17284,-16.684714,-17.70162,-10.326583,-3.313836,16.209915,32.35277,37.718325,40.551804,34.69873,49.808623,51.94809,51.141938,46.825584,61.818831,62.02761,58.795284,53.035329,66.019712,66.178781,63.339806,25.39238,301.951672,-75.056934,298.973326
5,-34.200096,22.111032,-0.751877,-0.558285,5.587578,8.865166,13.452873,18.513107,-12.688293,6.939468,23.665123,34.841194,-18.903179,5.658875,27.175026,44.630241,-20.096169,2.223244,21.331558,35.936508,-19.188824,-3.899574,10.007515,20.530472,-21.50032,-36.026734,-37.231979,-31.011489,-12.99204,-7.354042,-2.316073,1.333685,5.464973,13.670738,17.124316,16.7971,20.220358,27.579154,27.654737,25.656185,30.997101,37.585068,34.648774,29.318787,25.519409,50.986118,73.817425,94.012699,51.096439,85.155087,103.334141,116.201077,41.957645,81.119213,101.392994,114.29266,33.773289,70.171909,89.296474,101.298923,27.344742,55.945587,71.700382,83.108311,-16.028987,-16.92585,-9.708585,-3.682918,17.199404,32.045932,36.790463,39.218489,35.259362,47.684162,50.126761,50.235319,47.032201,59.950573,61.346194,59.750131,53.356864,66.152475,67.151288,65.306495,-8.822021,324.024434,-75.823116,298.376771
6,37.759094,-20.435928,-0.121765,-0.037235,-1.342278,-9.919739,-23.417702,-34.603958,-46.155109,-37.412453,-14.500008,1.450882,-57.296162,-43.98428,-16.72142,4.60453,-63.045216,-52.05328,-24.936218,-4.532089,-65.321674,-62.516041,-43.491497,-27.327461,-13.328271,-20.651437,-19.067848,-13.878961,1.398091,19.270575,26.378294,28.112554,20.268832,35.080903,41.539873,42.519666,35.209344,47.746221,49.317769,47.981614,47.209054,59.092983,56.587275,52.643276,26.028385,51.807289,74.598484,94.997921,50.388508,84.833279,103.117619,115.721455,41.232433,80.643139,101.103458,113.634739,33.120289,69.705219,88.795567,100.337963,26.782265,55.548077,71.32719,82.448215,-15.91481,-16.65563,-9.476342,-3.426222,17.879585,32.500045,37.135092,39.568861,35.811596,49.104483,51.428398,51.357385,47.149095,61.185025,62.290543,60.482923,52.836987,65.879353,67.068913,65.394119,28.937645,303.570428,-75.944309,298.321458
7,-37.412453,20.184666,0.167313,-0.661841,4.820023,7.721443,10.409203,11.263046,-13.681011,5.97908,23.924217,35.193214,-19.213428,5.569954,27.027283,44.478722,-20.150871,2.500534,21.325836,35.612297,-19.352474,-3.491821,10.565643,20.847702,-22.088802,-35.977396,-38.079688,-34.001012,-10.455765,-3.717004,0.332649,3.476672,7.340333,15.934262,19.135032,19.284283,21.085975,28.885546,28.175663,26.461781,30.912133,37.954767,34.315321,28.701591,25.818214,51.37516,74.091511,94.044285,50.351658,84.820805,103.278179,116.6189,41.085377,80.448246,100.880985,113.930798,33.045502,69.525433,88.784466,100.991192,26.846008,55.571194,71.483059,82.9212,-15.57296,-16.253202,-9.204269,-3.063438,18.323817,32.848687,37.570247,40.146042,36.308254,49.2215,51.775621,51.868926,47.865708,61.64593,63.132571,61.544474,53.777693,66.699893,67.828937,66.075967,-8.484106,323.706065,-75.786295,297.610587
8,28.506203,-19.947791,0.64373,-0.028776,0.282669,-5.960999,-16.620598,-24.922371,-39.011021,-25.439186,-3.287315,11.423149,-49.939327,-32.943993,-6.087341,15.276718,-56.114101,-41.071644,-13.90892,6.053581,-59.580746,-51.454811,-31.223431,-15.36644,-16.649764,-23.475531,-21.14507,-15.165284,-0.889638,18.017226,25.047573,26.176247,19.045803,35.342169,41.382965,41.378828,34.924675,48.716135,49.637945,48.16421,47.788026,61.007308,57.964926,53.018904,25.727577,51.208992,73.801403,93.797779,50.000896,84.495106,102.613735,115.457783,40.625896,80.063725,100.246525,112.971897,32.51421,69.277439,88.265476,100.199718,26.211548,55.092602,70.933285,82.390995,-15.54968,-16.748441,-9.593112,-2.845891,17.200824,32.412297,37.247169,39.958074,35.459804,49.013155,51.556654,51.619269,47.404865,61.580104,62.985667,61.294632,53.705383,66.770041,67.762309,65.932088,20.009308,303.688928,-75.155354,297.512466
9,-32.363262,21.401705,0.131721,0.439601,4.864254,8.323116,16.097431,25.625095,-10.619431,7.114048,24.975986,36.519985,-15.816822,8.003254,29.931622,48.019581,-16.4855,6.483364,26.201191,41.502972,-14.799843,2.312622,16.997967,28.109493,-22.493267,-38.035722,-36.84116,-26.464127,-15.952046,-11.795008,-5.63806,-1.478737,2.629888,10.38537,16.426659,17.968814,17.700817,24.528622,26.180569,24.923207,28.760995,34.246346,31.864571,27.384393,25.580292,50.971241,73.61475,93.541203,49.63789,84.099369,102.41415,115.332241,40.402164,79.709988,100.201206,112.974873,32.429008,68.913631,88.163624,100.08894,26.356201,54.824238,70.80122,82.328854,-15.841265,-17.036692,-10.161401,-3.559479,17.359646,32.040128,36.806148,39.449127,35.653268,49.216128,51.726715,51.691517,47.42938,61.784992,63.059891,61.095055,53.427321,66.631782,67.783489,65.881453,-12.371149,325.05261,-75.040827,297.914044
10,-9.882946,4.90323,0.501881,-0.023959,7.163715,14.743767,22.778206,31.490593,2.611713,24.161568,39.921684,49.949799,-1.525326,25.804596,43.957901,59.316444,-2.710934,23.352814,39.762154,52.401352,-2.139072,13.289452,25.878525,35.527496,-21.518845,-36.032539,-40.759039,-38.976613,-13.94065,-7.335393,-3.253567,-2.118348,3.075109,11.502805,15.06284,17.11814,15.918824,23.923221,24.107608,23.046921,25.201393,32.804042,30.711876,26.744165,25.384941,50.590668,73.26416,93.236847,49.778366,83.989906,102.270126,114.865723,40.576973,79.942703,100.263405,112.689171,32.485886,69.15184,87.995338,99.219131,26.21069,55.023708,70.728378,81.707954,-15.931668,-17.081522,-10.436252,-4.104488,17.490495,32.140595,36.852769,39.368234,35.687663,49.277076,51.664655,51.425373,47.466121,61.637532,62.50741,60.194549,53.525936,66.714898,67.524817,65.224984,-22.266283,329.892993,-74.551134,297.827239
11,18.495941,-25.27327,0.147858,-0.078361,8.962898,12.148361,9.039116,5.453911,-14.449539,6.657372,25.532227,35.991669,-24.572239,-1.072884,22.758751,40.710182,-32.420082,-11.236725,13.517761,30.570488,-38.781052,-24.83202,-5.104637,8.985214,-18.710313,-25.596472,-22.932559,-17.080905,-2.832615,15.4368,21.885952,23.221119,15.632302,33.475701,38.740541,38.740726,31.016738,46.989408,47.281673,45.718523,43.991735,58.875189,55.845035,50.962924,25.934315,50.869331,73.574295,93.940315,49.837532,84.185257,102.608986,115.323029,40.503216,80.091019,100.501671,113.142586,32.320461,69.07196,87.950134,99.154129,26.035538,54.758663,70.472946,81.313934,-15.602538,-16.926961,-10.501275,-4.379895,17.659259,32.400256,36.855672,38.96309,35.762689,48.979315,51.240245,51.047954,47.527872,61.246405,62.094485,59.777486,53.651969,66.683838,67.321472,64.754631,-3.792343,304.605026,-74.425278,297.734181
12,-12.749977,24.104088,-0.662212,-0.389398,5.82859,9.902115,14.714699,18.103409,-8.796902,13.060799,30.52597,40.633163,-14.573994,12.364426,35.705795,53.057899,-15.295944,9.325905,30.633545,46.205063,-14.121838,1.286316,17.70504,30.429268,-24.361958,-36.260089,-31.855123,-22.363282,-24.278533,-23.41767,-16.954625,-10.794898,-3.370461,3.13655,9.863702,11.415737,14.759707,19.818918,21.036575,18.647328,28.783287,31.731314,28.592602,23.02432,25.754414,51.142502,73.890667,94.240665,50.745678,85.308895,103.690281,116.642017,41.355743,80.625172,100.843678,113.490086,33.033199,69.320469,88.46323,100.223637,26.556015,54.624367,70.494404,81.957951,-15.817862,-17.125736,-10.296696,-3.950977,17.537982,32.17499,36.709755,38.990877,35.575709,48.28098,50.411184,50.077423,47.087468,60.429262,61.697492,59.622616,52.887684,66.163158,67.499561,65.527808,-16.56023,328.686544,-75.1054,297.322213
13,-26.093044,-14.12658,1.399212,0.440713,13.988972,31.503696,45.718975,53.18018,21.551228,51.179409,69.41637,84.033566,16.205578,48.955708,69.151783,83.616772,12.735729,44.678135,64.547482,76.699276,12.557774,33.994503,48.860722,58.75391,-17.212989,-24.928456,-23.365738,-20.500272,-2.909741,13.185133,18.528705,22.590215,15.954269,30.737317,36.161535,39.803081,29.422466,42.597287,43.494088,42.595805,38.51262,50.214941,47.820754,44.02014,25.104733,50.397263,73.325157,93.761787,49.487858,83.890686,102.303085,114.949837,40.568333,80.444984,100.805168,113.142242,32.836075,70.194397,88.824348,100.071487,26.82518,56.357346,71.79348,82.791023,-15.559251,-16.694533,-9.038531,-2.67509,16.065543,30.831425,35.888043,38.736095,34.657172,48.068805,50.608291,50.497696,46.90444,60.429818,61.269562,59.016536,53.498766,66.036385,66.319942,63.970339,-42.677994,314.51731,-73.730907,297.720272
14,17.024632,-7.750171,-0.414906,0.477639,14.908619,26.545143,30.388641,29.553223,4.344234,29.640541,49.67308,61.231499,-4.387894,22.7108,47.134781,65.560684,-12.389717,13.207111,38.039932,55.545387,-20.437431,-0.887547,19.294167,33.737411,-19.668309,-28.240995,-28.687018,-25.214793,-8.425288,10.084028,16.44432,17.725024,10.59069,28.809716,34.234243,33.669042,26.627025,42.83941,43.899665,42.584196,40.630721,54.892164,52.0317,46.83213,25.263805,50.602913,73.176899,93.484097,49.927654,84.459171,102.693501,115.19228,40.842247,80.633068,100.880642,113.018475,33.043785,70.246296,88.881969,99.960995,27.025909,56.378231,71.858883,82.658558,-16.498166,-17.616775,-10.156214,-4.064474,15.091492,30.58961,35.752686,38.589932,33.906719,47.794881,49.851416,49.17914,46.295457,60.049991,60.634706,58.025504,52.877928,65.295627,65.591596,63.009379,-25.685778,306.740232,-74.178228,298.171003
15,0.007725,-0.172098,-0.040627,-0.292512,15.440941,27.225323,30.526142,30.344524,7.079659,33.329716,50.746822,59.770832,-1.34325,26.574154,48.584576,64.306698,-9.950695,16.597881,39.483204,54.849987,-18.82988,1.01635,20.384274,33.510075,-20.718251,-29.26667,-29.242649,-25.608946,-8.082635,9.435648,14.56544,15.233641,10.806631,28.657563,32.775204,31.917923,26.775596,42.379925,42.457546,40.708465,40.685556,54.819175,51.607536,46.770009,25.291557,50.328941,72.914257,93.742046,51.153946,85.223866,103.145084,115.658627,42.375298,81.068172,100.892658,112.99593,34.330158,70.403767,88.7887,99.899426,27.808056,56.273518,71.58514,82.527981,-16.329588,-17.433994,-9.805471,-3.915902,16.064184,30.594118,35.085164,37.306697,34.420544,46.468791,48.8024,48.560153,46.411177,58.804238,60.04573,58.113498,52.783635,64.956123,65.869041,63.896856,-25.711584,306.552557,-74.252386,297.862915
16,-1.51022,0.661903,0.354881,-0.283249,16.396465,28.466034,31.359558,29.309692,7.545547,35.756493,53.676224,62.645073,-1.461868,28.843918,50.943031,66.600723,-10.101528,19.18808,41.366272,55.99411,-18.72076,3.333721,22.201309,34.586906,-20.204488,-28.483366,-28.889621,-26.309134,-8.134197,11.030106,16.086662,16.442035,11.112975,30.113576,34.083757,32.761125,27.141344,43.773385,43.699717,41.520113,41.017032,55.777542,52.129389,46.763463,25.498981,50.759697,73.333454,94.078617,50.886154,84.603825,102.523327,114.988918,41.855278,80.351543,100.307522,112.279415,33.563404,69.537106,87.986698,98.938122,26.752739,55.130711,70.620747,81.734219,-16.368737,-17.279556,-9.501536,-3.068069,15.954083,31.172658,35.843335,38.069376,34.204109,47.661561,50.107187,49.769721,46.109712,59.734261,61.05183,59.028948,52.361694,64.932905,65.921899,63.919025,-27.260084,307.172685,-73.935785,297.537892
17,3.49926,-0.951142,0.076675,-0.190871,14.890823,26.854477,30.871353,30.34687,5.281048,30.555382,49.135323,59.425964,-3.458347,22.873306,45.144196,61.579514,-11.632118,13.718948,36.376648,51.674538,-19.49667,0.148945,18.664513,31.132965,-20.491751,-28.859734,-28.695355,-25.513356,-7.84539,10.865541,16.573687,17.426831,11.47051,30.139079,34.288584,33.143422,27.652884,44.479563,44.663702,42.712698,41.66819,56.519782,53.31864,47.953888,25.462532,51.199951,74.062443,94.932804,50.523891,85.119839,103.329792,115.718594,41.559219,81.07481,101.2393,113.041592,33.553104,70.603809,89.11829,99.859371,27.216568,56.421146,71.998615,82.871532,-16.542256,-17.402131,-9.936629,-3.70805,15.06568,30.527366,35.395089,37.732713,33.744501,47.522685,49.704203,49.019824,46.1086,59.969654,60.780437,58.246138,52.702186,65.413632,66.064913,63.596502,-23.815241,306.205535,-73.913527,297.331012
18,-2.32481,1.766062,-0.372162,-0.124489,15.61655,27.712955,32.006779,31.534367,8.661232,34.99403,52.312603,61.399212,0.396709,27.11832,48.196507,63.676586,-7.81889,17.951488,39.351597,53.774014,-16.065445,4.112377,21.664181,33.076687,-22.18859,-31.278436,-31.349264,-28.795267,-10.020425,7.637847,13.118381,14.37247,9.700743,27.747177,31.42849,30.634935,26.31148,42.182015,42.045053,40.474246,40.695436,54.55229,50.946128,46.137808,25.59082,51.179352,73.998928,94.976521,51.026058,85.334644,103.599987,116.234264,42.161865,81.22633,101.339436,113.270817,34.181786,70.757847,89.277821,100.124531,27.90144,56.651115,72.186413,83.060589,-16.24252,-17.208296,-9.614354,-3.411772,15.891963,31.061692,35.618687,37.721351,34.392262,47.454204,49.583605,49.057924,46.46453,59.755009,60.601978,58.237246,52.768506,65.26648,65.831435,63.426256,-26.195211,307.947977,-74.340849,297.182904
19,1.893826,1.704373,-0.089607,-0.158328,15.003319,26.719437,30.844803,31.923409,7.822495,31.910477,48.936768,58.806381,-0.342865,24.587173,46.254959,62.636375,-8.512402,15.308304,36.748238,51.738281,-16.676617,1.463013,18.358383,29.511566,-22.325367,-31.22212,-31.818752,-29.405237,-8.872917,7.400416,12.565406,13.648261,9.937617,26.167663,30.17792,30.579545,25.712933,40.0888,40.062803,39.077019,39.236644,52.116483,48.792582,44.358161,25.73679,51.546135,74.448452,95.314121,50.797062,85.340481,103.52766,116.136189,42.008171,81.237087,101.289082,113.360882,34.148598,70.777073,89.459896,100.817928,27.86911,56.592636,72.177944,83.486996,-16.277717,-17.267823,-9.77472,-3.684524,15.498242,30.789373,35.430472,37.715855,33.918575,47.284143,49.692594,49.373283,46.008565,59.689183,60.963218,58.878215,52.310565,65.197629,66.191378,64.196531,-24.333973,309.638503,-74.463043,297.010729
20,0.103741,-1.657258,0.712681,-0.100406,15.062428,26.517048,31.065845,33.027821,6.48428,31.884785,49.063969,58.276806,-1.324253,26.48798,47.263126,61.975651,-8.671818,17.515125,38.184986,51.797276,-16.132164,3.780613,20.577679,30.8951,-21.499826,-27.988498,-26.437636,-23.534132,-4.716496,11.590799,16.3152,17.499882,12.880889,28.461691,32.563709,33.451001,27.093981,40.763114,40.50827,39.614124,38.889977,51.541093,48.332233,44.324137,25.703144,51.209736,74.030685,94.752502,50.226002,84.864235,103.261299,116.008072,41.431103,81.125679,101.412964,113.694534,33.680534,70.773354,89.594307,101.154099,27.598572,56.591606,72.304802,83.893547,-15.970015,-17.246149,-10.166403,-4.094608,15.846885,30.985801,35.762936,38.321503,34.317483,47.51194,49.926814,49.565141,46.508558,60.079322,61.270303,59.115645,52.912508,65.705032,66.611528,64.523129,-24.274807,307.968339,-73.794937,296.897417
21,9.749794,-0.038903,0.215378,-0.291647,10.425396,18.813,20.935421,20.940685,-1.075916,18.309803,34.999981,44.494343,-7.437115,13.502026,34.338169,49.987049,-13.715,5.697269,27.448254,42.275333,-19.647617,-5.74894,11.909237,23.96925,-19.001528,-24.93352,-23.081439,-18.917486,-2.130204,13.312092,17.926824,19.044259,13.327097,27.913224,32.152637,32.74118,25.622654,38.589808,38.48261,36.772988,35.707793,48.317289,46.159483,42.439638,25.213623,50.296383,73.081856,94.006348,49.961815,84.872475,103.342781,116.151123,41.220932,80.814056,100.996628,113.087997,33.580456,70.612335,89.407539,100.781364,27.768345,56.811733,72.568016,83.920784,-15.857938,-17.076027,-10.002826,-3.961536,16.469391,31.409965,35.764604,37.837812,34.970802,47.693672,49.732979,49.193651,47.050973,60.098897,60.929626,58.693767,53.339327,65.737945,66.295922,64.056543,-14.568758,307.918553,-73.623304,296.594886
22,7.689915,3.872183,0.808067,0.275469,7.981339,13.752708,13.633919,14.123497,-5.255585,11.366272,27.80674,38.285294,-12.259884,4.723434,25.529137,42.600746,-19.318371,-3.428822,17.720375,33.2761,-26.209488,-14.934368,1.330032,12.823563,-23.437925,-33.145583,-33.457917,-29.381093,-9.363215,3.684153,7.659521,7.843846,9.541674,23.469047,26.339268,25.753503,25.257339,37.312007,36.31128,34.547379,37.987742,49.818009,46.314415,41.349126,24.892902,49.652367,72.192307,93.017464,50.146065,84.708481,102.959061,115.531883,41.417885,80.574303,100.46711,112.313576,33.600769,70.328293,88.85788,100.010948,27.578087,56.542683,72.135315,83.443565,-16.031024,-17.363166,-10.196166,-3.987162,16.086538,31.028224,35.489073,37.623291,34.496621,47.095619,49.171483,48.834449,46.651448,59.506279,60.273589,58.051624,53.112641,65.707131,66.085167,63.633861,-6.905165,311.778787,-72.841558,296.858406
23,-4.326954,11.64514,0.066433,0.420335,3.536053,6.643124,16.549587,26.794338,-9.209518,11.588001,30.243702,43.78664,-15.727501,8.029919,32.074413,52.241421,-17.364979,2.45676,22.220478,38.620205,-16.339417,-5.741673,7.743931,19.859562,-24.143794,-38.484339,-35.482775,-26.458384,-19.310218,-13.905884,-6.609764,-0.459361,1.763036,10.538634,17.67939,19.110394,19.099896,25.010522,27.096451,25.049055,33.105322,36.373586,33.623038,27.926624,25.02737,49.515553,71.932354,92.523594,50.853767,84.988918,103.030529,115.539036,42.134399,80.518398,100.065708,111.883678,34.163589,70.115147,88.31171,99.213924,27.760391,56.217785,71.66708,82.868786,-16.032815,-17.689517,-10.800579,-4.94979,15.480087,30.147601,34.620677,36.835541,33.702449,46.034994,48.390834,48.269988,45.82461,58.441763,59.584146,57.641293,52.448515,64.918393,65.609689,63.438545,-11.254778,323.412997,-72.797785,297.267811
24,-22.635155,-1.763468,0.037537,0.70204,11.550865,24.974613,36.411037,45.644817,16.655331,42.968388,57.930851,68.222179,12.126617,42.663975,59.16338,72.785511,8.985901,38.368206,54.185429,65.720272,7.469559,26.190434,39.162426,48.590527,-20.289889,-32.263664,-34.758504,-29.961794,-8.449371,0.867285,4.77306,5.770761,9.107507,18.811213,22.001116,23.705119,22.16741,31.2835,30.935413,29.384489,31.313881,40.543159,37.951124,33.237592,25.11343,50.102634,72.799931,93.715382,50.730629,84.611835,102.760792,115.212765,42.263889,80.638676,100.373669,112.114277,34.400253,70.383511,88.656406,99.479771,27.953796,56.469555,71.902027,83.089771,-16.52651,-17.952512,-11.097969,-5.4772,15.154477,29.545596,34.241468,36.604409,33.257105,45.907973,48.093259,47.646433,45.21007,58.121711,59.024378,56.716518,51.63483,64.338681,65.001756,62.640729,-33.901777,321.634415,-72.772093,297.954738
25,18.047047,-8.839633,-0.504971,-1.270391,10.930023,19.200096,21.812325,22.259331,5.652065,25.429916,39.641533,47.189026,0.005264,19.2556,36.735764,49.58416,-7.185974,11.770935,29.45858,41.146202,-14.746513,-0.661469,12.93663,21.20533,-26.900949,-37.377463,-38.704788,-35.991166,-13.460355,-0.390757,2.682191,1.893391,6.513619,22.06299,23.601872,22.094112,23.375989,35.905395,34.481183,32.204507,37.000291,48.185699,44.041876,38.452784,25.484734,50.905495,73.843117,94.569626,49.616318,83.391151,101.990318,115.007172,41.070213,80.245399,100.887337,113.346176,33.435059,69.950523,89.013519,100.354843,27.376156,55.824795,71.824265,83.619347,-15.824902,-16.545405,-9.703089,-3.718548,16.732139,31.507592,36.362286,38.681878,34.684836,48.266901,50.016846,48.79709,46.389503,60.005345,60.682253,57.876994,52.492358,65.408074,66.484569,64.177512,-15.892439,312.751588,-73.314772,296.641152
26,-7.987175,-2.615377,0.399971,-0.132578,14.831543,25.966415,31.495056,32.283554,12.173023,34.441223,49.739342,58.148804,5.142288,28.146172,46.536369,59.986267,-2.93787,20.532188,39.656525,52.338867,-11.205482,6.762886,22.207603,31.809196,-26.228981,-36.500483,-39.70286,-38.253145,-15.735055,1.521345,7.487608,8.601338,4.459862,24.332009,28.364866,28.088101,21.943009,38.058755,38.585795,37.359617,36.943851,50.121698,47.032016,41.672142,24.623337,49.559898,72.885475,93.347511,47.777939,82.200966,101.8396,115.581322,39.627914,80.007706,101.615181,114.754028,32.91893,70.614166,90.412445,102.094002,28.096676,57.42033,73.605652,85.187874,-16.130196,-17.708413,-11.499532,-5.142698,17.104679,32.148499,37.099154,39.374039,35.577068,50.080634,51.354854,49.211744,47.57474,61.984261,61.582513,57.409976,53.6947,66.772388,67.053229,63.756189,-23.9855,310.079709,-73.020687,296.452073
27,0.910378,-2.54739,-0.508633,-2.217272,16.37661,28.197441,32.585678,32.388382,8.648987,30.214691,49.835587,62.92099,-0.758801,21.502075,44.208641,63.027763,-10.121727,11.503601,34.981155,53.48568,-18.799839,-3.352203,13.574295,27.974854,-21.730032,-30.749544,-32.701474,-30.821236,-11.695652,7.015773,13.945466,17.164392,7.849898,27.801703,33.738202,35.288261,23.893272,40.652087,43.244863,44.27696,37.590934,51.118905,50.415939,47.596477,26.755085,52.141399,74.716015,94.657001,50.7094,84.657955,103.522625,116.796856,40.920467,79.872952,101.099911,114.910984,32.54385,68.119297,88.111782,100.812893,26.073933,52.690887,69.125919,81.710529,-15.124652,-16.033124,-9.924958,-3.702493,18.487518,33.895233,39.211203,41.632931,36.098982,51.428707,54.779964,54.46658,47.133472,63.029016,65.989516,64.492254,52.620367,67.467821,70.869157,70.014408,-23.140984,307.508808,-73.595181,294.211289
28,3.918114,-7.152365,0.471497,-4.582622,16.857948,26.03302,25.311241,18.350487,6.141872,32.514153,49.684753,56.200905,-5.41008,25.028114,43.051872,53.967133,-15.192146,13.241959,33.105812,43.999557,-23.64069,-2.527142,14.519234,24.944687,-18.98961,-24.056417,-21.898672,-16.651246,-1.458915,21.39837,24.443592,23.518385,16.804325,39.637775,40.995666,38.524662,30.682112,50.704807,48.948008,46.141637,41.522274,59.224264,55.762536,49.917119,28.038082,54.621677,77.817478,98.23534,50.260677,83.777332,101.932583,115.101185,41.125031,79.431438,100.238056,114.718838,33.244114,67.495365,87.037525,100.699482,26.867638,52.332802,68.058872,80.958996,-15.048143,-14.48146,-6.722212,-0.262933,16.967593,33.085871,39.08338,42.624395,34.482109,50.658679,55.869117,57.778934,45.829612,63.054457,67.968184,68.565867,51.807237,68.374564,72.698266,72.813616,-19.239721,300.322743,-73.140535,289.594967
29,8.938751,-13.178588,1.586037,-9.188585,5.052681,-1.45443,-11.446609,-22.880573,-13.787842,9.006844,13.84243,13.995438,-15.470123,12.195282,17.807922,20.858345,-16.387539,7.554817,15.320091,20.263596,-15.828838,-5.813599,-0.507431,3.458519,25.455496,44.98993,59.354558,64.74117,34.237454,48.17514,47.900103,44.329695,21.552499,38.956421,40.482273,38.209796,8.115116,24.927283,27.391618,27.832948,-4.313946,7.281362,11.329286,15.099087,28.273773,54.302902,75.275173,93.112507,50.316696,83.796215,101.516361,113.805141,41.280727,78.508129,98.060932,110.656872,32.770672,66.230106,83.55669,93.657589,25.22089,47.454243,58.310165,63.274441,-17.845746,-17.14494,-9.813375,-3.025214,8.854639,25.98482,32.827322,36.704136,27.164994,46.910553,51.486197,51.59815,40.986712,60.391594,63.37099,61.700456,49.806339,68.288237,70.106663,65.910784,-10.343342,287.117108,-71.59687,280.379336
30,45.833702,-0.34148,13.889179,-8.877918,-31.168785,-52.24371,-62.941303,-64.044228,-63.682423,-79.866371,-79.535694,-75.971603,-54.867439,-78.660793,-88.908119,-89.772606,-43.790474,-68.175659,-80.246143,-86.282387,-31.884155,-47.831955,-60.299034,-70.235825,-24.000903,-30.737256,-30.22059,-24.126195,9.154005,15.988972,13.428739,10.666643,28.959832,38.964819,39.909847,37.940935,42.339108,55.838119,58.49141,57.154576,50.64176,66.229355,71.726623,73.484411,19.683266,38.023968,55.450516,73.897362,39.647484,64.962273,78.030396,84.359207,33.828449,60.350304,68.349152,66.771355,27.06459,43.20013,43.091125,37.533703,20.253525,25.435238,22.910557,15.342522,-21.780297,-25.564238,-17.364957,-9.60787,-0.625593,14.350363,21.660007,26.745462,21.405163,44.265227,52.860514,56.571899,37.602234,59.261129,68.770014,73.430935,47.344967,66.022182,71.925151,72.647137,35.499802,286.84272,-57.69825,271.568509
31,17.834816,11.898316,-4.863968,-48.145685,-22.275696,-48.370628,-71.984425,-85.79916,-57.222977,-89.919376,-105.868206,-116.253319,-52.584457,-88.193207,-108.309917,-122.088432,-45.476074,-78.019524,-96.443253,-110.337868,-36.356735,-60.742836,-74.681911,-86.022892,-21.240104,-26.076952,-15.966742,-2.229746,3.316368,9.996465,13.16068,16.156501,21.906823,27.059833,28.490714,30.56454,35.857167,43.995378,48.04744,51.042952,45.98053,57.151303,61.89923,65.129765,27.207355,60.673943,88.539505,99.144173,42.73447,85.613365,78.489761,66.913147,32.993259,73.977814,65.625801,54.402924,25.846596,66.046143,57.319679,44.089909,20.993156,53.098984,48.046246,35.514565,-21.140748,-25.17626,-16.552939,-4.995979,-19.358013,-5.294233,-7.432897,-11.15972,0.46424,12.64914,6.896039,3.050841,19.498742,28.384194,21.064918,18.901307,35.950719,39.751766,33.787664,32.180116,53.932257,298.81398,-61.964579,223.495767
32,-1.001015,-4.377672,-0.396996,-16.160268,-22.762299,-45.665131,-67.72974,-84.168892,-57.685204,-89.258251,-105.153408,-117.287807,-53.023109,-87.588615,-105.943394,-120.130634,-45.453873,-77.082367,-95.593929,-110.756721,-35.581398,-59.068108,-73.35474,-85.997086,-19.490962,-21.346376,-10.511217,1.197896,8.00378,15.990269,19.25347,22.150676,26.731383,32.693694,34.610735,36.275527,40.632697,49.223415,53.432878,56.383004,49.789481,62.131659,67.280841,70.535705,24.904919,56.332397,83.288498,96.78669,37.676125,72.771034,63.400612,52.186546,30.335083,67.640877,57.575684,46.93737,25.398903,61.710205,51.024742,39.446583,22.972927,48.953476,43.016682,34.420624,-19.740866,-25.953328,-23.482632,-16.254314,-12.852669,-1.746302,-4.570642,-8.286411,4.612756,16.700646,12.633023,10.113729,22.061199,32.379631,27.159931,24.952415,37.428345,48.232629,45.444351,43.270613,53.142328,294.681364,-62.150488,207.580555
33,1.934624,1.856773,-7.239532,-41.268418,-23.008118,-47.761574,-70.779018,-86.579704,-57.73819,-90.475445,-107.318916,-119.699936,-53.797646,-89.514999,-108.708,-123.530788,-47.271194,-79.643784,-98.692303,-113.7113,-38.613853,-62.21489,-76.47789,-88.921623,-20.744804,-23.564266,-13.568418,-1.390064,7.137236,14.232544,16.970433,19.294472,25.349347,30.541754,31.606454,33.099703,38.792288,46.572469,49.908844,52.11778,47.709171,59.857947,65.127295,68.906235,18.128471,43.936329,71.057281,87.675476,30.642471,69.577904,70.21431,65.681648,29.854774,67.969322,59.739418,50.713463,30.627823,64.295883,54.386845,45.218983,32.792244,57.703228,49.570312,41.867867,-26.342417,-41.239889,-44.527543,-43.249742,-38.715471,-28.34313,-23.742045,-25.558681,-20.511881,-4.97486,-3.646609,-8.452149,-0.993502,11.755982,12.131239,9.212173,16.468156,26.324818,25.247026,21.677976,54.806013,297.212359,-69.660959,166.986359
34,-0.259323,-1.138184,3.870564,-31.820481,-23.350525,-47.906914,-71.255093,-87.365284,-59.091911,-91.88776,-108.081722,-119.49234,-54.275208,-90.567169,-109.043312,-123.073196,-47.141991,-79.801941,-98.461647,-113.288841,-38.277512,-62.520218,-76.998024,-89.565067,-20.664158,-22.788002,-11.983779,0.787997,8.309815,15.402282,17.959428,20.171637,26.689516,32.170174,33.306628,35.064477,40.060024,48.436406,51.685712,54.226186,48.78863,61.207626,66.491362,70.512857,16.014462,35.9202,55.388203,67.178478,30.049095,56.431789,65.735607,66.072178,30.890408,59.05077,54.708023,46.904297,32.465801,58.795681,50.833454,42.354412,34.80978,57.242374,51.633854,44.492683,-31.778707,-54.268485,-64.569534,-68.927755,-52.087399,-63.759894,-60.361985,-54.854496,-35.653669,-35.86112,-27.779565,-25.652511,-17.384717,-16.052884,-8.916265,-7.406221,1.006593,2.482243,4.950778,3.833219,53.601608,296.799758,-66.735477,135.891461
35,2.004662,-1.207529,-5.525952,-25.74353,-24.941368,-50.139999,-73.598957,-89.626522,-60.9375,-93.166466,-109.248562,-121.050625,-56.497078,-91.796436,-110.580025,-125.105038,-49.500389,-81.553059,-100.404339,-115.310612,-40.393639,-63.504524,-77.767467,-90.014992,-19.686711,-21.816853,-10.710732,2.21332,8.682972,15.923579,18.429349,20.870095,26.488827,31.921443,32.753407,34.234305,39.688534,48.381263,51.454889,53.588798,48.515817,61.200092,66.295922,69.822735,9.838229,28.39222,48.266144,61.247235,27.396555,55.817957,63.0966,63.068991,33.574906,60.895472,58.086691,52.317725,39.442549,63.100834,53.859959,45.363064,45.000945,62.509175,54.438,47.225876,-35.725207,-61.005393,-74.259332,-79.683504,-53.462658,-73.703054,-78.945664,-80.196125,-36.313179,-53.213217,-55.362239,-56.571158,-19.408834,-34.791371,-31.783246,-27.609181,-3.674335,-17.911016,-17.671872,-15.326869,55.650101,296.102025,-72.217598,110.657727
36,-0.06546,-1.569387,-5.525951,-25.743531,-25.533714,-50.694122,-73.97747,-90.777683,-61.475487,-94.186077,-110.363846,-122.09301,-56.330566,-92.23526,-110.771427,-125.100746,-49.0028,-81.697426,-100.323257,-115.102615,-39.85096,-63.782616,-78.178139,-90.681438,-19.708138,-21.082085,-9.177099,3.692922,9.771076,17.153647,20.086236,22.8056,27.982199,33.529671,34.438267,35.986967,41.324117,49.882292,52.743126,54.679311,50.031728,62.473448,67.529448,70.991423,3.661995,20.864239,41.144085,55.31599,24.744015,55.204124,60.457592,60.065804,36.259403,62.740173,61.465359,57.731152,46.419296,67.405987,56.886463,48.371716,55.192108,67.775974,57.242146,49.959068,-39.671707,-67.742301,-83.949129,-90.439252,-54.837916,-83.646213,-97.529342,-105.537753,-36.972689,-70.565314,-82.944913,-87.489805,-21.43295,-53.529858,-54.650226,-47.81214,-8.355263,-38.304275,-40.294521,-34.486957,56.182594,295.505778,-77.145596,85.887336
37,0.223503,-1.795949,-1.41655,-9.41947,-25.979691,-51.599693,-75.114727,-91.42828,-62.188568,-94.841824,-110.840607,-122.891808,-56.749191,-92.178154,-110.227203,-124.568996,-49.14711,-81.431007,-100.172539,-115.510368,-39.538422,-63.333206,-77.962532,-90.898361,-18.816215,-19.496211,-7.569242,5.788175,11.192447,18.956018,21.897252,24.835028,29.157865,34.823527,35.654009,37.157508,42.199861,50.685541,53.724834,55.81416,50.669856,63.607617,69.267784,73.004116,1.979256,14.708176,32.33511,46.775608,24.370422,44.768257,53.419018,59.224491,36.779709,55.941181,64.470234,68.194542,46.488762,64.401798,67.976475,67.984257,53.967762,66.739483,65.128155,63.101864,-35.551256,-60.979952,-78.47088,-86.25384,-57.350016,-86.39071,-104.547461,-117.064856,-43.792157,-77.928372,-98.685155,-111.291841,-32.496834,-63.749118,-80.767161,-89.212981,-23.315134,-47.827361,-58.35488,-61.521688,57.189503,294.337167,-77.77874,77.095204
38,0.533752,-0.090217,2.850208,-24.548629,-26.123085,-51.871262,-75.378113,-91.085358,-62.424202,-95.234013,-111.307926,-123.714409,-56.965828,-92.438049,-110.465927,-124.716282,-49.537468,-82.130585,-100.900097,-116.3978,-40.229301,-64.343262,-79.055672,-92.384148,-18.765456,-19.356099,-7.40937,5.927978,11.086237,18.602126,21.296729,23.747418,28.867824,34.409491,35.183594,36.51413,41.917847,50.05686,52.83427,54.663194,50.551357,63.337089,68.888513,72.510545,-4.544735,8.652592,28.226109,42.443047,15.882111,45.948772,52.79274,54.935017,31.958313,55.490112,48.309402,40.873089,45.48317,62.864571,52.202625,43.81422,55.883446,66.637688,57.138977,51.213856,-39.741948,-69.690126,-88.585505,-95.372122,-63.711296,-98.926013,-109.982424,-111.414416,-47.50487,-86.735864,-87.96374,-81.796726,-33.235121,-71.341949,-71.291561,-63.544169,-20.70411,-54.563745,-57.058369,-51.93293,58.238468,294.840819,-74.413319,53.140444
39,0.144882,-0.429906,-1.621342,-7.851565,-26.254463,-51.790581,-75.183163,-90.215492,-62.414818,-95.114079,-110.934505,-123.042583,-57.169075,-92.531548,-110.400009,-124.733734,-49.855042,-82.267399,-100.639343,-115.863132,-40.770607,-64.648132,-78.991013,-92.110176,-18.532781,-19.642436,-8.366069,5.36432,11.120199,18.569275,21.168412,23.422611,28.966439,34.217818,35.037863,36.374945,42.034123,50.061244,52.801666,54.500049,50.576798,63.348019,69.026463,72.786816,-1.286087,8.859386,25.488739,37.794628,17.542706,39.311485,47.184734,52.148895,33.478374,51.849575,52.384815,50.053768,47.05204,62.336082,55.393696,48.392944,57.489624,67.106895,59.650955,53.700886,-38.471711,-66.260909,-84.389472,-97.501863,-66.887552,-97.021321,-113.040242,-124.949365,-54.836589,-86.822747,-97.654819,-102.628104,-42.699175,-72.325355,-73.032336,-68.814134,-31.86772,-57.755809,-58.456614,-52.937825,58.737917,295.378634,-75.680094,46.256601
40,-0.171318,-0.309061,2.738743,-8.185326,-25.812607,-51.151886,-74.305058,-89.706402,-61.309776,-95.026474,-111.16888,-122.994347,-56.038742,-92.667675,-110.820923,-125.113277,-48.702965,-82.166462,-100.925961,-116.223335,-39.641304,-63.945465,-78.541946,-91.651897,-18.563656,-19.28348,-7.185463,6.288477,11.048878,18.363091,20.666998,22.573728,29.114887,34.368489,35.113878,36.480353,42.300082,50.231614,52.960364,54.869749,50.935568,63.45213,68.974346,72.745505,-3.997078,5.11528,22.464123,35.139999,12.177315,32.813416,41.076393,46.965122,28.425694,46.091824,42.04319,36.021137,42.212906,55.55254,48.657303,41.962795,53.350525,61.234131,54.369164,48.806305,-37.01613,-64.166026,-83.322301,-97.108636,-66.694675,-97.215433,-113.164237,-124.611837,-55.562712,-87.276797,-90.622929,-88.161372,-44.012205,-73.614241,-72.959717,-67.114856,-33.635758,-60.032145,-59.784958,-52.745411,58.649769,296.082604,-72.858181,39.084306
41,0.500793,0.796148,2.999268,-4.742802,-25.999146,-51.811295,-75.226879,-90.410614,-62.59861,-95.695324,-111.575375,-123.37738,-57.351952,-93.305054,-111.321888,-125.445957,-49.960327,-83.008175,-101.543884,-116.697636,-40.669899,-65.013313,-79.375191,-92.061768,-19.421616,-20.571223,-8.703782,4.768799,9.70945,16.971792,19.424704,21.642408,27.569027,32.857703,33.530474,34.976854,40.892296,48.830188,51.425496,53.242131,49.947747,62.306351,67.492212,71.097078,-5.724735,2.306099,18.378525,31.159687,10.486794,30.139217,38.024025,43.566513,27.631187,43.055534,36.247215,29.30872,41.249828,52.288971,44.904556,38.531513,52.029305,57.661057,50.586433,46.040211,-35.218606,-61.197221,-77.98123,-87.78877,-65.787469,-96.29279,-110.557814,-120.372455,-55.015264,-84.607265,-83.221833,-77.996328,-43.400999,-69.936324,-67.800995,-61.711015,-32.020954,-55.17248,-54.274104,-48.061982,59.021244,297.268459,-69.988232,34.73121
42,0.69809,-1.322817,1.898346,-1.988672,-26.407585,-51.870575,-75.163536,-90.466461,-62.815018,-95.250034,-111.169052,-123.223915,-57.87838,-92.850266,-111.014271,-125.636444,-50.482407,-82.29744,-100.591106,-115.646095,-41.017914,-64.311676,-78.619251,-91.451454,-18.527779,-19.915002,-8.592755,4.615596,10.652934,17.918549,20.37072,22.573604,28.513253,33.777784,34.597274,36.091016,41.749515,49.991466,52.782029,54.744519,50.609156,63.19426,68.731234,72.567726,-5.886326,2.21981,18.655529,31.708088,9.389362,29.655533,38.154602,44.212933,26.16188,42.339191,35.12661,27.954712,39.938507,50.834999,43.054962,36.554432,51.38998,56.269512,48.703251,44.149246,-34.532683,-61.785949,-80.006829,-90.20423,-63.48424,-93.562773,-107.600772,-117.90423,-52.627931,-81.737199,-78.384275,-71.694853,-40.879884,-66.343531,-63.273393,-56.4153,-29.457417,-52.588133,-51.251576,-44.337907,59.717503,296.072678,-68.091717,32.869574
43,-0.305557,-0.414531,0.573006,0.779969,-26.000748,-50.935364,-74.168186,-89.870338,-61.664886,-94.698086,-110.531616,-122.30999,-56.630745,-92.589912,-110.667229,-125.224686,-49.385033,-82.37257,-100.772438,-116.00544,-40.179634,-64.217949,-78.52644,-91.332264,-18.323941,-19.823488,-8.812278,4.048913,10.445761,17.84908,20.529851,22.760893,28.396483,33.53387,34.516504,36.184259,41.710242,49.478073,52.31921,54.361666,50.65201,63.242611,68.643672,72.363702,-6.434784,2.405891,18.765278,31.102295,8.572998,28.114414,35.66597,41.202164,25.133686,41.052704,33.347054,26.569405,38.914032,49.73259,41.32679,35.423756,50.29129,55.00391,47.263985,43.249912,-34.991581,-62.616956,-81.761127,-94.240607,-61.5969,-91.311044,-105.700681,-115.900954,-50.969253,-80.609821,-77.034997,-68.957766,-39.561081,-65.983495,-62.456127,-54.214299,-28.525881,-52.07227,-50.034784,-41.865421,59.050512,295.475814,-67.880144,33.46721
44,0.701981,0.373281,-0.049267,1.778072,-25.807457,-50.636902,-73.757114,-89.63768,-61.099319,-94.314766,-110.700989,-122.731819,-56.374626,-92.497444,-110.870419,-125.645943,-49.407005,-82.21241,-100.864048,-116.140022,-40.428886,-64.386635,-78.861008,-91.85812,-18.414467,-19.584822,-7.864285,4.933117,10.299104,17.714896,20.095128,22.143636,28.113419,33.506515,34.459262,36.134859,41.30201,49.185994,52.26277,54.723647,50.125094,62.320554,67.930702,72.120591,-6.822624,1.926384,17.802143,29.604378,8.111629,27.151337,34.674339,40.058384,24.479427,40.4809,33.077717,26.408672,38.221664,49.258804,41.133099,35.565376,49.692593,54.578705,47.136497,43.600731,-33.901964,-61.269129,-80.828819,-93.712734,-59.999819,-89.488419,-104.327167,-115.423129,-49.639458,-78.858487,-75.828178,-68.582292,-38.465752,-64.604331,-61.579394,-53.885571,-27.549174,-50.900772,-49.237556,-41.589798,59.35833,295.492811,-68.323574,34.888998
45,-0.270424,0.050944,-0.035133,-0.024731,-25.411034,-50.094566,-73.20425,-89.287148,-60.789757,-93.903408,-110.120373,-121.967297,-55.818901,-92.083855,-110.38805,-124.972286,-48.68969,-81.939869,-100.849285,-116.373482,-39.567261,-63.908615,-78.573017,-91.721363,-18.275775,-19.592047,-8.464993,3.909666,10.164488,17.682786,20.326692,22.390329,27.92965,33.65768,34.74072,36.298868,41.097616,49.150117,52.250543,54.535556,49.933359,62.307154,67.763976,71.588735,-7.920227,-0.189457,15.070095,26.223621,6.668644,25.856266,33.8871,40.065308,23.701687,39.250088,31.616364,24.922314,37.798405,47.623215,39.566689,34.222183,49.230824,52.793827,45.653858,42.552452,-31.931601,-57.825957,-76.133534,-87.120631,-58.609014,-88.739232,-103.681381,-114.471061,-48.696344,-78.888189,-75.835496,-68.202404,-37.860752,-64.574444,-61.470559,-53.819251,-27.382201,-50.875763,-49.134834,-41.467007,58.757687,295.510332,-68.688927,34.830845
46,0.943336,0.377233,-1.205235,0.097411,-25.801964,-50.643654,-73.723183,-89.275875,-61.332436,-93.636131,-109.775848,-121.98595,-56.310883,-91.916256,-110.17765,-124.94133,-49.047318,-81.515636,-99.942513,-115.143929,-39.815598,-63.715897,-78.368111,-91.75478,-18.526976,-19.915002,-8.335688,4.906317,9.987265,17.505316,20.073268,22.376682,28.078962,33.397278,34.356571,36.006665,41.535303,49.43281,52.362991,54.497209,50.708389,62.665553,67.983066,71.672283,-7.784386,1.029682,17.408752,28.990402,6.407547,25.245094,32.913609,39.020691,22.94466,38.549938,30.935726,24.279556,36.941471,47.032242,38.734245,33.401814,48.458061,52.082005,44.913998,41.83857,-32.164832,-58.522224,-77.754606,-90.584705,-58.259044,-87.811031,-102.59973,-113.279278,-48.439555,-78.934965,-75.777636,-67.888063,-37.789739,-65.129086,-62.028845,-54.394302,-27.624448,-51.882851,-50.040434,-42.041687,59.60804,296.153972,-69.987144,35.194663
47,-0.035362,0.583603,-0.727501,0.149158,-25.110512,-49.968109,-73.027668,-88.638954,-61.064301,-94.081078,-110.214672,-122.191772,-56.268997,-91.986809,-110.313835,-124.793701,-49.173775,-81.813526,-100.482903,-115.806828,-40.008087,-63.798523,-78.208981,-91.080322,-18.727727,-20.912642,-10.097242,2.771667,9.433549,16.915414,19.789834,22.319501,27.534262,32.621755,33.62384,35.321977,41.051612,48.732684,51.760245,53.869763,50.212718,62.506299,67.761568,71.184331,-8.273678,0.267906,16.645832,28.721294,5.758553,24.443321,32.372875,38.68475,22.454567,37.810822,30.49284,24.047241,36.613884,46.036491,37.784328,32.46254,48.039322,51.319885,44.146156,40.989132,-32.05927,-57.828396,-76.321317,-87.696577,-58.235177,-88.099683,-103.111363,-114.082528,-48.290613,-77.728949,-74.723309,-67.213347,-37.46626,-63.488285,-60.385821,-52.843069,-27.089072,-50.264156,-48.340569,-40.494562,59.577456,297.157062,-70.709867,35.763307
48,0.405807,0.158205,-0.953007,0.41839,-25.538864,-50.262566,-72.999916,-87.61013,-61.958885,-94.019337,-110.134106,-122.207623,-57.213707,-91.923523,-110.162201,-124.675369,-50.00782,-81.582928,-99.768791,-114.643764,-40.717163,-63.778267,-78.044987,-90.94614,-18.508142,-20.580671,-9.46745,3.903182,9.827084,17.142285,19.974035,22.376806,27.848571,33.032395,34.108149,35.751574,41.29917,49.102013,52.046396,54.001909,50.421681,62.537236,68.035986,71.658821,-8.564529,-0.31065,15.412903,26.950951,5.68594,23.686123,31.893139,38.412266,22.541313,37.266483,29.958458,23.519325,36.569996,45.746326,37.581139,32.083397,47.811012,50.865383,43.777657,40.652218,-31.835332,-56.834369,-74.53531,-85.23996,-58.31993,-88.177057,-103.325297,-114.668755,-48.713449,-77.631043,-74.265337,-67.010405,-38.18451,-63.412949,-60.003277,-52.599217,-28.140218,-50.395314,-48.224447,-40.495056,60.037708,297.548513,-71.608429,36.414944
49,-0.053787,-0.204456,-1.277161,0.298748,-26.168861,-51.292419,-74.219913,-89.39312,-62.498817,-95.48481,-111.123447,-122.108345,-57.057037,-93.005619,-111.0676,-125.176792,-49.351387,-81.64032,-100.072403,-114.963741,-39.81205,-63.553047,-78.177452,-90.841084,-18.914707,-19.852943,-7.631239,6.444396,10.942976,18.5497,20.647856,22.503147,29.084629,34.520148,34.943879,36.471152,42.178928,50.555186,53.279799,55.595872,50.521964,63.166905,68.595507,72.527032,-8.05109,-0.017853,16.073341,28.10297,4.785748,23.966389,32.343693,38.17709,21.282005,37.621822,31.602688,24.949951,35.376492,46.383076,39.420204,33.510303,46.806736,52.030392,45.328217,41.322327,-30.589394,-56.059865,-73.545543,-83.511936,-58.044461,-87.738752,-103.247059,-114.883307,-47.976921,-75.623476,-73.792082,-68.34551,-37.363476,-61.623515,-59.54055,-53.225274,-27.194943,-49.179232,-47.9328,-41.0392,60.092096,297.273199,-72.777414,36.642833
50,0.665932,-0.34185,-0.771961,-0.058786,-26.465263,-52.20211,-75.461483,-91.007538,-63.977737,-96.345062,-111.829491,-123.252468,-58.543854,-93.889503,-111.750927,-125.791054,-50.529442,-83.028545,-101.51041,-116.403122,-40.367317,-64.105797,-78.739471,-91.584949,-18.749278,-19.30676,-7.21251,6.464218,10.294041,18.762801,21.460059,24.077288,28.268474,34.799692,35.433621,36.816584,41.587914,50.579392,52.99797,54.784966,50.374072,63.08101,68.119102,71.405151,-8.283806,-0.385094,15.501137,27.37381,4.421825,23.141212,31.296387,36.815758,21.041794,37.023411,31.491909,25.142956,35.103321,45.496273,38.544674,32.699146,46.297245,51.399364,44.574566,40.360107,-30.721787,-56.958487,-75.121414,-86.159454,-58.282169,-87.956885,-103.276267,-114.872655,-48.115489,-75.99509,-75.517234,-71.506576,-37.408492,-61.432737,-59.568122,-53.748238,-27.085336,-48.716073,-47.678913,-41.012833,60.696373,296.661268,-73.611031,36.313966
51,0.028381,-0.668386,0.371189,-0.227612,-26.807785,-52.398949,-75.704556,-91.102066,-64.755707,-96.621723,-111.971169,-123.429108,-59.07589,-93.854599,-111.549168,-125.548668,-50.736122,-82.418346,-100.291328,-114.771366,-40.390663,-63.541832,-77.987652,-90.887833,-17.952203,-18.461582,-6.491697,7.225786,11.3354,20.170278,22.879145,25.435797,29.380414,36.031427,36.609164,37.873936,42.661569,52.236156,54.893461,56.84076,51.190227,64.208819,69.557825,73.153305,-9.135818,-2.526169,12.720623,25.212879,3.639965,21.763573,29.943123,36.130829,20.595417,35.391884,29.544353,23.57048,34.794674,43.8517,36.795845,31.366539,46.224689,50.294094,43.580589,39.884262,-29.912949,-55.128823,-71.941731,-81.133341,-57.777174,-87.955589,-103.253204,-114.701205,-48.256218,-77.241553,-76.763975,-72.435703,-37.999752,-63.12124,-61.154459,-55.012207,-27.985009,-50.251559,-49.249134,-42.647397,60.786753,295.724159,-73.177843,35.817632
52,0.700951,0.151906,0.052128,-0.136376,-27.044449,-52.720757,-76.268692,-91.981716,-64.47979,-96.404743,-111.856499,-123.498001,-59.124527,-94.222813,-112.055454,-126.24876,-51.059418,-83.132401,-101.205883,-115.842819,-40.887337,-64.449234,-78.917084,-91.71833,-18.038283,-18.53099,-6.664104,6.461254,10.604769,19.268413,22.125605,24.689358,28.574694,35.429546,36.332522,37.833551,41.971076,51.653355,54.473805,56.325083,50.887835,63.927732,69.134403,72.409274,-9.594898,-3.473797,12.050056,25.724373,3.085499,21.239777,29.392719,35.406933,20.213985,34.848175,29.06971,23.058243,34.783287,43.925056,37.025127,31.619339,46.705112,50.734062,44.032631,40.516834,-30.379875,-56.614877,-74.200592,-82.57756,-57.370177,-87.40848,-102.852721,-114.422989,-47.917795,-76.964602,-76.1101,-70.934798,-37.624711,-63.044361,-61.114969,-54.605395,-27.466707,-50.638796,-49.509134,-42.434451,61.499834,295.610507,-73.113585,35.415698
53,-0.161819,0.132269,0.174351,-0.430956,-26.99604,-52.575645,-76.225719,-91.809654,-64.673996,-96.975231,-112.447643,-123.92086,-59.01844,-94.319515,-112.094879,-126.047287,-50.744362,-82.849045,-100.71064,-115.185871,-40.438156,-63.99868,-78.400269,-91.189327,-18.136714,-18.767556,-6.811626,6.916355,10.534744,19.668432,22.662586,25.300194,28.716967,35.737495,36.651463,38.112293,42.22734,51.940371,54.816026,56.877502,51.118411,64.119281,69.439573,72.938043,-9.793339,-3.551273,12.298565,26.206112,2.826347,20.878487,29.08699,35.374947,20.075798,34.860535,28.93816,22.832394,34.916039,44.256477,37.073078,31.546268,47.32687,51.791325,44.882469,41.343555,-30.425786,-56.86861,-74.810501,-83.304486,-56.417924,-86.647746,-102.406636,-114.00287,-46.918982,-76.475353,-75.461967,-69.631833,-36.582117,-62.798934,-60.756354,-53.643756,-26.332753,-50.40365,-49.031896,-41.398217,61.436234,295.647665,-72.841015,34.889631
54,0.709991,-0.086574,-0.073872,-0.504624,-27.275505,-53.136406,-76.928329,-92.418137,-64.671822,-96.650333,-112.204857,-123.980541,-59.194336,-94.361343,-112.465782,-126.829319,-50.992584,-82.996788,-101.243706,-116.030502,-40.718994,-64.310875,-79.040051,-92.18708,-18.052733,-18.833752,-7.044919,6.625572,10.981693,19.870727,22.772811,25.37028,29.020038,35.658084,36.58502,38.103092,42.468784,51.952906,54.883457,56.825076,51.344603,64.024865,69.272168,72.497268,-9.566174,-2.599583,13.329163,26.412334,2.696457,21.044769,29.094601,34.945965,19.868374,36.057243,29.751148,22.933617,34.506741,45.04715,37.939796,32.134094,46.368885,51.635628,44.972878,41.288624,-30.071586,-56.215537,-74.33706,-84.107303,-56.835851,-86.715116,-102.310614,-113.907743,-47.011608,-74.992263,-73.223515,-67.433025,-36.192719,-60.678209,-58.509472,-51.929843,-25.620246,-47.882103,-46.516524,-39.431127,62.086201,295.435769,-72.974911,34.259684
55,-0.30201,-0.205382,0.176525,-0.599566,-27.3246,-53.324776,-77.171116,-92.518501,-64.401741,-97.057056,-112.711372,-124.221725,-58.680267,-94.585133,-112.785072,-126.962929,-50.516739,-83.110199,-101.486092,-116.20594,-40.493546,-64.454842,-79.335194,-92.535267,-17.909719,-18.538647,-6.754075,7.207632,11.535533,20.228509,22.765957,24.923084,29.564677,36.11726,36.992078,38.5112,42.929936,52.150446,55.026904,56.979452,51.712265,64.410743,69.743262,73.163555,-9.350739,-1.924324,13.856106,26.096706,2.156181,20.740757,28.969517,34.807377,19.356651,36.355419,30.049782,22.825699,34.126453,45.25383,38.243408,32.200813,46.139774,51.736393,45.096817,41.468811,-30.122036,-55.740337,-73.511612,-83.896765,-57.56781,-87.55523,-102.894063,-114.226313,-47.682279,-74.52648,-71.746847,-65.753475,-36.686414,-60.10251,-57.25208,-50.597516,-26.100695,-47.171418,-45.257031,-38.193494,61.8748,295.261447,-72.707777,33.691179
56,-0.057449,0.477269,0.057964,-0.475571,-27.054405,-53.460732,-77.576981,-93.018208,-64.643784,-97.390594,-113.139439,-124.583588,-58.983421,-95.07597,-113.101959,-126.827202,-50.902519,-83.784027,-102.244949,-116.845093,-41.089096,-65.218735,-79.973145,-92.931747,-18.183582,-18.636583,-6.523499,7.737574,11.2437,19.904072,23.055504,26.01372,29.293407,35.890698,37.003132,38.672616,42.628162,52.008049,54.822201,56.685396,51.366895,64.189245,69.542882,72.965151,-9.495392,-1.798267,14.101124,26.438885,2.506771,20.86441,28.811932,34.35379,19.647217,36.346207,29.601345,22.272949,34.089546,45.025692,37.708569,31.567726,45.634918,50.215073,43.387413,39.730225,-30.54021,-56.22091,-73.784518,-83.814668,-58.219925,-87.684597,-102.722551,-113.882549,-48.317351,-74.252339,-71.567462,-65.48835,-37.27048,-59.583683,-56.649735,-49.906559,-26.757719,-46.661297,-44.842223,-37.910523,61.95837,295.723202,-72.508793,33.200094
57,-0.587196,-0.21378,0.329819,-0.345864,-27.32254,-53.511543,-77.501678,-93.152161,-64.744606,-97.328968,-112.859058,-124.201355,-59.010773,-95.036201,-113.033466,-126.864166,-50.787277,-83.620491,-101.930351,-116.54171,-40.770149,-64.838905,-79.602127,-92.685471,-18.000122,-18.304489,-6.2392,7.228812,10.930132,19.899688,22.713592,25.150017,28.925313,35.864639,36.76811,38.179539,42.391596,51.951918,54.660971,56.401777,51.399561,64.311449,69.387271,72.420019,-9.502831,-2.49115,13.631744,26.339264,2.880077,21.236629,28.462257,33.814659,20.187092,35.55027,28.539448,21.952057,35.198994,45.149117,37.520256,32.140503,47.792873,52.252865,45.168571,42.078896,-31.382146,-57.852602,-76.5585,-86.774705,-56.366301,-87.004293,-102.349579,-113.637492,-46.825955,-76.184725,-73.088127,-65.375038,-36.332677,-62.135982,-59.26045,-51.441922,-26.053271,-49.471003,-47.374669,-39.164149,61.535711,295.517835,-72.014437,32.862643
58,-0.120049,0.015252,0.516987,-0.003582,-27.790604,-53.906937,-77.866402,-93.225632,-65.175018,-97.885437,-113.412151,-124.748669,-59.333267,-95.290089,-113.217258,-127.100086,-50.932732,-83.482876,-101.640415,-116.283302,-40.751381,-64.667931,-79.332447,-92.490349,-18.053597,-18.45374,-6.30095,7.456239,10.652193,19.937109,23.034447,25.789442,28.62428,35.644684,36.738222,38.394307,42.121623,52.048373,55.014739,56.961112,51.156388,64.207831,69.448527,72.673936,-9.785671,-3.134422,12.260342,24.400978,2.731361,20.613499,28.506317,34.342518,19.828091,34.732761,28.409443,21.85112,34.393387,43.444233,36.475067,31.053772,46.291122,49.681492,43.311138,40.287552,-30.202621,-55.690504,-73.848769,-83.654364,-57.391543,-87.585982,-102.788377,-114.071351,-48.064174,-75.983789,-73.759107,-67.70556,-37.730768,-62.10205,-59.527428,-52.564421,-27.617748,-49.429754,-47.787007,-40.36399,61.629782,295.553897,-71.283331,32.879871
59,-0.42572,-0.167467,0.525055,-0.207049,-27.562065,-53.329124,-77.139473,-92.263641,-65.402069,-98.055267,-113.500156,-124.623814,-59.55162,-95.264282,-113.007145,-126.713104,-51.092834,-83.418102,-101.338406,-115.794296,-40.723572,-64.501305,-79.134979,-92.201099,-17.79017,-18.328387,-6.447608,7.449199,10.892958,20.194978,23.220748,25.87898,28.82182,35.989066,37.032463,38.594563,42.324226,52.429496,55.568763,57.738179,51.249322,64.40006,69.727145,72.999238,-10.228901,-4.025059,11.487293,24.188747,2.585049,20.46524,27.906761,33.783932,19.95924,34.242039,27.335072,21.218433,34.884109,43.786697,36.237946,31.263599,47.334766,50.809708,43.850498,41.261444,-30.712154,-57.014341,-75.637709,-85.094939,-56.642727,-87.280194,-102.727831,-114.12671,-47.460348,-77.089461,-74.071348,-66.5788,-37.198757,-63.514652,-60.634335,-52.932083,-27.141159,-50.912505,-48.837876,-40.650358,61.472511,295.399799,-70.489826,32.686191
60,-0.208969,-0.085771,0.189571,-0.169073,-27.691956,-53.691673,-77.409725,-91.996994,-65.535278,-98.134632,-113.342514,-124.413872,-59.768143,-95.43623,-113.217945,-127.03331,-51.365089,-83.716621,-101.645679,-116.228027,-40.966187,-64.932747,-79.502335,-92.500992,-17.836421,-18.33308,-6.199186,7.90183,10.669668,19.958721,22.861793,25.461424,28.479414,35.64876,36.699011,38.300755,42.041224,52.091104,55.160285,57.297713,51.235922,64.431985,69.541153,72.610889,-10.079899,-3.664112,11.55899,23.782597,2.432041,20.493965,28.268681,34.089031,19.692535,34.270306,27.605267,21.244755,34.486771,43.410702,36.127167,30.851669,46.713009,50.023899,43.278122,40.432091,-30.114287,-55.673245,-73.277114,-82.53557,-57.254457,-87.211589,-102.586639,-114.195037,-48.185668,-76.037049,-73.12422,-66.479289,-37.951711,-62.439145,-59.385958,-52.118552,-27.876143,-50.019902,-47.74122,-39.988641,61.803446,295.317208,-69.760351,32.520299
61,-0.375252,-0.406997,-0.343494,-0.607871,-28.148689,-53.176689,-75.930748,-90.975895,-65.926323,-97.40736,-112.539997,-123.909531,-59.846764,-94.048576,-111.252594,-124.749184,-51.259346,-82.460918,-100.047169,-114.472275,-40.656281,-63.773346,-78.229065,-91.510849,-17.423867,-18.403414,-6.556844,6.752963,11.300696,20.69139,24.153859,27.039703,29.220851,36.524195,37.911418,39.391946,42.536092,52.690392,56.353982,58.686851,51.390051,64.866461,70.526936,74.007066,-9.846039,-3.412571,11.324558,23.148937,2.857418,20.621452,28.61166,34.970112,19.798336,34.478302,27.70031,21.467514,34.234486,43.206882,35.607719,30.325699,46.100922,49.60659,42.589302,39.609604,-29.82091,-55.37848,-73.256428,-82.907184,-56.975808,-87.208409,-102.339174,-113.678649,-47.943051,-76.840978,-73.772631,-67.064992,-37.615727,-63.050814,-59.826701,-52.602552,-27.476957,-50.144607,-47.76345,-40.069503,61.707401,294.925525,-69.824638,31.927742
62,-0.590401,0.523458,0.250168,-0.38628,-27.499809,-52.546349,-75.412159,-89.977283,-65.375977,-96.941414,-112.234325,-123.661594,-59.50058,-93.925095,-111.613026,-125.498371,-51.153603,-82.478886,-100.046539,-114.346504,-40.839272,-63.981743,-78.392258,-91.525726,-17.866864,-19.147691,-7.489522,6.083342,11.284579,20.091361,23.01265,25.352373,29.094201,35.916448,37.01048,38.435,42.273962,51.809398,54.99609,57.042005,51.04993,64.032954,69.504473,72.919765,-10.285263,-4.277973,9.939766,21.619148,2.647476,20.424957,28.321781,34.741516,19.755478,34.225445,27.214622,21.137123,34.346867,43.182049,35.61058,30.567627,46.492939,49.821568,42.895432,40.179405,-29.734089,-55.061854,-72.564546,-82.265844,-57.351621,-87.35769,-102.283197,-113.348099,-48.454344,-77.266809,-73.728541,-66.438627,-38.076076,-63.522494,-59.755966,-51.903259,-27.833782,-50.61391,-48.026229,-39.959216,61.419096,295.463711,-69.272375,31.55619
63,0.208626,0.137518,0.265961,-0.25787,-27.241974,-52.065926,-74.900436,-89.8419,-64.203072,-95.848446,-111.629505,-123.602543,-58.717117,-93.223286,-111.26255,-125.719872,-50.692177,-81.979637,-99.792023,-114.481716,-40.694046,-63.667374,-77.903137,-91.042156,-17.58343,-19.343811,-8.08776,5.657758,10.745004,19.466879,22.683829,25.402267,28.678126,35.227313,36.52506,37.969093,42.082782,51.547577,55.131447,57.277953,51.112916,64.132187,69.84904,73.303544,-10.129452,-3.801098,11.024895,23.001766,2.078247,20.215359,28.126259,34.516068,19.218922,33.907814,26.971779,20.887356,33.975506,42.808685,35.281391,30.276031,46.302738,49.642754,42.831116,40.115891,-29.84734,-55.096095,-72.897812,-83.050723,-57.25739,-87.444882,-102.488054,-113.747192,-48.353753,-77.480465,-74.259872,-67.271671,-38.012998,-63.472075,-60.057741,-52.649667,-27.729702,-50.304109,-48.06544,-40.469645,61.820784,295.623506,-68.813353,31.320596
64,-1.221542,0.197231,0.09922,0.060701,-26.80275,-51.533432,-74.347515,-89.308205,-63.245888,-95.16861,-110.754147,-122.460594,-57.619743,-92.635117,-110.553875,-124.796047,-49.696541,-81.703033,-99.64817,-114.421463,-39.848328,-63.659477,-78.242111,-91.563549,-17.697298,-19.34943,-8.409233,5.12868,11.311008,19.666456,22.397121,24.50528,29.235424,35.344701,36.370746,37.793846,42.568758,51.230859,54.294173,56.249377,51.576661,64.219811,69.705779,73.19548,-10.144272,-3.762074,11.374111,23.763142,1.906929,20.0144,28.243504,34.750042,18.967037,34.140472,27.69659,21.619492,33.712749,43.376255,36.292591,31.212959,46.139145,50.24231,43.736744,40.984783,-29.834835,-55.332692,-73.13163,-82.724217,-57.224416,-87.506138,-102.643573,-114.194697,-48.489388,-77.574418,-74.211244,-67.211588,-38.344721,-63.870983,-60.408606,-53.049594,-28.260539,-50.911547,-48.619804,-41.022126,60.825319,295.808463,-68.488054,31.369024
65,0.0951,0.01834,0.055561,-0.791115,-26.63578,-51.464424,-74.427681,-89.507732,-62.99469,-94.769955,-110.297813,-122.145596,-57.52533,-92.470722,-110.412712,-125.015259,-49.745178,-81.799507,-99.936218,-115.055466,-39.913216,-63.687172,-78.245831,-91.56229,-17.957143,-19.648364,-8.644811,5.144365,11.365287,19.310218,21.957582,24.170593,29.241475,35.038604,36.117569,37.617857,42.496572,50.88623,53.984927,56.01738,51.456557,64.202459,69.772532,73.163432,-9.854107,-3.477802,11.836338,24.55759,1.91082,20.154991,28.349762,34.866028,18.898544,34.178581,27.50639,21.267929,33.672924,43.56657,36.343689,31.089706,46.157513,50.806618,44.081726,41.085148,-30.042934,-55.906878,-73.813787,-83.450587,-57.715547,-87.623865,-102.550144,-113.81663,-48.74806,-77.319296,-73.578024,-66.324358,-38.193247,-63.389299,-59.66825,-52.220409,-27.731709,-50.516962,-48.012736,-40.182166,61.319675,295.817448,-68.033237,30.568553
66,-0.556412,0.123871,0.048809,-1.243715,-26.410103,-50.937653,-73.750076,-89.118061,-62.558327,-94.871292,-110.650291,-122.572174,-56.96228,-92.302895,-110.331402,-124.786491,-49.072723,-81.343517,-99.610863,-114.760723,-39.161339,-63.010712,-77.689247,-91.127529,-18.047175,-19.72654,-8.686863,4.74731,11.050113,19.087423,21.754979,23.901238,29.053384,35.169947,36.284974,37.765317,42.385174,51.109087,54.283737,56.354414,51.33707,64.179735,69.67546,73.011526,-10.185642,-3.993874,10.974255,23.314075,2.318001,20.386562,28.512497,34.983215,19.5611,34.537239,27.514744,21.173458,34.356766,44.12075,36.763058,31.461697,46.670837,51.120472,44.353867,41.49313,-29.702751,-55.330407,-72.707374,-81.970646,-57.720395,-87.683331,-102.482342,-113.541007,-48.697116,-77.322384,-73.690194,-66.648084,-38.101949,-63.388373,-59.490131,-51.773583,-27.653625,-50.441719,-47.889575,-40.030538,60.961733,295.946707,-67.785959,29.330226
67,0.192833,-0.039459,0.281353,-1.651175,-26.536102,-50.980339,-73.502598,-89.298248,-63.037491,-94.862595,-110.760326,-122.977524,-57.584038,-92.18256,-110.356522,-125.125694,-49.689789,-81.560955,-99.967232,-115.276222,-39.533501,-63.14106,-77.801056,-91.273499,-18.072987,-19.807741,-8.964493,3.737567,10.811262,18.647636,21.377066,23.47411,28.685845,34.725529,35.998205,37.464716,41.956256,50.629163,53.989188,56.083021,50.954217,63.732415,69.378008,72.792312,-9.861774,-4.103279,10.476665,22.774315,2.60994,20.400753,28.719921,35.121288,20.130272,34.684582,27.675133,21.120644,34.910889,43.908234,36.311531,30.755882,47.028751,50.695267,43.855934,40.883389,-29.766724,-55.345196,-72.969968,-82.427846,-58.009387,-87.339968,-102.081736,-113.197521,-48.983267,-76.76944,-73.517756,-67.031894,-38.333946,-62.497592,-58.520248,-50.901173,-27.786389,-49.305728,-46.877856,-39.189158,61.186266,296.001171,-67.472906,27.772973
68,-0.305786,0.306961,0.55727,-1.411892,-26.268082,-50.466042,-72.83329,-88.063431,-62.803116,-94.687729,-110.358524,-122.280064,-57.353439,-92.03001,-110.035057,-124.589767,-49.414558,-81.095123,-99.357204,-114.641819,-39.293976,-62.846031,-77.528858,-91.07214,-18.326411,-20.019916,-8.91503,4.007416,10.812003,18.731987,21.359962,23.283116,28.861031,34.977286,36.130413,37.539434,42.041348,50.826949,54.161533,56.320266,50.763902,63.661772,69.287235,72.659919,-9.732227,-4.310188,10.203381,22.698669,2.282581,20.020523,28.532352,35.097599,19.385376,34.488258,28.081455,21.67345,33.873711,43.46489,36.250992,30.633144,45.884857,50.04364,43.337574,40.15583,-29.545256,-55.060496,-72.741707,-81.658714,-57.603934,-87.410796,-102.529149,-113.794153,-48.502479,-76.962008,-74.634759,-68.82352,-37.893295,-62.786244,-59.729939,-52.752759,-27.30384,-49.351609,-47.545316,-40.207021,61.058064,296.599486,-66.738052,26.652435
69,-0.287247,-0.072433,0.384636,-2.140702,-26.33709,-50.520058,-73.041859,-88.697834,-62.953606,-94.778023,-110.364304,-122.339172,-57.534714,-92.020283,-109.961929,-124.38858,-49.583702,-81.173344,-99.432964,-114.654179,-39.363785,-62.655487,-77.205334,-90.618668,-18.153818,-20.04406,-9.190746,3.674273,10.948472,19.227967,22.088493,24.386349,28.83806,35.097205,36.320419,37.753584,42.024181,50.804349,54.232299,56.381708,50.76205,63.693759,69.387518,72.801698,-9.466839,-4.516068,9.691372,22.091389,2.604332,19.810982,28.386097,34.996605,20.115623,34.468918,28.548832,22.181568,34.882164,44.267635,37.228546,31.215649,46.810741,50.915909,44.359131,40.645351,-29.217701,-55.062873,-73.052497,-82.391352,-57.551199,-86.600013,-101.650749,-112.797008,-48.685476,-77.762911,-77.172732,-72.28741,-38.47696,-64.103535,-61.925382,-55.538598,-28.297373,-50.867396,-49.869386,-42.927991,61.09334,296.916482,-66.030893,24.901162
70,-0.46875,0.052982,0.530891,-2.123597,-26.003838,-50.230522,-72.868595,-88.350677,-61.693268,-94.214115,-110.189552,-122.30135,-56.222191,-91.628094,-109.849491,-124.293423,-48.403015,-80.581627,-98.92931,-114.12981,-38.659744,-62.162933,-76.655045,-90.091896,-18.269971,-19.902096,-8.938249,3.977715,10.923339,19.383516,22.285106,24.600067,29.156445,35.577068,36.970651,38.597466,42.522754,51.469956,54.882284,57.045031,51.31274,64.209746,69.796182,73.296319,-9.112129,-2.948742,12.231789,24.311485,2.576008,20.345421,29.061241,35.848331,19.692192,34.727097,28.71563,22.281075,34.411755,44.149189,37.2682,31.486416,46.681938,51.719627,45.350933,41.873302,-28.88357,-54.538334,-72.617651,-83.127262,-58.226316,-86.58405,-101.4056,-112.731799,-49.257594,-76.642203,-73.846515,-67.860955,-38.394585,-62.51411,-59.056612,-52.119046,-27.350894,-49.457541,-47.701236,-40.464551,60.761175,297.638499,-65.363417,23.446601
71,0.130348,0.977447,1.105957,-1.292127,-25.82531,-50.293694,-73.247452,-89.108219,-62.058105,-94.448891,-110.523033,-122.617035,-56.599388,-92.017994,-110.24889,-124.669647,-48.841782,-81.052895,-99.557076,-114.764328,-39.01165,-62.585335,-77.118073,-90.364666,-18.708831,-20.502619,-9.657703,3.29142,10.399572,18.728221,21.767082,24.250251,28.460024,34.88713,36.213035,37.916667,41.769399,50.658865,54.129547,56.51762,50.643304,63.443423,69.129154,72.802809,-9.614182,-3.13179,11.355114,22.594185,2.405033,19.438705,28.088093,34.67514,19.658718,33.719501,28.095245,21.903934,34.22287,43.11161,36.348324,30.583477,45.991173,50.195045,43.95092,40.34277,-28.802708,-53.760063,-70.656458,-81.317574,-58.824245,-86.666024,-100.996102,-111.964674,-50.143588,-76.959106,-75.754387,-71.456805,-39.664667,-62.958621,-60.062619,-53.988725,-28.874338,-50.057786,-48.605417,-42.009793,61.011944,299.113716,-64.137039,22.652243
72,0.626221,0.728717,1.357956,-1.744048,-25.849342,-50.460434,-73.570175,-90.014248,-62.183075,-94.634514,-110.934563,-123.222084,-56.856766,-92.302551,-110.532761,-125.126438,-49.245987,-81.025887,-99.392853,-114.600449,-39.71077,-62.846489,-77.231827,-90.365124,-19.182704,-20.831193,-9.580885,2.948026,9.915387,17.968629,20.855708,23.285772,28.174922,34.60561,35.870135,37.530665,41.442554,50.790578,54.414525,57.00372,50.049759,63.146712,68.993735,72.935882,-10.149078,-3.997307,10.223808,21.366405,1.61087,19.01413,27.715244,34.506226,19.009151,33.404102,27.301426,21.012554,33.762016,42.502785,35.715694,29.985809,45.703068,49.729214,43.462086,40.024052,-27.921282,-52.10756,-68.004463,-77.41748,-58.982419,-87.226008,-101.693172,-112.840171,-50.434001,-76.530003,-73.463909,-68.12923,-39.848498,-62.288937,-58.206926,-51.384278,-29.16719,-49.611701,-47.267841,-40.197882,61.726027,300.688876,-62.691221,21.754639
73,0.331192,-0.33302,1.393375,-1.07702,-26.04641,-51.317139,-74.740791,-91.537056,-62.393303,-94.766178,-111.049175,-123.326168,-56.839256,-92.476501,-110.855026,-125.508957,-49.129143,-81.239605,-99.86618,-115.067139,-39.716034,-63.448219,-78.081779,-91.20575,-18.7804,-19.833306,-9.015375,2.866207,10.269958,18.08861,20.973219,23.371666,28.54845,34.907693,36.106516,37.566234,41.734572,51.057772,54.422244,56.600057,50.116202,63.498751,69.238082,72.922544,-10.041618,-3.850422,10.579033,23.10442,2.418137,20.171928,28.624992,35.561028,19.805603,33.429165,26.187859,20.051823,34.767437,43.318233,35.585003,30.178185,47.132149,51.394672,44.215508,41.110153,-29.350619,-54.950086,-72.634725,-81.971511,-57.293854,-86.924758,-101.895713,-112.819701,-48.199562,-76.95219,-72.819112,-65.317239,-37.393549,-63.214823,-59.323405,-51.568078,-26.640239,-50.573063,-48.221576,-40.322247,62.168999,301.130562,-61.186066,21.452325
74,0.356369,0.588234,2.326012,2.835178,-25.990105,-51.095238,-74.758015,-91.854401,-61.701508,-94.636688,-111.363773,-123.924694,-56.466179,-92.525711,-111.089001,-125.786362,-49.110031,-81.53492,-100.214996,-115.275936,-40.032692,-63.842125,-78.367424,-91.31052,-18.947558,-20.072095,-8.980548,2.877075,10.330165,17.917191,20.837491,23.24372,28.593343,34.852427,36.070886,37.587476,41.719381,50.924453,54.353762,56.692621,50.033827,63.157889,68.944026,72.824484,-10.546589,-3.785763,10.926075,22.969265,2.773876,20.861835,29.310493,36.10096,19.818649,33.454971,26.11393,20.087414,34.401741,42.677708,34.633312,29.602718,46.639938,50.221539,42.791748,39.85754,-29.60923,-55.244821,-72.75239,-82.576572,-57.208793,-86.810582,-102.225461,-113.912436,-47.69466,-76.702842,-73.902152,-66.995121,-36.864471,-62.848458,-59.780759,-52.280616,-25.806146,-49.71572,-47.962132,-40.536336,62.662697,301.900883,-58.722725,24.469589
75,0.116844,0.552851,-0.238953,5.662451,-26.274147,-51.454124,-75.129089,-92.733364,-61.703911,-94.431896,-111.092777,-123.796234,-56.458511,-92.491379,-111.009865,-125.517998,-49.217377,-81.642952,-100.272903,-115.14719,-40.294647,-64.288902,-78.945293,-91.921177,-19.053954,-20.24796,-9.319372,2.216469,10.47676,17.758986,20.815014,23.555621,28.888448,34.877929,36.05057,37.546782,42.142989,51.147681,54.594651,56.948329,50.4809,63.25811,68.798234,72.450153,-10.108452,-3.585949,10.886478,22.842007,3.722191,22.308311,31.698704,39.211407,21.107712,35.530529,30.184364,25.234051,36.020336,45.290966,37.161655,31.96764,48.221855,52.85614,44.999256,41.440201,-28.187025,-54.38683,-70.883236,-78.916286,-55.700323,-85.659801,-101.87089,-114.09284,-45.725532,-77.14658,-79.664052,-76.827485,-34.84162,-63.667886,-61.532896,-54.200004,-23.915935,-49.761415,-48.976938,-42.486692,62.780943,302.298679,-58.960276,29.976985
76,-0.525398,0.988748,0.532608,7.728805,-25.974655,-50.889015,-74.655991,-92.102909,-61.241341,-94.468632,-111.349468,-124.004517,-55.795326,-92.322578,-110.871449,-124.911461,-48.463898,-81.245384,-99.7756,-114.345245,-39.663963,-64.13166,-78.802242,-91.723938,-19.032156,-20.576225,-10.152447,1.394818,9.729271,17.995243,21.672357,25.046152,28.328063,34.969938,36.377168,38.188122,41.900001,51.384432,55.087604,57.740464,50.531721,63.21612,68.422729,71.861733,-8.312416,-0.317116,15.503941,28.595295,6.303864,26.152668,35.557766,42.833862,22.453251,40.276794,42.944469,45.012016,36.750813,49.396648,41.592178,37.102776,48.665428,55.402451,47.441998,43.736172,-29.326506,-56.692714,-74.198955,-84.454927,-56.300074,-83.635375,-97.914201,-107.558195,-45.09648,-76.109853,-90.067021,-98.293997,-32.726607,-62.228051,-62.526646,-58.242556,-20.861203,-47.194667,-48.30003,-44.556535,62.425032,303.102669,-58.258181,37.521032
77,0.923538,0.560879,1.692352,10.997717,-26.28067,-51.357765,-74.949875,-91.695271,-61.656876,-94.390182,-110.962715,-123.575478,-56.337318,-92.418709,-110.976734,-125.603485,-49.003944,-81.294308,-99.758835,-114.575043,-40.126877,-64.020767,-78.567352,-91.544895,-19.107121,-20.795563,-10.52369,1.037777,9.264229,17.176556,20.608706,23.721174,27.777497,34.118646,35.921141,38.167189,41.265022,50.598411,54.390195,57.275854,50.006225,62.385885,67.585641,71.147034,-8.373871,0.884571,17.247047,30.375767,7.778034,29.926243,39.007416,45.503139,23.28598,42.889252,40.022564,37.716408,37.097111,51.44989,41.810703,36.642323,48.663025,56.461487,46.669064,41.939621,-30.053339,-57.299658,-72.957062,-80.252904,-54.294389,-80.574284,-94.114884,-102.701865,-41.120711,-71.31799,-76.719453,-76.991031,-27.636582,-57.340722,-54.807257,-47.523457,-15.189891,-41.642687,-40.478815,-34.483128,63.146753,302.848998,-56.767645,47.7042
78,0.288277,0.886242,1.296272,13.816037,-25.992279,-51.575203,-75.337143,-92.44503,-61.705856,-94.654827,-111.176319,-123.57296,-56.157532,-92.513351,-111.046028,-125.512276,-48.788223,-81.625614,-100.173512,-114.840088,-40.031548,-64.654198,-79.357967,-92.199268,-19.79428,-21.378919,-11.036528,0.081387,8.386756,17.166368,20.981802,24.065247,27.179506,33.932901,35.961711,38.09809,40.925333,49.940152,53.657835,56.274385,49.965037,61.743372,66.690013,70.055595,-5.965977,4.952774,23.921757,37.404499,12.861099,34.627419,45.05024,53.393898,26.455193,47.748756,55.56015,62.911835,37.867241,55.557747,48.578568,45.57209,46.760788,58.562393,49.701691,44.323769,-28.418188,-55.400494,-69.713128,-75.745711,-52.124418,-78.330984,-94.189138,-105.945552,-37.999938,-68.632218,-86.634439,-98.645882,-23.388154,-54.007126,-58.834681,-58.141811,-9.797691,-35.243368,-37.848155,-35.512106,63.131275,302.873915,-55.775127,60.658912
79,0.072327,0.035939,-0.226536,11.667864,-26.100769,-51.291161,-74.964008,-91.95734,-61.432114,-94.411812,-111.243553,-123.900375,-55.852776,-92.401085,-111.218319,-125.777206,-48.332291,-81.472778,-100.164585,-114.810734,-39.475479,-64.300919,-78.891563,-91.515369,-19.71419,-21.136116,-10.450022,0.751256,8.111781,17.529954,22.052431,25.693358,27.16166,34.521321,36.98683,39.380214,40.945401,50.452557,54.291086,57.059048,49.836782,61.667296,66.460301,69.814398,-0.083599,11.209431,26.920109,38.113403,19.695568,40.64106,45.583878,46.903896,30.92165,51.674824,50.727482,48.32222,39.536419,58.265247,50.700073,46.013031,45.836449,59.983234,52.290173,46.850109,-29.865896,-53.472214,-66.461166,-70.860975,-46.457892,-69.888097,-82.83225,-91.172693,-32.263355,-57.993424,-66.345816,-68.681093,-17.82404,-42.825424,-44.598247,-41.312786,-3.622156,-24.900885,-26.9292,-24.752066,62.2756,301.886912,-56.929665,71.303834
80,0.79525,0.161539,-4.7828,29.631768,-25.723,-51.112175,-75.138645,-92.346382,-60.99884,-94.507828,-111.700172,-124.496555,-55.468941,-92.590714,-111.496181,-125.840721,-48.048592,-81.848888,-100.556259,-114.858055,-39.452019,-64.878731,-79.624729,-92.085114,-19.788414,-21.300681,-10.952177,0.411319,8.735646,18.17259,22.442384,25.909361,27.603175,35.223053,37.621253,39.920468,41.194009,50.952303,54.749768,57.627769,49.847341,61.63006,66.089058,69.281307,7.761898,25.920725,47.207765,60.412902,27.804994,57.241115,65.538883,67.376547,35.623483,65.908842,61.921377,55.101585,42.477808,69.751939,61.157341,53.453121,48.228235,68.359537,59.736585,52.514677,-32.513274,-55.873301,-66.182347,-67.629128,-51.628516,-66.247385,-72.900467,-77.026043,-34.221553,-48.993703,-51.679722,-51.996918,-16.147053,-31.16094,-30.451767,-27.065159,1.407169,-13.167148,-13.672915,-11.688997,62.188969,301.233963,-62.594347,100.121114
81,1.224174,-0.403292,-4.782801,29.631769,-26.00956,-51.417961,-75.257378,-92.875614,-60.970001,-94.508057,-111.71751,-124.828091,-55.532799,-92.546825,-111.640148,-126.558952,-48.226433,-81.891975,-100.769863,-115.457668,-39.729424,-65.236702,-80.234356,-93.217449,-19.313306,-20.773703,-10.35857,0.298934,9.280902,18.740324,23.150291,26.65333,27.931317,35.271712,37.805949,40.164691,41.43008,50.774647,54.895869,58.076015,50.191105,61.437523,65.801733,68.958044,15.607395,40.632019,67.495422,82.712402,35.914421,73.841171,85.493889,87.849197,40.325317,80.14286,73.115273,61.880951,45.419197,81.238632,71.614609,60.893211,50.620022,76.73584,67.182999,58.179245,-35.160654,-58.274389,-65.903529,-64.397282,-56.79914,-62.606674,-62.968686,-62.879395,-36.179752,-39.993982,-37.013629,-35.312745,-14.470067,-19.496458,-16.305289,-12.817533,6.436492,-1.433412,-0.41663,1.37407,62.089605,300.067173,-68.700686,128.989386
82,-0.051384,-0.073236,2.328587,18.148446,-25.880356,-50.971298,-74.638767,-92.364578,-59.870682,-93.99519,-111.212997,-124.149628,-54.601936,-92.035675,-111.212254,-126.038532,-47.564735,-81.474781,-100.570278,-115.411549,-39.416542,-64.927025,-79.947853,-93.135281,-18.6774,-20.497617,-10.625826,-0.110471,9.201738,19.676831,24.419447,28.084211,27.900133,35.76306,38.407954,40.575763,41.66467,51.054685,54.899389,57.459067,50.619715,61.976171,66.349953,69.299276,21.088943,49.145679,75.841656,90.686359,38.614941,79.732418,77.668934,68.895779,35.250206,77.250996,71.828213,60.808468,34.87112,72.849598,66.425457,56.919537,35.712261,61.267033,55.289555,46.511993,-34.415913,-51.718378,-55.280883,-50.776283,-41.970273,-51.231198,-45.034359,-40.61093,-20.850274,-32.521595,-28.742223,-25.144089,0.651282,-11.828847,-11.031711,-8.375826,20.432162,7.583692,4.841109,5.486277,60.689764,299.52113,-67.720556,146.665024
83,0.895729,0.045387,-7.81889,35.72354,-26.258812,-51.40789,-75.035763,-92.441025,-59.86908,-93.70594,-111.179695,-124.637775,-54.427757,-91.441956,-110.806561,-126.034126,-47.201385,-80.761185,-99.977474,-114.874821,-38.821106,-64.269791,-79.340286,-92.514496,-19.00196,-20.759871,-10.238836,0.782131,9.316532,19.565803,24.22444,27.803926,27.809792,35.946582,38.924804,41.374443,41.293365,51.127797,55.424885,58.370997,49.997271,61.690329,66.278137,69.314899,24.86578,53.450947,79.688187,95.282478,53.749409,94.200096,102.575226,100.886421,54.561939,94.439964,84.311371,71.722298,53.94001,90.685959,78.268318,65.230751,52.378292,81.716309,72.049713,60.96571,-29.241475,-46.191963,-51.752526,-45.545128,-29.390973,-32.6036,-38.105809,-39.697302,-9.196921,-17.829505,-23.738649,-21.357368,10.830961,0.921254,-5.39606,-2.082533,29.017692,17.171122,10.281752,13.172289,61.088047,299.137166,-76.036892,181.959213
84,0.002975,0.861789,-1.327744,20.124892,-25.40062,-50.500259,-74.156857,-91.581287,-59.022102,-93.329716,-110.659389,-123.738155,-53.66993,-91.295757,-110.619278,-125.679874,-46.780586,-80.998764,-100.372238,-115.512142,-38.713646,-64.931374,-80.433197,-93.954906,-18.576315,-20.901465,-11.636186,-1.158376,9.427559,19.416553,23.819357,26.933615,27.991894,35.8308,38.745296,40.939226,41.319979,50.707524,55.093779,57.879958,49.834064,61.454442,66.177423,69.117113,22.757034,48.760529,69.813309,83.878555,47.35817,78.967323,93.549614,103.806496,47.485886,82.614555,98.277969,108.585892,46.28437,79.039421,84.602737,86.086578,44.540176,68.403854,73.626595,74.835892,-22.319563,-32.842759,-35.219347,-33.923021,-31.131841,-35.199155,-32.35629,-28.549315,-15.234074,-16.656062,-14.362714,-11.761724,1.4365,2.060549,1.980336,1.73037,17.97925,16.576898,12.462592,7.798645,60.586996,299.071155,-77.868662,201.156305
85,0.583534,0.58385,5.508013,28.902096,-24.055824,-48.212471,-71.729393,-89.77335,-59.334297,-92.907772,-110.319614,-123.964233,-54.785957,-91.300621,-110.57333,-125.833626,-48.278618,-81.455841,-100.796185,-115.837612,-40.084534,-65.927467,-81.346951,-94.448376,-18.030626,-20.085804,-10.579019,-0.546738,10.463916,18.943668,22.6038,25.539291,28.367337,35.977087,38.130818,39.98932,41.033149,50.254523,54.564578,57.521003,48.922011,60.366832,65.04776,67.834989,19.950886,43.184767,65.635672,80.463152,48.645373,78.525953,88.236437,91.377211,51.21975,79.290304,83.13323,79.861479,51.001454,74.589701,72.301569,63.631668,48.84882,68.007631,68.112917,61.544409,-23.4374,-32.491153,-31.388136,-27.599779,-17.787731,-10.023976,-4.840831,-0.125292,3.606008,15.471874,19.223026,22.937221,23.103083,35.701216,39.225806,42.013436,39.487875,48.629036,48.919942,47.698704,60.91547,299.104253,-72.615709,229.507649
86,-2.249794,0.575205,5.508013,28.902095,-26.889038,-47.733421,-65.598679,-77.645588,-60.289078,-90.951118,-107.32933,-120.781631,-57.528305,-90.366669,-109.448433,-125.026474,-51.239777,-81.358566,-99.825039,-115.098267,-42.512512,-65.002098,-78.969326,-92.590427,-15.096247,-17.920155,-17.477528,-15.907091,10.893761,18.551738,21.620178,23.723397,26.182545,33.861641,36.554453,38.032696,37.952359,47.788767,51.547947,52.44481,46.645335,58.386744,63.169004,65.61747,17.144737,37.609005,61.458035,77.047749,49.932575,78.084583,82.92326,78.947926,54.953613,75.966053,67.988491,51.137066,55.718536,70.13998,60.000401,41.176758,53.157463,67.611408,62.599239,48.252926,-24.555237,-32.139546,-27.556924,-21.276537,-4.443621,15.151205,22.674628,28.298732,22.44609,47.599811,52.808767,57.636167,44.769666,69.341884,76.471278,82.296503,60.996501,80.681174,85.377293,87.598764,58.157215,299.31669,-67.616158,258.046975
87,2.894669,2.595987,-15.396881,10.372834,-28.672256,-55.821533,-80.130043,-97.253723,-49.978638,-87.005196,-104.479694,-115.878181,-46.833115,-89.135571,-108.940487,-121.301537,-43.967857,-81.795387,-100.834866,-113.121643,-41.340179,-69.594612,-83.677311,-93.656902,-2.31916,6.432787,17.363413,27.276207,7.166197,8.74497,6.586546,5.812875,17.978756,23.019257,23.205064,22.342966,26.420902,31.742491,32.025307,31.589967,31.12017,39.792151,43.109259,45.559516,22.243996,49.931545,74.599857,92.311306,50.569725,89.445133,107.606907,118.018856,44.121208,86.47459,105.617352,113.68372,37.082806,76.140919,90.527058,94.973202,30.478649,59.102669,69.641991,71.533756,-18.767617,-19.857203,-14.021604,-10.086127,5.295962,19.291755,21.778753,23.618051,26.278444,38.199361,38.307177,38.886396,41.425202,52.744979,49.97609,47.195963,50.699311,60.034739,57.919849,54.029696,60.609169,301.786135,-83.455753,268.293267
88,1.310005,-1.189745,-8.422222,10.011965,-19.641609,-47.242241,-73.231773,-92.696514,-38.762054,-77.873955,-102.234421,-119.600601,-37.050247,-78.890247,-102.630844,-118.765011,-37.150154,-75.154667,-95.419292,-107.928944,-38.895264,-68.300285,-83.192196,-93.241825,27.490234,45.007158,55.782729,64.234755,43.385345,44.956029,44.295855,43.728369,25.401711,27.302018,23.555312,19.052225,5.391922,7.182993,4.023533,0.903347,-13.757745,-13.430838,-14.58483,-14.903832,29.004478,54.525776,77.844315,97.904663,52.940426,86.246452,105.398598,118.051071,44.764996,82.14077,103.731079,116.457825,37.784157,70.861588,90.593948,102.6194,31.618652,57.148075,71.962395,81.507111,-14.956691,-13.320614,-5.861843,-1.044076,16.346816,28.519984,33.489163,38.119517,32.980278,46.386848,48.830126,51.128477,43.895589,58.069346,61.045593,62.433433,49.630165,62.321418,65.199481,65.282165,61.218596,300.543269,-92.578554,278.252111
89,-3.141289,-4.883346,-0.85453,9.722602,-25.885735,-52.889214,-72.631302,-89.493599,-46.926613,-68.883133,-87.397099,-104.306831,-44.653358,-69.946404,-91.814919,-111.232109,-41.181793,-65.952301,-87.308693,-106.362076,-36.650848,-56.373024,-72.65276,-88.195438,-13.158519,-13.087012,-10.197772,-9.908101,22.424539,30.239115,26.072506,19.744632,35.416825,45.645596,41.286325,35.359891,43.121609,56.452288,54.383279,49.632202,45.495542,59.232601,62.090657,62.271338,28.618355,55.375557,78.955879,99.182625,53.564243,85.965614,105.117302,118.175011,43.243275,78.952789,100.521355,114.164658,34.755936,66.620922,86.152382,99.914131,28.023376,52.458286,65.667973,74.56913,-13.5071,-10.73358,-3.230596,0.957317,20.934007,36.220198,42.904124,47.461675,37.778964,54.660353,59.243284,60.793651,47.903253,65.072399,68.140345,67.916005,52.372994,66.979684,70.138156,70.733244,57.601633,295.599901,-93.908758,287.914692
90,-1.075745,0.216867,3.579998,5.443978,-25.240517,-51.936035,-70.339737,-83.436985,-58.209,-71.51968,-72.903671,-69.101143,-54.440346,-68.165932,-65.451736,-56.448212,-49.175148,-63.693352,-60.884628,-53.494034,-42.445908,-55.109825,-56.815109,-54.674835,-14.223652,-12.802157,-5.758164,-2.087534,16.460437,29.963523,39.507173,45.370251,29.184727,43.844028,52.265487,55.452487,38.684966,52.854092,58.313384,59.427485,46.233645,56.874723,60.490333,61.918064,28.327904,54.453392,77.920589,98.150082,50.532875,83.521214,102.378101,115.524845,39.469414,75.81459,97.050304,110.54369,30.127659,63.528843,83.45541,97.283306,23.20015,48.78828,65.159225,77.447491,-11.515896,-8.426091,-1.001777,3.171439,24.414199,40.984736,46.950444,50.130405,41.051797,59.415258,63.869871,64.189986,50.938779,70.994387,74.27636,72.886667,55.321577,71.974181,74.291859,72.70265,56.273174,295.735552,-90.581474,293.277453
91,-1.004448,-2.018003,-0.482311,4.931758,-25.388603,-48.576622,-63.151817,-72.915802,-52.603111,-65.494194,-68.44265,-66.07029,-47.043915,-61.428795,-61.447105,-55.078697,-39.908867,-53.309097,-53.202667,-48.339272,-31.908073,-42.062302,-44.259453,-43.433876,-13.983443,-13.821533,-5.556179,0.736991,18.174134,33.927282,40.463748,42.621987,30.933931,47.674961,54.307635,55.682076,39.931583,55.985826,61.708236,62.502285,45.867589,58.501044,64.297863,66.939917,27.533112,54.121284,77.681122,97.5214,52.619991,86.512299,105.18322,119.209099,42.761192,80.089302,100.606499,115.149651,34.196663,67.879887,86.85894,101.02993,27.561779,53.508224,69.000549,81.181984,-12.786781,-12.127534,-5.130162,-2.215173,20.945801,36.599099,42.985079,46.723696,38.100128,54.266324,59.533881,61.615981,49.021676,66.476727,70.552254,70.389974,54.893029,70.555527,72.935264,71.469001,55.057955,293.580447,-91.274557,298.07211
92,-0.485001,2.085126,3.571129,-0.097072,-26.251259,-50.256271,-65.91671,-77.417736,-45.349617,-60.129089,-65.613785,-66.205215,-39.704933,-55.876122,-57.987671,-53.777618,-33.872795,-48.523064,-48.214989,-43.777657,-27.76268,-38.454895,-39.495506,-37.657471,-15.55709,-16.136803,-6.442235,0.382173,9.11714,23.580815,30.974686,33.243458,24.555051,40.802634,47.323663,48.331121,35.655491,50.896974,55.848616,56.109388,43.256472,55.220306,59.52468,60.225239,26.886463,53.123474,76.497116,96.132088,52.026443,85.44651,103.463058,117.056007,42.489281,79.698029,100.346832,114.864464,33.778725,68.169937,87.113686,101.191635,26.663475,54.169807,69.879913,82.432823,-12.662231,-10.788044,-3.376513,-2.465632,21.913739,37.073218,43.391335,47.315142,39.189528,54.930326,59.995033,61.312478,50.144299,67.06138,70.860018,70.229608,55.766488,70.437275,72.894138,71.635603,54.556589,295.606246,-87.719793,297.915712
93,-7.331428,4.530536,2.859879,1.712462,-19.785175,-41.438484,-57.433949,-67.119255,-55.147219,-60.574293,-52.741127,-43.639469,-55.829773,-60.901365,-48.056717,-32.994118,-53.34177,-57.519465,-44.608498,-31.665058,-49.166708,-53.908253,-45.27134,-36.302376,-15.138299,-17.028078,-7.455313,1.594241,9.386896,24.742433,32.220006,34.998805,26.131385,41.05436,47.597001,48.428409,38.851383,50.862795,54.501315,54.038526,48.198697,58.455749,58.986185,57.468669,25.949306,51.659374,74.312439,93.97831,52.182484,85.289154,103.110352,116.496277,42.526989,79.546051,99.873161,113.986015,33.749428,68.054924,87.094002,101.242332,26.31237,54.131813,70.092487,83.218689,-14.702403,-13.177661,-3.854461,1.170911,20.403571,37.445573,44.053238,47.590796,37.73932,54.698268,59.347889,59.941434,48.574912,66.522484,70.136118,69.255619,53.922992,69.170959,71.915827,71.017605,47.284441,300.026959,-84.800634,299.518351
94,-7.331429,4.530535,0.207767,-1.085016,-13.319092,-32.620697,-48.951187,-56.820774,-64.94482,-61.019497,-39.868469,-21.073723,-71.954613,-65.926609,-38.125763,-12.210617,-72.810745,-66.515865,-41.002007,-19.55246,-70.570736,-69.36161,-51.047173,-34.947281,-14.719507,-17.919352,-8.46839,2.806309,9.656653,25.904051,33.465327,36.754154,27.707719,41.306086,47.87034,48.525697,42.047276,50.828617,53.154014,51.967665,53.140923,61.691193,58.447691,54.7121,27.072601,52.575588,74.560719,93.515911,51.742058,84.844265,102.822361,116.44907,41.502399,78.643627,98.974628,112.913303,32.657719,67.07222,86.271343,99.594212,25.625496,52.843723,68.540382,80.863781,-13.768675,-11.242404,-1.461571,5.237299,20.951297,38.313537,44.659812,48.295862,38.048381,54.953791,59.424768,60.610623,48.687236,66.230775,69.951855,69.659528,53.985915,69.403696,71.972699,71.287763,40.042448,304.490108,-84.503431,298.365949
95,-2.59758,8.443937,0.78701,-0.6858,-9.909096,-25.601921,-39.849472,-48.156281,-49.480019,-50.332603,-33.694038,-18.14621,-55.990334,-56.589146,-35.847015,-14.195366,-58.829842,-62.062511,-43.828926,-25.988388,-59.248066,-65.82962,-59.010201,-49.776077,-22.841477,-28.445945,-19.237168,-8.411024,-2.399374,16.252708,25.025528,30.111724,16.9897,32.303925,38.625006,41.520483,32.499551,42.86374,46.143798,47.18349,44.497903,52.54818,51.921105,50.217905,26.970463,52.52203,74.1049,92.910748,51.2677,83.873005,101.563854,115.090771,40.869942,77.620068,97.655697,111.765003,31.879005,66.034412,85.145473,98.632793,24.620361,52.071476,67.639961,80.029163,-13.628501,-10.413342,0.656283,8.453693,20.619142,38.632663,45.3085,49.395204,37.742593,55.09662,59.992316,61.510388,48.637465,66.359957,70.311427,70.072392,54.250269,69.700592,72.410694,71.746507,37.546206,313.140878,-83.615084,297.886982
96,-13.153152,8.499821,1.248264,-0.099542,-3.773918,-13.061028,-23.424683,-30.132065,-36.226616,-34.37645,-18.624229,-5.453224,-42.748032,-41.286449,-22.263107,-4.035301,-45.98362,-46.824646,-28.334198,-12.099152,-46.959801,-51.852436,-44.691753,-36.263809,-23.233346,-30.878355,-25.846191,-19.491765,-7.906893,5.650286,12.527183,16.869472,10.093908,22.36075,28.328434,31.665735,24.099766,32.079524,35.956462,38.334224,34.654146,40.32339,40.747677,40.096951,26.398602,51.504135,72.721481,91.646347,50.923119,83.490829,101.012421,114.317322,40.438786,77.273712,97.287369,111.548767,31.219082,65.243797,84.376144,98.195457,23.60384,51.145935,66.558952,78.887787,-14.107376,-10.339983,1.396362,9.219954,21.062942,38.848604,45.256198,49.019268,38.187813,55.053765,59.819785,61.305871,48.921702,66.403306,70.236092,70.04448,54.245699,69.43982,72.147205,71.608186,24.501314,321.866381,-82.258558,298.013123
97,15.452499,-13.219775,-0.737858,-1.09749,-11.754799,-31.142578,-46.705399,-53.276253,-64.664326,-59.693298,-38.563499,-20.256271,-72.190533,-64.145908,-36.458702,-11.165657,-73.499565,-65.953846,-40.011978,-18.574562,-71.637554,-69.434338,-50.719185,-34.641495,-20.340462,-25.963269,-16.513542,-6.359984,2.16781,17.949425,25.407639,28.953286,22.049467,36.725872,42.410368,42.342813,38.333236,48.823395,50.138926,48.251895,51.424693,59.46435,55.174919,51.143852,26.603508,52.1628,73.427753,91.912594,51.260719,84.014339,101.742153,115.342655,40.534401,76.946697,97.13007,111.767635,30.941677,64.43819,84.117222,98.599606,22.909641,49.952774,65.698528,78.73724,-14.227851,-10.075197,2.272539,10.683686,21.525885,39.395404,45.747299,49.376864,38.523365,55.583522,60.371587,62.008714,49.083118,66.731571,70.954126,71.188592,54.040935,69.649154,72.821211,72.752853,40.050774,308.808716,-82.899456,297.077743
98,-7.431793,10.503313,0.004749,-0.006546,-8.6269,-23.296509,-34.205704,-38.419189,-44.414291,-47.078304,-31.972275,-18.754692,-50.520916,-52.864609,-32.361946,-11.862259,-53.376732,-57.210388,-37.350197,-19.694481,-53.755589,-61.238651,-51.94273,-41.528549,-25.016574,-33.872694,-26.342788,-17.491483,-10.142443,-0.659186,7.162924,13.025014,10.431991,19.659046,27.190621,30.946219,26.902308,33.149227,37.1664,39.232322,39.92442,44.903171,43.758071,42.147744,26.399918,51.882591,73.190918,91.398697,50.365734,83.206329,101.02581,114.416885,39.828587,76.404991,96.88076,111.550598,30.392132,64.33651,84.019775,98.321457,22.638817,49.674568,65.540371,78.638306,-13.615225,-9.749155,2.350776,11.406783,22.012602,39.812652,45.839554,49.036805,38.91264,55.561662,60.038258,61.4847,49.505861,66.671179,70.63679,70.583808,54.649547,70.412513,73.34788,72.850296,32.693481,319.338628,-82.820206,297.097797
99,-23.017044,8.42714,-0.939903,-0.114609,2.184448,-1.339989,-6.878815,-9.566803,-26.838627,-21.100044,-4.009781,9.918251,-34.085026,-26.206741,-5.208893,13.082542,-36.788292,-30.92926,-11.65741,4.683495,-36.670933,-36.860046,-27.78677,-17.890778,-20.222642,-29.244625,-28.058337,-25.896764,-12.122717,-3.395223,3.453454,7.593139,3.843716,12.598566,19.97984,23.698264,16.588322,23.119045,28.489602,31.102139,26.354211,32.357957,34.3047,33.56598,26.466351,51.801224,73.145828,91.153564,49.761429,82.628059,100.425339,113.981438,39.243851,76.098061,96.259689,110.822182,30.120621,64.339256,83.846054,97.989006,22.756405,50.097942,65.850506,78.489304,-13.390206,-9.719577,2.136935,11.923325,21.204597,39.169089,45.302634,48.714715,38.088025,55.08464,60.064626,61.945235,48.873907,66.174829,70.464754,70.597764,54.370188,69.957536,72.978057,72.546298,9.731197,327.803436,-83.705349,297.020856
100,32.701035,-21.987469,0.454674,0.714885,-13.196182,-34.658318,-50.34771,-55.531712,-69.446068,-65.288258,-43.69503,-24.86824,-75.691166,-69.583626,-41.464806,-16.403046,-75.992374,-70.387802,-44.432487,-23.409348,-72.924328,-70.969677,-53.437614,-38.513947,-17.018908,-21.872119,-12.437336,-2.080063,6.151823,23.357526,30.856434,33.955131,24.135149,40.776329,45.591996,44.71335,39.151861,51.183187,52.06733,49.89106,51.0545,60.373625,56.379732,52.43493,25.624924,50.656586,72.202263,90.419769,49.194431,82.033195,99.609375,112.975159,38.899899,75.787468,95.711632,110.022926,29.859695,64.25148,83.594055,97.771339,22.567005,50.242195,66.045685,79.056702,-14.061186,-10.885795,1.228277,10.972739,20.975627,38.915665,44.743546,47.873859,38.151504,54.59323,59.120956,60.563631,49.018218,65.970559,69.839407,69.551156,54.408288,69.843236,72.760016,72.180859,42.517147,305.900426,-83.16576,297.820199
101,-2.945938,9.034765,-0.492153,-0.660421,-12.40757,-33.22197,-47.681694,-51.892776,-56.754456,-59.196453,-43.392448,-28.650856,-61.531792,-62.233486,-40.539665,-17.595062,-62.400227,-64.72435,-43.664131,-23.586731,-60.005493,-66.372242,-55.903473,-43.772964,-23.147142,-30.777085,-20.829772,-11.302919,-9.294487,3.196078,12.495443,19.213332,10.996266,23.825285,31.992394,35.683155,27.663629,36.90149,40.819739,42.147003,41.128615,48.040647,46.503556,44.235216,25.308495,50.523262,71.876507,89.899921,49.411526,81.610394,99.045353,112.334805,39.139481,75.40781,95.332203,109.780712,29.941406,63.821354,83.191853,97.491932,22.355804,49.594688,65.356236,78.321705,-13.919963,-10.329732,1.598842,11.036095,21.030523,39.17866,45.226434,48.310805,38.001574,54.777555,59.580688,61.09629,48.740094,65.816368,69.856018,69.69065,54.052482,69.55659,72.754397,72.440952,39.684849,314.940547,-83.544273,297.165135
102,-6.050835,5.285341,-0.472813,-0.34185,-7.335777,-22.668457,-36.753273,-45.716743,-45.453644,-49.915695,-34.300461,-20.428619,-49.741516,-54.788647,-35.197678,-16.593933,-49.572945,-55.448971,-37.373543,-21.199608,-47.003345,-53.783913,-46.564293,-38.510971,-21.976169,-31.703711,-26.064911,-19.328002,-13.110292,-4.184146,3.255235,7.512926,4.12888,13.230458,20.868799,23.949403,19.193634,25.282595,31.219218,33.251671,31.85852,37.355912,39.649754,39.890334,25.315132,50.621624,72.134857,89.78508,48.347111,80.642281,98.411522,112.034912,38.035355,74.673958,94.957008,109.393959,29.124298,63.307743,82.740097,96.760025,21.96825,49.234657,64.985332,77.593575,-13.580583,-10.05766,1.729506,11.383874,21.491119,39.14408,45.27003,48.535577,38.426293,55.17918,59.982498,61.438078,49.168086,66.271901,70.065228,69.480576,54.44645,69.830453,72.750569,71.98369,33.83357,320.257829,-83.81753,296.855226
103,0.610886,-3.782954,-0.683041,0.740264,-7.715836,-22.20726,-35.583916,-44.77375,-47.063026,-49.13784,-33.609123,-20.563316,-50.514336,-51.730042,-34.008179,-18.087387,-49.231339,-50.928497,-34.54937,-20.56057,-44.904099,-49.618263,-43.49247,-37.814941,-11.815386,-15.436738,-10.852264,-5.943971,-3.077517,8.816662,14.957741,17.100789,7.82353,19.390679,26.214347,28.522083,17.838089,26.86427,32.799164,34.980744,26.200144,34.474205,38.148231,39.450362,25.791721,50.956421,72.255077,90.241642,49.172001,81.282635,98.881474,112.314091,38.734245,75.071812,95.044727,109.268131,29.651699,63.463154,82.62228,96.449833,22.382183,49.397278,64.967537,77.396564,-14.117935,-10.807495,1.266933,10.919017,20.564369,38.116986,43.880893,46.872021,37.705419,53.997092,58.536982,60.11205,48.633019,65.104386,68.846769,68.580193,54.213218,69.219063,72.018456,71.539211,34.6663,316.523318,-84.278727,297.643933
104,4.129143,-11.077653,-0.613232,-0.501228,-14.496803,-35.09594,-49.15432,-52.987175,-69.280987,-64.266129,-42.715645,-23.273506,-74.79332,-68.350296,-40.580063,-14.033089,-74.700451,-69.41803,-44.577713,-22.540283,-71.423149,-70.345001,-53.925018,-38.609276,-19.101008,-24.007016,-13.243673,-3.142849,3.463148,20.90023,29.56548,33.69121,22.690004,38.492552,44.296967,44.292706,38.941909,50.247669,52.292348,51.212457,52.181815,61.392013,58.099666,54.770392,25.542927,50.843868,72.169418,90.30899,49.038849,81.27491,99.120483,112.829247,38.660088,74.753609,94.904137,109.195633,29.612846,63.138771,82.393341,96.059303,22.275181,49.022713,64.519672,76.710548,-13.894522,-10.209998,1.720305,10.784524,21.019161,38.534542,44.605966,47.833722,37.986692,54.347958,59.093168,60.593703,48.768993,65.420856,69.016027,68.391237,54.170055,69.425494,72.096076,71.138204,39.186602,305.412088,-84.500799,297.109128
105,-1.31012,3.540275,-0.494843,-0.968061,-13.77491,-35.4673,-49.043312,-52.800751,-57.466106,-59.081841,-43.730278,-28.485146,-61.305714,-63.722477,-43.092842,-20.010223,-61.577854,-64.50119,-43.87104,-24.009132,-58.842716,-63.852654,-53.19849,-41.000748,-19.566853,-21.574976,-7.962036,2.613339,-0.432809,16.623458,26.238676,32.758655,16.643156,31.718964,39.726387,43.926958,30.943687,42.107235,45.855177,47.443212,42.758764,51.869235,51.399067,50.397846,25.644264,50.989666,72.105331,89.905014,48.606033,80.7938,98.669243,112.419662,38.075752,73.811417,94.102592,108.603973,28.892727,62.096786,81.465569,95.332947,21.378822,47.776279,63.267803,75.634117,-13.630168,-9.612007,2.460445,11.827612,21.366507,39.31587,45.617499,48.833831,38.105438,55.03913,59.807929,61.109751,48.772143,65.984576,69.80106,69.116742,54.162521,69.976802,72.935017,72.085764,38.214426,308.929206,-84.657698,296.11791
106,0.038681,-2.683549,-0.299492,0.611329,-14.453488,-35.852223,-49.82832,-53.478957,-64.310475,-62.430668,-44.697647,-27.858353,-68.680058,-66.788063,-43.315659,-18.998509,-68.414154,-66.914091,-44.415093,-23.759709,-64.875698,-66.415186,-52.870388,-39.260674,-17.510904,-19.881009,-8.171185,1.839483,5.158691,22.069813,30.386266,35.056573,21.607673,36.929895,43.456235,45.58156,35.184335,46.576946,49.028407,49.098401,46.08424,55.929447,53.968995,51.721342,25.954571,51.319942,72.537918,90.286331,48.951244,81.102791,98.821678,112.278328,38.366146,73.680954,93.58326,107.789383,29.029083,61.702652,80.734062,94.510117,21.467171,47.613716,62.972088,75.231628,-13.786829,-10.18042,1.858749,11.349293,21.568801,39.09011,45.161596,48.314572,38.243759,54.902353,59.649478,61.184037,48.738983,65.742947,69.431175,68.818488,53.947259,69.7185,72.345301,71.287825,38.624812,306.23428,-84.585485,296.717862
107,0.038681,-2.68355,-0.247192,0.194761,-15.132065,-36.237144,-50.613327,-54.157162,-71.154842,-65.779495,-45.665016,-27.23156,-76.054401,-69.853649,-43.538475,-17.986794,-75.250454,-69.326992,-44.959145,-23.510284,-70.90868,-68.977718,-52.542286,-37.520599,-15.454955,-18.18704,-8.380334,1.065627,10.750191,27.516169,34.533856,37.354491,26.57219,42.140828,47.186083,47.236163,39.424983,51.046657,52.201637,50.75359,49.409716,59.989661,56.538924,53.044839,25.430088,50.844669,72.09383,90.221901,49.634113,81.726723,99.316978,112.484093,38.90316,74.249496,94.088287,108.079491,29.214935,62.058105,81.16436,94.773102,21.329212,47.505627,62.982502,75.309334,-14.319735,-10.644536,1.469166,10.70641,21.618078,39.04423,44.872172,47.848418,38.270682,54.468309,59.021044,60.703434,48.672663,65.347065,69.07926,68.883573,53.766639,69.203934,71.953186,71.384897,39.003839,303.540001,-84.492331,296.901893
108,-0.365753,5.23909,-0.73122,0.062985,-14.171104,-34.256516,-47.099876,-52.27541,-53.824711,-58.360577,-44.487534,-30.450211,-56.728363,-62.968369,-44.191589,-22.822037,-56.815052,-64.512806,-47.232628,-29.188614,-54.457798,-64.408493,-59.631042,-51.537552,-19.675966,-20.999648,-7.678787,2.832306,-0.419038,15.840092,24.431427,30.206387,16.377877,30.713605,37.725241,41.362649,30.289874,40.72063,44.437511,45.636271,41.869929,50.151585,49.81943,49.084291,25.187531,50.33392,71.615238,89.481068,49.217434,81.58968,99.367046,112.744389,38.650875,74.356899,94.429379,108.456402,29.272728,62.420139,81.657543,95.19968,21.739655,48.046761,63.628693,75.898647,-14.153565,-10.590628,1.390928,10.936183,21.826362,38.96099,44.819993,47.766599,38.658969,54.766996,59.215002,60.756477,49.045079,65.654582,69.106183,68.540858,54.053779,69.278652,71.994188,71.120234,38.886366,308.779261,-84.975271,296.965049
109,0.932293,-2.801154,-0.850525,0.31363,-15.06443,-36.181812,-50.44301,-55.874319,-63.12335,-63.266487,-45.902366,-29.11251,-66.807975,-67.628631,-44.876632,-20.887527,-66.112604,-67.265024,-46.282539,-26.095161,-62.517814,-65.897312,-55.191936,-43.521537,-17.674079,-19.27042,-7.835509,1.832753,6.266154,22.523185,30.203887,34.66733,22.652367,36.453523,42.755955,45.280837,35.866307,45.798737,48.51449,48.938869,46.304751,55.048455,53.152223,51.266952,25.892258,50.928211,72.136688,90.051098,48.987579,81.49847,99.160137,112.496166,38.306465,74.86805,94.94997,109.02174,29.130363,62.868176,82.075367,95.705967,21.925907,48.529358,64.161987,76.642513,-14.241127,-11.366522,0.399278,9.54507,20.304153,37.566851,43.687737,47.307361,37.63206,53.98326,58.757061,60.676634,48.524523,65.345953,69.012816,68.745746,53.88977,69.021646,71.88384,71.328765,40.116005,305.911896,-85.52845,297.212467
