takenoko1/special-research/HandMotion_SimilarSearch_自分用/NewProject/handData/key/d4_feature_d2/73.csv
,vel_0x_L,vel_0y_L,vel_0x_R,vel_0y_R,posFromWrist_1x_L,posFromWrist_2x_L,posFromWrist_3x_L,posFromWrist_4x_L,posFromWrist_5x_L,posFromWrist_6x_L,posFromWrist_7x_L,posFromWrist_8x_L,posFromWrist_9x_L,posFromWrist_10x_L,posFromWrist_11x_L,posFromWrist_12x_L,posFromWrist_13x_L,posFromWrist_14x_L,posFromWrist_15x_L,posFromWrist_16x_L,posFromWrist_17x_L,posFromWrist_18x_L,posFromWrist_19x_L,posFromWrist_20x_L,posFromWrist_1y_L,posFromWrist_2y_L,posFromWrist_3y_L,posFromWrist_4y_L,posFromWrist_5y_L,posFromWrist_6y_L,posFromWrist_7y_L,posFromWrist_8y_L,posFromWrist_9y_L,posFromWrist_10y_L,posFromWrist_11y_L,posFromWrist_12y_L,posFromWrist_13y_L,posFromWrist_14y_L,posFromWrist_15y_L,posFromWrist_16y_L,posFromWrist_17y_L,posFromWrist_18y_L,posFromWrist_19y_L,posFromWrist_20y_L,posFromWrist_1x_R,posFromWrist_2x_R,posFromWrist_3x_R,posFromWrist_4x_R,posFromWrist_5x_R,posFromWrist_6x_R,posFromWrist_7x_R,posFromWrist_8x_R,posFromWrist_9x_R,posFromWrist_10x_R,posFromWrist_11x_R,posFromWrist_12x_R,posFromWrist_13x_R,posFromWrist_14x_R,posFromWrist_15x_R,posFromWrist_16x_R,posFromWrist_17x_R,posFromWrist_18x_R,posFromWrist_19x_R,posFromWrist_20x_R,posFromWrist_1y_R,posFromWrist_2y_R,posFromWrist_3y_R,posFromWrist_4y_R,posFromWrist_5y_R,posFromWrist_6y_R,posFromWrist_7y_R,posFromWrist_8y_R,posFromWrist_9y_R,posFromWrist_10y_R,posFromWrist_11y_R,posFromWrist_12y_R,posFromWrist_13y_R,posFromWrist_14y_R,posFromWrist_15y_R,posFromWrist_16y_R,posFromWrist_17y_R,posFromWrist_18y_R,posFromWrist_19y_R,posFromWrist_20y_R,posFromBody_0x_L,posFromBody_0y_L,posFromBody_0x_R,posFromBody_0y_R
3,-0.692368,4.329877,0.382919,-0.408355,-15.879364,-37.842293,-53.218002,-65.749798,-63.581715,-66.65554,-47.91481,-31.435089,-65.565262,-65.581284,-43.610229,-20.429649,-64.527283,-67.604084,-46.662483,-24.947548,-60.555553,-74.227867,-75.961876,-73.044662,19.454591,33.060677,44.884151,52.258077,24.993047,38.15947,44.815609,49.159997,22.648507,35.259917,42.759999,47.649829,20.01831,32.283177,38.934561,44.083804,16.451421,25.096479,29.969574,35.906383,26.643333,50.239735,70.736904,86.597843,49.009838,81.266041,98.389606,111.063938,38.785515,74.877605,94.809666,108.60117,29.208012,62.94405,82.015171,95.496998,20.960712,46.660881,62.277489,75.27998,-12.591897,-11.078827,-1.304477,8.492225,15.264887,32.900743,39.898238,43.98945,32.476147,49.547172,55.937413,58.639797,44.255224,62.204772,67.406626,67.83678,51.351704,67.550258,71.762747,71.35785,52.199078,311.375742,-74.197311,302.504061
4,-2.978325,6.849788,0.559444,0.385878,-14.841385,-34.063339,-47.862167,-54.518967,-52.784157,-52.542572,-38.47435,-25.150566,-53.60218,-53.129311,-35.927925,-16.279678,-52.031593,-57.464676,-43.047981,-26.490097,-47.945824,-63.782387,-72.483044,-76.855717,-14.736242,-17.002729,-10.705607,-5.65288,6.201532,20.135698,25.834705,27.394829,20.321937,31.32339,34.942212,36.342526,32.022343,40.771265,42.769756,43.359781,41.329674,49.670858,49.356857,47.872069,26.298351,50.041637,70.46711,85.986443,48.673382,80.861778,97.880974,110.409393,38.415813,74.439812,94.323006,107.919846,28.741322,62.51936,81.589279,95.047646,20.351429,46.298904,61.927242,74.810371,-12.643582,-11.191892,-1.196229,8.637833,15.1722,32.852763,39.81716,43.93338,32.282868,49.494375,55.868129,58.490855,44.015755,62.05867,67.114238,67.39335,51.032825,67.212051,71.282885,70.802034,49.382772,318.05936,-73.475847,302.723769
5,-4.997177,0.662458,0.001774,-0.253424,-14.731636,-31.873169,-43.415451,-46.605263,-50.60915,-48.148842,-33.824501,-20.11322,-52.462521,-50.982571,-32.870407,-11.895332,-51.925507,-55.004482,-38.791924,-20.800323,-48.584061,-61.835632,-65.862408,-65.227776,-13.652707,-14.873019,-6.541777,-1.44286,5.199385,17.767199,23.516471,27.036306,18.729579,29.568197,34.410108,36.949285,30.08653,38.640753,41.762236,43.199971,39.264679,47.69713,48.657843,48.19632,25.961323,50.044613,70.547161,85.821247,48.830738,81.042652,98.033924,110.583401,38.497696,74.20229,93.886013,107.611713,28.700237,62.029552,81.010609,94.678402,20.218334,45.999527,61.567898,74.619427,-12.706753,-11.149963,-1.173443,8.818762,15.539429,33.12817,40.092628,44.2953,32.484483,49.61837,56.017565,58.799854,43.959316,62.023534,67.215015,67.758912,50.656395,67.048844,71.198596,70.810618,44.481611,318.576828,-73.378057,302.325355
6,-10.706863,6.700228,-0.091267,0.02822,-6.81633,-18.236732,-29.571762,-35.493965,-42.518063,-34.635429,-18.272667,-4.180984,-47.103252,-38.84491,-19.824371,-0.294571,-48.187065,-45.699978,-29.273643,-12.710724,-46.394691,-55.361996,-57.477264,-56.068497,-17.499449,-23.471887,-20.095807,-17.755528,-1.385123,9.875311,14.793299,17.776523,14.268668,22.670058,26.283507,28.480278,26.611711,32.277373,34.902877,36.871418,36.142146,42.354916,42.510713,41.586618,26.155071,50.146523,70.616112,86.112785,48.388367,80.52784,97.697067,110.440292,38.292961,73.835793,93.724365,107.617607,28.833961,62.238007,81.256599,94.835358,20.721474,46.463013,62.047405,75.095558,-12.399359,-10.841088,-1.189313,8.763557,15.22617,32.884194,39.980242,44.219902,32.141645,49.513024,55.929324,58.55279,43.894972,62.161052,67.24379,67.451519,51.061477,67.616022,71.737553,71.134066,33.842726,325.187673,-73.401346,302.264191
7,18.64048,-17.38342,0.540733,0.543959,-25.544243,-52.592812,-75.235806,-95.450478,-75.947571,-77.143364,-52.365074,-32.412987,-76.43589,-72.423935,-45.518188,-19.458046,-74.037151,-70.711441,-44.566269,-19.172859,-68.727493,-74.966755,-62.6548,-45.542107,20.490083,32.070817,43.149459,52.580538,27.229709,40.919899,48.24572,53.211133,28.149419,39.062076,47.711024,51.412837,27.64393,38.337188,45.46547,48.948564,26.213729,36.726305,40.369702,43.921771,25.858498,49.706039,70.208931,85.715332,48.259277,80.381927,97.455025,109.93618,38.323174,73.736343,93.501778,107.099991,28.931351,62.228966,81.07132,94.349785,20.812454,46.36797,61.766109,74.630585,-12.577077,-11.27439,-1.641202,8.378419,14.964039,32.407357,39.351809,43.497237,31.899275,48.955974,55.306324,57.961283,43.677919,61.702185,66.632523,66.741266,50.901914,67.291647,71.264915,70.620365,52.550068,307.790498,-72.793751,302.794396
8,-1.984749,4.055335,0.191231,0.243914,-17.799683,-36.255341,-46.808968,-50.565033,-59.995422,-58.340263,-41.718063,-26.996841,-62.436733,-59.927559,-39.877167,-17.562675,-61.541176,-63.968868,-45.961304,-26.148148,-57.369804,-70.463676,-75.056477,-74.351177,-8.347791,-3.649141,11.262966,20.806493,11.251296,26.477774,33.113658,36.388406,24.306876,37.209069,41.886169,44.251704,35.345318,45.733467,48.050404,49.266084,44.153706,52.656244,53.37261,54.03229,25.276108,49.283352,69.764786,85.701256,47.932606,80.633583,97.956963,110.477371,37.957535,73.914757,93.967552,107.490234,28.637581,62.429409,81.490173,94.668503,20.642738,46.70311,62.308445,75.037537,-13.839935,-12.339894,-2.410921,7.293588,14.117441,31.547791,38.548312,42.664162,31.634613,48.517731,54.681534,57.044722,43.819451,61.708854,66.381075,66.113326,51.074013,67.515554,71.199892,70.04658,50.684309,311.829963,-72.48353,303.02244
9,-3.421097,1.345727,0.037937,0.095219,-14.580917,-31.807365,-42.61837,-48.890877,-57.963352,-56.178246,-38.511086,-22.337265,-60.776939,-58.376656,-37.795029,-15.303841,-60.650482,-61.732407,-42.814293,-21.930542,-57.26944,-66.547165,-65.767307,-60.04549,2.588145,10.528569,23.024691,30.191135,16.595114,29.386959,35.82549,39.78684,23.95175,35.830306,41.650159,45.147023,30.228432,40.727052,44.421517,46.453538,34.63241,43.764061,45.762428,47.731154,25.340939,49.3923,69.868755,85.689983,47.645817,80.546436,97.950726,110.43211,37.582455,73.741436,93.836803,107.350788,28.294659,62.378597,81.428776,94.551029,20.42284,46.56395,62.23526,74.94627,-13.57379,-12.177119,-2.440932,7.312052,14.007278,31.487091,38.507433,42.651442,31.506974,48.579975,54.728526,56.990567,43.702496,61.747386,66.380828,66.058059,50.964159,67.553592,71.207426,69.970442,47.408266,313.141619,-72.300539,303.083588
10,-8.689842,11.402893,-0.06855,0.110718,-11.099854,-26.12709,-39.232407,-46.115742,-46.902523,-39.520226,-23.998146,-9.850388,-50.492363,-43.447266,-24.998817,-4.630508,-50.744877,-48.241138,-31.904182,-14.66114,-47.434902,-52.657585,-47.724667,-39.569321,-18.48937,-24.765003,-21.488217,-18.737669,-0.381432,9.645106,15.919133,19.573522,15.405616,23.878637,29.100746,31.164198,28.413341,34.808892,37.116197,37.70826,38.77506,45.139798,43.727072,41.176163,25.229473,49.411182,69.948292,85.895977,47.526684,80.574474,98.163357,110.796146,37.446842,73.791904,94.003086,107.538586,28.201561,62.400627,81.54768,94.763432,20.386105,46.696815,62.395649,75.069294,-13.648694,-12.297595,-2.580735,7.120502,14.120405,31.577555,38.449944,42.403082,31.550014,48.445606,54.416192,56.503665,43.692801,61.722316,66.263873,65.847552,50.874497,67.440898,70.995251,69.693491,38.773327,324.486991,-72.314186,303.136786
11,12.058296,-16.236468,0.184135,-0.033345,-22.754173,-46.885071,-66.736565,-84.588776,-73.929062,-73.06778,-47.510376,-27.481499,-77.014561,-72.165756,-43.396339,-16.896515,-75.968628,-72.798729,-44.809799,-18.656044,-72.180462,-78.014088,-63.364277,-45.514641,6.913144,14.885369,26.665248,36.755821,17.11882,32.128122,39.674393,44.372549,25.651924,37.468915,45.993189,49.947562,32.522028,43.49347,49.333886,51.564249,37.790264,47.597218,49.642947,52.130748,25.279369,49.221554,69.666424,85.911427,47.036476,80.225658,97.877369,110.596676,36.990337,73.60342,93.976994,107.702465,27.860699,62.292366,81.52216,94.943447,20.249119,46.807251,62.503967,75.232487,-13.646841,-12.358357,-2.630135,7.038127,13.927064,31.700933,38.546707,42.461374,31.268062,48.451349,54.464357,56.501812,43.353544,61.671001,66.3121,66.016871,50.48794,67.281643,70.888794,69.654526,50.888929,308.230362,-72.072744,303.083279
12,-2.896042,6.313486,0.285759,-0.253238,-15.182419,-34.181671,-47.9496,-58.047409,-61.39555,-59.002762,-39.968605,-23.407745,-65.802784,-61.605034,-39.622993,-16.523209,-66.069832,-64.258862,-43.29071,-21.888313,-63.124866,-68.211994,-59.492569,-47.622185,-3.153964,2.424692,15.234506,23.024876,10.010174,24.790197,32.9733,38.146811,20.720721,32.111202,39.66902,44.732369,29.711705,39.163408,43.568744,46.129287,36.708212,46.036229,46.899438,48.152848,25.144501,48.942204,69.262447,85.217686,47.569599,80.205517,97.615757,110.311031,37.409306,73.512096,93.550816,107.220554,27.890282,61.802158,80.802898,94.192028,19.734421,45.941963,61.506329,74.244633,-13.675802,-12.43042,-2.58444,7.116982,14.070758,31.730634,38.664897,42.677562,31.350622,48.450794,54.634356,56.98433,43.382999,61.653217,66.420904,66.433563,50.529683,67.27553,70.909974,69.842618,48.031569,314.517927,-71.748304,302.804121
13,-13.278809,15.866583,0.678005,0.053291,-6.754189,-19.880333,-31.42765,-34.800339,-47.565536,-38.607788,-21.365433,-6.882362,-53.442822,-43.088608,-22.037086,-0.985909,-54.872303,-48.56741,-29.463959,-10.922012,-51.974545,-54.548607,-44.860783,-32.90451,-16.027875,-24.487805,-24.166456,-22.734217,-6.536158,2.240922,9.147891,13.683397,8.74497,15.487683,22.690374,27.057302,21.849642,27.03396,31.139189,33.704178,33.032333,38.163175,37.903267,37.19357,24.935303,48.677273,69.260216,84.818573,47.372875,80.011482,96.980438,109.36924,37.613983,73.336945,93.151474,106.844444,28.331566,61.803246,80.53997,93.679047,20.259132,46.185894,61.372375,73.848953,-13.530195,-12.276846,-2.172256,7.51731,13.928423,31.378163,38.304213,42.536586,31.439728,47.900659,54.315601,56.929928,43.508414,61.07159,66.055836,66.161429,50.744698,67.287201,71.032734,69.987485,34.795332,330.364179,-71.027727,302.837081
14,1.227036,-18.851536,0.284958,0.232367,-14.752007,-30.947456,-46.862411,-60.166798,-63.863354,-53.214798,-27.623978,-8.943443,-70.027256,-54.441547,-25.559349,-0.149803,-70.296307,-58.191605,-29.79538,-5.415344,-67.496452,-67.16692,-50.16592,-33.105125,-5.157333,-3.759859,6.066299,15.873437,6.719248,21.900278,28.913148,32.468428,22.468567,33.467427,42.057465,45.333015,34.857058,43.599311,47.793028,49.09096,44.693034,53.07238,51.864789,50.917846,24.77766,48.383961,68.674622,84.188461,47.500591,79.847145,96.681747,109.00383,37.786903,73.070412,92.86068,106.652985,28.300896,61.513596,80.281105,93.520889,19.913406,45.660095,60.881653,73.478737,-13.653572,-12.575595,-2.712757,7.134272,13.275968,30.802341,37.794216,41.917662,30.611655,47.08753,53.609732,56.263764,42.778339,60.388321,65.479025,65.694843,50.335416,67.036494,70.808827,69.731035,36.038246,311.513183,-70.726891,303.069988
15,-29.997711,17.226389,0.091782,-0.123377,4.215431,2.964592,3.842926,4.395561,-30.481796,-11.475105,8.654823,23.292618,-39.140911,-15.10231,9.732285,30.111465,-41.717491,-22.560024,0.24456,18.528442,-40.060043,-31.407566,-16.547756,-2.678719,-15.046846,-20.02924,-15.21771,-8.878659,-5.311709,6.436678,12.530888,17.045522,9.515059,17.663952,24.555484,29.023743,21.373423,28.483427,31.808625,33.751231,30.483894,36.906554,36.839061,36.717474,24.399605,48.06324,68.581352,84.23172,47.036591,79.839821,97.058945,109.550629,37.194958,72.721939,92.632141,106.187553,27.620773,61.151047,80.021439,93.165321,19.31797,45.585308,60.907001,73.438225,-13.549584,-12.207748,-2.314035,7.301369,13.565454,31.459303,38.56233,43.005457,30.596773,47.495329,54.283058,57.364959,42.586048,60.503856,65.568996,65.940671,49.895877,66.65006,70.477104,69.613092,6.056643,328.732919,-70.619001,302.939957
16,33.393288,-18.626518,0.213203,0.228724,-18.647118,-37.370911,-54.81657,-69.36264,-66.273651,-57.686691,-32.795334,-14.031944,-70.827599,-57.68858,-29.720535,-4.569168,-70.309925,-60.550404,-33.033371,-8.842278,-67.062035,-67.689514,-51.293736,-34.534378,-0.784292,3.275612,14.36154,24.858122,10.92618,26.011991,32.455523,35.79375,24.286437,35.23744,43.58554,46.506335,34.853662,44.23324,48.577814,49.609972,43.089437,51.941421,51.487494,50.975089,24.293633,47.986565,68.618889,84.643822,47.396507,79.971886,96.975975,109.203072,37.425728,72.884331,92.675743,106.191101,27.742996,61.289291,80.073395,93.196449,19.392586,45.63509,60.988598,73.715172,-13.786212,-12.43783,-2.516823,6.752222,13.98159,31.69661,38.567825,42.794888,31.055641,47.302298,53.522849,56.177808,42.963899,60.417962,65.18602,65.317548,50.136703,66.770226,70.460246,69.528864,39.462461,310.107358,-70.393267,303.169637
17,-25.503731,16.477356,0.153637,-0.033222,1.113167,-2.513351,-5.215645,-6.514091,-34.44912,-16.783562,2.70916,17.331047,-43.146286,-21.324348,2.194862,22.962112,-45.354366,-28.651257,-6.736908,11.922226,-43.642902,-36.12339,-22.539597,-9.375343,-17.454742,-23.463736,-20.039861,-15.263652,-2.865775,9.25861,15.001769,19.214258,13.04743,21.605975,27.690243,31.648815,25.528238,32.576553,35.433004,37.276439,34.93122,42.061231,41.679367,41.000668,24.175587,47.9076,68.447399,84.378948,46.962318,79.542446,96.682606,109.027348,37.104893,72.702999,92.603931,106.263027,27.670269,61.215878,80.061436,93.227062,19.651623,45.665646,61.053085,73.828983,-14.094408,-12.825931,-2.762528,6.799029,14.257861,31.729893,38.507927,42.506328,31.328269,47.618213,53.837344,56.405605,43.086844,60.625072,65.440678,65.619508,50.10836,66.657594,70.3909,69.591788,13.974581,326.514566,-70.22378,303.066267
18,25.025024,-15.414694,0.365868,0.039829,-17.21386,-35.01503,-52.315979,-66.546249,-65.521088,-56.670399,-31.88118,-13.359489,-70.90107,-56.920509,-29.02771,-4.39064,-70.735874,-60.298176,-33.019867,-8.962669,-67.572613,-69.222736,-54.175014,-37.756577,-5.541111,-4.023966,6.808909,17.909657,7.269073,21.701071,28.200302,31.806773,23.357896,33.415433,41.364254,44.490925,36.125041,44.139503,47.844157,48.753988,46.458231,54.250145,52.422333,50.655777,24.419117,48.007565,68.278713,83.940411,46.694584,79.253483,96.294765,108.68185,36.868172,72.439785,92.379856,106.116428,27.56012,61.01738,79.914951,93.186436,19.579182,45.414047,60.767384,73.541737,-13.954605,-12.855386,-2.705718,6.883936,13.886124,31.315548,38.135078,42.265996,31.224405,47.293776,53.459987,56.202076,43.223992,60.472858,65.213437,65.446668,50.480036,66.841486,70.447402,69.575115,39.022522,311.063162,-69.834995,303.069386
19,-25.844078,14.855667,0.234146,0.609847,-0.352249,-5.158081,-9.779091,-14.354095,-37.463722,-18.171959,2.330132,16.443787,-45.774994,-21.352901,2.873154,22.533302,-47.41951,-28.715916,-6.364861,11.83754,-44.885674,-38.187275,-25.490799,-12.63279,-14.493439,-19.023635,-14.46065,-8.44511,-1.968974,11.69701,17.185387,21.277216,13.463134,22.117701,27.387049,31.234655,25.236097,32.726977,34.828529,35.923734,34.137357,41.789097,40.70371,39.404543,24.175014,47.847977,68.234539,84.409847,46.045361,79.013042,96.454525,109.125538,36.374359,72.196026,92.422771,106.242428,27.355385,61.132393,80.155735,93.365993,19.73093,45.919819,61.323509,73.968029,-14.106758,-13.066449,-3.184407,6.375977,13.641839,31.074228,37.903638,42.033567,30.976106,47.082281,53.040393,55.477064,43.066281,60.43519,64.827682,64.66923,50.382964,66.865631,70.164091,69.018929,13.191433,325.893079,-69.58786,303.653483
20,24.126892,-16.21924,0.665588,0.366859,-18.281937,-36.962585,-54.560108,-69.720325,-64.892693,-55.070114,-30.320435,-11.411819,-68.779793,-54.084606,-26.300125,-1.309204,-67.698097,-56.238441,-29.313126,-5.44796,-63.791485,-63.61084,-47.765694,-31.407394,2.255496,8.25603,19.433225,29.715595,15.218513,27.624973,33.037273,36.386307,26.800235,34.682983,42.522136,45.138007,35.243615,42.078213,46.20666,47.027385,41.717405,49.284918,48.670563,48.417078,24.08392,47.569828,67.80035,83.87289,45.983162,78.442211,95.55582,107.888432,36.401939,71.982822,91.950359,105.732708,27.455177,60.988941,79.882908,93.191471,19.850864,45.761776,60.911865,73.494816,-14.260084,-13.449178,-3.699158,5.924767,13.131657,30.361813,37.304535,41.569142,30.432517,46.584573,52.654206,55.239016,42.551344,59.828492,64.289404,64.304471,49.917798,66.095294,69.556405,68.736545,37.320871,309.630197,-68.919725,303.9767
21,-27.549934,13.106957,0.175724,0.087809,5.271492,4.753304,5.008278,6.027489,-29.829884,-11.763039,6.718369,20.068474,-37.502232,-16.214333,6.758881,26.510239,-39.267712,-22.45388,-2.039566,15.525284,-37.172699,-30.534153,-17.96854,-5.17662,-9.579835,-8.699028,-0.36019,6.955875,3.488404,16.168419,21.064054,25.497671,15.334048,24.572774,30.523043,35.500065,24.264516,32.718085,36.56316,39.702119,30.776776,38.591414,39.861929,41.153809,23.631592,47.321033,67.855911,83.670273,46.333981,78.517113,95.481377,107.667961,36.954861,72.090569,91.732979,105.276031,27.856979,61.000099,79.496613,92.510834,19.961529,45.610485,60.523739,72.876778,-14.268915,-13.596514,-4.116035,5.547904,12.703233,29.872318,36.845051,41.094096,29.875035,45.762798,52.050904,54.861721,41.954094,58.984735,63.691721,63.900006,49.426635,65.538121,69.074814,68.245259,9.771109,322.716391,-68.74383,304.043745
22,24.736633,-9.506908,0.31311,-0.061936,-14.616737,-30.325241,-46.102295,-59.822674,-59.557056,-50.82613,-26.032906,-7.394142,-65.16243,-51.385517,-23.374557,1.05217,-65.494881,-55.78989,-28.537445,-4.743118,-63.156509,-63.914337,-47.877274,-31.3591,-4.840924,-3.940726,5.482696,16.038126,7.648962,19.953596,25.777771,29.522378,23.086256,30.742998,38.594193,41.912598,34.782896,40.986033,44.635668,45.812816,43.930787,50.822565,49.159441,47.731525,23.564072,47.096786,67.524261,83.569107,46.47543,78.43277,95.25753,107.502022,36.859932,71.767502,91.57711,105.082054,27.386341,60.390472,78.95977,91.805077,19.073753,44.753494,59.739189,72.005768,-14.177401,-13.241264,-3.730528,5.182095,12.776592,29.707506,36.693515,41.147387,29.968463,45.745014,52.227572,55.355045,42.056724,59.177519,63.82325,64.11076,49.574589,65.622657,69.018435,68.121325,34.514894,313.217325,-68.423567,303.989652
23,-32.04071,17.154882,0.356712,-0.102814,5.207405,6.196632,9.730797,12.828369,-24.084435,-5.149384,13.868294,26.800461,-32.013645,-8.747692,14.90593,33.667374,-34.370728,-16.191959,4.517441,20.947609,-32.950745,-24.255009,-11.100941,1.441841,-17.157352,-25.359165,-22.535875,-16.377938,-6.162012,4.128509,9.490915,13.896683,9.340491,17.099924,23.098112,27.305662,21.584239,28.483983,31.088924,32.718147,30.699217,37.276439,36.741495,35.930342,23.4161,46.841927,67.288513,83.272133,46.703568,78.346252,95.24929,107.662468,37.077541,71.617813,91.34903,105.065346,27.464676,60.159931,78.642197,91.687202,18.902779,44.342422,59.271927,71.607399,-14.087862,-13.481659,-4.290048,5.086134,13.022359,29.933389,36.851843,40.975783,29.90029,45.618117,52.00385,54.70327,41.855911,59.101566,63.826461,63.95768,49.319066,65.694967,69.131439,68.080694,2.477503,330.363145,-68.063536,303.877776
24,38.537178,-22.064595,-0.125313,0.089847,-21.260948,-41.94603,-61.39452,-79.224072,-67.493362,-61.600742,-35.886955,-15.881882,-70.056038,-59.978771,-31.632729,-5.759125,-68.076553,-60.721779,-33.205261,-8.467026,-63.286057,-65.516338,-50.981255,-34.757195,12.267213,20.999771,31.588732,41.045684,19.838061,34.0154,40.449484,44.128141,25.566214,36.261324,44.958808,47.91585,28.91074,38.887631,45.202784,47.304397,30.726326,40.293688,43.104134,45.679497,23.543015,47.123222,67.566147,83.436813,46.466389,78.292007,95.180855,107.654457,36.823082,71.607857,91.549759,105.396538,27.349148,60.270996,78.953819,91.972733,19.004116,44.608669,59.745426,72.087708,-14.376793,-13.87822,-4.520068,4.92651,12.233806,29.179169,36.005615,40.147339,29.34287,44.973381,51.332747,54.144243,41.579084,58.711365,63.29973,63.412671,49.331046,65.660695,68.896664,67.54822,41.003609,308.298935,-68.199921,303.968009
25,-30.085602,21.237757,0.461082,0.196922,4.083252,1.488419,-0.623932,-0.415764,-22.728767,-7.472534,9.616699,23.314819,-30.620384,-13.552094,7.393227,27.704773,-34.275856,-21.102734,-2.936554,13.74424,-34.968281,-29.681282,-19.327412,-8.085709,-20.718251,-30.308955,-29.227396,-23.98139,-9.513701,0.529942,6.085071,10.332511,8.307962,17.140494,23.33369,27.451393,22.193777,28.181468,31.941018,34.388002,33.189056,38.498109,38.097287,36.417367,22.584972,45.867004,66.580353,82.476883,46.881752,78.347397,95.104179,107.396278,37.366104,72.046967,91.791458,105.298004,27.411518,60.436993,78.917999,91.64978,18.505898,44.460583,59.352093,71.354141,-14.908896,-14.808737,-5.539135,4.168709,11.844594,29.056348,35.979495,40.266888,28.864242,44.419727,50.966938,53.997216,41.029505,58.26985,63.076317,63.399951,48.801412,65.296121,68.733643,67.67944,10.902328,329.528804,-67.754517,304.157042
26,30.679207,-22.55193,-0.049839,0.516419,-21.090431,-42.64389,-61.827965,-79.734592,-69.17942,-65.297012,-40.066566,-19.69986,-69.193668,-60.039425,-33.004532,-7.231407,-64.627247,-56.816311,-30.197983,-5.916824,-57.664661,-57.65213,-41.338005,-23.841019,27.087312,40.367541,48.843094,55.25538,32.69073,46.729254,54.259223,58.490114,27.464113,39.072635,50.083907,54.130411,20.197881,31.4874,40.563352,44.655304,12.450242,22.091148,27.450405,31.894026,22.999592,46.35498,67.119656,83.38892,46.34491,78.456173,95.279217,107.486629,36.721573,72.131023,92.142849,105.744267,27.00016,60.628738,79.307499,92.135639,18.510647,44.531136,59.584808,71.734028,-14.9662,-15.07167,-5.964534,3.44382,10.984904,28.42637,35.30691,39.712307,28.166709,44.147099,50.865235,54.276636,40.501292,57.912562,62.772567,63.317452,48.363911,64.676949,68.194994,67.242,41.568089,306.929944,-67.817802,304.62653
27,-27.67067,22.411077,0.077991,0.167591,2.495842,-0.276833,-3.381844,-3.987007,-25.854492,-10.046768,7.394943,21.434555,-33.94455,-16.307716,4.756966,25.058441,-37.195015,-24.614582,-6.19503,10.811691,-37.599792,-33.330574,-23.979778,-13.444061,-20.890535,-30.183601,-29.356455,-24.96458,-7.688112,2.798714,8.042312,11.806061,9.632015,17.913424,22.927434,26.118695,22.966769,28.527764,31.014391,32.906115,33.459769,39.098694,37.983358,36.047791,22.780952,45.982075,66.845512,82.836914,46.484184,78.032227,94.665985,106.916656,37.312946,72.175484,92.13913,105.895042,27.703457,60.831528,79.319344,92.037506,18.995361,44.761505,59.636822,71.691399,-14.881849,-15.186341,-6.233581,3.121545,11.354172,28.141948,34.933752,39.214167,28.444031,43.786723,50.363266,53.609608,40.725755,57.601958,62.391443,62.844938,48.686618,64.740058,68.203454,67.240394,13.870754,329.331079,-67.766476,304.784179
28,24.716606,-20.570791,-0.263672,-0.060701,-19.643097,-39.601936,-58.2934,-74.608498,-66.079273,-57.9776,-32.042885,-12.840157,-68.839989,-56.633949,-28.391876,-3.659019,-66.80563,-57.293816,-29.865189,-6.342087,-62.109947,-60.711994,-43.480797,-26.845093,9.362968,16.703672,26.792578,36.061253,18.782499,33.399069,40.425463,43.968146,26.879337,36.91699,46.558884,49.257871,32.280584,41.442307,47.809207,49.287265,35.975543,45.378896,47.003734,47.648162,22.873535,46.02459,66.805573,83.091888,46.479721,77.829208,94.532204,106.804047,37.418804,72.168503,92.215919,106.047249,27.925987,60.862427,79.474983,92.317657,19.325867,44.979801,59.928703,72.120323,-14.783234,-14.968053,-6.029619,3.086533,11.797293,28.41013,35.053609,39.155195,28.713942,44.071331,50.613416,53.808939,40.833448,57.707798,62.476165,62.859079,48.679085,64.685039,68.216668,67.217732,38.58573,308.739802,-68.031778,304.702993
29,-34.784889,26.7609,0.25486,-0.053723,6.010323,4.69059,2.624588,1.477318,-15.855961,1.407852,18.412285,31.633759,-24.007244,-3.77346,16.613159,36.579666,-28.220329,-12.677021,4.637947,20.886841,-30.137157,-22.981339,-14.089394,-4.167137,-22.599045,-34.789441,-37.325407,-35.35668,-14.942118,-5.826707,0.282693,5.392663,2.610437,11.34318,16.910103,21.216886,16.444752,22.203472,25.064986,27.620712,27.671595,32.82584,30.754607,27.818499,23.066826,46.040726,66.662979,83.122673,46.713238,78.165779,94.906654,107.130547,37.436314,72.194023,92.144508,105.856819,27.83392,60.778027,79.34063,92.071381,19.144135,44.716015,59.630928,71.698952,-14.57742,-14.759707,-5.987567,3.01342,11.678485,28.227904,34.906026,39.041945,28.682511,43.997786,50.430018,53.50667,40.925641,57.843093,62.474312,62.726315,48.831238,64.952912,68.350358,67.218781,3.737869,335.506599,-67.83989,304.655167
30,-12.266006,4.666108,0.422344,0.119796,8.525734,11.576614,13.090897,12.640228,-10.355644,12.820587,29.69101,40.963669,-19.098473,7.067871,26.273575,43.710823,-22.969093,-0.134468,18.5186,34.824371,-23.57729,-18.161774,-7.890358,4.345894,-18.765147,-33.358437,-40.00945,-39.63901,-20.37072,-10.621009,-2.59642,2.404499,-4.77096,7.236531,15.028754,19.249024,8.51532,18.503387,23.128432,24.508862,19.356346,28.249578,28.799528,26.176741,23.302746,46.215248,66.720371,83.444538,46.207066,77.94199,94.88554,107.083797,36.758308,71.957874,91.904125,105.347042,27.272301,60.657291,79.251308,91.768055,18.915138,44.766254,59.785366,71.648655,-14.625523,-14.523265,-5.663748,3.211948,11.708496,28.343316,34.826738,38.734798,28.646757,44.335376,50.641019,53.569347,40.7972,58.11288,62.612139,62.731194,48.516064,64.672133,67.922057,66.67581,-8.592024,340.167505,-67.481432,304.76976
31,-22.409992,-17.929603,-0.40163,-0.108989,13.227425,26.284733,37.171154,43.083172,10.665607,35.805187,54.889698,68.636456,1.995449,30.527172,50.46175,66.57423,-3.530216,22.607689,42.753468,57.921581,-6.06348,8.550167,24.29987,38.524418,-16.078634,-23.563772,-21.894473,-17.672906,-7.339407,7.39171,16.342741,20.25395,9.468129,25.193612,32.780453,35.820611,22.963311,37.831452,41.88481,42.472674,33.551284,47.609135,47.728437,44.976962,23.344002,46.417408,67.107582,83.578033,46.72205,78.501434,95.421295,107.909317,37.362728,72.250099,91.949501,105.688705,27.831459,60.747414,79.362488,92.444916,19.351158,44.99897,59.917374,72.103844,-14.33684,-14.760263,-6.282734,3.041208,11.563629,27.984113,34.478096,38.407459,28.329484,43.810497,50.310839,53.406635,40.406876,57.556015,62.44072,62.905083,48.178845,64.276992,67.804237,66.899223,-31.055002,322.215271,-67.936049,304.638139
32,80.362759,-17.69915,-0.066032,-0.662705,-25.31662,-50.778694,-73.041058,-92.709846,-74.676876,-72.148933,-45.872612,-25.142441,-75.359287,-67.841434,-40.463104,-14.256706,-72.37833,-65.980854,-38.767548,-13.519707,-66.81633,-69.657841,-54.610691,-36.625671,20.417897,31.089542,40.576381,49.04193,27.492827,42.511886,49.5171,53.244169,29.196089,41.443048,50.643304,53.234104,29.137364,40.950403,48.051515,50.369379,28.215183,39.222627,42.515159,45.216122,23.421364,46.362019,67.051277,84.080429,46.266518,78.622398,96.099701,108.890762,36.825085,72.278023,92.512894,106.467476,27.47715,60.954437,79.924965,93.018608,19.426804,45.639038,60.992947,73.450699,-14.083046,-14.013083,-5.412671,3.013173,12.177305,28.412661,34.808707,38.845517,29.050543,44.338525,50.488001,53.658885,41.296761,58.218968,62.764045,63.188023,49.045018,64.955814,68.143926,67.019822,49.13784,304.473544,-68.171997,303.932857
33,-11.065979,14.585941,-0.106316,-1.145717,-5.025558,-15.507889,-25.741081,-32.17392,-46.304913,-37.424927,-19.428291,-4.749985,-53.30143,-43.582878,-22.307281,-2.46357,-55.232906,-49.559097,-29.986725,-12.695274,-53.39819,-54.018116,-44.09174,-33.459091,-16.50428,-19.21784,-13.101338,-9.535005,0.180435,12.20361,17.32167,19.911606,16.064617,26.01267,30.215835,31.956888,29.03739,36.329805,38.512126,39.104375,39.246524,46.762537,47.001264,46.22111,23.446369,46.204433,66.85009,84.951553,46.585808,78.911362,96.010666,108.952904,37.675495,72.740364,92.670135,107.028809,28.77903,61.688747,80.875626,95.065727,20.83992,46.705112,62.034073,74.945412,-14.363022,-14.230876,-5.435148,2.769691,13.272757,28.845902,34.800309,38.15311,30.086591,43.934245,49.388782,51.412035,41.909881,57.403862,62.021867,62.172785,49.183277,64.447979,67.706116,66.653456,37.963972,318.889023,-68.386202,302.616678
34,18.414574,-17.311543,-0.347557,-5.050443,-26.203194,-55.774498,-79.637661,-100.403881,-79.172974,-86.236382,-61.243057,-40.287094,-75.169201,-77.072182,-50.870705,-24.751625,-69.036198,-72.244606,-48.538284,-24.213638,-60.668564,-73.117733,-62.543621,-46.810684,39.458143,56.329282,61.538917,66.780107,42.565362,53.076085,60.589875,65.847428,26.414294,35.088437,47.950306,53.573237,9.432931,17.729099,31.040574,38.357997,-7.595795,-3.542065,3.750905,9.789355,23.216171,46.320648,66.612625,84.768677,47.029781,78.55854,95.431366,107.826691,38.091087,73.166313,93.352661,107.795906,29.017811,60.683899,79.726868,93.70903,20.559196,44.57674,59.132824,72.533684,-16.865767,-15.518496,-4.653635,3.181937,11.652488,28.159114,35.509142,40.533156,29.156692,44.823327,51.948954,56.054924,41.271999,57.916699,64.010045,66.268937,48.564661,65.079809,69.827242,70.477289,56.255322,301.453331,-68.856983,297.442086
35,-0.93544,-9.135109,-1.425304,-11.092412,-18.378067,-40.841904,-58.173637,-70.7547,-60.207825,-80.526638,-68.937664,-54.411392,-57.288322,-74.769287,-62.56691,-45.214462,-50.269432,-67.396946,-59.716415,-45.689392,-40.481186,-57.057953,-59.471397,-54.457855,36.814855,57.150809,69.961303,77.453604,42.49614,52.68539,60.887018,61.228868,26.144507,36.809544,48.507357,49.330737,7.863359,16.359166,26.084177,26.821847,-8.975175,-8.726383,-5.109291,-5.445337,26.381207,49.199467,68.544559,85.825939,48.742332,77.891178,93.962803,106.574306,38.980865,68.980007,87.453289,101.441975,28.754368,55.039101,72.611217,85.234966,18.833256,39.271088,51.956234,62.268276,-18.226437,-16.961418,-7.711453,-1.611253,7.650012,26.830492,36.772432,44.032799,24.273284,45.144244,55.780135,62.167166,36.623984,57.809377,67.733595,73.7726,45.560998,65.106423,72.801142,76.584713,55.232592,292.2804,-70.369577,286.311852
36,-11.664848,-5.924396,6.181755,-11.66101,-28.569374,-46.413002,-56.569405,-57.253704,-41.831703,-59.899921,-64.166451,-65.441895,-31.160088,-47.535095,-52.073364,-54.077168,-19.001656,-31.917801,-39.037628,-44.311981,-6.135635,-11.13739,-15.574379,-20.008392,-1.585442,7.313534,21.579422,29.831439,10.855352,22.350438,24.18072,23.610394,17.75596,32.527091,38.510953,39.128025,23.34709,40.385943,47.736218,49.779045,26.462275,43.245913,54.138747,61.810495,23.412895,44.110909,58.154984,69.731655,44.413033,69.549236,79.198895,83.161869,36.981869,63.107929,72.119923,73.52869,27.71513,50.804901,60.297375,64.064655,17.669334,36.269474,46.362705,51.522331,7.1649,18.487456,30.246216,41.614529,17.15482,31.40558,43.421593,53.055089,21.66964,41.88691,56.206583,65.459944,26.456902,47.09247,55.962855,60.923512,31.731993,46.654165,51.452049,54.622068,43.492899,286.195746,-64.262667,274.490585
37,64.521561,-85.081076,-16.485901,-62.248306,-39.162598,-69.750938,-86.021233,-92.838936,-80.091133,-104.104729,-110.437431,-110.60257,-70.528793,-94.619751,-102.594681,-104.445419,-57.468109,-79.842567,-88.666077,-92.967682,-42.480469,-58.072014,-65.722046,-71.769676,-5.970277,10.864676,28.933958,44.767567,28.944024,63.565504,80.029954,87.712632,40.009944,81.738218,98.417436,105.877936,49.583605,87.377142,102.23145,107.914773,56.33521,85.265833,99.632252,107.915637,43.810844,74.549103,90.729733,97.256184,99.457912,129.427242,130.253391,122.57761,86.498737,115.980778,114.126606,103.839397,69.420662,96.029263,94.234486,83.735447,48.656559,72.68486,74.21608,68.341942,-11.437411,-4.117209,11.443525,29.08148,18.88482,48.030026,65.635563,74.639637,31.444977,64.054752,77.073777,80.866919,42.564003,70.005701,76.361671,75.732249,51.53288,71.662897,73.503738,71.146416,107.917814,201.090587,-80.845213,212.218197
38,-1.985321,-46.938526,-19.235172,-52.0183,-28.730049,-56.100311,-73.573265,-84.144173,-63.989754,-90.381088,-98.865395,-101.315804,-53.752213,-82.621651,-91.442986,-93.442726,-41.136246,-67.765388,-76.450768,-79.527626,-27.099495,-46.209755,-53.909225,-58.199158,-11.155768,-3.500322,15.406543,32.375926,14.540987,40.348769,54.452995,63.176044,27.959475,57.671983,71.814926,79.018544,38.535221,65.235358,79.200646,87.243143,47.090247,70.037441,81.148933,87.144096,34.224129,67.16423,86.629314,94.352531,84.729652,114.750023,117.374268,113.369408,75.831757,105.397682,105.135727,98.6903,62.794991,90.145626,83.012581,71.629658,46.42971,71.659241,67.457771,58.499165,-16.06085,-12.685017,-0.033592,11.473844,1.885611,22.47715,28.961437,31.478384,12.951593,34.478034,37.299719,38.454699,23.294417,42.135394,37.034501,31.785963,33.062467,46.859918,42.286867,37.302189,105.496559,154.425585,-100.516319,160.47342
39,22.112274,-49.900878,-18.890591,-42.592532,-25.833664,-56.162453,-80.30777,-94.384918,-56.895218,-97.412796,-104.438553,-100.876579,-51.356049,-91.554337,-97.635384,-93.317871,-46.43383,-83.382797,-86.247826,-78.633041,-41.196098,-69.607658,-72.598,-67.310944,-23.402295,-27.92156,-12.434094,4.257907,-40.011797,-20.868428,1.876502,14.565502,-24.731164,-2.58586,17.188659,25.220906,-6.41349,16.25135,28.220185,29.822794,13.024829,30.133584,35.921882,35.756144,19.783974,50.32465,79.455643,94.462624,51.626301,93.009281,89.157257,78.105469,50.858173,93.120975,88.329563,76.994076,49.433098,89.601746,83.554173,71.87479,48.000126,80.195904,75.457821,65.377235,-34.481893,-52.735068,-49.594411,-36.4157,-47.328017,-45.288678,-38.984548,-36.892444,-24.023411,-21.351162,-18.449665,-17.978602,-1.134015,0.670486,0.276333,0.884575,20.138909,19.131451,15.894,14.51956,127.740898,105.142102,-119.274845,118.498284
40,5.156479,-54.751404,-3.844013,-60.270038,-28.964081,-57.843018,-77.755051,-79.010811,-40.285492,-74.413948,-84.640045,-81.685181,-27.866478,-68.441277,-78.951988,-74.610443,-19.531288,-58.937302,-66.550941,-60.543938,-14.865417,-47.794075,-54.233665,-49.511147,-22.250279,-34.110773,-27.260584,-9.528737,-53.874795,-54.483469,-35.840464,-24.990114,-42.095688,-35.694826,-20.200814,-11.606515,-26.150219,-18.517065,-7.502181,-2.077562,-7.754123,-1.966102,4.222061,6.912465,17.47633,43.033333,72.342052,89.492226,27.273045,72.518692,79.115353,74.043274,25.165672,75.714798,80.208321,72.04422,26.822319,73.963337,72.831745,63.833084,30.266762,66.237431,65.589581,58.699379,-36.863823,-54.869687,-51.395238,-37.546504,-56.662826,-62.003064,-49.85225,-43.052881,-35.523067,-41.249769,-32.395162,-27.689934,-13.783371,-19.162079,-14.026019,-11.30684,6.993296,0.676383,0.136715,-0.220511,134.176941,50.704545,-121.839294,58.542092
41,-9.115906,-44.032768,-8.497353,-44.734098,-30.789299,-48.188438,-56.666679,-57.376328,-47.386322,-57.81395,-59.729691,-57.23671,-35.58815,-47.848778,-50.74585,-47.742119,-23.418045,-35.07019,-39.079514,-36.55632,-11.690025,-22.251205,-27.444992,-27.541809,-16.669956,-34.328968,-46.864024,-52.609159,-58.094263,-76.307794,-66.848217,-55.918055,-58.097659,-72.328505,-61.455616,-50.94514,-54.359937,-67.084999,-57.230344,-46.648824,-48.173102,-59.027528,-52.047292,-43.786229,22.730484,44.826908,66.518726,79.081707,34.679146,74.172993,80.586262,76.690865,28.825951,74.208469,78.239536,70.38929,27.170391,70.731411,71.598415,62.75116,27.907162,63.179569,64.974289,58.710537,-32.832972,-52.470035,-58.321041,-55.553295,-62.649992,-76.201398,-64.163927,-56.690367,-48.3004,-61.507949,-50.331186,-41.588007,-31.549088,-44.622731,-36.54587,-30.468981,-13.573451,-26.239078,-23.216673,-20.542664,125.427876,6.628181,-129.969807,13.764398
42,3.773804,-24.789502,10.1334,-39.837753,-29.617424,-46.663056,-57.380848,-62.975064,-39.977818,-59.670525,-69.777604,-72.302456,-30.434533,-54.905091,-65.911332,-67.471905,-22.548066,-45.328846,-54.779435,-54.938107,-15.940075,-33.791657,-42.913399,-45.255833,-20.093754,-39.381217,-51.659932,-57.832271,-66.455547,-85.054771,-79.0124,-70.946839,-62.822307,-77.56284,-69.65201,-61.26067,-53.691752,-64.591888,-55.976548,-47.470136,-41.622649,-50.817224,-46.019649,-40.782674,14.503155,32.757225,49.74884,61.228237,34.237461,62.727585,64.982243,60.310993,32.077045,63.975391,63.887615,57.649612,31.368771,61.407223,59.736557,53.175716,30.646362,53.21085,54.386959,51.542816,-27.709355,-45.697775,-51.669812,-50.228495,-62.698806,-75.02039,-64.19508,-56.521356,-53.224594,-64.803013,-52.906518,-43.256164,-40.268679,-51.03298,-41.599462,-34.646736,-24.336949,-33.300299,-28.827964,-25.624692,126.552143,-13.858351,-122.485943,-21.770386
43,3.773803,-24.789503,-11.652489,-0.104636,-28.445549,-45.137672,-58.095016,-68.573799,-32.569313,-61.5271,-79.825516,-87.368202,-25.280914,-61.961403,-81.076813,-87.201691,-21.678085,-55.587502,-70.479355,-73.319893,-20.190125,-45.332108,-58.381805,-62.969856,-23.517552,-44.433466,-56.455839,-63.055383,-74.81683,-93.801747,-91.176583,-85.975623,-67.546954,-82.797175,-77.848405,-71.576199,-53.023566,-62.098777,-54.722752,-48.291447,-35.072196,-42.60692,-39.992006,-37.779118,26.937447,46.629009,64.094353,76.829967,27.72892,49.518871,66.828976,78.604889,22.468357,48.051567,67.949696,82.162914,20.460835,52.435913,68.365402,75.635319,22.559338,48.030567,59.804649,65.557766,-16.700368,-33.004669,-39.690695,-45.751868,-63.937179,-80.668793,-88.216546,-92.58687,-58.204919,-79.540737,-87.050606,-91.63332,-47.449881,-61.786505,-63.012374,-62.676946,-32.632376,-43.988029,-47.823317,-49.025721,130.301685,-36.171971,-134.162693,-19.399139
44,9.865494,0.676877,-2.967911,-13.053728,-29.999084,-48.447304,-63.812714,-76.120033,-39.691429,-58.484459,-72.904701,-84.685364,-37.948036,-59.376411,-78.217278,-92.080994,-39.923973,-71.432762,-76.297531,-72.460556,-45.459709,-72.211189,-76.620598,-72.759018,-14.679246,-30.052011,-35.407779,-38.023835,-63.992508,-86.614061,-97.954401,-105.977755,-61.203458,-87.358925,-98.253581,-104.436187,-50.492139,-57.360421,-45.418354,-37.930746,-35.648173,-39.898855,-32.992967,-27.385875,20.179539,40.382938,57.846851,74.511852,30.083427,46.036549,60.534725,74.138889,31.213703,48.298473,66.097813,81.634026,35.639534,62.027206,74.837494,79.324837,42.140694,67.280159,80.734863,87.176342,-20.583481,-34.803798,-38.839249,-38.656067,-60.323329,-81.439407,-94.705063,-104.019341,-52.469356,-75.90444,-89.843422,-97.784587,-38.92431,-50.867149,-51.545539,-50.017988,-22.586386,-27.758508,-29.965128,-31.34102,140.528898,-35.649763,-136.768885,-32.607537
45,0.855446,-4.442942,-3.898144,-7.413415,-18.533363,-40.582581,-59.250183,-72.053719,-42.913399,-58.845749,-69.016113,-77.644501,-43.046494,-61.431656,-74.513626,-85.373611,-45.116615,-74.162865,-78.637962,-76.707573,-47.836876,-72.610588,-75.327301,-72.116089,-25.164281,-38.671875,-41.174495,-38.982387,-56.738255,-83.696941,-99.422393,-112.597924,-48.956931,-76.281303,-92.483561,-105.207635,-35.009273,-45.11763,-39.296449,-35.894496,-17.8953,-20.909925,-17.969648,-15.35918,18.936653,40.609989,59.573879,76.213875,34.023571,49.485683,63.357754,74.50573,33.852367,51.347923,67.422695,80.932159,35.893593,63.104382,66.690674,63.172417,39.92569,62.765636,70.555916,71.821518,-15.022455,-25.232608,-25.794073,-22.150768,-54.318256,-78.865712,-94.92508,-106.710146,-48.068281,-72.492174,-87.177348,-98.720816,-34.683817,-38.657765,-30.665131,-27.04174,-17.751854,-19.306328,-16.457565,-14.817413,140.922346,-40.187832,-141.129026,-40.116078
46,9.631577,-2.369178,-8.827515,-3.426716,-29.359016,-50.57991,-68.653679,-82.980537,-47.586823,-59.455261,-67.921371,-75.211143,-41.239243,-55.751038,-64.566536,-70.775414,-34.455528,-49.550514,-59.608612,-68.352928,-29.158745,-43.094559,-52.0467,-59.42585,-9.324744,-18.545964,-19.931674,-22.013219,-53.814434,-79.248009,-98.039755,-114.250242,-51.344974,-80.603492,-102.481323,-122.037648,-42.5004,-66.716596,-84.935191,-100.55894,-28.277119,-41.285584,-50.767422,-59.138956,32.115555,52.969494,70.210819,82.660789,40.169678,48.41589,59.927845,70.219288,31.17485,35.647202,48.036404,57.226753,24.75935,28.728962,39.102917,46.167068,21.689472,26.216583,33.937855,40.075264,-6.377675,-14.338971,-13.547948,-13.679723,-51.299093,-73.839537,-88.940168,-99.544952,-50.63154,-77.00403,-94.00574,-107.386606,-43.447682,-66.430043,-82.239415,-95.221173,-30.833092,-46.835279,-57.687328,-67.107198,150.022287,-42.537481,-150.488176,-43.523265
47,35.021782,-2.548269,-38.552084,0.256619,-30.324668,-52.626457,-71.604251,-88.114929,-49.745693,-59.787883,-67.77935,-75.063171,-42.974739,-52.516536,-61.013488,-68.240547,-36.268043,-47.421569,-57.179889,-66.471576,-31.610641,-44.66526,-54.308509,-61.839637,-9.332711,-20.39701,-21.788185,-23.342922,-58.992454,-85.989996,-103.115578,-117.834792,-56.804791,-89.428444,-108.330963,-124.53096,-47.622597,-74.67184,-91.276596,-105.601232,-32.69567,-46.329111,-53.326421,-59.584764,35.541572,57.841587,75.681953,89.33999,41.694774,47.077675,56.694717,66.523876,33.015604,33.51182,45.422716,55.705204,27.889767,30.780744,41.478052,49.4664,26.85339,35.566034,45.804519,53.529196,-9.766476,-21.294244,-22.045514,-22.940911,-61.413301,-87.156909,-103.223995,-113.036599,-58.468285,-88.884917,-104.185789,-114.328788,-49.399805,-74.295348,-87.962404,-97.658446,-35.031425,-48.929869,-55.7295,-61.434049,183.23699,-54.926698,-190.847339,-53.107593
48,35.021782,-2.54827,-38.552084,0.256619,-31.290321,-54.673004,-74.554825,-93.249321,-51.904564,-60.120506,-67.637329,-74.915199,-44.710236,-49.282036,-57.460442,-65.705681,-38.080559,-45.292625,-54.751167,-64.590225,-34.062538,-46.235962,-56.57032,-64.253426,-9.340676,-22.248056,-23.644696,-24.672624,-64.170472,-92.731983,-108.191399,-121.419341,-62.264608,-98.253396,-114.180603,-127.024272,-52.744794,-82.627084,-97.618,-110.643524,-37.114221,-51.372638,-55.88542,-60.03057,38.96759,62.71368,81.153088,96.019192,43.219872,45.73946,53.46159,62.828465,34.856358,31.376438,42.809029,54.183655,31.020184,32.832527,43.853188,52.765732,32.017307,44.915485,57.671185,66.983128,-13.155277,-28.249517,-30.543081,-32.202099,-71.527509,-100.474281,-117.507823,-126.528246,-66.30503,-100.765804,-114.365839,-121.27097,-55.351927,-82.160652,-93.685394,-100.09572,-39.229759,-51.024458,-53.771672,-55.7609,216.772814,-60.140996,-230.885382,-55.517001
49,4.870949,2.163333,-7.285023,-2.635477,-31.171188,-52.413483,-71.366959,-84.94915,-40.178032,-44.445992,-47.390099,-52.137451,-29.837036,-28.107491,-29.748573,-33.136024,-21.333847,-18.052139,-21.065712,-25.631905,-15.464859,-10.780792,-12.769203,-16.418037,-9.139555,-21.611378,-24.453287,-26.289775,-65.561153,-93.18906,-110.883609,-127.144037,-61.179838,-93.111902,-111.108288,-127.115847,-50.713082,-77.020363,-95.337171,-110.339357,-35.22827,-50.820373,-61.494395,-69.837833,35.12701,58.923454,80.129757,94.559727,34.950657,34.058247,40.134373,48.948097,25.24847,15.868492,23.76812,31.102009,19.291649,10.924129,17.541046,23.511887,18.670864,15.513783,21.160011,26.776772,-12.069797,-24.457764,-25.895684,-29.023002,-61.207348,-89.435839,-108.388553,-121.837762,-57.938775,-89.298182,-108.143836,-121.145787,-47.64492,-72.609963,-90.368054,-104.158681,-31.553812,-48.303087,-57.323,-64.320279,222.321596,-57.4932,-237.492571,-57.668015
50,7.656212,-0.469921,-2.417622,-1.915868,-28.470039,-49.264526,-67.590981,-83.239288,-37.319527,-42.878036,-47.737427,-54.86927,-26.460228,-24.819603,-27.4506,-31.413918,-17.869949,-14.44519,-15.442657,-18.437347,-12.275505,-10.083961,-12.822762,-16.426048,-9.364079,-20.335738,-21.759301,-22.106925,-61.141646,-89.640665,-106.266994,-122.04867,-55.343992,-88.024626,-106.192631,-123.516725,-43.81661,-68.94767,-86.233277,-101.740396,-27.451516,-40.899613,-47.723219,-52.56791,34.135666,53.601036,74.285831,89.133453,33.638592,31.072311,35.347824,43.236351,24.097939,17.719059,24.528065,31.984806,16.978683,11.690254,17.876873,24.868412,14.133625,14.908218,23.325005,30.68985,-10.379781,-21.533418,-23.734203,-23.578746,-57.964649,-87.971953,-105.987882,-120.8111,-51.779635,-83.595052,-102.651847,-117.975814,-37.478857,-62.732861,-79.168906,-92.676747,-17.970111,-32.112931,-37.280206,-40.608522,230.361643,-57.498711,-239.526358,-59.119474
51,1.980858,-0.187721,-0.497303,-1.613507,-27.955971,-49.884911,-68.732185,-87.41478,-36.303291,-41.191864,-46.982346,-54.178963,-26.332169,-26.035423,-30.037422,-34.104195,-18.216019,-16.121864,-18.918228,-22.443352,-12.550621,-11.181107,-14.667778,-17.696915,-7.662145,-18.635255,-19.70079,-20.54995,-58.287603,-86.509301,-104.006111,-119.667868,-53.45304,-85.150823,-102.801993,-119.586033,-42.122426,-67.832642,-84.084949,-98.353494,-25.491095,-40.668327,-49.073485,-55.26665,33.713779,53.749638,74.416466,92.257462,34.762402,33.97728,39.929638,49.015446,25.207787,22.178192,31.018581,40.648384,17.843399,16.251755,24.605484,32.918015,14.618511,19.012814,29.076462,36.955605,-8.271437,-18.779566,-21.146892,-22.044743,-54.917976,-84.014307,-102.356557,-116.590057,-49.55239,-80.656999,-98.777534,-113.986506,-36.611109,-61.732504,-76.932337,-89.733151,-18.491223,-31.469893,-35.483361,-38.831747,231.755791,-57.247973,-240.610371,-60.294523
52,0.252571,-1.429646,1.069794,-1.149175,-28.680954,-51.61171,-70.306549,-88.654404,-38.858986,-42.868767,-48.98037,-56.667137,-28.422432,-28.703499,-33.589897,-37.956047,-19.595146,-18.434029,-22.274094,-26.125031,-13.234177,-12.377472,-16.669006,-20.004845,-6.923147,-17.83707,-17.787762,-17.541131,-54.833254,-82.856548,-100.501142,-116.04616,-49.786949,-81.319612,-99.488451,-116.732377,-38.290473,-63.482789,-79.23782,-93.310445,-21.727253,-35.712301,-43.739916,-49.891616,33.656044,54.057655,75.334053,94.690704,35.008163,34.478817,41.431332,51.215801,26.055965,23.795357,32.929802,42.354355,19.610138,19.411812,27.599773,34.969883,17.383518,22.588863,31.200256,37.096939,-7.418293,-18.527871,-20.932587,-21.697767,-53.747373,-81.167459,-99.386161,-113.53897,-48.153743,-78.767282,-97.448263,-112.931407,-35.738267,-61.023239,-77.14868,-91.016865,-18.817728,-32.26916,-38.085647,-43.624567,231.789351,-58.998489,-239.759588,-61.764568
53,-2.613144,-0.365562,0.617237,-2.859723,-27.691498,-49.823914,-67.978935,-85.995369,-35.84507,-39.712372,-46.232185,-55.172882,-24.944687,-24.783096,-29.595337,-34.525681,-15.638924,-13.890495,-17.377281,-21.782913,-8.699913,-7.497826,-11.315575,-14.831886,-7.234153,-17.284095,-17.641784,-17.653578,-54.317793,-82.789889,-100.732459,-116.829834,-47.862775,-79.00042,-97.404066,-115.112339,-35.557307,-59.78996,-76.624326,-91.956676,-18.58919,-31.271582,-38.222671,-43.377935,33.801556,53.978291,75.641098,95.013771,32.962761,33.458462,41.449471,51.822624,23.850174,22.940712,32.785034,42.970905,17.423859,19.045486,27.086563,34.07238,16.326084,23.481617,32.904053,39.746189,-7.448335,-17.821941,-19.700512,-20.69068,-52.732721,-79.121266,-96.923354,-111.404412,-46.623321,-76.291739,-94.515304,-110.010057,-33.434328,-57.73293,-73.642831,-87.643641,-16.511906,-29.383625,-33.883069,-38.349445,228.616962,-59.507776,-239.701595,-64.768016
54,-2.136154,-1.641172,0.946426,-1.876564,-26.640358,-48.824959,-66.990395,-84.708481,-33.976021,-37.565689,-43.73703,-52.518997,-23.060532,-23.106995,-27.976227,-33.345222,-13.903656,-12.23774,-15.634689,-20.593987,-6.848488,-5.598793,-9.55307,-13.843803,-6.626406,-16.015463,-16.065543,-16.042387,-52.482138,-80.508458,-98.149779,-114.172591,-46.649812,-77.339489,-95.561927,-113.585499,-34.901209,-58.58524,-75.478362,-91.558077,-18.619633,-31.023098,-37.604889,-43.030682,33.821754,53.412151,75.106258,94.090576,32.026291,31.614704,38.557949,48.262997,22.885208,20.561085,29.305172,39.101601,16.333523,16.565666,23.741341,30.870667,14.46682,20.508728,29.123211,35.853081,-6.695474,-16.821244,-18.378374,-19.954244,-51.831443,-77.941802,-95.157786,-109.313358,-45.739333,-75.906231,-94.41638,-109.775282,-32.467317,-56.890963,-73.608004,-88.09922,-15.108597,-28.80277,-33.784824,-38.696266,226.15634,-60.909001,-239.079638,-66.404633
55,-2.617035,-0.10655,2.424545,-1.504549,-24.928665,-46.394691,-64.56562,-82.261276,-31.701851,-35.20649,-40.95417,-49.409981,-20.608406,-20.67627,-25.833092,-31.784248,-11.39637,-9.881401,-13.760948,-19.158897,-4.439392,-3.069878,-7.258072,-11.857567,-4.891652,-14.185706,-14.945421,-14.836648,-51.304743,-78.872998,-96.170894,-111.574473,-46.418093,-77.000417,-95.381786,-113.471847,-35.070066,-58.760025,-75.607544,-91.544847,-18.997977,-30.872273,-36.047143,-40.024085,33.776722,51.770782,72.427311,90.734367,28.448296,27.377129,34.116898,43.745041,19.117985,16.006622,24.718609,35.016632,12.351265,12.153397,19.604244,27.802334,10.191822,16.370831,25.553627,33.377438,-7.487392,-16.693051,-17.915956,-19.073406,-51.750272,-77.916979,-94.841593,-108.551991,-45.646368,-75.144107,-93.011851,-107.489374,-31.929656,-55.125457,-71.266706,-84.85368,-13.866271,-26.851055,-31.204428,-35.250964,223.307819,-60.781563,-236.886578,-67.675194
56,-1.556511,-1.251434,2.82835,-2.778028,-24.384384,-45.388184,-63.281822,-80.88501,-30.624733,-34.164734,-40.274391,-49.339027,-19.663124,-19.517097,-25.750694,-32.647934,-10.613022,-9.009361,-13.480682,-19.356079,-3.744507,-1.760674,-5.758896,-10.353813,-4.121778,-11.977635,-12.382347,-12.929054,-49.070953,-76.340583,-93.387865,-108.167857,-44.323736,-74.813928,-92.639188,-110.001875,-32.932267,-56.734519,-72.883826,-88.2054,-16.9135,-28.908054,-35.057314,-40.067527,32.15395,49.578094,69.699211,87.552624,25.524273,25.115662,32.335052,42.851486,16.472054,13.659554,23.840618,35.776978,9.888897,8.528595,17.259178,27.145958,8.066483,12.27951,22.107124,31.187897,-7.989361,-16.285776,-16.639266,-16.508263,-50.584178,-76.857882,-93.908298,-107.279902,-44.201995,-72.661525,-89.599801,-102.908698,-30.703262,-53.135859,-67.100128,-78.017091,-13.290171,-25.823806,-29.146627,-31.972727,221.689196,-61.972328,-234.12034,-70.392552
57,-1.88942,-0.188215,5.202999,-1.47284,-23.819733,-44.446678,-62.258034,-79.584846,-29.508362,-33.13488,-39.33712,-48.435974,-18.365707,-19.247818,-26.413536,-33.859978,-9.074135,-8.371353,-13.591347,-19.797363,-2.030869,-1.224174,-5.491333,-10.046425,-3.341716,-10.899658,-11.374704,-11.917397,-47.615434,-74.881668,-92.180289,-106.918739,-42.960472,-73.452053,-91.482788,-108.555773,-31.369086,-54.874812,-71.016988,-85.84763,-15.114463,-27.020961,-33.444394,-38.6142,30.631371,46.996536,65.785275,81.703262,22.385387,21.033211,27.727089,38.5116,12.962437,7.944603,17.645531,29.476662,6.368237,2.150288,10.865021,21.095867,4.354877,6.235027,16.751804,26.77002,-7.398533,-15.202272,-15.541467,-15.571107,-49.795223,-76.08875,-93.199912,-106.159934,-43.330727,-70.202407,-86.536672,-98.998044,-30.018543,-50.207994,-63.503167,-73.567249,-13.164138,-23.796911,-25.560225,-26.70094,219.882545,-62.166471,-228.834572,-71.87132
58,-2.975006,-0.378468,3.037949,-1.690541,-23.399277,-43.298149,-60.587654,-77.613716,-29.013176,-32.164421,-38.050575,-47.563591,-17.80632,-18.073082,-25.373955,-33.429794,-8.576775,-7.66674,-12.951393,-19.54834,-1.627808,0.141335,-2.841568,-6.182327,-4.341517,-10.629438,-9.940303,-10.203298,-46.489631,-73.298974,-90.597349,-105.612409,-41.500908,-71.556069,-89.090592,-105.838215,-29.604877,-52.577049,-68.579699,-83.563899,-13.588981,-24.987706,-31.013249,-36.213282,29.642715,45.416508,64.093609,79.943733,21.25803,18.838348,25.510254,37.223225,11.321239,5.499058,16.498604,29.021759,4.623814,-1.371746,7.918739,18.223572,2.377224,1.912937,11.905518,21.73851,-8.071952,-14.666032,-14.104566,-13.752897,-47.534634,-73.353098,-90.720294,-103.884571,-41.202808,-66.663738,-82.855097,-95.559056,-28.291631,-47.361084,-60.388013,-70.725495,-12.51085,-20.718159,-22.831196,-24.62625,216.949053,-62.568173,-225.75511,-73.585095
59,-3.894653,0.026244,2.119217,-0.974205,-22.498856,-41.727104,-58.447151,-75.209312,-26.553612,-29.784622,-35.503006,-45.221672,-15.454216,-15.957069,-23.583183,-32.407608,-6.350441,-5.661507,-11.299782,-18.422928,0.305557,1.924782,-1.156311,-4.918671,-4.337349,-10.517268,-9.446856,-9.47205,-46.570092,-72.879411,-90.029523,-105.0586,-41.538175,-70.57504,-87.730339,-104.034408,-29.495578,-51.462176,-67.022323,-81.505388,-13.258122,-23.60567,-28.825432,-33.525101,27.983837,43.299694,61.905384,77.437992,19.401169,17.387123,23.941269,35.526695,9.316978,4.542446,15.58279,28.110008,2.47015,-2.849121,6.545963,17.183132,-0.037479,0.610714,10.729523,20.74316,-8.067475,-14.2042,-13.447109,-13.687936,-47.256417,-72.282886,-89.538452,-102.247706,-40.914897,-65.93746,-81.927529,-94.406454,-28.011222,-46.613348,-59.672881,-70.253289,-12.533821,-20.345834,-22.660394,-24.822894,213.109674,-62.530675,-223.580618,-74.548046
60,-1.806793,-0.710685,-34.318428,28.436528,-21.889801,-40.713844,-57.140808,-73.653946,-25.607758,-28.752594,-34.971313,-44.699478,-15.157585,-15.096245,-22.53891,-31.219711,-6.407661,-5.672493,-11.154442,-18.238106,0.14225,1.757584,-0.808525,-4.516411,-3.815959,-9.761382,-9.081571,-8.899037,-46.256462,-72.434777,-89.331125,-103.735042,-41.233251,-70.298985,-87.466464,-103.824318,-29.449049,-51.327282,-66.405868,-80.603338,-13.772411,-24.624088,-30.509304,-36.079129,43.07373,68.164959,89.119205,107.426891,49.726181,53.717537,61.831055,72.262802,39.604454,36.155834,48.103065,61.332893,32.665844,35.558567,48.954678,61.111279,30.712738,42.763252,58.715458,70.718365,-19.900305,-33.923206,-36.809637,-37.555335,-73.535015,-103.385813,-119.268914,-130.587919,-66.366749,-99.577788,-111.835322,-121.724542,-53.388109,-78.168395,-87.074534,-94.020251,-35.094859,-45.921867,-48.497075,-51.0411,211.397724,-63.262216,-257.804203,-46.132374
61,-1.302681,-0.816464,4.441509,-4.442479,-21.817245,-40.496292,-57.410088,-73.805466,-25.573769,-28.733368,-34.818535,-44.820213,-15.121765,-15.318832,-23.238602,-32.340889,-6.425629,-6.516724,-12.337074,-19.368782,-0.193062,0.784378,-2.338142,-6.120987,-2.932712,-8.472928,-8.075873,-8.366749,-45.735041,-72.173295,-89.207455,-103.67993,-41.486582,-70.882526,-87.983484,-104.027847,-30.219108,-52.404086,-67.613552,-81.695687,-14.748808,-24.678336,-29.952747,-34.798518,40.570793,64.472637,85.01564,104.415436,45.993919,49.920158,58.088264,68.915863,36.550369,34.016533,44.380074,56.107693,30.877876,32.618008,44.057465,53.690357,29.544926,38.341255,49.736023,57.481441,-16.909671,-31.287236,-35.562958,-38.133319,-68.380492,-97.641897,-115.19896,-127.797186,-61.931155,-92.975372,-108.807622,-122.626562,-49.585303,-74.562079,-88.095268,-99.567985,-32.887714,-45.4475,-52.243782,-58.479307,210.15192,-64.099305,-253.305817,-50.595478
62,-1.811485,0.273184,2.310104,-3.598104,-21.568565,-39.925919,-56.641502,-73.067093,-25.01255,-28.807297,-35.319328,-45.426979,-14.566727,-14.353409,-22.810593,-32.272568,-5.776176,-5.820694,-12.098122,-19.171715,0.459824,0.784492,-2.639008,-6.559067,-3.266381,-8.911109,-8.381538,-8.580127,-46.314847,-73.192794,-90.167118,-104.259179,-41.608663,-70.89818,-87.857035,-103.78966,-29.607964,-51.736409,-66.814409,-80.490983,-13.473075,-22.796986,-27.57758,-31.867936,39.379292,63.215218,84.084435,103.790016,44.848537,47.555809,56.096134,67.622395,35.169067,31.747227,42.658253,55.243835,28.917904,29.090767,40.960808,51.559238,27.202606,35.449734,47.264099,55.826283,-13.812826,-27.454202,-30.881721,-32.867861,-64.387494,-92.936794,-110.365801,-122.740275,-58.239561,-89.499225,-104.712258,-117.673499,-45.526881,-70.612059,-83.299114,-93.69319,-28.128856,-40.462451,-45.86833,-50.555865,208.374367,-64.024155,-250.961781,-54.391615
63,0.452843,1.275733,3.036003,-2.512007,-22.269402,-40.699883,-57.164726,-73.519363,-25.999832,-29.716072,-35.937195,-45.455246,-15.534439,-16.083412,-25.542526,-35.619965,-7.07016,-7.406158,-14.323082,-22.048187,-1.422157,-0.150261,-2.872238,-6.562729,-3.184808,-9.302206,-9.512713,-10.403771,-46.244884,-73.698623,-90.013112,-103.499572,-41.547067,-71.600529,-88.178539,-102.903495,-29.494745,-52.396552,-67.360437,-80.722238,-13.193315,-23.218186,-28.272642,-32.766251,39.488926,62.753334,83.161926,102.277565,43.076363,45.162334,53.664436,65.357208,33.037376,29.148502,39.783554,52.222366,26.313457,26.103287,37.42733,47.83287,23.80434,31.214733,42.705173,51.186562,-10.734383,-23.205897,-26.845436,-29.123933,-60.019795,-89.220546,-106.532212,-118.994001,-54.400477,-85.270125,-100.361648,-113.537333,-41.69641,-66.258593,-78.944382,-89.597995,-23.774773,-35.368753,-39.858409,-43.746091,208.886433,-62.738326,-247.866554,-56.893526
64,-1.869049,1.286693,2.55146,-0.634424,-22.219391,-40.711441,-56.926575,-72.503586,-26.49868,-30.150032,-35.664482,-44.774437,-15.739632,-16.445503,-25.581779,-36.075668,-6.695137,-7.408791,-14.179802,-22.542,-0.390701,0.629311,-2.173576,-6.16127,-3.575102,-9.203096,-9.321688,-10.348752,-46.302311,-74.169531,-90.209,-103.601877,-41.554631,-72.724572,-88.92402,-102.962112,-29.6477,-53.425191,-69.030199,-82.508523,-13.467302,-24.778094,-29.589439,-33.06645,37.925549,60.518131,80.88335,100.601006,40.622578,42.42342,52.689743,65.9519,30.604992,26.967373,38.93074,52.150612,23.838902,23.701744,35.723362,46.660309,21.676769,29.008999,40.640945,49.427147,-8.31636,-20.080277,-24.236635,-27.420394,-58.51398,-87.78173,-104.449834,-115.927213,-53.266183,-84.336582,-99.155693,-112.163217,-40.327805,-63.890218,-75.585684,-85.430954,-21.706721,-31.467331,-34.61691,-37.650214,207.090597,-61.488899,-245.24188,-57.565216
65,-0.120964,2.218106,1.459122,0.469149,-22.882919,-41.725273,-58.300323,-74.538689,-28.094673,-30.959015,-37.197762,-46.739845,-17.36618,-17.979584,-27.669411,-38.105278,-8.53054,-8.541527,-15.665703,-23.688927,-2.370529,-1.331062,-4.615746,-8.430061,-3.581277,-10.070504,-10.474784,-11.273217,-46.266928,-73.554682,-89.706738,-102.987322,-41.594429,-71.818446,-88.258876,-102.97846,-29.913258,-52.995099,-67.681693,-80.738849,-13.933301,-25.222542,-30.615823,-35.158091,37.304821,59.222546,79.231052,99.373684,38.869972,41.643105,51.711731,64.963589,28.778629,25.615196,37.281532,50.53299,21.833267,22.019634,34.403114,46.512966,19.35957,27.579174,40.592766,51.44228,-7.243262,-18.417431,-22.090129,-24.650517,-56.733191,-85.231284,-101.73703,-112.968705,-51.930367,-81.760232,-95.6525,-107.739371,-39.557098,-61.703358,-71.98931,-80.793869,-21.489329,-29.721307,-30.544502,-31.878033,207.006025,-59.542758,-243.746367,-57.368032
66,0.192032,1.792738,2.142792,0.529942,-23.022308,-42.32151,-59.39209,-76.389198,-29.862785,-34.132347,-40.832863,-50.21244,-19.075127,-21.836472,-31.616249,-41.646996,-9.896736,-11.30127,-18.505783,-26.282272,-2.973061,-3.159828,-7.392883,-11.477966,-2.906314,-9.875805,-10.94631,-12.354899,-44.613252,-70.876505,-87.186765,-100.487974,-40.58024,-69.711522,-86.257113,-101.186695,-29.658507,-51.688368,-65.493845,-77.783505,-14.753069,-25.623673,-31.113099,-35.373693,37.284508,59.482613,78.98695,98.817272,37.992382,40.756245,51.308956,64.838619,27.774467,25.572224,37.532959,50.841351,21.214027,22.903576,34.898415,46.157284,19.042797,28.180275,40.699368,50.604744,-5.98979,-17.17526,-21.214292,-23.767147,-55.250008,-84.033851,-100.622173,-111.660646,-50.068685,-79.542157,-92.06849,-102.828793,-37.991046,-59.796722,-69.587774,-77.422697,-20.555632,-29.477146,-30.690202,-31.93898,207.518148,-57.790929,-241.283484,-56.878999
67,-1.099091,3.02083,3.600426,2.953553,-23.362541,-42.685547,-60.441971,-77.740746,-29.387283,-35.176849,-42.04628,-51.554489,-18.884811,-23.007889,-35.187149,-47.676315,-9.112129,-12.55291,-22.745476,-33.10421,-1.655273,-5.591469,-13.086777,-19.987106,-3.71932,-11.131623,-12.819293,-15.484533,-42.891991,-68.942143,-84.340442,-96.506184,-39.749389,-69.083984,-84.607512,-97.26275,-29.883031,-50.844486,-62.992799,-72.944835,-15.618593,-24.494382,-27.174658,-28.616005,37.130299,58.201218,76.556454,96.355419,36.866512,40.199432,50.761299,64.196606,26.303387,25.644093,38.760223,53.443451,19.557323,21.956921,34.942589,47.025661,17.629337,26.934471,39.815941,50.132732,-6.19653,-17.091495,-20.893067,-23.840043,-54.628737,-82.773494,-98.555541,-109.117733,-49.699387,-78.83178,-90.940665,-101.316386,-38.083208,-58.911746,-68.503283,-76.267996,-21.108205,-29.197849,-30.116787,-31.375724,206.564283,-54.766301,-237.537832,-53.921648
68,-2.459679,4.996967,3.683052,2.531304,-25.016899,-43.889923,-60.886803,-79.388351,-29.243774,-35.954361,-45.817795,-57.564354,-18.786392,-22.143745,-35.812912,-49.619179,-9.701157,-12.097893,-23.483963,-34.928284,-3.179398,-7.802467,-16.438522,-24.268799,-5.397357,-15.115328,-18.409805,-22.648384,-45.459604,-69.08173,-82.161856,-92.173667,-41.515574,-67.314248,-79.957089,-89.372483,-30.556883,-49.098092,-58.722542,-66.01647,-15.253556,-21.54441,-23.806451,-24.925492,36.896496,58.877163,77.082367,96.189308,33.671665,40.278339,52.249489,65.421581,22.929611,25.034809,38.653107,53.650875,16.942062,23.946075,39.142284,51.860733,16.444473,28.907375,43.92477,55.910397,-5.927052,-17.297711,-21.147787,-26.118387,-52.478063,-78.864045,-93.696864,-104.269646,-48.426773,-74.170982,-84.852013,-95.417478,-38.271454,-54.99291,-61.150136,-66.431989,-23.178079,-29.20566,-29.199454,-29.987328,205.089655,-49.122808,-232.86973,-50.743818
69,-2.880592,7.611325,5.825272,6.41772,-25.964813,-44.628639,-61.335526,-80.419579,-27.332268,-38.744888,-51.618118,-64.067001,-18.270264,-27.020645,-42.79232,-57.683716,-10.213509,-16.35807,-30.761833,-43.994865,-4.915352,-11.32267,-22.168579,-31.872482,-6.598773,-17.566788,-22.233236,-28.77103,-47.17503,-66.934328,-76.456797,-84.575526,-42.991964,-65.064711,-73.178592,-80.290448,-32.21096,-48.464132,-54.253387,-59.373423,-16.964382,-20.667338,-21.144761,-21.702368,33.820953,54.572697,71.551609,89.756699,33.41423,43.628941,56.322384,68.929482,23.880272,32.721634,48.431053,64.811497,18.12212,30.29932,46.575508,60.626907,17.555122,33.982601,49.843025,62.816448,-7.329774,-17.702454,-22.057432,-28.503404,-53.285264,-76.71618,-90.057171,-98.71214,-49.98841,-75.877949,-85.914861,-94.960864,-39.392008,-56.17012,-62.191063,-67.000494,-23.46738,-28.39602,-28.693811,-30.16202,203.205671,-41.070863,-226.04785,-43.885477
70,-3.935165,9.708492,9.140053,8.024713,-23.800964,-43.367844,-61.482239,-78.530731,-21.638832,-42.603836,-58.250656,-70.693932,-15.047264,-36.611366,-54.62265,-68.001595,-11.283646,-30.528374,-46.559486,-57.747116,-11.066895,-27.208328,-39.095535,-48.444557,-9.66289,-22.391965,-28.335165,-33.770714,-46.141853,-61.92674,-68.625734,-71.968839,-40.385418,-57.84371,-63.007527,-65.4492,-28.627892,-41.257859,-46.242043,-49.97044,-12.82377,-18.29535,-21.624068,-25.390967,30.301895,48.142834,60.202789,73.747101,27.321682,39.238815,54.333229,68.689899,21.958923,33.826218,52.635899,70.803967,21.797848,36.49538,54.00713,69.260502,25.98032,44.463387,62.03968,78.477745,-17.215212,-34.334155,-45.934588,-54.608174,-54.95728,-77.600755,-87.210663,-91.871522,-47.422557,-70.089465,-77.905184,-83.585728,-33.544059,-48.948286,-54.78935,-58.993503,-15.784208,-21.187276,-23.552564,-27.633525,201.022568,-31.091024,-215.155735,-35.589418
71,-8.56636,9.863671,8.829689,10.100114,-8.745918,-24.955673,-41.021805,-55.29911,-22.949181,-46.946411,-65.448074,-79.827461,-21.08139,-47.898331,-68.948708,-84.544945,-20.90744,-46.541634,-66.376877,-80.722504,-22.354317,-41.999931,-56.261673,-67.359467,-22.386716,-37.791623,-43.493131,-47.245302,-42.618344,-53.017051,-54.839429,-55.322565,-30.999849,-41.341901,-43.41727,-43.266383,-16.953823,-25.90226,-28.79854,-30.551078,-2.434572,-5.401926,-6.275447,-8.722277,20.671577,41.502056,56.711769,71.227512,22.399006,42.425423,60.033703,75.890522,16.426334,37.180481,58.916302,77.423115,15.540161,41.071587,63.010883,79.116383,19.197063,39.243107,54.203682,64.951115,-22.084417,-37.217467,-43.555344,-45.017316,-52.23384,-71.680218,-76.460163,-77.462588,-41.101105,-62.652555,-67.015098,-69.659189,-25.523545,-38.679223,-39.262456,-39.622244,-7.953299,-16.676779,-21.013573,-25.127076,196.732922,-20.65136,-202.049332,-24.913312
72,-11.396313,30.901929,7.196903,9.487179,-13.774052,-34.930172,-55.358048,-72.503014,-33.851624,-69.942856,-88.48074,-96.711559,-31.43858,-71.147003,-91.364365,-100.838528,-30.676403,-68.418274,-87.439614,-95.977364,-31.056061,-60.022888,-74.9893,-83.259831,-26.712302,-42.375263,-46.174504,-46.573967,-50.560991,-55.294808,-49.292313,-44.381719,-37.828688,-40.389432,-34.949838,-30.596465,-22.591064,-24.929552,-21.58214,-19.245473,-6.435412,-6.655954,-4.493223,-3.630153,16.858521,34.586277,49.332047,61.578827,28.39365,54.789619,72.391491,86.251373,23.719769,51.955833,75.207138,92.509632,20.659332,46.498089,69.818573,86.562881,19.577923,39.103603,55.489025,68.453064,-26.031812,-42.68667,-52.452838,-56.442995,-48.210584,-60.823291,-58.436638,-54.818403,-35.917961,-48.619372,-45.750077,-41.106138,-21.176439,-31.343181,-29.582862,-27.89368,-4.983289,-9.296185,-9.109081,-8.843369,187.018433,10.505629,-193.170605,-15.171073
73,-11.396313,30.901928,11.34407,27.30861,-18.802185,-44.904671,-69.69429,-89.706917,-44.754066,-92.939301,-111.513405,-113.595657,-41.795769,-94.395676,-113.780022,-117.132111,-40.445366,-90.294914,-108.50235,-111.232224,-39.757805,-78.045845,-93.716927,-99.160194,-31.037887,-46.958904,-48.855876,-45.902632,-58.503637,-57.572564,-43.745196,-33.440874,-44.657527,-39.436962,-26.482405,-17.926546,-28.228305,-23.956844,-14.365739,-7.939868,-10.436252,-7.909981,-2.710997,1.461972,20.299931,42.263117,61.513138,75.344753,35.096083,70.441847,86.877193,94.957352,28.680897,67.068129,88.668566,100.593166,24.689255,60.329647,81.590881,93.715954,23.396387,50.473823,65.702419,75.531378,-27.995846,-44.768694,-50.386484,-50.109688,-51.08854,-58.7394,-51.25752,-44.410248,-36.799047,-41.791212,-34.655659,-28.56483,-19.92039,-24.00308,-19.38753,-16.358147,-1.731914,-3.814941,-2.268849,-1.739849,175.433607,41.756894,-182.015047,12.486875
74,-5.12043,18.406995,11.34407,27.30861,-9.690285,-33.482437,-55.840988,-69.752769,-46.217194,-87.47303,-111.363258,-128.707352,-47.779541,-93.916397,-118.974838,-136.067047,-46.852112,-89.542809,-115.320511,-133.730392,-46.382446,-79.387894,-99.965858,-117.462616,-33.803411,-53.083186,-56.557048,-49.551433,-50.639938,-46.763,-38.778549,-31.156047,-36.632197,-28.934298,-19.986015,-11.902824,-18.853173,-15.493333,-8.029097,-1.943131,-1.045805,1.252916,7.25484,11.057739,23.741341,49.939957,73.694229,89.11068,41.798515,86.094074,101.362896,103.66333,33.642025,82.180424,102.129993,108.676701,28.719177,74.161205,93.36319,100.869026,27.214851,61.844044,75.915813,82.609692,-29.95988,-46.850717,-48.32013,-43.77638,-53.966495,-56.655509,-44.078401,-34.002092,-37.680132,-34.963052,-23.56124,-16.023522,-18.66434,-16.662978,-9.192197,-4.822615,1.519462,1.666304,4.571383,5.363672,170.139627,62.285186,-170.844526,41.916782
75,-34.540787,34.815438,7.770882,4.89054,-16.906242,-44.170876,-69.099312,-86.638184,-56.105003,-96.985359,-109.039078,-108.139229,-60.49221,-105.350418,-115.764084,-113.244095,-61.627235,-101.511154,-112.401123,-112.010994,-59.251328,-90.923424,-102.579689,-105.707817,-29.865587,-43.635064,-42.660118,-36.8394,-41.433816,-40.876457,-34.04538,-29.607717,-22.510866,-19.068496,-14.400659,-12.657445,-4.563294,-2.550138,0.994213,2.57385,11.101273,12.217998,13.780222,13.375479,26.218929,52.170582,73.431816,86.384239,38.154202,74.776268,93.238106,107.019997,31.329346,70.191879,95.327854,111.653252,26.593609,62.80014,86.799431,104.045563,24.2589,52.064095,71.73254,86.664848,-29.770429,-41.879716,-41.700702,-36.755605,-35.220428,-34.724449,-26.791219,-19.669266,-18.20328,-18.421877,-9.122018,-2.374458,-0.599319,-1.313431,4.912523,7.0774,16.683788,17.335378,20.289178,19.775539,135.944023,98.071989,-162.728462,47.778687
76,-1.707115,20.578201,9.107208,48.219013,-19.581871,-44.692154,-65.568695,-80.838203,-58.687477,-95.128212,-113.523674,-124.792328,-60.447807,-101.428871,-123.540688,-137.165966,-59.397812,-96.147995,-117.786713,-132.923355,-55.931625,-84.048386,-102.571678,-118.390045,-28.211108,-40.427593,-41.259341,-35.798721,-36.177436,-34.486524,-28.415841,-22.286866,-20.593299,-17.258561,-10.392718,-3.952798,-3.031142,-0.175464,5.734082,10.987745,14.441631,17.754231,22.417931,25.374479,23.773613,54.493275,80.151329,96.232052,61.293926,107.613487,120.08955,117.708492,56.316204,108.499088,120.757141,118.2831,50.515594,100.970707,113.252563,112.363758,44.897518,83.390865,95.292263,97.036572,-27.010927,-40.902979,-46.513621,-52.55028,-37.100327,-30.710981,-21.893856,-16.078449,-18.292232,-9.609136,-3.313589,-0.317397,2.399559,9.717878,12.623637,13.143853,22.992303,26.622548,24.848767,22.035449,134.005709,118.691223,-153.852453,96.038733
77,-29.11377,36.423604,-0.077648,17.446714,-26.72699,-56.690025,-80.71804,-95.635643,-65.642052,-105.269966,-118.236752,-119.710121,-63.251038,-104.785423,-117.235794,-118.642101,-57.614937,-97.281647,-104.339333,-102.515945,-49.870605,-82.898254,-89.945869,-88.437538,20.239624,25.513232,22.838081,16.795742,14.143253,13.705627,11.345527,10.351716,-3.82797,-4.174698,-3.288827,-1.469042,-20.057337,-21.787954,-17.144323,-12.99383,-33.151573,-35.094673,-28.66837,-23.679183,31.631413,65.041809,91.75312,108.781872,71.189747,106.171188,124.094124,137.481937,65.040779,101.51413,122.414932,140.121288,57.295361,93.164062,114.022636,131.27243,47.300205,75.541306,91.38113,104.417782,-23.833961,-33.525009,-36.661127,-39.946836,-25.723925,-17.806287,-9.649397,-2.085713,-8.444708,0.897079,8.968352,14.399918,9.908934,19.525573,26.011836,29.34537,28.674514,36.334529,39.554504,41.570593,104.35298,155.047705,-154.469061,113.418325
78,-14.670582,22.159938,26.983624,31.20307,-26.664162,-57.240086,-81.614485,-95.3825,-67.652321,-104.630385,-114.282389,-113.170424,-67.956677,-106.097231,-113.975287,-111.111717,-65.164204,-101.200991,-106.96249,-103.594837,-60.205593,-90.398483,-97.245598,-95.573273,24.779946,33.091305,33.464895,29.24694,25.493719,22.917801,19.055312,15.268746,7.348608,4.264545,2.442383,-0.071044,-10.662351,-14.902876,-15.662066,-16.801886,-26.875879,-31.860897,-31.345034,-31.69167,32.506599,66.57938,91.250038,105.194492,73.547916,115.334988,138.152962,152.800598,66.564331,110.770111,135.598412,150.887604,56.768303,98.633308,120.0313,132.424507,45.511208,80.242825,96.733246,105.071697,-19.296386,-25.837607,-28.942974,-33.048604,-13.461405,3.370337,12.800613,18.494989,4.51272,21.260358,29.828907,34.379604,22.590956,37.163127,42.935432,45.411006,38.999955,49.654927,52.431781,52.59227,89.075003,177.684263,-128.092833,145.098015
79,-14.670582,22.159938,2.353592,20.958337,-26.601334,-57.790146,-82.510929,-95.129356,-69.66259,-103.990803,-110.328026,-106.630726,-72.662315,-107.409039,-110.714779,-103.581333,-72.71347,-105.120335,-109.585648,-104.673729,-70.540581,-97.898712,-104.545326,-102.709007,29.320269,40.669377,44.091708,41.698139,36.844186,32.129974,26.765099,20.185777,18.525185,12.703789,8.173593,1.326955,-1.267365,-8.017797,-14.179809,-20.609941,-20.600184,-28.62712,-34.021698,-39.704156,36.111317,68.961239,94.604702,111.426773,77.630539,110.515194,129.683533,145.958176,66.926708,100.377731,123.790054,143.794785,55.346203,84.579449,107.237778,126.263351,42.596169,65.832939,81.40852,95.690975,-19.571546,-27.365498,-30.249736,-33.124712,-5.95521,7.312113,17.308146,27.285716,9.039581,24.723012,34.304453,43.734482,23.049453,40.453189,50.67245,59.080077,36.253296,51.640017,60.121745,68.176839,74.390774,199.713862,-125.752888,165.926012
80,4.76532,21.35675,3.665714,27.990659,-31.059952,-62.569771,-88.126659,-102.901154,-65.787163,-107.215233,-106.415462,-97.597618,-67.122574,-109.756107,-113.851433,-108.110504,-66.505051,-107.499161,-112.614212,-107.679291,-64.54113,-95.075569,-105.914726,-108.589611,-24.007016,-30.201941,-28.51282,-21.218368,-7.477604,-22.779727,-38.622536,-43.412886,13.805478,-3.199598,-16.680145,-21.729599,30.505383,19.147259,6.457549,-0.979362,41.159552,37.615016,29.696576,23.574208,40.078754,73.468552,97.423153,117.434864,80.553589,107.554436,122.685528,133.560963,71.041317,100.019989,118.366413,133.052959,61.41798,87.987957,106.176338,119.305344,50.778408,69.127464,82.09528,92.531548,-18.914213,-25.745291,-30.083874,-34.160945,-3.641792,10.351469,21.322109,31.807452,11.033934,27.101824,35.968133,44.463816,23.481644,39.416276,47.403321,54.326098,34.290807,47.691696,52.983459,57.394538,79.169769,220.949844,-122.073498,193.795903
81,2.006378,16.398563,23.804569,30.328036,-37.078171,-70.059471,-93.880405,-108.05769,-63.380241,-102.363453,-108.406277,-107.386322,-61.488533,-102.690411,-116.669483,-119.712524,-60.053558,-100.611763,-115.392895,-119.027023,-58.354568,-88.600159,-104.192162,-114.216728,-19.35721,-19.580006,-15.632117,-9.55847,12.475991,3.467471,-16.079375,-27.576684,27.998131,17.968999,4.258679,-4.826844,38.728376,31.806649,20.458714,11.351393,42.27248,42.412406,40.522288,38.495577,32.702351,63.605804,86.546288,104.151993,76.678219,120.043602,131.46698,132.071342,68.884964,116.620903,126.822281,125.208778,58.56451,101.348534,108.191299,105.707359,46.393948,78.588924,86.058254,84.96151,-19.914631,-21.79734,-22.098867,-22.780097,9.113126,36.863143,40.149192,38.028806,30.989938,58.491287,56.721767,51.510588,48.107893,72.863448,69.707447,64.356835,60.217396,81.987319,78.865897,73.278596,81.030922,237.246704,-98.414154,224.022236
82,-6.542816,20.455534,-4.984818,14.203768,-33.738213,-66.067944,-92.695427,-110.394487,-61.203632,-104.003534,-112.212439,-109.598093,-58.281498,-104.815579,-113.73991,-109.540358,-56.096478,-99.16503,-107.715683,-104.175825,-54.280472,-89.633761,-98.971682,-99.868641,2.874606,12.468026,20.018866,26.622363,38.506569,31.055456,9.454699,-3.482291,41.503286,26.227191,6.897923,-4.143298,37.735739,22.190875,4.954143,-5.100121,28.353134,19.249425,10.848313,6.319167,38.681602,72.09074,97.380638,115.303345,78.599911,113.781738,130.155716,137.60891,69.632435,107.880249,123.173447,127.404556,60.119648,95.265198,108.274956,111.032066,50.399437,76.566525,87.174053,89.963036,-13.3032,-15.839722,-15.663548,-20.186765,17.770657,42.008744,48.745219,49.049896,38.060113,62.219406,63.138499,57.61721,53.317714,75.025454,74.880896,68.551664,63.361665,84.343159,85.815721,80.840737,74.156485,257.432543,-103.730593,237.956309
83,-6.542816,20.455534,0.807495,14.874069,-30.398254,-62.076416,-91.510448,-112.731285,-59.027023,-105.643616,-116.0186,-111.809864,-55.074463,-106.940746,-110.810337,-99.368191,-52.139397,-97.718296,-100.038471,-89.324627,-50.206375,-90.667362,-93.751202,-85.520554,25.106421,44.516057,55.669849,62.803195,64.537146,58.64344,34.988771,20.612102,55.00844,34.485382,9.537166,-3.459752,36.743101,12.575101,-10.550428,-21.551635,14.433788,-3.913556,-18.825663,-25.857244,39.948635,72.534199,97.395058,117.069626,81.163044,108.99353,125.154533,136.738472,71.487408,101.511497,119.938202,133.309135,60.942707,87.002563,103.883858,115.944672,49.843655,68.71439,79.431896,87.786369,-11.070614,-12.309698,-11.049372,-17.04898,21.748063,40.344076,50.439527,57.144078,39.210771,60.050608,68.508315,72.57989,52.873296,74.413631,81.514064,83.835015,62.140242,82.50454,89.446336,92.321868,67.351427,277.540654,-103.185339,252.482954
84,11.347046,8.139631,5.53751,12.638457,-44.901009,-78.958855,-105.456219,-127.183456,-69.896851,-105.812531,-113.843079,-111.112747,-62.083855,-102.958717,-105.842743,-97.348423,-53.933372,-96.675453,-101.487637,-95.506554,-47.155266,-83.909683,-92.04071,-91.18,21.959805,42.487865,56.622411,71.581572,56.254996,42.110632,27.752796,20.456862,48.116106,28.874863,15.126998,5.891298,32.040436,15.033323,2.027204,-5.719755,10.009063,0.9793,-3.594183,-5.052172,39.224339,71.653061,96.87933,116.274548,79.021912,105.790615,121.631413,133.127346,68.056469,97.136364,115.448399,128.819332,56.724529,82.341957,99.676151,112.698956,45.213375,64.92445,76.3167,84.992237,-7.376889,-6.681271,-6.805328,-14.591252,25.642908,42.412468,54.338757,63.044145,42.384557,63.24434,74.334158,82.229504,54.96997,75.616838,84.656357,90.509555,63.112626,81.676776,89.132521,93.571573,78.326941,285.259687,-98.019361,264.700813
85,-1.902351,4.315181,4.990482,11.750177,-32.615204,-60.341835,-81.295967,-99.426098,-86.189346,-104.51952,-93.052711,-76.979599,-83.343601,-98.020649,-82.094707,-61.691551,-76.533508,-91.078892,-75.522995,-54.971924,-67.352142,-80.235558,-72.198944,-58.343925,38.07092,56.373433,65.88911,77.586737,40.852035,51.237157,63.505729,72.662019,28.05068,43.680636,60.20449,68.485097,15.010969,30.104808,45.54556,53.348713,2.055362,16.308901,28.711533,36.68981,38.437157,70.085564,95.232925,114.60022,76.880207,104.406853,120.534897,131.867294,65.099602,95.74791,114.195213,128.113174,52.799778,79.227333,96.199036,109.577293,40.381393,60.234833,71.747131,80.752029,-7.026518,-6.304408,-5.779221,-12.357554,25.494213,42.578206,54.034513,61.611103,41.634104,63.371793,74.795495,82.788469,53.624243,75.188228,84.640425,90.583594,61.342798,79.686251,87.039799,91.293106,76.368198,289.366722,-93.08527,276.242845
86,-1.929245,7.659645,5.408936,9.885932,-28.721466,-58.670769,-82.075195,-101.575413,-87.464333,-101.434422,-87.580318,-71.002121,-84.612064,-93.182259,-70.721626,-46.577225,-78.425674,-82.886639,-61.916428,-39.066353,-69.471016,-74.083672,-58.862,-39.855652,42.646378,60.559061,69.214864,78.256482,40.588361,57.346867,71.31728,81.076747,27.513884,47.600552,65.37899,76.369822,14.524191,35.256953,51.020784,60.787414,2.352876,22.267631,34.459879,43.286051,36.779022,67.576675,92.305298,111.994171,71.998043,100.278397,116.697006,128.749008,60.151806,92.331963,111.525764,126.16951,48.79303,76.519775,93.653984,107.049294,37.739182,58.349819,70.652504,80.624485,-8.214843,-8.586333,-7.405418,-13.27146,23.19611,40.871301,51.695716,59.766309,39.842045,61.090115,72.017097,79.557934,52.272712,73.619953,83.13248,88.402137,60.556344,78.57215,86.012581,90.100767,74.328632,296.870478,-87.786655,285.972889
87,-1.539001,5.290837,4.709244,9.234404,-27.372208,-56.42395,-79.064713,-98.11718,-86.078911,-99.5331,-86.037025,-68.818588,-83.127537,-90.097103,-67.694778,-43.478737,-76.116829,-78.332233,-57.780991,-34.57077,-66.112518,-67.915077,-52.249832,-32.846947,42.638412,61.771531,71.192173,81.377348,42.171518,60.247036,74.454201,84.655863,28.17733,49.60707,67.526793,79.219357,13.933301,35.560086,51.810263,62.764539,0.173148,20.563813,33.908633,44.237069,35.268517,65.214615,89.877434,109.57077,68.546963,97.046356,113.440361,125.139313,56.852303,90.04406,109.322777,123.534622,45.788612,75.220757,92.399368,105.314484,35.405846,57.908249,70.930538,81.820107,-8.426338,-9.644735,-8.865507,-14.090024,21.952457,40.0126,50.585752,57.98444,38.572333,59.658987,70.011629,76.871235,51.017326,71.996287,80.668762,84.999998,59.35005,77.293176,84.332538,87.955681,72.53437,302.100105,-83.332672,295.146082
88,-2.439308,5.66807,3.400154,6.365171,-28.179359,-56.137276,-78.70079,-97.916279,-88.904915,-95.173931,-73.913383,-54.077454,-84.826355,-86.321239,-61.509361,-35.469818,-76.737041,-74.855461,-52.026672,-28.446922,-65.171242,-64.508057,-48.964462,-30.854073,43.629321,62.322777,71.850742,83.758012,40.545012,61.466051,74.016143,81.291453,25.564856,48.79956,66.029283,75.478949,11.214122,34.754243,50.623852,60.465695,-1.257053,20.069872,33.056663,43.424433,33.412628,62.567596,87.224236,107.044373,65.531845,94.501419,110.460548,121.984177,54.384155,88.085747,107.200356,121.011887,43.467579,73.959446,91.366539,103.99807,33.118687,56.595097,70.007687,81.240921,-8.943497,-10.243838,-8.913116,-14.050133,21.461973,39.356563,49.461957,56.894545,37.920866,58.135543,68.010854,74.374296,50.04099,70.508658,78.867009,82.687877,58.040015,76.201799,82.922714,86.114593,70.041361,307.731094,-79.986219,301.474172
89,-4.357452,4.09362,2.82217,5.124543,-24.26754,-47.515068,-67.932472,-84.74802,-79.612427,-84.024868,-63.419151,-45.70713,-79.027176,-79.862251,-56.558304,-31.947098,-74.016209,-74.692039,-52.286339,-30.793419,-65.937538,-72.709122,-64.700089,-53.843536,36.017533,53.053113,63.785026,74.108398,38.016271,57.598932,68.106382,74.393191,29.440806,49.656841,63.500542,70.864711,20.636308,40.30894,52.930786,60.70331,12.114196,30.266964,43.24758,54.771936,32.144165,60.65506,84.820576,104.237423,61.668034,90.459423,106.423817,117.819042,50.480347,83.911114,103.304844,117.103443,39.594669,69.5117,87.278652,99.831905,29.561577,51.426315,65.061836,76.23476,-8.269615,-8.949364,-7.452966,-12.315317,22.360071,40.694016,49.903842,56.089196,39.320625,60.15157,69.33009,74.725347,51.322249,72.194938,79.647781,82.426982,58.694693,76.8072,82.655643,84.660803,65.639105,311.808813,-77.208853,306.582814
90,-2.976151,3.149518,0.287247,3.758871,-21.594086,-45.542107,-65.774574,-84.095364,-70.665207,-79.944477,-63.631325,-48.009453,-69.177132,-75.689449,-54.195786,-31.96312,-65.189095,-68.269787,-47.378998,-26.960678,-58.335228,-62.008324,-47.851524,-31.991615,38.275314,55.286811,65.524412,77.132687,42.566041,61.402881,71.2446,75.565029,30.530577,50.887341,64.535109,71.049407,17.681922,37.746298,51.426484,59.017154,5.093359,24.483668,37.253097,46.416364,29.917889,57.678909,81.994915,101.68951,58.62545,88.826008,105.438595,117.583637,47.559471,81.890087,102.080669,115.75201,36.816444,67.701302,86.083317,98.753529,27.30257,49.739628,63.950558,75.280666,-10.811386,-11.497186,-8.175631,-10.341094,22.233606,40.592436,48.770228,53.506547,39.379658,60.16355,69.280381,73.450757,50.488495,71.202301,78.486379,80.180502,56.838661,74.45383,79.906145,80.920889,62.500219,314.942184,-77.084341,310.325538
91,-3.012657,3.910592,-0.576553,0.355991,-20.886154,-44.470139,-63.722534,-81.51186,-71.81385,-78.359356,-59.756927,-42.095146,-70.622463,-74.678078,-51.663094,-28.126259,-66.328983,-67.623825,-45.636978,-24.179993,-58.659325,-61.088333,-46.750832,-30.890694,38.615929,55.560365,64.700353,76.719823,40.289797,57.136792,65.29223,68.877274,27.538646,45.840295,58.386558,63.961509,13.952444,31.573356,45.024016,52.634507,0.696298,17.551011,29.145083,38.179539,29.156456,56.920395,81.686954,101.65884,57.005367,87.812061,104.218998,116.539135,46.82476,81.736279,101.485233,115.513744,37.00058,68.341541,87.032719,100.35181,28.12849,50.800781,65.803757,78.153591,-11.039121,-11.880779,-8.522668,-10.785512,21.088815,38.575421,46.570864,51.501079,38.148231,57.014649,65.585792,69.155213,49.224588,68.857946,75.968197,77.518997,55.88684,73.760126,79.330878,80.402433,59.252672,318.836535,-77.895784,310.665288
92,-3.205833,-0.911251,0.913067,-0.00352,-18.530159,-43.075447,-63.283539,-80.646572,-69.867039,-75.413189,-58.364754,-41.732368,-69.184055,-71.307678,-49.815216,-26.508408,-65.375118,-64.020252,-43.067665,-21.868057,-58.255577,-57.09549,-41.016541,-23.958321,38.290381,56.485387,65.144276,76.099479,41.093232,57.852726,66.369899,70.090237,28.383515,46.244081,59.26681,65.099446,14.468616,33.251362,46.03981,53.211133,0.885501,19.63978,31.228912,39.142104,28.889008,56.0919,81.239204,101.227455,55.184212,86.264992,103.068237,115.753899,45.53421,80.637703,100.67276,114.872475,36.143703,68.308067,87.149963,100.650673,27.458611,50.670605,65.769882,78.602715,-11.050977,-12.38034,-9.261944,-10.812744,19.580129,36.423604,43.983707,48.439493,36.765393,55.332383,64.022395,67.392485,48.223861,67.568845,74.552754,75.872299,55.245809,73.146389,78.744002,79.468211,55.683718,317.815909,-77.345839,310.552393
93,-2.953262,0.153635,1.881924,-0.329068,-17.46357,-41.149864,-61.217136,-78.010139,-67.689915,-73.630657,-58.870354,-43.965225,-67.173386,-69.408703,-48.467445,-25.610847,-62.893639,-61.349087,-40.977402,-20.221367,-55.087395,-52.490501,-37.345047,-21.475296,37.833057,56.066225,64.921357,75.570525,41.237234,57.509826,65.461179,68.659604,28.038516,46.219813,59.145965,64.954209,13.563416,32.323068,45.636086,52.906209,-0.461214,18.679438,31.040759,39.494823,28.571377,55.482731,80.185032,99.96912,53.591881,84.274693,101.113529,113.677769,43.504887,78.554821,98.813381,112.705021,33.906498,66.363144,85.217915,98.435154,25.244007,48.841267,63.730659,76.255589,-11.437535,-12.499333,-9.024267,-10.104035,20.686388,37.824289,45.4856,49.875684,37.715608,55.938154,64.262727,67.653628,49.002904,67.943361,74.598511,75.842721,55.760375,73.497996,79.070106,79.951716,52.590036,317.98932,-75.604334,310.243101
94,-2.777138,0.893281,-0.093098,1.179989,-17.939072,-41.947975,-62.111034,-79.45158,-69.46907,-72.479553,-55.088196,-38.643608,-68.07518,-67.769852,-46.45649,-23.986359,-62.678432,-58.786068,-38.26149,-18.243599,-53.813324,-48.673782,-33.655472,-18.788795,37.774147,55.899375,64.433159,75.67371,40.726311,57.302283,65.809514,69.780374,27.501472,45.838195,58.113498,63.499369,13.332346,32.022652,45.152951,52.62191,-0.187165,18.666223,30.948318,39.86446,27.739906,54.628029,79.355392,99.238586,53.532143,84.490242,101.179848,114.141998,43.510036,78.66394,98.750839,112.76619,34.111233,66.288128,85.092659,98.603668,25.502472,48.848305,63.797951,76.861038,-11.761663,-13.386625,-10.571115,-12.046209,18.416628,35.713042,43.552442,48.244238,35.868159,54.093608,62.812828,66.455855,47.514534,66.570649,73.877205,75.786651,54.572853,72.175549,77.93149,79.313094,49.697456,318.862795,-75.812874,311.403283
95,-2.434616,1.151151,0.190144,0.107816,-16.425133,-40.465393,-61.052914,-78.468189,-68.076096,-69.080086,-52.13871,-35.714035,-66.520672,-64.114838,-43.100967,-21.028633,-61.259422,-55.166759,-34.710732,-15.252228,-52.47139,-45.997696,-31.326485,-17.158928,37.591428,56.463218,65.183241,76.071815,42.367452,58.247064,66.305863,70.121545,28.567223,45.627873,56.634143,61.234673,13.45665,31.076512,43.190152,49.943733,-1.121511,16.620432,28.100328,36.644176,28.123798,54.719124,78.890934,98.43996,52.682533,83.710957,100.432835,113.19025,42.527275,77.565022,97.780895,111.555347,33.015118,65.228519,84.340611,97.631779,24.539795,47.862568,62.748871,75.192318,-11.938392,-13.429294,-10.489913,-11.192571,18.401067,35.838642,43.587702,48.286476,35.873161,54.515116,63.050382,66.603377,47.538616,66.97283,74.109942,75.71181,54.450464,72.241992,77.846336,78.577399,47.267704,320.033845,-75.617867,311.530998
96,-2.094154,0.348643,0.463486,0.405577,-15.495644,-38.822136,-59.414406,-76.674786,-65.381756,-65.977192,-49.321861,-33.583946,-63.723221,-59.545441,-39.34021,-18.162231,-58.486176,-50.495567,-30.92205,-12.273674,-50.095711,-41.814537,-27.590103,-13.73291,37.357455,55.784643,65.006202,76.466585,42.409627,58.566622,65.848972,69.084323,28.498433,45.890621,56.118404,60.327744,13.600837,31.723163,43.220595,49.596819,-0.721121,17.054414,28.402534,36.990535,27.826424,54.193096,78.326511,97.754688,53.477325,84.057369,100.57497,113.180981,43.076077,77.850666,97.853565,111.642895,32.981529,64.945965,83.941441,97.334118,23.715305,47.172375,62.263298,75.012417,-12.388368,-13.920025,-10.767605,-11.769876,17.928862,35.575771,43.080237,47.468962,35.151546,53.669568,62.241698,65.829582,46.64552,66.03305,73.442605,75.480431,53.576757,71.093188,76.886302,78.047272,45.304298,320.486738,-75.023632,312.040825
97,-3.740845,0.277136,0.626965,-0.205444,-13.796768,-35.715866,-55.032291,-71.812992,-63.04081,-62.218037,-44.812202,-28.102913,-61.61871,-54.793224,-34.222755,-13.013878,-56.138306,-46.345024,-26.804352,-7.970009,-47.602787,-37.695122,-23.305206,-8.917809,37.126262,56.215167,64.904314,75.879215,42.958774,59.094156,65.871634,68.875051,28.426123,45.726551,55.198261,59.249026,13.135609,31.020134,42.267478,48.780541,-1.383147,15.557584,27.395323,36.629356,27.041874,52.804012,77.022285,96.715736,52.462349,82.630692,99.335632,112.111702,42.847023,77.038994,97.157707,110.69046,33.430996,65.145264,84.113731,97.140427,24.597416,47.829323,62.930202,75.785294,-12.399359,-14.107561,-10.981508,-11.661936,17.59578,34.545156,41.990218,46.518808,34.898616,52.912817,61.16298,64.906414,46.560984,65.385782,72.379016,74.382447,53.738667,71.276339,77.28873,79.050654,41.874304,320.835303,-74.085817,311.906811
98,-2.290764,1.271935,0.101337,-0.154253,-12.056351,-34.556351,-54.760265,-72.693043,-59.993706,-60.123081,-43.393478,-26.350708,-59.351578,-51.959553,-31.759758,-10.560036,-54.698524,-43.996696,-24.378777,-5.477715,-47.381287,-36.958237,-21.784401,-6.973686,35.652897,54.941688,63.640222,74.611417,42.925737,58.713403,65.12501,67.960157,28.529123,45.531172,54.358764,57.826173,12.919483,30.644012,41.004558,46.791745,-2.259756,14.847207,25.834582,33.715848,27.324886,53.017788,76.568584,96.007061,52.231464,82.42487,98.91798,111.362858,42.224693,76.226635,96.307468,109.895496,32.328987,63.522778,82.696552,95.90498,23.028374,45.875816,61.155853,74.059582,-12.733305,-14.152515,-10.735618,-11.418763,17.493768,34.857861,42.114769,46.293728,34.816673,53.329261,61.453825,64.870722,46.472434,65.881391,72.975464,74.839215,53.504941,71.153518,77.198698,78.718808,39.902201,322.181015,-73.665819,311.826335
99,-3.885498,2.140763,0.213661,0.29103,-12.220573,-33.077202,-52.369308,-70.149136,-58.118248,-56.833248,-39.76181,-22.795143,-56.582394,-47.833385,-27.423019,-6.153145,-51.222725,-38.732529,-19.068489,-0.389671,-43.649082,-32.565651,-18.227119,-3.955307,35.22262,53.546129,61.83254,72.574889,42.135085,56.372075,61.337055,63.387909,27.461767,42.373565,50.464289,53.880507,11.687377,27.64214,37.493121,43.351691,-3.160386,11.542264,21.813518,29.871885,26.911983,52.406044,75.803432,95.178738,51.03075,81.759624,98.268299,110.831738,40.881901,75.817394,96.128483,109.727383,31.145496,63.164749,82.517223,95.848904,22.172985,45.473614,61.061783,74.325657,-12.887928,-14.398714,-10.881658,-11.576288,16.627101,34.346938,41.727903,46.024743,34.408565,53.038046,61.211763,64.557709,46.321825,65.736031,72.806453,74.69972,53.388603,70.810618,76.69253,78.131994,36.420908,324.282458,-73.047953,312.078045
100,-8.462563,1.856341,0.214462,0.695248,-12.314301,-29.175797,-44.805794,-60.523682,-51.40749,-49.515896,-32.835388,-16.999855,-49.104023,-38.6479,-18.179054,2.004433,-43.263016,-28.521194,-9.039688,8.864021,-35.602684,-23.028831,-9.140968,4.112549,34.09833,52.061093,60.541462,71.037983,41.941683,54.871601,58.304554,58.896802,27.251383,40.360255,48.356562,52.113643,11.35553,25.563436,35.428002,41.300405,-3.396396,8.943744,18.888834,27.091944,26.393051,51.804829,75.352535,94.77705,50.655327,81.579266,98.092403,110.880375,40.612335,76.006107,96.368465,110.133076,31.165295,63.481293,82.754345,96.222782,22.463608,46.371517,61.929588,75.332737,-13.46301,-15.176214,-11.389061,-12.176193,15.855839,32.839981,40.351856,45.031241,33.958528,51.432906,59.776807,63.34876,46.020236,64.214562,71.445103,73.583952,53.191126,69.733073,75.311111,76.520617,28.269053,326.156908,-72.522783,312.791401
101,-16.043243,10.080878,0.406666,0.458867,-8.539696,-19.599209,-27.908249,-38.91798,-37.577076,-25.765171,-8.418045,5.97702,-34.540386,-18.050537,2.548714,21.139183,-29.069538,-10.839272,8.684006,24.584885,-22.165203,-13.90892,-4.197235,4.872093,23.331899,38.919123,47.436234,56.142178,29.481376,42.036655,46.530047,50.000544,18.18562,29.593206,37.178812,41.524991,6.853493,18.064527,26.607265,32.34783,-3.078443,3.940664,10.970887,18.219768,26.3134,51.469402,75.008469,94.388695,50.408421,81.165733,97.678871,110.384903,40.330925,75.4842,95.896454,109.664726,30.661297,62.823601,82.204628,95.69046,21.666241,45.594521,61.152306,74.578857,-13.667713,-15.643849,-12.000143,-12.610546,15.795632,32.80046,40.12937,44.658948,33.460943,51.044743,59.196538,62.867477,45.267869,63.617806,70.830193,73.171953,52.374106,69.140887,74.915723,76.402673,12.54261,336.250877,-71.799316,313.26336
102,32.34684,-23.126023,-0.047894,0.357411,-18.223114,-40.50087,-60.487232,-79.684124,-76.377869,-65.172558,-39.867783,-20.442352,-75.244617,-60.044403,-33.760414,-9.1436,-67.811794,-56.33812,-29.061928,-6.640778,-57.860069,-63.729687,-61.620312,-56.142082,35.018535,52.97222,65.389858,77.592542,38.033376,59.278975,66.637957,71.301472,29.620067,50.517271,60.998477,66.729286,20.49632,39.621967,50.174186,58.369083,12.773073,29.976799,40.201556,50.990464,26.143913,51.320915,75.228138,94.831295,50.310631,80.812855,97.439518,110.36974,40.498638,75.241871,95.754948,109.639263,30.975437,62.846375,82.308941,95.952473,22.017059,45.714169,61.141033,74.627094,-13.811715,-15.921294,-12.362741,-12.845382,15.061234,31.904709,39.292775,43.887809,32.807932,50.513134,58.689012,62.223111,44.759045,63.279784,70.361877,72.541049,51.998108,69.095006,74.97877,76.518208,45.210485,313.194925,-71.526175,313.690842
103,-1.633873,7.629078,0.149746,0.006237,-14.050713,-36.745033,-57.07489,-74.256191,-65.319843,-63.520145,-45.484543,-28.562164,-64.647675,-55.32938,-34.555092,-13.370018,-59.250526,-46.822586,-26.442947,-7.884521,-50.546436,-39.901543,-24.760437,-10.691528,38.416599,57.705698,65.479952,76.642388,44.157473,60.884548,66.726013,68.743337,28.751301,46.681212,54.936069,57.565587,12.575039,31.655978,41.472935,46.310462,-2.920671,15.049563,25.893553,33.158242,26.015625,51.145306,74.95182,94.392815,50.392456,80.329399,96.709557,109.490776,40.635967,74.711494,95.211296,109.038277,31.032143,62.2752,81.446457,94.844742,21.975632,45.161648,60.185452,73.248596,-13.946578,-15.971127,-12.271721,-12.937144,15.222032,31.882479,39.393614,44.173219,33.075126,50.608785,58.820787,62.467396,45.11164,63.515054,70.696441,72.999361,52.403746,69.387456,75.259426,76.836161,43.880796,320.965751,-71.072245,313.838827
104,-1.999626,2.398324,0.039768,0.331661,-13.375854,-35.868187,-55.461731,-72.844334,-63.789825,-63.848763,-45.781803,-28.863029,-62.437878,-54.042377,-33.146667,-12.188988,-56.508751,-44.548302,-24.673691,-6.158867,-47.47364,-36.875954,-21.856728,-7.790337,36.95367,55.64694,63.708826,74.595362,41.349126,56.204113,62.250899,64.965632,26.472525,42.866642,51.49194,54.827635,10.95687,28.530605,38.697748,44.290051,-3.798206,13.051938,24.019305,31.935152,25.976543,51.311932,75.08749,94.564991,50.773773,80.708485,96.973972,109.946537,41.047897,74.837666,95.20071,109.304638,31.418552,62.344322,81.596088,95.449619,22.175503,45.552578,60.679893,73.823719,-14.502393,-16.695521,-12.835811,-13.043169,14.827262,31.003956,38.501629,43.539845,32.593349,49.643009,57.720889,61.378119,44.505745,62.52291,69.875902,72.381733,51.707387,68.323188,73.957233,75.279433,42.32234,323.400848,-70.591307,314.207261
105,-3.237762,1.712771,0.288219,-0.930949,-12.81395,-34.666214,-53.705235,-70.26844,-61.638908,-60.814476,-42.280769,-24.847755,-59.979115,-50.310001,-28.724098,-7.474594,-53.751583,-40.903244,-20.446701,-1.635017,-44.701023,-33.119431,-18.088303,-4.108543,36.039084,54.374511,62.333151,73.085379,40.886121,55.155468,60.020845,61.957276,25.492978,40.927247,48.789001,51.856823,9.390015,26.433314,35.978384,41.361661,-5.654238,10.136577,20.491812,27.843137,25.979404,51.165161,74.743538,94.347839,49.596519,79.375191,95.926323,109.022827,39.803581,73.347015,93.991928,108.196907,30.27071,61.132965,80.517883,94.418335,21.328526,44.739189,59.764767,72.768402,-13.870686,-15.730547,-11.80495,-11.766171,15.247906,32.248782,39.799376,44.593678,32.815774,50.937915,59.302132,63.027287,44.650364,63.467444,70.935662,73.428588,51.831135,69.143295,75.094614,76.697284,39.490871,325.156443,-69.896793,313.319136
106,-6.332245,0.292141,0.267906,0.552481,-11.804237,-31.780586,-49.586449,-65.974445,-57.278996,-55.777359,-37.359581,-20.741615,-54.514561,-44.387569,-22.485924,-1.908531,-47.293453,-33.654556,-13.120651,5.427475,-37.990952,-26.09745,-11.723213,1.354179,34.672054,53.009641,61.518354,73.029619,40.754531,55.137993,59.150967,60.339168,25.593138,39.031447,47.151441,50.922662,9.693765,24.107917,34.532683,40.602995,-5.425947,6.847194,17.403119,25.800372,25.750065,50.956764,74.401932,93.595848,50.002327,79.946594,96.427574,109.549942,40.105877,73.743668,94.253082,108.380013,30.43808,61.115284,80.401726,94.274597,21.268272,44.402332,59.473457,72.773895,-14.118676,-16.274074,-12.462653,-12.306857,14.843132,31.145055,38.552573,43.53262,32.336097,49.572613,57.736141,61.53021,44.187545,62.477214,69.944877,72.572357,51.445071,68.331462,74.105434,75.686492,33.598194,325.612639,-69.18932,314.035672
107,-12.210617,3.511375,-0.219326,0.247619,-9.645767,-23.679314,-35.717926,-47.963963,-46.680336,-37.814026,-19.99958,-5.725937,-44.374695,-28.46283,-6.868286,11.926003,-38.114719,-19.11026,1.625519,18.645515,-30.03788,-17.324524,-3.688316,8.650818,30.641542,48.566761,58.15907,67.755022,39.126852,51.445627,54.061868,55.70412,25.209853,36.805654,43.270057,47.157863,10.245567,22.676727,31.250648,37.122001,-3.579363,6.041413,14.4596,22.324441,25.616798,50.877571,74.365368,93.663082,49.552345,79.584446,96.020107,109.044285,39.901142,73.81731,94.372387,108.528614,30.53175,61.606865,80.944118,94.771786,21.729984,45.307159,60.359001,73.355198,-14.579705,-16.622717,-12.752263,-12.674396,14.898213,30.941526,38.166201,43.074617,32.457684,49.262009,57.127591,60.874606,44.323458,62.133265,69.406105,72.02531,51.525347,67.932184,73.563204,75.066024,21.649532,329.305438,-69.14669,314.464714
108,26.000862,-16.849094,-0.472927,0.257993,-18.146782,-40.274391,-59.92836,-78.736553,-79.228306,-67.768307,-41.423149,-21.376534,-77.707043,-61.661224,-34.696655,-9.944572,-69.279728,-53.761024,-26.205711,-3.580055,-57.446365,-52.813568,-41.161995,-28.412704,37.998487,56.81322,68.175728,81.438852,39.940784,61.286419,68.825342,73.235865,29.358678,50.941867,62.020261,67.481591,18.228475,38.000771,49.220265,57.130864,8.476788,25.638277,34.909175,44.206873,26.041775,51.394844,74.88945,93.939285,49.129486,79.320374,96.042023,109.54422,39.555244,73.584137,94.419594,108.905411,30.590401,61.698532,81.343575,95.461578,22.247944,46.046848,61.237621,74.292297,-14.680481,-16.942337,-13.191308,-12.944986,13.309807,29.36405,36.920139,42.195477,31.158023,48.111722,56.423698,60.31737,43.385963,61.083199,68.690232,71.448993,50.946313,67.131096,72.68746,73.880107,47.96751,312.536063,-69.302502,314.802427
109,-0.008469,8.232874,1.497803,0.59373,-15.830841,-37.942657,-55.297623,-71.550636,-70.037155,-66.347637,-46.306,-28.722382,-67.747307,-59.763908,-36.428146,-13.288994,-59.998169,-50.329227,-28.604965,-8.781395,-48.536682,-43.880768,-31.16684,-18.222656,37.172575,55.406916,64.169423,75.282336,39.432825,57.051329,64.328368,67.681416,25.733187,42.303602,53.268437,57.982402,11.494716,26.505191,39.098694,46.005045,-2.044124,10.413898,21.166806,29.6833,24.993439,49.540787,72.989845,92.625389,48.340015,78.7714,95.541687,108.69976,38.868542,73.157959,94.123306,108.194504,29.732609,61.364594,80.84713,94.442253,21.285553,45.345154,60.421658,73.306618,-14.385191,-17.255906,-14.137201,-14.176968,13.688708,30.374781,37.784768,42.759382,31.273681,47.964818,55.949517,59.94273,43.462163,61.041085,68.109593,70.810247,51.169541,67.546553,72.838933,74.277039,48.236189,320.872709,-67.527552,315.499929
110,-3.243713,2.17312,-0.122223,-0.087192,-12.657394,-36.207733,-55.733414,-73.729877,-62.78429,-64.348869,-47.015648,-29.931793,-61.736755,-55.476379,-34.457817,-12.828255,-56.168461,-46.987438,-26.985626,-7.829933,-47.980099,-40.755272,-26.705933,-12.465477,36.930698,56.294269,64.109092,75.14562,41.848995,55.991754,62.704826,66.297959,26.150558,41.699189,51.187819,55.435444,9.61917,26.338156,37.161398,43.347554,-6.07235,9.800161,21.850136,30.872983,24.969921,49.552746,73.049812,92.578697,48.563004,78.878746,95.435143,108.517456,39.086323,73.124428,93.803787,107.851181,29.891453,61.271839,80.549698,94.105339,21.281319,45.216007,60.281696,73.233032,-14.762547,-17.45715,-14.290898,-13.955099,13.645483,29.904119,37.111627,42.063887,31.261517,47.80933,55.690041,59.604894,43.390285,61.025524,68.0915,70.764367,51.065676,67.452198,72.832203,74.100927,45.183964,323.086322,-67.458286,315.45323
