takenoko1/special-research/HandMotion_SimilarSearch_自分用/NewProject/handData/key/d4_feature_d2/78.csv
,vel_0x_L,vel_0y_L,vel_0x_R,vel_0y_R,posFromWrist_1x_L,posFromWrist_2x_L,posFromWrist_3x_L,posFromWrist_4x_L,posFromWrist_5x_L,posFromWrist_6x_L,posFromWrist_7x_L,posFromWrist_8x_L,posFromWrist_9x_L,posFromWrist_10x_L,posFromWrist_11x_L,posFromWrist_12x_L,posFromWrist_13x_L,posFromWrist_14x_L,posFromWrist_15x_L,posFromWrist_16x_L,posFromWrist_17x_L,posFromWrist_18x_L,posFromWrist_19x_L,posFromWrist_20x_L,posFromWrist_1y_L,posFromWrist_2y_L,posFromWrist_3y_L,posFromWrist_4y_L,posFromWrist_5y_L,posFromWrist_6y_L,posFromWrist_7y_L,posFromWrist_8y_L,posFromWrist_9y_L,posFromWrist_10y_L,posFromWrist_11y_L,posFromWrist_12y_L,posFromWrist_13y_L,posFromWrist_14y_L,posFromWrist_15y_L,posFromWrist_16y_L,posFromWrist_17y_L,posFromWrist_18y_L,posFromWrist_19y_L,posFromWrist_20y_L,posFromWrist_1x_R,posFromWrist_2x_R,posFromWrist_3x_R,posFromWrist_4x_R,posFromWrist_5x_R,posFromWrist_6x_R,posFromWrist_7x_R,posFromWrist_8x_R,posFromWrist_9x_R,posFromWrist_10x_R,posFromWrist_11x_R,posFromWrist_12x_R,posFromWrist_13x_R,posFromWrist_14x_R,posFromWrist_15x_R,posFromWrist_16x_R,posFromWrist_17x_R,posFromWrist_18x_R,posFromWrist_19x_R,posFromWrist_20x_R,posFromWrist_1y_R,posFromWrist_2y_R,posFromWrist_3y_R,posFromWrist_4y_R,posFromWrist_5y_R,posFromWrist_6y_R,posFromWrist_7y_R,posFromWrist_8y_R,posFromWrist_9y_R,posFromWrist_10y_R,posFromWrist_11y_R,posFromWrist_12y_R,posFromWrist_13y_R,posFromWrist_14y_R,posFromWrist_15y_R,posFromWrist_16y_R,posFromWrist_17y_R,posFromWrist_18y_R,posFromWrist_19y_R,posFromWrist_20y_R,posFromBody_0x_L,posFromBody_0y_L,posFromBody_0x_R,posFromBody_0y_R
2,21.416817,-6.769265,1.752262,1.00153,-14.70314,-32.767754,-54.103718,-74.489536,-62.148113,-58.913155,-33.682938,-14.971275,-67.971497,-59.866791,-32.389412,-9.698524,-68.232193,-64.081306,-38.303146,-16.454773,-65.812454,-77.146912,-71.771965,-63.619709,5.617682,11.613956,25.97741,41.091565,9.463621,27.60194,36.331658,42.159044,21.766711,33.809339,43.60388,48.862607,32.057479,41.274531,48.503467,52.527926,41.295773,49.888405,52.457037,55.686213,26.464634,50.466156,72.562466,91.379871,50.756836,82.849331,100.083904,112.485638,40.107536,75.521793,95.684795,109.285641,29.501038,62.230968,81.118641,94.129314,19.941273,44.825592,60.147171,73.412418,-12.311612,-10.669545,-1.685416,4.539026,17.087512,34.588505,42.841139,48.394909,33.512875,49.934718,57.575096,61.48328,44.89996,62.675495,68.636447,69.929131,51.952783,69.377823,74.33354,74.952218,44.747257,318.748587,-68.82534,306.510335
3,-7.50309,2.177443,0.24416,0.393227,-18.519402,-39.406357,-57.198772,-76.455975,-65.614929,-56.667881,-34.370155,-17.030869,-63.309631,-48.098087,-23.84388,-1.910706,-56.383266,-43.074017,-19.209251,1.598625,-47.282181,-47.720947,-41.118679,-32.769356,25.169221,38.880344,49.480729,60.251544,27.714758,44.898354,52.704841,58.365316,21.604678,35.446651,45.026918,52.348541,14.293553,27.649611,37.259396,44.952324,6.430564,18.335673,26.599978,35.317654,26.228828,50.491104,72.242203,90.863457,50.197392,82.433167,100.062675,112.755089,39.528751,75.446663,96.01593,109.527969,29.233418,62.646675,81.590767,94.069977,20.283279,45.707817,61.068592,73.518333,-13.10671,-11.557763,-2.442908,3.522799,15.981748,33.681886,41.977683,47.428577,33.206284,49.858394,57.753864,61.816238,45.320974,63.095336,68.713821,69.875778,52.674213,69.812361,74.263392,74.221649,36.582098,320.867846,-69.24325,306.845377
4,-10.755043,12.934735,0.632801,-0.22965,-5.605316,-16.410484,-27.128334,-36.16745,-41.809101,-31.560574,-13.258209,0.644531,-44.319935,-29.543953,-9.52137,8.945961,-41.952381,-30.525341,-11.872559,5.06115,-37.424011,-36.693249,-32.058105,-25.969391,0.250521,3.751152,9.920636,16.267714,7.590237,21.452464,26.822279,32.4131,13.025385,22.679012,30.707739,37.856893,16.517,26.448628,33.478727,39.625857,18.598113,28.233029,34.200589,40.820974,26.295204,50.472622,71.867466,90.155239,50.040894,82.151127,99.580135,112.121487,39.18148,75.002346,95.589581,109.233913,28.679237,62.006721,81.138668,93.806705,19.529686,45.14946,60.758915,73.395824,-13.027855,-11.31743,-2.008309,4.296161,16.208063,33.994899,42.31342,47.721706,33.519173,50.05439,57.749047,61.527555,45.675236,63.626204,69.281801,70.296052,53.045642,70.229485,74.692681,74.473529,25.266495,333.667811,-69.171009,306.480957
5,17.56794,-13.72971,0.403175,0.741128,-10.289154,-24.594154,-44.761391,-65.954475,-58.742008,-53.180122,-28.149834,-11.140137,-65.917168,-54.720383,-28.470612,-7.433853,-67.026672,-61.49826,-36.362457,-15.776024,-65.997963,-81.923275,-86.57547,-87.813778,-0.607562,4.013159,19.83343,35.580896,7.262528,27.431386,35.315925,40.430835,21.608445,34.464819,42.016771,45.828995,33.329167,42.972914,47.362936,49.880995,43.819636,51.166885,55.611989,61.298522,26.001434,50.078545,71.791935,90.245762,50.185146,82.009792,99.101543,111.332417,39.81823,75.506344,95.843182,109.467716,29.453773,62.712193,81.733189,94.430981,20.021896,45.471268,60.904655,73.708248,-13.505124,-12.365458,-3.005454,3.365644,15.740242,32.992628,41.035187,46.414018,32.928037,48.754297,56.33169,60.255311,45.048716,62.222741,67.878399,68.986572,52.545772,69.358927,73.873315,73.928643,42.164354,319.992055,-69.437914,307.27604
6,-15.584908,4.509818,0.561333,0.064529,-11.805954,-27.160492,-43.367157,-60.515156,-55.166016,-35.796146,-12.791748,3.320847,-59.728432,-33.637733,-7.490616,13.612289,-59.003735,-38.134289,-13.55381,6.013527,-55.257111,-54.775887,-47.996235,-40.131569,5.941625,16.829581,32.390932,46.201596,13.019766,30.651175,36.207478,41.05649,19.387036,32.647381,39.27777,44.762812,24.169667,37.410252,41.268788,44.827341,27.909519,39.799746,43.972654,49.430402,25.61079,49.987392,71.869183,90.389614,50.367279,82.048817,99.395313,111.868114,39.878082,75.481968,96.035786,109.667873,29.317074,62.669849,81.529713,93.994274,19.722862,45.421772,60.816765,73.326817,-13.592871,-12.118148,-2.621243,3.452404,15.949082,33.159909,41.087119,46.245625,33.138914,48.878909,56.383313,60.100688,45.189445,62.341055,67.815908,68.757046,52.529285,69.547698,73.843983,73.577221,25.96982,324.523578,-69.486208,307.362274
7,13.211746,-4.720819,0.544052,0.287139,-9.726791,-23.952255,-43.344955,-64.493294,-58.931351,-51.009235,-25.277023,-7.53994,-65.689487,-52.59676,-25.738449,-4.045944,-66.387634,-58.712139,-32.932892,-12.502441,-65.257416,-79.887714,-84.210606,-85.510368,-0.084845,5.302199,22.081762,38.393442,9.47029,28.863501,36.66122,41.981512,22.52513,34.815747,42.816068,47.044737,32.919392,42.243704,47.169966,50.406861,42.510527,49.543158,54.323999,60.282358,25.441818,49.622841,71.284161,89.451771,50.13628,81.508541,98.577518,111.0042,39.832134,75.121593,95.530872,109.23769,29.322281,62.425404,81.28046,93.743763,19.654198,45.20977,60.513783,73.005924,-13.785285,-12.628515,-3.316985,3.013852,15.514791,32.67875,40.555386,45.626947,32.808364,48.554164,56.208189,60.028934,45.044517,62.069229,67.656345,68.641881,52.560963,69.524604,73.885665,73.640083,38.785429,319.842681,-69.338293,307.689335
8,-17.200127,-0.938236,0.466862,-0.123871,-13.087807,-29.968014,-46.370316,-63.44101,-54.792652,-33.844585,-11.699982,3.288574,-56.593208,-28.5252,-3.110962,17.620354,-52.860489,-28.944054,-4.593887,14.260483,-46.100349,-43.083687,-35.550156,-27.577744,16.485322,32.0949,47.162186,60.233513,25.198552,44.219223,49.071632,53.259236,24.605254,40.093307,47.45408,53.269796,23.032595,39.34761,45.390505,50.893208,21.416154,36.62596,42.589136,49.884206,25.461788,49.616146,71.2397,89.370461,49.585876,80.808334,97.902489,110.48996,39.222965,74.543724,94.939842,108.639793,28.775082,61.892166,80.6147,92.961502,19.170685,44.673729,59.972591,72.419472,-13.337224,-12.156063,-2.991684,3.248751,15.897582,33.000223,40.895816,46.197336,33.13348,48.974931,56.569676,60.485208,45.238167,62.273438,67.711179,68.707213,52.557196,69.361397,73.526339,73.196036,21.247931,318.937698,-69.208803,307.598717
9,14.305573,3.30198,0.040455,-0.058231,-3.637161,-12.884674,-28.948631,-47.281322,-53.021736,-43.281097,-17.920074,-1.031227,-63.061638,-48.070621,-21.716766,-1.327972,-65.939426,-57.339706,-32.049065,-13.427696,-66.451778,-80.728912,-84.500542,-86.454849,-9.904396,-8.881994,5.09972,19.903393,4.637271,24.461376,31.411323,35.871432,20.642792,33.272851,40.650543,43.972962,32.832632,42.154104,46.365606,48.440419,43.820995,49.982759,54.615584,59.458484,25.478668,49.81905,71.501369,89.311581,49.29348,80.435772,97.292347,109.809093,39.028931,74.209499,94.578724,108.453884,28.594036,61.493397,80.453053,93.260365,18.928185,44.53577,60.040398,72.882671,-13.413857,-12.237264,-3.122286,3.267894,16.027196,33.05728,40.706674,45.630776,33.241297,49.087502,56.67953,60.336142,45.254345,62.300608,67.995108,68.924513,52.407822,69.209738,73.566786,73.260751,35.228691,322.296534,-69.49316,307.597343
10,-16.12896,1.462065,0.449123,-0.226068,-12.241859,-27.022419,-41.931667,-58.307533,-51.004944,-30.585136,-8.283577,6.727638,-54.017601,-27.270756,-1.62941,18.109131,-51.375504,-29.628468,-5.217819,13.046036,-45.807152,-46.703053,-43.294258,-38.911686,7.7004,20.251603,34.990871,46.105883,16.302109,34.617898,40.340865,44.78319,20.421479,35.057314,42.064875,46.938094,22.880812,37.77884,42.929998,47.436666,24.725482,38.847925,44.552737,51.096058,25.077152,49.119759,70.940437,88.884315,49.21463,80.151672,97.170067,109.872551,39.02338,73.876419,94.217606,108.105698,28.613148,61.163635,80.06321,92.822342,18.954964,44.181347,59.565525,72.323456,-13.148392,-12.081406,-3.092584,3.293767,16.346631,33.380605,41.13763,46.11354,33.338183,49.266702,56.851999,60.541524,45.188457,62.51198,68.288854,69.31669,52.295559,69.380787,73.797238,73.640454,18.870592,323.810145,-69.273176,307.422821
11,16.324768,-0.862592,-0.386581,0.386619,-5.679932,-17.612114,-35.840836,-56.132927,-55.991077,-42.995167,-17.513008,-0.93956,-64.99197,-46.30085,-20.038605,0.695,-66.561184,-55.152855,-29.770432,-10.80471,-65.748997,-79.697399,-84.24305,-86.823006,-7.284696,-5.142451,9.282878,24.819528,3.670259,23.635464,30.966103,36.428915,18.895811,31.484127,39.555832,43.53719,30.192617,40.081451,44.99098,47.515151,40.156416,46.785879,51.485703,56.510457,25.374756,49.453468,71.149292,88.983994,49.137211,80.854568,98.061676,110.742416,38.60321,74.292526,94.71611,108.477745,27.999973,61.057491,80.158997,92.962189,18.315868,43.760777,59.416409,72.467766,-13.454056,-12.518291,-3.599864,2.838296,15.733017,32.802498,40.458438,45.530925,32.963605,48.884714,56.325391,59.966751,44.866553,62.253616,67.899642,68.984102,51.89202,68.884005,73.380855,73.366405,34.995775,322.93809,-69.859343,307.799977
12,-21.523476,5.247921,-0.208683,-0.12418,-8.254852,-18.220711,-31.002903,-45.49324,-41.242905,-20.949955,0.349388,13.299751,-46.365795,-20.572243,3.328285,21.660576,-45.849609,-26.648712,-4.829178,12.210388,-42.206612,-46.923637,-48.486156,-47.808723,-5.033647,1.279407,13.913912,24.214621,7.004287,24.077968,30.520265,36.101576,16.76783,28.989163,36.463742,42.89622,23.320722,33.837373,38.971241,44.4703,28.542399,38.13971,44.001182,51.681143,25.522556,49.691105,71.314602,89.328976,49.628277,81.078701,98.125935,110.848675,39.186459,74.213619,94.504452,108.419552,28.60651,61.057949,80.052052,92.955723,18.967209,44.133682,59.516487,72.270412,-13.243426,-12.317108,-3.480253,2.981063,15.953404,32.959962,40.824371,46.033697,33.050364,49.316843,56.96846,60.729184,44.895205,62.589971,68.433721,69.556652,51.995452,69.155707,73.624337,73.573269,13.329306,328.143233,-70.21102,307.633019
13,25.138779,-9.725566,0.04509,0.380877,-14.749947,-34.986191,-56.496048,-77.297516,-64.395561,-53.412209,-27.905273,-10.129623,-67.990608,-51.920414,-24.584999,-2.117729,-65.882778,-55.108795,-28.316231,-7.375946,-62.134666,-77.872009,-83.950367,-87.159691,6.576666,15.775316,32.308433,47.235298,13.785162,33.141817,39.642468,44.718907,22.373656,36.469793,44.762812,48.504763,28.455022,40.453374,45.561492,48.229542,34.410911,43.172801,49.349509,56.817542,24.835968,49.166279,71.222935,89.961262,50.254612,81.829548,98.953114,111.514835,39.958248,75.345783,95.381641,109.138126,29.433632,62.196178,80.819492,93.522434,19.728699,44.868107,59.918346,72.793407,-14.083416,-13.228976,-3.775482,2.649895,15.245683,32.135841,40.059221,45.396618,32.361477,48.017429,55.695414,59.638363,44.151112,61.200957,66.894962,68.108296,51.304465,68.252545,72.762733,72.992074,38.359623,318.363789,-70.274391,307.960018
14,-15.148888,2.012261,-0.076561,-0.435464,-11.249313,-26.774368,-41.187687,-55.680885,-53.769608,-35.721474,-14.379845,-0.198441,-54.934959,-31.901779,-7.746964,11.950378,-51.152515,-32.285786,-10.613365,6.554832,-44.674358,-42.9566,-36.837959,-29.950905,15.944142,29.698922,43.540092,54.944467,21.701503,40.713529,46.725796,50.939459,22.214525,36.930081,45.312329,51.550355,21.562935,36.40477,43.405723,49.005497,20.449205,34.160019,40.916811,48.334209,24.853935,48.960457,71.228657,90.466518,50.334492,81.775646,99.049129,111.686039,40.052719,74.998684,95.069332,108.575649,29.407082,61.785507,80.319958,92.807636,19.619122,44.63522,59.633503,72.331524,-13.75157,-12.69502,-3.454256,2.753142,15.65694,33.077473,41.086748,46.46101,32.592855,48.996235,56.929002,61.060536,44.27733,62.058423,67.971148,69.404931,51.31379,68.873075,73.461872,73.755989,23.06694,320.366386,-70.494747,307.51489
15,12.440186,-0.301095,-0.13979,0.065826,-12.617569,-30.724525,-51.507225,-70.755959,-60.293999,-49.30109,-23.80291,-6.103134,-65.46484,-49.041309,-22.010078,0.04921,-64.73671,-54.123917,-27.911797,-7.066498,-62.314053,-77.066574,-80.67976,-80.763302,-0.574711,5.410139,21.99914,38.687251,6.92784,27.164685,34.706078,40.22885,19.477315,34.1276,42.975323,47.214921,29.399618,41.305283,46.843307,49.739463,38.615867,47.20183,52.08709,57.36675,25.040531,49.246674,71.734543,91.144981,50.918484,82.325134,99.477882,111.846657,40.767975,75.54142,95.470619,108.857231,30.120049,62.328129,80.760956,93.123207,20.19516,45.076904,59.973907,72.550392,-13.871551,-13.022606,-3.873295,2.26025,15.502688,32.699931,40.70371,46.026658,32.418596,48.81438,56.818345,60.869975,44.068305,61.771963,67.711241,68.995835,51.127983,68.753403,73.418029,73.688125,35.340929,320.085746,-70.800734,307.601171
16,-24.258499,6.956122,-0.248909,-0.460596,-7.670059,-17.652054,-29.412403,-42.248497,-39.757576,-19.128971,1.611671,14.520264,-43.306446,-17.995834,5.537796,23.976517,-41.934414,-22.305164,-0.862312,15.579071,-37.723274,-39.011421,-38.059731,-35.430279,-2.579376,4.180132,16.705215,27.669495,9.162217,26.817648,32.729571,37.931487,17.352669,29.238758,37.049136,44.228115,22.500306,33.273221,38.809949,44.88446,26.355323,36.802566,42.61964,50.450148,25.032177,49.535351,72.118835,91.576653,51.121387,82.41909,99.710426,112.251091,41.068325,75.975609,96.22261,109.833984,30.399399,62.876415,81.511459,93.927612,20.343533,45.50457,60.624561,73.298607,-13.649496,-12.519093,-3.158719,2.65428,15.834967,33.06043,41.168444,46.651386,32.803054,49.083612,57.078252,61.323655,44.537855,61.888918,67.657333,68.940568,51.761727,68.986264,73.505344,73.76803,10.931797,326.996698,-71.200275,307.095404
17,25.105133,-10.323681,0.022488,-0.253856,-15.301781,-36.332703,-57.345371,-76.96249,-63.40147,-52.732315,-27.674904,-9.326591,-65.805073,-49.824371,-23.302689,-0.658264,-63.096085,-51.688328,-25.27771,-4.009094,-59.077606,-72.964325,-77.683411,-78.772259,13.097695,24.566969,40.953491,55.191407,19.354864,37.943837,44.566878,49.678639,24.212213,38.891459,47.076476,51.18893,26.645179,40.209275,45.419466,48.788445,29.259815,40.667586,47.925668,56.443026,25.316963,49.587879,71.772137,90.724239,51.244183,82.387791,99.385929,111.636944,41.191063,76.194248,96.297855,109.63274,30.548744,63.209553,81.685925,93.814602,20.491161,45.811615,60.888233,73.413677,-13.70995,-12.712496,-3.107281,3.209107,15.525844,33.111991,41.444839,47.150268,32.730003,49.240026,57.41436,61.696689,44.67383,62.110293,67.961948,69.267043,51.968529,69.087966,73.575431,73.722273,35.953932,316.654461,-71.260786,306.822993
18,-12.904129,4.312711,0.261211,0.041188,-13.20385,-28.82412,-41.656494,-54.753399,-51.115723,-38.071117,-17.627792,-3.008423,-49.671135,-31.178169,-8.785286,10.426826,-44.210415,-28.926086,-8.410149,9.044266,-36.518955,-36.677628,-32.04689,-25.489426,17.234478,31.875377,44.710942,56.107165,25.369354,41.779588,47.444571,52.158041,23.178449,36.141096,43.633582,49.637019,19.423222,32.835535,39.775293,45.700615,15.419695,27.753167,36.058412,45.197288,25.149136,49.314823,71.497536,90.544052,50.905266,82.306824,99.30233,111.406059,40.962582,76.405449,96.579781,109.859047,30.488491,63.571014,82.061691,94.018021,20.669689,46.223545,61.402359,73.843117,-13.646471,-12.651239,-3.102773,3.113394,15.634587,33.3296,41.482692,46.915308,32.856591,49.317399,57.339086,61.416898,44.75886,62.06466,67.679748,68.759578,52.01935,68.991883,73.3761,73.44205,23.033609,320.954327,-71.015768,306.851336
19,14.179688,-3.865946,-0.03828,0.330179,-14.71344,-34.457817,-55.064449,-76.015377,-62.725067,-52.454052,-27.621231,-9.692917,-65.600739,-50.756321,-24.550896,-2.269936,-63.405476,-53.655453,-27.804337,-7.075081,-60.090637,-75.88789,-83.312588,-87.564697,9.878646,20.560726,37.938342,52.580846,18.218348,36.209145,42.510404,47.728252,24.993541,37.681954,45.496777,49.716059,29.451056,41.085143,46.2384,49.526177,34.027812,43.333413,50.119104,58.653999,25.384598,49.499073,71.747646,90.809155,51.397362,82.72459,99.593868,111.593914,41.482258,76.842899,96.839161,109.951458,30.973663,64.002056,82.298412,94.075413,21.022854,46.521091,61.558628,73.858738,-13.975662,-13.173648,-3.532865,3.012864,15.483978,32.887343,41.118056,46.78273,32.758038,48.946958,56.9621,61.217259,44.697233,61.738309,67.327524,68.519307,52.042691,68.853438,73.171706,73.221971,37.164917,317.063388,-71.102428,307.156522
20,-8.400307,1.505969,-0.043716,-0.123686,-15.601044,-33.564034,-48.503723,-63.8451,-59.02462,-45.92411,-24.962997,-9.599419,-56.836052,-38.001423,-14.517975,6.034012,-49.709129,-32.784004,-10.13031,8.248329,-40.141068,-37.870502,-29.552193,-20.293579,27.872963,44.69396,56.406531,66.38583,33.217955,49.559769,55.070808,59.5931,24.768337,39.355637,47.678728,53.513772,14.957617,30.055902,38.284885,44.975048,5.217663,17.668151,25.730223,34.279506,25.389004,49.534435,71.666279,90.773335,50.984001,82.591381,99.551525,111.651363,41.240559,76.825161,96.963902,110.333691,31.086273,64.186649,82.675724,94.717541,21.629219,47.130718,62.193718,74.522839,-13.724523,-12.812655,-3.242205,3.314824,15.544616,32.843315,40.891987,46.309968,32.87172,49.035323,56.961915,61.120558,44.78603,61.783016,67.342776,68.394633,52.024537,68.921796,73.257046,73.209312,28.744583,318.583714,-71.166172,307.047193
21,-15.138817,13.942132,-0.165195,-0.537723,-6.994171,-17.010269,-25.856094,-35.652122,-36.810837,-23.617802,-6.104736,6.965675,-34.470921,-16.190186,3.992615,22.324562,-28.692226,-12.061844,6.409492,23.524704,-21.113777,-15.791016,-8.308983,0.06134,15.723569,27.933355,36.378032,45.642076,18.401376,31.727609,37.221234,42.243272,13.899524,24.810822,33.121068,38.952777,9.031554,20.429136,28.550179,34.135689,4.658019,12.767453,19.437177,26.728851,25.420876,49.908714,72.189674,91.617622,50.887928,82.732544,99.930725,112.231636,40.992165,76.73584,96.994629,110.456772,30.864716,64.138298,82.729683,94.862938,21.547909,47.318745,62.439308,74.708748,-13.386378,-12.26851,-2.591788,3.870269,15.699486,33.26575,41.460894,46.981195,33.036532,49.586507,57.620606,61.799874,44.910889,62.398112,68.037098,69.040913,52.067021,69.215049,73.546408,73.425068,13.582306,332.520396,-71.354828,306.504021
22,21.383858,-16.413754,-0.304127,0.024021,-13.420715,-31.696129,-51.328697,-71.070499,-59.730091,-48.50132,-24.014511,-6.416702,-63.737869,-47.048321,-21.465111,0.429268,-62.453384,-51.123161,-25.632706,-5.046616,-59.931908,-75.070667,-81.738052,-84.746246,10.175789,21.849457,39.939487,54.662082,17.899592,36.654612,43.117843,48.141486,25.291981,39.092333,46.649596,50.21278,30.358726,43.207628,47.764314,50.682515,35.26881,45.821399,52.635187,61.203859,25.727634,50.2561,72.448826,91.731892,51.395302,83.42577,100.703602,113.003254,41.289253,77.125683,97.332859,110.705051,30.988655,64.255657,82.854824,95.027332,21.573715,47.255344,62.415791,74.80711,-13.534394,-12.455367,-2.62711,3.887868,15.91129,33.325524,41.467501,47.045416,33.156822,49.613369,57.593251,61.839333,44.903232,62.170191,67.863518,69.06623,51.867259,68.841335,73.181957,73.218513,34.944077,316.101594,-71.681042,306.522994
23,-17.580414,5.922667,0.123539,0.032234,-7.174988,-17.286873,-27.237053,-39.252262,-43.140221,-23.512115,-2.986794,10.758934,-47.060108,-22.833595,0.924454,20.654755,-46.160202,-28.513641,-6.460648,11.787987,-42.460785,-47.359314,-48.726826,-47.073841,8.456225,21.765168,37.654845,49.929407,17.618875,35.963316,40.907734,44.941332,22.229531,35.442637,41.466451,46.781433,25.077275,38.308412,42.564127,47.497799,27.059278,38.537074,45.757611,55.512262,25.826969,50.482521,72.866478,92.231598,51.357422,83.376732,100.534058,112.675209,41.228313,77.106285,97.320786,110.557137,30.991058,64.326897,82.977104,95.009079,21.635628,47.250824,62.351418,74.625893,-13.622635,-12.56343,-2.813719,3.526628,15.502564,33.08161,41.243718,46.764637,32.935385,49.74607,57.841302,61.965674,44.810854,62.360444,67.962009,68.896231,51.845399,68.920067,73.400059,73.487807,17.364979,322.028769,-71.556187,306.559735
24,15.618095,-6.357699,0.223675,-0.019698,-12.273788,-29.829712,-49.307556,-68.214455,-59.564953,-47.677174,-22.428474,-4.297943,-64.193459,-46.618881,-19.956207,2.971687,-63.409138,-51.150627,-24.811935,-3.43174,-61.099777,-75.147514,-80.213642,-81.777134,10.012274,21.634566,39.064607,53.576201,17.104247,36.884509,43.928996,49.051378,24.193503,39.128519,47.691016,51.721898,28.806691,42.385606,47.897942,51.332809,33.517074,44.257385,51.603523,60.697197,25.635509,50.25753,72.761478,92.322178,51.156979,83.120327,100.344486,112.525005,41.221962,77.048092,97.253208,110.50581,31.066818,64.447002,83.074207,95.130215,21.726265,47.33614,62.459278,74.891453,-13.475792,-12.509645,-2.87053,3.416156,15.68763,33.140088,41.205926,46.597911,33.136136,49.671784,57.582753,61.556701,45.048902,62.248367,67.733842,68.589764,52.116977,68.989722,73.421302,73.524919,32.963591,315.673077,-71.351995,306.542044
25,-21.10817,10.820339,-0.198441,-0.004446,-1.244431,-4.011269,-9.155159,-16.253471,-34.362087,-12.973824,7.551727,20.580711,-43.013248,-16.550217,6.642952,25.782738,-45.213032,-26.92709,-4.76738,13.836823,-43.934097,-50.176506,-52.856426,-52.108154,-7.899792,-3.241897,9.805657,19.933465,4.725018,23.958481,30.316303,35.357854,17.63246,30.931646,37.468977,43.286298,26.754972,38.299767,42.123105,47.368741,34.440984,43.775485,49.875067,58.516296,26.604595,50.829906,73.10503,92.271252,50.020924,82.319927,100.09409,113.012638,40.008888,76.136799,96.781826,110.458088,30.227051,63.914509,82.70525,94.807835,21.376305,47.089462,62.394505,74.938488,-12.339647,-11.659034,-3.039479,3.612029,16.006818,33.547949,41.533265,46.862141,33.150338,49.897606,57.902435,61.98494,45.215751,62.659749,68.351778,69.292731,52.693664,69.470448,73.859791,73.690163,11.835651,326.453773,-71.570206,306.497954
26,23.672333,-3.838035,0.453701,0.271825,-8.08136,-22.955132,-42.18544,-62.031269,-58.000889,-47.577667,-22.78656,-5.635414,-65.001698,-48.376923,-21.518097,0.241928,-65.316124,-55.269527,-28.860855,-8.173485,-63.984375,-79.590225,-86.032219,-89.919834,-2.64687,1.739941,16.785553,32.205866,8.245347,26.568732,34.300995,40.859939,19.939455,31.803562,40.521732,45.705555,28.257236,38.041835,43.64797,47.84885,36.118063,43.261351,48.708046,55.455513,26.436768,50.57745,72.623177,91.565323,49.971771,82.521172,100.239029,113.201637,39.967289,76.142464,96.63208,110.318184,30.071011,63.86158,82.551727,94.769669,20.974159,46.916828,62.181473,74.678421,-12.723302,-12.024472,-3.073997,3.413192,15.729127,32.835102,40.836659,46.366408,32.799596,49.024578,57.050465,61.451478,44.773989,61.697986,67.55316,68.890612,52.276664,68.7773,73.083712,73.033386,35.468931,322.614271,-71.155558,306.768313
27,-31.506271,5.277067,0.465088,0.291091,-2.098846,-5.949669,-10.856781,-17.956924,-30.822773,-6.908455,14.13414,26.996384,-38.251534,-8.294563,15.466919,33.30368,-40.193424,-17.193317,4.707298,21.363602,-38.559608,-36.86491,-32.502251,-26.372738,-7.928629,-3.683844,8.204407,19.309045,3.349713,22.521425,28.637001,32.226058,15.561474,31.244597,37.211354,41.595078,24.444456,38.196891,41.274284,44.918546,31.539887,43.470252,48.366134,54.432062,25.770206,50.059147,72.185326,90.888863,49.427891,82.074394,99.799004,112.868958,39.477024,75.930977,96.602097,110.186119,29.645576,63.860664,82.732544,94.912491,20.732117,46.987209,62.476387,75.029182,-13.46264,-12.970304,-4.323887,2.045853,15.003127,32.202284,40.257193,45.8821,32.373827,48.770167,56.533984,60.566718,44.555084,61.648647,67.249039,68.217224,51.985572,68.54481,72.675604,72.269348,3.889961,327.870312,-70.763168,307.038378
28,26.676064,-0.85691,0.016823,-0.190747,-0.245132,-9.607315,-26.594467,-44.771461,-50.181427,-33.855629,-8.568077,7.76516,-60.74501,-40.451488,-15.580673,4.222641,-63.405361,-52.003155,-28.215981,-12.123642,-63.099861,-76.813717,-81.879215,-86.989403,-15.566044,-20.8893,-16.667548,-9.110285,-0.181361,19.289902,25.790307,29.366705,16.403503,28.378266,34.816179,36.929772,27.939591,37.847877,41.197775,41.941559,37.892893,44.123325,48.634563,53.024832,25.296135,49.453697,71.525803,90.631943,49.43224,81.726723,99.432907,112.245369,39.571037,75.955811,96.671562,110.266457,29.830971,63.958969,83.019562,95.329056,20.946407,47.0854,62.613716,75.306816,-14.268915,-13.731316,-4.643322,1.552405,14.192159,31.278683,39.189899,44.529766,31.82573,48.061828,55.693932,59.574883,44.237069,61.218309,66.61548,67.477824,51.8927,68.172084,72.406804,72.15338,30.508318,326.969466,-70.804052,306.803695
29,-36.002769,0.943608,-0.272598,-0.84419,7.326393,12.829399,18.300705,20.391884,-18.899002,9.1222,30.543365,43.946342,-30.736885,1.052055,24.490585,44.012833,-34.846687,-9.541168,12.948303,29.805222,-34.385777,-33.066788,-30.217495,-26.162052,-20.637482,-25.190895,-20.005898,-12.60153,-5.765821,12.973885,21.319762,25.724048,13.326912,30.616472,36.555935,39.663031,27.030255,40.471714,43.645315,46.291814,36.975467,48.303951,51.669842,54.819607,25.58527,49.912491,71.559219,89.995079,49.269848,81.500587,98.861275,111.534576,39.461517,75.790443,96.480789,110.254555,29.903469,63.43689,82.733917,95.720215,21.307812,47.311707,62.660179,75.110092,-14.140165,-13.309807,-4.120173,1.683501,14.194567,31.432195,39.591709,45.201116,31.750148,48.319203,56.599872,61.062574,43.967528,61.086225,67.230576,69.127548,51.340713,67.310666,71.608248,71.927683,-5.636015,327.863056,-71.218214,305.909488
30,-2.780571,5.595761,-0.036049,-3.350083,5.170784,9.852676,18.848076,25.332527,-11.07605,14.075203,33.779068,46.365967,-21.188107,5.287285,28.108864,45.903969,-26.31609,-7.341957,14.296417,30.402489,-26.953983,-31.344051,-33.004646,-34.711819,-18.442378,-23.898089,-22.771391,-20.498543,-6.958283,10.713511,21.735713,29.62087,8.268936,23.754519,32.450768,37.524552,19.373513,33.320584,39.815554,44.760589,29.112911,38.159532,46.070624,55.415005,25.537148,50.013199,71.980476,90.727158,49.49667,80.088158,97.077827,109.69986,40.188789,74.307976,94.707756,108.946838,30.796852,62.367039,81.495895,94.871864,21.946907,46.622658,61.137714,73.223305,-14.251872,-12.860388,-4.083925,0.439663,14.342027,32.299109,42.027145,49.021491,31.062124,49.445407,59.321151,65.019108,43.149953,60.861083,68.663062,72.153072,50.983116,67.485976,73.221663,75.093132,-8.551197,333.399289,-71.388874,302.499877
31,-2.868576,4.233176,1.435204,-8.073434,6.636543,11.240616,18.414688,22.029076,-3.682194,19.062195,36.195488,46.825104,-13.404865,7.249718,24.012451,37.688599,-19.258175,-6.668873,6.86657,16.10527,-20.624657,-27.159176,-29.714699,-32.89444,-19.448107,-25.661989,-28.93896,-33.19134,-14.36648,-1.562162,8.893788,18.192845,0.595953,13.407682,23.384819,30.932819,13.217429,25.01219,32.961011,39.675751,24.26044,32.314361,39.564724,48.886443,26.017113,50.052567,70.956116,89.240456,50.10973,77.114868,92.097473,103.433647,40.049171,69.66774,87.860298,101.033134,29.36039,55.818787,73.201904,85.552368,19.020481,40.552197,53.99992,64.743919,-14.552596,-10.757786,-0.982326,1.376355,14.373643,33.41994,44.607077,53.574534,31.512408,53.05157,65.278398,73.495711,43.663593,64.600008,74.992788,80.877479,51.434759,69.133785,76.036308,78.750362,-11.731796,337.523676,-70.265694,294.317654
32,53.743858,-23.05995,3.358669,-10.633359,-25.248299,-43.881569,-54.893417,-59.207211,-69.022121,-89.638996,-97.23753,-100.383282,-62.953491,-86.150322,-95.528526,-101.444149,-52.522202,-71.606426,-81.424084,-90.408211,-39.245567,-51.297569,-59.404736,-67.539711,-19.856092,-26.981534,-31.689138,-35.377984,14.454907,27.260646,32.884194,36.282443,30.043922,46.899561,53.863402,57.482409,40.116464,54.240636,60.988906,65.93073,46.351403,60.444885,66.099123,69.767036,25.27668,48.883438,68.805141,83.643665,52.81105,75.436878,88.869724,98.118153,43.49596,68.153629,81.573544,90.968342,31.272182,47.880363,55.998917,59.550762,17.658234,26.37291,30.570259,32.112522,-14.493624,-12.226767,-4.334879,-2.643226,11.873184,28.460271,39.861743,48.686804,28.171773,48.126913,60.770062,71.022236,40.849565,63.905995,77.229758,87.131005,49.498698,71.041564,81.466886,86.727342,41.660442,314.697498,-67.258644,283.918067
33,1.069107,-1.273417,16.067276,-17.485185,-25.288925,-45.623474,-59.576797,-69.082947,-54.792538,-82.758293,-96.380367,-106.64463,-47.166138,-77.92923,-94.669075,-107.194576,-37.617874,-64.783516,-80.243511,-92.832756,-27.348404,-48.141632,-59.35833,-70.01358,-16.960245,-26.944175,-35.417875,-45.346045,9.486592,24.891344,33.708438,39.313832,25.208247,42.847252,52.347059,58.83641,37.436496,53.592627,61.656675,67.236751,46.575619,60.990264,68.203948,73.151946,13.018856,24.960651,31.149445,35.974674,35.835228,43.833675,42.6824,37.1422,33.352375,38.237915,30.190029,16.212387,26.466923,28.039055,18.086815,6.916351,16.927299,15.68264,9.079914,1.476688,18.169256,37.46416,54.898154,69.981495,33.753887,61.356691,80.118813,94.756933,34.533177,68.06291,89.800475,104.104032,35.68334,67.839991,85.305477,96.052148,34.878856,59.320842,74.403318,85.257065,42.461157,313.665509,-51.459761,266.67431
34,2.916298,-5.417117,-21.122875,-49.752554,-26.209488,-47.581673,-66.933632,-84.109325,-53.969994,-83.203468,-98.327465,-109.53867,-45.977097,-76.372032,-94.382858,-107.947998,-35.609207,-63.668976,-80.709572,-93.226433,-24.222107,-46.855888,-60.326557,-72.205353,-13.884827,-13.353712,-2.083212,7.491869,14.401616,30.262395,39.927816,47.819828,30.969746,47.964077,57.380644,64.30867,43.105307,59.996392,68.946805,74.782095,51.19634,66.259612,73.305087,77.552466,34.98579,60.224247,75.732422,78.592186,73.023949,90.250854,82.530441,71.604996,60.171432,79.046974,70.402794,57.372952,43.987942,62.841797,55.766602,44.423733,25.311699,46.571617,44.8629,37.225227,-5.386365,0.939409,10.584576,16.866075,22.11943,61.82056,71.946764,72.185305,33.671265,76.102566,87.639334,88.143711,45.008826,81.12411,89.828818,89.813134,54.402977,77.103417,80.757683,78.738877,45.367727,308.517161,-72.592363,217.190525
35,3.935394,2.165772,-16.868591,-27.751067,-26.539078,-50.711288,-71.486492,-88.325844,-56.948891,-85.54739,-101.577015,-113.797417,-49.039192,-79.636631,-98.351955,-112.365704,-38.685379,-66.878529,-84.311199,-97.451591,-27.109337,-50.530472,-64.015903,-75.373077,-17.737868,-18.003827,-5.437494,4.523218,12.037687,29.421972,38.595551,45.936687,29.034982,45.242798,54.314983,61.678411,41.423226,56.995816,65.712627,72.253972,49.68185,63.773788,70.626478,75.910955,34.262581,63.565636,81.962585,83.135033,64.466743,99.748421,89.42585,76.714725,53.246269,92.482681,84.321556,71.812248,42.740879,79.376221,73.433475,63.545437,32.996693,65.020809,61.934738,53.609962,-17.851674,-21.663094,-23.971078,-23.859989,6.731351,26.314938,17.14389,9.607314,22.213846,37.370053,27.875556,23.297442,34.52941,46.243093,35.910273,31.361614,43.631853,48.016318,38.944812,34.469018,49.302063,311.01708,-89.462013,189.773605
36,0.511436,-2.18652,-6.450062,-21.172734,-27.210274,-50.864067,-70.888367,-88.474674,-57.474518,-85.996799,-102.021675,-114.174957,-49.180756,-80.308228,-98.581753,-112.42939,-38.43647,-67.087841,-84.246712,-97.14386,-26.487122,-50.754776,-64.478531,-75.91095,-17.130305,-15.692817,-1.558333,8.094676,13.402495,31.638009,40.912921,48.337976,30.295123,47.048503,56.163667,63.657697,42.543873,58.656716,67.268244,73.739007,50.783477,65.613456,72.332271,77.078964,30.230598,55.794697,69.897366,69.689655,58.45396,83.413353,73.416481,63.186264,48.803272,74.850311,67.108498,57.118206,37.311344,62.189999,56.280441,47.662868,25.380306,44.755497,40.515804,31.820011,-16.108212,-32.853195,-47.896645,-61.750505,-22.091395,-14.819975,-14.284291,-15.669846,-8.710451,-2.471004,-2.020165,-2.053757,3.753252,9.19723,8.598066,6.88727,16.358796,17.17952,16.300936,14.695487,49.0765,310.118766,-96.649075,169.889077
37,-0.376396,1.224387,-6.589851,-27.73211,-27.425995,-50.832825,-71.449013,-88.834591,-57.783852,-86.560707,-102.335415,-114.013653,-49.868202,-81.318169,-99.097023,-112.490845,-39.73629,-68.367462,-85.316792,-97.751827,-28.605766,-52.085838,-65.405674,-76.303482,-17.838274,-17.197366,-3.49532,6.801067,13.566566,30.433258,39.597699,46.962176,30.791905,46.622117,55.363999,62.650856,43.20559,58.492337,66.198356,72.055506,51.133787,65.693546,72.211982,76.871976,20.423241,42.377586,56.445293,57.39624,40.184326,64.421482,56.425838,47.7598,34.489689,61.750774,54.538078,46.49683,28.269424,54.84066,48.170357,40.489254,22.462006,42.482243,37.825356,30.264473,-26.506704,-47.916282,-64.588924,-78.624144,-39.532212,-35.221138,-31.460754,-31.512748,-22.159938,-18.21915,-16.129949,-16.581962,-5.491279,-3.417824,-2.757773,-3.737011,10.069516,10.802185,9.918413,9.296463,47.55847,311.97378,-104.38056,142.787593
38,-0.169258,-0.272566,3.926582,-19.884312,-27.465019,-50.687027,-71.550236,-88.768387,-57.736473,-86.59996,-102.152138,-113.841877,-49.996719,-81.616287,-99.235554,-112.844009,-40.015526,-69.155102,-85.845795,-98.324146,-29.062386,-52.661476,-65.80822,-76.813488,-17.352236,-16.649023,-3.565345,6.815455,13.910886,30.303582,39.006191,45.755944,31.061322,46.660093,55.112243,62.016742,43.50403,58.668511,65.955739,71.437199,51.516763,66.056886,72.303619,76.767618,13.837509,28.991776,37.385159,36.671104,26.537247,38.649387,31.833229,25.777931,21.013756,34.939098,28.986454,23.270645,15.387383,30.222473,24.288139,18.838863,10.842762,21.615715,17.88414,13.989773,-31.543345,-58.19893,-77.222842,-90.96305,-46.369805,-49.573786,-41.436255,-37.534216,-29.166912,-35.463663,-29.403632,-25.621574,-12.689741,-19.377619,-16.184351,-14.027007,3.079987,-1.661951,-2.031403,-1.032652,47.049551,312.768384,-100.793638,123.970451
39,-0.077362,0.123316,-4.061394,-9.594594,-27.687836,-50.737381,-71.370335,-88.440056,-57.768631,-86.606255,-102.032661,-113.703632,-50.164948,-81.857586,-99.484234,-113.155861,-40.37384,-69.496822,-86.167374,-98.629074,-29.591446,-53.069916,-66.184444,-77.214146,-17.285052,-16.571217,-3.429062,6.591054,13.693216,29.961485,38.761104,45.538459,30.836612,46.243525,54.868143,61.826859,43.435425,58.391066,65.81927,71.312896,51.623591,65.984576,72.285835,76.784661,12.239914,24.638443,30.617409,28.355885,16.813946,45.419712,35.926609,24.843979,11.386642,44.210186,35.251694,25.967159,9.094334,40.02737,30.880966,21.311188,9.928036,30.472698,25.449371,19.94957,-32.062975,-59.867765,-79.017741,-97.658987,-56.845052,-59.277184,-52.530952,-49.248393,-39.63762,-43.001875,-37.97002,-35.972208,-22.823909,-28.351127,-24.846452,-22.697445,-6.772507,-12.228341,-12.037718,-11.284394,46.612129,313.849958,-105.215092,115.334116
40,0.734138,0.867038,2.419453,-7.362255,-27.622261,-50.947037,-71.913929,-89.232273,-58.144913,-87.383308,-102.969246,-114.557419,-50.517311,-82.53788,-100.187817,-113.784828,-40.648842,-70.24229,-86.919479,-99.060974,-29.852142,-53.679428,-66.625557,-77.182159,-18.041556,-17.3439,-4.132091,5.839366,12.696502,29.224679,38.18275,45.149122,29.971489,45.824116,54.389639,61.451416,42.571537,57.705884,64.882084,70.368052,50.735744,64.960754,70.972713,75.299132,14.450512,22.657185,28.130836,28.423405,4.899445,44.799614,39.363098,27.779102,-0.759087,45.955467,38.20776,25.278683,-0.972691,42.459698,34.31694,21.332531,3.39529,36.035385,30.463829,20.003529,-28.443938,-57.294718,-78.84342,-95.818824,-63.594866,-63.534628,-51.887791,-52.076531,-46.726629,-45.134951,-36.002621,-36.414743,-29.212206,-29.722079,-22.095069,-23.203273,-13.039248,-14.910285,-10.127438,-10.299753,46.951332,315.327707,-103.190575,108.582573
41,0.359802,-0.131281,-0.483284,-6.67275,-27.161636,-50.379868,-71.561966,-89.226265,-58.108292,-87.668209,-103.167,-114.547749,-50.856628,-82.934132,-100.340652,-113.431606,-41.216354,-70.69479,-87.159748,-98.871746,-30.523338,-54.075394,-66.781311,-76.943321,-18.251816,-17.370947,-4.190506,5.646025,12.61598,29.150208,38.04554,45.074034,29.765983,46.05778,54.636024,61.758995,42.150955,57.869028,65.218809,70.902935,50.021045,64.91228,71.165497,75.655802,15.684299,23.889084,29.016552,31.947384,5.022526,43.839397,40.478668,29.512997,0.03828,45.856934,39.827156,27.924156,0.291595,42.635479,35.425186,23.707809,4.553146,35.887871,31.3167,22.211151,-27.787222,-55.747315,-77.458698,-96.53763,-59.188604,-60.616397,-47.879046,-48.064205,-42.753917,-43.003296,-33.246638,-30.840595,-24.845247,-25.065604,-18.735353,-17.825985,-7.322981,-8.852879,-4.902118,-3.620118,46.9911,315.904271,-103.993893,102.617668
42,0.266075,-0.615466,-1.294041,-5.416931,-27.417984,-50.535965,-71.775398,-89.451199,-58.002663,-87.631531,-103.109322,-114.491158,-50.904465,-83.087196,-100.564499,-113.74506,-41.444321,-71.063519,-87.658024,-99.551239,-30.905113,-54.479828,-67.249947,-77.608681,-17.817587,-16.957342,-3.973269,5.850913,12.985988,29.058262,37.80354,44.551687,30.09394,46.072044,54.479548,61.294138,42.485704,58.095467,65.239866,70.585476,50.370861,65.277225,71.524205,75.918859,15.811214,22.766647,26.763153,28.019543,2.664127,41.547775,37.976246,26.508465,-2.301407,43.338318,36.060047,23.310127,-2.157726,39.83717,32.091064,19.700661,1.385479,32.628708,27.764111,17.557812,-27.515428,-55.155962,-76.48088,-95.062444,-57.383917,-58.768979,-46.942663,-48.075166,-39.793787,-40.462451,-31.663388,-29.609323,-21.322664,-22.454117,-16.937181,-16.246163,-4.077905,-6.253958,-3.452311,-2.818134,46.907959,315.941383,-105.63715,97.853315
43,0.503654,0.083919,-4.291763,-6.037801,-27.492828,-50.699387,-72.072487,-90.104542,-58.698349,-88.075562,-103.383865,-114.904747,-51.572456,-83.663177,-100.94141,-114.240417,-42.112198,-71.722813,-88.242188,-100.221748,-31.545982,-55.136604,-67.841549,-78.248405,-17.681366,-17.114065,-4.388972,5.375497,12.911949,28.83065,37.297064,43.774991,30.070413,45.673136,53.891561,60.654836,42.558569,57.751147,64.614767,69.804086,50.60403,65.148599,71.294988,75.750712,13.758373,18.38007,22.333431,21.754532,-1.846561,34.832554,32.061596,20.145035,-5.937424,36.733704,31.821671,20.069962,-5.220108,34.27454,29.014778,17.613888,-0.622559,27.939434,25.328751,16.263828,-26.684082,-55.403365,-76.46887,-94.72084,-61.525116,-62.663824,-50.497017,-50.183819,-46.259827,-45.694934,-35.794861,-34.565812,-29.105347,-29.740419,-22.201836,-21.623265,-12.308648,-13.542483,-10.12432,-10.595846,46.629324,316.068558,-110.711203,91.85877
44,0.857506,-0.011918,-10.151081,-8.155006,-27.219887,-50.572586,-72.138863,-90.564995,-58.624763,-88.321609,-103.733311,-115.303688,-51.745949,-84.088554,-101.518078,-115.059128,-42.473259,-72.151623,-88.815193,-100.998116,-32.009583,-55.638542,-68.55051,-79.304409,-17.885451,-17.632707,-5.072426,4.319874,12.532431,28.191286,36.5794,43.062638,29.78173,44.99839,53.159509,59.88203,42.354793,57.239483,64.142376,69.247653,50.543206,64.961001,71.143267,75.468266,16.166039,20.69458,24.337521,22.623024,-5.172272,32.114525,30.736828,19.188194,-11.448956,32.573891,29.326515,17.996063,-12.615623,29.680424,26.170578,14.572849,-9.019489,21.11784,20.847015,12.388172,-27.372537,-55.454618,-75.435384,-91.137526,-67.499684,-68.391453,-54.933352,-52.69033,-55.513929,-53.904713,-40.810075,-38.870588,-40.625133,-41.832353,-29.28149,-27.20788,-25.093824,-27.965557,-21.489112,-21.273634,47.373705,315.93652,-120.975409,83.583644
45,0.714569,-0.059033,-7.454967,-8.676736,-27.305832,-50.820694,-72.128277,-90.4319,-59.148445,-88.708992,-104.206696,-115.850601,-52.107468,-84.390335,-101.79554,-115.284176,-42.656479,-72.282143,-88.796196,-100.866795,-32.032013,-55.617714,-68.539753,-79.284782,-18.012163,-17.77887,-5.147823,4.006243,12.414241,28.161214,36.614104,43.085794,29.751472,44.767999,52.784252,59.367155,42.447665,57.17094,64.153676,69.34386,50.740314,64.94896,71.110354,75.363846,14.410744,17.294712,18.964119,17.359028,-11.675606,23.19294,24.255524,15.432529,-18.401527,21.806259,20.405045,11.505318,-20.034313,17.308388,16.458263,8.388405,-17.396049,7.502289,9.932957,4.970455,-29.027418,-55.334976,-73.183099,-84.792424,-66.049908,-66.517914,-54.288091,-52.107035,-54.139674,-51.242499,-40.199179,-38.084536,-38.86608,-38.968802,-28.100945,-25.282471,-22.342966,-25.601536,-19.528537,-17.770626,46.644516,314.717906,-129.874134,73.747328
46,0.542908,-0.061071,-9.55061,-7.022133,-27.411118,-51.066513,-72.552681,-90.45805,-59.367371,-89.0625,-104.738503,-116.333714,-52.278099,-84.611664,-102.201176,-115.688782,-42.798042,-72.470112,-89.228725,-101.494961,-32.157211,-55.803795,-68.751183,-79.637718,-18.045817,-17.919229,-5.851963,3.292779,11.826068,27.756501,36.446822,43.132045,29.031524,44.489443,52.816671,59.553209,41.857887,56.934868,64.217897,69.593826,50.374998,64.870722,71.174698,75.549344,12.900295,15.691795,17.148228,16.172562,-16.940403,13.136444,19.247303,16.135082,-23.705063,12.180061,15.488949,9.945831,-25.384197,8.132401,12.071915,8.097382,-22.845669,-1.7799,3.810425,1.391201,-30.770693,-55.316884,-72.755138,-84.136387,-64.355569,-67.804947,-58.90486,-57.105762,-54.070853,-54.111763,-45.007035,-42.572864,-39.379473,-41.930104,-33.592533,-30.826701,-23.526197,-29.217053,-23.625275,-20.691637,45.078592,313.789195,-141.533575,65.857555
47,0.613747,-0.804731,-7.588348,-5.737972,-27.681084,-51.429405,-72.91975,-91.373405,-59.502983,-88.867321,-104.422302,-116.302814,-52.365761,-84.053192,-101.404953,-114.998589,-42.815666,-71.749649,-88.413906,-100.970707,-31.95488,-55.14576,-68.009949,-78.984032,-17.636535,-17.20101,-4.936266,4.100351,12.359221,28.437361,37.026782,43.680759,29.492614,45.471954,53.73175,60.490086,42.20264,58.057058,65.83057,71.696489,50.583282,65.673848,72.317575,76.880868,11.019287,14.039898,14.786167,11.448498,-14.071712,-4.082394,-0.392818,1.83609,-23.651619,-6.353359,1.827335,6.318626,-28.800259,-11.329021,-1.584091,3.636532,-29.759617,-17.991657,-8.211079,-2.827835,-30.731852,-55.031257,-71.973903,-84.40775,-59.81006,-68.179093,-74.910073,-81.007587,-51.673918,-57.496642,-57.289964,-55.496176,-39.21991,-45.764157,-47.153541,-47.32178,-24.008282,-31.365844,-34.174839,-35.28187,40.854893,311.829129,-153.95937,58.964249
48,-0.136871,-0.154376,-11.460457,-3.584457,-27.913742,-51.699715,-73.34816,-91.713524,-59.260139,-88.843861,-104.61937,-116.458282,-51.898499,-84.183426,-101.768646,-115.439301,-42.359619,-71.5131,-88.240929,-100.783253,-31.753349,-54.938736,-67.8578,-78.791199,-17.679699,-17.214533,-4.837095,4.497406,12.374721,28.765627,37.592107,44.425778,29.440991,45.59317,54.153753,61.068996,42.118598,58.133073,66.043609,71.966894,50.443171,65.64254,72.21723,76.771076,11.683502,14.227352,14.235592,11.156616,-10.140381,-0.02203,-1.12381,-4.446545,-21.305523,-3.667717,3.102894,5.569496,-27.980061,-11.768589,-3.349628,-0.094299,-30.021172,-19.059334,-9.229603,-3.975048,-28.841178,-54.032938,-71.254356,-84.947263,-59.158963,-68.001561,-77.630488,-87.541398,-52.116638,-56.362102,-52.931805,-49.441394,-39.737965,-44.719741,-43.443483,-42.240771,-24.600778,-29.238264,-29.454823,-29.282231,38.027029,311.269022,-168.110819,54.974061
49,0.497589,-1.338811,-9.468327,1.517563,-27.706375,-52.071075,-73.845921,-92.170258,-59.752693,-89.088764,-105.091724,-117.28426,-52.257729,-84.299698,-102.317848,-116.269798,-42.551537,-71.836853,-89.128761,-102.115917,-31.575508,-55.040245,-68.441048,-79.909115,-17.444059,-16.267899,-3.494271,5.05952,13.20267,29.6297,38.431048,45.426011,30.203115,46.461319,54.890188,61.642719,42.905051,59.264526,67.10584,72.889878,51.356089,67.071754,73.859853,78.554305,12.18092,10.184985,6.01101,2.00841,-19.471206,-2.94239,0.411988,-2.287016,-30.923881,-6.315908,1.634302,1.01429,-36.450662,-13.011417,-4.528827,-4.906568,-36.912603,-20.495596,-10.908479,-9.765787,-31.238515,-59.966443,-79.22053,-95.15598,-60.807036,-65.598158,-64.030917,-65.882657,-49.475002,-49.722652,-43.41372,-40.232447,-34.341705,-35.598063,-32.066156,-30.721818,-18.022846,-20.462049,-18.770427,-17.83426,36.964674,309.633748,-179.13909,56.19516
50,0.199585,-0.235146,-9.468326,1.517562,-28.37883,-52.481346,-74.080238,-92.099991,-59.764366,-88.903999,-104.980373,-117.47263,-52.4683,-84.198189,-102.203751,-116.367817,-43.202248,-72.040272,-89.206867,-102.171478,-32.74086,-55.819817,-69.014511,-80.528183,-16.913376,-16.227329,-4.063856,4.737121,13.005316,29.244933,38.135572,45.176663,30.007119,46.066116,54.718275,61.535027,42.850772,58.911313,66.926146,72.769588,51.526396,66.714034,73.508431,78.309464,12.678337,6.142616,-2.213573,-7.139797,-28.802032,-5.862751,1.947784,-0.127487,-40.54224,-8.9641,0.16571,-3.540916,-44.921265,-14.254246,-5.708027,-9.718838,-43.804035,-21.931858,-12.587357,-15.556526,-33.635851,-65.899947,-87.186703,-105.364697,-62.455108,-63.194754,-50.431345,-44.223916,-46.833365,-43.083201,-33.895635,-31.0235,-28.945444,-26.476385,-20.688827,-19.202865,-11.444914,-11.685833,-8.086031,-6.386289,35.580969,309.15035,-190.190706,57.46447
51,-0.019569,-0.171419,-3.917255,11.915576,-28.346329,-52.326736,-73.962708,-91.90115,-59.216537,-88.492985,-104.611645,-117.159004,-51.945305,-83.935432,-102.118492,-116.45628,-42.746658,-71.579247,-88.808556,-101.945515,-32.418365,-55.691071,-68.98613,-80.491734,-17.085783,-16.609996,-4.348279,4.58009,12.641421,29.151567,38.038995,44.823451,29.826931,46.051234,54.731551,61.588255,42.891774,59.007829,67.172654,73.098903,51.895046,67.146472,73.973906,78.629949,7.97945,0.737858,-7.469273,-10.998974,-32.830582,-17.225819,-6.102047,-5.764904,-40.333271,-17.697659,-7.259903,-7.821865,-41.231003,-19.767437,-9.219074,-9.395485,-37.944775,-24.557362,-16.783504,-17.670536,-30.303335,-62.114647,-83.259346,-99.821023,-49.911963,-52.851807,-42.399809,-37.441189,-33.519081,-36.272316,-28.939608,-25.26021,-17.69844,-20.942776,-15.874919,-13.433617,-2.984274,-4.20403,-1.607085,-1.006038,34.976864,308.742535,-194.692497,69.14365
52,0.414162,-0.12276,-4.975777,12.030709,-28.347816,-52.536278,-73.913155,-91.809425,-59.237595,-88.460598,-104.808369,-117.504845,-51.992683,-83.746777,-102.229786,-116.832504,-42.676964,-71.267681,-88.504887,-101.731167,-32.063828,-55.256996,-68.542614,-80.077515,-16.911277,-16.102531,-3.532803,5.060385,12.907689,29.669467,38.662427,45.594096,29.966981,46.16819,54.854929,61.885522,42.943768,59.156215,67.476404,73.71511,51.864233,67.085524,74.033372,78.830638,5.335693,-0.888233,-8.268356,-13.026581,-27.163067,-13.721695,-3.477402,-2.857132,-34.491692,-13.821373,-6.226215,-8.102474,-36.511517,-16.766224,-8.696022,-10.251045,-34.889317,-22.990665,-17.189999,-18.738785,-28.465427,-58.241229,-79.354899,-95.276656,-43.687768,-41.646114,-34.232452,-32.770635,-28.332478,-27.087034,-21.941373,-21.937513,-13.950807,-13.990945,-11.048229,-11.707631,-1.437735,-0.586814,1.70496,0.759962,35.033827,308.493017,-200.025473,81.047601
53,-0.134697,0.969049,-3.972301,22.31981,-28.183365,-52.057228,-73.43256,-91.416035,-59.335327,-88.671913,-104.834347,-117.354183,-51.86142,-83.880272,-101.974697,-116.225281,-42.409515,-71.087036,-88.092556,-101.206169,-31.748085,-55.104561,-68.287868,-79.738655,-17.297217,-16.998653,-4.570889,4.212119,12.348477,29.087223,38.016456,44.879088,29.424504,45.531605,54.156285,61.194041,42.421483,58.448864,66.665374,72.946688,51.408947,66.406949,73.14114,77.893513,9.304333,6.494865,-3.301907,-13.227425,-17.827835,-20.97147,-15.565968,-13.354225,-30.090237,-32.08952,-18.483925,-10.973568,-36.814156,-36.670418,-23.226414,-16.831512,-38.244839,-36.373329,-25.524731,-20.3088,-26.108105,-52.972437,-72.066343,-82.151914,-52.619224,-62.555792,-63.055723,-64.817771,-37.93334,-44.116563,-37.918211,-34.838039,-20.902329,-25.783977,-22.985418,-21.706196,-4.435717,-5.843349,-4.813969,-5.071685,34.723949,309.5617,-204.172955,103.467045
54,0.919075,-0.408664,4.074841,0.05573,-27.797699,-51.898727,-73.402119,-91.995277,-59.63356,-88.749161,-104.675159,-116.95364,-52.233582,-83.876781,-101.846638,-116.082802,-42.577858,-71.048698,-88.041172,-101.170921,-31.504555,-54.579964,-67.877312,-79.48019,-16.960368,-16.098085,-3.390777,5.462318,13.130422,29.476003,38.228136,45.155915,30.078255,46.1354,54.575385,61.582513,42.78013,59.142754,67.336107,73.657991,51.256485,66.817589,73.92642,78.826006,5.151501,-4.828892,-16.691494,-24.807472,-38.998775,-21.689644,-8.066769,-5.850964,-47.17083,-21.795502,-9.048271,-9.628429,-46.958199,-24.921799,-11.606827,-11.086121,-42.850285,-27.545643,-16.161461,-15.65958,-27.793521,-56.055202,-74.71806,-91.677533,-44.947446,-45.798768,-38.417216,-36.329188,-27.838537,-27.59805,-25.329031,-25.705245,-9.743721,-10.579019,-10.992932,-10.979162,7.772771,8.311636,6.287087,4.393758,35.662966,309.534762,-200.078173,103.904501
55,0.198097,0.336848,3.986607,0.850705,-27.935028,-51.767235,-73.315716,-91.18618,-59.056664,-88.425636,-104.541664,-117.03186,-51.648102,-83.846569,-102.061501,-116.305332,-42.26532,-71.409359,-88.792763,-101.881771,-31.719704,-55.272331,-68.650475,-80.181942,-16.999394,-16.336812,-3.800923,5.149984,12.651054,29.311006,38.265681,45.098487,29.770306,45.922979,54.443424,61.227262,42.720726,58.560633,66.51495,72.336964,51.557765,66.745279,73.528809,78.185902,4.151573,-10.76334,-23.520012,-30.367756,-45.865288,-21.272736,-8.934975,-10.410061,-53.48362,-21.292591,-9.895477,-13.269253,-53.622551,-24.725304,-14.703598,-17.592201,-50.122776,-32.335339,-21.139183,-21.121216,-28.997993,-55.312067,-73.402653,-90.054423,-43.334247,-38.843325,-34.542347,-35.669354,-26.173684,-20.568815,-19.934299,-21.661304,-9.10658,-3.881693,-6.168496,-8.822436,7.138842,10.917936,8.183782,5.703577,35.900803,309.997782,-196.051826,104.881377
56,0.266991,-0.186301,0.33268,-1.081003,-27.845879,-51.614342,-72.823505,-91.392345,-59.063988,-88.460026,-104.664631,-117.066994,-51.507225,-83.525906,-101.537418,-115.647297,-41.783867,-70.49612,-87.682114,-100.848255,-30.809097,-53.850403,-67.185917,-78.886528,-16.225168,-15.145153,-2.397707,6.402777,13.631033,30.078626,39.046144,46.30262,30.689893,46.886779,55.649657,62.892054,43.441168,59.897344,68.197773,74.558868,51.902456,67.656654,74.819763,79.686066,4.095383,-10.505447,-22.487869,-29.990788,-46.696987,-18.953133,-8.170681,-11.830158,-53.891888,-19.578838,-9.232979,-13.591976,-53.26252,-22.440605,-13.155613,-17.286129,-49.401455,-31.7169,-20.745449,-21.45956,-28.339919,-53.774976,-71.53001,-89.006148,-43.162118,-39.175696,-33.807023,-33.733694,-25.660569,-20.710532,-18.992049,-19.800177,-8.467865,-3.821486,-4.700565,-6.124498,7.985779,12.008726,10.172639,8.591644,36.382828,309.909942,-195.504112,103.898835
57,0.364494,0.799297,-0.825977,-0.742487,-28.044434,-52.166061,-73.923569,-91.908989,-59.384422,-88.509865,-104.488678,-116.722183,-52.018661,-83.783455,-101.772709,-115.540466,-42.666893,-71.17384,-88.261414,-101.004696,-32.181358,-54.705505,-67.707939,-78.889503,-16.890281,-16.186697,-4.128818,4.817644,13.479621,29.603024,38.480325,45.546178,30.389724,46.418773,54.989668,61.784992,43.057327,59.271565,67.298193,73.147439,51.429942,66.858591,73.731968,78.585242,4.078732,-9.628201,-20.972157,-27.858353,-46.288376,-18.947182,-7.150211,-9.274921,-53.325062,-19.597321,-7.945118,-10.429974,-52.699871,-22.657127,-11.933212,-14.069939,-48.484154,-32.117043,-20.393887,-19.427433,-28.221513,-54.138068,-72.089438,-89.131934,-44.503491,-41.026541,-35.230308,-34.283643,-26.99481,-22.818661,-20.447846,-20.553779,-9.47523,-5.733124,-5.824916,-6.775934,7.614906,10.933651,9.428794,8.023478,36.967764,310.7918,-196.109648,103.238908
58,0.307503,0.009016,0.078907,-1.711907,-28.074303,-52.100601,-73.584766,-91.623631,-59.570045,-88.559361,-104.681854,-117.172279,-52.2995,-83.818245,-101.917191,-115.883446,-42.819099,-71.27655,-88.398514,-101.252289,-31.931992,-54.52755,-67.496681,-78.627834,-16.50675,-16.038373,-3.629257,5.250329,13.296654,29.64557,38.629946,45.90186,30.282649,46.257789,55.033079,62.332842,43.128525,58.997579,67.271763,73.625881,51.853735,67.113003,74.073262,79.047629,3.076458,-10.264435,-21.126194,-27.736244,-46.90836,-19.965706,-8.376846,-11.519966,-53.763657,-20.79483,-9.368534,-13.449669,-52.664223,-23.237915,-12.759647,-16.473026,-48.032627,-30.983791,-19.571972,-20.1404,-28.415409,-54.169962,-71.929566,-89.348554,-44.029032,-41.299015,-35.466565,-34.556766,-25.796605,-21.725617,-19.769487,-20.302393,-7.798274,-3.92183,-4.533252,-5.623579,9.342374,12.611163,10.647346,9.236194,37.620592,310.804582,-195.685415,101.530768
59,-0.264015,0.50413,-0.928459,0.054001,-27.925186,-51.823425,-73.211918,-90.963364,-59.646149,-88.646851,-104.666634,-116.832962,-52.298584,-83.996944,-102.081871,-115.881615,-42.896347,-71.477509,-88.591061,-101.313171,-32.205276,-55.114517,-68.06076,-79.105511,-17.073248,-16.528301,-4.338584,4.557798,12.663898,29.214799,38.337249,45.585019,29.630132,46.018013,54.823004,61.942888,42.522198,58.587988,66.62783,72.668996,51.284396,66.623755,73.516582,78.43278,4.228077,-9.132385,-20.46587,-27.486763,-45.559444,-19.402084,-7.9212,-11.082458,-52.67704,-19.885025,-8.449287,-12.537746,-52.098942,-22.552357,-11.989918,-15.623646,-48.160744,-31.078892,-19.403057,-19.537354,-28.78656,-54.746341,-73.197858,-90.615766,-45.23264,-43.049701,-36.977258,-35.686891,-27.455159,-24.024245,-21.497325,-21.650744,-9.797444,-6.521399,-6.585589,-7.357438,7.458801,10.257886,8.549036,7.165672,37.667398,311.369058,-196.303053,101.645115
60,0.736656,-1.03963,1.702652,-1.718761,-28.224449,-52.138824,-73.075161,-91.356525,-59.505959,-88.270855,-104.366455,-116.945457,-52.028275,-83.213711,-101.42561,-115.851746,-42.324715,-70.540867,-87.792149,-101.162624,-31.24054,-53.983841,-67.133217,-78.866844,-16.082771,-15.148426,-2.561531,6.066793,13.640234,30.07171,39.079921,46.189061,30.599305,47.04381,55.917159,63.242919,43.260363,59.94483,68.420877,74.987107,51.691764,67.538031,74.871634,80.081948,3.343906,-11.274948,-22.903519,-29.510593,-48.232327,-20.55582,-8.860416,-12.723141,-55.158234,-21.960297,-10.205555,-14.410973,-54.106236,-24.860802,-14.060783,-18.011398,-49.274426,-33.356838,-21.685009,-22.176933,-28.178874,-53.554836,-71.443992,-89.51457,-43.595575,-40.6536,-35.120516,-34.719231,-25.320911,-21.869866,-19.871499,-20.199177,-7.592368,-4.227248,-4.8429,-5.770205,9.579465,11.938609,10.019776,9.085369,38.597202,310.359084,-194.407253,99.956009
61,-2.325096,1.532089,-0.580616,-1.466788,-26.948776,-50.517998,-71.982021,-90.018368,-58.689766,-88.603134,-104.628353,-116.500912,-50.615044,-83.699398,-101.539993,-114.651489,-40.774841,-70.665321,-87.80674,-100.523586,-30.29583,-54.406357,-67.798805,-78.990269,-17.94257,-17.458879,-4.888101,4.730267,12.870083,30.113268,39.127161,46.0839,30.345079,47.109389,55.174672,61.39473,43.325077,59.571487,67.010065,72.396924,51.905791,67.466339,73.788531,78.221779,3.641853,-10.467968,-21.861305,-28.3885,-46.761131,-21.472321,-8.870373,-10.147076,-53.994026,-21.840363,-10.08831,-12.682915,-53.379707,-24.116192,-13.264275,-15.395279,-49.188881,-32.423515,-20.47554,-19.470348,-27.165673,-52.33474,-70.130653,-86.871406,-41.344741,-38.556463,-33.723691,-33.259482,-23.707403,-19.730584,-18.693857,-19.793724,-6.38666,-2.629333,-3.765509,-5.418228,10.241275,13.925582,11.807142,9.752737,36.479387,311.986161,-194.780588,98.584209
62,1.474457,-0.014511,-0.234146,-0.100838,-27.291069,-51.008949,-72.884445,-91.308804,-58.94062,-89.013119,-104.95657,-117.061558,-51.428604,-83.922844,-102.074318,-115.868053,-41.806183,-71.339607,-88.432045,-101.053162,-31.388626,-55.176315,-68.278313,-79.00692,-17.307158,-16.827605,-4.288937,5.395751,12.971415,29.661316,38.377325,44.994993,30.334766,47.030287,55.348623,61.83149,43.224794,60.000899,67.739893,73.465515,51.66904,67.77929,74.177312,78.343303,4.460678,-9.777145,-21.399994,-28.216381,-45.898361,-19.161243,-6.70269,-8.439903,-53.145332,-20.186977,-8.747063,-11.49044,-52.660961,-22.94775,-12.440643,-15.044346,-48.691578,-31.822529,-20.113678,-19.650135,-27.146623,-52.12025,-69.813225,-86.833306,-41.247855,-38.103431,-33.097017,-32.661769,-23.600421,-19.274496,-18.2382,-19.270914,-6.303112,-2.168211,-3.240631,-4.76247,10.386327,14.379818,12.355362,10.455518,38.189993,312.101371,-194.778585,98.613092
63,0.65403,-0.034457,-4.621067,8.09375,-27.325172,-51.018448,-73.008671,-91.374722,-58.542938,-88.574181,-105.018768,-117.480755,-51.223412,-83.793755,-102.263374,-116.210403,-41.913414,-71.408958,-88.810101,-101.58205,-31.782074,-55.186386,-68.383884,-79.312477,-17.212186,-17.073371,-4.971526,4.554525,13.233422,29.661625,38.472174,45.217974,30.517795,46.995213,55.319354,61.650747,43.373366,59.924514,67.687652,73.209868,51.790503,67.913412,74.404183,78.607533,7.824097,-1.661568,-12.467995,-20.288773,-35.36356,-19.51704,-5.588379,-3.85437,-45.801659,-20.219135,-7.532101,-8.583755,-47.283783,-24.096107,-11.243877,-11.441116,-42.825966,-25.582581,-13.858967,-13.710423,-30.500443,-59.019037,-77.621349,-92.979355,-51.728752,-51.764259,-43.697556,-41.631757,-34.06057,-31.786333,-28.605384,-29.699015,-14.566953,-14.244585,-13.849197,-15.074449,4.347106,5.505605,3.727965,1.06822,39.131413,312.152871,-199.112263,106.792799
64,-0.000916,-0.362784,6.601295,-2.162716,-27.055893,-50.824699,-72.763309,-91.385078,-58.205795,-88.285561,-104.699249,-117.097435,-50.645828,-83.554974,-102.045822,-116.084461,-41.187515,-71.193523,-88.727188,-101.583252,-30.966454,-54.953156,-68.281116,-79.282036,-17.139568,-16.355152,-3.723241,5.796635,13.648447,30.18039,39.113822,46.163496,31.061383,47.533491,55.950566,62.561565,43.983028,60.464645,68.138245,73.786679,52.434745,68.3829,74.91807,79.327729,3.324108,-10.66452,-23.018703,-29.801044,-47.622128,-23.497066,-10.377388,-10.978546,-55.109081,-23.596401,-10.892143,-12.761936,-54.881573,-27.278881,-15.901566,-16.884499,-50.742817,-34.50943,-22.401981,-20.230293,-30.782055,-58.431111,-76.390169,-92.587024,-47.609197,-47.005402,-41.314175,-39.797307,-29.554828,-26.818636,-24.486416,-24.217246,-11.425308,-8.438997,-9.877225,-11.244904,5.372903,6.75639,4.393017,2.779108,39.375257,311.929937,-192.266207,104.769933
65,-0.017967,0.438304,0.8951,-3.155137,-27.561378,-51.218147,-72.851257,-91.278877,-58.258553,-87.736301,-104.07629,-116.650314,-51.053696,-83.373642,-101.840401,-116.102829,-41.963081,-71.337891,-88.622475,-101.360722,-31.902809,-55.13031,-68.167534,-78.982201,-17.265847,-16.888799,-4.489131,4.829191,13.595897,30.21176,39.110488,45.849804,31.105226,47.311251,55.565182,61.873481,44.089177,59.997009,67.605463,73.038326,52.589368,67.926997,74.311743,78.587835,3.687057,-11.185112,-23.454838,-30.171432,-48.20343,-20.191898,-9.154415,-13.82515,-55.178833,-21.767693,-10.707321,-15.576038,-54.100971,-24.876366,-14.605064,-19.057903,-49.347267,-33.389683,-21.841621,-22.67292,-28.629992,-54.544232,-72.400073,-90.299665,-44.266215,-40.853826,-34.850234,-34.460682,-26.016807,-22.185348,-19.950014,-20.200258,-8.40667,-4.390053,-4.797914,-5.697741,8.480647,11.46983,10.109407,9.434598,39.505377,312.396569,-191.223021,101.643123
66,-0.177956,-0.063541,-4.200268,7.390783,-27.393723,-51.024513,-72.707005,-91.090851,-57.89978,-87.603149,-104.079323,-116.664104,-50.541229,-82.936649,-101.321926,-115.399246,-41.390762,-70.82737,-88.1567,-100.84774,-31.385536,-54.685478,-67.702332,-78.4869,-16.855269,-16.247213,-3.808148,5.464911,13.519388,30.203609,39.22238,46.254393,30.794066,47.198557,55.652312,62.385947,43.697988,59.826887,67.666287,73.569317,52.265302,67.842461,74.392636,79.008602,7.479229,-3.775921,-15.466232,-21.724205,-37.491589,-25.689182,-10.744572,-7.403011,-47.006664,-25.359192,-11.092415,-10.397873,-48.026905,-29.367142,-15.250168,-13.723183,-43.302956,-31.587467,-19.446945,-17.274685,-30.12852,-59.22905,-78.886707,-95.210428,-52.095828,-52.871382,-45.194571,-43.315073,-35.0508,-32.467533,-29.689999,-29.9793,-16.282225,-15.121225,-14.689466,-14.685236,2.28952,4.214589,1.785359,-0.344598,39.486551,312.363749,-195.264158,109.064627
67,-0.24353,-0.456212,4.16851,-3.325352,-27.737045,-51.096725,-72.449799,-90.474815,-57.664375,-87.12513,-103.435993,-116.080627,-50.326653,-82.252293,-100.606384,-114.762497,-40.977859,-69.985828,-87.227039,-100.155487,-30.514412,-53.425827,-66.423512,-77.432671,-16.331008,-15.726533,-3.499396,5.729759,13.921754,30.637529,39.677727,46.723079,30.886012,47.653225,56.332307,63.128187,43.535893,60.183557,68.386852,74.478098,51.866641,67.94052,74.844896,79.723487,2.449207,-10.888081,-22.336349,-29.230499,-47.621498,-21.545906,-9.211807,-11.334114,-54.909496,-20.836029,-9.290829,-13.112583,-54.259872,-24.399891,-14.121494,-17.210197,-50.030937,-32.717972,-20.966663,-20.673237,-31.915268,-59.480652,-77.854796,-94.9893,-48.427205,-46.968351,-40.703031,-39.765135,-29.979918,-26.882795,-24.347107,-24.596115,-11.873832,-8.742006,-10.436993,-12.456849,5.020339,6.472678,3.698664,1.807373,39.437857,311.944803,-190.900812,105.776541
68,0.559845,0.148818,-0.117188,-3.77823,-28.091354,-51.788979,-72.956142,-90.989571,-58.197556,-86.89373,-103.094273,-116.002007,-51.008034,-81.996403,-100.501556,-115.030518,-41.657639,-69.968548,-87.153797,-100.248699,-30.880394,-53.464165,-66.418304,-77.572403,-16.129455,-15.499477,-3.006442,6.125023,14.179438,30.895892,39.926396,47.043749,31.025074,47.360713,55.932288,62.88909,43.659517,59.773843,68.111692,74.511258,52.152669,67.522099,74.46087,79.489144,4.347725,-10.064449,-22.076912,-28.239841,-46.461067,-19.44746,-7.393456,-10.093918,-53.705006,-21.359997,-9.223766,-12.638969,-53.219776,-24.776516,-13.736687,-16.737041,-49.04171,-33.027763,-20.694351,-20.375919,-28.329422,-54.437805,-72.400166,-90.529068,-44.73382,-40.880224,-34.924675,-34.535801,-26.687386,-22.048726,-19.857728,-20.633406,-9.00037,-4.440503,-4.903816,-6.311849,8.162571,11.436979,9.721398,8.384564,40.177374,312.12144,-190.838327,102.02613
69,0.661125,0.298069,-0.706902,0.59725,-27.847137,-51.832466,-73.555984,-91.605377,-57.793922,-86.829071,-103.325329,-116.246796,-50.349083,-82.12635,-100.918293,-115.371208,-40.89489,-69.957218,-87.732639,-101.087265,-30.301895,-53.789062,-67.37812,-78.97665,-16.751961,-16.403935,-3.872554,5.914763,13.535999,30.596403,39.806292,47.132422,30.527798,47.150021,55.987678,63.025805,43.304885,59.563151,68.032961,74.383435,51.939136,67.497091,74.442159,79.442029,4.468689,-9.554558,-20.700645,-26.274662,-45.590687,-19.387951,-7.020493,-8.908768,-52.624454,-20.165977,-8.14888,-10.967102,-51.916294,-22.684536,-11.928864,-14.61731,-47.60725,-30.283356,-18.303566,-17.953091,-28.296231,-54.236838,-72.320755,-89.793775,-44.897737,-41.629781,-35.860718,-35.037493,-27.034948,-22.695036,-21.047844,-21.930319,-9.420427,-5.552103,-6.431182,-7.895469,7.597647,10.814072,8.54249,6.627826,41.04229,312.442048,-191.341438,102.645919
70,0.028496,-0.339936,-1.164665,0.699725,-27.846451,-51.694908,-73.070297,-90.847263,-57.696075,-86.701756,-103.077793,-115.909424,-50.18692,-81.961842,-100.571022,-114.941597,-40.726891,-69.765301,-87.508278,-100.875492,-30.149574,-53.563499,-67.153244,-78.816776,-16.579059,-15.676701,-2.745856,6.67559,13.475237,30.643704,39.990617,47.429627,30.561143,47.254132,56.207139,63.517832,43.461113,59.731668,68.199749,74.703549,52.209665,67.862221,75.011313,80.220639,5.121346,-8.598404,-19.460735,-24.970837,-43.843346,-16.904354,-5.091534,-7.352085,-50.883236,-17.789326,-6.54213,-9.812851,-50.174675,-20.533905,-10.329094,-13.344669,-45.829239,-28.676605,-17.196636,-16.862583,-28.726384,-54.964659,-72.951257,-90.934459,-45.783423,-41.800305,-36.14687,-35.42121,-27.631889,-22.635015,-21.282218,-22.221843,-9.835606,-5.528113,-6.667933,-8.095726,7.261725,10.592295,8.266095,6.492716,41.188374,312.117226,-192.388515,103.360757
71,-0.247879,0.63677,0.578842,-0.055112,-28.037567,-51.826286,-73.318233,-90.867004,-58.187027,-87.204781,-103.450413,-115.917549,-50.381355,-82.257729,-100.42923,-114.350967,-40.775986,-69.875851,-87.461758,-100.647984,-30.324554,-54.271774,-67.955303,-79.680576,-17.252571,-16.441047,-3.4671,6.399751,13.047245,30.492847,40.019207,47.640134,30.33489,47.189171,56.241719,63.60595,43.475069,59.667015,67.955587,74.207137,52.414923,67.7846,74.712564,79.736887,4.874897,-8.953514,-20.307026,-25.960865,-44.166012,-18.542976,-5.924492,-6.284008,-51.452923,-19.876957,-7.918739,-9.393253,-51.155262,-22.935562,-11.997643,-12.963638,-47.092609,-30.799885,-18.606663,-16.296329,-28.690662,-54.963146,-72.864375,-90.274193,-44.834566,-41.624347,-35.951769,-34.736614,-26.933214,-22.477644,-21.173938,-21.554661,-9.237923,-5.098392,-6.567342,-7.988527,7.555348,10.82105,8.216695,6.023907,41.095133,312.74339,-191.655035,103.295039
72,0.727959,0.05008,-0.470581,0.874324,-27.950249,-51.840591,-73.415337,-91.560802,-58.421745,-87.932911,-104.378242,-117.076321,-50.562172,-82.621593,-101.008301,-115.178261,-40.61451,-69.724045,-87.346745,-100.586987,-29.639969,-53.34137,-67.007561,-78.744164,-16.805313,-15.984588,-3.337919,6.126629,13.233546,30.453142,39.690571,47.231223,30.287157,47.208931,56.263579,63.768971,43.202255,59.8711,68.501646,75.216386,51.954697,67.90946,75.069235,80.27393,5.43211,-8.44511,-19.587822,-25.119038,-43.370132,-16.296501,-4.941845,-7.277355,-50.618019,-17.651997,-6.686096,-9.878197,-50.205059,-21.054211,-11.011162,-13.749161,-46.05423,-29.632645,-18.05666,-17.342663,-28.858407,-55.273257,-73.426828,-91.396754,-45.220753,-40.811928,-35.186002,-34.581342,-27.269198,-22.034986,-20.809549,-21.764365,-9.704139,-4.98437,-6.346368,-8.041509,7.200222,10.871561,8.654845,6.794429,42.035551,312.676345,-191.913157,104.052238
73,-0.678864,0.91156,-0.496273,1.819785,-28.124199,-52.131958,-73.676319,-90.896759,-58.095818,-88.086205,-104.272957,-116.613064,-49.612999,-82.552013,-100.828056,-114.965687,-39.477997,-68.930626,-86.165085,-99.286594,-28.780975,-52.59716,-66.023598,-77.541447,-17.260907,-16.971668,-4.878221,4.815791,12.432704,30.486981,39.879898,46.962485,29.548375,47.106981,56.26784,63.702528,42.458163,59.684552,68.349185,74.963148,51.059995,67.063911,73.981872,79.027004,5.449505,-7.570267,-18.250351,-23.941498,-43.23658,-16.27121,-4.904652,-7.960796,-50.366135,-17.757339,-6.650391,-10.360565,-50.047932,-21.085567,-10.621834,-13.516102,-46.062183,-29.221115,-17.340374,-16.815605,-29.100561,-55.946306,-74.946444,-92.677581,-47.709295,-43.841897,-37.844203,-37.282213,-29.683577,-25.05452,-23.125128,-23.903615,-11.910142,-7.849681,-8.626872,-9.989457,5.244617,8.412629,6.320402,4.689172,41.404295,313.412209,-192.361822,105.696328
74,0.331535,-0.056502,-1.979656,5.265674,-27.974625,-51.893349,-73.231144,-91.309547,-57.815552,-87.82299,-104.080925,-116.496792,-49.61998,-82.308941,-100.614281,-114.784813,-39.636612,-69.16317,-86.524258,-99.632378,-28.802605,-52.35672,-65.903893,-77.65789,-17.271343,-16.494647,-3.579857,5.919333,13.044898,30.559538,39.81506,47.2177,30.342238,47.572147,56.536578,64.022889,43.136615,60.209863,68.920376,75.703103,51.500832,67.594965,74.7992,80.00439,8.421192,-0.35162,-10.529594,-18.074055,-36.846542,-20.131874,-6.92522,-4.257202,-47.687759,-21.669102,-8.42371,-7.812481,-49.270649,-25.916748,-12.091427,-10.59082,-44.758759,-28.600388,-16.597481,-15.208454,-30.577662,-58.922089,-77.415565,-92.070389,-53.476166,-55.119344,-47.165119,-44.48123,-37.208575,-34.428757,-31.108283,-31.001455,-18.190807,-17.454495,-16.958392,-17.452581,0.773609,1.43616,-0.427035,-2.399343,41.828642,313.175474,-194.248667,110.781767
75,-0.201988,-0.224154,3.007565,-2.623559,-28.477364,-52.480545,-73.730736,-91.226406,-57.836838,-87.336159,-103.31686,-115.663891,-49.735336,-81.856213,-100.002193,-114.132957,-39.911156,-68.672962,-85.726204,-98.741226,-29.277534,-52.131958,-65.244484,-76.692009,-17.211939,-16.370899,-3.966538,5.703886,13.132275,30.631477,39.993889,47.157061,30.223554,47.690831,56.885962,64.135892,42.971,60.404377,69.312676,75.817279,51.277357,67.46955,74.796298,79.989199,4.159241,-8.44883,-19.616203,-25.714016,-45.049496,-22.093735,-7.52718,-5.955791,-52.287197,-21.370983,-7.957649,-8.637772,-52.42384,-26.436253,-14.155426,-13.331223,-48.822441,-34.895668,-22.299156,-18.604946,-30.921581,-58.758697,-77.391822,-93.761146,-48.647499,-48.166402,-42.506761,-41.022559,-31.097446,-28.226484,-25.724481,-25.347494,-13.01816,-10.270853,-11.939813,-13.441521,4.120945,5.372162,2.170867,0.045695,41.733027,312.941254,-191.134729,108.148143
76,0.327644,0.242803,1.047249,-1.761708,-28.261185,-52.278328,-73.634834,-91.504612,-58.124542,-87.841415,-103.606911,-115.734329,-49.690361,-82.304306,-100.396557,-114.509525,-39.381638,-68.755417,-85.923615,-99.041061,-28.265533,-51.860962,-65.366364,-77.037392,-17.243432,-16.323845,-3.499458,6.130828,13.512472,30.697859,39.713234,46.780013,30.822286,47.647606,56.428823,63.684497,43.520085,60.543871,68.884005,75.353657,51.680711,67.768607,74.863297,80.000932,4.085655,-9.418659,-20.076027,-25.924187,-45.662727,-18.933792,-7.725391,-11.149693,-52.648087,-20.167408,-8.743916,-12.577801,-52.01786,-23.03175,-12.413235,-15.220585,-47.788239,-30.634632,-18.495998,-17.675114,-29.328636,-55.973074,-74.843043,-91.957417,-47.219737,-44.440536,-37.959337,-36.77061,-29.216559,-25.685763,-23.089344,-23.195554,-11.455689,-8.158341,-8.773468,-9.872224,5.817198,7.656742,5.622653,4.441645,42.230244,313.205268,-189.917908,106.407646
77,-0.053902,0.103185,-0.862713,0.98106,-28.520393,-52.495651,-73.964195,-91.758156,-58.008385,-87.472343,-103.15115,-115.274448,-49.735565,-82.127037,-100.430145,-114.639874,-39.698639,-69.050102,-86.451073,-99.669456,-28.854103,-52.221107,-65.578537,-77.101765,-17.138518,-16.246101,-3.744298,5.975834,13.403977,30.562255,39.591153,46.472557,30.781469,47.82378,56.541579,63.329308,43.578439,60.721094,68.990833,74.985131,51.827924,68.103047,75.277581,80.326047,5.352173,-7.963085,-18.714809,-24.301758,-43.332081,-15.602016,-5.668602,-10.352383,-50.397034,-16.927471,-6.991081,-11.952381,-49.893265,-19.815903,-10.179005,-14.160633,-45.929203,-28.050041,-16.439037,-16.555309,-29.535469,-56.550688,-76.017073,-94.288124,-48.841118,-44.688341,-38.097442,-37.161213,-30.802495,-26.100695,-23.795984,-24.238272,-13.150646,-8.951957,-9.518332,-10.618446,4.036686,6.836481,5.06764,4.001581,42.342768,313.310537,-190.614195,107.39079
78,0.190086,0.59515,-1.327229,-0.194545,-28.13942,-51.777649,-73.311367,-91.547756,-57.659225,-87.507992,-103.431358,-115.694103,-49.488602,-82.250061,-100.480328,-114.801178,-39.530983,-69.009533,-86.344013,-99.65086,-28.777885,-52.376518,-65.812454,-77.505856,-17.252756,-16.712996,-4.501729,5.158012,13.217984,30.121172,38.981059,45.889695,30.645309,47.395047,56.0209,63.006415,43.395658,60.42531,68.573092,74.730225,51.591605,67.90063,75.010387,80.118319,6.206989,-6.01284,-16.005306,-20.482464,-41.305275,-15.711937,-4.182987,-5.54409,-48.600883,-17.237091,-5.788879,-7.519226,-48.537941,-20.652695,-9.858055,-10.654907,-44.729805,-28.853989,-16.857033,-14.13414,-28.976782,-55.693839,-74.607527,-92.147855,-47.807354,-45.951415,-39.730339,-37.629837,-30.594612,-27.099878,-24.89542,-24.382552,-13.076422,-9.735508,-10.661517,-11.272538,3.922294,5.634972,3.625058,2.54035,42.872772,313.825335,-191.601505,107.115892
79,0.172005,0.695557,0.960045,-0.232367,-27.844963,-51.582756,-73.330307,-91.868019,-57.775612,-87.852058,-103.833046,-116.190605,-49.46125,-82.41251,-100.776844,-115.046597,-39.271431,-68.900299,-86.330738,-99.771652,-28.368988,-52.159195,-65.72422,-77.502251,-17.583492,-17.452704,-5.349685,4.753238,12.447772,29.599195,38.463344,45.386553,30.090791,47.036153,55.49701,62.280663,43.021018,60.34559,68.43687,74.512184,51.319409,67.749279,74.736338,79.745285,6.085052,-5.623512,-15.486546,-21.054783,-39.919281,-14.298477,-3.966465,-6.770153,-47.536354,-16.247292,-6.089344,-9.485607,-47.643528,-18.839493,-9.184971,-12.026539,-44.087563,-26.272717,-14.858265,-14.103928,-28.67967,-55.335007,-74.617716,-91.894092,-47.668879,-43.502332,-37.033575,-35.830522,-30.212964,-24.800324,-22.909619,-23.254032,-12.640093,-7.699319,-8.810888,-10.262332,4.297489,7.46087,5.129885,3.29457,43.391504,314.396727,-190.294733,106.759361
80,0.193405,-0.418421,1.926842,2.583112,-27.811546,-51.293449,-72.990475,-91.785164,-57.354126,-87.585239,-103.700523,-116.086121,-49.050179,-82.112904,-100.670185,-114.99773,-38.835754,-68.496494,-86.016483,-99.5121,-27.942696,-51.747322,-65.413284,-77.342949,-17.029282,-16.850144,-5.16431,4.511547,12.925226,30.336619,39.19521,45.978739,30.224418,47.398937,56.010402,62.630294,42.993045,60.578636,68.915621,74.918255,51.223202,68.007396,75.151178,80.121839,7.495766,-3.943577,-14.361191,-20.896568,-37.761669,-12.376614,-2.958927,-6.79985,-45.88726,-14.430656,-5.322247,-9.796143,-46.778297,-17.200184,-8.49123,-12.762337,-44.240284,-24.9856,-14.026108,-14.551849,-29.355806,-56.831992,-76.678173,-94.15215,-49.704358,-43.790675,-37.054724,-36.229275,-32.404331,-25.717935,-23.514279,-24.00044,-15.220952,-9.269632,-10.233278,-11.737549,1.220651,5.091723,3.227324,1.561791,44.018898,313.857507,-187.933903,109.221674
81,0.769501,0.505921,-0.130348,5.389113,-27.561951,-51.228218,-73.028069,-91.747627,-57.470856,-87.951908,-104.128189,-116.551838,-49.095383,-82.502918,-101.037483,-115.597515,-38.781853,-68.843765,-86.502571,-100.201149,-27.871399,-52.101173,-65.935593,-78.049164,-17.318459,-17.22114,-5.468987,4.297767,12.420478,29.587833,38.430184,45.271635,29.971674,46.682076,55.16825,61.851436,42.961182,60.024673,68.174369,74.135013,51.359053,67.826406,74.923751,79.993274,8.606472,-1.192417,-10.144272,-16.069908,-33.454342,-8.42617,0.441799,-3.31398,-42.112656,-9.931126,-1.743965,-6.702805,-43.507748,-12.49403,-4.79084,-9.266796,-41.206741,-20.138855,-9.941425,-10.766315,-29.943145,-58.506045,-79.476207,-97.022186,-53.079357,-48.50501,-41.197189,-39.509334,-35.933059,-29.987482,-27.502584,-27.667365,-18.503387,-13.081609,-14.285587,-16.152611,-1.578217,1.741362,-0.395851,-2.130821,45.065632,313.926961,-187.787018,114.17432
82,0.540848,-0.058416,1.08902,6.808909,-27.719536,-51.60038,-73.686218,-92.484455,-57.215652,-87.89423,-104.076576,-116.534958,-49.034958,-82.767105,-101.536102,-116.22179,-39.102173,-69.502945,-87.3349,-101.009274,-28.627625,-52.982826,-66.767921,-78.625774,-17.382247,-17.13858,-5.507828,4.192606,12.571211,29.3877,38.028188,44.581204,30.001067,46.479535,54.912418,61.505201,42.813413,59.853007,67.819613,73.594573,51.032331,67.526546,74.445185,79.437891,9.884834,1.940804,-7.052536,-13.816223,-30.20153,-3.689747,3.637733,-1.842556,-40.114403,-5.335407,0.50869,-6.16848,-41.884289,-7.313232,-1.256676,-7.901115,-38.851204,-12.773952,-5.05394,-9.477997,-31.671539,-61.494518,-83.673259,-100.622265,-56.319278,-53.483236,-45.661682,-43.552627,-39.247172,-35.013904,-31.375508,-30.862979,-21.727407,-18.205195,-18.192474,-19.406024,-4.854478,-2.988566,-4.19523,-5.108828,46.152678,313.492902,-186.1518,120.607586
83,0.34893,-0.383964,2.813244,4.702109,-27.754898,-51.570168,-73.545914,-92.489891,-57.084274,-87.672443,-104.112053,-116.838913,-49.005547,-82.557335,-101.303558,-116.013565,-39.158592,-69.388275,-87.092228,-100.693417,-28.785553,-53.044052,-66.69857,-78.388138,-17.278939,-17.085104,-5.355428,4.378413,12.653586,29.382328,38.097843,44.780596,30.175389,46.550548,54.999363,61.673533,43.052572,59.958847,67.864259,73.720235,51.363684,67.792937,74.675082,79.548733,11.091671,3.50956,-5.67152,-11.906605,-27.953281,-1.597195,5.649719,0.140419,-37.387619,-3.274727,1.657791,-4.953346,-39.249687,-6.050549,-0.221443,-5.858059,-36.248074,-11.93121,-4.659004,-7.982197,-30.695914,-60.979149,-83.284016,-100.147652,-57.394754,-54.668844,-46.66914,-45.055385,-41.189501,-38.071506,-33.930493,-33.128787,-24.101618,-22.010533,-21.118641,-21.714471,-7.3956,-7.245608,-7.383157,-7.321962,47.360287,312.519746,-182.479877,124.720503
84,0.176811,-0.714823,3.60466,1.786131,-27.961235,-52.131958,-74.022331,-92.205791,-56.679382,-87.372665,-103.96225,-116.654205,-48.490677,-82.196159,-101.108837,-115.614567,-38.655396,-69.300041,-87.188644,-100.701656,-28.316345,-52.552528,-66.2883,-78.029652,-16.834521,-16.322054,-4.779729,4.708716,12.784558,29.736405,38.558378,45.195929,30.109563,46.592477,55.073402,61.610362,42.996194,59.74445,67.706918,73.39407,51.4221,67.595891,74.439936,79.359592,11.084747,4.39333,-4.623871,-10.433636,-27.690125,-4.919128,6.383572,6.856213,-35.494766,-6.496582,2.339516,1.417694,-36.364403,-10.979347,-1.124382,-0.601559,-31.921062,-15.637093,-5.950871,-3.766651,-27.450096,-57.417046,-77.76958,-94.989486,-50.868137,-51.726004,-45.344995,-42.547948,-33.712174,-34.873422,-31.537664,-28.524584,-15.652433,-18.830109,-18.241905,-16.369417,2.040789,-2.034244,-4.425652,-4.788003,48.503809,311.455802,-177.908506,126.157512
85,-0.25795,-0.740326,-6.032581,11.980753,-27.173195,-51.401939,-74.061584,-92.470493,-56.88343,-88.134098,-104.512539,-116.794052,-48.516998,-83.157864,-102.257195,-116.414623,-38.442192,-69.639931,-88.038082,-101.748161,-28.025894,-53.090973,-67.27787,-78.999023,-17.420964,-17.161736,-5.325911,4.87007,13.476163,30.498343,38.9324,45.197597,30.866746,47.011021,54.984605,61.099501,43.709103,60.324842,67.973927,73.405679,52.003109,68.181656,74.867064,79.862858,14.080639,13.386612,8.602581,2.073326,-7.762699,2.969971,9.965115,8.734646,-14.32291,1.787682,9.596958,7.153015,-16.304226,-0.760288,6.03075,3.176937,-13.756199,-1.275158,4.294796,2.139931,-33.998943,-64.569133,-86.026568,-102.994099,-55.954333,-57.990923,-50.413469,-49.836627,-36.476586,-37.982833,-31.528031,-30.994323,-17.130799,-18.725195,-15.41457,-15.491141,0.610156,0.569524,0.82338,1.432177,49.175234,310.531599,-183.011713,137.954388
86,0.617065,-0.802076,8.072891,-0.591445,-27.617683,-52.081375,-74.935627,-93.634701,-58.047752,-89.155884,-105.394363,-117.887421,-49.552803,-83.74815,-102.487507,-116.433277,-39.46907,-70.607529,-88.866291,-102.430687,-29.243088,-54.107094,-68.098755,-79.690704,-17.3058,-16.854281,-5.12232,5.152207,13.234904,30.207869,38.766168,45.0686,30.98012,47.582212,55.485215,61.072022,44.034466,61.06702,68.533324,73.433713,52.348603,68.91945,75.663027,80.422687,12.254448,10.714073,5.123978,0.046463,-14.258137,10.365429,17.4119,12.977314,-20.484867,10.675735,13.949318,6.947536,-21.732788,6.730042,10.421848,4.329643,-19.520874,1.158142,3.615532,-0.803719,-28.071429,-55.919784,-74.943511,-92.530214,-47.543865,-46.517481,-37.730768,-34.370588,-28.925251,-29.343827,-23.41131,-20.484217,-9.860306,-12.48865,-8.828642,-7.072275,7.653099,4.351799,4.20508,5.339373,51.164989,309.331356,-173.566132,136.964776
87,-0.056992,-1.000851,3.662052,1.836396,-27.711182,-52.155991,-74.755669,-93.636074,-58.184166,-89.106159,-105.229568,-117.468281,-49.683151,-83.926048,-102.595367,-116.74902,-39.632149,-70.718708,-88.695889,-102.137604,-29.473457,-54.13868,-67.851448,-79.238434,-16.836126,-15.981748,-4.166362,5.568652,13.925274,31.067065,39.752816,46.017395,31.402555,48.407198,56.525895,62.26399,44.100353,61.557071,69.175837,74.260057,52.00206,68.716785,75.604055,80.46585,15.077305,15.333424,11.57753,6.113777,-8.04388,16.677246,21.317654,16.901894,-15.321407,15.519905,17.651596,12.055092,-18.03051,11.058655,14.437981,9.297867,-16.669979,2.232685,6.124191,4.072552,-22.702385,-47.212698,-64.770439,-80.988568,-39.30846,-37.422757,-29.439849,-26.004827,-23.354469,-21.266286,-15.790445,-11.406968,-6.713258,-6.185292,-3.885645,-2.359174,9.106704,6.327565,7.013303,9.243728,52.456427,308.189159,-168.555651,138.659825
88,-0.134926,-1.354619,-0.90929,28.858252,-27.871742,-52.218475,-74.79784,-93.445816,-58.227196,-89.128647,-105.13916,-117.311211,-49.715195,-83.822308,-102.334099,-116.472645,-39.620705,-70.745659,-88.681927,-102.146988,-29.356842,-53.835068,-67.470818,-78.993816,-16.094072,-15.092974,-3.439621,6.158245,14.72241,31.758731,40.414224,46.71783,31.949478,48.786654,56.980872,62.919533,44.421332,61.780484,69.403388,74.632845,52.1954,68.923834,75.974372,81.216612,17.521591,23.232136,24.017944,20.315266,-0.038338,34.889088,32.12019,21.6259,-7.048759,36.456928,30.569401,17.628365,-8.68475,31.213074,25.790062,13.391876,-6.535149,24.962654,23.289013,14.594421,-30.99988,-58.129584,-79.845444,-96.779476,-49.311038,-48.954183,-39.768747,-40.846724,-29.759191,-30.526254,-24.621618,-24.417163,-11.407092,-14.227418,-10.059821,-10.378021,5.229148,3.224854,4.85068,4.992397,53.78623,306.768436,-168.000212,167.451973
89,0.262756,0.347223,17.137871,2.188373,-28.321037,-52.650375,-75.32032,-94.256401,-58.502426,-89.001846,-104.905586,-117.194481,-50.182228,-84.140854,-102.472115,-116.573067,-40.573082,-71.750851,-89.533939,-102.811661,-30.867691,-55.140038,-68.709183,-80.071907,-16.858171,-16.565351,-5.031856,4.645236,14.455277,30.892558,39.336,45.138872,32.120403,48.039042,55.810022,61.257644,44.749165,61.240168,68.266501,72.878021,52.40881,68.291695,74.961172,79.850569,10.595913,13.46941,13.630371,8.080387,-4.543934,22.419834,26.453819,20.414257,-9.08289,22.987061,23.901443,15.784893,-10.160522,19.426403,21.154118,13.571949,-8.28598,12.832489,16.573334,12.989445,-27.672644,-49.841351,-66.770134,-81.215716,-40.486472,-39.717803,-32.864681,-31.175931,-25.585666,-23.393773,-20.136315,-17.609859,-9.557605,-8.492966,-6.023135,-4.852347,5.231804,5.167398,5.223838,7.454448,55.303831,306.254904,-149.607496,168.779591
90,-1.015091,-0.286584,-12.167416,18.498324,-27.599487,-52.158852,-75.073299,-94.124794,-58.729019,-89.250584,-105.089436,-116.919079,-50.038376,-84.238873,-102.579288,-116.395226,-39.918022,-71.29652,-89.211502,-102.427197,-29.825249,-54.854164,-68.563614,-79.957638,-17.105914,-16.461734,-4.578176,5.169806,14.25675,31.108561,39.68137,45.661466,31.944908,48.407692,56.127296,61.662726,44.601643,61.339401,68.017276,72.331716,52.358113,68.399202,74.957034,79.755103,23.154716,39.730339,45.344982,40.508137,24.962883,59.550533,50.076942,38.982925,15.54388,58.025894,48.246288,36.902218,10.474091,51.584187,43.58654,33.835659,8.908539,39.12466,35.035515,28.721237,-24.826815,-46.47688,-65.434009,-82.230307,-40.160245,-29.639889,-27.03501,-30.020642,-21.412635,-9.4932,-11.030044,-15.228207,-2.454702,3.531568,1.133305,-3.655686,15.111808,16.67539,13.535814,11.07753,55.496006,304.886392,-160.567646,186.195986
91,-0.752335,-0.35667,22.945576,11.105318,-28.303757,-52.206001,-74.488392,-92.872524,-58.967628,-88.61372,-104.078693,-116.003551,-50.76416,-83.843594,-102.046795,-116.14151,-41.063461,-71.24279,-88.660641,-101.728249,-31.037407,-54.326248,-67.569809,-78.922176,-16.489521,-16.179287,-4.591699,5.345548,14.742973,31.086578,39.371198,45.085458,32.378211,48.07319,55.818235,61.351196,44.928118,61.097772,68.019623,72.458304,52.53194,68.283853,75.064233,79.837293,12.981319,27.837753,34.173317,31.967182,24.052963,46.230927,36.175575,27.752495,18.640652,47.973461,40.151882,32.101364,15.339375,43.814392,37.138367,30.668392,13.272686,31.530132,26.702614,22.106724,-21.238066,-40.552978,-56.298036,-70.22578,-23.011229,-21.079553,-23.00351,-23.347522,-3.871751,-1.501955,-8.136852,-9.834618,13.014146,13.905637,7.044116,5.207844,26.366191,25.799631,18.921376,17.995367,55.914516,303.550746,-136.451225,196.322328
92,-1.16787,-1.217842,4.631767,8.731817,-28.482971,-52.303162,-74.25848,-92.26387,-58.663559,-87.984467,-103.385353,-115.462418,-50.535965,-82.983513,-101.0289,-114.987431,-40.82119,-70.316505,-87.699509,-100.935802,-30.509262,-53.434639,-66.781082,-78.463326,-15.59766,-14.845725,-3.064488,6.744503,15.569625,31.849442,39.953628,45.61083,32.835226,48.31556,55.936981,61.37392,45.24533,61.232944,68.468425,73.156639,52.880583,68.470956,75.277704,80.036376,15.213776,27.787857,37.476883,43.837795,15.991859,44.684887,54.980907,57.754326,8.634853,42.75238,53.280544,53.11552,5.401268,38.605556,46.172447,43.383808,5.525322,31.100864,35.713921,32.123623,-22.133324,-35.524395,-45.256259,-53.844568,-19.906172,-12.736393,-11.081914,-12.119692,-1.555925,3.136365,0.382297,-5.044762,13.559896,16.850699,12.037502,6.619768,26.243493,26.52563,21.749051,17.570215,55.833979,301.926185,-130.732126,204.647426
93,-1.1903,-0.152585,12.08725,19.524492,-28.338318,-51.630135,-73.072643,-90.8535,-58.501396,-87.65728,-103.081398,-115.274506,-50.494881,-82.763901,-100.71413,-114.579105,-40.809059,-70.41172,-87.716846,-100.949936,-30.437393,-53.680687,-67.280216,-79.029636,-16.164467,-15.856703,-4.351428,5.468802,15.306383,31.685371,39.554412,44.819128,32.730497,47.960248,55.337385,60.479959,45.139242,60.584132,67.771139,72.383586,52.803148,68.033208,74.880155,79.633702,15.525227,31.894913,47.470894,57.257824,22.171211,64.82872,64.062309,55.2281,16.636848,63.436089,65.042496,57.860413,15.489922,58.491955,59.278622,52.285595,16.722965,49.403114,50.043411,43.167515,-22.43411,-35.774113,-38.379981,-34.852118,-15.780688,-8.150066,-9.723035,-10.317012,4.553475,9.011114,1.276196,-1.407354,21.286664,23.08428,13.860621,11.930921,34.001815,32.732535,25.14625,23.556053,56.174898,301.09893,-117.113657,223.497249
94,-0.355339,-0.38736,-5.938625,6.681024,-28.038368,-51.674652,-73.275719,-90.705986,-58.49968,-87.829685,-103.525143,-115.798359,-50.445671,-82.782669,-100.983238,-115.041962,-40.681915,-70.678654,-88.218212,-101.455593,-30.27729,-54.063835,-67.738094,-79.372158,-16.335824,-15.650333,-3.978764,5.877713,14.660042,31.308447,39.217007,44.791773,32.003263,47.014232,54.490478,59.836087,44.664814,59.64392,66.750158,71.522229,52.747758,67.803249,74.447346,79.199349,20.414143,41.438656,60.471096,74.173164,32.800198,68.281288,88.944969,103.03299,29.377499,70.51506,91.203575,102.982178,29.071198,67.142029,85.037956,93.874683,30.584278,59.507446,71.752625,78.104038,-20.064561,-27.92965,-27.794354,-22.77948,-6.732092,2.096118,3.688043,4.968129,12.816422,19.456629,18.333636,17.26665,28.121632,32.940572,29.356825,26.469746,38.137425,39.892063,34.691999,29.421848,56.666107,300.214386,-122.205734,229.68109
95,-1.130219,0.282076,5.040493,11.732825,-27.274933,-50.474167,-72.117233,-90.166454,-58.129692,-87.350521,-102.903843,-114.81863,-50.682106,-82.678127,-100.584126,-114.414482,-41.247597,-70.596485,-87.605095,-100.585442,-30.806236,-53.69339,-67.115364,-78.634758,-16.469391,-16.471181,-5.117195,5.151837,14.618854,30.397567,38.387761,44.114556,31.900942,46.700046,54.229212,59.784835,44.183223,59.097491,66.448939,71.486723,51.767223,66.600228,73.274336,77.827502,23.483276,47.591743,66.0462,79.907513,38.342228,68.942471,90.757027,106.655674,35.526295,69.948807,91.513424,105.564251,34.263496,66.147652,84.606686,95.837803,34.137955,58.095989,71.18557,80.459232,-19.301265,-22.961273,-18.708152,-11.224743,0.788491,8.996294,11.074566,13.006983,17.815179,25.671622,24.930864,24.511579,30.266285,37.154914,35.795355,34.443577,38.058076,43.025896,40.479803,36.265338,55.65073,300.437074,-117.0504,241.354526
96,0.095329,0.915018,26.848011,27.289236,-26.981621,-47.595062,-65.574589,-78.147984,-57.796898,-85.553513,-101.043091,-113.194199,-51.85318,-81.891575,-100.231705,-114.44006,-43.432503,-70.8811,-88.153267,-101.597958,-33.564491,-54.69326,-67.802582,-79.959354,-15.487189,-19.235068,-17.167788,-15.325402,12.107774,27.160672,35.726812,42.084573,28.314787,45.236314,53.442141,58.824677,40.592004,57.317412,65.261726,69.951484,49.262194,64.77433,71.890756,76.334316,13.777828,28.196526,49.26012,65.960999,43.320351,71.864777,75.315285,69.971809,52.636356,78.959656,69.882317,52.898769,59.134426,82.174759,71.411762,55.069542,62.797108,83.440475,80.145607,67.56609,-22.247809,-29.24728,-22.246203,-7.262404,-0.916376,13.540013,24.381903,33.604327,24.280941,42.758085,56.943945,66.87372,47.493353,67.440589,80.616151,89.041501,66.846859,86.010976,94.802567,100.907089,55.745401,301.612261,-90.203047,268.903932
97,0.449524,0.117017,2.500134,9.571499,-26.714973,-49.603615,-71.297951,-87.170792,-56.535988,-88.900337,-105.572319,-117.349205,-50.490532,-83.555374,-102.683315,-116.561279,-42.07386,-71.100597,-89.312725,-103.378487,-32.788696,-55.677223,-69.627399,-81.618404,-14.748345,-17.164453,-12.890646,-8.257142,10.927044,23.203088,30.208672,35.118509,27.325298,44.234414,52.733926,58.171543,40.134989,57.38367,65.339161,70.06035,48.702303,63.612866,70.869466,75.35693,16.333179,34.594231,54.585972,68.990593,40.486221,75.354996,84.636784,84.250202,44.26403,77.668877,76.428394,65.122089,46.477833,73.900166,71.728191,60.698833,47.374306,68.705006,70.236912,61.399384,-22.681482,-26.750772,-18.001789,-4.882173,3.525702,15.553941,22.58688,30.280056,26.008039,42.893318,53.422937,61.415416,44.852782,62.478326,73.684235,81.360861,59.74692,76.42515,84.538784,88.404545,56.182537,301.957492,-87.715302,278.703646
98,1.97422,-4.274117,-6.916351,-0.867779,-27.470398,-52.790451,-74.471283,-92.075386,-51.51947,-85.389175,-102.503357,-114.039803,-47.542992,-82.525406,-103.675518,-120.585308,-41.289711,-71.559277,-91.466274,-109.123707,-33.257675,-55.109596,-69.006157,-82.930756,-13.572679,-16.281916,-14.536479,-15.222156,11.799639,18.785463,16.878858,14.512397,29.388441,39.495255,41.145102,41.924825,42.545355,56.14119,64.006216,69.356581,50.506588,67.081572,76.564521,83.462845,25.722713,51.226788,72.513599,90.099621,48.100662,85.029774,103.764095,114.45425,40.052834,81.649704,102.270985,112.51276,33.408794,70.404682,88.900051,97.669201,27.750893,54.886379,69.347477,76.665916,-15.814095,-13.431764,-2.072344,6.755001,14.642319,30.231705,33.392647,36.041925,33.374369,47.510273,49.858085,50.97583,46.136265,60.498608,63.236991,64.05574,53.546005,68.460212,71.01001,70.311057,58.129349,297.85708,-94.659061,278.009571
99,-0.819283,-3.598629,0.15358,6.96168,-31.081238,-54.271202,-68.990192,-77.144909,-48.396835,-73.349419,-91.297817,-106.303139,-43.765526,-74.301739,-96.775532,-115.706863,-38.62072,-67.443352,-89.104843,-107.406921,-32.484283,-52.052078,-67.163715,-82.674923,-9.635534,-6.967299,-0.302577,4.825795,31.760028,38.606358,34.405971,28.869985,41.818058,47.505827,43.441538,38.768638,48.099125,58.044708,59.805706,58.901927,50.82028,66.843462,75.488644,81.153688,27.879639,53.091774,75.075474,92.150631,49.073067,84.274635,104.400043,118.169003,40.832462,80.561142,103.636723,118.589001,34.6451,70.720997,91.992474,106.351376,30.373077,57.736015,73.754425,85.250301,-13.81085,-11.359729,-0.806522,7.558683,16.276976,30.02657,34.167306,37.510905,34.941965,48.116168,51.324658,52.407698,47.131743,61.429742,64.372149,64.207955,53.624305,67.105963,69.25179,67.96133,57.266722,294.416254,-94.548826,285.129054
100,-0.032501,1.984164,3.865299,4.980973,-30.596695,-52.699814,-66.47747,-73.114986,-45.693283,-67.033253,-83.711929,-98.580322,-42.109337,-68.530998,-89.065933,-107.052841,-38.184128,-63.070335,-82.704792,-100.066051,-32.976036,-51.612396,-67.219906,-83.936634,-12.663466,-10.753958,-2.97248,2.240675,21.842911,26.480182,26.611958,25.177681,34.939062,43.021574,42.756418,41.028147,44.410032,56.979637,60.0503,60.30255,50.448111,65.682369,73.691213,79.25017,26.576099,52.257214,73.789787,90.645332,52.403755,87.58667,106.790085,120.194778,43.158875,82.17968,104.181633,118.5252,35.167294,70.411034,91.06041,105.476875,28.785038,55.62521,71.142368,83.290672,-14.701044,-11.01016,0.980782,9.691851,15.587595,29.134215,33.403577,36.955646,33.815328,47.177809,51.019178,52.721575,45.883211,61.053065,64.503184,64.825459,52.147235,66.511678,69.243269,68.81503,57.173023,296.609443,-90.744724,290.319053
101,-3.574562,2.919621,4.762287,2.463903,-29.52507,-50.788536,-64.618378,-72.671871,-32.729988,-53.901215,-71.751022,-87.108765,-28.974152,-57.637711,-79.315166,-97.140312,-27.3452,-56.408844,-76.687889,-92.777538,-27.12513,-49.754791,-64.954205,-79.279747,-8.165257,-2.343428,5.552844,13.111959,32.930877,36.939899,35.176925,31.993568,41.47911,45.076998,40.190009,34.525273,44.153768,51.125142,47.79414,42.504167,42.731903,53.607015,56.325577,56.927458,26.71566,52.548122,73.748074,90.295315,51.798306,86.205769,104.81741,117.779675,42.205467,80.50375,101.776028,115.267124,33.788738,69.249802,88.929577,101.889668,26.772079,54.352398,69.466953,80.520115,-13.398419,-9.136838,2.259571,8.506922,16.355955,30.356317,35.582563,39.101102,34.339034,48.507974,53.500433,55.513682,46.27156,61.880211,65.055171,64.436987,52.702062,66.971842,68.644104,66.679206,53.545933,299.901945,-86.034966,293.155836
102,0.052414,2.324965,3.518429,3.301177,-25.458355,-49.427491,-66.645298,-80.230866,-52.578678,-65.190411,-63.112393,-61.84599,-49.488058,-64.883623,-63.064528,-60.172634,-45.547343,-61.701451,-58.95813,-56.325732,-41.264134,-61.140805,-69.068671,-74.982834,14.328658,26.520413,35.035393,43.100923,36.543122,43.529595,44.9857,45.606168,33.066852,40.340958,42.036933,41.622742,26.13543,35.043483,37.664232,37.785232,16.885805,25.254869,30.733582,35.274676,26.280956,51.468601,72.5877,89.228096,52.083721,86.669769,105.089378,118.299637,42.722855,80.914764,102.342567,116.671486,34.265728,69.521828,89.480324,103.453445,27.089596,54.646568,70.239601,82.520714,-14.04686,-11.807729,-1.737657,5.075637,14.045749,28.874122,34.595854,38.390046,31.639059,46.367458,52.555899,54.974601,43.76931,59.365241,63.720065,63.402297,50.929146,65.844279,68.782919,67.469982,53.580923,302.417131,-82.53396,296.647235
103,0.052414,2.324965,3.190498,0.966764,-21.39164,-48.066444,-68.672218,-87.78986,-72.427368,-76.479607,-54.473763,-36.583214,-70.001965,-72.129536,-46.813889,-23.204956,-63.749485,-66.994057,-41.228371,-19.873924,-55.403137,-72.526817,-73.183136,-70.685921,36.822573,55.384253,64.517942,73.089887,40.155367,50.11929,54.794475,59.218769,24.654593,35.604917,43.883857,48.720211,8.117092,18.961823,27.534323,33.066296,-8.960294,-3.097277,5.141586,13.621894,25.083332,50.000954,71.288109,88.037109,52.01025,85.262032,103.251228,116.498108,43.115044,79.93721,101.384811,115.947533,34.336853,68.400936,88.69709,103.205338,26.024094,52.757435,68.224697,81.000137,-13.813073,-11.441734,-1.324238,4.11443,14.794596,29.392332,35.269798,38.869044,32.086626,46.693253,53.128511,55.618967,44.001429,59.981757,64.940562,65.060049,51.3304,66.813328,70.702184,70.436657,53.643923,305.081461,-79.332876,297.953364
104,-1.297188,4.042923,3.019638,2.542882,-17.24762,-43.349648,-63.292294,-82.031994,-68.719368,-71.820831,-52.467155,-34.903107,-69.303646,-67.752113,-45.847206,-23.204384,-65.556564,-67.506695,-44.7052,-22.372971,-59.314156,-73.422318,-77.69989,-77.278633,25.754121,39.422081,51.232958,60.881522,26.372181,46.404447,56.083885,61.252457,21.382933,38.661192,48.510444,55.252787,16.749861,34.046892,44.286099,51.877509,12.089804,27.193832,38.650139,50.265206,25.0704,48.831654,69.699097,86.771736,51.482449,83.686638,100.85804,113.025398,43.105373,78.49411,99.650574,114.533958,34.312592,66.820507,86.916733,101.522484,25.444679,50.499058,65.46793,79.099388,-14.195493,-12.515635,-2.485825,2.170033,15.097111,29.942651,36.382478,40.563722,32.088725,46.446005,53.308451,56.962903,44.094549,60.023068,66.715392,68.925192,51.945929,68.373452,74.548555,76.888896,52.38822,309.189562,-76.271753,300.561424
105,-5.505524,3.524652,3.852425,1.573339,-14.827995,-35.149384,-51.269188,-66.992741,-62.809124,-62.702465,-43.951149,-27.917175,-62.283783,-56.579132,-35.308456,-14.650612,-57.590675,-52.412682,-31.685715,-11.853218,-50.222969,-50.718956,-40.414696,-28.939705,27.549329,42.295574,52.588565,62.028845,32.888084,49.184327,57.608503,62.521304,24.717578,38.486377,48.987096,55.740059,15.989158,28.943838,39.232569,46.328926,6.437295,17.377307,26.089055,33.997122,25.058155,48.697815,69.192924,85.889168,51.513634,83.615685,100.400276,111.759109,42.289124,76.984062,97.305336,111.483192,32.596664,64.638519,84.245453,98.605614,22.808361,47.862797,62.924194,76.796379,-14.222664,-12.408992,-2.139775,3.004837,15.123602,31.41509,38.761104,43.759738,31.683642,46.92457,54.294976,58.38063,43.513107,59.81466,66.987835,69.745855,51.507871,68.312381,74.801609,77.644968,47.209253,312.747111,-72.092772,302.16766
106,-7.497139,5.678568,1.503525,0.955588,-11.783638,-28.537788,-42.772179,-56.658554,-55.829773,-52.095737,-34.101105,-18.684769,-54.766502,-45.269623,-24.823952,-4.639893,-49.74884,-38.93692,-19.79702,-1.819382,-42.757645,-38.522644,-27.377243,-16.545982,27.906617,43.406773,51.775127,61.06912,33.12959,45.038589,50.615207,54.997634,22.376435,32.150908,40.823012,46.825584,10.785944,19.950385,28.540546,35.098564,-1.533201,5.279413,12.269683,19.692206,25.631733,49.082851,69.164085,85.839729,50.656986,82.60643,99.312057,111.371841,40.975399,76.419182,96.69239,110.737495,31.040268,63.927383,83.217773,96.918411,21.480331,47.437019,62.754593,75.907974,-14.740811,-13.334507,-2.933639,3.798824,13.47678,30.206387,37.608347,42.63798,30.911206,46.495528,54.171537,58.823751,43.198983,59.235071,65.713739,68.237355,51.004605,66.404417,71.06151,71.873775,39.969978,318.44919,-70.331383,303.146759
107,-16.83712,5.392046,0.422173,-0.21415,-3.362274,-12.124443,-20.22789,-28.96431,-37.689342,-28.224792,-11.647339,0.281067,-37.646542,-23.836899,-4.904251,11.628227,-34.034443,-19.433327,-1.311836,14.169617,-28.695259,-21.253395,-10.856438,-1.364136,19.269154,32.877587,43.030281,53.322098,24.556533,37.411981,41.570069,44.85235,19.559319,29.173303,35.922932,40.250215,14.236372,23.511531,30.159025,34.673844,8.491793,16.951167,23.346411,30.091223,24.851761,48.787308,69.194641,86.035652,51.116238,82.530327,99.117966,111.106682,41.733513,76.787796,96.867142,110.973244,31.553993,64.384117,83.646584,97.446671,21.505222,47.697887,62.961388,76.068535,-14.827385,-13.371558,-2.51423,4.085284,13.154258,29.659402,37.346279,42.792109,30.407076,45.637877,53.565271,58.780217,42.536216,58.178398,64.708442,67.757122,50.507947,65.876389,70.535273,71.754658,23.36875,323.925989,-69.673319,303.017361
108,31.714096,-18.974111,-0.551834,-0.765149,-23.987961,-50.211182,-71.97361,-94.841251,-72.696304,-75.366955,-52.408447,-33.685455,-70.64455,-68.325462,-43.863487,-20.666428,-65.22171,-67.448959,-43.434906,-20.427589,-58.151321,-76.098633,-83.667698,-85.276337,32.738772,48.680876,60.014484,70.344217,37.928029,52.100922,59.839731,65.713059,28.447056,40.630845,50.033395,56.261047,18.076507,31.691361,41.974719,49.070891,7.834028,18.841965,28.451626,38.524785,25.214024,49.416447,69.815025,86.683388,50.26783,82.665596,99.801636,112.320442,40.641632,76.338959,96.81118,111.15612,30.808582,64.142532,83.739166,97.627487,21.599808,48.104553,63.710976,76.853371,-14.719322,-12.949988,-2.378749,4.489131,12.76486,29.698181,37.017272,41.848316,30.228556,46.092669,53.803875,58.510553,42.509539,58.603055,64.903573,67.515616,50.309481,65.863977,70.29599,70.950112,55.28306,305.050787,-70.024939,302.35112
109,-1.017723,3.062882,0.718403,-0.378283,-19.106255,-42.847824,-61.017723,-79.185219,-67.223454,-66.144676,-45.760803,-28.74115,-66.366634,-61.354294,-39.332771,-17.716484,-61.994476,-62.226219,-40.515175,-18.876801,-55.374413,-70.422249,-78.341274,-81.891575,25.727074,39.932015,52.648031,64.79514,28.196597,47.248513,55.813604,60.274392,23.00598,41.936928,49.556435,53.64814,18.102504,35.586515,43.916337,49.631832,13.104919,24.477925,32.95249,42.44464,24.601364,48.257446,68.628559,85.892887,50.186806,82.685108,99.469128,111.193943,40.625668,76.141605,96.498814,110.320644,30.53215,64.082279,83.681202,97.544575,20.9828,47.884998,63.771114,77.133121,-15.12669,-12.90386,-2.223262,4.498271,13.494812,30.804934,37.945566,42.577835,30.822903,46.908083,54.439225,58.505366,42.988599,59.589148,65.638527,67.635473,50.463548,66.073373,70.34502,70.717189,54.514103,308.157079,-69.05777,302.016248
