takenoko1/special-research/HandMotion_SimilarSearch_自分用/NewProject/handData/key/d4_feature_d2/79.csv
,vel_0x_L,vel_0y_L,vel_0x_R,vel_0y_R,posFromWrist_1x_L,posFromWrist_2x_L,posFromWrist_3x_L,posFromWrist_4x_L,posFromWrist_5x_L,posFromWrist_6x_L,posFromWrist_7x_L,posFromWrist_8x_L,posFromWrist_9x_L,posFromWrist_10x_L,posFromWrist_11x_L,posFromWrist_12x_L,posFromWrist_13x_L,posFromWrist_14x_L,posFromWrist_15x_L,posFromWrist_16x_L,posFromWrist_17x_L,posFromWrist_18x_L,posFromWrist_19x_L,posFromWrist_20x_L,posFromWrist_1y_L,posFromWrist_2y_L,posFromWrist_3y_L,posFromWrist_4y_L,posFromWrist_5y_L,posFromWrist_6y_L,posFromWrist_7y_L,posFromWrist_8y_L,posFromWrist_9y_L,posFromWrist_10y_L,posFromWrist_11y_L,posFromWrist_12y_L,posFromWrist_13y_L,posFromWrist_14y_L,posFromWrist_15y_L,posFromWrist_16y_L,posFromWrist_17y_L,posFromWrist_18y_L,posFromWrist_19y_L,posFromWrist_20y_L,posFromWrist_1x_R,posFromWrist_2x_R,posFromWrist_3x_R,posFromWrist_4x_R,posFromWrist_5x_R,posFromWrist_6x_R,posFromWrist_7x_R,posFromWrist_8x_R,posFromWrist_9x_R,posFromWrist_10x_R,posFromWrist_11x_R,posFromWrist_12x_R,posFromWrist_13x_R,posFromWrist_14x_R,posFromWrist_15x_R,posFromWrist_16x_R,posFromWrist_17x_R,posFromWrist_18x_R,posFromWrist_19x_R,posFromWrist_20x_R,posFromWrist_1y_R,posFromWrist_2y_R,posFromWrist_3y_R,posFromWrist_4y_R,posFromWrist_5y_R,posFromWrist_6y_R,posFromWrist_7y_R,posFromWrist_8y_R,posFromWrist_9y_R,posFromWrist_10y_R,posFromWrist_11y_R,posFromWrist_12y_R,posFromWrist_13y_R,posFromWrist_14y_R,posFromWrist_15y_R,posFromWrist_16y_R,posFromWrist_17y_R,posFromWrist_18y_R,posFromWrist_19y_R,posFromWrist_20y_R,posFromBody_0x_L,posFromBody_0y_L,posFromBody_0x_R,posFromBody_0y_R
2,-1.318474,-3.077579,-0.246506,0.922922,-15.471497,-36.674767,-51.609879,-63.053513,-59.302139,-60.147915,-44.753952,-30.412331,-58.725586,-58.28476,-38.666725,-18.797607,-54.888153,-53.326836,-33.9711,-15.987396,-48.267059,-48.608665,-37.508469,-25.962868,22.073426,37.461814,49.423301,59.414023,31.753729,49.988996,59.262241,63.618671,26.938185,45.877839,56.221465,60.511452,21.260049,38.42759,47.368309,51.571351,14.64553,28.125584,35.22966,40.111586,25.646553,49.113178,69.007645,85.23262,47.901306,79.5504,96.35273,108.401299,37.998505,73.287964,93.59642,107.727699,28.540649,61.607895,81.245499,95.16449,20.068073,45.984535,62.013474,75.68367,-13.16667,-10.559259,0.522779,8.034902,14.636824,32.564142,40.417806,45.381428,31.626276,48.357056,55.867018,59.837261,43.78907,61.300807,67.096022,68.4859,51.385976,67.718589,72.037413,72.280277,51.693106,304.444398,-70.003138,300.970072
3,-3.771744,10.820648,0.575294,0.598608,-12.382622,-27.651901,-39.063606,-45.372162,-47.52697,-47.665443,-33.408051,-19.868889,-48.5812,-48.698959,-30.683899,-12.931709,-46.400871,-46.291351,-30.547256,-15.472183,-41.656723,-42.023163,-32.398338,-23.874779,-2.809767,0.665669,5.343572,9.101393,16.252523,26.925217,32.006474,35.004147,24.481383,34.641549,41.618481,45.545066,30.578557,38.28896,42.749378,45.227669,34.730716,42.007941,44.111901,45.856782,25.316792,48.786335,68.594398,84.999161,47.430553,79.628105,96.410065,108.265114,37.270489,73.032646,93.275528,107.013474,27.607384,61.166782,80.834999,94.617577,19.041309,45.489349,61.729374,75.330963,-13.635108,-11.030106,-0.302886,6.982181,14.070325,32.329799,40.062679,44.931329,31.153947,48.242386,55.729129,59.492323,43.169157,61.085113,66.624743,67.848821,50.321522,66.740525,70.976726,71.084975,47.905197,315.092716,-69.444008,301.396351
4,3.620224,-10.607733,-0.226021,-0.032913,-24.024925,-51.105194,-74.238853,-97.33366,-78.502007,-78.457375,-53.657684,-33.684196,-75.192547,-70.197887,-43.321152,-18.209038,-67.439461,-64.429092,-37.331657,-13.133354,-57.388458,-70.446854,-69.644451,-64.044456,37.000106,52.887067,61.835504,71.181182,38.24944,53.606644,62.636839,69.732949,27.272255,42.960379,53.706742,59.750131,15.137558,31.067559,42.543317,50.138432,3.05788,13.923853,22.289614,30.294135,24.947491,48.654041,68.526764,84.941483,47.026062,79.31694,96.462936,108.68248,37.010708,72.866707,93.446045,107.440796,27.581863,61.361904,81.306038,95.226288,19.297371,45.877132,62.218781,75.775566,-13.536864,-10.885054,-0.160242,7.171014,14.214698,32.19333,39.946465,44.651352,31.345868,48.171496,55.646013,59.31053,43.501004,61.233932,66.615727,67.638314,50.796692,67.165182,71.218109,71.083431,51.53429,304.362439,-69.66116,301.240894
5,-0.577354,3.143343,0.17292,0.588358,-20.105324,-46.276016,-67.048473,-86.652489,-72.208099,-68.124905,-47.467232,-31.602402,-70.561924,-63.901806,-40.849342,-19.071465,-63.926296,-59.910049,-37.159195,-16.579971,-53.854637,-55.518494,-48.624687,-40.377731,30.090482,45.502952,55.85899,66.752504,31.569281,49.877475,58.935766,65.090677,23.244831,42.374553,52.121608,57.332232,14.420635,32.994789,42.912646,49.156724,5.062669,19.585996,28.098846,35.140924,24.755745,48.345394,68.280487,84.639359,47.157555,79.492607,96.734848,108.871536,37.206516,72.976456,93.440437,107.212143,27.813835,61.496658,81.290245,94.917412,19.577694,46.07254,62.281322,75.701866,-13.879702,-11.433768,-0.713958,6.542209,13.944108,31.641529,39.46191,44.398917,31.033411,47.585238,55.02289,58.841906,43.255114,60.536893,65.927148,67.043225,50.696224,66.825431,70.692674,70.543115,50.979967,307.409899,-69.465208,301.733369
6,-2.397652,2.728504,0.319118,-0.333637,-13.30616,-33.77964,-49.713364,-63.633327,-63.471508,-57.124386,-37.718811,-22.913132,-64.454956,-55.992222,-34.327011,-13.617897,-60.460911,-53.077583,-32.331505,-13.372765,-53.240547,-49.913521,-37.860603,-25.755615,22.461959,36.629789,47.281426,57.433317,27.370006,45.203957,52.983891,57.413928,22.991407,40.640169,49.326414,53.231325,17.398858,33.468044,40.928605,45.141589,10.945384,22.455414,28.092485,33.022021,24.440632,47.824402,67.730999,84.481831,46.444588,78.968868,96.430264,108.865185,36.591167,72.60252,93.246517,107.159672,27.383423,61.267662,81.071377,94.701977,19.381142,45.918961,62.017365,75.317059,-13.617201,-10.98299,-0.253053,6.986689,14.485288,31.898349,39.615236,44.519886,31.51142,47.926903,55.365481,59.105518,43.649328,60.942778,66.324636,67.345061,51.002568,67.234775,71.178588,70.957337,48.588409,310.061971,-69.139996,301.3233
7,-6.603813,13.360381,-0.415192,0.033407,-9.989548,-24.62677,-39.530296,-51.110287,-42.921638,-37.965088,-22.408104,-10.210648,-43.519363,-38.827515,-21.35582,-4.50428,-41.483688,-38.901215,-23.819618,-10.703659,-37.302132,-38.400879,-30.241013,-22.957764,-10.328991,-17.220337,-20.934748,-25.949005,5.731303,17.190203,21.907749,24.092047,18.284914,27.768358,32.982068,35.445416,27.657145,34.670695,38.646125,41.216918,34.574982,42.072346,43.216026,43.741398,24.854736,48.217163,68.058414,84.720097,46.352692,78.840923,96.345119,108.948956,36.436386,72.451572,93.171101,107.384777,27.341938,60.961246,80.930958,94.913807,19.539642,45.664215,61.731205,75.168858,-13.848765,-11.311811,-0.341974,7.055479,14.427799,31.999372,39.743862,44.690008,31.59713,48.028359,55.380301,59.1832,43.79191,60.998415,66.331675,67.412431,51.115756,67.292264,71.271832,71.001426,41.990318,323.318148,-69.549465,301.252503
8,12.833405,-19.819721,0.171261,0.418359,-24.089127,-50.932388,-73.7257,-96.417446,-76.659622,-77.095585,-51.912689,-32.075157,-75.530033,-70.559978,-44.887161,-20.376778,-70.337048,-69.480572,-44.60392,-20.647888,-63.104324,-80.661793,-87.34663,-87.522469,25.330019,40.141535,54.252677,67.166726,30.097954,48.977586,56.433887,60.732395,27.410576,44.214098,52.058006,55.252107,24.096061,40.472826,47.689905,51.467178,21.107711,34.446603,44.255594,54.244217,24.654465,47.971058,67.739868,84.392738,46.784306,79.164734,96.528053,108.969269,36.792755,72.65728,93.173218,107.180328,27.488022,60.997925,80.760956,94.561043,19.395676,45.341606,61.182575,74.492912,-14.339989,-11.807173,-0.614355,6.622114,14.103053,31.706861,39.427947,44.344391,31.265222,47.460132,54.831711,58.635783,43.44123,60.254447,65.613024,66.784738,50.702152,66.689395,70.743248,70.740099,54.824495,303.454724,-69.377432,301.627158
9,-2.94445,4.692661,0.204449,-0.18766,-19.146194,-44.155769,-62.50042,-79.712276,-69.626484,-66.725578,-48.083611,-32.922134,-67.976532,-62.483025,-40.462646,-18.308601,-62.14056,-57.429314,-35.899086,-15.470581,-53.052063,-52.82959,-42.279282,-30.496445,31.965657,48.06331,58.093614,69.292484,33.168616,51.719984,59.686713,64.306138,21.842973,41.013697,51.22808,56.560599,9.967875,27.958734,38.784384,45.812445,-2.190349,10.83164,19.494296,27.136033,24.155903,47.276459,66.904392,83.678913,46.851025,78.981686,96.282635,108.637218,36.957722,72.552853,92.936382,106.926441,27.575397,60.917187,80.504551,94.182873,19.301777,45.145683,60.90414,74.14793,-14.055135,-11.448526,-0.579528,6.320525,14.129482,31.662894,39.54941,44.449923,31.240151,47.513669,54.956323,58.74397,43.5065,60.477427,65.892074,67.013153,51.000036,67.109607,71.210143,71.197237,51.885195,308.124645,-69.167833,301.416759
10,-1.169472,-1.843003,-0.126171,0.169073,-13.939476,-35.068588,-50.990982,-64.338913,-59.218884,-57.343712,-41.073074,-26.314201,-59.946842,-56.715889,-36.478386,-15.830269,-56.842232,-53.405685,-33.242912,-14.612846,-50.638161,-49.821053,-37.292404,-24.374313,25.809881,41.213028,52.596963,62.809185,32.632808,50.798544,59.053586,62.827586,25.491929,44.144382,53.691057,57.186069,17.424361,34.655257,43.040531,46.948653,8.490867,22.058976,29.146256,34.065171,24.129009,47.173347,66.773987,83.814926,46.953564,79.019394,96.297455,108.654556,37.1735,72.729378,93.143349,107.250023,27.842159,61.087303,80.67009,94.369469,19.496899,45.219841,60.878391,74.087448,-14.001535,-11.504596,-0.632262,6.08785,14.166718,31.381312,39.209289,44.146358,31.226257,47.182317,54.55266,58.362476,43.466238,60.140208,65.60302,66.814502,51.003309,66.957207,71.040267,71.011615,50.719957,306.238803,-69.28977,301.542993
11,-3.34568,6.373569,0.361404,0.146595,-13.360176,-30.259209,-44.177742,-52.715149,-49.232025,-46.045303,-31.152077,-17.668076,-50.69355,-47.928429,-29.574966,-10.923729,-48.260422,-46.258163,-30.594521,-16.002846,-42.993851,-43.476334,-34.6875,-26.399117,-6.260566,-5.188949,-1.943965,-0.396252,14.926433,28.767973,34.665076,37.187333,25.277531,37.305647,43.90973,46.686399,33.443591,43.142234,48.111475,50.674673,39.583373,49.085773,51.452234,52.380034,23.888512,46.950302,66.589966,83.681374,47.029724,78.983688,96.105194,108.313408,37.181911,72.507019,92.757568,106.790085,27.685032,60.593319,80.017548,93.684425,19.127941,44.638596,60.174408,73.428268,-14.156652,-11.580858,-0.677649,5.939155,14.393712,31.556745,39.170386,43.893057,31.436085,47.267779,54.368891,57.985798,43.53756,60.182878,65.535033,66.651974,50.943596,66.952328,71.11233,71.235955,47.373705,312.568807,-68.928938,301.646023
12,7.032051,-9.294425,0.08503,-0.280532,-25.909309,-52.641335,-74.562149,-96.393414,-77.084942,-79.696541,-54.19693,-33.736954,-75.378799,-72.490597,-46.40007,-21.139526,-69.777718,-70.503387,-45.43705,-20.622368,-61.961117,-78.487701,-82.293434,-79.421368,26.552554,40.876488,54.0263,66.169889,30.038179,48.265975,56.809762,62.134191,27.014508,43.135442,52.695949,57.026073,23.355303,38.399926,47.787224,53.073738,19.928463,32.437183,41.396426,50.087735,23.678741,46.75375,66.388779,83.234825,47.087917,78.878517,96.086655,108.361816,37.274723,72.568932,92.796249,106.878662,27.793465,60.6106,80.00885,93.698502,19.263439,44.729404,60.195408,73.376884,-14.143314,-11.543066,-0.5849,6.065743,14.444533,31.558845,39.352179,44.19088,31.58268,47.419376,54.660291,58.425152,43.743868,60.403697,65.853665,67.095219,51.090685,67.216126,71.489131,71.692599,54.38633,303.228702,-68.863335,301.319811
13,-3.061981,3.947333,-0.743408,0.894825,-20.107613,-46.18824,-65.15419,-83.859844,-71.774254,-69.521427,-49.355392,-33.266716,-69.152641,-63.041954,-40.693359,-19.908829,-62.470436,-60.641384,-37.692719,-16.595306,-52.848473,-63.75103,-68.181839,-68.730812,31.72872,46.824905,57.964185,69.487245,32.670661,51.588579,59.671152,64.364492,22.768674,41.350114,49.87729,55.954951,13.051444,30.858719,41.071125,49.409654,3.340636,15.558078,25.040163,34.96191,23.752213,47.205906,67.095795,83.804398,47.935753,80.040207,97.176933,109.35482,37.802181,73.510666,93.703995,107.723465,27.850914,61.201801,80.529442,93.971672,18.887901,44.897461,60.383091,73.502083,-13.878652,-11.828724,-1.31868,5.687645,13.605221,31.023777,38.814086,43.671806,30.799994,46.631132,53.802887,57.802461,42.802916,59.23612,64.687817,66.164825,50.179496,66.067383,70.309143,70.827908,51.374187,307.115118,-69.556904,302.15372
14,-3.130989,4.073242,-0.37096,-0.330797,-15.535126,-38.926163,-56.692543,-72.215309,-64.223099,-59.88596,-42.259483,-27.321053,-63.215733,-56.464348,-35.695038,-15.046577,-58.072186,-51.935349,-31.62941,-13.31749,-50.192528,-50.679703,-39.78447,-28.359833,32.616568,49.026369,57.295676,66.952822,35.404413,51.764938,58.688024,62.505805,21.858843,39.279869,48.3473,52.831985,7.549544,23.597858,33.042398,38.828165,-7.336752,3.15489,11.07611,17.90058,24.268456,47.680492,67.492161,84.179134,48.415146,80.668201,97.904835,110.205517,38.307781,73.996181,94.0555,108.078403,28.349133,61.533852,80.689144,94.073124,19.363861,45.341034,60.889435,74.013577,-13.920395,-11.613462,-1.0689,5.925323,13.453377,30.70354,38.388008,43.167181,30.836982,46.548881,53.802022,57.770907,43.071715,59.364006,64.831387,66.325994,50.544812,66.350632,70.424554,70.637284,48.264256,311.174081,-69.906807,301.808643
15,-8.781281,0.228662,-0.265388,-0.103308,-5.098801,-15.673828,-23.419304,-28.636894,-49.692192,-41.427383,-24.602623,-11.583595,-51.635227,-41.778603,-21.646957,-2.647705,-49.029922,-39.848442,-21.109428,-4.653854,-43.415108,-38.409576,-26.717033,-16.135139,8.394722,17.684206,27.100589,34.890835,23.094098,39.13877,44.32142,47.130631,24.76031,39.300247,47.367012,52.159338,24.918329,37.108972,44.09671,48.762757,23.518077,33.503921,38.107229,42.442972,24.396,47.739487,67.632923,84.258556,48.744278,81.163731,98.37347,110.647144,38.700371,74.246578,94.270763,108.113651,28.666878,61.944637,80.923862,93.942318,19.554005,45.537472,60.989685,73.914471,-13.618806,-11.428396,-1.110643,5.972932,13.59954,30.898609,38.649151,43.583811,30.817222,46.682941,54.114603,58.20563,42.966122,59.238343,64.685903,66.101223,50.41563,66.148153,70.151494,70.24696,39.528551,311.374924,-70.126619,301.677516
16,11.564941,-6.618039,-0.211887,0.09207,-21.271362,-46.3274,-68.66993,-90.997982,-73.955097,-71.704559,-46.118774,-26.442947,-75.635948,-67.750168,-41.227341,-16.100235,-72.61179,-70.085735,-44.715385,-19.72126,-67.078228,-83.378105,-89.839325,-89.91045,18.695616,30.716322,45.052421,57.8899,22.512533,43.175703,50.698261,54.814235,25.185338,41.489361,49.291093,53.221136,27.09287,42.258153,49.134432,53.271463,29.37498,42.103469,50.297131,60.36603,24.399776,47.699776,67.789764,84.614182,48.646717,81.492004,98.897896,111.325493,38.64687,74.564781,94.852066,108.834572,28.735027,62.238979,81.340942,94.393845,19.772644,45.885715,61.492767,74.613876,-13.631465,-11.52028,-1.316889,5.71111,13.457514,30.687979,38.306683,43.200588,30.76986,46.693192,54.088297,58.11955,42.97557,59.419766,64.868376,66.23695,50.470155,66.414235,70.498902,70.612214,51.125193,304.734177,-70.306807,301.746877
17,-4.407578,5.976637,-0.335426,-0.296772,-17.163277,-40.423508,-59.783592,-79.131489,-70.56015,-61.864758,-39.699554,-22.900314,-71.371021,-59.306145,-35.881233,-13.499565,-66.609249,-59.712868,-36.445999,-14.706345,-58.625793,-66.046829,-69.028931,-68.530312,19.878631,31.792755,45.225384,57.66414,18.816215,40.514939,50.167208,55.101313,18.944779,38.001883,46.393023,51.869976,18.924525,37.042652,44.571262,50.194008,18.443119,31.989245,38.771169,46.541533,24.646511,47.886143,68.14167,85.139351,48.730602,81.45607,98.933945,111.503448,38.79427,74.710121,94.921303,108.83503,28.970375,62.443542,81.391869,94.301376,20.107155,46.146469,61.487389,74.223862,-13.284675,-11.382824,-1.287126,5.715186,13.566133,30.703849,38.451055,43.503968,30.861374,46.857448,54.44435,58.691297,43.074803,59.475959,65.048193,66.561016,50.626446,66.426338,70.518847,70.655809,46.718817,310.704948,-70.641031,301.444238
18,-7.396317,4.794117,-0.008354,-0.092996,-12.657394,-32.672768,-49.740658,-65.798035,-60.49633,-50.875568,-32.757339,-18.608894,-59.225807,-44.388084,-23.95443,-3.856773,-52.821465,-38.531342,-19.033241,-1.599884,-44.024849,-38.213081,-26.09951,-14.539833,29.461801,45.472756,53.113505,63.02,33.760494,48.470307,53.787758,56.751346,20.165956,34.060663,42.305146,46.698502,5.532281,17.942385,27.597803,34.123648,-8.663892,-1.280024,6.466935,13.86445,24.821835,48.012028,68.135719,84.838028,49.183617,81.424713,98.647499,111.074524,39.305878,74.74308,94.921074,108.821182,29.398212,62.521019,81.456299,94.371758,20.267601,46.260567,61.62878,74.472656,-13.369335,-11.587527,-1.367278,5.79293,13.766328,30.913182,38.675518,43.750784,31.110537,46.869365,54.358949,58.615405,43.364659,59.535054,65.192009,66.787455,51.084263,66.676922,70.787214,71.001426,39.340582,315.491701,-70.631304,301.343878
19,-16.617737,12.073873,0.122566,-0.37501,-2.515182,-11.537361,-21.593971,-30.388298,-41.238499,-24.253349,-5.448303,7.080345,-44.788857,-23.562241,-2.041512,15.982933,-42.651329,-24.5224,-4.976578,11.020317,-37.257442,-30.135555,-21.961441,-15.143166,-6.255317,-7.734918,-5.066189,0.105223,4.015074,18.187843,22.719582,27.041123,12.402014,21.548239,26.869704,31.738168,17.899839,26.697914,31.099113,35.388173,21.671863,29.951729,33.489471,37.745248,24.80135,47.987709,68.078041,84.835854,48.794174,81.306038,98.548508,110.884209,38.909569,74.653358,94.866142,108.766823,29.094944,62.387238,81.429405,94.373474,20.216732,46.017208,61.457634,74.405708,-13.356244,-11.501446,-1.29151,6.031842,14.311275,31.172781,38.744925,43.755971,31.596698,47.285254,54.639173,58.87556,43.700273,60.111556,65.719975,67.334378,51.190104,67.033962,71.190877,71.43158,22.738495,327.557638,-70.493088,300.960933
20,30.614891,-24.25019,-0.152035,0.00636,-22.427216,-48.707771,-71.837883,-95.466671,-74.720135,-75.936928,-50.882263,-31.548271,-75.923481,-71.312771,-45.205994,-20.368881,-72.63628,-73.211918,-48.011169,-22.774887,-67.307854,-85.978317,-94.629021,-96.868515,21.64389,34.255053,48.138954,60.677005,23.642998,44.420159,52.887561,57.422573,24.635018,41.668437,50.402354,54.618486,25.32619,41.435576,49.607317,54.170858,26.4787,39.058556,48.265172,59.19308,25.051231,48.405991,68.30801,85.052776,49.342632,81.5312,98.637714,110.955105,39.209461,74.854946,94.864025,108.770084,29.206123,62.419224,81.352787,94.376736,20.159512,45.798798,61.1273,73.99641,-13.475422,-11.625565,-1.286076,6.021962,13.69797,30.806601,38.399988,43.203243,31.106832,46.924756,54.283799,58.311285,43.402203,59.796197,65.398503,66.956033,50.961195,66.940596,71.081825,71.215268,53.372641,303.303188,-70.625868,300.963033
21,-2.486458,3.297904,0.546169,-0.118931,-20.521317,-44.689636,-63.628292,-82.831135,-73.589573,-70.554142,-48.528786,-31.70929,-72.800102,-65.607147,-42.08828,-19.774361,-66.980095,-63.142433,-39.441719,-17.705612,-57.586555,-65.836887,-66.535149,-63.435745,29.032759,43.169343,54.859375,65.637662,27.088362,47.796363,57.598685,63.09725,21.029473,39.966163,50.290091,57.151488,15.134717,33.631559,44.325557,52.385653,9.271392,23.386178,32.864928,42.804583,25.041447,48.235588,68.263092,85.237999,49.152489,81.361084,98.149567,110.138741,39.059029,74.724998,94.643211,108.379211,29.053745,62.319431,81.207275,94.090576,19.962845,45.697575,60.970287,73.825951,-13.664193,-11.825451,-1.321459,5.898152,13.727487,31.125604,38.655511,43.646858,31.079106,47.115317,54.462937,58.654246,43.257152,59.846091,65.388746,67.039952,50.731545,66.648331,70.845074,71.212057,50.891218,306.623338,-70.074663,300.866347
22,-3.669319,4.514881,0.188198,0.598053,-14.330063,-38.384628,-56.778488,-73.22525,-63.064384,-61.354065,-44.599571,-30.393677,-62.489491,-56.885719,-36.597862,-16.133194,-57.527161,-51.544304,-31.314583,-12.787514,-50.00782,-50.623398,-39.098511,-26.566658,32.965149,49.480914,57.553236,65.996123,34.808769,50.198083,57.344273,61.736395,20.4434,36.839246,47.05332,53.339635,5.385377,20.755054,31.387487,38.613953,-9.863332,1.040062,10.256682,17.968567,24.925747,48.051281,68.028316,84.911213,49.006691,81.261921,97.995586,109.93784,38.984699,74.777584,94.753361,108.436604,29.066162,62.433529,81.371555,94.246044,20.061779,45.885429,61.248093,74.097691,-13.986654,-12.329211,-1.81293,5.469604,13.263186,30.609123,38.14854,43.258757,30.713173,46.573828,53.912309,58.242803,42.963467,59.261562,64.734377,66.381137,50.550802,66.189834,70.270116,70.606656,47.228479,311.153009,-69.879885,301.479189
23,-7.724648,-1.164613,0.525627,0.059219,-9.919968,-29.129333,-45.914726,-59.772606,-55.419502,-49.188938,-32.759972,-18.73558,-55.473804,-45.565338,-25.398903,-5.603943,-51.285095,-41.254807,-21.620979,-4.633827,-45.267563,-42.012405,-28.893013,-15.926628,31.572615,50.010732,57.785233,66.916822,37.839726,52.811052,58.630164,61.389913,23.723088,39.024717,47.598329,51.297302,7.921405,21.825807,31.575394,36.896983,-8.217436,1.829171,10.143431,16.288585,24.833393,47.805634,67.557507,84.140339,48.671894,80.986118,97.812481,109.843311,38.717823,74.507389,94.472179,108.135395,28.918076,62.245274,81.169109,93.853741,20.042267,45.709648,61.089706,73.891354,-13.769539,-12.12988,-1.683378,5.738342,13.314809,30.122036,37.509979,42.375109,30.765723,46.298792,53.304191,57.282029,42.993539,58.997764,64.200792,65.621607,50.57334,66.050402,69.987855,70.084556,39.494534,310.021926,-69.363556,301.571938
24,10.735359,-5.940019,0.04612,0.075397,-21.336136,-44.044991,-65.634384,-87.501583,-69.797859,-68.936119,-43.662872,-25.02285,-72.979889,-66.965332,-40.641174,-16.351433,-71.430359,-71.621132,-46.420441,-21.414185,-67.630119,-84.796371,-91.528587,-92.395763,12.306672,21.323097,34.634571,47.840205,17.823454,38.359232,47.073389,51.932652,24.97304,40.474184,48.753371,52.39084,30.739664,44.713288,51.566534,55.052777,36.164685,48.076833,54.856225,63.014258,24.62059,47.714767,67.396488,84.144459,48.625145,80.889072,97.829418,110.052509,38.683205,74.442501,94.372387,108.151646,28.837624,62.198238,81.13821,94.009495,19.888573,45.615635,61.080494,74.056721,-14.000918,-12.308524,-1.757849,5.648557,13.037364,29.857374,37.192026,42.006274,30.567133,45.897414,52.788266,56.781233,42.861208,58.78985,63.989235,65.544543,50.519803,66.107089,69.996006,70.134327,50.157166,304.092791,-69.390163,301.658219
25,-1.795921,1.758096,-0.189571,0.12313,-23.167534,-48.968582,-68.859558,-88.209171,-74.835491,-68.22916,-46.750488,-29.718018,-71.103916,-62.146626,-38.599892,-16.282768,-62.71883,-57.389946,-32.077789,-10.00248,-51.88488,-61.85091,-63.596706,-61.281624,31.166236,46.769145,58.023404,67.853884,32.97083,50.083351,58.573909,64.874674,23.878514,41.900433,51.04746,57.244978,13.916814,31.592005,40.282017,47.336137,3.748312,17.344703,26.299562,35.352173,24.275208,47.313538,67.334061,84.142914,46.868935,80.288773,97.952957,110.533676,37.14283,74.27536,94.910088,108.708344,27.830887,62.531834,81.949081,94.857559,19.63623,45.947399,61.502953,74.333954,-13.737799,-12.546016,-2.377514,5.14276,12.093448,29.246107,36.796947,41.846587,29.641062,45.732479,53.166981,57.383423,42.132368,58.284979,63.594403,65.163234,49.887602,65.492796,69.438153,69.465508,48.332148,305.905783,-69.608831,301.836245
26,-2.905197,3.510387,0.132866,-0.04409,-17.160988,-39.021606,-56.024265,-72.116261,-67.239819,-59.14547,-38.823624,-23.858643,-65.696926,-54.119968,-32.852211,-12.516518,-59.515972,-52.855911,-31.020927,-10.968361,-50.87677,-60.748272,-65.865154,-67.357349,27.298313,41.661953,52.884782,63.652139,29.947838,47.393318,54.748595,59.412665,22.805539,39.724225,46.98558,52.394669,15.654841,32.347398,39.540209,45.910382,8.54002,20.51324,28.972861,38.484154,24.121513,47.489891,67.797661,85.08522,46.774635,80.349083,98.074951,110.605659,36.920643,74.265747,94.970055,108.849449,27.553596,62.538528,82.110786,95.129128,19.385777,45.994091,61.652813,74.509506,-13.67537,-12.402941,-2.556776,4.63406,12.223,29.557452,37.022398,41.888639,29.672555,45.916063,53.353159,57.474628,42.127737,58.617381,63.895066,65.382818,49.864199,65.617038,69.564062,69.706767,45.363607,309.444174,-69.539309,301.820159
27,-7.651291,9.166355,0.036736,0.531548,-5.270119,-15.868835,-25.9869,-33.406792,-47.534523,-38.185158,-20.108299,-5.701218,-51.729755,-40.264206,-20.094452,-0.294571,-50.463066,-41.748734,-23.218002,-6.034927,-45.81316,-42.026711,-30.612144,-19.867172,-3.671618,-2.016954,3.105922,9.245704,11.0151,23.989541,28.823055,32.062358,19.799961,30.436963,36.823994,40.926568,26.659011,36.670853,41.519063,44.874395,31.449114,40.467577,43.703298,46.728698,24.142971,47.705956,68.082733,85.189247,47.524624,80.609093,98.086166,110.583572,37.790852,74.537773,95.015373,108.946037,28.319664,62.624702,82.09774,95.234299,19.876156,46.110992,61.656075,74.638824,-14.190059,-13.008218,-2.766727,4.48098,12.233559,28.837257,35.945532,40.606392,29.82514,45.240204,52.273576,56.258145,42.236047,58.135543,63.313871,64.737712,49.890813,65.412582,69.348306,69.564618,37.485809,318.608939,-69.72908,302.350117
28,14.058609,-14.238842,0.288105,-0.200565,-18.920631,-41.036797,-62.576981,-83.019848,-68.047314,-66.928425,-42.409401,-24.165344,-72.296619,-66.65863,-39.864922,-15.896759,-71.730652,-72.938004,-48.490105,-24.984512,-68.29565,-85.641289,-90.347958,-90.080967,4.827585,13.278376,28.358012,42.035358,14.684557,35.128513,42.875905,46.860226,25.910658,40.104855,47.023433,49.555447,35.10548,46.712334,52.36577,54.938848,43.180149,53.372734,58.806893,66.070409,24.156246,47.626762,67.986202,85.519009,47.11195,80.543118,98.13303,110.756779,37.07468,74.010601,94.483509,108.374462,27.618542,61.95013,81.484394,94.82729,19.334679,45.496387,61.132736,74.459667,-14.205868,-12.683782,-2.554429,4.413425,12.650436,29.212885,36.07632,40.486843,30.468333,46.231792,53.303141,57.078499,42.857379,59.292066,64.565613,65.975684,50.249151,65.927148,69.988102,70.306302,51.238747,304.373801,-69.746647,302.153257
29,-2.960472,-0.60361,-1.412029,0.298193,-21.225471,-47.829781,-69.228916,-89.58847,-78.833599,-67.882919,-45.552979,-29.009972,-76.307602,-63.212814,-38.165817,-14.456978,-68.281918,-58.791447,-33.1287,-11.141624,-56.917133,-59.338646,-50.428391,-40.019073,34.814388,51.770002,61.102094,71.025756,38.734243,57.482471,64.832252,70.095548,27.066132,45.608916,56.139337,63.035006,14.283858,32.470157,43.107469,50.934333,1.613538,15.710108,23.496711,31.616273,24.575157,48.783188,69.178619,86.838226,46.617451,79.972916,97.89402,110.714951,36.873608,73.940163,94.832726,109.065399,27.980232,61.696243,81.20121,94.462967,20.2561,46.031342,61.491852,74.538002,-14.5605,-13.298939,-2.904431,3.986668,12.471916,28.21296,35.4251,40.222489,30.645309,46.785261,54.304856,58.640785,42.93784,59.518876,64.795819,66.161861,50.217473,65.682431,70.180578,70.937638,47.960415,303.76979,-71.476536,302.451048
30,-1.200485,3.291482,-1.292839,-2.09513,-17.216263,-38.471718,-54.612751,-70.015068,-66.60347,-58.360004,-38.174286,-23.662834,-67.425671,-57.961693,-37.269058,-16.885872,-62.449265,-59.921036,-40.50808,-21.749268,-54.499111,-66.65617,-74.174881,-79.231625,14.091135,27.482824,41.860913,53.988879,19.899009,42.519234,50.471082,53.419849,22.073179,42.958527,51.084634,54.523885,23.700673,42.487124,50.12565,54.235943,24.11193,36.81998,44.915582,53.378909,24.387016,48.412342,69.113045,86.545601,45.993805,78.432083,96.025543,109.067688,36.488914,72.982407,93.695755,108.273811,27.940979,61.020126,80.435715,94.439735,20.792198,46.280594,61.402874,73.855019,-14.75347,-13.530503,-3.333781,3.890955,11.767344,27.962624,36.005121,41.542775,30.531935,48.383671,57.280794,62.452576,43.361757,61.627343,67.996898,70.579239,50.73136,66.716195,71.312772,72.096447,46.458092,307.065764,-73.071213,300.360411
31,-0.010185,1.24248,-3.143234,-4.882173,-17.749443,-36.865768,-53.548965,-69.042606,-38.708382,-53.210678,-63.925838,-74.083557,-36.960068,-54.58065,-69.944057,-83.631306,-34.56665,-54.719467,-70.65136,-83.713932,-30.732307,-47.726669,-61.764908,-74.812775,-14.334185,-16.419867,-14.738588,-16.615122,14.469665,23.318438,23.162086,20.853238,27.604348,37.419762,35.579846,33.03647,37.100944,49.331478,49.82369,49.121588,42.090378,55.268286,61.247764,65.302604,24.855251,48.248177,67.191181,84.660187,41.915588,75.714455,94.048462,107.228737,32.019424,69.574699,90.465546,104.633904,24.031334,57.182922,76.216164,89.161835,18.292923,41.700268,54.980679,63.873596,-15.489659,-13.440718,-3.739296,2.920486,9.659246,26.702916,34.313531,39.4503,28.964525,49.615345,57.284931,60.863491,42.738139,63.390194,68.831085,69.840889,50.711353,68.296017,72.146526,70.604433,46.112795,308.167067,-76.549559,295.337061
32,4.593086,-9.162217,1.773491,-2.023561,-23.305664,-53.019447,-81.116409,-101.502686,-46.052399,-87.667694,-101.970234,-104.71487,-46.697845,-97.282505,-108.153706,-104.683628,-46.98864,-93.136139,-103.225422,-101.961193,-47.59037,-84.930553,-93.838062,-93.178196,32.762299,51.371403,62.296162,67.416445,45.762983,54.504866,51.905976,49.575824,28.035366,29.462542,26.703657,23.47022,7.023307,2.103096,0.588852,-0.05996,-16.365156,-21.27666,-18.727233,-14.973116,19.280262,40.404682,57.332497,73.996811,28.918247,62.645073,81.031952,90.38372,24.984055,59.078865,73.176384,74.658051,22.295208,47.157726,51.512833,45.699749,20.52206,37.042065,39.137592,32.927227,-22.365752,-25.392263,-15.796002,-3.667172,-0.372417,13.621894,21.330877,27.175801,20.463778,40.456585,55.282489,65.605181,35.765345,56.005339,70.079122,79.657352,46.275018,62.93886,71.13703,73.909747,50.534735,299.023174,-74.947214,293.331824
33,3.432541,-1.889316,41.990032,9.471896,-30.252457,-57.77813,-81.098957,-96.970654,-62.790356,-92.320805,-106.049595,-115.158005,-54.007072,-85.670471,-103.590488,-116.951981,-43.585968,-72.685719,-90.626564,-104.33836,-32.650223,-55.299339,-68.126678,-80.244942,-15.791803,-21.222073,-23.233222,-23.136768,11.209429,30.548299,41.997628,49.099605,27.427125,48.691497,60.193499,66.914784,40.687779,59.152449,68.646574,73.93877,51.02276,67.113497,74.131493,78.350528,-4.345608,-5.919628,-4.48534,-7.272949,7.434826,-0.74049,-5.928612,-12.548504,9.800491,5.793457,-6.519585,-20.073624,11.266365,8.693905,-3.904152,-17.052441,11.32513,8.128681,-0.298004,-10.114517,-0.805781,0.71365,8.012054,17.520815,-5.085393,5.920568,21.497233,33.327191,1.47707,17.854205,35.207677,46.508249,10.415318,26.206319,41.692396,50.946313,19.405129,31.535194,42.061478,49.683702,53.877726,297.043163,-33.046732,302.713024
34,0.703583,-0.430215,-67.006645,-66.053057,-26.73912,-50.714607,-71.894302,-89.087276,-58.909721,-88.779488,-104.045448,-115.198402,-51.134834,-83.897152,-102.618828,-116.256065,-41.580391,-71.106777,-89.368343,-102.499523,-31.138115,-53.837814,-67.563057,-79.099617,-15.633414,-14.742417,-0.40959,11.635445,17.693469,34.066653,42.816686,49.942745,34.638647,51.898504,60.483541,66.349027,46.097115,62.765959,70.705271,75.53014,53.032983,68.160352,74.627781,78.599691,12.640457,35.599995,52.830734,56.695862,62.65274,84.091873,75.149574,64.639034,55.144958,66.722546,51.368694,43.155899,44.148617,50.738239,38.945332,32.666988,30.990601,39.609375,32.30381,28.054447,-19.203452,-30.543853,-28.464532,-14.514805,3.956287,15.816627,7.441419,1.261252,19.322507,19.587786,7.483038,4.894091,31.629549,29.001698,17.105729,14.971696,41.539811,42.819835,32.255575,27.854993,54.088354,296.56347,-100.546331,236.610489
35,1.70105,1.853994,-12.516403,-21.808455,-28.111153,-52.513847,-73.942451,-90.979156,-60.819855,-90.271111,-105.81934,-117.606125,-53.170967,-85.737877,-103.627338,-117.791119,-43.568573,-73.507862,-90.218697,-102.658825,-33.185692,-56.909981,-69.868813,-80.552788,-15.643726,-13.778184,0.272381,11.430495,15.5151,32.255081,40.793557,47.084442,32.755321,49.208101,57.543727,63.848259,44.969182,60.970813,68.334797,73.433158,52.619502,67.616516,72.909885,75.988143,4.8559,19.407749,31.473083,40.77198,36.752186,54.631233,56.334572,53.062935,37.314148,54.098568,53.146706,50.607319,33.816319,47.88208,41.993923,36.871319,27.793922,40.690784,37.649517,34.751816,-18.348703,-31.083799,-36.061191,-37.666393,-22.433616,-26.273133,-28.449403,-28.267116,-10.971813,-18.160302,-20.510832,-19.442055,0.467512,-6.681271,-9.553406,-8.505749,11.168488,6.496884,3.506188,3.140194,55.022106,298.298147,-113.830032,214.682717
36,0.243416,-0.628743,-3.856831,-28.428531,-27.94178,-52.398834,-74.078579,-92.222729,-60.096588,-90.077248,-105.959129,-118.161449,-52.478256,-85.381737,-103.295116,-117.706032,-42.940063,-73.511353,-90.498734,-103.334541,-32.491035,-56.539421,-69.73772,-80.998993,-15.385856,-12.849705,0.964541,10.62669,15.767659,32.401244,41.124972,47.817605,32.690545,48.998026,57.412075,64.007513,44.864885,60.866023,68.393213,74.011574,52.519281,67.395758,73.312003,77.511402,-8.944302,-10.698795,-8.219776,-3.655071,-1.804619,7.008934,8.379307,7.329025,10.617371,25.279427,24.361324,21.224728,19.693909,35.721703,31.007652,25.123386,26.182938,40.159378,35.340729,27.932568,-20.511449,-39.696746,-52.837543,-60.175776,-43.535337,-56.988838,-56.6418,-52.235785,-29.707938,-37.813791,-36.212479,-34.209543,-13.692289,-16.964197,-16.186635,-16.291796,1.213272,0.954353,0.795407,-0.252806,54.919338,297.598994,-118.033047,186.183775
37,-0.56282,0.554457,-11.80212,-25.617591,-27.607269,-51.884079,-73.712826,-91.372147,-59.785881,-89.97488,-105.58239,-117.394981,-51.905479,-85.221806,-103.018169,-117.133713,-42.2192,-72.969017,-89.855633,-102.697048,-31.708031,-55.791435,-69.135761,-80.318127,-15.669291,-13.800229,-0.118993,10.077852,15.471442,31.86488,40.412866,46.917654,32.649419,48.901386,57.068434,63.459169,44.805049,60.797541,67.890996,73.133421,52.335944,67.380197,72.809417,76.384642,22.410679,28.722668,29.354954,26.52277,4.470863,2.286015,4.368095,5.950871,-3.238907,-7.601738,-3.078232,1.0009,-7.09013,-3.472481,0.732479,4.229336,-6.801052,-2.188625,-0.469437,1.16209,-19.316085,-40.034645,-54.788269,-64.590406,-56.032447,-68.830375,-74.488009,-76.359108,-47.227086,-57.456937,-63.613545,-65.59101,-34.093699,-37.756548,-38.290998,-38.465196,-19.051052,-19.794218,-19.163746,-19.023696,54.277983,298.419363,-129.913702,160.832097
38,0.054817,-0.235207,-8.054638,-27.263239,-27.869225,-52.392654,-74.349747,-91.075745,-60.426064,-90.602245,-106.069622,-117.695274,-52.482147,-85.63694,-103.478222,-117.345886,-42.613907,-73.172092,-90.14843,-102.928219,-31.965637,-55.790749,-69.160767,-80.667572,-15.986502,-14.501405,-1.235626,9.209086,14.441507,30.968017,39.759608,46.601369,31.523215,47.899054,56.399492,62.949481,43.975679,59.711537,66.991108,72.206671,51.984584,66.537489,71.901994,75.523594,-13.580303,-21.678257,-23.238831,-22.108154,-17.781487,-21.793213,-20.484352,-18.153934,0.388699,1.972733,3.644142,5.294838,16.073055,21.910286,21.528854,20.580368,29.317932,34.602928,32.103024,28.140907,-20.009542,-41.087057,-59.402322,-76.903994,-68.479879,-88.055655,-93.713845,-92.301459,-66.245286,-88.774615,-93.933214,-91.509356,-57.098352,-72.355335,-73.825458,-72.034449,-43.994791,-49.080771,-45.303252,-43.455185,54.08246,298.606977,-138.218679,133.991679
39,0.305557,-0.982017,-15.422001,-24.178744,-28.299751,-52.842636,-74.493256,-91.499634,-60.793533,-90.324783,-105.79977,-117.601719,-53.020935,-85.149937,-102.962551,-117.360191,-43.27549,-73.292599,-90.184994,-103.092327,-32.314224,-55.879326,-69.202366,-81.014786,-16.04146,-14.369877,-1.066121,9.106272,14.845355,31.028162,39.75084,46.656018,31.886369,47.946787,56.479335,63.370372,44.236328,59.713636,67.195749,72.982688,52.261597,66.883415,73.133915,77.686403,-20.322533,-22.12429,-5.631466,11.894302,-27.25256,-19.754162,-17.887917,-18.051624,-7.066898,8.830891,10.884132,11.043549,13.541622,24.340553,17.197781,10.894489,32.160873,32.648964,26.163597,22.878056,-33.010226,-66.333713,-87.866483,-94.402054,-58.781174,-96.510769,-84.178254,-72.272034,-50.57016,-99.815805,-103.424005,-96.31678,-43.443144,-76.042854,-65.655292,-54.325789,-37.192582,-66.462771,-59.172456,-50.035556,53.666668,297.720303,-154.36203,109.908277
40,0.120621,-0.395944,-7.614498,-11.178646,-27.899895,-52.436943,-74.139004,-92.074299,-60.500565,-90.082626,-105.472355,-117.003021,-52.733002,-85.405426,-102.931881,-116.823578,-43.021202,-73.291855,-90.008068,-102.705002,-32.292137,-56.087151,-69.318695,-80.783844,-16.561213,-14.784345,-0.915326,9.178211,15.437479,31.467701,40.392426,47.512125,32.33301,48.12154,56.671502,63.635529,44.390086,60.043137,67.676599,73.683988,52.073381,66.59609,72.884752,77.848374,-19.663925,-26.234207,-24.931011,-19.501476,-18.490963,-13.004436,-10.220375,-7.340298,-0.321693,8.691788,13.639183,16.398296,16.758327,20.421753,15.440598,11.483746,32.048321,31.987782,25.655823,21.302547,-32.555435,-60.182044,-85.105529,-104.196441,-55.862942,-93.103721,-97.24884,-91.55218,-51.771298,-95.761921,-119.15202,-135.123888,-47.886611,-85.298808,-78.63106,-67.888959,-45.796792,-77.3473,-72.675573,-63.075699,52.121401,297.290273,-163.642416,98.695545
41,-0.258064,-0.400822,-2.97369,-28.891752,-28.133812,-52.359924,-73.867493,-91.842155,-60.662613,-90.231228,-105.449867,-116.854763,-52.589493,-85.309925,-102.635136,-116.264191,-42.646637,-72.876663,-89.51334,-102.092857,-31.766396,-55.630417,-68.904819,-80.370255,-16.137914,-14.512397,-0.931443,9.577489,15.535477,31.579778,40.275842,47.18738,32.395378,48.39528,56.912329,63.776628,44.454739,60.286495,67.904643,73.826817,52.150693,66.989317,73.341026,78.153297,-20.15831,-29.635735,-27.208328,-17.170429,-25.630131,-16.887417,-13.282185,-12.116375,-6.766777,4.912434,9.402008,13.113041,12.667408,20.628834,16.18784,13.334599,30.770874,32.187996,26.545258,23.54084,-27.992635,-59.532337,-84.483703,-97.349833,-52.886418,-94.841068,-83.709723,-71.374986,-46.075873,-100.584104,-116.065055,-123.035535,-40.987052,-83.444783,-73.033355,-61.473739,-38.765643,-73.491327,-65.920325,-55.446498,50.073452,296.969279,-168.405991,69.883621
42,0.499306,0.181731,-0.009098,-11.41515,-28.035049,-52.311058,-73.968716,-91.391544,-60.807838,-89.969501,-105.42017,-117.170162,-53.252335,-85.272217,-102.893314,-116.862831,-43.78212,-73.272457,-89.990559,-102.625923,-33.136711,-56.302872,-69.496479,-81.04723,-16.019477,-14.735624,-1.479972,8.892245,14.944835,30.96283,39.794497,46.822744,31.799918,47.910292,56.614136,63.535678,44.005505,60.012755,67.785774,73.774514,51.909125,66.840622,73.257107,77.971875,-20.492191,-30.959873,-32.186852,-25.075264,-25.041618,-16.446934,-13.705559,-13.417683,-5.903893,4.39539,8.035526,9.653378,12.36248,15.437908,10.624638,6.898899,28.861942,26.591263,21.356564,19.008121,-28.218765,-57.182672,-82.958128,-98.37205,-56.462848,-94.697807,-88.219603,-76.455315,-49.942004,-96.80291,-117.415228,-131.18063,-43.989357,-82.263714,-73.029804,-60.864633,-40.986867,-74.652142,-68.768254,-58.342067,48.833513,297.542245,-170.154333,58.859705
43,-0.1157,0.357782,-1.812572,-11.638594,-27.968788,-51.807747,-73.373795,-91.318359,-60.285301,-89.896946,-105.22419,-116.533813,-52.825127,-85.587444,-102.989273,-116.445351,-43.396454,-73.444061,-90.143051,-102.580147,-32.877274,-56.565285,-69.748077,-81.152859,-16.186265,-14.750815,-1.031294,9.245086,14.653496,30.415042,39.208486,46.440756,31.443866,47.432159,56.257466,63.478991,43.646735,59.625519,67.254967,73.160406,51.616367,66.743674,73.064075,77.588775,-20.730743,-30.579128,-31.456146,-24.971008,-24.741154,-17.204189,-14.140491,-13.702812,-5.820522,3.31089,7.710571,9.348221,12.545586,15.203362,10.774727,6.870975,29.508362,27.08931,21.729183,19.04623,-25.861227,-54.652912,-80.775498,-97.50319,-54.103982,-92.250577,-85.965064,-74.275001,-48.741298,-95.899316,-117.951407,-133.603716,-43.164927,-80.93997,-71.077256,-58.745915,-40.367201,-73.623658,-67.524817,-56.859501,46.762562,298.313631,-173.922157,47.634715
44,0.770187,-0.432129,0.155983,-9.352409,-27.690582,-51.593971,-73.374538,-91.561089,-59.556313,-89.577427,-105.196037,-116.796284,-52.179565,-85.27771,-102.939491,-116.731853,-42.725945,-73.120823,-90.106087,-102.716618,-32.226791,-56.284218,-69.744816,-81.179752,-15.972856,-14.109784,-0.035074,10.412169,15.290822,31.262072,39.808762,46.664231,32.11429,48.074116,56.500948,63.367285,44.198722,60.191091,67.622382,73.287982,51.874051,67.09491,73.431182,77.852326,-21.721287,-32.121849,-33.712521,-27.522469,-24.949322,-16.883068,-14.499378,-14.819298,-5.932274,3.019123,6.324291,7.352371,12.208729,13.798771,9.661503,6.707439,28.753166,25.384712,19.97057,18.09288,-24.068088,-52.177215,-77.492661,-92.544354,-52.475932,-91.122397,-84.501888,-72.297691,-46.438903,-94.011328,-115.127437,-129.71344,-40.406197,-79.081591,-70.14748,-58.095312,-37.136976,-69.899429,-64.740367,-54.971575,44.558516,297.923955,-176.740408,38.32476
45,0.855446,0.592495,-1.557484,-5.135813,-27.463417,-51.660347,-73.613548,-91.481152,-59.840698,-90.00824,-105.671711,-117.233734,-52.512589,-85.695648,-103.589916,-117.315845,-43.111725,-73.6619,-90.709019,-103.149834,-32.594604,-56.409302,-69.732342,-80.986462,-16.416285,-15.151328,-1.607054,9.087067,14.110278,30.426219,39.143216,46.183565,31.01927,47.203435,55.664106,62.478388,43.419802,59.159982,66.757506,72.619287,51.459397,66.146671,72.361912,76.993748,-20.926838,-32.38512,-33.330231,-23.704948,-25.332241,-17.702808,-14.491253,-15.08234,-5.250607,3.024673,6.448574,7.321873,13.781548,15.897675,11.41325,8.246784,30.734711,27.100983,21.624985,19.843712,-22.574623,-50.910837,-76.208592,-90.873574,-50.095948,-89.004296,-82.025079,-69.984366,-43.722997,-92.815686,-114.800623,-129.294865,-38.301341,-78.186334,-69.113994,-56.44846,-35.871957,-69.02319,-63.70083,-53.432354,43.606882,298.52965,-180.104971,33.202147
46,0.906029,-0.206493,-0.226994,-0.958428,-27.742538,-51.689644,-73.542538,-91.434002,-59.66217,-89.870968,-105.660095,-117.42794,-52.27684,-85.582752,-103.485832,-117.360935,-42.836151,-73.612289,-90.763378,-103.417282,-32.417336,-56.485634,-69.889698,-81.297455,-16.058874,-14.203398,-0.302577,10.059142,14.511347,30.636602,39.299382,46.105698,31.389463,47.594809,56.232827,63.080454,43.648093,59.766186,67.383593,73.158862,51.465325,66.587198,72.953974,77.450578,-19.958611,-32.646275,-34.432983,-25.855923,-25.969963,-16.993961,-13.774223,-14.76408,-6.278343,2.717228,6.308212,7.727566,12.765656,15.313625,11.433506,8.913574,30.495358,27.877407,22.801495,21.211166,-20.457201,-49.168364,-74.602803,-89.639615,-48.370518,-88.968388,-81.115835,-68.580841,-42.126779,-93.298389,-113.986876,-127.539826,-36.76882,-76.83258,-66.786745,-54.371392,-34.63031,-68.289904,-62.141292,-51.672158,43.00601,298.552127,-181.838865,32.472689
47,1.149902,0.434723,-0.056705,2.631216,-27.723083,-52.02198,-74.069595,-91.96764,-60.055389,-90.207882,-105.951805,-117.682514,-52.53479,-85.806084,-103.657494,-117.649212,-43.015251,-73.778343,-90.773678,-103.444347,-32.532349,-56.63269,-69.964485,-81.333618,-16.675143,-15.507072,-1.886907,8.809437,14.097187,30.349772,39.136979,46.300768,31.185625,46.981628,55.427787,62.439917,43.606844,59.168813,66.716442,72.718582,51.558877,66.179028,72.314796,76.924649,-21.242523,-35.178051,-36.285725,-25.292244,-26.072159,-18.869877,-16.418896,-17.082024,-6.22879,1.810226,4.904537,6.904793,12.713814,13.601933,9.317493,7.254467,30.086403,25.781021,20.495968,19.009094,-20.074812,-48.929328,-74.880649,-89.248982,-48.205212,-88.326462,-78.818843,-65.7741,-43.37775,-95.099803,-114.998101,-128.299695,-38.716736,-78.757741,-68.261252,-56.046063,-37.112553,-70.35314,-63.906922,-53.660954,43.111296,298.979224,-182.940187,35.096279
48,0.118904,0.173951,0.397739,5.743529,-27.67067,-51.702805,-73.613205,-91.853428,-59.935455,-90.093784,-105.895443,-117.684517,-52.477913,-85.827999,-103.668423,-117.602406,-43.043633,-73.942165,-91.029396,-103.740005,-32.596207,-56.867409,-70.204639,-81.495838,-16.95833,-15.584445,-1.815277,8.241457,13.641839,29.907824,38.697933,45.767676,30.741146,46.821138,55.359862,62.320615,43.153967,58.734892,66.3657,72.316648,51.166206,65.834955,72.074031,76.687096,-23.388176,-37.434483,-37.336063,-26.9454,-27.507191,-20.644341,-18.789482,-19.538956,-6.94622,-0.37159,1.654873,3.587894,12.313042,11.747589,6.606903,4.929543,29.83263,23.567219,16.811085,15.241585,-20.913043,-49.81486,-75.380426,-89.530626,-48.351622,-89.755737,-79.101413,-65.977629,-43.44018,-96.400637,-116.006578,-128.891419,-39.378083,-80.560822,-70.697584,-58.789047,-38.388718,-72.078693,-65.779935,-56.171571,42.913227,299.157837,-182.859421,40.84447
49,0.325356,-0.296834,-1.468678,9.149589,-27.815552,-52.047958,-74.345284,-93.030682,-59.872398,-90.078392,-106.079865,-118.17461,-52.556534,-85.663033,-103.696518,-117.81332,-43.112984,-73.618412,-90.704384,-103.572922,-32.548828,-56.566658,-69.798431,-81.035728,-16.022565,-14.48924,-0.852403,9.264106,14.047539,30.259493,38.619449,45.298682,30.760659,47.251539,55.810269,62.72508,42.948461,59.456755,67.217608,73.216043,50.818551,66.280175,72.783049,77.509117,-23.015156,-37.138367,-38.892117,-30.315228,-28.721809,-21.284752,-18.816376,-19.261665,-9.634781,-2.259064,-0.013905,2.018852,9.300327,12.252617,8.012638,6.149712,27.364426,24.888954,18.838291,16.828537,-20.490392,-49.318078,-74.79565,-90.216148,-49.168302,-91.251054,-80.004544,-66.141823,-43.797869,-97.934147,-117.017185,-129.13592,-38.970191,-81.135688,-70.453669,-58.167869,-36.826093,-71.297674,-64.271095,-54.00515,43.234406,298.825496,-184.332275,49.958553
50,-0.077477,-0.114115,-2.312622,12.382687,-27.855377,-51.909256,-74.053974,-92.689705,-60.001945,-90.104599,-105.834332,-117.762794,-52.540855,-85.590649,-103.438396,-117.410431,-43.041687,-73.561306,-90.526085,-103.343468,-32.429695,-56.381836,-69.667683,-80.93874,-16.066099,-14.314116,-0.746315,9.363647,14.200619,30.679025,38.992112,45.601815,30.866005,47.529539,55.852692,62.50247,43.009903,59.613601,67.293252,73.262171,50.880363,66.43591,72.736675,77.280023,-22.889099,-37.376804,-37.670689,-26.95261,-32.630081,-24.765129,-21.826286,-21.930084,-13.257923,-4.140873,-2.176609,-0.18734,6.821537,11.966114,7.99839,5.709972,25.514603,24.305019,19.208107,17.076244,-20.246015,-49.595831,-76.68654,-90.467966,-46.567468,-88.270361,-76.45794,-63.856441,-41.53061,-97.337915,-116.831563,-128.704933,-37.700757,-79.615393,-68.844577,-57.540701,-36.323352,-71.468599,-63.855175,-53.713781,43.072557,298.574357,-186.729269,62.204216
51,0.231857,0.237986,1.290951,11.467329,-28.004494,-52.087212,-74.071999,-92.679863,-59.661713,-90.038395,-105.933666,-117.939491,-52.02816,-85.513401,-103.404694,-117.464561,-42.525444,-73.487606,-90.48048,-103.163967,-32.104225,-56.346817,-69.645424,-80.86441,-16.343173,-14.479298,-0.640043,9.656715,14.113057,30.673282,39.146797,45.822634,30.98296,47.543186,55.776307,62.363038,43.159771,59.624778,67.157772,72.959038,50.91198,66.360759,72.587609,77.094154,-24.386101,-40.965786,-45.596581,-40.474949,-33.382359,-30.524654,-26.27718,-23.817272,-14.531536,-9.10778,-7.918968,-6.442051,4.434357,7.672005,5.749283,4.575691,22.21344,21.208363,16.676559,15.094986,-17.236578,-41.519711,-64.625017,-79.956101,-39.882337,-81.158844,-71.501636,-59.784588,-36.877624,-90.757977,-110.804476,-122.966745,-34.230075,-74.859222,-64.616866,-53.849879,-33.607044,-66.979035,-60.696765,-51.927681,43.190317,298.600246,-185.552416,73.459448
52,-0.02346,-0.17426,-1.438179,8.995584,-28.227425,-52.24926,-74.056034,-92.273827,-59.365311,-89.937115,-105.795593,-117.567215,-51.430435,-85.288525,-103.340664,-117.29187,-41.620331,-72.963352,-90.092297,-102.81395,-30.988884,-55.62973,-69.029388,-80.281963,-16.09296,-14.19642,-0.517715,9.820353,14.372964,31.28387,39.847109,46.555426,31.213289,47.950183,56.405296,63.200929,43.477107,59.930319,67.56267,73.488671,51.332685,66.668956,72.879565,77.452924,-26.065121,-44.255505,-48.25716,-40.469513,-32.368927,-36.750469,-31.247234,-26.250172,-12.576656,-11.891441,-11.49765,-9.913216,5.591297,5.912533,3.092022,1.253872,21.902447,20.06218,15.137672,13.425522,-11.82718,-32.085421,-51.991747,-66.891566,-27.583353,-62.003156,-54.424158,-44.45829,-25.170549,-72.956815,-92.472477,-102.523715,-24.036286,-61.202933,-51.321292,-40.328978,-24.912185,-54.834952,-47.947528,-38.590055,44.373379,298.420259,-185.784073,82.449304
53,-0.209656,0.540995,-3.654671,47.935363,-27.844391,-51.682205,-73.56039,-91.828194,-59.295387,-90.003433,-105.837021,-117.517834,-51.636314,-85.389862,-103.321266,-116.756802,-42.151566,-73.173695,-90.333366,-102.841301,-31.770744,-56.081085,-69.391766,-80.168438,-16.705833,-15.275508,-1.455148,9.218534,14.180303,30.550461,39.334086,46.266496,31.256021,47.969202,56.345892,62.998326,43.550034,60.302859,67.906681,73.760435,51.245741,66.762878,72.635898,76.795468,-25.016613,-42.944183,-47.480564,-42.221775,-33.663597,-29.795666,-25.662403,-25.570621,-14.419441,-11.594753,-11.102543,-11.574669,4.715996,5.076256,4.219952,4.418163,22.218361,19.352703,15.702038,14.84293,-16.535155,-41.090206,-64.212957,-79.973391,-36.523424,-79.304449,-68.147446,-55.27125,-32.889937,-88.280982,-106.85634,-120.655735,-31.058234,-73.880447,-61.439005,-49.22147,-32.1217,-65.400849,-56.88837,-47.092748,44.599056,298.812636,-189.00341,130.236049
54,-0.059624,0.187042,-0.898762,32.621569,-28.039055,-51.777992,-73.512669,-91.006966,-59.187126,-89.447708,-105.118561,-116.885033,-51.688385,-85.118923,-102.995853,-116.814766,-42.328835,-73.093414,-90.081539,-102.623062,-31.971817,-56.006699,-69.181252,-80.361385,-16.652851,-15.721037,-2.287297,8.619617,13.667898,30.191073,38.910787,45.5145,30.776838,47.533121,56.184106,62.778556,43.091475,59.533696,67.406811,73.345163,50.953538,66.079486,72.082676,76.47134,-25.492115,-43.612633,-47.535553,-41.980476,-34.792786,-32.663155,-29.447021,-29.946156,-16.357784,-12.971478,-13.009701,-14.937344,2.511978,2.542133,2.584877,3.734322,20.703278,16.841526,13.741379,14.418926,-15.130395,-41.361846,-65.553218,-82.459987,-33.164911,-76.260678,-65.800282,-53.209435,-29.608705,-82.242533,-90.506591,-98.289613,-28.187458,-71.98721,-59.2594,-48.204872,-29.845209,-62.952446,-54.100709,-44.680437,45.084028,298.918044,-189.357576,162.775985
55,0.191116,0.272875,1.421185,34.293894,-27.725258,-51.989937,-74.090481,-91.648178,-58.950577,-89.444561,-105.025005,-116.747246,-51.152802,-85.10416,-102.972679,-116.83691,-41.772537,-73.082886,-90.186081,-103.024693,-31.764565,-56.401634,-69.655666,-80.952415,-17.009954,-15.969027,-2.412589,8.300984,12.858227,29.980443,38.714668,45.17691,30.080602,47.238386,55.737713,62.252813,42.520407,59.278913,66.879586,72.544322,50.604895,65.814824,71.703961,76.012905,-24.941311,-44.949131,-50.751972,-46.055546,-35.528069,-35.360756,-30.823288,-29.91354,-17.340031,-17.2859,-17.687931,-19.276772,0.758286,-0.492153,0.750904,2.40675,17.464771,13.845005,12.690525,13.761635,-13.540075,-37.265015,-60.595988,-76.1101,-30.682606,-70.636729,-60.738261,-48.689212,-28.781373,-79.923435,-95.908857,-110.065293,-29.202202,-70.356814,-56.503726,-44.749597,-32.654482,-62.975911,-53.172971,-43.417703,45.316086,298.862793,-187.895451,196.741753
56,-0.787239,-0.41379,3.786392,28.799775,-27.537689,-51.546593,-73.429298,-91.48819,-58.665733,-89.375668,-105.098705,-116.753654,-50.891075,-84.917793,-102.66901,-116.262245,-41.317062,-72.583408,-89.584866,-102.171593,-31.00811,-55.493431,-68.697796,-79.815731,-16.673537,-15.105571,-1.365796,9.170615,13.426207,30.437025,39.057877,45.419898,30.514275,47.911651,56.401591,62.776827,42.838422,59.8711,67.506538,73.061729,50.736053,66.334948,72.420266,76.563904,-24.404411,-44.596138,-52.330341,-52.624741,-39.779835,-39.89851,-34.14917,-32.954006,-21.254711,-23.746834,-22.248058,-22.871189,-2.945538,-5.59227,-3.5079,-3.184605,13.695774,8.923302,8.110485,8.278484,-12.89114,-35.191375,-57.183352,-73.541036,-27.73106,-71.061263,-63.292073,-51.787971,-24.7508,-77.362336,-89.964669,-101.345888,-24.797236,-67.840793,-55.296506,-44.369462,-29.242525,-62.242254,-52.436597,-42.170777,44.36305,298.202434,-184.274855,225.294958
57,0.50869,0.090526,-3.714924,10.348319,-27.423706,-51.486969,-73.450871,-91.12627,-58.99704,-89.527187,-105.194206,-117.039642,-51.308327,-85.046368,-102.866821,-116.677723,-41.809387,-72.927589,-89.926929,-102.50124,-31.50444,-56.066895,-69.363098,-80.522175,-16.749182,-15.713257,-2.204366,8.876189,13.642519,30.399851,38.88584,45.42595,30.599923,47.325145,55.61625,62.050889,42.852872,59.222227,66.725149,72.334433,50.805584,66.080289,71.74663,75.642093,-20.431595,-36.917496,-43.998814,-47.541676,-35.416203,-40.066853,-39.470558,-37.999821,-17.06955,-18.643169,-18.04327,-17.45327,1.030254,-2.408924,-3.511333,-4.628792,16.796322,12.603378,10.087051,8.772354,-9.545687,-27.728034,-47.692622,-63.246316,-14.385191,-44.783498,-60.219187,-67.752058,-13.149071,-56.455067,-79.619067,-93.9493,-14.372594,-54.483624,-54.258976,-46.421243,-18.669187,-52.058253,-51.513676,-43.479638,44.721079,298.114702,-188.14044,235.465019
58,0.628395,0.039026,1.918259,3.558923,-27.538719,-51.703606,-73.639984,-91.519489,-59.191132,-89.730663,-105.419827,-117.20787,-51.418648,-85.149651,-102.989559,-116.765213,-41.699982,-72.764797,-89.810486,-102.420101,-31.132622,-55.843964,-69.235268,-80.506039,-16.720406,-15.452238,-1.854859,8.824751,13.471346,30.3938,38.823225,45.210317,30.456847,47.497058,55.858126,62.398853,42.705844,59.557655,67.218287,72.946503,50.598782,66.21509,72.375867,76.581564,-23.541012,-41.514301,-51.325836,-58.302097,-39.671688,-40.813694,-35.610352,-32.068577,-20.516911,-21.226959,-18.966293,-17.267303,-2.032471,-4.821968,-5.173416,-6.617489,13.648453,9.993782,7.037773,5.399094,-10.331338,-27.821586,-45.832082,-60.544488,-14.167027,-47.571468,-56.677801,-57.205211,-12.005145,-56.438765,-73.524919,-82.654285,-12.775296,-52.745535,-49.708279,-41.297564,-16.39881,-48.10919,-44.939233,-37.014988,45.130606,297.997979,-186.44105,238.868192
59,0.185165,0.157711,1.706314,5.720002,-27.624435,-51.642609,-73.579502,-91.235046,-58.936729,-89.437523,-105.00309,-116.630344,-51.186676,-85.017872,-102.754498,-116.390705,-41.714287,-72.904129,-89.874115,-102.450428,-31.523209,-55.932655,-69.179535,-80.338154,-16.844092,-15.735549,-2.259077,8.588865,13.69019,30.369285,38.858855,45.054089,30.780543,47.585238,55.882579,62.182294,43.02744,59.611686,67.111274,72.613606,50.793172,66.326612,72.360059,76.454235,-23.348179,-41.803322,-52.150841,-61.60944,-45.424747,-43.340092,-37.36742,-34.295998,-27.649555,-27.298336,-22.701416,-20.924835,-9.083061,-8.862076,-7.118053,-7.788792,8.988819,4.992714,3.582458,2.88208,-13.319317,-33.849044,-54.654487,-67.93521,-18.47912,-57.721753,-64.925124,-63.000611,-15.548074,-60.270069,-64.212092,-60.662864,-15.624398,-55.322626,-52.937393,-45.478993,-18.810472,-51.535968,-49.579838,-42.994404,45.242529,298.125879,-184.807978,244.558385
60,0.014076,0.050141,1.440067,0.379024,-27.426224,-51.538811,-73.361263,-90.917072,-58.937416,-89.38242,-105.141335,-116.809387,-51.22261,-84.915848,-102.828369,-116.434021,-41.632576,-72.946587,-90.061455,-102.628784,-31.106415,-55.534058,-68.727722,-79.836617,-16.714231,-15.588953,-2.308539,8.120488,13.642642,30.598873,39.283019,45.864254,30.611779,47.466677,56.046156,62.671975,42.843794,59.222103,66.968322,72.76051,50.665781,66.018662,72.225505,76.653936,-24.769135,-44.889393,-55.328979,-62.955723,-49.614658,-49.946823,-44.124184,-40.091228,-31.269894,-32.062283,-29.240913,-26.273232,-12.289524,-12.772865,-10.989933,-11.113815,5.509701,-0.546055,-2.15498,-2.801514,-11.172811,-33.401848,-56.330455,-71.560885,-22.430281,-57.68884,-67.19933,-67.559705,-20.027635,-64.711591,-84.922069,-97.317785,-19.772297,-59.361968,-57.294194,-50.657074,-22.304372,-54.931623,-53.570891,-47.541086,45.290308,298.173597,-183.334208,244.934985
61,-0.237122,0.021921,-17.612171,-12.126361,-27.563667,-51.307526,-72.967987,-90.418854,-58.722153,-88.862057,-104.670639,-116.484261,-51.342888,-84.546261,-102.598114,-116.579132,-42.071228,-72.755871,-89.807739,-102.409859,-31.699104,-55.510826,-68.638229,-79.788036,-16.18855,-14.7891,-1.358139,8.299379,14.15128,30.511064,39.064854,45.731244,30.838712,47.133287,55.662809,62.557119,42.857132,59.126822,66.895395,73.005968,50.546294,66.021935,72.302878,76.916437,-19.587593,-35.127525,-42.512341,-47.529945,-33.687859,-31.616421,-26.732197,-24.786701,-14.66383,-11.860085,-9.718037,-10.394783,2.965908,4.690647,4.280205,1.461697,17.450294,17.930489,16.464844,14.698048,-9.817451,-26.88755,-45.252801,-59.162761,-17.43387,-54.20587,-57.405468,-51.837433,-13.840737,-61.309391,-80.41892,-92.849216,-12.718485,-52.666247,-47.483782,-38.66607,-15.334048,-47.379362,-43.848535,-35.166983,45.281181,298.184094,-200.718384,232.797201
62,-0.456047,-0.154438,3.509903,-0.438304,-27.37072,-51.045685,-72.45575,-89.776039,-58.085861,-87.974682,-103.836765,-115.803223,-50.698357,-83.868713,-102.101955,-116.31815,-41.525688,-72.157059,-89.321651,-102.228184,-31.3377,-55.046082,-68.228302,-79.685955,-16.063814,-14.746307,-1.419518,8.232318,14.179994,30.850074,39.399665,45.892906,30.905834,47.205473,55.600997,62.157532,43.060909,59.178384,66.991046,73.063273,50.888638,66.112893,72.35376,77.096563,-20.978165,-37.095909,-44.193764,-47.280407,-37.481575,-38.756447,-36.9837,-35.557537,-18.861523,-17.90102,-17.613544,-16.370316,-0.51384,0.212402,-1.905727,-3.911877,15.608997,12.882156,9.217701,7.006016,-10.466757,-29.708555,-48.579667,-64.16226,-16.544788,-45.385935,-60.020474,-65.981118,-14.270582,-56.507432,-81.003449,-96.006391,-15.100693,-54.637135,-57.287463,-51.907396,-18.476279,-51.643475,-54.576681,-49.283313,45.027924,298.016504,-197.005692,232.345743
63,-0.789299,0.100221,0.877304,0.042917,-27.332268,-50.800781,-72.165241,-89.145012,-58.344498,-88.076134,-103.7146,-115.346317,-50.743332,-83.606701,-101.53347,-115.264435,-41.281815,-71.422348,-88.449039,-101.12114,-30.845261,-54.391479,-67.628746,-78.914108,-16.506379,-15.409074,-2.346639,7.989639,13.643136,30.542124,39.16384,45.715312,30.476607,47.155517,55.683928,62.351182,42.730915,59.091563,67.114115,73.309163,50.565869,65.874413,72.286823,77.096069,-20.820694,-36.60553,-44.351635,-48.89883,-38.146877,-40.481358,-37.146378,-33.710861,-19.136696,-19.892921,-19.056358,-17.361317,-0.83353,-0.971603,-3.328228,-6.022396,15.4216,11.957531,7.796745,5.196934,-13.105969,-33.303294,-52.691812,-68.451073,-20.076726,-49.401565,-64.058025,-69.108097,-17.194279,-58.888157,-82.6654,-97.023235,-16.903867,-56.759867,-58.787998,-52.869406,-19.150594,-51.80347,-54.388466,-49.148635,44.386425,298.088073,-195.980587,232.360008
64,-0.219612,0.292018,1.093655,-0.664249,-27.634735,-51.141014,-72.46582,-89.704399,-57.985954,-87.731495,-103.435707,-115.223751,-50.414886,-83.26458,-101.161594,-115.006313,-41.09745,-71.325417,-88.187885,-100.684547,-30.882568,-54.644737,-67.654381,-78.699875,-16.764558,-15.477617,-1.767791,8.747502,13.421576,30.134695,38.750545,45.352281,30.262518,46.891657,55.528317,62.325926,42.472057,58.896555,66.731509,72.745567,50.250015,65.562574,71.877233,76.538709,-19.805489,-36.939011,-45.431099,-51.493435,-40.070572,-40.48233,-34.611797,-30.33617,-20.612354,-19.966564,-18.125381,-16.178513,-1.472569,-0.816765,-1.812172,-4.305325,15.457077,12.831802,9.804554,7.475224,-12.336312,-33.519482,-53.706865,-68.744819,-22.132027,-55.219071,-64.429392,-63.44083,-18.035813,-64.304903,-86.59921,-99.799843,-16.011388,-58.017661,-56.202076,-47.83403,-16.811117,-51.749562,-52.297227,-45.344439,44.289064,298.413173,-194.764681,231.728841
65,-0.254288,-0.115226,0.87616,-1.131329,-27.709351,-51.110115,-72.151108,-89.32766,-57.997971,-87.442303,-103.261127,-115.279369,-50.43663,-83.055439,-101.021519,-115.075951,-41.087837,-70.934772,-87.799244,-100.4076,-30.844917,-54.537849,-67.651749,-78.712006,-16.817045,-15.506208,-1.783722,8.525941,13.514263,30.130681,38.793832,45.405634,30.530639,46.981628,55.527144,62.294989,42.889984,59.284718,67.021551,72.861658,50.770324,66.124626,72.256071,76.507464,-19.65374,-36.050148,-44.677448,-51.193657,-39.563599,-40.064907,-32.483997,-27.523441,-20.285225,-20.152016,-17.574806,-15.721893,-1.471367,-0.717487,0.229511,-1.819611,15.415707,12.784309,11.524429,10.584984,-13.071821,-34.046213,-54.200251,-68.423347,-23.74575,-58.974237,-63.469976,-59.253472,-18.895503,-66.130554,-86.692885,-99.110461,-16.316929,-57.883848,-54.710556,-46.308239,-16.950982,-51.322682,-50.703325,-43.530644,44.170275,298.305666,-193.753023,230.605231
66,0.306587,0.332279,0.43047,0.03174,-27.573051,-51.145706,-72.433376,-89.761963,-58.424721,-87.955914,-103.63409,-115.480728,-50.826645,-83.49844,-101.488724,-115.565701,-41.253204,-71.262817,-88.208828,-100.982208,-30.672455,-54.603882,-67.829361,-79.088287,-17.164515,-15.948032,-2.564989,7.729793,13.288071,30.014405,38.59197,45.045629,30.26752,46.699675,55.204251,61.85372,42.553691,58.926133,66.654691,72.436815,50.361598,65.58184,71.713285,76.038655,-20.965233,-38.06076,-46.363163,-51.77187,-38.921642,-38.036957,-31.54129,-27.776299,-18.531017,-17.383804,-15.911007,-15.018539,0.922623,0.858536,1.041241,-0.965652,17.502079,14.219456,12.453575,11.338291,-12.231583,-32.859555,-53.287456,-68.219879,-23.297936,-60.73048,-62.968809,-56.772711,-18.682649,-67.64807,-86.782115,-97.985986,-16.613393,-58.953859,-55.385859,-47.099386,-18.145606,-52.835999,-51.195229,-43.652786,44.509392,298.6316,-193.290024,230.630626
67,0.059395,-0.209025,1.613731,0.254906,-27.41169,-50.832481,-72.1558,-89.437065,-58.368416,-88.068581,-103.869209,-115.629787,-50.882378,-83.837357,-101.926804,-115.880642,-41.400032,-71.761379,-88.828468,-101.469269,-30.867462,-55.023994,-68.375874,-79.581413,-17.018722,-15.692632,-2.34633,7.888986,13.560884,30.024965,38.602838,45.172773,30.507544,46.633355,55.103659,61.7246,42.77414,58.897172,66.516247,72.219639,50.621382,65.798398,71.84821,76.092192,-21.822052,-38.637657,-47.167282,-53.028717,-39.957104,-40.94862,-33.467674,-28.551865,-20.433712,-19.522018,-17.123909,-15.629539,-1.72348,-1.476574,-1.427994,-3.251724,14.582977,12.55228,10.259571,8.678741,-12.035896,-32.442678,-52.892254,-68.591493,-22.286959,-59.040125,-64.766858,-60.929934,-18.835419,-66.766645,-88.103265,-100.387151,-17.727308,-60.05172,-57.496241,-48.498033,-19.607855,-54.112998,-53.659194,-45.964784,44.623919,298.407152,-191.621161,230.870109
68,0.142479,0.035445,0.085545,1.02765,-27.404594,-50.98526,-72.268124,-89.591446,-58.854446,-88.612347,-104.381275,-116.086979,-51.396675,-84.221363,-102.229671,-115.992794,-41.883202,-72.120895,-89.074345,-101.515388,-31.192818,-55.179291,-68.47435,-79.558296,-16.927455,-15.461994,-2.007135,8.234232,13.495182,30.03361,38.643655,45.314675,30.41461,46.649781,55.110452,61.672792,42.677994,58.773363,66.570587,72.40773,50.546355,65.496871,71.677964,76.03884,-21.37682,-38.482475,-46.893654,-52.96875,-41.088753,-40.463104,-33.01609,-28.389072,-21.405544,-19.766464,-17.287216,-15.559616,-2.124882,-1.442642,-1.628666,-3.144093,15.177784,12.97142,9.788933,7.777405,-11.525591,-33.269084,-54.390195,-69.268586,-24.332565,-60.762961,-66.076955,-62.271709,-20.539731,-67.789541,-88.391824,-100.50602,-18.801271,-60.667927,-59.537277,-51.749995,-19.855845,-53.637766,-55.143365,-49.108744,44.828596,298.434863,-191.473417,231.890025
69,-0.117989,-0.468562,1.61602,-0.593483,-27.409058,-50.823326,-72.1558,-89.667263,-58.508034,-88.768673,-104.586811,-116.328964,-50.905037,-84.212379,-102.143383,-115.912056,-41.215553,-71.956444,-88.922939,-101.483002,-30.411186,-54.710541,-68.059273,-79.229279,-16.606353,-15.076795,-1.48201,8.728544,14.233408,30.612334,39.038734,45.548833,31.064965,47.229123,55.621684,62.183282,43.121115,59.316828,66.986106,72.767488,50.806942,66.039657,72.131521,76.381555,-21.825256,-38.930168,-47.467346,-53.340111,-41.159077,-41.91885,-35.049191,-30.42675,-21.710243,-21.486683,-19.511204,-17.763405,-2.929859,-3.276787,-3.840981,-5.143261,13.578529,10.366344,7.706451,6.415844,-11.731343,-33.450939,-54.789659,-70.343846,-23.947674,-60.036529,-67.250274,-64.705663,-21.032993,-67.961021,-89.248673,-101.825565,-20.044739,-61.810063,-59.276937,-50.431006,-21.616349,-56.15354,-55.777789,-47.936042,44.720764,297.960604,-189.84724,231.290846
70,0.582275,0.01624,0.863285,-0.541675,-27.697792,-51.312332,-72.657738,-89.786568,-58.828468,-89.046249,-104.974308,-116.862488,-51.291847,-84.303017,-102.250614,-116.150036,-41.679955,-72.207298,-89.237251,-101.934757,-30.836678,-54.739952,-68.112488,-79.392242,-16.716886,-15.513062,-1.943162,8.674266,13.826782,30.326801,38.887075,45.530123,30.84149,47.093705,55.562033,62.264855,43.104443,59.121512,67.047795,73.155343,51.004852,65.916589,71.965659,76.270774,-22.619648,-39.440746,-47.417507,-52.686653,-42.677593,-43.546143,-36.205387,-31.717129,-23.25016,-22.463493,-19.592743,-17.306385,-4.341259,-4.409294,-4.708843,-5.87162,12.556057,9.644852,7.09322,5.899487,-11.12798,-33.082474,-54.96892,-70.755289,-24.037892,-59.410627,-66.449124,-64.015232,-21.480004,-68.029503,-90.545,-103.823314,-20.574249,-61.646918,-58.815044,-49.617629,-22.080651,-55.654041,-55.253466,-47.507309,45.342035,297.976968,-188.94496,230.749295
71,-0.012817,0.134122,-0.173779,-0.094663,-27.759819,-51.383514,-72.721882,-89.697704,-58.953323,-89.046078,-104.93494,-116.79142,-51.502876,-84.396629,-102.308922,-116.077423,-42.134056,-72.474232,-89.440441,-102.04874,-31.573792,-55.201263,-68.403969,-79.560986,-16.688666,-15.818788,-2.747955,7.760421,13.605468,29.898376,38.618522,45.527467,30.511867,46.631935,55.084023,61.907752,42.766668,58.636956,66.477653,72.632378,50.762111,65.480199,71.477954,75.871187,-21.747437,-38.739338,-47.502422,-53.379536,-41.441975,-41.46349,-34.523678,-30.140247,-22.785187,-21.849918,-19.185848,-17.105083,-4.165993,-4.239922,-3.729057,-4.028549,12.779331,9.819145,7.533588,6.5732,-11.877383,-33.864049,-55.660772,-71.417933,-25.63062,-61.596777,-67.6364,-64.516583,-23.041302,-69.653477,-89.282265,-100.735732,-22.131224,-62.715077,-60.647179,-52.659146,-23.354994,-56.142054,-55.589265,-48.413311,45.377455,298.104452,-189.070501,230.647993
72,0.07267,-0.235022,0.041313,-0.627816,-27.385712,-51.077728,-72.793808,-90.512238,-59.278793,-89.246464,-105.168285,-117.107334,-51.727409,-84.704018,-102.737675,-116.346474,-42.22435,-72.571735,-89.755497,-102.267323,-31.78093,-55.820732,-69.084721,-80.014229,-16.883427,-15.4749,-2.14348,8.399415,13.907613,30.178908,38.858423,45.730132,30.839453,47.253021,55.710419,62.300732,43.05424,59.589395,67.195934,72.807132,50.811697,66.057997,72.127692,76.324435,-22.351456,-39.60743,-48.140316,-53.255768,-41.060314,-40.384083,-32.40984,-27.848682,-22.239189,-20.277672,-17.110233,-15.465546,-3.890305,-3.551559,-2.540531,-3.135223,12.318707,10.235481,8.367977,7.491817,-11.600865,-33.724432,-55.807861,-72.20593,-26.684329,-64.159296,-67.564337,-62.278749,-23.482694,-71.85105,-90.597426,-101.760727,-22.02773,-63.391182,-60.067837,-51.639955,-23.087491,-56.932645,-55.354613,-47.263024,45.521536,297.865462,-188.957777,230.016209
73,0.200157,-0.272628,1.31424,2.186212,-27.629814,-51.492348,-73.190231,-91.277046,-59.604492,-89.686947,-105.400486,-117.232132,-51.986504,-84.950981,-102.693443,-116.547203,-42.286606,-72.830143,-89.858208,-102.619858,-31.399841,-55.589104,-68.898926,-80.138798,-17.076829,-15.944944,-2.587775,7.825136,14.198025,30.199595,38.595984,45.274352,31.134434,47.095063,55.341213,61.83748,43.194598,59.23433,66.825493,72.604467,50.699991,66.011993,72.439594,77.13985,-24.058514,-40.95789,-49.377365,-55.797329,-42.19511,-42.11689,-33.530273,-28.198986,-23.284779,-21.581326,-17.861309,-15.401745,-4.544849,-3.951702,-3.327484,-4.172802,12.437897,10.862961,8.086338,6.18782,-12.491738,-35.417319,-57.858222,-74.128591,-26.267946,-63.834982,-70.882804,-67.979053,-23.145351,-70.868663,-91.706401,-103.40619,-22.106215,-64.81669,-64.546841,-56.907018,-23.205743,-57.139879,-58.283744,-51.904,45.783348,297.54595,-187.581882,232.155537
74,-0.244446,-0.038779,1.893539,-0.284916,-27.672958,-51.49086,-73.152637,-90.925312,-59.466362,-89.600544,-105.253944,-116.813221,-51.96064,-84.945946,-102.57288,-116.169319,-42.396355,-72.877865,-89.836464,-102.471542,-31.675644,-55.547676,-68.657913,-79.830208,-16.872497,-15.677009,-2.396842,8.062443,14.140289,30.220219,38.71016,45.438979,30.839144,46.96125,55.393145,61.998093,42.75438,58.910264,66.755777,72.704873,50.155414,65.560412,72.332765,77.379812,-24.224911,-41.675491,-50.153275,-56.972351,-43.781319,-43.618069,-35.25198,-30.211773,-25.011749,-23.694534,-20.391827,-18.005905,-6.348839,-6.482506,-5.179996,-5.226517,10.671215,8.123474,5.838776,4.707355,-11.50509,-34.778203,-57.943129,-74.420856,-27.372661,-65.890962,-70.795427,-66.37064,-24.302183,-72.33715,-91.606304,-102.390396,-22.905574,-65.181635,-62.8182,-54.356479,-23.788482,-57.816664,-57.40238,-49.920886,45.596151,297.494018,-185.631094,231.857467
75,0.067749,0.130726,1.602917,0.016673,-27.720337,-51.601639,-73.367901,-91.097317,-59.70314,-89.740963,-105.432186,-116.989861,-52.220306,-85.010204,-102.720108,-116.360149,-42.699738,-72.785683,-89.782619,-102.375069,-32.061424,-55.578232,-68.702888,-79.822254,-17.101777,-15.90246,-2.439265,8.392869,14.246376,30.208178,38.637665,45.416687,30.967585,46.972674,55.388699,62.111034,42.806188,59.010052,66.82679,72.715556,50.064517,65.655693,72.445089,77.342453,-24.646683,-41.752968,-50.635757,-58.39016,-45.352478,-45.130177,-36.537952,-30.949116,-26.83342,-25.877209,-21.573086,-18.193073,-7.974586,-7.512188,-5.720043,-5.736237,9.588604,7.514992,5.52063,4.420853,-12.17397,-36.171477,-59.459719,-75.223364,-27.295041,-64.959519,-72.260826,-69.68429,-24.071422,-71.614423,-91.44458,-102.449615,-22.639307,-65.060111,-63.711543,-55.665032,-23.156157,-57.595289,-58.232429,-51.342071,45.729361,297.60273,-183.962717,231.852126
76,-0.843773,-0.386002,0.860596,0.552234,-27.413063,-50.984917,-72.511826,-90.016537,-59.221458,-89.642944,-105.276031,-116.662674,-51.582184,-84.885521,-102.350235,-115.675163,-41.995926,-72.525215,-89.280567,-101.622677,-31.45443,-55.212593,-68.138752,-79.008808,-17.077632,-15.713133,-2.281492,8.366378,13.953432,30.432517,39.027434,45.732911,30.807898,47.293653,55.859855,62.521181,42.908015,59.366784,67.245643,73.124406,50.486952,66.194774,72.879627,77.697518,-25.356731,-42.183838,-50.828876,-58.688507,-43.976154,-44.009972,-36.353073,-31.32288,-25.526562,-26.092815,-23.422623,-20.77898,-7.245941,-8.525734,-7.258186,-6.837559,9.753571,5.794315,3.934994,3.378468,-13.377053,-37.066735,-60.51596,-76.399956,-27.867467,-66.537242,-73.553262,-70.909295,-25.334589,-73.424204,-90.27373,-98.438123,-24.800633,-67.327771,-65.055479,-56.467232,-26.25504,-60.271057,-58.680676,-50.981078,44.923096,297.207388,-183.064613,232.39502
77,0.218811,-0.106705,1.016464,-0.058972,-27.248154,-50.953445,-72.753353,-90.163994,-58.954926,-89.422817,-105.4002,-117.153339,-51.527138,-84.815083,-102.635765,-116.204853,-42.097321,-72.632961,-89.653816,-102.133312,-31.721878,-55.541382,-68.556118,-79.430981,-16.666621,-15.470886,-2.134094,8.629744,14.290651,30.496058,39.068745,45.813063,31.109919,47.488722,56.053566,62.827833,43.098577,59.612983,67.44028,73.370852,50.534252,66.29623,72.800216,77.433967,-26.000004,-43.819084,-53.066025,-60.522366,-45.503197,-47.363262,-39.105091,-33.398609,-27.118378,-27.195568,-23.538322,-20.88192,-9.086552,-9.905891,-8.345604,-8.359337,7.591095,4.246731,2.907028,2.474041,-12.425171,-35.918424,-58.906373,-75.727679,-28.286999,-65.208929,-73.144166,-71.553475,-25.95024,-72.930695,-93.720391,-106.30741,-25.226402,-67.098677,-63.2239,-53.865872,-26.598125,-61.387196,-59.233712,-50.349866,45.21409,297.095913,-181.975965,232.331278
78,0.134468,-0.072001,-0.69849,0.285349,-27.271729,-51.078987,-72.91523,-90.337372,-58.845062,-89.404106,-105.366898,-117.026939,-51.338425,-84.772568,-102.522411,-115.945473,-41.86306,-72.574997,-89.671497,-102.121353,-31.46759,-55.304146,-68.428345,-79.383774,-16.74276,-15.67491,-2.40135,8.363414,14.209696,30.536381,39.253934,46.162385,31.092444,47.495515,56.124023,63.020988,43.168663,59.529682,67.392115,73.430873,50.719751,66.172297,72.666835,77.470091,-25.261002,-42.73447,-52.019405,-59.715557,-45.783291,-46.57259,-38.417645,-32.888718,-27.401333,-26.727734,-22.905064,-20.206146,-9.131641,-9.637527,-8.356876,-8.46714,8.136292,4.491863,2.291737,1.60675,-12.2632,-36.48307,-59.984165,-76.821341,-29.757956,-67.281705,-74.042387,-71.563046,-27.197537,-75.023169,-95.175478,-107.557794,-25.945238,-68.462682,-65.033743,-56.085059,-26.701928,-61.319703,-60.111494,-52.042877,45.443201,297.03123,-182.579813,232.623944
79,0.07782,-0.253238,0.414963,-0.302145,-27.534142,-51.435356,-73.160877,-90.516701,-59.163094,-89.426651,-105.265274,-116.861687,-51.626358,-84.796829,-102.620659,-116.178074,-42.013206,-72.59388,-89.647808,-102.155113,-31.330833,-55.144386,-68.283234,-79.375305,-16.825444,-15.834596,-2.61513,8.171062,14.311028,30.657289,39.274991,46.070068,31.166544,47.254194,55.848431,62.709643,43.245913,59.2368,67.226068,73.387771,50.878573,66.009523,72.599959,77.578463,-25.310726,-42.566872,-51.810322,-60.242329,-45.779343,-47.251225,-38.659286,-32.635517,-27.762966,-27.565556,-23.543415,-20.604286,-9.741611,-10.543842,-8.679142,-8.422394,7.412052,3.89328,2.363434,2.021713,-12.828648,-37.322196,-60.891958,-77.926859,-29.99798,-67.289239,-74.1,-71.794055,-27.454727,-75.176742,-95.870602,-108.830223,-26.008718,-68.206912,-64.342324,-55.320095,-26.460854,-60.970196,-59.592482,-51.397585,45.600328,296.781032,-182.085543,232.324841
80,0.10849,0.357658,0.007496,-0.839003,-27.328835,-51.250763,-73.167286,-91.014919,-59.191589,-89.460411,-105.26144,-116.82518,-51.65863,-85.001736,-102.831745,-116.405354,-42.069397,-72.792206,-89.857864,-102.403908,-31.455574,-55.505791,-68.665123,-79.786949,-16.958022,-16.089193,-2.84126,7.816985,13.674135,30.145501,38.786607,45.738345,30.501554,46.687757,55.26773,62.134191,42.681885,58.664559,66.660866,72.880059,50.590816,65.683172,72.27756,77.27002,-26.298637,-42.942009,-51.56456,-59.009972,-46.284084,-48.036919,-39.823952,-33.663254,-28.218555,-27.690182,-23.93795,-20.761299,-10.235081,-10.890598,-9.88924,-9.585056,7.097969,2.901707,0.305843,-0.043488,-12.770232,-37.340104,-61.311367,-78.353925,-30.28234,-66.984006,-74.40795,-72.757732,-28.042035,-74.617716,-95.298793,-108.263663,-27.020684,-68.602485,-65.112413,-56.249932,-27.84851,-61.974998,-60.882572,-53.011494,45.811472,297.158713,-181.975393,231.505861
81,0.169029,0.18803,-0.348186,-1.218953,-27.314529,-51.114006,-73.082371,-91.125641,-59.460526,-89.56501,-105.54491,-117.287979,-52.02507,-85.165157,-102.896976,-116.232319,-42.565956,-72.934742,-89.890194,-102.274647,-32.220726,-56.09436,-69.262047,-80.233383,-17.128515,-16.007559,-2.521702,8.184461,13.980046,30.094125,38.631366,45.461888,30.846677,47.079008,55.578644,62.369336,42.917648,59.353755,67.157896,73.137003,50.497696,66.012981,72.580199,77.345232,-26.036682,-42.659855,-51.276798,-58.261986,-46.398525,-46.369286,-37.491703,-31.807022,-28.209915,-26.734715,-22.678242,-19.41988,-9.885921,-10.168476,-9.268227,-8.940296,7.869301,4.493408,1.71175,1.135082,-13.056631,-37.844172,-61.934984,-78.794884,-30.480559,-68.08446,-73.223824,-69.764195,-28.092794,-75.506428,-96.235362,-108.712959,-27.009568,-68.935011,-67.202356,-58.760334,-27.694072,-61.260608,-62.451897,-56.071659,46.165924,297.363339,-182.138157,230.303503
82,0.711937,-0.270714,0.090523,-1.739262,-27.286034,-51.516495,-73.703899,-91.591816,-59.346886,-89.64283,-105.678692,-117.466736,-51.865768,-85.158005,-103.069496,-116.646137,-42.397041,-73.029442,-90.213947,-102.701511,-32.202873,-56.197929,-69.311485,-80.351257,-17.076953,-15.843797,-2.466003,8.193477,13.753731,30.572814,39.284501,46.12095,30.458082,47.227333,55.924322,62.760155,42.446739,59.091748,67.042052,73.096433,50.025861,65.761286,72.59928,77.72864,-27.490597,-43.750362,-51.658344,-58.078079,-44.676304,-44.79166,-37.271519,-31.523552,-25.875034,-25.107422,-22.569981,-19.959068,-7.639046,-7.85677,-8.381081,-9.314976,9.329567,5.363503,2.368927,1.331806,-14.314054,-38.824275,-62.276958,-78.885163,-31.223231,-68.176036,-75.358968,-73.212153,-28.346835,-75.227995,-95.858746,-107.938423,-27.277565,-70.04658,-67.354694,-58.028221,-28.300214,-62.829871,-61.629134,-53.49926,47.051296,297.172098,-181.874199,228.643714
83,0.511436,-0.580701,-0.537758,-2.046594,-27.844734,-51.68541,-73.634605,-91.283054,-59.014549,-89.111824,-105.236893,-117.381592,-51.547966,-84.590607,-102.676334,-116.670113,-42.256279,-72.571163,-89.711094,-102.578373,-32.152748,-56.034279,-69.21032,-80.588779,-16.137853,-15.106374,-2.027822,8.296971,13.979429,31.067559,39.791657,46.350291,30.603319,47.721089,56.446793,63.209512,42.661322,59.63509,67.902729,74.187809,50.308987,66.035582,72.890186,77.978173,-26.751537,-42.08416,-50.19207,-56.698837,-43.844318,-44.523411,-37.118683,-31.718216,-25.814323,-23.287296,-18.760471,-16.027279,-8.21085,-7.120857,-6.13472,-6.949596,8.690987,6.471806,4.861851,4.1926,-15.749628,-39.777763,-62.239846,-79.546325,-32.648369,-67.843943,-75.822281,-74.86447,-29.423392,-75.445974,-96.850828,-110.303649,-27.724206,-68.948534,-65.142177,-55.799834,-28.177083,-62.844506,-61.279195,-52.547192,47.648792,296.684625,-182.325897,226.690347
84,0.843315,0.46214,-1.244946,-1.54197,-27.859726,-51.955948,-74.066792,-91.767082,-59.055061,-89.11869,-105.320721,-117.618942,-51.393929,-84.607887,-102.799301,-116.873932,-41.933327,-72.568932,-89.833603,-102.713928,-31.755753,-55.9869,-69.413452,-80.816174,-16.56004,-15.590929,-2.449207,7.839585,13.46758,30.895275,39.76319,46.375547,30.310931,47.485696,56.368123,63.203029,42.538933,59.391423,67.699385,73.928272,50.276568,65.720963,72.388032,77.24674,-26.127148,-40.502758,-47.422714,-52.870331,-40.600605,-40.780048,-32.715397,-26.678696,-22.238388,-19.544907,-14.987926,-11.771622,-4.70787,-2.883282,-2.763863,-4.033413,12.02219,10.077724,8.060074,7.410736,-17.635609,-42.072964,-64.684421,-82.886158,-34.314704,-70.003108,-78.456492,-77.487072,-30.972031,-77.093907,-99.009684,-112.421195,-29.048938,-70.106354,-66.152846,-56.253823,-29.307672,-63.905193,-62.591082,-53.96455,48.579054,297.334887,-183.483896,225.3365
85,-0.94368,-0.640352,-8.998718,-16.843413,-27.712212,-51.526108,-73.448009,-90.96508,-57.662659,-88.341923,-104.803104,-117.021217,-49.664154,-84.074936,-102.831402,-117.034092,-40.136032,-71.7243,-89.668751,-102.93211,-30.195122,-54.967232,-68.824997,-80.633926,-16.188735,-15.160035,-2.297486,8.01508,13.452883,31.155368,40.384461,47.017999,30.459255,47.778517,56.55183,62.898599,42.953463,59.901419,67.907854,73.566168,50.977744,66.639377,73.031657,77.661085,-19.626446,-34.451752,-36.3204,-31.66563,-33.250751,-25.148735,-20.053711,-19.700317,-14.075947,-5.405788,-0.51487,1.761017,4.971714,9.75214,8.872032,6.323032,22.006989,24.137077,21.541901,19.068375,-15.741662,-39.191134,-61.073195,-72.825781,-28.171094,-63.703331,-58.809549,-49.267566,-20.905231,-69.31916,-85.351111,-96.59549,-16.715713,-57.131913,-49.854504,-40.382855,-17.25819,-49.548407,-43.986424,-34.397696,47.659149,296.811043,-192.458839,208.609595
86,0.205193,-0.024577,4.711761,-0.56903,-27.702942,-51.443481,-73.500252,-90.843945,-57.67662,-88.067207,-104.332123,-116.819859,-49.807777,-83.530254,-102.237854,-116.643734,-40.373154,-71.245651,-89.106216,-102.376842,-30.471039,-54.734001,-68.434181,-80.125065,-15.730794,-15.136384,-3.119507,7.275063,13.934536,31.349758,40.188403,46.453044,30.692795,47.873551,56.549113,62.790227,42.971124,59.980645,68.00085,73.707391,50.706598,66.579232,73.160036,77.993796,-19.152145,-33.412399,-35.073681,-32.178211,-34.349155,-27.453232,-21.71236,-20.502777,-14.485474,-5.293064,-0.488777,1.860466,4.890461,12.482758,11.287537,6.700802,21.527767,24.500141,22.403412,19.448204,-16.41573,-39.598254,-61.835257,-75.430228,-28.705173,-65.752024,-62.672654,-53.545141,-20.10791,-68.885487,-88.554599,-100.03082,-15.089516,-57.016811,-51.946546,-42.891466,-14.178018,-48.460488,-45.334682,-36.913779,47.951403,296.967797,-187.660017,208.221895
87,0.746613,0.782254,3.069019,2.114952,-27.383308,-51.383972,-73.732624,-91.559029,-57.783623,-88.475876,-104.814663,-117.266464,-49.829063,-83.951054,-102.763023,-117.104759,-40.316162,-71.398201,-89.476547,-102.823334,-30.425377,-55.075378,-68.865166,-80.432453,-16.236839,-16.087156,-4.096275,6.430873,13.385699,30.244673,39.235162,45.765145,30.383487,47.121678,55.754447,62.031994,42.785564,59.594211,67.536302,73.139473,50.497387,66.122959,72.599404,77.293855,-20.316582,-33.285484,-32.242985,-28.513584,-32.264614,-23.85767,-19.444199,-18.549843,-11.64259,-1.160545,3.017235,6.20945,7.708855,14.341793,11.238842,6.569939,24.151783,25.074406,21.995659,19.464169,-17.947448,-43.897442,-67.095589,-80.193778,-30.849394,-67.208654,-65.272347,-57.224045,-21.501617,-69.45921,-89.93682,-101.532621,-16.047759,-58.50302,-53.809,-44.823945,-15.061481,-49.956145,-47.068819,-39.06504,48.775578,297.931674,-184.513435,210.51847
88,-0.793419,0.24589,2.145824,-0.049586,-27.367287,-51.097755,-73.310852,-91.114368,-57.392921,-88.335342,-104.767513,-117.284946,-49.408035,-84.194698,-103.263359,-117.773552,-39.919395,-71.701069,-89.89769,-103.406296,-30.258408,-55.417671,-69.49585,-81.303349,-16.691445,-16.37306,-4.520439,5.855112,12.93171,30.061706,38.873922,45.007591,30.051702,46.67232,55.140401,61.224422,42.581726,59.207221,66.984994,72.494922,50.434649,65.945117,72.317575,77.038949,-20.293636,-32.277317,-28.902283,-22.404099,-29.755325,-17.687073,-14.401703,-15.056705,-9.685822,4.987736,10.524731,14.172707,9.550323,20.017033,16.783676,11.008701,26.251831,30.030041,26.833477,23.115749,-20.612782,-47.729549,-69.761602,-81.486091,-34.27154,-69.138664,-64.491945,-55.204066,-23.390192,-71.082381,-90.898088,-102.852999,-16.19843,-57.626966,-51.706893,-42.78791,-13.544397,-48.487597,-44.477587,-35.593555,48.047247,298.411845,-182.302523,210.703166
89,-0.362778,-0.235578,3.837318,0.460164,-27.434921,-51.117897,-72.958603,-90.287876,-58.064117,-88.266506,-104.278851,-116.513443,-50.54821,-84.171238,-103.174438,-117.840614,-41.266823,-71.980419,-89.838638,-103.218555,-31.330719,-55.388489,-69.033394,-80.63015,-16.740043,-16.482667,-4.981529,4.825856,13.141352,29.878493,38.412029,44.403425,29.949629,46.391417,54.851038,60.996439,42.251855,58.7013,66.521805,72.123493,49.931445,65.257774,71.708283,76.422433,-17.878189,-27.211876,-22.636013,-12.883301,-25.108795,-14.255848,-11.775627,-14.310608,-5.990238,10.103931,15.429382,17.820683,12.851028,23.420277,19.542274,14.173794,28.69503,34.296455,29.35112,24.19178,-21.423441,-47.587584,-68.5106,-78.419874,-32.350238,-68.277801,-61.700024,-53.320616,-21.143156,-67.973989,-79.329087,-83.434316,-14.832758,-55.700477,-51.42704,-44.537546,-13.125915,-44.917064,-40.747553,-32.884811,47.778912,298.619049,-178.370762,211.606111
90,-0.202332,-0.123624,9.121914,-3.556515,-27.280655,-51.290817,-73.442802,-90.974464,-58.091583,-88.574238,-104.565182,-116.749649,-50.570869,-84.571152,-103.354568,-117.782135,-41.388588,-72.606354,-90.303669,-103.655777,-31.646118,-55.879784,-69.55616,-81.138611,-17.167603,-16.986303,-5.208338,4.728167,12.429061,29.128719,37.560491,43.434561,29.343425,45.538829,53.638507,59.454099,41.817935,58.029764,65.677368,71.161175,49.8445,65.082032,71.469001,76.286953,-18.162346,-27.183151,-20.035629,-7.599907,-23.13818,-10.189648,-10.183754,-13.590775,-4.002056,15.199986,16.859837,16.583061,14.495029,24.03368,17.713566,12.596111,29.315586,33.204403,26.117363,20.966721,-18.216186,-42.845215,-63.216861,-71.135178,-24.421917,-61.433077,-54.703764,-45.785337,-12.771282,-58.181053,-66.478332,-67.539081,-7.090182,-48.738921,-46.006156,-38.890656,-6.620015,-38.158852,-35.443316,-28.107367,47.963676,298.947144,-168.861752,208.501316
91,-0.605164,-1.050622,15.174294,3.627404,-27.220688,-51.370239,-73.30616,-90.675945,-57.790031,-88.394737,-104.424763,-116.704845,-50.463753,-84.332657,-103.271255,-117.803535,-41.258698,-72.121067,-89.877663,-103.310223,-31.393204,-55.194511,-68.87249,-80.567093,-16.649702,-16.361574,-5.002154,4.596577,12.27592,29.162991,37.516216,43.080978,29.086852,45.794476,53.833268,59.238467,41.464537,58.17142,66.073497,71.27177,49.285165,64.812862,71.164386,75.438255,-17.598209,-30.693398,-31.041126,-20.441608,-16.816578,-6.464539,-6.001854,-5.309944,-0.949402,3.475914,-5.649948,-9.4277,13.370934,14.933853,5.950413,3.193417,25.980263,26.022091,17.997093,15.115299,-12.943813,-34.966047,-54.362963,-64.069881,-39.58893,-65.790124,-65.381768,-59.943286,-34.788144,-51.973037,-39.936955,-31.601823,-28.423097,-43.093266,-30.559106,-22.510433,-21.467345,-33.846327,-23.823,-15.484842,47.888117,298.16577,-153.157854,212.397968
92,-0.090065,-1.516775,7.484035,2.5012,-27.680969,-51.751213,-73.564396,-90.738659,-57.625008,-88.401833,-104.508591,-116.562309,-50.167923,-83.99889,-102.891026,-117.502785,-40.846825,-72.228928,-90.146999,-103.750591,-30.776596,-55.151367,-68.935204,-80.850506,-16.592027,-16.126491,-4.49438,5.407298,12.094991,28.613721,36.960339,42.92302,28.977122,44.731134,52.767024,58.483136,41.493004,57.051267,64.652311,69.964514,49.633437,64.5574,70.884471,75.438194,-15.85556,-27.849255,-25.850258,-15.071926,-5.715008,-3.658104,-8.796101,-13.817539,8.358822,9.406528,4.281807,1.732407,19.22905,13.535156,3.313007,-1.279907,27.762108,26.826267,21.720943,18.866386,-10.678622,-31.872228,-48.718543,-55.227222,-41.410691,-62.256951,-63.80596,-59.162205,-36.476709,-50.617615,-48.966224,-46.214194,-28.247973,-34.681501,-24.675094,-16.818219,-18.68938,-28.198387,-26.138641,-24.299713,48.881979,296.682541,-144.589891,214.932714
93,-0.523911,-0.362845,4.310417,3.184098,-27.26429,-51.208305,-72.927818,-90.736198,-57.604637,-88.133011,-104.32045,-116.680984,-50.10498,-84.014797,-103.031216,-117.792206,-40.850258,-72.06522,-90.231628,-104.219112,-30.804863,-55.202065,-69.222221,-81.339741,-17.206938,-17.058613,-5.237793,4.229286,11.976492,28.186593,36.133871,41.726791,28.956312,44.349702,51.865653,57.36181,41.458856,56.808033,64.14886,69.500089,49.585643,64.294405,70.630492,75.446036,-15.323982,-22.667885,-16.46616,-4.706783,-0.71394,0.013103,-4.049778,-6.009579,9.842834,8.6693,3.202572,2.802773,19.554234,14.840813,8.903103,8.814697,27.366257,36.107883,43.019829,49.304981,-11.153112,-30.114503,-44.096895,-46.667256,-43.4797,-53.777508,-45.629664,-37.019001,-40.889147,-47.106919,-33.10773,-20.83638,-36.751252,-38.894176,-25.004965,-12.824079,-31.109487,-49.262935,-58.926689,-66.764669,49.042826,296.254518,-139.594717,218.051635
94,-0.692482,-0.699262,0.240497,12.670598,-26.567345,-50.946465,-73.186169,-91.386223,-57.291183,-88.789501,-105.160847,-117.364712,-49.6558,-84.575787,-103.376026,-117.672729,-40.246353,-72.359333,-90.657749,-104.502869,-30.253716,-55.308723,-69.6064,-81.774044,-17.371317,-16.791543,-4.719337,4.832649,12.096782,28.340846,36.353209,42.209926,29.06456,44.335314,51.685527,57.199036,41.502575,56.661746,63.818125,69.05777,49.448124,63.979602,70.25474,75.075039,-9.299755,-7.411537,5.028362,19.764118,11.342611,26.044665,27.210188,27.514401,24.748278,40.76005,40.815468,41.689768,35.054941,44.768801,35.204001,30.188542,41.874533,54.88329,53.393641,52.71143,-17.94291,-36.734949,-48.958906,-49.738011,-26.038358,-45.328291,-49.324685,-47.810658,-18.182717,-37.501148,-40.2144,-38.409003,-12.453421,-29.412709,-26.21024,-18.187626,-7.584926,-28.74247,-36.806333,-38.905908,49.108801,295.087203,-138.595762,230.254179
95,-0.545197,-0.322275,0.240498,12.670598,-26.677094,-50.967522,-72.931881,-90.31992,-57.849426,-89.001331,-105.296288,-117.658768,-50.561256,-84.634781,-103.390732,-117.756214,-41.479111,-72.84668,-90.747414,-104.347057,-31.728172,-55.825081,-69.541111,-81.305809,-16.898988,-16.629571,-5.124975,4.285787,11.906591,27.825724,35.901628,41.835163,29.035661,44.003591,51.234317,56.670885,41.605575,56.503171,63.501221,68.626814,49.541676,63.865734,69.908753,74.472232,-3.275528,7.84481,26.522884,44.23502,23.399162,52.076225,58.470154,61.03838,39.653721,72.8508,78.428364,80.576763,50.555649,74.696789,61.504898,51.562386,56.382809,73.658695,63.767452,56.117878,-24.732707,-43.355397,-53.820918,-52.808767,-8.597016,-36.879075,-53.019706,-58.602314,4.523712,-27.895378,-47.32107,-55.981627,11.844408,-19.931242,-27.415516,-23.551175,15.939634,-8.222006,-14.685977,-11.047149,49.283924,293.751588,-137.634945,241.911438
96,-0.246506,0.286584,3.211956,3.104317,-27.135658,-51.576347,-73.907948,-91.418667,-58.608513,-89.234161,-105.415306,-117.671356,-51.35479,-84.999275,-103.469982,-117.699852,-42.356873,-73.514557,-91.264458,-104.687405,-32.676888,-56.816711,-70.546532,-82.207432,-17.633448,-17.699088,-6.270199,3.506744,11.703185,27.070825,35.253495,41.375555,29.145453,43.500016,50.508317,55.9087,41.789344,56.056653,62.592626,67.385322,49.727051,63.504062,69.207886,73.505776,4.297543,19.38818,40.710869,57.717247,30.479736,58.077793,73.205681,82.642937,42.37833,75.993404,84.414196,85.407028,50.306511,79.364662,75.7267,66.77639,55.470829,75.30962,72.170849,65.824356,-22.925273,-36.651154,-42.87362,-40.652149,-0.916747,-17.102024,-34.954191,-49.032606,12.641606,-8.345074,-28.221853,-40.554583,19.559566,-0.565696,-13.497837,-18.137763,22.171485,7.483779,-2.673484,-6.917034,49.887943,293.23378,-133.572464,244.211363
97,-0.014648,-0.114979,6.083794,8.112213,-26.505775,-50.895538,-73.301296,-90.295658,-58.804893,-89.638996,-105.904198,-118.142452,-51.788292,-85.35181,-103.724041,-117.851772,-42.87323,-74.133224,-91.659393,-104.696445,-33.142891,-57.582321,-71.151867,-82.492905,-17.606401,-17.716317,-5.798364,4.549647,10.819537,26.184274,33.89511,39.710393,28.437361,42.723381,49.689507,55.13614,41.425634,55.504914,62.050581,67.049832,49.920083,63.601689,69.424877,73.794089,8.898754,26.087666,47.948399,68.855782,37.438545,67.647629,86.404495,98.240032,45.577869,80.546951,95.293064,101.061916,51.279202,81.414642,87.26429,86.171093,55.437984,76.630096,80.23859,79.841938,-21.199349,-31.098187,-33.419385,-34.109569,3.170822,-10.006716,-26.090784,-40.204952,17.323769,-0.153018,-19.761861,-34.918438,24.045734,7.292847,-8.867977,-20.43068,25.774313,13.187294,0.96238,-8.279557,50.502663,292.648278,-126.859303,251.853054
98,-1.364594,-0.196058,7.155018,9.539265,-25.887566,-48.96183,-69.352798,-83.447914,-57.853317,-88.368301,-104.334698,-116.069298,-51.828918,-84.841003,-103.083973,-116.795368,-43.606224,-74.101181,-91.415005,-104.548645,-33.967323,-57.91935,-71.349049,-82.946548,-16.94561,-18.460286,-8.926578,0.294055,9.7846,24.35498,32.9867,39.870389,27.217853,42.335156,49.806894,55.41235,40.57953,55.448535,62.312526,66.909041,49.728965,63.171351,69.160214,73.127555,13.414021,33.621254,56.205597,75.498791,42.982121,73.760777,93.608665,105.952721,48.244572,83.171654,100.611992,108.863182,52.110844,82.842808,96.515636,102.214279,55.13546,77.205162,87.979889,94.101562,-20.534173,-28.168747,-27.278368,-25.642538,5.286268,-6.845898,-20.331323,-31.755211,20.377512,3.130437,-14.45997,-29.940552,27.900503,13.550943,-1.889748,-15.937658,30.427516,21.455736,10.306823,-1.133614,49.968395,292.404395,-118.873959,261.344493
99,-0.104828,1.242171,6.759682,6.945131,-26.022606,-45.837708,-60.648537,-68.406544,-56.779633,-85.445538,-101.849613,-114.60474,-51.489601,-83.273277,-102.878609,-118.070469,-43.622246,-73.866119,-92.192345,-106.293926,-34.186821,-58.304672,-72.289124,-84.465065,-15.319474,-21.954927,-26.927193,-34.357435,11.377266,25.51879,32.678627,36.615339,27.475908,41.020366,48.151181,51.920734,39.087702,53.126226,59.764766,63.031054,47.35355,60.837432,67.397364,71.960287,17.796593,39.803009,62.629108,82.283077,45.886688,77.900562,98.551712,111.843681,48.679218,85.020561,104.383621,114.976158,50.32053,82.963314,100.77095,110.408936,51.927109,76.395836,90.650997,99.692001,-19.728701,-25.481925,-22.952628,-17.815858,8.439552,-0.387916,-11.474956,-20.725106,25.528855,12.198485,-2.430249,-15.050798,35.020758,24.127059,10.698259,-1.548577,38.864289,32.587915,22.13709,11.259755,50.474367,293.739994,-111.503477,268.383052
100,-2.311935,-1.144606,6.896954,6.723385,-26.271286,-46.818695,-64.781399,-79.905109,-56.508408,-83.661232,-99.346447,-111.286697,-51.576118,-81.776333,-101.167488,-116.387444,-43.639526,-72.268696,-89.825306,-103.914185,-33.732033,-57.063332,-70.928478,-83.249416,-13.368717,-20.126991,-22.04181,-24.005596,10.608968,22.925211,28.53079,31.49166,26.043792,40.109363,46.46737,50.232046,38.093459,53.359704,59.540797,62.964672,47.403383,61.779558,67.845054,71.230459,18.881264,42.435379,65.480118,85.175285,49.891548,83.741512,101.781635,112.953587,49.361973,85.854721,104.052143,112.541828,48.198738,80.595074,98.150082,106.792202,47.502594,72.028084,85.653133,92.503109,-19.01888,-23.59934,-20.090805,-15.039375,10.654663,3.990065,-6.088467,-12.507669,28.474412,19.560122,7.077153,-2.872197,38.895411,34.198922,23.987812,14.678011,43.324089,43.665569,36.161597,27.658874,48.524923,292.664055,-104.244032,275.175104
101,0.354767,-1.914448,6.256142,6.794707,-28.953438,-51.880417,-69.470615,-84.695263,-54.499168,-79.803543,-95.977936,-109.505768,-49.522705,-77.135868,-98.395271,-115.978146,-42.297134,-68.285694,-88.264332,-105.256176,-33.100433,-54.904404,-70.125961,-84.819374,-12.378735,-16.824826,-15.326576,-13.192235,8.900334,19.976073,23.560931,24.781305,24.616678,36.577177,42.87961,46.459034,37.807986,51.182076,58.433427,62.309562,48.068558,60.941049,68.735001,73.585866,20.481663,46.102924,70.294647,89.370975,50.569668,85.039158,102.953281,114.176388,47.559929,86.451931,106.111507,115.855808,43.982563,78.407364,96.537037,106.068249,40.882816,66.175117,79.173717,85.376301,-19.712399,-22.968745,-17.075039,-9.77719,10.025241,6.286871,-1.221238,-5.128989,28.625391,24.027888,15.01381,8.079794,39.714222,38.562947,31.027544,24.17541,44.554775,47.634021,41.920193,34.783019,49.052582,290.878156,-97.814999,282.098359
102,-1.952248,2.01893,6.701603,5.212352,-27.89463,-53.348694,-70.530052,-78.940773,-55.288353,-70.995312,-72.856808,-74.099064,-51.277657,-74.944897,-92.337284,-107.019825,-44.524384,-70.613079,-88.01136,-103.200817,-34.541931,-57.118378,-72.532082,-88.296089,-13.973871,-17.403489,-13.375077,-6.830275,10.072789,14.465219,9.435463,1.412355,26.154881,32.568835,35.75812,34.944867,39.941957,49.523892,56.110747,57.687976,50.654172,61.897254,69.415861,73.269087,21.473522,45.097446,68.03072,88.59993,47.520218,82.609978,102.469025,115.098038,44.727802,84.391937,107.066002,120.717545,42.272301,78.113823,99.267769,112.209435,40.617657,67.786045,83.009262,92.410126,-19.340353,-21.8284,-15.178251,-9.120412,10.901665,10.542648,5.469975,2.76506,29.242772,27.556739,20.764564,15.383757,40.665672,41.769893,35.771952,29.866081,46.402038,50.394511,46.279649,40.767066,47.189827,293.112796,-91.023903,287.526421
103,-1.555595,4.123816,7.035141,2.724428,-27.429657,-51.862221,-68.547649,-77.561302,-50.404358,-67.615471,-78.690033,-89.146442,-46.384392,-70.169563,-88.746986,-103.910923,-41.018715,-66.190109,-84.898624,-100.694103,-33.604546,-55.982552,-71.857796,-87.602291,-15.672378,-17.462461,-11.97007,-3.540645,8.277149,11.638038,11.20912,8.382124,24.365045,31.701303,33.689234,32.542714,36.988682,46.426553,49.679256,49.381002,45.684993,56.087652,61.490196,63.840293,21.385117,45.709991,68.414326,88.090324,49.431324,86.206856,106.150246,119.840927,43.691425,84.770164,106.687202,120.615692,38.383713,75.982361,96.55632,110.284424,34.34927,62.775421,78.560257,90.120277,-19.437671,-19.761429,-11.533063,-6.821074,10.671891,14.788174,13.001179,12.799687,28.796008,31.990171,29.265311,27.248234,40.645541,46.705912,44.480613,41.552037,46.456873,54.28207,53.306722,50.559817,45.707932,297.415595,-83.915062,290.429833
104,-2.885971,0.737732,5.083408,1.980212,-15.224648,-38.680687,-57.008057,-71.17527,-59.914227,-57.851143,-37.911072,-21.235657,-58.677292,-53.273621,-29.375954,-8.522644,-53.651505,-51.139183,-27.033119,-7.507553,-46.576195,-59.940948,-65.340042,-70.004768,27.067614,43.218558,53.931822,65.00435,33.089638,42.424633,42.669596,41.95675,20.612226,30.304817,30.195704,27.70988,7.609874,16.372319,17.59825,17.249978,-5.291208,-1.169244,5.636207,12.875949,21.809692,45.68224,68.152027,87.468281,50.33329,86.632175,105.740948,119.080982,44.052086,83.804798,105.564251,119.585323,37.75526,74.716816,95.12598,108.977337,32.110691,60.557327,76.224689,88.148518,-18.89964,-19.586181,-11.084569,-7.088268,10.520541,18.072617,19.370054,20.623711,28.368572,34.969197,35.120423,34.311802,40.588916,49.086082,48.576085,45.927672,46.989779,57.575837,57.65815,54.569827,42.83761,298.302871,-78.816004,292.559589
105,-8.277283,14.948478,3.938599,0.40675,-6.997948,-20.190125,-35.710831,-51.323719,-49.520645,-37.468529,-14.854774,2.065544,-52.2999,-37.582397,-13.425751,8.346291,-50.040951,-39.281273,-16.024704,2.963448,-45.131378,-52.06255,-56.555557,-60.537128,-19.554256,-28.366904,-28.745558,-26.836235,-4.626588,2.62853,4.886187,6.770006,10.001838,14.889815,15.14188,15.390858,21.293456,24.793655,23.69882,24.447667,30.089803,37.927288,43.675881,49.805351,22.353687,46.264114,68.281231,86.460743,51.199665,86.747646,105.648365,119.032001,44.363651,82.507725,103.919048,118.670483,37.208691,72.119694,92.008953,106.567898,30.304413,57.613506,72.886219,85.79401,-18.41916,-18.734087,-10.33035,-7.184228,10.729072,19.47114,22.117763,23.822074,28.503867,36.677954,38.876454,39.520511,40.435899,50.482629,52.156374,51.076483,46.954705,57.959925,59.152387,57.103323,34.681206,313.348344,-74.756527,293.063333
106,-21.4254,-21.770355,4.046001,-0.230391,-8.842735,-22.654724,-34.470634,-46.193733,-35.779209,-18.496513,4.02317,18.802872,-37.770138,-13.875389,7.805901,25.979004,-38.035183,-19.871063,-0.262985,15.039024,-36.964645,-44.862728,-46.181316,-44.944553,6.803475,23.724879,43.984263,61.570101,25.050537,40.264356,42.224191,40.28109,27.791637,41.691593,44.168835,40.772562,28.051421,43.77814,43.966417,40.943549,27.359446,41.498191,48.308768,53.404412,22.993698,46.823502,69.158134,87.657509,50.582085,84.865036,103.148918,116.239929,43.137131,80.443268,101.681099,116.053276,35.315094,69.989662,89.570274,103.35537,27.667866,54.144402,69.223251,81.635971,-17.302589,-17.910769,-10.254706,-7.44994,10.880299,22.034832,26.255164,29.101487,28.697578,38.931226,42.524174,44.176553,41.092367,52.63988,55.211846,54.765082,48.596277,60.770124,62.569161,61.041456,13.434992,291.67273,-70.53134,292.927683
107,-5.172844,6.48756,2.285728,-0.141347,-1.943436,-3.273926,-7.942543,-16.861267,-27.037754,-6.781883,14.270096,27.828369,-33.876286,-10.780106,7.307053,22.735176,-37.365875,-22.94569,-10.259743,-1.919289,-37.623425,-47.921906,-55.429401,-61.422672,-19.178937,-24.188377,-20.528616,-13.906255,9.391744,24.808537,28.115086,28.694058,27.154311,40.736006,41.435761,37.986877,38.425861,52.649883,49.883156,46.12799,46.315464,58.969544,63.351662,66.235221,24.199104,48.333721,71.0923,90.001373,52.523804,84.62059,102.079811,114.880486,44.778786,79.898872,100.421562,114.909439,36.153202,69.163628,88.227654,102.168846,27.4506,53.881645,68.605614,80.772858,-16.189908,-16.527127,-9.593235,-7.57517,11.87516,24.337813,29.751842,33.562831,29.097103,40.305791,45.057608,47.423575,41.242791,53.633073,57.499822,58.047363,49.052428,61.414737,63.504124,62.420219,8.552828,298.387624,-67.954931,293.013671
108,-11.946716,9.662149,2.017136,-0.611082,2.668533,8.364258,19.243927,25.485306,-10.301685,18.523521,41.043892,55.497894,-19.71405,9.924088,33.425674,49.428864,-23.584843,-3.831711,18.134193,32.59346,-22.996273,-31.142235,-33.826275,-36.789379,-22.113625,-25.890033,-19.491888,-13.032548,-1.670163,10.071739,17.0278,22.030015,16.896518,26.211197,30.631477,30.869648,30.951283,39.335753,41.832631,41.370306,42.622604,52.622713,56.296245,57.18366,24.695892,49.026432,72.184639,91.456604,53.493347,84.643135,101.717606,114.091415,45.217152,79.48185,99.668884,113.581123,35.681534,68.021164,86.737747,100.055122,26.129208,52.453995,67.348595,79.621582,-15.289834,-15.40327,-8.194465,-5.942798,11.463902,26.091896,32.977437,37.985889,28.392963,42.080436,48.741082,52.622157,40.468132,54.639111,60.024364,62.144009,48.539529,61.790303,64.939389,65.248202,-3.134108,308.399017,-65.678015,292.751833
