takenoko1/special-research/HandMotion_SimilarSearch_自分用/NewProject/handData/key/d4_feature_d2/84.csv
,vel_0x_L,vel_0y_L,vel_0x_R,vel_0y_R,posFromWrist_1x_L,posFromWrist_2x_L,posFromWrist_3x_L,posFromWrist_4x_L,posFromWrist_5x_L,posFromWrist_6x_L,posFromWrist_7x_L,posFromWrist_8x_L,posFromWrist_9x_L,posFromWrist_10x_L,posFromWrist_11x_L,posFromWrist_12x_L,posFromWrist_13x_L,posFromWrist_14x_L,posFromWrist_15x_L,posFromWrist_16x_L,posFromWrist_17x_L,posFromWrist_18x_L,posFromWrist_19x_L,posFromWrist_20x_L,posFromWrist_1y_L,posFromWrist_2y_L,posFromWrist_3y_L,posFromWrist_4y_L,posFromWrist_5y_L,posFromWrist_6y_L,posFromWrist_7y_L,posFromWrist_8y_L,posFromWrist_9y_L,posFromWrist_10y_L,posFromWrist_11y_L,posFromWrist_12y_L,posFromWrist_13y_L,posFromWrist_14y_L,posFromWrist_15y_L,posFromWrist_16y_L,posFromWrist_17y_L,posFromWrist_18y_L,posFromWrist_19y_L,posFromWrist_20y_L,posFromWrist_1x_R,posFromWrist_2x_R,posFromWrist_3x_R,posFromWrist_4x_R,posFromWrist_5x_R,posFromWrist_6x_R,posFromWrist_7x_R,posFromWrist_8x_R,posFromWrist_9x_R,posFromWrist_10x_R,posFromWrist_11x_R,posFromWrist_12x_R,posFromWrist_13x_R,posFromWrist_14x_R,posFromWrist_15x_R,posFromWrist_16x_R,posFromWrist_17x_R,posFromWrist_18x_R,posFromWrist_19x_R,posFromWrist_20x_R,posFromWrist_1y_R,posFromWrist_2y_R,posFromWrist_3y_R,posFromWrist_4y_R,posFromWrist_5y_R,posFromWrist_6y_R,posFromWrist_7y_R,posFromWrist_8y_R,posFromWrist_9y_R,posFromWrist_10y_R,posFromWrist_11y_R,posFromWrist_12y_R,posFromWrist_13y_R,posFromWrist_14y_R,posFromWrist_15y_R,posFromWrist_16y_R,posFromWrist_17y_R,posFromWrist_18y_R,posFromWrist_19y_R,posFromWrist_20y_R,posFromBody_0x_L,posFromBody_0y_L,posFromBody_0x_R,posFromBody_0y_R
2,-26.835308,9.73452,2.133408,0.843572,17.661495,31.751461,38.859272,40.897694,15.121136,44.985523,65.605488,75.005322,2.784233,37.366734,61.863384,79.184589,-7.720299,19.649792,42.982578,57.93932,-15.359917,-16.140347,-12.712784,-9.190922,-20.402954,-19.168995,-6.324971,4.101154,-5.019135,16.867063,23.496217,24.27878,14.503875,36.016051,40.335678,37.703567,31.392613,48.049107,51.003864,50.817131,46.112676,59.917289,66.967704,72.151219,25.531597,48.904209,70.248241,89.056377,48.1707,79.559612,96.337337,108.196621,37.871933,72.699108,92.163448,104.132366,27.926159,59.569187,77.76701,89.244175,19.29285,42.214622,57.433262,69.143429,-12.59165,-12.917198,-6.009674,-1.712092,16.115746,32.161714,38.322614,41.962986,33.406788,49.077004,53.84179,54.663564,45.403349,62.625107,66.562745,66.196318,52.146062,69.013187,72.739392,71.401507,-35.567465,306.710622,-63.6444,296.889034
3,-5.524578,1.924575,0.000401,0.33549,17.694855,37.102947,49.468117,54.533844,19.937382,49.950943,69.71489,79.46949,8.582497,42.094803,65.661964,83.818016,-1.784191,25.94244,48.937798,62.288246,-8.881931,-11.615582,-11.623535,-12.446537,-23.888147,-26.697605,-20.653599,-15.021899,-7.262528,13.705998,20.481562,20.747459,14.193456,36.852337,39.331616,33.986501,31.376434,49.483569,50.827073,48.270606,44.930897,58.721184,65.651927,69.90159,25.214882,48.867245,70.307808,89.414749,48.327198,79.178352,95.763245,107.599182,37.953758,72.439156,91.967239,104.036865,28.102169,59.778442,78.320618,90.266075,19.444141,42.957802,58.411789,70.641518,-13.94948,-13.940094,-6.386104,-1.504611,14.479669,31.190627,37.831513,41.740932,32.260144,48.312843,53.237685,54.072057,44.740891,62.272141,66.233924,65.843785,51.906779,69.058264,72.502579,71.03329,-40.934629,308.683224,-63.486586,297.27255
4,-2.323666,0.623679,0.178699,-0.002038,17.904682,38.224869,50.873623,55.98959,22.44112,53.756046,72.842731,82.329769,11.185226,45.811672,68.631649,86.212292,0.709591,29.78302,52.062206,64.746838,-6.74715,-7.418346,-7.020321,-7.621593,-24.232344,-28.33078,-24.368009,-20.976121,-7.113647,13.669812,19.951867,19.483305,14.934522,37.268967,38.597898,32.553397,32.165913,49.498574,49.997333,46.85399,45.380563,59.158624,65.166321,68.251372,24.370022,48.107815,69.621449,88.819714,48.275471,79.224415,95.714893,107.649136,37.893791,72.253704,91.713352,103.739376,27.77092,59.32085,77.734737,89.775295,18.876743,42.19986,57.206669,69.208546,-14.373643,-14.232914,-6.497996,-1.622369,15.153242,31.633625,38.130756,41.919329,32.929704,48.776712,53.769603,54.570692,44.999501,62.590959,66.418681,65.702809,51.612723,68.923587,72.512027,71.06682,-43.113756,309.375847,-63.163347,297.339457
5,10.275249,-1.603226,-0.170803,-0.236998,17.113781,31.407394,37.618904,37.890244,12.55846,43.530579,63.347511,72.145844,0.351391,35.105896,58.604736,76.1689,-10.236168,18.487473,41.651802,55.260086,-17.533207,-20.132732,-19.382172,-19.21051,-22.763734,-24.097851,-16.683047,-11.604693,-3.59196,17.116473,23.369443,23.563093,16.412889,38.54047,40.848206,36.125473,32.307075,50.239456,51.297055,49.50475,44.888968,59.442614,67.541427,73.468355,24.737034,48.67424,70.35965,89.935341,48.404732,79.213829,95.758896,107.69165,37.995586,72.337875,91.940231,104.090767,27.94035,59.464645,77.866631,89.82811,19.149113,42.075233,57.123241,69.299812,-13.955902,-13.895819,-6.233889,-1.003197,15.057529,31.786519,38.520895,42.460942,32.899199,48.912625,53.897921,54.542719,45.135599,62.706247,66.61054,65.757149,51.953709,69.677251,73.168372,71.282391,-32.712564,307.78985,-63.208208,297.119687
6,4.818764,-0.031863,-0.520363,-0.1164,15.136986,28.252602,34.010124,33.787079,7.208691,38.485222,57.991791,66.584473,-4.240036,30.776024,53.598289,70.426483,-13.655491,16.052227,38.917694,51.46637,-19.401913,-22.554703,-23.261833,-24.955387,-23.579889,-26.303761,-21.387379,-18.558469,-2.565359,18.185311,23.259466,22.373533,18.023649,40.112203,41.604525,36.255458,33.954637,52.037566,52.161252,49.271333,46.233027,60.446737,68.017647,73.290761,24.884548,48.955421,70.899467,90.611229,48.62566,79.705925,96.417732,108.459778,38.236942,72.858582,92.657776,104.878922,28.184166,60.050583,78.694611,90.832214,19.358711,42.561436,57.714787,69.983139,-13.871736,-13.899462,-6.271989,-0.928109,14.675418,31.599971,38.385044,42.254881,32.556114,48.858778,53.799429,54.19,44.930094,62.79949,66.627954,65.508233,51.840953,69.860958,73.441556,71.547671,-27.742882,307.804531,-63.577652,297.049832
7,17.436962,-1.673313,-0.695343,-0.217855,10.655766,16.136112,15.362949,10.417156,-12.040329,16.697674,37.702274,47.68404,-24.381695,9.17387,33.153362,51.155834,-32.001858,-4.661236,19.601498,33.450794,-34.85384,-41.490097,-42.981434,-44.996052,-21.631169,-23.566983,-18.662086,-15.933459,1.602238,21.590661,26.641968,26.55984,21.148219,41.967309,44.111592,39.598625,35.895082,53.732491,54.140415,51.724862,47.522747,60.864541,68.932911,75.044411,25.120583,49.305325,71.461601,91.407394,49.27763,79.987221,96.607704,108.774948,39.162025,73.163452,92.596893,104.779701,29.240456,60.619812,79.021225,91.238022,20.401669,43.367329,58.38295,70.76683,-13.566627,-13.705813,-6.310213,-0.999554,15.327564,32.026542,38.649521,42.451494,33.063147,49.16716,54.279724,54.892164,45.196362,62.901069,66.896568,66.027122,51.977483,69.838975,73.550175,71.996843,-10.204268,306.176049,-64.171343,296.876807
8,4.799366,-4.258679,-0.346184,-0.323016,-8.4688,-12.638512,-15.968914,-25.12785,-24.074821,0.896645,25.602264,43.225937,-28.503227,2.056732,29.333839,46.945724,-29.39043,-5.236931,20.568123,37.447472,-27.043934,-31.941376,-29.478607,-25.202694,2.782968,16.10741,34.362067,49.750948,23.893766,38.273338,42.045238,43.629692,31.731993,44.285049,47.609074,46.85646,37.8522,50.56698,52.492728,52.407575,43.331499,57.810859,65.35429,70.097833,25.399475,49.635315,71.662102,91.467018,49.848576,80.549011,97.118912,109.205475,39.253407,73.232231,92.675171,104.823647,28.867493,60.074043,78.511505,90.763206,19.619637,42.41003,57.237797,69.350166,-13.452698,-13.695006,-6.109771,-0.445097,14.96441,32.607552,39.337976,43.132231,32.741921,49.865681,55.378449,56.258269,45.02593,63.585572,67.902606,67.204517,52.034602,70.310995,74.216215,72.660104,-5.327682,301.943274,-64.440308,296.579695
9,-27.248268,5.748531,-0.366955,0.216435,15.510292,30.933266,39.493904,41.165199,12.041073,42.068825,61.504898,70.412292,0.977783,35.22789,57.725601,74.304199,-8.768921,19.997864,42.306061,54.444809,-15.117474,-17.21426,-17.541618,-19.090462,-23.234395,-25.043991,-18.33592,-12.940725,-1.764456,18.12918,22.548348,21.372559,18.373218,40.289056,41.254153,35.866368,34.142297,51.871828,52.051892,49.563598,46.465518,60.668854,67.353212,71.830796,25.533314,49.936638,72.119236,92.044086,49.649677,81.06554,97.793598,109.854755,39.197903,73.966656,93.532619,105.534267,29.16441,61.20163,79.699116,91.790943,20.370655,43.780518,58.870525,71.262417,-13.21817,-13.563972,-6.136756,-0.039088,14.685977,32.157268,38.947405,42.745179,32.822937,49.656964,54.969352,55.634157,45.336041,63.69592,67.660359,66.60912,52.451911,70.610546,74.403874,72.871352,-32.49341,307.70891,-64.724722,296.813235
10,-6.281719,-0.104296,-0.384235,0.103123,17.821999,33.765392,40.678997,41.21973,19.959526,50.169697,68.545704,76.784534,7.941113,43.906803,65.933132,80.923634,-3.432484,26.751308,48.593616,60.66679,-12.426739,-9.294605,-6.161156,-4.336052,-20.956546,-20.172069,-8.421459,0.668819,-0.804114,18.738965,22.767624,21.512115,17.673524,39.059976,39.85032,35.0307,32.377717,50.219881,50.394079,48.381695,44.262572,60.612599,66.633758,70.463642,25.817299,50.161457,72.334442,92.195778,50.213184,81.434326,98.001022,109.985161,39.791107,74.276276,93.635216,105.598984,29.666004,61.423473,79.701462,91.651726,20.667057,43.757057,58.780918,71.093903,-13.007292,-13.44467,-6.253279,-0.274481,15.053392,31.806773,38.554364,42.473971,33.117116,49.443246,54.708025,55.4247,45.57236,63.57421,67.534511,66.505749,52.72985,70.785979,74.46686,72.717409,-38.707151,307.581288,-65.040979,296.893032
11,2.5173,0.691543,-0.455017,-0.119672,16.528072,33.829193,43.818512,45.662613,16.241341,46.162491,65.467873,74.821815,5.025387,39.755974,62.146225,78.686714,-5.053368,24.134617,45.873985,57.564468,-12.036667,-13.124256,-13.888836,-15.911865,-23.373519,-26.606524,-22.147465,-19.181407,-1.844547,17.652837,22.273744,21.264742,18.818747,40.683827,41.134049,35.196809,34.600485,52.586898,51.846263,48.739724,46.487748,61.374846,66.997591,69.848608,26.185169,50.618248,73.124428,93.132935,50.82098,81.80191,98.434868,110.588837,40.432377,74.744453,94.175606,106.445847,30.18877,61.97113,80.311661,92.412643,21.030464,44.506874,59.649467,72.135086,-13.002723,-13.204214,-6.059444,-0.546615,15.38141,31.753297,38.584251,42.651998,33.278038,49.273988,54.636147,55.530231,45.654673,63.538395,67.68864,66.806844,52.780177,70.910098,74.71874,73.193072,-36.1409,308.259523,-65.447044,296.760053
12,-5.500546,0.572797,-0.090809,-0.051994,17.204876,36.498985,47.547054,50.663166,21.962242,52.868671,71.731853,80.69315,10.795441,46.338558,68.398418,84.139309,0.217724,30.152321,51.471004,62.495327,-7.64431,-6.172085,-5.286083,-5.975189,-23.774156,-26.567683,-20.344229,-15.45409,-3.739728,16.173915,20.919372,19.54734,17.357362,39.306854,39.81611,33.775932,33.805572,50.983487,50.387039,47.031584,46.334422,61.321741,66.146794,68.031973,26.291828,50.634327,73.037624,93.00436,50.787735,81.754932,98.372326,110.461407,40.546188,75.00967,94.392529,106.671009,30.385494,62.344437,80.651608,92.710018,21.299858,44.819126,59.995937,72.535572,-12.980369,-13.315488,-5.968116,-0.155241,14.824174,31.677714,38.571901,42.563571,32.762731,48.981477,54.501902,55.461935,45.230448,63.022223,67.268676,66.438997,52.511007,70.626293,74.366268,72.692894,-41.596069,308.822162,-65.492477,296.697901
13,18.912334,-3.606903,1.226807,0.654554,11.486778,23.130684,27.55291,24.627113,0.193119,30.104141,49.340286,58.146858,-10.816669,24.406242,46.33564,62.405663,-18.962574,10.14307,32.25769,43.192749,-22.446098,-27.215595,-30.467491,-35.579166,-22.147279,-25.701015,-22.827707,-21.700639,3.973207,23.78879,27.956326,27.273798,23.768104,45.752239,46.479906,40.627819,38.501814,56.903993,55.650706,52.378799,49.858641,63.048714,69.663789,74.184104,25.587502,49.499359,71.732426,91.333065,50.902348,81.28355,97.624798,109.543362,41.09499,74.954967,94.209995,106.559429,30.952835,62.225933,80.120373,91.891422,21.602955,44.148731,58.642273,70.625896,-13.300606,-13.839873,-6.512198,-0.777067,14.84801,30.759362,37.822436,42.020291,32.674922,48.450608,54.19457,55.349241,45.156903,62.852533,67.144434,66.164393,52.580167,70.666677,74.490201,72.816395,-22.590551,305.23065,-64.172487,297.367847
14,3.74382,1.546786,0.24313,-0.153635,12.417011,21.790009,23.78334,19.480133,-2.562962,26.068382,46.111908,55.496292,-14.530163,19.542618,42.879066,61.056175,-22.852135,5.168381,28.62545,41.795654,-26.654434,-31.902637,-33.942776,-36.906338,-21.957829,-25.604253,-22.262938,-21.405286,0.676291,20.91789,26.352729,26.358349,20.719733,42.791739,44.551564,39.109562,35.905518,54.379698,54.576558,51.871766,47.730598,61.028797,68.307132,72.861658,25.401478,49.43779,71.698265,91.237793,50.537796,81.034584,97.313118,109.285927,40.654564,74.737015,94.104424,106.678734,30.437222,61.671753,79.89624,92.089577,20.983887,43.578644,58.260441,70.55191,-13.62424,-13.62739,-5.809479,-0.573476,15.440999,31.307953,38.079071,42.24463,33.343617,48.701315,54.59286,56.301247,45.648375,62.893042,67.25472,66.726384,52.796911,70.443079,74.378495,73.049379,-18.782845,306.74477,-63.865471,297.181546
15,-14.103355,-8.567437,0.217037,0.254103,12.197456,28.807697,41.159134,44.149704,14.215965,46.296959,67.235641,80.115738,2.451038,36.516495,59.305229,72.767601,-5.600796,19.417133,41.674919,55.454407,-10.648441,-6.403313,2.557068,11.805325,-9.58459,-7.016205,1.673621,12.21948,21.202745,35.415529,39.495625,41.849921,39.307966,48.766215,52.763381,53.350318,51.060798,60.37276,61.292903,60.185904,59.14263,73.455326,77.215864,76.6548,25.60833,49.604988,71.692371,91.206264,50.13834,80.86298,97.091389,108.920689,40.041103,74.291553,93.438435,105.50211,30.038738,61.547985,79.550571,91.294498,20.950699,44.040928,58.829498,70.997715,-13.705504,-13.839749,-5.804106,-0.157031,15.24877,31.288687,38.202572,42.516517,33.317435,48.925716,54.565937,55.85226,45.785769,62.944418,67.158945,66.425536,52.943815,70.274871,73.88974,72.267433,-32.859049,298.21338,-63.621283,297.471695
16,8.486595,7.663226,0.33268,-0.302948,12.486763,25.673332,32.102737,30.617752,2.507915,32.140846,51.886253,61.542778,-8.899441,25.276337,47.970772,65.81131,-17.117157,11.478252,34.015388,46.228867,-20.903893,-25.806885,-29.251099,-34.141674,-22.453067,-27.035998,-25.480319,-25.131491,2.96402,22.859817,27.002714,26.079916,23.458488,45.753968,45.783978,38.774072,38.302546,56.869474,55.597292,51.634274,49.376679,62.688277,69.140331,72.950516,25.534859,49.452839,71.439342,90.842113,49.548683,80.339413,96.662579,108.452168,39.391193,73.70985,92.818508,104.691982,29.398155,61.165867,79.188137,90.80389,20.441322,43.870811,58.861885,71.046696,-13.608185,-13.463628,-5.415264,0.456336,15.673922,31.986775,38.952592,43.224794,33.647738,49.650419,55.251922,56.446113,45.998314,63.487451,67.686047,66.931519,53.013408,70.391518,73.934386,72.29837,-24.351654,305.89033,-63.267803,297.182472
17,-1.981144,-0.464054,-0.293255,0.219214,12.184238,26.852703,35.044155,34.695454,4.22636,33.944721,53.548222,63.238735,-6.861019,26.912899,49.241352,66.441135,-14.983921,13.874474,35.920315,47.34827,-18.630581,-23.280315,-27.545643,-33.532047,-22.271212,-26.617145,-25.219115,-25.427955,2.773829,23.542406,27.548279,26.461287,23.586805,46.826881,46.651695,39.440914,38.4505,57.729163,56.126184,51.801309,49.412309,62.90039,69.014175,72.54988,25.703373,49.821396,72.01355,91.634674,49.899673,80.669861,97.06398,108.970757,39.671288,73.922195,93.079262,104.971275,29.606152,61.291695,79.257317,90.825005,20.543518,43.931808,58.894157,71.078911,-13.650793,-13.692228,-5.612618,0.264539,15.263467,31.584348,38.697131,43.17348,33.299836,49.286524,54.83591,56.045044,45.784596,63.238103,67.465042,66.801225,52.929983,70.457652,73.972239,72.245512,-26.263103,305.41002,-63.491364,297.38543
18,7.896137,-0.042052,-0.049095,-0.088303,10.979748,21.13678,25.184441,21.943932,-3.548012,24.90097,44.706917,54.273148,-15.111637,18.334579,41.045151,58.894501,-22.99593,4.892406,27.586098,39.923859,-26.111584,-32.1591,-36.005058,-41.17487,-22.090222,-26.300488,-24.834595,-25.469266,3.835009,24.062839,28.610757,28.100204,23.956937,46.357022,47.241103,40.810292,38.435,57.514581,56.709355,52.85897,49.447075,62.601765,69.394928,73.70523,25.552998,49.553032,71.793938,91.568298,49.808865,80.484467,97.084007,109.127655,39.672318,74.009857,93.314896,105.400887,29.606495,61.446648,79.461021,91.14109,20.501003,44.071712,59.05838,71.264877,-13.580645,-13.516795,-5.617805,-0.140791,15.758705,31.976463,38.928201,43.229179,33.475516,49.358031,54.872342,56.174597,45.701665,63.175735,67.448431,66.921083,52.760725,70.327668,73.908265,72.294418,-18.276987,305.339964,-63.45048,297.269123
19,-3.913708,0.655975,-0.551319,0.408479,11.825695,23.818302,29.11623,26.133327,0.588341,29.626293,49.034786,58.303127,-10.426826,23.106709,45.163479,61.938686,-18.458805,9.899998,31.833286,43.201618,-21.941929,-26.742611,-30.728416,-36.418076,-22.343337,-26.780907,-25.668164,-26.228302,3.918372,23.686594,27.609041,26.534214,23.840661,46.243587,46.401606,39.580656,38.17781,57.081834,55.798475,51.754626,49.101828,62.281898,68.969838,73.167446,25.471916,49.820938,72.292385,92.143879,50.008221,81.133175,97.720242,109.706898,39.824238,74.733868,94.136066,106.092167,29.764767,62.240238,80.391941,91.948185,20.734119,44.707489,59.966984,72.294903,-13.983196,-14.054209,-6.187947,-0.770028,14.838933,30.926829,38.029917,42.587283,32.961135,48.63623,54.010801,55.300334,45.532469,62.733417,66.801225,66.251708,52.752142,70.152482,73.537886,71.795166,-22.154932,305.995259,-63.966036,297.676923
20,-11.334629,0.532721,0.385094,-0.483197,13.94474,31.060524,40.100441,40.206299,13.982277,45.363235,62.036018,68.458786,3.754349,38.943329,57.741165,70.629044,-5.627918,24.528294,43.293686,51.254425,-11.206284,-14.133053,-19.530945,-27.242317,-22.726189,-27.318629,-26.470364,-27.339995,2.415861,23.471764,26.577316,24.324475,23.08817,47.550472,46.445511,38.779444,37.817249,58.165862,55.313364,50.322325,48.982773,62.783682,68.220867,71.721128,25.278625,49.416733,71.969433,91.691723,49.833527,81.135693,97.861576,109.683208,39.820232,75.062084,94.472179,106.28809,29.839153,62.813816,80.908413,92.288189,20.827045,45.147285,60.403976,72.713528,-13.828511,-13.708097,-5.675419,-0.133072,15.132,31.452572,38.620251,43.103146,33.022083,48.688347,54.196237,55.602109,45.452441,62.603247,66.725149,66.309136,52.548242,70.120433,73.657373,72.20099,-33.475571,306.528042,-63.566952,297.193788
21,6.741714,-2.657429,-0.085831,0.431759,11.023693,25.934944,34.287071,33.523521,5.079174,35.070534,53.022766,61.059952,-5.232983,28.961678,49.624786,64.18705,-13.519478,16.278534,36.928482,46.33152,-17.297974,-21.463966,-26.916962,-34.456501,-22.111402,-26.182422,-25.328228,-26.071827,4.669998,26.768433,30.12994,28.286937,25.371762,50.802126,49.972138,42.437847,39.839143,61.101168,58.568228,53.336548,50.621135,64.790076,70.688167,74.215721,25.527763,49.842625,72.267666,92.137356,49.765892,81.13821,97.789707,109.62038,39.800262,75.113583,94.506969,106.267033,30.094872,63.088245,81.139355,92.501278,21.406689,45.562878,60.723438,73.04781,-14.123307,-14.225998,-6.134718,-0.44522,14.512829,30.873106,38.047393,42.528373,32.613295,48.638577,54.083234,55.252478,45.222544,62.489503,66.455299,65.761533,52.534225,70.12278,73.546346,71.886742,-26.717863,303.853276,-63.636789,297.60821
22,-0.53524,0.064406,-0.28862,-0.462881,12.230644,27.42897,35.894394,36.367836,6.015701,35.904922,53.654366,61.313553,-4.858418,29.679909,49.506683,62.878189,-13.148804,15.911636,34.943161,42.960091,-16.917171,-20.692005,-26.131897,-33.813972,-21.537432,-25.819082,-24.822431,-24.974831,5.847517,28.192151,31.026556,28.799528,26.311048,51.692937,50.665596,43.20522,40.209398,61.561147,58.94719,54.200251,50.32004,64.405494,69.498051,72.795091,25.385742,50.110931,72.634907,92.474041,50.009365,81.417675,98.064823,109.873981,39.81205,75.08131,94.469776,106.234417,29.942493,62.920361,81.061306,92.555752,21.208992,45.432873,60.603333,72.961521,-14.055567,-14.02179,-5.970277,-0.281891,14.390748,31.30363,38.617411,43.109074,32.713392,49.187723,54.816396,55.879245,45.542905,63.101758,67.241073,66.549654,52.987967,70.795612,74.31835,72.614841,-27.235193,303.907416,-63.907499,297.135063
23,0.94471,-0.154129,-0.031357,0.207975,13.183422,28.432045,37.111359,37.463951,5.544205,33.02124,51.82148,61.270638,-5.870876,25.756073,47.692909,63.707314,-14.311237,12.409515,33.335381,43.488693,-18.283997,-22.535248,-26.826782,-33.113308,-21.492601,-25.400847,-24.201098,-24.561844,5.146279,26.06911,29.958521,28.810396,25.365834,49.563227,49.827272,43.296672,39.441779,60.110074,59.150658,55.437606,49.824184,64.021036,69.775063,73.121318,25.764256,50.288372,72.820988,92.989712,50.293636,82.019405,98.740597,110.388851,39.960766,75.697918,95.134106,106.7383,29.938316,63.286343,81.43919,92.647076,21.080132,45.512695,60.781803,72.937145,-13.876676,-14.027532,-6.077414,-0.586258,14.165174,31.028656,38.329469,42.764877,32.482199,48.888172,54.467692,55.599577,45.289975,62.889028,66.890146,66.105916,52.694035,70.422702,73.827125,72.023581,-26.282845,303.71125,-63.931217,297.301002
24,-3.02393,0.734521,-0.082054,-0.52599,13.555298,30.267735,39.996243,40.324345,8.049088,34.969997,54.198132,64.874439,-2.458363,28.233776,50.348797,67.130871,-10.486507,15.370445,35.632954,45.950375,-14.078121,-18.675041,-23.097153,-28.909836,-22.380881,-26.428559,-26.062379,-27.06817,3.182246,23.778787,28.265634,27.205317,23.309237,47.452722,48.535145,42.327376,37.732527,58.664373,58.5983,55.04055,48.579049,62.832835,68.508624,71.32716,25.876179,50.48996,73.011875,92.998524,50.294838,82.191753,98.770809,110.364819,39.803009,75.431614,94.833469,106.429996,29.687347,62.744122,81.056042,92.45985,20.791569,45.133095,60.471382,72.670727,-13.725388,-13.573914,-5.658808,-0.211001,14.58767,31.445842,38.831994,43.400907,32.986761,49.678453,55.470272,56.571652,45.775827,63.702404,67.886056,67.01976,53.121409,71.062127,74.677922,72.83634,-29.305401,304.419296,-64.011898,296.748536
25,12.152996,-1.177951,0.46463,-0.106952,9.892101,20.502548,26.032104,25.181923,-5.179138,21.27388,41.086693,52.032394,-16.411858,14.973621,37.944374,54.503403,-23.275051,2.148514,23.595543,33.597221,-25.270615,-31.426506,-35.684681,-41.742954,-20.009356,-24.290204,-23.827076,-23.99973,9.481961,29.127052,31.912736,30.645927,27.937677,49.834064,49.888405,44.005381,40.612258,60.052708,59.332266,56.468776,49.842895,63.84832,69.719303,73.705724,25.641804,49.89212,72.333126,91.6115,50.503464,81.463566,97.980824,109.547253,40.307693,75.286274,94.137554,105.203419,30.132408,63.146038,80.821438,91.753635,20.894165,45.122108,60.304813,72.651615,-13.198286,-13.394714,-5.825904,0.126403,14.949713,31.762868,39.007612,43.425792,32.703574,49.159009,54.808307,55.948282,45.225508,62.740086,67.071877,66.648022,52.750166,70.334275,74.242335,73.01239,-17.179441,303.143502,-63.574305,296.543741
26,-9.769707,0.635844,0.594349,0.266144,11.607399,26.393852,34.306183,33.592644,4.748955,33.558197,51.809006,60.479393,-5.936108,27.61013,48.649635,62.38781,-13.399372,15.509205,35.31601,43.208084,-16.418724,-19.134407,-23.494377,-30.141907,-20.803899,-24.46576,-23.72704,-24.118291,6.574134,28.834417,30.875638,28.137995,26.363289,51.279148,49.712725,42.601239,39.867671,61.335017,58.436576,53.973627,49.365008,64.572776,69.167933,72.104598,25.970192,49.992313,72.315216,91.846275,49.977608,80.790367,97.076111,108.527985,39.901428,74.93248,93.862839,105.096474,29.922123,63.191299,80.796318,91.803474,20.863266,45.209999,60.224876,72.243462,-12.867427,-13.324257,-6.196777,-0.462078,14.240942,31.219712,38.398629,42.729433,32.247485,48.760163,54.347587,55.332383,45.139613,62.606149,66.750652,65.97624,52.937517,70.471237,73.986133,72.068165,-26.956329,303.745676,-62.987137,296.776216
27,0.54903,0.906558,0.499935,0.260031,11.41016,25.281315,32.778339,31.748714,3.838005,32.174664,50.613613,59.99239,-6.630535,26.392879,48.006649,62.56525,-14.080925,14.388714,35.212841,44.142323,-17.469578,-20.665798,-24.366074,-30.000286,-21.09073,-24.609886,-23.35981,-22.171547,4.81363,25.183609,28.253222,26.315617,23.79935,47.622844,47.082528,40.443926,37.562776,58.368218,56.443026,52.356878,47.952159,63.259592,68.480404,71.577434,25.270958,49.664383,71.797543,91.093197,49.432812,80.516682,96.788578,107.926311,38.96616,74.211788,93.360958,104.243603,28.64645,62.16917,80.177021,91.104755,19.354019,43.76976,58.959389,70.735645,-13.674937,-14.110957,-6.693004,-0.753108,13.179267,30.770416,37.972922,42.341702,31.58972,49.012475,54.386305,55.000845,44.725329,62.919409,66.706685,65.383374,52.571954,70.408252,73.74191,71.415895,-26.446123,304.62315,-62.526026,297.007162
28,-16.797409,2.383628,0.28616,0.001359,17.237835,37.396545,46.991558,46.907101,25.077839,53.963413,71.234951,79.617863,13.902111,47.722263,69.403896,84.315777,3.376808,32.920246,53.3848,62.432041,-4.543133,-3.167896,-4.089661,-7.552299,-22.671973,-27.157708,-25.75233,-25.221277,-1.925193,17.481295,22.366617,21.049727,18.241627,41.912598,42.481999,35.925402,33.529177,54.374943,53.452392,49.348521,45.197226,62.158459,67.162897,68.786069,25.73061,49.778538,71.6399,91.496658,48.23679,80.658073,97.332458,108.45314,37.411022,74.158058,93.52272,104.392433,27.26675,62.079048,80.426559,91.368599,18.51511,43.593006,59.048595,70.853806,-13.890138,-14.15517,-6.805698,-1.528693,12.457713,30.697365,37.968044,42.347692,30.693722,48.307533,53.763922,54.745754,43.888364,62.134438,65.904177,65.153168,51.715414,69.605064,72.907476,70.791722,-43.351707,306.980487,-62.348042,296.982231
29,33.270779,-6.257478,0.370216,-0.470723,2.587509,3.313751,0.118275,-5.674038,-15.145397,14.397469,35.81646,46.383934,-24.300957,11.201134,37.25338,55.263977,-28.740578,-0.776653,25.312958,40.07206,-29.924126,-35.71003,-35.159454,-35.698242,-13.800847,-8.376258,7.440616,22.403667,8.98135,28.64015,32.617926,32.336468,24.796434,43.854093,46.672999,42.466252,37.529492,52.862613,54.782866,53.645238,49.050267,63.266879,71.360443,76.992266,25.878582,49.480476,71.394997,90.693741,47.544479,79.748497,96.887054,108.866501,37.390366,73.731422,93.393631,105.342979,27.557716,61.686974,80.241737,91.906929,18.80682,43.654118,59.03595,70.679741,-13.17056,-13.902303,-7.474085,-2.525345,11.477981,28.61335,35.567311,39.895212,29.239932,46.782236,52.591961,54.262619,42.362944,60.94,65.262775,64.901968,50.445517,68.30423,71.843332,69.975196,-10.168505,300.703943,-62.065401,296.492442
30,1.997223,4.245403,0.44529,-0.703461,-5.667801,-9.124718,-12.888622,-22.649517,-16.443157,10.274963,32.456589,48.603973,-20.913105,11.988831,36.715279,54.299011,-21.707039,3.824043,28.864403,46.684227,-18.622627,-20.242825,-17.721233,-12.31739,15.470948,31.80492,47.667984,59.699249,22.23373,37.887521,45.363396,51.398017,21.739171,36.29399,43.387754,47.34861,19.769394,35.109123,41.730064,46.312253,17.723171,34.443392,43.57035,51.081979,26.630974,49.934406,71.407356,89.69696,47.334194,77.986107,94.733849,106.656418,37.808304,73.190804,92.76123,105.702553,27.994537,61.701965,80.155563,92.280121,18.909645,44.005737,59.234962,71.2183,-12.861252,-14.861348,-10.003628,-5.873946,8.537859,25.796173,33.405861,38.321071,25.715342,43.725281,51.601114,55.300211,39.054357,57.354894,63.209204,64.547891,48.285611,65.369171,69.654094,68.941371,-8.312302,304.970789,-61.761131,295.810424
31,7.770538,-3.681498,2.613544,-2.307057,9.103661,15.737457,14.45446,10.255051,-13.7463,8.443794,28.205109,39.641762,-28.343639,-0.954781,21.972427,39.227142,-36.703148,-17.14983,5.876656,18.982658,-40.139637,-49.916325,-52.363815,-55.356102,-19.452862,-24.177448,-19.447675,-13.812703,4.559095,24.016896,33.135024,38.589129,22.767624,39.916578,47.434937,46.864796,36.06187,50.519618,55.889989,57.436343,47.432529,59.582355,67.272381,73.279955,28.818913,51.682892,70.722485,88.270855,45.539188,74.458981,90.641384,102.824421,34.836903,67.026043,86.963596,101.101742,24.528065,55.460529,74.309864,87.294788,15.25589,40.692616,55.999432,67.715778,-14.930138,-16.755233,-10.908704,-7.488225,1.874928,21.378734,31.77281,39.943624,19.137996,40.697844,52.141245,59.625766,33.850588,53.358284,62.322468,67.483814,45.120223,61.12593,66.867669,68.543266,-0.815878,301.476256,-59.421701,293.690332
32,14.5681,-1.182335,1.874828,-8.865754,-24.433022,-37.77317,-45.976982,-56.536102,-40.542183,-25.21986,-9.26239,2.637405,-37.414398,-21.339569,-5.598335,2.998466,-32.981186,-22.05534,-7.988205,-1.335983,-26.008129,-29.972591,-26.843033,-24.793911,-1.725554,8.91361,26.277703,41.40501,7.300875,25.387694,36.014816,41.85165,16.079252,36.153199,48.355019,52.701074,24.390363,42.603462,51.293041,54.704443,31.202421,48.661362,57.538231,62.404164,25.061073,50.992355,72.169762,90.732536,45.060368,70.808487,86.41777,100.018616,33.365765,60.953865,80.242538,95.403786,21.933575,47.357883,65.936852,80.297813,11.549435,34.074326,49.36964,62.526512,-14.456018,-14.181291,-8.222623,-7.033372,-2.542203,16.994084,30.451907,42.183127,13.031992,36.515118,52.088016,64.65262,27.487146,49.963308,63.161347,72.352958,39.438506,58.096208,66.70755,71.718102,13.58674,300.660641,-57.712355,285.191298
33,29.092484,-21.063683,0.610428,-17.784489,-44.875603,-75.119934,-90.608826,-93.909245,-72.704659,-88.109951,-92.970257,-94.055672,-54.92054,-70.282288,-76.963234,-80.046043,-37.71492,-51.467113,-57.509651,-62.161446,-21.725006,-32.009125,-37.282562,-41.843605,-3.124139,10.182766,25.834582,37.35443,36.382169,57.095234,63.390194,66.033544,42.52084,63.847826,71.341918,72.637071,46.709308,62.814557,67.722974,68.495162,48.842723,60.472117,65.045723,67.924527,24.938049,49.599209,69.284821,85.283661,46.666775,70.498009,84.713516,94.161644,36.916122,60.332108,76.194649,87.434921,25.415096,44.943008,58.670082,68.497467,13.380775,28.516617,38.772068,47.127056,-8.62116,-5.225443,0.868149,1.283174,6.217649,24.096678,36.392297,47.50663,19.310959,41.931185,56.431293,67.639178,31.152898,55.324479,68.772113,77.765937,40.592621,60.888808,70.795057,76.693271,42.363167,281.189115,-57.417984,268.998966
34,-6.853523,4.126718,-2.561302,-30.850536,-26.809731,-44.53537,-51.57011,-52.57513,-52.067184,-71.157246,-75.688019,-76.076145,-43.545399,-62.529831,-66.022968,-66.831608,-34.270134,-51.626816,-56.532383,-58.110809,-22.999535,-37.799492,-43.067493,-44.257793,-10.599582,-8.364834,-4.106402,1.368513,11.414008,32.711787,42.082782,44.959487,24.343124,45.847581,53.089917,55.059199,34.259499,52.928995,57.38756,58.83252,40.401072,55.076427,58.702288,59.832876,27.864819,54.402037,74.153767,89.535198,66.853552,82.679787,82.758236,78.553219,57.1665,71.366844,69.815025,64.637089,43.312197,54.518223,53.504105,49.736853,27.46562,37.791081,39.603138,38.724432,-4.5494,-0.76092,2.633531,-0.669745,16.153568,46.49701,64.511643,75.837286,23.925011,59.506278,78.362446,89.807792,31.188126,64.67028,83.267898,94.212233,36.614906,62.944942,77.26863,86.299658,35.395002,288.092672,-60.093928,240.925269
35,-5.06218,5.569764,-2.561302,-30.850537,-18.652611,-33.13282,-43.035851,-50.065842,-40.321426,-56.552525,-62.794018,-65.874767,-35.312176,-52.347107,-57.952423,-60.218582,-29.661026,-43.680668,-49.91209,-52.097511,-22.982368,-32.163734,-37.911072,-39.75111,-1.416925,-0.217608,3.393185,7.022936,5.212599,13.980602,16.957219,17.596583,13.50111,23.555991,26.029466,25.079127,20.429445,29.920977,30.941341,29.684967,26.205084,34.75943,35.426397,34.225104,30.791588,59.204865,79.022713,93.786736,87.040329,94.861565,80.802956,62.944794,77.416878,82.401581,63.435402,41.839256,61.209297,64.093437,48.338127,30.976238,41.550465,47.065544,40.434208,30.321808,-0.477639,3.703604,4.398914,-2.622663,26.089487,68.897343,92.63099,104.167943,28.539064,77.081372,100.293599,111.976406,31.223355,74.016082,97.763685,110.658529,32.637192,65.001077,83.742204,95.906047,30.262585,296.388284,-62.725468,212.80058
36,-6.978836,-51.161575,-5.449333,-32.431687,-12.786942,-24.47319,-32.621098,-35.510674,-24.734459,-27.995739,-30.434017,-30.171146,-22.199707,-30.020084,-38.747177,-43.646107,-21.426773,-33.76894,-39.871616,-42.701054,-21.403885,-33.256931,-39.410248,-42.345715,-20.67095,-37.303547,-51.160031,-61.546512,-7.508974,-8.8928,-12.04695,-13.745703,10.421123,16.250732,16.246039,16.649084,25.334403,32.916428,31.529575,29.432655,37.146701,45.906924,48.14377,50.112929,33.823872,62.37093,81.341629,95.570526,69.284821,92.430267,94.786377,91.016121,58.107147,80.478745,81.676941,78.564606,43.51387,63.461151,66.402397,65.937767,26.574097,41.178875,46.756611,50.121288,-7.840388,-8.452767,-9.601078,-14.816579,-4.427752,14.400505,29.426171,37.751485,-1.839607,21.736886,36.336104,46.320466,2.696764,25.783329,39.314141,48.002177,9.961391,26.709832,34.80457,40.240459,23.082333,250.49016,-68.376217,185.632344
37,14.033203,-20.724859,2.48085,-33.86547,-19.560814,-35.717926,-46.07008,-52.278099,-53.185673,-69.515305,-67.026844,-61.030769,-53.291302,-70.125275,-65.684338,-58.219013,-50.71312,-66.11578,-62.632256,-55.521069,-45.714054,-59.228783,-58.80312,-53.752728,7.434997,11.358247,10.139973,7.306741,28.610201,28.976875,22.734464,18.289916,28.852571,28.680843,21.701503,16.184845,26.384963,25.595175,18.905383,14.479978,22.456525,21.371818,17.444677,15.142807,33.988552,58.60857,72.611961,81.179466,65.36087,89.053688,92.836533,89.981003,53.922501,79.260406,81.934662,77.274399,41.295891,62.640724,67.140999,63.984489,28.017197,44.22226,49.714108,50.017319,-0.500055,-2.230425,-3.157607,-2.6042,-17.747254,-22.044341,-12.26252,-3.609312,-17.477404,-13.270966,-0.730199,8.874399,-14.334308,-4.983135,7.708921,16.490201,-7.758754,1.650218,11.539855,17.941953,36.222582,235.280926,-66.788321,157.282498
38,-33.702278,-54.413907,-6.093349,-27.557912,0.779343,4.551544,2.705269,-0.207481,27.093315,34.181213,26.643219,22.499199,19.181213,16.193619,6.061935,2.858047,4.998207,-5.002899,-11.947174,-13.106289,-12.389202,-23.692245,-29.884243,-30.41811,-25.060478,-42.897764,-58.320671,-68.850289,-18.05545,-23.44163,-27.08441,-29.262594,1.901727,-1.277431,-5.739701,-9.680797,19.974962,18.96207,12.954866,6.554559,35.150681,35.919659,32.362094,29.4166,36.225614,61.723423,77.288188,85.688095,65.103349,90.94551,93.854885,89.715728,52.945232,81.271648,84.654979,79.454669,39.85814,64.006061,68.043451,63.311548,26.321554,45.983505,52.214813,51.71957,-0.344953,-6.545405,-11.527088,-16.006478,-27.752302,-32.91351,-20.759963,-11.768316,-30.198468,-26.98124,-12.927973,-3.243764,-28.18809,-19.001898,-5.50877,3.072191,-21.412079,-11.500674,-0.696236,5.901024,1.878519,184.708187,-73.523454,133.565755
39,20.125065,-26.349147,-6.09335,-27.557912,1.683083,3.946667,2.874756,0.740719,-5.536308,-6.708898,-9.195557,-8.536034,-16.574507,-23.954229,-26.583624,-24.603052,-27.261371,-38.85169,-39.242735,-35.802498,-37.889471,-49.286156,-50.286913,-47.248049,-21.081468,-37.392314,-50.193298,-56.067862,-21.446829,-25.466889,-28.339102,-29.899056,-6.01764,-9.546105,-12.5636,-15.187128,8.604395,5.094378,2.046748,-0.619851,21.54336,20.376987,17.690566,16.292105,38.462677,64.838276,81.964417,90.196724,64.845829,92.837334,94.873238,89.450455,51.967964,83.28289,87.375298,81.634941,38.420391,65.371399,68.945904,62.638607,24.625912,47.744751,54.715519,53.421822,-0.189852,-10.860385,-19.896569,-29.408757,-37.757351,-43.782678,-29.257407,-19.927321,-42.919531,-40.691515,-25.125749,-15.361928,-42.041873,-33.020662,-18.726461,-10.345818,-35.065404,-24.651567,-12.932327,-6.139905,21.906567,163.354355,-79.713821,111.003158
40,20.125065,-26.349148,0.661755,-12.712032,2.586823,3.341789,3.044243,1.688919,-38.165932,-47.59901,-45.034332,-39.571266,-52.330227,-64.102077,-59.229183,-52.064152,-59.52095,-72.700481,-66.538296,-58.498707,-63.38974,-74.880066,-70.689583,-64.077988,-17.102456,-31.886863,-42.065924,-43.285433,-24.838208,-27.492148,-29.593792,-30.535517,-13.937006,-17.814778,-19.387499,-20.693458,-2.766171,-8.773313,-8.861369,-7.794261,7.936039,4.834316,3.019039,3.167611,41.224823,66.892891,81.754131,92.544308,65.528297,78.074741,86.356258,90.573177,50.473309,66.898499,73.678265,74.265575,33.456287,49.748669,55.912628,55.343227,15.109005,31.269264,41.057224,45.289764,-5.44086,-16.146436,-27.893742,-42.618405,-42.961275,-53.496543,-52.635156,-48.232598,-47.725689,-52.631204,-40.075585,-26.697945,-49.261607,-50.172086,-36.006511,-23.441228,-46.264088,-47.655479,-36.210318,-25.706913,42.14716,141.037972,-78.936539,102.323891
41,-16.855316,-24.871198,-1.118431,-13.019549,-0.325699,1.512909,3.530044,3.646202,-16.02087,-20.037832,-21.637516,-20.766163,-21.146479,-29.126272,-31.978426,-30.684729,-24.787731,-32.369185,-33.679877,-31.351576,-27.911167,-32.021084,-30.960846,-27.756615,-21.583884,-32.934613,-38.724949,-34.142668,-13.943629,-17.259101,-21.73295,-24.003497,0.1256,-5.377195,-11.28725,-13.976218,10.064607,0.895257,-5.059814,-6.981533,16.273441,8.160101,1.876193,-0.248978,38.639889,62.358513,76.601543,89.393177,54.246254,67.777977,82.216702,95.373402,42.436352,59.33939,75.072842,90.170918,29.847565,48.906498,64.521561,76.982059,17.068462,33.583202,46.673584,56.978416,-9.396282,-23.217414,-34.527187,-44.433312,-50.453298,-61.581031,-62.578423,-58.464148,-54.456886,-66.141422,-63.872897,-55.361406,-54.396154,-62.690006,-58.003397,-48.882305,-49.73832,-54.573995,-50.151122,-43.534781,25.32486,120.037383,-80.021954,93.17495
42,-16.855316,-24.871198,5.1507,-7.902355,-3.23822,-0.315971,4.015846,5.603485,6.124191,7.523346,1.7593,-1.96106,10.03727,5.849533,-4.727669,-9.305305,9.945488,7.962112,-0.821457,-4.204445,7.567406,10.837898,8.767891,8.564758,-26.065312,-33.982363,-35.383974,-24.999901,-3.04905,-7.026055,-13.872107,-17.471476,14.188207,7.060388,-3.187001,-7.258977,22.895386,10.563828,-1.258257,-6.168804,24.610843,11.485885,0.733348,-3.665566,36.739311,58.590031,72.968559,86.00441,44.226437,58.918762,74.331207,90.000343,33.047676,51.511345,68.176918,84.719009,21.763515,43.480282,59.974937,73.400917,10.797672,29.226265,44.702282,58.153896,-17.169208,-33.378846,-45.778791,-55.994131,-60.147032,-66.889405,-67.887014,-64.370945,-62.307586,-68.405655,-69.141257,-64.593926,-60.304927,-64.160438,-63.234552,-56.413417,-54.242581,-58.438954,-55.997435,-49.77642,7.928209,96.623401,-75.412588,86.729812
43,20.844955,5.875583,5.846672,-2.448651,3.442383,5.763817,4.129715,-2.558327,-18.320732,-28.577728,-31.437378,-30.67028,-27.26532,-40.166645,-42.964497,-43.098736,-34.087486,-46.794949,-49.192543,-48.186951,-40.15955,-49.105682,-50.90435,-51.253166,-29.247403,-45.360587,-49.897575,-41.437984,-19.502633,-31.881892,-39.488493,-41.92149,-2.937405,-17.542335,-26.195389,-30.099405,7.444969,-11.576597,-21.576705,-25.7682,12.281292,-2.090653,-12.355516,-16.623273,31.728458,51.652279,65.671234,77.567482,33.961544,51.735306,67.285652,82.010422,23.102646,47.17186,62.625046,76.424332,13.164997,37.939053,55.22049,69.08844,4.609108,24.755402,41.675606,56.4077,-17.740307,-35.015417,-47.508544,-58.601419,-63.486648,-69.135761,-67.641216,-62.394747,-64.736538,-66.881717,-62.561195,-54.19034,-61.255266,-63.967406,-60.567614,-51.809985,-53.539182,-58.919866,-56.685087,-50.61882,28.694487,103.579925,-69.644594,85.362102
44,-3.25676,10.650958,9.540939,3.403034,-6.846657,-13.895988,-16.392288,-16.702309,-61.326942,-59.114513,-40.597115,-27.700996,-62.331848,-57.536888,-38.440704,-25.106735,-57.583637,-47.357368,-31.172562,-21.356735,-50.945721,-43.517818,-31.618309,-24.157333,-21.403959,-36.900441,-42.238579,-36.670451,-36.157583,-64.251427,-72.14489,-69.030816,-32.999142,-67.891305,-74.928413,-71.901964,-30.86829,-61.433756,-68.332944,-64.735828,-29.708741,-52.841032,-61.185797,-60.927649,28.022404,45.732479,60.412445,72.328033,30.728188,45.125198,57.112083,63.552818,19.248562,36.853523,48.321075,53.724518,7.723675,25.664577,38.66518,45.146542,-2.858677,12.905617,28.109093,38.046741,-19.109375,-34.760665,-46.016839,-53.085532,-56.979699,-70.881415,-62.62665,-51.676728,-56.179321,-65.111857,-53.420992,-40.219958,-51.865807,-60.008248,-49.908011,-37.647034,-44.406296,-53.932964,-49.030383,-40.442753,24.909296,113.702516,-60.632086,88.236769
45,-12.548217,11.497618,17.568283,27.359107,-17.998152,-31.494427,-36.848545,-34.568482,-50.705681,-52.208033,-37.570381,-26.557188,-40.936432,-39.543686,-24.814625,-14.264832,-28.990603,-22.115193,-11.275692,-5.167866,-17.168513,-9.62039,-2.433529,1.061668,-7.670836,-17.143442,-19.653581,-16.804803,-35.69569,-57.167342,-52.911627,-43.423599,-37.419561,-64.525691,-58.031601,-47.818947,-36.431369,-59.793356,-53.616416,-43.673411,-33.32503,-51.567429,-49.898115,-43.328319,-8.314362,-4.871178,1.394348,8.226585,38.96759,54.5644,50.299072,40.863075,49.120445,65.349541,56.311111,44.80854,54.045296,63.447762,49.71302,35.8251,55.275993,65.881004,57.255363,46.807137,-25.146898,-45.989144,-57.063587,-58.869848,-42.761759,-52.197438,-52.476612,-49.691915,-27.801919,-38.997299,-39.456414,-35.737897,-12.519989,-22.12119,-22.934937,-19.431928,2.454363,-4.856577,-8.12231,-10.07106,11.780119,124.658891,-43.644762,115.054633
46,-12.548218,11.497618,-1.547413,0.915573,-29.149647,-49.092865,-57.304802,-52.434654,-40.084419,-45.301552,-34.543648,-25.41338,-19.541016,-21.550484,-11.188545,-3.422928,-0.397568,3.126984,8.621178,11.021004,16.608696,24.277039,26.751251,26.28067,6.062285,2.613555,2.931416,3.060844,-35.233797,-50.083258,-33.678366,-17.816383,-41.83998,-61.160078,-41.13479,-23.735932,-41.994448,-58.152956,-38.899888,-22.610994,-36.941319,-50.293827,-38.610433,-25.728988,29.473171,51.095409,58.929119,57.570362,43.956127,59.349003,64.479275,66.941128,28.841228,43.02206,50.421009,52.454624,13.137074,26.67881,35.861549,37.355003,-1.257362,8.830833,17.161674,18.478546,-4.477769,-14.719353,-29.42367,-41.537434,-21.108452,-29.160984,-19.727466,-8.31037,-24.464803,-34.221368,-25.182127,-14.989264,-26.917622,-35.309812,-24.833391,-13.720972,-27.523147,-34.024693,-24.963932,-15.322253,-1.57897,135.695373,-46.003046,115.50907
47,-18.318615,17.115176,1.397924,14.712869,11.671886,23.605671,33.884296,34.657345,3.878345,7.461376,13.208599,16.914654,-5.267773,-3.508701,4.045315,6.593628,-12.713413,-10.248585,-2.863998,-0.717316,-18.525009,-12.430744,-7.304993,-6.826344,-2.818968,-16.448519,-22.894367,-23.592579,-44.792483,-51.812671,-33.583548,-19.144295,-43.76934,-53.69047,-30.472717,-15.035052,-36.142393,-46.390985,-25.332088,-12.597146,-25.686566,-27.790588,-14.442989,-6.303945,20.365334,40.844908,53.439074,56.453734,50.567808,62.269564,61.853228,59.680739,46.038752,56.270399,56.358004,53.303976,38.322573,47.320862,48.30288,45.412731,29.132252,36.01038,37.211838,34.705181,-16.912866,-26.184397,-34.769125,-45.828099,-18.915587,-21.708913,-16.251411,-9.466153,-10.721106,-14.742972,-11.871393,-7.452348,-3.604232,-7.351741,-4.135641,1.048831,3.135362,-0.176359,1.853809,5.496883,-20.872736,152.448089,-45.580273,129.85948
48,15.832844,-0.677958,1.397925,14.71287,-14.472027,-18.704224,-12.492714,-2.891693,-44.905758,-26.235409,-5.395603,10.052147,-38.421135,-19.941788,1.297417,17.059708,-27.717247,-8.753014,9.897423,22.385559,-15.721779,-2.683067,10.940666,20.076485,11.983594,10.977494,5.224085,-3.961505,-19.27607,-20.843728,-11.067835,-0.832643,-30.660562,-32.980926,-17.139166,-3.206668,-36.385936,-37.678681,-22.029614,-8.15936,-37.542027,-38.849345,-28.01715,-17.794122,11.257496,30.594406,47.949028,55.337105,57.179489,65.190125,59.22718,52.420349,63.236275,69.518738,62.294998,54.153328,63.508072,67.962914,60.744209,53.470459,59.521866,63.189926,57.262001,50.931816,-29.347964,-37.649442,-40.114581,-50.118765,-16.722722,-14.256842,-12.775357,-10.621935,3.02259,4.735423,1.43934,0.084567,19.709157,20.606329,16.562109,15.818634,33.79387,33.671975,28.67155,26.316019,-6.124563,151.526928,-45.267019,144.329145
49,-33.684311,-19.23584,-0.337859,-10.279175,11.04784,25.793953,44.847336,59.429283,6.169281,28.110294,45.532379,57.425766,7.407703,27.348919,46.256218,57.093773,9.178162,32.49733,47.979012,56.134415,11.926231,29.737186,41.868095,48.759842,10.609863,16.516043,21.212532,20.572983,-5.973303,-2.319191,7.79883,18.216464,-11.48289,-8.878845,5.648218,18.317982,-12.443758,-9.827949,4.771979,18.159345,-9.423175,-8.548171,-0.279359,8.799156,13.398085,34.096899,51.209422,56.86286,60.120993,71.109038,62.714797,55.571681,63.478747,72.149306,62.583132,54.672747,61.580744,66.808577,58.40621,51.980639,55.993968,60.503569,53.878413,49.107371,-28.274309,-37.325329,-38.707705,-44.306214,-18.676952,-13.215329,-11.150333,-9.033699,0.43355,5.728802,3.113456,1.98682,17.305492,21.661412,16.696679,14.48515,31.680941,34.503089,28.583355,24.517971,-40.903044,132.458292,-46.699048,134.217175
50,35.289803,3.655377,-0.337858,-10.279174,-7.780323,-8.837757,-3.760414,3.093796,-26.71011,-16.668434,-1.624603,10.581779,-23.718967,-12.98584,3.098145,15.312538,-19.47258,-5.807476,7.908897,18.188782,-14.969215,-5.619564,4.131317,11.464577,0.749588,-3.386084,-4.969889,-5.175271,-29.518673,-35.201749,-24.587378,-12.327111,-31.244782,-42.072995,-28.243897,-14.194876,-29.207049,-38.324436,-23.14671,-7.277718,-23.282499,-27.156627,-16.53781,-4.968222,15.538673,37.599392,54.469814,58.388615,63.062496,77.02795,66.202412,58.723011,63.721218,74.779873,62.871265,55.192165,59.653416,65.65424,56.068211,50.490818,52.466068,57.817211,50.494823,47.282925,-27.200655,-37.001217,-37.30083,-38.493663,-20.631183,-12.173816,-9.52531,-7.445463,-2.155491,6.722181,4.787571,3.889072,14.901826,22.716495,16.831248,13.151664,29.568012,35.334203,28.49516,22.719922,-6.301088,136.40348,-47.724752,124.227812
51,12.978516,-7.250733,-1.650839,-3.336066,5.683937,7.922173,6.321831,6.103706,-25.909023,-24.375,-10.337448,-0.948486,-37.964287,-33.579311,-17.272911,-6.796417,-46.039124,-40.177288,-25.778618,-15.121422,-50.992756,-50.462723,-41.442261,-32.96299,-11.841753,-24.117519,-28.885669,-28.816633,-45.534414,-54.476985,-43.596038,-30.457928,-41.833774,-51.823323,-40.086299,-26.200916,-33.822522,-38.898314,-26.910521,-13.180749,-22.08735,-26.372551,-19.567254,-9.6234,8.691674,27.834263,47.709361,58.369589,57.622748,73.251658,61.600428,53.858271,63.963862,77.6225,65.281249,55.895491,64.473753,74.846392,64.637518,57.111941,60.95172,70.530825,62.553149,56.458197,-32.952212,-48.83607,-51.348262,-51.691223,-28.508591,-35.92588,-34.839011,-29.260155,-9.98762,-19.426633,-22.311829,-18.87883,5.852982,-3.34309,-8.367073,-7.333047,19.022832,11.716338,6.137898,5.016573,6.476297,130.587919,-49.576722,122.326918
52,6.677284,-14.929304,-1.650838,-3.336066,5.11116,2.574234,1.075172,-1.248779,-44.720821,-28.017254,-4.516983,10.681114,-56.716576,-40.66864,-15.551033,1.91597,-60.431442,-41.616611,-18.773232,-3.116684,-57.907219,-45.87925,-30.017738,-18.71624,-21.714224,-37.386386,-41.728242,-41.257025,-50.410165,-56.132267,-46.76686,-35.118324,-39.143061,-45.742173,-39.544346,-30.61817,-25.807689,-29.321782,-25.724295,-19.960481,-12.143219,-20.26525,-21.179928,-19.586922,1.844673,18.069134,40.948906,58.350563,52.182999,69.475365,56.998444,48.99353,64.206505,80.465126,67.691231,56.598816,69.29409,84.038544,73.206825,63.733063,69.43737,83.244438,74.611473,65.633469,-38.703769,-60.670922,-65.395693,-64.888784,-36.385998,-59.677945,-60.152713,-51.074846,-17.819749,-45.575447,-49.411229,-41.646732,-3.195862,-29.402675,-33.565394,-27.817758,8.477652,-11.901527,-16.219363,-12.686777,13.445063,116.844516,-50.936079,120.176753
53,2.963505,12.120834,11.410618,-15.178961,7.975273,9.996986,10.494347,8.83049,-38.830662,-29.400702,-11.308422,1.079578,-51.957579,-40.032206,-19.123249,-4.945278,-56.365528,-42.741909,-23.621693,-10.514259,-55.203896,-45.744324,-32.729273,-22.849159,-16.534229,-30.856789,-39.050544,-43.230044,-38.962859,-56.450112,-59.405734,-56.268844,-35.467013,-55.88613,-60.943072,-58.97311,-30.754546,-49.075199,-54.112365,-53.216984,-25.449506,-41.851589,-48.124752,-49.236969,2.086086,14.286747,27.047596,40.677166,34.995975,47.477818,51.692104,49.603672,36.87418,53.521786,62.320232,63.420925,35.53442,49.116726,56.769047,59.552708,31.564808,43.64336,51.845112,56.755085,-29.541768,-46.211477,-54.262557,-58.663787,-19.99219,-19.056733,-28.727187,-38.268274,0.654246,8.261804,-5.061064,-16.854374,15.850405,21.387008,9.807849,-0.184109,26.063799,30.278419,20.549086,10.123795,16.76259,129.956722,-39.171438,105.989164
54,2.963505,12.120834,29.574337,-3.347552,10.839386,17.419739,19.913521,18.90976,-32.940502,-30.784149,-18.099861,-8.521957,-47.198582,-39.395771,-22.695465,-11.806526,-52.299614,-43.867207,-28.470154,-17.911835,-52.500572,-45.609398,-35.440807,-26.982079,-11.354234,-24.327192,-36.372845,-45.203061,-27.515551,-56.767956,-72.044607,-77.419363,-31.790965,-66.030086,-82.341797,-87.32805,-35.701402,-68.828615,-82.500434,-86.473486,-38.755794,-63.437927,-75.069574,-78.887016,2.434731,4.816132,14.074745,27.162094,-31.610813,-35.967007,-30.392475,-23.043709,-28.110123,-15.940819,11.290855,32.960129,-15.532665,1.316185,28.54351,51.176033,-0.573578,18.019753,36.79985,52.670975,-30.271781,-44.677504,-50.185671,-51.636312,-21.305158,-22.006303,-32.072948,-40.080309,0.168115,10.376941,4.01072,-4.719553,15.37258,26.225153,21.985154,15.311385,25.525027,35.714061,33.025942,26.498522,19.756994,142.181667,-9.566202,102.745723
55,-7.163658,-0.213101,-43.928719,2.267691,1.848964,5.42015,11.890697,15.698719,-42.801791,-42.306662,-23.743,-9.729481,-45.391646,-41.790505,-19.758196,-5.975876,-40.258055,-32.437878,-13.320008,-1.538201,-31.462555,-22.534962,-10.647612,-3.040066,-7.036398,-16.474408,-25.388404,-32.551467,-30.709792,-60.824526,-69.487029,-69.027636,-36.66704,-72.816765,-79.514709,-76.949674,-39.836364,-69.533619,-75.45695,-72.805218,-40.247236,-61.490813,-67.721167,-66.643299,33.708687,60.407295,80.684509,90.395966,49.824486,65.94944,72.298851,73.326988,34.160042,52.6894,60.707016,63.71418,17.045918,38.142872,46.947098,49.958267,-0.927544,20.455284,37.157192,47.947311,-1.317599,-1.098231,3.975337,3.421035,-48.183476,-62.065833,-52.599804,-40.680585,-54.10497,-64.80363,-53.714522,-42.411572,-54.256505,-60.069751,-49.743847,-40.505244,-49.683517,-54.840201,-50.287251,-44.584662,12.396784,141.866508,-53.691473,104.911356
56,-7.163658,-0.213101,-1.053829,10.319605,-7.141457,-6.579437,3.867874,12.487679,-52.663078,-53.829174,-29.386139,-10.937004,-43.584709,-44.185238,-16.820927,-0.145226,-28.216496,-21.008549,1.830139,14.835434,-10.424538,0.539474,14.145584,20.901947,-2.718562,-8.621623,-14.403963,-19.899873,-33.904033,-64.881096,-66.92945,-60.63591,-41.543115,-79.603444,-76.687621,-66.571298,-43.971326,-70.238624,-68.413467,-59.136949,-41.738678,-59.543699,-60.37276,-54.399581,32.346039,54.82481,69.609432,75.602245,45.472927,62.358913,69.364986,70.639744,30.244389,51.922474,59.063129,60.848866,14.538002,36.79533,45.216465,48.038349,0.062256,20.894852,37.104149,48.87537,-7.65594,-17.655091,-23.173509,-26.272423,-54.888521,-66.346433,-50.77477,-37.873998,-57.036015,-63.716607,-48.187521,-35.607541,-53.833762,-55.145773,-40.258613,-28.263164,-45.8126,-50.005638,-43.188053,-35.562309,5.117054,141.532068,-54.861374,115.109622
57,-37.637043,-29.321535,12.439499,11.539145,20.3722,35.956135,49.041309,55.663204,-3.063812,24.636211,46.381474,60.885601,-15.419941,18.522377,44.046764,59.099865,-18.352375,15.992432,41.300411,55.755558,-14.069595,12.466106,32.06377,44.617367,-17.919074,-22.152621,-9.52886,9.154653,-32.526721,-18.446793,-1.149021,11.233172,-14.531663,6.686396,22.792571,33.864389,4.979183,28.894654,37.877734,40.756476,23.417393,41.028425,46.683466,46.562435,-2.870235,8.453693,27.94075,44.026508,28.665676,33.900318,33.185406,33.825474,43.1777,48.056316,46.393032,44.018154,50.431423,51.420994,42.845249,36.900501,52.002926,51.222782,42.300053,37.175961,-21.361938,-28.112616,-22.870809,-17.947418,-27.687804,-15.060431,-10.60622,-9.099325,-13.739343,-2.198778,2.388907,5.548614,0.079102,11.260404,10.653984,8.483951,11.996932,20.854071,17.447888,12.216208,-33.368053,110.770127,-43.269939,125.208362
58,3.181572,29.307178,-6.072121,-0.770398,19.813671,34.186649,41.709538,45.913525,13.033848,30.470638,40.567875,48.916912,-1.665802,17.904282,32.295399,43.444118,-14.294643,1.405678,17.08786,28.774281,-24.193039,-15.774994,-3.757954,6.148624,-7.928043,-19.374223,-31.45109,-38.373003,-34.036086,-33.908294,-22.606579,-12.626817,-32.443172,-29.945523,-16.227947,-4.733076,-25.364507,-23.506653,-10.168379,-0.974298,-15.328737,-14.552781,-5.402358,1.808268,20.341072,37.923603,49.949398,58.104801,33.012199,49.818592,60.405293,67.546291,25.944843,42.955341,55.496235,62.838306,17.885056,34.783401,46.648121,53.489857,10.449543,24.200878,33.935051,40.132656,-13.226938,-16.900347,-18.470567,-22.14271,-15.294589,-11.267505,-6.379404,-2.898101,-9.458002,-4.975817,1.460181,7.493382,-2.302889,3.302505,9.977415,14.727998,6.311973,12.294723,17.495559,21.272523,-31.032343,139.186803,-50.187922,123.547461
59,18.865643,19.066335,-3.644829,0.444665,-7.196217,-5.047417,9.78447,24.033279,-34.942875,-17.845802,0.295258,13.777199,-26.783352,-8.862534,8.95443,18.727798,-14.955368,5.849648,18.431168,24.970436,-1.624775,13.720551,21.921387,25.704575,12.187988,17.929603,18.671163,13.860744,-17.388576,-24.704426,-13.844905,-0.878276,-30.361134,-38.521111,-20.639766,-4.735886,-36.00438,-41.409332,-22.04922,-5.066436,-35.328646,-36.868979,-22.089357,-7.74131,19.0979,37.99593,51.483021,60.878849,34.355679,52.913074,64.990826,73.941593,25.550652,44.015293,58.704815,70.61079,15.210571,32.496872,47.94302,60.560474,5.719757,18.430309,29.028625,38.384228,-10.327602,-12.365396,-13.05413,-14.001844,-13.759196,-5.440211,4.005873,11.858642,-6.643356,3.856344,13.854847,21.862363,1.317569,11.522473,21.441163,28.60523,9.959323,18.394892,25.811024,31.217643,-13.01033,157.172953,-54.67638,122.911941
60,4.996262,9.273615,17.442455,30.476638,-1.188812,2.468262,8.054237,13.022804,-26.877193,-8.212051,6.391296,14.285545,-26.71526,-8.904991,7.926865,15.853844,-22.598934,-7.43906,7.495537,15.403633,-15.904369,-2.62207,8.631821,15.333939,3.255049,-3.428692,-12.314452,-22.89165,-35.27693,-36.776014,-26.412071,-16.400909,-42.376838,-43.292751,-29.175433,-17.890144,-43.613822,-43.803025,-29.337775,-18.073543,-39.967244,-40.173676,-30.792831,-22.503734,10.926018,26.765556,38.891144,40.677681,27.416382,36.415901,36.644096,35.70488,32.84626,42.750664,43.806496,39.059601,35.944061,45.771446,46.620827,42.734756,37.182312,46.761017,46.938286,43.267937,-25.041212,-36.87324,-39.802556,-43.434005,-23.172861,-17.48182,-14.179191,-9.702564,-4.000408,-1.112248,-1.862145,1.321706,12.491614,12.957151,10.439895,11.547018,26.532361,24.854479,21.257826,21.413376,-8.438044,165.688289,-37.6579,152.6303
61,-31.810455,-30.25199,-4.273224,-8.824782,-9.925346,-5.56921,15.253258,33.831596,-9.409218,16.719017,33.139687,46.668205,6.105309,31.843185,45.076218,53.787918,19.686642,46.780472,54.040947,57.089424,30.724525,50.787735,57.005997,57.519379,16.215319,27.120503,32.186877,28.765966,-6.145772,-2.873092,7.792964,18.923692,-18.954906,-17.124871,0.702936,15.681795,-25.252491,-22.207826,-3.57328,11.263275,-26.759016,-23.940172,-9.425706,2.95803,12.377987,28.97235,42.492142,45.204449,38.750668,50.082779,46.719304,42.76846,43.90606,54.781094,51.320572,44.77953,45.605908,55.466366,52.524033,47.359086,44.576111,53.218747,50.811425,46.715985,-25.880447,-36.061067,-38.373281,-42.379431,-18.263502,-15.59678,-14.701337,-11.371956,-0.562685,-0.950802,-3.654528,-1.123024,14.101448,11.910188,7.887025,8.690151,26.144908,23.206886,19.118854,19.139448,-40.479898,135.339212,-42.162524,143.70843
62,9.025097,-4.781705,-4.273223,-8.824782,-10.536518,-10.334644,2.323895,18.281879,-19.672394,9.798603,27.235966,38.888569,-6.214085,21.188793,35.722103,43.802433,5.853195,32.492809,41.763325,46.385479,16.057606,33.623486,41.329823,43.992176,14.771964,21.845289,24.03465,19.736451,-10.134817,-6.96557,2.38934,11.313478,-19.995864,-18.054771,-4.02236,7.64961,-24.257538,-20.870682,-7.281856,3.904787,-24.428401,-23.221428,-12.983148,-3.263324,13.829956,31.179142,46.09314,49.731216,50.084953,63.749657,56.79451,49.832039,54.965858,66.811523,58.834648,50.499458,55.267754,65.161285,58.427238,51.983414,51.96991,59.676476,54.684563,50.164032,-26.719681,-35.248895,-36.944006,-41.324858,-13.354144,-13.711741,-15.223483,-13.041347,2.875037,-0.789356,-5.446911,-3.567754,15.711281,10.863225,5.334155,5.833284,25.757455,21.559292,16.979881,16.86552,-31.550045,130.620677,-46.530991,134.946819
63,8.060417,-1.404575,-2.194596,-2.759708,-14.629841,-19.691849,-10.697021,3.521175,-30.862083,-1.263256,17.728214,30.590343,-16.218224,10.691471,25.765629,34.665012,-2.705212,22.494106,32.596722,37.93047,8.816185,24.68256,32.436848,35.115795,13.278284,17.574816,15.032706,6.9049,-14.873482,-15.743916,-7.263917,1.992068,-25.629755,-28.329051,-14.506716,-1.882214,-31.141072,-31.971121,-17.429548,-4.622574,-32.758069,-35.369648,-24.211719,-12.478153,13.17545,30.778122,46.110726,51.022187,49.262505,62.084008,55.357514,49.192086,55.414238,66.230545,58.343964,50.879326,56.89766,66.193009,59.233818,53.209191,54.75605,61.97834,56.68087,52.131005,-26.972457,-35.912918,-37.736398,-42.089493,-12.586319,-16.571547,-18.82907,-16.287268,3.577983,-4.305404,-9.606286,-7.687021,15.893835,7.466684,1.455971,2.085188,25.246429,18.669496,13.677294,13.714231,-23.376989,129.186107,-48.612948,132.157115
64,-0.504456,14.270922,-2.194595,-2.759709,14.987812,23.600979,27.236423,30.996037,-9.725189,9.971752,25.370235,34.767094,-19.41885,2.856216,21.531544,30.332851,-25.339565,-1.590042,15.804577,22.443409,-28.374138,-5.996647,9.058228,15.281353,-9.367136,-21.668096,-33.301411,-45.911092,-47.229772,-46.903297,-38.526175,-29.973341,-49.67552,-48.217809,-36.66616,-25.906305,-46.200578,-45.185339,-33.241883,-22.257102,-39.361472,-40.556744,-33.223327,-26.056543,12.520943,30.377102,46.128311,52.313156,48.440056,60.418358,53.920517,48.552132,55.862617,65.649567,57.853279,51.259193,58.527565,67.224731,60.040398,54.434967,57.54219,64.280205,58.677177,54.097977,-27.225231,-36.57694,-38.528788,-42.854127,-11.818493,-19.431352,-22.434655,-19.533188,4.28093,-7.821451,-13.765659,-11.806287,16.076391,4.070145,-2.422211,-1.662907,24.735404,15.779701,10.374708,10.562943,-23.860016,143.480309,-50.786114,129.420686
65,-5.696926,-28.281812,-2.194595,-2.759708,-14.816608,-17.359257,-5.047588,10.815468,-27.344112,0.820141,19.282494,32.695312,-11.278381,13.465805,29.397583,39.674263,3.567696,28.099022,38.015785,43.467064,16.513596,33.255959,40.023537,41.831932,16.493906,25.56677,28.747688,25.967654,-7.081661,-7.051681,1.52857,10.050682,-18.148847,-19.66445,-5.175302,7.119823,-24.803442,-24.745366,-9.686417,2.431916,-28.192737,-30.202868,-17.595718,-5.426657,11.866436,29.976082,46.145897,53.604126,47.617607,58.752708,52.483521,47.912178,56.310997,65.068588,57.362595,51.639061,60.157471,68.256454,60.846977,55.660744,60.328331,66.582069,60.673485,56.064949,-27.478007,-37.240963,-39.32118,-43.618762,-11.050668,-22.291158,-26.040241,-22.779109,4.983876,-11.337499,-17.925033,-15.925555,16.258945,0.673604,-6.300395,-5.411003,24.224378,12.889904,7.07212,7.411655,-29.57345,115.234497,-52.997217,126.696979
66,5.147324,32.865731,-0.584622,2.282311,18.446503,30.38578,34.032784,30.423889,-3.078518,16.869049,29.268723,36.502533,-16.243858,6.474953,23.317566,29.64386,-26.189232,-3.144035,13.47187,19.854126,-33.96452,-12.130966,2.672939,9.427929,-5.432215,-14.387969,-23.6572,-32.588348,-48.632648,-51.107945,-41.594645,-30.928033,-54.844092,-57.65071,-44.252476,-30.941804,-53.563573,-57.717029,-43.172924,-28.64333,-47.856415,-51.214433,-42.060274,-32.045963,12.568016,31.327143,48.168869,55.100498,48.913479,62.515526,56.479168,51.131687,56.792164,67.519283,60.136128,53.294506,59.758301,68.783226,61.682739,55.840817,58.985481,65.908985,60.229912,55.302372,-28.769795,-38.972723,-40.848809,-45.357561,-12.704684,-21.50401,-24.947676,-21.668776,3.825654,-9.987373,-16.145124,-13.625383,15.914841,1.970996,-4.533762,-3.099099,24.682766,13.813521,8.403505,9.288713,-24.421692,148.1504,-53.577404,129.029462
67,-7.910385,-19.481668,-0.584621,2.28231,9.328938,19.219093,30.646706,39.932785,-6.554031,17.621899,35.178795,47.432098,-9.057941,15.083199,32.530632,43.888092,-10.41481,12.183208,27.430458,38.455925,-11.545315,2.895699,15.148315,24.493446,-7.898403,-11.30965,-9.307794,-7.790525,-29.552265,-29.469489,-19.404079,-9.078453,-23.272773,-23.462995,-11.535255,-0.720442,-14.092895,-12.801231,-2.453869,7.108399,-3.642811,-4.06222,1.566793,7.934496,13.269596,32.678204,50.191841,56.59687,50.209351,66.278343,60.474815,54.351196,57.273331,69.969978,62.90966,54.949951,59.359131,69.309998,62.518501,56.020889,57.642632,65.235901,59.786339,54.539795,-30.061583,-40.704482,-42.376436,-47.09636,-14.3587,-20.716862,-23.85511,-20.558441,2.667433,-8.637246,-14.365214,-11.325211,15.570737,3.268388,-2.767129,-0.787194,25.141155,14.737137,9.734891,11.165771,-32.338457,128.4824,-54.168406,131.125441
68,-8.058414,-7.756994,1.88982,2.49024,3.317699,9.829102,21.270275,32.660236,-1.485958,26.787357,43.679409,55.410519,1.706314,29.837551,45.697002,55.896778,2.90823,29.178715,42.237797,50.901775,2.596493,20.342789,31.331921,37.834339,5.946287,11.056782,16.21819,18.089135,-14.423167,-10.929761,-1.517053,5.800926,-13.770064,-9.393627,2.108591,10.248654,-9.115411,-4.384804,6.006061,13.82848,-3.605545,-1.748525,4.937964,10.390186,12.069025,30.727014,47.771015,54.241276,44.981975,62.27148,58.020401,52.816028,52.255268,66.910744,61.507988,54.189377,55.328121,67.348022,61.583404,55.315132,54.901314,63.729629,59.540176,55.051288,-29.339458,-40.869278,-43.21476,-47.150237,-13.467502,-20.106459,-24.262879,-21.843714,2.913215,-8.713739,-15.516489,-12.937097,15.058656,2.079368,-4.877696,-3.422918,23.730375,12.305499,6.658161,7.732449,-40.383396,120.612973,-52.26511,133.503248
69,-7.692032,4.29082,1.88982,2.49024,19.507828,36.424198,53.019619,63.324795,15.42223,44.65868,61.515942,72.381077,6.980495,33.913593,52.354717,64.457531,-1.782646,21.183357,37.348309,48.837376,-9.601135,4.63686,16.843643,25.450516,-3.157144,-3.220716,0.202294,1.369995,-21.518444,-19.93365,-11.136038,-4.286281,-15.878717,-13.675895,-2.272909,5.731828,-6.517169,-2.825977,6.398979,12.544812,4.290419,6.800727,12.214448,16.015896,10.868454,28.775826,45.350189,51.885681,39.754601,58.264618,55.565987,51.280861,47.237206,63.851509,60.106316,53.428802,51.297112,65.386047,60.648308,54.609375,52.159996,62.223358,59.294014,55.562782,-28.617333,-41.034075,-44.053084,-47.204114,-12.576305,-19.496056,-24.670648,-23.128987,3.158997,-8.790233,-16.667764,-14.548984,14.546575,0.890348,-6.988263,-6.058642,22.319594,9.87386,3.581431,4.299125,-48.063927,124.831206,-50.363789,135.9209
70,20.469704,3.784837,9.565287,2.384168,-13.101311,-14.288979,-2.645645,10.769806,-23.968449,2.187023,20.407505,34.733906,-10.927391,13.335743,28.753452,39.920025,0.342636,23.85561,34.466343,41.720181,9.501915,24.084377,32.055874,36.812382,10.987004,16.047944,17.253312,14.335204,-14.479206,-14.458859,-5.838285,2.229344,-22.006365,-22.905451,-10.202835,0.300138,-24.689852,-24.449674,-11.18195,-0.41592,-24.533099,-26.904655,-18.204824,-9.257004,10.240688,25.534257,38.72941,42.410631,25.114803,41.409902,42.690324,42.406683,28.971719,44.623632,45.661954,42.332182,31.535196,45.250368,45.684671,43.149004,32.397651,42.519807,43.504285,43.1046,-25.234105,-38.556757,-44.259191,-50.042287,-16.65952,-22.999481,-25.613839,-22.628207,-2.90352,-14.017066,-18.505873,-14.601611,7.382617,-5.458798,-10.226995,-7.535557,15.226031,3.567584,-0.311624,1.867487,-27.61651,128.50023,-40.820789,138.189256
71,16.751118,7.743625,9.565286,2.384168,-20.786591,-32.504368,-23.59972,-11.286163,-48.692265,-22.756062,-2.862167,12.319336,-32.817879,-9.455853,7.074165,18.681107,-16.40522,6.448631,18.090477,24.319611,-0.924911,13.635979,21.186218,23.689499,12.467408,17.303021,14.282562,5.066621,-18.510612,-18.833907,-10.703631,-1.481176,-31.010378,-32.898458,-18.660048,-5.811053,-37.242044,-38.032974,-22.412528,-9.226777,-39.171343,-41.781533,-29.397519,-17.291412,9.612923,22.29269,32.108631,32.935581,10.475006,24.555187,29.814663,33.532505,10.706234,25.395756,31.217594,31.235561,11.773281,25.114689,30.721035,31.688633,12.635307,22.816257,27.714558,30.64642,-21.850877,-36.079438,-44.465298,-52.880459,-20.742735,-26.502906,-26.557031,-22.127427,-8.966036,-19.243898,-20.343982,-14.654237,0.218658,-11.807945,-13.465727,-9.012473,8.132468,-2.738693,-4.204678,-0.564152,-10.935116,135.707476,-31.325226,140.037044
72,-20.961342,-0.31539,0.041599,-2.266117,0.061798,6.359253,21.299515,33.77758,-18.549271,4.868088,21.595573,32.525482,-16.494598,8.909512,28.393135,38.360367,-10.919037,14.442902,32.037163,40.055122,-2.774277,19.45507,32.671967,37.703018,10.154577,9.420056,5.421316,-2.557301,-15.734869,-9.517159,-2.88606,3.385312,-29.080708,-21.540983,-10.195117,0.663138,-35.637521,-29.588698,-15.553416,-3.291143,-36.771074,-32.477259,-20.86389,-10.480558,6.664181,19.15226,30.306816,32.155609,9.923515,21.986504,25.992966,28.645134,12.947388,26.34819,30.604019,28.959846,16.333008,27.869453,31.820641,31.504784,19.129486,27.898407,31.400986,32.548714,-24.038911,-37.814069,-44.693744,-51.379183,-24.360476,-27.296029,-25.13143,-19.534527,-9.626858,-15.557738,-15.16658,-9.018308,3.112499,-4.351366,-4.965876,-0.95954,14.400381,7.312854,6.251334,8.915988,-31.94993,135.0446,-31.337099,137.423442
73,21.59729,1.017245,-21.575031,-2.098341,-23.944645,-38.346977,-37.29023,-30.355053,-49.831123,-24.185429,-6.233368,6.441078,-33.932762,-9.03471,6.381912,16.200027,-17.486744,5.876083,17.965736,23.333473,-1.446877,13.42083,21.914406,24.704933,13.9015,16.17305,10.793478,3.08326,-20.698491,-17.351464,-7.614845,1.328035,-34.516659,-31.027019,-14.714259,-1.014899,-41.049543,-38.089568,-21.688474,-8.119809,-43.270706,-43.687861,-29.747242,-16.867557,12.355328,32.164936,49.257145,54.222507,46.373806,65.752773,61.187038,55.062618,51.931744,70.071087,64.748783,57.006054,53.982525,69.805584,64.482021,57.629299,52.358723,65.912533,62.52142,56.696949,-31.080557,-42.504291,-45.292075,-49.784047,-20.37353,-24.647337,-25.929461,-22.068517,-2.272909,-10.481206,-15.293169,-11.838635,12.711014,4.429913,-1.301452,0.473163,24.671821,18.576129,13.771268,14.185058,-10.306063,135.950402,-52.865553,135.213658
74,-30.383205,-2.90511,-0.713854,0.993503,16.784191,31.485844,44.545383,53.817844,3.799152,25.861073,41.624966,53.386631,-4.91066,19.670391,39.648228,51.492977,-10.723343,12.851486,31.934109,42.695446,-14.325314,7.167091,22.712975,31.754208,-0.316903,-3.105428,-5.586436,-9.740726,-24.504786,-16.87824,-7.313472,1.046114,-28.514766,-18.131341,-3.332021,8.206692,-26.573456,-18.419839,-3.732998,7.547166,-20.977912,-15.806593,-6.062748,0.92073,13.165856,33.720045,51.235686,55.838728,48.184691,67.684393,62.330161,55.752612,53.398619,70.967589,64.947882,56.74676,54.758635,69.132872,63.319559,56.56148,52.545634,64.386263,60.336085,54.708853,-30.70902,-42.300653,-45.181511,-49.800164,-20.229605,-23.478093,-24.945715,-21.447585,-1.730478,-7.926515,-13.152761,-10.547881,13.920642,7.415869,1.071215,2.059438,26.452363,21.246804,16.235542,16.218313,-40.600262,132.902803,-53.490401,136.064671
75,20.238419,6.219193,-0.713853,0.993502,-17.696686,-24.144688,-17.358284,-7.415485,-36.155949,-8.573341,10.574169,24.026241,-21.01387,2.924995,19.684353,30.940075,-7.151356,16.304111,27.606182,33.643169,4.932461,20.046215,28.826122,32.437763,12.810246,13.729154,10.352889,3.824543,-20.528461,-19.132995,-9.858206,-1.264216,-30.426651,-30.689924,-16.714262,-5.399456,-34.611631,-34.503475,-20.207483,-8.506428,-34.949251,-37.25106,-26.489692,-15.899126,13.976383,35.275154,53.214226,57.454948,49.995575,69.616013,63.473282,56.442604,54.865494,71.86409,65.14698,56.487465,55.534744,68.460159,62.157097,55.49366,52.732544,62.859993,58.150749,52.720757,-30.337483,-42.097016,-45.070946,-49.81628,-20.08568,-22.308849,-23.961969,-20.826654,-1.188047,-5.371823,-11.012352,-9.257128,15.130271,10.401826,3.443882,3.645713,28.232906,23.917478,18.699816,18.251569,-20.31601,138.868078,-54.158421,136.804256
76,-12.240314,17.681366,0.95787,4.311769,16.514912,29.551849,36.077957,42.454605,4.196548,24.982567,37.590065,47.319145,-8.870659,15.092812,31.422729,42.574425,-19.817505,2.962418,20.274811,32.051125,-28.635921,-10.155087,4.403973,15.151062,-14.881355,-31.307768,-45.136711,-57.096685,-56.004752,-53.742526,-45.343513,-36.85561,-53.261212,-49.345773,-38.043163,-27.274107,-43.948355,-41.327235,-29.222981,-18.694134,-31.943828,-32.275551,-25.343264,-19.338284,14.258623,35.499516,53.105049,57.130108,51.875725,69.038887,62.284813,55.067368,56.806526,71.547718,64.903622,56.349735,57.152195,69.14669,62.948227,56.046925,54.087753,63.51265,58.973293,53.485565,-30.860525,-42.284181,-45.341166,-50.720847,-17.943713,-22.56675,-25.020387,-21.803252,1.229482,-6.109416,-12.426421,-10.352812,16.884431,9.21134,2.036575,2.710565,28.834895,22.045036,16.803815,16.96906,-32.567997,155.546849,-53.212223,140.113429
77,31.609612,-5.557475,0.95787,4.311769,-24.753571,-42.607441,-45.402489,-40.69582,-58.179016,-34.548111,-14.466648,1.04599,-42.891712,-22.425098,-5.135193,8.910713,-26.830959,-7.194328,6.318741,15.945625,-11.818886,-0.179787,9.607658,15.467033,11.621983,12.150876,5.546299,-3.874715,-22.552763,-24.59346,-17.088068,-8.221913,-35.316141,-39.093846,-25.294605,-12.376265,-42.641593,-45.198368,-30.462837,-16.731336,-45.861938,-48.92479,-36.611047,-23.963297,14.540863,35.723877,52.995872,56.805267,53.755875,68.461761,61.096344,53.692131,58.747559,71.231346,64.660263,56.212006,58.769646,69.833221,63.739357,56.600189,55.442963,64.165306,59.795837,54.250374,-31.383566,-42.471347,-45.611386,-51.625413,-15.801745,-22.82465,-26.078804,-22.77985,3.64701,-6.847009,-13.84049,-11.448496,18.63859,8.020854,0.629268,1.775417,29.436885,20.172594,14.907815,15.68655,-1.024704,149.152377,-52.320671,143.588202
78,-26.056652,4.82351,19.776478,-2.667278,1.686859,9.470787,22.941685,34.186535,-19.94648,5.855598,22.994671,34.464626,-20.604343,5.751858,25.379734,37.138767,-16.981888,6.551971,24.878254,35.116024,-10.629845,7.338524,21.485195,29.570446,-4.816038,-12.762544,-19.377465,-24.097635,-37.96403,-35.474315,-24.301751,-13.471933,-41.336251,-36.213807,-20.942776,-8.36505,-37.858375,-34.838502,-20.089262,-8.739134,-30.556419,-29.554951,-19.913273,-12.977559,12.726059,24.111958,34.006405,37.720699,11.445179,20.796604,29.132366,35.955791,11.141567,20.715466,28.608685,29.84087,11.993923,22.376232,31.368771,33.92252,12.763309,19.491749,23.429661,23.045597,3.864711,1.206943,-9.758356,-22.720663,-1.830961,-9.84777,-7.09997,-1.535918,-5.327517,-16.867866,-11.051903,-3.523602,-9.118097,-20.738444,-12.387658,-3.210898,-12.352769,-22.83944,-16.467044,-7.9964,-27.087679,152.631797,-32.550516,139.576834
79,51.704578,18.623369,-19.349384,22.323762,-26.826668,-53.919296,-66.256771,-69.869785,-82.828674,-78.975964,-59.569416,-42.309608,-67.688999,-64.74432,-42.611675,-24.933014,-50.514221,-45.6217,-26.587257,-11.898766,-32.573776,-31.82682,-20.542603,-11.645622,10.348319,5.125469,-7.920046,-21.269991,-26.379838,-42.243055,-37.470181,-28.278725,-41.069612,-55.91117,-43.366789,-28.625114,-50.930073,-61.941653,-47.097348,-30.506927,-56.193585,-68.227011,-56.336136,-42.039588,25.619488,51.499443,63.827477,64.942245,53.570366,67.141113,64.605446,62.41436,44.052086,54.251747,55.268784,52.274323,32.798824,40.782509,42.453003,40.285492,20.128727,25.607929,26.924629,26.997585,-13.272201,-29.854688,-47.012626,-63.40733,-22.633934,-29.237029,-27.921313,-21.884346,-15.967051,-26.323892,-25.475503,-17.257141,-10.079705,-23.027933,-20.896309,-12.594058,-3.08184,-16.854929,-15.066236,-7.332985,24.577446,170.438717,-51.939354,161.084147
80,-8.330383,11.608213,-10.718994,-16.323907,-7.35569,-20.644913,-27.022362,-28.172264,-63.277187,-45.468235,-26.484947,-13.017769,-67.859688,-49.233227,-27.637596,-11.525574,-66.147995,-49.068089,-26.495819,-10.202408,-59.218025,-54.437027,-38.538265,-23.728409,-10.508129,-29.427591,-47.671195,-63.33536,-51.093402,-59.67319,-50.58498,-39.097273,-50.960083,-61.218123,-47.132113,-29.218195,-46.788195,-56.608085,-44.029742,-27.079038,-38.530065,-49.476807,-46.346988,-38.696915,31.815491,53.636971,67.541656,74.978027,45.961704,63.067131,72.918434,78.882866,31.779556,49.960098,62.624588,69.442749,17.415218,34.614716,50.280304,59.854889,5.250607,19.65414,31.012802,39.892216,-14.515052,-25.027658,-31.828447,-41.164338,-27.686878,-18.37612,-8.196132,0.191612,-21.411739,-13.610038,-2.989739,8.778068,-12.427023,-6.837901,2.973591,13.242685,-0.302515,1.571054,7.176695,14.125839,16.200771,180.027691,-62.704639,142.741002
81,-1.397552,4.580707,-4.270477,4.117456,-13.482857,-27.965927,-33.455315,-35.763931,-66.549625,-58.090382,-38.425198,-24.834709,-64.441509,-53.808174,-30.172176,-14.525299,-56.718464,-45.955696,-22.012367,-6.284294,-44.550533,-39.325848,-22.60643,-7.355461,-0.32067,-16.182066,-36.57094,-56.500917,-36.684314,-50.022774,-44.342137,-35.140863,-45.17336,-59.459194,-45.291025,-28.111072,-49.421417,-61.316554,-45.025992,-26.3129,-48.654354,-59.341467,-49.82721,-36.60163,28.56308,50.538826,65.491104,74.409599,41.152325,64.612083,75.531235,81.105309,28.369675,54.112587,68.841591,77.537041,15.536327,39.920654,56.040573,66.115837,4.913692,23.504105,35.873508,45.659237,-10.244609,-20.506972,-29.959911,-40.359853,-35.799894,-19.348133,-3.427642,8.645613,-31.451399,-12.454039,1.881659,13.098621,-22.065522,-6.022425,7.396588,17.854576,-9.095403,1.297314,8.10573,13.779543,14.904757,181.585346,-66.873579,143.835404
82,-7.735405,-3.947827,3.073254,7.057887,1.916428,-4.166565,-9.237213,-4.91581,-44.530678,-30.737686,-13.236122,-0.611916,-56.023178,-41.400776,-21.419563,-5.680504,-61.379414,-49.583645,-27.584152,-12.411118,-62.551575,-60.991058,-48.819122,-38.327293,-20.954508,-42.444918,-57.058832,-68.861867,-52.396984,-51.770218,-38.451333,-25.903001,-41.014099,-38.523365,-25.784379,-12.367928,-26.835556,-24.519113,-15.169791,-5.070388,-10.95866,-11.940492,-8.80672,-4.011183,23.09967,42.655907,56.669254,67.659016,28.727188,53.313847,66.358624,75.299549,16.011257,42.187443,58.536816,70.467739,4.968567,29.502869,47.091007,60.44569,-2.804432,16.379242,30.300407,41.948204,-14.401215,-23.210807,-29.705468,-36.578042,-35.473667,-19.848497,-2.516947,10.747968,-28.454374,-9.292943,5.968239,17.404786,-17.068308,-0.624791,12.667603,22.32123,-3.621291,6.565366,14.363702,20.683424,7.376604,173.59989,-63.593073,146.855663
83,28.49865,31.24966,-13.956814,20.264447,-29.742279,-60.199471,-81.706295,-91.857605,-91.37701,-98.834209,-77.888718,-57.771664,-77.041168,-84.271488,-59.332924,-38.981895,-61.732063,-65.893078,-44.434319,-26.465836,-44.98867,-51.917324,-43.142509,-31.690178,21.639753,27.648315,19.153928,1.271997,-27.265339,-49.55273,-42.72721,-30.856928,-44.328892,-62.447265,-46.470581,-29.459393,-56.355155,-70.725773,-53.842716,-34.747142,-63.972995,-86.114377,-83.784009,-74.912667,32.175751,56.855164,73.05233,81.227303,62.441368,87.183952,88.008842,87.211533,48.977566,74.564552,78.463669,77.900276,33.604259,57.311497,63.497086,64.607964,17.850037,37.451248,45.695858,50.441437,-18.247802,-31.735945,-41.801015,-54.773418,-31.473567,-9.978928,1.12429,6.578765,-25.595546,-1.576179,8.499882,16.023738,-17.06874,2.88288,13.200941,19.610325,-5.701045,6.870351,13.944231,19.004245,36.381483,199.091973,-77.043657,161.362533
84,-22.896309,-1.397906,-2.763805,9.63751,-20.69561,-43.866234,-61.688118,-79.019394,-66.668358,-62.319431,-45.676975,-30.094128,-56.860313,-50.996876,-34.528828,-18.292923,-43.659668,-36.009922,-19.950714,-5.152473,-27.817783,-26.184082,-18.128586,-9.041061,21.575038,30.763499,34.098083,35.431151,-22.63801,-29.93697,-17.771028,-5.812381,-40.15938,-46.036476,-27.480354,-9.617935,-51.850956,-54.762921,-35.675621,-16.834953,-59.022279,-71.014054,-64.859175,-53.366435,30.193291,54.773369,71.87994,81.065769,46.054115,71.812878,85.304203,92.925968,32.610168,58.867664,76.501179,87.416439,19.442997,47.577667,67.117481,79.761372,9.595985,32.199383,46.464729,57.733326,-16.760914,-29.047703,-38.694846,-48.659757,-37.672444,-18.348394,-2.266302,11.327804,-30.851123,-8.431587,7.469453,20.219925,-18.911558,-1.591432,13.537913,25.450432,-2.495519,8.771399,17.48747,24.031161,13.767614,193.154146,-79.525023,166.460122
85,-57.663403,-22.668329,-0.200958,2.9492,12.583008,22.04092,31.930447,38.149624,-0.273285,29.565353,40.021305,43.837337,-2.669449,31.128216,41.032734,45.095158,-1.97422,28.434906,40.570621,45.965824,1.05732,18.62257,29.959316,38.565731,-7.194355,-6.744318,-9.647884,-18.403105,4.779852,20.830575,28.919879,36.271883,5.059088,22.473568,32.212782,41.307938,2.268401,16.354473,25.065542,35.044964,-2.021894,3.247639,9.030133,18.063107,25.494919,49.571056,66.772671,78.041897,40.5867,65.841808,83.152256,98.843937,27.600174,55.672245,77.962017,95.525265,15.011158,42.445736,64.873695,82.61301,5.679016,26.404037,42.633877,56.192837,-16.16669,-24.856579,-30.845875,-37.610262,-26.233922,-7.818528,8.440046,21.610915,-15.997062,4.258864,20.705531,34.918808,-3.936774,12.403126,26.041754,37.845037,10.172825,24.254018,33.06574,41.205741,-44.090738,167.378135,-79.920931,166.30164
86,29.9263,50.029134,1.010284,9.039334,-0.442257,-12.647839,-26.645966,-37.347565,-1.045876,-5.260448,-9.9226,-12.147961,0.752048,-2.79911,-6.724148,-3.301392,-0.086117,0.065918,-0.338287,3.383961,-1.607952,1.613216,4.463367,8.495693,36.345675,60.307614,68.223955,66.351312,34.591408,36.037293,38.212884,40.093493,5.834735,4.151418,6.356279,7.800436,-18.952313,-21.456601,-18.450344,-14.086257,-40.18019,-48.774921,-48.568799,-45.774284,26.166058,49.520988,67.02776,79.147053,42.051201,63.602085,79.241467,93.828449,30.266304,52.097511,69.992352,85.16573,17.327156,38.815899,57.436581,72.064648,6.010265,21.22324,35.66946,47.0228,-16.492424,-20.268338,-24.347076,-30.858533,-14.071869,0.243297,15.256921,28.698751,-4.983629,12.216393,27.802444,40.524511,3.513228,16.936903,30.029905,41.230627,12.115493,26.425224,35.216754,42.120265,-14.16255,215.432259,-78.908758,173.365964
87,-13.885288,14.943414,0.208111,10.832628,4.879875,-0.035305,-7.768993,-14.932938,7.131615,10.479412,10.122356,9.715004,7.819805,12.622833,11.773682,13.660297,6.48428,14.249268,16.554108,20.173187,5.033455,12.603321,17.352562,21.389122,35.576327,61.892623,74.630745,76.395201,39.128334,44.099365,45.526294,48.06368,10.285704,14.811824,18.835296,21.30346,-15.709614,-12.311241,-7.921713,-3.829637,-38.935426,-45.149555,-45.172279,-43.387198,24.72662,47.03207,63.693352,76.912193,46.512051,68.157578,81.469116,94.144707,33.524666,53.772812,68.372498,81.277313,18.486729,36.578293,51.008377,62.71471,4.230709,13.331852,22.206745,31.307545,-11.507622,-12.110059,-15.381101,-20.724241,-2.601854,10.058278,22.458748,34.179285,3.219913,20.799144,33.890108,45.384083,8.59751,25.781785,36.383404,44.300734,12.208983,26.499757,34.197934,37.740493,-27.845078,228.894343,-78.497887,182.717261
88,-0.715141,16.807474,2.379398,15.089825,4.52219,0.871754,-6.11372,-13.46386,7.177849,12.928047,17.333336,20.495453,7.747765,16.484528,20.076942,26.182365,5.517712,15.461655,21.728554,30.608025,2.830753,9.441891,15.650024,23.418961,34.432338,59.109285,72.660537,77.178938,36.642941,39.409977,41.445024,44.270908,8.987031,11.250493,17.854144,21.90108,-15.814404,-14.889383,-8.348223,-3.24696,-37.867329,-44.863218,-43.813029,-40.904893,26.661129,44.8843,58.678207,73.836536,47.304382,66.233196,79.551029,90.858707,36.542873,54.18457,68.454952,81.015072,24.087296,38.630047,50.491562,60.650082,12.699051,19.71159,26.848755,35.316868,-7.705155,-9.120104,-12.354096,-17.514022,0.38557,13.739034,26.294993,37.47651,4.010381,20.244626,34.352557,45.73958,7.434873,21.468333,32.722655,40.009389,8.947449,19.287556,26.953005,30.938809,-28.370447,243.902734,-75.928717,196.008003
89,66.183586,19.350665,2.604389,14.50406,-13.509064,-38.847313,-62.742577,-80.308514,-70.301342,-82.469845,-71.413994,-57.316532,-73.351364,-79.834042,-62.060051,-38.804512,-71.028786,-74.03326,-54.788761,-31.523666,-64.615231,-70.489368,-57.004223,-39.49379,33.684788,55.908267,68.238713,72.992692,34.135072,42.172197,45.112937,46.298359,9.698643,15.762287,23.642318,26.992711,-13.215761,-9.56977,-0.972013,4.440904,-34.473279,-36.617624,-29.78599,-21.64247,26.229858,43.340263,55.993824,71.929436,45.547428,62.940788,75.490379,86.477051,39.322357,56.315174,70.306892,82.753944,32.861824,47.527428,60.187111,70.715218,27.262688,36.107769,44.867706,54.088383,-6.974215,-8.722863,-11.936355,-14.568651,3.684956,16.585667,28.235623,37.686215,6.900115,22.745641,33.548073,42.075125,9.638931,23.540677,32.594955,38.49144,9.896862,19.69869,26.466659,31.044526,38.068113,262.292918,-73.069353,209.551582
90,1.935654,12.58955,-8.581123,31.395083,-13.915558,-42.34108,-67.198792,-91.044617,-74.77272,-75.627594,-54.758892,-35.222282,-77.23011,-73.221645,-50.8778,-26.215439,-72.802334,-67.870731,-48.589096,-26.824036,-64.596462,-69.355946,-56.712284,-40.433235,33.32151,53.018595,60.786488,70.984754,20.950556,23.778602,29.669653,35.258744,0.312457,3.894969,15.873931,22.260097,-19.149667,-15.999346,-3.284443,3.902379,-35.212493,-39.132286,-32.8724,-26.972395,26.19524,52.107353,70.306549,83.077927,59.000587,91.210213,101.923714,104.698677,50.480404,87.418785,97.673721,97.046928,39.399033,74.134254,84.55719,86.126175,26.007214,53.987274,65.606747,70.19062,-17.211754,-21.429739,-20.6452,-17.340195,4.460418,28.630517,38.465567,43.720712,20.577584,48.371321,60.258646,65.795681,34.828591,61.112839,72.665168,79.479202,47.211833,67.306035,76.302391,81.432862,40.286093,274.134408,-81.368151,240.198605
91,-3.389282,7.122478,-6.878242,5.586745,-16.843185,-44.923553,-68.791008,-88.674946,-60.121994,-60.395851,-52.461433,-45.18116,-59.04768,-57.64864,-49.474068,-39.000664,-54.447212,-56.142025,-49.171143,-38.81321,-45.718231,-52.485294,-50.557709,-44.878693,26.949918,43.105246,53.191373,64.532886,25.210902,29.313106,34.044669,38.0046,9.458866,14.654114,22.86766,25.840448,-4.912616,0.211557,7.803153,10.46898,-16.819145,-19.633049,-14.949589,-11.471065,31.701622,59.265347,80.135765,93.376122,55.647068,84.614296,99.443207,110.145607,43.476105,75.446663,92.940102,105.180473,32.165165,62.908745,80.683365,92.814331,22.041435,47.328873,61.314354,71.814709,-12.520575,-13.770527,-11.201031,-10.529186,4.964116,28.127807,40.022109,49.111399,20.8759,45.720808,58.655543,67.39582,35.01872,57.673773,68.780079,75.364896,45.745076,64.136386,71.296902,75.674883,36.943703,280.634658,-88.199501,245.163122
92,-2.479934,6.834134,-0.177269,10.29015,-15.227795,-40.422192,-63.277703,-82.153559,-62.093096,-66.171227,-58.791561,-51.547823,-62.57638,-62.379113,-48.914824,-34.217549,-58.289738,-59.888706,-46.933823,-33.140145,-50.114193,-58.117104,-53.261118,-45.168972,29.214243,47.838631,59.031325,69.008277,32.774371,36.968026,40.733227,43.683569,15.043512,19.695942,27.37334,30.329487,-2.418301,2.262597,9.934808,13.468537,-18.161414,-19.455733,-14.156159,-9.002932,30.157871,56.852016,77.430611,94.540215,54.619675,82.377434,97.800751,109.101677,42.851429,73.666019,92.571831,106.234474,31.493511,60.028725,78.985977,93.064613,20.536652,44.317646,59.13002,71.636581,-11.333177,-11.205353,-7.722568,-8.73509,8.456225,27.483503,38.918753,49.162405,23.048774,45.180986,58.763545,69.214617,35.906568,56.952034,68.940877,77.431744,45.488256,63.673073,72.244524,78.082717,34.441138,286.853573,-88.399401,254.838053
93,-2.479935,6.834134,1.319847,8.392869,-13.612404,-35.92083,-57.764397,-75.632172,-64.064198,-71.946602,-65.121689,-57.914486,-66.10508,-67.109585,-48.355579,-29.434433,-62.132263,-63.635387,-44.696503,-27.467079,-54.510155,-63.748913,-55.964527,-45.459251,31.478569,52.572016,64.871278,73.48367,40.337839,44.622947,47.421785,49.362538,20.628157,24.737771,31.879021,34.818526,0.076015,4.313637,12.066463,16.468094,-19.503682,-19.278417,-13.362727,-6.534799,29.404163,55.47575,75.594635,93.10421,53.37759,79.907112,96.218262,108.8974,41.58823,70.956116,90.346985,105.046577,30.153866,58.335743,77.801056,92.85244,18.904381,43.760948,58.804379,71.715145,-9.920574,-8.653826,-4.905638,-6.689978,11.072034,28.809099,41.356844,53.391135,25.5149,46.733453,61.388431,73.643356,37.862265,58.441022,71.93534,82.742156,47.320699,64.70486,73.78106,81.367839,31.941919,293.447097,-87.098837,262.990312
94,-3.478889,11.421109,1.94521,5.965769,-16.821213,-40.057983,-59.113827,-75.829468,-58.388042,-59.697533,-59.851913,-61.678448,-56.72493,-48.185577,-31.230125,-15.194435,-48.502808,-40.242805,-24.757233,-11.787758,-37.065468,-39.024696,-32.760201,-26.026268,29.438212,46.783532,53.606027,62.578917,29.079813,32.692088,34.379974,35.756514,10.052473,19.682203,29.304584,35.942198,-8.840683,1.510045,12.224297,19.29157,-24.916229,-20.599752,-12.881259,-5.778048,28.712082,54.623795,74.993649,92.900333,51.690845,78.431568,96.197147,110.49551,39.798088,69.615898,90.123196,105.520992,28.584251,56.458054,75.732021,90.766926,18.014832,43.603306,58.788872,71.934586,-9.99029,-7.79599,-2.025228,-2.151755,12.215775,30.863967,43.824761,56.131001,26.990611,47.186639,61.623206,73.896533,39.206386,58.89779,72.054086,82.439949,48.649753,65.439752,74.663596,82.680838,28.415737,304.879506,-85.20092,268.967381
95,-6.053009,-2.406105,1.875858,5.198705,-13.423347,-34.096298,-52.226143,-70.584354,-58.02063,-54.337692,-38.091717,-24.273148,-55.660744,-40.461788,-20.623283,-1.756783,-47.600441,-30.581818,-11.282387,5.240936,-38.01796,-32.76432,-23.214455,-14.137802,30.939365,45.988619,52.228375,61.150692,31.008772,42.340158,48.221823,52.271044,16.158354,26.869272,38.388008,46.242846,-0.031122,11.789265,24.813847,33.943522,-14.998866,-9.355867,-0.524199,7.395538,28.323154,53.216114,73.937988,92.009697,49.584332,76.732635,94.642296,110.512505,38.995228,69.553928,90.800514,107.597466,28.812733,57.709179,77.442169,93.121948,18.891621,43.978271,59.569702,73.517303,-10.220681,-8.627212,-2.556158,-1.448541,12.620673,29.448216,40.744836,51.328486,28.270388,46.364,59.959403,71.590587,40.808007,59.358448,71.511794,80.895448,50.04309,66.812958,75.326981,82.003127,22.296782,302.36029,-83.391008,274.052975
96,-34.725723,-10.675102,2.119331,6.269581,8.854408,9.74453,4.278374,-3.913765,-11.581993,6.250534,25.386772,34.494095,-22.204571,3.891449,23.07106,37.772827,-31.173363,-9.404526,10.540009,23.879128,-38.667812,-45.001659,-47.853642,-49.415703,-18.002098,-18.988746,-11.608398,-4.187357,5.218219,28.557096,37.619339,42.204986,21.688597,41.420633,49.069409,52.213617,32.721111,49.250276,54.128867,58.030505,42.018932,52.968701,59.748464,66.578121,26.726532,51.811008,72.848167,90.483398,49.594631,77.434158,96.075439,111.875381,39.992809,70.471687,92.752075,109.522476,30.703812,59.207611,79.298515,94.75605,21.728325,45.939331,61.105099,74.672127,-12.797835,-12.340141,-6.794336,-6.072103,12.146862,27.642263,38.240116,48.109067,28.615079,44.634495,57.006375,67.586629,41.460585,57.63413,68.674239,76.459607,50.972804,66.458387,74.355153,79.874405,-12.411003,291.611396,-81.253738,280.248764
97,-1.440926,-2.179851,-2.782288,5.243598,-3.128643,-2.411385,-4.104366,-14.261513,-11.559963,15.295715,35.820007,50.656471,-20.600281,9.620361,34.477272,51.909142,-25.88562,-4.392414,19.870262,37.471504,-28.226852,-34.122906,-34.96851,-33.618736,-5.837884,1.032714,15.114216,29.701331,13.620041,32.088169,42.352446,50.036791,26.119869,39.436407,51.018129,58.710316,34.021822,47.440619,55.906847,62.199337,41.286264,53.131475,58.558101,63.107995,36.001282,63.94598,86.02993,103.142738,67.554474,105.691109,118.04615,120.624962,57.549591,98.079529,112.805443,113.974342,47.521305,84.02401,98.237686,101.129723,37.069874,67.404671,81.351585,87.182922,-17.205517,-16.834459,-12.240475,-10.240318,21.033858,40.200012,42.714057,42.023687,38.513794,58.073607,57.580777,52.543611,50.152882,68.861713,69.182877,64.442174,57.492227,75.691988,75.812339,70.949803,-13.822317,289.253024,-84.006414,285.313842
98,-21.503048,3.698294,-3.361473,-4.37372,15.670509,27.436924,31.508274,27.868481,12.089024,37.627544,58.170948,68.218517,2.01685,34.601955,56.066265,72.077579,-7.741814,19.335651,40.395412,53.289928,-16.033974,-17.554722,-20.45248,-24.440403,-20.181578,-22.329875,-16.050785,-9.498325,3.200956,22.692165,29.977911,34.286484,21.210093,41.529931,47.444571,48.678344,33.370478,51.642549,54.425825,55.971067,43.036456,55.521216,63.303188,69.561283,32.906914,60.885715,84.112129,103.278465,64.322491,98.869629,114.291573,124.457703,55.266838,92.973518,110.896111,123.261795,45.6954,79.052696,97.277527,109.616203,35.872707,61.746998,76.988411,88.585968,-11.794946,-11.067959,-5.351352,-3.035033,20.882878,37.058954,42.959329,47.37751,37.017149,53.777014,60.092907,62.808444,47.492057,65.899422,72.424897,73.418585,53.916137,70.507423,75.730767,76.511045,-35.343733,292.896052,-87.386255,280.884855
99,0.938988,1.471759,2.348499,1.601373,12.317619,21.226501,21.917782,16.087303,12.33593,41.354313,59.972935,67.406445,3.576679,39.028416,56.763325,68.287754,-5.677929,22.729168,39.18417,47.56731,-13.451214,-14.457836,-17.554493,-21.940441,-20.747397,-19.56216,-7.597956,3.407326,6.579012,23.272495,26.328894,27.916188,23.470405,40.514878,42.485518,41.603167,35.076766,50.901359,49.588607,48.535515,44.139194,56.49045,62.265472,67.447443,30.813789,58.190689,81.492176,99.518681,62.532749,96.023197,112.437,123.18552,53.055782,90.565166,109.497128,122.290592,43.467178,77.4856,95.868587,108.581371,34.352818,59.255161,73.897533,85.142841,-11.716214,-10.876841,-4.154815,-1.349,21.003909,36.5928,43.201947,47.188183,38.116739,53.855807,59.294166,61.056399,49.396933,65.948205,70.251715,70.185827,55.701403,70.532679,73.684976,72.893027,-34.323549,294.308098,-84.95656,282.426516
100,2.623787,4.422935,-0.339603,2.416788,12.864361,23.689671,26.876278,23.159351,6.420193,33.676014,55.216656,65.569324,-1.816864,30.580502,51.485996,67.059002,-9.898109,16.87809,36.481533,48.455257,-16.815548,-18.318558,-20.896454,-24.52177,-22.973685,-25.351385,-17.285916,-7.648962,-1.023204,18.526729,23.444408,23.578098,19.363138,37.90055,40.652272,37.824412,33.053761,49.525312,49.810414,47.469579,42.82002,54.427554,59.873014,63.616324,29.73753,57.095718,80.663795,99.238701,61.460209,95.00267,111.791153,123.404388,52.294464,89.071999,107.954979,120.85247,43.010845,76.425362,94.826202,107.881508,34.186535,59.070168,74.001617,86.053391,-11.889177,-10.872704,-4.238054,-0.822268,21.277278,36.465656,42.523557,46.120518,38.17324,53.048791,57.779984,58.978065,48.959926,65.241163,69.252346,68.83726,54.984481,69.805197,72.454784,71.429419,-31.607037,298.685014,-85.203438,284.797284
101,20.861492,-0.69074,0.204449,1.172208,5.669174,7.262077,2.686043,-6.622868,-14.943352,9.633293,30.298805,40.031433,-23.327923,6.775246,25.361481,38.644753,-29.103069,-5.795746,11.976128,22.331886,-32.224159,-38.313332,-42.644806,-47.069092,-22.189146,-24.120822,-17.711315,-10.59248,4.32611,24.329848,27.260028,25.203307,23.482261,41.07341,42.256486,37.469347,35.841545,51.600065,50.267491,46.342202,44.221076,55.351834,59.147694,61.474326,30.07988,57.181778,80.311718,99.194469,58.76009,92.684498,110.12598,122.29517,49.529057,86.608257,106.222172,120.13464,40.592079,73.824863,92.782803,106.595364,32.209911,56.080399,71.119766,83.175259,-12.112652,-10.989103,-3.813397,0.378839,21.82945,35.71545,40.395638,43.184965,38.594625,52.9955,57.133272,58.217918,49.01581,65.245794,69.016151,68.542463,54.498258,69.31212,71.869143,70.40782,-10.578203,297.929914,-84.831648,285.905133
102,10.962639,5.31739,1.967869,1.867271,-13.080311,-24.927177,-34.524078,-49.434357,-34.172688,-10.299911,8.74157,24.31572,-36.62178,-7.203827,15.613403,30.06134,-34.624615,-11.420403,10.355301,24.397087,-30.252686,-29.423332,-24.274864,-19.944706,3.08678,13.887235,30.670812,44.485244,15.541838,23.781072,26.715389,27.092932,22.497898,30.008662,32.174188,31.890877,27.408414,35.932009,36.204514,35.766147,32.123367,41.095764,41.271691,40.546309,28.202362,54.844322,77.934036,97.18071,58.002892,91.756325,108.712349,120.707359,48.937283,86.035194,105.281982,118.414307,39.676666,73.701096,91.840782,104.967842,31.06842,55.904446,70.542068,82.429733,-13.039279,-12.45759,-4.736998,-0.167035,19.520787,33.728878,38.975749,41.893579,37.156273,51.682069,55.716841,56.389056,48.392192,64.241979,67.456027,66.755283,54.569333,68.919882,70.726267,69.042889,0.546713,303.097467,-82.701502,287.622566
103,2.019768,-4.026991,0.859337,0.930764,-1.742134,-6.79985,-16.087418,-28.096619,-31.891708,-7.487183,14.995079,25.608444,-39.178734,-8.673706,10.696449,25.015182,-42.161007,-19.256687,-0.490608,11.161995,-42.034092,-52.164803,-56.395969,-60.143509,-20.122422,-20.002317,-11.280504,-0.671227,3.586155,24.945684,27.803926,24.761236,23.151526,39.98543,42.037519,36.729639,35.930836,50.15739,49.287512,44.009766,44.596333,54.587735,58.247064,59.651701,28.624363,54.768448,77.49115,96.854439,56.959934,91.017036,108.188667,120.058594,47.622929,85.272903,104.710236,117.831459,38.509369,72.677879,90.92411,103.490181,30.121307,54.857197,69.673462,81.216888,-12.486242,-11.952842,-4.640605,-0.155549,20.143293,33.493794,38.132238,40.780157,37.49627,51.322249,55.169732,56.12816,48.353969,63.557847,66.753554,66.333034,54.071563,67.971828,69.940431,68.478799,2.766294,298.916809,-81.642351,288.399664
104,-8.936234,19.550057,0.723724,2.137923,-1.406479,-2.299461,1.960144,2.406578,-21.823254,6.410065,29.885559,44.732895,-29.178715,1.312981,25.627556,42.563667,-31.001873,-7.672691,14.606323,29.463272,-27.700424,-37.320042,-43.810844,-50.083523,-22.783,-30.260172,-22.68,-14.742479,-9.642636,1.7392,9.538401,14.414954,9.599904,18.755267,22.51031,21.850013,23.102682,27.469733,30.554289,30.632033,33.728754,37.926362,40.764102,42.038137,27.567387,53.382053,76.617622,95.873451,56.264706,90.057335,107.262154,119.265976,47.871037,85.274391,104.549446,117.740822,39.152126,73.711967,91.869621,104.651985,30.993862,56.684303,71.768303,83.778648,-13.248551,-13.639616,-6.360107,-0.844252,18.061007,31.523462,36.503447,39.282154,35.72601,48.81969,52.78135,53.697232,47.398134,61.84983,65.185896,64.900054,54.246378,67.85302,69.473104,67.797445,-6.008863,318.389725,-80.757551,290.460446
105,5.49099,-20.098462,0.244789,-0.227489,0.88623,-2.268677,-9.991837,-20.497341,-27.327118,-5.221367,17.367439,28.573151,-35.150986,-6.664467,13.862457,29.63974,-39.635124,-17.153549,2.946854,15.983849,-41.321354,-50.135136,-54.337463,-57.971306,-18.967195,-17.75701,-7.958702,1.838125,4.564158,25.333909,28.904071,27.214703,23.161777,40.621274,42.504723,37.461567,35.571695,50.947054,50.385125,46.004674,44.604978,55.033264,59.345851,61.823586,27.974739,53.37347,76.026077,95.378838,54.449158,87.825966,105.223618,117.757759,45.532322,82.674637,102.27253,115.790977,36.839104,71.141281,89.874229,102.972794,28.926888,54.539795,69.752655,81.52359,-12.921582,-12.715892,-5.332148,-0.097257,19.099711,32.876537,37.540854,40.240397,36.787623,50.262242,54.34061,55.712457,48.183291,62.886311,66.253067,66.16569,54.557045,68.056241,69.806,68.269712,-0.419168,298.163099,-80.414057,290.104794
106,-7.956276,16.598943,0.690994,0.794049,-0.317574,-2.088432,-1.912193,-7.699871,-18.957882,10.316391,31.988983,44.75544,-27.069397,3.930244,26.480598,41.085777,-29.210815,-5.834541,15.282555,29.241943,-26.918221,-30.586052,-31.832142,-32.519588,-19.122065,-23.645715,-14.468307,-4.83092,-6.327565,4.756819,11.206094,15.277793,12.651177,20.532259,22.883653,22.284303,26.00563,30.722991,31.938178,31.628932,36.437313,40.567798,39.933621,39.445854,27.171535,52.653522,75.803833,95.168724,53.620033,87.688751,105.195351,117.550735,44.91972,82.769051,102.314987,115.501099,36.410465,71.667824,90.343208,103.471756,28.640957,55.253963,70.560722,82.310829,-13.673949,-14.019073,-6.675528,-1.127871,17.56509,31.125913,35.999317,38.782779,35.511489,48.3586,52.259497,53.229534,47.533121,61.670816,64.949207,64.715358,54.294667,67.981646,69.466373,67.631336,-8.275909,314.671964,-79.623528,290.808764
107,11.671715,-17.221572,0.503311,0.280964,-6.309586,-14.704857,-26.615982,-40.038815,-34.448662,-13.007355,10.580521,22.861977,-40.86874,-12.568932,8.439674,24.600792,-43.630486,-21.875153,-2.059021,11.874733,-44.082241,-54.370537,-58.012733,-60.021057,-12.447339,-6.633353,9.096206,25.109508,4.80764,26.020203,30.539222,29.915358,20.963215,37.844296,41.922355,38.731526,32.685728,48.069793,48.991974,45.925943,42.300205,53.074973,58.503699,62.50846,27.409344,52.662163,75.781517,95.569038,52.853279,87.281799,104.814377,116.921997,43.948517,82.132301,101.705589,114.660988,35.372829,70.709496,89.281654,101.899338,27.837353,54.292831,69.621391,81.370468,-13.641407,-14.339557,-7.373431,-1.956253,16.816243,30.738244,35.871864,38.899981,34.74282,47.730784,51.731902,52.915225,46.682879,60.835641,64.147192,64.015294,53.320246,67.177223,68.867764,67.068481,3.546438,297.394368,-78.969584,291.033705
108,-19.317055,24.156082,-0.03931,-0.097566,-0.300407,0.22522,6.282578,11.189346,-11.25103,16.3377,37.166862,49.67514,-17.614288,12.582664,35.278358,52.021751,-20.660763,4.611626,24.346733,38.77533,-19.69202,-23.238087,-27.527561,-31.013889,-20.8399,-29.080369,-25.205468,-17.508527,-10.707521,-1.390866,7.063321,13.535505,6.162259,17.695136,23.194381,25.132973,18.921499,26.126291,30.47741,31.431207,28.341031,33.115696,36.322395,37.819657,27.209072,52.464066,75.198956,94.528942,52.81311,86.840801,104.340992,116.710911,43.592434,81.510143,101.108837,114.227772,34.703407,69.591694,88.265362,101.001148,26.913185,52.886753,68.248386,79.966335,-13.437939,-13.947504,-7.102903,-1.676153,16.512863,30.559229,35.606276,38.484956,34.537993,47.567207,51.69726,53.156237,46.464468,60.865961,64.246796,64.21907,53.042801,67.098862,68.759084,66.862111,-15.533867,321.435363,-78.772144,290.821052
109,33.191757,-19.745126,0.256405,-0.015808,-6.218605,-15.76458,-31.177139,-47.344208,-47.861938,-28.958588,-3.567696,10.561295,-55.369549,-31.28746,-8.90522,7.92572,-56.529007,-40.609303,-19.931259,-5.698357,-54.294376,-69.587059,-75.552521,-79.79805,-15.107238,-15.272668,-5.556055,7.362502,1.223523,21.633022,26.480429,26.349642,18.897602,32.85091,37.062474,34.060292,31.80844,43.868542,44.38422,40.980908,42.432228,50.619962,53.99419,55.651509,26.727333,51.872292,74.370689,93.600655,52.006245,86.250343,104.022102,116.888123,42.722855,81.304436,101.50486,115.432892,33.916225,69.22966,88.541565,102.231903,26.27409,52.120857,67.506981,79.433784,-13.4309,-14.025124,-7.205964,-1.533757,16.462722,30.30667,34.924551,37.715608,34.15582,47.427898,51.418395,53.29042,45.719017,60.443959,63.768786,63.935265,51.816438,65.699536,67.683268,66.151055,17.721462,301.646332,-78.452168,290.76134
110,-23.464165,17.280174,0.193634,0.062677,-0.562935,-2.753906,-1.235733,-0.168228,-21.720715,-0.68882,19.137611,32.054558,-29.205437,-4.315567,19.175034,38.236427,-31.146011,-11.20697,10.921669,28.445549,-28.886032,-37.922688,-45.484543,-50.922661,-22.72267,-32.040128,-27.541487,-19.963785,-18.613118,-6.831757,3.021942,9.420828,0.856355,14.298308,21.307968,24.747527,16.427524,25.652294,31.049342,33.470638,28.985026,34.787033,37.894808,39.489203,26.616211,51.68272,74.024277,93.258018,51.692619,85.975456,103.903313,116.921425,42.353611,81.00071,101.347961,115.275993,33.516369,68.933372,88.423233,102.101898,25.951595,51.933403,67.382698,79.14093,-13.504136,-14.081008,-7.232208,-1.280827,16.011326,29.902884,34.615181,37.43909,33.807301,47.323478,51.358373,53.235956,45.561121,60.57524,63.812196,63.796697,51.833728,65.922085,67.718528,65.815627,-5.60483,318.919389,-78.120661,290.8169
111,15.967255,-21.11296,0.163364,0.167467,-6.244354,-14.083786,-26.477051,-40.673962,-41.578159,-20.830994,4.449348,18.064384,-48.161602,-20.722275,2.15641,19.271164,-49.07856,-30.192032,-9.199562,5.242081,-46.937428,-58.344727,-62.228737,-65.02161,-12.950667,-9.842583,2.173059,16.307666,4.984617,25.499092,29.871391,28.901478,22.668082,38.145514,41.334306,37.322505,35.182297,49.010993,48.33038,44.136107,44.628999,54.790276,59.264958,62.252443,26.871128,51.784744,74.093113,93.514423,50.958939,85.323429,103.358288,116.374798,41.747589,80.632153,101.15221,115.061817,33.166409,68.83112,88.489437,102.211475,25.861416,52.166634,67.719555,79.43819,-13.676234,-14.232544,-7.116673,-0.947437,15.846514,29.912455,34.449011,37.07538,33.657494,47.298469,51.154227,52.86039,45.460962,60.532262,63.617189,63.571864,51.713809,65.712504,67.428733,65.531081,10.531168,297.788676,-77.788553,290.966614
