takenoko1/special-research/HandMotion_SimilarSearch_自分用/NewProject/handData/key/d4_feature_d2/85.csv
,vel_0x_L,vel_0y_L,vel_0x_R,vel_0y_R,posFromWrist_1x_L,posFromWrist_2x_L,posFromWrist_3x_L,posFromWrist_4x_L,posFromWrist_5x_L,posFromWrist_6x_L,posFromWrist_7x_L,posFromWrist_8x_L,posFromWrist_9x_L,posFromWrist_10x_L,posFromWrist_11x_L,posFromWrist_12x_L,posFromWrist_13x_L,posFromWrist_14x_L,posFromWrist_15x_L,posFromWrist_16x_L,posFromWrist_17x_L,posFromWrist_18x_L,posFromWrist_19x_L,posFromWrist_20x_L,posFromWrist_1y_L,posFromWrist_2y_L,posFromWrist_3y_L,posFromWrist_4y_L,posFromWrist_5y_L,posFromWrist_6y_L,posFromWrist_7y_L,posFromWrist_8y_L,posFromWrist_9y_L,posFromWrist_10y_L,posFromWrist_11y_L,posFromWrist_12y_L,posFromWrist_13y_L,posFromWrist_14y_L,posFromWrist_15y_L,posFromWrist_16y_L,posFromWrist_17y_L,posFromWrist_18y_L,posFromWrist_19y_L,posFromWrist_20y_L,posFromWrist_1x_R,posFromWrist_2x_R,posFromWrist_3x_R,posFromWrist_4x_R,posFromWrist_5x_R,posFromWrist_6x_R,posFromWrist_7x_R,posFromWrist_8x_R,posFromWrist_9x_R,posFromWrist_10x_R,posFromWrist_11x_R,posFromWrist_12x_R,posFromWrist_13x_R,posFromWrist_14x_R,posFromWrist_15x_R,posFromWrist_16x_R,posFromWrist_17x_R,posFromWrist_18x_R,posFromWrist_19x_R,posFromWrist_20x_R,posFromWrist_1y_R,posFromWrist_2y_R,posFromWrist_3y_R,posFromWrist_4y_R,posFromWrist_5y_R,posFromWrist_6y_R,posFromWrist_7y_R,posFromWrist_8y_R,posFromWrist_9y_R,posFromWrist_10y_R,posFromWrist_11y_R,posFromWrist_12y_R,posFromWrist_13y_R,posFromWrist_14y_R,posFromWrist_15y_R,posFromWrist_16y_R,posFromWrist_17y_R,posFromWrist_18y_R,posFromWrist_19y_R,posFromWrist_20y_R,posFromBody_0x_L,posFromBody_0y_L,posFromBody_0x_R,posFromBody_0y_R
3,-0.480766,4.215639,18.724651,4.576138,-26.021461,-51.423626,-73.586197,-93.421669,-59.019871,-79.821568,-91.656704,-102.414894,-48.454628,-69.202423,-83.145504,-93.02599,-35.718956,-54.088039,-67.17865,-76.425934,-22.261963,-36.810493,-47.135124,-55.910912,-14.45608,-15.212708,-8.775598,-3.536631,19.789957,35.746943,42.840645,46.695476,35.261276,52.895279,59.942422,62.59312,45.389579,63.211056,68.799716,70.177985,50.583714,66.85501,71.937933,72.908588,-13.452244,-29.37561,-41.893215,-50.568924,-14.80854,-32.202587,-46.847134,-58.708248,-1.797752,-17.629395,-38.089828,-55.669899,9.76593,-1.884041,-18.616219,-33.088875,19.526939,28.736801,31.764336,33.804588,-21.921026,-29.405361,-24.964024,-19.397225,-13.794857,5.724016,19.232228,29.936167,4.908602,24.793037,36.613425,44.978444,19.637681,36.676534,45.563715,50.888515,31.126654,39.750099,45.345551,48.522424,42.685232,317.975534,5.393057,334.068803
4,-1.183548,1.332821,0.035362,-3.926832,-25.248528,-50.697556,-73.106918,-92.742062,-58.493328,-79.88308,-91.490479,-101.464005,-47.980328,-69.612408,-83.346119,-92.384319,-35.167122,-55.0387,-67.832909,-76.244316,-21.869888,-38.345375,-48.881721,-57.395725,-15.224996,-16.111609,-9.847091,-4.553661,19.381046,35.248926,42.118906,45.314737,35.438314,53.061697,59.408034,60.918325,46.128299,64.366653,69.072344,69.413021,51.826442,68.088227,72.607987,72.582731,-15.607166,-32.362804,-41.744785,-41.45977,-10.460701,-31.323509,-49.850521,-66.864967,2.517357,-16.19997,-38.590221,-59.518547,12.825165,-2.151947,-23.419933,-40.838013,21.204071,29.896202,35.252266,36.878242,-18.323014,-26.531435,-26.151176,-20.892326,-10.725553,13.964053,28.634778,35.728418,10.1409,34.859096,45.46689,48.376755,24.793778,44.838333,51.629211,52.81099,35.530508,44.787821,49.556188,49.697596,42.025709,319.570238,5.952444,330.403854
5,-0.526543,2.171268,-9.343758,-0.071754,-24.33197,-49.605618,-72.26572,-92.041912,-58.539848,-82.462692,-94.703064,-103.516846,-48.191071,-72.56361,-86.195927,-93.416805,-35.63324,-58.923283,-71.642132,-77.98748,-22.725677,-43.173409,-53.934917,-60.51075,-17.047313,-17.805423,-11.500891,-6.176153,17.302342,33.868804,40.66666,43.630124,33.701461,52.541264,57.204902,56.490635,44.861551,63.955149,67.215694,65.714233,51.186337,68.186719,71.183281,68.892588,-13.852844,-27.701111,-38.231049,-41.559563,0.373306,-19.758968,-38.587532,-54.500942,11.846924,-6.870289,-27.777786,-45.426807,19.400711,7.404442,-11.190948,-25.66927,24.552841,35.045013,41.108551,45.376396,-19.686093,-28.1551,-26.74682,-19.440944,-12.960609,11.398941,26.036258,32.827198,9.264908,32.684061,45.479858,49.312027,25.587148,43.796047,51.901592,53.153396,37.783286,45.99745,51.098589,50.998616,41.828585,321.906781,-3.061895,330.497375
6,3.02536,-0.304491,4.030952,4.786707,-25.45887,-51.485996,-74.888191,-95.664139,-60.820713,-85.129223,-97.376404,-106.500149,-50.214272,-74.931049,-88.428154,-96.315136,-37.475052,-60.515156,-73.408756,-80.703163,-24.456253,-44.091797,-54.925289,-62.072639,-16.73183,-17.524335,-11.058326,-6.155343,17.935963,34.331932,40.942684,44.144567,33.830642,52.122967,56.969016,57.298763,44.363842,62.698528,66.932692,66.785664,50.3172,65.991739,69.989152,69.775496,-7.551098,-19.123993,-30.444031,-38.306522,-3.675842,-30.414791,-44.357014,-51.946507,4.225388,-21.288643,-36.456814,-46.697273,10.951653,-4.507027,-18.952732,-28.768387,16.988754,17.89959,15.197639,13.755341,-25.073817,-32.711293,-26.922871,-20.404868,-15.634216,3.22578,13.86871,19.088967,6.132125,22.232248,33.051167,37.239944,23.368826,36.292261,43.214235,44.998451,38.497986,46.669047,49.966087,51.894861,45.030499,321.804769,1.145611,335.486561
7,-0.551491,-0.824986,0.337715,-3.10194,-25.093231,-51.122704,-74.676533,-95.131931,-60.163937,-85.351868,-97.83205,-106.61459,-49.940357,-75.835991,-89.439526,-96.475296,-37.54303,-61.906242,-74.799614,-81.295795,-24.985428,-45.967369,-56.753254,-63.338413,-16.2503,-16.647602,-10.314727,-5.236991,18.160364,35.265352,41.741982,44.549773,34.152918,53.293755,57.930099,57.403924,44.961339,64.325713,67.808189,66.637772,51.201466,68.444836,72.154924,71.017543,-11.003494,-24.718294,-34.991598,-39.540167,-4.757195,-26.681013,-43.001318,-55.269356,5.664082,-15.040398,-33.835831,-49.26796,13.817768,0.569572,-17.035561,-31.115713,20.427532,26.417942,26.91679,26.16663,-21.421928,-28.972799,-25.170733,-17.526218,-14.080853,7.976239,21.24418,27.804605,7.303438,27.681228,39.699433,43.888118,23.527834,39.864214,47.593142,49.222427,36.624201,44.845774,49.103681,50.070044,44.692411,321.115558,1.69673,332.520395
8,1.630669,-1.642067,0.337715,-3.101939,-26.176186,-52.92944,-76.674557,-97.497597,-60.553093,-85.613251,-98.337765,-107.907486,-49.935379,-75.623703,-89.576969,-97.678127,-37.578392,-61.331692,-74.739819,-82.399693,-25.313187,-45.169601,-56.224823,-63.822155,-15.510592,-15.270753,-8.523224,-3.668715,19.85603,37.26625,43.636484,46.145404,35.626715,55.295703,60.231846,59.891786,45.902045,65.910599,70.120619,69.400856,51.551837,68.778844,73.11786,72.835414,-14.455891,-30.312595,-39.539165,-40.773811,-5.838547,-22.947235,-41.645622,-58.592205,7.102776,-8.792152,-31.214848,-51.838646,16.683884,5.646172,-15.118389,-33.463039,23.86631,34.936295,38.635941,38.577919,-17.77004,-25.234306,-23.418597,-14.647568,-12.527491,12.726698,28.619649,36.520243,8.47475,33.130208,46.347698,50.53629,23.686841,43.436166,51.972049,53.446402,34.750415,43.0225,48.241274,48.245226,46.488361,319.596868,2.199726,329.541834
9,1.737099,-0.266453,5.096512,0.63359,-26.489296,-53.759995,-77.66058,-98.831921,-62.462597,-86.322384,-98.569794,-108.28783,-51.743088,-76.013832,-89.600716,-97.691174,-39.042664,-61.444759,-74.32251,-81.640892,-26.053276,-44.883499,-55.682831,-63.144321,-15.316819,-15.339482,-8.889281,-4.864327,20.337375,37.713632,44.272575,47.115626,36.213282,55.967239,61.139453,60.926661,46.482808,66.203172,70.717683,70.25474,51.961675,68.783105,73.2639,73.142066,-16.409082,-34.098444,-44.095116,-45.336657,-12.880325,-30.809584,-48.647347,-64.434986,0.465717,-16.19276,-37.535334,-56.982651,11.265392,-1.122894,-21.1094,-38.249187,19.889717,29.727058,33.859177,34.788952,-18.147057,-26.562094,-26.272145,-19.381756,-13.744376,10.015114,25.739764,33.781767,7.63056,31.913632,44.751913,48.758218,23.35944,43.165638,51.644124,52.975185,35.087881,43.622467,48.332079,47.94302,48.284826,319.440886,7.355604,330.285895
10,-0.438995,-0.148386,5.096512,0.63359,-26.449928,-53.327637,-77.0224,-97.890873,-61.8857,-86.879196,-99.186001,-108.752575,-51.079674,-76.333408,-89.920292,-97.6898,-38.393211,-61.561832,-74.564209,-81.85873,-25.643234,-44.733009,-55.433578,-62.710648,-14.743961,-14.754458,-8.53119,-3.990867,20.04758,37.735924,44.483638,47.440927,36.040813,56.264567,61.15205,60.664222,46.471014,66.66241,70.850447,70.281787,51.948213,69.408451,73.460575,72.694561,-18.362274,-37.884293,-48.651066,-49.899502,-19.922104,-38.671932,-55.649071,-70.277767,-6.171341,-23.593369,-43.85582,-62.126656,5.846901,-7.89196,-27.10041,-43.035336,15.913124,24.517822,29.082413,30.999985,-18.524074,-27.889882,-29.125693,-24.115944,-14.96126,7.30353,22.859879,31.043291,6.78637,30.697056,43.156128,46.980146,23.032039,42.895109,51.316198,52.503967,35.425347,44.222434,48.422882,47.640813,47.853727,319.351101,12.460012,330.978086
11,0.413704,-0.049956,-6.940269,-1.558519,-26.379318,-53.563614,-77.208939,-97.871532,-62.704124,-87.215252,-99.37294,-108.489075,-52.014084,-77.037449,-90.281525,-97.396717,-39.329681,-62.645245,-75.395622,-82.078228,-26.455879,-46.352463,-56.927948,-63.605862,-14.875304,-14.524932,-7.955182,-3.894043,20.334287,38.114886,44.878409,47.640875,36.30881,56.914861,61.276416,60.050979,46.816445,67.415395,70.849335,69.346824,52.562692,70.283763,73.832312,72.137572,-16.257877,-34.035301,-42.929363,-42.302341,-12.241917,-28.959446,-46.867504,-62.202015,1.646347,-14.080868,-35.636673,-54.558334,12.882385,1.505814,-18.320503,-34.335594,21.67408,31.160774,35.959625,38.383026,-17.493706,-26.427386,-27.481836,-22.263864,-12.300991,9.645044,25.06863,33.149103,9.166293,32.07656,44.671174,48.596463,25.09018,44.381318,53.111282,54.325851,36.919213,45.444598,50.23007,49.797138,48.272324,319.405457,5.524635,329.52388
12,0.425491,0.392053,-3.109932,-0.551061,-26.481628,-53.754444,-77.683697,-98.643093,-62.94096,-88.397942,-100.868797,-110.11322,-52.504234,-78.419037,-91.770344,-99.097996,-40.087509,-63.824444,-76.787624,-83.969307,-27.744598,-47.402344,-58.257923,-65.502491,-15.11434,-15.065495,-8.588556,-4.309314,20.245861,38.048319,44.295176,46.54178,36.372536,56.652607,60.486813,59.254584,46.903081,67.151412,70.373548,69.068268,52.519219,69.796552,73.519855,72.364876,-15.043316,-31.897488,-40.344486,-39.998074,-7.007561,-23.762054,-42.124043,-57.825279,5.901947,-10.278282,-32.506886,-52.587261,15.580902,4.02935,-16.750317,-34.102192,22.692604,33.880348,40.108337,43.028755,-17.063924,-25.348421,-25.794629,-19.613536,-11.992548,10.520726,25.117104,32.4625,9.772373,32.835596,45.389332,49.043289,26.247507,45.509992,54.203215,55.1693,38.323294,46.340411,50.895863,49.751381,48.70923,319.897809,2.426119,329.073117
13,0.382462,-1.015794,-12.63216,-1.282927,-26.775169,-53.897324,-77.472553,-98.545589,-61.980057,-88.227253,-100.744114,-109.562016,-51.333847,-78.300304,-91.741219,-98.961868,-39.187317,-63.674355,-76.654873,-83.786087,-27.485275,-47.678833,-58.369732,-65.508213,-14.737909,-14.523018,-7.826,-2.896094,20.352627,38.47205,45.284726,47.999151,36.996339,57.636785,61.722871,60.58549,48.021628,68.318618,71.532789,70.24943,53.971836,71.352601,74.882378,73.58457,-12.011204,-22.405872,-24.309654,-17.246532,6.389294,-13.836422,-33.120975,-48.441181,20.160198,0.178528,-22.292633,-40.961952,29.494343,16.005535,-5.680046,-21.426029,35.79649,46.356068,52.363529,56.158619,-14.780764,-20.556342,-18.996217,-13.504939,-5.660166,19.248838,32.628918,39.142475,14.053591,39.305187,48.586274,50.632003,27.996958,48.630425,54.239277,54.785768,38.022816,48.586459,52.588565,52.169403,49.11109,318.906761,-10.186644,327.814937
14,0.840797,0.006793,12.313786,10.411119,-26.990089,-54.645767,-78.450794,-99.62019,-62.261066,-88.479767,-101.151295,-110.085411,-51.551857,-78.826847,-92.312164,-99.504833,-39.475937,-64.255199,-77.540703,-84.832363,-27.869797,-48.170013,-59.159088,-66.491089,-15.280942,-14.804229,-7.772277,-3.269561,20.508423,39.402073,45.706543,47.592216,37.079208,58.306283,62.094238,60.356273,47.945305,68.386976,71.797081,70.53589,53.74268,70.998648,74.632598,73.494291,-9.089813,-21.543903,-33.46756,-42.056866,-1.608353,-25.269642,-39.996357,-48.676872,8.178062,-16.683426,-33.727226,-45.667133,14.762192,-1.057777,-15.018253,-23.747349,19.292107,22.208405,21.534691,22.761383,-23.939832,-32.775637,-26.924723,-19.245442,-14.583904,5.457934,15.867818,22.289429,6.580618,24.562214,33.999221,38.364543,23.01018,37.929944,44.268623,45.921373,36.700122,45.97769,48.788507,49.922244,49.958296,318.954957,2.133551,338.26746
15,0.536156,-0.517777,0.082855,-6.803166,-27.263832,-54.933472,-78.716869,-99.642391,-62.200699,-88.434677,-101.325874,-110.589466,-51.524849,-78.813171,-92.609138,-100.076523,-39.548492,-64.26899,-77.813301,-85.297337,-28.097191,-48.283539,-59.441357,-66.995544,-14.776812,-14.425452,-7.463217,-2.506758,20.952162,39.760905,46.056915,47.906217,37.661453,59.018574,62.845185,61.008975,48.458574,69.269945,72.746184,71.340251,54.04322,71.613805,75.394598,74.183178,-6.584587,-19.351273,-30.383778,-39.58025,0.224075,-24.114304,-40.921497,-51.488914,9.34948,-16.096058,-34.281693,-46.324539,14.892654,-2.888718,-16.816635,-25.070629,18.558311,16.835403,14.233131,14.20063,-20.981184,-29.126373,-25.435056,-17.893355,-7.858049,14.630463,26.751452,33.633597,14.733278,34.635127,42.896776,46.270819,31.284611,47.466554,52.329954,53.569903,44.443315,54.818928,57.208731,59.118177,50.498171,318.444142,2.220125,331.471256
16,0.168114,-0.965468,1.105614,0.9412,-27.724228,-55.362339,-78.878746,-99.893074,-62.428894,-88.092327,-100.778618,-110.060463,-51.400337,-78.110275,-91.51989,-98.938923,-39.144402,-63.382645,-76.772118,-84.430561,-27.298393,-47.264557,-58.484287,-66.365261,-14.090827,-13.522599,-6.485955,-2.195227,21.809443,41.102062,47.533429,49.460289,38.11396,59.811511,63.725375,62.031623,48.638144,69.588824,73.411669,72.284847,54.18327,71.954606,76.076508,75.241271,-12.744083,-27.959576,-37.763557,-40.649185,-4.039536,-23.261604,-43.414707,-59.79475,6.157608,-12.715759,-34.91518,-53.493919,13.390846,-1.687088,-22.432938,-37.896309,18.342819,28.973351,36.307755,41.304932,-20.170587,-30.984442,-31.072375,-23.549199,-12.171932,11.532383,23.681406,28.079518,10.901356,34.463522,44.701247,45.539262,27.976518,47.01065,52.190707,49.699943,40.742922,49.747984,54.254159,52.386827,50.668917,317.492167,3.328371,332.425948
17,0.1474,0.85654,0.903397,-0.106705,-27.353897,-55.21534,-79.272594,-100.273132,-62.926083,-88.714314,-101.148777,-109.974346,-52.503548,-79.5187,-92.595749,-99.598732,-40.559349,-65.272636,-78.298016,-85.248985,-28.953209,-49.325981,-60.35471,-67.406216,-14.519621,-14.129112,-7.382941,-3.438139,21.448944,40.261639,46.543262,48.679764,38.044614,58.625841,62.062807,60.488666,48.898422,68.66794,71.230212,69.586354,54.737479,71.569777,74.528919,72.792003,-14.941578,-29.21751,-37.407875,-39.089127,-6.179237,-26.79554,-46.551647,-61.648865,6.259003,-15.053558,-37.421207,-55.294533,15.18837,-2.354393,-24.741898,-40.51466,21.321945,31.479492,38.03215,42.657166,-17.58627,-26.922315,-25.681132,-17.959675,-11.916471,12.438571,25.200837,30.269126,9.787379,34.489581,45.087804,46.325097,26.076643,45.959411,51.621183,50.117684,38.622413,48.271841,52.77147,51.372761,50.818777,318.360625,4.234228,332.331161
18,1.032715,-0.815229,-0.393562,-0.729952,-27.624207,-55.803909,-80.077629,-101.462402,-64.304008,-89.182835,-101.412163,-110.52784,-53.838501,-79.475327,-92.511177,-100.072803,-41.802635,-64.931488,-77.936382,-85.513115,-29.879951,-48.933678,-59.646835,-67.00676,-13.935462,-13.480794,-6.697017,-2.570978,22.233915,40.56224,47.045539,49.363403,38.503481,58.926627,63.100461,62.335806,48.899595,68.499238,72.042353,71.180009,54.35969,71.075095,75.044288,74.414495,-12.989788,-26.979218,-34.638348,-36.915207,-4.520187,-23.914146,-43.58139,-59.23748,6.527252,-13.606167,-36.595573,-55.456066,14.211617,-2.672653,-25.978889,-42.598572,19.139786,30.819511,37.787018,41.953468,-17.374219,-26.530941,-25.215163,-16.670882,-11.024425,12.340388,24.361279,29.081171,10.631013,35.410033,45.838195,47.195716,26.861985,47.17361,52.748128,51.164168,39.001684,48.942389,53.547611,51.813474,51.829062,317.553377,3.818235,331.609191
19,0.591202,0.250645,-3.716354,-0.584035,-27.997627,-56.081772,-80.433083,-101.859112,-64.211655,-89.692554,-101.999531,-111.227818,-53.625298,-79.739799,-92.940731,-100.842018,-41.619301,-65.273094,-78.171387,-85.827026,-29.792404,-49.119186,-59.844475,-67.232323,-13.9777,-14.124913,-7.625929,-3.454133,21.413314,39.531996,46.11811,48.744972,37.762229,58.001915,62.395642,61.969502,48.394971,68.097366,71.464308,70.686067,54.16882,71.025139,74.69336,74.085366,-12.508965,-26.048012,-35.138798,-37.481632,1.287804,-20.860863,-42.178345,-58.956871,11.806183,-9.927063,-32.720032,-51.09026,18.335838,1.927757,-19.128685,-34.254799,22.030106,32.462883,39.62986,44.904327,-18.388964,-28.620698,-27.631333,-19.141084,-9.763296,15.783035,28.437485,32.31609,12.937761,37.425566,47.673479,48.101657,29.607779,48.856247,54.100153,51.709548,42.02733,51.375602,55.742344,54.108799,52.35858,317.786763,0.040197,331.007896
20,-0.471153,0.063973,-8.794899,0.912115,-27.897491,-55.630302,-79.838219,-101.049271,-63.659992,-89.391632,-101.761208,-110.954304,-53.098183,-79.343605,-92.603416,-100.186272,-41.083488,-64.965019,-77.870121,-85.18816,-29.279938,-48.889618,-59.550648,-66.757908,-13.991532,-14.329801,-7.94277,-3.463025,20.775556,38.90029,45.798366,48.726818,37.393024,57.896631,62.295421,61.716696,48.306606,68.400561,71.509694,70.415909,54.180058,71.524205,75.109064,74.203865,0.480824,0.186138,1.863728,9.347649,5.974045,-23.920326,-34.671535,-38.16782,15.995522,-16.14521,-27.088509,-32.779369,23.648529,3.460007,-9.509125,-18.341045,30.100822,27.39315,22.512474,18.62011,-10.019992,-7.05307,8.364464,21.383921,-2.82255,16.158601,24.537267,29.632788,11.845705,29.100067,37.556477,42.430684,24.093837,41.201357,46.933586,49.603427,34.603325,49.473504,52.395472,53.750646,51.849833,317.831238,-8.792295,331.900514
21,0.221672,0.493571,1.529846,-3.77789,-27.624893,-55.471344,-79.860191,-101.407413,-64.039879,-89.528847,-101.882057,-111.151199,-53.411636,-79.492779,-92.571144,-99.928322,-41.321869,-64.885654,-77.350616,-84.347363,-29.459038,-48.88401,-59.268093,-66.098099,-14.374076,-14.507395,-8.05565,-3.597208,20.86392,38.960867,45.889325,48.906079,37.383267,58.041867,62.210823,61.305562,48.131112,68.246061,71.370385,70.203796,53.822647,71.001118,74.469577,73.43958,-9.790421,-21.877785,-31.143551,-31.678448,8.716621,-6.286125,-27.57082,-45.462627,19.54319,4.615173,-19.437332,-40.064564,25.557175,16.423645,-4.27002,-20.376434,28.466034,42.15168,50.178337,55.610046,-18.932676,-28.120644,-28.842259,-23.192158,-12.093386,10.890179,25.475441,31.355871,11.561283,33.743513,45.655414,47.539543,29.010652,47.422649,54.225692,52.628579,42.109273,49.943795,54.36074,52.5898,52.005386,318.310746,-7.328568,328.10856
22,-0.336342,-0.225327,-4.248962,5.93088,-27.466393,-55.151825,-79.47773,-101.016426,-63.600941,-89.260082,-101.646309,-110.849075,-53.091774,-79.570198,-92.738914,-100.08276,-41.052017,-65.052681,-77.632713,-84.646168,-29.281311,-49.031982,-59.57222,-66.471119,-14.062545,-14.238225,-7.87855,-3.243132,21.229051,39.427885,46.240005,49.000063,37.901353,58.388781,62.293939,61.082952,48.730832,68.703385,71.51556,70.043245,54.391924,71.460047,74.73782,73.400986,-3.40971,-10.707893,-19.182816,-24.032021,13.422775,-7.62949,-25.729408,-39.303303,22.558594,5.467587,-14.18272,-30.01339,28.013992,19.421539,4.956264,-6.491089,31.096115,42.742424,46.110535,49.503822,-23.128061,-32.779959,-29.205845,-21.60684,-12.976973,8.599609,21.013727,27.414528,8.971162,26.73762,38.106982,43.357064,24.832496,39.130619,46.874985,49.215511,37.22284,45.364076,50.061491,51.468783,51.592598,318.075214,-11.653976,334.029236
23,0.703583,0.087562,28.73291,-2.168304,-27.813492,-55.558434,-79.839478,-101.309738,-63.954105,-89.157887,-101.483059,-110.608692,-53.575859,-79.753075,-93.044643,-100.33699,-41.622276,-65.290661,-78.115311,-85.109138,-29.72065,-49.162903,-59.889965,-66.714134,-13.965844,-14.060198,-7.716825,-3.397816,21.734848,39.831609,46.181713,48.417634,38.071352,58.748292,62.441461,61.102403,48.615173,68.854735,71.711927,70.237203,54.170858,71.288875,74.524102,72.989234,-13.432503,-29.769058,-46.203804,-57.170677,-16.261024,-34.060478,-51.536694,-67.184372,-4.91169,-23.149223,-44.231701,-62.364864,4.17263,-10.312729,-27.683945,-43.949318,11.13224,17.486916,19.125252,18.991585,-17.787947,-26.728295,-26.169516,-20.19714,-11.079444,7.579493,21.261964,31.226751,7.924183,29.774443,40.69488,48.722928,21.7543,41.125466,50.081931,55.259456,31.393415,44.146172,50.670844,53.682968,52.225142,318.144822,17.007895,331.842978
24,-0.131264,-1.09749,-14.707146,-3.433076,-28.083916,-55.686264,-79.715881,-100.646095,-62.6861,-88.420143,-101.071873,-110.245972,-52.110329,-78.882637,-92.335453,-99.360123,-40.081558,-64.412899,-77.671394,-84.722271,-28.298035,-48.046761,-59.081383,-66.16642,-13.574037,-13.351859,-6.710788,-2.125758,22.04854,40.805166,47.291738,49.472763,38.435432,59.910188,63.516165,61.739482,49.002348,69.811434,72.684496,70.870207,54.512893,72.146588,75.65185,74.080055,-13.731537,-29.590988,-40.174828,-43.598328,-3.053741,-19.4874,-39.623852,-55.912971,8.347092,-8.645496,-31.660194,-50.864811,15.977211,4.002342,-16.421986,-32.260666,21.378021,33.15033,41.121941,47.161446,-19.563519,-29.356208,-29.638592,-22.641838,-11.552144,9.748044,22.649619,27.900256,11.86565,33.930061,45.563406,47.864288,29.436236,47.929497,54.650844,53.71446,42.550109,50.695915,54.895993,53.323148,51.973743,317.03313,2.180614,328.3957
25,0.353851,-0.310852,-2.022801,1.104406,-28.065262,-55.645065,-79.192543,-99.747849,-63.350029,-88.796883,-101.385098,-110.690517,-52.497711,-78.690777,-92.159443,-99.376431,-40.040932,-63.973675,-77.209454,-84.433937,-27.636681,-47.282066,-58.544483,-66.217232,-13.52439,-13.071636,-6.515101,-2.278096,22.454858,40.902238,47.598514,50.079399,38.612718,60.280629,64.330221,62.789424,49.048229,70.33409,73.865781,72.436136,54.579954,72.912972,76.943236,75.625483,-12.54487,-27.3139,-38.458728,-42.368316,0.77694,-16.877946,-37.050275,-53.231763,11.107407,-6.241436,-28.880596,-47.410039,17.630311,6.245041,-13.156013,-28.102855,21.953888,33.856259,41.327649,46.952935,-20.483229,-30.315655,-30.032406,-22.618991,-13.041841,8.726012,22.263092,27.765332,10.32541,32.268326,44.850806,47.547725,27.962099,46.047375,53.809278,53.224903,41.355733,49.145949,53.464865,51.681421,52.075825,316.720132,-0.093956,329.49796
26,0.411644,0.653628,-2.0228,1.104406,-27.750893,-55.418472,-79.243412,-100.095921,-62.900333,-89.250412,-102.156944,-111.238289,-52.28508,-79.600582,-93.333435,-100.273762,-40.008087,-65.036659,-78.641911,-85.603294,-27.996368,-48.719215,-60.292397,-67.408218,-14.307756,-13.675802,-7.077338,-2.949941,22.160617,41.084834,47.216526,49.187661,38.630872,60.25599,63.587981,61.419245,49.283868,70.283084,72.958915,70.993152,54.847642,72.699686,75.817094,73.653792,-11.358204,-25.036812,-36.74263,-41.138306,4.60762,-14.268494,-34.4767,-50.550556,13.867722,-3.837376,-26.100998,-43.955269,19.283409,8.48774,-9.890041,-23.945045,22.529755,34.562187,41.533356,46.744423,-21.40294,-31.275102,-30.426219,-22.596143,-14.531539,7.703981,21.876565,27.630407,8.785169,30.606592,44.138206,47.231161,26.487963,44.165253,52.967713,52.735346,40.161356,47.595983,52.033738,50.039693,52.336721,317.362908,-2.267504,330.591513
27,0.388069,-0.356053,-3.523407,5.922544,-27.675934,-55.503616,-79.289589,-99.883804,-62.895012,-89.309807,-102.324829,-111.377335,-52.521515,-80.259933,-93.885269,-100.561352,-40.516777,-65.903206,-79.701176,-86.82375,-28.759232,-49.607391,-61.419411,-68.854923,-13.960471,-13.538407,-6.876773,-2.643412,22.585522,41.609095,47.376028,48.797337,39.090049,60.712696,63.53117,60.847744,49.748602,70.775976,73.367146,71.197669,55.347203,73.123788,76.385383,74.311249,-4.600697,-15.268707,-24.954586,-31.057205,3.741302,-17.981644,-32.317371,-41.90815,12.638168,-3.204403,-18.414574,-30.354881,19.554176,12.711411,1.699562,-6.4678,25.246239,35.212898,39.028244,43.06263,-25.235788,-35.68087,-33.82737,-27.546735,-12.578312,7.586532,19.459593,25.602215,8.969186,26.089364,37.791129,42.387397,24.565178,38.42265,46.328308,47.849591,36.633617,45.140848,49.544023,50.474478,52.441549,317.000464,-6.074152,336.507666
28,0.543938,-0.716799,5.762672,-2.46804,-27.979546,-56.029015,-79.926796,-100.814896,-63.104839,-89.243603,-102.264233,-111.44268,-52.639503,-80.11631,-93.828506,-100.624352,-40.690956,-65.806561,-79.755192,-87.202377,-28.928261,-49.575348,-61.388111,-69.082603,-13.654251,-13.089605,-6.231728,-1.867826,22.98196,42.374121,48.284006,49.731374,39.378485,61.708175,64.523067,61.675756,49.937435,71.883346,74.674217,72.511533,55.430319,73.906536,77.550922,75.723913,-6.181755,-17.354622,-26.676979,-34.738197,-1.242485,-21.604271,-36.589851,-47.599411,8.865852,-8.842049,-25.599174,-38.762798,16.567039,8.204155,-3.991127,-13.045807,22.472763,29.478607,31.040039,33.442841,-23.251809,-32.705056,-31.6243,-25.930542,-6.339977,12.882741,23.875056,30.187739,14.779776,30.766278,39.996174,43.825008,28.926425,41.696657,48.521004,50.603413,38.904242,47.61142,51.808843,54.169252,52.781153,316.27536,-0.515814,334.03132
29,0.555954,-0.32351,5.047417,-11.881212,-28.188972,-56.294746,-80.341015,-101.248798,-63.581028,-89.688148,-102.615223,-111.551971,-53.321915,-80.720615,-94.323292,-100.986614,-41.436539,-66.482849,-80.555363,-88.162766,-29.610901,-50.02327,-61.891308,-69.673576,-13.366494,-12.787893,-6.072659,-1.993921,22.983195,42.598089,48.492907,49.802757,39.131668,61.442957,64.341645,61.638891,49.595955,71.455292,74.222637,72.154924,55.198199,73.697141,77.333005,75.526867,-2.930717,-12.406254,-20.38187,-22.656555,-1.431999,-40.838528,-48.530045,-47.220154,6.513634,-37.940369,-44.057293,-42.591476,10.420189,-24.949093,-32.301407,-32.380714,11.063118,-8.678741,-14.510651,-15.700493,-11.794823,-12.350206,-1.255818,7.722754,14.911304,36.294299,35.423803,36.472634,33.464092,50.923033,48.954862,46.265199,46.293543,62.706679,58.93626,54.943232,54.791511,67.607315,64.911786,60.603769,53.025799,315.968445,4.220295,322.166704
30,-0.118561,0.230329,3.284912,10.368141,-28.227768,-56.076393,-79.935665,-100.723572,-63.316097,-89.792404,-102.500668,-111.203327,-52.769623,-80.9412,-94.286728,-100.506535,-40.777016,-66.644897,-80.402298,-87.501869,-29.111481,-50.585518,-62.473755,-69.939651,-13.551931,-12.841616,-6.148983,-2.134897,21.978021,42.246174,48.268753,49.623187,38.515152,61.342859,63.797623,60.638225,49.353832,71.397432,73.506208,71.045516,55.12132,73.749629,76.945212,74.858419,-14.560432,-31.332836,-44.511223,-50.862923,-7.745819,-26.659012,-44.846764,-59.760532,1.638336,-16.636448,-37.813854,-54.555874,8.707237,-3.671722,-22.294807,-36.456013,14.299622,23.599205,29.185181,32.841454,-22.437074,-32.238285,-31.92416,-25.276728,-16.819948,4.589661,17.287831,22.724152,6.670156,28.808358,41.09953,43.967034,24.639217,42.264205,50.288671,50.177273,38.377078,46.63175,51.01078,49.342655,52.735376,316.208098,7.333345,332.544169
31,0.857849,-0.832396,-6.731071,-1.373082,-28.518105,-56.353912,-80.285912,-101.151466,-63.590298,-89.951763,-102.693672,-111.625385,-53.024368,-80.865726,-94.336281,-101.00069,-41.117134,-66.778336,-80.716782,-88.294086,-29.510078,-51.069145,-63.233356,-71.423779,-13.24886,-12.30803,-5.422304,-0.735694,22.334013,42.281125,48.835375,51.056105,38.739059,61.252889,64.564131,62.341796,49.565944,71.354577,74.41536,72.567911,55.350476,74.098271,78.0532,76.67808,-12.8619,-27.523327,-37.706451,-41.723328,-2.615433,-21.145592,-38.599091,-52.508183,6.820107,-10.451775,-30.64785,-46.708832,14.405594,4.11232,-13.881111,-27.496834,20.294266,31.013832,37.860603,42.550964,-21.610915,-29.788028,-27.379577,-19.640151,-13.060397,9.49604,22.296901,27.464237,8.911572,31.896064,44.192917,47.146687,25.54349,43.728431,51.414072,51.369365,38.282785,47.129149,52.36015,51.304095,53.521643,315.378404,0.530691,331.173789
32,0.150261,-0.734706,-8.658943,-2.98168,-28.397026,-56.071587,-79.489861,-100.022736,-63.207607,-89.634018,-102.502327,-111.77496,-52.777634,-80.562057,-94.004517,-101.042747,-40.9655,-66.477356,-80.542545,-88.576183,-29.328346,-50.48172,-62.701035,-71.310997,-13.193408,-12.192866,-5.082923,-0.918723,22.318019,41.996949,48.659757,50.976756,38.698674,60.936109,64.543013,62.680497,49.523398,71.146108,74.360031,72.775639,55.375114,73.92747,77.857328,76.58107,-2.214489,-6.292019,-8.820992,-6.634254,7.621994,-26.888809,-36.211796,-35.955162,16.998253,-20.572014,-29.904499,-32.398567,22.693977,-5.739384,-16.478062,-20.477772,25.918808,14.103928,7.466011,4.280548,-17.642031,-20.024794,-9.678142,-0.013894,0.93416,19.58581,23.422672,27.504745,20.958337,36.925511,39.748061,40.053602,35.934788,51.419136,50.606747,48.979562,47.846504,59.752601,56.834832,54.144799,53.577976,314.683897,-8.222179,328.232308
33,1.304054,-1.40723,11.303787,9.187535,-28.600731,-56.211205,-79.55183,-100.203552,-63.635674,-90.646648,-104.966183,-116.321983,-54.131012,-82.366791,-97.198677,-106.883469,-43.346672,-69.402924,-84.99733,-95.203056,-32.488976,-53.351669,-66.553516,-76.874943,-13.689511,-13.822953,-7.699535,-6.188009,20.954076,38.41666,44.528654,46.955878,36.746682,56.196086,59.601436,58.19822,47.444818,67.067061,70.07338,68.650712,53.812767,71.331853,75.64691,75.64302,-14.003277,-27.85326,-37.147522,-44.844131,-9.109383,-37.832966,-51.708183,-59.890537,3.404961,-28.762379,-44.491138,-54.46043,11.343155,-11.386299,-24.374371,-32.903423,16.29982,12.318649,10.707321,8.813095,-8.689024,-9.339071,-2.593888,4.288566,0.669868,14.91396,19.795206,24.387028,12.709902,28.372894,32.756556,34.502734,23.124665,39.504703,43.553554,45.297385,31.949231,45.081753,48.69267,51.552578,54.197989,313.444134,2.397566,337.58731
34,-1.34285,0.633806,-56.995697,-30.317538,-27.312469,-54.296608,-78.672523,-99.168777,-61.388969,-90.064316,-104.955711,-116.537933,-52.364616,-83.363571,-99.793568,-110.704994,-42.04319,-71.23558,-88.061142,-99.271774,-31.931076,-55.281029,-69.577217,-80.89262,-14.778047,-15.834102,-10.600199,-10.063588,18.53488,36.606879,42.595558,44.727552,34.410973,53.581759,57.282029,56.483719,45.325296,64.430936,67.163268,66.115363,51.876398,68.895552,72.834981,72.860484,17.891006,44.175396,69.710884,93.937798,75.603905,54.727592,27.758446,7.313061,76.009369,51.810493,23.451462,-0.914326,69.511871,46.958885,18.578167,-4.255772,58.381348,56.969833,43.47084,30.236607,43.791725,64.164544,75.646972,84.404662,44.133637,66.322412,73.768956,73.771241,30.784433,54.721733,61.805185,61.530581,16.708488,38.268645,46.369002,49.495549,1.73037,17.540884,28.429643,36.275403,52.295465,314.11919,-55.157804,307.311021
35,3.514709,-1.818735,35.982571,-3.505818,-25.446396,-51.627388,-74.502296,-93.590984,-60.4002,-91.116085,-108.340702,-121.596394,-53.501816,-87.031174,-105.85247,-119.326344,-44.560547,-75.013733,-93.096428,-105.39156,-35.857773,-59.152908,-73.578129,-84.92981,-17.252756,-20.270375,-15.375544,-13.209154,15.376964,29.825758,34.960984,36.872777,32.264961,47.509594,50.705239,50.273727,43.763073,59.94872,62.871182,61.85934,50.331094,66.015945,70.413254,70.904417,-1.537056,4.58828,11.03096,18.88258,32.974033,9.99052,-13.020744,-33.363762,36.219463,4.565792,-22.1842,-45.837078,34.990482,3.166866,-24.22554,-47.455502,30.913525,12.798901,-6.970367,-24.266968,39.884035,60.655824,71.853829,81.159493,50.189932,67.208222,74.428142,78.289519,33.626249,51.755614,59.528879,62.562862,15.094394,32.79163,40.910945,45.594775,-3.535396,8.345877,16.602586,25.015277,53.994684,312.626991,-20.990725,304.13174
36,1.12999,-4.091891,-67.989635,-65.831682,-24.210434,-48.425102,-70.390491,-90.150948,-58.112869,-89.874802,-108.720131,-123.530788,-51.688499,-86.560822,-106.578541,-121.265202,-43.990059,-76.224632,-95.33186,-108.678646,-36.587563,-62.880592,-77.868576,-89.141979,-16.742883,-18.628617,-12.812593,-10.962118,15.19832,30.138153,35.691615,37.902094,32.539009,47.929497,50.980337,50.627804,44.573856,60.54597,62.812828,61.630925,51.456865,67.347099,70.34539,69.090436,17.044373,37.968349,52.56134,61.906128,58.642159,78.867474,62.540703,42.979603,60.137043,78.684196,57.047939,33.180199,60.936127,79.373875,55.357475,29.333324,61.14584,77.768955,63.859692,45.449295,48.549471,78.8018,93.409478,100.639401,88.690511,114.90986,125.878524,129.16698,75.111657,104.210304,116.268677,118.366833,59.970086,87.594935,100.781674,103.043345,42.816748,64.134287,75.327352,76.572734,53.335848,308.562563,-90.769186,238.327521
37,-0.561562,0.669189,2.078419,-13.855928,-24.014053,-47.598953,-69.331112,-88.884258,-59.2733,-89.960117,-108.420124,-122.755165,-52.646484,-86.695862,-106.099377,-120.198555,-44.6418,-76.425877,-95.109959,-107.910118,-36.540985,-62.400856,-77.477417,-88.816509,-16.86589,-19.280578,-13.900512,-12.182615,16.455497,30.317168,35.216136,36.948915,33.769077,46.973106,49.246324,48.676924,45.25768,59.393461,61.049607,59.433907,51.416234,66.370022,69.353246,68.301945,13.934956,32.381229,45.397224,55.916862,45.583534,69.729252,55.583782,38.980637,48.800869,70.70406,54.150867,36.606846,51.24424,70.910797,54.03265,35.643024,50.792255,66.443424,56.534958,43.419342,43.352247,69.597716,82.272482,87.636308,83.246657,116.1608,128.749609,129.597257,73.073585,113.686769,129.190507,130.291146,60.033195,98.453931,116.049772,118.24821,44.751759,74.518977,90.980772,96.408386,51.996746,309.09513,-89.468307,224.334971
38,2.22084,-0.925639,-15.326099,-57.509085,-25.155945,-50.06916,-72.417583,-92.308388,-60.00206,-89.441414,-106.242542,-119.666119,-53.060303,-85.156918,-103.494473,-117.554169,-44.723282,-74.633846,-92.458763,-105.498276,-36.075554,-60.196838,-74.405136,-85.607243,-15.984835,-17.94362,-11.747028,-9.845362,17.776894,32.069644,37.177947,39.519955,34.090797,48.077327,51.746845,52.967589,45.195065,60.046162,63.025064,63.655289,51.89517,66.322351,69.689601,70.403003,35.591755,59.87772,72.365913,79.98127,70.188732,95.547409,98.082733,94.057045,59.637966,86.550579,88.641872,84.395485,45.154266,70.391521,74.577541,73.616581,27.341652,50.312519,59.327316,62.166195,6.692201,25.900469,45.478314,60.096674,35.537424,68.226672,85.454913,93.514145,42.594076,78.298534,96.5422,104.06871,50.12917,84.380826,99.868633,106.04602,57.996172,84.993699,96.771047,100.901532,54.147148,308.359929,-104.864845,167.016324
39,-0.008583,-0.607377,-27.928848,-78.923943,-27.013779,-52.681961,-75.002174,-94.572773,-59.26403,-86.207542,-101.710281,-114.757061,-50.322075,-79.890404,-97.94672,-111.697884,-40.407715,-67.156563,-84.441032,-97.514534,-30.286903,-51.91761,-65.806961,-77.909832,-13.528342,-14.403654,-6.272236,-2.801184,20.002687,37.094399,44.957634,49.60707,36.723526,54.453119,60.69485,63.775393,48.791409,66.951155,72.78941,75.548048,56.327059,72.477694,78.198622,81.067114,29.778557,63.746166,90.00967,108.145695,64.100304,102.093143,110.064754,108.979912,58.25489,99.829788,108.742962,108.234844,52.417316,91.515541,100.484333,98.958607,46.684456,79.051609,90.265331,92.20499,24.951736,37.674914,42.779203,46.165349,18.723003,30.805181,42.314285,48.898978,6.08751,18.001233,31.337902,38.593081,-2.957351,6.996507,17.28394,22.949355,-7.713892,-0.882969,5.826738,9.474551,54.258556,308.229929,-132.673702,88.569758
40,-0.177956,3.313033,-7.250805,-47.425644,-27.209473,-53.451118,-75.756283,-95.300961,-59.294128,-85.602322,-100.466766,-113.013897,-50.715408,-80.169182,-97.605743,-111.420994,-40.633736,-67.074623,-83.716049,-96.645184,-29.603691,-50.029106,-62.902222,-74.314671,-13.499381,-14.662512,-6.512137,-2.691947,20.138415,37.100944,44.975666,50.072236,37.107613,53.357666,60.610252,65.433145,49.173397,65.804512,72.789842,76.983374,56.728498,72.720743,79.984815,84.938309,19.355736,47.697887,72.849369,88.681526,51.658058,88.21043,93.744049,88.888435,51.318226,89.442215,95.066357,91.093597,49.535465,87.23711,92.082996,88.240643,47.037907,77.56319,82.978306,79.732132,-27.629141,-35.720082,-29.055761,-20.875437,-34.269842,-28.45672,-18.707473,-13.386625,-14.992506,-10.375613,-2.357013,2.323143,4.68556,8.613719,14.126858,17.27301,22.848486,22.676789,21.473675,20.605094,53.534746,311.383924,-140.470362,40.985076
41,0.094185,2.265561,-18.887157,-38.205289,-27.020187,-52.754402,-75.333366,-94.836445,-58.061371,-85.319252,-100.32074,-112.435799,-49.737511,-80.427303,-98.155804,-111.965103,-39.628716,-67.628174,-84.674664,-97.355232,-28.869553,-50.32299,-63.135109,-74.051228,-14.839736,-15.642059,-7.337307,-3.150383,18.813251,35.789057,43.572881,48.45524,36.012717,52.314332,59.61922,64.28397,48.121787,64.544371,71.072501,74.500761,55.458539,71.513708,78.479895,82.867818,17.353535,40.180435,59.676018,72.796154,52.611752,86.856651,86.082115,78.44902,55.06279,91.45546,87.94487,78.925209,56.679096,89.769115,86.110497,76.822643,58.109894,85.848427,83.486938,75.557785,-23.806791,-35.197457,-34.646983,-28.326396,-48.340909,-48.34659,-37.189309,-32.42298,-36.299918,-33.747187,-23.002245,-19.89058,-21.560218,-18.002499,-9.963552,-8.944763,-4.889459,-4.256888,0.666503,2.050886,50.95067,313.592273,-162.03578,2.722576
42,1.683311,-0.149004,0.809898,-3.746367,-27.332268,-53.182983,-75.884285,-95.758152,-59.272385,-86.754627,-101.811504,-114.173355,-51.021996,-81.266842,-99.094906,-113.193855,-40.681801,-68.687267,-86.07748,-99.211979,-29.355011,-51.671791,-64.898872,-76.349831,-15.466934,-15.894618,-7.061221,-2.576598,17.811104,34.568189,42.477738,47.782407,34.950363,51.256238,59.014128,64.445447,46.994719,63.407176,70.543485,75.007855,54.519377,70.272772,77.163932,81.848319,22.004013,43.372593,61.487045,73.588829,50.505238,82.079258,82.063065,74.228897,51.144791,85.357475,83.070545,73.882256,51.862736,84.567776,79.828777,70.257568,53.984871,81.487656,78.59951,70.411377,-24.987983,-38.265897,-39.859212,-32.88722,-58.3291,-57.147258,-44.396416,-38.153851,-49.442629,-44.917805,-33.099981,-29.203067,-37.246583,-29.649769,-19.056517,-16.847087,-22.159135,-15.876124,-10.114193,-8.56225,51.51741,313.657142,-162.342453,-0.809918
43,0.4636,-2.488048,-7.4049,-45.991336,-27.621803,-53.124733,-75.694885,-95.411396,-59.182205,-86.726646,-101.561394,-113.578377,-50.945778,-80.999851,-98.333988,-111.742802,-40.649414,-68.481674,-85.355816,-97.713375,-29.474831,-51.938553,-64.879532,-75.841656,-15.384065,-15.246177,-5.991889,-1.504734,18.154621,34.940483,42.998417,48.576641,34.653096,51.95408,60.21295,65.920232,46.498801,64.241362,71.641469,76.393102,54.07675,70.796415,77.689861,82.2731,25.247784,41.361637,53.408489,61.936512,42.696304,76.280479,72.58358,61.49065,42.091713,79.128227,73.387871,61.093826,43.267136,76.278019,69.691429,57.265377,44.582634,71.509323,66.391754,55.065708,-25.027071,-44.192176,-52.126116,-50.985154,-75.074792,-74.868206,-58.417217,-52.304513,-69.969176,-62.595775,-49.16012,-45.490417,-59.728333,-53.37403,-40.90406,-37.203203,-46.207247,-42.579533,-32.071929,-27.569583,49.940557,314.407641,-171.787806,-43.562708
44,-0.220413,-0.709944,1.481886,2.169274,-27.603493,-52.978706,-75.714912,-95.359325,-58.74115,-86.855106,-101.698952,-113.232536,-50.041351,-81.141014,-98.442421,-111.430149,-39.407845,-67.994041,-85.076866,-97.651463,-28.25695,-51.442108,-64.824829,-76.373062,-15.580926,-15.572651,-6.938276,-2.283715,17.595101,35.03706,43.444008,48.989134,34.386334,52.432831,60.783709,66.014031,46.467864,64.916356,72.345609,76.713957,54.061806,71.350255,78.5598,83.074188,24.583393,40.576191,52.679286,61.222592,42.394553,74.749613,72.036443,62.134543,41.882897,78.071776,72.537194,60.570259,43.121958,75.411601,68.765469,56.61037,44.593025,70.955315,65.739899,54.591289,-25.28646,-44.73546,-52.978733,-52.322895,-75.206,-77.023358,-62.620298,-57.412572,-69.996905,-63.640256,-50.450308,-46.414224,-59.569627,-53.718832,-41.181026,-36.953902,-45.919753,-42.546212,-32.224082,-27.509969,47.17535,313.768633,-172.850714,-41.322498
45,1.137772,-1.340293,1.481886,2.169273,-27.988701,-53.678398,-76.220913,-95.886612,-60.006294,-87.539062,-102.171535,-114.022694,-51.325378,-81.314278,-98.690643,-112.270832,-40.590935,-68.192825,-85.45435,-98.641262,-28.854561,-51.552315,-64.968452,-77.163792,-14.557413,-14.610456,-5.802933,-1.569634,17.989686,35.491358,44.017052,50.069828,34.366574,52.23912,60.609758,66.501427,46.377462,64.597723,72.298432,77.351036,54.255456,71.441398,78.892079,84.113015,23.919001,39.790745,51.950083,60.508671,42.0928,73.218746,71.489306,62.778435,41.67408,77.015324,71.686516,60.046692,42.97678,74.545183,67.839508,55.955363,44.603415,70.401306,65.088044,54.116869,-25.545846,-45.278741,-53.831348,-53.660634,-75.337205,-79.178508,-66.823378,-62.52063,-70.024632,-64.684734,-51.740495,-47.33803,-59.41092,-54.063633,-41.457991,-36.704599,-45.632257,-42.512889,-32.376235,-27.450353,46.522465,312.601889,-173.159485,-38.979675
46,0.136757,-0.403909,1.481886,2.169274,-28.0196,-53.899269,-76.438179,-95.998592,-59.970703,-86.989517,-101.748447,-113.843536,-51.223297,-80.717583,-97.945576,-111.488686,-40.651932,-67.572098,-84.560223,-97.661819,-29.063988,-51.02417,-64.128456,-76.001759,-14.234952,-14.366851,-5.756003,-1.255942,18.620775,36.344625,44.908296,50.990156,34.95697,53.270043,61.846804,67.723529,46.803601,65.408321,73.489474,78.69738,54.432741,71.96109,79.767391,85.133811,23.254609,39.005299,51.22088,59.79475,41.791048,71.68788,70.942168,63.422327,41.465264,75.958872,70.835839,59.523125,42.831602,73.678766,66.913548,55.300355,44.613805,69.847298,64.436188,53.64245,-25.805234,-45.822024,-54.683965,-54.998374,-75.468412,-81.333659,-71.026458,-67.628688,-70.052361,-65.729214,-53.030682,-48.261837,-59.252214,-54.408434,-41.734957,-36.455297,-45.344763,-42.479567,-32.528388,-27.390738,45.006552,311.818616,-173.330269,-37.189765
47,0.957184,0.416568,1.481886,2.169274,-28.199272,-54.091187,-76.656933,-96.281891,-59.953651,-87.353096,-102.033577,-113.873348,-51.06926,-81.282463,-98.377361,-111.721344,-40.458298,-68.051605,-85.06691,-98.056583,-28.97049,-51.237602,-64.439735,-76.074886,-14.67443,-15.214561,-6.781121,-1.874804,18.844929,35.987831,44.194585,49.668326,35.385827,52.767394,60.853796,66.360142,47.34225,65.192627,72.842021,77.757292,54.963424,71.869637,79.371757,84.402748,22.590218,38.219853,50.491676,59.08083,41.489296,70.157013,70.395031,64.066219,41.256447,74.90242,69.985161,58.999558,42.686424,72.812348,65.987587,54.645348,44.624195,69.293289,63.784332,53.16803,-26.064622,-46.365307,-55.536581,-56.336115,-75.599619,-83.48881,-75.229539,-72.736746,-70.080089,-66.773694,-54.32087,-49.185644,-59.093507,-54.753236,-42.011923,-36.205995,-45.057268,-42.446245,-32.680541,-27.331123,44.011545,310.538916,-173.800573,-36.716759
48,0.115013,-0.60361,1.481886,2.169274,-28.090553,-53.747749,-76.209068,-95.872993,-59.169159,-86.766872,-101.365128,-113.267956,-50.198593,-80.840778,-98.138752,-111.645012,-39.566116,-67.90123,-85.231876,-98.400936,-28.176727,-51.121788,-64.521904,-76.404533,-14.256441,-14.604096,-5.980157,-1.368698,18.720996,36.33598,44.562864,49.962876,35.279616,53.155496,61.406956,66.960356,47.253824,65.495574,73.094086,77.970022,54.92094,72.048652,79.369781,84.421829,21.925826,37.434406,49.762473,58.366909,41.187544,68.626146,69.847894,64.710112,41.04763,73.845968,69.134483,58.47599,42.541246,71.94593,65.061626,53.99034,44.634585,68.739281,63.132477,52.69361,-26.32401,-46.908589,-56.389197,-57.673855,-75.730826,-85.643962,-79.432619,-77.844805,-70.107818,-67.818174,-55.611057,-50.10945,-58.934801,-55.098037,-42.288889,-35.956693,-44.769774,-42.412923,-32.832694,-27.271508,42.912054,308.753202,-173.533192,-35.729589
49,0.918617,0.798495,1.481886,2.169274,-27.946815,-54.009933,-76.662712,-95.727081,-60.388412,-88.105202,-102.710667,-114.219646,-51.472893,-81.973343,-99.100113,-112.286568,-40.429459,-68.10791,-85.12476,-98.058472,-28.603363,-50.714264,-63.949814,-75.811043,-15.244756,-15.728077,-7.652482,-2.542017,18.419407,35.896255,44.051385,49.217116,35.451591,53.122768,61.244861,66.408369,47.545162,65.21918,72.909576,77.36036,54.970031,71.700626,79.126854,83.577948,21.261435,36.64896,49.03327,57.652988,40.885792,67.09528,69.300756,65.354004,40.838814,72.789516,68.283806,57.952423,42.396069,71.079512,64.135666,53.335333,44.644976,68.185272,62.480621,52.219191,-26.583398,-47.451872,-57.241813,-59.011596,-75.862033,-87.799113,-83.635699,-82.952863,-70.135546,-68.862654,-56.901244,-51.033257,-58.776095,-55.442839,-42.565855,-35.707392,-44.482279,-42.379601,-32.984847,-27.211893,42.932396,309.286448,-172.949581,-33.825564
50,1.046906,-1.199872,1.481886,2.169274,-28.722954,-54.49585,-76.907387,-95.842495,-60.299377,-87.638397,-102.011948,-113.453579,-51.461678,-81.412868,-98.50256,-111.993828,-40.47226,-67.630119,-84.570808,-97.626915,-28.675117,-50.258675,-63.481865,-75.587254,-13.828449,-13.964609,-5.78095,-0.760024,19.299103,37.197707,45.480722,50.597794,35.942815,54.150418,62.434051,67.856231,47.897325,65.915292,73.99132,78.848916,55.285082,72.2465,79.921706,84.664508,20.597043,35.863514,48.304067,56.939068,40.58404,65.564413,68.753619,65.997896,40.629997,71.733065,67.433128,57.428856,42.250891,70.213094,63.209705,52.680325,44.655366,67.631264,61.828766,51.744771,-26.842785,-47.995155,-58.09443,-60.349336,-75.993239,-89.954264,-87.83878,-88.060922,-70.163275,-69.907134,-58.191432,-51.957064,-58.617389,-55.78764,-42.842821,-35.45809,-44.194785,-42.346279,-33.137,-27.152279,42.752724,307.688641,-172.694273,-32.054225
51,1.48201,0.407244,1.481886,2.169274,-29.094772,-55.051231,-77.510433,-96.434612,-60.619469,-87.974968,-102.340164,-113.749866,-51.810036,-81.808033,-98.781967,-112.276268,-40.910683,-68.132973,-84.872475,-97.796516,-29.305344,-50.884666,-63.920403,-75.756397,-14.173819,-14.68857,-6.285574,-0.826097,18.781697,36.79176,45.073293,49.999679,35.605596,53.665986,62.094053,67.772868,47.658165,65.499897,73.606244,78.579808,55.125334,71.810542,79.385897,84.166244,19.932651,35.078068,47.574863,56.225147,40.282287,64.033546,68.206482,66.641788,40.42118,70.676613,66.582451,56.905288,42.105713,69.346676,62.283745,52.025318,44.665756,67.077255,61.17691,51.270351,-27.102173,-48.538438,-58.947046,-61.687076,-76.124446,-92.109415,-92.04186,-93.16898,-70.191004,-70.951614,-59.481619,-52.880871,-58.458683,-56.132442,-43.119788,-35.208788,-43.907291,-42.312957,-33.289153,-27.092664,43.683643,308.110072,-171.763477,-29.870764
52,0.709419,0.090094,1.481886,2.169274,-28.386841,-54.618416,-77.534065,-97.080116,-60.189056,-87.798901,-102.561207,-114.347076,-51.439705,-81.968365,-99.189949,-112.789593,-40.694962,-68.401566,-85.282459,-98.277855,-29.241257,-51.191826,-64.328384,-76.004333,-14.290713,-14.394453,-5.917233,-0.671968,19.773717,37.326704,45.697281,50.997936,36.568964,54.011603,62.139687,67.605586,48.386882,65.995753,73.775625,78.472794,55.55771,72.262061,79.894227,84.691369,19.26826,34.292621,46.84566,55.511226,39.980535,62.502679,67.659344,67.28568,40.212364,69.620161,65.731773,56.381721,41.960535,68.480258,61.357784,51.37031,44.676146,66.523246,60.525055,50.795931,-27.361561,-49.08172,-59.799662,-63.024817,-76.255653,-94.264566,-96.244941,-98.277039,-70.218732,-71.996094,-60.771807,-53.804678,-58.299976,-56.477243,-43.396754,-34.959486,-43.619796,-42.279635,-33.441306,-27.033049,44.379759,309.392921,-170.294895,-26.508734
53,-0.168228,0.966085,1.481886,2.169274,-28.65921,-54.721298,-77.683697,-97.094536,-60.773735,-88.014278,-102.356014,-113.686924,-52.154617,-82.475166,-99.569893,-112.841492,-41.4608,-69.060745,-85.810719,-98.394928,-30.06443,-52.205429,-65.418205,-76.943951,-14.547347,-14.723212,-6.346275,-1.264463,19.392285,36.890314,44.662776,49.195009,36.272995,53.523158,61.301919,66.263317,48.23053,65.714294,72.902845,76.92397,55.747654,72.440952,79.550339,83.682121,18.603868,33.507175,46.116457,54.797306,39.678783,60.971813,67.112207,67.929573,40.003547,68.563709,64.881095,55.858154,41.815357,67.61384,60.431823,50.715303,44.686536,65.969238,59.873199,50.321512,-27.620949,-49.625003,-60.652279,-64.362557,-76.38686,-96.419717,-100.448021,-103.385097,-70.246461,-73.040574,-62.061994,-54.728484,-58.14127,-56.822045,-43.67372,-34.710184,-43.332302,-42.246313,-33.593459,-26.973434,44.940405,311.231987,-168.084135,-23.466479
54,0.1577,0.734459,1.481885,2.169274,-28.657722,-54.903946,-77.761917,-97.085266,-60.203705,-87.709694,-102.107391,-113.43338,-51.595459,-82.167664,-99.121571,-112.198219,-41.107979,-68.799248,-85.589333,-98.324547,-30.022087,-51.610107,-64.543419,-75.979385,-14.041611,-14.499614,-6.181772,-1.352025,19.474042,37.464654,45.501594,50.120525,36.388159,54.063041,61.885892,66.744353,48.302346,65.793397,73.133915,77.312689,55.658116,71.993941,79.180639,83.626113,17.939477,32.72173,45.387254,54.083386,39.377032,59.440947,66.565071,68.573466,39.794732,67.507258,64.030419,55.334588,41.67018,66.747423,59.505864,50.060297,44.696928,65.41523,59.221344,49.847093,-27.880337,-50.168286,-61.504895,-65.700298,-76.518067,-98.574869,-104.651101,-108.493156,-70.274189,-74.085054,-63.352182,-55.652291,-57.982564,-57.166846,-43.950686,-34.460882,-43.044807,-42.212991,-33.745612,-26.913819,46.360559,313.654533,-165.339795,-19.609119
55,0.652428,0.723591,1.481886,2.169274,-28.46283,-55.048485,-77.906914,-97.473106,-61.061554,-88.036423,-102.476692,-114.171009,-52.116394,-82.049389,-99.195099,-112.771683,-41.305275,-68.399963,-85.437527,-98.613453,-29.776154,-51.179695,-64.316139,-76.154995,-13.892916,-14.174251,-5.840416,-0.96343,20.46773,37.942047,45.895438,50.60897,37.30824,54.437743,62.307895,67.332093,49.041683,66.265355,73.835832,78.21301,56.156751,72.393775,79.920347,84.710821,17.275085,31.936283,44.658051,53.369465,39.075279,57.91008,66.017933,69.217358,39.585915,66.450806,63.179741,54.81102,41.525002,65.881004,58.579903,49.405289,44.707317,64.861221,58.569489,49.372673,-28.139724,-50.711569,-62.357511,-67.038038,-76.649274,-100.73002,-108.854182,-113.601214,-70.301918,-75.129534,-64.642369,-56.576098,-57.823858,-57.511648,-44.227652,-34.211581,-42.757313,-42.179669,-33.897765,-26.854204,49.307842,314.769792,-161.563053,-17.048177
56,0.270424,0.215447,-1.368313,7.558096,-28.616066,-55.117035,-78.353462,-98.42371,-60.522766,-87.760906,-102.365856,-114.068413,-51.654282,-82.123661,-99.47216,-113.031349,-41.01368,-68.799362,-86.035423,-99.091816,-29.918976,-52.014427,-65.371513,-77.093353,-13.882789,-13.878529,-5.141525,0.087253,20.307302,38.164657,45.827204,50.170295,37.115703,54.463246,62.163707,67.091143,48.855197,66.571699,73.755186,77.76674,55.952913,72.833932,80.226135,84.861615,14.75853,29.745598,44.882584,55.714073,36.179295,66.572742,74.081841,74.804649,39.265194,72.634621,67.548523,56.86615,45.111065,72.791862,64.993057,54.620361,52.178593,71.776657,65.366306,56.517506,-27.288495,-44.924474,-53.245034,-55.519765,-66.549932,-75.330717,-67.86009,-64.388173,-61.050934,-54.562201,-43.439717,-38.959416,-50.003755,-43.314981,-30.557562,-23.462872,-35.477279,-28.773809,-19.539374,-15.68337,51.504879,315.388948,-161.004753,-9.086372
57,-1.365623,0.785527,3.657303,10.225899,-28.08197,-54.207458,-77.268391,-97.112961,-60.511322,-87.594852,-101.842403,-113.371868,-51.699944,-81.886539,-98.65202,-111.625729,-41.133041,-68.694191,-85.547218,-98.354588,-30.002518,-51.70681,-64.897842,-76.501293,-13.894954,-14.074648,-5.663933,-0.349878,20.501446,38.264693,45.807999,49.816033,37.250133,54.723647,62.370324,67.043472,48.935164,66.58269,73.581976,77.394755,56.065299,72.820964,80.086332,84.502104,9.625626,23.288555,38.062477,49.344692,29.927158,61.264057,59.457436,51.509228,37.18483,68.064079,63.654728,54.903374,45.518703,71.060543,64.685841,55.215454,52.899914,71.089497,64.217548,55.14576,-30.983207,-49.31533,-55.308516,-52.196728,-68.804038,-69.016336,-56.717383,-51.5611,-61.283641,-56.4333,-45.888676,-43.42289,-49.778026,-46.219689,-35.585991,-32.119816,-35.847874,-31.638318,-23.692213,-20.884916,52.515049,316.507572,-154.971657,1.472624
58,0.315514,0.198713,3.21104,2.993382,-28.253975,-54.848328,-78.123207,-97.666969,-60.888062,-88.423119,-103.018856,-114.587402,-52.142258,-82.47036,-99.498367,-112.435398,-41.49765,-69.453163,-86.531467,-99.176731,-30.26722,-52.30648,-65.435371,-76.742706,-14.255268,-14.259158,-5.872526,-0.375504,20.329903,37.824227,45.353393,49.385756,37.22815,54.405633,61.864897,66.274432,48.980427,66.339394,73.071115,76.492397,56.047082,72.611692,79.773505,84.060404,7.438774,20.736637,36.11927,47.831268,27.362709,59.82851,57.25502,48.135853,34.772987,66.231937,61.604691,52.767334,42.733383,69.23378,62.901421,53.610077,49.861965,68.625469,61.854343,53.207474,-30.569202,-48.841272,-55.209716,-53.603402,-70.596776,-68.09925,-55.753984,-51.785069,-62.557088,-58.026029,-46.144508,-43.813245,-50.09638,-45.279261,-34.367593,-32.858413,-35.888259,-30.554104,-23.698697,-23.5697,54.214096,317.053677,-150.377083,4.813398
59,0.012016,-0.152091,2.483139,0.008645,-28.588371,-54.933357,-78.317242,-97.839718,-60.615349,-88.141708,-102.774467,-114.441605,-51.875038,-82.325535,-99.494762,-112.573128,-41.32473,-69.119682,-86.299782,-99.04089,-30.278664,-52.373772,-65.747566,-77.337685,-14.042476,-14.393836,-6.061976,-0.155611,20.312242,38.078577,45.699504,49.961888,37.137686,54.525861,62.040886,66.61091,48.956591,66.541688,73.46922,77.158251,56.151502,72.985714,80.331111,84.738176,6.262665,18.835773,33.052082,43.503113,26.21521,58.844032,54.735031,45.173378,33.81031,65.182629,59.705315,50.79174,41.612434,68.264809,61.084156,51.808376,48.354778,67.681503,60.171776,51.275482,-30.248964,-48.630117,-55.97258,-55.227654,-71.166825,-67.427282,-55.947726,-53.01384,-62.744501,-57.742224,-46.592013,-44.498582,-49.662923,-44.768246,-34.431659,-33.410462,-34.978274,-30.542248,-23.797405,-23.784591,55.540152,317.079751,-146.579905,5.000209
60,-0.893555,0.353336,4.441624,-0.146595,-28.487663,-54.764099,-78.084812,-97.506351,-60.684357,-87.677193,-102.006111,-113.534489,-52.001152,-82.151585,-99.22554,-112.351742,-41.549263,-69.051476,-86.081142,-98.924847,-30.413017,-52.31369,-65.652695,-77.320862,-13.640296,-14.050442,-5.921309,-0.200812,20.489404,37.677014,45.086446,49.251326,37.22957,54.152703,61.5475,66.149388,49.0331,66.25566,73.038202,76.745512,56.449016,73.089764,80.302088,84.707733,6.083336,19.183159,33.857918,44.558144,24.99424,58.658237,54.529781,45.26104,31.909389,64.139214,58.386269,49.72435,39.272289,66.788063,59.64323,50.70322,45.601902,65.623913,58.227768,49.415703,-29.051315,-47.257899,-54.244402,-53.643077,-70.317788,-65.904146,-54.729668,-52.657818,-62.273654,-56.119917,-45.233103,-43.888117,-49.891616,-43.758009,-33.700812,-33.344574,-35.943278,-30.771157,-24.072132,-24.419386,55.469685,317.620947,-141.315193,5.041473
61,-0.580559,0.827209,7.984772,-1.327943,-27.87941,-54.568062,-77.696857,-97.993126,-60.569229,-86.939449,-101.207142,-112.744961,-51.732674,-81.607189,-98.766689,-112.30648,-41.283188,-68.478127,-85.638371,-98.862934,-30.346985,-51.869316,-65.192184,-77.148228,-13.25028,-13.183342,-4.781458,-0.013153,20.332805,37.649782,45.015433,49.021429,37.218208,54.0778,60.971616,64.987739,49.083612,66.425844,72.858817,76.219583,56.441297,72.937117,80.045515,84.542551,3.655071,16.213303,31.43692,42.912483,18.384933,53.329983,49.12674,39.418488,24.253235,59.288292,53.365459,44.455662,31.643486,63.165321,55.869141,46.272011,39.13559,62.962303,55.976143,46.449108,-28.061518,-47.665822,-54.595237,-52.322452,-68.783506,-68.978514,-58.672741,-56.498817,-59.202343,-59.456539,-48.896508,-47.427774,-46.740153,-47.67456,-37.320992,-35.949762,-33.261705,-35.333709,-27.962192,-26.411948,56.197071,318.697581,-132.022476,3.962956
62,-1.716042,0.559273,16.036892,-0.556927,-28.127403,-54.463806,-77.202415,-96.923676,-59.723396,-86.06472,-100.258598,-111.908112,-50.533218,-80.217762,-97.374973,-111.078415,-39.782524,-67.002869,-84.323788,-97.92017,-28.449898,-50.124321,-63.732376,-76.069508,-13.122086,-12.856683,-4.490799,0.200565,20.953953,38.609939,45.84752,49.653939,37.620697,54.553834,61.797651,66.152167,49.193527,66.697052,73.707391,77.622306,56.258392,73.100879,80.581447,85.510056,-0.336571,9.992008,25.136604,37.228088,8.825455,41.340752,39.905834,31.849022,15.012932,48.494911,44.920006,36.697311,22.960339,53.824024,48.670349,39.34267,31.486816,55.002651,50.162601,40.994911,-26.756114,-47.510952,-56.476001,-57.609028,-66.210891,-75.315063,-66.69943,-62.751973,-57.115673,-66.426184,-56.972844,-54.464512,-46.384748,-54.793549,-44.75253,-41.565623,-34.921927,-43.609963,-36.244929,-32.520484,55.729551,319.862734,-114.737062,4.011909
63,-1.264801,1.160352,10.814152,-1.963478,-27.518578,-54.142227,-76.912823,-96.561241,-60.338974,-86.167431,-100.260944,-112.029476,-51.160583,-80.104694,-96.959324,-110.356522,-40.234108,-66.717682,-83.870716,-97.422981,-28.645706,-50.134163,-63.702736,-75.948601,-13.842775,-13.450104,-4.988569,0.049277,20.802664,38.108835,44.972022,48.564538,37.517266,54.03581,61.180579,65.713862,49.135235,66.145065,73.197333,77.36351,56.270186,72.897288,80.386933,85.345306,1.100636,12.72646,29.423962,42.586555,5.32505,39.967632,39.444466,31.661167,10.397243,45.203133,43.604679,36.02829,17.974663,49.39436,46.653328,38.279514,26.510925,50.676498,47.791615,39.743042,-27.27031,-50.503408,-63.237825,-70.389696,-64.496669,-76.336137,-67.883556,-63.640098,-54.076102,-66.16146,-57.030581,-54.254005,-42.747495,-55.347759,-45.894388,-41.274963,-31.684723,-43.744702,-37.377833,-32.532587,55.302572,321.595312,-103.085089,2.620657
64,-0.13195,0.752614,10.602797,-17.361864,-27.439384,-54.066124,-77.108688,-96.655426,-59.806595,-86.708221,-101.32513,-113.272934,-50.801239,-80.744991,-98.105679,-111.526222,-39.969177,-67.454796,-84.983025,-98.300743,-28.624878,-50.590668,-64.226646,-76.125813,-14.642011,-14.387414,-6.141202,-0.904644,20.423023,37.764144,44.529087,48.132408,37.139662,53.666295,60.777596,65.25623,48.659633,65.974819,73.06846,77.20123,55.506149,72.430269,79.907565,84.833025,1.179948,11.338308,26.101999,37.596267,5.097107,35.836034,35.076095,27.701482,9.349153,40.615596,38.679994,31.694996,15.746647,44.117048,41.048641,33.16543,22.919368,45.359539,42.840128,35.684475,-19.887464,-36.733557,-45.662663,-51.359099,-49.919613,-57.0398,-49.259535,-45.932513,-42.851852,-49.270434,-41.149999,-39.159987,-34.887321,-41.612809,-33.236436,-29.660288,-26.950887,-34.365428,-28.304203,-24.395908,55.672388,322.868096,-91.980526,-14.221037
65,-0.764694,0.164565,10.602796,-17.361863,-27.642517,-54.16832,-77.094555,-96.626129,-59.883041,-86.426067,-100.904217,-113.081245,-50.848846,-80.621223,-97.987289,-111.785145,-40.070801,-67.456741,-84.918995,-98.574543,-28.709679,-50.800438,-64.524651,-76.785221,-14.154676,-14.080205,-5.769279,-1.037716,20.534976,38.060793,45.209329,49.105471,37.237227,53.714584,61.129388,65.967162,48.877489,65.909426,73.379003,77.954276,55.92846,72.565009,80.179205,85.410206,1.259262,9.950157,22.780037,32.60598,4.869164,31.704437,30.707726,23.741799,8.301064,36.028061,33.75531,27.361702,13.518631,38.839737,35.443955,28.051346,19.327812,40.04258,37.888642,31.625908,-12.504619,-22.963706,-28.087502,-32.328502,-35.342558,-37.743463,-30.635515,-28.224928,-31.627604,-32.379409,-25.269417,-24.065969,-27.027149,-27.877859,-20.578485,-18.045613,-22.217051,-24.986155,-19.230572,-16.259229,55.697594,323.061421,-80.58783,-31.55414
66,-2.572517,0.842399,10.602797,-17.361863,-27.714157,-53.589134,-76.191673,-95.485497,-59.348717,-86.887779,-101.57444,-113.833408,-50.226974,-80.747795,-98.266068,-112.098656,-39.433594,-67.141857,-84.330826,-97.770195,-27.830429,-50.291748,-64.025002,-76.357784,-14.534133,-14.791447,-6.41278,-1.136331,20.441177,37.718634,45.200128,49.489559,37.066858,53.654439,61.445365,66.891196,48.78122,66.151796,73.725237,78.729367,56.010711,72.866721,80.289429,85.530804,1.338575,8.562006,19.458074,27.615692,4.64122,27.572839,26.339355,19.782114,7.252973,31.440525,28.830625,23.028408,11.290615,33.562425,29.839267,22.937261,15.736255,34.72562,32.937155,27.567341,-5.121774,-9.193855,-10.512341,-13.297905,-20.765503,-18.447127,-12.011496,-10.517342,-20.403355,-15.488383,-9.388835,-8.971952,-19.166976,-14.14291,-7.920534,-6.430938,-17.483215,-15.606882,-10.156942,-8.12255,53.286295,324.361669,-69.823814,-48.458154
67,-1.246834,0.653566,10.602796,-17.361863,-27.822304,-53.644409,-76.377697,-95.596561,-59.93969,-87.723083,-102.200203,-114.106293,-50.90435,-81.518383,-98.856125,-112.526264,-39.935646,-67.972698,-85.232277,-98.683891,-27.903099,-50.289116,-63.895111,-76.140575,-14.977254,-15.123046,-6.785691,-1.304724,20.139526,37.575928,45.404275,50.137321,36.562172,54.048407,62.432445,68.363572,48.137966,66.219289,74.437713,80.087814,55.321144,72.664859,80.68772,86.527888,1.417889,7.173855,16.136113,22.625405,4.413277,23.441243,21.970986,15.82243,6.204884,26.852989,23.905941,18.695114,9.062599,28.285115,24.234581,17.823178,12.144699,29.408661,27.985668,23.508774,2.261071,4.575996,7.062821,5.732692,-6.188447,0.84921,6.612524,7.190243,-9.179106,1.402642,6.491747,6.122065,-11.306803,-0.40796,4.737417,5.183737,-12.749379,-6.227609,-1.083312,0.014128,52.167978,325.298098,-59.092501,-65.537154
68,-0.26825,-1.384074,10.602797,-17.361863,-28.205109,-54.412537,-76.869106,-95.922203,-60.381889,-87.689781,-102.425823,-114.563026,-51.544304,-81.110115,-98.610706,-112.686653,-40.611191,-67.698898,-84.808903,-98.248444,-28.188858,-49.248619,-62.324181,-74.472141,-13.572123,-13.784606,-5.119418,0.6879,21.260358,39.155813,47.820137,53.734468,37.419885,55.562465,64.681272,71.580522,48.956097,67.560817,76.710808,83.386089,56.118342,73.602354,82.247844,88.922631,1.497202,5.785704,12.81415,17.635116,4.185333,19.309645,17.602615,11.862745,5.156793,22.265453,18.981256,14.36182,6.834583,23.007803,18.629894,12.709093,8.553142,24.091701,23.034181,19.450207,9.643917,18.345846,24.637982,24.763289,8.388608,20.145547,25.236544,24.897828,2.045142,18.293667,22.372328,21.216083,-3.44663,13.326989,17.395369,16.798412,-8.015543,3.151664,7.990318,8.150807,51.90711,323.920971,-48.482323,-82.89207
69,-1.622887,0.750144,10.602796,-17.361863,-28.062744,-54.148293,-76.662197,-95.60955,-61.103439,-88.346558,-102.551823,-114.253006,-52.049332,-81.602383,-98.601494,-112.017059,-40.950966,-67.407703,-83.744259,-96.615772,-28.294373,-48.896027,-61.643143,-73.451042,-13.894028,-14.490043,-6.090443,0.004323,21.432024,39.380275,48.149513,54.287936,37.518995,55.932473,65.330022,72.573468,48.969744,68.158437,77.739261,84.963256,56.071906,74.03084,83.063814,90.16153,1.576516,4.397553,9.492188,12.644829,3.95739,15.178048,13.234246,7.903061,4.108704,17.677918,14.056572,10.028527,4.606568,17.730492,13.025208,7.595009,4.961586,18.774743,18.082695,15.39164,17.026762,32.115697,42.213143,43.793886,22.965663,39.441883,43.860564,42.605413,13.269391,35.184693,38.25291,36.3101,4.413542,27.061939,30.05332,28.413087,-3.281708,12.530937,17.063948,16.287486,50.146837,324.556213,-38.016913,-100.368835
70,0.398827,-1.157511,10.602797,-17.361864,-28.339691,-55.313301,-77.76392,-96.868629,-61.568642,-88.035507,-102.887936,-115.131226,-52.61879,-81.060219,-98.45232,-112.525177,-41.575012,-66.920815,-83.362255,-96.580582,-28.925285,-48.725624,-61.363449,-73.402634,-12.413068,-12.339708,-3.83396,2.043692,22.187541,40.956825,50.423163,57.359587,37.789955,57.298701,67.469673,75.705943,49.156415,69.229313,79.604247,87.83922,56.529662,74.758383,84.193723,91.925245,1.655828,3.009401,6.170225,7.654541,3.729446,11.04645,8.865875,3.943377,3.060614,13.090382,9.131887,5.695232,2.378551,12.45318,7.420521,2.480925,1.370029,13.457783,13.131208,11.333073,24.409608,45.885549,59.788305,62.824484,37.542719,58.738221,62.484585,60.312999,24.493641,52.075719,54.133493,51.404118,12.273716,40.796889,42.711272,40.027763,1.452129,21.910211,26.137579,24.424166,50.539427,323.254654,-27.420353,-117.874747
71,-0.563049,0.422805,10.602797,-17.361863,-28.672714,-55.009232,-77.656803,-96.431866,-60.642014,-88.52314,-103.271484,-115.076981,-51.442451,-81.263809,-98.411465,-111.876526,-40.349007,-67.011452,-83.389263,-96.196289,-28.079796,-48.900604,-61.369057,-72.901955,-12.838837,-12.961844,-4.526182,1.652132,21.257394,40.774106,50.574081,57.826544,37.155408,57.11802,67.59021,75.879153,48.963692,69.011952,79.433569,87.525281,56.654768,75.012239,84.14741,91.366095,1.735141,1.62125,2.848262,2.664253,3.501503,6.914852,4.497505,-0.016308,2.012523,8.502845,4.207202,1.361938,0.150535,7.175869,1.815834,-2.63316,-2.221528,8.140823,8.179721,7.274505,31.792453,59.6554,77.363467,81.85508,52.119775,78.034558,81.108604,78.020584,35.71789,68.966744,70.014075,66.498136,20.133889,54.531838,55.369223,51.642438,6.185965,31.289484,35.211209,32.560844,49.884424,323.447531,-16.909509,-135.466538
72,-0.649681,-0.199824,10.602796,-17.361863,-28.842087,-55.341225,-77.760601,-96.766262,-60.80246,-87.940178,-102.791977,-114.817944,-51.387177,-80.661106,-98.08073,-112.066784,-40.188217,-66.168022,-82.509041,-95.609722,-27.824936,-48.35289,-60.727615,-72.523956,-12.234918,-12.059855,-3.565963,2.379182,22.008279,41.753776,51.886339,59.484172,37.499543,57.794742,68.731111,77.475216,49.019577,69.608337,80.425466,88.835316,56.540221,75.273135,84.829505,92.563744,1.814455,0.233099,-0.4737,-2.326034,3.27356,2.783255,0.129135,-3.975992,0.964434,3.91531,-0.717482,-2.971355,-2.07748,1.898558,-3.788853,-7.747244,-5.813084,2.823864,3.228235,3.215939,39.175298,73.425251,94.938628,100.885677,66.69683,97.330894,99.732624,95.728169,46.942138,85.85777,85.894656,81.592153,27.994062,68.266788,68.027175,63.257113,10.919801,40.668757,44.284839,40.697523,49.218664,322.821907,-6.322792,-153.254201
73,-0.849609,1.376602,10.602797,-17.361863,-28.116417,-54.21936,-77.196178,-96.909828,-59.74102,-88.157215,-103.138504,-115.016441,-50.462265,-81.094036,-98.602524,-112.36084,-39.561195,-66.400681,-83.015556,-96.145248,-27.649269,-48.418694,-60.733566,-72.011547,-12.762575,-12.730403,-4.324875,2.056165,22.002351,41.392413,51.518677,58.993503,37.954026,58.305912,68.805458,76.711919,49.524942,70.083939,80.41503,88.198731,56.78679,75.976287,85.521295,92.922143,1.893768,-1.155052,-3.795662,-7.316322,3.045616,-1.348343,-4.239235,-7.935677,-0.083656,-0.672226,-5.642166,-7.304649,-4.305496,-3.378754,-9.393539,-12.861328,-9.40464,-2.493095,-1.723251,-0.842628,46.558143,87.195101,112.513789,119.916274,81.273885,116.627231,118.356644,113.435754,58.166387,102.748795,101.775238,96.686171,35.854234,82.001737,80.685126,74.871788,15.653637,50.04803,53.358469,48.834202,48.233328,323.565289,4.144278,-171.249284
74,-0.852013,1.646822,-5.301547,59.779084,-28.129578,-54.31675,-77.292137,-96.712818,-59.923897,-87.664719,-102.345028,-114.069614,-50.909958,-81.022797,-98.211994,-111.897068,-40.190163,-66.399364,-82.523632,-95.368938,-28.236351,-48.161659,-59.953651,-70.844193,-12.616844,-12.805986,-4.367607,2.838481,22.94071,42.0679,51.912213,58.814736,39.004524,58.879203,68.941556,76.289361,50.501586,70.611658,80.696056,88.094929,57.527425,76.406317,85.908655,93.121783,2.905526,1.307787,-0.315586,-3.520818,4.644885,2.359786,-0.152507,-3.67311,1.653256,2.127699,-2.279678,-4.654828,-1.980844,0.255389,-4.830251,-8.394828,-5.868402,0.470995,0.533738,0.304455,26.433043,50.955143,65.898866,68.854396,47.6952,71.198194,70.030834,64.327967,33.464316,64.836875,61.377571,55.750302,20.086784,52.863725,49.119365,42.833397,8.490882,34.104737,35.134989,30.395652,47.594261,324.406268,-0.944323,-112.276043
75,1.037407,-1.172826,-5.301547,59.779084,-28.827324,-55.800133,-78.278275,-97.35054,-60.514183,-87.456894,-102.569675,-115.092201,-51.719856,-80.313663,-97.702503,-112.025185,-40.941353,-66.049519,-82.410507,-95.681534,-28.624077,-48.052254,-60.108719,-71.599102,-11.316133,-10.567533,-1.264772,4.501358,23.928593,42.719306,52.279813,59.657135,39.165755,59.044509,69.156756,77.746547,50.346222,70.722376,80.849691,89.008526,57.775044,76.64103,86.067168,93.693838,3.917284,3.770627,3.164491,0.274686,6.244153,6.067914,3.934221,0.589456,3.390169,4.927625,1.082811,-2.005005,0.343809,3.889532,-0.266963,-3.928328,-2.332163,3.435087,2.790727,1.45154,6.307944,14.715185,19.283944,17.792517,14.116515,25.769157,21.705023,15.22018,8.762245,26.924955,20.979903,14.814433,4.319333,23.725713,17.553605,10.795006,1.328128,18.161445,16.911508,11.957103,48.739986,322.947723,-6.137552,-52.782678
76,-0.228653,0.207481,-5.301548,59.779084,-28.496361,-55.197601,-77.822456,-96.69754,-60.109177,-86.990948,-101.864376,-114.203682,-51.225357,-80.004559,-97.291489,-111.388321,-40.389175,-65.619564,-81.817532,-95.100746,-27.864304,-47.313881,-59.375038,-70.954056,-10.626011,-10.375057,-1.67992,4.133326,24.482989,43.219916,52.674028,59.76915,39.706071,58.993874,69.127672,77.52721,50.903273,70.808765,81.123307,89.273126,58.25046,76.994427,86.745929,94.668754,4.929042,6.233469,6.644569,4.070192,7.843423,9.776044,8.02095,4.852024,5.127082,7.727552,4.445301,0.644818,2.668462,7.523675,4.296327,0.538173,1.204076,6.399179,5.047718,2.598625,-13.817156,-21.524773,-27.330979,-33.269362,-19.46217,-19.65988,-26.620788,-33.887607,-15.939827,-10.986965,-19.417764,-26.121435,-11.448117,-5.4123,-14.012156,-21.243384,-5.834626,2.218152,-1.311972,-6.481446,48.855658,322.362468,-11.094776,6.20367
77,0.510521,2.494655,-5.301547,59.779084,-28.473358,-55.2911,-78.080578,-96.870117,-60.099449,-87.030373,-101.714001,-113.988647,-51.341286,-80.589581,-97.687798,-111.809006,-40.694504,-66.253624,-82.126465,-95.135193,-28.556442,-48.007393,-59.811516,-71.011391,-11.759563,-12.185456,-3.422825,2.611857,23.198148,41.878512,51.414813,58.270838,38.975069,57.80561,67.863826,75.978448,50.441009,69.516761,79.687425,87.51256,57.813947,75.904594,85.347282,92.872187,5.9408,8.696308,10.124645,7.865696,9.442692,13.484173,12.107677,9.11459,6.863995,10.527477,7.807789,3.29464,4.993114,11.157818,8.859615,5.004673,4.740314,9.36327,7.304707,3.745708,-33.942256,-57.764732,-73.945902,-84.331241,-53.040856,-65.088917,-74.946599,-82.995394,-40.641898,-48.898885,-59.815432,-67.057304,-27.215568,-34.550313,-45.577917,-53.281775,-12.997381,-13.725141,-19.535453,-24.919996,49.84437,323.968967,-15.918131,65.094598
78,-1.056519,1.319051,1.35006,-8.439583,-28.193893,-54.398689,-76.971588,-95.914879,-58.937187,-86.022606,-100.546474,-112.543144,-49.61071,-79.312992,-96.210537,-109.98024,-38.782654,-64.800797,-80.833454,-93.829422,-26.826096,-46.41037,-58.33374,-69.639759,-11.731652,-11.862069,-3.603507,2.236353,23.948848,42.77661,52.093265,58.334132,39.568799,58.795346,68.407106,75.336738,50.698941,70.210527,80.240708,87.433396,57.476419,76.01593,85.488629,92.672857,5.642796,7.911816,10.452976,10.548534,6.570225,9.613323,9.817829,9.116421,4.671993,6.308155,5.28986,4.432926,3.068447,4.873295,5.24271,5.859318,3.505039,4.366665,4.323177,3.874226,-27.485448,-44.079821,-55.853217,-63.026484,-35.654441,-38.596879,-44.774514,-50.835841,-23.595512,-19.485682,-23.16011,-26.211969,-11.075585,-7.556738,-12.927109,-17.119561,1.162081,5.00484,0.019421,-4.142619,50.121746,323.553217,-13.234177,54.920214
79,0.113411,2.655515,-0.529575,-4.257753,-28.73085,-54.616356,-76.842899,-95.178795,-58.524513,-85.5863,-100.128651,-112.170238,-49.450264,-79.310074,-96.122875,-110.018063,-38.866768,-65.167351,-81.084538,-94.010983,-27.207413,-46.802902,-58.695831,-69.812794,-11.791612,-12.40819,-3.924671,2.171144,23.280832,41.377099,50.424522,56.469764,39.234174,57.534897,66.865569,74.031457,50.628545,69.008123,78.188063,84.761456,57.729781,75.251831,83.908436,90.434343,5.002098,8.631821,11.903343,13.246536,8.077469,13.143425,12.196083,10.73822,5.126839,9.066353,7.933731,6.754532,2.432671,5.877113,6.077271,5.945663,1.208668,2.632713,3.396263,3.398895,-23.876939,-36.918719,-45.002403,-49.48255,-31.263832,-33.949666,-33.847408,-34.283088,-19.09579,-14.702186,-12.320998,-11.797077,-6.886313,-1.383425,-0.790127,-1.153652,4.503458,10.815091,10.248716,9.232613,51.219549,324.095108,-12.77936,48.548838
80,0.830498,1.444898,-0.564819,4.734357,-28.415108,-54.927177,-77.261066,-95.645714,-59.230614,-85.989246,-100.700798,-112.834396,-50.087357,-79.521904,-96.780682,-111.020966,-39.220734,-65.224113,-81.533089,-94.61483,-27.115631,-46.813087,-59.048538,-70.466881,-12.419181,-12.746211,-4.010319,1.869679,23.373025,40.896619,49.852528,56.042513,39.4122,57.25739,66.637278,73.825952,50.801817,68.929577,78.011642,84.393547,57.84828,75.175754,83.785738,90.156898,5.722318,9.379411,12.696214,13.947025,8.616653,13.461957,12.716756,11.47944,5.592475,9.271159,8.388686,7.404609,2.924261,6.244397,6.529317,6.504989,1.780257,3.163266,3.831878,3.818016,-24.908109,-39.100186,-48.153326,-53.53075,-33.537086,-37.470883,-38.400579,-39.565578,-21.379011,-18.587844,-17.218889,-17.234406,-9.019092,-5.141403,-5.546725,-6.480546,2.740355,7.882327,6.562916,4.946872,52.39028,323.827126,-13.003946,51.570316
81,0.310707,0.712476,-0.564818,4.734358,-28.290482,-54.982224,-77.438049,-96.26936,-59.328117,-86.016998,-100.918522,-113.252335,-50.433311,-79.500904,-96.874695,-111.295567,-39.776001,-65.570412,-81.830463,-95.028019,-27.70134,-47.280235,-59.466019,-70.934143,-11.749683,-11.675644,-3.039541,2.463162,23.664857,41.016414,49.854072,56.102719,39.512483,57.166494,66.460733,73.850096,50.821515,69.194609,78.299893,84.994193,57.863718,75.623754,84.409787,91.08371,6.442537,10.127001,13.489084,14.647512,9.155836,13.780489,13.237428,12.220659,6.058111,9.475965,8.843641,8.054685,3.415851,6.611681,6.981363,7.064314,2.351847,3.693819,4.267492,4.237137,-25.939279,-41.281653,-51.304249,-57.57895,-35.81034,-40.9921,-42.953751,-44.848069,-23.662233,-22.473501,-22.11678,-22.671736,-11.151872,-8.899382,-10.303324,-11.80744,0.977252,4.949563,2.877116,0.661131,53.279743,323.050877,-12.990007,54.815949
82,-0.679779,1.691714,-0.564819,4.734358,-28.674088,-54.382439,-76.798611,-95.642281,-58.291626,-85.797958,-100.524788,-112.814655,-49.264412,-79.507427,-96.790409,-110.978165,-38.639259,-65.266743,-81.751385,-94.820137,-26.956444,-47.161102,-59.521179,-70.952797,-12.395222,-12.688228,-4.113442,1.619034,22.958,40.432256,48.891691,54.695427,38.972661,56.450374,65.479643,72.623054,50.313124,68.552652,77.230561,83.526201,57.312595,75.155377,83.689592,90.127999,7.162757,10.874591,14.281955,15.348001,9.69502,14.099021,13.758102,12.961879,6.523748,9.680772,9.298597,8.704763,3.907443,6.978965,7.43341,7.62364,2.923437,4.224372,4.703107,4.656258,-26.97045,-43.46312,-54.455172,-61.627151,-38.083594,-44.513317,-47.506923,-50.130559,-25.945455,-26.359159,-27.014671,-28.109066,-13.284652,-12.65736,-15.059922,-17.134335,-0.785851,2.016799,-0.808684,-3.62461,53.295336,323.007158,-12.859455,57.814873
83,0.62748,0.48789,-0.564818,4.734358,-28.121109,-54.272346,-76.551018,-95.370998,-58.51181,-85.38414,-100.503731,-113.059044,-49.959641,-79.366779,-97.014599,-111.609077,-39.536934,-65.643425,-82.182083,-95.203457,-27.769775,-47.568626,-59.930992,-71.337605,-12.669703,-12.828648,-3.794563,2.035417,23.187774,40.133569,48.588435,54.584585,39.183786,56.139399,65.081476,72.365925,50.545182,68.183385,76.731679,83.081598,57.634624,74.761656,83.034914,89.291343,7.882977,11.622181,15.074825,16.048489,10.234203,14.417553,14.278774,13.703098,6.989384,9.885578,9.753552,9.354839,4.399033,7.346249,7.885456,8.182964,3.495026,4.754925,5.138722,5.075378,-28.00162,-45.644588,-57.606095,-65.675351,-40.356848,-48.034534,-52.060095,-55.41305,-28.228676,-30.244817,-31.912562,-33.546395,-15.417432,-16.415339,-19.816521,-22.461229,-2.548954,-0.915965,-4.494484,-7.910352,54.484949,322.288368,-12.862139,61.342551
84,-0.266533,0.275777,-0.564818,4.734357,-28.500137,-54.501915,-76.647663,-95.491276,-58.508263,-85.51157,-100.337677,-112.716923,-49.658089,-78.878975,-96.313591,-110.512619,-38.88588,-64.919987,-81.357594,-94.223156,-26.713257,-46.744537,-59.128647,-70.468426,-12.417884,-12.561516,-3.687241,1.95119,23.091443,40.158084,48.366998,54.147269,38.87596,56.368802,65.48835,72.952307,49.910388,68.220867,76.881054,83.439565,56.567576,74.162554,82.610504,89.134744,8.603196,12.369771,15.867695,16.748976,10.773387,14.736085,14.799447,14.444317,7.45502,10.090384,10.208506,10.004916,4.890623,7.713532,8.337502,8.742289,4.066615,5.285477,5.574336,5.494499,-29.032789,-47.826054,-60.757017,-69.72355,-42.630101,-51.55575,-56.613266,-60.69554,-30.511897,-34.130474,-36.810452,-38.983724,-17.55021,-20.173316,-24.573118,-27.788122,-4.312057,-3.848728,-8.180283,-12.196092,54.671831,321.726779,-12.973542,65.239541
85,0.081482,-0.083857,-0.564819,4.734358,-28.513412,-54.632263,-76.804276,-95.381126,-58.122025,-84.946804,-99.923458,-112.504005,-49.250336,-78.348942,-95.802555,-110.308113,-38.677483,-64.305725,-80.665684,-93.842125,-26.801376,-46.354294,-58.687019,-70.218029,-12.007985,-11.800257,-2.894551,2.873617,23.350177,40.664252,48.683901,53.97233,38.84564,56.752704,65.604873,72.672825,49.711305,68.461632,77.340786,83.990934,56.295134,74.266726,82.951922,89.64332,9.323416,13.117361,16.660567,17.449465,11.312571,15.054617,15.32012,15.185538,7.920656,10.295191,10.663462,10.654993,5.382214,8.080817,8.789549,9.301615,4.638205,5.816031,6.009951,5.91362,-30.06396,-50.007521,-63.90794,-73.77175,-44.903356,-55.076968,-61.166438,-65.97803,-32.795119,-38.016132,-41.708343,-44.421054,-19.68299,-23.931295,-29.329717,-33.115017,-6.07516,-6.781492,-11.866082,-16.481833,55.256195,320.690468,-13.035479,69.021446
86,0.236435,0.709327,-0.564818,4.734358,-28.41465,-54.625969,-76.784306,-95.505009,-58.373222,-85.043335,-99.901485,-112.443867,-49.431038,-78.459435,-95.871735,-110.34811,-38.780251,-64.550629,-81.148567,-94.373589,-26.791992,-46.513596,-59.011002,-70.531826,-12.178787,-12.163596,-3.482723,2.175405,23.353821,40.205199,48.081403,53.303326,38.821249,56.34546,65.185649,72.25002,49.552977,67.914462,76.655912,83.147485,56.034856,73.711158,82.380113,89.05348,10.043635,13.864951,17.453437,18.149953,11.851754,15.373149,15.840793,15.926757,8.386292,10.499997,11.118417,11.30507,5.873804,8.4481,9.241595,9.86094,5.209794,6.346583,6.445565,6.332741,-31.09513,-52.188989,-67.058863,-77.819951,-47.17661,-58.598185,-65.71961,-71.260521,-35.07834,-41.901789,-46.606234,-49.858384,-21.81577,-27.689273,-34.086315,-38.441911,-7.838263,-9.714256,-15.551882,-20.767574,56.139765,320.639894,-12.953162,72.995903
87,0.439453,0.046807,-0.564818,4.734358,-28.168373,-54.266739,-76.55508,-95.290947,-58.424263,-84.750938,-99.517765,-111.96167,-49.645958,-78.374691,-95.741901,-110.211296,-39.167061,-64.477901,-80.889587,-94.071865,-27.285576,-46.627235,-58.87928,-70.209789,-12.258198,-12.292778,-3.558429,2.261177,23.586805,40.313015,48.341125,53.628442,39.050281,56.422833,65.331689,72.330172,49.797446,68.108975,77.080508,83.630559,56.251291,74.009845,82.904992,89.736501,10.763855,14.612541,18.246307,18.850441,12.390937,15.69168,16.361465,16.667976,8.851928,10.704803,11.573371,11.955146,6.365394,8.815383,9.693641,10.420265,5.781383,6.877136,6.881179,6.751861,-32.1263,-54.370456,-70.209786,-81.868151,-49.449864,-62.119402,-70.272782,-76.543012,-37.361562,-45.787447,-51.504125,-55.295714,-23.948549,-31.447252,-38.842913,-43.768805,-9.601366,-12.64702,-19.237682,-25.053316,56.671972,320.124711,-13.425226,77.168271
88,0.248566,0.589161,-0.564819,4.734358,-27.662659,-54.105377,-76.682053,-95.503521,-58.425293,-84.789219,-99.565601,-111.769066,-49.851265,-78.809452,-96.245441,-110.51857,-39.425583,-65.093422,-81.551571,-94.599781,-27.483444,-46.960831,-59.287033,-70.494232,-12.479264,-12.373239,-3.630183,2.428026,23.876661,40.203841,48.085231,53.328273,39.486363,56.442964,65.272038,72.157579,50.212039,68.232476,76.970654,83.215349,56.56912,74.155823,82.864113,89.340558,11.484075,15.360131,19.039178,19.550929,12.930122,16.010213,16.882138,17.409196,9.317565,10.90961,12.028327,12.605224,6.856985,9.182668,10.145688,10.979591,6.352973,7.407689,7.316795,7.170983,-33.157471,-56.551923,-73.36071,-85.916351,-51.723118,-65.640619,-74.825954,-81.825502,-39.644784,-49.673105,-56.402016,-60.733044,-26.081329,-35.20523,-43.599512,-49.0957,-11.364469,-15.579784,-22.923482,-29.339057,57.219572,320.636961,-13.691011,81.825718
89,0.70816,-0.483012,-0.564818,4.734357,-28.128662,-54.818344,-77.220669,-95.955791,-58.976898,-84.949093,-99.79311,-112.362785,-50.060806,-78.490276,-95.924549,-110.454082,-39.311485,-64.656773,-81.119041,-94.383659,-26.991463,-46.496315,-59.027824,-70.665836,-11.82613,-11.564617,-2.782041,3.070354,24.705414,41.236246,49.053416,54.402051,39.980428,57.229047,66.117648,73.265382,50.531535,68.894564,77.683377,84.186992,56.822853,74.556583,83.310507,90.095148,12.204294,16.107721,19.832048,20.251417,13.469305,16.328745,17.402811,18.150415,9.783201,11.114416,12.483282,13.2553,7.348575,9.549951,10.597734,11.538915,6.924562,7.938242,7.752409,7.590103,-34.18864,-58.73339,-76.511632,-89.964551,-53.996371,-69.161835,-79.379125,-87.107992,-41.928005,-53.558762,-61.299906,-66.170372,-28.214108,-38.963208,-48.356109,-54.422593,-13.127571,-18.512547,-26.609281,-33.624797,57.908421,320.231986,-14.275141,86.638113
90,-0.541763,0.71649,-0.564819,4.734358,-28.397942,-54.375916,-76.717987,-95.698242,-58.098221,-85.115604,-99.946976,-112.334862,-48.8237,-78.5182,-95.923691,-110.152245,-37.97287,-64.316368,-80.969925,-94.150085,-25.985298,-46.281052,-58.986282,-70.605412,-12.37997,-11.867997,-2.959697,2.626739,23.934027,41.07199,49.073238,54.402916,39.433134,57.15118,66.058553,73.028075,50.118487,68.878633,77.772544,84.287151,56.447101,74.577949,83.315076,89.901931,12.924514,16.855312,20.624919,20.951906,14.008489,16.647277,17.923484,18.891635,10.248838,11.319223,12.938238,13.905378,7.840166,9.917236,11.049781,12.098241,7.496152,8.468795,8.188024,8.009224,-35.219811,-60.914857,-79.662555,-94.012751,-56.269625,-72.683052,-83.932297,-92.390483,-44.211226,-57.444419,-66.197798,-71.607702,-30.346887,-42.721186,-53.112708,-59.749488,-14.890674,-21.445311,-30.295081,-37.910538,57.341537,321.130146,-14.865079,91.55414
91,1.168442,1.488802,-0.564818,4.734358,-28.185196,-54.205627,-76.773376,-95.690403,-58.249626,-85.092316,-100.2384,-112.806301,-49.251137,-78.783875,-96.253796,-110.478287,-38.767548,-64.846001,-81.393127,-94.327984,-27.26223,-47.103539,-59.487419,-70.515461,-12.971045,-12.977158,-4.067253,2.569867,23.457376,40.449793,48.521683,53.959301,39.118145,56.699105,65.489893,72.149737,49.90798,68.530545,77.287371,83.326438,56.284204,74.2411,82.988293,89.372421,13.644733,17.602901,21.417789,21.652393,14.547672,16.965809,18.444157,19.632854,10.714474,11.524029,13.393192,14.555454,8.331757,10.284519,11.501827,12.657566,8.067741,8.999348,8.623638,8.428345,-36.250981,-63.096324,-82.813478,-98.060951,-58.542879,-76.204269,-88.485469,-97.672973,-46.494448,-61.330077,-71.095688,-77.045032,-32.479667,-46.479165,-57.869306,-65.076382,-16.653777,-24.378075,-33.980881,-42.19628,57.710838,322.796635,-16.229038,96.466185
92,1.08284,-0.385446,-3.689289,3.115648,-28.026466,-54.481316,-76.854801,-95.912647,-58.54454,-85.090084,-100.290699,-113.081932,-49.451065,-78.879604,-96.670589,-111.444283,-38.799019,-65.142632,-82.048302,-95.512562,-26.919937,-47.093353,-59.834518,-71.521282,-12.338473,-12.009158,-2.864108,2.558011,23.697523,41.100024,49.234097,54.676347,39.277091,56.835017,65.650383,72.528391,50.057477,68.50177,77.338439,83.744303,56.455623,73.999224,82.668364,89.415708,12.722454,17.402344,20.809822,23.07518,14.094315,17.459106,20.105667,22.574615,11.653004,14.99485,18.100319,19.913521,9.826927,13.679581,16.448593,18.550529,9.354572,12.018013,13.688507,15.319176,-31.390915,-56.565353,-74.261879,-89.381467,-55.306232,-75.764853,-88.535796,-99.358698,-47.089475,-67.121463,-81.143283,-91.638816,-36.164561,-54.6158,-67.472545,-77.744263,-21.799779,-33.197423,-43.013484,-51.54523,58.479481,322.776705,-20.232525,99.947349
93,0.333939,-0.633374,-1.443272,1.447399,-27.992821,-54.898338,-77.108345,-96.077442,-58.825378,-85.076752,-100.268555,-113.181553,-49.762001,-78.540859,-96.110001,-110.699673,-39.221992,-64.952774,-81.442852,-94.6768,-27.289696,-47.107773,-59.534798,-71.002293,-12.07517,-11.553811,-2.237217,3.129634,24.157008,41.546974,49.919651,55.837069,39.606899,57.586026,66.546752,73.909439,50.368514,69.441611,78.199301,84.904964,57.037991,74.819763,83.387571,90.316214,14.741421,19.07896,21.899128,24.013996,13.101196,16.962147,20.795689,25.371265,11.053791,15.05682,19.971943,24.885235,9.645195,14.136658,18.202,22.069874,9.314289,11.505604,13.744469,16.414089,-27.615927,-48.801073,-63.479115,-77.750376,-52.52064,-72.510051,-86.887368,-99.731454,-46.265879,-66.949025,-82.245929,-95.609398,-36.878427,-55.155777,-68.878231,-81.276757,-23.596932,-36.402424,-46.935438,-56.54547,58.57089,322.638045,-21.918325,101.889461
94,1.667404,0.071198,0.581017,2.495334,-28.107491,-54.682388,-77.196178,-96.567307,-58.972893,-85.472717,-100.778732,-113.582611,-50.1408,-79.35957,-97.392082,-112.117653,-39.55719,-65.604744,-82.43866,-95.651608,-27.711639,-48.024101,-60.773277,-72.172451,-12.719906,-12.354281,-3.03633,3.176009,24.028753,41.52425,49.932062,55.875725,39.868104,57.35545,66.213917,73.246054,50.830654,69.355593,78.295756,84.719589,57.426648,74.93431,83.593817,90.140843,10.671959,14.579258,17.587566,20.355663,9.156361,14.132824,18.168583,22.640476,8.708954,13.920307,19.236317,24.570751,8.978806,14.72208,18.966923,22.913532,10.265923,12.672386,15.095501,18.038921,-25.614565,-45.270184,-58.481808,-71.529979,-50.762729,-69.837833,-83.450649,-95.757197,-45.82424,-66.474195,-81.418381,-95.277242,-38.080398,-56.735383,-70.274778,-83.080672,-26.543322,-39.750994,-50.19904,-59.693074,59.736471,323.601475,-21.839132,105.277027
95,1.289749,-0.308258,-1.144352,-1.250631,-28.49659,-54.91951,-77.573376,-97.292919,-58.384895,-85.384254,-100.959091,-114.063892,-49.549713,-79.225616,-97.376919,-112.370281,-39.151382,-65.486641,-82.443638,-95.853939,-27.686691,-47.902565,-60.616951,-72.09177,-12.649757,-12.261656,-2.838852,3.208428,23.841093,41.646824,50.212348,56.195407,39.794621,57.554904,66.412568,73.432478,50.740931,69.591603,78.724612,85.268797,57.160751,75.104741,83.991181,90.737229,12.578945,16.916656,19.417305,21.858902,12.643032,17.286301,21.393127,25.764427,10.746231,16.547585,21.889114,26.837883,9.267197,15.841713,20.340042,23.582497,8.737106,13.066177,16.185379,18.890305,-22.811343,-41.074645,-53.744718,-66.121569,-49.553748,-67.576378,-82.749967,-96.42262,-45.002805,-64.949485,-81.191078,-96.560107,-37.740987,-56.688576,-71.414845,-85.046712,-27.29183,-40.598457,-51.573944,-61.149673,60.255804,324.283755,-23.753901,105.016934
96,0.606651,-0.488508,-0.903225,-1.528261,-28.599243,-54.572296,-77.028236,-96.726208,-58.751678,-86.052132,-101.256752,-113.781567,-49.649506,-79.487572,-97.459545,-111.998806,-38.872833,-65.241394,-82.053509,-95.090446,-27.15477,-47.369041,-60.124626,-71.526604,-13.372422,-12.646484,-2.813905,3.554415,24.141262,41.86221,50.169863,55.961867,40.203038,58.028035,66.837473,73.654718,51.026712,69.885041,78.989583,85.384271,57.188415,75.212434,83.992108,90.324242,8.659,15.785236,22.14838,27.470684,10.340996,16.756954,23.420963,31.152134,9.925861,17.191257,24.755344,32.429981,10.234165,17.297688,24.45322,31.065044,12.604179,17.362576,21.805859,26.463375,-27.476155,-47.243511,-60.913663,-76.219738,-47.288651,-65.521201,-79.537649,-91.360476,-40.103527,-58.288283,-72.177895,-85.442872,-29.954785,-45.630251,-58.616733,-71.107298,-16.637414,-27.081199,-36.357222,-45.20161,60.076847,324.880681,-25.442734,104.574107
97,2.134781,0.206802,-3.062096,3.309143,-28.884201,-54.765129,-77.47261,-96.937923,-59.150963,-86.584854,-101.830845,-114.531212,-50.465584,-79.997349,-97.916737,-112.555275,-39.777832,-65.911674,-82.829876,-95.931988,-28.147545,-48.257332,-60.859222,-72.142353,-13.733971,-13.611705,-3.814446,2.713437,22.609543,40.662152,49.107509,54.880308,38.996867,57.060283,65.860334,72.742788,50.296884,69.015533,77.966255,84.24232,56.797844,74.739488,83.291487,89.403975,5.784874,16.058464,25.750065,32.423687,11.129265,22.986546,30.806179,37.937908,11.724014,23.007145,32.203388,40.837727,13.193836,23.560009,31.661396,38.678112,16.774063,25.028515,31.320362,37.644825,-27.575912,-48.028421,-61.815003,-76.289114,-46.169579,-61.010889,-72.824144,-83.684899,-36.823067,-51.469061,-64.316883,-76.517066,-25.137296,-37.79119,-49.300726,-61.065723,-11.147648,-19.046081,-27.916219,-37.292618,61.479235,325.453833,-29.237223,108.249599
98,2.952919,-2.908506,-0.75531,-1.22377,-29.062157,-54.711456,-77.51009,-97.356148,-57.998199,-86.885319,-102.65625,-115.439529,-48.602371,-79.533005,-98.168507,-113.309441,-37.326622,-64.895897,-82.656841,-96.36097,-25.54184,-47.455444,-60.887604,-72.857323,-13.422378,-12.122285,-1.906235,4.267756,21.653399,40.867287,49.747182,55.987061,37.776741,57.401639,67.003643,74.58258,49.096147,69.373686,79.144639,86.156521,55.808973,74.945981,83.984636,90.541233,4.861164,19.1922,32.708874,40.980206,19.369984,36.003056,44.757328,51.046658,18.696384,33.903065,45.888577,53.9007,16.228752,30.637951,43.497677,52.307682,13.931179,25.533543,35.702534,42.578831,-26.878133,-41.359747,-47.466955,-51.823045,-37.542398,-44.07025,-45.880402,-47.516942,-22.827244,-25.159248,-28.607144,-31.713653,-7.074374,-9.548868,-12.460245,-14.762887,7.016452,10.041605,7.868423,5.498504,62.874699,323.031071,-31.549988,107.511574
99,0.770302,-1.39136,-6.067543,36.890561,-29.349632,-54.760666,-77.22496,-96.984158,-57.803535,-86.269684,-101.809673,-114.318466,-48.27507,-79.308586,-97.583141,-112.260418,-37.061348,-64.930916,-82.430077,-95.790367,-25.491142,-47.343178,-60.518875,-72.264519,-13.891805,-12.548795,-2.19251,4.293753,21.487353,41.22581,50.706598,57.119193,38.079009,58.183091,68.06291,75.246953,49.728904,70.099253,79.759734,86.366781,56.595241,75.608995,84.497102,90.858198,5.675926,22.441006,37.063351,43.107777,51.715908,71.876163,65.874081,58.589344,55.647869,75.622044,67.578449,59.58292,53.467312,70.59351,62.79562,54.568577,47.44257,59.935398,53.905621,46.452312,-33.847222,-54.309889,-66.900612,-77.339118,-50.851433,-59.94273,-57.555398,-53.04311,-36.044148,-44.162011,-43.942921,-40.628313,-21.605111,-27.023524,-28.739753,-27.539634,-7.432774,-9.097071,-11.228139,-12.196077,62.544336,321.928857,-38.718195,144.691281
100,1.34079,-0.571562,-1.9701,6.644653,-29.418068,-55.257568,-78.007336,-97.66119,-57.759933,-86.515503,-102.365341,-115.143356,-48.533821,-79.610939,-98.023224,-112.840405,-37.594986,-65.494881,-83.084106,-96.442966,-26.161995,-47.693596,-60.835075,-72.485962,-13.661661,-12.69712,-2.622169,4.114183,21.696501,41.052909,50.265823,56.684285,38.110687,57.823703,67.566807,75.059478,49.597684,69.554182,79.357307,86.451194,56.395046,75.225278,84.269305,91.043696,8.747234,27.442303,43.221874,49.256458,41.33749,72.542439,73.316174,67.770824,42.400074,75.151691,74.88287,68.313046,40.276852,69.492359,70.394039,65.071163,36.287327,57.420673,58.370876,54.245167,-31.188034,-50.442183,-62.349947,-72.727536,-45.634975,-49.514691,-46.439552,-43.799042,-29.662304,-33.14052,-31.508765,-28.928401,-13.100906,-16.981055,-17.806843,-17.366439,3.13408,0.216991,-2.106862,-3.622279,63.203459,321.485643,-41.369963,151.464282
101,1.13102,-1.737039,-8.977661,20.299213,-29.61216,-55.00248,-77.360115,-96.825256,-58.111153,-87.082272,-102.585869,-114.936676,-48.731575,-80.048733,-98.082848,-112.43557,-37.593956,-65.352974,-82.599621,-95.82613,-26.138649,-47.848206,-60.890121,-72.536545,-14.339372,-13.463998,-2.899058,3.892808,20.264818,39.780048,49.457634,56.56313,36.976394,57.006437,67.277877,75.319015,48.774366,69.173429,79.480931,86.934144,55.808973,74.579554,83.581344,90.344496,13.81402,34.298658,51.288242,59.903469,55.759334,87.356014,87.774868,81.593513,54.654808,88.156528,88.09925,81.177177,49.251365,79.712848,80.431537,74.680481,41.168804,64.904422,66.582698,62.673969,-28.293946,-44.661078,-54.756529,-64.94263,-37.911943,-32.288919,-27.757196,-26.142268,-21.212563,-15.453812,-12.341005,-10.530544,-3.789005,-0.342128,0.064406,-0.133504,13.517999,15.009025,12.839702,10.592265,63.672552,319.687718,-51.00955,171.702609
102,0.373764,-1.649477,-8.977661,20.299213,-28.942909,-54.603767,-77.08374,-96.820107,-58.167801,-87.272701,-102.787628,-115.127735,-48.921089,-79.883194,-97.838345,-111.978149,-37.849045,-65.386047,-82.571983,-95.782986,-26.127663,-47.408295,-60.319519,-72.041702,-13.95337,-12.807715,-2.402091,3.796909,20.511881,40.236692,49.896741,56.926346,36.847212,57.649135,68.008754,76.070888,48.567749,69.464891,79.959065,87.840208,55.800698,75.284435,84.751946,91.988601,18.880806,41.155014,59.35461,70.55048,70.181179,102.16959,102.233562,95.416203,66.909542,101.161366,101.315632,94.041309,58.22588,89.933338,90.469036,84.289799,46.050282,72.388172,74.794521,71.102772,-25.399859,-38.879974,-47.163112,-57.157725,-30.188912,-15.063148,-9.074841,-8.485495,-12.762822,2.232895,6.826755,7.867311,5.522895,16.296798,17.935654,17.09943,23.901917,29.801058,27.786265,24.806808,63.821955,317.984765,-60.211573,191.948346
103,-0.122681,-1.790947,-1.045761,16.290253,-29.188957,-54.449043,-76.52298,-95.486298,-57.74231,-87.080784,-102.520866,-114.521828,-48.388023,-79.671936,-97.631779,-111.624355,-37.208977,-65.233612,-82.384472,-95.315552,-25.407829,-47.063828,-60.029526,-71.825409,-13.104672,-12.273388,-2.035911,3.836368,20.086112,39.75084,49.874079,57.470491,36.512957,57.428562,68.178012,76.368093,48.531625,69.173553,79.759673,87.416785,56.184847,75.350693,84.890329,92.144459,22.15868,45.519905,63.024158,73.305187,61.670208,92.69331,103.443432,108.322849,53.788548,86.109867,99.958134,106.451397,43.591576,75.152721,90.206165,97.241421,32.922993,57.48579,70.124187,78.289318,-23.262368,-34.364907,-40.634365,-42.264699,-19.85072,-5.466208,5.779715,12.905033,-5.364691,7.376704,17.176618,21.4855,9.642018,18.640844,24.183808,26.712919,24.629769,29.169042,30.795424,29.960559,63.589525,316.085045,-61.367083,208.129825
104,-0.297089,-1.638053,1.445389,12.11117,-28.903885,-53.534088,-75.492897,-94.984245,-56.901512,-86.298008,-101.848412,-114.063892,-47.779655,-79.354362,-97.440319,-111.574631,-36.952629,-65.295296,-82.826271,-95.826931,-25.374756,-47.138901,-60.124397,-71.562424,-12.756647,-11.455319,-1.387655,4.681175,20.601296,39.573184,49.424783,56.729362,37.120087,57.139447,67.755331,75.891071,48.981415,69.21616,79.509522,86.897526,56.313782,75.295921,84.523099,91.538687,22.823811,44.156628,61.096745,73.051929,52.585545,77.183247,90.455647,102.763081,45.801601,69.536076,84.571438,99.354572,37.338638,60.159016,76.632442,91.335354,29.151134,43.849297,55.252476,66.462193,-18.758417,-24.27489,-28.080012,-28.827501,-7.126677,2.333301,11.723377,20.707507,2.234809,16.972533,28.482069,38.046467,10.451751,23.819542,33.407282,40.46276,16.474701,27.62732,34.946843,39.378423,63.251638,314.354937,-59.962492,220.148941
105,-1.75518,4.397247,-11.014967,27.96247,-33.391342,-56.990662,-79.087486,-96.243725,-54.813194,-85.889168,-100.930653,-112.951756,-46.026077,-78.207378,-96.058273,-109.835701,-35.760612,-65.158653,-82.745762,-96.123219,-24.684792,-46.912651,-60.105515,-72.132797,-2.592653,-1.763777,-0.342591,0.383285,15.863928,33.942225,44.22441,51.734557,29.682744,52.014595,63.394393,71.02625,41.737103,63.734823,74.69546,81.446632,51.18893,69.677312,79.180269,86.089584,28.076334,51.099243,69.641047,82.444639,66.201067,95.143919,103.970862,106.973562,59.346171,88.343783,96.934462,99.575472,49.599953,76.932421,86.086035,89.618597,38.966389,59.252186,67.719469,71.82292,-17.593742,-19.541813,-19.368418,-15.444334,4.263125,23.019041,32.602211,38.984733,18.313381,42.681576,53.845217,60.294029,30.401333,53.018996,62.806591,68.167113,39.658307,57.913735,65.002991,67.855212,61.129074,318.804765,-71.344843,248.163991
106,-0.337029,-3.807592,-11.014967,27.96247,-30.799255,-54.227715,-70.1754,-80.312405,-56.483116,-82.636127,-99.644337,-114.723701,-50.200882,-76.525154,-94.956608,-111.08963,-40.642319,-63.772774,-79.733791,-94.098186,-28.115044,-46.240654,-58.365326,-69.914818,-5.266137,2.333857,11.357506,18.661839,24.121008,37.409141,44.958746,50.082425,35.829997,52.030403,61.910469,69.44686,44.459864,61.7154,70.653895,77.097551,50.581306,66.628633,76.525618,84.03842,33.328857,58.041859,78.185349,91.837349,79.816589,113.104591,117.486076,111.184044,72.890739,107.151489,109.297485,99.796371,61.861267,93.705826,95.539627,87.90184,48.781643,74.655075,80.186462,77.183647,-16.429068,-14.808737,-10.656824,-2.061167,15.652927,43.70478,53.481044,57.26196,34.391954,68.390619,79.208365,82.54159,50.350915,82.218451,92.2059,95.871467,62.841912,88.200151,95.05914,96.332001,58.561764,315.209671,-84.590092,276.33896
107,0.741005,-1.30176,-7.928467,5.639233,-27.061958,-49.413528,-65.575104,-77.282581,-54.657326,-79.609222,-96.012039,-111.460648,-50.295753,-75.420799,-92.793961,-108.338699,-42.570305,-64.756851,-79.825802,-92.120018,-32.193489,-48.806648,-60.226479,-71.174355,6.730918,21.3444,31.286093,39.991543,31.238175,40.650481,45.678694,48.957579,36.605459,48.64222,54.791511,58.769781,40.58163,55.389873,62.373165,67.013338,41.65232,57.928741,67.032542,74.271173,32.369614,60.679207,83.36174,101.613007,62.316914,101.10981,117.490425,124.593544,55.460415,99.778061,117.062531,121.83712,47.722664,89.895973,106.106186,111.405144,38.968105,72.120838,86.96331,93.084526,-15.515532,-16.13353,-10.69159,-4.901748,11.76228,34.319026,40.736623,43.548552,32.943227,56.436172,61.385838,61.66038,48.997593,70.913,73.493364,71.502593,60.04962,76.340552,77.664296,75.250596,58.311281,313.881373,-93.510046,281.951656
108,-1.117287,-0.999924,-7.433681,12.25863,-27.236595,-50.719185,-66.515236,-83.633709,-46.054802,-70.42614,-91.198254,-109.727554,-43.039513,-68.956032,-90.386868,-109.90551,-37.084808,-61.551933,-83.369064,-102.080441,-29.469795,-46.67244,-62.689705,-79.310818,-13.219405,-11.660392,-9.161476,-10.247543,27.722724,29.696205,28.090571,23.282622,40.588175,46.013875,43.719847,38.718867,50.069828,61.440981,62.92472,60.439574,55.872267,73.97051,83.254746,88.564232,37.65976,66.804428,90.312824,107.779255,63.580742,96.389294,114.641705,128.302746,52.862835,88.632717,109.94791,125.185146,43.695774,74.261684,94.200153,108.179913,35.624371,58.604851,72.940865,84.140911,-10.233093,-8.00872,0.248298,6.003375,22.088122,40.118378,49.493202,57.064297,38.700156,60.413269,69.160338,74.555595,50.359807,72.212537,81.774403,86.025363,56.979946,77.336648,85.378034,88.463208,56.449184,312.884398,-101.688538,294.213234
109,2.720146,2.38017,2.42981,11.026648,-27.052231,-51.851578,-68.337708,-79.289646,-60.990601,-75.972633,-75.097275,-68.167191,-55.19783,-69.044151,-65.682564,-56.650429,-47.657776,-61.053429,-57.563667,-47.987823,-38.883476,-49.939384,-49.165649,-43.546715,-8.016562,-4.209587,1.532089,4.533036,20.911592,36.12961,49.327711,58.775648,30.173907,47.671009,60.465015,67.14746,36.618612,52.971294,61.60252,64.23636,41.121205,53.57688,59.222227,61.877741,33.631325,61.455688,84.734402,103.029842,63.551674,94.68401,112.284336,124.964275,52.179165,87.492313,108.319874,122.692165,42.022877,73.09782,92.495213,106.576824,33.047104,57.287865,71.737461,83.570995,-9.265094,-6.664228,1.105826,4.662774,22.892421,42.321077,52.46031,60.793281,39.403185,61.278886,71.456342,78.420677,51.354854,72.650656,81.615087,86.308489,58.725383,76.561989,83.625125,87.777099,58.452044,315.268349,-99.976015,305.243664
110,-2.96505,-4.471718,5.075169,4.533592,-25.924644,-49.127426,-63.553047,-71.742668,-59.213791,-68.713989,-66.93821,-59.039383,-52.811508,-62.754021,-57.433662,-45.685844,-44.888878,-54.213753,-49.336281,-38.79879,-35.783386,-41.754456,-39.965401,-34.839478,-7.833657,-2.610622,5.207289,10.735865,27.34123,45.148814,57.069669,64.62125,36.200315,55.52103,68.87536,76.144124,42.032641,60.811065,71.826659,77.382344,45.524441,60.658294,69.282974,75.221388,31.284313,58.522224,82.636986,102.669182,57.62249,90.718231,107.543449,118.866234,46.942406,84.412079,105.396423,119.753494,37.311687,70.618973,90.355568,104.440842,28.846207,52.855511,67.019634,79.320717,-8.9196,-7.015279,1.311579,4.07528,24.439208,44.277824,53.204649,59.822564,41.10163,62.11054,71.253615,76.784106,52.506808,73.007574,81.890556,86.375303,59.522642,78.071293,85.263549,89.455475,55.040445,310.781024,-95.347395,309.761648
