takenoko1/special-research/HandMotion_SimilarSearch_自分用/NewProject/handData/key/d4_feature_d2/89.csv
,vel_0x_L,vel_0y_L,vel_0x_R,vel_0y_R,posFromWrist_1x_L,posFromWrist_2x_L,posFromWrist_3x_L,posFromWrist_4x_L,posFromWrist_5x_L,posFromWrist_6x_L,posFromWrist_7x_L,posFromWrist_8x_L,posFromWrist_9x_L,posFromWrist_10x_L,posFromWrist_11x_L,posFromWrist_12x_L,posFromWrist_13x_L,posFromWrist_14x_L,posFromWrist_15x_L,posFromWrist_16x_L,posFromWrist_17x_L,posFromWrist_18x_L,posFromWrist_19x_L,posFromWrist_20x_L,posFromWrist_1y_L,posFromWrist_2y_L,posFromWrist_3y_L,posFromWrist_4y_L,posFromWrist_5y_L,posFromWrist_6y_L,posFromWrist_7y_L,posFromWrist_8y_L,posFromWrist_9y_L,posFromWrist_10y_L,posFromWrist_11y_L,posFromWrist_12y_L,posFromWrist_13y_L,posFromWrist_14y_L,posFromWrist_15y_L,posFromWrist_16y_L,posFromWrist_17y_L,posFromWrist_18y_L,posFromWrist_19y_L,posFromWrist_20y_L,posFromWrist_1x_R,posFromWrist_2x_R,posFromWrist_3x_R,posFromWrist_4x_R,posFromWrist_5x_R,posFromWrist_6x_R,posFromWrist_7x_R,posFromWrist_8x_R,posFromWrist_9x_R,posFromWrist_10x_R,posFromWrist_11x_R,posFromWrist_12x_R,posFromWrist_13x_R,posFromWrist_14x_R,posFromWrist_15x_R,posFromWrist_16x_R,posFromWrist_17x_R,posFromWrist_18x_R,posFromWrist_19x_R,posFromWrist_20x_R,posFromWrist_1y_R,posFromWrist_2y_R,posFromWrist_3y_R,posFromWrist_4y_R,posFromWrist_5y_R,posFromWrist_6y_R,posFromWrist_7y_R,posFromWrist_8y_R,posFromWrist_9y_R,posFromWrist_10y_R,posFromWrist_11y_R,posFromWrist_12y_R,posFromWrist_13y_R,posFromWrist_14y_R,posFromWrist_15y_R,posFromWrist_16y_R,posFromWrist_17y_R,posFromWrist_18y_R,posFromWrist_19y_R,posFromWrist_20y_R,posFromBody_0x_L,posFromBody_0y_L,posFromBody_0x_R,posFromBody_0y_R
2,-11.100426,2.287544,4.06311,-1.517208,27.049599,51.895237,70.964756,77.59306,40.604839,79.663181,92.910175,96.40646,32.55106,77.959614,91.075802,95.510387,24.354115,67.880459,80.43108,83.173428,15.013618,50.168552,61.56229,64.928341,-24.931297,-36.810656,-39.76109,-38.615867,-15.95149,-1.273232,1.052536,2.683364,7.266912,27.14721,27.47035,24.063148,25.409307,42.28236,39.629377,35.666791,38.3743,52.595358,48.23337,41.805461,25.420361,51.394444,75.616493,96.981239,50.129585,83.751068,102.350922,115.321884,42.074318,81.121788,101.34716,114.525261,34.707756,71.183052,90.020142,102.139549,28.887863,58.499565,73.763466,83.355904,-15.457363,-16.888182,-13.425219,-11.115012,18.968677,30.709715,34.760912,37.360173,36.119051,46.786805,48.023481,47.758818,46.335101,56.926779,56.463403,53.924474,51.117547,58.356239,56.841686,53.895266,-51.592741,305.190265,-66.029634,295.754
3,7.355747,1.727715,-1.214333,0.027849,24.165287,45.735168,60.396767,65.181427,35.347366,68.264236,82.166748,88.057137,26.631832,64.100418,79.057732,88.167572,17.265186,54.073334,68.490944,75.342407,6.713333,36.03756,48.606949,54.474335,-25.700336,-38.553808,-42.388879,-41.166221,-14.962742,-1.918091,1.23859,3.464075,7.462599,24.951427,26.782821,25.325882,24.521953,39.262641,37.154173,34.380406,37.024374,49.460413,45.305228,39.297098,25.337334,51.84763,75.942535,95.827103,53.09824,85.877037,103.644447,116.378517,44.291611,82.141457,101.285591,113.743057,36.415787,71.144371,89.47403,101.106148,29.931049,58.052444,72.810516,82.228317,-16.629015,-18.304181,-14.499923,-12.179034,19.044259,31.093308,35.500312,38.826251,36.166537,46.201411,47.248945,46.600319,46.437236,56.107412,55.607975,53.289803,51.39036,58.211681,56.419252,53.375327,-44.23645,306.765719,-67.243423,295.629588
4,-2.907085,-0.534697,-0.033989,-1.304601,25.24395,48.416805,64.812183,69.664593,37.067299,72.185726,85.76952,91.500378,29.399471,69.293232,83.305378,90.608997,21.336021,60.435162,73.278637,78.548298,11.800747,44.197712,55.265636,59.825077,-24.653296,-37.42748,-41.71969,-40.577369,-15.738204,-3.219296,-1.169738,0.307579,6.864855,25.12544,26.458446,24.336208,24.106373,39.460613,37.54425,34.853291,36.754463,49.63566,45.723895,39.849517,26.130009,52.92841,76.967697,97.113991,53.148022,85.414124,102.597656,114.946861,44.065475,81.52256,100.313759,112.915649,35.765476,70.300255,88.211517,99.971008,28.808441,56.845322,71.359177,80.682678,-15.739069,-16.935977,-12.223,-9.082251,18.620466,32.020985,36.174565,38.995694,35.549218,46.495343,47.770551,47.33237,45.922732,56.610802,56.962841,55.256862,51.098898,58.860307,57.697424,55.1199,-47.16342,306.127745,-67.297297,294.221709
5,1.683998,-2.23308,-0.081081,1.117188,24.081688,45.9268,59.454517,61.243916,35.380783,71.81757,86.414852,92.02177,26.772995,67.39912,82.480259,90.475559,17.686157,57.304745,71.981907,78.295727,7.64677,40.195141,53.22298,58.753796,-23.859186,-34.004593,-36.715869,-35.710387,-13.240029,3.309822,7.58894,9.983251,8.415161,26.677104,29.389429,27.344935,25.334774,40.142955,39.145068,36.443488,38.125692,50.512208,47.093272,41.688691,25.776215,52.387104,76.667576,97.416058,52.579823,85.553684,103.232746,115.503902,43.939819,82.531528,101.950092,114.648228,35.991211,71.654606,89.894085,101.682301,29.489193,58.398228,73.04987,82.343616,-15.995641,-17.443133,-12.561145,-8.891318,18.167156,30.831734,35.010569,37.896413,35.236205,45.726365,47.08932,46.835897,45.739395,55.751051,55.546286,53.6453,51.1307,58.003459,56.657238,54.209946,-45.42635,303.828267,-67.325306,295.272501
6,3.400612,0.909769,-0.313797,-0.682157,22.972355,42.949162,55.120869,55.803509,33.159657,68.954945,80.429935,83.479671,25.644093,67.290401,79.500217,83.674564,17.730904,59.11108,70.691013,73.625965,8.498898,42.245922,53.056812,56.08881,-25.33465,-35.226078,-37.786991,-36.857956,-14.953048,3.590848,6.561228,6.703007,6.360045,27.847583,29.09383,25.816303,23.447187,40.71853,38.214057,34.382938,36.420084,50.009127,45.216554,38.907144,26.128006,53.216629,77.675571,98.522816,51.923676,85.401363,103.398685,115.968761,43.071613,82.317867,102.069454,114.955044,35.332031,71.520252,89.968243,101.696606,29.202576,58.204193,73.04987,82.333889,-15.231048,-16.141805,-11.566099,-7.994888,19.363385,32.509863,36.339315,38.94969,36.350924,47.171201,48.220464,47.764499,46.716471,57.179276,56.928693,54.766255,51.894182,59.247112,57.907746,55.237349,-42.04937,304.631115,-67.662735,294.483423
7,-2.78532,-0.833692,0.057106,-0.329068,23.532944,44.85157,58.243675,59.054832,34.705467,70.01461,83.831291,88.655777,27.312698,68.454552,83.141441,89.865646,19.082565,59.297333,73.520279,79.526711,9.518337,42.175941,54.808044,60.216866,-23.880675,-33.91135,-36.855178,-36.704013,-14.480163,3.199289,6.763337,7.912019,6.591548,27.373587,29.742765,27.146901,23.573158,40.430032,39.475618,36.783115,36.89371,50.482814,46.75136,41.517148,25.884304,52.716751,76.946354,97.282391,52.262707,85.182209,102.81641,115.399303,43.510723,81.919155,101.197186,113.927364,35.80862,70.831661,89.083958,100.841274,29.560719,57.453461,72.211361,81.638546,-15.082353,-15.9342,-11.372018,-7.47921,20.542633,32.975152,36.632197,39.170139,37.441189,47.596477,48.45703,47.705898,47.429133,57.495994,57.118081,54.696477,52.168971,59.488927,57.907931,54.778729,-44.870167,303.780828,-67.641106,294.13776
8,8.055611,-0.655666,0.107632,0.540007,21.108685,39.503174,49.543533,48.530846,26.431274,59.882355,73.73291,78.268089,19.126682,56.598015,71.80481,78.73558,11.014137,47.436676,62.689819,68.945847,1.868477,30.445061,43.510323,49.265213,-23.071498,-31.952565,-34.27648,-34.046584,-10.101009,9.987512,14.32838,15.121194,9.704942,31.502343,33.969087,31.562488,25.106977,42.893627,41.424955,38.717879,37.118173,51.608648,47.174968,41.271752,25.821533,52.597904,76.879005,96.960869,52.004414,85.365944,103.241501,115.856094,43.224449,82.122231,101.557503,114.216957,35.530243,70.782738,89.135742,100.705376,29.478664,57.405682,72.379417,81.965904,-15.147685,-15.979154,-11.77815,-8.076213,21.789003,33.010288,36.388839,38.779444,38.565664,47.671071,48.141362,47.170522,48.376137,57.509641,56.455685,53.632826,52.984879,59.801692,57.635179,54.059522,-36.894407,303.046584,-67.613325,294.59919
9,6.75396,-0.821033,0.323696,-0.20989,17.803631,33.490219,41.39328,40.141525,17.055416,46.916428,61.476288,67.84584,10.908508,44.173965,62.001228,72.473373,4.075298,37.672806,55.673218,64.93309,-3.649464,22.388077,37.287254,44.800987,-21.705085,-29.945554,-31.98801,-32.409951,-6.277176,12.49958,16.692557,17.232626,12.372498,32.461265,35.520381,33.981066,26.554036,43.01651,42.168121,40.022356,37.838923,51.60167,47.704725,42.451679,26.183968,52.597332,76.366253,96.00626,51.404228,84.036427,101.887951,114.775372,42.479839,80.616932,100.106678,113.085766,34.916954,69.609661,88.24522,100.287266,28.93261,56.094475,71.092815,80.810337,-15.152872,-16.090243,-11.906097,-8.489879,21.952704,33.557767,37.091311,39.167792,38.789756,48.400035,48.599797,46.897091,48.643455,57.97104,56.877255,53.510561,53.070033,59.932109,58.01902,54.209822,-30.155067,302.178914,-67.304249,294.342663
10,-2.557926,2.628777,-0.287075,1.038024,19.935093,36.561413,45.807896,44.952221,23.046741,53.523045,66.692219,71.377544,16.653156,52.145748,66.693707,73.718204,9.416885,44.454174,59.51952,66.295681,1.195393,28.605366,41.721096,47.307072,-23.987133,-33.277915,-37.201597,-37.703196,-12.179343,4.79035,8.574045,8.839633,7.954194,27.275342,29.860647,28.228583,23.969225,39.753742,38.090124,35.501238,36.086632,49.29875,44.693157,38.755979,25.700169,52.197418,76.193047,96.091461,51.009464,83.898582,101.886292,114.808159,42.393036,80.767021,100.278282,113.358994,35.113621,69.928207,88.670197,100.826454,29.428082,56.840916,71.824379,81.721458,-15.542579,-16.882007,-12.785238,-8.891998,21.287899,32.668994,36.230572,38.531454,38.109205,47.494403,48.02768,47.002252,47.931596,56.996433,55.971561,53.042307,52.339526,59.103542,57.065532,53.511055,-32.726269,304.803646,-67.604599,295.376643
11,-1.471653,-0.37816,0.326271,0.466154,20.076027,37.52861,47.736855,47.542534,23.406487,53.441505,67.645798,73.913727,17.542877,52.108841,68.069115,77.561989,10.924988,45.429268,62.12265,71.874962,3.108902,31.22406,46.018066,54.057083,-23.14109,-32.68122,-37.199683,-38.322676,-13.233607,3.964191,7.853479,8.177731,6.912279,26.42084,29.720226,28.725427,23.510852,39.082206,38.482671,36.885374,36.391494,48.994074,45.313255,40.460414,25.677795,52.083607,75.960388,96.036873,50.673981,83.476295,101.548347,114.529381,42.339134,80.596733,100.142784,113.396416,35.27401,70.137405,88.837509,101.112213,29.665203,57.131996,71.98391,81.832695,-15.522942,-16.934556,-12.797773,-9.156536,21.308956,32.405566,35.790477,37.998487,37.996696,46.855904,47.298778,46.207031,47.708862,56.221342,55.182206,52.261164,52.047632,58.472577,56.426477,52.875334,-34.214659,304.42578,-67.295065,295.84309
12,1.74448,-0.273554,0.204163,-0.355929,18.637619,35.373631,45.587597,46.008625,21.029263,50.63982,64.129658,69.720554,15.653458,50.115452,65.460033,74.166813,9.646111,44.046535,60.476933,69.472446,2.578239,30.255489,44.720707,51.919155,-23.591621,-33.019242,-37.086989,-38.008861,-12.312538,3.790734,7.513975,7.882564,7.913809,26.256337,29.120506,27.993994,24.180412,39.088134,38.103647,36.229152,36.611819,49.363712,45.419342,40.267567,25.864277,52.362671,76.201057,96.298027,49.719372,82.821236,101.130524,114.293861,41.204166,80.024986,99.922714,113.325348,34.180927,69.604912,88.719063,101.209717,28.668766,56.792507,71.87542,81.828003,-15.37258,-16.781662,-12.603568,-8.689024,20.909492,32.951193,36.571867,39.016566,37.703443,47.174783,47.619139,46.574137,47.72924,56.661128,55.640703,52.737507,52.382133,58.8311,56.84533,53.492344,-32.493181,304.185447,-67.113905,295.520382
13,1.42725,1.604029,0.553436,0.882784,17.808437,33.172302,42.939377,43.783951,20.582886,50.252266,64.987221,71.941223,14.849968,49.201241,65.465584,75.396881,8.297768,41.667252,59.114456,69.199791,0.623245,26.011047,40.815125,49.102707,-25.266663,-35.636904,-40.6469,-42.597719,-13.030634,2.414071,6.247104,6.807983,7.149957,24.446185,27.381368,26.219842,23.225503,37.450328,36.023955,34.116794,35.726874,47.810256,43.466547,38.26426,25.400162,51.572857,75.49942,95.338097,50.154533,83.370209,101.007385,113.420334,41.660099,80.432167,99.404297,111.814041,34.386349,69.735603,87.908707,99.563828,28.641357,56.484375,71.040573,80.500717,-14.97114,-16.343667,-12.781286,-9.365129,21.396394,32.118304,35.453382,37.751176,37.805578,46.463233,46.948221,46.023632,47.427033,55.698995,54.236066,51.212457,51.91036,58.151104,55.833364,52.201328,-31.043673,305.793876,-66.53821,296.407566
14,4.706669,-0.137148,0.097961,0.021551,17.030811,30.7691,38.439045,38.384914,17.31348,44.248867,59.383335,66.967907,10.575371,41.444492,58.839626,70.000362,2.947826,33.457432,52.558537,63.73312,-5.729656,17.985134,34.017391,42.895947,-23.743095,-33.776796,-39.179648,-41.193885,-12.625798,2.833171,7.354721,8.113263,6.478606,24.095134,27.504004,25.982165,22.136782,36.925944,36.023338,33.768645,34.75023,47.773515,44.147469,38.872008,24.884949,50.994244,75.054588,95.310173,49.907398,82.951698,100.674934,113.300171,41.530209,80.091248,99.012794,111.426315,34.487228,69.588318,87.742996,99.455566,28.883343,56.714516,71.354027,80.883865,-15.363873,-16.731089,-12.866501,-9.320854,21.401828,32.229022,35.628197,38.05048,37.978109,46.493305,46.841578,45.829736,47.685212,55.890236,54.293494,51.062404,52.049608,58.367416,56.062582,52.341749,-26.341066,305.699042,-66.444311,296.471431
15,0.111923,-0.262686,0.477962,0.302762,17.206135,31.521664,39.348621,39.033222,17.972317,44.455776,59.222202,66.338139,11.366444,42.02013,58.900166,69.351482,3.783703,34.174061,52.52924,62.920475,-5.02573,18.804646,34.395847,42.737217,-23.82405,-34.097836,-39.856248,-42.321818,-12.381884,3.037379,7.044363,7.484582,6.874612,24.807672,27.821833,26.058427,22.547669,37.749632,36.49931,34.075174,35.074234,48.222626,44.408612,39.047317,24.297237,50.249634,74.28812,94.640522,49.569225,82.860088,100.502529,112.821178,41.274319,80.181141,99.233952,111.621838,34.238892,69.589062,87.947445,99.766674,28.673916,56.664104,71.470242,81.114063,-15.826322,-17.293141,-13.147959,-9.527718,21.134511,31.900325,35.194462,37.462246,37.809592,46.473175,46.812987,45.78262,47.470876,55.682137,54.042602,50.840843,51.725665,57.947575,55.750618,52.159585,-26.237583,305.497304,-65.974789,296.835141
16,3.310776,-0.575143,0.177784,-0.154253,15.812702,29.193592,35.511875,34.261036,15.1161,39.948063,54.820232,62.561932,8.342457,36.488857,54.134045,66.090031,0.557327,28.671398,47.87859,59.53783,-8.408833,13.635464,29.939175,39.280987,-23.16437,-32.857888,-38.200534,-40.315918,-11.313231,4.790103,9.386063,9.69358,7.487299,25.550715,29.108835,27.4065,22.846664,38.276672,37.378821,34.809757,35.310059,48.75053,45.235635,39.788631,24.338036,50.297298,74.358101,94.55452,49.861679,83.139725,100.729752,112.965431,41.415367,80.213242,99.103661,111.089172,34.163132,69.349823,87.462273,98.880157,28.38232,56.312485,71.058083,80.510788,-15.883873,-17.231885,-13.102202,-9.309986,21.640864,32.28503,35.448689,37.566234,38.391096,46.940687,46.952358,45.638,48.023172,56.23221,54.270091,50.751367,52.098946,58.300355,55.95211,52.173479,-22.964973,304.93045,-65.835171,296.689179
17,-10.423222,-1.921117,-0.420341,-0.302515,19.709244,37.418289,48.206406,48.336983,25.774269,56.660156,69.139137,73.258438,19.039993,54.783096,68.306465,74.902496,11.460228,47.064972,62.258835,69.358864,2.857075,31.28437,45.222359,51.744804,-23.647876,-32.006906,-36.039208,-37.952853,-12.870762,3.589366,7.390969,7.954688,7.42981,26.452827,29.101796,27.06996,24.035669,40.10609,38.938081,36.271698,37.231917,50.436749,46.586734,41.166036,24.629974,51.02663,75.373077,95.696182,50.313721,83.719254,101.299553,113.536034,41.650028,80.394402,99.085808,110.759125,34.268932,69.496078,87.490883,98.711243,28.47599,56.433792,71.150322,80.576363,-15.915736,-17.037988,-12.948382,-9.366735,21.613694,32.528079,35.782017,37.824474,38.360714,47.200842,47.198804,45.786387,48.017614,56.510643,54.685115,51.238701,52.095735,58.551247,56.31193,52.580167,-33.477859,303.001584,-66.345177,296.378914
18,2.078819,-1.251434,-0.028725,-0.329006,18.761559,35.94017,46.203117,46.739159,23.34343,52.84996,65.647545,70.64312,16.770287,50.621223,64.9823,72.994881,9.279785,43.432274,59.81678,68.149109,0.755653,27.950592,42.538605,49.653397,-23.275336,-31.203471,-35.002233,-36.825352,-11.591973,5.536418,9.918475,10.746856,8.559904,28.041418,31.313943,29.68861,24.888874,41.123181,40.436516,37.8882,38.059311,51.41611,48.033052,42.662619,24.977875,51.439018,75.685501,96.012497,50.482121,83.720741,101.176529,113.353844,41.753197,80.496712,99.117737,110.900002,34.249477,69.597816,87.563896,98.980408,28.303871,56.285362,70.888596,80.28614,-15.587903,-16.504835,-12.171191,-8.623507,21.794561,32.665227,35.956339,38.125013,38.6389,47.367074,47.343979,45.935143,48.372,56.759188,54.982814,51.600126,52.552071,58.908473,56.605182,52.897132,-31.418867,301.735453,-66.393728,296.035211
19,0.699062,-0.257376,-0.094528,0.112015,18.649292,35.424328,44.979458,44.752407,23.602695,53.569965,65.767651,70.32629,16.250896,50.020008,64.045429,71.954098,7.68528,41.805782,58.038769,66.18639,-1.724968,24.883747,39.239559,46.350231,-23.184377,-30.657721,-33.742525,-35.18557,-10.65454,7.231899,12.269375,13.497899,9.335366,29.426912,33.072347,31.603799,25.312852,41.985525,41.557348,38.96698,38.273832,52.036887,48.884961,43.301859,25.061874,51.447716,75.561676,95.698128,50.370483,83.635368,101.121025,113.429604,41.690083,80.277557,98.917809,110.787392,34.328442,69.50592,87.544098,99.146118,28.479137,56.313,70.945587,80.451393,-15.706094,-16.756036,-12.432766,-8.915154,21.880456,32.906362,36.177282,38.35386,38.713248,47.53664,47.518733,46.117245,48.325996,56.775737,55.170165,51.974149,52.342057,58.602129,56.540653,53.090966,-30.777712,301.447264,-66.546164,296.116413
20,-2.49567,0.752861,0.082397,0.338331,20.092735,38.096466,49.142532,49.758797,26.656265,57.421989,69.232178,72.994881,19.314823,54.376144,67.23278,73.513756,10.917091,46.090393,60.876732,67.478142,1.558285,29.19136,42.835121,49.062881,-23.783542,-32.000546,-35.773866,-37.479536,-12.427209,4.53001,8.914228,9.906742,7.992294,27.626764,30.791225,28.885422,24.51479,41.095825,40.242743,37.278415,37.851088,51.553258,47.968585,42.031221,25.083504,51.429119,75.465088,95.544434,50.340271,83.759422,101.308022,113.461533,41.579647,80.415344,99.244652,111.02623,34.212799,69.612007,87.802048,99.270401,28.539505,56.455765,71.212006,80.661621,-15.912649,-16.997048,-12.65939,-9.016301,21.79629,32.717221,35.805482,37.69628,38.651003,47.542013,47.447102,45.933847,48.188848,56.579124,54.60169,51.105876,52.124943,58.457386,56.102843,52.349406,-33.314238,302.121131,-66.504622,296.375749
21,-2.873783,0.192847,0.088921,-0.602684,21.628418,40.520382,52.41148,53.559895,29.107304,61.652584,73.304272,76.475201,21.364574,58.777943,70.994167,75.74358,12.98687,50.132389,63.623142,68.304806,3.618221,33.164349,45.947857,50.616131,-24.01597,-32.244274,-35.714709,-36.840666,-12.295001,6.174856,10.230994,11.020473,8.400773,29.409869,31.912983,29.3743,24.969211,42.636807,40.762805,36.90606,38.164286,52.485689,48.177486,41.555681,24.904289,51.146278,75.344696,95.752029,50.326881,84.010963,101.767616,114.057999,41.388302,80.600281,99.501228,111.250877,33.752689,69.49585,87.837868,99.29203,27.876205,56.104946,70.962868,80.443611,-15.655891,-16.539848,-12.191013,-8.619555,22.334877,33.465636,36.606447,38.509471,39.122035,47.870587,47.758448,46.25674,48.752383,57.228429,55.391355,52.008543,52.819388,59.370428,57.036509,53.282701,-36.228418,302.22112,-66.456099,295.680208
22,-1.09314,0.502772,-0.238953,0.342406,21.50053,40.48399,52.870045,54.340267,29.481869,62.949657,74.245434,77.086773,21.999207,60.633144,72.109623,76.119061,13.979931,52.362499,65.371227,69.686565,4.928513,35.600452,48.101864,52.39912,-24.243891,-32.361909,-35.520936,-36.010123,-12.205957,5.877528,9.626889,10.269588,8.655617,29.142428,31.449979,28.892339,25.20942,42.374429,40.057986,35.911384,38.176266,52.111173,47.471555,40.646344,24.940224,51.564274,76.159172,96.740799,50.260277,84.141884,101.929893,114.281273,41.559277,80.955849,100.044365,112.162399,34.125309,70.176544,88.744698,100.53154,28.414421,56.959648,71.895332,81.581726,-16.091602,-16.90609,-12.643273,-9.130539,21.965857,33.014055,36.075826,37.854114,38.635689,47.445003,47.551337,46.240623,48.196505,56.731091,55.084517,51.797481,52.215222,58.904335,56.867066,53.338339,-37.388277,302.645732,-66.76177,295.944453
23,0.442371,-1.216545,-0.131207,-0.098554,21.235886,40.129738,52.238503,53.294449,27.849541,60.361519,73.09227,77.350731,20.134964,57.254677,70.398445,76.072426,11.98534,48.966751,64.133835,70.338249,2.956238,32.662926,46.644516,52.51339,-23.19858,-31.29196,-34.735718,-35.341366,-12.022126,6.434269,10.874865,11.52732,8.543355,29.298594,32.562289,30.315994,25.141371,42.564312,41.33023,37.849977,38.313043,52.69385,48.836363,42.582405,25.135746,51.643353,75.962048,96.475811,50.501747,84.040661,101.558247,113.783398,41.827755,80.939655,99.566975,111.218433,34.476013,70.225239,88.38129,99.81142,28.807755,56.992493,71.785755,81.305294,-15.847564,-16.832483,-12.641359,-8.907065,22.064781,32.915193,35.709831,37.2426,38.8809,47.492427,47.087591,45.180677,48.540332,57.032434,55.070993,51.475761,52.660813,59.234577,56.851258,53.012667,-36.994858,301.389466,-66.941929,295.806179
24,4.323521,0.235578,0.004349,-0.474367,18.96389,36.582012,46.801929,47.025661,23.307667,52.905407,66.693249,72.340908,16.448193,49.948139,65.047932,73.273144,8.609505,41.620274,58.298779,66.442852,0.077477,25.647755,40.220547,47.168484,-23.991579,-32.27904,-35.921944,-37.228829,-11.871949,6.398084,11.565235,12.357184,8.581393,28.851645,32.45225,30.485067,25.032197,41.891665,41.015859,38.03282,38.1302,52.02324,48.119256,42.021773,25.200176,51.416473,75.441799,95.844097,49.833755,83.365002,100.961666,113.333416,41.244106,80.177708,98.851719,110.702534,34.110203,69.685993,87.852802,99.440403,28.706532,56.629543,71.406384,81.050549,-15.538318,-16.481,-12.247021,-8.557928,22.734093,33.099147,35.767753,37.206846,39.598872,47.978403,47.275436,44.949977,49.155242,57.449866,55.207894,51.176024,52.972467,59.736361,57.345446,53.231757,-32.716684,301.56652,-66.982927,295.273288
25,-3.601856,3.3436,-0.661583,0.968864,22.259731,41.290855,53.720398,54.861031,29.04705,59.486275,72.23877,77.400284,21.876068,56.25206,69.616241,76.618538,13.777084,47.917328,62.759285,70.101128,4.435444,31.958542,45.488892,52.006874,-25.299082,-35.996847,-42.015289,-44.837962,-17.400463,-3.060165,0.738411,1.433659,3.890955,22.679753,26.12592,24.273963,21.703417,37.52764,37.245811,34.606598,35.881559,48.502293,45.003577,39.194839,24.875221,51.244411,75.328274,95.254955,50.671806,84.031963,101.535358,113.728924,42.468567,80.669003,99.146175,110.453167,35.456314,70.221004,88.405552,99.662647,29.858437,57.628784,72.323742,81.789722,-16.758074,-17.890762,-13.755337,-9.641277,22.205942,32.29917,35.100416,36.637384,39.129384,46.990643,46.260136,44.049903,48.511432,55.912713,53.537792,49.64659,52.169465,58.312273,55.834908,51.882634,-36.366835,304.884925,-67.692804,296.216958
26,4.401398,-0.739461,0.361691,-0.129182,20.852852,38.375359,48.803787,49.161873,25.129852,53.288269,66.932373,73.02681,17.797794,48.678932,63.479118,71.950722,9.109211,39.497795,55.497551,63.97522,-0.471268,23.80806,37.590981,44.57428,-24.465451,-34.70015,-40.463748,-43.535646,-15.101496,0.919711,5.396801,6.186156,5.361233,25.033926,28.373882,26.676425,22.313388,38.932585,38.395974,35.86291,36.00296,49.363959,45.595022,39.638763,24.890957,51.190796,75.203133,95.275841,51.29837,84.177818,101.731567,113.969193,42.699909,80.41317,98.811035,109.78569,35.090103,69.382095,87.366486,98.220863,28.84552,56.341953,70.945358,80.196304,-16.844833,-17.810301,-13.570888,-9.416073,22.345436,32.824728,36.022473,37.964462,39.248068,47.521944,46.578274,44.215024,48.667537,56.435184,53.702481,49.508269,52.411712,58.635351,55.793967,51.592222,-32.004175,304.133793,-67.369852,296.076105
27,0.617695,-0.758913,-0.019913,-0.321596,20.419464,37.667255,47.658176,47.685528,24.645367,53.396358,66.496067,72.306118,16.915169,48.274212,62.794018,71.160336,7.994671,38.883648,54.87711,63.323078,-1.79163,22.712231,36.633968,43.841343,-24.095196,-33.595497,-38.691264,-40.906807,-15.150772,1.67603,6.251056,6.856951,5.328937,26.016251,29.584499,27.760886,22.526612,40.029705,39.721385,37.053273,36.432558,50.282434,46.745679,40.856666,24.402409,50.464153,74.587555,94.72023,51.420879,84.236984,101.798286,114.07402,42.699623,80.472679,99.015541,110.221825,34.844913,69.198189,87.352867,98.43235,28.305702,55.740051,70.52845,79.994888,-16.557138,-17.507724,-13.41009,-9.555321,22.903413,33.058577,36.000675,37.558577,39.75331,47.685459,46.987185,44.797886,49.067742,56.818839,54.367471,50.332143,52.729109,59.106383,56.540715,52.461236,-31.414919,303.370295,-67.418203,295.749924
28,-3.250694,0.457385,0.027466,0.248484,22.364674,41.154385,52.698612,53.887997,27.788143,56.138935,70.112514,76.730061,19.896297,50.843868,66.408062,75.506802,10.810604,41.421947,57.64658,66.471119,0.776196,25.651531,39.470387,46.79266,-24.172384,-34.511503,-40.485052,-43.623826,-16.34237,-0.298934,4.440349,5.531478,4.267262,24.716529,28.637124,27.361114,21.488649,38.900598,39.135373,37.050988,35.401573,49.127949,46.018074,40.593918,24.402294,50.554848,74.765282,94.969597,51.047344,83.965187,101.551323,113.801994,42.462616,80.652351,99.46701,111.058273,34.826031,69.690971,87.969475,99.262733,28.579559,56.451588,71.258812,80.824471,-16.679651,-17.935037,-13.829746,-9.77262,22.390514,32.72673,35.571634,36.920633,39.210771,47.09247,46.6328,44.558974,48.657966,56.271668,53.934539,49.878834,52.492728,58.840424,56.382078,52.263387,-34.709015,303.824609,-67.434139,295.995336
29,-0.533009,-0.793925,0.034161,0.176853,21.774788,40.900841,52.583199,53.369408,26.679497,55.229988,70.103416,77.599525,19.036903,49.777451,66.026115,75.994034,10.420361,40.996742,58.206253,68.107452,0.948315,26.436653,41.011276,49.075127,-22.913293,-32.711046,-38.339843,-41.215992,-14.907167,2.299894,7.197134,8.099616,5.63559,26.418,30.434185,29.137302,22.600836,39.960668,40.23873,38.367507,36.276144,49.925949,46.872021,41.545862,24.575272,50.728912,74.947872,95.168552,50.655613,83.829174,101.60059,113.958035,42.079868,80.572758,99.377918,110.930729,34.592056,69.698925,87.966442,99.226856,28.505573,56.498165,71.197987,80.61224,-16.642354,-17.78486,-13.571073,-9.565633,22.156418,32.647999,35.412565,36.648314,39.017739,47.060915,46.395493,44.156238,48.509765,56.212697,53.814002,49.742489,52.406093,58.647392,56.019974,51.936419,-35.284281,303.005659,-67.442236,296.147164
30,3.799782,-0.792134,0.236378,0.245643,19.924278,37.366562,47.749672,48.151817,20.979595,47.82074,64.312248,73.54248,13.395996,42.334213,60.678978,73.079109,5.181484,34.03965,53.892174,66.34552,-3.836346,20.48584,36.837616,46.776581,-21.702923,-31.316104,-36.689748,-39.3268,-13.918913,4.440966,10.101873,11.143912,5.861473,27.033836,31.730017,30.351192,22.530255,40.435405,41.374876,39.573307,36.272316,50.814105,48.178289,43.074123,24.630318,50.78928,74.681969,94.995003,50.719528,83.56945,101.031532,113.151627,42.091599,80.418434,98.93898,110.230865,34.529858,69.717522,87.779617,98.935776,28.382149,56.550636,71.141739,80.512505,-17.181188,-18.245456,-13.373657,-9.025193,21.593563,32.035496,34.749118,35.946459,38.754744,46.905736,46.008132,43.444194,48.495192,56.016516,53.183222,48.727065,52.593073,58.516728,55.666267,51.373255,-31.500177,302.212691,-67.221537,296.391974
31,-2.074013,0.470106,0.20731,0.198157,20.894051,39.222908,50.875397,52.193413,24.219475,51.926537,66.938667,75.090408,16.632042,46.944466,63.706856,74.3787,8.378963,38.789864,57.019615,68.080101,-0.963364,24.525833,40.261574,49.52179,-22.230766,-32.08712,-37.96755,-40.663017,-16.226773,0.705128,5.801204,6.815763,4.17723,25.441046,29.829586,28.437361,21.704714,39.511742,40.42361,38.650139,36.106083,50.561052,48.063186,42.941236,24.498081,50.563717,74.419498,94.862881,50.689373,83.497181,100.691242,112.676411,42.026882,80.07906,98.099041,108.8447,34.429321,69.431934,87.235394,98.102016,28.25243,56.339779,70.870228,80.199566,-17.058613,-18.35037,-13.887668,-9.829739,21.34298,31.933732,34.618825,35.818141,38.624821,46.9087,45.590391,42.570981,48.464873,56.227517,53.079419,48.262578,52.616168,58.488385,55.608901,51.186954,-33.622828,302.667637,-67.062864,296.574971
32,-0.741177,0.298316,0.235691,-0.12276,20.654469,39.031734,50.563488,51.321087,24.977703,54.26405,68.635769,75.598125,17.612514,50.373058,65.902462,75.036449,9.687023,41.804867,58.917103,68.625698,0.798397,26.90237,41.854877,50.172672,-22.66907,-32.343137,-37.821942,-39.976908,-16.073756,0.039582,4.538902,5.168077,4.627946,24.769017,28.771802,27.280468,22.372113,39.481978,39.675195,37.498864,36.943913,50.769151,47.713,42.268219,24.485893,50.95602,75.006866,95.434685,50.383987,83.484421,100.641518,112.563858,41.723442,80.102463,98.297081,109.198608,34.097729,69.362068,87.326546,98.37204,27.875404,56.166916,70.758133,80.097885,-17.238122,-18.395201,-13.726993,-9.444726,21.012183,31.529452,33.810327,34.782587,38.377634,46.64904,45.35648,42.276802,48.195456,56.276732,53.53983,49.00241,52.207874,58.482518,55.916295,51.700162,-34.382257,302.959084,-66.845427,296.445342
33,2.10268,0.972816,0.336571,-0.258858,19.847889,37.105751,47.492752,47.404518,25.086823,53.198318,66.431808,72.700539,17.485142,48.212929,63.152618,72.317619,8.953056,39.650917,56.778374,66.708641,-0.488834,24.566231,39.618874,48.086357,-23.322945,-33.316817,-38.676136,-40.655607,-17.007484,-1.018882,3.844581,4.749903,3.579363,23.680418,27.919337,26.402377,21.297964,38.176081,38.747828,36.663072,35.961587,49.579962,46.735923,41.400502,24.350796,50.44693,74.31633,94.63131,50.246601,83.159752,100.414009,112.384415,41.514416,79.787865,98.178749,109.311104,33.855343,68.825569,86.722641,97.574387,27.582893,55.431576,70.102501,79.377365,-16.451421,-17.815488,-13.538963,-9.160303,22.042921,32.246003,34.659024,35.647957,39.147662,47.544359,46.32096,43.196266,48.679208,56.83477,54.004379,49.253796,52.561889,58.75385,56.096483,51.708807,-32.331419,303.927933,-66.560698,296.182517
34,-0.573864,-1.506401,0.18013,-0.095343,21.142273,38.725491,49.455585,49.331303,24.406528,54.327908,68.303432,74.7048,16.28088,48.406734,64.275455,73.400288,7.70937,39.206028,56.925831,66.794758,-1.576939,24.21484,39.575329,48.031483,-21.874713,-31.568478,-36.720747,-38.456366,-16.447346,1.613168,6.727707,7.212572,3.963697,26.103875,30.501431,28.508374,21.933623,40.585397,41.023577,38.332124,36.979666,52.399485,49.45751,43.357373,24.105892,50.307541,74.092598,94.361572,49.375019,82.823753,100.192223,112.078857,40.937634,79.726982,98.075066,108.935394,33.746052,69.250832,87.238998,97.951355,28.101139,56.404495,71.122055,80.402756,-16.705956,-17.907434,-13.449301,-9.240702,22.089604,32.259341,34.065294,34.51422,39.303211,47.563625,45.795217,42.299897,48.922073,56.905722,53.479253,48.440666,52.684772,58.732422,55.864424,51.434326,-32.949371,302.476335,-66.424656,296.141977
35,-3.509903,0.256943,0.154266,-0.212483,22.935619,42.013836,53.874493,54.048786,29.049854,60.355511,73.501225,78.694096,20.808506,55.109539,69.216785,75.798168,12.119064,45.03828,60.650654,68.124104,2.587223,28.637524,42.737331,49.989681,-22.154628,-32.515976,-38.266113,-40.950774,-17.511923,-0.100468,4.119432,4.411882,3.2138,25.291487,28.96823,26.479565,21.326616,40.340803,40.424475,37.495159,36.252679,51.964083,48.791224,42.360474,24.345531,50.270119,73.755913,93.719101,48.951645,82.179337,99.429016,111.332359,40.578232,79.208336,97.522888,108.610382,33.607063,68.940697,86.78112,97.502632,28.148918,56.124573,70.797615,80.078316,-16.283954,-17.602943,-13.076514,-8.735707,22.212858,32.344248,34.61759,35.441031,39.420907,47.645753,46.147441,42.726469,49.163146,56.799511,53.610905,48.514582,53.080778,58.77466,55.908082,51.332006,-36.523619,302.771363,-66.334734,295.967579
36,-1.137314,0.03174,-0.036392,0.212483,23.228703,42.870884,55.321255,55.877438,30.217152,61.968327,75.103741,80.106068,22.271633,56.997585,71.08057,77.387638,13.767529,47.282124,62.507572,69.334545,4.509087,30.964222,44.520779,51.261005,-22.016615,-32.012216,-37.139971,-39.702057,-17.402933,-0.511849,3.042381,3.07974,3.127411,24.453163,27.820845,25.363179,21.057817,39.542247,39.555461,36.709076,35.926884,51.151818,48.065656,41.950883,23.977489,50.083637,73.811302,94.174576,49.379196,82.763786,99.898682,111.632996,40.912399,79.6138,97.808876,108.574562,33.670635,68.968849,86.735001,97.301102,27.984924,55.95789,70.511856,79.593773,-16.591656,-17.697483,-12.988582,-8.726321,21.6019,31.669378,33.524607,34.055599,38.714483,47.148477,45.617314,42.354855,48.37836,56.303717,52.93764,47.928694,52.207256,58.140977,55.24655,50.932296,-37.727509,302.849215,-66.437702,296.226174
37,-1.225948,3.285307,-0.255604,-0.604537,22.868271,42.496376,55.051689,56.228142,32.843857,65.523148,77.478676,80.612183,24.438,61.821098,73.189201,76.092796,15.186596,51.113091,63.959541,67.880745,5.033569,32.674828,44.426308,49.144249,-25.200961,-36.505794,-42.293783,-44.553046,-20.804331,-5.378399,-2.543623,-3.471546,0.7105,20.059807,22.014763,18.389952,19.61119,35.97789,34.387693,30.122098,34.682181,48.196197,43.614501,36.39736,23.978977,50.20792,74.268208,94.812527,47.997837,81.82703,99.58231,111.778393,39.821835,78.924351,97.41045,108.220768,33.484554,69.237385,87.259769,97.853451,28.971004,57.250042,72.109737,81.451435,-16.35966,-17.451284,-13.062126,-8.581702,22.663636,32.589583,33.976065,34.202442,39.921024,48.511432,45.930327,41.713515,49.511048,57.343038,52.901331,46.978478,53.093004,58.623495,55.059384,50.084895,-39.064465,306.316655,-66.804314,295.80377
38,-7.393799,-2.834344,0.181904,-0.928973,25.28017,47.558784,62.821884,65.727654,36.90033,72.562752,84.888725,87.983208,28.923626,69.572983,81.091805,83.219948,20.569725,59.40834,71.038055,73.369446,10.618229,41.459084,52.429047,55.760765,-24.083649,-34.646365,-39.163532,-40.423919,-17.668151,-1.906544,-0.293685,-1.419642,4.107761,23.733462,24.887083,20.597406,22.385759,39.681185,37.655525,33.013499,36.856907,50.875732,46.20172,39.004339,24.085979,50.081635,73.820114,94.449234,47.167683,81.130714,98.939781,110.92289,39.067497,78.281021,96.836357,107.752876,33.145638,68.806229,86.804352,97.412338,29.194679,57.174225,72.005997,81.39679,-16.663781,-17.611773,-12.992534,-8.412691,22.682779,33.492991,34.828961,34.745598,39.908983,49.235703,46.600566,42.236294,49.536798,57.694398,53.283813,47.384858,53.149444,58.439602,55.08711,50.441318,-46.507187,303.92483,-66.671333,295.317316
39,-0.535069,4.262137,-1.103153,-0.500178,24.631748,46.201229,59.279881,61.478176,38.640804,72.280254,81.747608,82.260876,30.857449,71.566029,79.762516,79.129658,22.332458,62.344837,70.072575,68.933659,11.825237,44.029255,51.831608,52.043095,-27.293867,-40.456647,-47.064867,-50.768842,-21.884099,-7.027629,-6.085503,-7.548741,0.620777,19.098908,18.569769,13.66691,19.432978,34.963639,31.494995,26.068801,34.418692,46.368076,40.591819,33.108471,24.336834,50.748024,75.092754,95.229435,49.295712,82.742443,100.049915,111.722088,41.016312,79.7402,97.739925,108.109074,34.387894,69.447842,86.906605,96.803684,29.542408,57.148533,71.736088,80.618992,-17.322967,-18.644672,-15.211164,-11.23592,21.420847,32.069027,33.767781,33.791987,38.576903,47.637541,45.584772,41.911054,48.253377,56.617965,52.350826,46.62224,51.930861,58.11498,54.978924,50.229267,-47.140045,308.796011,-67.872276,295.426182
40,9.810047,-1.830591,-2.812099,-3.334893,23.532085,40.85289,50.263824,49.841309,29.15554,58.796082,71.431961,75.882111,20.605087,54.2173,67.903748,73.747559,11.524544,44.004478,57.73819,63.747025,1.153564,26.475964,38.761368,44.681854,-25.538859,-38.840145,-45.336905,-48.109499,-22.482275,-7.671254,-5.769711,-6.095507,-1.217348,18.925513,20.223136,17.255103,16.805992,33.26822,31.789606,28.977369,31.473691,44.527419,40.218167,34.372811,25.683975,51.671619,75.04509,95.447044,48.117828,81.552773,99.662361,111.839333,39.000092,78.370514,97.353516,108.903809,32.182846,68.089027,86.232605,96.889687,27.535,55.457153,70.727692,80.177307,-17.003223,-17.974989,-14.18691,-10.179,20.55628,33.622235,36.248295,36.800343,38.145885,49.936879,48.894408,45.867033,48.423068,59.54796,56.454573,51.69022,52.830935,60.909371,57.823518,52.94153,-37.938938,308.13153,-71.293316,293.2574
41,54.425354,-8.26554,-2.014046,-6.927902,3.035545,0.582161,-8.548508,-16.429367,-27.823334,-17.870522,-2.311478,10.715103,-37.2472,-26.558418,-4.847717,15.063972,-43.507977,-33.304596,-11.348991,7.562943,-47.751961,-41.499252,-25.094719,-10.448914,-18.565447,-28.538323,-29.412647,-27.300166,-7.451731,5.477756,11.31811,12.89151,11.326569,24.934878,31.108499,32.330601,26.836235,37.308117,40.833201,41.352522,39.898114,49.858147,49.156971,46.62718,25.464821,50.277729,72.216339,91.06739,43.694458,77.215118,95.95665,109.043884,33.904552,74.223633,95.2668,109.492035,26.854248,63.560944,83.880501,97.554588,22.539482,49.689503,65.615387,77.100906,-15.369863,-14.105894,-8.562868,-4.399408,20.331323,36.331472,40.7725,42.844412,37.579016,52.578006,55.553141,56.150267,48.253501,62.796834,64.603343,64.307867,53.171736,65.318227,65.81822,64.075686,15.879421,300.752495,-73.914356,287.216002
42,38.092804,-11.157558,-7.426643,-3.883422,-24.524345,-48.974762,-66.865253,-79.134808,-52.000122,-87.653503,-95.167809,-90.938988,-52.673378,-92.270737,-95.805302,-85.805569,-53.651276,-92.327957,-94.622211,-84.795685,-54.437943,-85.612907,-91.725712,-87.399387,25.461177,36.922794,39.75084,36.252802,52.109876,52.290805,43.684403,34.701817,40.803128,39.293701,30.826979,22.335618,22.910329,20.119704,13.536061,8.07152,1.614465,-2.43661,-4.881185,-5.733155,23.596802,47.790356,69.647484,89.859238,37.003269,71.973495,92.40715,107.406006,30.024719,71.504173,93.661995,108.859978,27.105789,63.969898,84.764671,99.175873,27.077923,54.008617,70.299225,82.806702,-16.914055,-16.652357,-9.676475,-3.500507,16.240914,32.927728,37.422479,39.780356,34.078015,49.741192,52.81556,52.959623,45.834305,60.941173,63.348142,62.892609,51.797728,65.631981,68.070134,67.607562,52.642593,290.690805,-82.670631,284.428449
43,3.722649,-7.693854,-6.831322,-3.933563,-20.370827,-41.927605,-60.349846,-76.485043,-48.470993,-86.491985,-101.696205,-108.164749,-47.825432,-89.200745,-105.703754,-111.816673,-45.651855,-82.885036,-96.649418,-102.19511,-43.616409,-71.379147,-81.485138,-86.176472,8.576206,21.984999,34.5982,45.510239,37.685165,40.73755,33.183436,26.604548,39.7932,42.794147,34.182496,25.204357,36.312083,40.484805,32.291513,24.06006,29.21307,34.645995,31.185934,26.970419,20.121803,42.04319,63.038406,81.170311,28.089237,66.780109,91.211014,108.389854,24.421864,68.622608,95.065498,111.386833,24.413567,62.603588,86.469612,100.827599,26.622849,54.741898,72.214622,83.110542,-21.763192,-22.514632,-17.283693,-10.505227,12.256531,27.502954,30.497355,31.667526,29.934006,45.977875,47.166632,45.861475,40.964729,55.471445,54.931067,51.931479,47.143908,58.129491,57.006684,54.504927,55.42222,283.713441,-90.444975,281.211376
44,30.206337,-16.638464,-3.121262,-0.953982,-24.847641,-47.767411,-67.88023,-84.739924,-52.963486,-89.878664,-102.312184,-105.054703,-50.561257,-89.888649,-103.550978,-107.042199,-46.867333,-82.581454,-95.283366,-99.924231,-42.754383,-68.797903,-79.518242,-84.662047,-3.606131,3.003757,15.131136,25.57029,24.676268,32.056862,27.585021,23.256379,35.65932,42.105353,35.541531,28.922257,40.964853,47.832364,42.525688,37.064975,41.543424,50.46077,49.129585,46.586395,16.041012,32.340145,50.420265,65.339069,21.850491,56.115532,78.141117,92.946053,21.699429,60.146599,83.884621,97.999077,23.065395,58.4198,77.511177,87.694817,24.010963,51.794357,65.876598,72.560577,-19.21574,-27.249531,-27.413787,-23.897409,-1.56173,11.498174,14.976451,17.155129,18.497089,29.132486,28.199252,26.337971,31.389278,42.084079,36.612313,31.107017,39.285612,45.828068,41.500044,35.507969,84.843722,267.31954,-94.351072,280.501957
45,30.206337,-16.638463,-46.757755,-40.869819,-29.324455,-53.607216,-75.410614,-92.994804,-57.455978,-93.265343,-102.928162,-101.944656,-53.297081,-90.576553,-101.398201,-102.267723,-48.082809,-82.27787,-93.917313,-97.653351,-41.892357,-66.21666,-77.551346,-83.147621,-15.788469,-15.977487,-4.335929,5.630341,11.66737,23.376174,21.986605,19.908209,31.525438,41.416557,36.900564,32.640156,45.617623,55.179921,52.759861,50.069889,53.873776,66.275544,67.073236,66.20237,22.489014,43.433704,63.396492,81.623268,28.998241,65.337009,86.944313,97.904549,27.466393,70.789089,92.490406,101.950607,29.575481,71.175213,88.992977,96.125507,33.813686,64.970284,81.078358,88.910122,-17.710759,-21.171129,-17.662347,-12.038613,20.844037,35.70415,33.031098,28.65781,38.592093,50.276012,39.140684,29.229866,48.949428,59.193327,46.608161,34.398314,52.869097,59.825837,51.76395,42.539488,114.213753,250.798881,-141.945133,239.749942
46,7.981567,2.56363,5.66843,3.140811,-16.551933,-38.542213,-61.907158,-78.771515,-32.714653,-75.393105,-77.483368,-68.925362,-33.729858,-78.793144,-81.312447,-69.318466,-35.674553,-76.544724,-79.590454,-68.439102,-37.55127,-68.895149,-73.211632,-65.782013,-29.109823,-38.442595,-32.537589,-20.937342,-3.188544,8.087822,-1.459347,-7.585729,19.529,25.238752,12.937267,6.135768,34.716946,36.262744,24.140274,18.64918,42.456928,45.275834,34.387137,28.429766,14.741707,26.890926,41.600933,50.80101,22.946949,54.014568,53.277225,44.76202,23.770924,55.684719,55.46339,47.577839,26.20657,57.162666,55.922585,47.384205,28.450642,51.051636,51.616116,46.811314,-21.07733,-26.491606,-24.349361,-19.29651,4.313575,5.102128,-6.75778,-9.202355,20.586167,16.840078,1.806694,-2.679227,31.470603,30.428627,15.308421,10.128735,37.805578,36.561554,26.473884,22.03267,121.749659,253.660581,-136.722364,243.188822
47,8.738937,-11.834096,-26.432018,-23.775267,-12.296562,-27.462673,-46.571388,-58.438167,-14.475402,-54.384327,-51.947364,-41.960506,-15.762233,-59.514427,-56.598701,-43.934154,-20.225544,-60.572319,-58.748474,-47.898845,-25.980777,-56.165542,-56.566028,-49.216232,-26.845065,-38.795375,-35.614056,-24.685962,-8.180725,-4.672746,-11.485453,-14.684989,13.598059,11.754747,2.961643,-0.074594,28.492351,24.150895,15.021313,12.529931,36.66017,35.550114,27.699321,25.119759,4.487286,17.87384,35.688915,44.311695,26.625423,44.813461,37.523346,27.538548,29.64489,48.759899,39.019489,27.284031,30.30035,43.848667,33.769169,24.036541,29.395351,35.879631,28.045979,21.452808,-20.301189,-32.33443,-28.796749,-16.358487,-9.83647,3.608941,0.088303,-4.454057,8.355386,20.716831,12.89256,7.322981,21.299446,31.790038,21.43505,15.703624,29.933574,36.583105,27.23718,20.027758,129.265394,242.081884,-164.377584,219.668955
48,8.738938,-11.834096,-9.408245,0.649553,-8.041191,-16.383133,-31.235619,-38.10482,3.763847,-33.375549,-26.411362,-14.995651,2.205391,-40.23571,-31.884956,-18.549843,-4.776535,-44.599915,-37.906494,-27.358589,-14.410286,-43.435936,-39.920425,-32.650452,-24.580307,-39.148156,-38.690523,-28.434583,-13.172907,-17.433315,-21.511559,-21.784249,7.667116,-1.729259,-7.013982,-6.284957,22.267754,12.039046,5.902351,6.410681,30.863412,25.824393,21.011504,21.809752,1.954651,11.644821,28.681068,39.567261,7.514706,33.358326,28.115559,18.96143,14.226608,43.025093,35.861263,25.313129,21.948109,47.213459,38.936062,29.464989,28.287506,43.058281,37.419262,31.632214,-18.526297,-32.064889,-33.211471,-25.569858,-5.538271,-5.861658,-13.696797,-17.159019,10.27286,8.90478,-0.207667,-3.660503,20.720165,19.765195,9.180372,5.994606,27.806087,26.064293,18.15882,15.834843,136.722136,230.728824,-175.068026,220.799543
49,-3.4021,2.784388,-2.113266,-2.17874,-4.483681,-11.638756,-26.053505,-37.935104,6.702232,-22.976761,-19.078331,-9.65847,3.118629,-34.597092,-29.188042,-17.060051,-5.284081,-41.400604,-35.851707,-26.111298,-15.431099,-41.271744,-37.061005,-30.022659,-23.122071,-35.194153,-34.466795,-25.817662,-10.623417,-11.840765,-15.603032,-17.313766,8.290178,3.126917,-4.232126,-5.28954,21.927571,13.456959,5.990778,4.895326,30.156246,24.147252,18.244283,17.79968,2.365723,10.329895,26.375141,37.368565,-2.214947,30.746555,31.588154,26.189575,6.617832,42.126789,40.107765,31.682854,18.239594,49.064198,44.46104,36.386776,29.68111,49.99958,45.240498,38.226242,-18.165613,-30.54762,-31.50648,-23.245572,1.790947,-11.075739,-18.718094,-18.942618,16.83415,0.247804,-8.624248,-7.51521,25.765853,10.854487,1.323929,2.00343,30.515078,18.387852,10.568274,11.279948,132.544756,233.707788,-177.956572,218.815379
50,3.154907,8.626533,13.026409,3.310316,-13.542023,-28.8414,-46.700935,-55.385056,-16.831856,-46.951561,-47.246933,-40.86834,-19.248161,-55.947418,-56.1549,-46.575508,-24.20826,-58.537331,-57.620888,-50.087929,-29.850883,-56.324844,-57.779846,-51.885681,-21.510633,-31.527414,-28.588835,-16.050785,-4.928239,-3.983519,-12.715398,-16.860332,10.953844,11.892018,2.463224,0.044707,22.425094,21.245229,11.586106,8.876436,29.057521,29.872503,22.493514,19.394569,6.9207,17.530403,29.884472,34.423828,9.353943,29.519062,29.889507,25.594711,12.847137,34.860363,35.744762,31.502037,18.494453,38.478642,39.107094,35.438919,24.415455,38.852119,40.636139,38.324776,-18.197352,-24.777909,-19.858871,-8.892183,0.620653,0.295414,-5.568652,-6.606183,14.719754,11.764133,3.456479,2.929254,24.960999,21.684645,13.049035,11.929624,31.479743,29.640877,22.131162,19.015792,135.593147,242.799239,-165.036678,222.590614
51,-5.117798,1.195364,4.045486,-10.827626,-22.942314,-42.583122,-60.699348,-73.175354,-35.878716,-55.142899,-66.798248,-75.259552,-33.173103,-54.267426,-68.814697,-79.001427,-31.117973,-49.386749,-62.325211,-71.445351,-29.545326,-42.872887,-52.569695,-59.72065,-12.850014,-15.960073,-11.423209,-3.568742,5.918468,10.368265,9.522716,9.181792,17.587629,24.862074,26.089858,26.541933,26.252694,34.590543,36.653563,36.766072,31.478508,40.901373,43.654886,44.009025,22.589149,38.085308,48.073883,54.352627,33.922176,44.844818,53.268471,59.755554,27.504673,38.056812,46.889935,54.274349,20.077,28.011932,35.437202,41.88755,12.214108,16.233215,20.686455,25.931282,-1.786192,4.520007,11.888313,18.616391,23.620644,32.861037,37.363198,40.896927,28.480463,39.046329,46.220369,52.740842,31.204336,42.897517,51.198069,58.083426,31.686112,43.618083,51.184855,57.372925,130.277367,244.233593,-161.189175,212.001978
52,-26.062317,23.618112,18.055458,26.609611,-18.654671,-40.653191,-60.931892,-74.21608,-34.60453,-70.888481,-61.808395,-50.230865,-35.652924,-73.346672,-66.100731,-54.137077,-38.418732,-72.032547,-66.934891,-57.431831,-41.707649,-66.708527,-62.45224,-53.207817,-18.710992,-18.492334,-8.912252,1.626753,21.666985,8.320992,-3.940726,-2.564618,34.982473,20.781731,8.865445,10.3808,40.985416,28.417293,19.04957,21.908429,42.411109,32.799719,25.071347,26.56089,15.85865,32.278633,50.142288,57.592621,24.588261,61.024532,55.43169,44.946671,26.217327,64.381886,58.346386,47.464714,30.087204,64.640694,59.436893,50.042267,34.840794,59.542923,56.588745,48.703194,-11.846817,-9.43713,0.059836,12.346069,32.324426,24.42908,9.763543,8.204654,45.27602,35.048175,20.625749,18.78392,50.930567,40.585582,29.028622,27.962995,51.8144,45.94595,37.181837,35.326176,103.370018,267.875773,-143.978748,238.635656
53,-1.589584,2.180469,3.879089,-0.089476,-17.97226,-39.679413,-59.070854,-72.929993,-31.925812,-67.661018,-60.132179,-49.29966,-32.578011,-70.310097,-63.371658,-51.012497,-35.560341,-69.862518,-64.524307,-54.040146,-38.829689,-64.850121,-61.553764,-52.2686,-18.986152,-19.379441,-10.65843,-1.806014,18.468128,9.222177,-3.014285,-3.534161,31.549706,20.544547,8.84198,8.636042,38.516325,27.918288,18.752736,19.823117,41.21346,31.881676,24.141385,23.838932,10.937634,24.450302,39.507809,50.969296,15.367699,51.833038,46.99316,36.943417,19.865627,57.594223,52.265224,42.324142,26.307907,60.438137,54.692287,45.771217,33.478775,58.295574,53.968678,45.877647,-12.343969,-9.833136,-1.435141,7.954379,34.77351,23.814911,10.110457,9.898221,48.282524,32.375741,19.11237,18.317951,54.202474,38.989581,27.916682,27.85981,55.104092,42.3099,32.979784,32.20037,101.06492,270.272862,-140.815172,238.7628
54,2.204361,-2.145456,-1.652813,-3.71861,-13.897018,-32.931862,-49.719543,-61.566124,-22.722588,-61.336098,-53.983955,-42.681999,-25.58567,-64.914436,-56.381035,-44.740219,-30.232773,-65.918312,-58.450813,-47.809181,-34.577751,-60.981216,-55.787773,-46.591644,-19.556602,-21.989939,-13.180872,-1.869555,14.844552,2.968095,-6.521585,-5.465467,29.102166,13.897671,3.543177,3.635741,35.88829,21.646792,12.788696,14.138251,37.980888,26.595223,18.332895,18.89118,8.771496,18.080864,29.174252,34.115524,12.365799,42.760391,40.999832,32.256775,14.374924,48.099747,44.669609,35.075512,18.963947,50.105667,46.061268,37.350254,24.615784,48.653297,46.535053,40.336933,-11.188248,-8.672969,-3.81988,1.779709,34.247519,20.633283,8.278692,6.731474,44.702111,26.107765,13.971463,12.466358,47.636614,32.025369,20.11779,18.10448,45.961573,33.876461,24.733634,23.761126,102.877178,268.46853,-142.860088,235.385315
55,2.087746,-5.38266,-0.026264,7.337987,-8.466682,-19.001541,-33.68557,-45.217781,-11.422005,-44.957428,-41.200562,-32.794304,-16.283112,-50.875511,-44.371147,-34.070091,-22.979393,-54.907265,-48.908043,-38.80394,-29.781189,-54.299011,-50.11734,-41.200447,-16.669956,-22.72267,-19.59989,-10.817314,6.90524,-2.164599,-9.429782,-9.449974,22.337841,7.344347,-1.304354,-1.000295,30.450487,17.40034,9.599596,10.904258,33.277112,24.757901,17.848524,18.63047,3.85334,8.064308,13.873615,13.461914,2.693481,24.264107,21.20573,14.26569,6.325207,30.776424,25.800762,17.261868,11.72842,35.258331,28.803234,20.139885,17.275429,34.756966,30.963078,25.835552,-13.108871,-18.400882,-23.683877,-25.64507,16.381396,-3.816361,-13.191679,-12.69891,26.502104,2.669841,-6.441124,-6.686088,30.808824,9.993193,0.453804,-1.392225,30.409917,17.230897,9.348642,7.504589,104.637651,263.577033,-143.213625,243.214464
56,0.892067,-0.444788,0.986195,6.901164,-6.854324,-14.497032,-22.608604,-28.143311,-10.604553,-34.140701,-29.237251,-22.044411,-11.652832,-37.782326,-31.522064,-22.643967,-14.273186,-40.040016,-34.001198,-25.781479,-16.521378,-38.470917,-34.754677,-27.298508,-14.038771,-22.884456,-27.530433,-30.673282,-1.697704,-10.528507,-16.633461,-17.641413,12.615671,-0.956884,-8.168777,-10.392533,20.957164,10.294967,3.909233,2.819709,24.851206,19.281628,13.367544,11.397521,6.181698,5.534077,2.438335,-4.823227,2.149372,12.511425,6.852551,-1.466103,1.632614,14.938431,6.148682,-4.567165,1.889591,15.803261,7.523003,-1.191502,1.577511,12.93354,7.496395,1.31115,-14.280709,-23.778972,-32.517767,-38.782161,-13.928299,-25.817168,-28.075257,-27.212727,-0.969173,-14.100274,-16.970927,-18.32073,10.081558,-1.839668,-5.676962,-6.221354,18.171849,8.416581,4.476843,4.468013,105.679836,263.633859,-142.077312,250.617243
57,-13.801346,-0.631274,-40.197716,-26.544588,0.85556,-0.419426,-0.948715,-2.76947,-10.752869,1.439323,10.232048,15.080223,-14.341393,-0.696487,8.085136,11.712456,-14.333839,-2.44812,6.941643,9.862518,-11.899338,-4.182243,3.211555,6.895523,-12.541015,-20.193805,-24.297058,-27.670607,-14.208893,-9.788675,-6.919628,-6.200668,-4.080158,2.885844,4.161175,2.160215,5.706047,13.653757,12.977899,10.511155,14.153133,19.463051,17.661112,14.722533,5.057259,16.856861,33.637104,44.052372,12.219658,37.395401,30.687618,22.804184,20.361156,45.534382,37.690144,30.30653,30.355625,51.957664,44.584179,38.34034,40.226154,54.271488,48.003387,42.556286,-17.497473,-25.674833,-21.623389,-8.897432,11.3467,0.552666,-8.235035,-7.954565,26.285051,10.044013,0.88019,2.888561,34.669584,17.998516,9.478626,11.270932,38.070487,25.448395,17.494571,18.350061,92.229424,263.533406,-181.924095,224.603477
58,38.484192,-6.288291,8.007889,-0.412616,-9.832649,-27.650414,-46.91288,-57.815323,-21.474266,-57.365112,-46.322365,-34.296799,-26.981049,-64.341202,-52.922173,-39.587517,-34.780998,-68.643036,-58.857651,-48.056488,-43.245049,-68.06488,-59.642715,-49.240494,-23.086935,-30.683039,-25.789072,-13.270966,7.35009,-9.303688,-17.345629,-13.50747,21.929856,2.736037,-4.584721,0.157958,29.891584,11.479463,5.33468,10.124412,32.69919,19.103293,13.775344,16.879352,4.660263,15.86935,29.446163,35.056629,3.494854,34.814529,32.859478,26.635895,10.541725,44.345284,40.937004,32.671795,19.492435,49.405575,46.033802,38.233337,28.959904,49.796448,47.726669,41.408386,-16.288462,-20.113468,-16.064123,-7.849589,16.778884,4.286899,-4.558724,-4.034031,32.304172,16.019168,6.257663,6.777046,41.512394,26.286718,17.688467,18.318815,45.31906,34.772336,27.434411,26.075161,130.880327,257.541641,-173.749495,224.487386
59,-4.057274,0.71791,23.772125,11.741964,-19.413071,-38.968849,-57.757759,-71.362381,-35.488358,-67.781639,-63.157768,-53.965187,-36.879044,-71.162224,-68.051376,-57.994766,-39.789848,-69.753227,-68.711128,-61.787682,-42.754097,-65.00473,-65.149841,-59.493713,-17.033913,-20.153235,-13.708036,-4.702356,11.558813,4.690067,-6.177202,-6.992678,24.523559,18.052362,8.633819,7.335702,31.971214,27.027847,19.933712,19.525913,35.622207,32.109597,26.512169,26.055216,-1.476574,7.456341,18.211727,24.989777,19.809322,4.673996,-0.917244,-1.395264,22.658901,6.730614,2.614689,2.614059,22.844238,9.266338,6.099758,7.013855,22.226429,12.754269,10.23777,11.993637,-15.288846,-20.600431,-12.006688,-0.444171,9.06249,10.115767,1.627432,-3.332176,24.733387,23.757545,12.684337,6.954084,34.463831,32.090392,19.971565,15.552521,40.503454,38.191271,28.311514,23.994975,127.135677,258.243743,-149.664745,236.213542
60,-25.422249,11.665764,-7.653694,-8.0948,-16.75621,-39.854164,-60.71537,-71.592407,-37.371025,-72.98687,-60.511093,-48.762016,-39.191208,-74.764481,-62.836304,-50.212669,-42.195625,-74.668579,-65.017319,-54.259071,-45.05928,-68.922157,-61.503181,-51.659317,-19.160165,-18.525432,-8.957083,1.928465,22.44856,3.079184,-7.003423,-3.015952,34.460744,13.066758,3.584858,7.012562,39.134818,20.403139,13.045763,17.438872,39.30988,24.064074,17.072692,19.489048,21.607304,35.986347,45.669079,54.5331,25.930309,40.169506,51.373901,59.033718,19.762974,35.158825,46.966381,55.032406,14.748688,28.041115,39.076023,47.188911,11.182766,20.326653,27.856865,34.664211,-0.640105,6.476692,13.246451,18.729456,29.599566,39.066892,39.557067,37.81694,33.805634,43.639942,45.52438,46.752348,33.887082,44.666852,48.742502,51.395485,30.838032,39.991605,44.614117,47.920172,102.125101,269.014327,-156.906767,227.223562
61,-3.810425,4.267633,13.666191,17.830617,-18.924866,-41.841545,-63.444443,-77.992973,-42.566528,-76.734695,-66.845741,-55.921898,-41.90403,-76.596451,-67.666512,-55.287094,-42.155228,-73.359718,-66.034698,-55.615883,-42.610703,-66.315308,-61.99276,-53.326263,-18.776942,-18.634978,-10.968232,-2.535595,20.260434,7.444321,-3.785424,-2.674781,31.626338,15.843241,4.849198,5.745814,35.867665,22.186306,12.507669,13.057063,36.218407,24.945931,16.815316,16.606477,13.46323,30.536098,47.36681,53.175602,19.544678,55.901928,49.472065,38.611221,22.265568,60.212402,54.055653,43.674603,27.233677,61.18309,55.24704,46.465473,33.267288,57.326145,52.879372,44.884815,-10.851029,-8.593126,-0.757369,8.23485,31.34525,21.081591,7.492239,6.949144,44.377798,31.371,18.507463,17.653887,50.307505,37.418712,27.268426,27.513081,51.163057,41.415693,32.586063,31.463317,98.737106,272.330262,-142.818146,244.102482
62,-3.223,-2.345713,0.631428,-0.178212,-15.49324,-36.414871,-56.380348,-70.306549,-33.647461,-68.698883,-61.50238,-51.56353,-34.847374,-71.242332,-64.145393,-52.54612,-38.064995,-70.517578,-64.292908,-54.496651,-41.603279,-64.524307,-59.142952,-49.935265,-17.455112,-16.78969,-8.751639,-0.742302,23.438542,10.911792,-1.128674,-0.860554,34.184349,18.671843,6.721224,7.691878,38.601603,23.195863,13.219034,14.8921,39.274806,25.363302,16.875523,17.25782,10.250187,23.912716,39.695377,47.768898,14.364738,50.48893,45.395851,33.891735,19.437962,56.882629,51.725235,41.028728,26.530437,61.438122,55.893517,46.142921,34.289761,60.03994,56.349621,48.449993,-12.253134,-9.983992,-4.092076,4.768614,32.09842,20.767652,7.190712,6.593462,44.107764,27.077432,14.002647,12.376944,48.153465,32.787308,22.372915,21.906453,47.1373,36.452194,27.453739,25.471057,96.258087,269.310296,-141.442738,243.250017
63,-2.032471,-1.561606,-1.863613,-6.287365,-17.763634,-38.906479,-59.005508,-70.819817,-33.105354,-67.383957,-58.216209,-47.968254,-33.226891,-68.604012,-59.714813,-47.554665,-34.9617,-67.373085,-59.914398,-49.463196,-36.775017,-61.091309,-55.546188,-46.580658,-16.831866,-16.206828,-8.207371,0.738535,23.412113,9.879078,-0.545503,1.555061,34.866382,17.962454,7.39912,9.256387,40.002781,25.48174,16.700275,18.661839,41.070384,29.340029,21.879468,22.649248,16.822529,31.39555,43.364811,45.36272,22.848644,54.758892,47.596607,35.596619,21.535835,58.282871,50.212727,38.657513,22.656155,57.870884,50.201111,39.750023,26.455193,53.853836,48.964577,40.438843,-5.936005,0.453063,6.77365,11.654835,45.887596,30.403803,17.298019,17.2656,53.019089,32.1196,19.811632,19.30923,51.729864,33.264576,21.724845,21.825127,45.694749,33.015475,23.928779,23.867399,95.628605,267.559101,-141.903362,236.773063
64,-3.128929,1.98015,3.903694,6.369925,-15.37262,-36.090088,-56.785812,-70.613937,-32.505684,-67.38327,-58.778343,-48.883209,-33.53199,-69.968719,-60.804863,-48.884697,-35.815659,-68.74054,-61.285172,-51.252136,-38.416786,-63.087959,-57.488594,-48.042641,-19.904504,-20.598147,-12.453144,-1.922784,18.557296,5.772799,-3.999512,-2.816375,30.669762,14.971387,4.56916,5.53401,35.768062,21.446289,12.452218,13.605283,36.769592,23.940882,15.686828,15.911043,11.295776,24.363556,36.683807,40.611248,15.127659,49.079475,43.581848,33.908043,17.948341,54.021435,47.785835,37.999992,22.456226,56.027355,50.629921,41.783924,27.712498,52.304535,48.949642,41.858196,-8.993268,-5.301026,0.900074,6.070312,38.089507,23.993802,11.733134,12.33872,46.510966,27.092129,15.365726,13.741319,47.261728,29.466494,18.58249,17.824627,43.763628,32.998926,24.085563,21.373547,93.585291,270.134479,-136.914053,243.738216
65,-1.290092,-1.02339,1.404018,-2.52411,-15.885086,-36.947937,-57.851601,-71.046066,-33.528442,-67.862091,-58.848495,-49.097099,-34.602013,-70.074005,-61.116257,-49.744377,-37.083664,-69.393654,-61.75209,-51.770782,-39.808159,-63.557396,-57.763138,-48.783417,-18.952498,-19.313676,-11.438646,-1.978545,20.186827,5.978119,-3.666678,-1.360917,31.580396,14.849307,4.900883,6.728695,36.347281,21.212502,12.527862,14.38834,37.156087,23.484423,15.606984,16.505206,17.628422,32.512894,43.135872,42.313499,23.665695,52.795372,46.055317,35.999794,20.224743,53.240318,46.631584,37.207432,18.925838,51.326637,45.73185,36.607647,19.620552,45.393047,44.148388,38.822937,-4.309067,2.075925,7.486002,9.984609,44.212739,31.230394,18.356113,18.273861,49.645293,32.018638,19.952978,18.198155,48.062939,32.019688,20.67447,19.480032,42.400179,33.177817,24.852812,22.883221,94.096212,269.601295,-133.709021,241.704312
66,-1.407394,1.08267,1.508675,2.009111,-15.239525,-37.092819,-58.260841,-71.929321,-32.828636,-67.460861,-59.054031,-49.76841,-33.513451,-69.268913,-60.455933,-49.39991,-36.040993,-68.781738,-60.810013,-50.855942,-39.113731,-62.836647,-56.985168,-47.970657,-19.419702,-19.601125,-11.492863,-2.331881,19.878137,6.853925,-2.759502,-0.495177,31.112451,15.253155,4.712483,6.387216,35.87773,20.714731,11.390851,13.092446,36.76459,22.229716,13.995669,14.980156,16.27161,30.910664,41.559906,40.163727,20.734978,49.676971,44.042816,34.982414,18.490105,50.761185,45.434875,36.639576,18.373489,49.903278,45.684471,37.587833,20.112305,44.957542,43.55238,38.122559,-4.888348,0.565078,5.846406,8.120735,40.819925,28.411673,16.413754,16.531141,47.033807,30.244796,18.904024,16.883859,46.508805,31.447509,20.750979,19.388271,42.00862,32.871906,24.877265,22.707973,94.034758,271.221209,-130.854406,244.250667
67,-0.889778,1.167268,2.811127,1.436068,-15.160789,-37.025185,-58.358459,-72.796097,-32.734108,-67.634239,-58.971291,-49.433441,-33.707886,-69.667511,-60.547485,-49.224701,-36.380539,-69.303474,-61.358871,-51.224327,-39.480057,-63.405647,-57.615166,-48.368111,-19.706779,-21.002982,-13.529701,-4.385144,17.858034,4.634615,-5.012528,-3.131549,29.582585,13.598923,3.372005,4.87359,34.887624,19.756489,10.996822,12.775049,36.316344,22.284859,14.399455,15.328861,13.707333,27.431946,38.096066,38.127136,15.965824,43.58614,42.88805,36.570168,13.886375,44.392147,44.361477,38.471146,14.082813,42.936859,43.945484,39.248428,16.078205,39.288254,41.171265,38.083878,-4.488267,-0.250768,4.996226,7.766535,35.94405,27.010433,15.774143,12.931957,43.485011,30.480374,19.399633,14.450214,44.532606,32.586372,21.998893,17.663458,41.845352,34.101974,26.308207,21.951098,94.989023,272.852192,-126.199236,246.150449
68,-1.563721,-1.032961,3.205433,-0.257993,-14.974709,-36.843796,-58.370132,-72.531166,-32.490463,-67.18998,-58.252487,-48.818207,-33.384132,-68.883934,-59.665489,-48.652267,-35.984573,-68.712273,-60.489693,-50.370712,-38.960495,-62.667503,-56.671715,-47.617836,-19.006345,-19.96681,-12.440917,-3.126917,19.744571,6.234507,-3.454442,-1.172887,31.115971,14.523326,4.347353,6.32633,36.058659,20.590366,11.929315,13.978503,37.076862,22.950837,15.284894,16.343729,16.206493,30.494328,38.762341,35.468216,16.891766,42.034492,41.237469,34.979038,11.208858,39.122944,40.157032,35.040665,7.929325,33.857918,36.659946,33.43832,6.745319,27.39378,30.667648,29.017239,-2.262412,3.076159,8.451347,10.630025,36.252,29.187691,17.562188,13.082998,42.088957,31.860619,20.763206,14.56192,42.244445,32.88969,22.872106,18.078977,39.078872,33.953588,26.499572,21.832784,95.252724,272.132367,-121.166382,246.205593
69,-0.058823,-1.763468,0.104027,0.819675,-15.337257,-37.473793,-58.595924,-72.273331,-32.691994,-67.234039,-58.588829,-48.977966,-32.809067,-68.357277,-59.739304,-48.778381,-34.869232,-67.828789,-60.158043,-50.215759,-37.445641,-61.147385,-55.939178,-47.60273,-17.544218,-17.069296,-9.80788,-1.284347,23.713393,10.433782,-0.157896,1.583342,33.848735,17.832716,7.027073,8.600474,37.723327,22.738786,13.584226,15.138608,37.770072,24.04808,15.948896,16.235542,16.361904,30.67709,39.902058,39.703903,17.132378,40.487137,39.620476,33.993587,12.923641,38.903503,38.32386,33.170471,10.720997,35.636444,36.151428,32.078762,10.081387,30.555439,32.147827,30.013218,0.18556,7.229244,12.850075,15.666265,37.023942,29.903749,19.567347,15.511827,39.772391,30.205214,19.988794,14.71926,37.659292,28.627985,19.164981,15.088096,32.562351,26.932504,19.074023,15.056418,96.316738,270.526733,-119.939518,247.183102
70,-1.144295,0.454298,-14.502354,1.84572,-15.788498,-36.676483,-57.107391,-70.488968,-31.587639,-65.026016,-56.849785,-47.324295,-32.215462,-67.225914,-59.008942,-47.56794,-34.550743,-66.7313,-59.581718,-49.365921,-37.248344,-60.761032,-55.825081,-47.190399,-16.616604,-16.385842,-9.536672,-0.731989,23.084157,10.4055,-0.466586,0.492398,33.563263,18.269662,7.497179,8.449926,37.95594,23.48998,14.52876,15.741106,38.365469,25.197194,17.330438,17.515813,9.446297,23.925362,42.043419,48.685341,16.625118,51.758366,45.463943,35.894852,20.793228,57.986698,51.056614,40.911541,26.865578,60.31168,53.477726,44.40897,33.718529,56.233521,51.526279,43.790874,-10.273848,-8.033729,-1.633545,8.363291,34.277221,21.226334,7.590978,8.448568,46.264891,29.828475,16.102531,16.726643,50.890799,34.812598,23.976944,25.125502,50.265638,38.326566,30.452648,30.429862,95.793114,271.032346,-133.821201,249.080136
71,-1.511993,0.528769,1.045017,-0.551308,-14.775696,-34.792328,-54.676208,-68.292732,-29.234962,-62.864113,-56.202621,-47.441254,-30.35614,-65.469933,-58.232346,-47.495155,-33.281822,-65.072594,-58.647537,-48.993073,-36.603127,-59.721336,-54.936676,-46.480637,-16.619135,-16.412086,-9.313568,0.067555,22.534948,10.658615,-0.249842,0.075027,32.949155,19.006406,7.860457,8.373418,37.417353,24.044005,14.734945,15.51158,38.040168,25.376888,17.203788,17.086462,9.394569,22.923031,37.920799,45.857792,15.192261,48.845787,41.890297,30.863514,19.864368,55.337563,47.334766,36.300316,25.774956,58.44595,50.97805,41.330624,32.126656,56.640358,51.31588,42.866364,-9.492644,-5.639912,1.50529,9.932801,39.786408,25.017438,11.653908,12.445116,49.698461,28.650277,16.370466,16.345581,51.421544,31.780035,21.325443,22.3886,48.574171,34.679587,25.728494,25.102407,94.982586,271.745285,-132.074718,248.712999
72,0.427666,0.650294,-1.152363,-1.445577,-14.382019,-34.087601,-53.521042,-67.487297,-28.704872,-62.706413,-55.92968,-47.165451,-29.845963,-65.528755,-57.853889,-47.05616,-32.787209,-65.499573,-58.547173,-48.630867,-36.225014,-59.94873,-54.917336,-46.27327,-16.890343,-17.132096,-9.957933,-1.106259,21.603011,10.324113,0.365624,1.28799,32.280337,19.15504,8.352608,9.066504,37.236733,24.41247,15.221044,16.300565,38.410979,26.230711,18.076507,18.369636,14.227238,29.064445,41.771622,44.726143,21.973801,53.57666,44.309978,32.363663,22.205029,56.713371,46.685658,35.536537,23.77779,56.150551,46.532936,36.454983,26.454849,51.012955,45.188713,37.473221,-6.515656,-1.251619,6.278782,12.681497,43.25709,27.429471,14.490228,15.933397,51.427843,30.398616,18.934591,19.77205,51.801494,31.596266,21.171685,23.056678,47.742455,34.562076,25.967901,26.744968,96.025028,272.495769,-132.612305,247.367612
73,2.506027,0.425954,-0.061054,2.021585,-15.769272,-36.259346,-55.962982,-70.00946,-30.256348,-66.331787,-59.036522,-49.487457,-30.838852,-68.061104,-60.068321,-48.744736,-33.539429,-67.135048,-60.111923,-50.031395,-36.661491,-61.499977,-56.464119,-47.54837,-17.967023,-18.342466,-10.401363,-0.947066,19.192893,7.871634,-2.364115,-1.415505,31.203286,17.217806,6.71085,7.480692,36.74378,24.01597,15.154663,16.060109,38.311993,26.794492,18.574709,18.18914,13.816166,28.209801,40.454979,42.975826,19.733849,49.986591,43.865376,33.718529,19.990826,53.570881,46.748028,36.535664,21.90834,53.165588,47.395878,38.740425,24.739094,48.967152,45.198898,38.045425,-6.896039,-2.951484,3.485811,8.656852,37.37456,24.902521,12.464321,12.173229,46.425442,29.921594,18.554949,17.031443,47.876576,32.539812,22.032856,21.661612,44.885942,33.11761,24.476134,23.871845,99.421034,273.106897,-131.783381,249.574371
74,0.344925,-1.071431,1.727543,2.378688,-14.696045,-34.662094,-54.615784,-68.829689,-28.520966,-63.553734,-55.268555,-45.776939,-30.191574,-66.450119,-57.012405,-46.534882,-34.028893,-67.617188,-59.081955,-48.792686,-38.19603,-62.702637,-56.636925,-47.480164,-17.829073,-18.578229,-11.398262,-2.714733,20.401595,8.609922,-1.108914,0.813253,31.522844,16.769498,6.36622,8.386015,37.052779,23.046365,14.519498,16.896642,38.882382,26.158648,18.360682,19.286815,10.859642,24.839458,37.429562,39.893646,15.253601,48.170357,42.10247,31.532936,16.960373,51.486168,44.756641,34.201069,20.513535,51.867599,46.01366,37.131729,25.025311,48.514023,44.5574,36.900101,-9.501104,-6.800326,-1.305342,4.122025,32.120959,21.722807,10.614896,11.59154,41.33869,27.187965,15.987614,15.000101,43.824144,30.202806,19.748214,19.625022,42.602906,33.26223,24.769387,23.197345,100.277767,272.202655,-129.544029,252.120248
75,3.056374,1.701841,1.232414,2.544117,-14.764366,-34.901047,-54.491615,-70.264435,-30.004807,-66.65966,-58.122368,-47.505684,-31.312294,-69.103317,-59.844475,-48.56472,-34.555893,-69.530869,-61.88015,-51.35376,-37.891273,-64.320717,-59.296188,-50.211182,-20.085495,-22.557981,-15.668056,-7.348793,15.618779,4.518339,-5.257245,-3.853658,28.116692,14.451264,4.133326,5.329616,34.857614,22.07991,13.428924,14.839242,37.376289,26.870815,18.846349,18.360929,8.023682,20.690174,34.915295,39.955616,9.95573,43.09845,39.99115,31.435089,14.156113,48.317814,44.852657,35.603085,20.29335,50.752716,47.397022,39.297523,26.365757,47.917786,45.504456,39.139194,-13.89446,-15.952601,-11.307427,-3.01058,22.393972,13.388354,3.056584,3.195893,35.022117,20.82335,9.95818,8.34952,40.812082,26.786835,17.52946,16.43092,42.322436,33.092849,25.559792,22.904463,103.894386,273.778294,-127.751369,254.538162
76,1.03878,-2.398324,-4.685383,-3.527986,-14.840698,-33.999596,-52.66777,-69.399834,-29.081497,-66.391068,-57.560234,-46.35498,-30.965996,-69.298325,-60.101395,-48.867416,-34.84314,-69.787445,-62.51873,-52.410049,-38.847427,-65.182114,-60.080109,-50.972672,-20.872813,-23.942796,-16.806795,-8.78202,14.569022,3.147233,-6.56975,-4.974119,28.040739,14.127753,3.788511,5.781382,35.40287,23.069583,14.048219,15.984712,38.459392,28.349799,20.218382,20.207205,11.563683,26.195297,40.828056,46.833801,14.534111,50.476284,47.817078,38.505535,16.47583,54.349995,51.035213,41.024666,21.593857,55.867138,52.928867,44.475861,27.469711,52.367477,50.875053,44.74165,-15.246671,-17.340874,-12.340943,-3.072206,22.269236,15.104954,2.192942,0.020192,36.078296,24.176089,11.400917,8.273505,42.434883,30.634194,20.800132,19.447922,44.065279,37.649473,28.921114,25.778636,105.426922,271.059269,-131.942997,250.689475
77,1.299362,-2.902825,-1.672382,-3.806172,-16.40522,-36.32515,-54.115562,-69.388733,-28.331108,-66.955605,-59.794235,-48.326912,-30.095215,-70.021706,-62.046432,-50.025787,-34.401398,-70.008087,-63.914223,-53.530655,-38.863907,-65.488358,-61.351776,-52.306252,-21.942021,-25.589926,-18.308256,-9.985536,10.703816,2.894859,-6.95359,-6.356526,25.814327,15.29638,4.743481,5.85079,34.934122,25.190648,16.078819,17.456347,39.723608,31.730202,23.727225,23.643553,12.433777,27.40963,42.455406,52.860432,17.128544,55.090313,55.993252,49.644585,17.183647,57.056866,57.732067,49.830265,20.795231,56.420689,56.762695,49.968109,25.760708,52.153816,53.273563,47.629166,-16.31662,-20.045048,-15.29144,-7.61222,15.598895,13.754472,1.364375,-3.467286,32.847267,26.679389,14.170608,8.785602,43.022068,36.239835,26.029651,21.611718,48.078624,44.840062,36.239958,31.624794,107.343607,267.959213,-132.998056,246.686072
78,-2.454643,-4.3434,-2.268906,-0.769163,-15.82798,-35.794029,-53.892174,-70.653534,-29.699364,-68.74958,-62.847977,-51.251564,-29.717216,-70.663261,-65.156937,-54.324532,-32.341919,-67.945175,-64.633598,-55.773239,-35.677071,-62.628136,-60.902596,-52.859573,-21.733922,-26.314938,-20.202327,-12.380217,8.674327,6.198012,-6.725237,-9.576316,24.554372,20.229682,7.393624,5.801204,34.723183,30.213736,19.713881,18.85518,40.174448,37.226051,29.052704,26.873285,13.225193,30.699577,48.308029,62.604961,15.060368,52.677498,66.182098,71.255322,16.291866,59.338245,66.768723,64.030724,20.776234,58.641014,63.05191,59.255219,26.411762,54.32333,58.078308,54.113617,-16.055478,-22.434048,-18.960588,-12.780174,11.94395,12.960238,1.967245,-6.420129,29.791486,26.839137,12.009652,3.379477,41.23674,37.91994,25.60629,17.007298,48.184587,47.051714,37.767046,29.949073,105.457163,263.456944,-134.698763,245.758041
79,-0.341949,0.102629,1.094112,0.325363,-16.994705,-37.653694,-57.343369,-75.079994,-35.317726,-75.07576,-70.407257,-58.654861,-33.531189,-75.325584,-71.734543,-60.983849,-33.417778,-70.199089,-68.292389,-59.618111,-34.782143,-62.620125,-63.242111,-56.22242,-23.653742,-29.793586,-25.394672,-19.997253,2.413083,3.613696,-9.918042,-14.084466,20.091238,19.806012,6.23815,3.098697,31.868091,31.384215,20.204735,17.544342,38.204362,40.0867,32.050934,28.440696,12.858524,32.426891,51.289272,67.077255,18.14518,54.939537,73.503628,85.348778,17.375565,61.382217,75.349789,79.567795,19.300919,58.444748,69.40567,72.806454,22.995987,51.303463,59.853973,61.890392,-16.486125,-24.861333,-22.568417,-17.848154,9.071815,12.225594,5.929151,-1.830467,28.134537,27.095278,15.235556,4.733169,40.3308,40.361366,30.364283,19.785079,47.598576,49.821467,42.121809,33.338862,105.813446,263.462332,-132.906418,245.986162
80,-4.315224,-5.599095,0.924625,0.808498,-18.443527,-39.356689,-59.984665,-79.722977,-37.159653,-73.024292,-87.213821,-91.970215,-34.129143,-73.12191,-88.11882,-93.361588,-31.929359,-67.825584,-81.770325,-87.103271,-31.625862,-58.863258,-70.801048,-76.076088,-21.452278,-26.453753,-22.558475,-17.400093,4.761327,11.390234,5.895312,0.253115,22.929286,27.284728,19.494049,12.998832,35.710572,40.48499,32.637316,25.486186,42.404008,47.435061,41.540058,35.253989,17.237492,37.734776,57.515545,76.046677,30.79113,67.093506,84.08289,93.597908,26.508522,68.207245,85.357647,91.180515,24.494534,61.325684,77.551632,85.173969,23.769722,48.635502,62.982903,70.959663,-17.531374,-27.04773,-25.981856,-20.952965,6.56833,13.238671,7.264318,0.759036,26.191869,30.889347,20.784633,10.44465,38.859905,45.290222,35.625665,24.792111,46.046912,54.577114,48.944797,39.23967,102.216682,257.741851,-131.263332,246.673275
81,-3.154335,0.26034,8.350639,0.683392,-20.284882,-42.37175,-63.529243,-83.535805,-43.502426,-76.914482,-94.074898,-104.563923,-39.214439,-75.10025,-92.952003,-104.028397,-35.106583,-67.510643,-84.958649,-95.908012,-32.434845,-58.190804,-72.74334,-82.444038,-22.039587,-26.820797,-22.663698,-16.449754,2.811682,12.028857,10.277739,7.126862,21.155382,29.142551,25.333107,21.554475,33.826876,41.71265,37.591675,33.02727,41.028023,48.444989,45.175799,41.052415,18.95153,37.958851,57.231445,75.837021,31.372719,65.457687,84.273949,96.880016,26.186657,64.953117,87.13171,100.438271,23.101444,56.383781,77.985535,92.272282,22.201881,46.445446,63.85294,77.317829,-18.616329,-24.803473,-24.311816,-20.35448,5.200187,12.150196,11.440005,9.974235,24.783528,32.050255,27.73174,21.09919,38.452537,48.559845,43.897009,35.975975,45.622378,56.993778,55.01443,47.89856,99.452276,257.798615,-122.522764,247.153091
82,-5.619049,-0.959848,5.216618,2.868739,-23.132515,-46.738243,-67.623596,-87.380562,-47.654228,-79.374046,-97.814255,-111.177635,-42.236252,-76.309319,-96.203556,-109.831524,-37.607918,-68.83564,-88.450584,-102.502956,-33.926468,-59.591446,-75.409012,-88.137589,-20.71152,-24.640637,-18.478008,-12.38491,3.163165,14.464849,17.28604,17.600535,22.355255,32.070509,32.408036,31.121158,35.64666,45.728588,46.294469,45.134858,43.152793,51.708992,51.820822,50.486705,21.538696,41.343441,61.202545,80.196877,33.1604,65.452251,86.808529,102.298851,27.247238,62.434273,86.478481,102.771721,23.421822,52.783012,75.280781,91.929874,21.98576,45.004292,62.296658,77.218094,-20.21338,-24.932964,-23.572602,-20.48786,4.864821,13.721374,15.415558,16.786788,23.81417,35.453443,35.429546,33.833792,37.226853,51.565299,51.752341,48.948625,44.322778,58.704141,60.26902,57.007672,94.132347,256.146066,-117.007027,249.329129
83,-3.799782,-0.908225,6.193485,2.006209,-25.715904,-50.20134,-71.641731,-90.195007,-52.033768,-79.376907,-96.546707,-111.343517,-46.012802,-75.326843,-94.617233,-109.751301,-39.449387,-65.995674,-84.683075,-99.042606,-33.164864,-55.68718,-70.076637,-82.456627,-19.473363,-23.122998,-15.054195,-7.177991,4.388725,17.340565,23.316338,26.529891,22.360071,35.465114,41.875424,45.982753,35.508092,48.813639,54.86592,58.108311,43.344034,55.204127,59.791874,61.775544,23.21743,45.183506,66.661606,85.671272,37.954388,68.363342,89.074459,104.828167,30.921535,63.942432,87.903728,104.839382,25.666981,54.115334,76.284485,92.661438,22.333603,43.956985,60.191345,74.706001,-17.406206,-21.737071,-19.965143,-15.850219,7.255612,19.146147,23.63392,26.576389,25.058132,39.845133,44.334943,46.954087,38.031523,54.912233,59.880054,61.36157,46.528318,62.775469,67.123748,67.384458,90.319233,254.44441,-110.826874,250.541907
84,-5.339355,-0.329068,4.493065,3.675199,-28.477821,-53.577118,-74.781075,-93.725739,-52.918625,-78.387337,-93.025875,-105.221901,-47.423973,-73.035278,-90.051498,-103.674717,-41.314545,-64.41124,-80.694237,-93.377037,-34.962845,-54.69532,-67.528152,-78.396149,-17.597818,-19.275391,-10.592419,-2.593085,10.083781,22.139005,26.107148,26.091896,27.08299,39.589424,43.002493,43.641918,38.480263,51.818352,56.179413,57.451595,44.487714,56.33805,60.168737,60.447293,24.150639,48.337955,70.723572,90.317688,41.015625,70.441589,91.706028,108.833256,33.936424,66.152916,90.591373,108.708172,28.278866,56.336403,78.00745,95.036144,24.230919,46.134682,61.999969,76.864414,-16.332181,-20.207761,-17.942385,-13.260036,8.099061,21.631849,27.967317,32.250758,25.533301,41.937298,49.649184,54.84332,38.641432,56.361886,63.667515,67.42299,47.527193,63.942181,69.827119,72.18475,84.811707,253.428878,-106.50198,253.530643
85,-5.460205,3.426777,5.966778,3.721265,-28.286591,-52.115135,-70.982666,-86.759663,-55.466423,-79.782829,-90.966454,-97.63195,-50.126495,-73.227882,-84.585342,-91.546154,-44.050598,-65.129929,-75.265961,-81.076756,-37.418861,-56.081772,-65.382729,-71.575012,-15.469343,-17.901877,-10.865664,-4.925522,11.881706,21.957644,23.465712,21.837354,27.47492,36.602124,36.280899,33.74129,38.051468,48.483151,48.691929,45.879445,43.729851,51.92765,52.264622,49.951329,27.894859,54.534645,77.149258,97.956219,46.251526,73.922653,94.48431,111.728096,38.368549,67.903576,90.730247,108.286057,31.389599,56.978645,76.596851,92.686329,25.968933,46.41758,60.690422,74.602318,-15.481137,-16.666745,-13.389898,-9.524198,12.665442,24.76173,32.476579,37.932352,29.827857,45.983803,55.158,61.593875,41.957305,60.031836,68.957179,74.255673,49.510554,65.559363,72.341966,76.269231,78.980083,255.875753,-100.90662,256.272006
86,-4.017334,5.992445,5.89983,5.247982,-27.968102,-53.68103,-74.959145,-92.685413,-54.827728,-80.059834,-90.602703,-97.179909,-48.764763,-71.482773,-80.584545,-85.71516,-42.023163,-62.509232,-69.6698,-73.096848,-34.926109,-51.867027,-59.541779,-64.618607,-16.283954,-18.388099,-11.299646,-7.305321,9.212112,18.151163,18.276269,15.198629,25.059676,31.961334,30.601713,27.460346,35.831109,43.91677,42.490582,39.104622,42.080374,48.634871,48.881132,47.021642,28.495274,54.171753,76.02499,95.274982,49.146252,75.367985,94.501247,110.27441,40.642262,68.679371,89.830685,105.641041,32.75053,58.129692,76.870537,92.113552,26.034737,46.615162,60.573921,74.102268,-14.304421,-15.101743,-11.467546,-8.094182,14.778294,27.188521,36.096142,42.208197,31.546433,48.428193,59.439712,67.012288,43.336624,61.317665,71.186369,77.277677,50.538945,66.43239,73.657991,78.084754,74.132538,260.956809,-95.837002,260.608598
87,-1.070137,4.429913,4.729214,6.531465,-30.338974,-55.017586,-74.456635,-87.126789,-58.92334,-77.561588,-79.35791,-76.673985,-52.017403,-68.637657,-69.447556,-65.19104,-42.739105,-57.806511,-56.772537,-52.036057,-32.315712,-44.974022,-47.409439,-46.986122,-14.437617,-15.587595,-9.160921,-4.993941,8.249114,16.597337,16.500513,13.548473,21.536691,27.122201,24.457177,20.24901,30.957581,35.83432,32.009499,27.742237,37.755931,41.456324,39.020147,36.269475,29.186039,55.992794,78.983059,99.095421,51.91658,79.178352,98.11615,112.978134,42.654991,71.197643,90.942307,104.922066,34.039822,59.888763,78.067589,92.485542,27.297192,48.372059,62.115841,74.881554,-12.931895,-13.070216,-10.944643,-9.931566,15.974955,28.388764,38.333977,45.312082,32.745564,51.174789,63.724449,72.054333,44.467274,63.503074,74.10562,80.216379,51.262722,67.217917,74.215041,78.297979,72.300739,264.751943,-91.86945,266.505284
88,-10.643348,11.614666,4.689846,7.71664,-20.496941,-41.846638,-60.136528,-72.073746,-63.823128,-71.495161,-63.478947,-53.169623,-64.60393,-70.304804,-57.661686,-43.092442,-60.189371,-64.96974,-52.723274,-39.674263,-53.688927,-59.351492,-52.117539,-43.573837,-15.93352,-19.183846,-12.703418,-5.846035,6.159264,20.295817,27.251846,29.987451,21.985061,33.564313,39.197001,41.170173,34.532683,43.319427,46.333249,46.779735,44.238644,51.653602,51.484499,50.565344,28.858738,56.029644,79.39579,100.577488,53.140469,81.292076,101.476994,117.510509,43.623734,74.161549,96.22015,112.22517,35.452938,62.720604,82.191868,97.714062,29.059982,50.991096,65.343761,78.940887,-13.10319,-13.524884,-12.30272,-13.251762,18.241072,31.86982,41.893703,48.734351,34.651738,52.04016,62.575027,69.453899,46.136882,64.515472,73.30058,78.272352,52.918621,68.704867,75.335194,79.621228,60.683241,275.861181,-88.153753,273.716497
89,-10.643349,11.614666,4.085083,6.974647,-10.654907,-28.67569,-45.816422,-57.020702,-68.722916,-65.428734,-47.599983,-29.66526,-77.190456,-71.971951,-45.875816,-20.993843,-77.639637,-72.132969,-48.674011,-27.312469,-75.062141,-73.728962,-56.825638,-40.161552,-17.429424,-22.780097,-16.245916,-6.698129,4.069414,23.994296,38.00318,46.42643,22.433431,40.006425,53.936824,62.091336,38.107785,50.804534,60.656997,65.817232,50.721356,61.85088,63.94885,64.861212,27.394638,53.842564,77.574635,97.959194,54.230747,83.203983,102.951794,118.833904,44.333553,75.602703,98.174915,114.837055,35.745678,64.089546,83.879642,99.719753,28.862457,52.011337,66.52216,79.771671,-13.829314,-15.133667,-13.612384,-15.61952,19.530359,34.454383,43.429435,49.548222,35.794491,54.141588,64.384808,71.34902,47.025841,65.496686,73.285512,77.522023,53.86933,69.488047,75.957576,80.393479,48.54538,286.802768,-85.563183,280.018065
90,-8.356133,10.506339,3.794861,6.666945,-3.455544,-16.49025,-32.833672,-45.395393,-52.342587,-45.351219,-29.272156,-14.604034,-61.349888,-54.02195,-32.948456,-11.925774,-62.745037,-56.609459,-35.602341,-17.32235,-59.770432,-58.813763,-45.086861,-31.074944,-19.661022,-26.047559,-19.221359,-11.659836,-3.343847,18.128007,28.820646,34.069987,14.563526,32.675786,43.864714,49.529882,29.89004,42.21499,51.207085,55.533257,42.037704,52.99124,56.738872,57.343162,26.852074,53.444023,77.816219,98.164845,54.221878,84.065151,103.190746,118.530178,43.849354,77.196522,99.195843,115.368977,34.883308,65.171127,84.58643,99.535275,27.538548,51.901646,66.774445,79.505138,-13.738787,-15.209188,-13.981158,-16.333848,19.641942,36.808186,45.148196,49.894827,36.171045,55.822372,64.853802,70.321307,47.149218,66.453632,73.227899,76.219892,53.605903,69.567582,74.453892,77.229635,38.756533,296.560367,-83.201036,285.936271
91,-43.169861,16.782589,3.236847,4.742246,7.575188,14.110222,13.395538,14.455261,2.544136,14.029198,23.727951,32.480736,-4.821396,8.527679,22.213783,35.175934,-9.071217,3.350716,18.175392,30.425377,-11.041489,-1.820984,9.367447,19.364319,-21.264742,-32.33301,-33.82422,-32.048958,-15.402652,-7.059122,1.685786,7.455065,0.55316,11.169168,20.920669,27.367968,14.377595,22.579903,30.160692,35.781276,24.730114,32.987502,38.375905,41.456139,26.920395,53.006916,76.965809,96.75127,53.622608,84.274464,102.799015,117.257252,43.030071,77.841053,99.448757,114.152927,33.876915,66.535664,86.217556,100.54739,26.41737,52.913589,68.838615,81.500874,-13.853211,-14.746986,-12.508287,-15.185044,21.180947,39.712554,48.322785,53.745953,38.157062,56.584743,63.062979,66.235838,48.895149,66.44579,70.782336,71.601085,54.788485,68.773719,71.628008,72.315228,-6.057844,312.863742,-81.608706,290.199303
92,42.958374,-9.646155,0.86071,2.964514,-3.999138,-17.218781,-31.902351,-41.109238,-62.18256,-46.491337,-26.194038,-10.231247,-70.754128,-53.520985,-26.426239,-3.167038,-71.250458,-54.89748,-27.147331,-5.385132,-67.889385,-57.147903,-37.051392,-20.945663,-17.60671,-27.136589,-26.476539,-21.821855,-1.182212,17.398981,25.277346,27.210196,18.150052,35.436647,43.10611,43.790366,34.262154,46.763402,51.136998,51.342071,47.692251,59.35499,58.159502,55.165533,26.552868,52.419319,76.512394,96.65205,54.067612,85.155888,103.759975,117.984638,44.525013,80.132961,101.058254,115.02039,36.13924,68.998661,88.079395,101.462803,29.552135,55.845108,71.44186,83.360653,-14.408718,-15.0311,-12.213243,-14.145476,22.343769,40.399651,48.357056,53.306414,39.152293,56.326318,61.484021,62.82172,49.44232,66.186562,69.265005,68.351037,54.89309,68.19487,70.165141,69.2479,35.021324,302.974105,-82.627201,292.920335
93,-50.130329,19.705977,1.384106,0.74613,10.348492,16.803417,19.506512,21.306667,0.066261,17.398853,32.533665,42.627697,-7.872562,11.971607,30.257664,46.667118,-12.502499,6.095982,23.359623,37.337666,-15.570259,-2.325096,9.837856,20.035114,-23.015614,-35.776089,-38.147799,-37.165103,-12.57189,0.250954,6.472555,11.183247,4.770158,17.284928,23.342644,26.75985,17.616899,27.942247,30.412016,31.826471,27.6372,35.875569,35.869641,33.728199,26.169605,52.122803,76.406021,97.350998,54.65807,86.931152,105.005379,118.314285,44.89603,82.272949,102.814865,116.466637,36.058102,70.533714,89.399414,102.22126,29.168358,56.556244,72.222519,84.054108,-15.313361,-15.837066,-11.423764,-12.596714,22.041377,39.209227,46.936612,51.592469,39.185268,55.653238,59.980089,60.591666,49.743538,66.040398,68.6517,67.491101,55.139907,68.399696,70.552686,69.840086,-16.968555,322.435689,-83.102646,293.422072
94,55.352268,-23.585138,-0.405178,-0.7126,-7.163773,-22.353973,-37.213898,-45.1157,-64.553833,-52.261391,-32.066803,-15.9272,-71.93716,-58.765697,-33.021584,-9.728851,-71.411304,-58.712368,-33.20755,-12.329979,-66.955204,-58.647537,-41.036797,-26.408157,-11.672125,-17.262266,-15.735734,-10.112741,11.496321,29.14885,35.024648,35.580464,25.97315,41.089465,47.433394,46.720856,36.811211,48.098507,50.539378,49.114178,45.581314,56.931163,54.059522,50.410134,26.846695,53.224525,77.35033,97.658215,54.745331,87.395954,105.173893,118.350849,44.981117,82.662334,103.240757,117.350521,36.569195,71.364269,90.719891,104.139347,30.086689,57.919292,73.984737,86.336575,-15.954269,-16.1628,-11.343612,-11.92314,20.914432,38.087901,45.236438,49.552297,38.50027,55.189122,59.277617,59.597052,49.358648,65.60302,68.180235,67.070148,54.787868,67.686726,69.456122,68.488555,36.772356,298.72123,-85.119181,292.580152
95,-12.00428,13.033721,1.011543,-2.352999,1.125412,-7.803955,-22.724075,-35.056229,-42.670555,-30.406494,-10.846024,4.870605,-51.925106,-37.759209,-13.60817,8.414268,-54.383984,-42.46376,-19.906883,-1.07151,-53.220234,-46.780128,-32.741318,-19.434357,-21.202683,-30.183787,-27.315233,-23.836153,-6.023691,10.633853,18.069159,22.385698,12.179651,25.983215,32.462624,35.895638,26.557432,36.295101,39.926643,41.941065,38.48193,46.762105,46.797364,45.540682,27.5457,53.975773,77.532177,97.711315,55.75161,88.145428,105.646877,118.55444,45.955296,83.23225,103.682842,117.927303,37.009621,70.940952,89.96664,103.037853,29.527588,56.389561,72.150135,84.677639,-15.00251,-14.496527,-8.480122,-9.556864,20.941664,37.346834,44.264424,48.711936,38.270621,53.823388,58.246323,59.550121,49.228663,64.927532,68.346838,68.171158,55.268718,68.677882,71.587006,71.753546,23.508053,311.741289,-85.367661,290.21349
96,18.10524,-13.501542,1.403103,0.020439,-6.945763,-21.19194,-36.895523,-48.263626,-66.125107,-54.076424,-32.071381,-14.404221,-76.021843,-62.467804,-34.032326,-8.670273,-77.599182,-65.83231,-37.751999,-14.649925,-75.401459,-68.914604,-49.088516,-32.159386,-12.681806,-21.320688,-19.815151,-15.270321,3.51508,21.678717,30.516683,33.332131,22.397121,36.78472,45.754215,47.341818,37.714188,48.122528,52.785672,53.113876,50.348013,61.156744,59.045744,55.616805,26.939735,53.278141,77.008095,97.320442,55.440159,88.231087,106.093597,119.25396,45.801544,83.442307,104.248238,118.821602,36.719685,70.984154,90.377541,104.062843,28.993492,56.095276,72.202148,85.231705,-15.040733,-14.889877,-8.321486,-7.732634,21.056273,38.021396,45.109849,49.262009,38.336941,54.297446,58.76268,59.814722,49.232307,65.460871,68.868752,68.427237,55.193753,69.038813,71.898907,71.725759,40.501413,298.251433,-85.076437,290.245616
97,-6.979408,4.384032,0.592175,-1.051363,-3.830795,-14.698105,-27.623405,-37.258759,-51.185703,-43.276062,-24.839401,-8.853035,-59.140606,-50.164833,-27.052231,-4.836273,-60.226078,-51.867199,-28.436508,-8.93692,-57.299824,-51.196747,-35.412598,-21.436157,-16.981672,-18.780647,-9.551121,0.078176,1.730802,18.625962,26.70199,32.013884,16.757827,31.264851,39.632526,44.247999,29.219369,41.293242,45.898896,48.004215,39.557623,49.640909,50.605512,50.578466,26.728992,52.815285,76.692753,97.263393,52.666168,86.948032,105.781116,119.805164,43.407726,82.240162,103.583736,118.632374,35.657787,71.661358,91.891651,106.226521,29.581776,58.133698,74.671497,87.837238,-14.195432,-13.710135,-7.632474,-6.8241,22.647272,39.245104,45.124361,48.126419,39.914231,56.064187,59.701039,59.973914,50.690604,67.00494,69.88535,69.224991,56.389426,70.054052,72.478496,72.181539,32.835646,302.574549,-85.170622,289.133337
98,11.409073,-3.213924,1.073914,1.108482,-12.952423,-30.164223,-47.113953,-59.400902,-62.952461,-55.371895,-39.005127,-23.760452,-68.33107,-60.290222,-37.612381,-16.020584,-68.365231,-61.350975,-38.788033,-18.895798,-65.372601,-62.569427,-47.496071,-33.624344,-15.625942,-22.515867,-20.474399,-17.199033,11.293903,24.018378,26.617577,25.064183,29.682003,40.588608,41.316336,38.020161,43.544909,50.167208,48.06368,44.506301,53.632765,61.752264,56.281734,50.278297,26.364555,52.104607,76.259823,97.569866,51.344948,86.339092,105.594463,119.754581,42.199688,82.596188,104.278049,119.267178,34.919987,72.116375,92.62064,107.184162,29.524097,58.817654,75.66679,89.094486,-14.61657,-14.910069,-9.338144,-8.721319,21.577323,38.1838,43.951411,47.037574,39.561328,55.375546,58.830976,58.819984,50.966258,66.906633,69.558443,68.457433,56.98044,70.319023,72.586868,72.076563,43.551493,299.250061,-84.789934,290.131254
99,-9.095535,3.722315,0.091438,-0.361487,-6.613312,-18.352432,-31.764107,-41.356316,-47.996979,-38.198776,-21.691818,-6.793098,-53.703804,-44.257736,-23.620949,-2.756882,-53.726635,-46.897087,-26.901855,-9.479942,-50.496254,-47.951775,-35.998421,-24.334145,-20.15237,-24.087662,-17.180385,-11.231412,2.502497,19.296757,25.10111,27.544636,19.37555,34.203677,39.529773,41.232479,32.871041,43.630001,46.887952,47.658165,43.644265,53.096092,54.209266,53.506053,26.73048,52.852192,76.9174,98.32655,52.77626,87.509708,106.707745,120.779972,43.375282,83.339252,104.757214,119.670696,35.532417,72.080555,92.425632,106.54707,29.454117,57.665119,74.03841,87.106647,-14.799104,-14.799104,-9.119054,-8.756085,21.67705,37.590749,43.488469,46.688869,39.1744,53.645053,57.230467,57.825988,50.310592,65.028186,68.004061,67.559891,56.255737,70.033612,72.824113,72.957803,33.796349,302.838485,-85.358105,289.635877
100,8.264008,-5.974661,1.144924,-0.251509,-10.62664,-25.841331,-40.641403,-48.440781,-65.504093,-55.483475,-35.954018,-19.111519,-72.614079,-61.837635,-36.120415,-12.523155,-72.952766,-63.497543,-38.256798,-17.121048,-69.481659,-65.858574,-48.76133,-33.404846,-15.486386,-21.515387,-17.422385,-11.42926,9.468993,24.824901,30.500443,31.543839,27.263733,39.707738,44.52674,43.932022,41.181226,49.78065,50.755936,48.938992,51.927342,61.770234,57.972213,53.276403,27.575111,53.791752,77.390099,98.149796,54.744244,88.334885,106.545639,119.802704,45.320148,83.097153,103.801918,118.310738,36.700573,71.244621,90.803947,104.399529,29.425106,56.486664,72.334785,85.177116,-15.080933,-14.776688,-8.456225,-7.917885,21.594304,37.024621,43.014966,46.388453,38.502493,52.877866,57.128888,58.306345,49.344013,64.316327,68.16381,68.236737,55.398888,69.436733,72.75026,73.136694,41.314516,296.750651,-84.959021,289.271194
101,-14.385796,10.18573,2.210426,0.591198,-1.592445,-10.532799,-22.283707,-30.4533,-41.260529,-29.989128,-12.680054,2.520447,-49.582844,-38.445053,-16.79306,4.799309,-52.225685,-43.538704,-22.792511,-4.313965,-51.531143,-47.790356,-35.017548,-22.078056,-22.085652,-28.50751,-23.173695,-17.789738,-3.792525,10.253409,17.271775,21.164398,14.469604,26.99092,34.340763,37.729563,29.193372,38.121246,43.13291,45.494246,41.047043,49.353399,50.949153,50.719195,26.604939,52.143631,75.636635,96.579437,54.474049,87.893257,105.754166,118.384895,45.163593,83.398132,104.14032,118.218956,36.271076,71.284904,90.433846,103.262558,28.656063,55.679741,71.51619,84.045982,-14.961137,-15.666203,-9.579403,-9.004322,21.009404,35.946212,42.110076,45.640224,38.183367,52.301734,56.375594,57.312657,49.252437,63.832327,66.934297,66.468267,55.608963,68.916424,71.843332,71.679878,26.210003,306.913472,-83.467312,289.839483
102,-43.830757,16.374727,0.716858,-0.500364,10.463791,20.202827,25.301056,29.665604,5.024872,21.885223,37.140541,48.731461,-2.678375,15.400887,34.056358,50.887756,-7.429276,8.067055,25.75367,39.776344,-10.048084,-1.639595,9.174042,19.717369,-19.317567,-30.989383,-36.463186,-41.784466,-14.67622,-5.05069,0.540625,3.036144,-0.792567,9.028775,15.717147,18.250458,10.828676,18.980348,24.087786,26.418432,20.67799,28.484168,31.425402,32.147264,27.095432,52.993526,76.785736,97.906952,54.724331,88.135529,106.112709,118.893929,45.110779,83.445969,103.992348,117.750549,36.206932,71.847267,90.811157,103.030128,28.838654,56.778717,72.618828,84.60434,-15.763336,-15.633537,-9.420519,-9.186177,21.059731,35.982644,42.257104,45.975281,38.647792,52.267031,56.132174,57.134507,50.012153,63.889508,66.570711,66.082265,56.389303,69.17522,71.577681,71.091891,-18.308802,323.252461,-83.438501,289.303382
103,56.147232,-27.517404,0.646591,-0.409343,-6.098213,-20.02018,-34.903336,-44.217453,-60.369072,-46.728516,-27.227783,-11.368103,-69.968605,-55.910225,-29.672699,-5.873451,-72.232189,-60.092068,-34.33239,-12.929878,-70.524616,-64.990025,-47.151375,-31.578369,-13.076761,-17.17668,-12.881321,-7.436602,8.931147,23.588349,30.943687,34.365895,25.589371,36.509314,44.005937,47.006822,38.435124,46.147503,49.44584,50.773906,48.467096,58.313261,56.166569,53.832959,26.758404,52.396832,75.994835,96.887054,54.228573,87.890396,106.199112,119.278793,44.584751,83.138809,103.831558,117.81498,35.829105,71.462746,90.559502,103.133812,28.754826,56.239014,72.139893,84.39949,-14.995902,-15.132185,-9.311098,-9.167343,21.122531,36.239403,42.419322,45.934464,38.665761,52.487541,56.273768,57.131358,49.993751,64.109216,66.829877,66.25282,56.29254,69.461248,72.051554,71.725203,37.437687,295.638418,-83.192654,288.797399
104,-24.838829,13.204461,0.205193,0.613182,3.310089,-0.695801,-9.693947,-18.150673,-29.477806,-13.125687,5.08976,18.601799,-38.592396,-21.000137,1.522636,21.395874,-42.402821,-27.32563,-6.657028,10.005913,-43.267822,-33.054657,-19.949913,-8.071518,-20.819707,-28.659725,-27.118187,-25.322732,-3.351318,11.29378,17.524088,20.861759,14.651706,26.895145,33.46051,36.50672,28.025733,37.079393,40.987886,43.462595,38.199422,46.671949,47.021642,45.996462,27.204895,53.053322,76.798782,97.886696,54.82132,88.379974,106.690407,119.825821,45.176067,83.661919,104.475746,118.603821,36.229591,71.596527,90.929489,103.631401,28.774967,55.948563,71.93573,84.425812,-15.112549,-15.699733,-10.163933,-9.967628,20.142305,35.173343,41.500846,45.115098,37.402225,51.586541,55.695908,56.762275,48.656669,63.383772,66.511739,66.116722,55.029188,68.671645,71.650362,71.49932,12.246294,308.776251,-83.340025,289.343952
105,-48.2127,22.705503,0.635204,-0.313445,12.97657,27.573051,37.350426,43.590431,20.666542,43.360977,57.541924,67.613068,14.125271,36.819878,54.005013,68.667526,9.178505,29.746971,44.533424,56.24691,4.942875,19.532318,30.075531,38.735504,-22.290972,-38.761413,-48.443939,-57.150068,-23.6325,-17.106223,-12.005453,-7.934187,-8.29765,0.790097,5.721299,9.476342,5.260271,13.070277,15.008623,16.637599,16.8465,22.473383,22.352476,21.086284,27.557716,53.199406,76.813374,97.671604,54.768562,87.640743,105.679836,118.486919,45.379543,83.164387,104.000759,118.323612,36.587162,71.296749,90.13979,102.267551,29.12281,55.695133,71.520596,83.863621,-14.679617,-15.541097,-10.143925,-9.745327,19.812064,34.583627,41.16832,45.057176,37.012456,51.176148,55.661327,57.096654,48.357736,63.002031,66.291784,65.743502,55.160161,68.717711,71.981158,71.661106,-36.410379,331.462426,-83.148794,289.011179
106,79.309044,-35.771273,1.085415,-0.131899,-8.220291,-24.11911,-40.451202,-50.272179,-62.814674,-51.932373,-32.354393,-14.983749,-72.28632,-60.671997,-34.110146,-9.28894,-74.592361,-63.712921,-38.230476,-17.076988,-73.183022,-68.659458,-50.322075,-34.232941,-12.937514,-17.479998,-13.233422,-6.769142,5.386859,22.870994,31.913601,36.045506,22.002783,35.787637,45.308068,49.583111,35.383727,44.877976,50.504118,53.100167,45.77274,55.838119,55.43106,54.053532,27.365856,52.678299,76.017609,96.429405,53.65345,86.54377,104.765282,117.853889,44.661942,82.53788,103.824005,118.571777,36.216774,70.917435,90.39093,103.128433,29.010715,55.354214,71.297836,83.813438,-14.705367,-15.683802,-10.085201,-9.060206,20.229311,35.095908,41.577787,45.38575,37.221543,51.348185,55.790015,57.155811,48.40763,63.136338,66.528227,65.99884,55.141451,68.710795,72.00308,71.683954,42.433548,295.65347,-82.528496,288.841597
107,-14.882584,13.237868,0.604134,1.248655,3.821182,-5.002899,-20.017776,-32.071838,-38.427658,-26.739464,-8.862877,6.039619,-49.644241,-36.626015,-14.878693,6.187477,-54.040775,-42.73098,-21.483078,-3.584404,-54.50489,-48.304482,-34.580956,-20.999565,-24.478728,-33.310889,-28.318739,-22.087196,-8.977275,7.213498,14.34882,18.392854,10.384629,24.219685,32.181474,35.646846,25.6426,35.174825,40.466897,43.092031,37.998672,45.726798,46.982122,46.328494,26.831932,52.059917,75.727043,96.668587,54.296894,87.208786,105.375366,118.381691,45.515842,82.992096,103.957329,118.475761,37.050362,71.32679,90.532036,103.130493,29.572334,55.892544,71.642418,84.133987,-15.21808,-16.777278,-11.737271,-11.35411,19.108727,33.044251,39.3875,43.157116,36.010247,49.268925,53.745274,55.262852,47.335149,61.323161,64.563267,63.943601,54.354627,67.5334,70.645312,70.31186,27.223063,308.833401,-82.252264,290.032314
108,-33.2864,10.613723,0.763664,-0.2039,10.212708,14.868393,12.4189,9.205627,-3.914223,12.432632,28.052101,38.758507,-13.628883,5.182686,23.607216,39.097023,-18.738842,-3.194275,13.806267,27.067108,-21.237602,-12.950706,-2.394676,7.710457,-21.175081,-32.213214,-34.831184,-37.513622,-14.268297,-3.103823,3.756031,7.860642,1.16523,12.121482,20.019978,24.368627,13.940279,22.717853,27.640102,30.809442,24.241112,32.165728,34.290004,34.725653,26.443634,51.987591,75.564537,96.004257,55.210361,87.835236,105.655861,118.306618,46.35458,83.347321,104.09317,118.488121,37.484493,71.343498,90.662613,103.389244,29.417152,55.476894,71.181107,83.735504,-15.713072,-16.751775,-11.340093,-10.672385,19.278973,33.648232,40.082192,43.820377,35.883658,49.456152,53.929784,55.335717,46.998609,61.350887,64.935992,64.461255,53.93176,67.340059,70.758871,70.799997,-6.281548,319.408761,-81.70681,289.790052
109,-17.003975,5.905007,0.551548,-1.373885,7.517281,15.19352,21.506538,27.145615,3.866158,28.119049,44.0728,54.697952,-2.956181,25.687637,42.305832,57.530708,-6.272907,19.823456,34.146881,46.278992,-7.673836,6.139526,16.151505,25.02388,-18.573968,-32.588224,-40.427501,-48.170694,-15.314658,-5.026916,-0.071816,1.731296,-0.295661,11.988719,17.463449,19.116507,11.878927,22.201311,24.759692,24.925369,21.258135,29.182689,30.094372,28.804838,25.810261,51.371155,75.182476,95.345707,53.974285,87.208843,105.321407,117.991505,44.725285,82.689571,103.719234,117.605839,35.58466,70.795956,90.254917,102.731266,27.420101,54.554157,70.819187,83.486767,-14.995408,-15.942289,-10.762047,-9.925885,19.527703,35.080409,41.652691,45.23298,36.470843,51.017326,55.842071,57.071151,47.74795,62.498703,66.238185,65.736092,54.514128,68.35962,72.013948,71.873157,-23.515778,325.283278,-81.385517,288.385678
110,55.702744,-27.624047,0.099564,0.274172,-3.60569,-15.54245,-27.898178,-36.829834,-49.533234,-38.367233,-21.327095,-6.95446,-58.984909,-47.138672,-23.343658,-0.962334,-62.68198,-51.948166,-26.922569,-5.753517,-63.178368,-57.770863,-38.782883,-22.091217,-12.886385,-17.285052,-15.449027,-10.157881,6.544556,20.043628,26.941396,30.088197,21.274067,32.021849,40.608738,44.884337,32.420695,39.857483,44.627825,47.06956,41.02895,50.594644,50.419829,48.991048,25.532742,51.30352,75.421886,95.775547,54.561424,87.237225,104.862957,117.515087,45.104084,82.636471,103.270512,117.153454,35.865269,70.904217,90.042515,102.557087,27.76886,54.959164,71.15221,83.825397,-15.362391,-16.417335,-11.256483,-10.41149,19.411304,34.996552,41.505663,45.016791,36.559393,51.486012,56.117725,57.175818,47.88658,63.156345,66.709279,66.065346,54.454045,68.273911,71.588611,71.325246,32.030325,297.515893,-81.442595,288.516512
111,-33.565521,20.620871,-0.786381,-0.036124,6.718826,6.636429,5.304222,5.544777,-16.735611,2.419739,18.716698,30.301208,-24.487953,-3.165436,17.256889,35.240707,-26.673717,-8.124733,10.653877,26.255379,-26.286335,-15.815506,-3.334923,8.404312,-22.457513,-35.230216,-39.10209,-39.435048,-13.642519,-3.453577,2.772038,7.501625,4.013653,15.175534,21.344956,24.517137,18.164254,26.907001,30.248378,32.561671,29.339967,37.124656,37.177021,35.228857,26.289253,52.059002,75.897789,96.328354,54.262733,87.677536,105.656433,118.368759,44.6838,83.120384,104.15657,118.086548,35.695782,71.523285,91.024017,103.570633,28.118019,55.539722,71.97876,84.752426,-15.200605,-16.250918,-11.179542,-10.231796,19.253778,34.954562,41.326648,44.767875,36.567297,51.390422,55.68294,56.477668,47.938512,63.159495,66.523534,65.742947,54.368459,68.517701,71.92935,71.610656,-1.606894,317.992067,-82.300673,288.335691
