takenoko1/special-research/HandMotion_SimilarSearch_自分用/NewProject/handData/key/d4_feature_d2/90.csv
,vel_0x_L,vel_0y_L,vel_0x_R,vel_0y_R,posFromWrist_1x_L,posFromWrist_2x_L,posFromWrist_3x_L,posFromWrist_4x_L,posFromWrist_5x_L,posFromWrist_6x_L,posFromWrist_7x_L,posFromWrist_8x_L,posFromWrist_9x_L,posFromWrist_10x_L,posFromWrist_11x_L,posFromWrist_12x_L,posFromWrist_13x_L,posFromWrist_14x_L,posFromWrist_15x_L,posFromWrist_16x_L,posFromWrist_17x_L,posFromWrist_18x_L,posFromWrist_19x_L,posFromWrist_20x_L,posFromWrist_1y_L,posFromWrist_2y_L,posFromWrist_3y_L,posFromWrist_4y_L,posFromWrist_5y_L,posFromWrist_6y_L,posFromWrist_7y_L,posFromWrist_8y_L,posFromWrist_9y_L,posFromWrist_10y_L,posFromWrist_11y_L,posFromWrist_12y_L,posFromWrist_13y_L,posFromWrist_14y_L,posFromWrist_15y_L,posFromWrist_16y_L,posFromWrist_17y_L,posFromWrist_18y_L,posFromWrist_19y_L,posFromWrist_20y_L,posFromWrist_1x_R,posFromWrist_2x_R,posFromWrist_3x_R,posFromWrist_4x_R,posFromWrist_5x_R,posFromWrist_6x_R,posFromWrist_7x_R,posFromWrist_8x_R,posFromWrist_9x_R,posFromWrist_10x_R,posFromWrist_11x_R,posFromWrist_12x_R,posFromWrist_13x_R,posFromWrist_14x_R,posFromWrist_15x_R,posFromWrist_16x_R,posFromWrist_17x_R,posFromWrist_18x_R,posFromWrist_19x_R,posFromWrist_20x_R,posFromWrist_1y_R,posFromWrist_2y_R,posFromWrist_3y_R,posFromWrist_4y_R,posFromWrist_5y_R,posFromWrist_6y_R,posFromWrist_7y_R,posFromWrist_8y_R,posFromWrist_9y_R,posFromWrist_10y_R,posFromWrist_11y_R,posFromWrist_12y_R,posFromWrist_13y_R,posFromWrist_14y_R,posFromWrist_15y_R,posFromWrist_16y_R,posFromWrist_17y_R,posFromWrist_18y_R,posFromWrist_19y_R,posFromWrist_20y_R,posFromBody_0x_L,posFromBody_0y_L,posFromBody_0x_R,posFromBody_0y_R
2,-17.231712,22.601762,0.933723,-1.17826,1.724968,3.183517,1.25948,-2.575035,-9.58849,15.749931,31.377411,40.361938,-17.609081,12.787285,33.443298,48.903809,-21.06554,4.276085,20.965462,33.544579,-21.618576,-14.399071,-6.189594,1.582832,-13.273807,-16.248509,-9.050264,0.537476,-4.627082,7.766041,14.389575,19.210615,7.571218,21.237943,27.175307,29.21023,16.944498,28.112678,31.096025,31.296591,24.874671,33.332564,32.319116,29.828351,27.019844,51.583099,73.435078,93.327656,46.267548,81.057758,99.345188,112.931271,35.565891,73.785038,94.82111,109.261723,27.01498,60.804291,80.779552,94.71159,21.048889,46.069393,61.289062,72.80714,-14.972375,-14.493995,-7.478654,-0.063603,19.509919,36.300906,42.595681,46.951061,36.200253,53.581882,57.700758,58.766447,46.494479,64.15911,67.96769,67.286769,50.867087,66.676489,69.952287,68.67498,-11.556959,313.691738,-71.759348,286.247508
3,36.184044,-12.945048,0.174751,-1.893762,-4.518814,-13.239555,-27.590103,-40.360336,-43.641586,-32.758026,-10.206642,5.408707,-54.530125,-38.653736,-13.029327,8.383484,-59.678707,-47.463284,-22.463951,-2.84729,-62.564449,-62.304668,-47.989426,-33.964863,-15.542208,-21.835563,-17.157722,-7.989515,-5.505975,15.564377,23.348016,26.405835,14.425328,30.753249,38.429257,40.701055,29.093398,41.380742,44.647956,45.481463,40.489683,51.604696,50.094589,47.138041,26.789417,51.906338,73.623676,91.955166,47.266102,80.121975,98.29565,111.983585,36.240234,73.436909,94.266758,108.526783,27.426281,60.761604,80.21204,93.890705,21.057072,45.854874,60.941219,72.391376,-13.443497,-13.02699,-5.689004,2.424136,20.415551,38.22017,44.234105,47.86966,37.296261,55.059878,59.414888,60.516701,47.79414,65.51941,69.117854,68.741176,52.659331,68.322261,70.656674,68.932849,22.658844,300.634274,-73.552837,284.24133
4,-33.594246,17.494818,-0.542622,-0.193094,4.61071,3.726768,0.13155,-2.322006,-9.52795,12.982292,28.719406,37.000694,-16.584721,10.184212,30.211716,45.513039,-20.36459,3.267288,21.775703,35.417633,-22.487411,-12.656593,-1.100407,8.442421,-17.511367,-27.793552,-28.64509,-20.70374,-11.8801,0.412802,6.029434,9.986956,1.633298,16.00052,21.063621,24.634771,13.033474,25.007558,25.763939,25.948696,21.579484,30.811356,29.54751,27.181173,27.337418,52.599335,74.36039,92.644043,47.433243,80.362015,98.641663,112.42939,36.702633,73.914757,94.749985,109.141731,28.229313,61.527214,81.07029,94.894638,22.203827,47.029495,62.197895,73.684616,-13.238424,-12.557317,-5.029571,3.017496,20.684474,37.94853,43.749302,47.353736,37.587908,55.098287,59.34054,60.460014,48.172299,65.829027,69.134712,68.469104,53.108195,68.770075,70.854337,68.784278,-12.134342,318.04647,-75.294399,283.965614
5,8.0476,-19.902775,-0.027466,-0.269911,8.2481,10.44651,9.199905,5.989494,-17.945824,3.396149,23.462791,34.673882,-30.138016,-6.375504,16.530647,34.86557,-37.55888,-16.568069,5.956306,21.428375,-43.099251,-30.021057,-14.132996,-2.187538,-18.177654,-26.392497,-26.838273,-22.922494,-5.17135,15.285512,21.264495,22.953801,15.515223,34.800494,39.586584,38.424997,30.859954,45.562788,47.116429,46.514671,42.16491,55.440261,53.075158,48.2196,27.63588,52.707996,74.151306,92.447891,47.940159,80.701675,98.879356,112.374802,36.893692,73.837509,94.417992,108.368454,28.12048,61.248207,80.526352,93.934135,21.884251,46.399155,61.345253,72.577972,-12.942269,-12.20114,-4.686856,3.381514,20.962412,38.491564,44.490246,48.153404,37.799341,55.713136,60.023685,61.076715,48.287525,66.220092,69.546957,68.779832,53.161424,68.972987,71.058113,68.921487,-4.371185,298.092796,-75.606308,283.644806
6,-9.487839,13.870069,-0.762978,0.128811,3.439865,6.491661,8.918152,7.937622,-11.640015,9.463577,25.640717,35.926552,-20.006504,5.4562,28.036652,44.517403,-23.499813,-1.022243,19.42955,34.627876,-24.101257,-13.717918,1.118317,14.028625,-16.89763,-23.610517,-16.393005,-5.655041,-10.993673,-1.420074,7.031828,13.99147,4.906255,15.879427,24.299343,28.32547,17.787824,26.538413,30.418006,31.183279,27.879508,34.60456,34.274381,32.257921,27.729549,53.103962,74.815407,93.004875,48.521519,81.150169,99.052963,112.329826,37.871189,74.708519,95.017433,108.938026,29.439812,62.424202,81.487999,94.949913,23.363914,47.962017,62.785206,74.068794,-13.056507,-12.431469,-4.855435,3.261719,20.238759,38.093212,44.130117,47.8633,37.220555,55.204251,59.514306,60.330955,47.959322,65.863483,69.333363,68.620269,53.113505,68.911052,71.079108,69.082224,-14.196739,311.891605,-76.707001,283.702357
7,-19.773903,-14.277313,-0.837765,-0.085463,17.566566,31.907043,38.938293,38.628159,15.92411,43.024521,58.906059,66.393013,5.067844,32.51152,49.979553,62.52079,-5.507927,20.117569,38.190765,49.918785,-15.557556,2.881794,17.229538,27.389603,-21.646607,-30.215032,-32.1711,-32.219327,-8.587877,14.325725,20.067834,21.525144,11.774692,34.320632,38.29495,36.99955,27.838135,45.987137,46.858189,45.809975,40.689199,56.682247,54.374943,49.486533,28.070469,53.731213,75.58691,93.462353,49.24221,81.827259,99.711857,112.936077,38.490601,75.38538,95.99287,109.985104,29.61422,62.833271,82.189808,95.514736,22.943516,47.582417,62.5597,73.64748,-12.837602,-12.177737,-4.842406,3.082272,20.603272,38.479028,44.26004,47.808651,37.44403,55.443595,59.832135,60.959574,48.001868,65.941227,69.479279,68.98614,53.005751,68.714747,70.9892,69.200846,-34.19529,297.558455,-77.769413,283.561057
8,1.136742,0.607501,0.925426,-0.129985,19.222755,32.747841,38.776703,37.797775,15.994034,42.237396,58.64994,66.999664,4.1189,30.85247,49.259262,62.949371,-7.250175,18.164177,37.320671,50.218849,-17.989254,0.187798,15.25938,26.291428,-21.570036,-30.500813,-33.19449,-33.580059,-9.599657,12.693291,18.693702,20.34707,10.43372,33.11335,37.721536,36.648746,26.510563,44.275478,46.066981,45.717782,39.306545,54.748842,53.021312,48.654755,27.942467,53.175831,74.990616,93.24337,48.139572,81.406631,99.460602,112.343903,37.472992,75.357742,95.89119,109.764748,28.933125,63.251266,82.427673,95.648346,22.725677,48.389568,63.440952,74.453316,-12.73559,-12.347427,-5.132941,3.112097,21.265298,38.657178,44.247752,47.442348,38.331259,56.183551,60.058265,60.430559,48.92022,66.703289,69.698802,68.528446,53.880878,69.322124,71.030696,68.716044,-33.19665,298.195719,-76.982088,283.460836
9,-0.414562,-0.265465,-1.119061,-0.233478,18.056488,32.141819,38.389034,37.567577,14.898319,41.44907,58.452816,67.668858,3.748398,30.782604,49.871578,64.612827,-7.080517,19.113865,38.890514,52.65398,-17.129745,1.754379,16.796608,28.144741,-21.606037,-30.390033,-33.165591,-33.282299,-8.646293,14.174869,19.876593,21.39343,11.548871,34.074495,38.079874,36.751005,27.412737,44.951645,46.192334,45.764712,39.945415,54.728032,52.932885,48.756211,27.727604,53.388233,75.53896,93.967838,48.410053,81.301632,99.428387,112.813969,37.805557,75.695286,96.284924,110.857029,29.441128,63.447647,82.902775,96.870975,23.491516,48.58057,63.659649,75.108089,-12.916519,-12.255604,-4.979368,2.879607,21.797278,38.420057,43.541759,46.40914,38.957532,55.800204,59.194871,59.488309,49.542541,66.545331,69.204551,68.018882,54.393406,69.63384,71.278254,69.040727,-33.69338,298.006778,-78.183317,283.303882
10,1.547642,0.374949,0.63858,0.493139,17.025604,30.697517,36.739426,36.179123,15.134697,40.613937,56.200562,64.689789,4.188881,29.69902,47.620125,61.898003,-6.479244,18.456688,37.617874,50.927238,-16.402874,1.505527,16.860924,28.485718,-22.39601,-32.088478,-35.169885,-34.891082,-8.794308,13.106463,18.658134,20.091855,11.583451,33.593891,37.480648,36.053843,27.817511,45.232609,46.290085,45.399706,40.729831,55.819779,53.64141,48.848157,27.395668,52.925663,75.022717,93.452854,48.914165,81.422253,98.959751,111.878757,38.495407,75.847492,96.011524,110.280704,29.922752,63.657475,82.665882,96.489429,23.475723,48.841324,63.804588,75.25526,-13.110477,-12.92856,-5.455031,2.583328,20.956855,37.720363,42.917463,45.695058,38.171017,55.29311,58.878956,59.032282,48.881997,66.018292,68.929947,67.730322,53.893907,69.14064,71.050765,69.037763,-32.182331,298.414269,-77.581329,283.829563
11,2.405262,-0.714576,0.285587,-0.002717,17.003117,28.654232,34.54565,34.569798,11.954899,39.141827,55.379734,62.949429,0.714569,29.065189,47.060566,60.59206,-9.530182,16.861382,35.957737,48.996677,-19.108429,-0.764122,13.848209,24.660358,-22.149132,-30.884901,-32.996086,-31.70859,-8.300737,14.163692,19.307748,20.645756,12.109318,34.787527,38.489526,36.62454,28.119223,46.01369,46.521772,45.530308,40.512531,55.886099,53.340932,48.285982,27.666492,52.986889,74.941521,93.295441,48.569984,81.930084,99.78447,112.696838,37.833366,75.820885,96.105652,110.063667,29.271297,63.589954,82.781639,96.456528,23.034782,48.594704,63.620682,74.967613,-13.396134,-13.029399,-5.369137,2.721773,20.769875,37.653796,42.795567,45.566247,38.392392,55.16646,58.457818,58.315731,49.194762,66.034162,68.82775,67.514998,54.012591,69.14842,71.154073,69.217148,-29.775066,297.760857,-77.293739,283.88801
12,-1.166553,0.998319,-0.123081,0.381432,18.087215,30.544739,36.46328,35.927582,14.13208,41.435394,57.136002,64.777565,2.026691,30.304871,47.774048,60.870667,-8.977489,17.64782,36.555519,49.403,-19.167194,0.308418,15.408268,26.591377,-21.97481,-30.920469,-33.071668,-32.192589,-9.636769,13.191988,18.616638,19.818301,10.497447,34.131552,37.785942,35.755094,26.774238,45.334621,46.150838,45.185493,39.715395,55.878751,53.472893,48.318709,27.089939,52.33223,74.356213,92.552319,48.61805,81.5732,99.354,112.321186,38.006916,75.89716,96.207905,110.25919,29.495029,63.896198,83.114491,96.742573,23.295593,49.021969,64.049091,75.280895,-13.558353,-13.549028,-6.319537,1.598903,20.816249,37.251677,42.293042,44.883349,38.351452,54.965153,57.98938,57.667228,49.072126,65.80198,68.320656,66.803757,53.947383,68.90111,70.681004,68.586985,-30.933723,298.788152,-77.408924,284.298418
13,5.355091,-1.230994,0.06134,1.132317,17.00346,27.420559,30.691395,28.884487,9.07877,33.586521,49.783688,58.801975,-3.523579,21.470318,41.370449,56.696148,-14.902039,8.435154,29.722195,44.494114,-25.422649,-9.199905,8.190136,21.611538,-20.369176,-28.704494,-30.563058,-29.660205,-11.078209,12.365026,20.215788,22.584719,8.807029,32.910191,39.292096,38.996991,25.882623,45.096696,48.44184,48.387746,40.125418,57.422264,56.406655,51.760122,26.696835,52.449646,75.166454,93.219509,48.486958,81.385746,99.630032,112.61919,38.27528,76.450253,97.020206,110.813198,30.167542,65.081463,84.285908,97.191525,24.415283,50.890503,66.241207,77.279835,-14.033213,-14.457871,-7.3709,1.077051,20.311131,36.70074,41.749701,44.108196,37.95662,54.704196,57.821974,57.558115,48.903609,65.518299,67.464239,65.346879,54.230509,68.947299,69.843421,66.972891,-25.54204,297.601942,-77.310991,285.47552
14,11.795139,1.741176,-0.616779,-0.428548,13.886032,19.797821,18.875771,15.25383,-1.71032,20.328369,37.58709,47.235146,-14.747429,8.282547,28.873672,45.693283,-25.865822,-4.437332,16.908646,32.233315,-35.718327,-22.091961,-5.430107,7.721558,-20.469274,-29.263829,-31.050824,-30.27598,-9.833012,13.592068,20.494097,22.008464,9.890872,33.159415,38.590858,38.561897,26.375515,44.407685,46.673555,47.052517,39.741515,55.918827,54.246811,49.926999,26.564083,52.433224,75.092583,93.239594,48.257446,81.868858,100.208244,113.325119,38.00869,76.585579,97.220306,111.195374,30.029984,64.886799,84.432793,97.876167,24.535389,50.556679,65.90641,77.310104,-14.135225,-14.236249,-7.294514,0.860924,21.021693,37.471262,42.15608,44.262325,38.644149,55.161767,57.867978,57.362798,49.2885,65.645381,67.766446,65.987417,54.065388,68.792676,70.082086,67.696606,-13.693314,299.367912,-77.874184,285.071765
15,-3.466129,13.631465,-0.350819,0.001482,6.475239,13.212032,20.571384,23.375874,-6.867085,14.544811,31.713696,42.238483,-16.643486,7.061062,28.911381,44.969273,-21.517925,-1.081982,18.929043,33.281078,-24.003296,-13.082142,1.22612,13.04884,-23.990035,-34.858293,-29.188308,-20.513549,-16.28346,-7.37868,-0.231935,5.459416,4.634368,14.471456,20.939873,22.30005,21.36095,26.778313,28.0161,26.881189,34.156623,37.207649,33.799088,29.274327,26.35128,52.345905,75.234203,93.443928,48.565807,81.988049,100.326977,113.482761,38.387547,77.131405,97.722416,111.656399,30.415936,65.563145,85.049572,98.535748,24.865608,51.15984,66.608562,78.083096,-14.084466,-14.385129,-7.468465,0.891614,21.018543,37.364433,41.984846,44.038233,38.586968,55.048393,57.778008,57.285178,49.321042,65.735351,67.805534,66.027184,54.287628,69.170835,70.326927,67.810412,-17.112837,313.016991,-78.178396,285.090861
16,22.536449,-15.778218,-0.457134,-0.020254,6.441193,4.383316,-3.105011,-10.978432,-21.745434,-3.901405,15.123482,26.184883,-35.584831,-13.998642,7.49897,24.905434,-44.973049,-25.622921,-3.47683,12.231789,-52.217789,-42.601318,-26.49559,-13.110924,-18.40292,-26.555518,-27.930761,-26.389841,-4.932129,18.930145,25.090304,25.765298,14.895805,37.050062,42.117733,41.519125,30.337236,46.889002,48.759546,48.260232,42.231848,57.343964,55.463109,50.967123,26.523056,52.425613,75.26619,93.72139,48.778267,82.411995,100.67585,113.791809,38.636055,77.44606,97.987175,111.941872,30.698547,65.907726,85.455894,99.061661,25.165215,51.477413,66.951256,78.53611,-13.936636,-14.189689,-7.343359,0.723036,21.106785,37.401422,42.012449,44.253865,38.702997,55.125704,57.721815,57.247942,49.434169,65.861754,67.89149,66.183165,54.395938,69.198808,70.415353,68.041544,5.574789,297.254334,-78.484354,285.086168
17,-23.387375,16.208001,-0.055218,-0.244099,9.49276,15.028152,21.261063,27.33181,-7.123146,15.695686,32.357826,42.462273,-17.233715,9.553185,32.422371,50.311203,-22.287426,2.451267,23.140984,38.611107,-24.570694,-10.589333,4.641838,17.00592,-21.730526,-34.530645,-31.199766,-22.102572,-16.690704,-6.591362,0.751626,6.397219,1.953845,15.251734,21.713791,24.10662,17.319138,27.955955,29.807294,29.260247,29.164781,37.195608,35.37113,31.593487,26.572437,52.464008,75.254002,93.529186,49.313965,82.90575,101.034908,114.009304,39.210205,77.734623,97.973728,111.696568,31.045647,65.96014,85.117893,98.343258,25.133743,51.228104,66.460361,77.80489,-13.548226,-13.87081,-7.06894,1.106567,21.237202,37.471385,42.077719,44.181741,38.679964,54.945331,57.651296,57.306605,49.278928,65.737945,68.03858,66.53681,54.184319,69.185594,70.543732,68.25094,-17.71863,313.47328,-78.445616,284.853014
18,-16.931419,5.260394,-0.752163,-0.42367,14.499149,25.986557,34.440765,41.147003,12.593822,40.156975,55.695648,64.237289,5.042152,35.390511,53.483162,65.880661,-1.136227,28.969345,45.482712,54.644508,-5.410767,12.097836,24.289627,31.358528,-19.682326,-34.370835,-39.221886,-37.601864,-15.264702,0.287695,6.450757,9.291337,2.200661,18.256386,21.727623,24.019675,15.923393,28.668864,28.984902,28.207959,26.075717,35.090598,33.444888,30.441101,27.125759,53.362713,76.181831,94.740715,49.511261,83.277512,101.359634,114.411049,39.486351,78.000069,98.331184,112.196045,31.453171,66.330242,85.40554,98.721886,25.645065,51.551914,66.670933,78.159714,-13.536864,-13.420402,-6.046477,2.178061,20.570668,37.324234,42.164231,44.67877,38.076477,54.403718,57.21435,56.993284,48.851615,65.299764,67.776079,66.487224,53.850311,68.873816,70.460678,68.476946,-34.489717,318.722637,-79.037447,284.418307
19,31.455803,-24.746416,0.818081,0.25225,7.698898,8.917236,4.471321,-2.071953,-17.482166,1.136398,21.833954,34.00383,-29.905186,-8.787918,15.273285,34.644585,-39.119167,-20.182114,4.016991,21.412354,-46.251812,-35.86504,-18.551445,-4.258804,-15.554064,-21.62555,-20.71152,-16.523237,-4.70674,18.913534,27.415577,29.665577,15.14398,36.697344,44.297831,45.208835,30.749853,47.751717,51.491878,52.603385,42.828418,58.857035,58.631584,55.198323,26.705933,52.24268,74.863415,93.615246,48.578682,82.496052,100.803738,113.819218,39.053764,77.926083,98.535862,112.378292,31.535854,66.817417,85.981693,99.088497,26.195641,52.367191,67.410336,78.62669,-13.209895,-13.517783,-6.296134,1.920808,20.856634,37.2539,42.050363,44.424173,38.415734,55.116812,57.869275,57.185389,49.131901,65.794323,67.926132,66.045338,54.155297,68.979841,70.345328,67.888588,-2.881422,293.975896,-78.066874,284.670233
20,-10.253391,15.119094,-0.539932,-0.578107,1.874256,4.250965,6.154118,6.054096,-14.339848,5.653324,21.788349,33.333263,-21.960239,0.798283,24.123402,42.319965,-25.436726,-4.204845,16.670094,32.782116,-26.378746,-15.451641,-0.307674,13.430271,-15.823481,-21.94622,-13.799241,-3.22615,-8.494634,0.946263,8.722987,15.331578,7.039856,18.834061,26.848462,30.918123,19.808359,29.973897,33.199492,33.79069,29.886458,37.60631,36.893895,34.615552,26.950893,52.86026,75.299435,93.799381,49.836559,83.551083,101.464405,114.434109,39.793167,77.998066,98.050861,111.734333,31.672096,66.197433,85.105305,98.386974,25.692158,51.066799,65.991669,77.548313,-13.48734,-13.153208,-5.572604,2.459395,20.754375,37.459344,42.313544,44.823945,38.18664,54.443671,57.281164,56.955492,48.848404,65.381274,68.104159,66.971471,53.756018,68.855106,70.737629,68.977186,-12.968531,309.090715,-78.440523,284.087849
21,-3.960114,-12.113517,0.012817,0.640352,12.544727,18.205204,17.849751,13.791676,-2.397022,20.308743,39.507809,49.747982,-14.41824,10.07349,32.483883,50.238476,-24.778748,-2.866573,19.547024,35.704823,-34.282265,-20.664253,-3.749199,9.582424,-18.365128,-25.130812,-24.954021,-21.61462,-8.000754,15.353375,22.753545,24.737771,12.263817,34.230044,40.584347,40.990047,28.456134,45.68456,48.238681,49.032915,41.060504,57.0115,55.673369,51.582713,27.017326,52.805157,75.47327,94.333019,49.322605,83.159809,101.360493,114.269886,39.559307,78.323536,98.703289,112.274036,31.875458,66.935177,85.897465,98.625698,26.332855,52.183571,67.020664,77.837963,-13.307461,-13.455785,-6.173991,2.059747,20.43247,37.112553,42.061355,44.593863,38.144464,55.053024,58.05854,57.685444,48.996482,65.791606,68.0936,66.422757,54.132634,68.950078,70.198856,67.606204,-16.695127,296.938573,-78.194189,284.689576
22,-0.779972,9.663939,0.052128,-0.610279,3.252983,9.470901,16.54232,17.639236,-8.83112,14.974136,32.887115,44.970703,-17.937355,8.695335,30.028381,45.273285,-21.867256,-0.985165,18.408279,32.292023,-22.94838,-14.341164,-1.637592,10.081215,-18.56205,-24.752035,-18.320977,-10.513131,-6.818233,4.602999,12.144207,17.13401,10.993241,22.982454,30.138524,31.856914,24.766238,33.081548,35.649254,35.370883,36.25589,43.24369,41.061492,37.68992,26.96228,52.783813,75.524025,94.239464,49.872036,83.835983,101.955643,114.987946,39.778233,78.50338,98.622665,112.003098,31.641197,66.605988,85.452576,98.200722,25.768204,51.512032,66.429977,77.450867,-13.263371,-13.183836,-5.987196,1.865171,21.208117,37.816508,42.614886,45.020867,38.8696,54.68036,57.461722,57.099618,49.631214,65.695893,68.099466,66.638945,54.525984,69.248826,70.7204,68.491828,-17.216263,306.579511,-77.883224,284.056295
23,-8.58078,-7.60444,-0.0951,0.628125,17.015076,27.674675,30.623932,27.547989,9.821548,34.884911,51.42849,60.819511,-2.729244,22.334061,41.83033,57.555313,-14.208584,8.866196,28.916245,43.286819,-24.854507,-9.301414,6.218548,18.531876,-20.423517,-28.970206,-30.609185,-29.341326,-10.193696,12.478338,18.923167,20.253888,9.679501,31.945526,37.380982,37.28669,25.853477,43.306181,45.277502,45.663442,38.945985,55.010416,53.317035,49.033656,26.928806,52.987347,76.010056,94.767838,49.739285,83.583641,101.584282,114.473991,39.84684,78.658333,98.742828,112.262077,31.905956,66.798363,85.492401,98.271446,26.223621,51.927738,66.689987,77.596779,-13.476842,-13.696427,-6.534367,1.431683,20.896833,36.949285,41.491954,43.726578,38.644766,54.068414,56.635502,56.177746,49.469305,65.225602,67.436513,65.870276,54.433173,68.889933,70.035033,67.563225,-25.460987,298.900538,-77.642269,284.609887
24,1.02293,0.721801,0.379143,-0.199763,16.464901,26.516819,28.594036,24.738407,10.194511,35.222569,51.307468,59.569416,-2.697372,22.847614,41.207256,55.4175,-14.50676,8.749123,27.800274,41.103916,-25.565987,-11.077194,3.309631,14.812489,-20.625811,-29.349477,-31.272508,-29.770306,-10.154423,13.288442,18.949534,19.518255,9.777992,32.589336,36.960647,36.022967,25.728741,43.45642,44.455789,44.111036,38.52108,54.840047,52.362806,47.378374,26.587601,52.43391,75.167999,93.867531,49.35997,83.372726,101.476707,114.446983,39.21175,78.315353,98.392982,111.751442,31.120033,66.308899,85.138435,97.837143,25.385914,51.219635,66.162415,77.081795,-13.416018,-13.598367,-6.365109,1.57161,21.102833,37.205796,41.747107,43.985992,38.968338,54.394765,56.8612,56.355278,49.795594,65.455313,67.518641,65.821678,54.664182,68.964527,70.060721,67.532165,-24.212837,299.581599,-77.037907,284.369385
25,6.793957,-2.797047,0.324841,1.227413,12.909966,21.12545,22.516479,19.161987,2.072525,22.964973,40.320168,50.793343,-9.441032,11.737289,32.465172,49.575806,-19.911804,-0.480137,20.519371,35.78167,-29.266605,-17.937298,-2.79047,9.725304,-18.161475,-25.31489,-26.117707,-24.029061,-6.219069,15.57827,22.803501,25.109508,12.737751,33.556656,39.666427,40.786147,27.775582,44.200142,46.681088,48.025889,39.659511,55.192642,54.365433,51.253027,27.078552,53.044739,75.701809,94.187222,49.443512,83.411694,101.325703,113.736591,39.142456,78.154507,98.120785,111.066341,30.919762,66.197834,84.999104,97.492161,25.174656,51.460876,66.590595,77.631168,-14.08496,-14.748345,-7.453707,0.90557,20.029611,36.797256,41.691779,44.239045,38.016826,54.213157,56.667242,56.329467,48.995432,65.127419,66.94498,65.192997,54.037539,68.607178,69.505152,66.973571,-17.176981,296.74054,-76.471167,285.552785
26,-6.842766,0.747797,0.136185,-0.457632,15.164566,26.105232,30.382347,28.491096,8.209991,31.648064,48.696098,59.20784,-3.492393,19.643326,39.955788,57.016754,-14.378071,6.982899,27.819672,43.448639,-24.161053,-10.974598,4.126225,17.006149,-19.253223,-27.306032,-28.8296,-26.563483,-7.975807,13.906687,21.087457,23.561796,11.540967,32.610887,38.392639,39.183539,27.039826,43.29519,45.455405,46.622611,39.46932,54.350798,52.920968,49.304246,27.224636,53.078499,75.59206,94.143276,49.77808,83.745747,101.668453,114.130726,39.210091,77.982502,97.95908,110.824413,30.728359,65.797863,84.59444,96.923733,24.685764,50.766964,65.898457,76.752491,-13.971833,-14.187713,-6.747035,1.355607,20.576102,37.260137,42.121438,44.560765,38.519907,54.520921,57.093258,56.672799,49.306901,65.30211,67.366118,65.630746,54.068167,68.566175,69.717944,67.232861,-23.731556,297.4955,-76.046791,285.102316
27,-1.736412,2.091795,-0.22213,0.335058,15.767097,27.517204,32.643356,31.102409,11.146374,34.297371,50.92289,61.171989,-0.45948,22.025871,41.795311,58.805122,-11.507607,9.551411,29.595795,44.746284,-21.545448,-8.407745,5.937195,18.23307,-20.887262,-30.155258,-32.090701,-30.491304,-9.377665,11.711707,18.345553,21.248934,10.374069,30.784433,36.030377,36.918101,25.834088,41.176039,43.175394,44.662838,38.151195,52.16928,50.568092,47.010589,27.077465,53.149166,75.997295,94.654026,49.58353,83.480701,101.41531,113.903103,39.120255,78.241024,98.270473,111.241436,30.802517,66.216488,84.929867,97.295437,25.011292,51.342888,66.470547,77.261868,-14.020555,-14.369012,-7.016823,1.150287,20.171019,36.600457,41.590199,44.18384,38.322738,54.15542,56.778825,56.540653,49.320054,65.112598,66.997962,65.255551,54.261384,68.56741,69.443958,66.791963,-25.269928,299.561916,-76.070881,285.411994
28,-2.930317,0.312951,0.203533,-0.116153,16.177483,28.777599,34.623013,33.52232,13.890839,38.514347,54.969234,64.603443,2.410812,26.185856,45.042057,60.173893,-8.619404,13.21867,32.338657,45.904942,-18.672523,-4.829006,9.143829,20.442982,-21.377252,-30.733921,-33.022144,-32.446569,-10.744572,11.141442,17.833087,20.193064,9.345493,30.114009,35.505993,36.045321,25.361697,41.025059,42.991193,44.02755,38.300693,52.248629,50.671153,47.252589,27.256451,53.29834,76.060295,94.685669,49.816818,83.71376,101.498337,113.781395,39.154243,78.128815,98.095093,110.906639,30.591145,65.917168,84.546089,96.744118,24.450245,50.863037,65.999336,76.673927,-14.167027,-14.333691,-6.803599,1.183014,19.818115,36.61997,41.509368,43.978829,38.053136,54.166473,56.705465,56.296245,49.215572,65.335826,67.336231,65.569551,54.323319,68.761122,69.702815,67.066196,-28.020744,299.861112,-75.687847,285.282087
29,-2.868118,0.21131,0.177727,-0.271517,16.486645,30.081196,36.094608,34.399509,18.508415,44.565754,59.218998,66.771755,7.112846,32.82423,49.353046,61.613216,-4.065113,19.073067,35.955105,47.165279,-14.695473,0.400715,12.84502,22.101574,-21.575162,-30.520388,-32.164061,-31.205509,-10.134416,12.381637,17.705016,18.383962,9.802013,31.440655,35.221447,34.246717,25.654209,42.354299,42.836076,42.354669,38.392578,53.045209,50.432055,45.884261,27.327805,53.101101,75.627594,94.12262,49.573689,83.233109,100.969048,113.114319,38.975658,77.602844,97.547607,110.343933,30.470982,65.568581,83.979149,95.928497,24.353485,50.428162,65.360413,75.814247,-14.022654,-13.947195,-6.587843,1.098108,19.942543,36.953793,42.067406,44.763244,38.121802,54.578843,57.115735,56.632291,49.301591,65.633401,67.541366,65.629511,54.507336,68.91735,69.736346,66.917316,-30.720778,300.062696,-75.342035,285.000845
30,-1.268749,-0.028652,0.213833,-0.148695,17.69989,32.151375,39.180222,38.195801,18.455429,43.248024,59.133339,68.672333,6.909885,31.34594,49.788895,63.909645,-4.347897,18.044872,36.675568,49.658432,-14.89666,-0.591717,13.432446,24.672432,-22.160185,-31.746751,-35.080533,-35.718044,-12.777642,9.915881,17.093255,19.318369,7.281917,29.305511,34.870396,35.048731,23.747665,40.390018,42.716341,43.058624,37.526096,51.964577,50.255388,46.206598,27.524128,53.553944,76.233616,94.604015,49.474239,83.329525,101.284389,113.959408,38.668613,77.272854,97.441006,110.837688,30.087147,65.129299,83.716106,96.164646,23.820534,49.87175,64.783459,75.44054,-13.841293,-14.173016,-7.045043,1.190548,19.964773,36.836406,41.929888,44.51476,37.899748,54.841776,57.850688,57.644565,48.820246,65.496254,67.818934,65.999705,53.935342,68.666088,69.950373,67.31715,-31.90032,300.035341,-75.038996,284.853446
31,1.354923,-1.755317,0.100365,-0.547726,18.601627,31.700993,35.841007,32.332249,16.233559,44.583035,59.873142,66.148052,4.369984,34.55801,49.658947,58.385983,-5.719986,22.106953,37.29166,44.894772,-14.716702,4.147854,15.608082,21.531315,-21.156679,-28.779027,-30.915406,-33.147992,-7.355339,18.208591,22.506111,21.078503,12.282466,37.436558,39.727869,37.129041,27.7875,48.244918,47.400357,44.813632,40.101335,56.777651,53.33167,47.716643,27.408428,53.479614,75.965824,94.472523,49.323635,82.617359,100.770779,113.455982,38.276253,76.868992,97.227116,109.873295,29.701824,64.942074,83.663349,95.467129,23.817272,50.256615,65.266399,75.59206,-14.082799,-13.886556,-6.827126,1.021784,20.00559,37.972737,43.898121,47.10519,38.150763,56.216587,58.902977,58.1432,49.332466,66.854763,68.315963,65.821493,54.566246,69.389741,69.917213,66.750899,-30.494184,298.244301,-74.887419,284.269998
32,7.909412,-5.250391,-0.855846,-1.570251,17.007408,26.862717,29.452286,23.841591,2.731819,30.014648,50.048904,60.509377,-9.516563,21.049232,43.222275,61.375237,-19.414959,8.217373,29.693985,45.377426,-27.852573,-10.668411,4.41433,16.945267,-16.597893,-21.673345,-21.424552,-20.834774,-0.682774,25.547257,33.049376,36.137206,18.942495,42.887452,48.919911,49.784664,33.131196,52.047446,54.76959,56.362318,43.501374,60.409008,59.827689,56.332925,28.366528,54.145947,75.603333,94.676399,49.930115,82.941513,101.331711,114.684906,38.560295,76.28849,97.66983,111.999435,29.560032,63.558254,83.194313,96.70887,23.139439,48.059978,63.240108,75.134583,-14.191912,-13.234657,-4.382056,3.728922,18.745387,38.59129,47.048133,52.626665,36.684685,57.743922,65.085428,68.291139,47.900536,68.520295,73.509111,73.528686,53.540386,71.106279,74.680701,73.451498,-22.513618,292.881293,-75.672112,282.587129
33,5.706825,2.203625,-0.501308,-4.249787,17.568054,27.001419,30.724068,28.204765,-2.170887,22.918854,44.039497,55.084076,-17.162647,12.197227,34.43985,50.233612,-26.821632,-0.858707,21.865311,36.18679,-33.558483,-16.332378,-0.836563,10.635452,-18.839063,-25.41085,-24.929876,-21.810678,-1.497139,23.016416,31.823631,37.757228,17.407873,41.526967,49.730756,52.883362,31.789236,51.058019,56.604688,60.310084,42.646934,58.837583,60.780869,60.005963,29.534111,54.728336,76.833515,96.679974,50.567322,81.695423,98.285351,111.02354,39.75769,73.894787,93.847675,108.299274,30.409012,60.541363,78.857517,92.119274,22.456512,45.185738,59.086418,71.350193,-14.023457,-13.061447,-4.081023,2.330028,19.077111,38.866265,48.609492,55.551473,36.217852,59.008755,70.476301,77.554195,46.750866,69.053386,79.758993,85.527408,52.773816,72.569208,80.508335,84.312901,-16.833687,295.052422,-76.200314,278.304846
34,52.469101,4.479622,1.514969,-13.801464,-29.321938,-53.820648,-73.682499,-90.169601,-56.842518,-68.307438,-66.125278,-62.168713,-50.051079,-61.718903,-57.989674,-55.299168,-41.734657,-53.321228,-51.389008,-49.34309,-32.096443,-41.731567,-41.203308,-40.490799,-4.245217,4.802268,14.909513,22.761202,16.550098,13.112823,9.305293,6.651693,24.517445,23.755013,18.263425,11.919435,30.278512,33.369058,26.650984,20.266362,32.910994,37.7132,34.800865,31.004141,29.268265,54.767246,73.386555,88.911266,50.877056,78.398952,92.536411,103.090153,39.927692,67.592297,82.829418,95.65733,27.467022,49.025631,61.363792,71.548176,14.883213,25.382195,30.246849,33.626232,-12.864525,-9.907483,-0.798371,5.301026,15.032088,37.936242,50.056366,59.834852,28.893327,54.919211,69.059808,79.575903,39.452338,66.422819,80.989247,90.542468,46.50547,69.112667,79.621907,83.580109,35.444098,299.389215,-74.876661,264.360553
35,-26.198616,-6.905857,23.354702,-6.105819,-16.379929,-24.880314,-33.466759,-36.656055,-32.609711,-47.461166,-48.646774,-47.674713,-31.486816,-49.803028,-55.215282,-53.686695,-29.015064,-49.008522,-55.087624,-56.784153,-27.546329,-42.64761,-50.481205,-54.839516,-28.026412,-42.556408,-52.606226,-58.239901,-10.336463,-5.114293,-6.864608,-8.14278,13.725882,21.61215,21.059361,18.928045,31.271891,41.5479,38.590488,32.865669,41.961072,53.757377,55.518437,52.788081,10.668182,20.440006,25.225697,26.405125,38.309784,33.339386,24.548378,14.399643,35.602798,29.009914,15.526657,3.042698,28.94331,19.94854,5.128384,-4.594746,19.158497,11.12257,1.687489,-4.047604,21.107773,38.781049,54.057793,67.8897,32.11571,52.621231,63.649175,69.209059,27.497891,49.444296,59.51233,62.192607,25.128774,45.317578,54.423046,56.296986,23.173448,38.847431,46.085444,49.15092,9.382753,292.132631,-51.384687,257.904007
36,33.961601,-3.823586,-35.005817,-53.053731,-21.18576,-45.495529,-67.441006,-83.729382,-56.347733,-86.486034,-101.353455,-109.582958,-50.41008,-84.13044,-102.067795,-111.233082,-42.392235,-73.530579,-90.696316,-101.744442,-34.517899,-59.343567,-72.63319,-83.429089,-22.915578,-25.274135,-16.035594,-3.385837,1.142506,14.763783,20.985754,24.241236,18.845855,32.625707,37.630763,39.491858,32.633055,45.067118,50.617307,53.651845,41.799904,53.439115,57.304135,59.222906,26.484261,52.696438,77.064915,88.157101,47.01313,86.203709,84.165287,75.323009,45.442314,85.471973,83.289013,73.020802,44.262486,82.590809,78.537769,66.370697,42.554626,74.215508,72.96936,63.217621,30.486981,44.431644,42.631311,35.750092,25.00268,31.436517,32.895556,32.412606,4.603617,12.953507,16.875029,16.929308,-13.068857,-5.635096,0.615096,2.318604,-27.181914,-24.364119,-17.018846,-13.361245,43.188028,288.237014,-86.546831,204.778245
37,5.966377,-0.757863,-14.569359,-41.712774,-22.330856,-46.377525,-69.00095,-84.995956,-55.466995,-86.772308,-101.988029,-112.557564,-49.849319,-84.743843,-102.589874,-115.225525,-41.679955,-74.041729,-91.876717,-104.740448,-32.651711,-59.614277,-73.793392,-85.39135,-19.980519,-21.90213,-10.375366,1.540673,3.189656,15.424759,21.8305,27.075518,21.174834,32.483125,37.543077,41.668375,35.071826,46.304967,51.150398,54.5237,45.231189,55.993112,59.923341,62.653697,30.524082,59.228611,79.249592,86.657124,71.461658,92.413845,80.8568,70.38271,69.559593,89.135342,76.515541,63.959484,63.646774,82.82856,71.12011,58.585339,54.883347,74.434147,66.511459,55.08007,28.328187,32.123305,19.833677,8.310432,10.56426,8.145559,10.626134,10.700791,-10.864306,-10.124412,-5.985529,-6.246919,-29.114208,-29.261544,-22.685372,-21.060225,-44.720019,-46.547461,-39.679518,-36.208404,49.653482,288.68191,-100.617113,164.26823
38,2.206421,-2.278281,-11.829643,-43.961847,-24.148979,-48.38047,-70.851288,-87.698879,-56.543427,-88.193207,-104.045105,-115.428371,-50.939369,-85.166931,-103.191833,-116.924858,-43.016281,-75.068722,-92.932205,-106.621456,-34.143906,-60.072784,-74.097805,-85.930824,-20.244502,-21.087148,-9.789231,0.499005,6.737279,18.532595,24.742155,29.746408,24.210978,34.295376,39.177487,43.143716,37.105884,47.628216,52.980186,56.840328,45.672766,56.485263,60.731592,63.91816,11.09436,29.553909,53.097954,70.163212,14.804249,60.371933,58.751221,47.140789,15.783691,64.654484,60.864429,48.642197,19.659519,65.644455,61.234818,50.924835,25.907764,60.261211,57.828941,49.292965,-31.325212,-56.02831,-66.660187,-61.785424,-45.206056,-58.2554,-51.106957,-47.607437,-22.877354,-32.633024,-27.841408,-26.45471,-1.521283,-12.201851,-9.682001,-8.155902,16.857986,7.837362,6.127493,5.818062,51.492262,287.25563,-112.814398,121.158384
39,0.848694,-0.602808,-14.115314,-40.140886,-24.904976,-49.479904,-71.914959,-88.621101,-57.681885,-88.85416,-104.470997,-116.175556,-51.814728,-86.055222,-103.840599,-117.879982,-43.945999,-75.985909,-93.897114,-108.164577,-35.184288,-61.525612,-76.23682,-89.012775,-20.283096,-21.476608,-10.185236,0.087192,6.596797,18.667335,24.86899,29.82125,24.437479,34.215471,39.193233,43.388186,37.716472,47.654892,52.771038,56.490821,46.696588,57.172545,60.892822,63.451327,5.136566,19.842739,43.250771,60.96302,9.387131,49.266415,52.057629,44.29882,12.879353,56.298981,54.187775,44.406624,19.10677,60.037079,53.169994,43.224392,25.432777,56.417656,50.018463,40.577545,-35.193783,-63.689344,-75.209748,-70.895185,-66.327476,-86.404542,-75.354645,-68.979811,-47.032664,-63.693018,-53.45517,-46.575464,-27.819981,-38.625531,-30.709808,-25.903094,-10.061334,-19.05275,-14.760263,-11.36504,52.995358,286.609968,-126.275311,80.974643
40,-0.241585,-0.979856,1.648693,-35.493612,-25.401077,-49.985504,-72.687778,-90.053387,-57.792664,-89.049225,-104.585209,-116.221275,-52.315865,-86.657181,-104.22226,-118.184395,-44.838295,-76.813202,-94.56665,-108.930817,-36.428833,-62.509918,-77.26593,-90.172005,-19.787611,-20.931846,-9.603609,0.912609,7.489893,18.962193,24.960813,29.865772,25.198738,34.965862,39.664513,43.70546,38.215539,48.34977,53.130301,56.432652,46.897709,57.679948,61.472226,64.131878,19.157867,26.959705,34.646931,39.107437,11.300182,32.777653,42.302628,43.435478,5.016003,30.567741,38.532143,38.335762,2.337341,28.563137,33.377037,31.364536,2.122936,25.008717,30.720234,29.479122,-34.860269,-64.464713,-81.801481,-88.490533,-81.517491,-101.554203,-92.755016,-83.482234,-70.524034,-88.581028,-76.969017,-64.222188,-56.547631,-69.081668,-56.926439,-44.121935,-40.836443,-50.422268,-42.373472,-32.960456,52.545147,284.886112,-124.835243,44.737031
41,-0.64167,-0.517592,-0.233059,-42.874114,-25.324745,-49.646759,-72.69413,-89.359074,-57.799072,-89.548759,-105.002518,-116.295547,-52.31369,-87.706318,-105.238609,-118.597126,-44.886246,-77.752304,-95.422153,-109.261036,-36.664925,-63.646889,-78.459148,-91.024475,-19.810026,-21.24313,-10.254582,1.226857,7.317609,17.87026,23.906734,29.069933,25.42178,34.69805,39.506864,43.490074,38.58598,48.56849,53.244293,56.373557,47.308905,58.001236,61.527061,63.890743,25.351639,31.125412,29.557915,26.598186,18.541489,23.915119,28.426208,28.852901,3.765221,12.083645,17.3493,18.967953,-9.016857,2.063713,7.851505,9.321556,-19.476299,-8.370037,-2.662525,-1.035461,-28.781589,-54.274722,-71.427381,-83.203493,-74.885991,-94.373587,-87.663942,-77.011625,-71.535969,-90.152174,-80.933764,-67.896153,-64.360201,-77.9008,-69.460754,-57.159794,-55.219503,-64.968967,-58.783768,-49.768393,50.067329,287.274155,-126.904449,4.768552
42,0.233917,-0.155488,-8.204498,-6.319815,-25.329895,-50.058632,-73.516502,-90.375652,-59.329948,-90.031643,-105.208397,-116.442776,-53.82225,-88.146629,-105.232315,-118.018913,-46.281052,-78.358784,-95.451107,-108.418179,-37.999763,-64.491749,-78.755093,-90.501652,-20.279453,-21.804317,-11.048939,0.950771,7.315077,17.664879,23.672267,28.892092,25.463647,34.822848,39.68347,43.716822,38.732822,48.752012,53.533285,57.010697,47.494218,57.961777,61.407759,63.863573,13.736286,19.312305,22.451706,25.475235,16.138,12.284317,13.934956,16.977024,10.421104,5.730228,7.513161,10.38517,3.764362,-1.470451,0.650253,4.073753,-2.924938,-8.081474,-7.981911,-6.736164,-39.134416,-66.359401,-87.400391,-106.20157,-64.758861,-90.013545,-100.816841,-105.406873,-57.794125,-87.902391,-98.559431,-102.039839,-50.698972,-79.140223,-91.002292,-94.972288,-43.801142,-65.81961,-77.051763,-82.009889,47.327099,288.146519,-138.083096,-0.523412
43,0.106087,-0.793431,2.932148,-33.574981,-25.968475,-50.848389,-74.092884,-91.516056,-59.789772,-90.665359,-105.721264,-116.879711,-54.125519,-88.046265,-104.790573,-117.387085,-46.517715,-78.237762,-95.174904,-108.16761,-38.18676,-64.160042,-78.226891,-90.062084,-20.062894,-21.45376,-9.980349,1.045743,7.089503,18.243356,24.487249,29.753386,25.318039,35.170256,39.945971,43.962835,38.695587,49.064778,53.670865,57.091714,47.544544,58.136593,61.574917,64.179426,12.166787,17.182818,19.373274,20.983086,10.673533,17.011157,18.853341,19.367152,5.295582,12.121354,13.447667,13.526402,0.148545,6.589451,7.968007,7.933703,-5.094251,-1.650266,-0.634746,-1.32019,-33.565177,-59.383688,-76.650493,-88.043722,-66.966145,-92.992415,-92.778697,-89.210951,-59.853022,-89.692435,-88.687709,-83.253001,-51.551667,-79.380509,-79.315332,-74.795634,-42.658589,-64.014305,-66.1172,-64.829117,46.540861,288.429876,-136.043272,-33.021604
44,0.043831,-0.230206,2.932148,-33.57498,-26.123428,-50.662422,-73.917732,-91.305885,-59.678764,-91.13102,-106.040154,-116.923943,-53.69442,-87.948189,-104.685802,-117.148476,-45.688362,-77.875214,-94.901676,-107.867088,-36.974373,-62.925568,-76.821156,-88.478508,-19.739939,-20.987421,-9.443985,1.244641,6.670094,18.529631,25.010152,30.233372,24.666326,34.964998,39.954122,44.17501,37.98768,48.557251,53.323333,57.024529,46.832871,57.454498,61.187001,64.233334,10.597286,15.053329,16.294842,16.490936,5.209064,21.737995,23.771725,21.757278,0.170059,18.512478,19.382172,16.667633,-3.467274,14.649353,15.285759,11.793652,-7.263565,4.780941,6.712418,4.095783,-27.995939,-52.407976,-65.900595,-69.885874,-69.173429,-95.971286,-84.740553,-73.01503,-61.91192,-91.482479,-78.815987,-64.466164,-52.404364,-79.620796,-67.628372,-54.61898,-41.516037,-62.209001,-55.182638,-47.648347,44.223919,288.122127,-135.471897,-66.674127
45,0.255432,-0.406071,-5.664196,-4.41395,-25.503731,-49.934692,-73.254776,-91.21685,-58.975182,-90.594292,-105.866203,-117.226353,-53.163643,-87.782021,-104.767799,-117.651215,-45.221901,-77.801113,-95.157623,-108.480263,-36.520958,-62.8969,-76.964378,-88.966026,-19.590565,-20.874109,-9.412615,1.171158,6.816998,18.427002,24.748145,29.957348,24.683554,34.761221,39.718544,43.892625,37.935501,48.134631,52.927513,56.633402,46.818668,57.38404,61.143529,64.139782,-0.021114,2.109776,9.920826,17.9282,-14.81535,14.695702,19.197063,13.34444,-9.734344,20.019951,21.896839,15.051842,-1.040268,25.75819,26.315918,19.167423,9.373684,28.200932,27.664433,22.632866,-30.055593,-54.812383,-70.130591,-73.606198,-70.202808,-94.11953,-82.48089,-73.741694,-62.583549,-88.580225,-78.065535,-70.176086,-54.22597,-79.99011,-69.846385,-62.474219,-45.687277,-68.362229,-62.977362,-56.939376,42.397699,287.693842,-143.217745,-71.110292
46,0.278664,-0.398599,5.303307,-8.975886,-25.681,-50.002441,-72.921638,-90.693054,-58.72879,-90.37714,-105.527058,-116.803493,-52.8899,-87.515144,-104.583378,-117.703857,-44.950447,-77.507229,-94.821453,-108.198452,-36.300888,-62.623444,-76.742764,-88.798599,-19.558517,-20.691513,-9.183213,1.282927,6.782357,18.644981,24.904373,29.964326,24.670833,34.979509,39.900831,43.995131,37.914259,48.288884,53.234166,57.069854,46.685411,57.19916,60.957043,63.952493,3.063641,3.451023,8.996887,14.61565,-17.740574,11.036682,16.123524,10.501556,-13.419456,17.485371,20.701847,13.112984,-4.911747,23.69236,26.275005,18.459892,5.623913,27.652245,29.512424,23.099155,-31.697444,-53.054163,-66.321965,-70.290401,-71.696582,-93.951029,-82.631159,-73.574041,-65.520043,-89.222645,-76.227117,-67.323989,-58.846074,-82.806716,-70.028919,-60.861129,-52.435177,-72.331021,-62.268946,-52.249957,40.096035,286.999458,-140.494766,-80.381962
47,0.819397,0.254288,3.564434,-6.787574,-25.892944,-49.981155,-72.938976,-90.641899,-58.726044,-90.09058,-105.431328,-117.03701,-53.135605,-87.648354,-104.99897,-118.519535,-45.446434,-77.971802,-95.36253,-108.936081,-36.875381,-63.391399,-77.683754,-89.930763,-19.687452,-21.329951,-10.191103,0.320238,6.400554,17.79474,23.839426,28.430384,24.445444,34.404489,39.126234,42.895541,37.865661,47.848295,52.624751,56.145698,46.881036,57.206323,60.849535,63.486772,-2.245045,-0.553265,7.263393,14.699421,-19.10574,8.595886,11.200333,3.94352,-12.530937,16.475716,17.65749,9.394913,-3.060436,23.005371,23.26458,14.690266,7.524033,26.816597,26.378632,19.346352,-28.31065,-50.717373,-63.603634,-64.730518,-69.391099,-93.112968,-80.04002,-70.756108,-63.419263,-88.348352,-75.005755,-66.174073,-56.856553,-81.278609,-68.490994,-59.349849,-50.265947,-70.890723,-60.738246,-50.653215,38.860445,287.283804,-138.985319,-87.13948
48,0.173836,0.493571,0.401974,-3.438356,-25.565071,-49.721489,-72.676105,-90.468235,-58.379059,-89.808483,-105.31786,-116.881485,-52.959824,-87.432919,-104.739532,-118.241844,-45.589828,-77.995491,-95.217533,-108.685284,-37.306938,-63.62812,-77.846432,-90.119591,-20.214615,-21.944059,-10.397226,-0.048721,5.766562,17.37002,23.462378,28.092794,23.95317,33.941176,38.62655,42.261611,37.465272,47.232458,51.83663,55.216477,46.62928,56.681506,60.31385,62.933303,-6.473751,-5.741959,2.087402,11.92749,-18.134823,11.148548,14.347286,7.704563,-10.32589,19.45467,21.036701,13.931465,0.234718,26.897221,27.68074,20.367336,11.666336,31.409283,31.10836,24.601765,-28.179924,-49.535192,-61.389543,-62.302136,-68.417573,-91.77232,-79.483201,-69.681728,-61.4288,-85.694783,-73.268006,-65.131834,-53.829316,-78.389848,-65.723804,-57.277197,-46.060929,-65.935994,-56.52395,-48.027927,37.236443,287.550164,-140.381184,-90.805046
49,0.601158,0.643872,2.013416,0.978713,-24.934845,-49.014931,-72.477379,-90.016193,-57.904243,-90.081253,-105.807667,-117.346973,-52.769737,-87.905617,-105.704784,-119.384937,-45.395737,-78.232899,-96.041908,-109.804688,-36.978836,-63.722019,-78.204746,-90.499706,-20.222642,-22.10745,-10.769087,0.240271,4.914592,16.433143,22.514756,27.411687,22.92731,32.874561,37.749632,41.782984,36.40934,46.242105,51.007508,54.603419,45.753906,55.779765,59.665965,62.611583,-1.392517,1.208954,9.247971,17.344666,-15.600185,12.366943,15.820141,9.508266,-9.53476,21.011581,22.805614,15.354195,0.057049,28.22731,28.948517,21.046143,10.98135,33.697643,33.253441,25.669327,-26.275819,-47.924093,-60.483016,-63.928426,-67.483598,-89.954789,-77.864645,-68.592605,-62.191464,-86.240502,-73.098362,-65.425874,-56.130507,-78.920886,-65.537225,-57.929019,-49.541321,-66.347638,-55.854066,-48.156275,36.544304,288.217856,-139.661064,-89.802513
50,0.12886,0.34395,3.870106,0.135635,-25.05043,-48.895454,-72.287407,-88.891926,-57.817383,-90.212059,-105.920963,-117.198086,-52.584572,-88.14949,-106.002331,-119.516201,-45.174866,-78.368225,-95.947723,-109.419422,-36.93924,-63.683624,-77.986736,-90.080624,-20.201462,-21.964066,-10.969652,0.603302,4.99567,16.482605,22.279178,26.673461,23.148006,32.873511,37.67899,41.579763,36.675916,46.259024,50.791196,54.245946,45.913531,55.766118,59.406799,62.231571,-5.699444,-1.614933,10.317249,20.935078,-16.554508,10.874691,13.511066,6.851807,-8.170109,20.550098,21.636944,14.251614,2.839108,29.247208,28.466663,20.273724,14.383621,34.087029,32.246532,24.689941,-26.044842,-49.59719,-64.062564,-69.093833,-65.359446,-88.203347,-76.350865,-67.384875,-58.950648,-82.46891,-70.409055,-63.084576,-52.08269,-74.172958,-62.352262,-55.023986,-44.966033,-61.091149,-52.303772,-45.238012,35.846987,288.365486,-136.617136,-89.863198
51,0.186768,-0.272258,-0.246849,0.126959,-25.198517,-49.356079,-72.520237,-89.217911,-57.838669,-90.113468,-105.87925,-117.309494,-52.349167,-87.937088,-105.72916,-119.311867,-44.725227,-78.34734,-95.968723,-109.562244,-36.355476,-63.364677,-77.807178,-90.00452,-20.253641,-21.454934,-9.980781,1.150595,5.470716,17.42362,23.665413,28.331151,23.837573,33.737029,38.521266,42.305825,37.460887,46.913702,51.470636,54.860857,46.614213,56.335148,59.843683,62.411635,-6.163502,-2.477818,9.618702,20.403214,-16.76096,11.304016,13.894958,7.083378,-8.454151,20.949326,22.279873,14.951878,2.740631,29.947472,29.498863,21.385059,14.879608,36.075211,34.53598,26.741867,-24.445043,-47.373774,-60.424924,-63.214298,-64.191035,-87.204009,-74.659305,-65.343823,-57.238881,-82.071469,-69.315378,-61.292841,-49.690464,-73.879984,-61.146694,-53.218635,-42.079911,-60.339863,-50.389648,-42.735824,35.130529,287.772496,-137.76721,-90.056971
52,-0.105057,-0.020192,-0.752792,1.652997,-24.678841,-48.611298,-71.681499,-87.594795,-57.655907,-90.436306,-106.310806,-117.709007,-52.286224,-88.333397,-106.058521,-119.144325,-44.803848,-78.524723,-96.027889,-109.237289,-36.46843,-63.496971,-77.956982,-90.000515,-19.847447,-21.157791,-9.8587,1.927786,5.967436,17.332538,23.418844,28.419269,24.08686,34.132478,38.913319,42.849784,37.454589,47.423081,52.14952,55.813357,46.361345,56.151687,59.436192,62.051507,-6.26215,-4.267445,4.640636,13.705959,-16.328316,12.435837,14.521751,7.63361,-9.372883,22.371655,23.175488,15.853043,0.819626,30.614948,29.731121,21.701145,12.074318,35.546322,33.355122,24.783325,-23.725342,-45.964598,-59.160337,-62.328334,-64.803383,-86.201198,-73.925725,-65.311512,-58.23229,-80.882094,-67.918676,-60.337825,-50.33838,-71.716944,-58.733379,-51.610423,-42.178495,-57.265572,-46.477621,-39.278171,34.183788,286.941336,-139.361687,-89.214942
53,0.40432,0.448678,0.266876,-0.432438,-24.746361,-48.587151,-71.840916,-87.16032,-57.714157,-90.615864,-106.436291,-117.575455,-52.120399,-88.603878,-106.494026,-119.602203,-44.319992,-78.451138,-95.884094,-108.655071,-36.072693,-63.279419,-77.558212,-89.208183,-19.244948,-20.792228,-9.851167,2.569743,6.608097,18.668879,24.694854,29.512745,24.491942,34.373305,39.217625,43.409058,37.783657,47.303903,51.708251,55.282797,46.667936,56.286921,59.372033,61.777026,-7.916279,-7.357979,0.064945,8.022423,-18.59602,10.234051,12.111168,5.177193,-10.504246,20.765133,21.348782,13.663101,0.381374,29.286575,28.519249,20.419006,12.282143,34.603729,32.905941,24.931183,-22.111495,-44.188749,-57.067631,-58.626644,-63.527774,-85.860706,-72.958668,-64.550454,-57.096144,-80.380326,-67.219059,-60.101275,-49.482211,-71.777567,-58.542154,-51.680973,-41.788634,-58.0938,-47.160951,-40.12798,34.809637,287.566157,-138.873281,-89.471237
54,0.00103,0.77083,1.015778,-0.785558,-24.750481,-48.200684,-71.357746,-86.64402,-57.650986,-90.549889,-106.323795,-117.291412,-52.178764,-88.860054,-106.65453,-119.531822,-44.60804,-78.745079,-95.922203,-108.330746,-36.775246,-64.134064,-78.286972,-89.597683,-19.060006,-20.656316,-9.900073,2.772038,6.765313,18.770211,24.347817,28.489911,24.636377,34.677117,39.275547,42.949573,37.885483,47.813406,52.031391,55.203695,46.740616,56.814084,59.849117,62.114122,-6.739655,-5.021095,4.487057,14.070511,-20.504036,7.724476,9.853878,2.769012,-12.42588,18.10524,18.762131,10.777645,-1.555023,26.754341,25.605412,17.142677,10.130882,31.98143,30.099506,21.929684,-21.971723,-44.711683,-58.116462,-59.974486,-62.370788,-85.472543,-72.648927,-64.335222,-55.807537,-80.330277,-67.190793,-59.830005,-48.51912,-71.793962,-58.788399,-51.755182,-41.307475,-58.267411,-47.404865,-40.158238,35.717411,288.322862,-136.95076,-90.27092
55,0.033417,-0.050512,1.309605,-0.250768,-25.346718,-49.105339,-71.834564,-87.724514,-58.435936,-90.187111,-105.977039,-117.458496,-53.129425,-88.274574,-105.783863,-118.783836,-45.830498,-78.591156,-95.533562,-108.016949,-37.99839,-63.935509,-77.932034,-89.354553,-18.850795,-19.769827,-8.192983,3.692428,7.778514,20.065796,25.993959,30.319267,25.629508,36.390876,40.862841,44.206008,38.715471,49.344692,53.63579,56.660573,47.314771,57.862606,61.173787,63.426071,-6.70578,-6.428375,1.042671,9.324474,-22.596931,5.84919,8.146591,0.936184,-15.521507,15.492439,16.113224,8.551254,-5.213127,23.742714,23.027401,15.016651,6.146679,29.197197,27.784367,20.01812,-20.88791,-43.273979,-56.997004,-60.659529,-61.331713,-85.30577,-72.482587,-64.110852,-54.45579,-79.321739,-66.171819,-58.675797,-46.976132,-70.189918,-57.519968,-50.507159,-39.916547,-57.105778,-46.328308,-38.829462,36.442108,288.331569,-134.949875,-90.46247
56,0.201988,0.059095,3.666573,0.674438,-25.658226,-49.73259,-72.259312,-87.656136,-57.909622,-89.849052,-105.573406,-116.987057,-52.251663,-87.568645,-105.199299,-118.578129,-44.74617,-77.754993,-94.999352,-107.962875,-36.717796,-62.686386,-76.799984,-88.608742,-18.11084,-18.589715,-6.740984,4.598738,8.965234,21.615361,27.402548,31.392304,26.662408,37.303547,41.702647,45.164869,39.553609,50.230317,54.647386,57.893605,47.942464,58.57428,62.134376,64.576728,-4.03965,-5.196304,-1.093483,3.98037,-24.272861,3.736897,8.558693,2.499619,-18.656616,11.778088,15.566597,9.520512,-9.16626,18.819923,21.757221,15.444317,1.692867,24.237099,26.3241,20.912418,-22.883931,-44.055708,-57.255584,-63.305565,-60.019208,-84.801501,-73.33604,-64.250933,-52.771933,-79.271026,-66.708075,-58.264771,-45.59496,-71.864003,-59.417373,-50.790995,-38.725443,-60.958309,-51.701551,-42.790102,37.128696,288.674022,-130.798702,-89.504675
57,-0.630341,1.001283,16.040497,3.991284,-25.676079,-49.87896,-72.262115,-87.371635,-58.680611,-89.709206,-104.800587,-116.086693,-53.193054,-87.650414,-104.854488,-118.269367,-45.699234,-77.995949,-95.2034,-108.860607,-37.361526,-62.714882,-77.147655,-89.92527,-18.13517,-19.140281,-7.987416,3.797095,9.238788,21.404113,27.122757,31.054344,26.928305,36.743039,40.61658,43.471487,39.756459,49.637575,53.650425,56.263209,48.17656,58.766385,62.371189,64.780813,-5.837822,-8.33847,-5.600481,-1.126051,-17.468252,5.485182,7.367554,0.882197,-11.104526,13.207369,14.038086,8.325987,-2.429638,19.560967,19.548807,13.58284,6.848288,25.747414,26.353903,21.490183,-23.571701,-45.794012,-61.282269,-69.421763,-63.991159,-89.099582,-79.817252,-71.791389,-58.040735,-84.398728,-73.272454,-65.167281,-51.355185,-76.744315,-64.866741,-55.91843,-44.38971,-66.495473,-59.045324,-51.350623,39.076166,290.522937,-112.180395,-84.665759
58,-0.46051,0.416507,16.040497,3.991285,-25.825539,-49.959641,-72.815838,-88.105316,-58.2407,-89.530048,-104.938545,-116.130924,-52.464867,-87.456493,-104.878807,-118.032188,-44.740677,-77.140675,-94.409981,-107.620468,-36.512375,-62.233086,-76.602631,-88.889465,-17.860072,-18.302205,-6.892519,5.481399,9.770088,21.84637,27.218841,30.824879,27.596938,37.419453,41.362772,44.187916,40.377174,50.48337,54.498258,56.94413,48.466972,59.344739,62.808197,64.710233,-7.635994,-11.480637,-10.107479,-6.232471,-10.663643,7.233467,6.176415,-0.735226,-3.552437,14.63665,12.509575,7.131462,4.306984,20.30201,17.340393,11.721363,12.003708,27.257729,26.383705,22.067947,-24.259473,-47.532318,-65.308955,-75.537962,-67.963111,-93.397663,-86.298465,-79.331846,-63.309538,-89.526432,-79.836835,-72.069791,-57.115411,-81.624628,-70.31611,-61.045866,-50.053979,-72.032638,-66.389098,-59.911145,43.673372,291.255528,-91.082182,-80.358389
59,0.468178,1.13028,16.040497,3.991284,-25.848541,-50.450478,-73.590488,-90.184593,-58.835449,-90.047207,-105.653801,-117.226353,-53.269157,-88.268623,-105.674515,-118.915958,-45.832787,-78.512363,-95.802326,-108.910847,-37.71904,-63.709145,-78.32737,-90.489807,-18.737854,-19.35931,-8.311235,3.384972,9.012967,20.224618,25.693667,29.576657,26.992464,36.494617,40.236013,42.800816,39.973203,49.842648,53.838085,56.277102,48.423685,59.089463,62.591638,64.7747,-9.434166,-14.622803,-14.614477,-11.338892,-3.859034,8.981752,4.985275,-2.352648,3.999653,16.065931,10.981064,5.936937,11.043606,21.043053,15.131979,9.859886,17.159128,28.768043,26.413507,22.645712,-24.947244,-49.270623,-69.33564,-81.65416,-71.935062,-97.695744,-92.779678,-86.872301,-68.57834,-94.654135,-86.401215,-78.972301,-62.875636,-86.50494,-75.765479,-66.173301,-55.718246,-77.569803,-73.732871,-68.471667,48.565922,292.826119,-70.617313,-75.926794
60,-0.242386,-0.471897,16.040497,3.991284,-26.187286,-50.804329,-73.833275,-90.279408,-58.995094,-90.257721,-105.561218,-116.81345,-53.25325,-87.779331,-105.243988,-118.713284,-45.491409,-77.64473,-94.885483,-108.16618,-36.947479,-62.519875,-76.988583,-89.195538,-18.409527,-18.841286,-7.375222,4.8274,9.869136,22.202916,27.773668,31.676047,27.711671,37.703505,41.721542,44.522356,40.501601,50.776746,55.202398,57.967335,48.617334,59.481146,63.202967,65.396589,-11.232338,-17.764969,-19.121476,-16.445313,2.945575,10.730037,3.794136,-3.97007,11.551742,17.495212,9.452552,4.742412,17.780227,21.784095,12.923565,7.998409,22.314548,30.278358,26.443309,23.223476,-25.635015,-51.008928,-73.362325,-87.770358,-75.907013,-101.993824,-99.26089,-94.412757,-73.847143,-99.781837,-92.965595,-85.874811,-68.635861,-91.385253,-81.214847,-71.300736,-61.382513,-83.106967,-81.076644,-77.032188,50.028048,292.932577,-52.872305,-71.357155
61,-0.418396,0.188586,16.040497,3.991284,-26.362381,-50.712891,-73.713913,-90.794106,-58.600159,-90.211544,-105.633774,-116.633949,-52.850189,-87.803879,-105.328503,-118.581333,-45.04509,-77.57349,-94.883366,-108.22403,-36.493149,-62.419395,-77.009983,-89.333153,-18.201181,-19.105145,-7.677676,4.116282,9.160859,21.626723,27.364757,31.357538,27.058722,37.536779,41.641823,44.410649,39.999817,50.652504,55.117183,57.800547,48.361008,59.561422,63.289479,65.511074,-13.03051,-20.907135,-23.628474,-21.551734,9.750185,12.478322,2.602996,-5.587492,19.103832,18.924493,7.924041,3.547887,24.516849,22.525138,10.71515,6.136932,27.469968,31.788673,26.473112,23.80124,-26.322785,-52.747233,-77.38901,-93.886556,-79.878964,-106.291905,-105.742103,-101.953213,-79.115945,-104.90954,-99.529975,-92.777321,-74.396086,-96.265565,-86.664215,-76.428171,-67.046781,-88.644131,-88.420417,-85.592709,50.732689,293.67968,-35.70877,-66.807354
62,-0.91713,0.361116,16.040496,3.991284,-26.312943,-50.368767,-73.239841,-90.004005,-58.59375,-90.017109,-105.416679,-116.405411,-52.852249,-87.679424,-105.353794,-118.708763,-45.012932,-77.571259,-94.935894,-108.169384,-36.413727,-62.233429,-76.740818,-89.116688,-18.131403,-18.915324,-7.371949,4.178589,9.437377,22.18118,27.795528,31.610839,27.238971,37.673247,41.773968,44.683895,40.056319,50.442059,54.688388,57.337419,48.173534,59.357645,62.995053,65.127233,-14.828682,-24.049301,-28.135471,-26.658154,16.554794,14.226608,1.411858,-7.204914,26.655922,20.353775,6.395531,2.353363,31.253471,23.266182,8.506737,4.275455,32.625389,33.298988,26.502914,24.379005,-27.010556,-54.485538,-81.415695,-100.002754,-83.850915,-110.589986,-112.223315,-109.493669,-84.384748,-110.037243,-106.094355,-99.679831,-80.156311,-101.145878,-92.113584,-81.555606,-72.711048,-94.181296,-95.764191,-94.153231,51.208191,294.838056,-18.275642,-62.01881
63,-0.127602,0.573044,3.443642,-6.703995,-26.326675,-50.476685,-73.282471,-90.603504,-58.839111,-90.293713,-105.583076,-116.559677,-53.017845,-88.013535,-105.517616,-118.926544,-45.153122,-77.705612,-95.002785,-108.098545,-36.57589,-62.308788,-76.86573,-89.160004,-18.283247,-18.895873,-7.093702,3.9243,9.664372,21.69082,27.056499,30.761215,27.501472,37.166276,40.941264,43.847609,40.269543,50.328809,54.555007,57.339518,48.35576,59.16239,62.698713,64.856396,-19.495525,-28.934669,-30.342121,-27.88496,6.56456,1.223202,-12.049255,-19.902878,20.95871,10.968361,-4.54771,-11.557674,31.910362,22.446671,7.731628,1.331978,39.981308,40.26741,34.94442,31.782532,-28.99611,-53.591114,-75.520229,-92.123417,-77.369484,-95.109868,-89.094822,-79.090792,-76.091281,-90.926895,-81.637858,-71.007123,-71.945992,-86.389166,-76.699847,-65.106485,-64.848862,-83.735797,-88.592158,-89.944801,51.895237,295.431755,-14.017353,-68.70215
64,0.49736,1.110766,-2.213602,9.438458,-25.411377,-50.53688,-74.152336,-91.764507,-58.713226,-91.545238,-107.457676,-118.641071,-53.04966,-89.426994,-107.489033,-120.753708,-45.400887,-79.121017,-97.126293,-110.50724,-37.157364,-63.919373,-78.913879,-91.31052,-19.35789,-20.456985,-8.719837,2.766789,8.823146,20.714361,26.36792,30.724535,26.671114,36.472325,40.133013,43.111359,39.447769,49.699078,53.762255,56.579679,47.653225,58.555137,61.873234,64.136139,-6.34861,-13.128376,-16.703711,-17.213974,10.961637,10.148849,1.988153,-3.669062,18.792887,15.94285,6.509285,2.616863,24.652662,22.320185,13.792677,10.504732,28.916788,33.11202,31.190386,30.116472,-25.265768,-48.46285,-69.754346,-86.919749,-80.003811,-98.533481,-92.875306,-85.40955,-81.739622,-96.888836,-86.328627,-76.305316,-78.872767,-93.003191,-81.814124,-71.385931,-72.128804,-88.754948,-89.744861,-89.136866,52.876682,296.989131,-15.74687,-58.817082
65,0.071983,-0.054217,-2.213602,9.438458,-25.835266,-50.63324,-73.996696,-91.233044,-59.892082,-92.172775,-107.772903,-118.696117,-54.091988,-90.124683,-107.919445,-121.079865,-46.078949,-79.672737,-97.330627,-110.381927,-37.412796,-64.363289,-79.127541,-91.27327,-19.295583,-20.404497,-9.00568,2.755056,8.736881,20.09661,25.799137,30.184528,26.887611,36.216308,40.163394,43.292782,39.91559,49.74607,53.812644,56.467417,48.268445,58.712724,61.874469,63.88358,6.798306,2.677917,-3.0653,-6.542988,15.358715,19.074497,16.025562,12.564754,16.627064,20.917339,17.56628,16.791401,17.394962,22.193699,19.853725,19.677486,17.852268,25.956631,27.436352,28.450413,-21.535425,-43.334587,-63.988463,-81.71608,-82.638137,-101.957093,-96.655789,-91.728307,-87.387963,-102.850776,-91.019397,-81.603509,-85.799542,-99.617216,-86.928401,-77.665377,-79.408745,-93.774098,-90.897564,-88.328932,53.150997,297.106303,-17.758141,-49.207236
66,0.249825,-0.127268,-0.501032,5.257428,-25.990562,-50.645943,-73.882141,-90.841255,-60.009384,-91.954594,-107.549515,-118.723011,-54.279213,-89.809055,-107.530804,-120.788956,-46.400414,-79.808464,-97.323132,-110.303478,-37.934647,-64.509945,-79.048233,-91.120834,-18.839927,-19.927475,-9.111397,2.206219,8.72169,20.460196,26.278505,30.580595,26.770409,36.327397,40.473443,43.530582,39.943439,49.734523,53.897303,56.53454,48.57942,58.763606,61.934243,63.888397,7.07063,3.241297,-2.375323,-6.015348,16.223841,20.505571,17.724644,14.489412,17.154665,21.748743,18.496637,17.663921,17.397445,21.972532,19.51203,19.158827,17.226362,24.637753,25.84295,26.658475,-22.317669,-44.652766,-65.331224,-82.845951,-82.209822,-102.009358,-97.857819,-93.752627,-86.029753,-102.117677,-91.937109,-83.630073,-83.64712,-97.9147,-86.801039,-78.505194,-76.566897,-90.897611,-88.781751,-86.779217,53.556662,296.546968,-18.103333,-44.381876
67,-0.043831,0.575329,-0.501032,5.257429,-25.626297,-50.161057,-73.543625,-91.3381,-59.408226,-92.066631,-107.943707,-119.125957,-53.789864,-90.065174,-107.890778,-120.964794,-46.109047,-79.810925,-97.383671,-110.179081,-37.891159,-64.730759,-79.338799,-91.285114,-19.168686,-20.237895,-8.990366,2.221842,8.584913,20.266485,26.14074,30.636541,26.535511,36.277997,40.156663,43.147915,39.516991,49.576442,53.586946,56.212203,47.908995,58.354139,61.588255,63.741925,7.342955,3.804677,-1.685346,-5.487709,17.088966,21.936646,19.423727,16.41407,17.682266,22.580147,19.426994,18.536441,17.399928,21.751366,19.170335,18.640169,16.600456,23.318876,24.249547,24.866537,-23.099914,-45.970945,-66.673985,-83.975823,-81.781508,-102.061623,-99.05985,-95.776948,-84.671544,-101.384578,-92.854822,-85.656638,-81.494698,-96.212185,-86.673678,-79.345012,-73.725049,-88.021123,-86.665939,-85.229504,53.342915,296.470953,-18.774281,-39.77579
68,0.854416,0.431141,-0.501032,5.257428,-25.35038,-50.159683,-73.694687,-91.059608,-59.828796,-92.518272,-108.771858,-120.259438,-54.459801,-90.60791,-108.49411,-121.596966,-47.055244,-80.822983,-98.402939,-111.064625,-39.140968,-65.969639,-80.340385,-91.858635,-18.783117,-20.126868,-9.893034,1.320656,8.848711,19.509363,25.024725,29.308042,26.625357,35.735581,39.434554,42.299897,39.531873,49.271333,53.093436,55.677753,47.865153,58.000124,60.897762,62.763798,7.61528,4.368057,-0.995369,-4.960069,17.954092,23.36772,21.122809,18.338728,18.209868,23.411551,20.357352,19.408961,17.402411,21.530199,18.82864,18.12151,15.97455,21.999998,22.656145,23.074599,-23.882157,-47.289124,-68.016746,-85.105694,-81.353194,-102.113888,-100.26188,-97.801267,-83.313334,-100.651479,-93.772534,-87.683203,-79.342276,-94.509669,-86.546316,-80.184829,-70.8832,-85.144635,-84.550126,-83.67979,54.467812,295.746929,-19.004832,-35.673527
69,0.410957,0.758851,-0.501032,5.257428,-25.401535,-50.160599,-73.471527,-90.670395,-60.008583,-92.66058,-108.573017,-119.651413,-54.581223,-90.597095,-108.416405,-121.648693,-47.214432,-80.77589,-98.123474,-110.679989,-39.254036,-65.692749,-79.976578,-91.546383,-18.39236,-19.306822,-8.472157,2.135453,8.851736,19.875049,25.259377,29.200041,26.450048,35.500929,39.153281,42.134406,39.209165,48.764115,52.498657,55.201163,47.426539,57.383485,60.505153,62.681361,7.887605,4.931438,-0.305392,-4.43243,18.819218,24.798794,22.821891,20.263386,18.737469,24.242955,21.287709,20.281481,17.404894,21.309033,18.486945,17.602851,15.348645,20.681121,21.062743,21.282661,-24.664401,-48.607303,-69.359507,-86.235565,-80.924879,-102.166152,-101.46391,-99.825587,-81.955124,-99.918379,-94.690246,-89.709767,-77.189853,-92.807154,-86.418953,-81.024647,-68.041352,-82.268147,-82.434313,-82.130075,54.73772,295.894188,-19.646912,-31.02769
70,0.582619,1.055809,-0.501032,5.257429,-25.567017,-50.535965,-74.117432,-90.848122,-59.790001,-92.856102,-109.036674,-120.205822,-54.213867,-90.73225,-108.686256,-121.742191,-46.846161,-81.007919,-98.342743,-110.578594,-39.04026,-66.054382,-80.288372,-91.530018,-18.9328,-20.120075,-9.377356,2.173429,8.253313,19.586057,25.292845,29.592218,26.088129,35.540079,39.641171,42.874484,39.024778,48.656793,52.420233,55.133361,47.437531,57.259366,60.073086,62.10665,8.15993,5.494818,0.384586,-3.90479,19.684344,26.229868,24.520973,22.188044,19.26507,25.074358,22.218066,21.154,17.407376,21.087866,18.14525,17.084192,14.722739,19.362244,19.469341,19.490723,-25.446645,-49.925483,-70.702268,-87.365437,-80.496565,-102.218418,-102.66594,-101.849908,-80.596915,-99.185281,-95.607959,-91.736332,-75.037432,-91.104639,-86.291592,-81.864465,-65.199504,-79.39166,-80.3185,-80.580362,55.248528,296.60262,-20.219756,-26.117638
71,0.856934,0.840917,-0.501031,5.257428,-25.426826,-50.333862,-73.940163,-90.33577,-59.982147,-92.773647,-109.025745,-120.312252,-54.666367,-90.848465,-108.774605,-122.001057,-47.620926,-81.338596,-98.639431,-110.950356,-40.196571,-66.838017,-80.984001,-92.215519,-18.788798,-20.271672,-9.861726,1.832752,8.507416,19.75019,25.135752,28.947976,26.178284,35.295918,39.100546,41.862395,38.921902,48.093753,51.58969,53.829193,47.266297,56.969942,59.824972,61.620489,8.432254,6.058197,1.074562,-3.377152,20.549469,27.660942,26.220054,24.112701,19.792671,25.905761,23.148422,22.026519,17.409858,20.866699,17.803554,16.565532,14.096832,18.043365,17.875938,17.698783,-26.228889,-51.243662,-72.045029,-88.495308,-80.06825,-102.270682,-103.86797,-103.874227,-79.238705,-98.452181,-96.525671,-93.762896,-72.88501,-89.402123,-86.16423,-82.704282,-62.357655,-76.515172,-78.202687,-79.030647,55.907278,297.224431,-20.91897,-21.079316
72,0.187454,-0.692407,-0.501032,5.257428,-25.752068,-50.164375,-73.626022,-90.647221,-59.190903,-91.988068,-108.107243,-119.469452,-53.786659,-89.990959,-107.970142,-121.30022,-46.673927,-80.512104,-97.669601,-109.843712,-39.286194,-65.890503,-79.701862,-90.440769,-18.272379,-18.892662,-7.664338,3.915223,9.523396,21.559107,26.860071,30.404421,27.03396,37.03907,40.750641,43.215408,39.645679,49.648937,53.253926,55.455143,47.697994,57.89589,60.764258,62.372177,8.704579,6.621577,1.764539,-2.849512,21.414594,29.092016,27.919136,26.037359,20.320272,26.737165,24.078779,22.899039,17.412341,20.645532,17.461859,16.046873,13.470926,16.724488,16.282536,15.906845,-27.011132,-52.561841,-73.38779,-89.625179,-79.639935,-102.322947,-105.07,-105.898547,-77.880495,-97.719081,-97.443383,-95.78946,-70.732587,-87.699607,-86.036867,-83.544099,-59.515807,-73.638684,-76.086874,-77.480933,55.755529,296.274772,-21.759205,-16.07914
73,0.030785,-0.173086,-0.501032,5.257429,-26.278496,-51.278458,-74.576168,-91.886673,-59.317474,-91.635761,-107.792358,-119.326286,-53.727722,-89.788284,-107.973175,-121.642456,-46.371231,-79.986134,-97.64082,-110.618134,-38.685379,-65.212097,-79.629765,-91.29324,-18.423791,-18.63436,-6.860656,4.703652,10.849671,22.876119,28.173193,31.834313,28.716967,38.43148,41.72463,43.822353,41.274346,51.105752,54.592736,56.487486,48.921085,59.159303,62.116839,63.734206,8.976904,7.184957,2.454516,-2.321873,22.27972,30.52309,29.618219,27.962017,20.847874,27.568569,25.009136,23.771559,17.414824,20.424366,17.120164,15.528215,12.84502,15.40561,14.689134,14.114907,-27.793377,-53.88002,-74.730551,-90.755051,-79.211621,-102.375212,-106.27203,-107.922868,-76.522286,-96.985983,-98.361096,-97.816025,-68.580166,-85.997092,-85.909506,-84.383918,-56.673959,-70.762197,-73.971062,-75.931219,55.691643,295.936858,-22.354908,-10.986539
74,0.842056,1.278851,-0.501032,5.257428,-26.207771,-51.283607,-74.520264,-90.570831,-60.321808,-92.43679,-108.535767,-120.18774,-54.496078,-90.038452,-108.329659,-122.509346,-46.863327,-80.059891,-97.695122,-111.087627,-38.713875,-64.505768,-78.537025,-90.212288,-18.39835,-19.576116,-8.773746,2.564124,9.780833,21.574976,26.968443,30.657598,27.515798,37.328124,41.168567,44.138206,40.169755,50.071063,53.93139,56.538677,48.154268,58.758049,61.848286,63.763722,9.249229,7.748337,3.144493,-1.794233,23.144846,31.954164,31.317301,29.886675,21.375475,28.399973,25.939493,24.644079,17.417307,20.203199,16.778469,15.009556,12.219114,14.086733,13.095732,12.322969,-28.575621,-55.198199,-76.073312,-91.884922,-78.783306,-102.427477,-107.47406,-109.947187,-75.164076,-96.252883,-99.278808,-99.842589,-66.427743,-84.294576,-85.782144,-85.223735,-53.83211,-67.885709,-71.855249,-74.381505,56.503201,296.91412,-22.886438,-6.0307
75,-0.005608,0.068172,-0.501032,5.257428,-25.89592,-51.012383,-74.635563,-91.363277,-59.251442,-91.533794,-107.694283,-119.479809,-53.683319,-89.724712,-108.326225,-122.732792,-46.344566,-80.121517,-98.094692,-111.531372,-38.401909,-65.017776,-79.623299,-91.72554,-18.407366,-18.821093,-7.3462,4.013592,10.25557,22.132336,27.309305,30.707739,28.098537,37.196657,40.782998,43.346072,40.774909,49.86142,53.518526,55.890174,48.744787,58.885069,62.116098,64.115515,9.521554,8.311717,3.83447,-1.266594,24.009972,33.385239,33.016383,31.811333,21.903076,29.231377,26.86985,25.516599,17.41979,19.982033,16.436774,14.490897,11.593208,12.767855,11.50233,10.531031,-29.357864,-56.516378,-77.416072,-93.014793,-78.354991,-102.479741,-108.67609,-111.971507,-73.805866,-95.519784,-100.19652,-101.869153,-64.275321,-82.592061,-85.654782,-86.063552,-50.990262,-65.009221,-69.739436,-72.831791,56.474848,296.498339,-23.410215,-1.257225
76,0.213089,0.832643,-0.501032,5.257429,-25.630074,-50.715065,-74.17551,-90.134754,-59.696846,-91.965866,-108.198967,-120.118561,-53.931198,-89.474087,-108.06839,-122.488861,-46.345024,-79.861622,-98.043251,-111.850662,-37.986832,-64.643898,-79.152031,-91.387596,-18.652329,-20.148418,-9.875188,1.824292,9.044274,20.873924,26.708103,30.860756,27.063785,36.094166,40.214585,43.325571,40.155799,49.047302,52.978334,55.729376,48.676183,58.779353,62.1056,64.40463,9.793879,8.875097,4.524447,-0.738954,24.875098,34.816313,34.715465,33.735991,22.430678,30.062781,27.800207,26.389119,17.422273,19.760866,16.095079,13.972238,10.967303,11.448978,9.908928,8.739093,-30.140109,-57.834558,-78.758834,-94.144665,-77.926677,-102.532007,-109.878121,-113.995828,-72.447656,-94.786685,-101.114233,-103.895718,-62.122899,-80.889546,-85.52742,-86.90337,-48.148414,-62.132734,-67.623624,-71.282077,56.745443,297.015221,-23.853741,3.684443
77,-0.543251,0.136962,-0.501032,5.257428,-25.656509,-50.302963,-73.665047,-90.142937,-58.153267,-90.783978,-107.198009,-118.957787,-52.550812,-88.85931,-107.480106,-121.736927,-45.251427,-79.424,-97.731628,-111.526337,-37.279243,-64.378853,-79.337368,-91.901493,-18.576562,-19.779892,-9.111397,2.680771,9.86327,21.785422,27.233167,30.751767,28.000045,36.833688,40.279855,42.487186,40.770463,49.577059,53.172786,55.333865,48.844576,59.099282,62.506237,64.622485,10.066204,9.438477,5.214424,-0.211315,25.740223,36.247387,36.414547,35.660649,22.958279,30.894184,28.730564,27.261639,17.424755,19.5397,15.753384,13.453579,10.341397,10.130101,8.315525,6.947155,-30.922352,-59.152737,-80.101595,-95.274535,-77.498362,-102.584271,-111.08015,-116.020147,-71.089446,-94.053586,-102.031945,-105.922283,-59.970477,-79.18703,-85.400058,-87.743188,-45.306565,-59.256246,-65.507811,-69.732363,56.228657,296.983605,-24.328308,8.773292
78,0.080452,0.992885,-0.501032,5.257429,-25.203552,-50.12558,-73.555927,-90.029297,-58.625908,-91.429424,-107.774105,-119.645119,-53.183327,-89.641342,-108.028564,-122.172489,-46.026535,-80.093136,-98.329525,-112.073479,-38.016701,-64.813499,-79.497013,-91.663971,-18.822761,-20.271363,-10.144481,1.701903,9.57082,20.921966,26.307034,30.102029,27.23965,36.095833,39.403926,41.9804,39.928372,48.781529,52.429064,54.976948,48.211511,58.150733,61.431286,63.759709,10.338529,10.001857,5.904402,0.316325,26.605349,37.678462,38.11363,37.585307,23.48588,31.725588,29.660922,28.134159,17.427238,19.318533,15.411689,12.93492,9.715491,8.811223,6.722123,5.155217,-31.704597,-60.470916,-81.444356,-96.404407,-77.070048,-102.636537,-112.282181,-118.044468,-69.731237,-93.320487,-102.949658,-107.948848,-57.818055,-77.484515,-85.272697,-88.583006,-42.464718,-56.379759,-63.391999,-68.182649,56.397057,297.948671,-24.741393,14.002903
79,-0.708733,0.104049,-0.501031,5.257428,-25.159149,-49.823341,-73.354683,-89.980373,-58.555756,-90.969429,-107.185421,-118.847008,-53.228416,-89.465961,-107.698345,-121.416779,-46.033974,-79.905853,-97.536335,-110.441895,-38.298454,-65.350227,-79.896927,-91.659279,-18.719452,-19.616562,-8.832594,3.093757,9.534819,21.230224,26.694024,30.282155,27.466583,36.960709,40.540998,42.873126,40.290415,49.774661,53.505991,55.760746,48.546074,59.00326,62.259853,64.270879,10.610853,10.565236,6.594378,0.843963,27.470474,39.109535,39.812711,39.509964,24.013481,32.556991,30.591278,29.006678,17.42972,19.097366,15.069993,12.416261,9.089584,7.492345,5.12872,3.363278,-32.48684,-61.789095,-82.787117,-97.534278,-76.641733,-102.688801,-113.484211,-120.068788,-68.373027,-92.587388,-103.86737,-109.975412,-55.665633,-75.781999,-85.145334,-89.422823,-39.622869,-53.503271,-61.276186,-66.632935,55.782337,298.026121,-25.14841,19.233732
80,-0.200386,0.0762,-0.501032,5.257428,-25.342827,-49.988022,-73.508835,-90.307102,-58.673859,-91.542835,-107.810211,-119.47649,-53.168335,-89.750748,-107.977238,-121.597939,-45.727844,-79.898186,-97.555275,-110.422668,-37.822838,-64.912491,-79.308815,-90.849323,-18.53204,-19.490036,-9.094354,2.586848,9.643809,21.306856,26.835741,30.626414,27.558715,37.04012,40.827335,43.403747,40.441518,50.115399,54.128867,56.761534,48.716382,59.189746,62.352232,64.392836,10.883178,11.128616,7.284355,1.371603,28.3356,40.540609,41.511793,41.434622,24.541082,33.388395,31.521635,29.879198,17.432203,18.876199,14.728298,11.897602,8.463678,6.173467,3.535318,1.57134,-33.269084,-63.107274,-84.129878,-98.664149,-76.213418,-102.741066,-114.686241,-122.093107,-67.014817,-91.854288,-104.785082,-112.001976,-53.51321,-74.079484,-85.017972,-90.26264,-36.78102,-50.626783,-59.160373,-65.08322,55.613909,298.015948,-25.617485,24.404787
81,0.476074,0.336231,-0.501032,5.257429,-25.736275,-50.321274,-73.923512,-90.975437,-58.419571,-91.5061,-107.987423,-119.822845,-52.752914,-89.834862,-108.181057,-121.922493,-45.351791,-80.015545,-97.914619,-110.823784,-37.665253,-65.251122,-79.965363,-91.642456,-18.561742,-19.556849,-9.253793,2.451985,10.385184,21.802341,27.084286,30.574605,28.394198,37.844419,41.556607,43.986918,41.145905,50.895122,54.701602,57.102829,49.178337,59.81466,62.839813,64.523808,11.155503,11.691996,7.974332,1.899242,29.200725,41.971683,43.210875,43.359279,25.068683,34.219799,32.451992,30.751718,17.434686,18.655033,14.386603,11.378943,7.837772,4.85459,1.941916,-0.220598,-34.051328,-64.425454,-85.472639,-99.794021,-75.785104,-102.793331,-115.888271,-124.117428,-65.656608,-91.12119,-105.702795,-114.028541,-51.360789,-72.376969,-84.890611,-91.102459,-33.939173,-47.750295,-57.044561,-63.533507,56.143942,298.327494,-26.064558,29.637531
82,-0.190773,1.01351,-0.501032,5.257428,-26.085892,-50.55027,-74.08247,-90.955982,-58.831558,-91.953163,-108.04287,-119.495888,-53.232536,-90.503883,-108.64975,-122.248764,-45.85556,-80.506039,-98.10791,-110.983257,-37.977219,-65.24929,-79.848404,-91.607666,-18.86685,-20.295878,-10.065873,2.127919,9.936753,21.187801,26.701125,30.494082,27.96812,37.188383,40.958554,43.635558,40.810477,50.43891,54.460899,57.210336,48.929236,59.718268,62.965784,64.976254,11.427828,12.255376,8.664309,2.426882,30.065851,43.402758,44.909957,45.283937,25.596285,35.051203,33.382349,31.624238,17.437169,18.433866,14.044908,10.860284,7.211866,3.535713,0.348514,-2.012536,-34.833572,-65.743633,-86.8154,-100.923892,-75.356789,-102.845596,-117.090301,-126.141748,-64.298398,-90.38809,-106.620507,-116.055105,-49.208366,-70.674453,-84.763248,-91.942276,-31.097324,-44.873807,-54.928748,-61.983793,55.979462,299.319515,-26.539297,34.87347
83,0.583305,-0.446023,-0.501032,5.257428,-26.193924,-51.011009,-74.680309,-91.36528,-59.232788,-92.094269,-108.237877,-119.759846,-53.430862,-90.079594,-108.109474,-121.753235,-45.821114,-79.817276,-97.584457,-110.648804,-37.768135,-64.766693,-79.509373,-91.452427,-18.701174,-19.735864,-9.21347,2.732209,10.73994,21.828524,27.046433,30.824509,28.763157,37.61903,41.298614,44.099489,41.52814,51.293103,55.418216,58.196182,49.546925,60.223757,63.741739,65.905041,11.700153,12.818756,9.354286,2.954521,30.930977,44.833832,46.609039,47.208595,26.123886,35.882607,34.312706,32.496758,17.439651,18.2127,13.703213,10.341625,6.58596,2.216835,-1.244888,-3.804474,-35.615816,-67.061812,-88.158161,-102.053764,-74.928475,-102.897861,-118.292331,-128.166068,-62.940188,-89.654991,-107.538219,-118.08167,-47.055944,-68.971937,-84.635887,-92.782094,-28.255476,-41.99732,-52.812935,-60.434078,56.768875,298.669792,-26.834221,39.927199
84,-0.006409,0.088365,-3.921089,4.393079,-26.224823,-50.878944,-74.522381,-91.440182,-59.272385,-92.095299,-108.538456,-120.549259,-53.07312,-89.796009,-108.205547,-122.080479,-45.175323,-79.076042,-97.22271,-110.805416,-36.993828,-63.994217,-78.833027,-90.974464,-18.624171,-19.883386,-10.004493,1.749945,10.409082,21.871749,27.126338,30.916888,28.447921,38.070735,41.838312,44.699579,41.378581,52.205404,56.353117,59.200182,49.413297,61.087089,64.488734,66.628201,8.307152,10.87595,10.738277,6.228676,30.520477,45.062256,44.161835,41.175156,27.346573,35.760269,31.830711,26.243019,20.465012,23.508224,18.440723,13.348217,11.042404,8.08588,4.520245,1.493969,-38.503049,-68.154022,-88.693691,-102.538381,-70.968606,-96.736713,-112.996214,-123.057857,-59.023637,-85.3952,-103.035255,-112.732108,-44.275817,-68.002302,-84.55697,-93.684638,-26.078681,-43.204324,-56.032108,-65.201828,57.154655,298.815585,-30.363121,44.377705
85,-0.534897,-0.115041,10.366459,-35.934355,-26.790276,-51.290703,-74.522896,-91.459579,-59.909477,-91.76199,-107.86726,-120.207424,-53.802338,-88.661499,-106.458664,-120.123596,-45.945625,-77.903709,-95.414486,-108.795261,-37.480545,-62.485085,-76.485157,-88.392048,-18.708399,-20.076788,-9.33271,1.810831,9.382419,21.439002,27.253174,31.178215,27.812941,38.388626,42.593458,45.530617,41.190921,52.776286,57.524646,60.619824,49.72631,62.13382,66.493091,69.255125,4.18499,3.253269,1.437035,-3.516083,7.411308,5.435314,5.112648,5.099373,4.083824,-2.162762,-2.58688,-3.182373,1.180172,-3.178253,-3.282795,-4.19735,-0.398884,-3.519745,-5.687485,-8.607388,-26.397961,-42.567338,-53.068922,-62.392863,-26.806657,-21.661859,-28.266745,-35.121813,-12.240043,-9.513732,-19.450176,-24.378816,-0.654369,-0.507712,-10.43653,-16.019385,9.195748,9.235299,1.539283,-5.039389,57.561951,298.588529,-19.05447,8.331335
86,0.879822,0.285287,-7.639294,26.512189,-26.972237,-51.277313,-74.394093,-91.737499,-59.681282,-91.457291,-107.967796,-120.877419,-53.370781,-87.599087,-105.6003,-119.685001,-45.213432,-76.659508,-94.388809,-108.082352,-36.408005,-61.186638,-75.056763,-86.923885,-18.527408,-20.328544,-10.147877,0.821774,8.74639,20.905355,26.845374,30.945972,27.289545,38.278401,43.17101,46.702084,40.789543,52.692244,58.068173,61.639446,49.388782,61.926524,66.848217,70.065414,9.62162,12.120857,13.264694,11.110649,13.698769,15.437203,16.576004,16.415863,9.322319,9.450646,10.654984,9.733505,5.735436,8.319664,9.720802,8.274059,3.330269,6.221962,6.833363,4.871617,-27.201962,-45.739395,-56.693259,-64.690514,-41.197292,-46.217682,-52.532053,-57.599313,-28.533188,-34.586241,-41.419171,-43.882786,-16.878991,-22.489603,-28.750302,-31.239564,-5.503197,-9.424955,-15.411678,-19.644267,58.698149,298.880006,-26.437388,34.849715
87,-0.253372,-0.116029,-7.639294,26.51219,-26.394424,-50.595245,-73.613262,-90.86729,-58.571892,-90.346413,-106.84988,-119.703312,-52.38121,-86.904602,-105.153522,-119.323196,-44.340134,-76.083641,-94.132404,-108.225632,-35.456085,-60.472183,-74.730263,-87.043018,-18.518208,-20.316688,-10.085139,0.812203,8.988266,21.208117,27.213283,31.453931,27.256014,38.098646,43.184471,46.962423,40.697782,52.490197,58.016426,61.733122,49.345866,61.826735,66.683899,69.773273,15.058251,20.988446,25.092354,25.737381,19.986229,25.439091,28.039361,27.732354,14.560814,21.064053,23.896847,22.649384,10.290699,19.817582,22.7244,20.745469,7.059422,15.963669,19.35421,18.350621,-28.005963,-48.911452,-60.317597,-66.988165,-55.587927,-70.773506,-76.797362,-80.076813,-44.826333,-59.658751,-63.388167,-63.386757,-33.103614,-44.471495,-47.064075,-46.459745,-20.202142,-28.08521,-32.36264,-34.249146,58.551292,298.625131,-33.970166,61.223059
88,-0.125542,0.427992,-7.639293,26.512189,-25.963097,-50.142288,-73.22937,-90.349102,-58.182678,-89.925499,-106.647205,-119.452286,-52.088356,-86.79863,-105.441685,-119.521809,-43.975182,-75.772533,-94.21011,-108.351688,-34.999123,-60.298004,-74.988842,-87.383423,-18.865245,-21.105673,-11.503422,-0.342159,8.357857,20.306129,26.309566,30.720892,26.973321,37.539804,42.279025,45.715003,40.680924,52.335759,57.573676,60.981681,49.456584,61.717561,66.370207,69.20943,20.494881,29.856033,36.920013,40.364113,26.273689,35.440979,39.502716,39.048843,19.799309,32.67746,37.13871,35.565262,14.845963,31.315498,35.727997,33.216877,10.788574,25.705376,31.875057,31.829624,-28.809963,-52.083508,-63.941934,-69.285815,-69.978562,-95.329329,-101.062669,-102.554312,-61.119477,-84.73126,-85.357162,-82.890727,-49.328236,-66.453385,-65.377847,-61.679924,-34.901086,-46.745463,-49.313601,-48.854024,58.447838,298.218613,-41.587372,86.900737
89,-0.043831,0.82375,-2.016478,21.683565,-25.783997,-49.714851,-72.567101,-89.151993,-57.931595,-89.426765,-106.072369,-119.029598,-52.124748,-86.85791,-105.425434,-119.616852,-44.243202,-76.24609,-94.548969,-108.722935,-35.454254,-61.101608,-75.860596,-88.57893,-19.066304,-22.031744,-12.928005,-1.57408,7.500205,18.895811,24.607971,28.645831,26.188782,35.950843,40.32024,43.328473,40.051996,50.690913,55.597539,58.677032,49.155921,60.629086,65.01281,67.706363,10.203181,20.697098,31.078863,38.864708,29.547158,41.262045,44.498434,43.075419,29.873972,46.486216,48.323794,44.872828,28.554182,45.888319,46.716585,42.451229,25.563498,38.564387,39.746361,36.450691,-28.732467,-50.028532,-59.831241,-63.176476,-63.564192,-85.362334,-88.254616,-86.785434,-53.261846,-71.393542,-69.270316,-64.467261,-39.948503,-51.847005,-49.410365,-44.92517,-24.372348,-31.483247,-31.823399,-30.407601,58.508949,298.521792,-43.498907,108.063731
90,-0.325356,0.643069,-2.016477,21.683564,-25.21019,-49.317513,-72.721252,-89.315472,-57.227554,-89.528675,-106.338902,-119.159088,-51.433182,-86.906662,-105.604362,-119.642258,-43.660812,-76.32391,-94.816875,-108.940086,-35.080948,-61.40007,-76.36425,-88.92334,-19.881657,-23.127752,-13.903661,-1.913151,6.683432,18.015559,23.612555,27.66826,25.715095,35.412318,39.600539,42.512936,39.693968,50.265762,54.983308,58.028715,48.818579,60.306564,64.504048,67.086018,-0.08852,11.538162,25.237713,37.365303,32.820625,47.083111,49.494152,47.101994,39.948635,60.294971,59.508877,54.180393,42.262402,60.46114,57.705173,51.685581,40.338421,51.423397,47.617664,41.071758,-28.65497,-47.973555,-55.720546,-57.067137,-57.149821,-75.395339,-75.446561,-71.016555,-45.404213,-58.055823,-53.183469,-46.043793,-30.56877,-37.240624,-33.442881,-28.170414,-13.843609,-16.22103,-14.333197,-11.961178,57.962236,298.220682,-45.736742,128.803116
91,0.357742,0.086698,-6.022082,29.801366,-25.29808,-49.557838,-72.968903,-90.66576,-57.682457,-89.468479,-106.017208,-118.875446,-51.971626,-86.777,-105.277977,-119.51849,-44.252586,-76.505814,-94.869061,-109.154606,-35.59639,-61.56292,-76.387024,-89.067078,-20.275377,-23.545988,-14.08885,-3.021942,6.437048,18.384456,23.81312,27.409711,25.483469,35.552429,39.619805,42.413147,39.567626,50.129849,54.791017,57.864088,48.886504,60.006025,64.245808,67.039705,7.12575,22.902832,37.43906,46.574021,52.920571,66.775561,64.065542,59.099894,56.840773,72.755785,68.0474,61.628981,54.521284,68.420534,62.821169,55.837755,47.954035,57.147017,51.28541,43.946944,-28.434798,-46.994425,-57.661114,-65.23261,-46.780506,-48.670378,-46.929155,-45.735319,-31.503917,-31.012322,-28.097703,-25.624337,-14.838361,-12.931524,-11.500412,-10.61681,2.223185,3.78246,3.416929,2.581878,57.622032,297.402519,-52.45677,157.699622
92,0.383263,-0.538217,-6.022081,29.801367,-25.144844,-49.275627,-72.511482,-90.050869,-57.523041,-89.474602,-106.226006,-119.315586,-51.851692,-86.753654,-105.556526,-120.212059,-44.235992,-76.620426,-95.346851,-110.067158,-35.727997,-61.962547,-77.16568,-90.224018,-19.983792,-23.461266,-14.134237,-3.285925,6.79131,18.430954,23.866472,27.374699,25.732632,35.504017,39.910959,42.851451,39.733488,49.980722,54.836465,57.941338,49.033285,59.954093,64.153553,66.86137,14.340019,34.267502,49.640408,55.782738,73.020515,86.46801,78.636932,71.097794,73.73291,85.216599,76.585922,69.077568,66.780167,76.379929,67.937164,59.989929,55.569649,62.870636,54.953156,46.822128,-28.214628,-46.015296,-59.601683,-73.398083,-36.411192,-21.945417,-18.41175,-20.454083,-17.603622,-3.968822,-3.011938,-5.20488,0.892046,11.377575,10.442056,6.936794,18.289978,23.78595,21.167053,17.124933,57.543011,295.6175,-58.941135,186.254186
93,0.061684,-0.342468,-1.390057,19.888264,-24.997787,-49.004059,-72.178116,-90.344467,-57.280197,-88.996582,-105.618095,-118.807526,-51.87355,-86.671085,-105.23941,-119.920979,-44.601517,-76.744709,-95.05497,-109.410152,-36.332016,-62.162018,-77.211056,-90.138588,-19.606744,-22.778245,-13.691487,-3.519218,7.280682,18.484307,23.477754,26.776646,26.106777,35.468449,39.431775,42.146385,40.014143,50.063961,54.741061,57.769919,49.226996,60.169169,64.394812,67.149004,16.380701,36.219406,50.660763,58.220043,77.083741,85.762539,77.83556,70.763741,74.334584,81.905079,71.670342,63.108902,64.407978,70.911026,61.408081,52.630005,50.319443,56.456709,48.39572,39.86784,-24.331484,-36.972349,-44.852474,-52.50616,-17.363043,3.775945,6.116131,1.567688,1.645957,20.381526,20.331446,16.067673,18.639547,32.742013,30.967306,25.837792,32.95499,41.976942,39.015114,33.510096,57.422762,294.476847,-60.513125,205.344265
94,0.556641,1.051733,-1.390056,19.888264,-27.146187,-49.924965,-72.256451,-90.485744,-55.279999,-88.774624,-105.808125,-119.429855,-50.805473,-86.642933,-105.515728,-120.945854,-44.584579,-77.079849,-95.982399,-110.941029,-37.41497,-62.993431,-77.973289,-91.113853,-14.037721,-14.629969,-8.492102,-2.264573,7.807105,16.758136,21.63895,25.403872,24.495771,34.092711,38.258209,40.965717,37.549561,48.322291,53.210268,55.686892,46.434149,57.801103,62.541497,65.053812,18.421383,38.17131,51.681118,60.657349,81.146965,85.057068,77.034187,70.429688,74.936256,78.593559,66.754761,57.140236,62.035789,65.442123,54.878998,45.270081,45.069237,50.042782,41.838284,32.913551,-20.44834,-27.929403,-30.103264,-31.614235,1.685107,29.497307,30.644012,23.58946,20.895537,44.731875,43.674831,37.340227,36.387048,54.106452,51.492557,44.738791,47.620003,60.167934,56.863176,49.895259,57.944899,295.213761,-61.937685,224.917709
95,-2.26387,3.745718,-6.718826,18.439229,-25.952568,-47.748756,-66.3517,-81.051464,-53.48568,-80.976391,-98.109055,-114.022865,-50.865326,-80.122261,-99.74556,-117.840729,-45.807037,-73.39119,-91.31155,-107.755165,-38.55217,-59.609756,-72.927017,-86.415882,-15.337876,-21.407509,-21.854274,-20.046036,5.68357,12.566703,16.162059,18.940642,20.636555,28.688068,33.025417,35.755465,32.337023,42.109891,46.716842,48.603132,41.090391,52.065971,57.274433,60.260622,18.396893,40.784111,61.210556,76.131477,36.809349,69.14669,88.213463,103.784637,28.86137,66.062851,87.617455,104.796524,22.693119,56.908379,77.423401,93.752747,18.441982,45.047379,59.574051,71.985512,-20.776235,-28.729503,-31.533342,-29.586845,-7.430859,8.049413,17.690258,26.21447,10.078902,26.206504,36.923968,46.293358,24.997308,41.01098,50.017216,56.975685,36.818313,49.603303,55.540791,58.725321,56.139622,298.564523,-68.197918,242.961982
96,-2.832069,-0.889762,-10.06897,13.587252,-20.156822,-44.295502,-65.905094,-82.583084,-45.938301,-70.30798,-89.934196,-108.071766,-44.888077,-72.618656,-93.177166,-112.338295,-41.233177,-68.332901,-85.953827,-100.97374,-35.917969,-58.517303,-70.86525,-82.022781,28.978357,44.364398,49.79862,54.212971,40.687593,46.669109,48.661918,50.791875,23.3524,25.867865,23.04618,19.142504,3.971972,1.793664,-2.061785,-6.001337,-15.939881,-18.83122,-20.34991,-22.694017,26.247826,47.374763,65.249405,81.573944,45.979671,71.026154,88.468781,103.559418,39.355373,67.806816,88.34507,106.195107,34.881992,60.380287,80.126495,96.887512,31.568241,50.993385,65.296326,78.072624,-17.838274,-20.810321,-21.31476,-20.746903,5.160729,17.039285,25.332613,32.621261,17.762938,34.264563,43.354223,50.771868,26.330623,41.53061,50.720492,56.942895,30.659512,41.044634,46.330037,49.393969,53.199549,297.587246,-78.374891,256.461718
97,-2.652397,1.404143,-1.353264,28.244947,-20.838318,-42.869568,-62.274971,-76.501637,-38.940125,-62.903481,-79.168625,-91.937027,-39.574471,-68.415985,-88.089066,-102.733498,-39.2379,-67.196674,-86.426811,-100.767117,-37.96669,-59.183464,-74.890995,-89.341049,-17.23491,-22.28665,-25.229613,-25.24079,11.328484,8.987711,3.510573,-2.263153,24.168,24.409382,17.361005,10.019066,32.756618,39.240473,35.76306,30.371014,37.558453,49.686296,53.697603,54.78441,31.122093,58.778629,80.140228,92.150688,60.187511,92.217979,101.771049,101.443748,51.751614,87.008858,98.610191,95.338326,43.50008,76.335869,86.094704,82.475739,33.322792,59.361477,68.337593,67.827129,-22.657276,-27.189324,-24.750121,-18.977322,11.336449,27.392421,24.262231,19.047038,32.392043,48.386141,38.207141,26.697482,46.680656,63.290097,56.197568,47.011268,55.280945,71.110539,66.428808,58.725383,50.003157,298.836318,-80.27215,284.551595
98,-8.98676,2.508086,-8.099556,-3.270364,-13.812103,-32.421398,-50.733947,-64.064283,-50.718212,-55.37796,-52.952556,-50.665798,-55.925588,-61.408281,-57.188129,-51.586647,-56.388387,-62.58914,-59.459724,-55.85721,-54.666824,-61.77392,-60.678205,-59.664631,-18.648532,-25.627162,-25.102253,-21.199781,5.439686,13.456156,16.453335,16.861598,22.111896,29.80785,32.145844,31.46307,34.767458,43.304699,45.516105,44.849046,44.072442,55.035363,57.008258,57.064513,28.553753,55.974941,77.758369,95.561829,52.227173,85.086594,101.555786,114.652748,41.025982,77.505112,97.328224,111.820221,31.482582,63.819008,82.788506,95.87059,23.615971,48.411999,63.289948,74.467049,-14.152515,-13.785594,-9.700681,-7.760792,15.144906,36.924029,46.341893,52.798146,33.408517,55.397159,63.841466,68.315222,46.225247,68.584515,76.409342,78.77605,53.60368,73.37925,79.882865,81.331097,40.531454,301.173772,-88.856649,281.1106
99,-8.986759,2.508085,0.365353,7.615864,-6.785889,-21.973228,-39.192924,-51.62693,-62.4963,-47.85244,-26.736488,-9.394569,-72.276707,-54.400578,-26.287193,-0.439796,-73.538876,-57.981606,-32.492638,-10.947304,-71.366959,-64.364376,-46.465416,-29.988213,-20.062153,-28.967674,-24.974892,-17.158772,-0.449111,17.924601,29.396098,35.986349,20.055793,35.206318,46.930684,52.907074,36.778298,47.368926,55.26915,59.327079,50.586432,60.384431,60.318914,59.344616,26.772766,52.381897,76.036263,95.146122,53.909111,84.564342,102.228184,115.711384,43.641758,77.984333,99.483089,114.539509,34.462738,65.76519,85.086651,99.087696,26.954899,51.361771,66.379166,79.266186,-13.232311,-13.977576,-9.941693,-11.414502,18.858082,37.929635,47.032942,53.46079,35.776089,55.732587,64.129902,69.229251,47.3165,67.094107,74.273519,77.682759,54.227483,71.187666,76.797752,79.930104,31.198025,303.573902,-88.837967,288.618508
100,-31.969986,6.496143,3.049679,5.109291,7.419434,6.594429,0.693054,-4.526482,-28.505516,-6.770897,13.537674,28.784409,-39.283218,-14.138832,11.536102,33.869247,-42.750835,-20.971413,3.761902,24.116592,-42.483845,-29.860153,-12.955799,2.871666,-21.484018,-30.547744,-27.447564,-20.696083,-7.834584,11.979333,23.874932,31.19001,12.326926,29.587092,41.47065,48.109375,27.809607,41.794964,49.562795,53.88026,40.189762,50.99102,52.956906,52.465497,26.144943,50.526409,73.773422,92.781143,53.25943,85.522156,103.935814,117.621231,43.660583,79.073639,100.746117,115.735703,34.874954,67.588062,87.251816,101.029358,27.222404,53.130283,69.07402,82.53067,-14.876477,-16.684591,-12.830686,-13.068116,19.041604,37.201597,45.65455,51.297549,35.78986,53.689575,60.734988,64.247166,47.2043,65.339161,71.230397,73.075376,54.295099,70.37608,74.861259,76.301279,-0.88191,310.010101,-85.898237,293.667855
101,-45.69643,24.298355,4.095612,3.757266,15.460339,32.132435,42.312069,51.628132,26.637039,51.808834,67.385273,79.099674,17.090836,43.928318,62.345066,78.60117,8.180637,34.808178,50.829906,64.518299,0.422745,19.572601,32.17186,43.187656,-22.851481,-39.710825,-46.920433,-49.954725,-25.520828,-14.161592,-4.29011,2.840272,-8.442208,6.454647,13.290047,17.246581,6.660029,18.964293,22.55372,23.708083,18.973926,27.129241,28.101871,26.150064,24.737263,48.760815,72.371864,92.317543,51.8894,85.125389,103.928833,117.699394,43.305531,80.287857,101.766357,115.821075,35.047302,69.42215,89.24469,102.349205,27.890224,55.067368,71.454277,83.933716,-14.442433,-17.225586,-15.347324,-15.991751,18.224523,34.430856,40.908351,44.202427,35.214593,52.253137,57.092146,57.172916,46.38339,64.090938,67.561373,65.682184,52.946038,68.434215,71.021557,69.228016,-46.547642,334.242599,-81.771927,297.359263
102,51.482105,-27.612932,2.896614,2.581908,6.706581,4.880905,-1.222115,-6.167107,-25.444794,-4.43882,16.693039,29.4944,-36.078587,-13.715973,11.366615,31.058578,-43.463001,-21.984444,3.225288,21.295853,-48.648663,-35.159969,-15.738487,-0.794563,-18.934529,-30.507421,-31.883467,-28.300584,-7.379051,13.560329,21.243068,23.874191,13.730883,33.313915,41.501711,43.175209,31.821716,46.246304,50.40575,51.829467,47.820445,61.989386,59.767421,55.708134,24.730854,48.806477,71.883202,91.437836,51.339912,85.202293,104.106445,117.210617,42.338047,81.299973,102.548676,115.404739,34.011497,70.506935,89.68998,101.224136,27.388344,55.173798,71.448441,82.885437,-15.506763,-19.040431,-17.355694,-17.092144,15.98218,32.463612,38.818223,41.854429,34.248322,50.775573,54.008269,52.717994,46.280328,63.34135,65.051713,61.736024,53.14154,68.20049,69.722267,66.590842,4.897356,306.619556,-78.91242,299.93106
103,-15.846004,11.480266,-0.881023,-2.307304,9.053135,13.151379,12.72646,12.293758,-14.469566,9.507351,27.832432,39.131298,-25.618343,2.407207,24.47691,41.070843,-30.144882,-4.741573,15.144367,28.969402,-30.792217,-15.115128,-0.710049,10.489483,-22.838328,-33.246731,-30.905093,-27.434782,-10.709559,5.470654,12.780421,16.682183,8.818268,23.071374,27.089226,27.32925,24.392215,36.030192,35.845003,34.087277,36.595764,45.442128,42.543008,38.688424,24.773312,50.053196,73.173237,93.14249,51.40543,85.520153,104.532452,117.798214,41.544228,80.832653,101.963253,114.639759,33.001328,69.915104,89.282284,100.745373,26.621933,55.077667,71.363239,82.427387,-15.588151,-16.72794,-13.384464,-11.49027,18.973246,36.026611,42.062158,44.621774,37.102365,53.65308,56.075796,54.219332,48.463267,65.306865,65.961234,62.278378,54.177403,68.64676,69.306563,66.00131,-10.804825,318.100331,-79.64962,297.624265
104,42.67931,-13.302088,-1.835518,-2.170527,-3.034744,-13.635521,-28.425751,-39.083176,-49.852695,-38.154144,-18.157425,-3.984032,-62.374249,-47.958641,-22.459488,-1.247749,-68.674622,-57.723656,-33.187866,-13.460083,-71.100254,-67.950268,-50.897942,-35.322075,-13.411757,-22.209956,-20.796304,-14.634477,-2.988967,16.155822,24.673612,26.379591,17.892429,33.15886,41.424091,42.906656,35.189646,46.019124,50.041299,49.08497,49.382237,61.189348,59.67356,55.376658,26.327019,52.517567,76.125698,96.151142,53.340454,86.873531,104.655247,117.188358,42.568245,80.654583,100.533657,112.333317,33.546066,69.367905,87.992077,98.778133,26.866608,54.832249,70.686493,81.053867,-15.150031,-15.872511,-11.603582,-9.211803,18.613735,36.425518,42.418211,44.944543,36.937614,53.514821,55.3464,53.086582,48.4997,65.640379,66.357857,62.877542,54.272252,69.102601,69.745423,66.628509,32.052784,304.820334,-81.306839,295.475829
105,-36.292305,11.780188,0.123768,0.164071,8.054581,10.451202,9.978561,8.818245,-18.470135,3.488388,22.471848,33.15239,-29.843788,-4.039078,17.129974,33.032684,-35.242996,-13.931122,4.7929,16.858978,-37.163658,-24.705105,-13.237896,-4.748497,-20.529357,-29.030474,-27.66227,-23.923468,-5.147453,10.283543,14.346288,15.545357,13.645668,26.299686,28.387282,28.59217,27.109913,37.307314,35.845003,34.341751,36.678201,44.869578,40.679566,36.189632,26.309166,52.196445,76.025391,96.497154,52.400665,85.787086,104.225349,117.177315,42.540321,81.255913,102.077065,114.997101,34.174004,70.561409,89.669724,101.145401,27.782078,55.926418,71.384811,81.387291,-15.387462,-16.272901,-11.695528,-9.407984,19.023264,36.326285,42.146385,44.240589,36.943234,53.506794,55.596489,53.103008,48.206077,64.983725,65.775427,62.05336,54.020063,68.709869,69.502065,66.486854,-4.115953,316.771246,-81.059504,295.810625
106,-21.700687,17.031505,-0.406551,-0.41206,10.355244,17.589397,25.767574,32.228451,6.910744,31.110363,46.025219,55.527706,-2.627392,22.59676,38.412151,52.306538,-9.258156,10.958633,22.812824,33.100376,-13.142738,-3.787193,2.167282,7.656898,-22.290108,-38.222208,-44.243059,-46.12694,-19.706532,-7.448643,-1.401117,2.854907,-1.321397,10.642745,12.831118,13.815358,12.64352,20.050791,16.885403,14.837389,23.4533,26.14463,20.539484,15.314596,26.762295,52.97533,76.737957,97.030621,52.938023,86.074848,104.227467,117.178516,42.814007,81.265926,101.964283,115.22501,34.254856,69.951496,89.038982,101.029186,27.828655,54.990635,70.594425,81.295795,-15.125084,-15.858864,-10.987745,-7.761224,19.661763,36.73884,42.613465,44.827032,37.680534,53.987644,56.264999,54.126397,48.895458,65.676935,66.676242,63.110774,54.495418,69.378873,70.146307,66.751393,-25.697622,333.980283,-81.347036,295.576097
107,6.313019,-25.180583,-0.245647,0.092564,15.38126,22.042637,22.674007,19.879818,1.40974,27.279453,43.38747,51.246586,-10.155201,15.054302,34.465656,50.828419,-19.965248,4.51561,25.526905,41.385899,-28.187027,-12.27047,3.68082,17.067204,-21.834205,-32.49424,-34.17379,-31.566811,-13.376312,7.604316,14.409397,16.618209,8.045399,29.500518,34.877127,34.238751,26.310924,41.519248,43.923562,43.918931,41.228712,55.277549,52.946841,47.728746,26.796227,53.263206,77.286186,97.613297,53.364372,86.693916,104.768715,117.5354,43.207512,81.533661,101.778717,114.531441,34.611053,70.021935,88.59375,100.097809,28.103542,55.213909,70.499725,80.871162,-14.736304,-15.633105,-11.032823,-7.873919,19.942296,36.427494,42.326696,44.823821,37.876221,54.291641,56.620435,54.588043,48.972955,65.966421,67.089476,63.648496,54.481647,69.24685,69.982051,66.659508,-19.264898,308.960668,-81.472979,295.829628
108,0.01276,8.720578,-0.193291,-0.472205,3.557224,10.715218,23.13858,29.00322,-5.359211,15.868721,32.006493,43.495216,-14.253616,9.29821,29.410629,46.062355,-19.355221,-1.210556,15.9058,29.468994,-22.16011,-16.055031,-5.508499,4.840279,-25.948202,-36.658503,-30.329456,-22.444299,-18.334932,-6.87844,3.072021,10.09539,5.704874,18.248358,26.505191,28.193756,24.937348,31.561315,33.542268,31.796275,40.03625,43.177802,39.84538,35.097637,26.976757,53.681431,77.82486,98.451576,53.867283,87.076263,104.986382,117.66964,43.707848,81.562614,101.660957,114.397888,34.996777,69.956703,88.488235,100.135803,28.300266,55.1021,70.464649,81.149712,-14.45009,-15.139596,-10.246369,-6.74827,20.703802,37.721227,43.518109,45.800095,38.529355,55.260876,57.754111,55.789706,49.446148,66.579973,68.039383,64.834845,54.705246,69.564247,70.770233,67.790714,-19.196806,317.7932,-81.610937,295.469377
109,-22.889328,-8.060034,0.260925,-1.387655,20.691833,36.922188,45.449982,46.984634,23.329868,55.74543,68.764572,74.060669,11.680698,42.638054,59.025536,70.286636,0.343666,29.415264,46.990356,58.061256,-10.680428,9.552956,24.14875,34.863853,-22.224282,-32.893518,-33.706709,-30.602454,-14.509556,4.137772,11.160955,13.56391,7.426599,28.096561,32.916366,30.897127,25.421904,41.053403,42.951487,41.144423,40.13536,55.727956,53.57299,47.565787,27.47057,54.35257,78.183174,98.41198,55.217743,87.980232,105.387497,117.824249,44.708004,82.24308,102.240944,115.137749,35.198021,69.951897,88.472328,100.260086,27.148075,53.54393,68.661404,79.166451,-14.267865,-14.695116,-9.569214,-6.206534,21.123766,37.755993,43.392447,45.576806,38.483104,54.761562,57.657842,56.105066,49.204581,66.189649,68.496459,66.007918,54.58156,69.916039,71.872293,69.617476,-41.994209,309.887002,-81.258087,294.235557
