takenoko1/special-research/HandMotion_SimilarSearch_自分用/NewProject/handData/key/d4_feature_d2/93.csv
,vel_0x_L,vel_0y_L,vel_0x_R,vel_0y_R,posFromWrist_1x_L,posFromWrist_2x_L,posFromWrist_3x_L,posFromWrist_4x_L,posFromWrist_5x_L,posFromWrist_6x_L,posFromWrist_7x_L,posFromWrist_8x_L,posFromWrist_9x_L,posFromWrist_10x_L,posFromWrist_11x_L,posFromWrist_12x_L,posFromWrist_13x_L,posFromWrist_14x_L,posFromWrist_15x_L,posFromWrist_16x_L,posFromWrist_17x_L,posFromWrist_18x_L,posFromWrist_19x_L,posFromWrist_20x_L,posFromWrist_1y_L,posFromWrist_2y_L,posFromWrist_3y_L,posFromWrist_4y_L,posFromWrist_5y_L,posFromWrist_6y_L,posFromWrist_7y_L,posFromWrist_8y_L,posFromWrist_9y_L,posFromWrist_10y_L,posFromWrist_11y_L,posFromWrist_12y_L,posFromWrist_13y_L,posFromWrist_14y_L,posFromWrist_15y_L,posFromWrist_16y_L,posFromWrist_17y_L,posFromWrist_18y_L,posFromWrist_19y_L,posFromWrist_20y_L,posFromWrist_1x_R,posFromWrist_2x_R,posFromWrist_3x_R,posFromWrist_4x_R,posFromWrist_5x_R,posFromWrist_6x_R,posFromWrist_7x_R,posFromWrist_8x_R,posFromWrist_9x_R,posFromWrist_10x_R,posFromWrist_11x_R,posFromWrist_12x_R,posFromWrist_13x_R,posFromWrist_14x_R,posFromWrist_15x_R,posFromWrist_16x_R,posFromWrist_17x_R,posFromWrist_18x_R,posFromWrist_19x_R,posFromWrist_20x_R,posFromWrist_1y_R,posFromWrist_2y_R,posFromWrist_3y_R,posFromWrist_4y_R,posFromWrist_5y_R,posFromWrist_6y_R,posFromWrist_7y_R,posFromWrist_8y_R,posFromWrist_9y_R,posFromWrist_10y_R,posFromWrist_11y_R,posFromWrist_12y_R,posFromWrist_13y_R,posFromWrist_14y_R,posFromWrist_15y_R,posFromWrist_16y_R,posFromWrist_17y_R,posFromWrist_18y_R,posFromWrist_19y_R,posFromWrist_20y_R,posFromBody_0x_L,posFromBody_0y_L,posFromBody_0x_R,posFromBody_0y_R
2,-2.620869,1.174555,0.637436,-0.101209,21.005459,40.019188,53.14888,58.253288,36.872234,69.629745,81.837616,84.415855,26.018887,62.689819,76.744194,84.998016,13.581963,46.524239,60.773392,66.183586,2.829323,13.761349,13.893929,11.537704,-24.669043,-34.287349,-37.166708,-36.020559,-10.386975,10.042531,14.727906,16.357252,13.505371,35.349085,37.197769,34.79259,30.036882,47.191209,47.484276,45.356295,42.307307,55.848369,57.52761,56.153355,26.59441,51.870632,75.373707,95.962315,50.92907,84.13805,101.555843,114.309368,41.368847,78.21207,98.507023,111.927509,32.340317,66.187534,84.836712,97.1628,24.397888,49.414501,64.908657,77.663784,-13.837032,-15.420745,-9.935703,-7.083699,14.043711,28.944147,35.848646,40.186612,31.944044,45.725192,51.365783,53.096895,44.674571,59.38216,63.527959,62.844938,52.295251,67.41453,70.65902,68.723454,-47.62599,314.1132,-69.881029,300.765787
3,9.655437,-0.257129,0.874672,-0.108742,17.269249,32.64101,44.116459,48.83852,26.935558,57.861729,71.432362,75.117474,16.925926,51.219692,65.349026,75.421543,5.247002,34.758282,48.678417,55.324459,-4.543819,-0.959587,-4.779282,-9.397717,-25.44895,-34.965553,-38.322182,-38.392145,-6.280634,13.169943,17.998948,19.513501,16.298898,36.998809,38.628341,36.104416,31.466466,47.822421,48.016997,46.809159,42.396536,54.554451,58.86358,61.466854,25.9132,50.908585,74.425564,94.974804,50.732403,83.550854,100.827885,113.659,41.291885,77.762318,98.083477,111.48634,32.058907,65.603085,84.204082,96.42683,23.785114,48.623142,63.960972,76.474743,-14.071066,-15.536774,-9.844806,-6.770994,14.660104,29.122359,35.8689,40.162406,32.373765,45.61645,51.421544,53.39095,44.812212,59.319731,63.528083,62.963869,52.247147,67.203838,70.485625,68.763962,-38.348694,313.920245,-69.384499,300.721218
4,10.83292,3.757142,-0.067406,0.565016,13.689022,22.944145,28.335342,29.331551,16.292953,43.923683,59.301338,64.812584,8.029976,38.070602,54.319496,67.021637,-2.194691,23.22979,39.22039,48.080406,-11.736832,-11.251774,-13.856678,-16.735096,-26.312406,-36.350121,-38.99909,-38.677803,-7.697065,8.734472,12.980492,14.341224,14.612309,31.60596,33.3162,32.011105,29.89992,43.242085,43.261536,43.036332,41.164554,52.877125,56.821741,58.781576,25.609703,50.638275,74.228611,94.878445,51.084938,83.191738,100.230389,112.945232,41.810131,77.753735,97.879429,111.381626,32.416363,65.644398,84.032421,96.192684,23.78088,48.26889,63.425045,75.906086,-14.416251,-16.097838,-10.576858,-7.532624,14.221799,28.523133,35.140739,39.306854,31.836783,44.888906,50.549258,52.535522,44.309317,58.73446,62.745026,62.164201,51.906964,67.026182,70.102711,68.143556,-27.701168,317.742272,-69.637299,301.351119
5,29.399529,-2.871579,-0.024605,-0.091205,3.711319,2.400398,-2.157326,-8.948479,-16.310406,8.204727,25.141411,32.505112,-24.634037,2.808952,20.675926,35.37632,-30.715084,-8.609848,9.208946,19.997292,-34.559383,-39.438286,-42.876663,-45.69437,-21.168473,-31.26411,-34.47896,-35.186805,-0.206679,17.538846,20.31391,19.577104,21.386761,37.951988,38.254812,35.344824,34.691134,46.793351,45.381675,43.798641,43.693357,54.861721,59.059144,62.215578,25.42654,50.409107,73.883343,94.451809,50.707569,83.202267,100.430889,113.175602,41.296406,77.681293,97.981968,111.371098,31.883583,65.490704,84.042263,96.197491,23.247356,47.760715,62.9389,75.292797,-14.458118,-16.012067,-10.300957,-7.448335,14.27509,28.509671,35.00106,39.065287,31.94497,44.82271,50.387966,52.350826,44.392433,58.515802,62.406881,61.864712,51.811127,66.695941,69.658664,67.576934,1.473255,314.941736,-69.887009,301.330957
6,-14.458809,-0.694383,0.017452,0.435773,1.833,9.233551,21.042938,25.152512,-7.452393,19.669418,40.556374,54.306564,-16.02356,13.915787,39.311943,57.43927,-20.33083,1.656075,24.39949,41.337776,-20.700588,-17.553177,-6.493835,5.479774,-15.232653,-16.314027,-8.307159,-0.955526,3.132845,17.8886,25.868359,32.29491,18.774534,30.094187,37.737097,40.967755,30.808454,40.040696,46.087049,48.096037,40.774168,51.498917,53.965167,54.75162,25.491199,50.479717,73.929634,94.368095,50.643768,83.107338,100.274391,112.882347,41.277351,77.731247,97.995071,111.323433,31.902008,65.616302,84.150009,96.242409,23.273563,48.317127,63.587036,75.871925,-14.680358,-16.445493,-10.733457,-7.837671,13.655239,27.760083,34.417889,38.656499,31.471715,44.289186,50.023885,52.152545,44.102268,57.94881,61.921708,61.539164,51.771978,66.130369,68.981879,67.142396,-13.145113,314.30265,-70.029116,301.822027
7,-14.610844,9.86716,0.681667,-0.354509,10.83189,24.648342,37.98048,46.030941,12.298908,43.82349,62.753162,75.292568,2.208366,36.945705,60.536327,78.674984,-3.688889,22.409992,41.625538,57.264233,-5.449333,1.929131,7.365017,14.801273,-14.181661,-14.167829,-8.499882,-1.664606,-9.276394,1.225437,10.84047,20.172563,5.588412,16.384669,25.122846,29.759685,18.736125,29.738937,36.693639,40.874512,30.538543,44.083804,49.213102,53.883348,24.922085,49.489346,72.549763,92.542591,50.28511,82.532444,99.642048,112.22414,40.826797,77.189426,97.605915,111.041164,31.260624,65.12598,83.68372,95.723362,22.394543,47.541161,62.899418,75.09779,-14.481768,-16.222759,-10.130402,-7.152056,13.924594,28.283726,34.744487,38.859534,31.762312,44.601643,50.042843,52.026883,44.385332,58.399464,62.143392,61.667358,52.029539,66.552495,69.306995,67.283681,-27.835894,324.205162,-69.427385,301.50287
8,0.235119,-8.625112,0.468464,0.030875,13.341866,21.967278,25.133057,22.399979,15.864086,45.330391,59.598312,63.371201,7.10638,39.95018,54.324989,64.462967,-3.543835,24.390793,38.707466,46.010056,-12.697735,-10.581036,-13.845806,-17.61034,-23.434281,-33.089144,-35.940901,-37.294779,-4.256332,14.565255,17.412875,17.071148,17.258376,36.532593,36.760638,33.855775,31.818567,46.644162,44.976592,43.734853,42.204307,54.566678,57.77597,59.369625,24.560795,49.128971,72.293587,92.259636,49.891663,82.138481,99.306679,112.017517,40.652275,76.799011,97.169037,110.789795,31.196251,64.803314,83.439217,95.932846,22.417545,47.164307,62.34169,74.81575,-14.652014,-16.583814,-10.596371,-7.32224,14.443236,28.397656,34.623703,38.551091,31.989183,44.658948,49.999988,51.881955,44.27202,58.109916,61.910407,61.491863,51.571289,66.261341,69.147926,67.400081,-27.743311,315.592956,-69.101458,301.546651
9,-0.41811,-1.089895,0.055218,0.062121,12.962208,21.857014,25.909138,23.837757,15.055389,42.795124,58.712254,64.564533,6.398335,36.848202,53.232136,66.093693,-3.794804,21.664867,37.649174,47.131863,-12.75135,-11.597271,-13.779831,-15.913868,-23.652507,-32.487695,-34.682798,-35.173837,-4.818693,14.035436,17.831975,18.104603,16.902199,35.703347,36.618735,34.159772,31.774354,46.247662,45.546857,44.794305,42.369675,54.817199,58.488755,60.075309,24.699154,49.256172,72.459011,92.71883,49.738541,81.986446,99.038029,111.641293,40.431232,76.640682,97.076054,110.59576,31.099091,64.67474,83.374729,95.713863,22.610607,47.244072,62.488232,74.852886,-14.517954,-16.327118,-10.570436,-7.175398,14.156344,28.422233,34.694284,38.532689,31.892235,44.964303,50.052599,51.564867,44.294497,58.639982,62.202549,61.375525,51.538252,66.508713,69.305266,67.127761,-28.250341,314.521771,-69.13516,301.627483
10,-1.936741,-0.323881,-0.090179,-0.245952,13.991432,24.650459,29.697418,28.236809,16.264629,44.325485,60.787468,67.754288,7.206516,37.09156,54.81617,68.729668,-3.36525,21.902847,38.600235,48.832855,-12.421875,-9.86681,-10.880184,-11.597729,-22.688707,-31.829312,-33.70004,-34.55269,-5.630032,13.731686,18.097502,18.752056,16.148597,34.685639,36.389456,34.70966,30.974068,45.498445,45.584833,45.586439,41.659854,54.607742,58.046005,58.95071,24.409847,48.96595,71.961422,92.051296,49.796734,81.909771,99.016056,111.553516,40.342426,76.633816,96.993542,110.334377,30.87759,64.625187,83.107395,95.232296,22.268486,46.848679,62.009869,74.363079,-14.620892,-16.338974,-10.454221,-6.931545,14.187713,28.688871,35.003962,38.843603,31.990727,45.272006,50.585443,52.336809,44.397558,58.688765,62.318639,61.729046,51.636127,66.582752,69.458222,67.396623,-30.237694,314.192302,-69.275951,301.375942
11,-3.633671,-1.571177,-0.055504,-0.300972,14.770546,26.78896,32.493153,31.434116,20.18961,50.294437,65.546322,70.997601,11.468868,43.963795,60.289135,72.290096,0.496845,28.721981,44.712467,53.555546,-8.685379,-4.916553,-6.73193,-9.285851,-22.635849,-31.83277,-34.04856,-35.645055,-3.973577,15.343495,19.195857,19.649475,17.610538,37.553945,39.101225,37.296755,32.152266,47.875527,47.753631,47.353736,42.975693,56.209486,60.310701,62.023411,24.422836,49.153347,72.20026,92.161732,50.035973,81.898212,99.032421,111.589565,40.767288,76.661282,96.97855,110.426388,31.3167,64.663525,83.077984,95.264797,22.599049,46.681652,61.570988,73.80724,-14.599959,-16.025837,-10.137565,-6.739131,14.347893,28.550673,34.804323,38.629267,31.865559,44.86081,50.244149,52.01336,44.161919,58.372417,62.225273,61.830194,51.435191,66.634499,69.737087,67.94367,-33.891249,312.657974,-69.351339,301.11182
12,6.163445,1.792738,0.082512,0.191797,12.445393,21.233311,25.023937,22.789822,12.391777,41.31815,57.25153,62.857533,4.221783,34.524822,51.896267,65.857716,-5.577908,20.534077,37.240047,47.281895,-13.675861,-12.960949,-15.873356,-19.005089,-22.864263,-32.556546,-35.508648,-37.487749,-4.457947,13.598799,17.095787,17.499141,17.394906,35.992895,36.826958,34.517739,31.923543,46.590377,45.757673,45.296582,42.406601,54.495665,58.634671,60.94531,24.299355,48.894711,72.108707,92.193089,49.879761,81.396618,98.416157,110.94183,40.714417,76.72205,96.883221,109.961758,31.476974,65.059605,83.121357,94.697399,22.919884,47.274399,62.02486,73.887577,-14.37883,-16.265985,-10.468547,-7.272037,13.743604,28.088101,34.65007,38.789324,31.345435,44.429483,50.138432,52.284383,43.766346,57.776217,61.562629,61.189039,51.206838,65.984885,68.860787,66.977708,-27.765656,314.477296,-69.306679,301.330201
13,27.227039,1.481948,-0.719147,-1.358386,5.804787,4.956665,-0.423088,-8.341255,-15.431671,8.77327,26.040115,34.188538,-26.100998,2.380028,20.946007,36.760941,-33.482723,-11.020432,7.521858,20.265083,-38.130684,-42.135773,-45.133896,-46.699791,-21.878356,-31.089171,-33.64113,-34.755108,-3.553674,15.648542,18.784228,18.31017,17.719342,35.052683,35.378602,33.126873,31.706058,44.774297,43.601163,42.29718,41.905003,52.637039,55.614088,57.052194,24.767933,49.563847,72.552624,92.699604,48.704567,81.187191,98.742886,111.904049,39.154129,75.836277,97.054424,111.164417,30.127773,64.226818,83.422909,96.180897,22.204056,47.440968,62.878246,75.487919,-14.16079,-15.252228,-9.108248,-5.614656,14.533886,29.75456,36.056683,40.09621,32.370677,46.250441,51.690899,53.78288,44.907061,59.839607,63.757547,63.460651,52.2737,67.64134,70.596406,68.561853,-0.568457,315.954983,-70.055666,299.967554
14,-17.853069,9.113558,-0.052071,-0.070951,4.685841,11.733112,26.630344,37.783184,-1.039295,29.274273,52.161427,66.051693,-9.822292,23.105907,47.325611,64.506397,-15.261269,10.132084,31.746883,46.895084,-16.783047,-15.250053,-11.169491,-7.540054,-23.135409,-31.536676,-29.904922,-26.506303,-9.061132,5.717224,15.732955,23.091937,9.711858,21.852421,29.161076,32.018083,24.091429,32.880798,37.623415,38.691944,35.073617,44.105973,48.540208,50.115585,25.181522,50.07288,73.097134,93.258991,48.616848,81.681919,99.572697,112.922573,39.127121,76.072254,97.261562,111.201153,30.323696,64.434414,83.926907,97.081318,22.598305,47.91132,63.595448,76.638851,-14.310102,-15.418275,-9.165614,-5.186973,14.349808,29.513856,35.959241,40.17877,31.919158,45.959658,51.354792,53.200759,44.253309,59.43261,63.454723,63.042848,51.414999,66.970915,70.023979,68.264772,-18.474998,325.082497,-70.161209,299.910559
15,6.038246,-4.481721,-0.268536,0.129676,0.439568,5.574818,16.285229,20.133877,-11.971893,19.390812,40.295277,53.213139,-18.52787,16.152134,40.522785,57.853603,-20.169983,5.197964,26.747875,43.096333,-17.50803,-15.110321,-10.285721,-3.757381,-15.408025,-20.524231,-18.975593,-17.072692,-2.137985,11.47934,18.207603,24.07383,14.542284,23.561796,28.196905,29.029733,26.418741,33.721962,38.487612,41.087921,35.622886,44.712424,48.752753,52.997229,25.427971,50.238075,73.190117,93.365364,48.957367,81.94519,99.881058,113.02494,39.407272,76.415863,97.734146,111.672478,30.501881,64.787407,84.235382,97.007446,22.67086,47.843056,63.430481,76.073341,-14.16116,-15.457857,-9.517838,-5.917665,13.94843,29.210106,35.64666,39.752877,31.465231,45.890313,51.320088,53.168154,43.956537,59.517949,63.403224,62.845247,51.364734,67.131528,70.194102,68.272305,-12.484818,320.616336,-70.47781,300.055796
16,0.970974,-4.019149,0.341148,-0.449419,8.68103,11.684074,10.26226,4.622955,-4.442368,25.332298,40.670586,45.452843,-13.174267,19.42646,34.281235,45.441513,-20.917339,5.691605,20.000153,27.716331,-25.631676,-27.738819,-32.927914,-38.067856,-22.970474,-33.6817,-37.528813,-40.684259,-3.477474,15.083032,16.813155,15.132494,18.46819,36.356111,35.099737,31.569219,32.320289,45.877469,43.097465,41.174001,42.105074,52.315937,55.089827,57.05559,25.298424,50.034828,72.952538,93.214989,49.211369,81.890259,99.442635,112.331886,39.685593,76.297531,97.337837,111.012611,30.835304,64.725609,83.902817,96.508713,23.120556,48.130646,63.536568,75.932579,-14.033954,-15.123787,-8.961837,-5.615088,14.28991,29.394246,35.945532,40.15691,32.032162,46.256863,51.689047,53.430841,44.583674,59.837693,63.755695,63.1611,51.907829,67.235763,70.297781,68.456568,-11.588287,316.679995,-70.211105,299.689184
17,21.808891,-8.378049,-0.278549,-0.498264,-19.286842,-33.019009,-44.211731,-60.640125,-41.493015,-15.244331,5.360298,18.787994,-40.957203,-9.724731,13.812447,28.398285,-35.842037,-10.863876,11.808472,26.414223,-27.733269,-21.534119,-10.893745,-0.958443,10.456691,25.34663,41.32671,53.930957,25.40801,37.034069,41.175236,44.814188,26.762011,36.103181,40.477827,40.669933,24.758148,31.310176,35.348715,37.323616,22.22138,30.214909,31.060395,30.104561,25.455093,50.335751,73.324242,93.873711,48.769398,81.715164,99.654121,112.962799,39.313602,76.161461,97.603226,111.727066,30.586967,64.767151,84.301643,97.24411,23.076611,48.169556,63.791199,76.425476,-13.87433,-14.733648,-8.839386,-5.223714,14.970832,30.09888,36.463742,40.406691,32.607367,47.037388,52.205836,53.617636,45.05378,60.757465,64.570306,63.785335,52.277281,68.119041,71.048048,68.86233,10.155487,308.304848,-70.554771,299.193822
18,-1.96106,9.40891,-0.06403,0.023527,5.142288,1.309891,-7.062836,-16.145439,-23.299313,0.033875,17.987823,26.683273,-34.512234,-7.372055,11.722183,27.278137,-41.120338,-20.381985,-1.853256,10.24086,-44.611187,-50.736351,-53.756447,-55.657883,-21.406645,-32.218463,-36.389703,-37.266868,-4.022175,14.6141,17.368909,16.571773,17.860627,33.09112,33.564128,30.960545,31.715938,42.115819,41.208952,39.665933,41.413964,50.796939,53.952817,55.901907,25.525703,50.575161,73.680439,93.903751,49.608994,82.155361,99.842777,112.992153,40.091686,76.598339,97.610607,111.496067,30.957355,64.750957,84.145031,97.136364,22.803097,47.829266,63.580227,76.473942,-13.953185,-15.08365,-9.243851,-5.66134,14.810713,29.929437,36.418046,40.430773,32.185364,46.432914,51.814709,53.49327,44.541807,60.099268,64.183625,63.615583,51.883375,67.783612,70.832354,68.806632,8.116293,317.716599,-70.696936,299.220189
19,-21.290531,10.38574,0.100079,-0.102012,3.74754,8.322086,20.907841,32.325497,-7.114048,21.504879,43.988514,56.962337,-15.139217,15.517101,37.661076,54.146633,-19.409523,5.183086,26.332798,41.831989,-19.4981,-19.532661,-17.586708,-16.029167,-22.062866,-32.243101,-32.697399,-29.687313,-10.679116,4.636653,14.531354,21.855694,7.222822,21.650806,28.11416,31.156109,20.410734,31.110846,35.436277,36.683141,29.932586,39.253625,44.368103,46.79403,25.511684,50.720787,73.992004,94.37851,49.631939,82.064781,99.74041,112.886238,40.01112,76.400528,97.468414,111.273994,30.876846,64.647675,83.805313,96.360741,22.789135,47.682209,63.153419,75.576668,-13.796092,-14.857828,-9.032665,-5.724387,14.64553,29.566962,36.077369,40.07645,32.43039,46.695847,52.176505,53.932995,44.98252,60.463966,64.272422,63.456267,52.381084,68.074272,70.969995,68.810707,-13.19541,328.106708,-70.618029,299.122546
20,4.244556,-14.347461,0.252628,-0.080955,7.610664,9.634094,7.127151,1.026649,-8.551884,21.54911,38.64418,44.646606,-18.045502,16.572762,34.095154,47.407608,-25.166302,4.773445,22.682648,32.279091,-28.608284,-29.141064,-32.027149,-34.861851,-21.929856,-31.299555,-34.638153,-36.652698,-0.163083,17.782698,19.364991,17.535758,21.613138,39.026631,38.314031,33.901655,34.722257,47.35812,45.603297,43.155016,43.421099,54.437187,58.133876,59.714254,24.93187,50.0247,73.600788,94.074497,50.236073,82.563457,100.216656,113.292103,40.997086,76.996136,97.656612,111.40234,31.774406,65.084667,84.024525,96.6572,23.29319,47.691021,62.940502,75.464802,-13.717792,-14.807317,-9.196057,-5.963608,15.487312,29.771541,36.116025,40.029087,32.509801,46.081677,51.467363,53.183654,44.560456,59.611563,63.632873,63.015554,51.685836,67.446146,70.689402,68.971937,-8.972797,313.764835,-70.387344,299.04718
21,-1.483612,4.615041,0.269737,-0.018834,3.962746,10.863762,21.180267,24.614182,-10.960293,16.224632,36.582413,49.560814,-19.524479,11.997299,36.004944,52.138939,-22.680244,1.003418,23.537292,39.860458,-21.9734,-14.949245,-2.434616,10.628471,-19.725922,-28.245688,-27.653378,-24.327686,-4.590526,7.800065,15.61353,22.268866,15.16022,24.767967,31.09794,31.397923,29.285195,35.127957,39.418252,39.968572,40.526301,48.091283,48.102089,46.393887,25.305119,50.248547,73.74155,94.113636,50.611782,82.6478,100.001507,112.758007,41.247883,77.184277,97.659473,110.980968,32.013817,65.497112,83.961124,95.918713,23.633366,48.199081,63.352718,75.438595,-13.502839,-14.932052,-9.395263,-6.241299,14.986516,29.472978,36.022473,40.149377,32.47201,45.981456,51.484715,53.277638,44.966712,59.835346,63.758782,63.092619,52.569175,68.009001,70.918557,68.823428,-10.506105,318.441796,-70.167303,299.090266
22,1.957626,2.558567,0.470181,0.099974,4.413185,12.94178,26.385727,35.478058,-8.714504,18.341103,38.233452,50.370598,-16.867676,12.66861,36.081848,53.861504,-20.110016,0.257378,20.595818,37.12429,-18.805618,-22.315006,-24.199677,-25.108166,-18.083361,-23.923221,-21.016444,-18.563038,-6.066731,8.128515,16.79321,24.210361,11.035107,22.724337,29.085864,32.129048,24.332441,33.959207,39.149823,42.21604,35.501423,43.278517,49.109547,55.082108,25.613937,50.297871,73.689079,94.146538,50.673809,82.929955,100.264664,112.901459,41.074963,77.173119,97.476768,110.563545,31.620426,65.226059,83.684464,95.638504,23.062992,47.744694,62.915154,75.115471,-13.6214,-15.074819,-9.255522,-6.154108,14.095334,29.132239,36.037046,40.500551,31.659807,45.787622,51.685404,53.841419,44.230338,59.523754,63.721485,63.403285,51.866456,67.612379,70.806295,69.069935,-8.609447,321.042754,-69.758091,299.232632
23,0.88726,2.921597,-0.236549,-0.049339,4.82769,10.706062,19.373016,23.850517,-10.839672,19.319801,40.209274,51.944275,-19.359913,13.368301,36.453896,54.163628,-22.863064,1.480865,21.453781,37.887497,-22.008533,-19.614487,-17.454414,-14.036579,-18.408292,-24.104891,-22.017727,-19.134847,-6.187577,7.148845,14.782184,21.5885,11.010654,21.476546,26.640116,29.032018,23.789778,31.909711,35.162105,37.234757,34.465684,42.051845,45.122693,48.548112,25.293217,50.333633,73.708878,94.152145,50.681534,82.75898,100.026512,112.860718,41.145229,77.149773,97.490845,110.707512,31.808052,65.323677,83.801994,95.807762,23.35104,47.963619,63.030968,75.113068,-13.77275,-15.219871,-9.487395,-6.179364,14.232482,29.165955,36.051311,40.569588,32.056615,45.979789,51.900233,54.138562,44.686859,59.77267,63.830475,63.440521,52.267463,67.854625,70.884348,68.923834,-7.83165,324.045476,-70.104103,299.264418
24,-3.75927,-11.169723,0.701237,-0.670424,9.716377,13.610115,12.602463,7.052536,-5.535851,23.986244,40.890999,47.815132,-15.231056,16.890678,34.371529,48.392715,-22.944145,3.864784,20.531273,30.01545,-27.044621,-28.686275,-32.262611,-35.424042,-21.969994,-31.640602,-34.870458,-36.64782,-1.652626,17.361437,20.520094,19.552897,20.196213,37.738888,38.439755,35.143703,33.786614,47.343547,46.747347,45.421689,43.092525,54.473435,58.877227,61.299819,25.25362,49.95369,73.232746,93.645229,50.577335,82.604313,99.982395,112.853336,41.094761,76.884785,97.223797,110.466785,31.807594,64.923306,83.409863,95.546436,23.406258,47.827492,62.878132,75.014935,-13.744839,-14.721422,-8.479073,-5.200496,15.19443,29.732268,36.513389,40.960222,32.789284,46.485031,52.200711,54.216306,45.21606,60.364794,64.441186,64.013379,52.608634,68.378207,71.463134,69.602718,-11.670742,312.946333,-69.482689,298.664574
25,3.950386,-5.409521,-1.006393,0.722603,-6.205673,-5.52,-3.722191,-9.031792,-13.49762,15.608826,34.434929,46.204262,-20.088158,11.840172,34.235573,49.062996,-22.343102,0.822487,22.346077,36.966362,-21.029663,-17.641296,-7.793369,3.484383,-8.78943,-5.255701,6.344361,17.962763,11.010778,23.094345,29.356578,34.647045,26.633014,35.173158,41.095578,42.373256,36.763849,43.773756,47.30273,48.253748,45.105527,55.657005,57.021565,55.699613,26.079254,50.382214,73.332882,93.753147,50.527325,82.746563,100.22295,113.152256,41.292572,77.252254,97.486095,111.132374,32.207966,65.327282,83.928852,96.516323,23.729839,48.472939,63.738041,76.356525,-14.17913,-15.442605,-9.578539,-6.164111,14.779529,29.168548,35.616464,39.793756,32.050069,45.572175,51.321447,53.565457,44.260905,59.122994,63.393467,63.441138,51.646254,66.716071,70.066093,68.754823,-7.782183,307.556232,-70.550909,299.406598
26,-9.894905,4.541496,0.0844,-0.609847,9.996414,15.476875,17.152061,13.120308,-0.894413,29.867477,47.631798,55.271187,-11.162796,24.272919,42.476578,57.044334,-18.78891,9.270401,26.154327,35.921402,-23.190823,-24.759464,-28.248024,-31.399097,-22.845429,-30.904537,-33.271245,-33.7847,-0.806522,18.769964,22.308571,21.842664,20.582524,39.357304,39.752445,36.133562,34.363549,49.005065,47.749,46.279649,43.347678,55.645458,60.192202,63.128496,26.067696,50.411224,73.744469,94.382515,50.801926,82.839317,100.701714,114.032021,41.609631,77.367668,97.891045,111.675911,32.352104,65.739899,84.420204,97.012367,23.645725,48.624573,63.867073,76.384392,-13.53038,-14.703452,-9.043348,-5.842762,15.075252,29.473719,35.887981,40.062741,32.177399,45.366916,50.988303,53.110665,44.430348,59.292807,63.530676,63.452439,51.917215,67.485173,70.912382,69.565297,-17.787752,312.125331,-70.577173,298.824354
27,3.252125,0.498696,-0.007496,-0.035815,7.04813,11.902485,14.035664,11.070843,-4.162273,26.351223,43.317318,50.418606,-13.208256,20.725765,37.596874,50.680332,-19.711647,6.253223,21.453381,29.225292,-23.198948,-25.92453,-30.201817,-34.594288,-23.229702,-31.093864,-33.328179,-32.670537,-1.277431,18.07169,21.976848,21.311426,20.214368,38.15064,39.103448,35.648142,34.387569,48.041574,46.604456,44.825303,43.700952,54.928782,58.713774,61.115618,25.656452,50.0877,73.477421,94.064655,50.672264,82.8792,100.562496,113.625813,41.56889,77.672939,98.238087,112.0368,32.354279,65.894108,84.566517,97.20377,23.648071,48.627834,63.936596,76.624088,-13.61504,-14.903462,-9.119177,-6.034497,15.026531,29.257654,35.54082,39.643826,32.21871,45.147023,50.70561,52.865022,44.451652,58.97294,63.102252,62.94732,51.917029,67.184325,70.490133,69.035108,-14.714928,312.654964,-70.763969,298.819475
28,7.118969,-7.983464,-0.064716,-0.104605,-7.888641,-10.349293,-12.276421,-20.193443,-17.027493,12.463188,31.610527,43.74218,-20.47657,13.255806,35.593071,48.688087,-19.670219,7.004356,29.593391,42.811661,-15.952778,-7.816887,3.553391,13.394737,-6.830028,-0.363339,14.858199,29.676507,15.422412,25.39004,30.616534,34.655257,30.996546,36.666221,41.623977,42.379061,40.245337,45.000798,46.483549,46.518685,46.558514,54.773295,54.901859,52.419554,25.557461,50.005589,73.437996,94.077415,50.723763,82.652092,100.313301,113.285408,41.667538,77.503281,98.057098,111.808205,32.429295,65.870132,84.447098,96.822739,23.711414,48.484898,63.59539,75.960159,-13.621956,-15.046908,-9.488074,-6.685964,14.766191,29.255987,35.576265,39.615236,32.017403,45.309735,50.808795,52.807903,44.438252,59.324053,63.36994,63.062855,52.166254,67.642636,71.015814,69.461248,-7.713432,304.753026,-70.946159,298.796396
29,-2.425919,9.909768,0.553379,0.05891,7.738609,11.384583,12.147217,8.452721,-5.504265,22.977104,39.414368,46.302452,-15.492725,17.112923,33.770828,47.120132,-22.947063,3.100548,19.723778,29.566727,-27.620258,-28.235321,-31.007824,-32.813873,-22.657338,-31.430651,-34.455371,-34.528113,-3.764923,16.1473,19.222347,19.19845,17.816414,36.37408,36.600519,34.23344,32.456325,45.767862,43.845818,42.630323,42.591359,53.567927,56.798832,59.178878,25.341625,49.829121,73.239956,93.890362,50.710144,83.086567,100.89426,114.006672,41.477165,77.633915,98.252048,112.064266,32.056103,65.716724,84.464436,97.159481,23.159065,48.013973,63.322392,76.109562,-13.885506,-15.268654,-9.644056,-6.473049,14.856161,29.229743,35.409106,39.226702,32.093171,45.34376,50.626261,52.358051,44.340439,59.430264,63.322269,62.760834,51.826318,67.675735,71.079417,69.505337,-10.288668,314.714386,-70.542097,298.906898
30,-0.203362,-0.021674,0.421429,-0.489743,2.638893,10.870628,23.755646,28.464088,-10.020618,16.683197,37.801781,51.162758,-19.148426,11.07502,34.939728,50.869675,-22.840633,-0.839081,21.424255,37.514076,-22.272549,-16.733608,-5.05846,7.865524,-19.292002,-25.842115,-22.853025,-18.261696,1.179433,14.378213,20.703616,26.046509,20.908628,30.584176,35.200205,34.810251,34.593137,40.635106,43.541698,43.286668,45.093918,52.678721,52.555837,50.424522,25.069656,49.609566,72.932281,93.417435,50.460949,82.980309,100.914803,114.033051,40.968018,77.310677,98.108711,111.742058,31.443615,65.271149,84.258728,96.864738,22.612724,47.515125,62.993431,75.696602,-13.839996,-14.968917,-9.270219,-6.194246,14.94292,29.612966,35.901628,39.803204,32.230442,46.05389,51.458347,53.162226,44.500496,60.074321,64.185107,63.775455,51.873187,68.058402,71.653202,70.131363,-10.670843,314.728851,-70.299482,298.453295
31,-1.041183,-6.33658,0.071869,-0.599288,-0.138931,7.391968,18.298302,20.364304,-13.271656,17.941704,39.362411,53.71891,-19.704838,14.523239,40.246582,59.48616,-20.964546,4.260178,27.268524,45.529633,-17.327328,-15.013733,-10.593681,-2.726955,-10.607054,-9.51049,-0.812327,7.871263,5.542099,22.569467,31.503702,38.230668,21.099622,33.792975,41.652444,44.193905,31.993506,42.644526,50.407479,53.81993,40.912365,53.936824,60.507006,65.725533,25.054779,49.783688,73.812218,94.59137,50.211926,82.27272,100.272331,113.71788,41.394711,77.109947,97.808418,111.695366,32.46603,65.891075,84.65538,97.149696,23.93177,48.835545,64.000511,76.511421,-13.305855,-14.364319,-8.828148,-5.956321,14.644295,28.954583,35.777633,40.144128,31.921011,45.928598,51.920055,54.036365,44.470053,60.120572,64.689299,64.50411,52.359533,68.986387,72.523883,70.936527,-11.809015,308.41021,-70.324602,297.871946
32,23.159065,2.586231,1.198311,-1.113483,2.196465,-0.102539,-7.136993,-16.137543,-27.124844,-7.896652,11.537933,23.339996,-37.499142,-14.511223,6.946678,25.184441,-42.910194,-26.448269,-5.40184,9.610405,-45.368385,-52.340412,-53.243694,-52.52449,-18.225511,-24.757346,-23.799473,-20.378686,1.057661,22.300359,28.467866,30.464442,21.392442,37.41229,42.464585,43.85928,34.383556,45.792871,47.422464,48.833276,44.100662,54.600641,59.343072,63.40557,24.674034,49.35894,73.041115,92.913666,50.269318,81.326294,98.946991,112.258644,41.395912,75.948372,96.720657,110.946579,31.84227,63.984604,82.636986,95.251007,22.468472,46.22921,60.91301,73.280983,-12.953631,-14.273484,-8.916265,-6.487745,14.224269,29.5556,37.540051,42.854415,30.929299,46.830277,54.932549,58.684813,43.019227,59.85171,65.815442,66.997838,50.795333,67.851847,72.55587,72.416561,11.317949,311.010767,-69.158392,296.772789
33,-24.366875,-0.512281,-0.028839,-2.388197,7.053566,14.92218,25.960579,30.828094,-8.617344,18.903351,40.248528,53.877869,-19.50119,12.015953,37.290916,55.181808,-24.223652,-2.596321,19.152489,35.137939,-23.564415,-23.404083,-20.698872,-17.680664,-18.157091,-19.912779,-13.855002,-8.218301,-0.399896,23.153749,35.566076,43.454506,16.62352,36.579215,46.562775,51.018931,28.877951,44.801529,52.682364,57.416089,39.413559,52.725281,59.939766,66.943066,26.688938,51.963444,75.033417,94.168282,49.589882,78.505096,94.808807,107.432442,40.086136,72.767715,92.521248,106.585121,30.284843,60.941734,79.815331,93.306541,20.855713,44.379787,58.599815,69.993668,-13.738726,-14.31424,-8.766274,-6.987244,10.032713,27.677399,37.667998,45.303622,27.234957,47.442595,58.820602,66.058491,40.299616,59.969777,69.083582,73.81564,49.281028,66.636846,72.921123,75.045337,-13.180504,310.508273,-69.31881,294.394379
34,17.407951,2.927834,-0.169258,-8.426955,-12.085304,-21.942387,-27.7145,-35.891705,-35.373344,-24.367161,-7.819176,4.905167,-33.546696,-18.206635,-1.112366,10.258369,-27.846508,-13.573608,4.063225,14.551735,-18.215675,-9.877052,2.341003,10.846939,22.432813,35.428681,42.836693,49.186488,13.937809,26.798876,36.526171,41.435453,4.855188,22.33321,32.843686,34.998343,-4.011122,12.52922,19.975826,21.366445,-12.324271,-0.84913,5.194568,8.721381,28.031158,55.79092,77.717285,95.319328,52.881145,79.422455,93.369713,103.829842,41.546917,69.652634,86.375427,99.15081,29.418697,55.139523,70.960007,82.89608,17.209053,38.336678,50.672836,60.921135,-13.705072,-12.352491,-4.219714,-2.286247,3.942826,24.539243,37.105514,46.80249,19.195054,42.060182,55.655214,64.465639,32.158441,53.977764,66.046326,73.204619,42.530411,61.149642,69.702136,74.043622,3.938484,313.45826,-69.777031,285.989577
35,61.227608,-31.705687,2.110977,-17.614861,-35.846214,-63.27713,-84.340782,-97.18998,-58.354797,-81.671562,-91.928902,-95.448418,-46.548615,-73.221703,-84.285164,-87.686062,-36.078758,-59.709778,-70.087509,-74.556656,-27.577286,-42.984009,-51.8153,-56.988029,-3.723118,-0.917241,1.783846,4.098931,36.495173,64.531589,66.928184,63.684435,47.659153,79.339152,80.490057,76.221683,54.476769,82.794397,83.609502,79.080356,57.323031,80.735206,86.334116,86.552218,29.427624,55.080986,71.690941,83.157005,48.402557,71.804695,81.130371,84.306679,37.417374,65.130157,73.914986,74.102211,26.979561,53.84182,61.61602,61.136971,18.156738,40.111084,47.518101,47.508488,-5.817877,4.04669,20.785744,33.682194,7.364848,33.654407,49.651592,59.713081,21.091965,49.800781,67.06175,77.906852,34.506377,60.081916,71.983876,78.709113,45.848446,63.970278,72.048466,77.156893,64.987335,281.779465,-67.84481,268.401608
36,-2.603531,-19.835653,-13.605137,-33.842962,-29.949989,-50.352058,-62.565079,-66.68232,-50.555763,-70.87944,-74.936829,-74.228325,-35.549812,-54.957047,-56.233292,-53.106537,-20.241165,-37.659187,-40.3759,-38.532143,-5.838661,-19.266243,-24.698067,-27.303658,3.348293,17.199589,31.709145,46.026102,28.555367,63.667886,79.083814,82.76877,37.215738,77.802185,86.907962,82.998173,44.629246,80.503518,87.961856,84.617022,49.82437,79.440855,87.436484,86.822253,25.519409,48.406505,64.228248,73.903913,52.718696,75.140819,79.686928,78.088646,44.631386,68.925762,73.920364,71.642103,34.886913,57.998171,63.382273,62.13129,24.684906,42.406225,49.229221,50.981712,4.017822,10.794096,17.328339,20.510461,-0.807788,8.896351,18.377849,24.778094,-0.795469,9.353582,19.138521,25.791665,0.897048,9.140697,15.507474,19.904782,3.024504,5.943168,7.327088,8.686338,62.448664,261.703063,-81.385088,234.317897
37,34.245872,-55.807552,-13.605137,-33.842962,-30.428238,-54.817772,-66.618347,-72.376785,-59.729347,-78.418808,-82.854195,-83.772583,-44.565926,-61.732292,-63.470306,-62.171516,-28.951149,-45.879936,-48.839607,-48.49823,-14.076462,-28.951836,-32.338715,-32.641983,-3.07585,11.55449,32.640836,50.295217,12.141057,46.488242,66.472775,77.933157,22.814801,66.58621,81.434159,83.22597,33.622729,72.629661,84.192302,84.268255,43.007865,72.802562,82.375544,83.191822,21.611195,41.732025,56.765556,64.650822,57.034836,78.476944,78.243484,71.870613,51.845398,72.721367,73.925743,69.181995,42.794266,62.154522,65.148525,63.12561,31.213074,44.701366,50.940342,54.454937,13.85352,17.541501,13.870933,7.338728,-8.980424,-15.861705,-12.895894,-10.156893,-22.682902,-31.093617,-28.784708,-26.323521,-32.712281,-41.800521,-40.968928,-38.899549,-39.799437,-52.083941,-57.394291,-59.784217,96.398106,206.027085,-95.286655,200.60651
38,14.261971,-47.465072,-7.23587,-44.261646,-27.036209,-51.397476,-66.947136,-74.754524,-54.720039,-76.304741,-76.067734,-71.004181,-40.260544,-59.680595,-55.759163,-51.6465,-25.419388,-45.476418,-43.755798,-41.552353,-11.936531,-28.485374,-30.698204,-30.358086,-9.512157,-6.156454,6.150218,21.430851,-5.856162,24.473788,36.499989,40.66629,0.410208,38.801674,47.263889,46.99651,9.663445,44.906567,50.162947,46.333187,20.214677,47.742949,54.652634,54.388837,30.128288,53.30555,65.376034,64.141788,40.083275,45.955524,50.155048,50.142689,25.692616,39.104176,48.243771,49.630222,13.215523,30.663986,39.011078,37.966862,3.140831,17.760487,25.855865,26.327934,-7.223254,-20.550043,-28.920991,-33.385916,-55.075625,-82.237593,-94.560536,-104.268782,-55.991785,-75.773776,-74.542967,-73.534768,-50.941743,-59.379073,-48.129166,-40.52519,-42.220517,-46.217435,-38.235917,-32.145968,109.529772,159.440475,-103.65283,157.223326
39,2.372246,-35.956339,-5.238304,-55.235003,-29.387169,-47.154465,-52.619705,-48.440666,-40.059013,-46.165009,-50.473366,-53.511543,-25.301857,-39.835396,-40.736618,-37.594185,-13.412247,-27.25296,-28.834648,-26.793938,-3.60466,-15.072784,-17.612915,-16.472054,-4.3208,-17.538012,-26.715359,-30.037129,-52.323069,-72.444997,-84.405218,-94.567823,-52.771964,-47.679654,-34.118214,-27.506258,-45.515333,-36.471183,-23.853042,-17.546102,-34.158908,-27.06678,-17.069172,-12.127843,32.908688,53.960495,58.085747,49.830093,29.881039,34.061508,38.517494,40.428257,13.094616,27.758789,36.04414,37.689915,1.475143,18.524494,26.219673,27.18195,-5.516968,7.760124,16.348,18.437004,-9.173857,-29.95744,-48.731326,-61.228034,-62.983321,-98.179944,-114.466924,-123.762399,-63.264717,-76.133812,-67.416722,-58.73727,-57.642528,-64.989962,-55.882332,-45.522095,-50.051302,-56.598729,-51.146508,-43.069492,111.941128,128.102696,-108.852024,106.606884
40,-11.201477,-60.685063,12.472401,-46.967178,-26.026497,-39.131355,-36.256599,-26.624565,-20.964432,-22.619705,-24.408989,-25.054207,-3.414574,-15.731392,-19.910774,-20.379868,10.796928,-2.603188,-7.715492,-9.484177,23.004112,9.376259,3.001671,0.502167,-9.203004,-31.209276,-47.431665,-54.656185,-63.083573,-89.001857,-103.042326,-114.665729,-62.263712,-59.100671,-40.465848,-30.192401,-54.236313,-47.611822,-31.746134,-22.018128,-43.515515,-38.070395,-26.866307,-19.012674,21.207733,36.602554,38.799534,30.6637,13.774281,14.670982,16.754093,18.974934,-3.156452,6.194,12.702312,13.391132,-16.761875,-5.140572,1.543407,2.49567,-28.005695,-17.638206,-9.547348,-7.809391,-14.231123,-37.749571,-54.904576,-65.168266,-70.427117,-102.018381,-119.948662,-133.041942,-67.384056,-67.80081,-48.50359,-37.388609,-57.910092,-54.335947,-38.787626,-29.541521,-45.949809,-46.673215,-35.471814,-27.494093,102.700539,69.767977,-94.418736,61.99005
41,-0.083199,-48.509796,-0.541878,-39.396794,-21.460075,-35.269661,-32.514267,-22.953529,-20.077858,-18.112335,-17.709389,-16.639481,-3.645172,-10.175858,-14.329147,-13.531036,10.282631,2.545624,-1.850739,-1.010284,23.617172,16.250496,9.875221,9.306221,-10.27601,-34.728185,-54.595639,-67.370595,-66.685474,-101.328783,-119.017219,-134.002192,-63.716082,-69.909247,-46.819872,-35.179426,-56.644178,-59.110582,-38.068851,-27.601601,-47.900968,-52.644912,-37.612022,-28.435077,21.495152,34.51807,33.527241,23.994312,13.149776,13.961391,16.067848,17.163162,-4.628448,7.886581,15.030441,16.296844,-18.653641,-2.917213,4.832096,7.105751,-30.477104,-16.545582,-7.333889,-3.962288,-14.154399,-40.161634,-58.527843,-67.474922,-70.620087,-101.422613,-121.168357,-137.81599,-67.666657,-66.337819,-45.688173,-31.722329,-59.837539,-55.546163,-39.159116,-27.073573,-49.553471,-48.736513,-36.861445,-27.061037,105.082827,23.853289,-92.495127,25.188364
42,-3.091278,-36.328539,-5.479317,-12.78922,-19.810867,-34.650307,-34.102364,-25.587387,-19.53701,-19.499016,-19.70295,-19.331589,-4.528656,-15.440025,-18.311806,-15.137329,9.431763,-2.598267,-6.174774,-4.201355,23.004341,10.770264,5.63942,7.154846,-11.208688,-33.641655,-52.792496,-64.929292,-62.589415,-94.382602,-114.893496,-132.173237,-60.422871,-69.623373,-48.440636,-34.781043,-54.86626,-61.277157,-41.645404,-29.249596,-47.504561,-54.45281,-40.268092,-30.222875,27.482872,42.049484,44.594765,39.983425,17.249908,20.504436,23.690357,27.553139,1.192474,14.548244,26.799431,31.51823,-11.990147,3.398952,14.626236,19.201927,-22.813053,-9.195957,1.975021,6.491604,-28.512635,-56.208405,-75.243556,-88.69576,-82.204279,-102.765036,-120.008807,-134.493509,-79.274716,-90.26669,-72.303835,-54.864068,-71.297952,-78.485731,-62.091676,-46.603684,-60.040697,-70.69323,-59.098263,-44.818974,101.772022,-5.81076,-98.19397,19.063634
43,-3.396721,-11.394217,16.125755,-36.518298,-25.075035,-38.686638,-40.237999,-39.352684,-22.687454,-24.501915,-24.757004,-23.408318,-7.696609,-18.536453,-23.174858,-21.195946,6.609421,-5.751915,-9.710655,-8.065453,20.875626,8.178749,2.347069,2.782059,-18.629513,-40.68148,-60.316537,-77.217408,-68.092426,-93.766025,-111.336116,-126.036095,-68.280765,-85.798029,-69.153854,-54.654734,-64.425996,-75.136358,-57.619865,-44.385548,-57.895365,-67.31434,-55.620109,-44.725391,20.33987,32.575893,32.920418,26.063519,6.913719,9.635868,11.157761,13.305073,-8.720398,6.924534,17.682438,21.231823,-21.605473,-3.117886,6.69096,9.228916,-32.103939,-15.712795,-5.049477,-1.360931,-15.636686,-42.38468,-61.032996,-73.630512,-70.071157,-93.507012,-110.362158,-125.026646,-67.392485,-74.218469,-54.533487,-39.803544,-59.308461,-61.572725,-43.838439,-31.039215,-47.735816,-51.396412,-39.744263,-29.619635,98.460245,-15.088759,-81.983271,-15.338447
44,-6.867142,-9.633466,3.893337,-7.88315,-26.243134,-39.149895,-41.830788,-45.162392,-23.04451,-25.993996,-28.428268,-28.333054,-7.847099,-19.756737,-25.438614,-23.604012,6.309586,-7.952843,-13.166199,-11.178474,20.227432,4.717484,-1.552048,-0.13092,-19.936028,-41.921027,-60.900201,-78.402429,-69.140825,-91.33488,-103.466906,-113.41817,-68.957951,-87.563968,-71.24284,-58.473225,-64.872482,-76.281889,-58.691636,-47.098768,-58.031524,-67.02541,-54.84298,-45.351726,19.942932,31.656818,32.746525,26.537933,6.293392,8.12336,9.633293,12.036438,-9.346733,5.255699,16.307259,21.208248,-21.912632,-3.702393,6.187592,10.139694,-31.910534,-15.807953,-4.707355,0.347328,-15.641101,-40.524881,-58.118623,-71.403545,-69.721618,-93.944576,-110.837497,-125.745467,-67.405731,-75.370021,-57.511061,-41.855232,-59.078564,-61.29985,-44.490801,-30.560896,-47.194358,-52.543179,-41.453175,-29.830327,92.034559,-23.083477,-77.648478,-21.58285
45,-10.676308,-3.709409,3.292236,1.128859,-20.841751,-33.876114,-36.489944,-39.050102,-19.571915,-20.07843,-21.917496,-22.781982,-4.397392,-15.791702,-22.353859,-22.189522,9.91745,-4.579468,-9.51004,-8.403053,24.09668,8.71685,3.194618,5.2034,-14.214513,-35.909501,-53.817244,-69.91922,-65.958826,-91.286035,-106.914324,-119.648308,-65.507616,-83.074898,-65.603452,-52.601687,-61.371697,-70.069273,-50.781007,-38.523859,-54.621296,-61.559109,-48.305371,-38.232181,19.518414,30.963249,31.226234,23.198776,7.088413,8.565903,8.778706,8.773441,-9.858341,3.153019,12.81395,17.217293,-23.186417,-5.69561,3.540573,7.605972,-34.383144,-18.603344,-7.001495,-1.106243,-13.010349,-39.063558,-58.508423,-69.930551,-67.515832,-95.869676,-114.928616,-130.797206,-64.627734,-70.190088,-50.719504,-35.333153,-56.198093,-56.32252,-39.198791,-25.671375,-44.447298,-46.221048,-34.608821,-24.595004,81.038704,-24.557954,-74.675789,-18.219058
46,-1.818352,6.278504,-4.746094,17.097423,-20.262337,-35.577164,-37.059631,-31.08181,-21.812439,-21.203957,-23.523674,-24.911957,-5.025101,-17.895927,-23.064308,-21.276054,10.589104,-4.310303,-8.903732,-6.929398,25.438614,9.424782,3.322678,5.324135,-6.492747,-30.344646,-49.419657,-63.314426,-62.66546,-95.525232,-115.217932,-130.680761,-61.104441,-72.233316,-52.01864,-38.631953,-55.001061,-62.051013,-41.026758,-27.076846,-46.138611,-51.869265,-36.409618,-25.68425,20.841122,31.486588,31.352348,22.83514,6.933117,7.990093,7.913303,8.007717,-10.601807,5.405731,15.652428,19.925194,-23.660202,-4.049492,4.524307,7.327538,-33.810425,-16.505871,-5.690746,-1.044331,-15.792205,-41.91794,-59.163193,-68.801475,-71.807208,-102.86467,-123.573659,-140.763491,-68.593222,-72.50474,-52.094932,-36.203433,-59.422668,-58.371429,-41.344988,-28.424888,-46.566109,-48.565032,-36.360402,-25.549079,78.529615,-17.196054,-80.112619,-0.038239
47,6.198692,25.935266,-12.819386,17.725734,-20.112877,-33.839264,-34.266129,-28.086662,-20.388565,-20.161743,-21.087799,-21.880188,-4.147453,-13.253746,-17.111092,-16.355896,10.75779,-0.469551,-3.694382,-2.345467,24.616928,13.457794,7.303619,7.222366,-9.274634,-30.472532,-47.24876,-57.26866,-65.170026,-100.340931,-121.064863,-138.245062,-62.138143,-72.120313,-48.960945,-34.263575,-54.936038,-61.186384,-40.811897,-28.099247,-45.740197,-51.890261,-37.762353,-28.437825,18.956909,28.78973,28.436737,21.123619,7.769108,6.71133,8.54845,8.170395,-9.723301,1.249065,11.149807,10.731812,-23.394527,-9.88678,0.060883,-1.041698,-34.407063,-21.139812,-10.741081,-10.702229,-15.160529,-38.086357,-54.197349,-59.880579,-63.403872,-93.658764,-113.867729,-131.790693,-58.288406,-67.840052,-46.083159,-33.528806,-47.473501,-56.120534,-38.901864,-29.716027,-33.943646,-43.667205,-30.562471,-21.339862,83.10173,8.555859,-94.558582,17.504142
48,24.173698,25.308437,-24.264965,24.596054,-22.824554,-36.921272,-38.527679,-32.165794,-23.286324,-25.298424,-25.873146,-25.930367,-7.284851,-17.370071,-20.52063,-18.672066,6.878586,-4.953575,-8.707352,-6.556892,19.702721,7.299271,2.043114,3.818321,-5.209975,-24.828173,-42.389033,-54.556088,-56.331011,-88.124136,-108.833063,-126.79243,-53.708625,-65.259595,-44.000596,-32.785856,-47.33731,-54.914919,-36.429933,-27.073141,-39.274621,-42.201436,-28.857944,-21.402137,19.970798,30.99884,27.688179,13.659325,6.523876,5.386848,7.693119,8.707981,-11.08017,-0.858936,8.741283,10.067825,-24.857483,-12.150192,-0.931435,0.971718,-36.429062,-24.726334,-13.728962,-12.027454,-16.238104,-40.641373,-57.740711,-63.792776,-66.024714,-97.023174,-117.698261,-135.46546,-59.762018,-68.812652,-49.271209,-36.960092,-47.991494,-54.585759,-40.033286,-30.326646,-33.875535,-41.859987,-31.802944,-23.761466,107.118359,31.409023,-118.980618,39.644922
49,34.579926,28.992096,-36.140156,16.342216,-22.041664,-38.990021,-41.852531,-33.246346,-25.976486,-27.757645,-27.910652,-27.957115,-12.183495,-19.277,-19.444542,-18.066444,0.4739,-7.163887,-8.606644,-7.135735,12.548218,4.972687,1.928329,3.075943,-5.417271,-22.873649,-39.914231,-49.965346,-57.112802,-87.63566,-104.003842,-118.056475,-54.304177,-67.252559,-52.104874,-42.30283,-47.061934,-51.72196,-35.639158,-26.261925,-37.550827,-39.499732,-26.578211,-18.410762,20.229778,26.76836,17.989368,5.638161,5.405617,-0.431442,-0.206852,-0.485344,-12.965641,-1.03569,7.897396,7.434998,-25.97826,-9.286995,-0.423317,-1.665459,-35.716496,-20.361786,-10.21534,-10.704975,-19.274681,-46.747841,-63.219794,-67.795777,-68.790206,-98.264419,-118.22598,-135.506216,-61.721142,-67.116739,-49.370782,-40.849843,-49.708433,-49.301344,-36.066038,-31.163827,-35.819994,-35.540079,-25.331223,-21.06606,140.816317,57.95236,-156.002741,53.538379
50,39.647942,28.122218,-46.336784,9.525217,-24.050331,-34.989738,-28.991432,-18.415031,-28.594551,-25.260658,-24.059944,-21.880074,-12.919922,-11.525688,-13.227997,-13.565826,-0.438766,1.512566,-1.919861,-2.046432,9.887238,10.535431,5.211182,2.372131,-14.978797,-39.490222,-62.460109,-74.561955,-59.674826,-87.506818,-100.455138,-109.126285,-57.567964,-69.021152,-52.483806,-44.196468,-51.569066,-57.050094,-40.167501,-33.189673,-43.610364,-44.523591,-33.128942,-29.1972,14.466076,15.997639,2.450638,-11.793709,0.265789,-6.945763,-9.609089,-12.429943,-14.852371,-22.210751,-11.368561,-2.975407,-27.068253,-30.591259,-17.96236,-9.476051,-36.119099,-38.07827,-26.331482,-18.650208,-19.587601,-44.580185,-60.382918,-64.718075,-70.746089,-100.212984,-118.395763,-134.952716,-63.230785,-65.958703,-47.277567,-38.912979,-52.218155,-50.541755,-36.018305,-30.869772,-39.337359,-39.262641,-27.428236,-23.457129,176.518278,83.580541,-206.285505,60.569559
51,38.20118,4.362543,-25.573425,-8.502877,-16.58741,-21.189651,-9.203224,6.386833,-6.041565,2.196922,7.887268,12.088852,8.800735,13.237038,5.190353,-1.955681,20.584488,23.308983,13.490524,6.507111,29.470024,31.300735,21.788063,14.548874,-16.503631,-38.171511,-50.996609,-53.791525,-71.038631,-102.241269,-119.713733,-134.558841,-65.655786,-69.778737,-52.406895,-44.960506,-56.629296,-55.465054,-41.021447,-35.210517,-45.889386,-43.685823,-33.56422,-30.15393,-2.676945,-11.482372,-19.057674,-28.736401,-5.460491,-11.148834,-22.428646,-33.285656,-5.279446,-11.75148,-27.371235,-43.450756,-5.243969,-12.879925,-30.96056,-49.34515,-5.577164,-14.493542,-29.171104,-48.544979,-35.157906,-62.243304,-81.805309,-95.046728,-57.699184,-68.019808,-81.982718,-96.015129,-40.44476,-44.541653,-53.765682,-62.201993,-22.95516,-26.321638,-35.437234,-42.820144,-8.615387,-12.671215,-18.275065,-24.410401,212.385206,87.002934,-234.193182,51.126531
52,44.285202,-22.295851,-57.497005,-31.780621,-8.399162,-7.176361,3.80928,17.230339,1.937485,11.551094,18.097,24.681816,15.00309,23.095436,11.605453,2.706642,26.100426,30.682297,18.370056,9.689026,34.830666,39.563484,29.113197,20.7938,-19.750993,-41.585908,-54.761686,-62.384527,-72.465868,-102.458352,-119.762608,-133.172204,-64.475859,-64.436586,-47.567732,-41.305839,-52.788112,-47.989641,-34.181014,-30.103388,-40.256761,-38.509718,-28.35159,-25.030777,5.182629,-2.46912,-17.447605,-30.346527,-11.538792,-21.229477,-27.584724,-32.469349,-24.300785,-35.32093,-26.792793,-18.898544,-34.391384,-42.032661,-30.873985,-22.499542,-41.855736,-49.427433,-38.748322,-29.82542,-29.575576,-55.495713,-71.074786,-74.904546,-81.593289,-116.087224,-136.433799,-153.848651,-70.329088,-79.472965,-63.864746,-56.099601,-56.437499,-60.694295,-49.124892,-43.658869,-41.882124,-49.646806,-42.027639,-37.382372,256.821041,63.687399,-291.539555,18.326226
53,23.258743,-4.436211,-26.112728,-31.51741,16.575737,25.514145,33.462868,42.046394,2.643127,8.383827,16.574364,24.351425,0.480194,8.703461,22.196846,31.956139,2.011642,15.101166,28.538818,36.40995,6.742859,17.779427,28.980446,35.836716,-35.40219,-60.19319,-77.253409,-93.770285,-73.461038,-100.295019,-119.671928,-136.804178,-63.526107,-83.020125,-89.470944,-92.143409,-49.181116,-63.787342,-67.344567,-67.69216,-31.375539,-40.152835,-46.576452,-50.797371,7.351627,0.887718,-14.693012,-27.749863,-10.489197,-18.511505,-23.259144,-27.542953,-24.862747,-36.098785,-25.314674,-16.190128,-35.656757,-43.285103,-30.821171,-21.936722,-43.224907,-51.465054,-40.31456,-31.691494,-26.06806,-50.14612,-66.939731,-74.335269,-83.237332,-118.835534,-139.452237,-156.308077,-73.883195,-83.87614,-67.003674,-58.48045,-61.158442,-65.306834,-51.790781,-45.37587,-46.829197,-53.421733,-44.25791,-38.94228,280.444822,59.091393,-317.287245,-13.350979
54,28.920708,-38.66184,-8.112946,-11.783059,-6.558037,-1.055832,12.966614,24.600105,8.465309,19.42646,27.887306,35.240593,23.513603,38.733101,28.058624,18.077888,35.551872,47.406693,34.55658,24.555244,45.122795,56.09024,46.311951,37.515106,-29.894362,-54.655321,-74.328847,-89.455722,-92.510206,-126.036111,-143.845578,-158.229287,-83.213126,-95.56608,-74.811581,-65.302172,-70.871071,-78.81097,-60.294924,-51.836414,-57.882798,-66.81796,-56.150545,-49.406474,3.740845,-4.698257,-17.543392,-30.20771,-8.496666,-16.86161,-22.143173,-27.740479,-22.547035,-37.287655,-30.057678,-22.232952,-34.171658,-45.456104,-35.288143,-26.431675,-43.011417,-53.6273,-44.576683,-35.164547,-33.666294,-59.928096,-81.851406,-99.855202,-89.899214,-120.710678,-142.676828,-163.520988,-82.712299,-100.968994,-80.317526,-68.421216,-73.37431,-85.240577,-68.875514,-59.938007,-61.363916,-70.577603,-60.375879,-52.09061,309.63541,20.37708,-325.13031,-25.186511
55,11.776886,-12.597362,-3.843727,-13.330278,-6.30249,1.318474,16.477203,29.054146,3.639336,12.654991,21.243553,30.444603,18.661079,36.732101,29.544754,19.371872,30.406837,48.277016,38.719597,28.386612,39.410591,54.508667,48.303337,38.75267,-33.151882,-59.95894,-81.80358,-100.686455,-94.731986,-125.41626,-145.259523,-162.71073,-88.244488,-108.744915,-89.460045,-77.500626,-78.418732,-92.774189,-76.239899,-66.723018,-67.020779,-78.862501,-71.199707,-64.582903,3.618851,-4.865284,-16.696529,-25.592022,-7.159309,-14.043388,-18.312321,-23.600922,-21.283607,-39.863091,-31.601772,-21.521645,-32.475758,-48.423042,-37.524719,-26.752911,-41.294346,-55.133114,-46.685257,-36.074524,-34.683817,-61.499427,-84.574074,-103.309458,-92.066916,-122.812183,-146.156556,-169.967824,-85.768976,-108.01308,-87.245428,-75.126601,-77.181747,-90.465465,-73.606769,-64.646352,-65.696449,-76.319989,-65.798213,-55.918888,321.615801,7.77995,-328.770533,-38.516557
56,6.004601,-15.907246,-1.483212,-13.627359,-5.788307,1.629868,16.615448,30.764236,3.316498,11.27655,18.993073,27.178574,18.991127,35.932388,29.468307,20.339699,31.381645,46.872826,36.985703,27.751579,41.245308,53.838272,45.870323,36.096497,-34.357373,-60.22104,-81.275645,-99.266041,-92.399457,-122.671917,-143.959307,-161.721226,-87.029641,-106.060099,-86.296942,-73.868313,-77.817406,-90.354747,-71.904557,-62.531524,-66.541812,-78.124614,-68.28447,-61.22575,4.492378,-2.595806,-13.85788,-24.048557,-5.767879,-11.885376,-14.771748,-18.298016,-19.559441,-36.375675,-27.388115,-18.207951,-31.252213,-45.434074,-33.128414,-23.472862,-41.686707,-54.143486,-44.147873,-34.138927,-31.925611,-57.756982,-80.873835,-98.493111,-89.153948,-121.885927,-143.933124,-163.841272,-82.032644,-100.252149,-80.077903,-68.139264,-72.422674,-83.539539,-66.815212,-57.318955,-60.117855,-71.272017,-60.544581,-50.699929,327.623291,-8.092592,-330.250854,-52.109212
57,2.884483,-11.471343,1.532822,-4.445443,-6.638145,-0.971375,13.572006,26.741867,4.025688,13.038368,20.029907,27.376328,19.087486,35.977478,26.823235,16.339417,31.398354,46.529617,34.301147,23.491974,41.517105,55.065193,45.961075,35.892906,-30.393707,-55.779425,-76.19899,-92.871601,-87.233819,-118.210188,-137.083568,-152.243479,-79.255481,-95.69977,-72.62469,-58.673204,-69.079136,-80.811931,-61.153502,-50.997288,-56.619416,-69.310577,-59.317662,-51.050856,5.249462,-1.175423,-14.790516,-27.020416,-6.745033,-10.898724,-13.484116,-17.174721,-20.658875,-35.140171,-25.108852,-15.723038,-31.810055,-43.522797,-30.545998,-21.296539,-40.998917,-50.757523,-39.866352,-31.570415,-30.364623,-54.49903,-76.640845,-93.579523,-84.31128,-120.019691,-141.316636,-158.494968,-75.268642,-89.880457,-69.29659,-58.587556,-63.71812,-71.834409,-53.649962,-44.744997,-50.33415,-61.218617,-49.120106,-40.84799,330.538931,-19.410547,-328.686876,-56.401267
58,-3.768311,2.140763,2.972946,10.565434,-5.134277,1.475029,16.23848,29.325943,8.366318,17.163849,24.094391,29.560432,21.94828,39.353485,29.303055,17.984848,32.821426,47.217751,34.037476,23.975716,41.83239,54.789619,44.471169,35.684967,-28.621192,-55.56546,-75.663274,-91.74129,-85.044119,-114.703644,-132.32451,-147.244969,-74.65597,-88.969191,-67.551091,-56.467726,-61.931927,-71.349328,-52.968639,-45.050167,-48.540548,-59.915962,-48.894347,-41.633178,7.617073,3.426418,-8.920956,-21.334877,-7.559967,-13.058968,-16.862583,-19.22596,-21.076069,-37.190266,-26.517448,-16.091881,-31.720448,-43.55999,-29.124241,-19.356651,-39.78487,-48.50069,-37.357235,-29.181747,-25.667979,-53.076887,-74.034051,-87.97802,-81.416868,-116.027141,-135.91877,-152.217652,-71.173957,-82.87211,-61.272649,-49.106737,-57.829847,-64.170442,-45.357468,-36.408568,-44.360662,-50.907565,-38.77682,-32.40711,326.660471,-17.148661,-325.82408,-45.71471
59,-4.601097,10.289595,4.547482,11.216715,-6.204643,1.558228,17.541618,32.379227,7.267456,16.856461,24.292946,31.023102,20.504379,35.760155,25.832291,16.215935,30.89344,42.681427,29.371033,20.598564,39.80278,51.00563,41.202164,33.366623,-22.78371,-48.507017,-67.489001,-83.298373,-80.67892,-112.268455,-129.01052,-142.150313,-70.077887,-83.678045,-62.801126,-52.315042,-56.938295,-63.85499,-44.510006,-36.202785,-44.412008,-53.636377,-42.3166,-35.642461,5.045471,-1.3167,-14.143009,-24.953213,-9.927578,-16.551247,-20.072136,-21.161213,-21.736164,-35.559654,-24.930668,-14.711037,-30.482655,-39.658184,-26.170635,-16.872768,-36.450863,-44.201202,-34.459877,-26.949291,-23.842452,-47.071814,-62.565363,-69.206435,-72.218033,-106.466386,-122.2612,-134.713309,-61.642688,-67.768947,-49.730849,-39.644258,-46.924539,-46.842164,-31.363374,-22.699884,-33.143144,-36.123898,-27.406624,-21.888422,322.143574,-6.82782,-321.192398,-34.466749
60,-8.587418,12.914512,23.340168,45.845512,-8.399734,-2.413445,13.30513,29.071198,7.199936,18.648491,25.702629,32.203331,21.281319,35.263252,24.770164,15.79113,31.696587,43.141708,30.041428,21.701431,40.648956,50.372772,39.904175,31.88118,-17.722337,-39.10527,-52.780424,-63.711667,-72.770267,-104.746051,-119.79583,-130.264779,-63.300934,-72.617002,-52.451016,-42.987241,-49.525436,-52.733215,-34.129978,-26.503369,-35.602107,-40.220822,-29.972075,-25.59465,5.596876,-1.789627,-16.242427,-28.65858,-15.326328,-23.863077,-29.293441,-32.822199,-28.567257,-37.877397,-27.246723,-17.955379,-37.760267,-42.235737,-29.409656,-20.555763,-43.882141,-48.229866,-37.064724,-28.842144,-26.973784,-51.36921,-65.804635,-70.590817,-78.94043,-113.950412,-131.564879,-145.528847,-68.21761,-74.787375,-58.016519,-48.619634,-53.518418,-53.66347,-40.274344,-32.747895,-38.9056,-41.679567,-33.302352,-28.054478,314.72723,5.721129,-296.681156,11.013201
61,-6.930199,7.891301,23.340168,45.845513,-10.502357,-6.146278,8.871918,22.367592,3.442612,15.4636,22.993469,29.462128,19.044571,30.617409,21.699829,13.141136,29.516258,38.272018,26.706276,17.987137,39.076996,44.959602,35.309372,26.206512,-16.334867,-33.395456,-42.658605,-51.368871,-57.26304,-84.88119,-100.261458,-109.716063,-48.842723,-50.615948,-37.557866,-29.496813,-34.760851,-29.158575,-15.029062,-6.80295,-21.173784,-16.491003,-9.358645,-5.36892,6.148281,-2.262554,-18.341846,-32.363949,-20.725079,-31.174908,-38.514748,-44.483185,-35.39835,-40.195141,-29.562778,-21.199722,-45.03788,-44.81329,-32.648678,-24.238758,-51.313419,-52.25853,-39.669571,-30.734997,-30.105117,-55.666607,-69.043908,-71.9752,-85.662827,-121.434439,-140.86856,-156.344386,-74.792531,-81.805803,-66.302189,-57.595011,-60.112297,-60.484776,-49.185315,-42.795907,-44.668056,-47.235237,-39.198081,-34.220535,309.201994,11.205045,-271.936026,54.451328
62,-34.848404,39.141472,23.376732,27.043161,-8.052464,-1.519775,14.738388,28.998814,10.508079,24.840832,34.247475,42.673988,24.051762,37.892246,25.603008,15.298462,33.821354,44.417725,29.866676,19.798336,42.031918,50.77589,39.260902,29.729347,-21.556344,-42.233037,-53.747312,-61.94772,-69.190256,-98.520452,-115.190701,-127.105304,-58.556882,-64.093516,-48.085015,-39.464936,-44.114958,-43.825935,-29.078161,-21.855787,-29.45842,-30.461679,-22.037024,-17.642572,8.240376,1.448193,-15.744953,-30.819912,-15.568714,-27.443218,-34.704208,-41.913757,-30.716515,-38.618259,-25.939236,-16.089649,-41.418915,-44.45652,-30.463428,-21.709957,-48.836746,-54.465694,-41.900139,-33.306599,-24.213448,-48.131513,-61.745873,-64.795911,-76.885438,-110.815653,-131.015756,-148.422982,-66.146856,-71.899833,-57.502107,-50.029134,-52.545556,-52.418227,-40.854165,-35.561445,-38.088704,-41.992318,-33.685961,-29.196398,274.37582,48.300632,-248.537064,79.448605
63,-34.848404,39.141471,27.259655,13.553444,-5.60257,3.106728,20.604858,35.630035,17.573547,34.218063,45.50148,55.885849,29.058952,45.167084,29.506187,17.455788,38.12645,50.563431,33.027077,21.609535,44.986839,56.592178,43.212433,33.252182,-26.777819,-51.070616,-64.836018,-72.526569,-81.117472,-112.159712,-130.119943,-144.494544,-68.271039,-77.571084,-58.612163,-49.433057,-53.469064,-58.493294,-43.12726,-36.908623,-37.743056,-44.432355,-34.715402,-29.916222,9.34639,3.442497,-12.406483,-27.22229,-11.452847,-23.068542,-30.04343,-36.428204,-25.385971,-34.236259,-20.898743,-10.418701,-36.449833,-39.777546,-24.518681,-14.495373,-44.407139,-47.847576,-34.552631,-25.834866,-19.274866,-41.640896,-53.712052,-56.033435,-68.583033,-99.158287,-118.259264,-135.324268,-58.349446,-57.334146,-39.72898,-33.458504,-45.309982,-40.934595,-28.591367,-25.458645,-32.053188,-29.88547,-20.423671,-18.717816,239.928732,85.40048,-220.876093,90.960425
64,-18.981972,2.101089,31.16066,5.039914,-1.225891,5.772629,19.354134,27.419815,12.217484,27.599602,35.678673,42.444992,22.510643,36.805801,25.200348,16.79306,29.900665,45.863686,30.512924,20.467529,37.219276,50.420952,38.852806,30.017166,-23.361292,-43.632038,-52.743898,-57.480217,-75.586055,-101.926465,-120.287086,-134.600985,-65.122139,-62.069137,-47.27346,-42.574902,-50.263477,-42.895171,-30.674919,-29.104667,-35.349733,-33.446308,-27.601477,-28.54172,12.054291,8.628616,-6.172428,-21.527481,-9.141197,-19.176922,-25.714188,-31.96701,-23.317223,-29.003048,-15.874729,-5.375805,-34.011497,-34.543533,-19.8452,-9.620132,-41.998959,-44.455204,-31.258564,-21.972427,-18.074438,-42.235491,-55.828887,-60.794299,-61.779126,-89.629858,-109.842652,-126.586554,-51.359794,-56.627289,-40.801029,-30.615082,-38.346882,-40.586755,-27.509284,-19.270451,-24.252135,-29.119024,-19.071399,-12.76523,220.593853,85.489694,-190.06834,93.988465
65,-34.195633,-6.438468,28.22176,0.602808,-12.144356,-10.849113,5.929642,21.342316,6.233139,19.538383,27.716446,34.266472,20.211067,27.425423,16.441383,9.757576,30.26516,35.089302,23.084793,17.777138,37.67292,40.744972,29.226265,23.965645,-18.259813,-40.744496,-53.095289,-55.192209,-70.559077,-100.304436,-118.320891,-134.653906,-62.734559,-67.123933,-49.9542,-45.134951,-51.257164,-51.149287,-37.401607,-34.092433,-38.253423,-36.689193,-27.570725,-25.413012,13.149662,13.927002,1.993675,-12.120895,-6.650105,-10.456696,-11.952438,-14.35667,-21.352501,-21.466942,-10.279369,-4.398422,-32.013988,-27.075806,-14.882011,-9.52343,-39.83963,-33.802471,-21.67757,-16.374893,-17.373015,-42.102666,-55.690165,-59.678778,-59.256405,-82.217987,-100.365013,-117.509367,-50.854614,-60.530594,-47.737514,-38.830789,-38.250613,-43.869098,-33.973842,-27.093333,-23.965829,-29.387361,-22.142555,-17.047158,185.932245,77.781498,-162.312555,93.321545
66,-15.568314,-5.1163,22.089157,-11.023066,-12.248611,-13.674431,-6.254883,1.333466,-1.429024,5.918541,10.109825,13.530235,11.327133,15.051956,7.030678,1.183205,20.485382,25.421333,14.168243,7.144089,29.450455,32.102051,20.371056,12.704659,-26.114002,-50.745408,-67.572519,-81.986269,-74.933415,-102.174053,-122.013596,-139.254188,-67.415457,-67.707165,-53.075745,-49.460876,-56.005802,-52.629814,-41.645836,-41.613942,-43.866165,-37.251677,-29.951018,-32.181104,16.491737,23.042278,15.740776,3.373775,-1.188297,-7.055912,-8.241978,-10.264492,-16.14418,-16.169529,-6.62756,-3.483238,-26.556072,-22.318039,-11.834965,-8.631477,-33.885784,-29.211559,-19.746151,-16.666317,-16.941874,-41.020675,-54.985099,-56.222978,-61.010766,-88.620301,-108.107002,-125.667492,-53.928642,-60.921042,-45.187809,-36.856845,-41.098048,-44.533563,-34.005859,-28.485434,-26.172356,-29.480511,-22.524451,-19.009154,174.110956,72.821381,-136.476374,82.454661
67,-36.107025,-26.122616,6.978951,-5.524192,-18.946609,-27.563324,-20.172844,-5.261307,-7.990723,-2.418938,0.348473,3.647346,6.527138,3.462067,-3.27301,-4.0028,18.108215,12.32666,3.970528,3.974075,28.303528,20.112762,11.869812,11.807671,-14.588504,-39.669545,-58.14533,-65.249314,-67.373528,-99.568834,-118.172165,-133.95415,-60.967046,-72.309887,-53.984896,-45.262187,-51.425403,-56.344318,-40.439511,-34.492514,-39.623263,-40.78167,-29.379858,-25.566801,20.630779,25.964413,27.184181,24.452763,-0.617409,7.350941,13.765411,16.406994,-13.628368,6.766891,21.087227,24.631462,-19.699688,1.622028,13.754425,15.8848,-21.937523,-6.160183,5.717697,9.619331,-24.579072,-45.542565,-62.315521,-73.764881,-68.449158,-92.992045,-111.015848,-125.893128,-63.201485,-74.181542,-64.413707,-51.664223,-52.332795,-59.529435,-49.305296,-38.633713,-39.143432,-48.63305,-41.377068,-31.400455,140.985861,49.413884,-126.515493,79.645589
68,-12.285118,-6.516984,32.757683,-30.151553,-24.212723,-35.349312,-36.119957,-31.562462,-14.14444,-18.097115,-19.375076,-18.364105,3.474655,-10.842133,-17.565994,-16.662025,16.826935,2.458763,-5.763588,-5.786247,27.951164,16.334496,5.873108,3.328857,-18.743967,-41.797341,-60.70365,-75.419699,-72.345146,-104.039719,-125.37958,-141.106391,-68.795825,-85.148816,-67.722263,-55.464745,-59.593871,-70.635957,-54.200714,-44.889832,-47.707627,-53.550451,-43.53401,-37.75238,17.150574,26.035595,24.046268,15.459137,3.685856,0.369473,0.744839,0.591431,-12.905216,-7.379951,1.271954,3.322163,-25.507679,-16.170902,-6.942959,-4.448261,-35.369167,-25.948162,-16.872597,-14.41864,-13.005872,-37.544528,-55.111255,-64.34819,-65.087188,-96.248082,-118.164045,-136.699758,-60.79007,-68.332697,-48.919201,-36.205996,-50.79487,-54.66977,-39.195889,-29.785342,-37.848526,-42.072717,-30.303521,-22.39036,131.140108,47.795375,-91.318445,54.392511
69,-33.908958,-31.109796,7.891674,-10.497694,-19.122963,-30.238838,-26.956558,-16.929359,-14.748573,-12.761307,-11.264305,-8.644753,0.634575,-2.851639,-8.537636,-8.498154,14.359016,8.321686,1.258965,1.351776,27.068596,19.295082,11.832275,11.814537,-8.777358,-32.568711,-51.024335,-60.28492,-59.140346,-93.011342,-115.292805,-134.405978,-53.402436,-67.656932,-46.367798,-33.720603,-44.98181,-55.620449,-36.888554,-26.813048,-34.946997,-42.345963,-29.460226,-21.822287,19.366264,26.958561,27.797241,21.948566,0.27174,3.459721,6.448574,7.256527,-14.777126,-1.53574,13.674774,19.921989,-24.750538,-8.807316,4.976807,10.048885,-31.105099,-17.662582,-3.924694,2.895756,-22.155893,-45.334374,-63.592365,-74.857863,-73.779053,-99.326865,-117.903211,-134.447968,-68.059822,-78.220852,-64.765685,-50.584486,-56.795405,-61.181073,-48.252297,-36.898496,-42.28378,-49.629238,-41.343939,-32.326248,97.93293,18.246259,-82.724991,45.455497
70,-10.222664,-1.146736,10.310783,-12.952859,-21.281776,-32.28344,-32.672081,-31.820526,-18.478088,-19.057274,-19.729843,-19.57077,-1.368256,-11.849327,-18.416977,-18.753548,13.37059,1.297188,-5.76931,-7.180138,26.559563,14.160919,4.962959,2.793159,-13.589845,-35.780412,-53.31756,-67.671196,-66.842166,-97.511372,-117.795086,-134.213008,-63.208957,-79.706073,-62.725914,-48.883942,-55.694765,-65.653717,-48.864583,-37.125243,-45.936687,-53.442203,-41.929796,-33.1772,19.669361,27.25296,26.842918,20.217819,-0.790329,2.255058,4.312477,5.63982,-15.728416,0.547485,15.026436,19.890118,-25.787773,-7.342472,5.185032,8.615856,-32.44669,-16.404591,-3.459949,1.813889,-22.00374,-47.930855,-66.198726,-76.509224,-76.659555,-101.627315,-119.287933,-134.93453,-71.938026,-79.714996,-63.140784,-47.581348,-60.8102,-63.326252,-47.612593,-34.649515,-45.891023,-51.655053,-42.249045,-32.112406,87.411747,17.692805,-72.712727,33.095921
71,-10.02594,-3.802467,8.304405,-10.527673,-21.20636,-33.726311,-34.356079,-31.605034,-19.310303,-20.563774,-22.516823,-23.636856,-2.193375,-15.399399,-19.874611,-17.521248,12.671127,-2.447548,-7.465553,-6.781082,25.716934,11.135674,3.191185,3.042984,-11.886707,-34.978922,-53.03817,-66.491886,-68.141672,-101.488469,-122.286317,-139.327979,-65.092777,-79.383767,-59.681032,-45.370127,-58.286893,-66.532889,-47.390446,-35.113446,-48.884251,-56.403351,-43.104906,-33.835706,19.660149,27.458839,26.706104,18.74033,-0.494957,1.473885,1.613102,0.873699,-17.949486,1.533051,14.230671,18.182774,-29.173393,-6.711845,4.379883,7.203827,-36.620007,-18.053226,-5.408077,-0.238667,-17.527731,-43.84483,-61.578097,-71.482462,-74.64609,-104.691834,-125.217177,-142.573735,-69.550477,-75.311327,-56.979266,-41.634598,-57.930933,-58.373776,-42.435192,-30.611593,-42.643167,-47.27556,-37.16501,-27.842088,77.39253,14.877419,-64.401598,23.555328
72,-4.855843,0.097319,1.806335,-3.316121,-22.016716,-34.834099,-33.095284,-26.658897,-21.750984,-20.391998,-20.3405,-20.248375,-3.749657,-14.796753,-19.567337,-18.490906,11.921082,-2.406921,-6.864052,-6.254311,26.043892,10.950394,4.194374,4.330788,-9.110007,-35.673028,-55.722368,-69.461495,-70.126392,-104.591489,-126.137073,-143.876577,-67.129861,-77.94279,-56.225078,-41.801386,-59.688782,-63.172308,-42.417439,-30.565157,-49.841073,-52.250049,-37.037033,-28.302344,19.870319,29.164753,26.775684,15.544739,0.440369,1.566982,1.650524,0.365067,-17.694511,2.599354,13.815193,17.411442,-29.767113,-5.60194,4.736938,7.828674,-39.002266,-19.458561,-6.392441,-0.651054,-17.801501,-45.060542,-63.84406,-71.036192,-74.024016,-106.28555,-128.104626,-146.042318,-68.825527,-71.462856,-51.067097,-35.77328,-57.553638,-55.913578,-39.769457,-27.706391,-42.677408,-44.291409,-34.149182,-25.898308,72.674046,16.79744,-62.457905,22.061909
73,-1.748085,2.739866,0.607281,-0.156012,-20.423813,-32.976952,-33.61702,-28.956299,-17.868576,-16.66111,-17.132149,-17.147484,-0.555038,-12.95929,-18.606834,-17.607765,14.261971,-1.210213,-6.186447,-5.08564,27.608528,12.006226,4.703064,4.28524,-9.434382,-35.182266,-54.243692,-68.453172,-70.880612,-107.069101,-128.191941,-146.436347,-67.599998,-77.50569,-56.305384,-42.552363,-59.984072,-62.134129,-41.913185,-29.123285,-50.103759,-51.486382,-36.836776,-27.142795,17.026749,26.494732,26.648769,17.167511,-2.061024,-0.612659,-0.177383,-0.177383,-18.113651,-1.876602,10.425396,15.832901,-29.629211,-9.906979,1.529217,6.403942,-38.551197,-22.657871,-9.636726,-2.83699,-14.19889,-41.086933,-60.006889,-66.737221,-66.19462,-95.572873,-115.640089,-131.858557,-61.052478,-67.623494,-49.458128,-35.536559,-50.365921,-52.670137,-38.081633,-26.255843,-36.820443,-41.480592,-32.66921,-23.981637,71.323442,20.291556,-61.453142,22.660147
74,1.838379,3.607336,-2.216778,1.846029,-21.677628,-34.764519,-35.958023,-30.623245,-19.524994,-18.040581,-18.145638,-17.7285,-2.190285,-14.178772,-19.735107,-18.498802,12.592049,-2.514839,-7.534332,-6.219406,25.916519,10.450974,3.185463,3.154221,-10.300741,-36.301554,-56.063446,-70.579764,-72.292103,-108.347489,-129.183931,-147.590679,-68.674918,-79.637129,-58.286059,-45.223316,-60.930644,-64.20249,-44.096247,-31.912551,-51.076452,-53.81604,-38.817482,-28.942264,18.281479,27.613564,26.999931,16.940289,-0.353622,-0.789185,-0.828266,-1.877861,-17.596035,1.554279,12.961693,16.962376,-29.193535,-7.312374,3.198681,6.692047,-38.123703,-20.552044,-7.643795,-1.910305,-13.748637,-39.425724,-57.065408,-63.093082,-67.760425,-100.695378,-122.396634,-139.854402,-62.198473,-67.901062,-48.502695,-34.397727,-50.853564,-52.246221,-37.22287,-26.017208,-36.669,-40.336141,-30.803946,-22.496354,73.119307,24.726054,-63.712435,25.333338
75,1.256104,2.330059,-0.886688,2.443248,-21.939468,-34.409981,-33.939056,-29.350319,-19.760628,-17.672424,-17.461166,-17.216606,-2.472038,-13.091354,-18.855286,-18.106728,12.263145,-2.229881,-6.93203,-5.537109,25.855865,10.152054,3.038635,2.973747,-10.646852,-36.126986,-55.8304,-71.916043,-72.777554,-108.980523,-129.829932,-148.261659,-69.400609,-80.590741,-59.574945,-45.700091,-62.230182,-64.377769,-43.83952,-31.04786,-52.853536,-54.452995,-38.982726,-28.789864,18.667431,28.170319,26.39677,13.917446,-0.416508,-0.544167,-0.53833,-2.124481,-18.765678,3.101921,13.475189,15.904884,-30.801773,-5.301361,3.921146,5.985088,-39.603024,-18.525867,-6.243839,-1.450424,-14.634477,-41.67878,-60.277696,-65.368338,-71.952414,-104.820367,-125.98387,-143.207881,-66.455176,-68.491519,-47.734056,-33.758703,-54.694563,-52.275552,-36.650012,-25.837299,-40.133013,-40.043074,-29.291987,-20.880902,74.197197,27.249145,-64.777336,27.969618
76,1.220627,0.412555,-0.083027,2.390605,-22.110443,-35.249634,-35.755234,-30.987053,-19.678345,-17.877388,-17.645531,-17.45533,-2.389069,-14.367027,-19.535294,-18.573761,12.331123,-3.643913,-7.636414,-6.082649,25.691986,9.20208,2.087746,1.560173,-10.877119,-35.221941,-54.779007,-70.475004,-72.998589,-109.627235,-131.117923,-149.698251,-70.027468,-80.456619,-59.50915,-45.406375,-63.020865,-64.134904,-43.949899,-31.410397,-53.399132,-53.901348,-38.958551,-29.304553,18.518314,27.302971,25.135746,13.919621,-1.057377,-1.117172,-1.040154,-2.672482,-19.156094,1.909447,12.549934,15.299892,-31.212101,-6.405659,3.153362,5.491047,-40.220032,-19.621296,-6.879616,-1.464672,-16.690148,-43.771533,-61.528172,-66.544343,-74.640718,-107.229158,-127.855216,-144.765844,-69.178153,-71.148701,-50.837663,-36.918966,-57.653581,-54.867557,-39.192431,-28.187087,-42.918142,-42.508767,-31.919375,-23.839951,75.294056,27.785092,-64.984131,30.483616
77,0.348701,0.276673,0.516357,0.703461,-22.268829,-35.3825,-35.71003,-30.936584,-19.85321,-18.07457,-17.896729,-17.651596,-2.352791,-14.897346,-20.347023,-19.020996,12.372093,-4.019852,-8.173943,-6.199837,25.507851,8.897781,2.258949,2.686272,-11.623928,-35.873408,-55.20104,-70.619037,-73.815516,-110.085732,-131.34961,-149.846606,-70.6442,-81.531261,-60.368222,-46.442794,-63.579243,-65.058721,-44.707607,-32.450058,-53.858648,-54.710278,-39.495996,-29.915358,18.776836,27.465706,24.239159,12.473545,-1.659737,-1.565552,-1.285915,-2.613029,-20.047417,1.132908,11.646423,14.611988,-32.385406,-7.975788,1.908875,4.817448,-41.765156,-21.37825,-8.244839,-2.327385,-18.133811,-45.834552,-63.134424,-67.287788,-76.476496,-108.998462,-129.408517,-146.056798,-70.635092,-71.176767,-49.74113,-34.77987,-58.887292,-55.269583,-39.056117,-27.380719,-43.841743,-42.996843,-32.093974,-23.865515,75.480909,28.101516,-64.629622,31.226828
78,1.141891,-0.74295,-0.717201,0.269263,-22.55722,-35.40905,-35.564461,-31.568298,-19.906998,-18.081207,-17.98645,-17.648506,-2.506943,-15.018196,-20.524292,-18.905411,12.081184,-4.288673,-8.595886,-6.393814,25.182037,8.483849,1.83918,2.664871,-11.705068,-36.457381,-56.119762,-71.56706,-73.858031,-110.285001,-131.85513,-150.285374,-70.798484,-80.861701,-59.637467,-45.796884,-63.853816,-64.674942,-44.321574,-32.32489,-54.37167,-54.6493,-39.15183,-29.764316,19.890862,29.223862,26.035366,14.040298,0.337486,0.524654,0.408039,-1.610641,-18.02124,1.909332,12.514286,15.890236,-30.572262,-7.905293,2.212429,5.517311,-40.37962,-21.188393,-7.68837,-1.136971,-18.880837,-46.97289,-64.728418,-68.814999,-78.030229,-111.072442,-131.408242,-148.047045,-72.231124,-72.690485,-51.203133,-35.673769,-60.474865,-57.087361,-40.760181,-28.524862,-45.155946,-44.556195,-33.858029,-25.676501,76.528044,27.442763,-65.44158,31.580288
79,0.554123,-0.700497,0.75983,-7.497951,-22.799034,-35.269318,-34.96376,-31.465988,-19.742203,-18.371544,-18.116684,-17.760887,-2.352562,-14.200516,-19.846458,-18.702736,12.263374,-3.878174,-8.130112,-6.13369,25.436211,8.729782,2.572517,3.658104,-12.023855,-37.170352,-56.820166,-72.120097,-74.163418,-109.878683,-131.096341,-149.553045,-70.939306,-82.351646,-61.751832,-48.022709,-64.041198,-65.127666,-44.701679,-32.790796,-54.735936,-54.615368,-39.048182,-29.767064,18.120575,27.05389,25.929222,17.266388,-0.814304,-0.764923,-1.345825,-2.487888,-18.075027,0.40638,12.396126,17.214661,-29.857292,-7.579937,3.249607,7.193527,-38.655453,-20.322475,-7.879314,-2.585335,-13.192852,-39.126111,-56.925945,-63.380283,-67.385199,-98.47227,-119.988615,-137.775883,-62.291376,-67.867717,-47.266112,-31.839346,-51.141105,-51.408793,-35.095075,-23.158072,-36.950489,-39.759794,-29.279174,-20.042146,77.029724,26.779672,-64.734192,24.119742
80,0.781403,-1.178723,0.679321,-0.861387,-22.331657,-34.60247,-34.413185,-30.255775,-18.949471,-18.020668,-17.997551,-17.84729,-1.994934,-13.732109,-19.628334,-18.520775,12.271957,-3.661995,-8.213539,-6.364403,25.461159,9.175415,2.800484,3.617935,-11.967693,-36.774223,-56.058012,-70.866749,-74.067057,-109.44359,-130.896208,-149.163276,-70.342364,-82.945438,-62.167042,-47.732513,-63.337027,-65.813527,-45.687864,-33.726253,-53.824036,-55.323059,-39.994044,-30.619467,17.334538,25.160694,23.298969,15.161991,-2.774792,-1.929703,-2.525253,-3.618107,-19.326954,-1.216106,10.969162,16.051712,-30.836563,-9.077454,1.924038,6.241779,-39.535332,-21.666412,-9.246941,-3.679962,-13.714303,-39.836271,-56.701019,-63.771163,-66.699955,-96.312395,-116.72526,-134.049153,-61.574392,-66.459529,-46.538568,-31.698617,-50.600881,-50.846864,-35.027273,-23.012526,-36.548741,-39.640955,-29.985321,-20.925424,77.774105,25.590173,-64.091892,23.247579
81,-4.039078,-5.868481,-1.772232,0.322275,-17.432899,-29.859467,-31.256905,-28.30513,-12.118492,-12.807426,-13.272629,-13.770561,4.39785,-6.933861,-13.676376,-13.961105,18.699989,2.329559,-3.799896,-2.915039,30.884056,14.76368,7.639847,8.463593,-9.238911,-33.530041,-52.988553,-67.623092,-65.745324,-98.753698,-120.493826,-138.762654,-62.988199,-77.655836,-58.859165,-43.394052,-56.002498,-60.004697,-40.854412,-27.894761,-46.469161,-49.632419,-35.66324,-25.913159,18.606949,27.234306,25.792465,16.290665,-0.466404,-1.431255,-2.463512,-4.072838,-18.614788,1.187897,12.526131,16.259537,-30.390015,-6.915951,3.482952,6.458244,-39.343987,-19.952946,-7.317009,-2.636318,-13.643692,-39.746919,-56.673108,-62.894647,-69.108838,-101.373614,-122.79338,-140.147901,-63.527589,-67.802724,-47.769162,-33.606674,-51.750489,-50.749144,-34.940791,-24.20999,-36.710898,-38.631212,-28.428408,-20.46208,73.66868,19.706363,-65.930471,23.554525
82,1.191101,0.508638,-0.069752,0.567672,-17.357826,-29.427109,-30.783234,-28.478394,-13.8097,-15.007896,-15.258293,-15.17086,2.462654,-8.489227,-14.349174,-14.017868,17.06646,1.361847,-4.016075,-2.888603,30.064545,14.438553,7.693748,8.74054,-8.903267,-33.102914,-52.880521,-67.850426,-64.477465,-96.030042,-117.127687,-135.063558,-62.260409,-76.792133,-58.030073,-43.050936,-55.750557,-60.34911,-41.280583,-28.830959,-46.727864,-50.140161,-36.259224,-26.743054,17.802715,26.228542,23.651276,13.844376,-3.04287,-2.533894,-2.713223,-3.355923,-19.792614,-2.161732,10.625839,15.9902,-31.418324,-9.917221,1.559429,6.099758,-40.166702,-21.837788,-8.870716,-3.030624,-14.881016,-41.864927,-59.121697,-64.76269,-68.741114,-98.947903,-120.673458,-139.413442,-63.029664,-69.943796,-50.170512,-34.293956,-51.47996,-53.003837,-37.124687,-24.454182,-36.760483,-40.967755,-31.669255,-22.283902,74.800758,20.205599,-66.059246,24.112795
83,1.103554,-1.510199,-0.22665,0.771355,-19.251938,-32.422714,-33.489761,-30.404892,-15.774994,-15.408669,-15.961189,-16.156654,1.439095,-10.337219,-16.301537,-15.683212,16.370773,0.837135,-4.37233,-3.619652,29.375153,13.428497,6.384315,7.499199,-6.476538,-31.470634,-51.593704,-66.270851,-65.383899,-99.754765,-121.908373,-140.221909,-62.277946,-74.528456,-52.475284,-37.51847,-54.929585,-59.109686,-38.465042,-26.604733,-44.980544,-48.399108,-32.704006,-23.308094,18.083725,26.587372,23.910999,14.217682,-3.137112,-2.933235,-3.347225,-4.164047,-19.994431,-1.847134,10.397358,15.364208,-31.627121,-9.586201,1.19442,5.20483,-40.427227,-21.67551,-8.866482,-3.272839,-15.083958,-41.3888,-58.233232,-64.173282,-68.965979,-99.44487,-120.928919,-139.229426,-63.346413,-69.204675,-48.962118,-32.937824,-51.857625,-52.767456,-36.749337,-24.153427,-37.172359,-40.856481,-31.581075,-22.283871,75.914869,18.74003,-66.275339,24.92878
84,-0.30304,2.083829,-0.780201,1.383117,-18.155594,-31.352005,-33.084297,-30.183105,-13.859367,-14.902382,-15.134583,-14.943237,3.380928,-10.083961,-15.46257,-14.379387,17.945251,0.78392,-4.008751,-2.877502,30.346985,13.940277,6.764259,7.421837,-8.086093,-31.861916,-51.236077,-65.929278,-65.888338,-99.553242,-121.646613,-139.95243,-63.464603,-73.866676,-53.078586,-38.309554,-56.39344,-58.090558,-38.734706,-26.398178,-46.482221,-48.220681,-34.086783,-24.842685,18.542347,27.356358,24.98457,15.475216,-2.00798,-2.388783,-2.619267,-3.257275,-18.723907,-2.752533,9.63232,14.85918,-30.424118,-10.327034,0.744667,5.174103,-39.398975,-22.275696,-9.555302,-3.742218,-14.774681,-41.198393,-58.442165,-64.932009,-69.089356,-99.560251,-121.043034,-139.129267,-63.377844,-69.631247,-49.850614,-34.133744,-52.058376,-52.681098,-37.017489,-24.840462,-37.707735,-40.67055,-31.157591,-22.199891,75.59907,20.842447,-67.0683,26.330484
85,-0.57209,3.942795,0.067062,1.978576,-17.557983,-30.486717,-32.016678,-28.347702,-13.724442,-14.557228,-14.550934,-14.652557,2.506714,-6.537781,-11.673203,-12.089653,16.952705,3.474197,-1.767654,-2.282524,29.916,16.754608,9.922485,9.228401,-7.993436,-31.955591,-51.768612,-66.349397,-64.931145,-98.340711,-120.471194,-138.729958,-62.508429,-76.223443,-56.691509,-39.898701,-55.803631,-58.556526,-39.612766,-26.321514,-46.517326,-48.818857,-34.834426,-25.049332,19.302063,27.67662,24.918995,15.10603,-1.414776,-0.822086,-1.203518,-2.429981,-18.759327,-1.335869,10.693474,15.921192,-30.469036,-8.62936,2.143593,6.522903,-38.937893,-20.200539,-7.266998,-1.025219,-15.788808,-42.518462,-59.95999,-67.132053,-70.33409,-100.578515,-122.399135,-140.288816,-64.838457,-68.814042,-49.372295,-33.642705,-53.159942,-52.84449,-37.40593,-24.965074,-38.300817,-40.514847,-31.182939,-22.395022,74.977169,24.732893,-67.051048,28.256711
86,0.637894,4.618653,0.126057,6.088374,-17.986107,-31.577911,-34.533463,-32.473984,-14.312897,-15.88623,-16.433945,-16.484184,1.16787,-8.575745,-14.06559,-13.841057,15.076332,1.348228,-4.110146,-4.020882,27.438354,13.527946,7.340927,7.973328,-7.168605,-30.859089,-50.15001,-64.703101,-64.209221,-96.583078,-118.168213,-135.835006,-61.867398,-76.072679,-56.059741,-39.620762,-55.322318,-59.945015,-41.158379,-28.737623,-46.327783,-49.18868,-35.266401,-25.820256,19.538898,28.369617,25.844021,13.806267,-0.529003,-0.947914,-0.733624,-2.486172,-18.820953,3.149872,14.110622,17.391129,-30.988712,-5.239105,4.815216,7.89711,-40.032578,-18.618736,-5.968151,-0.03828,-15.2484,-42.982733,-61.170915,-66.904256,-72.930725,-105.10022,-125.69565,-142.697144,-68.112248,-69.072652,-49.233326,-34.496435,-56.434165,-53.668549,-38.683237,-26.99867,-41.850632,-42.004081,-31.99011,-23.235383,75.62253,29.02575,-66.917524,34.01929
87,-0.733337,6.409322,-0.20731,2.776515,-19.055214,-32.747154,-34.811211,-29.98867,-15.654144,-16.323395,-17.263298,-16.824646,0.389671,-11.975441,-17.199097,-14.959259,14.739304,0.36232,-4.803658,-3.392944,27.8405,13.806152,6.356163,6.481018,-7.355678,-31.31808,-49.497092,-63.075051,-65.243015,-98.504072,-119.654761,-137.947487,-61.984384,-74.713305,-52.948694,-38.69077,-54.872003,-61.335511,-40.255433,-27.077309,-45.029728,-51.249199,-36.619137,-26.16544,18.679161,26.981335,25.60421,19.076385,-0.868492,0.691566,1.264744,0.393391,-18.907986,-0.139961,10.896835,15.086117,-30.719032,-6.623726,3.794231,7.776318,-38.834209,-18.655701,-5.796833,0.513268,-13.727858,-39.169768,-56.434072,-65.337524,-70.14149,-100.010597,-121.41579,-139.623116,-65.725132,-67.339133,-47.585145,-32.140842,-54.405602,-50.608044,-34.602492,-22.232618,-39.465862,-38.67487,-28.530944,-19.951743,74.906158,34.907215,-67.107868,36.267947
88,2.077904,12.437922,-0.349445,8.721536,-20.387878,-34.660721,-38.4161,-36.405716,-18.0336,-20.186577,-22.402039,-24.281616,-2.30896,-12.079239,-19.724579,-21.742859,11.217384,-1.604462,-9.336662,-11.938248,22.858658,9.061317,0.941277,-1.020927,-7.533211,-29.473626,-46.889558,-60.608956,-62.344605,-91.313823,-111.90141,-128.026604,-60.40413,-74.07848,-57.462494,-42.803163,-53.625571,-59.350019,-42.878869,-30.38253,-44.114216,-48.227164,-35.744072,-25.551024,18.434715,27.149048,26.480827,20.435429,-0.605049,0.876904,2.087517,1.898689,-18.584805,1.094971,12.503471,16.260338,-30.129719,-5.970554,4.713593,8.313389,-37.781525,-17.745495,-4.797306,1.246834,-13.438619,-38.899425,-56.709942,-65.98507,-69.723687,-98.942407,-120.127461,-138.008435,-65.671748,-65.402887,-45.826802,-31.685958,-54.68669,-50.495597,-34.877219,-23.468522,-40.355685,-38.147676,-27.906555,-19.648611,76.279449,47.330564,-68.161926,44.974909
89,-3.110161,14.884103,-1.947899,11.198653,-21.894951,-36.239204,-39.517021,-37.521515,-15.09304,-18.361244,-22.230721,-26.172295,1.134911,-15.987511,-24.444237,-26.778946,13.522453,-5.543518,-13.277206,-16.402588,22.897682,6.410179,-2.789154,-6.788406,-10.466263,-33.222092,-49.632264,-60.991963,-63.686164,-91.610441,-110.916275,-126.377529,-61.175269,-67.949165,-51.276955,-36.287722,-52.832047,-52.750135,-36.693577,-22.789823,-41.276353,-41.360364,-29.976614,-19.426927,17.686501,26.961422,28.674774,23.209133,1.943836,2.142162,5.544662,7.762527,-14.236622,3.202515,14.009571,16.866932,-24.773483,-3.876915,6.927166,9.492817,-32.423115,-16.52338,-4.959641,-0.408955,-12.702646,-36.171878,-52.822784,-61.851343,-69.532724,-102.698932,-121.391306,-137.342827,-63.880925,-64.864609,-45.872127,-33.85738,-51.760523,-48.914971,-33.591113,-22.95164,-37.25566,-38.68441,-29.017074,-21.227167,72.61425,62.13311,-70.664864,56.092006
90,0.466576,19.044167,-1.729031,12.431778,-23.950081,-39.173355,-45.119133,-45.568428,-20.691948,-26.131439,-33.38768,-40.469742,-5.965462,-24.661789,-32.867661,-34.482651,5.349312,-13.730965,-21.393013,-23.761024,14.709549,-1.29158,-11.075592,-15.295715,-10.808329,-32.259125,-46.207216,-53.8404,-61.534008,-87.003274,-98.85219,-107.770987,-58.534111,-60.769538,-45.369602,-33.743297,-48.593931,-45.232578,-31.535781,-20.992732,-35.133051,-32.218,-22.827275,-14.987504,19.872322,30.302639,34.054241,29.707317,2.509117,5.126038,12.17617,17.790184,-12.628384,8.3741,20.937538,24.016514,-21.485538,3.731804,14.166069,15.113583,-26.771393,-7.265797,2.878075,4.897556,-14.058068,-36.88491,-51.972142,-59.046454,-68.762634,-99.956967,-115.591214,-128.279596,-62.362791,-62.423646,-44.62165,-33.624797,-48.901911,-43.433326,-28.2581,-18.52287,-33.563757,-30.829696,-22.13036,-15.684481,71.85708,79.663836,-73.61764,67.010343
91,2.599068,5.992785,-4.529285,6.913885,-21.821136,-40.465965,-52.46315,-57.194023,-28.89267,-44.574394,-57.78511,-64.255829,-13.80455,-35.058403,-47.605019,-50.877228,-2.351074,-20.048561,-31.020584,-33.040352,6.393471,-6.470032,-15.31414,-18.080978,-13.092971,-29.673543,-36.703735,-35.473944,-51.729648,-67.929621,-53.681547,-39.218891,-43.846621,-49.688179,-32.194843,-18.779041,-28.998271,-28.326149,-14.163908,-4.236912,-13.03826,-5.215224,3.342581,9.268613,22.059002,36.678429,43.812504,38.351326,8.03278,15.489578,24.690857,30.950203,-7.481918,18.178139,29.306431,28.848152,-15.514641,12.569561,21.79842,20.660248,-18.933334,2.549057,9.319439,8.325176,-11.251913,-28.721166,-40.356611,-45.8059,-61.857611,-86.557714,-96.454545,-102.87807,-53.852226,-48.301728,-31.360286,-21.920069,-37.338313,-25.980251,-14.24477,-7.717258,-19.330596,-10.287464,-4.774542,-0.552821,71.758461,83.805652,-80.844612,72.073259
92,4.419308,25.356664,-12.950392,26.19224,-25.599804,-49.553947,-66.423569,-75.70281,-42.924614,-66.479015,-79.442596,-83.88648,-30.797253,-56.793766,-65.31641,-64.969826,-20.29089,-43.021603,-50.582027,-49.4347,-11.386414,-27.97514,-34.984474,-35.575619,-16.702869,-26.54573,-24.773447,-16.828377,-39.705623,-40.315424,-25.786262,-13.251376,-29.58155,-20.362121,-3.652552,7.075671,-15.254529,-3.360488,10.137117,17.836159,0.144141,12.516268,20.920314,25.524255,23.396988,41.403637,53.826886,54.951954,21.066857,42.78348,53.450232,56.718636,8.585329,45.155325,52.031508,47.716542,2.448149,39.463978,43.393221,38.454924,0.018597,30.083514,33.595305,29.591933,-18.503681,-36.667364,-45.347589,-45.552214,-63.784795,-81.480179,-80.246915,-78.544456,-52.303834,-46.431556,-31.828957,-24.412686,-34.61157,-22.838591,-12.891634,-8.966037,-15.321219,-6.234013,-1.655575,0.042576,75.653915,104.205148,-94.318858,93.308331
93,4.419308,25.356664,-12.950391,26.19224,-29.378471,-58.64193,-80.383987,-94.211597,-56.956558,-88.383636,-101.100082,-103.517132,-47.789955,-78.529129,-83.027802,-79.062424,-38.230705,-65.994644,-70.143471,-65.829048,-29.166298,-49.480247,-54.654808,-53.070259,-20.312767,-23.417917,-12.843159,1.817191,-27.681598,-12.701226,2.109024,12.716139,-15.31648,8.963937,24.889739,32.930383,-1.510786,21.605172,34.438143,39.90923,13.326542,30.24776,38.498047,41.779896,24.734974,46.128845,63.841267,71.552582,34.100933,70.077381,82.209606,82.487068,24.652576,72.132511,74.756584,66.58493,20.410938,66.358395,64.988022,56.249599,18.970528,57.61797,57.87117,50.858688,-25.755448,-44.613561,-50.338565,-45.298528,-65.711979,-76.402642,-64.039284,-54.210841,-50.755442,-44.561382,-32.297627,-26.905303,-31.884825,-19.69693,-11.538497,-10.214815,-11.311842,-2.180561,1.463392,0.637974,80.284824,127.017217,-107.057648,116.955975
94,0.263443,14.75489,-0.332737,5.202657,-22.501373,-50.68737,-69.416656,-80.664711,-59.865646,-86.692085,-102.115288,-113.84903,-51.196289,-79.54834,-92.176781,-101.248455,-39.271431,-67.414742,-80.531387,-89.658737,-27.482758,-46.816635,-58.114815,-67.96154,-18.674127,-21.762698,-16.955737,-9.799049,-15.103719,4.228606,20.695959,35.533904,-3.704469,18.632508,35.988758,51.14095,7.597956,26.703904,41.545801,54.802132,17.827344,34.611785,46.685411,57.123639,19.998035,48.971043,76.772289,89.844875,37.833023,76.022358,84.073963,82.233753,29.163322,75.830555,84.333229,81.620464,25.060558,69.376144,78.297901,76.619453,23.16925,54.569492,67.211781,70.798931,-25.946165,-36.328601,-34.695117,-32.703481,-47.968492,-48.217747,-34.5982,-25.346969,-32.398218,-23.987565,-8.374344,0.628187,-12.920162,-1.122839,11.912395,16.848229,7.47569,17.186375,25.53571,29.921162,80.614071,139.75892,-107.324581,120.145446
95,-13.691826,38.55918,3.756294,32.698696,-31.011314,-58.958359,-78.142891,-87.991848,-70.752754,-97.805328,-107.433701,-110.777607,-61.588211,-90.458221,-100.184383,-99.883862,-49.989281,-75.529404,-86.210117,-89.15863,-36.980667,-57.218971,-67.105408,-72.407799,-15.060246,-14.627499,-7.733128,2.142678,6.233272,27.786759,38.043441,43.197562,19.863193,46.230125,55.683866,58.646589,31.809922,54.267744,64.511396,69.81551,41.807067,59.106383,67.626458,72.724633,21.725407,49.216061,73.153267,90.008354,47.063999,85.687237,97.431335,95.523834,42.328777,86.75457,96.195488,93.137169,38.184357,78.896484,86.428299,84.01268,34.881134,64.999695,69.320126,65.698128,-27.013767,-37.705481,-36.468867,-31.024271,-39.528693,-35.07902,-21.509645,-11.852868,-21.903797,-7.996555,7.964506,17.480368,-2.97038,14.118367,28.97107,37.483056,14.851777,26.481108,33.534734,36.672952,67.041492,176.892083,-103.449039,151.418123
96,10.31559,20.739123,0.787468,14.722348,-32.417679,-57.545242,-75.29892,-84.193039,-66.526337,-94.969368,-108.112221,-115.905018,-61.584549,-91.743164,-109.523563,-121.728516,-53.540611,-81.362114,-99.223766,-112.213211,-43.349304,-62.233086,-74.965553,-85.940094,-14.426996,-16.60376,-14.240077,-11.410612,2.010779,5.499677,6.660832,8.527979,18.54439,33.801867,43.853167,51.297426,32.738772,49.507405,60.322125,67.540625,43.871012,57.776588,67.893713,75.759419,30.675774,60.819969,84.221992,98.56144,42.691898,76.991043,93.799324,105.64888,29.523296,67.480545,89.842072,102.999229,19.490719,55.619431,78.189297,93.343735,13.144169,41.985569,58.858624,71.128635,-18.855488,-27.226621,-27.489987,-26.559655,-28.517328,-18.666532,-6.058333,2.85818,-13.43374,2.25352,18.778794,28.988052,3.339586,18.770828,30.544347,36.311651,20.988224,32.388585,40.437072,43.920228,78.125839,196.405074,-101.892815,164.91434
97,0.400085,18.824984,2.403374,13.021309,-33.488274,-60.082283,-78.066788,-86.229286,-67.158623,-89.832687,-105.962505,-120.599556,-61.08593,-85.924187,-105.635147,-123.19519,-52.549553,-76.953964,-94.518929,-108.678417,-43.687248,-61.26812,-75.444031,-88.270683,-14.648309,-18.003456,-16.617468,-13.772318,11.167747,20.185407,25.900222,29.416476,26.735829,36.977752,44.152347,48.678406,39.541382,49.659681,56.60191,60.266303,48.985243,60.3932,69.88078,77.816017,33.92355,61.88221,84.674149,99.021149,48.931732,73.890381,87.808685,99.063835,35.738983,61.064472,80.62397,93.870964,21.457844,45.564079,62.632542,73.586998,8.825397,22.992439,34.578838,41.247826,-15.206656,-17.561447,-17.397376,-20.739493,-13.676666,-3.931525,6.374063,15.56907,-1.310282,14.376422,28.776062,39.738984,9.265402,22.076513,34.46556,42.232712,17.680934,31.866053,40.57848,44.494506,79.122334,214.543455,-98.893032,177.249046
98,-14.0522,23.473524,3.184919,28.431279,-24.558907,-49.679547,-70.077667,-83.656826,-63.971787,-88.457909,-99.454394,-105.930691,-63.696642,-91.145668,-101.922655,-107.3382,-59.539118,-85.479241,-95.222454,-100.159435,-53.627129,-73.657665,-81.12937,-85.188675,9.315173,16.605581,23.306952,29.481931,26.854945,33.419663,35.614396,35.465423,26.945564,30.824077,34.209142,34.104506,24.013315,26.036814,28.217962,27.721088,18.518887,20.841073,26.175567,30.129076,32.089891,60.558586,83.09329,97.401552,56.897421,87.927046,98.230104,102.664747,46.98555,79.172573,89.324369,90.963049,35.595646,64.990454,73.525371,74.669294,23.999863,44.212933,51.298427,51.193828,-15.40188,-17.63672,-16.527312,-18.691819,-5.174283,13.022421,25.425423,33.956181,9.947003,33.895542,49.389029,57.936367,23.560098,45.233041,58.278372,64.745523,34.984171,53.542208,62.896932,66.568303,65.330773,237.287999,-95.447473,204.951346
99,-14.0522,23.473524,3.184919,28.431279,-15.629539,-39.27681,-62.088547,-81.084366,-60.78495,-87.08313,-92.946281,-91.261826,-66.307354,-96.367149,-98.210163,-91.481209,-66.528683,-94.004517,-95.92598,-91.640453,-63.567009,-86.047211,-86.814709,-82.106667,33.278656,51.214618,63.231372,72.736181,42.542144,46.653918,45.328569,41.51437,27.155299,24.670401,24.265936,19.530606,8.485248,2.413947,-0.165985,-4.824127,-11.94747,-18.711054,-17.529645,-17.557865,30.256233,59.234962,81.512432,95.781956,64.86311,101.963711,108.651524,106.265659,58.232117,97.280674,98.024769,88.055134,49.733448,84.416828,84.418201,75.751591,39.174328,65.433426,68.018017,61.139832,-15.597104,-17.711994,-15.657249,-16.644144,3.3281,29.976367,44.476784,52.343292,21.204289,53.414662,70.001996,76.13375,37.854793,68.389569,82.091183,87.258334,52.287408,75.218362,85.215383,88.642099,51.221781,259.999353,-92.319345,232.620456
100,8.395844,7.015526,-7.402897,10.12997,-20.455971,-48.967094,-73.165112,-89.412346,-57.226067,-85.709553,-100.283089,-109.312477,-59.043961,-89.143639,-97.965889,-99.447269,-58.752136,-87.301769,-90.14431,-86.135273,-56.266022,-79.866257,-82.67252,-79.620953,27.497458,43.66915,53.623502,66.254487,39.124505,41.122749,41.296576,39.628203,27.6217,26.053116,23.690113,17.689826,12.93171,9.6167,6.61316,1.805026,-2.556838,-5.461824,-4.983999,-5.742356,34.919643,65.240192,88.703041,106.280823,62.37093,96.352615,113.119125,124.588852,51.114349,87.523727,106.976051,119.797897,40.618401,74.957428,93.641396,105.1371,30.889606,56.758289,70.411606,78.573818,-13.135548,-15.015724,-12.548733,-14.370432,6.695782,27.11158,37.901662,45.784905,24.534118,46.298483,56.682556,62.21354,39.445854,59.915745,68.346529,71.115912,49.91434,67.894331,73.565859,74.439442,59.625521,266.342433,-99.714346,242.077979
101,6.527939,9.542415,1.418495,14.630834,-32.331963,-63.378754,-85.659142,-95.456142,-52.292404,-86.367188,-94.849319,-98.125305,-49.224815,-86.184082,-105.720634,-117.53294,-45.774879,-81.438961,-103.831272,-119.455261,-41.884003,-66.261978,-83.349266,-98.612137,-17.223734,-22.652212,-19.317814,-12.038119,9.582799,1.341775,-11.329595,-21.144514,29.855521,27.342527,19.946865,11.605064,44.623873,50.810956,49.11072,43.847177,52.907629,65.896396,72.023334,74.919675,33.687859,63.177338,87.336845,107.699432,63.149872,93.392487,110.520515,123.082695,53.253994,88.047295,108.014832,122.15126,43.628998,75.279236,95.040436,109.572601,34.441566,59.720078,74.550533,86.360149,-12.531196,-14.571862,-13.151911,-16.097221,8.733731,25.009102,34.876324,43.340144,26.241702,44.858896,55.58099,63.543582,40.134125,58.494622,67.666163,73.660646,49.432872,65.917268,73.223083,78.081482,66.098413,275.678215,-98.350897,256.50218
102,-1.441269,-0.099727,3.157825,9.270034,-33.46344,-61.633415,-80.632725,-91.867218,-49.69677,-77.204247,-98.21228,-113.981552,-43.603363,-76.927185,-97.465096,-111.744061,-39.639587,-73.883514,-92.805805,-105.271454,-38.826027,-66.922646,-80.74276,-90.332336,6.753396,18.965404,28.019311,35.783376,48.47994,51.361523,48.707552,44.702358,47.744431,48.453202,42.101431,33.809586,40.495241,38.929003,32.385189,25.57628,27.417615,24.452669,21.229977,18.506475,33.219681,62.453041,86.3661,106.985607,61.946125,91.712551,109.649792,123.192844,51.884022,85.869312,106.248493,121.433659,42.333813,73.251915,92.562962,107.30444,32.786579,57.607956,72.427769,85.078983,-11.870343,-12.942578,-10.630025,-14.595451,13.198842,27.271205,36.505115,45.538521,29.753695,47.131249,58.035878,66.997221,42.800878,60.690713,70.265732,77.190547,51.827553,68.94804,76.300785,81.574208,64.516039,275.486665,-95.334177,265.680391
103,5.388565,10.909631,4.495926,7.084872,-31.636734,-54.737091,-70.269814,-79.834213,-54.054909,-75.414276,-85.098095,-87.187099,-52.287025,-77.076073,-84.088326,-83.630905,-51.244469,-77.546196,-83.102646,-81.336823,-51.254883,-73.543282,-78.083038,-76.970329,-0.095343,5.985467,5.829733,2.255681,38.497245,37.598282,37.773098,36.028587,39.840254,35.910273,32.518755,28.939825,33.18461,27.893834,21.31192,17.599608,22.222121,17.369897,11.722266,8.801224,32.27457,60.425434,83.74609,104.454861,61.5271,90.884342,108.397007,121.459179,51.117039,85.425282,105.898876,121.291981,41.426983,72.375698,91.807652,107.339916,31.501064,56.529522,71.865349,85.114689,-10.243652,-11.415305,-9.43077,-13.295852,14.874439,29.50268,38.644519,47.086974,31.413052,48.273817,58.846105,67.515492,44.500867,62.352479,71.326851,77.489172,53.920954,70.096227,76.755824,81.466454,69.885635,286.295411,-90.85722,272.664378
104,-7.434769,-2.50719,5.409107,5.815777,-18.67115,-41.330681,-55.682373,-66.344948,-63.719788,-68.237457,-57.765312,-43.604965,-62.301064,-64.889259,-47.291908,-28.179016,-58.545341,-60.505486,-43.646851,-25.494003,-53.743744,-54.523773,-43.064461,-30.44838,10.377774,16.273704,19.636261,25.333415,23.915008,41.039324,54.782495,63.260024,23.830287,43.204726,57.558979,66.88113,23.248721,40.456647,52.098329,59.098108,21.318527,34.937086,41.814415,47.119887,31.370258,58.376484,82.022209,102.016869,61.159115,90.822945,107.706413,120.291367,51.357422,85.184898,105.166855,120.231743,41.610603,72.823105,91.607323,106.536484,31.535511,57.364025,72.53088,85.731926,-11.153977,-12.864216,-9.499436,-11.602655,15.337382,29.807294,38.035537,44.490863,32.113672,48.150872,58.017847,65.046711,45.161905,62.087199,70.639693,75.676365,54.736862,70.60857,77.054017,80.703219,62.42938,283.784547,-85.469599,278.476481
105,-5.65876,7.936595,4.755592,4.497468,-14.412231,-33.425102,-49.292679,-60.587654,-55.851059,-55.891342,-40.761795,-25.417786,-56.449013,-56.700211,-36.439018,-16.150703,-54.204369,-53.453407,-34.400139,-16.910477,-49.05899,-50.800781,-39.696465,-28.369789,-9.655665,-11.280874,-8.074422,-5.809479,8.822343,25.740165,35.581699,41.432921,19.830898,35.20885,47.167126,54.986087,29.343858,41.266318,50.543638,56.02337,36.210071,46.996633,53.13271,57.141361,29.50407,55.370522,79.21154,99.450645,60.520992,91.80954,108.563461,120.746269,51.72781,86.649399,106.875343,121.171761,42.652988,75.028954,94.214973,108.438492,33.122349,59.384995,74.86187,88.048553,-13.936327,-15.87813,-11.329101,-13.557303,14.535738,27.704137,35.405031,41.642193,31.792817,45.960708,54.327333,59.831209,44.53378,59.362091,67.436266,72.255207,53.549896,67.856293,73.645764,76.834,56.711683,291.669781,-80.772943,282.922588
106,-98.103962,7.211831,3.180485,4.535753,20.299072,38.176861,48.053455,48.262997,30.014362,61.700306,75.233288,78.766651,21.792068,56.244793,68.190022,72.918262,10.736618,43.77039,58.152294,63.459377,1.310635,16.982918,21.926823,23.541641,-24.321882,-32.262244,-33.494288,-32.884503,0.697965,18.802136,20.510152,21.038365,19.726663,40.763917,40.565328,38.693179,31.55267,50.13942,48.439864,46.741542,39.768562,54.796204,53.476845,50.121204,28.041,53.554516,77.817135,97.666912,57.746429,90.286274,107.319202,119.084759,50.461521,86.839657,107.599239,121.813602,42.561436,76.674328,96.40543,110.347538,34.469547,61.168556,76.653843,89.890308,-15.417843,-18.343577,-14.398344,-16.120439,13.881369,27.73174,34.703485,39.974376,30.977341,44.06812,50.545923,54.569395,43.497052,56.756841,62.187173,64.536652,52.28642,65.04282,68.918029,70.189717,-41.311111,298.810707,-77.511292,287.387436
107,56.338177,4.786645,0.58342,1.694555,0.132751,-4.092979,-12.512856,-21.114006,-30.230999,-10.255737,8.584442,18.197823,-38.28907,-10.899467,7.089386,20.269203,-43.150406,-19.167824,-0.473213,11.124687,-45.104828,-38.512058,-30.318375,-24.346504,-21.545892,-28.399138,-27.578413,-23.610949,5.093791,21.367927,23.164432,22.909341,22.176178,36.237797,36.912359,35.030762,33.136012,45.012654,42.362079,39.821914,40.989553,52.249061,49.296033,45.06366,28.084488,54.339752,78.021183,97.488842,59.014835,90.628796,107.601299,119.31284,49.789581,85.204639,104.87463,118.063374,39.955158,72.670269,91.282825,103.717175,31.018124,56.635323,71.460743,83.096066,-15.406172,-16.751034,-12.63926,-13.769848,15.60859,31.318759,38.382204,43.088635,32.658187,47.402642,53.309748,56.56523,44.415898,59.367155,64.039376,65.362811,51.543007,65.043994,67.776449,67.721553,15.029755,303.585295,-76.925182,289.069934
108,-27.741852,17.696495,0.098019,1.257918,7.691231,12.12822,21.515923,33.179741,2.926025,26.289825,42.022476,53.68103,-4.445343,18.561401,38.960152,56.559334,-9.61813,9.261818,27.828255,43.395195,-12.680569,-5.264626,4.752617,14.170303,-20.93623,-34.574858,-43.336933,-48.472344,-14.508692,-7.505639,-0.355929,5.675974,2.128537,11.428396,18.499929,22.407681,15.979957,23.753531,28.629591,30.457156,26.663087,33.037767,34.052573,31.652891,28.036022,54.110985,78.089104,97.795486,59.260426,91.645546,108.343506,119.963379,50.546951,86.741066,105.886002,119.066505,40.936432,74.438438,92.713509,105.230026,32.048492,58.601189,73.756371,85.84877,-16.041337,-18.308441,-13.99993,-14.141894,14.419586,29.052766,36.091943,40.783492,31.476717,45.417119,51.414937,54.365371,43.419246,57.481853,62.093497,62.852719,51.087042,64.337816,67.214088,66.977646,-12.770233,321.185737,-76.8853,290.231799
109,41.364326,-19.450392,1.128445,-0.631398,-3.568039,-12.818871,-26.171036,-40.615997,-42.760277,-27.018242,-6.411781,5.241623,-52.070446,-29.218369,-7.840118,7.821922,-56.44598,-38.335419,-16.987495,-2.594833,-57.229557,-57.042904,-49.936581,-44.371719,-17.007978,-22.140054,-19.056609,-14.549817,6.441494,23.633488,25.944189,25.3491,22.25386,35.431398,37.431679,36.314368,32.904757,44.489628,43.09129,41.139792,41.18734,52.981112,51.367698,48.387623,27.170048,52.754002,76.62878,96.765118,59.039841,90.795879,107.197323,118.794765,51.124992,86.445408,105.467777,118.771305,41.980476,75.075474,93.200626,105.648136,33.029022,59.620113,74.55946,86.675892,-16.304208,-18.425397,-13.073982,-11.952718,14.460217,29.281243,36.477265,41.320226,31.453746,44.989559,50.908645,53.957448,43.524099,56.949441,61.499767,62.317898,51.573327,64.276066,67.076015,66.743612,28.543196,301.717453,-75.807753,289.582509
