takenoko1/special-research/HandMotion_SimilarSearch_自分用/NewProject/handData/key/d4_feature_d2/94.csv
,vel_0x_L,vel_0y_L,vel_0x_R,vel_0y_R,posFromWrist_1x_L,posFromWrist_2x_L,posFromWrist_3x_L,posFromWrist_4x_L,posFromWrist_5x_L,posFromWrist_6x_L,posFromWrist_7x_L,posFromWrist_8x_L,posFromWrist_9x_L,posFromWrist_10x_L,posFromWrist_11x_L,posFromWrist_12x_L,posFromWrist_13x_L,posFromWrist_14x_L,posFromWrist_15x_L,posFromWrist_16x_L,posFromWrist_17x_L,posFromWrist_18x_L,posFromWrist_19x_L,posFromWrist_20x_L,posFromWrist_1y_L,posFromWrist_2y_L,posFromWrist_3y_L,posFromWrist_4y_L,posFromWrist_5y_L,posFromWrist_6y_L,posFromWrist_7y_L,posFromWrist_8y_L,posFromWrist_9y_L,posFromWrist_10y_L,posFromWrist_11y_L,posFromWrist_12y_L,posFromWrist_13y_L,posFromWrist_14y_L,posFromWrist_15y_L,posFromWrist_16y_L,posFromWrist_17y_L,posFromWrist_18y_L,posFromWrist_19y_L,posFromWrist_20y_L,posFromWrist_1x_R,posFromWrist_2x_R,posFromWrist_3x_R,posFromWrist_4x_R,posFromWrist_5x_R,posFromWrist_6x_R,posFromWrist_7x_R,posFromWrist_8x_R,posFromWrist_9x_R,posFromWrist_10x_R,posFromWrist_11x_R,posFromWrist_12x_R,posFromWrist_13x_R,posFromWrist_14x_R,posFromWrist_15x_R,posFromWrist_16x_R,posFromWrist_17x_R,posFromWrist_18x_R,posFromWrist_19x_R,posFromWrist_20x_R,posFromWrist_1y_R,posFromWrist_2y_R,posFromWrist_3y_R,posFromWrist_4y_R,posFromWrist_5y_R,posFromWrist_6y_R,posFromWrist_7y_R,posFromWrist_8y_R,posFromWrist_9y_R,posFromWrist_10y_R,posFromWrist_11y_R,posFromWrist_12y_R,posFromWrist_13y_R,posFromWrist_14y_R,posFromWrist_15y_R,posFromWrist_16y_R,posFromWrist_17y_R,posFromWrist_18y_R,posFromWrist_19y_R,posFromWrist_20y_R,posFromBody_0x_L,posFromBody_0y_L,posFromBody_0x_R,posFromBody_0y_R
2,-19.348984,24.918144,-0.321407,2.866825,-1.114082,1.402245,8.942413,12.057037,-12.418327,9.379005,27.201462,38.694077,-20.235901,4.481621,24.633865,38.707466,-23.515892,-5.333176,13.086319,27.037239,-23.143673,-24.907951,-22.033253,-17.361774,-18.577673,-25.017932,-20.092596,-13.139561,-6.460699,1.820711,7.446297,12.521872,9.071938,16.990873,21.897931,24.523003,20.723994,26.55947,29.546708,31.297085,30.186812,34.664273,35.112334,35.690812,26.244736,51.664238,75.346527,95.680389,51.616802,85.183868,103.861542,116.762695,43.48074,81.581154,102.354355,115.738449,35.729828,71.091499,90.294228,102.175713,29.240913,56.652489,72.23156,83.087425,-15.267481,-17.050462,-11.406104,-6.007636,17.004952,30.911886,36.279479,39.025828,34.649391,47.835327,50.858998,50.934272,46.17597,60.200538,61.384664,58.991095,52.873852,66.275544,65.71695,61.59548,-9.619217,324.205239,-76.231499,299.124445
3,18.865128,-21.648706,1.567326,-0.935519,0.957413,-1.096573,-7.864151,-14.724998,-31.181774,-11.928864,9.640503,21.92894,-41.773567,-16.137314,6.227417,21.781883,-47.642841,-27.849026,-5.575905,8.562584,-49.904137,-49.14917,-41.534557,-34.455585,-19.255631,-24.163368,-19.250629,-12.734787,6.177264,22.81054,25.035037,24.338925,26.034344,40.084909,40.80319,38.657425,39.690324,51.126254,48.675812,46.41093,49.534081,60.192758,57.885083,54.908899,25.70303,51.059761,74.484386,95.061207,50.868301,84.721699,103.154812,115.652103,42.152195,80.771084,101.40192,114.205685,34.053154,70.28635,89.030743,100.238857,27.327805,55.735531,71.211491,81.399708,-15.076857,-15.643911,-9.617812,-5.528329,17.678958,31.951207,37.609706,40.715011,35.350938,48.808205,51.887389,51.827738,46.928831,60.979582,62.290358,59.992872,53.180443,66.464253,66.193416,62.358036,9.520712,302.936499,-74.389372,298.568892
4,-19.90242,19.709805,0.892525,1.405069,-0.840111,1.620369,9.648743,14.220085,-14.306545,9.031677,27.106476,39.457626,-20.726395,5.533218,28.167915,45.185509,-22.970924,-2.246819,18.371887,33.959084,-21.852551,-19.142361,-11.301155,-2.882481,-21.549103,-29.158606,-22.512656,-14.362405,-9.245395,-2.397583,4.252689,10.715302,8.109682,15.644899,21.880641,25.707252,21.43715,26.265723,29.304646,31.168767,31.98412,36.348948,36.281949,35.923302,25.219173,50.079689,73.452473,93.509846,51.975689,85.199261,102.960148,115.063076,43.367844,80.816402,100.521526,113.06757,35.126152,70.42654,88.472385,99.457226,28.128834,56.154156,71.226597,81.208706,-16.103519,-17.403427,-11.836381,-7.866632,17.530571,31.295603,36.802505,39.724843,35.008223,47.565231,50.455027,50.418038,46.404138,59.533202,60.633903,58.386929,52.753871,65.293342,64.818172,61.133464,-10.184097,322.747034,-73.299236,300.074691
5,24.973526,-21.694957,-0.025578,-0.963368,-2.105484,-6.792755,-16.364479,-25.889568,-32.621441,-18.398209,2.976151,15.46463,-42.005081,-22.596016,-0.836105,15.17395,-48.073368,-32.652512,-10.706291,3.099861,-51.51392,-53.497181,-45.306816,-38.063622,-16.176817,-18.808434,-10.537646,-1.385679,8.026813,26.488024,29.307301,28.832935,26.449801,42.318731,44.115544,42.458842,39.366505,52.569114,51.560668,50.040867,48.894347,61.167118,60.279394,58.328204,25.04425,50.327454,73.558044,93.97934,51.48016,84.974442,102.731667,115.121384,42.542038,80.378609,100.307121,112.872391,34.112663,69.214554,87.626266,98.985786,26.913071,54.676094,69.929008,80.326996,-15.921232,-16.83767,-10.691713,-6.427353,17.516739,31.697907,37.069575,40.388968,35.425717,48.36249,51.282297,51.552331,46.903452,60.517689,62.011369,60.364424,52.961846,65.827112,65.752888,62.67284,14.972477,301.105506,-73.141766,299.164753
6,-28.386955,22.691053,0.481911,0.651343,3.221741,8.743744,18.66394,25.214882,-7.940197,13.787842,30.882225,42.181091,-14.979172,10.534286,32.398567,48.314667,-18.128242,3.648949,24.19075,39.006844,-18.66045,-10.243607,1.638222,12.03186,-22.58898,-31.015997,-25.290437,-17.986413,-10.58754,-3.716387,2.813164,9.475539,6.084515,14.477816,21.000512,24.956861,19.303488,25.208124,27.89896,29.469396,29.986185,34.37207,34.233996,33.765372,24.761066,49.838734,73.073845,93.109589,51.836987,85.040245,102.810745,115.013123,43.222103,80.63015,100.394554,112.824211,34.761086,69.756203,87.869682,98.875465,27.418842,55.162582,70.27256,80.376205,-16.089626,-17.37706,-11.536829,-6.769265,17.442886,31.576073,36.997018,40.049712,34.812598,47.854902,50.881907,51.203256,46.085197,59.806262,61.218247,59.352952,52.241713,65.280868,65.033002,61.629875,-13.382092,323.853139,-72.627468,299.872675
7,11.54995,-20.990509,0.322437,-0.774659,3.697357,4.794044,3.288116,-1.209755,-19.621696,0.94986,22.068329,33.792343,-28.443489,-4.082909,16.646347,33.443298,-34.579639,-15.475216,5.199738,18.360672,-37.880917,-45.490322,-48.646603,-50.993214,-21.360147,-25.745846,-22.0683,-17.576143,5.410633,25.462227,27.571682,26.240776,25.177001,42.641438,42.866457,39.303458,37.965018,53.205328,51.315519,48.425538,47.460996,58.323943,60.766234,61.712065,24.79311,49.666042,72.581577,92.7701,51.227245,84.546833,102.317448,114.532986,42.385254,80.131588,100.096264,112.407131,33.880005,69.153614,87.50845,98.510456,26.52832,54.511986,69.70602,79.907513,-15.809649,-16.76746,-10.37234,-5.605455,17.044596,31.609418,37.223395,40.48746,34.944126,48.404481,51.436055,51.587653,46.488551,60.51596,61.77962,59.657505,52.717685,65.899669,65.633525,62.113134,-1.796522,302.866273,-72.269411,299.101659
8,-10.638199,9.012781,0.236835,1.004864,-8.692646,-9.812107,-9.226742,-15.489235,-11.268368,13.74115,32.524109,46.173477,-16.12999,10.711784,32.116356,47.005463,-18.132591,1.686344,22.401466,36.612968,-17.126884,-14.854717,-3.934307,6.906853,-8.3347,-4.370632,7.730349,19.590442,7.419188,16.65563,23.587669,28.332077,19.644288,27.568533,35.96486,38.625624,28.451688,33.819527,37.536346,38.839712,36.37655,41.785639,40.833077,38.836501,24.24614,49.251766,72.860413,93.43998,50.776978,84.558105,102.4617,114.635239,42.321796,80.669632,100.749779,113.106308,34.300003,70.243835,88.730507,99.85405,27.531738,56.067295,71.274147,81.393814,-16.624137,-17.949733,-11.71677,-6.943463,17.109928,31.319747,36.737111,39.956283,34.811054,47.923877,50.745995,50.884933,46.219195,59.730309,60.623961,58.365254,52.179098,65.006264,64.603034,61.086719,-12.37464,311.872679,-71.972494,300.100148
9,17.076988,-10.515292,0.09407,-0.897295,1.688805,-0.33989,-5.16346,-10.266609,-23.002853,-5.214386,15.033875,26.27552,-32.490635,-11.088867,9.035568,25.279541,-39.400177,-22.716751,-2.418022,10.705032,-43.624134,-49.073296,-46.643028,-43.552666,-20.336016,-21.73843,-13.395023,-3.915161,6.286192,26.586578,29.137611,27.875927,25.655567,43.669644,44.283937,41.279348,38.599689,53.236389,51.886031,49.814181,47.517004,59.346283,59.980213,59.179063,24.435711,49.487915,72.764969,93.186264,51.469631,84.896393,102.813263,115.229874,42.689724,80.624657,100.61245,112.987289,34.094582,69.558563,87.983208,99.053993,26.652889,54.764328,70.074348,80.362244,-15.957912,-17.044596,-10.667692,-6.098841,16.715034,31.513705,37.147936,40.305852,34.664952,48.141918,51.248087,51.389619,46.350538,60.303847,61.510326,59.273109,52.624627,65.978216,65.719605,62.154507,4.728041,301.351427,-71.852732,299.196894
10,-18.893166,15.394316,-0.210285,0.140729,-0.018997,4.262009,13.262558,15.57003,-7.696323,16.293755,34.575005,47.432556,-14.746685,12.112427,33.875885,48.202629,-17.434845,3.187065,23.984871,38.035355,-17.138615,-12.52018,-0.369301,10.830116,-18.266019,-22.526921,-15.732091,-8.239049,-1.37512,9.041681,16.819021,22.390514,14.536788,23.522461,31.948181,35.266031,26.298636,31.830423,35.97542,37.254641,36.169625,41.157576,40.137583,37.638296,24.783726,50.017548,73.33952,93.578625,52.452679,85.323772,102.871685,115.083675,43.82412,80.769253,100.334415,112.67561,35.227261,69.853992,87.835064,98.932858,27.574482,55.170879,70.193081,80.589924,-16.061282,-17.128638,-10.811447,-6.255378,16.333231,31.202977,36.929525,40.066631,34.138036,47.881146,51.25031,51.557457,45.817015,60.004604,61.589614,59.617923,52.277096,65.644208,65.676256,62.415155,-14.158602,316.735385,-72.056494,299.327264
11,15.7164,-15.579073,0.345497,-0.539328,2.230682,2.403374,0.643158,-2.57206,-20.590553,-1.781044,19.891891,32.229309,-29.527245,-6.41613,14.908676,32.115326,-35.917912,-17.689877,3.342819,17.001343,-39.692173,-44.459953,-42.059326,-38.755589,-20.970502,-23.739946,-18.169873,-11.226904,7.028185,26.681612,28.651018,27.186607,26.728172,44.064785,44.517107,41.50943,39.539962,53.463198,52.192127,49.995912,48.279992,59.876349,60.295202,58.81171,25.26123,50.429764,73.72324,94.361858,52.187691,84.939137,102.673473,115.058155,43.42804,80.684681,100.835667,113.411579,34.683151,69.774914,88.381519,99.900799,26.900139,54.562054,70.08997,80.990925,-15.673304,-16.3018,-9.597311,-5.467999,16.59672,31.638441,37.225742,40.266023,34.514467,48.301543,51.631001,51.739065,46.35023,60.882078,62.502285,60.43025,52.932762,66.752875,67.112015,63.923038,1.563835,301.153641,-71.70496,298.785266
12,-14.08247,12.192001,-0.198326,-0.163392,-2.023659,1.086788,8.361797,9.377232,-6.935177,17.302608,36.477642,49.58765,-13.84552,12.75816,34.673252,49.462566,-17.007236,2.029953,22.508297,36.392155,-17.280979,-15.603504,-5.271091,4.985104,-15.347386,-17.450296,-8.743364,1.208579,4.236078,14.167397,20.305697,24.961863,20.743754,29.066722,35.320371,37.099215,31.89168,37.286072,39.930966,40.108745,41.076745,45.968242,43.485196,39.748061,25.174484,50.431881,73.645763,94.071522,52.621937,85.230045,102.813663,115.185299,43.929691,80.658016,100.566845,113.244495,35.217247,69.579334,88.023891,99.659214,27.371464,54.35194,69.631176,80.605373,-15.92537,-16.748749,-10.009927,-5.385192,16.935606,31.833387,37.377216,40.359699,34.547812,48.378669,51.785254,52.029724,46.073156,60.607782,62.55113,60.767531,52.447589,66.436219,67.036927,64.020234,-12.513371,313.366668,-71.898022,298.6429
13,27.295818,-11.329286,-1.04948,1.159611,-1.376495,-5.819664,-14.88945,-24.20311,-31.444302,-16.57608,3.72654,15.803375,-40.385571,-19.759941,-0.625648,15.64476,-46.405735,-31.3591,-11.886406,1.307716,-49.939156,-60.004406,-63.097916,-64.424171,-18.174196,-21.154394,-15.215672,-8.684948,8.791221,29.159718,31.637083,30.488587,26.755651,43.697679,44.374525,41.159922,38.404928,52.247641,50.879375,48.297405,46.721535,56.997174,59.276443,59.989784,25.362339,51.279716,75.022202,95.287514,53.545132,86.747475,104.113655,116.109695,44.486561,82.18895,102.167587,114.602051,35.497227,70.888138,89.509621,101.145287,27.487335,55.718765,71.09436,81.728439,-17.143211,-18.163513,-11.356395,-6.549928,15.287796,30.102276,35.997711,39.82741,33.395487,46.80848,50.74902,51.942471,45.347527,59.402723,61.674891,60.605683,51.93611,65.062951,65.538738,62.816409,14.770918,302.062298,-72.959032,299.827427
14,-24.90818,19.057042,-0.304699,-0.562299,1.691208,6.900673,17.500877,23.206215,-11.384354,14.403419,33.819809,46.580315,-19.709587,10.229187,32.988625,48.59539,-23.311329,-0.466805,20.575676,35.225143,-23.046684,-24.601479,-22.137852,-18.492508,-20.641125,-28.717029,-23.190367,-15.909623,-4.898907,5.093421,11.825204,17.011312,11.749374,20.272166,25.518358,26.758059,23.997322,29.251911,32.145103,32.977869,34.286114,39.43758,39.845256,38.696513,25.768089,51.563129,75.474873,96.46677,54.207516,87.178631,104.602833,116.665707,45.01236,82.10947,101.903286,114.402866,35.603027,70.263462,88.75803,100.540295,26.998158,54.325333,69.566288,80.354862,-16.439627,-17.243556,-10.464904,-6.084206,16.242458,31.261084,36.855672,40.37069,34.059736,47.874106,52.032317,53.432261,45.590885,60.235983,62.787263,61.898489,51.922155,65.476494,66.562436,64.247228,-10.15008,321.119834,-73.276548,299.265622
15,24.930496,-19.996574,-0.157471,0.562979,-1.226692,-6.242523,-16.067619,-26.239128,-33.477287,-17.776108,3.862381,16.624718,-41.474133,-20.522232,-0.19249,16.7593,-46.673069,-30.551262,-9.932671,4.189568,-49.102478,-59.01495,-61.6745,-62.642441,-17.65963,-19.680659,-13.051999,-5.343634,8.220215,30.689646,34.054179,32.411803,26.366314,45.435336,46.720609,42.641376,38.353675,54.157087,52.998958,49.688951,47.029731,57.969311,61.35101,62.853336,25.682659,51.45298,75.525341,96.666126,54.392109,87.43681,104.666233,116.527348,45.549374,82.889614,102.590618,114.964886,36.419163,71.396999,89.786968,101.318035,28.011875,55.807457,71.029644,81.75333,-17.111533,-18.073975,-10.857081,-6.23216,15.624274,30.282402,35.846485,39.420722,33.520285,47.026212,50.952056,52.233809,45.237055,59.511898,61.941468,61.072578,51.843979,65.100804,65.984391,63.737725,14.766111,301.144965,-73.448324,299.850306
16,-22.362785,21.235349,0.168915,-0.885933,2.928543,7.220535,16.578369,22.325935,-11.305103,13.404465,33.040352,45.291481,-20.51342,8.349495,30.980644,46.852455,-24.797173,-4.278145,16.639366,31.569328,-25.280743,-31.404018,-34.852581,-36.75293,-20.785374,-29.837429,-24.724247,-17.451716,-5.540864,5.634972,12.571211,18.447627,11.381651,20.133475,24.337999,25.31242,23.491647,29.085432,31.516484,32.721976,33.772968,37.260693,37.921607,38.181762,25.813236,51.718426,75.529919,96.73296,54.469757,87.268009,104.744396,116.945629,45.548115,82.577076,102.402363,115.080929,36.32309,70.918636,89.317532,101.251431,27.786541,54.899139,70.115376,81.275196,-16.27358,-17.047066,-10.029687,-5.430084,16.635005,31.528155,37.012826,40.409717,34.425855,48.278016,52.396398,53.873097,45.912605,60.443773,63.036735,62.264114,52.36262,65.916157,67.075768,65.017812,-7.599878,322.381379,-73.282614,298.965438
17,29.468422,-21.080603,-0.362606,0.158452,-3.054657,-9.737206,-21.934204,-33.910789,-38.188992,-27.747574,-6.884193,6.356277,-46.753521,-30.599556,-10.005684,8.191338,-52.214928,-39.625797,-18.651352,-3.748856,-55.050488,-66.949253,-70.211163,-71.261215,-15.535416,-19.365547,-14.916368,-8.412197,10.838494,31.73576,35.647216,35.542858,27.977691,45.276575,47.517127,45.025622,39.007612,53.318517,52.667359,50.332823,46.956063,57.229232,60.952535,63.202967,25.987244,52.154388,76.263657,97.247772,54.397259,87.614136,104.937057,116.889267,45.43396,83.010979,102.820702,115.356789,36.319256,71.480942,89.982033,101.752396,28.022747,55.82262,71.187973,82.161255,-16.523978,-17.383235,-10.387593,-5.817198,16.080548,31.121281,36.741372,40.175621,34.108458,48.107399,52.044914,53.066699,45.798181,60.424322,62.872602,61.800306,52.237761,65.775983,66.77282,64.415869,21.865969,301.292564,-73.647795,299.115677
18,-26.61747,18.652144,-0.325527,-0.190377,1.81572,5.791855,14.289093,19.802971,-14.330177,7.827988,27.249069,39.278412,-23.822937,1.761703,24.255867,41.158104,-28.480625,-10.096321,10.694504,26.40461,-29.353752,-34.362373,-34.794273,-33.082294,-20.7729,-30.573432,-24.65978,-16.530771,-5.363209,7.387572,14.017282,19.861588,12.858782,22.99573,27.236748,28.329669,26.00526,32.428476,34.127477,34.659765,36.591565,40.212486,39.540394,38.212575,26.274776,52.496223,76.729717,97.821865,54.71323,87.915287,105.329304,117.295818,45.895729,83.216,102.911282,115.329037,36.903305,71.720638,90.216923,102.070141,28.784466,56.229687,71.635265,82.701015,-16.313409,-17.077941,-10.399757,-5.591994,17.249978,31.90156,37.342203,40.771759,34.946966,48.65105,52.483713,53.556071,46.294654,60.867752,63.31313,62.416081,52.484022,65.980439,66.978696,64.830337,-4.749584,319.936063,-73.971405,298.916655
19,21.016388,-15.294651,-0.416107,0.788368,-0.506058,-3.88813,-12.435951,-22.085724,-31.544094,-15.999641,4.367981,16.268463,-40.494461,-20.017548,-0.31002,16.362076,-46.447792,-31.098061,-11.335487,1.893082,-49.780369,-60.219212,-63.965263,-66.388206,-19.563951,-25.971791,-24.490337,-21.620239,7.466428,28.20376,29.957595,27.950089,26.35946,43.310257,43.469141,39.359157,38.241351,52.193054,49.992022,46.188814,46.69313,56.748629,58.78596,59.143124,26.45216,52.757778,77.018909,97.868328,55.206299,88.465748,105.674343,117.460155,46.372547,83.639889,103.293858,115.720196,37.354145,72.097721,90.630169,102.449055,29.141064,56.574097,71.990719,82.955647,-16.517803,-17.589173,-10.773656,-5.970153,16.48594,31.097199,36.573843,39.927137,34.442404,47.931102,51.62742,52.576771,45.984112,60.166514,62.447451,61.466854,52.346133,65.387511,65.980624,63.554389,16.243343,304.621065,-74.410973,299.684676
20,-31.644573,13.249539,0.81522,-1.18814,5.410137,12.781734,25.527821,33.308315,-5.906353,19.716854,38.211536,49.431896,-15.477219,14.554882,37.748051,53.968678,-20.177879,4.975777,26.725788,41.643505,-21.919556,-12.122955,0.504112,11.176128,-21.947517,-30.691869,-24.029308,-15.837684,-6.835338,4.546436,12.233436,18.074407,12.474818,24.128356,29.625316,29.893621,27.144308,34.014103,35.814066,34.84057,38.104759,43.674276,41.582913,37.284528,26.416969,52.493706,76.66523,97.930527,54.971294,87.946014,105.192833,117.135086,46.156254,82.98214,102.50885,114.911842,37.134933,71.615639,89.907303,101.806412,28.995323,56.024036,71.207886,82.347794,-15.65762,-16.263268,-9.622814,-5.102004,17.882611,32.572848,38.188307,41.533512,35.500868,49.118809,52.928131,53.677657,46.741666,61.233376,63.827943,62.863401,52.885276,66.50754,67.693333,65.680085,-15.447264,317.854534,-73.641787,298.480466
21,-1.320648,1.909817,-0.739574,0.382976,6.29076,15.471554,28.948574,38.681316,-0.299721,24.61504,42.798901,55.302143,-9.168949,19.74741,42.953053,60.673542,-13.136272,9.438915,28.846149,43.882198,-14.067135,-9.483204,-1.831684,6.10199,-19.922535,-27.412181,-22.297765,-14.773971,-8.404725,0.73977,8.385644,15.743762,8.780353,20.406412,26.861182,30.003661,22.697969,31.396071,35.090721,36.440277,34.275122,39.877613,38.810381,36.580944,26.256123,52.708454,77.107143,98.256054,54.793453,88.079739,105.517559,117.626438,46.034317,83.356304,103.311596,115.913944,37.180595,72.117519,90.890636,102.87878,29.139004,56.790962,72.346859,83.548679,-16.068692,-16.995257,-10.021536,-4.945714,17.035333,31.998631,37.469656,40.594536,34.953944,48.820925,52.456296,52.964749,46.451933,61.078815,63.351168,62.024275,52.782585,66.447334,67.302824,64.894372,-16.790171,319.734525,-74.40362,298.833616
22,33.349514,-16.700337,0.39465,0.244655,-0.44426,-5.089874,-15.245819,-26.032906,-32.378426,-16.084442,4.789352,16.503525,-41.882629,-20.038033,-0.171318,15.424118,-48.081493,-31.709461,-11.658897,1.098633,-51.475067,-60.867062,-62.539787,-63.066273,-18.20643,-22.671973,-19.421431,-14.462687,9.710005,31.087195,32.48331,30.172795,27.806396,45.548524,45.540497,41.484359,39.129816,53.651043,51.817117,48.294194,47.383067,57.859704,59.324177,59.124414,26.302185,52.631607,76.908646,98.007431,54.865608,88.117332,105.274086,117.044792,46.117687,83.30658,102.87735,115.194855,37.179737,72.156487,90.575752,102.291298,29.07629,56.731052,72.182808,83.305779,-15.954207,-16.9516,-10.124659,-5.483684,17.037062,31.843329,37.25989,40.365195,34.911892,48.569169,52.044482,52.372871,46.486636,60.878311,63.046491,61.644016,52.938999,66.356931,67.096083,64.693807,16.507416,303.007512,-74.060898,299.051595
23,-31.400185,15.007017,-0.118332,0.255214,4.778938,11.741638,23.342857,30.026207,-6.403656,19.543533,37.197075,48.066788,-15.21492,14.982376,37.534904,52.500343,-19.509029,5.927353,27.542152,41.640816,-21.025887,-11.93779,0.108891,9.969292,-21.242327,-29.116925,-23.670971,-17.381506,-3.698294,6.226603,13.022112,17.94257,14.149119,23.814973,29.429073,29.916222,27.540807,33.023379,35.088004,34.513726,38.093459,43.424372,41.830532,38.32916,26.140079,52.33017,76.754036,97.966232,54.992008,88.184166,105.436592,117.331924,46.410141,83.498726,103.067436,115.46711,37.536449,72.312927,90.65094,102.310181,29.372978,56.898422,72.238426,83.291931,-15.963593,-17.177483,-10.461755,-5.809911,16.882686,31.586694,37.02425,40.17031,34.620862,48.200951,51.904124,52.496989,46.166214,60.439698,62.886002,61.781225,52.698851,66.164331,67.039644,64.760992,-14.931908,317.987235,-74.218369,299.279516
24,-1.431427,0.775709,-0.034275,-0.373219,6.751213,16.39595,29.721794,38.75782,-0.062199,24.060516,42.115059,54.500885,-9.141483,20.113449,43.559761,61.421127,-12.966614,9.937019,29.642029,45.063858,-14.171276,-8.314934,0.746498,9.705963,-18.664,-25.576218,-20.063018,-11.997488,-8.573983,-0.169999,6.451004,12.449686,8.782205,20.745915,28.042715,31.540258,22.967819,32.259527,35.937505,36.90217,34.765482,41.205679,40.016181,37.804343,26.091671,52.398663,76.89085,98.49329,55.167332,88.529148,106.024876,118.211689,46.404133,83.635426,103.461971,116.023922,37.370739,72.287693,90.776539,102.613049,29.065533,56.672974,72.02013,83.23225,-16.002002,-16.965432,-10.040061,-5.373583,17.20243,31.838821,37.335905,40.761817,34.993835,48.635304,52.325694,53.022979,46.440509,60.90085,63.35654,62.248059,52.81309,66.511492,67.633744,65.544419,-16.41057,318.757078,-74.299879,298.90043
25,37.646599,-15.461192,-0.334282,-0.365439,1.232529,-2.910576,-14.285889,-26.778946,-39.55267,-25.389748,-1.175652,14.141464,-49.467487,-29.596596,-5.014801,14.290009,-53.992252,-38.442078,-14.194794,0.930061,-55.065994,-66.262093,-69.935417,-73.53899,-16.001261,-23.994543,-24.76877,-24.737709,8.812401,30.752631,32.212349,30.411213,26.609982,44.215765,44.308823,39.890396,38.09599,53.339018,51.345962,47.272657,47.008551,56.863423,60.120942,61.784375,26.363525,52.830162,77.214146,98.485394,53.924274,88.13261,105.853443,118.013935,45.179729,83.590908,103.619099,116.137447,36.675053,72.616596,91.421871,103.430729,29.173737,57.409859,72.944126,84.397831,-15.670526,-16.317361,-9.289794,-4.608927,17.025391,31.923728,37.299595,40.579839,35.02823,48.744108,52.249247,52.681314,46.653054,61.004776,63.240943,62.078924,52.994574,66.390647,67.219028,64.985516,21.132574,303.261152,-74.737616,298.500257
26,-33.299274,11.134773,0.920219,-0.16864,7.464695,14.39661,22.91502,28.592777,-9.127865,16.390743,34.444828,44.564152,-19.479561,10.583668,33.349743,50.490818,-24.550495,1.111393,23.327579,39.221706,-26.404495,-17.165337,-5.680103,4.53455,-21.549721,-29.942713,-22.795535,-12.013975,-7.752949,3.938133,10.630148,15.565365,12.505879,25.049425,29.409622,29.832365,28.317257,36.327212,37.250195,36.385134,40.124306,46.977614,44.851547,40.481656,26.268368,52.363701,76.432743,97.64986,53.638172,87.341938,104.878407,116.929035,44.934826,82.788219,102.627468,115.032749,36.521816,72.006397,90.258808,101.867237,29.217339,57.079697,72.206326,83.214169,-15.272668,-16.212077,-9.328141,-4.312525,17.399661,32.037596,37.511832,40.62609,35.322285,49.118686,52.671619,52.876693,47.007131,61.470497,63.683138,62.22342,53.45128,66.993207,67.667954,65.09926,-12.248611,314.358287,-73.899307,298.293979
27,-6.294193,5.842824,0.285416,0.180126,6.304779,15.684471,29.335556,41.699295,-0.508232,26.118965,44.659309,58.124542,-9.280071,18.960686,42.817497,61.786652,-13.768959,10.709953,31.208382,46.997795,-15.786095,-4.384232,8.247986,19.981728,-21.542187,-30.008045,-25.157612,-19.097365,-6.915552,3.447217,11.19535,17.458817,9.522161,22.189393,28.102242,29.822423,22.955839,33.185783,36.179381,35.8195,33.47885,42.43865,42.494164,38.936969,25.819817,51.806202,75.981274,97.018147,53.062649,86.885548,104.397984,116.549664,44.450054,82.3316,102.190876,114.683933,36.151428,71.668339,90.023403,101.791363,28.886261,56.849041,72.055035,83.070431,-15.298418,-16.231466,-9.578847,-4.657216,17.876003,32.34326,37.648917,40.736562,35.861922,49.314929,52.637657,52.93622,47.449881,61.711262,63.773602,62.370016,53.646967,67.076323,67.607562,65.007252,-18.568211,320.173185,-73.639297,298.446179
28,32.880249,-18.314431,0.447636,0.650108,4.230309,3.846931,-3.49823,-13.002663,-34.254169,-15.63549,8.444366,22.598763,-45.13464,-20.77034,3.598366,21.93512,-50.635242,-31.658936,-7.784386,6.946564,-52.085381,-61.536655,-64.439735,-66.852436,-15.904374,-23.322143,-22.717236,-22.368654,9.640598,32.724631,33.979461,31.442075,28.161337,46.034253,45.876913,41.249646,39.894101,55.20598,53.297028,49.419781,48.743243,59.0844,61.911581,63.31492,24.854736,50.521603,74.447708,95.031166,52.482719,86.12011,103.668823,116.198959,43.889809,81.448059,101.329536,114.003983,35.727253,70.857811,89.334297,101.177101,28.754139,56.726418,72.122612,83.094292,-16.116734,-17.450913,-11.45853,-7.747083,18.332956,32.752666,38.249564,41.549073,36.425704,49.591632,52.913434,53.119186,47.954382,61.828773,63.814852,62.304313,54.025806,66.997468,67.386125,64.689793,14.297361,301.816176,-73.206339,299.05371
29,-14.81369,18.770273,-1.096458,-0.182287,2.205276,5.279045,8.61454,8.94001,-18.109646,7.883148,27.122841,38.875351,-27.748375,0.433846,20.421181,36.500816,-32.515125,-11.963654,6.823082,21.496353,-33.639221,-38.354187,-39.23069,-37.261162,-24.280694,-34.712685,-30.820866,-23.694312,-6.97545,4.136969,9.245086,13.500493,13.001117,21.983702,25.909361,27.254656,27.614722,32.583161,32.535675,32.884194,39.588868,43.628457,42.977422,41.572971,25.264835,50.996876,74.525986,94.349442,52.418575,86.091728,104.764023,118.922882,43.912525,81.644554,103.072929,118.021317,35.816059,70.417671,90.644073,104.840126,28.852673,56.024323,72.069283,84.788246,-15.754568,-17.127774,-11.893315,-9.090957,18.204515,34.49341,41.418657,46.127002,35.460977,50.987253,56.269878,58.658569,46.678186,62.731194,66.740278,67.121031,52.715215,67.711859,70.206513,69.054374,-0.535555,320.575627,-74.322023,298.860601
30,-16.683712,0.428795,2.079391,1.118362,7.598133,14.698391,20.994701,28.027439,0.506458,29.453945,48.927784,60.842342,-8.458557,19.409924,44.110966,63.317585,-15.258808,9.493618,30.162678,46.491222,-19.54319,-8.01075,5.70385,20.431194,-21.90318,-30.750161,-28.266128,-24.416607,-6.519238,2.827119,10.784648,18.375441,10.275392,25.667238,36.095401,43.437031,24.149722,39.077945,48.411026,54.548461,33.863,49.114363,57.521991,62.885817,24.927464,48.519344,71.084404,89.914169,52.919884,85.526276,103.404694,116.871071,44.968243,80.59742,101.48735,117.355957,36.307411,68.587189,88.8097,104.377098,27.129307,49.931488,63.941803,76.576424,-15.438838,-17.126909,-9.707103,-5.438606,17.576205,30.708171,37.607359,42.510898,34.782834,50.251003,59.036296,64.830029,46.464221,63.49307,72.446201,77.629283,54.182899,73.012761,81.203583,86.287494,-17.224817,321.005024,-72.248182,299.979565
31,-10.900326,-16.09401,-2.527485,-1.07878,17.648964,29.238853,38.44162,42.077179,12.667923,38.094521,56.172638,66.194115,3.431854,29.930649,48.704453,62.43782,-4.589024,16.55468,34.819794,48.223,-11.551666,-4.663353,3.240566,12.465649,-18.886487,-25.226711,-26.758059,-26.375886,-2.082286,17.010509,24.428833,29.617474,17.313766,39.346745,48.31698,54.605395,31.623065,51.457051,61.730528,71.81999,42.009546,60.078705,70.095857,79.883544,23.707867,46.488819,67.461147,84.078655,50.492821,83.57935,102.325802,116.329937,43.76524,79.933605,101.819859,118.536243,36.38586,68.589535,89.241314,104.784222,28.397598,47.739601,59.463043,69.456081,-16.535525,-16.069927,-6.74086,-0.630842,15.819097,26.676116,32.361106,36.369758,34.179965,47.878985,56.192813,63.15017,46.706468,63.085024,72.325541,78.904244,54.441324,75.531128,87.080431,96.278958,-28.170147,304.912141,-74.820671,298.901912
32,49.276428,-4.445412,-6.465569,-2.054683,0.354424,-6.931801,-17.345352,-28.453903,-43.174095,-38.931541,-18.305626,-3.453598,-54.162769,-43.569088,-20.57991,0.626907,-58.549061,-51.684666,-29.205551,-10.777588,-58.800488,-71.054993,-74.657307,-75.183392,-11.167377,-13.779543,-10.123857,-7.13631,4.108193,27.292941,39.495564,46.564565,19.176652,41.02648,52.864219,60.308231,29.731959,46.784644,57.003596,66.219907,38.599936,51.425743,59.551665,69.051472,26.092644,51.016045,69.763241,80.499401,50.172157,82.288685,100.570393,114.857769,43.602333,77.909489,99.083004,115.78886,36.668129,67.997704,88.738689,105.066776,30.007896,47.780743,57.839355,67.388992,-17.765594,-15.903942,-3.201141,4.62702,8.633449,15.915119,18.704879,21.896634,26.777881,39.715333,46.886779,53.178776,39.98969,54.435767,63.539321,70.35033,49.134062,70.736702,83.575107,93.445602,20.993271,300.479666,-81.39925,296.860166
33,8.506966,8.764359,0.223103,-7.567945,-17.541847,-36.573029,-50.996246,-59.852314,-61.979599,-68.723316,-63.824844,-56.910267,-60.100422,-69.884949,-66.269989,-60.24004,-54.715004,-70.246925,-73.379402,-75.719776,-45.581017,-58.948402,-63.289433,-67.236843,-13.667033,-16.405479,-7.041832,5.178266,1.417234,13.227803,21.367742,27.009136,16.131554,25.759555,34.372749,39.549225,27.701667,37.591304,46.00665,51.916597,38.352069,46.590995,51.765247,56.732944,22.455769,45.102367,60.875931,66.006203,41.794567,69.52177,86.040688,97.489929,37.676353,68.739624,88.290138,102.050858,32.284641,57.598629,74.418182,86.560593,26.338921,41.889267,52.560997,61.278019,-15.051045,-12.23251,-0.741746,8.264984,4.518216,10.931552,13.080837,14.327454,22.012169,36.16098,43.173109,46.995707,34.976668,51.364919,59.008632,63.298618,43.420852,62.890016,72.014627,77.173504,29.224148,309.48584,-81.452236,289.534035
34,-49.168053,-0.381926,-4.036618,-21.522674,-37.739296,-62.914982,-87.181435,-119.227295,-4.440994,-9.494648,-6.569653,-3.906956,18.839264,-2.397881,-21.1413,-31.262684,27.60601,2.012329,-17.056961,-26.708794,28.578529,8.877869,-6.954918,-16.889477,-25.573871,-43.240849,-61.083508,-69.9224,-18.26466,-21.240474,-30.573123,-35.927007,4.765341,18.836963,18.757984,13.388292,23.110524,41.966012,43.507611,39.363479,35.481169,54.772739,59.012831,59.686898,20.814572,44.383107,60.420628,66.835785,50.11405,74.458952,83.922444,87.50968,45.485316,72.625466,82.228146,86.265765,39.027329,63.016262,71.431647,74.877634,31.555424,48.727398,56.238842,60.525027,-3.214202,2.046131,10.880392,17.210457,7.889665,15.354271,16.673785,15.968564,16.152704,26.708782,30.024934,30.985091,21.903087,33.174761,37.141947,38.937494,25.032506,37.302652,42.3769,44.884676,-20.108271,309.571334,-85.653219,268.478781
35,78.947067,-11.45606,-4.036617,-21.522674,-26.815567,-55.215683,-78.461323,-91.51022,-68.660202,-104.36285,-120.273228,-130.936432,-62.166595,-101.668167,-120.289936,-131.734715,-53.599091,-89.554253,-107.75116,-119.173508,-43.661957,-71.222649,-85.467739,-95.902462,-18.710684,-17.452581,-5.493255,7.092467,10.123363,27.305106,35.143641,39.867671,27.549082,44.531742,51.626926,56.049243,40.211683,55.603405,61.128338,64.030669,48.972214,62.864142,67.442503,70.521935,19.173374,43.663845,59.965324,67.665367,58.433533,79.396133,81.804199,77.52943,53.294277,76.511307,76.166153,70.480671,45.770016,68.433895,68.44511,63.194675,36.771927,55.565529,59.916687,59.772034,8.622642,16.324771,22.502529,26.155931,11.261114,19.77699,20.266732,17.609674,10.293238,17.256585,16.876758,14.974475,8.829506,14.984602,15.275261,14.57637,6.644159,11.715288,12.739172,12.595849,58.656836,298.571794,-89.871798,247.412628
36,3.590698,-2.487121,-18.348541,-29.755733,-29.892426,-56.263161,-80.58712,-97.020206,-67.974014,-101.72802,-118.218842,-130.203896,-61.92524,-98.995342,-118.779602,-133.504429,-53.824654,-88.542938,-107.054329,-120.083256,-44.538116,-70.34111,-84.525375,-96.412354,-16.221957,-15.63928,-3.447587,7.61821,13.421884,28.454219,35.519948,40.6829,30.381203,43.811053,50.55358,55.693067,42.553691,55.787113,61.531075,65.311805,50.513937,63.594773,68.540302,71.619301,22.272835,44.182606,61.50301,65.498085,57.765427,76.331806,66.549511,56.163425,55.652103,70.676994,60.515213,49.802113,51.373901,67.282734,58.880711,48.23822,44.902153,61.763477,59.341106,53.164902,21.347611,32.740192,31.872413,24.371097,13.901129,12.86786,13.484067,13.657092,-2.203749,-2.644708,-1.014189,-0.0402,-16.916587,-18.001418,-15.111993,-12.834576,-30.253318,-32.639662,-29.990446,-27.389642,61.654472,296.509176,-108.8134,218.081398
37,-2.101135,0.888712,-3.033314,-30.491798,-29.606552,-55.189934,-78.90255,-94.599152,-66.337509,-99.647369,-116.345158,-128.712044,-60.100594,-97.45142,-116.918106,-131.722355,-52.331543,-87.433262,-105.742378,-119.058952,-43.59272,-69.69738,-83.71479,-95.693779,-16.357067,-16.680515,-5.189628,6.9631,12.632776,27.289607,34.793455,40.006919,29.932524,42.211964,48.728856,53.96245,42.350779,54.238907,59.538265,63.501407,50.247051,61.922696,66.350509,69.977666,2.893238,18.319359,35.850048,46.27636,27.82156,47.695141,38.592224,30.799484,36.272678,53.642063,41.484146,35.277615,42.457638,60.240955,46.728516,39.263191,46.312923,61.240025,52.515678,45.717487,-23.310534,-37.953347,-45.087434,-45.205933,-27.499002,-33.785132,-32.074584,-30.395035,-13.776023,-21.213181,-18.700742,-16.408505,-0.181423,-8.508836,-7.081969,-4.481289,12.577077,7.277965,7.059678,8.246521,59.561749,297.789185,-111.838303,187.980897
38,-1.805763,-0.912177,-5.255413,-32.650839,-29.284973,-54.311485,-77.494411,-92.725239,-65.32608,-97.622395,-114.031563,-126.491661,-59.257164,-95.225716,-114.207001,-129.137764,-51.426773,-85.425396,-103.371849,-116.861687,-42.502327,-68.002625,-81.991825,-94.178123,-16.376703,-16.330946,-4.070896,8.089489,12.907689,27.406871,34.693172,39.912749,30.362616,42.825022,49.242619,54.425146,42.987549,55.039748,60.105443,63.982381,51.146816,63.179317,67.675241,71.142835,4.332733,14.10553,26.066208,33.394489,10.666409,29.587212,30.043831,26.208801,18.283539,37.141972,35.943775,29.923038,25.079269,42.246037,39.308224,33.160458,30.706272,45.352535,44.436951,39.380207,-15.210114,-27.994426,-36.805098,-39.472098,-34.755664,-43.552349,-39.197896,-34.665014,-30.289442,-37.791314,-31.48672,-25.587024,-22.798005,-30.771157,-24.653667,-19.42421,-14.3834,-20.932402,-17.833642,-14.164618,56.528606,297.533801,-118.321095,155.986851
39,-1.577682,-0.465969,-10.684662,-23.85017,-28.657379,-54.09359,-76.852226,-91.260624,-64.67308,-96.646214,-112.785072,-125.042152,-58.457451,-94.230995,-113.285637,-128.337936,-50.423698,-84.067898,-102.051773,-115.711498,-41.266022,-66.446228,-80.401382,-92.457047,-16.340826,-15.836078,-3.790302,8.397377,13.588363,27.957746,35.051325,40.014576,30.823953,43.041828,49.291649,54.347032,43.198921,55.096743,59.946312,63.700737,51.167441,63.479609,68.068652,71.497529,-5.753975,4.346066,24.951096,38.743687,-5.002556,21.655769,20.80965,13.438511,9.431076,37.323475,33.757896,24.307022,24.561939,51.059017,44.988728,36.537838,39.025612,58.474731,54.243851,47.288876,-30.202096,-57.579203,-73.042,-74.086662,-46.177853,-76.012843,-67.662304,-60.457173,-34.647384,-63.631422,-56.849004,-49.285412,-24.752745,-54.290129,-47.567423,-38.845363,-17.281131,-42.191494,-38.917919,-31.641776,54.612207,298.057799,-129.344473,133.126648
40,0.00103,0.949104,-2.94199,-34.090426,-28.154755,-53.199921,-76.312294,-90.743523,-64.286385,-96.924648,-113.093376,-125.056915,-58.28968,-94.471264,-113.320713,-127.92532,-50.240479,-84.309597,-102.28672,-115.473232,-41.187057,-66.693764,-80.513134,-91.951561,-17.709586,-17.506304,-5.476088,7.371888,12.484019,26.786711,33.61217,38.603023,29.926102,41.625459,47.535961,52.434313,42.308171,53.678892,58.669931,62.508028,50.154611,62.16908,66.76189,70.198239,-10.86628,-1.09663,20.180054,35.597363,-10.091286,6.100674,8.550339,5.700989,5.8144,23.905106,22.984371,17.169571,22.450104,42.022877,38.539581,32.158413,38.747349,52.826557,50.74213,45.776825,-26.701249,-53.627022,-69.684784,-70.774,-46.128453,-83.17941,-71.462609,-60.50821,-38.600985,-73.359273,-64.348221,-54.498166,-31.946483,-64.922901,-57.787116,-47.550565,-26.317007,-54.506409,-52.688385,-44.963223,54.297981,299.212023,-132.601719,99.241341
41,-0.052299,-1.098108,-2.938328,-27.367813,-27.803535,-52.808304,-75.709648,-90.334282,-63.761673,-96.188335,-112.798748,-125.281849,-57.691727,-93.459549,-112.467098,-127.419262,-49.612999,-83.351326,-101.483459,-114.79248,-40.604553,-65.905037,-79.702663,-91.253586,-17.760345,-17.269552,-4.774974,7.477913,12.269498,27.066502,34.153721,39.469999,29.823658,42.324659,48.520324,53.56947,42.548195,54.266818,59.372095,63.329802,50.829234,63.073044,67.680057,71.066326,11.151867,20.752602,31.837921,37.012196,-6.183071,8.807945,15.377541,14.319592,-6.265354,12.344112,18.028507,14.172993,-0.762749,19.0979,23.606014,19.333019,8.132915,25.084705,29.061127,25.898552,-24.84392,-51.157067,-68.720984,-72.89843,-43.914238,-82.696244,-70.792154,-61.081377,-39.061551,-77.882182,-64.924229,-52.683352,-35.498243,-74.790432,-64.271928,-52.934028,-33.282206,-66.501056,-64.935622,-59.99491,52.991838,298.13139,-136.79389,71.891003
42,0.364609,-0.824677,-6.683693,-22.038506,-27.66243,-52.468643,-75.063229,-89.329948,-62.560959,-94.834442,-111.523705,-124.15638,-56.72802,-92.527313,-112.081261,-127.641106,-48.819695,-82.570553,-100.877495,-114.70911,-39.712257,-64.905281,-78.745937,-90.557213,-17.206073,-16.888244,-4.096831,8.332539,12.489206,27.304118,34.455186,39.976784,29.869354,42.314408,48.575344,53.923671,42.450506,54.324616,59.768965,64.136139,50.66294,62.980912,67.728716,71.291283,-15.610027,-14.560318,2.332077,17.08849,-16.754551,-5.633812,-2.743149,-4.635487,-1.471653,11.171951,11.191063,8.620148,16.342564,28.534412,26.554012,23.140926,34.961529,44.122696,46.783218,48.723736,-27.21069,-55.715143,-74.111208,-76.368402,-47.242554,-86.089152,-72.243721,-60.85818,-40.325767,-79.464969,-66.682726,-54.698916,-35.008809,-72.475162,-62.515191,-51.28276,-31.655299,-66.791592,-77.045186,-79.107557,51.624613,296.803448,-145.209417,49.349231
43,0.073929,0.594471,-6.405315,-7.131154,-27.020645,-51.836815,-74.62635,-89.32703,-62.630882,-94.929886,-111.423454,-123.813972,-56.636925,-92.471466,-111.543503,-126.583214,-48.513451,-82.319698,-100.141182,-113.513145,-39.266968,-65.008049,-78.977108,-90.600586,-18.301711,-18.070208,-5.307324,6.956184,11.951792,26.374033,33.644218,39.482349,29.685523,41.787121,48.00582,53.458628,42.450259,53.845865,59.039137,63.348019,50.735188,62.623501,67.092378,70.449563,-13.806782,-12.395267,-1.636448,10.820732,-15.598469,-1.590443,4.620037,4.228134,-1.105385,13.936729,18.366222,16.714268,15.222473,28.818283,31.155167,28.927746,31.69241,42.277908,46.742535,48.642082,-24.759013,-51.578915,-72.034017,-81.891729,-55.575741,-88.585844,-82.209713,-72.197192,-49.231442,-83.836126,-78.086576,-70.713083,-42.424509,-76.987851,-73.768123,-66.170012,-36.961203,-66.263719,-82.392988,-95.107274,48.883123,297.251493,-154.430151,42.071652
44,0.061226,-0.033839,-1.361732,-8.849637,-27.071114,-51.671791,-74.404335,-89.39043,-61.722679,-94.888802,-111.549053,-123.994331,-55.576057,-92.223701,-111.553001,-126.600952,-47.413673,-82.240162,-100.595112,-114.248142,-38.387375,-64.883881,-79.158955,-91.003304,-18.269292,-17.927997,-5.344375,6.845712,12.049234,26.603251,33.893381,39.742503,29.860708,41.482754,47.555907,52.896144,42.484654,53.402683,58.690185,63.118307,50.43045,62.037922,66.601401,70.341068,-16.702137,-17.680092,-8.701515,3.446503,-19.354706,-8.979149,-1.416664,1.237392,-3.697014,7.761269,12.22229,12.103443,12.899551,22.711487,23.435097,21.249847,29.034748,35.667973,37.818661,38.28043,-25.179873,-49.684289,-69.400115,-78.914371,-54.982443,-89.188991,-92.621419,-88.285892,-50.168875,-88.220838,-90.995994,-87.034149,-45.389579,-82.010506,-85.226714,-81.598723,-41.878728,-73.804772,-90.744577,-104.02848,46.50979,297.10584,-158.226442,33.1102
45,0.005608,-0.733163,-2.876415,-7.797255,-27.256165,-51.658401,-74.27393,-89.065647,-61.707916,-94.638577,-110.874653,-123.166866,-55.517578,-91.502037,-110.037689,-124.484596,-47.331505,-81.472092,-99.565945,-112.974358,-38.299599,-64.065742,-78.16143,-89.987526,-18.165304,-17.852476,-5.762054,6.321328,12.158162,26.138208,33.180966,38.888927,29.792845,41.07304,47.014294,52.182062,42.552579,53.259977,58.423856,62.648139,50.77582,62.50809,66.911635,70.292902,-16.684856,-16.61562,-5.363731,8.226013,-17.885113,-6.710815,-2.820854,-4.716797,-2.218494,8.734474,11.02478,8.477955,14.170189,23.995857,24.209232,21.258831,29.528961,35.305767,36.605301,36.308098,-26.0617,-52.882157,-73.994006,-82.790568,-54.540125,-89.678734,-84.727771,-75.145373,-50.028794,-88.303892,-82.837869,-74.231158,-45.489954,-82.290575,-79.749453,-72.734822,-41.973916,-72.947522,-88.493188,-100.102389,44.253616,296.459467,-163.364639,25.399735
46,1.432686,0.012844,-1.519604,-3.459443,-27.345428,-52.049675,-74.720364,-88.919907,-61.51474,-94.2659,-110.660763,-123.168011,-55.284348,-90.983677,-109.666729,-124.373302,-47.167625,-81.119957,-99.372883,-112.954674,-38.182869,-64.01001,-78.093338,-89.835262,-18.181668,-18.462756,-6.996816,5.466146,11.249196,25.140569,32.222168,37.897278,29.134647,40.125541,46.170166,51.337502,42.079818,52.486553,57.752937,61.932576,50.416803,61.943691,66.20169,69.371771,-19.215317,-21.273136,-10.846767,2.654057,-21.242466,-10.375042,-7.122631,-8.822594,-4.471321,5.74419,8.158321,6.435127,12.726116,21.185303,21.597404,19.54874,28.66991,32.65583,34.146652,34.563904,-23.497174,-49.319745,-70.600728,-79.270826,-53.769017,-88.324733,-80.184299,-69.178276,-50.814754,-86.939764,-78.064315,-67.792937,-47.382913,-81.519961,-74.377815,-64.304316,-44.721995,-74.742884,-92.017006,-105.409744,45.113754,296.771569,-165.456791,22.23955
47,0.788383,-1.043273,-1.065617,2.481132,-27.2929,-52.151413,-74.914284,-89.3256,-61.125298,-93.229523,-109.420223,-121.871052,-55.345802,-90.303898,-109.171257,-124.049263,-47.555923,-80.90332,-99.375687,-113.360138,-38.570366,-63.741875,-77.942104,-90.066376,-17.809498,-17.968258,-6.865349,5.323194,12.209847,25.471119,32.150908,37.436002,29.679224,40.146351,45.722228,50.390744,42.164972,52.297412,57.358167,61.259743,50.096071,61.900095,66.623507,70.126423,-20.612583,-23.385201,-11.107121,2.057819,-25.763855,-14.464417,-8.314362,-8.693218,-8.375072,2.502537,6.65926,5.209465,9.542656,17.700806,19.37685,18.112907,26.479511,28.859825,30.447121,31.272182,-21.593008,-48.278633,-69.87513,-80.105413,-51.530935,-87.793401,-80.036191,-69.28072,-48.832874,-86.488337,-78.439634,-67.227704,-45.717473,-81.06872,-74.514284,-64.187701,-43.195092,-73.882392,-91.474251,-104.513375,45.639839,296.287431,-166.784706,25.279816
48,0.090981,-0.400575,-2.397594,7.830415,-26.693459,-51.534691,-74.446278,-88.777599,-60.598984,-92.865257,-108.764076,-120.753593,-54.75975,-90.002861,-108.87846,-123.548584,-46.812286,-80.192528,-98.58696,-112.505608,-37.606544,-62.721291,-77.007637,-89.240227,-18.047484,-18.471771,-7.125318,5.177216,11.350837,25.223067,32.099964,37.284775,28.834664,40.372605,45.945209,50.60965,41.26496,52.489703,57.734721,61.767826,48.995247,61.020213,65.690459,69.133044,-20.688057,-23.842392,-10.349808,2.366982,-26.641445,-16.318016,-9.681702,-10.230103,-9.827499,0.352306,5.316868,4.423428,7.902203,16.47337,19.673824,19.088116,24.831219,26.232719,26.647339,26.123371,-21.014869,-47.841255,-71.710445,-82.491418,-47.682464,-87.626891,-79.157081,-68.534806,-44.966033,-86.004152,-78.297639,-67.612317,-42.965535,-80.958866,-74.783794,-65.25694,-41.904663,-74.196115,-91.252104,-102.322594,45.90291,296.336213,-169.01021,33.559589
49,0.774765,0.145484,-1.96352,9.328913,-25.994797,-50.858574,-73.713455,-88.341293,-60.46875,-92.847004,-108.389683,-119.705486,-54.874649,-90.272598,-108.680363,-122.538357,-46.985893,-80.922375,-99.061489,-112.239532,-37.699356,-63.693352,-78.113708,-90.031357,-18.659307,-19.081248,-6.954331,6.040858,11.123966,24.65941,31.410459,36.735011,28.33325,39.378793,45.207538,50.464474,40.67617,51.465757,57.017675,61.708236,48.59918,60.3396,65.163234,69.063205,-21.182499,-24.374485,-10.878525,1.83712,-27.923355,-18.829079,-12.940807,-12.681255,-11.25864,-2.865314,1.358471,1.459579,6.448917,12.649555,15.052414,14.749203,23.244667,23.484192,23.397331,22.970181,-19.265079,-44.869424,-67.568659,-77.649785,-45.751467,-84.744259,-76.852834,-66.068526,-42.607414,-83.717565,-76.95608,-66.113326,-40.018929,-79.068037,-74.4182,-65.303376,-38.187412,-69.961889,-86.779336,-97.259276,46.725197,296.520832,-170.926208,42.927636
50,1.169815,-0.598732,1.328316,9.558408,-26.302643,-51.462593,-73.922882,-88.891983,-61.348114,-92.165508,-106.69693,-117.136059,-55.515404,-89.247665,-106.235733,-118.751163,-47.543907,-80.129585,-97.295837,-109.792957,-38.266411,-63.761444,-77.790527,-89.362507,-18.528458,-18.681784,-6.670033,5.771379,11.429075,25.647046,32.960579,38.794202,28.49374,40.211436,46.752163,52.669273,40.795348,52.011075,58.258982,63.592612,48.725892,60.090746,64.842255,68.796257,-2.716141,-2.068062,4.304066,11.611118,-15.206795,-12.264004,-7.177849,-5.654526,-11.737576,-8.050175,-4.279861,-3.668575,-6.103077,-2.856445,-0.466404,-0.58136,0.527458,-1.231213,-2.451153,-3.514366,-24.770993,-51.343769,-74.810408,-84.926947,-34.240048,-75.115795,-70.170328,-62.01705,-29.765798,-73.19369,-66.934513,-56.081786,-29.147985,-72.457656,-67.181021,-56.973307,-31.076667,-64.063891,-66.096931,-62.461684,48.001213,294.279106,-169.491692,50.843051
51,0.760918,-0.90804,-3.131332,6.98922,-26.54995,-51.658516,-73.760376,-89.271698,-61.466331,-91.056347,-104.098835,-113.076553,-55.754242,-88.549232,-104.070511,-115.515804,-47.823944,-79.771614,-95.938683,-107.77422,-38.36895,-63.991241,-78.035088,-90.053787,-18.396806,-18.243912,-6.224627,5.356107,12.21664,25.32724,32.787987,38.884111,29.221962,39.927878,46.67621,52.769988,41.548518,51.718131,58.144064,63.390256,49.650048,60.7495,65.762213,69.729862,18.894196,25.282803,20.049191,12.762222,14.404507,11.390705,13.27549,15.182133,-3.086872,-4.670162,-2.091007,-0.873127,-17.258205,-17.144737,-12.375813,-11.088352,-27.256622,-30.328388,-25.144215,-22.296124,-20.321073,-45.127633,-67.822299,-79.334892,-26.937012,-65.149988,-68.062632,-62.48129,-23.75773,-65.0816,-60.921968,-49.389647,-23.334338,-63.184751,-57.235407,-46.174519,-24.625972,-53.632703,-53.02125,-47.388933,49.03882,289.911284,-172.346334,54.372488
52,1.19236,-0.248854,0.57106,4.291839,-26.768532,-51.832123,-73.925972,-89.998856,-61.953964,-90.563335,-102.339706,-110.397778,-56.391335,-87.870369,-101.782379,-111.80769,-48.517799,-79.459934,-94.660263,-105.516472,-39.235954,-64.72332,-78.778381,-90.779171,-18.281642,-18.309615,-6.465021,4.998881,12.288208,24.473603,30.559538,35.34291,29.380167,39.292899,44.236575,48.407198,41.78107,51.443959,56.599007,60.569682,50.000173,61.242206,66.065778,69.517996,8.745918,11.191635,10.787659,9.270058,0.84938,-0.627308,1.405048,2.297859,-6.441135,-5.878029,-3.57954,-3.204975,-11.716061,-10.071716,-6.898384,-6.412983,-14.347172,-13.832874,-10.537148,-9.792652,-18.581471,-39.468579,-58.584283,-70.064148,-17.770441,-52.535707,-54.482388,-49.477579,-12.3955,-51.247037,-53.140799,-44.557801,-10.052319,-48.995247,-51.936172,-45.846717,-10.728702,-38.993965,-47.923599,-50.264496,50.569668,288.082622,-171.436787,57.08452
53,-1.458206,-0.237924,2.715225,36.427216,-25.113029,-50.25135,-72.19368,-88.69257,-60.609512,-90.328388,-101.71154,-108.109131,-54.869843,-87.527332,-100.977859,-109.318657,-46.832314,-78.444443,-93.408852,-103.580475,-37.518082,-63.519402,-77.692566,-89.578285,-18.297265,-18.117756,-6.360786,5.272188,12.774431,25.939372,31.80634,36.255025,29.638098,40.242496,45.34765,49.581876,41.965518,52.112902,57.729657,62.184888,50.019501,61.515081,66.62042,70.542744,-22.044697,-26.016083,-13.547573,-2.628994,-31.080322,-28.715401,-23.240089,-22.096252,-13.921452,-12.373295,-7.922344,-6.637573,3.868904,3.360615,5.348797,5.14183,20.71867,16.073456,13.591633,11.220703,-23.814726,-51.735144,-74.648591,-83.760976,-48.214351,-89.684662,-78.988379,-66.647034,-43.794627,-88.797648,-78.531179,-65.424932,-41.386577,-85.014355,-77.308768,-65.864008,-40.682931,-76.322274,-92.119851,-99.030525,50.82839,287.465628,-167.004633,93.132666
54,0.818253,0.361672,-0.720348,3.917446,-25.604668,-51.317368,-73.107262,-88.820858,-60.972404,-90.569344,-101.206455,-106.071053,-55.01358,-87.665806,-100.314388,-107.360573,-46.98658,-78.733063,-93.436947,-103.211174,-38.048058,-64.189568,-79.096298,-91.422901,-18.542661,-18.870617,-7.824148,3.919916,13.802946,26.175753,28.806567,29.729983,30.869525,40.415212,42.004606,43.180766,42.989587,52.1841,55.224196,57.437269,50.477813,61.939553,66.302344,69.343798,-22.528725,-24.055653,-10.737305,0.811443,-32.201214,-27.757359,-21.432381,-20.851307,-14.194279,-10.65937,-6.859818,-7.387619,5.265198,5.794258,7.908268,8.621349,22.653923,18.87331,15.716686,12.860813,-24.668579,-55.616188,-82.568761,-93.539215,-50.026911,-90.817319,-82.54934,-70.658928,-46.11175,-88.771713,-81.224207,-69.961951,-43.955364,-87.54572,-87.770584,-80.988629,-43.704749,-76.123994,-90.659608,-98.253828,53.0058,287.840036,-166.365824,97.062848
55,-0.538673,0.168887,-0.269566,-2.859476,-25.374527,-51.035271,-72.774925,-89.005165,-60.406265,-90.078049,-100.343227,-104.650097,-54.388046,-87.14098,-99.114304,-105.427666,-46.512909,-78.338699,-92.502937,-101.783581,-37.963257,-63.976936,-78.692036,-90.886459,-18.466893,-18.729332,-7.39912,3.553736,13.101091,26.17106,28.983482,29.905045,30.128767,40.184389,41.446136,42.36282,42.44643,51.669595,54.280032,56.267408,50.222228,61.854153,66.2987,69.447539,-24.16666,-27.711582,-18.220196,-6.53017,-30.54594,-29.196568,-24.36327,-22.961197,-12.598,-11.470699,-8.320427,-8.376446,6.035042,5.908413,6.045971,4.6035,22.625999,18.225174,14.296303,10.376644,-24.562307,-54.164775,-80.001148,-91.745335,-49.244379,-89.022204,-84.669386,-73.487838,-47.139184,-90.432768,-85.21878,-74.307389,-46.090785,-89.231414,-91.606644,-86.058215,-46.141266,-79.143558,-92.021853,-98.085034,53.211937,287.776464,-165.890579,93.970912
56,-0.736313,0.482641,-1.79266,-5.875613,-24.928894,-50.568352,-72.256279,-88.316345,-60.767784,-90.760117,-99.996357,-102.347889,-54.523773,-87.375011,-98.651676,-103.805523,-46.31813,-77.961788,-91.659222,-100.363712,-37.462463,-63.561859,-78.505898,-90.575581,-19.122497,-19.388641,-7.978462,3.190953,13.597317,25.94036,27.053782,26.510069,30.751026,40.30647,40.813688,41.194997,42.943768,51.873742,54.160422,56.032509,50.45657,61.758748,66.087761,69.216593,-22.378922,-26.357059,-18.523979,-7.088413,-31.557598,-27.939491,-20.612812,-18.674068,-14.762249,-11.581707,-6.206303,-6.145535,3.714581,5.093594,7.709541,7.137566,21.045856,18.412285,16.583176,13.58448,-23.478124,-53.43998,-79.544936,-91.49645,-49.606761,-88.801508,-84.395863,-72.949992,-46.139229,-89.561717,-85.088147,-75.279711,-43.860052,-86.60273,-90.836122,-87.055299,-42.880104,-75.240407,-90.096167,-99.680016,52.540226,287.898791,-167.618637,87.734985
57,-0.075188,-0.816526,-0.003777,-2.440222,-25.11097,-50.975418,-72.77813,-88.603878,-61.181488,-90.587482,-98.804512,-99.776573,-54.753227,-86.892128,-97.231693,-101.414452,-46.346283,-77.206135,-90.098248,-98.157177,-37.396317,-63.280449,-78.008194,-89.89397,-18.623616,-18.82733,-7.383682,4.158458,14.643554,27.00821,27.864256,27.188212,31.422438,41.348076,41.792679,42.267601,43.463954,53.2015,55.789583,58.042732,50.952364,62.87007,67.644798,71.251145,-20.065269,-22.123661,-13.54866,-3.35186,-25.623436,-25.028458,-21.231079,-18.680248,-11.288967,-9.827328,-7.242107,-7.142658,4.097328,4.302177,4.140129,2.088089,18.753719,13.067608,9.158421,5.519485,-24.594386,-53.328459,-78.489034,-92.262217,-47.268458,-87.285936,-89.245215,-82.07979,-45.796946,-89.894212,-87.829927,-78.474338,-45.658255,-88.767514,-90.240632,-84.732402,-46.589482,-79.164615,-89.603862,-93.824008,52.814884,286.925945,-167.272568,85.138442
58,-1.558342,0.289054,-1.072369,-4.267756,-24.141655,-49.958267,-72.113113,-87.973137,-60.251083,-90.36272,-96.970253,-96.006088,-53.868256,-87.189789,-96.328983,-98.779163,-45.653458,-77.335281,-89.196281,-96.128311,-37.066727,-63.160057,-78.0966,-90.148373,-18.443613,-18.576006,-7.329033,4.081085,14.393342,26.266834,25.433142,23.412298,31.219341,40.911624,39.881195,39.137102,43.415974,52.843471,54.687832,56.522993,50.888268,62.926263,67.740572,71.300916,-20.359039,-23.028946,-13.733253,-3.07291,-29.060211,-26.546345,-20.278301,-18.352375,-13.622417,-11.319237,-6.460705,-5.95562,3.435116,4.87896,6.755562,5.364304,19.744434,16.620312,14.846592,12.10247,-23.165976,-53.102761,-79.519556,-91.955503,-46.459157,-85.627783,-82.830459,-72.473803,-43.718211,-86.546691,-82.715233,-72.598539,-42.393634,-84.257881,-87.461616,-82.719277,-42.355904,-73.812089,-88.362833,-97.298673,51.934061,287.064358,-167.667418,80.720046
59,1.302452,-0.607809,0.29417,-0.087624,-25.430832,-51.644669,-73.903828,-89.636536,-61.943207,-90.778942,-97.322502,-96.559811,-55.164986,-87.195282,-96.591797,-99.374485,-46.55571,-77.42815,-89.614792,-96.821423,-37.58812,-63.906555,-79.322376,-91.807365,-18.393348,-18.409527,-7.291983,4.470792,15.301382,26.58028,25.381889,23.278485,32.142818,41.54401,40.124368,39.101596,44.212616,53.679263,55.334853,56.88028,51.621862,63.666342,68.2573,71.531183,-22.484837,-27.248383,-19.243069,-9.205971,-29.325371,-27.702484,-22.432022,-20.763073,-12.094688,-10.56879,-6.750813,-6.421108,5.68079,5.691776,6.173916,4.825287,22.064438,17.773876,14.635849,11.605453,-20.787381,-48.297714,-73.095661,-85.451208,-45.72936,-84.614552,-82.11576,-72.400135,-44.389068,-86.478488,-82.606027,-72.496373,-43.722842,-85.370099,-85.849437,-79.03392,-43.968609,-76.335149,-90.153996,-97.451197,53.759909,286.382356,-166.849852,80.558229
60,-0.031815,0.481283,-0.145912,-0.493725,-25.317078,-51.620064,-73.963337,-89.995308,-61.559601,-91.119003,-97.59819,-96.831493,-55.174599,-87.922668,-97.042122,-99.627571,-46.923065,-78.466358,-90.186825,-97.108612,-38.178864,-64.567337,-79.776878,-92.073841,-18.511168,-18.617317,-7.368368,3.944369,14.511285,25.071841,23.766499,21.903983,31.519016,40.101397,38.53059,37.849977,43.71466,52.495075,53.820795,55.496207,51.183249,62.960844,67.344629,70.603322,-21.413727,-23.606815,-11.450958,0.709419,-27.883644,-26.300812,-20.840607,-19.065399,-11.083832,-8.896465,-5.03603,-4.980011,6.61068,7.994099,8.91655,7.920971,22.800751,18.123951,13.998413,10.296478,-22.633749,-52.308897,-78.904769,-91.136599,-44.557862,-83.811982,-79.964962,-69.551681,-42.039897,-84.57673,-80.124432,-69.391933,-40.881891,-83.614102,-85.578074,-80.324843,-41.210187,-73.676948,-84.285823,-88.419643,54.120255,286.917454,-166.603603,80.118319
61,-0.482025,0.337404,-0.949287,-0.519259,-25.476608,-51.513062,-73.516617,-89.229813,-61.861382,-91.32637,-98.939438,-99.309597,-55.503616,-87.609444,-97.33469,-100.872116,-46.999054,-77.631283,-89.906445,-97.565918,-37.81208,-63.689117,-78.098316,-89.764538,-18.196117,-18.754835,-7.986119,3.608262,14.110401,25.455805,26.217372,25.608699,31.265469,41.105582,41.769708,42.526027,43.630124,53.574904,56.666377,59.4026,51.203071,63.227544,67.976891,71.502902,-21.68478,-23.572025,-10.043564,2.502079,-29.943981,-26.234665,-19.916668,-18.909473,-12.283115,-8.869801,-5.109386,-5.695381,6.607475,8.132858,9.998188,9.988918,23.780708,19.848976,16.777611,13.956985,-20.400514,-50.972896,-77.961593,-89.877478,-44.354518,-83.46621,-76.87281,-65.109758,-41.489515,-83.067488,-77.942759,-67.281211,-40.083705,-82.043697,-87.070921,-84.061175,-40.376557,-71.930585,-84.883784,-91.771486,54.151611,287.273445,-167.039509,79.617647
62,-0.098076,-0.051006,0.246792,0.798495,-25.437126,-51.433182,-73.450584,-89.294472,-61.955795,-91.267662,-99.547234,-101.01059,-55.556488,-87.650528,-97.990551,-102.536316,-47.014503,-77.759399,-90.620842,-98.957577,-37.761497,-63.64151,-78.07972,-89.90221,-18.197352,-18.778424,-8.157415,3.210033,14.560315,25.815748,26.988141,26.79548,31.664809,41.172087,42.241419,43.271231,43.864529,53.626281,56.953825,59.668929,51.280383,63.117072,67.825973,71.202362,-21.640949,-24.518452,-13.004322,-2.119389,-29.689636,-26.073647,-20.482006,-19.659405,-12.192936,-8.506622,-4.935951,-5.578594,6.362286,7.707424,9.232063,8.869972,23.084621,19.285069,16.141205,13.13324,-20.004169,-49.497401,-75.437854,-87.427962,-44.769543,-83.912666,-77.137411,-66.107614,-42.128817,-83.894326,-78.278404,-68.04565,-40.726126,-83.036613,-83.983246,-77.984842,-41.045653,-73.444983,-86.390895,-93.003685,54.344501,287.224508,-166.501751,80.41821
63,-0.298576,0.541057,-0.774078,-0.221993,-25.183868,-51.352959,-73.609142,-89.409943,-61.845589,-91.425934,-99.964085,-101.903515,-55.273933,-87.96032,-98.502731,-103.254662,-46.704597,-78.145294,-91.301651,-99.78384,-37.547722,-63.730431,-78.342018,-90.306416,-18.603794,-19.117125,-8.498647,2.550848,14.076562,25.888551,27.064959,26.707547,31.100842,40.781022,41.929085,42.915857,43.282284,52.688416,55.791435,58.453619,50.804843,62.443993,67.071383,70.556823,-20.826702,-21.444283,-5.862865,6.710415,-29.243317,-26.115017,-20.294037,-19.302349,-11.289539,-8.423481,-5.111961,-5.694809,7.780151,8.373642,9.536591,9.363041,24.711399,20.209007,16.39349,13.240986,-20.764595,-51.767285,-78.910666,-90.581031,-44.775965,-84.074514,-76.983652,-65.180678,-41.674118,-83.343697,-78.022572,-67.239838,-40.116155,-82.180875,-86.150377,-82.179208,-40.507066,-72.355459,-84.701805,-90.626418,54.334431,287.78287,-166.987324,80.213523
64,-1.045761,-0.197848,-0.036678,0.043318,-25.03418,-51.238747,-73.36544,-89.273071,-61.867905,-91.83403,-101.038513,-103.379002,-55.081787,-88.102055,-99.488811,-104.949417,-46.25061,-78.004761,-91.982918,-101.156387,-36.706696,-62.961502,-77.592316,-89.5784,-18.736928,-19.147259,-8.304998,3.291853,13.990853,26.387186,28.923461,29.648287,31.145364,41.281818,43.653342,45.525738,43.332487,53.32426,57.181067,60.33077,50.914203,62.719214,67.456088,71.119864,-21.192741,-22.318153,-7.307796,5.070076,-29.666176,-25.567303,-19.861622,-19.605846,-11.778889,-8.178005,-4.447231,-4.956322,7.224712,8.239117,8.99683,8.485165,24.20248,20.384331,16.956024,13.969231,-21.012924,-52.433973,-79.634134,-91.335745,-45.367071,-85.165396,-77.394447,-65.770086,-41.781502,-83.910968,-77.505875,-66.468298,-39.80799,-81.423784,-81.392199,-74.816954,-39.821729,-71.580244,-85.695863,-93.910737,53.429089,287.591274,-166.883583,80.263093
65,0.070152,-0.167097,-0.133038,0.628063,-25.777817,-51.792755,-73.72427,-89.733181,-61.869278,-91.902866,-101.827984,-105.118847,-55.377846,-88.144054,-100.065479,-106.024189,-46.804504,-78.331947,-92.537498,-101.74942,-37.37812,-63.411713,-77.984333,-89.829483,-18.481837,-18.869691,-7.714788,3.877123,14.360676,27.006234,30.03293,31.136472,31.59923,41.59409,44.118446,46.1107,43.712623,53.572187,57.487411,60.530286,51.076853,62.834873,67.401192,70.757265,-20.967178,-21.364632,-6.641865,5.486298,-29.696159,-26.810646,-20.804386,-19.599438,-12.089596,-9.055023,-5.232983,-5.62191,6.885109,7.753887,9.053307,8.694477,23.968563,20.008793,16.412659,13.111153,-21.402878,-51.813844,-78.042425,-89.920271,-45.681288,-85.06956,-78.946852,-67.627013,-42.788744,-84.963256,-80.259141,-69.733567,-41.178694,-83.611262,-87.09204,-82.529611,-41.306055,-73.581884,-86.865262,-93.39299,53.54393,287.377788,-166.971931,80.844766
66,-1.877861,0.319126,0.001087,-0.03776,-24.726105,-50.732231,-72.801304,-89.205608,-60.872498,-91.912594,-102.435951,-105.997124,-54.365158,-88.57687,-100.715904,-106.371689,-45.808296,-78.548698,-93.017578,-102.112942,-36.466827,-62.76741,-77.582188,-89.649696,-18.263364,-18.336167,-7.562388,3.417021,13.884148,27.145543,30.290862,31.161357,31.223293,41.706414,44.0893,45.579461,43.402265,53.478944,57.204964,59.889872,50.671462,62.79597,67.523705,71.025509,-20.944118,-21.992626,-8.392811,3.471851,-29.512482,-25.887051,-19.883938,-18.838348,-12.220173,-8.545361,-4.196434,-4.278603,6.577835,7.890644,9.365845,9.07053,23.791866,20.09325,16.769314,13.587055,-21.081282,-51.786921,-78.074103,-89.924439,-46.23701,-85.902202,-79.801169,-68.403309,-42.867383,-85.508204,-80.673857,-70.26002,-40.922091,-83.525522,-87.237431,-82.948371,-40.743076,-73.146728,-87.740759,-95.900088,51.776361,287.730907,-166.860552,80.841
67,-0.806236,0.525867,0.336399,0.310018,-24.534302,-50.570869,-72.736473,-88.740578,-61.058235,-92.617207,-103.423176,-106.954422,-54.762955,-89.379959,-101.827183,-107.450466,-46.35498,-79.465542,-93.908272,-102.715073,-37.039604,-63.495255,-78.038235,-89.630642,-18.717538,-19.140837,-8.03132,3.801047,12.787584,26.09486,30.403927,32.405381,30.220713,40.949477,44.189768,46.464221,42.535104,52.756835,57.154576,60.576104,50.050994,61.943073,66.588186,70.204908,-20.157452,-20.661564,-6.442852,5.349998,-29.343338,-26.22654,-19.732189,-18.076115,-12.302685,-9.009991,-4.45713,-4.403286,6.305122,7.678585,9.154701,8.652592,23.549366,19.93206,16.845932,14.0411,-20.981215,-51.374398,-77.404203,-89.389125,-46.858714,-86.080383,-80.292517,-69.298103,-44.08294,-85.976519,-80.261549,-69.491845,-42.547948,-84.721226,-85.901369,-79.566456,-42.578823,-74.701079,-88.835532,-96.422836,51.021566,288.306962,-166.472712,81.201205
68,0.68058,-0.613799,-0.242729,0.419872,-25.654106,-51.504021,-73.712025,-89.021072,-61.532135,-93.168297,-104.870167,-110.94841,-54.904289,-89.28091,-103.021088,-110.700474,-46.111336,-79.15163,-94.508228,-104.348717,-36.254654,-62.880478,-76.7066,-87.878208,-17.809128,-17.846116,-5.906674,6.418955,13.063238,27.958734,35.041074,40.114982,29.933327,42.129095,48.254612,52.877681,42.003371,53.486972,59.604523,64.160654,49.477456,61.513908,66.597449,70.70206,-21.766033,-23.259258,-10.60009,1.088905,-29.225178,-25.622234,-20.184689,-19.179039,-11.662674,-8.131886,-4.728756,-5.326481,7.076569,9.004154,10.487823,9.901829,24.034595,20.433884,17.100735,13.924999,-21.353015,-50.958015,-76.377448,-87.693613,-46.644223,-85.939222,-79.729322,-68.436592,-44.024462,-85.949441,-80.362604,-69.627758,-42.6147,-85.076321,-87.680089,-82.596456,-42.843393,-75.47688,-88.436038,-94.578104,51.830463,287.816447,-166.587124,81.744362
69,-0.416222,-0.41379,0.545654,-0.806306,-25.498581,-51.210022,-73.651028,-89.35358,-61.411629,-92.402229,-104.33979,-110.914536,-55.091515,-89.244232,-103.057022,-111.087627,-46.511765,-79.521904,-94.869061,-104.900436,-36.958923,-63.491936,-77.471924,-89.20578,-17.681366,-17.362919,-5.905933,6.20888,13.248551,28.120026,35.077816,40.147401,30.030337,42.318545,48.478211,53.156731,42.199305,53.960536,60.181581,64.681828,49.945833,62.436027,67.805657,71.798995,-22.026329,-24.980907,-13.722782,-2.473927,-30.47596,-25.640373,-19.623642,-19.334393,-12.984238,-8.156319,-3.670921,-4.109974,5.675926,8.319855,9.732914,8.951683,22.76207,19.742889,16.96907,14.284058,-21.235658,-51.273281,-77.117774,-89.308355,-47.047299,-85.852401,-78.454392,-67.329809,-44.336178,-85.85697,-78.885071,-68.108728,-42.706338,-83.488965,-80.967634,-72.76119,-42.55048,-74.11905,-89.081113,-98.413638,51.494522,287.438411,-165.961189,80.973809
70,-0.034332,0.64912,0.01379,0.292512,-25.722656,-51.498642,-74.078121,-89.448166,-61.406708,-92.734795,-105.030842,-111.928425,-55.005569,-89.539261,-103.869438,-112.361012,-46.401901,-79.631939,-95.336266,-105.593891,-36.922646,-63.59951,-77.616177,-89.28772,-18.057364,-17.937321,-6.387648,5.613606,12.596775,27.099415,33.926911,38.952283,29.724117,41.723765,47.659647,52.195894,42.002754,53.504015,59.484234,63.751681,49.682529,61.909605,67.171728,71.122149,-21.936893,-26.1339,-17.064972,-6.730671,-29.493313,-25.319881,-19.728413,-18.909302,-12.156086,-8.69442,-4.595089,-4.344807,6.089458,7.276554,7.807617,6.908627,22.896423,19.975948,17.579613,15.417023,-20.908412,-49.892974,-75.296847,-87.795624,-46.921421,-86.158528,-80.32401,-69.505307,-44.55354,-86.926333,-81.393928,-71.076237,-43.192098,-85.04912,-83.561244,-75.611095,-43.15798,-75.419545,-90.570225,-99.921553,51.557837,288.269294,-165.849752,81.448083
71,-0.401115,0.321287,-0.760059,0.029764,-25.735817,-51.178665,-73.778172,-89.383907,-61.111679,-92.58894,-105.031872,-112.046242,-54.826012,-89.498806,-103.911266,-112.525463,-46.363449,-79.66095,-95.255814,-105.454044,-37.049561,-63.894882,-77.886314,-89.423847,-18.557975,-18.654923,-6.984095,5.151899,12.054915,26.085968,32.82269,37.805702,29.453835,41.106261,47.217144,52.012557,41.902348,53.245342,59.460274,64.114403,49.78522,61.978703,67.15771,71.197052,-21.469002,-23.732243,-12.50988,-1.257648,-28.916073,-24.867611,-19.491863,-18.679619,-11.457653,-7.388248,-3.851852,-4.447517,7.135391,9.058056,10.37241,9.659672,24.063263,21.258087,18.380928,15.25835,-20.992855,-50.598751,-75.867482,-87.678515,-46.648052,-85.808156,-80.402834,-69.221841,-44.013841,-86.407074,-82.833516,-73.172108,-42.487371,-85.077309,-90.363886,-86.936738,-42.535166,-75.411579,-89.580149,-97.247976,51.322975,288.671644,-166.443558,81.55891
72,-0.349846,-0.20495,0.007381,-0.604969,-25.949135,-51.107826,-73.444347,-88.947086,-60.743637,-92.013531,-104.617996,-112.189522,-54.601822,-88.85519,-103.512096,-112.787075,-46.166496,-78.990326,-94.667244,-105.357685,-36.736336,-63.201599,-77.095013,-88.746929,-18.342281,-18.493137,-6.509605,5.752668,12.056459,26.327906,33.066728,38.017012,29.351885,41.493189,47.851444,52.88083,41.794778,53.589045,60.065614,64.958161,49.812761,62.119371,67.272257,71.233732,-21.384659,-23.939381,-12.809772,-1.11311,-29.132195,-25.434895,-19.793873,-18.991241,-11.661701,-7.591496,-3.863525,-4.542274,6.86594,9.011593,10.21986,9.354229,23.815842,21.281948,18.564892,15.576038,-20.847711,-49.903348,-74.713275,-86.166432,-46.24936,-85.485387,-79.592329,-68.167422,-43.560346,-85.809669,-81.838099,-72.119696,-41.870237,-84.256554,-88.490563,-84.41871,-41.636636,-74.28871,-88.861158,-97.251928,51.231165,288.512652,-166.178141,80.999899
73,0.441284,0.242803,0.521278,0.423423,-26.154442,-51.572685,-73.897591,-89.887962,-61.092796,-92.480278,-105.39608,-113.156204,-54.746017,-89.041843,-103.937588,-113.267097,-45.985107,-79.264469,-95.185261,-105.789928,-36.243668,-63.247833,-77.64576,-89.481926,-18.811213,-18.340243,-5.910996,5.736922,12.738739,27.283308,33.690654,38.332927,30.238127,41.870917,47.468283,52.030033,42.569746,53.581573,59.581429,64.174177,50.24736,61.780361,66.732806,70.502298,-22.393627,-25.337162,-15.246391,-4.039135,-28.699322,-26.443176,-20.491676,-18.858204,-11.731968,-8.760109,-4.675598,-4.770527,6.250362,7.73798,8.521328,7.292004,22.868614,19.656773,16.692352,13.605366,-22.04113,-50.068932,-74.628584,-87.265312,-45.970557,-84.786588,-81.522616,-71.533283,-43.834734,-85.857958,-82.83898,-73.259639,-42.672715,-84.987987,-87.472484,-81.821365,-42.633442,-75.867421,-90.176998,-97.674795,51.869001,288.843727,-165.46031,81.511594
74,-0.826378,0.02717,0.014648,-0.390355,-25.879326,-51.404457,-73.87167,-89.569702,-61.40007,-93.025188,-106.469593,-114.547176,-54.766273,-89.440041,-104.578686,-113.992195,-45.879135,-79.56213,-95.83128,-106.793804,-36.105309,-63.30574,-77.786694,-89.868565,-19.151952,-18.779968,-6.511272,5.838254,12.883482,27.429163,34.067888,39.156183,30.257455,41.940386,47.736773,52.564915,42.645823,53.425839,59.485283,64.275757,50.502327,62.104798,67.345123,71.670245,-22.109871,-26.076679,-17.254944,-6.125107,-28.68187,-26.295319,-20.536022,-19.35276,-11.896935,-8.741741,-4.793701,-5.223827,5.886269,7.734947,8.3535,6.914978,22.476254,19.731445,17.255116,14.467449,-21.680601,-49.734029,-74.529135,-86.868534,-45.704537,-84.430474,-80.412838,-70.063098,-43.705367,-85.394398,-81.367375,-71.46122,-42.538222,-84.748921,-86.256588,-80.044867,-42.443775,-75.543046,-90.008728,-97.995743,51.323118,289.115707,-165.165167,81.366048
75,-0.26413,-0.276024,0.090408,-1.096533,-26.004868,-51.391068,-73.866463,-89.637108,-61.029739,-93.082237,-106.314182,-114.073849,-54.395142,-89.513969,-104.495258,-113.704662,-45.679665,-79.687386,-95.844612,-106.642685,-36.140327,-63.476601,-77.860622,-89.807053,-18.629667,-18.182718,-6.074388,6.060556,13.424972,28.012519,34.471056,39.195642,30.742813,42.305516,47.909551,52.45327,42.942966,53.855745,59.742474,64.32207,50.497202,62.425282,67.62547,71.853582,-22.32439,-27.583122,-20.811539,-10.865021,-27.99408,-25.571537,-20.444584,-19.496212,-11.177444,-8.56041,-4.979782,-4.95306,6.32761,7.787361,7.756577,6.338997,22.400551,20.305309,18.375149,16.335011,-21.365241,-48.989103,-73.758798,-86.498125,-45.609534,-83.976454,-79.74581,-69.511667,-43.808737,-85.924247,-81.699963,-71.774789,-42.946979,-84.91012,-85.001171,-78.038967,-43.038123,-76.017721,-91.006553,-100.425807,51.280947,289.033641,-164.8528,80.463473
76,0.152321,-0.327524,0.292683,-1.16662,-26.120338,-51.766663,-74.389858,-90.335197,-61.23127,-93.145924,-106.442127,-114.477825,-54.420662,-89.436893,-104.419098,-113.87661,-45.709648,-79.625416,-95.870132,-106.772175,-36.360397,-63.791428,-78.267345,-90.319633,-18.526729,-17.908731,-5.837946,6.422537,13.386254,27.578228,33.964826,38.882567,30.77128,42.235923,47.619695,52.131056,43.13433,53.873344,59.482999,63.955951,50.811203,62.693156,67.780895,71.970476,-22.464523,-27.673531,-20.615673,-10.343628,-27.945557,-25.342598,-20.087757,-19.195576,-10.947304,-8.370609,-4.88863,-5.130444,6.684551,7.9319,8.124962,6.830406,22.977562,20.490532,18.612213,16.628151,-20.970131,-48.794743,-73.785413,-86.419763,-45.714478,-83.526787,-78.668821,-68.069548,-43.892903,-84.898912,-80.919932,-71.414815,-42.895726,-83.961294,-85.120813,-78.993628,-42.801156,-75.322412,-90.097216,-99.362897,51.834583,288.88033,-164.158802,79.471067
77,-0.050125,0.439292,-0.035934,-2.152496,-25.913658,-51.585617,-74.36657,-90.14637,-61.124153,-93.182716,-106.503639,-114.393196,-54.255295,-89.620628,-104.61565,-113.924446,-45.45433,-79.722919,-95.980282,-106.783562,-36.08654,-63.793259,-78.329315,-90.286217,-18.72433,-18.401685,-6.469591,5.914516,13.037179,27.498446,34.165206,39.253564,30.476422,42.100196,47.808774,52.567508,42.878375,53.602075,59.434463,63.993804,50.664052,62.407004,67.544638,71.74978,-22.212067,-26.416569,-17.320118,-6.238461,-27.895031,-23.65551,-18.644028,-18.554878,-11.1763,-6.922073,-3.903751,-4.947453,6.587219,9.494934,10.297852,9.337864,23.25182,21.401825,19.6665,17.668591,-20.349231,-49.351825,-74.92795,-86.824136,-45.730379,-83.448056,-76.789231,-65.221217,-43.02003,-83.633801,-79.026448,-69.285074,-41.137847,-82.545604,-84.948745,-79.729384,-40.422869,-72.94005,-87.888095,-97.293208,52.048388,289.496661,-163.930807,77.495609
78,-0.187225,-0.669868,1.25742,-0.609075,-25.763054,-51.424484,-74.25705,-90.313683,-60.826035,-92.811241,-106.280022,-114.448471,-54.116821,-89.38448,-104.370747,-113.79158,-45.437508,-79.611568,-95.925751,-106.879578,-36.147537,-63.431396,-77.900047,-89.948959,-18.543772,-17.872854,-5.736243,6.614457,13.196187,27.776941,34.296735,39.308583,30.517609,42.136073,47.60012,52.149828,42.849599,53.666357,59.261129,63.70191,50.545738,62.512536,67.645168,71.88174,-22.257614,-27.94487,-20.808506,-10.050087,-25.862732,-23.874836,-19.776878,-19.207478,-9.233837,-7.173958,-4.580154,-4.848175,7.581711,8.653965,7.680988,5.717926,22.848587,20.451622,18.290291,16.425304,-19.701747,-46.99018,-71.858769,-84.477898,-44.601242,-82.695627,-78.506263,-68.390588,-43.550651,-84.906816,-80.641283,-70.834793,-42.791368,-84.047467,-83.419774,-76.140975,-42.61081,-75.220215,-89.236261,-97.339305,52.298813,289.021568,-162.235737,77.08131
79,0.135384,0.563287,-0.457821,-3.255636,-25.698051,-51.433754,-74.312096,-90.352249,-61.030083,-92.859936,-106.229095,-114.168835,-54.501343,-89.623661,-104.709148,-114.102058,-45.982018,-79.818535,-96.238289,-107.289391,-36.744461,-63.787537,-78.401241,-90.575294,-18.636892,-18.427434,-6.749752,5.607061,13.005501,27.413416,33.929505,38.895103,30.32112,41.866532,47.481436,52.11815,42.694297,53.644682,59.450703,63.971574,50.58038,62.694144,67.862036,71.887236,-21.78297,-26.555042,-18.368225,-7.826958,-27.177143,-21.911831,-17.40303,-18.361187,-9.797287,-5.152988,-2.431583,-3.738785,8.178749,10.968304,10.770893,9.175014,24.521141,23.48156,21.234913,18.750114,-19.471047,-48.474753,-74.183734,-87.083611,-46.055248,-83.988588,-76.429349,-65.225509,-43.067547,-83.863235,-78.029797,-68.487197,-40.547451,-81.053807,-79.678563,-72.473217,-39.075198,-71.500308,-86.740649,-97.256003,52.964144,290.071835,-162.16361,74.312653
80,-0.510635,-0.136098,2.645874,-0.298903,-26.091728,-51.618462,-74.059467,-89.380074,-61.144524,-92.777653,-106.059265,-114.051418,-54.671631,-89.430714,-104.439869,-114.024582,-46.153336,-79.711647,-96.089058,-107.327099,-36.921158,-63.567123,-78.066101,-90.263386,-17.988451,-17.745586,-6.31293,5.889507,13.760524,27.639237,33.763396,38.340337,30.785606,42.041656,47.4844,51.980447,42.936049,53.874209,59.593594,64.000165,50.629842,62.900884,68.034134,71.936328,-21.884136,-28.67609,-24.126949,-15.92514,-27.500153,-25.53257,-20.311661,-18.87989,-9.96563,-7.999249,-4.288616,-3.929043,7.687168,8.408432,8.461418,7.298126,23.71891,22.118111,20.676441,19.091206,-20.058602,-45.860518,-69.729059,-83.687462,-45.710588,-83.050074,-80.37588,-71.470452,-45.027783,-85.585855,-81.71608,-72.488994,-44.196005,-83.830723,-83.541916,-76.935116,-43.575815,-75.80425,-91.398668,-102.202304,53.075323,290.154904,-158.895922,74.232918
81,-0.351677,0.420891,0.504112,-3.038306,-26.250343,-51.901131,-74.289207,-89.927502,-60.631828,-92.606106,-106.195564,-114.399776,-53.997688,-89.004478,-104.326801,-114.037457,-45.53627,-79.171486,-95.586891,-106.747398,-36.582985,-63.133049,-77.515869,-89.521637,-17.788256,-17.199342,-5.202719,6.239817,13.910639,28.662195,34.63031,38.57221,31.227245,43.05918,48.002671,51.846325,43.349283,54.773542,60.119213,63.970216,50.73772,62.94201,67.784909,71.374831,-22.731113,-29.25333,-24.986,-15.472069,-26.007786,-22.269917,-18.071651,-17.892323,-8.244324,-5.767078,-4.023228,-5.022869,9.517078,10.076981,9.024467,7.569523,25.159206,23.941154,22.550755,21.236515,-22.010317,-49.613677,-75.602573,-89.608091,-46.772973,-83.379574,-79.173167,-68.815369,-44.700043,-84.842936,-81.888827,-73.321667,-42.976002,-82.859667,-86.34063,-82.340963,-41.541663,-74.376704,-90.369289,-101.950702,53.147049,290.620364,-157.968407,71.239181
82,0.331306,1.739941,0.259724,-3.308958,-25.704918,-51.684608,-74.570904,-89.756184,-60.764122,-93.830338,-107.72707,-115.711441,-54.274178,-90.33268,-105.893784,-115.368118,-45.992432,-80.169239,-96.624012,-107.548714,-37.439346,-64.360771,-78.644142,-90.200558,-18.319062,-18.297326,-7.123404,5.426873,11.65749,25.943509,32.306581,36.728713,29.168672,41.610453,47.060298,51.17621,41.772795,53.768986,59.398895,63.575507,49.834991,62.276896,67.098121,70.816175,-21.520615,-27.097721,-21.489086,-11.92749,-23.984585,-18.467731,-14.584866,-15.101051,-6.59277,-2.346382,-0.448036,-1.855946,10.831146,12.973824,11.776257,9.690742,26.486721,25.700054,23.897724,22.033081,-21.799161,-49.077992,-74.250455,-87.629176,-48.665778,-84.094428,-79.125465,-69.382609,-46.133393,-85.25441,-80.289738,-71.32222,-43.457007,-82.071268,-80.777072,-73.928087,-41.052322,-73.656818,-89.431887,-100.732644,53.702259,292.501806,-157.484779,68.071724
83,1.326485,0.555939,1.288033,-2.954881,-26.375771,-52.388992,-75.287476,-90.471954,-62.355652,-94.750156,-108.201942,-115.923214,-55.559692,-90.720806,-106.361275,-116.133785,-46.815948,-80.046902,-96.457386,-107.53315,-37.592239,-64.136581,-78.102779,-89.304085,-18.362164,-18.211246,-6.610135,5.770823,12.084926,27.043346,33.64854,38.150393,29.382513,42.405305,48.382065,52.935294,41.631325,54.401495,60.490951,65.056529,49.187229,61.454689,66.152228,69.877198,-21.545448,-26.311111,-20.515366,-10.782051,-23.44202,-17.196808,-13.809185,-14.459267,-5.585232,-0.585251,0.399799,-1.63044,12.100582,15.086002,14.032745,11.879482,27.67519,27.983665,26.974297,25.497322,-22.288842,-49.384861,-74.190465,-87.47057,-48.165507,-84.069697,-79.317972,-69.123319,-45.284263,-84.163712,-80.81826,-72.487327,-42.511639,-81.657849,-85.490481,-82.103101,-40.076944,-72.627068,-88.285274,-99.276631,55.172396,293.216382,-156.053095,65.275481
84,0.342522,-0.227921,1.683655,-2.432688,-26.498795,-52.251205,-75.033932,-90.571804,-61.853714,-94.914608,-108.88773,-116.719208,-55.093346,-91.172047,-107.03064,-116.862888,-46.677933,-80.782986,-97.333946,-108.339558,-38.121071,-64.89315,-79.020538,-90.472412,-17.840435,-17.585962,-5.804168,6.33763,12.838096,27.499928,33.713811,37.399631,30.223369,42.81014,47.883122,51.240924,42.303663,54.632812,60.020289,63.851099,49.552668,61.688229,65.97414,69.310577,-21.692104,-26.24382,-19.201412,-9.97364,-23.084908,-16.783161,-12.837296,-13.367386,-5.217819,0.20628,2.014732,0.617409,12.399273,16.447735,15.769672,14.219742,28.132725,29.514599,28.940163,28.30925,-20.86284,-48.503806,-73.497872,-87.145886,-47.592741,-84.720855,-76.997268,-66.31914,-44.54295,-84.326733,-76.921408,-67.37396,-41.530147,-80.760925,-76.57894,-68.313555,-39.275979,-71.719676,-87.648442,-99.678843,55.790176,293.092866,-154.094181,62.947197
85,0.595436,-0.283373,0.823345,0.290443,-26.683273,-52.523232,-75.472813,-91.37495,-61.189957,-95.089188,-109.517384,-117.727947,-54.339523,-91.447392,-108.025303,-118.287735,-45.685158,-80.97765,-98.055954,-109.406147,-37.131042,-64.733849,-79.438362,-91.245003,-17.760221,-16.987662,-5.103425,6.794398,12.908738,28.32794,34.220596,37.125891,30.335631,43.460928,48.043488,50.707648,42.403082,55.105018,60.340403,64.06457,49.3132,61.8297,66.186315,69.6804,-20.528698,-24.473591,-16.713123,-7.89402,-20.598736,-13.429642,-9.848557,-10.598373,-2.78904,3.923435,5.12867,3.489532,14.360104,19.66301,18.664684,17.077389,29.542351,31.916313,32.55312,33.273296,-20.826407,-48.207065,-72.111853,-84.908854,-48.190238,-85.683945,-77.84084,-67.281427,-45.31236,-85.00077,-78.13715,-68.496861,-42.135023,-81.728029,-78.353122,-70.00672,-39.548422,-72.314672,-88.407386,-100.024985,56.801062,292.934661,-152.855387,63.362808
86,1.697273,0.946634,1.94458,0.649738,-26.366615,-52.394485,-75.949059,-92.033558,-60.950317,-95.335579,-110.620995,-119.764481,-54.689941,-92.090321,-109.482994,-120.623474,-46.686974,-81.871891,-99.549694,-111.510315,-38.577232,-65.35675,-79.970627,-91.755066,-17.972457,-18.05792,-6.459217,5.766686,12.253258,26.777387,32.474171,35.545822,29.917951,42.507687,46.957545,49.752307,42.297982,54.503754,59.404329,62.942812,49.714639,61.722377,65.85842,69.072899,-20.164375,-22.937222,-13.006153,-2.469864,-19.603844,-9.79929,-7.000523,-9.012852,-1.485672,7.482262,8.240318,5.80925,15.764008,23.529968,22.933044,20.962143,31.107903,34.687328,35.464325,35.661449,-20.587155,-47.823687,-70.655254,-82.050582,-49.199733,-86.909907,-77.481854,-67.044769,-45.584278,-85.256725,-76.082343,-66.033668,-41.649788,-80.27535,-73.064909,-63.142081,-38.629421,-71.560793,-88.04417,-100.097757,58.632059,294.068923,-150.777082,64.200174
87,0.588226,-0.589037,1.531219,2.414904,-27.077293,-52.817345,-76.488247,-93.103924,-60.745125,-95.611267,-111.286983,-121.470852,-54.016113,-91.692066,-109.334049,-121.483498,-45.818596,-81.561012,-99.460316,-112.01683,-37.663651,-64.902306,-79.550171,-91.421528,-17.759665,-17.480739,-5.6275,6.291626,12.69854,27.562111,34.029726,37.819719,30.288639,43.04578,48.335505,51.894676,42.428152,54.956879,60.435684,64.698191,49.537416,62.046876,66.515753,70.091905,-19.077873,-19.275684,-4.427032,7.736435,-16.785107,-5.925751,-2.642498,-4.586048,0.301552,11.33337,12.081871,8.850403,17.369156,27.990818,27.465477,25.094833,32.840023,38.623066,41.188602,42.814751,-19.900583,-49.497803,-73.348467,-83.808678,-48.241243,-87.79405,-76.686447,-66.368756,-44.065372,-84.260043,-72.947614,-62.47107,-40.380879,-78.498328,-68.641758,-57.752351,-37.540515,-69.716925,-86.743212,-99.702833,58.883343,294.053239,-149.582806,67.188431
88,0.534439,-0.916376,3.311577,4.151573,-27.531281,-53.197632,-76.946068,-93.219795,-60.81356,-95.188065,-111.44474,-123.30122,-53.942757,-91.368713,-109.700146,-123.374348,-45.820084,-81.246529,-99.817715,-113.392811,-37.809906,-64.809494,-79.659233,-92.111549,-17.688529,-17.425225,-5.917418,6.350968,13.511669,28.096931,34.361758,38.387082,31.105967,43.518418,48.367245,51.505031,43.083386,55.171091,60.129155,63.689622,49.991034,62.333089,66.483272,69.571472,-17.509975,-14.551849,3.926468,17.392445,-13.712769,-1.625347,-0.140133,-2.875214,3.641052,15.584908,14.408627,10.306664,20.959797,31.323109,28.664417,25.655537,36.317081,43.548431,46.430969,49.129028,-20.477857,-50.921613,-74.383805,-84.659846,-48.396855,-88.52502,-76.257128,-67.005959,-43.003635,-83.873454,-71.964146,-61.657817,-38.417957,-76.579619,-65.647172,-54.839676,-35.560735,-67.826807,-84.606432,-97.724041,59.689379,293.167815,-145.999632,71.370956
89,0.421944,0.392918,5.930672,5.696506,-27.219086,-52.99118,-76.93079,-93.232784,-60.693169,-94.9403,-111.420536,-123.577709,-54.252548,-91.849079,-110.2882,-124.056988,-46.710434,-82.11628,-100.687065,-114.248886,-39.207344,-65.855942,-80.489674,-92.73119,-18.407798,-18.761072,-7.671809,4.68451,12.237635,26.007174,32.306519,36.482267,29.940675,41.724383,46.420563,49.464859,42.127737,53.559899,58.29103,61.574176,49.514136,61.335511,65.295256,68.346344,-16.923409,-13.665962,5.394859,18.913994,-12.479954,1.227264,1.906643,-0.971031,5.203972,18.770657,16.749916,12.270184,22.971325,35.123005,31.473255,27.822247,38.671818,48.189411,52.704678,56.72184,-22.37378,-52.392261,-74.911246,-84.41834,-48.88212,-87.644089,-74.797873,-65.250333,-42.34269,-82.282424,-70.466514,-59.782334,-36.645226,-74.255457,-63.708425,-52.916058,-32.738216,-64.454771,-80.968499,-93.765006,60.692654,293.721932,-139.487629,77.228662
90,-0.18322,-0.536549,3.751774,7.125102,-26.912842,-52.429962,-76.555252,-93.456287,-60.404091,-94.528999,-111.557808,-124.645729,-54.296951,-91.668091,-110.785217,-125.871391,-47.005806,-82.050762,-100.947876,-115.286865,-39.414139,-65.809937,-80.559311,-93.296757,-18.119485,-18.654491,-8.859023,2.569249,11.727021,24.857875,30.811974,34.553061,29.522316,40.286401,44.534521,47.41808,41.865668,52.601224,56.77018,59.740251,49.353646,61.061339,65.05233,68.092056,-15.234833,-9.090042,12.700367,27.623405,-6.996346,5.574474,6.074123,3.597851,10.836868,23.936977,20.998535,16.134682,28.439198,40.632133,35.626774,31.455803,43.421116,54.666939,59.632931,64.123249,-21.661118,-50.448975,-70.022003,-77.633668,-47.370624,-86.904442,-73.556906,-63.264162,-39.823458,-80.437754,-68.962212,-58.27936,-32.602983,-70.257735,-61.023826,-51.157067,-26.708906,-57.249733,-72.379727,-83.699719,61.077547,293.694932,-135.167742,84.863313
91,-1.146698,-0.140667,9.198303,9.038068,-26.269341,-51.310158,-75.090523,-92.027493,-59.331894,-94.303265,-111.702232,-124.644985,-53.358078,-91.989613,-111.527481,-126.542072,-46.168671,-81.965218,-101.156902,-115.673904,-38.51635,-65.349312,-80.422096,-93.443871,-18.975593,-20.472732,-10.934701,0.922736,10.548885,23.29911,29.146318,32.920441,28.900366,39.379164,43.294881,45.781941,41.598165,52.174405,56.386401,59.153128,49.142522,60.952041,65.131926,68.124845,-15.018311,-8.837528,10.22953,23.812294,-6.004543,7.021866,7.541084,5.430908,11.239643,25.529308,22.794285,17.739487,28.040943,41.763783,36.315136,31.31773,42.755356,55.358677,62.432041,68.091602,-20.92564,-48.361225,-67.301558,-75.719467,-43.717717,-82.616432,-70.815589,-60.644987,-34.921031,-74.777835,-64.307311,-53.83827,-26.884122,-63.668411,-56.008951,-46.772479,-20.459795,-49.964667,-64.878163,-75.70687,60.193548,293.871322,-125.706739,94.218439
92,-0.010071,-1.101689,8.627586,7.770487,-26.184998,-51.643295,-75.918617,-92.331963,-59.948959,-94.473267,-111.950798,-125.412025,-54.261932,-92.20356,-111.906681,-127.503605,-47.058907,-82.001781,-101.22591,-115.890656,-39.253349,-65.949898,-81.192341,-94.303951,-19.430508,-20.904984,-11.825451,-0.148324,10.248592,22.057247,27.556121,31.324625,28.644658,38.5627,42.644341,45.510856,41.532895,52.083261,56.491068,59.524804,49.29239,60.96717,65.109634,67.942496,-12.432632,-6.745491,7.47551,18.579197,-2.269249,10.168304,9.88678,7.92841,12.874775,26.606941,23.05172,18.801556,28.03791,41.698437,35.399265,31.073742,41.562538,57.126675,66.629219,74.996052,-21.434896,-43.389791,-59.181626,-65.903251,-35.804741,-71.542329,-62.958744,-53.569254,-26.827003,-65.633988,-57.582753,-47.038562,-18.683483,-54.491188,-50.361691,-42.789732,-11.710009,-38.247958,-51.158765,-60.461249,60.447321,293.000549,-116.81531,102.219841
93,-1.294212,-0.712229,8.918095,0.655295,-25.558662,-51.016846,-75.594521,-92.099533,-58.960648,-94.053726,-111.880589,-125.269432,-53.651848,-92.301235,-112.201138,-127.492332,-46.778183,-82.161312,-101.489754,-116.134987,-39.24202,-65.863838,-80.999508,-93.947983,-19.114346,-20.855461,-12.520637,-1.35079,9.428547,21.497109,26.863405,30.079675,27.986954,38.327925,41.949031,44.155867,40.991035,51.789206,55.741418,58.266207,48.68421,60.773891,64.795572,67.353336,-7.228775,-2.233772,10.857868,21.52977,4.269676,19.351387,18.026791,14.700336,15.377254,31.452942,28.332825,22.636929,25.284348,40.664978,36.437645,30.748043,33.411427,46.006851,46.726513,45.230083,-14.254187,-27.076599,-35.86609,-38.568937,-30.489791,-47.94268,-37.998672,-28.57383,-26.67976,-47.179075,-35.851672,-23.748344,-21.138123,-39.513873,-30.024131,-19.909568,-15.236297,-27.152335,-22.070338,-17.002297,59.150019,292.647784,-107.900305,103.234601
94,1.075745,-0.896184,-6.574802,47.258053,-25.526848,-50.63427,-74.985809,-91.917057,-60.076103,-94.76572,-112.726994,-126.45853,-55.038185,-92.769413,-112.681732,-128.219147,-48.190384,-82.741756,-102.044334,-116.490555,-40.582581,-66.962814,-81.949024,-94.614201,-19.696899,-22.015504,-13.763488,-2.608152,8.144138,19.426124,24.702141,28.077851,26.706189,36.423234,40.328762,42.840213,39.957642,50.385619,54.853323,57.740896,48.157911,59.959588,64.097298,66.563116,16.227665,34.503078,44.662857,46.97588,36.160069,58.022633,57.608528,54.178905,35.914135,61.075687,57.013092,48.31358,36.830807,65.657043,64.42606,58.501225,38.298969,67.844353,78.757381,83.682461,-17.433809,-39.991203,-60.672157,-75.830216,-29.526021,-64.130736,-74.375037,-74.520799,-27.745757,-69.619452,-80.34414,-78.688704,-26.83463,-62.627978,-73.38175,-73.663857,-25.413444,-43.246623,-50.643612,-53.684481,60.086088,291.861856,-114.614782,150.60291
95,-1.708031,-1.603905,2.722206,13.893966,-25.978432,-50.320015,-74.145527,-91.203804,-59.757385,-93.861809,-111.606903,-125.335178,-54.80896,-91.955738,-112.042065,-127.918396,-47.887344,-81.829262,-100.660229,-114.922314,-39.910583,-65.496368,-80.169239,-92.739143,-19.366473,-21.619745,-12.813581,-2.251297,8.456657,20.246293,25.498968,28.645646,27.101083,37.164485,40.8642,43.117287,40.344261,50.813673,54.848198,57.367553,48.31167,60.138664,64.108845,66.326673,3.617191,22.295666,40.670586,52.057571,32.091351,61.547699,67.03474,65.720959,37.893162,67.399349,73.091183,72.069397,42.578316,73.775253,81.761856,82.525578,46.348743,74.82542,91.584778,104.13168,-30.120986,-55.842225,-72.21368,-77.571053,-38.53837,-63.692123,-80.608556,-90.941499,-21.666738,-50.104809,-71.170252,-84.213606,-7.86799,-32.883576,-52.584829,-65.446977,3.109442,-7.844155,-16.296675,-25.174902,58.096275,290.200276,-112.174358,164.439201
96,-0.315399,-0.339566,4.93083,23.272774,-24.847412,-49.634972,-73.776512,-90.603561,-60.008354,-94.381084,-111.942902,-125.23653,-54.971352,-92.627678,-112.31575,-127.658043,-47.859535,-82.139912,-100.917435,-114.94812,-39.823494,-66.216888,-80.997906,-93.276901,-19.927043,-21.830067,-12.531382,-1.037839,8.329884,19.630085,24.649838,27.874753,27.141097,36.505856,40.179635,42.651689,40.350251,50.171098,54.325295,57.12827,48.358724,59.530361,63.371237,65.644516,19.805574,45.850553,66.045284,77.162017,48.322992,83.052749,89.60721,87.882414,47.685756,84.813108,91.310548,88.129406,45.725355,82.419576,90.130634,88.841428,42.826481,73.093757,83.623695,88.172464,-6.835864,-20.685231,-36.619894,-47.902605,-11.539207,-30.71853,-44.337198,-50.793049,-14.639078,-41.560637,-57.52088,-65.293836,-16.975281,-40.122392,-50.903351,-56.034455,-17.408615,-26.591766,-27.794293,-29.232368,57.947445,289.859321,-107.076959,187.710586
97,0.643845,1.473241,4.93083,23.272773,-24.707451,-49.489288,-73.73394,-90.652885,-59.88945,-93.848934,-111.437988,-124.890862,-55.333328,-92.663898,-112.447643,-127.969322,-48.813286,-83.013897,-101.406384,-114.91745,-41.56929,-67.879944,-82.14283,-93.628407,-20.303659,-22.986591,-13.714025,-2.126128,7.513667,18.749031,23.661399,27.038591,26.059415,35.539894,39.17125,41.705487,39.119565,48.910093,52.886264,55.731414,47.408879,58.054218,61.45895,63.687152,35.993958,69.405441,91.419983,102.266464,64.554634,104.5578,112.17968,110.043869,57.478352,102.226868,109.529915,104.189415,48.872395,91.0639,98.499413,95.15728,39.304218,71.362095,75.662613,72.213249,16.44926,14.471765,-1.026107,-18.234156,15.459957,2.255063,-8.065839,-10.644598,-7.611418,-33.016463,-43.871506,-46.374065,-26.082571,-47.361207,-49.221871,-46.621932,-37.926671,-45.339375,-39.291911,-33.289832,59.195452,290.78076,-101.541967,210.431557
98,-1.333809,0.709018,-0.534325,11.971429,-25.192909,-49.081421,-73.104572,-91.219025,-59.000816,-93.769512,-111.047573,-123.733864,-54.514847,-92.761002,-112.112331,-126.936321,-48.171501,-82.807446,-100.797329,-113.75267,-41.116104,-68.193283,-82.439232,-93.558598,-19.483984,-22.84228,-14.670169,-2.669594,8.693408,19.276194,23.983798,27.319988,27.037912,36.490171,40.213103,42.935617,39.627956,49.743724,53.709273,56.313844,47.088271,57.537675,60.939135,63.346043,19.295368,42.467937,64.29451,80.360355,62.318172,97.280502,113.189392,122.082596,62.359142,98.640633,116.477509,126.715965,60.350075,93.892136,111.460762,122.503624,56.41428,83.124561,98.002853,109.530487,-26.451592,-37.673741,-40.014329,-39.260541,-17.552493,-22.592994,-28.887769,-33.831816,-1.110087,-4.687103,-13.196928,-20.131314,11.917397,12.295989,7.471121,2.739866,21.524341,24.58253,22.131039,17.931146,58.286762,291.281618,-101.651173,222.194825
99,1.803818,2.092845,-1.379986,16.929431,-24.360924,-44.007568,-61.666374,-74.014549,-62.057648,-94.333763,-111.218491,-124.638462,-60.184021,-93.591156,-113.392811,-129.209118,-54.959106,-85.157032,-103.376942,-117.859955,-47.396507,-70.099354,-83.349438,-95.822239,-16.502304,-21.195273,-18.164131,-12.711755,4.146478,14.58094,20.161571,24.456559,20.467421,32.021294,37.224939,40.043166,33.601548,44.46925,49.418855,52.168415,43.474822,54.111577,58.330983,60.990388,27.750835,53.476067,74.662971,91.019325,61.279793,94.970684,114.821148,130.369778,57.437668,94.993343,117.716389,135.83147,52.943287,87.308807,110.797062,128.60281,47.915154,75.80555,94.588566,110.879002,-22.816098,-30.003537,-31.60596,-30.391453,-10.830158,-8.213299,-10.158499,-12.387627,3.356011,6.175782,2.134959,-1.08372,14.577852,19.557343,19.051175,18.318692,22.452141,26.974,28.806876,29.556588,60.233688,293.138067,-102.88805,238.88786
100,-4.118385,4.309685,40.412979,33.990947,-20.3405,-40.840874,-60.398026,-76.940918,-50.19516,-78.51717,-98.254795,-115.231876,-49.906769,-82.334976,-104.684544,-125.343304,-48.3181,-77.490005,-96.678371,-114.770336,-43.829842,-65.430851,-79.193916,-92.393417,-16.75795,-25.867371,-29.248391,-31.231321,7.108337,13.252132,15.16868,15.977178,21.738245,28.819226,30.669701,33.254388,32.165975,40.564525,43.113644,45.749028,39.86514,48.270853,52.643585,57.073374,30.155754,62.761402,84.47485,95.346165,73.065777,116.075191,144.224796,170.239735,60.919704,98.88937,105.229511,111.132832,46.077633,67.831707,53.725948,32.392731,32.199268,51.376019,42.829685,25.405083,12.359715,10.106443,2.670705,-3.224174,26.190264,19.040616,9.458434,1.576859,18.614785,17.567004,13.282884,10.532891,8.748922,12.552933,21.089927,29.362877,-2.743694,3.28469,13.996966,21.855756,55.800819,297.38401,-62.789555,272.815065
101,-6.143417,-5.655411,-1.897373,9.279296,-25.139236,-48.534737,-65.483093,-75.20422,-58.692513,-76.576538,-87.627754,-99.134789,-53.837128,-71.551666,-81.084766,-90.446434,-47.267303,-69.354115,-81.700745,-92.029781,-38.319626,-60.657463,-74.381847,-87.169247,-13.163644,-15.317745,-11.994524,-7.727508,12.050284,16.145571,15.609948,12.653894,26.026625,26.601645,23.625955,19.945198,36.201364,39.34094,38.202819,35.580587,42.81718,51.879547,55.522142,57.593313,14.875145,36.038074,57.183952,74.950218,43.489895,86.7556,97.328682,98.733788,44.700108,91.114082,100.239716,97.195129,45.87513,88.350906,98.39859,95.132904,45.40844,76.513481,85.496407,82.612953,-28.985211,-33.379617,-26.228487,-16.16033,-5.22285,3.524343,-0.83678,-1.943285,17.911077,22.774972,10.70746,6.190232,33.701399,38.710901,27.918905,22.438618,43.421902,48.750654,42.107729,37.327321,49.517241,291.693925,-64.827089,282.059688
102,-27.750435,-6.335345,-10.135517,-2.696949,-12.590218,-32.68055,-54.951611,-72.4086,-40.062847,-53.485909,-60.978813,-65.48624,-38.936462,-55.319538,-62.826233,-62.803802,-38.359737,-53.273335,-61.151962,-61.516514,-38.681946,-50.624256,-55.842934,-55.821934,33.719553,52.222015,64.962545,71.312463,50.998369,59.186164,54.777864,49.266455,30.166311,37.615387,35.788254,34.691999,7.666993,12.736702,9.748661,9.371551,-14.896669,-14.609777,-14.360676,-13.669071,20.026417,45.808582,69.313602,86.127148,50.91259,89.005337,106.512966,117.646236,45.470524,86.308651,105.506344,115.495205,39.194984,76.074543,95.861034,106.987209,32.948742,61.014462,77.157955,87.726688,-19.125461,-18.006667,-9.842645,-3.562258,8.626409,18.863578,19.923832,19.948903,26.957698,36.248974,36.190311,35.507475,39.071276,50.030246,50.067605,47.654584,46.598837,56.630377,57.450237,55.381474,21.703119,285.274831,-75.026293,279.27899
103,-12.945099,0.528028,-5.311031,7.641737,-9.88575,-24.605713,-36.889229,-49.714508,-44.520435,-17.313538,4.843941,20.961342,-45.282211,-12.373924,16.157112,37.684937,-41.358662,-14.725914,11.180077,30.499763,-33.879547,-36.238403,-36.375389,-34.863853,18.262129,36.975591,52.692306,63.948233,35.103504,43.306367,42.650701,42.463165,29.114949,36.051496,37.16393,35.698284,22.064966,29.407522,30.451598,30.791287,16.128899,29.312241,36.403597,42.508613,23.944187,49.875183,73.34095,92.407036,57.635479,90.040741,107.432785,119.460869,52.248631,87.424965,107.748528,122.24556,45.707245,79.021454,99.258499,113.264923,38.579979,64.156837,79.622154,93.013687,-19.042283,-19.282986,-9.84246,-3.649202,6.105078,14.83566,17.845499,19.765381,23.394885,31.638935,33.570673,34.164218,35.379343,45.611077,47.475446,46.351218,43.578748,55.908391,58.449297,57.670809,8.670816,285.552862,-80.424528,286.67073
104,12.865562,5.039451,5.614243,0.677711,-16.249924,-36.75705,-52.840519,-67.939453,-45.986938,-33.909988,-19.334335,-10.752754,-40.887108,-18.930588,-5.171928,5.225487,-35.19968,-15.702553,0.127144,11.898079,-28.8834,-25.19474,-19.040337,-12.455063,24.465637,42.495028,54.477016,62.550636,36.051434,50.440392,50.783107,48.092456,21.941342,40.506294,43.586467,43.349345,6.756668,24.59698,28.159979,29.744556,-7.874845,1.629223,6.283104,11.59611,23.562183,47.804947,69.768677,88.453217,56.431732,89.33773,106.336098,117.690697,50.182858,85.18158,105.318604,118.843689,42.854118,76.029396,95.169868,108.406219,35.333862,61.15345,76.164207,89.215279,-16.977288,-16.070792,-6.348375,-1.128612,9.853019,20.148233,23.964347,27.150112,26.729345,35.762257,38.62303,40.202544,38.880653,48.982218,52.149273,52.81803,47.277474,58.485915,61.332732,61.854647,22.049389,290.450967,-74.297276,287.207094
105,-40.202522,5.091507,4.406433,1.048151,-2.942104,-6.549969,-13.689995,-22.779007,1.739216,31.187439,40.884018,42.947845,7.54612,41.611176,45.560646,44.006882,7.773628,35.851021,40.483704,39.030533,4.774647,10.964699,7.280502,2.217808,-3.855572,9.450592,28.462864,42.916475,21.32322,38.252651,36.052484,32.707773,24.446988,43.05356,38.998658,35.385641,23.503565,41.003138,35.589479,32.084526,21.597886,32.586557,32.219698,33.700411,23.668499,48.50029,69.475937,86.746216,56.328621,89.479408,106.653099,118.180618,48.630009,83.845139,103.866119,117.236595,39.76902,73.116417,92.106285,104.938545,30.997467,57.397099,72.552567,85.515518,-18.043594,-15.222897,-3.414057,2.099082,11.398756,23.334369,28.278786,32.67029,28.408339,38.517499,42.003186,44.451713,40.196925,51.268403,54.687276,55.775689,47.815073,59.987314,63.140229,63.694253,-17.534323,295.310446,-69.272032,288.023219
106,0.822487,-5.517152,2.022343,0.961886,-6.748409,-13.376484,-20.774632,-31.797123,-5.01606,20.272408,32.017937,37.200623,2.808895,37.55825,49.443512,54.491043,7.121201,40.101357,54.373283,60.66021,8.977203,25.727119,34.645729,39.508553,21.886384,41.766064,56.44846,64.719557,38.384797,55.405989,56.175214,54.018828,24.488361,47.823903,48.716073,47.136868,8.708661,31.158764,33.405491,34.178606,-6.920677,8.184029,12.240908,16.770733,23.243237,47.893524,68.611736,85.17992,54.524517,88.402805,105.610828,117.691784,46.584263,82.655697,102.240429,115.611362,37.42321,71.031132,89.722195,102.617855,28.513012,55.160179,70.184269,82.265797,-17.166429,-15.246609,-4.931882,0.481468,11.834652,24.083031,29.467976,33.741043,29.209859,39.967707,44.12104,47.210722,40.910574,52.532187,55.967795,56.919924,47.878367,59.641821,61.639014,60.871951,-16.407394,289.729367,-66.945248,288.921178
107,-10.510254,-0.995478,-0.723324,-0.1637,-4.746494,-6.990452,-11.192093,-21.27594,2.774734,30.598297,39.486237,41.925201,9.573612,50.59021,63.093567,67.586975,14.392719,53.410606,68.023796,73.66745,16.973591,41.853333,53.039474,59.317474,26.874829,46.779025,61.029599,66.472651,39.998397,56.239064,57.096901,55.561662,23.148439,46.214996,48.091468,46.729933,4.794487,27.036245,30.934239,32.310347,-13.221442,1.986079,7.127109,11.465878,23.231335,47.899246,69.096451,86.308136,53.96862,87.687607,104.559746,116.647568,46.099262,82.338409,101.689339,115.246925,36.943474,71.061516,90.09613,103.167686,27.875004,55.01524,70.384712,82.285309,-17.226574,-15.180845,-4.710877,1.061119,10.908766,24.046784,29.990199,34.70966,28.530172,40.260342,45.449662,49.134,40.619668,53.111776,57.01502,58.315978,47.870401,59.865234,61.750103,60.772532,-26.738749,288.715873,-67.489672,288.739462
108,2.842941,0.287263,-0.105972,-0.172963,-2.691135,-6.154747,-11.02644,-19.874554,3.141861,33.451767,43.660583,45.854301,9.347305,48.853111,59.236221,61.972961,11.339264,46.244774,57.596855,60.971489,11.402493,26.315117,31.061897,32.348328,13.03792,31.624794,48.12648,56.666748,32.154922,49.641897,50.002705,47.445929,24.529178,47.673973,47.222887,44.253495,14.290898,36.503015,36.92934,36.047112,4.134931,19.980519,23.13226,26.86464,22.446098,47.232285,68.427658,84.648514,53.746433,86.954155,103.48526,115.409546,45.849037,82.214699,101.430016,114.951553,36.573715,70.917778,89.465904,101.885948,27.330837,55.010834,69.959679,80.484467,-17.554716,-15.739501,-5.263235,0.900321,10.596926,23.550249,29.429814,33.801064,28.740062,40.608738,45.551241,48.642096,41.186599,53.531185,56.819148,57.251586,48.600477,59.901543,60.966244,58.95775,-23.615742,289.000295,-67.315578,288.563658
109,9.06538,1.219324,-1.754894,-1.330721,-8.205128,-18.447132,-28.595982,-42.277565,-8.270988,19.122448,30.670452,34.393101,-0.849152,37.063694,47.666645,51.36549,4.268532,39.10944,51.587849,56.92606,7.712574,22.868214,30.25732,35.08112,23.263047,42.695099,55.186343,59.893454,36.213344,54.492083,54.546177,51.504598,20.789141,45.393098,46.22043,44.026685,4.099116,28.146888,30.968449,31.244659,-12.21911,3.418812,8.247509,12.886076,22.572269,48.330517,70.161724,86.741924,53.880386,87.401218,104.385166,117.044392,45.63961,82.548466,102.62598,116.74593,36.253967,70.576,89.796467,102.555256,27.152939,54.245911,69.16769,79.686985,-17.671115,-15.320586,-4.373658,2.362139,11.655329,24.93389,30.61252,34.658221,29.584252,41.986822,46.568517,49.056318,41.628793,54.431444,57.131605,56.756594,48.606034,60.542265,61.272711,58.701362,-14.141464,290.228604,-68.661575,287.241921
