takenoko1/special-research/HandMotion_SimilarSearch_自分用/NewProject/handData/key/d4_feature_d2/97.csv
,vel_0x_L,vel_0y_L,vel_0x_R,vel_0y_R,posFromWrist_1x_L,posFromWrist_2x_L,posFromWrist_3x_L,posFromWrist_4x_L,posFromWrist_5x_L,posFromWrist_6x_L,posFromWrist_7x_L,posFromWrist_8x_L,posFromWrist_9x_L,posFromWrist_10x_L,posFromWrist_11x_L,posFromWrist_12x_L,posFromWrist_13x_L,posFromWrist_14x_L,posFromWrist_15x_L,posFromWrist_16x_L,posFromWrist_17x_L,posFromWrist_18x_L,posFromWrist_19x_L,posFromWrist_20x_L,posFromWrist_1y_L,posFromWrist_2y_L,posFromWrist_3y_L,posFromWrist_4y_L,posFromWrist_5y_L,posFromWrist_6y_L,posFromWrist_7y_L,posFromWrist_8y_L,posFromWrist_9y_L,posFromWrist_10y_L,posFromWrist_11y_L,posFromWrist_12y_L,posFromWrist_13y_L,posFromWrist_14y_L,posFromWrist_15y_L,posFromWrist_16y_L,posFromWrist_17y_L,posFromWrist_18y_L,posFromWrist_19y_L,posFromWrist_20y_L,posFromWrist_1x_R,posFromWrist_2x_R,posFromWrist_3x_R,posFromWrist_4x_R,posFromWrist_5x_R,posFromWrist_6x_R,posFromWrist_7x_R,posFromWrist_8x_R,posFromWrist_9x_R,posFromWrist_10x_R,posFromWrist_11x_R,posFromWrist_12x_R,posFromWrist_13x_R,posFromWrist_14x_R,posFromWrist_15x_R,posFromWrist_16x_R,posFromWrist_17x_R,posFromWrist_18x_R,posFromWrist_19x_R,posFromWrist_20x_R,posFromWrist_1y_R,posFromWrist_2y_R,posFromWrist_3y_R,posFromWrist_4y_R,posFromWrist_5y_R,posFromWrist_6y_R,posFromWrist_7y_R,posFromWrist_8y_R,posFromWrist_9y_R,posFromWrist_10y_R,posFromWrist_11y_R,posFromWrist_12y_R,posFromWrist_13y_R,posFromWrist_14y_R,posFromWrist_15y_R,posFromWrist_16y_R,posFromWrist_17y_R,posFromWrist_18y_R,posFromWrist_19y_R,posFromWrist_20y_R,posFromBody_0x_L,posFromBody_0y_L,posFromBody_0x_R,posFromBody_0y_R
2,-19.43018,-4.179885,-1.207008,-1.21037,12.902012,25.184727,32.383747,34.864712,15.671597,42.639141,57.197628,63.543949,7.289829,38.740139,54.680614,65.995159,-2.419395,24.471531,39.829159,49.66341,-10.565643,-5.516167,-3.021011,-0.527744,-23.541357,-29.880839,-30.010824,-26.851734,-5.028892,12.499951,16.046771,14.762424,14.605578,32.939152,34.110063,31.424044,29.119827,45.023893,43.802531,40.440283,39.957704,53.403671,51.667805,47.155146,23.18121,47.918072,69.281101,84.868412,52.245884,84.978962,102.464275,114.973011,44.873486,81.148624,101.360607,115.044308,36.253338,70.18404,88.794308,100.917263,27.642231,54.447384,69.019375,79.750729,-16.760173,-16.002681,-5.89877,2.500459,11.36998,25.083388,31.595833,35.632581,28.972738,42.326696,47.692251,50.166158,41.398341,55.474224,58.847031,58.464117,49.276211,63.496837,65.441852,63.392479,-24.582624,296.471292,-67.611609,286.500453
3,0.085316,0.241815,0.107861,-0.681045,12.771549,25.465393,32.922592,35.858345,14.213333,39.463692,55.152855,63.01712,6.281605,35.441666,52.84687,66.050262,-2.775421,22.920341,39.428101,50.470963,-10.365829,-4.859734,-1.396179,1.917057,-24.352078,-31.357724,-32.209756,-29.226161,-6.039684,11.843544,15.664474,14.797869,14.264777,32.39229,33.534364,30.933004,29.109268,44.537793,43.018672,39.8602,40.273742,52.68681,50.682515,46.321516,22.836399,47.465172,68.697624,84.125175,52.920742,85.315247,102.577858,114.835052,45.444546,81.072121,101.169434,114.813194,36.361713,69.988747,88.660011,100.949135,27.26326,53.801994,68.398132,79.220123,-16.35577,-15.824469,-5.860793,2.868986,12.211391,25.959503,32.123367,35.868962,29.623587,42.996009,48.277398,50.491645,41.833187,56.122479,59.519431,58.873584,49.551186,63.98837,66.118821,64.0395,-25.227385,296.465936,-68.233824,285.572237
4,-0.980415,-1.087178,-0.301609,0.133072,12.603321,25.831604,34.801712,38.364601,16.397324,42.454147,55.961609,62.077103,8.630276,38.875008,53.841476,64.582214,-0.279121,26.926003,41.932869,51.380424,-7.869129,3.028164,10.044651,14.890137,-24.60087,-30.928497,-31.51105,-28.371165,-5.798549,11.91678,15.044253,14.098854,15.096555,33.039064,33.811747,31.11875,30.655622,45.952125,43.921463,40.190441,42.260747,55.329851,52.221335,46.70406,22.996044,47.685127,69.121456,84.751911,53.337479,85.550823,102.788143,115.042019,45.747757,81.204472,101.344242,115.005169,36.571655,70.182781,88.861713,101.158504,27.367001,53.996086,68.594456,79.423885,-16.334836,-15.953281,-6.065496,2.652427,11.977727,26.034653,32.094097,35.688218,29.370348,43.054672,48.277337,50.352644,41.642193,56.184353,59.550121,58.812883,49.462451,64.004858,66.115425,64.034251,-26.741323,295.195236,-69.068956,285.521787
5,6.008263,-0.776882,-0.419769,-0.116523,11.26236,22.521629,29.619141,32.949486,10.220718,33.37429,48.193016,55.468369,3.292866,30.630569,46.675301,58.81588,-5.181084,18.697014,33.745766,43.885803,-12.453289,-9.234638,-8.094864,-7.100372,-24.385608,-30.01212,-30.646544,-30.006439,-4.167782,13.94806,17.018846,15.097482,16.182004,34.046831,34.16675,31.010686,30.549658,46.014493,44.115359,40.600834,41.012092,53.526307,52.584428,49.567179,23.084278,47.97781,69.347363,84.881115,52.714977,85.158634,102.545414,114.932957,45.184708,81.207676,101.625309,115.354671,36.408634,70.623379,89.378872,101.555958,27.647152,54.686508,69.39703,80.053425,-16.43339,-16.124885,-6.295825,2.719982,11.708125,25.930974,32.013451,35.555517,29.487365,43.120868,48.045217,49.864816,42.071297,56.440124,59.60477,58.777253,49.955034,64.271311,66.179831,63.879998,-21.02294,294.294436,-69.778605,285.281346
6,-2.754765,-0.192908,0.573292,0.079658,11.632977,23.425426,31.604404,35.842266,12.139149,36.487598,51.953945,59.562321,4.940014,33.729687,50.478802,62.990398,-3.743134,21.47913,37.190952,47.904911,-11.112957,-6.403427,-4.082794,-2.0121,-24.481383,-29.886211,-30.271596,-28.724995,-4.762192,13.551622,16.894233,15.548383,15.599019,33.672994,34.318965,31.502096,30.222134,45.95336,44.440536,41.048154,40.890444,53.676175,52.665877,49.220389,23.065853,47.552376,68.786545,84.458313,52.624798,85.279655,102.544785,114.787903,44.952736,80.995674,101.219101,114.881744,35.982456,70.056953,88.81897,101.119766,27.033119,53.790894,68.607674,79.64447,-16.600857,-16.127726,-6.127123,2.815695,11.725415,25.952834,31.98764,35.553479,29.41308,43.104443,47.98853,49.861482,41.886848,56.463774,59.675166,58.849933,49.676477,64.248957,66.33501,64.22296,-23.977432,293.994792,-69.405041,285.254268
7,0.765553,0.418483,0.100479,0.219646,11.769676,22.814713,30.629768,34.767151,12.456779,36.347466,51.276627,58.116188,5.095825,33.491364,49.687271,61.153221,-3.863583,20.972786,36.320229,46.4217,-11.581764,-6.457386,-3.661652,-1.557255,-24.250684,-30.144205,-30.919296,-29.442473,-5.287811,13.143575,16.629262,15.340902,15.110882,33.413395,34.010398,31.270656,29.858053,45.67079,43.962033,40.448619,40.580456,53.556873,52.217075,48.612703,22.92635,47.328758,68.671875,84.570007,52.623596,84.948006,102.200317,114.534187,45.076046,80.932503,101.099968,114.717751,36.095409,70.220833,88.865662,101.070099,27.023392,53.854408,68.451691,79.184761,-16.501501,-16.243631,-6.329355,2.400547,11.395112,25.445801,31.509444,35.130365,29.084506,42.739374,47.857557,49.897359,41.666893,56.075673,59.282866,58.458127,49.653198,64.052282,66.090231,63.980158,-23.345232,294.259686,-69.437914,285.320326
8,-5.378494,0.30128,-0.131378,0.654431,13.161793,26.503372,37.164688,42.765312,17.519417,44.235191,58.523598,65.071106,9.581337,41.302414,56.883888,67.587776,0.519333,28.611031,43.889122,53.716965,-7.33572,3.785591,10.673904,15.947456,-24.888998,-30.892928,-31.772069,-29.491812,-7.081784,11.996747,15.38777,14.792126,14.063656,32.64028,33.519791,31.388352,29.66039,45.177651,43.506994,40.330553,41.157452,54.174871,51.661568,46.922409,22.873363,47.069035,68.293991,84.219704,52.609234,84.930725,102.295074,114.836426,45.425205,81.138153,101.419945,115.290298,36.758366,70.632591,89.339561,101.667709,27.929649,54.592266,69.160309,79.928627,-16.583814,-16.484087,-6.888938,1.597421,11.636062,25.10111,30.99494,34.516628,29.16509,42.038816,46.871341,48.668155,41.645404,55.481387,58.58453,57.585655,49.662151,63.691474,65.512494,63.135165,-28.807411,294.485276,-69.652977,285.899066
9,2.086945,0.050697,-0.038052,0.022107,12.973366,25.411491,34.39682,38.478813,15.851097,42.376328,55.485535,61.00605,8.485794,39.684334,54.118652,63.673439,-0.039253,28.059769,42.87117,51.836815,-7.610378,6.12505,15.104942,21.04866,-25.046399,-30.628884,-31.004635,-28.507386,-6.132989,11.711027,14.393527,13.277203,14.571924,32.179869,32.719506,30.250971,30.08196,45.242798,43.190523,39.764857,41.533204,54.986581,51.702508,46.324418,22.771797,47.245903,68.466969,84.346561,52.787476,85.125675,102.670727,115.319538,45.436764,81.21706,101.587315,115.401134,36.594543,70.538692,89.252529,101.526661,27.57843,54.433537,69.010105,79.683323,-16.885033,-16.612466,-6.968534,1.337823,11.2077,24.738327,30.774553,34.376393,28.941245,42.080251,47.162248,49.155674,41.585259,55.522698,58.580084,57.600167,49.707661,63.737911,65.485324,63.104599,-26.830301,294.508015,-69.800863,285.893215
10,4.873753,0.311469,-0.116558,-0.190377,11.968517,22.401867,29.321423,31.811543,11.149235,34.694653,49.132862,56.246052,3.622684,31.559658,48.020039,59.859638,-5.083809,19.666042,35.805416,46.558628,-12.968044,-2.618351,7.000637,14.43964,-25.168171,-30.548176,-31.177413,-29.148417,-6.651199,11.090127,14.482262,13.432505,13.660488,31.284055,32.426623,30.122345,28.894129,44.164759,43.024167,40.098618,40.092072,53.909098,51.45915,46.54567,22.805786,47.15847,68.35041,84.31366,52.855339,85.473633,103.099823,115.698967,45.352478,81.386032,101.773109,115.485992,36.360455,70.410004,89.221573,101.432648,27.271786,54.215527,68.891602,79.539986,-16.813649,-16.364044,-6.76871,1.53987,11.401102,25.104753,31.102509,34.687738,28.979715,42.213446,47.388192,49.511419,41.471638,55.557525,58.751256,57.959184,49.484866,63.735873,65.693732,63.481091,-22.094049,294.789829,-70.054922,285.673183
11,1.715355,-0.146904,-0.374279,0.006052,10.584011,20.352917,26.556644,28.96986,8.95277,31.710949,47.125225,55.224781,1.720562,28.923054,46.268291,59.827137,-6.688957,17.042484,33.923779,46.106701,-14.095058,-7.861176,-1.167755,5.04324,-24.828914,-30.356811,-30.716013,-28.341834,-5.82504,11.663727,15.249079,14.068473,14.440951,31.806032,33.008868,30.642407,29.210106,44.174824,42.931418,39.890643,39.805612,53.269857,51.692011,47.460502,23.196201,47.564335,68.760853,84.595013,52.752056,85.318623,103.004322,115.694561,45.412388,81.546307,102.003422,115.829258,36.682034,70.699825,89.426594,101.559849,27.799416,54.759464,69.35606,79.933949,-16.700646,-16.340456,-6.653792,1.808855,11.558813,25.052513,31.105412,34.806978,29.129645,42.279766,47.4195,49.687654,41.572847,55.477188,58.632448,57.944611,49.64906,63.687522,65.457104,63.090149,-20.428677,294.60626,-70.479183,285.64257
12,-0.508575,0.054093,-0.002804,-0.097319,11.53307,21.728725,27.973537,29.285374,10.790005,34.073925,48.22649,55.541553,2.896786,30.516644,47.107029,59.502468,-5.75243,18.746853,35.388851,46.977024,-13.614979,-1.470108,10.394154,19.773617,-24.851453,-30.548238,-30.771836,-26.929478,-6.978044,10.848127,14.39044,13.840182,12.941898,30.739664,32.60113,31.270285,28.25106,43.956043,42.909682,40.390697,39.666056,53.965291,51.136072,45.932612,23.360481,47.826004,69.089012,84.754829,52.690086,85.586815,103.311768,116.05957,45.231113,81.508369,101.918449,115.608902,36.540356,70.637856,89.260597,101.224937,27.847652,54.804726,69.450073,79.980927,-16.584679,-16.22665,-6.468356,2.280319,11.843853,25.12828,31.130729,34.898925,29.529294,42.505155,47.489957,49.722296,41.996887,55.790818,58.89532,58.185561,49.969607,64.003993,65.66582,63.171165,-20.986605,294.635051,-70.53134,285.519949
13,-1.202145,-1.340848,0.093441,0.797692,11.234894,22.147636,27.731438,30.368958,10.250244,31.245117,49.329414,60.372734,2.706757,27.887192,47.796478,64.478302,-6.164646,14.920807,32.985535,46.976967,-13.956413,-15.525398,-15.164738,-13.19458,-24.305333,-30.603875,-31.681481,-30.30068,-4.818508,14.352525,18.678018,17.499141,15.177263,33.483914,34.949807,32.458487,29.179601,44.753549,44.166612,41.654481,39.330813,51.544242,51.901962,50.17468,23.262749,47.405605,68.724804,84.83099,52.710228,86.312084,104.192448,116.861286,45.087719,82.037716,102.3242,115.989017,36.316051,70.992222,89.432316,101.051388,27.767715,55.447941,70.205669,80.621166,-16.794815,-16.766966,-7.122601,1.534004,11.589379,24.618284,30.838341,34.856873,29.49175,41.864186,46.729563,49.149746,42.057959,55.016777,57.937077,57.423684,50.151709,63.332458,64.441495,61.841803,-22.205973,293.234969,-70.455122,286.258407
14,6.266556,0.890194,-0.142307,-0.566313,9.481659,17.641525,21.216774,22.580566,3.587265,22.897682,41.580276,53.150482,-4.325066,19.473038,40.147934,57.677193,-12.71244,7.355118,25.815125,40.124359,-19.595547,-18.718987,-13.450069,-7.394199,-24.490399,-31.277201,-32.326402,-30.737935,-5.462256,13.631527,18.359694,17.22997,15.124528,32.818553,34.569671,32.347212,29.485822,44.093561,43.711388,41.622001,39.535146,52.141739,51.221596,48.018973,23.587818,48.36319,69.833794,85.535545,52.170181,86.228943,104.547157,117.600861,44.404793,81.894608,102.480927,116.510696,35.764275,71.027985,89.972305,102.137375,27.308865,55.485191,70.538635,81.219978,-16.707315,-16.416409,-6.538195,2.320704,12.203549,25.355028,31.363467,35.268377,30.077391,42.509045,47.140882,49.487274,42.585431,55.772663,58.622815,58.076695,50.546108,63.659179,64.711035,62.036069,-15.973892,294.111022,-70.631905,285.677953
15,-14.193821,-1.312258,-0.229797,0.326598,13.056622,27.854633,37.598133,41.38464,17.181644,42.146244,58.815022,68.063564,8.984585,38.70512,57.656765,72.598858,-0.193577,25.575771,42.506161,54.572353,-8.129654,-1.201115,4.526482,10.166016,-23.656706,-30.767019,-32.088416,-30.998275,-6.904993,13.841108,18.662889,17.926762,14.090394,33.870039,36.247368,33.892393,29.276364,45.502644,45.547289,43.090611,40.4296,54.157149,52.920535,48.926272,23.719368,48.652725,70.27462,85.771637,52.466927,86.659584,104.971962,118.223763,44.59156,82.086754,102.506676,116.444092,35.917854,71.204338,90.076332,102.409744,27.483959,55.524616,70.448914,81.234512,-16.870954,-16.930851,-7.092405,2.029242,11.415984,24.931111,31.01433,35.011125,29.354232,42.016586,46.806504,49.134494,42.058144,55.257974,58.313569,57.782578,50.16659,63.248292,64.407285,61.856931,-30.188112,292.77834,-70.882101,285.984127
16,-2.437592,-0.443615,0.366669,-0.172778,14.589901,30.416737,41.017742,45.381489,20.975246,48.136539,63.661022,71.468067,11.988831,43.903942,61.526814,74.869022,1.704769,29.057522,45.423489,56.867466,-7.15971,0.225449,5.358467,10.503731,-22.479743,-29.155025,-29.514783,-26.661728,-6.282302,14.432368,19.171342,18.937184,14.235569,34.458644,37.232967,35.63079,29.11464,45.59107,45.861907,44.037615,40.235766,53.705383,52.964563,49.902299,23.359737,48.128185,69.677124,85.850716,53.030262,87.045364,104.984093,117.714386,44.999313,82.421494,102.519722,115.952454,36.065426,71.263504,89.753151,101.498108,27.444477,55.500813,70.370064,80.897827,-17.012794,-16.803152,-6.913391,1.574512,11.268339,25.060602,31.355995,35.478329,29.234374,42.227896,47.171448,49.655853,41.915933,55.29348,58.248793,57.793631,49.985847,63.216058,64.401357,61.952583,-32.679405,292.321186,-70.569134,285.797811
17,-1.186295,-0.952624,-0.125313,-0.147522,14.932423,30.435276,40.501499,44.385738,21.835041,49.903393,65.142803,72.215252,12.803707,46.563435,63.919315,76.862469,2.727757,31.993275,48.480778,59.790401,-6.094494,2.8755,8.767834,14.313927,-22.429108,-28.835528,-29.009788,-25.976299,-5.398283,14.87481,19.682079,19.887893,15.007697,35.166613,38.160952,36.670914,29.848544,46.241549,46.695415,44.816658,41.025245,54.884198,54.241562,50.5839,23.682003,48.13591,69.697609,85.732841,52.255611,86.175499,104.362564,117.2089,44.680424,82.353172,102.749062,116.371422,36.281548,71.637955,90.032387,101.517105,28.087807,56.055164,70.745544,80.963058,-16.409863,-16.553248,-6.912279,1.983917,11.475635,24.660274,30.817222,34.890341,29.377388,42.145212,47.130755,49.741068,42.084079,55.215922,58.154438,57.817899,50.355485,63.469852,64.531589,61.944432,-33.874254,291.359223,-70.703001,285.640949
18,-3.354721,-0.169073,0.241585,0.094416,16.179943,32.663555,44.295902,49.559841,26.22694,55.478153,69.815197,75.906086,17.077618,52.03474,68.675365,80.46175,6.252365,36.966076,52.66325,62.950001,-3.556995,6.412468,10.878639,14.826794,-23.086503,-29.783582,-30.869401,-29.344846,-5.86172,14.338384,18.990104,19.0739,14.790397,34.860084,38.197199,37.192211,29.926658,45.875801,47.197445,45.983432,41.678441,55.175352,55.165101,52.018115,23.357906,47.802544,69.423065,85.630875,52.388821,86.363068,104.291267,116.976814,44.772263,82.243881,102.40345,115.858269,36.313534,71.504402,90.01545,101.723785,28.125687,55.976715,70.787544,81.273537,-16.771721,-16.883304,-7.114388,1.659234,10.960945,24.395921,30.646359,34.774065,28.973232,41.720431,46.772973,49.397674,41.745131,54.881975,57.965606,57.707551,49.990293,63.055692,64.236669,61.849521,-37.236614,291.185442,-70.469055,285.730657
19,-2.895241,-0.058539,-0.117989,-0.329871,17.946854,37.353115,50.404758,55.721684,32.484455,63.855572,76.239223,80.097599,22.497196,58.952579,72.591419,80.980167,10.500641,42.581348,56.095676,63.732777,-0.362949,13.672314,18.641338,21.765003,-22.568232,-28.511277,-28.412476,-24.884799,-5.187035,15.350473,18.728962,18.416566,15.53276,36.176232,38.738318,37.37456,30.638393,47.085121,47.392268,45.443981,42.258709,55.92352,54.877776,50.868507,23.47744,48.00705,69.591751,85.645523,52.304592,86.024094,104.048882,116.923599,44.838696,82.130928,102.385941,115.899582,36.473122,71.541367,90.001717,101.738434,28.257236,56.115417,70.788803,81.162872,-16.656803,-16.897691,-7.112474,1.761122,10.89728,24.21388,30.502789,34.653652,28.917347,41.601376,46.647373,49.225514,41.777056,54.903526,58.064468,57.843155,50.174742,63.260518,64.514669,62.172661,-40.143814,291.119137,-70.599003,285.393021
20,5.488129,0.328512,-0.04921,-0.081572,15.642986,31.82951,43.02927,47.642612,24.398746,53.552227,67.634296,73.545513,15.032787,49.157467,65.500546,77.049923,4.074268,34.085827,50.368366,60.776539,-5.46999,4.959869,11.244678,16.473713,-22.688707,-29.443152,-29.546028,-25.640253,-5.725622,13.87223,18.256077,18.623677,14.837512,34.842979,37.678496,36.468558,29.832921,46.020791,46.251491,44.29462,41.404886,55.038698,54.088915,50.19055,23.524075,48.010769,69.697495,85.82428,53.507481,86.684074,104.355469,117.038383,46.06596,82.379723,102.290154,115.906448,37.370911,71.532326,89.735527,101.579819,28.821144,56.245079,70.83847,81.344948,-16.367811,-16.607773,-6.999409,1.884931,11.149469,24.320709,30.550399,34.735286,28.878259,41.135716,46.251985,49.056812,41.665596,54.374819,57.661423,57.583494,50.218893,63.19426,64.261863,61.648092,-34.667301,291.440131,-70.659828,285.303931
21,7.102547,1.0019,0.258808,-0.240518,12.822418,26.416225,34.327869,37.598019,17.681637,43.31789,58.067493,64.904881,9.391994,39.860172,56.684704,69.647655,-0.692654,25.136318,41.258183,52.319698,-9.626827,-5.723362,-3.79818,-1.403732,-22.591203,-29.030721,-27.956882,-23.66072,-4.553537,14.094655,18.392113,18.419283,15.58636,34.457965,36.575757,35.285729,29.752028,45.615956,45.099722,42.976187,40.246449,53.401818,53.193163,50.357893,23.805599,48.048077,69.59856,85.614338,52.947922,86.038799,103.794079,116.567173,45.705357,82.069416,102.14922,115.891056,37.241592,71.464405,89.666576,101.476078,28.806896,56.358032,70.917492,81.344318,-16.054119,-16.468341,-7.082711,1.846893,11.255309,24.348558,30.528786,34.677302,28.955447,41.254833,46.373695,49.217548,41.788603,54.439163,57.699029,57.583371,50.462375,63.428356,64.503431,61.841432,-27.577457,292.443282,-70.413723,285.064664
22,-11.865063,-1.266871,0.930519,0.297328,16.6959,35.054283,46.927986,51.647758,31.134911,63.266258,75.403404,78.805847,22.21899,59.13723,72.123184,80.273895,11.081772,43.834763,56.840744,63.972816,1.204605,14.0201,16.092339,16.782532,-23.167705,-29.182874,-28.521589,-23.717839,-4.3702,15.60402,18.580575,18.400697,16.340332,36.784844,38.754929,37.387713,31.118873,47.389798,47.219243,45.066068,42.172012,55.6286,54.80312,50.806325,23.271446,47.715111,69.318409,85.080471,53.239288,86.401806,103.991833,116.247311,45.493011,82.105694,101.979961,115.103588,36.520844,71.210461,89.151134,100.41235,27.774067,55.817471,70.337734,80.461864,-16.768016,-16.981672,-7.390475,1.482195,11.112048,24.774451,31.098804,35.278875,28.904071,41.523015,46.578521,49.338579,41.783169,54.664676,57.718048,57.540578,50.409825,63.258975,64.303483,61.919423,-39.454508,291.170498,-69.495192,285.356079
23,-0.562191,-0.58527,-0.0737,-0.138568,16.887875,35.167751,47.977352,53.983898,31.084614,63.028507,76.054287,80.433254,21.750755,58.522854,73.090954,82.485752,10.314789,43.08363,57.61076,66.352787,0.188541,14.88081,20.055828,23.537636,-23.298739,-29.252343,-28.54172,-22.957074,-4.904835,14.944217,18.571004,19.00264,15.652927,35.812584,38.654091,38.102968,30.744974,46.728019,47.616792,46.291629,42.162255,55.870414,55.016159,50.954155,23.075409,47.781143,69.543285,85.314503,52.957993,86.135159,103.89822,116.52277,45.308247,82.26511,102.377071,115.594082,36.541843,71.705532,89.726429,100.842648,27.831001,56.232204,70.744228,80.635586,-17.01545,-17.177606,-7.201765,1.882091,10.22945,23.855481,30.326924,34.576773,28.499729,41.279286,46.542521,49.30474,41.789159,54.636085,57.70224,57.507665,50.685232,63.464665,64.551905,62.070094,-40.019188,290.589288,-69.571381,285.221571
24,0.124226,0.119611,0.396023,-0.562485,17.767982,36.391754,48.604889,53.576317,33.918915,66.11824,77.53212,80.104523,23.867168,61.097488,73.602333,80.477829,11.593037,44.781532,57.977943,64.858589,0.822029,16.244144,20.909386,23.224583,-23.107004,-29.422589,-28.407289,-22.438494,-4.832649,14.742973,18.114669,18.174567,15.722025,36.193337,38.756288,37.726229,30.798697,46.889249,47.467603,45.201796,42.090995,55.958162,54.915259,50.139606,23.009205,47.322865,68.820419,84.901199,52.400665,85.956917,103.953552,116.607056,44.770947,82.10392,102.402992,115.681458,36.055756,71.452332,89.591675,100.767288,27.485218,55.983238,70.504074,80.256615,-16.766163,-16.754122,-6.976562,1.493804,10.898083,24.173557,30.36101,34.332118,29.081665,41.642008,46.514424,49.115907,42.15503,54.964474,57.711009,57.409729,50.687702,63.439224,64.325775,61.824204,-39.90449,290.699574,-69.184885,284.649763
25,5.771198,-1.065874,-0.396652,-1.400993,15.304585,30.680637,41.030445,45.655003,25.697422,54.841518,68.248959,73.730679,16.314468,51.095524,66.265125,77.071896,5.449219,34.646473,48.77512,58.248425,-3.762932,3.351345,4.33073,5.205173,-21.844393,-26.850993,-26.534584,-23.305346,-4.6771,15.219933,19.801875,19.608967,15.322747,35.407686,37.824659,36.251753,30.166126,46.551474,47.078576,45.071626,41.692149,55.304842,55.983294,53.142899,23.491173,48.033314,69.43737,85.886879,53.741455,86.999245,104.78199,117.7145,46.008682,82.309113,102.210732,116.158333,37.049103,71.163025,89.9263,102.552223,28.27795,56.022263,71.118393,82.383614,-16.98124,-16.598017,-6.543568,1.562224,11.220791,24.476999,30.278635,33.959145,29.169289,41.066988,45.72513,48.066706,42.131565,54.487637,57.765781,57.691372,50.682453,63.318872,64.511273,62.192298,-34.163589,289.640199,-69.611835,283.255269
26,23.722286,-5.586992,0.794506,-2.682623,3.181458,3.060722,-1.152649,-10.393353,-5.950413,13.952293,31.414375,41.220474,-10.79607,18.981857,39.455109,52.982025,-16.019096,10.328064,32.134438,47.500305,-20.295525,-9.936047,4.003143,15.838966,3.97895,12.697614,20.90202,23.289538,16.855516,36.642694,42.22277,43.496187,16.953946,35.588738,41.50838,43.249062,13.528404,30.347055,36.284542,38.741653,11.025042,23.80182,29.445313,34.15971,22.391624,46.050854,66.865826,83.904247,53.549309,87.462215,105.583591,118.648281,46.179256,83.127422,103.411846,117.639942,37.424812,71.829014,91.122036,104.738216,28.59684,55.802822,71.07439,83.025913,-18.392113,-18.034208,-7.879414,0.101147,9.514195,23.32134,30.267397,34.774127,27.873271,40.519879,46.267175,49.014019,41.112189,54.517648,58.724271,59.091501,49.82863,63.339374,65.448335,63.564701,-10.383568,284.035732,-68.759594,280.55517
27,31.206207,-17.829135,-1.059208,-11.311873,-7.665596,-21.677971,-33.467445,-49.50428,-41.378345,-28.724327,-9.562569,5.632668,-44.303055,-24.764099,-2.38369,18.435173,-43.731937,-24.102402,0.271339,20.865898,-41.946831,-31.357956,-14.808311,1.705627,37.25742,59.804718,72.271447,77.836394,45.472262,59.657197,66.771832,70.495382,28.580684,45.012037,56.930854,63.084097,9.887229,25.691197,37.941367,46.544744,-8.550394,3.673409,14.727597,24.068952,27.780533,52.951984,72.799187,88.272743,55.379276,85.416183,102.92038,116.344528,48.125381,80.230408,99.830246,114.679985,39.404469,69.268227,88.188972,102.201004,29.857178,53.342056,67.827187,79.262466,-18.425088,-16.173174,-4.467272,4.671419,6.195913,22.610654,32.326649,39.823829,23.671897,42.737645,53.502533,61.084619,36.920695,55.543137,64.092914,68.830158,47.225357,63.961385,68.879621,69.50824,20.881176,266.201333,-69.760265,269.238033
28,58.629112,-22.546187,1.749916,-19.773593,-24.77005,-52.369423,-75.593147,-90.906143,-66.922302,-110.606289,-103.410301,-90.884972,-65.606346,-109.220295,-98.888912,-84.082031,-63.987694,-103.301926,-93.916225,-79.48185,-60.67646,-94.928455,-87.930565,-75.215263,40.846477,64.353871,78.711274,80.504877,70.737073,62.74694,54.29053,53.319134,55.186343,39.617953,34.215039,34.547503,34.637041,20.546215,15.376594,15.802671,13.348895,1.806261,0.345926,3.66748,29.259338,54.619446,72.524986,87.841759,52.758121,82.529984,93.6026,97.028046,43.923969,74.748344,87.441444,90.06752,33.409138,60.101852,71.50898,74.494629,22.650146,44.518032,54.745102,57.171478,-11.477117,-5.293431,8.627644,21.878541,10.922598,31.85994,43.925723,52.030712,25.852057,53.682041,68.764518,77.994846,37.655092,64.719866,76.208036,82.635328,47.427342,67.23638,73.233333,75.289375,79.549541,243.691918,-67.971096,249.501212
29,31.50753,-53.655303,-30.892296,-47.957439,-37.823753,-63.945007,-75.173035,-78.160744,-79.98436,-103.904572,-106.588783,-104.093056,-72.487907,-100.177345,-109.97509,-114.084206,-60.618095,-86.042061,-98.755417,-106.845245,-45.934296,-63.529816,-73.38295,-81.489944,-7.778329,7.679343,27.791946,43.728245,22.883529,47.471864,57.690137,61.407388,37.924077,67.904149,81.199198,88.444436,51.585121,80.397616,94.715314,102.848893,61.14285,83.993219,96.736713,106.170015,29.504214,57.371865,77.564736,90.439482,61.531592,91.868449,94.539643,91.904354,52.727995,82.733317,87.793751,85.581007,41.693402,69.560767,75.274945,73.785439,29.691754,51.804142,59.051342,59.010401,-17.675283,-16.239895,-4.623624,8.450359,-1.998089,17.653455,23.850942,26.017116,15.397867,38.827023,46.581454,49.716584,30.818735,52.989109,59.989198,62.636191,43.658776,61.355055,65.695491,66.016872,111.041536,190.448212,-98.878928,201.955371
30,0.019341,-16.746835,-30.892296,-47.957439,-32.419968,-55.907478,-68.729782,-74.278908,-78.054314,-103.966026,-100.243721,-93.834229,-70.096321,-96.308441,-89.886475,-79.560928,-56.803093,-79.958496,-74.009972,-65.223427,-41.331711,-56.587372,-53.995972,-47.83699,-4.902859,5.237114,20.113468,32.595078,23.12979,44.872913,45.147332,40.865435,32.331342,57.594671,55.691647,49.106089,39.654818,61.46988,57.543295,50.642254,44.619304,60.537078,57.450484,51.459891,29.749088,60.124283,82.604485,93.037205,70.305061,101.206913,95.476685,86.780663,61.532021,90.718288,88.146057,81.094494,49.977665,79.01968,79.040909,73.076248,36.73336,59.090252,63.357582,60.849323,-23.87345,-27.18636,-17.874892,-4.977824,-14.918776,3.44697,3.776161,0.00352,4.943676,23.972004,24.398391,21.438323,23.982378,41.258353,43.770359,42.637054,39.89021,55.47373,58.15765,56.744368,111.198807,174.787088,-129.633293,155.083643
31,55.66555,-64.008872,-38.090916,-45.700152,-27.933426,-57.010574,-78.699188,-84.551697,-64.63726,-99.070015,-99.099655,-91.559143,-57.522812,-91.931877,-93.112221,-87.337074,-49.616432,-81.823769,-81.824684,-74.238625,-40.086479,-65.137596,-67.566376,-63.019524,-31.411508,-41.032439,-28.063895,-8.53332,-35.637614,-16.996616,-6.802209,-4.717793,-19.469102,1.414733,10.724132,12.809691,-2.78448,17.069481,22.685866,22.093186,13.335125,30.643827,33.477677,32.04161,15.704327,41.001778,66.813641,83.056583,30.350361,66.312904,83.312416,90.513268,26.693745,68.609848,83.197861,88.10194,25.645523,65.776863,71.092072,69.930038,26.198387,53.829861,55.931225,54.27269,-28.034656,-39.569139,-34.719354,-25.359381,-46.704677,-45.757704,-35.672256,-28.205859,-28.207032,-22.531861,-13.093712,-7.160516,-6.439395,2.542017,7.948235,8.092855,14.895774,23.019596,22.849845,19.196628,167.354593,112.64927,-167.233973,111.254544
32,22.835083,-28.470027,-12.30772,-36.688915,-29.969559,-52.38018,-71.355057,-82.618561,-22.597275,-43.45665,-54.773254,-57.377815,-14.396439,-42.341881,-51.976089,-50.908241,-11.363182,-40.965843,-48.297501,-44.800186,-10.993996,-36.913948,-43.566628,-40.839043,-26.184027,-46.149294,-49.622878,-38.61633,-83.005707,-92.892596,-78.020133,-68.123024,-70.977807,-70.176842,-55.995675,-49.248022,-53.747435,-49.71572,-37.732651,-32.301085,-34.340052,-32.21803,-23.873389,-19.219908,23.61105,43.511353,58.08506,70.521755,15.814705,36.296883,42.593937,41.302471,6.863308,28.966427,35.209465,32.013588,1.993732,24.277096,31.253128,28.026638,-0.747929,15.960732,22.912273,21.143074,-20.120909,-38.691666,-46.832161,-47.963243,-64.100972,-76.146286,-63.374911,-53.54193,-57.04747,-65.825754,-53.384651,-44.180722,-45.628182,-52.031669,-41.759828,-34.01858,-31.570083,-38.887106,-31.414164,-23.815652,190.13114,84.514871,-179.600229,74.901258
33,19.125938,-48.544037,-21.672935,-24.595189,-21.935463,-36.946106,-48.810539,-52.39975,-4.922447,-3.547897,-16.597824,-23.012581,4.262123,-0.637894,-15.632515,-19.244614,9.282188,-0.338058,-14.620972,-18.406563,9.645653,0.696259,-9.954529,-14.077263,-25.264687,-46.776555,-58.165862,-60.106832,-79.72361,-97.697766,-84.802983,-74.934279,-71.49472,-86.879186,-74.525028,-64.540388,-59.415351,-69.545784,-57.667413,-48.428471,-43.982997,-52.137911,-44.099582,-35.532453,18.929615,33.410797,44.589901,54.088097,-0.665531,-0.594063,9.663162,15.739288,-8.907623,-8.8797,-0.222988,3.286972,-13.867092,-12.324142,-5.548038,-3.045444,-15.461483,-15.839195,-12.527103,-10.603638,-23.987689,-49.963432,-69.399497,-82.597413,-83.091601,-109.281186,-96.178335,-82.016341,-74.427401,-97.315994,-84.427849,-72.015955,-63.780117,-80.540043,-68.869123,-56.892878,-53.102884,-64.132774,-58.642946,-51.759782,207.111139,36.704615,-203.419104,51.039849
34,-2.541161,-6.889432,-15.248852,-33.655457,-17.499275,-22.313576,-24.509697,-25.003738,-3.845901,10.863876,14.738159,13.176956,7.435226,21.498413,19.621124,15.123825,16.598167,25.014839,17.556038,8.97274,23.7957,26.170807,17.089691,6.113892,-35.481601,-60.04221,-75.601215,-89.266797,-70.254957,-93.551812,-105.112014,-108.302566,-66.019712,-91.851515,-104.963258,-109.660395,-58.974546,-83.959442,-87.512838,-82.944666,-50.673036,-71.918451,-77.446317,-74.548432,16.037579,22.242222,24.788761,29.198055,-9.153042,-19.263439,-2.085171,8.15815,-20.495853,-29.283028,-8.837929,1.97485,-28.257294,-34.281807,-14.860153,-5.16489,-32.80386,-35.054283,-19.215317,-9.48452,-31.284179,-59.210556,-77.949768,-92.480968,-77.105578,-105.017382,-95.837072,-83.395383,-67.892942,-95.873906,-87.288036,-74.644824,-54.924892,-80.337873,-75.077849,-64.923735,-38.989766,-57.963599,-58.45223,-53.516303,203.960409,33.448407,-219.277525,21.017617
35,30.024033,-44.926944,-11.269512,-8.117647,-12.354813,-11.731567,-6.993713,1.529388,16.670151,29.838524,11.651802,1.660767,23.54805,35.654182,14.909706,5.656242,28.207283,38.55629,17.478333,6.470032,30.084457,36.610909,20.822067,9.170837,-27.783888,-56.16061,-74.623891,-80.060366,-71.874855,-97.137072,-93.444583,-84.893139,-63.318224,-90.15202,-86.711935,-76.984393,-52.677794,-78.22959,-75.499604,-65.281517,-39.941679,-63.00586,-65.088547,-58.156909,13.156242,16.576023,17.099133,19.697857,-12.288551,-22.229462,-11.75211,0.36026,-22.599449,-32.998466,-17.635174,-3.214588,-30.203876,-38.282433,-23.607044,-9.916134,-35.348167,-38.438072,-27.811604,-16.279621,-41.282806,-69.737735,-89.359268,-107.292946,-80.279086,-103.670698,-105.596323,-97.591679,-73.564964,-101.122382,-103.649734,-94.816337,-64.206257,-89.822829,-92.735287,-84.535666,-52.087183,-72.263204,-78.852806,-76.955216,233.160839,-8.472913,-231.37064,15.905594
36,5.595245,-9.226006,-5.725651,-28.74951,-12.089195,-10.5653,-4.576035,4.787178,18.436775,31.10733,19.50222,9.924202,25.73513,38.751526,20.556221,9.283676,30.605278,40.589676,21.036415,8.344231,32.979012,36.050034,20.843353,8.073692,-33.664657,-60.460786,-79.016012,-90.121546,-71.805201,-95.634993,-98.57422,-92.393035,-65.21532,-92.208216,-93.290392,-84.487624,-56.137145,-81.588812,-81.940203,-72.124203,-45.23193,-67.733132,-71.241913,-64.441927,9.489613,8.966503,8.393955,9.553699,-21.245327,-35.253353,-18.804302,-6.173859,-29.348259,-41.909752,-23.430576,-10.8288,-35.718956,-46.415977,-27.865219,-13.437653,-40.01976,-46.882896,-33.314323,-20.082722,-31.752216,-58.013154,-77.718976,-97.250569,-71.386224,-95.595658,-96.146843,-89.944569,-62.828142,-89.897732,-90.628517,-83.700121,-50.918309,-76.917919,-81.029076,-76.870957,-36.756747,-58.484649,-69.305822,-72.623548,237.636194,-15.21842,-238.216181,-10.363417
37,-5.474052,-10.413034,7.973614,-6.639991,-12.18029,-9.261475,-4.271049,3.607063,19.500732,36.029091,22.277527,11.397743,26.860313,41.831245,23.558922,11.694374,31.789742,44.177399,24.930611,11.180534,33.579369,40.37384,26.834679,13.976784,-29.289764,-55.451901,-73.116162,-80.91351,-69.522473,-93.441897,-97.251712,-91.447019,-62.25445,-88.824201,-90.93026,-82.976746,-52.561827,-77.076741,-79.690605,-72.161439,-41.055255,-63.008885,-69.028377,-65.092036,7.018604,5.030766,3.829308,-2.244186,-27.553768,-44.036236,-29.571934,-15.783978,-34.19014,-49.952431,-32.491093,-18.21825,-39.262619,-52.078285,-34.994888,-19.409409,-41.634407,-50.113621,-37.790222,-23.432121,-32.158534,-58.032358,-77.678776,-93.444151,-67.763914,-89.637485,-95.323987,-92.544354,-58.708895,-84.502104,-89.503239,-85.644147,-47.677864,-72.080083,-79.380432,-76.489155,-35.277177,-57.094709,-69.208534,-73.223639,231.181383,-23.469788,-231.223326,-14.841742
38,-15.789642,-0.190809,12.481899,-1.829726,-9.671631,-7.341728,-0.339203,11.841316,19.828835,32.640953,16.789513,8.298683,27.314987,38.866539,20.412025,10.864334,32.429924,41.736946,22.78141,11.577415,33.957481,36.879044,22.789879,11.320381,-30.19061,-54.135012,-70.989694,-72.28707,-70.504058,-95.814718,-94.281301,-85.555999,-63.033987,-90.357278,-90.022344,-80.892021,-54.010831,-79.902995,-81.174961,-72.583812,-44.339235,-66.609243,-71.435347,-67.358584,9.11499,6.802025,2.974033,-6.216259,-27.3452,-40.545731,-24.173241,-13.000603,-33.731117,-45.267162,-26.441402,-14.562836,-37.289143,-45.247822,-26.117535,-12.28981,-36.501904,-40.19165,-26.283932,-12.971535,-32.845384,-59.826238,-80.043045,-88.694124,-69.531921,-91.669289,-91.734837,-87.03384,-60.746258,-83.911585,-85.955832,-81.8787,-49.038503,-70.474171,-76.192104,-74.299423,-36.399676,-55.432511,-65.825445,-69.606052,214.381714,-23.59792,-219.751453,-16.608792
39,-12.495918,5.769835,16.427822,-3.600605,-14.397125,-15.627251,-10.775642,-1.968498,13.03196,15.805664,-0.740776,-11.78009,18.597794,16.70311,-3.089905,-13.586426,19.725952,16.006279,-4.067574,-15.002403,17.788925,10.284691,-4.798508,-14.621429,-34.894602,-62.362636,-78.409037,-86.656453,-79.57121,-103.314769,-101.760881,-93.164452,-71.21499,-96.749588,-94.353549,-86.472344,-60.930768,-83.797347,-83.588816,-76.518054,-49.012506,-66.819287,-71.20792,-69.676849,8.297024,4.206505,-2.10125,-1.083584,-18.547955,-20.533848,-5.231781,7.014942,-22.660847,-25.158978,-7.180939,6.555862,-23.046284,-22.161198,-5.750713,5.824013,-21.855526,-22.626686,-10.01524,0.089951,-28.221853,-49.553285,-62.894863,-72.750106,-65.799634,-90.794039,-91.442079,-85.995137,-59.481794,-84.938155,-84.907187,-76.987419,-49.416261,-70.863167,-71.809863,-64.71718,-37.600721,-50.675815,-53.537175,-50.040867,201.396418,-17.813882,-203.813009,-20.195194
40,-13.187599,11.224248,34.541988,12.843715,-24.246998,-39.734058,-47.812614,-53.549995,-22.230835,-25.967388,-37.269916,-45.417423,-13.211174,-18.254471,-32.582073,-41.623363,-6.640091,-12.038326,-27.07901,-37.049789,-2.387237,-9.860058,-21.305637,-29.380531,-23.364626,-42.518261,-51.169093,-55.711962,-66.500794,-92.666157,-100.447697,-103.306231,-59.831765,-88.123827,-94.819826,-97.202805,-49.719625,-74.604455,-80.859293,-82.423554,-36.910907,-54.508647,-61.746768,-65.584572,30.957413,50.846786,67.757607,86.012764,26.084747,28.684044,36.561871,47.080307,14.524097,13.098564,20.210896,28.45293,7.697182,5.412598,11.043491,17.076759,6.646786,1.285458,1.505871,2.677631,-21.389509,-40.636742,-48.620453,-56.53136,-65.486435,-93.472587,-110.6233,-122.418525,-57.197461,-86.738272,-101.571832,-112.118741,-45.33848,-69.499595,-83.382075,-94.98998,-30.69332,-43.136028,-51.540228,-59.595106,190.382395,-6.192146,-167.097445,-6.953992
41,-13.187599,11.224249,6.814899,5.772552,-34.09687,-63.840866,-84.849586,-105.131493,-57.493629,-67.74044,-73.799057,-79.054756,-45.020142,-53.212051,-62.074242,-69.660301,-33.006134,-40.082932,-50.090446,-59.097176,-22.5634,-30.004807,-37.812767,-44.139633,-11.834652,-22.673887,-23.929149,-24.767473,-53.430378,-82.017546,-99.134513,-113.448011,-48.44854,-79.498067,-95.286104,-107.933267,-38.508483,-65.411563,-78.129771,-88.329055,-24.809309,-42.198009,-52.285618,-61.492295,27.706718,51.681347,70.895462,88.130951,42.139549,51.694221,59.46579,67.546806,28.654175,33.691463,39.610004,45.370045,16.379185,19.904423,26.692657,32.747383,6.960468,12.816753,20.469418,26.456223,-15.52112,-29.488755,-34.390873,-36.144369,-46.098566,-73.990671,-89.855031,-102.421827,-39.961933,-50.791875,-49.732053,-48.819196,-27.629141,-38.019636,-38.296494,-36.705896,-13.363746,-16.223593,-17.475768,-16.884847,177.570477,4.275537,-159.906864,-1.938006
42,3.86364,-2.080773,-6.679401,-3.642317,-35.749626,-61.971817,-84.700699,-105.662041,-58.037796,-68.081474,-76.416206,-83.403511,-48.902206,-57.696762,-63.733521,-68.968506,-38.231163,-44.618111,-51.743889,-58.291054,-27.825508,-33.069305,-39.378891,-44.754753,-12.145966,-19.828675,-19.812342,-19.257514,-52.383801,-76.423236,-91.985945,-106.556727,-47.111643,-74.746126,-90.85193,-105.510181,-37.24439,-62.755462,-77.927322,-88.861899,-24.728971,-41.758994,-53.782231,-64.003376,33.894768,60.198326,81.147137,98.846798,39.027672,45.368557,52.783527,59.909534,26.699066,32.67231,40.112057,44.948273,18.054886,27.858868,33.049965,34.708385,13.889294,22.667713,28.006611,30.971203,-15.977919,-27.781325,-31.452696,-38.296432,-52.985991,-78.379921,-95.931241,-109.185195,-44.752345,-59.047782,-69.36044,-80.647767,-29.908164,-42.38292,-53.068767,-61.765479,-12.401243,-20.785559,-27.493846,-33.311105,182.019053,-0.182272,-166.001329,-7.957359
43,0.041084,-2.12514,-16.359215,-18.027292,-35.568695,-53.846169,-73.226051,-89.895401,-44.464874,-45.967598,-46.934853,-49.678459,-31.254501,-27.999458,-29.343109,-31.674271,-18.951187,-15.969429,-16.386795,-18.827705,-9.44561,-4.356537,-4.406319,-6.769867,-15.492746,-26.418586,-28.798478,-32.137384,-49.485669,-75.995213,-94.182346,-111.019923,-44.680715,-73.26637,-91.454429,-108.57047,-33.913141,-54.746341,-70.473615,-84.114188,-18.710467,-27.163358,-30.38324,-33.732922,31.790485,50.809593,65.938969,82.598705,27.786312,26.325817,31.011658,38.000793,14.876347,8.844852,14.634361,21.075096,6.33213,2.413559,10.065937,17.564678,2.626934,1.453514,7.482662,12.722511,-18.610617,-34.664304,-41.672605,-48.143338,-61.07335,-89.042489,-105.346326,-117.036652,-51.395702,-75.874244,-89.091148,-98.982669,-36.273983,-53.081395,-62.322869,-68.275208,-17.404601,-23.648494,-28.02243,-31.008124,182.156153,-4.351968,-182.264528,-28.029207
44,33.254013,-15.10199,-29.031887,-11.020287,-24.905319,-47.124138,-63.815346,-83.041992,-27.530708,-28.19458,-27.807884,-28.395309,-13.337288,-7.91153,-8.017731,-9.819603,-3.595734,4.101562,4.867744,2.556038,2.914238,10.628929,12.751122,12.218285,-20.110843,-36.193862,-43.493193,-49.47477,-63.919827,-94.824735,-112.276791,-128.956133,-53.980172,-80.90258,-94.821432,-106.230222,-38.345246,-57.797305,-67.514288,-75.300212,-20.303659,-26.198847,-25.936254,-26.058612,27.755299,47.226162,63.320732,77.928314,17.154808,13.10194,17.741604,25.101986,5.684795,-5.456486,-1.737213,3.32737,-0.152721,-10.301342,-7.392311,-4.18642,0.540733,-8.847084,-10.092316,-10.763226,-21.807065,-41.487632,-50.510448,-60.792694,-65.936503,-92.72905,-110.680697,-124.138567,-56.616791,-82.229535,-97.616163,-108.939243,-43.437864,-62.115697,-76.290843,-88.969685,-27.954165,-35.238737,-41.08048,-47.391064,214.132261,-19.407753,-212.57432,-39.003289
45,27.387314,-5.665786,-11.621761,-5.17277,-24.553871,-43.432388,-59.400444,-77.091064,-19.438477,-16.218567,-16.971245,-19.098129,-10.099411,-0.687103,0.001602,-0.317688,-3.783989,6.505394,7.966919,7.655411,0.35923,10.799217,14.13929,16.519089,-21.526317,-43.431288,-54.363334,-62.803287,-73.052652,-104.989471,-121.298357,-136.011241,-65.124269,-94.125103,-110.531972,-123.928801,-51.92833,-74.983062,-89.810386,-102.885387,-35.374928,-48.732808,-57.762416,-66.333805,22.143974,36.220093,50.396461,63.848019,14.970818,3.418064,-0.788269,0.055161,5.02327,-7.665081,-10.95171,-12.368145,-1.362419,-11.061172,-15.06443,-17.491436,-2.111664,-11.435394,-18.136539,-22.373257,-23.22399,-41.82871,-52.866565,-64.812491,-58.941015,-81.09095,-101.678939,-119.8565,-51.44223,-68.925779,-88.940353,-104.60455,-38.358368,-53.221445,-70.539997,-83.843876,-23.510173,-32.815527,-44.145586,-54.850205,241.443157,-22.74121,-224.272499,-41.843731
46,6.115036,-3.068378,-34.91375,14.756527,-19.239807,-30.291367,-46.828194,-58.207054,-4.172516,3.656387,8.386574,9.798317,4.740715,16.08902,18.170242,17.533951,10.726547,22.380753,23.738594,23.206787,10.986099,22.025757,25.754128,27.443619,-29.979732,-52.015151,-65.712905,-76.253083,-76.570511,-97.15992,-115.70187,-131.048438,-68.347054,-94.552632,-113.672891,-129.276325,-56.05017,-78.67231,-95.713756,-109.885923,-40.920948,-52.997569,-64.900733,-78.513055,21.925678,33.002872,46.566753,62.198982,-1.660366,-10.397758,-2.582874,9.527893,-9.261246,-23.73436,-11.628628,2.49567,-12.075233,-24.102287,-12.574596,-0.374966,-10.276337,-17.054043,-11.363754,-5.156021,-33.600097,-59.438322,-75.647466,-87.879018,-86.499576,-112.968658,-128.092307,-136.221471,-77.220804,-108.036344,-121.080331,-126.314389,-63.159309,-89.880503,-103.305321,-110.370788,-45.219827,-62.600499,-74.602587,-83.484735,248.792896,-25.18665,-257.951546,-26.464266
47,7.744217,-4.475114,-9.459629,1.795825,-12.458839,-17.749443,-27.976913,-36.340942,7.374687,20.531845,27.631073,30.104713,14.489822,31.194763,35.049362,34.423599,18.030968,33.226662,35.786247,36.127968,16.649895,30.008354,35.161858,39.445953,-31.642362,-54.692927,-71.728846,-85.990968,-68.924112,-86.390772,-102.860687,-116.045944,-59.763098,-83.076133,-101.515701,-115.756303,-49.359266,-68.54095,-85.079131,-98.433831,-38.665545,-49.237556,-61.770573,-75.905737,18.172703,27.81744,40.054951,51.569996,-9.647598,-20.644341,-13.39016,0.449924,-17.509689,-33.613186,-19.390011,-1.853542,-21.728554,-35.453854,-19.90448,-3.34053,-21.049232,-26.558132,-16.022873,-3.30534,-36.347188,-64.896626,-83.050167,-100.147467,-85.229215,-109.460602,-124.645522,-132.072985,-76.577797,-105.334625,-118.522892,-119.858028,-63.986611,-92.762395,-104.196348,-105.702287,-48.154886,-67.998041,-78.924375,-84.560736,256.649008,-29.310682,-267.29928,-24.317359
48,9.354515,-0.814735,-2.804604,1.615761,-11.037598,-13.909264,-17.662354,-20.080032,17.601013,31.72451,33.262596,28.548203,24.370079,42.295074,41.428299,34.360085,27.86808,43.995667,39.434853,30.718231,29.335899,39.259987,38.573799,35.012398,-33.043386,-57.841302,-75.756857,-92.293864,-64.948342,-82.05898,-96.540872,-108.003014,-56.488382,-79.152944,-95.309878,-105.111891,-46.771923,-66.369837,-81.982934,-91.273191,-36.634636,-51.296036,-65.630993,-78.723871,14.196968,18.090591,24.970779,34.125423,-17.892838,-30.058479,-21.135063,-7.304878,-25.565128,-39.909039,-25.497837,-8.569965,-29.455833,-41.396484,-25.444794,-8.528194,-28.795166,-33.397293,-22.463379,-9.396915,-36.899854,-67.069932,-86.956868,-105.945367,-80.098528,-103.949779,-117.550107,-123.712103,-72.48322,-100.530103,-112.432279,-113.887983,-61.120002,-89.345127,-99.762761,-100.956119,-46.066672,-67.959416,-80.097293,-86.506584,266.189289,-29.966919,-269.918118,-22.543099
49,-4.333191,-3.298614,4.876213,-2.241509,-6.370697,-1.469765,2.697372,5.829391,32.891006,50.20237,42.003822,28.508949,38.111687,58.988228,44.68483,27.952766,40.146103,59.782677,45.524483,29.292641,38.812866,51.280975,41.992722,29.470825,-29.929869,-54.199294,-71.538562,-88.658864,-57.73503,-77.225621,-87.444635,-87.826407,-50.071557,-72.541451,-84.431153,-83.545714,-40.371493,-61.486429,-74.954904,-76.234866,-29.224648,-48.38469,-61.316801,-65.818992,9.051991,8.904648,10.6604,13.904743,-28.821316,-40.554771,-25.897236,-11.031876,-34.444771,-44.422588,-25.277081,-8.499699,-36.833839,-44.037895,-25.616741,-9.041748,-35.862007,-38.672562,-25.971966,-13.703556,-36.689038,-63.06937,-83.492176,-103.90007,-71.031839,-97.869432,-105.357164,-102.605195,-62.262385,-92.735071,-99.043771,-93.614088,-50.637715,-79.536754,-87.686141,-84.034221,-37.260199,-62.175718,-75.027862,-79.192927,261.856728,-32.913309,-265.041275,-24.432384
50,-14.536171,-1.364344,15.247879,-0.998041,-1.197052,8.651276,18.858948,28.799744,39.298553,57.947502,41.254921,29.599915,44.518433,63.019867,43.075218,30.757027,46.615906,63.264313,43.154297,29.826736,45.68985,55.442848,41.736717,29.778671,-28.1392,-50.675599,-64.803383,-71.816131,-53.122706,-72.965059,-73.861304,-67.916623,-44.40503,-65.462384,-67.541767,-61.482786,-33.107051,-54.211088,-57.057597,-51.103499,-20.079227,-40.456709,-46.592044,-43.525118,8.179436,4.608879,2.179298,-2.088432,-30.78186,-45.959587,-27.168388,-12.436295,-37.300415,-50.502663,-28.307705,-13.074818,-40.859299,-50.245285,-28.19973,-11.767273,-40.580864,-45.168285,-29.240742,-14.302826,-35.109586,-61.234271,-81.222386,-98.498453,-66.933124,-91.309748,-94.444476,-89.11875,-57.713911,-84.52029,-86.490807,-80.442231,-45.916804,-72.599558,-77.593067,-74.139119,-33.371189,-56.84428,-68.116509,-71.498023,247.851534,-34.250638,-249.262419,-25.403409
51,-13.861198,2.586787,15.233231,-1.021661,-3.108215,4.205933,11.927261,20.442696,33.518372,48.97934,31.172905,18.878746,39.598274,53.345032,34.17778,20.970383,42.386398,53.947334,34.688873,20.439606,41.957932,48.584061,34.910545,22.951355,-26.099584,-46.845653,-58.339535,-60.892143,-55.628075,-73.858649,-72.110649,-65.988929,-44.797207,-64.962607,-64.975636,-58.358122,-32.566056,-50.671801,-51.119708,-45.514654,-19.353536,-33.685251,-36.649549,-34.923378,11.710167,9.316692,5.348282,-2.532864,-22.849731,-32.108974,-14.480839,-4.068832,-29.484158,-40.866337,-20.287285,-8.938065,-32.739201,-39.114246,-18.214931,-6.115723,-33.152103,-34.735165,-17.654457,-5.918655,-29.248484,-55.90802,-72.427861,-79.076435,-66.627213,-88.471359,-83.385873,-76.047269,-55.829103,-79.130127,-75.716966,-68.152849,-42.144502,-62.650517,-63.62006,-59.026787,-27.114081,-43.107901,-46.945843,-45.924306,233.632622,-31.576922,-234.386902,-26.338141
52,-22.393914,18.661653,25.800476,10.885872,-12.527084,-15.959243,-17.12326,-18.215103,10.001564,19.725037,4.666253,-6.799392,18.724137,28.799363,11.188088,-1.361923,23.528023,31.302948,14.236298,2.215958,24.696503,27.863236,15.900498,6.466713,-22.987692,-41.952159,-50.922672,-53.462796,-58.901916,-82.570952,-86.210357,-85.441719,-49.065868,-72.705655,-74.931922,-71.208372,-36.029502,-55.266711,-56.193296,-52.311614,-21.190549,-34.351939,-36.149792,-34.407391,21.059218,31.570215,39.858971,43.73869,4.096613,2.654743,15.031901,23.365317,-5.92123,-9.00507,4.895354,12.907047,-11.55055,-12.607069,1.57857,9.49256,-13.119535,-13.085317,-3.131246,2.544708,-21.276969,-42.056723,-54.266756,-59.812946,-70.256824,-97.243329,-99.377145,-94.581516,-63.342955,-91.238086,-93.753366,-89.951655,-53.483884,-76.561279,-79.696131,-77.931953,-42.009006,-57.848774,-60.57896,-59.900277,210.580787,-12.275751,-209.244347,-14.812751
53,-22.393913,18.661654,25.800476,10.885872,-21.945953,-36.12442,-46.173782,-56.872902,-13.515243,-9.529266,-21.840401,-32.477531,-2.150001,4.253693,-11.801605,-23.694229,4.669647,8.658562,-6.216278,-16.00769,7.435074,7.14241,-3.10955,-10.017929,-19.8758,-37.058666,-43.50581,-46.03345,-62.175759,-91.283256,-100.310065,-104.894509,-53.33453,-80.448704,-84.888209,-84.058623,-39.492949,-59.861621,-61.266885,-59.108575,-23.027562,-35.018628,-35.650036,-33.891405,30.408268,53.823738,74.369659,90.010242,31.042957,37.418461,44.54464,50.799465,17.641697,22.856197,30.077991,34.752159,9.6381,13.900108,21.37207,25.100842,6.913033,8.564529,11.391964,11.008072,-13.305454,-28.205427,-36.105651,-40.549458,-73.886437,-106.015299,-115.368418,-113.115763,-70.856807,-103.346045,-111.789766,-111.750462,-64.823267,-90.472041,-95.772203,-96.83712,-56.903931,-72.589647,-74.212077,-73.876248,187.861404,5.886574,-183.769341,-4.426208
54,-22.393913,18.661654,20.829163,6.341273,-31.364822,-56.289597,-75.224304,-95.530701,-37.032051,-38.783569,-48.347054,-58.15567,-23.024139,-20.291977,-34.791298,-46.026535,-14.188728,-13.985825,-26.668854,-34.231339,-9.826355,-13.578415,-22.119598,-26.502571,-16.763909,-32.165172,-36.088948,-38.604104,-65.449601,-99.995561,-114.409774,-124.347299,-57.603193,-88.191753,-94.844496,-96.908874,-42.956396,-64.456531,-66.340474,-65.905535,-24.864575,-35.685316,-35.15028,-33.375418,22.148666,42.981091,63.257618,81.25082,31.380157,40.206699,49.985733,58.861828,17.797852,22.757835,32.150517,39.457626,5.585747,8.63451,20.366936,29.492397,-2.843342,-1.529846,7.410336,14.265461,-18.112322,-31.088986,-34.31949,-31.698462,-46.941305,-68.92442,-77.389537,-83.80485,-39.0467,-35.055493,-25.138624,-19.952484,-21.507761,-11.892882,-3.446229,0.758388,-3.320567,5.692554,12.42443,19.985212,165.749989,24.509958,-162.657681,1.876796
55,-2.141533,8.614584,-10.178833,6.450942,-32.359886,-61.518402,-83.921928,-105.851097,-56.725044,-64.041138,-74.01226,-84.415627,-47.010841,-52.739067,-65.015717,-77.341461,-36.92894,-41.998215,-53.4478,-63.265457,-28.404922,-33.603745,-41.50898,-47.345467,-13.989124,-28.594702,-30.930133,-31.342471,-55.738299,-85.379979,-102.493457,-115.377526,-50.450303,-83.574459,-100.033197,-112.93715,-40.201494,-68.365981,-82.914717,-93.691554,-27.557665,-45.23863,-57.090263,-66.573582,17.152977,41.306362,61.170216,74.656677,38.940296,61.851482,74.071198,82.455883,30.751305,60.204735,80.589695,96.002197,24.933071,51.944103,69.837799,81.983986,21.809464,39.846268,47.035847,51.799049,-23.245418,-34.278395,-30.299507,-24.244725,-44.68973,-68.496891,-84.818637,-99.895772,-32.233252,-39.796906,-39.717988,-40.308168,-14.864961,-17.561601,-14.03979,-11.673236,2.837648,4.378536,9.038037,14.85613,165.659781,33.091351,-170.785189,8.294547
56,-6.284752,2.557795,0.339832,1.143371,-32.525253,-61.190414,-85.694046,-109.619179,-55.670815,-64.250679,-74.589729,-85.983696,-46.525269,-55.775528,-66.282234,-76.036263,-35.572357,-43.881226,-53.203239,-61.217422,-24.384842,-30.725441,-38.480301,-44.361649,-15.796713,-26.835401,-28.823147,-27.264937,-50.61567,-78.423116,-96.85302,-111.857784,-46.945998,-78.987298,-98.113748,-113.663273,-38.976953,-67.45933,-86.183012,-101.005087,-27.550718,-47.214581,-60.279919,-71.769015,28.585453,57.98315,80.551071,94.820251,42.901268,59.67001,70.981464,80.149727,32.637177,49.539413,63.058033,72.594051,25.717163,47.723866,65.847416,77.691765,21.861591,39.871674,46.959972,48.791428,-12.472626,-23.525024,-26.314351,-28.058801,-44.0399,-71.489193,-91.142744,-108.347211,-36.420794,-50.772578,-53.451311,-55.653732,-22.191246,-28.467218,-27.807693,-27.775119,-4.930029,-1.304817,6.997063,12.591372,160.388861,35.28752,-169.431524,9.076292
57,-2.038536,-3.934551,-0.625992,0.429783,-30.157356,-58.296089,-83.083191,-106.128731,-55.522614,-63.01609,-73.169403,-83.276939,-47.031097,-56.335831,-65.666771,-73.367271,-36.562958,-45.522652,-53.98201,-61.260681,-26.224823,-34.411697,-41.574326,-47.257233,-14.091259,-22.199952,-22.807175,-21.596033,-44.973134,-73.002819,-91.828204,-106.745683,-41.25968,-74.870121,-95.115858,-111.413119,-35.397312,-66.290951,-85.441205,-100.022545,-27.853604,-48.40056,-62.289617,-74.930852,19.392128,46.90321,67.325764,79.405746,40.827141,57.1661,67.956219,76.545696,32.012501,55.118866,72.231045,85.603981,26.23621,53.795013,71.105862,82.90987,23.02557,42.428513,47.747211,49.727669,-19.74806,-33.295236,-34.897782,-34.977625,-46.902989,-74.085798,-92.737448,-108.358264,-37.226637,-45.25453,-45.924461,-45.602834,-22.34485,-25.141433,-23.051429,-21.726388,-5.659611,-3.710922,1.198081,4.873219,158.912802,30.943332,-169.495039,9.096438
58,-1.389084,-1.483245,-1.691036,-1.44215,-29.242973,-56.702385,-81.068459,-103.155899,-51.887054,-59.145584,-68.487968,-77.709846,-42.044678,-50.293236,-58.619385,-64.765091,-30.209084,-37.735405,-45.757484,-52.058945,-18.890305,-24.99321,-31.763306,-36.532631,-13.880072,-21.877492,-21.629193,-21.230811,-43.43206,-71.805787,-90.513106,-106.255972,-39.242016,-72.208307,-92.428325,-109.709919,-32.612214,-60.389495,-78.622909,-92.941873,-23.917571,-41.167116,-52.629876,-62.558787,23.193169,50.912189,71.072159,82.622852,40.857868,57.480583,67.993011,76.407223,30.795422,50.69418,68.02763,80.874023,24.74865,47.869434,68.422966,83.075924,21.77742,39.539852,47.550373,51.307755,-16.903928,-29.929776,-33.21567,-33.505897,-47.153541,-74.560813,-93.841391,-109.906563,-38.074378,-48.61823,-48.596679,-47.825818,-22.833326,-28.767047,-27.438549,-26.371625,-4.829438,-3.152266,3.804134,9.320515,157.723131,29.33813,-170.986662,7.532331
59,1.958199,-2.718006,-0.42984,1.314666,-27.9673,-55.158691,-79.612541,-101.330681,-52.178764,-60.013618,-69.625168,-78.44799,-43.468666,-52.776146,-60.525055,-66.105537,-32.920532,-41.732483,-49.071693,-54.506378,-22.493248,-30.939445,-37.469444,-42.28569,-12.812871,-20.286184,-20.559923,-19.830404,-39.3314,-67.500116,-86.161276,-101.240233,-35.663456,-69.304371,-90.476241,-108.045653,-30.86372,-60.430682,-79.525669,-94.367319,-25.346074,-44.73453,-58.061967,-69.829157,20.637703,45.188541,65.114822,79.347553,39.42976,57.457409,68.95483,77.126141,29.406452,49.529686,65.463066,77.498074,22.67807,50.011368,69.649258,83.003826,19.285526,38.019562,46.523209,51.045399,-18.047947,-30.831271,-29.466,-24.790104,-47.69537,-72.269965,-89.911471,-105.650787,-38.311468,-52.856161,-61.84452,-69.026494,-23.961784,-26.132188,-22.508951,-19.534496,-6.895514,-3.844735,2.966058,9.55282,160.059271,26.768063,-171.038561,8.994936
60,1.57608,-1.61925,-1.862526,0.171327,-28.948402,-56.727104,-81.237717,-101.559334,-47.505684,-57.414894,-67.282906,-76.030426,-37.38533,-47.879562,-56.420288,-62.283897,-26.485748,-37.697067,-45.833702,-50.630951,-16.724625,-27.239914,-34.278145,-38.49987,-13.09541,-20.555848,-20.010653,-19.357025,-34.79929,-62.054008,-78.943394,-91.197331,-31.72872,-66.081339,-87.531178,-104.083839,-27.646462,-57.516464,-77.256867,-91.421145,-23.306921,-41.855633,-54.047913,-64.526309,26.11845,55.036526,77.451153,93.384075,40.644951,58.221874,69.911385,78.658504,29.571419,46.508617,60.15295,69.562969,22.63052,46.325569,66.072807,79.062138,18.997593,36.979923,47.220154,52.619648,-14.247858,-26.437297,-27.645814,-26.087264,-46.048826,-72.889198,-90.678689,-106.631105,-38.667923,-55.878565,-64.499942,-71.947412,-24.661571,-29.592187,-27.028588,-24.995363,-6.81564,-4.060769,3.210373,9.360529,161.602278,25.578194,-172.93416,9.595644
61,-3.140945,-2.911933,1.335983,1.048059,-27.833977,-54.491272,-78.740845,-99.878998,-48.426933,-53.796844,-60.682755,-67.69352,-38.56041,-47.336082,-55.576744,-62.228394,-27.406769,-37.206917,-45.177155,-51.24527,-17.426147,-27.298508,-34.53083,-39.850502,-11.579345,-19.653427,-19.909537,-19.10743,-32.004992,-60.649279,-79.480623,-94.540807,-29.639766,-63.969043,-86.074826,-102.944451,-27.079532,-57.879402,-78.452447,-93.324602,-24.15531,-44.726564,-58.849378,-70.751337,30.629139,59.757557,82.879486,103.308563,43.054333,57.27253,68.632107,78.573475,30.028324,42.755642,56.643105,66.89146,20.565662,40.689697,59.888592,72.300167,14.708462,30.290623,42.616711,49.865341,-11.493573,-24.726872,-26.850407,-27.195839,-47.342621,-73.230678,-91.016927,-107.873338,-40.663511,-57.432978,-64.691646,-70.487354,-27.209022,-31.939721,-28.052873,-24.534828,-9.340738,-6.681672,0.617257,6.64524,158.478298,22.859925,-171.581211,10.837367
62,-3.427162,-0.890688,-0.772991,0.485543,-29.203835,-54.287567,-76.609268,-97.714806,-44.348831,-49.544678,-55.699883,-61.715813,-32.56691,-40.144615,-48.253784,-54.215927,-19.911575,-28.962822,-37.68322,-43.711967,-8.710556,-17.427635,-24.45179,-29.105186,-12.43712,-21.038828,-20.189297,-17.774146,-30.588962,-58.561435,-76.276332,-90.645622,-27.957499,-61.82831,-82.246917,-98.399559,-24.837498,-53.356648,-73.056449,-87.566777,-20.985106,-39.278202,-51.869883,-62.514728,28.07373,57.71616,81.283493,100.801678,41.252918,56.974869,69.039001,78.814659,29.688835,45.927773,60.683842,71.450844,21.831322,44.909706,64.19529,76.499004,17.60107,34.18745,45.152493,51.173058,-13.515127,-26.32102,-26.898943,-26.677876,-47.690337,-73.117613,-90.815621,-107.020936,-39.878509,-54.472478,-61.857703,-68.016936,-25.81547,-29.647978,-26.583213,-24.122922,-7.931871,-4.986068,2.14277,8.509052,155.046444,22.403389,-172.358894,11.757062
63,-4.622841,-1.3356,0.664387,2.192881,-27.818413,-50.173988,-70.940094,-92.675056,-41.327362,-45.906372,-52.172127,-59.144211,-30.047264,-34.848518,-42.145729,-48.237877,-16.931648,-21.503792,-28.928032,-35.359039,-4.333992,-6.711273,-12.16507,-17.110405,-11.295138,-19.282801,-18.46785,-18.617811,-34.939649,-60.795411,-77.023882,-91.424819,-30.21531,-60.029274,-78.255062,-93.540358,-23.147574,-47.110254,-65.436757,-79.730403,-13.719923,-27.573381,-38.072433,-47.011978,29.799843,58.455505,81.643696,98.853035,41.624565,56.170692,68.045883,78.350945,29.139233,43.182392,57.800217,68.82288,20.191383,39.939938,59.012375,72.003822,14.750004,31.051369,43.993092,51.717224,-14.080669,-27.215599,-28.798107,-29.458559,-47.693733,-72.730654,-90.794934,-107.670149,-39.911761,-55.181125,-62.215763,-67.596015,-26.152071,-32.569452,-32.002244,-30.7928,-8.531344,-7.016483,0.767805,8.274524,150.403204,21.196786,-171.714907,14.07894
64,-3.510818,-2.17732,0.739231,-0.333174,-26.774139,-48.45417,-68.607101,-89.753151,-36.299973,-42.189445,-50.00679,-59.186668,-25.708351,-31.907959,-40.24498,-47.46254,-14.265289,-18.661766,-26.462631,-33.532562,-3.533363,-5.57888,-11.150208,-16.15036,-10.45842,-17.527144,-16.786139,-17.689857,-37.706067,-62.638259,-79.035649,-93.772014,-32.277836,-59.820063,-77.871005,-93.134287,-23.840414,-45.156996,-63.768199,-78.212115,-12.814476,-24.680405,-35.259856,-44.145524,29.73278,58.154926,81.419449,99.212551,42.354755,56.254692,68.017559,78.398666,30.184536,42.771835,56.513958,67.342358,21.259346,40.504074,58.924255,71.530037,15.649796,31.030998,43.225822,50.473537,-13.123105,-25.628397,-27.591967,-28.809253,-46.485371,-70.746212,-88.735836,-105.351019,-39.191319,-54.181911,-61.875827,-67.744895,-25.775332,-30.868197,-29.577089,-27.775551,-8.435292,-6.208603,1.528477,8.783996,146.879683,18.911496,-170.988379,13.637795
65,-5.257645,-1.411861,1.1483,-0.687807,-25.555573,-45.466576,-64.759941,-84.874306,-32.263184,-37.245827,-44.240341,-54.532242,-21.095123,-25.908508,-33.457947,-42.024879,-10.155144,-11.876221,-18.427849,-25.992737,-0.574493,0.892181,-2.397881,-6.314735,-7.502119,-15.089115,-14.588566,-15.036627,-41.13198,-64.645055,-79.472626,-93.301476,-35.801438,-61.742199,-76.766476,-90.164216,-25.267466,-43.887253,-58.954106,-70.776377,-10.550274,-18.764129,-24.653975,-29.177903,30.396252,58.512383,81.482677,97.805271,42.811317,55.423737,67.263908,78.094769,30.112267,42.051029,56.019802,67.004356,20.248718,38.227787,56.626968,69.321098,13.588886,29.065475,41.905117,49.930744,-12.348817,-24.767411,-27.451609,-29.360067,-45.044209,-68.615977,-86.665592,-103.593819,-38.051561,-52.385561,-59.165632,-63.642784,-24.842499,-29.376215,-28.558701,-26.506673,-7.642571,-4.585678,3.02188,10.5378,141.493521,17.409047,-169.968596,12.8594
66,-5.869102,-2.554707,0.708675,0.411258,-24.308739,-42.73613,-60.063171,-78.392944,-28.42289,-32.695541,-39.254608,-50.090218,-16.622887,-18.854828,-27.453003,-38.099442,-6.473465,-5.990524,-12.009315,-20.271378,1.232071,4.225502,2.368813,-0.876503,-7.102687,-13.185874,-12.08082,-12.602734,-40.805938,-63.827017,-78.330614,-91.700288,-34.782371,-60.847003,-74.851194,-87.820139,-22.626123,-40.669099,-53.456066,-64.536591,-6.475951,-13.686608,-16.932858,-19.632494,28.155098,56.585541,79.76366,96.975174,41.154556,54.426041,67.111015,78.661251,28.783665,42.745686,58.035221,69.885807,19.51189,39.523487,58.215752,70.939236,13.506317,30.195179,42.815552,50.46999,-13.581787,-26.143087,-28.758711,-31.30326,-44.596858,-67.260556,-85.087591,-101.906458,-37.110855,-49.856048,-56.635008,-61.579425,-23.696875,-27.14721,-26.404384,-24.851052,-6.792144,-3.606965,3.469972,10.43582,135.516787,14.547316,-169.367552,12.963634
67,-4.269676,-0.399587,0.998096,0.796179,-21.82457,-39.115334,-56.269798,-75.114555,-25.115547,-30.428696,-38.227272,-49.925308,-14.488792,-16.348457,-27.387199,-39.8069,-4.799652,-3.467445,-11.440887,-20.935135,2.694397,6.122131,3.751488,-0.512352,-4.849877,-11.467175,-11.799423,-12.334429,-40.290816,-63.323936,-76.947188,-88.692827,-35.636688,-61.668994,-75.142224,-86.763343,-24.212213,-43.388155,-55.535295,-66.15828,-8.393672,-16.090861,-19.90012,-23.685081,31.592388,60.365353,83.932228,101.963768,40.649414,54.030533,66.724949,78.852825,27.581234,40.166988,54.558392,66.070805,17.550945,35.051022,53.091774,65.579681,11.099567,26.707363,40.512714,49.681892,-11.488479,-23.118644,-26.193228,-29.526268,-43.557567,-66.12901,-84.590469,-101.753965,-36.794847,-51.105598,-59.13099,-64.424297,-23.740286,-28.991633,-29.826221,-28.639594,-6.80011,-4.804676,1.419858,8.318707,131.265421,13.562814,-168.351145,13.174898
68,-1.25679,2.107634,0.418739,1.944891,-21.363602,-38.467484,-54.343987,-72.54879,-25.383339,-32.932892,-42.036781,-53.549538,-13.839111,-16.138115,-28.098106,-40.408173,-3.639908,-3.845444,-12.582321,-21.855125,4.013443,5.116997,0.828552,-4.363976,-4.263434,-11.257748,-13.330401,-15.342168,-37.775166,-61.885769,-75.106625,-86.118298,-33.337967,-57.773068,-71.59173,-83.212447,-22.349882,-39.803513,-50.642532,-59.21352,-8.347699,-14.021203,-15.762163,-16.693298,30.496674,58.357258,81.499386,98.046913,39.462433,53.687096,67.376862,80.054855,27.080097,42.793865,58.344498,71.119938,17.735023,39.46209,57.189503,69.291115,12.297249,30.903168,43.671684,51.795673,-12.704715,-24.135704,-28.014001,-32.468614,-44.82765,-65.60549,-83.016358,-98.777348,-37.724531,-49.594998,-58.80149,-65.108369,-24.41636,-26.83219,-27.225571,-25.905008,-7.660756,-5.384327,-1.312196,3.443913,129.934359,15.199216,-168.006678,14.648556
69,1.067619,4.173309,2.769871,3.273544,-21.821136,-40.24807,-57.110939,-75.855103,-26.861801,-36.447601,-47.604446,-59.154968,-16.142349,-19.85733,-33.097229,-44.632874,-6.213226,-7.729912,-17.554436,-26.484604,1.629295,0.475159,-5.003815,-10.926132,-4.039527,-13.229871,-17.4762,-21.452309,-39.2933,-63.254529,-74.506966,-83.027227,-34.13924,-55.990241,-65.091233,-71.470452,-22.847869,-38.355929,-45.408196,-49.781268,-8.872484,-13.464091,-15.271093,-16.421009,32.132835,57.767601,80.134907,96.561642,36.15818,51.155033,65.190468,78.778038,23.917122,36.496582,51.404343,65.316811,15.055447,33.885784,52.616386,66.838818,10.89283,28.311596,42.341423,52.9846,-14.429095,-26.802766,-31.186181,-36.611943,-46.376381,-67.465227,-83.709229,-98.118935,-39.969066,-55.532362,-65.748041,-72.877003,-27.272316,-32.52246,-33.593737,-32.683135,-10.409421,-10.473642,-7.51589,-3.241156,131.025438,19.111737,-165.213346,17.661313
70,3.809738,4.526892,3.678761,5.970215,-25.162125,-44.563179,-60.417137,-80.141602,-32.64679,-46.654816,-59.510422,-71.648598,-22.249718,-33.054771,-47.899246,-61.023788,-11.992836,-19.051666,-31.953163,-43.383751,-3.541832,-7.069702,-14.210815,-21.886711,-3.262398,-14.47831,-20.030105,-26.307343,-40.074566,-59.051456,-67.37853,-74.14057,-35.857569,-56.378034,-62.824993,-68.232476,-25.404552,-39.737965,-44.06142,-47.101547,-11.344817,-14.880429,-16.297354,-18.073172,29.828739,53.82843,74.544125,92.973003,29.119949,47.265987,62.924709,76.799526,19.222813,35.11488,51.886368,67.040462,12.926674,34.492722,55.218029,70.203094,11.090813,28.278179,40.435066,49.720402,-16.398563,-30.863566,-37.729656,-45.127201,-51.733044,-71.516024,-84.975236,-97.296018,-43.779807,-60.404932,-70.884903,-78.888807,-29.370503,-36.204112,-37.853435,-38.234404,-10.917226,-13.65527,-13.564929,-12.827475,134.669609,22.537681,-161.700153,22.53058
71,0.357399,7.657854,3.841381,7.638958,-26.865005,-48.683968,-64.968452,-81.851578,-30.385895,-48.934708,-63.735809,-77.140846,-22.23793,-40.53566,-56.409988,-69.088211,-14.88842,-32.580757,-43.977928,-51.132317,-9.13456,-23.175774,-31.707916,-37.821922,-6.695258,-19.506646,-25.256937,-31.904585,-43.309084,-56.170151,-62.142157,-66.424085,-36.547537,-50.001933,-54.741524,-58.694261,-23.601316,-30.272028,-32.059764,-33.744686,-6.954702,-8.50615,-8.770411,-9.497306,26.561279,49.575119,68.812523,85.538406,23.348236,42.385941,58.814964,72.559032,14.392147,34.253426,54.448586,72.087364,10.360508,32.050152,54.190006,70.701256,11.2187,26.720695,40.118637,51.190109,-20.117914,-36.519348,-43.017498,-49.292822,-55.397252,-73.0579,-82.56555,-90.496649,-45.640409,-60.348369,-68.704929,-74.974973,-30.220281,-38.540254,-41.487539,-43.089407,-11.204705,-16.698608,-19.168316,-20.981833,136.094828,27.773591,-156.790953,27.747594
72,2.685242,3.511808,3.351002,7.068354,-18.732147,-41.095505,-63.403358,-79.983215,-28.229599,-56.299896,-76.855774,-92.3489,-23.573341,-53.994598,-76.640854,-92.055244,-20.704422,-48.10627,-68.511086,-82.918053,-20.07843,-41.880226,-54.002953,-62.978668,-20.919156,-33.42346,-36.483348,-38.90912,-38.446115,-45.545437,-46.621005,-46.834816,-26.183224,-32.982593,-34.523544,-33.629614,-10.730369,-13.109057,-15.237099,-16.657205,6.027766,8.063616,8.83988,8.381136,20.008049,42.214279,63.009911,78.657932,16.775894,43.490753,61.924267,75.511951,9.948177,36.055756,57.841358,74.895229,8.965302,40.129852,60.364895,73.323612,13.005123,36.494293,49.213486,57.918091,-25.977966,-43.725096,-50.07872,-52.859001,-55.613625,-68.53848,-71.530103,-73.312436,-42.395548,-57.092424,-63.624537,-67.700651,-25.128805,-34.417426,-36.660479,-38.258301,-5.861195,-12.183264,-14.406278,-16.16845,141.00543,29.321658,-151.21459,32.852207
73,-4.999352,10.17548,4.245987,7.793272,-12.315788,-33.767853,-52.635841,-67.042809,-35.870132,-65.008278,-85.079041,-103.440971,-30.09407,-61.544609,-85.61451,-106.766853,-23.483047,-52.866554,-74.996338,-94.271965,-19.399223,-39.452362,-55.509109,-71.456909,-21.455057,-33.429419,-36.531482,-37.185295,-34.811671,-37.628694,-34.667144,-34.378399,-21.040341,-22.83873,-20.494931,-18.656498,-6.220891,-7.689254,-6.290144,-5.184565,7.290346,9.709233,12.623668,13.228606,15.035419,35.105267,55.774899,70.09203,17.563648,43.171062,62.098846,74.668007,10.823593,36.16087,58.704243,74.03017,9.207802,34.883366,58.81628,75.496387,12.662888,32.390442,47.307701,58.28064,-28.532272,-46.279526,-52.615859,-53.893166,-48.861959,-61.053775,-59.150226,-55.649101,-33.816996,-46.752194,-48.41751,-47.218688,-16.401836,-25.53148,-28.31488,-29.048814,1.072913,-3.728768,-5.053623,-5.628982,134.905128,38.898236,-148.069553,40.046578
74,-0.405807,25.18614,2.161274,2.270871,-18.934536,-45.7263,-67.212868,-83.563557,-49.712677,-88.824806,-107.104569,-118.104286,-45.003262,-86.199188,-107.912464,-121.043301,-38.747635,-76.433201,-97.131214,-110.615044,-33.203831,-59.801502,-75.64745,-88.233891,-22.973391,-33.788127,-34.034743,-30.365317,-35.444304,-32.061107,-25.146543,-22.62393,-20.849995,-16.474824,-10.132625,-6.731397,-5.18881,-2.370351,2.726729,5.860392,9.903362,14.326605,18.057365,19.14729,15.09304,34.51561,54.378834,67.00407,20.629177,47.563705,67.267914,83.624954,13.624763,44.242001,68.921127,86.728649,8.838787,36.072578,60.687733,78.198051,7.874737,29.356785,47.254543,60.51693,-26.502937,-39.857421,-44.880724,-47.259412,-37.738548,-41.752387,-37.633078,-34.063102,-22.0256,-23.911983,-21.182923,-17.057532,-5.872125,-7.764065,-6.622238,-4.593891,8.809808,13.063238,14.740225,15.903942,134.920693,63.282223,-145.486908,41.515296
75,-0.405808,25.186141,-2.059736,30.149993,-25.553284,-57.684746,-81.789894,-100.084305,-63.555222,-112.641335,-129.130096,-132.767601,-59.912453,-110.853767,-130.210419,-135.319748,-54.012222,-99.999847,-119.26609,-126.958122,-47.008438,-80.150642,-95.785789,-105.010872,-24.491726,-34.146835,-31.538004,-23.545339,-36.076937,-26.49352,-15.625942,-10.869462,-20.65965,-10.11092,0.229681,5.193704,-4.156729,2.948551,11.743601,16.905349,12.516376,18.943977,23.491061,25.065974,18.650608,42.198,64.583187,78.810253,28.066578,63.400498,82.736836,93.24852,20.696898,59.529677,83.689041,96.966219,16.50444,52.189264,75.383234,88.783751,16.138687,43.276205,59.680195,70.082531,-28.571637,-45.196253,-50.582001,-51.983272,-45.929678,-48.5269,-41.445178,-36.036706,-28.868487,-29.48241,-24.62344,-21.039214,-10.404342,-11.706488,-8.940394,-7.626361,7.608809,9.236967,10.82227,10.439772,135.49593,88.319793,-146.5656,71.516718
76,2.632828,18.795066,-2.059736,30.149994,-26.452675,-57.554169,-80.781555,-96.153259,-69.044495,-111.214027,-129.757233,-142.809677,-65.130043,-110.423355,-133.173866,-146.619072,-59.846649,-100.442162,-122.933693,-138.263969,-54.014626,-84.641533,-101.991119,-116.295662,-25.534567,-33.467396,-27.792934,-17.593094,-31.00763,-24.288197,-15.898755,-10.03861,-14.518078,-5.350642,3.304944,9.582522,3.28611,11.273464,18.549577,24.051785,21.116912,27.220137,33.099456,36.069836,22.208176,49.88039,74.78754,90.616436,35.503979,79.237289,98.205757,102.872086,27.769032,74.817352,98.456955,107.203789,24.170094,68.30595,90.078735,99.36945,24.402637,57.195625,72.105846,79.648132,-30.640338,-50.535086,-56.283278,-56.707132,-54.120809,-55.301415,-45.257278,-38.010312,-35.711375,-35.052837,-28.063957,-25.020896,-14.93656,-15.648913,-11.258551,-10.658831,6.407809,5.410695,6.904314,4.975601,139.341087,106.789372,-147.413006,101.341226
77,-1.098518,22.406754,8.428516,12.679212,-25.362053,-53.966446,-75.147171,-88.820343,-73.000488,-108.119087,-127.590408,-141.906052,-72.970963,-112.604027,-134.67865,-150.522194,-70.150223,-105.581818,-127.300758,-144.061317,-64.412727,-90.790672,-107.82486,-123.681564,-23.653835,-30.77622,-27.434597,-19.71172,-26.9359,-20.414223,-13.600837,-7.159713,-11.026524,-1.342948,7.956294,15.418584,5.957494,15.086181,22.997027,29.195595,22.785408,31.40379,38.686757,44.332288,23.263721,48.250065,70.785084,83.066196,34.267159,66.662235,86.701412,102.269669,25.60215,61.373634,88.063316,105.204391,18.842525,52.752056,78.797665,96.405201,15.966625,41.019173,61.403961,76.349602,-26.078341,-41.201079,-47.673263,-52.829114,-40.097321,-37.824628,-30.732408,-25.272807,-24.506454,-23.026945,-14.574332,-8.133795,-7.946753,-8.924417,-3.196356,0.171944,9.286799,10.247635,13.039248,14.058006,139.522963,128.849182,-137.704096,113.673493
78,-26.732941,27.376489,10.367832,10.08517,-28.261871,-59.043045,-79.556122,-92.500992,-75.548973,-116.352081,-124.959927,-124.350071,-73.585625,-117.873344,-127.570782,-125.810394,-68.129082,-108.671608,-117.616653,-117.874489,-59.794922,-91.19648,-98.926048,-100.493546,-3.397878,1.79916,7.304147,15.195912,-0.290844,14.46701,21.218306,23.282684,1.488802,16.254808,23.984416,27.68203,4.413055,16.195713,22.883035,26.212,7.687432,16.844895,21.935599,24.02159,21.253967,43.272285,63.015976,76.982918,32.319832,55.416126,75.605106,94.349213,23.616943,49.661522,74.65353,94.106083,14.519405,38.470516,62.314796,80.766506,7.424755,25.29974,42.619743,55.732841,-22.921722,-33.189766,-39.168904,-45.688512,-24.923146,-20.122298,-13.358992,-8.050772,-11.133815,-5.27225,3.181999,10.055314,-0.036556,4.245156,11.399064,16.296798,9.779783,16.419929,21.44456,24.50701,113.221579,156.127843,-126.904707,123.660835
79,4.493294,19.137996,-11.072445,41.421435,-31.355324,-61.054916,-85.083275,-102.76062,-79.64035,-115.094261,-130.147877,-139.03307,-77.087402,-115.812035,-133.954754,-144.898624,-70.750237,-106.45031,-125.234528,-137.375565,-61.983604,-89.413719,-105.116844,-118.644104,-22.023037,-25.118709,-21.095978,-16.163294,-11.427346,0.843511,9.280284,14.751,6.30095,19.886473,28.395989,33.063888,23.02679,34.806114,41.58495,44.809372,37.117246,46.431864,52.235662,54.129732,24.896564,56.177731,81.531143,95.641365,58.479595,99.597931,112.715149,114.127293,53.535118,101.106319,115.555058,117.388115,48.198509,93.840752,105.906887,107.923393,42.703114,77.921162,86.293716,86.806183,-24.790814,-36.384454,-43.274936,-53.222186,-31.327775,-24.280324,-16.828655,-11.43735,-13.907613,-5.90371,-0.078485,4.191371,5.333321,11.892697,13.976712,14.95101,25.496436,28.442796,25.930851,23.516286,117.914972,175.102448,-137.777052,164.918878
80,-25.601349,21.277586,2.494583,16.041646,-37.120628,-70.410576,-92.292938,-102.835636,-75.284157,-114.57304,-134.020958,-144.087009,-67.022552,-110.523949,-134.753838,-150.07885,-56.721039,-95.683365,-118.214321,-131.531296,-45.721207,-74.425049,-90.213203,-100.888653,-13.876553,-4.914962,14.419586,34.718799,-3.177182,7.619445,6.84491,3.850262,13.854137,25.323906,22.600651,17.964245,29.577459,39.966472,38.377881,33.563634,41.143497,51.859601,55.001586,55.487315,29.90799,59.074116,82.027645,97.759209,61.068249,88.086262,105.31271,121.883926,51.055241,79.814529,101.449642,121.85955,41.13493,69.997158,92.58522,112.410564,31.292839,55.978374,72.671528,88.669968,-23.829113,-34.910348,-40.895631,-45.778236,-21.043552,-15.234382,-9.153943,-3.04905,-4.906564,1.478181,7.263516,12.330384,11.773025,18.567546,23.426439,26.940346,29.243637,34.488346,36.380626,37.727217,93.079834,196.172815,-134.516258,180.753305
81,4.556122,18.131835,19.486084,25.918068,-36.122017,-67.626686,-89.97654,-99.722328,-72.193108,-110.687542,-134.975338,-152.89278,-66.626358,-107.584763,-136.232471,-156.181812,-58.261414,-96.66378,-121.226921,-137.924709,-48.767853,-79.104195,-98.61351,-115.419216,-15.401109,-13.209648,-0.437996,13.344449,-4.234164,0.92885,0.018463,-3.65828,13.482461,19.91389,18.374638,14.354686,30.60443,38.890409,42.145459,41.959961,45.271882,54.143564,59.478491,62.020385,30.279751,57.686806,76.813602,88.700237,76.732979,122.294426,135.198097,134.135857,70.397758,118.275146,130.564041,127.669601,60.816479,105.735283,120.046349,121.356354,48.969383,85.103245,99.67907,103.353081,-24.161145,-32.19685,-34.933814,-36.671841,-5.128989,12.708976,19.387653,20.736962,14.198457,35.269674,41.963542,42.353373,29.599566,47.204547,52.963884,53.726131,42.409133,53.053669,55.55629,54.198151,98.196287,213.718855,-114.469843,206.085578
82,-3.701248,17.570524,-7.6577,15.035917,-38.437386,-71.002579,-94.236145,-109.963875,-77.647133,-106.457462,-125.953274,-143.200779,-70.537148,-100.386429,-121.508446,-138.478603,-61.743736,-90.318375,-108.945408,-121.498947,-52.582054,-73.429871,-87.343941,-98.077927,-0.312334,13.359949,32.846588,49.799731,9.707474,12.138834,12.552068,11.288716,17.274246,21.484265,22.278005,20.308043,25.513232,33.342691,36.060882,35.711745,32.051613,41.891665,47.282537,50.009806,35.191784,65.794601,89.957027,105.549145,69.140911,113.759766,131.339493,139.30481,60.155182,108.232727,128.995056,136.349487,51.658745,96.733017,118.341064,127.720413,44.250698,82.582512,100.429115,109.336395,-22.70118,-29.910418,-31.546495,-33.592162,-4.479066,13.345067,22.433925,28.323,15.610195,34.392077,42.702077,47.286798,32.588965,49.46313,54.676779,56.509593,46.296816,56.305446,57.527425,56.149032,94.904337,230.822222,-121.718245,220.654337
83,-5.854111,14.379757,0.440655,19.222842,-39.756317,-70.657082,-90.252571,-100.342541,-75.244217,-104.270611,-125.477142,-146.572323,-69.331055,-98.460503,-122.608738,-145.17334,-61.33873,-90.386925,-112.552471,-130.466709,-52.253609,-73.587112,-90.12188,-105.169487,-9.613057,-4.629614,9.445096,21.651609,12.110553,12.854583,10.524308,5.882159,26.307652,29.970871,30.718669,28.003503,38.99415,47.593945,52.710831,53.691489,47.88022,60.193746,68.056055,72.971882,35.690517,64.688244,89.104271,108.83234,65.85783,101.081314,121.679478,138.87022,57.525673,95.538826,118.971806,137.078648,50.288029,83.640575,106.879005,125.066471,42.899036,69.574184,86.159649,99.771538,-19.026413,-26.798259,-31.063112,-34.550529,1.636509,13.367235,19.770629,26.762937,17.527422,31.245214,37.970699,44.402498,30.294135,45.897723,54.433359,60.252347,40.650234,55.239387,61.098142,64.411361,89.197426,244.735701,-121.13039,239.410901
84,-19.847603,27.282876,3.884182,16.530771,-25.926933,-56.558762,-84.123802,-100.256939,-70.434723,-122.521877,-126.710415,-119.805794,-73.119049,-127.414513,-128.429832,-116.687794,-74.020042,-123.309746,-125.445843,-116.099224,-74.030228,-112.952843,-116.950607,-110.309258,25.887131,43.942519,57.825309,68.552652,52.387259,42.928578,22.764228,12.058373,42.502932,24.878006,4.463567,-5.455402,26.569103,8.748119,-11.076357,-21.466851,7.009722,-5.636084,-19.231981,-27.525864,34.918785,64.956837,88.362007,110.05291,67.635612,93.941002,111.29734,125.941772,59.113998,87.208443,107.427292,122.714882,51.250534,76.403389,95.825443,110.066528,43.093758,63.031425,77.719288,89.936714,-17.637091,-21.561824,-23.913526,-27.663876,11.086669,22.830671,28.613535,34.367686,25.024725,40.234345,47.317735,54.671345,35.281777,51.369735,59.374071,66.139693,41.852638,56.044983,62.78115,67.822639,69.533958,271.751908,-117.062073,255.675003
85,5.184059,2.474957,19.402657,25.733311,-33.163033,-64.724693,-90.510693,-110.524464,-67.47757,-111.97031,-127.053452,-129.93227,-65.319901,-115.124531,-128.872433,-128.307323,-63.056717,-111.43404,-124.16811,-124.709759,-62.366867,-99.942112,-111.405258,-114.804668,24.06111,43.922945,57.247695,67.624914,55.19962,59.082115,47.172189,37.895672,47.193308,44.310861,30.025953,18.680611,33.354053,27.66437,15.928519,7.257032,14.943908,10.83164,7.32681,4.921261,30.733223,58.652458,81.118813,100.076294,65.720215,111.396561,122.937469,121.995049,58.123512,107.53727,116.933212,113.340683,50.995903,96.876068,104.776726,100.967331,44.216137,79.937382,88.137188,85.643177,-24.285017,-27.241688,-26.70693,-28.014618,8.705635,31.050515,29.357443,24.545912,30.967585,49.898655,42.504661,34.803829,46.266496,62.609731,55.117121,47.930299,55.387897,69.892513,64.572344,57.917132,74.903526,274.019383,-97.473907,281.200832
86,6.319313,10.407847,-4.389954,-1.832196,-42.826881,-73.180847,-96.269245,-114.414654,-73.024063,-112.712746,-120.927715,-118.508205,-69.097595,-113.876095,-121.988297,-117.475262,-64.908028,-110.101089,-121.245003,-120.41708,-62.050323,-97.412395,-110.904636,-116.483746,4.993632,15.359242,23.329491,32.131765,47.842737,43.644512,32.62583,26.143519,50.599337,42.195539,31.478693,22.283748,46.853187,40.411631,31.557672,22.874884,37.261001,39.749913,40.187477,40.453559,32.926998,63.20343,88.094959,107.393532,68.140411,102.835693,118.713341,129.474106,59.140778,95.784073,114.775543,126.622124,50.270233,82.121716,100.028458,110.536652,41.366272,65.31538,79.634857,89.432659,-13.535876,-15.194368,-12.755659,-14.901733,19.316949,34.874842,43.034974,48.260726,37.7894,54.947801,62.38218,64.514052,50.53524,68.606622,75.051512,74.774253,58.464734,74.900965,79.941713,80.153517,81.266956,284.172417,-101.819744,279.113823
87,-6.058273,0.913412,5.412254,7.927271,-31.296158,-58.198929,-76.062126,-91.390514,-80.460548,-100.675163,-90.890694,-76.86264,-78.030281,-97.107239,-80.607204,-60.883141,-73.410645,-91.035233,-74.944725,-55.12516,-67.501717,-79.689217,-71.765213,-59.271812,23.110771,37.963104,48.333468,58.474553,40.474863,56.012625,65.342248,70.066155,37.740617,54.956693,66.319016,69.990757,33.40265,48.499144,59.800766,63.277747,26.859268,41.848007,51.583207,57.032866,33.680592,62.206478,87.399616,107.348557,67.906208,99.48555,116.824951,129.208832,57.730122,94.046402,114.964027,130.027428,47.747612,79.929256,99.085808,113.279686,38.422852,62.914982,77.31245,89.21196,-10.791255,-13.321169,-11.803715,-15.129962,19.473733,34.948695,43.885092,50.938965,36.706544,54.30004,62.769788,68.456815,49.036187,66.569723,74.308902,78.161016,57.184154,72.564082,78.193065,80.678642,75.24313,284.942583,-96.373043,286.897848
88,-4.252739,8.087575,7.124863,5.833561,-22.542,-47.669563,-69.66053,-89.023762,-77.669277,-87.221203,-65.193214,-47.96711,-79.356079,-83.87392,-57.649384,-33.913422,-78.59911,-85.034351,-59.558601,-36.393471,-76.421528,-96.195774,-99.862061,-99.470158,20.996622,31.815541,43.211333,51.853612,32.11676,55.075069,62.173155,64.494292,31.448682,50.433043,59.417914,64.33127,30.723176,48.43196,58.062307,63.70049,30.048677,44.046075,53.630974,64.571047,32.833672,60.579071,85.537033,106.365166,66.653023,98.816414,116.153069,128.023453,57.229443,93.735352,114.954758,130.209961,47.692051,80.364475,100.114174,114.904633,38.331585,63.383961,78.365593,91.598396,-11.438955,-13.07108,-10.07742,-12.710581,19.551477,34.070605,41.538576,47.463837,36.433299,52.267216,59.418222,64.256799,48.333035,64.789829,71.886248,75.953192,56.303717,71.05589,75.959676,78.176392,70.981092,292.659995,-89.257479,292.361247
89,-8.564644,13.870872,5.037403,5.087369,-17.715912,-38.548851,-57.262573,-72.89423,-65.476456,-73.018513,-49.397049,-30.68676,-67.79211,-71.070843,-46.246262,-23.124733,-66.918297,-70.93935,-48.4972,-26.731682,-63.415031,-72.506104,-63.679962,-52.322388,-6.654965,-9.714328,-7.553804,-4.868217,11.823845,29.823782,38.906835,44.932502,23.873142,38.425244,47.161074,52.538609,33.474157,44.98604,52.498965,56.920727,41.603723,53.689266,57.757754,60.894922,32.483025,59.882641,84.621334,106.189671,64.008236,97.315235,114.581509,126.341228,55.407715,92.921734,114.036083,128.883762,46.671696,80.803013,100.860615,115.45435,37.928581,63.658962,79.063396,92.640896,-11.546216,-12.528665,-8.390955,-10.347084,19.028945,33.378938,40.462884,45.823375,35.46919,50.222351,56.138349,59.463238,47.144834,63.088914,68.363202,70.327174,55.000721,70.164647,74.212942,75.176248,62.323895,306.452845,-84.31263,297.370595
90,-6.71093,-1.296203,3.729572,3.784189,-11.638985,-29.275932,-48.115654,-65.692005,-62.134552,-58.157272,-37.146149,-20.237503,-63.637505,-57.178802,-34.276657,-12.447281,-60.802631,-54.773941,-32.689819,-13.937531,-54.925232,-55.45372,-45.033302,-35.069275,-9.317458,-13.971339,-12.264126,-10.479848,15.090442,36.646214,44.679511,48.239484,27.506227,43.740163,52.151681,56.308225,36.785523,47.916282,55.579323,59.980089,43.429127,54.91458,60.670583,64.593895,30.605793,57.335587,81.593399,101.805611,62.331963,96.045341,112.956734,124.099045,53.233395,90.789986,111.01902,124.792213,43.875103,77.74086,96.650848,109.753075,35.086327,60.625019,75.407295,88.13015,-13.207857,-14.078847,-9.092563,-10.829046,18.264537,34.151374,41.47664,46.27298,35.187546,50.356349,56.226899,58.766323,46.658117,62.193533,66.6705,67.152029,53.788005,68.302131,71.733107,72.004871,55.498238,305.124609,-80.697784,301.12275
91,-7.262306,1.713944,1.309605,0.339998,-6.196289,-20.702591,-35.083466,-47.820282,-52.29023,-44.724426,-26.087151,-11.933556,-54.91087,-47.021713,-24.907608,-4.593086,-52.627716,-45.943565,-25.998573,-9.079742,-47.238922,-44.633217,-33.684769,-23.626785,-9.2131,-11.312737,-7.172743,-1.605511,10.196043,28.165845,36.083977,41.122872,21.38213,35.955659,45.045505,50.577601,30.249798,40.765584,49.728224,55.728882,36.877037,47.020716,52.160017,55.84911,29.57159,56.457653,80.008221,99.866581,62.651939,96.230793,112.834339,124.144192,53.976803,91.076145,110.876255,124.875355,44.361191,78.023472,96.348782,108.929501,35.046558,61.03529,75.874615,88.246822,-15.386288,-16.966234,-11.231597,-10.849486,16.001261,30.898671,38.342807,43.235848,33.594941,48.500503,54.620154,57.226824,45.514685,60.777843,65.56949,66.067816,53.288197,67.571438,71.141168,71.14302,48.142033,306.823301,-79.482079,301.447496
92,-72.065334,8.083314,1.616478,-0.990044,15.115414,26.352253,27.288151,21.551914,20.085468,53.416958,63.227749,62.586765,10.860386,50.516453,60.073986,62.933521,1.044731,37.805042,49.889889,53.536434,-7.844067,14.806824,24.601192,28.65366,-21.809011,-28.00128,-26.914596,-24.021898,-4.173463,16.345211,18.711795,18.086943,15.208694,34.638091,35.833949,34.253262,29.185282,45.107873,42.709302,40.027049,39.745653,54.460467,49.600771,43.604683,29.148159,55.511112,78.7393,98.359852,61.301422,94.87215,111.676884,123.004131,52.663136,89.827938,109.758282,123.480778,43.13467,77.001858,95.870304,108.749027,33.912563,59.832001,75.064945,87.443447,-15.166827,-16.157304,-9.647205,-7.645195,15.575862,31.74601,39.529897,44.480366,33.224871,48.56991,55.026348,57.624064,45.170735,60.803222,65.686445,66.094245,52.646178,66.984686,70.490812,70.054854,-23.921814,314.932983,-77.864113,300.483819
93,33.096943,-0.394832,0.963879,-0.293623,6.670189,4.499016,-4.840851,-16.110992,-15.309505,16.846733,29.129906,29.61216,-25.359764,15.060196,23.924446,26.110725,-32.38884,1.981773,12.877922,15.181961,-36.545963,-24.397087,-21.023426,-20.920715,-20.817978,-26.162415,-24.603958,-21.059361,2.353679,23.294293,23.25113,19.534805,20.862253,39.939364,38.442904,34.055229,32.877154,47.866388,43.533423,39.401826,41.181288,55.312129,50.634782,45.016791,29.007454,55.329552,78.820839,98.704491,60.311909,93.860092,110.748253,122.269592,51.687984,88.883743,109.060135,122.998352,42.251873,76.054001,95.12352,108.255501,33.182373,59.039841,74.40239,86.976128,-14.960087,-15.829224,-9.127143,-7.275866,15.762657,31.814492,39.207498,43.947583,33.546529,48.762571,55.123667,57.78301,45.517711,61.117162,65.965125,66.445913,53.015384,67.465598,70.904231,70.484884,9.169321,314.518915,-76.906042,300.17096
94,-12.294617,15.245436,1.066647,0.308999,5.508728,11.200333,21.039505,27.571106,-4.98745,19.85424,36.236916,47.010498,-13.11121,12.031403,31.347198,47.179527,-16.939774,0.947571,16.742249,30.184822,-17.421455,-16.599026,-15.434589,-13.575954,-19.092239,-27.546303,-29.601851,-29.365902,-9.784847,1.09218,7.932026,13.970537,7.523979,18.398659,24.563882,26.827343,20.574558,27.863268,32.580073,34.984078,31.767746,35.884523,36.400509,36.890561,28.577728,54.518051,77.914639,98.131199,58.670139,92.490864,109.774418,121.462727,49.800968,87.575397,107.805462,121.462841,40.400047,74.902096,94.14465,107.185535,31.689949,58.034992,73.707905,86.20657,-14.683507,-15.349794,-8.517049,-6.245004,16.703857,32.827384,40.012414,44.480613,34.585912,49.856912,55.786681,58.196738,46.399321,61.995314,66.379223,66.68921,53.460604,67.477701,70.38349,69.758823,-3.169613,329.751692,-75.883713,300.4673
95,-19.315281,-15.899434,1.448879,0.266268,13.897476,24.351711,25.410175,20.937252,16.365738,48.609524,60.612888,61.99419,7.628117,45.092754,55.804424,60.678806,-2.552032,30.869694,43.861027,48.921833,-11.498051,1.539574,5.236759,5.243626,-22.861423,-29.498234,-29.119271,-28.457924,0.023527,19.044753,20.691575,19.946618,19.200673,37.42464,37.636073,35.358718,31.661844,46.94044,44.452763,41.916118,40.645418,54.695366,52.310503,48.427575,27.756042,53.741913,76.986465,95.987091,57.26675,91.348114,108.811569,120.940704,48.683395,86.81179,107.262383,121.212616,39.585743,74.547844,93.9188,107.363434,31.030197,57.955227,73.796997,86.339378,-14.703823,-15.464094,-9.235268,-7.265183,16.970186,32.425388,39.278634,43.692677,34.74214,49.499316,55.267854,57.746145,46.418402,61.870084,66.042127,66.378605,53.379897,67.071074,69.718994,68.937666,-22.558565,313.834489,-74.508505,300.7158
96,-1.996021,1.457371,0.6213,0.078423,14.838009,26.722183,28.053017,22.866325,21.446686,55.088997,63.821411,61.418724,12.001648,51.650276,57.04525,55.600204,0.823231,35.16346,42.812347,41.486549,-9.202309,2.440166,1.063099,-4.4874,-24.082352,-31.204768,-31.450288,-31.139498,-2.829713,18.941136,19.600322,16.744427,17.087204,38.224678,36.423728,31.735821,30.057878,47.852679,43.19182,38.308412,39.139572,54.262248,51.411232,46.614892,27.886791,53.936291,77.083282,96.164932,57.98996,91.967583,108.928299,120.587997,49.221611,86.933441,107.046318,120.694313,39.635639,74.213448,93.026619,105.623016,30.373363,56.48283,71.868896,84.280472,-14.826027,-16.277285,-9.771015,-7.740105,15.002695,29.41098,36.338141,41.014438,32.973053,47.08154,53.435904,56.472419,45.189569,59.548392,64.231729,64.891408,52.800184,66.75164,70.076405,69.649463,-24.668684,315.295859,-74.001303,300.798221
97,11.076164,-4.7131,-0.49696,-1.455704,12.65419,19.700089,18.010254,12.179718,9.391365,36.655312,49.626274,51.95755,-0.530205,30.093956,42.278938,50.164719,-11.974297,13.411674,26.957588,33.451767,-22.088356,-23.355503,-27.35836,-32.228336,-21.348229,-26.61733,-23.916614,-23.249277,3.569606,24.148672,25.810746,24.562091,21.72046,41.053403,41.50134,39.40195,32.91087,49.152402,47.92011,46.635949,41.215498,54.17413,56.721211,58.115783,27.339535,53.667068,77.261181,96.987705,57.086334,90.363636,107.893467,120.057278,48.541889,85.898495,106.774006,120.932522,39.249229,73.579159,93.076,106.245975,30.4743,56.989975,72.669353,85.39484,-14.636947,-15.330528,-8.525509,-6.028754,15.642861,31.211993,38.408942,43.021944,33.332872,48.201816,54.888089,57.929358,45.278057,60.318049,65.315881,66.038175,52.589059,67.082437,70.781348,70.532062,-13.712511,310.585445,-74.618254,299.345203
98,5.11076,-0.905446,-0.051556,0.030566,12.599201,17.703724,14.315357,7.316151,4.053669,28.793163,42.038326,44.927616,-6.674252,22.028904,35.690861,45.832386,-18.359871,5.646229,20.837688,29.495373,-28.316631,-32.210884,-36.425457,-40.643234,-20.095622,-24.811254,-21.016691,-19.304043,2.56258,24.185475,27.496532,27.119484,20.610559,40.128752,42.402279,41.541416,32.249338,48.470986,48.659695,48.161493,41.5345,53.523466,57.585779,60.476439,27.890453,54.353714,78.271294,98.47744,56.829586,90.052528,107.622414,119.841385,48.019581,85.437355,106.210899,120.249481,38.681087,73.302269,92.622986,105.466347,30.060425,56.638126,72.077522,84.35463,-14.236372,-15.230369,-8.830494,-7.489399,15.367269,30.888606,38.405113,43.23912,33.038385,48.075907,55.099152,58.359512,45.171291,60.154843,65.261602,66.028728,52.746831,67.038594,70.687673,70.532741,-8.719082,309.674982,-74.78714,299.370752
99,-4.005089,0.490298,0.839424,-0.006546,12.266293,18.998051,17.643528,10.871372,6.210938,34.801655,48.173275,50.508442,-3.749771,28.243732,41.308308,50.204945,-14.865761,11.950665,26.410389,33.778782,-24.163399,-26.447811,-31.398239,-36.82909,-20.768393,-26.558235,-24.24809,-24.44705,2.269945,24.037953,26.578242,25.527559,20.846322,41.259526,42.313173,39.728301,32.617864,49.620779,48.630672,46.917901,41.545368,54.381612,57.667351,59.587604,27.930508,54.081059,77.920647,98.291931,56.761551,89.810257,106.969643,118.65921,47.751846,85.113487,105.621872,119.270325,38.249588,72.889824,91.900978,104.394035,29.645519,56.392765,71.722298,83.812065,-14.439161,-15.248153,-8.479628,-7.128529,15.510654,31.402308,38.919,43.747018,33.276186,48.343348,55.298729,58.524138,45.463741,60.284951,65.222082,65.945797,52.956783,66.925961,70.330755,70.09703,-12.917662,310.151324,-74.141207,299.350251
100,-10.473747,0.14536,0.270939,0.433858,15.183048,26.178188,27.900867,24.387989,18.822269,45.542507,58.974323,62.385693,9.532642,39.581394,53.172398,61.92976,-2.083969,23.480129,38.716106,46.997738,-12.929134,-12.712841,-16.175938,-20.456657,-21.243377,-26.972271,-25.366019,-25.272776,-0.219584,21.856373,25.671437,25.930171,18.174505,39.58047,42.007756,40.778305,30.21071,47.927953,48.301975,47.356206,39.632526,52.999082,57.141485,60.010038,27.349834,53.548107,77.522564,97.543659,56.764526,90.158672,107.279148,118.888378,48.016891,85.556889,105.951519,119.440441,38.613224,73.491039,92.264843,104.53577,29.995251,57.209129,72.466221,84.353771,-14.766253,-15.793038,-9.125538,-6.96841,14.952554,30.505445,38.181515,43.224794,32.842945,47.65798,54.766873,58.276828,45.139551,59.769706,64.679172,65.480507,52.865886,66.759358,69.934688,69.539485,-23.644896,310.161559,-74.123755,299.648984
101,-4.733963,0.646403,-0.404148,-0.472946,16.512108,29.15411,32.552319,29.187756,24.903889,54.317608,66.126537,67.28651,15.417824,47.842197,58.938618,64.743748,2.876186,30.12125,43.151951,49.328785,-8.690929,-7.432823,-12.314129,-18.032169,-22.159012,-29.343611,-29.410363,-29.679595,-3.060597,18.80547,22.8973,23.65541,16.235542,38.427837,40.457141,38.578323,29.609137,47.517189,47.05579,45.847149,40.117699,53.365138,56.543432,58.743908,27.828312,54.072361,78.009567,97.95845,56.868839,89.909363,107.100792,119.126701,48.233871,85.287437,105.734711,119.543381,38.927593,73.140335,92.104225,104.677963,30.258923,56.796741,72.130394,84.272575,-14.23878,-15.099272,-8.608069,-6.933645,15.995765,31.080773,38.361085,43.320199,33.572587,48.037498,54.915815,58.447259,45.557354,59.956686,65.120749,66.256278,53.105663,67.117943,70.546449,70.330817,-28.538704,310.688013,-74.687748,299.056087
102,3.640995,-0.083672,0.077248,0.033777,14.844017,26.477966,29.199257,25.154343,19.237061,48.389282,61.314583,63.730316,10.127106,42.595711,54.915047,61.99894,-1.534882,25.544815,39.800262,46.885872,-12.175655,-12.317848,-17.263813,-23.156891,-23.230628,-30.233372,-30.415598,-30.689893,-1.492878,20.396038,24.119649,24.600376,17.514393,39.577383,41.132505,39.23016,30.410843,48.192862,47.461984,46.294593,40.346608,53.623934,57.345138,59.986573,27.741508,53.821049,77.794304,97.999649,57.095604,90.368042,107.738228,119.607124,48.300018,85.497665,105.950775,119.711952,38.774929,73.249855,92.207336,104.799271,29.977856,56.711311,72.085648,84.296494,-14.212907,-15.418399,-8.971409,-6.700228,15.551286,31.036683,38.7285,44.074727,32.924949,47.960557,55.21481,58.872719,44.984866,60.047336,65.366701,66.359216,52.527679,66.863531,70.511313,70.264868,-25.163527,310.458286,-74.876318,298.94381
103,3.130989,-0.869199,0.56242,0.242864,13.842945,22.780037,23.649902,19.053612,14.664402,43.857079,57.78019,60.327759,5.142231,39.267654,52.519455,60.147514,-6.179352,22.218933,37.058601,44.30191,-16.48653,-14.873543,-17.883224,-21.811867,-20.994708,-26.809374,-25.013795,-23.598167,-0.730446,22.062805,26.724343,27.329065,18.122079,40.087503,43.020401,41.531969,31.040327,48.335011,48.238002,47.418697,41.012462,54.300287,57.364589,59.399821,27.71347,53.573685,77.646046,98.101788,57.103214,90.070553,107.261982,118.940792,48.386421,85.490627,105.727329,119.183292,38.749065,73.333111,92.046375,104.310894,29.782276,56.739006,72.107449,84.140911,-14.375002,-15.410371,-8.810364,-6.857692,15.323982,31.195382,38.998596,44.258496,32.859555,47.959075,55.254207,58.922181,45.211799,60.081607,65.23048,66.192551,53.129684,66.955045,70.228373,69.910297,-22.373257,309.407355,-74.654617,299.004943
104,2.543678,1.625703,0.335312,-0.18556,13.820343,22.242279,21.289673,15.186653,14.715271,45.339203,57.937202,59.162292,4.567108,40.283432,51.966705,58.04409,-7.464638,22.246284,35.251465,40.637856,-18.139229,-14.93082,-17.392673,-21.256084,-20.919681,-27.13838,-25.688418,-24.918885,-1.128304,19.809594,24.013006,24.709921,17.235528,37.688129,40.129555,38.919556,30.164026,46.638851,46.002204,45.288123,40.393909,54.013518,55.021099,55.002327,27.517891,53.40517,77.199612,97.221508,56.453819,89.820614,107.103252,118.92065,47.724094,85.208645,105.696087,119.315586,38.231049,73.029385,92.020283,104.477749,29.489079,56.485806,71.946087,84.049702,-14.671651,-15.604082,-8.849452,-6.531465,15.461006,31.420894,39.155627,44.375884,33.088094,48.440975,55.85016,59.564571,45.274538,60.382887,65.651247,66.753369,52.931774,66.952946,70.345575,70.00953,-20.133276,310.708838,-74.623003,298.495162
105,-3.464012,0.099418,-0.608311,0.186116,14.468422,24.965057,25.401649,20.433197,18.028564,46.307144,60.25383,64.045143,7.7738,40.906563,55.068855,63.582344,-4.23769,23.74649,38.994484,46.950302,-15.250454,-10.789547,-10.694332,-11.794109,-21.277216,-27.517033,-25.458213,-24.089144,-1.691838,18.063292,22.959174,24.900792,16.538675,35.643388,39.346807,40.062494,29.349847,45.104106,45.840604,46.56049,39.558055,53.320369,55.205054,56.17929,27.652245,53.379364,76.98658,96.699142,56.695633,90.00412,107.465286,119.713211,48.27507,85.35038,105.886459,119.798813,39.022751,73.403664,92.401772,104.90181,30.326157,56.900654,72.227325,84.348564,-14.204694,-15.414447,-8.965357,-6.329726,15.056171,30.516127,38.252836,43.669583,32.511901,47.656251,55.117368,59.037963,44.724774,59.704683,65.112228,66.288265,52.593876,66.710329,70.207934,69.840395,-23.8587,310.463519,-75.492725,298.336541
106,4.236145,-1.598409,0.087833,0.106581,14.603233,23.711815,23.457985,18.272552,11.906719,40.584641,56.117821,60.862198,0.579643,34.522705,50.465698,60.750275,-11.000004,17.37133,34.005775,43.417625,-21.028519,-15.657749,-14.123783,-13.55896,-19.734814,-25.454137,-23.715431,-22.779789,-1.530484,20.010406,25.356201,27.340921,17.0257,37.478486,41.283979,41.442739,30.383364,46.685596,47.548373,48.351375,40.954726,55.565985,57.124133,57.479012,27.610588,53.335476,77.260838,97.485638,57.086735,89.857922,107.111149,119.029942,48.55442,85.382824,105.869579,119.66074,38.975086,73.342838,92.219753,104.65971,29.925556,56.585312,71.772709,83.706379,-14.374137,-15.59729,-8.950043,-6.740798,14.781134,30.858225,38.831561,44.221199,32.223897,47.556524,55.17529,59.040557,44.530939,59.555555,65.090492,66.41794,52.561642,66.56151,70.150815,70.037317,-19.854956,308.601512,-75.637293,298.179525
107,11.167374,-1.472871,0.229282,-0.466463,11.856194,16.542206,13.072128,6.576805,-2.956123,22.07531,40.356903,48.288231,-14.811344,16.358414,35.268402,50.305481,-25.169563,0.2001,19.604416,33.07045,-33.314381,-34.120674,-34.458961,-33.913994,-17.954303,-22.696302,-19.965637,-18.282938,0.233787,22.189702,28.613165,31.166853,18.439229,38.12878,42.949573,43.56189,31.35618,46.688375,48.765041,50.482073,41.970705,55.046602,58.390572,60.821068,28.138046,53.903217,77.548828,97.505493,56.463833,89.329605,106.56189,118.520393,47.756939,84.836426,105.42778,119.238625,38.323059,72.921982,92.072182,104.73999,29.50676,56.372967,71.693573,83.611107,-14.185675,-15.198814,-8.34316,-6.084762,14.411929,31.314004,39.477779,44.954979,32.089343,48.016565,55.7676,59.664607,44.631469,60.055116,65.741279,67.09633,52.770235,66.827469,70.442029,70.266164,-8.969707,306.957809,-75.690136,297.54223
108,19.703636,2.682376,0.686131,0.312581,-12.699852,-24.494648,-35.889015,-51.930656,-27.162495,-8.461761,7.951927,19.726295,-31.021729,-8.781281,12.156944,27.12101,-31.464844,-15.757141,5.206833,20.31395,-29.921665,-33.010826,-24.188461,-14.731293,-0.457262,6.528995,20.44692,33.475701,15.192083,22.287391,27.436511,32.620581,25.448024,30.163285,37.236425,41.032593,32.02012,36.034638,39.648211,42.434883,38.34608,44.26356,43.837482,42.46477,27.80817,53.360939,76.963406,96.90485,56.142712,88.929577,106.207066,118.229084,47.47736,84.498539,105.01791,118.764324,38.001537,72.587872,91.566982,104.189587,29.132423,55.76231,71.033649,83.004971,-14.153441,-15.456437,-8.621778,-5.953048,14.495477,31.087566,38.944565,44.10023,32.226861,47.816617,55.43705,59.153807,44.776953,59.909879,65.426476,66.524583,52.909111,66.979252,70.514463,70.133833,10.595083,309.594999,-75.142851,297.809624
109,-25.166302,-0.427128,0.185795,-0.422496,12.262287,18.629894,16.856403,12.45924,3.828621,29.032116,46.665516,54.284534,-6.4884,23.320255,42.249126,57.166843,-16.661224,8.150425,28.261929,42.033749,-25.395699,-24.298553,-20.994987,-17.712765,-20.864229,-25.230539,-21.60332,-18.030503,-1.353322,17.926824,24.090256,26.923303,16.845265,34.425978,39.639936,41.769831,29.758635,43.192314,45.480352,47.89399,40.186365,52.975431,55.546966,57.022306,27.817039,53.381195,77.121391,96.953201,56.593895,88.985367,106.488533,119.076462,48.152103,84.133186,104.650154,118.843575,38.624668,72.466621,91.421013,104.394608,29.263515,56.188374,71.35128,83.434982,-14.124295,-14.899633,-7.744181,-5.146712,14.088295,30.449993,38.598886,43.931034,31.524018,47.280623,55.207585,59.21,44.286963,59.627248,65.61784,67.149251,52.96339,67.388039,70.917508,70.487354,-14.843359,309.155228,-75.229197,297.374485
