takenoko1/special-research/HandMotion_SimilarSearch_自分用/NewProject/handData/test_key/d4_feature_d3/100.csv
frame,vel_0x_L,vel_0y_L,vel_0x_R,vel_0y_R,posFromWrist_0x_L,posFromWrist_1x_L,posFromWrist_2x_L,posFromWrist_3x_L,posFromWrist_4x_L,posFromWrist_5x_L,posFromWrist_6x_L,posFromWrist_7x_L,posFromWrist_8x_L,posFromWrist_9x_L,posFromWrist_0y_L,posFromWrist_1y_L,posFromWrist_2y_L,posFromWrist_3y_L,posFromWrist_4y_L,posFromWrist_5y_L,posFromWrist_6y_L,posFromWrist_7y_L,posFromWrist_8y_L,posFromWrist_9y_L,posFromWrist_0x_R,posFromWrist_1x_R,posFromWrist_2x_R,posFromWrist_3x_R,posFromWrist_4x_R,posFromWrist_5x_R,posFromWrist_6x_R,posFromWrist_7x_R,posFromWrist_8x_R,posFromWrist_9x_R,posFromWrist_0y_R,posFromWrist_1y_R,posFromWrist_2y_R,posFromWrist_3y_R,posFromWrist_4y_R,posFromWrist_5y_R,posFromWrist_6y_R,posFromWrist_7y_R,posFromWrist_8y_R,posFromWrist_9y_R,posFromBody_0x_L,posFromBody_0y_L,posFromBody_0x_R,posFromBody_0y_R
6,3.553482,3.815805,0.301254,0.018476,0.0,13.541988,-3.595711,40.67252,-9.268547,47.62904,-14.563236,40.464558,-19.458939,21.846668,0.0,-12.269745,4.548263,19.145764,22.940167,38.152183,38.853569,46.490786,52.125906,52.697727,0.0,71.114754,30.280403,94.031273,21.631062,95.023293,13.456066,80.398888,6.656914,60.23069,0.0,4.576508,37.105341,55.03855,54.495566,64.521709,64.701748,70.232622,69.400683,70.553748,-5.755457,283.593053,-51.623114,270.683351
7,3.301735,-0.012597,0.073551,-0.088797,0.0,9.962917,-5.46872,36.665417,-11.308994,43.530384,-16.683747,36.395931,-21.664616,18.436123,0.0,-12.012024,4.976243,19.402708,23.198765,38.562539,38.770416,46.790732,51.585108,52.780275,0.0,70.749379,30.384865,93.937809,21.565052,94.957592,13.221108,80.07613,6.197319,59.546048,0.0,4.308474,37.111911,55.146514,54.535716,64.529069,64.782024,70.401842,69.515193,70.804541,-3.172634,283.737336,-52.268475,270.751434
8,0.988861,0.139556,0.245327,0.108644,0.0,9.035694,-6.170494,34.913074,-11.939964,42.093807,-17.290558,35.510479,-22.25314,18.047871,0.0,-12.327445,4.906119,19.43877,23.012143,38.740874,38.362097,46.78394,50.917981,52.623009,0.0,70.608422,29.94468,93.80539,21.091965,94.855339,12.800629,80.121025,5.888695,59.443749,0.0,4.176501,37.007849,55.024359,54.454551,64.423488,64.755248,70.173588,69.558677,70.663429,-2.653776,284.032475,-52.493151,271.015661
9,0.115688,0.143372,0.209977,0.015672,0.0,6.758171,-5.783214,34.641907,-11.623432,42.4609,-17.362209,35.568512,-22.755684,15.685387,0.0,-14.401802,5.784223,20.310834,23.37873,39.753841,38.251663,47.350734,50.383544,52.379021,0.0,70.551475,29.595394,93.648536,20.715351,94.658386,12.525535,80.237457,5.783535,59.555946,0.0,3.929129,36.892512,55.140858,54.33993,64.430886,64.697352,70.122817,69.551379,70.828896,-2.792805,284.324289,-52.537891,271.179775
10,0.24424,0.401723,0.356975,0.001568,0.0,6.274956,-6.514572,34.337814,-12.210663,42.309608,-17.737541,35.44059,-22.912525,15.636589,0.0,-14.398331,6.280227,20.40283,23.741379,39.772378,38.305325,47.12153,50.051327,51.97941,0.0,70.349133,29.203308,93.433949,20.3344,94.357418,12.259918,80.098744,5.697373,59.50581,0.0,4.029437,36.881854,55.189703,54.309352,64.432011,64.660042,69.885362,69.51302,70.710385,-2.67132,284.863842,-52.303671,271.319173
11,4.355312,-3.58324,0.396126,0.031333,0.0,-0.274852,-10.797775,30.093991,-16.393032,37.914151,-22.158451,32.494526,-27.777568,13.066212,0.0,-12.30645,9.222955,25.385779,26.554591,43.90516,40.70229,51.133453,52.071911,55.543915,0.0,70.209698,28.764118,93.11887,19.881512,93.944813,11.928371,79.884807,5.55994,59.347355,0.0,4.115998,36.948272,55.199273,54.329951,64.373557,64.63276,69.590923,69.417973,70.552056,1.625318,281.411355,-51.966219,271.481259
12,1.598374,-0.028035,0.225346,0.042509,0.0,-2.124607,-13.087303,27.996288,-18.606468,36.191814,-23.981518,30.892673,-28.976132,11.607822,0.0,-11.217481,9.807398,26.140555,26.970987,44.353197,40.861396,51.196007,51.960477,55.546595,0.0,70.327079,28.452323,92.9794,19.606109,93.797882,11.812282,79.927459,5.681522,59.493621,0.0,4.193952,37.061547,55.169448,54.375412,64.325009,64.614914,69.189323,69.316924,70.313144,3.179186,281.491223,-51.785379,271.631671
13,-2.218529,3.508115,0.323375,0.00058,0.0,2.582485,-10.685646,30.508564,-16.365726,38.056835,-21.392773,30.754772,-25.899364,10.326931,0.0,-11.473511,7.94298,23.546544,24.759346,41.023639,38.514004,47.506136,49.436231,51.957007,0.0,70.018261,28.167572,92.783512,19.319985,93.584622,11.584923,79.954869,5.566384,59.661656,0.0,4.346043,36.768628,55.429109,54.119358,64.184589,64.488438,69.175158,69.286543,70.318343,0.927813,285.096592,-51.494848,271.729505
14,4.756359,-3.813755,0.18298,-0.063072,0.0,-3.184181,-14.636169,26.209328,-20.767502,33.528557,-26.177376,27.221283,-31.133892,7.422981,0.0,-8.474663,10.137195,26.853748,27.396805,44.225769,41.341839,51.385013,52.414726,55.962768,0.0,69.826195,27.960869,92.705543,19.1334,93.55719,11.436825,80.130317,5.496437,59.929779,0.0,4.550462,36.549513,55.629156,53.959993,64.042143,64.462194,69.185656,69.352826,70.396211,5.645038,281.369704,-51.351002,271.7533
15,-4.447071,3.206847,0.078941,-0.036482,0.0,3.685764,-11.019333,30.851063,-17.394298,38.832516,-22.595077,31.131008,-27.137066,11.223965,0.0,-10.652551,7.815034,24.545307,25.079572,41.545122,39.187997,48.571578,50.489533,53.285061,0.0,69.627228,27.833771,92.661575,19.024498,93.613999,11.33844,80.403763,5.413685,60.210869,0.0,4.609594,36.30576,55.745221,53.767245,63.93345,64.399431,69.275058,69.377564,70.550957,1.139654,284.656944,-51.330374,271.797211
16,0.250168,0.533919,0.201531,-0.017216,0.0,4.068088,-10.477638,30.673428,-16.954033,38.713039,-22.241283,30.706913,-26.890961,10.483509,0.0,-11.46368,6.987393,23.375594,24.439109,40.829447,38.896091,47.968844,50.642983,53.099204,0.0,69.326156,27.676357,92.637909,18.85128,93.588569,11.137069,80.485244,5.190971,60.298668,0.0,4.646385,35.995155,55.820557,53.511314,63.813444,64.276819,69.422073,69.371722,70.716547,1.313713,285.259085,-51.204952,271.848217
17,-6.39925,2.676893,0.277668,0.019278,0.0,13.512039,-5.341198,37.031067,-11.7491,45.624321,-16.683998,36.790695,-20.946293,16.840553,0.0,-12.797847,4.765365,20.267843,22.402222,38.173685,37.209341,45.291432,49.263231,50.606945,0.0,69.101177,27.591991,92.48759,18.72322,93.343174,10.937954,80.387271,4.931934,60.251552,0.0,4.647114,35.637892,55.94333,53.20176,63.571938,64.111402,69.515564,69.334944,70.798503,-5.16691,287.995073,-51.008657,271.92659
18,2.107223,-3.075801,0.127281,0.092046,0.0,10.056588,-7.310989,35.038765,-13.210018,44.454667,-18.292945,37.278878,-22.983215,18.288094,0.0,-13.079898,6.369407,21.913085,24.377729,40.817653,39.369321,48.193109,51.712525,53.733011,0.0,69.184238,27.647758,92.424259,18.779983,93.310238,10.950966,80.213619,4.897293,60.089138,0.0,4.585042,35.73689,55.694191,53.258544,63.497084,64.080032,69.353394,69.210652,70.717288,-3.141718,284.958023,-50.963407,272.057387
19,-4.066463,3.094635,0.160984,0.135888,0.0,16.412327,-4.446613,38.942219,-10.226132,48.331066,-14.774471,40.508617,-18.649166,22.002697,0.0,-14.809948,3.856572,19.09734,21.78221,38.109439,36.834935,45.040219,49.184944,50.625025,0.0,69.240944,27.601044,92.30619,18.716892,93.110847,10.890884,79.981521,4.860386,59.93145,0.0,4.492713,35.770741,55.549238,53.262151,63.449536,64.017936,69.209725,69.096031,70.496221,-7.282282,288.077093,-50.876524,272.21771
20,4.303905,-2.994636,0.175472,0.124217,0.0,11.582177,-6.649921,35.408593,-12.409629,43.382973,-17.621521,36.400429,-22.402233,17.629601,0.0,-13.93151,5.113539,20.475733,23.109289,40.250079,38.304163,47.516115,50.883179,53.366781,0.0,69.360409,27.484921,92.199795,18.562111,92.931187,10.750145,79.710743,4.785977,59.700909,0.0,4.398951,35.643387,55.424786,53.147307,63.400679,63.919333,69.131093,69.025141,70.296508,-3.029755,285.097993,-50.75243,272.357463
21,-3.612888,2.630987,-0.029571,0.006805,0.0,17.098972,-4.128776,38.681477,-9.821136,46.746586,-14.460697,38.811916,-18.467949,20.074986,0.0,-14.857729,3.183531,17.992341,21.149961,37.773221,36.392779,44.903369,48.863423,50.603685,0.0,69.592403,27.655632,92.243419,18.700882,92.845676,10.839695,79.520175,4.839649,59.555751,0.0,4.37325,35.648624,55.400049,53.153816,63.475385,63.907218,69.185606,68.993167,70.262138,-6.680941,287.740701,-50.820299,272.375989
22,4.077725,-1.937715,-0.06633,-0.025874,0.0,11.229469,-6.202115,35.388633,-11.891797,42.43856,-17.23938,35.188201,-22.282929,15.743728,0.0,-15.436837,3.704321,18.822773,21.79603,38.905415,37.285973,46.556155,50.211285,52.684896,0.0,69.611309,27.783783,92.35358,18.839813,92.916034,10.962226,79.493236,4.903667,59.531971,0.0,4.293692,35.598149,55.336755,53.127881,63.680199,63.850519,69.389469,68.908631,70.435052,-2.634338,285.814067,-50.917751,272.361196
23,-4.677578,0.260685,0.007186,-0.166775,0.0,16.370327,-4.025185,40.909069,-9.840111,47.891315,-14.473355,40.453411,-18.525444,22.004505,0.0,-13.286478,4.536383,20.264213,22.765784,40.204446,38.086061,47.766612,50.593336,53.178615,0.0,69.545964,28.044514,92.453763,19.103817,92.960072,11.162957,79.411458,4.969929,59.405354,0.0,4.337373,35.44691,55.446115,53.020324,64.1774,63.750767,69.839283,68.825317,70.701171,-7.349447,286.092483,-50.948096,272.212152
24,1.882404,-3.035378,0.041714,-0.460004,0.0,13.077186,-4.672154,40.110283,-10.452599,46.237083,-15.985394,40.040245,-21.222141,21.01989,0.0,-12.232646,6.379089,22.624733,24.631288,42.734891,40.019404,50.833198,52.791996,56.777701,0.0,69.367951,28.295918,92.658852,19.28389,92.974388,11.208721,79.227745,4.819805,59.074036,0.0,4.390405,35.190103,55.993853,52.779312,65.173793,63.528849,71.039156,68.675227,71.559539,-5.51009,283.082605,-50.949429,271.777648
25,-1.01223,-0.518308,0.173355,-1.241974,0.0,14.118599,-4.936787,41.423813,-10.688164,47.614151,-15.921753,41.77002,-20.846409,23.215416,0.0,-10.791626,7.326278,25.11882,25.415234,45.668851,40.544394,53.565345,53.084272,58.66194,0.0,68.992401,28.741288,91.648156,19.53772,91.989853,11.022641,77.785515,4.043564,57.518692,0.0,4.644718,34.895726,58.546813,52.311664,68.998515,63.03865,74.121169,68.357521,73.744158,-6.573252,282.597504,-50.827006,270.568881
26,4.635899,-4.802305,0.524632,-2.953695,0.0,6.720096,-10.694962,35.599674,-18.333619,39.942958,-24.732548,34.091938,-30.423924,15.600849,0.0,-8.489558,10.2428,34.773744,28.137168,55.272472,42.853328,62.424553,55.108414,65.707699,0.0,68.40192,28.089729,87.660587,18.276123,86.990993,8.925201,72.616848,0.886963,52.341991,0.0,5.324812,33.400033,61.669482,50.187845,74.868929,60.911261,79.446981,66.718554,77.592641,-1.983524,277.834685,-50.348545,267.654672
27,0.866088,9.447245,1.303402,-4.386872,0.0,-5.951271,-13.523552,15.642106,-18.771572,20.447606,-22.192623,18.93385,-24.762085,8.2179,0.0,-5.305472,9.336242,25.110002,20.85157,37.074885,29.04543,39.910106,35.087485,39.914923,0.0,65.126884,25.659622,78.640068,15.710792,76.000602,6.064018,61.345951,-2.434685,42.797962,0.0,7.896889,28.440856,60.888759,44.943691,75.356337,56.431873,80.51236,63.676012,79.019668,-1.177472,287.314108,-49.105179,263.299978
28,8.802578,-2.147025,0.819832,3.601419,0.0,-22.519443,-19.800029,-13.34999,-23.246692,-10.462326,-24.934055,-8.9752,-25.749515,-12.945842,0.0,-2.011915,10.992672,26.180557,22.103362,37.021385,29.915827,40.447681,35.523394,41.647207,0.0,55.471492,25.656932,58.355724,17.403476,54.41756,8.488472,42.21587,-0.237637,29.327018,0.0,12.565085,22.878491,55.636442,35.094007,66.831459,43.818179,69.574795,49.467576,67.592767,7.537662,285.148805,-48.372791,266.883119
29,6.068985,-2.144975,-11.955872,-16.066555,0.0,-35.398601,-25.032257,-38.938819,-26.768829,-37.642936,-25.787098,-33.287441,-23.590541,-29.192585,0.0,3.459592,13.824127,29.286949,24.716035,38.412486,31.938894,42.343542,36.545006,43.672213,0.0,56.133854,25.060078,48.242409,18.221764,42.688763,10.579868,33.37112,2.976288,24.351002,0.0,11.601914,6.474778,38.727549,12.946184,45.935637,18.462027,45.726032,22.670848,41.692655,13.412962,283.178003,-60.522348,250.990737
30,6.022133,-2.247814,-15.974121,-26.244419,0.0,-48.729973,-29.19667,-64.392906,-29.075054,-64.910179,-25.764358,-57.713241,-20.904133,-46.314274,0.0,8.400255,16.182264,30.005118,27.146161,37.159855,34.144384,42.213829,38.112182,44.873864,0.0,53.968964,21.338688,34.563492,12.756008,24.411072,3.786117,14.387443,-5.103882,4.839489,0.0,10.787945,-11.117013,6.615852,-8.500488,10.648963,-4.151091,12.13805,1.101856,13.297173,19.098243,281.063971,-76.833321,224.8801
31,3.864945,-0.880165,-23.752224,-33.729903,0.0,-57.906636,-29.790436,-85.231613,-25.882942,-86.454117,-19.517372,-75.221672,-11.913895,-56.096775,0.0,12.661168,18.481713,25.936939,29.570778,31.702871,36.454849,38.58015,39.979044,43.770013,0.0,52.605972,18.872658,25.199581,9.326237,11.944588,-0.274864,1.22541,-9.80064,-8.582966,0.0,8.963152,-28.391765,-30.951153,-29.572847,-31.8447,-27.141282,-28.365953,-22.283118,-21.332254,22.709616,280.367715,-100.839117,191.334106
32,5.079803,-12.657501,-30.09969,-41.62967,0.0,-57.501182,-31.607002,-89.81916,-28.164917,-93.710655,-22.203369,-83.890583,-14.809616,-64.615631,0.0,16.269764,23.353166,39.459415,40.643924,51.901419,53.384503,63.781618,62.011987,72.711271,0.0,52.039513,17.746823,20.975041,7.12912,4.613549,-3.473876,-6.67004,-14.152748,-19.637455,0.0,4.217399,-43.103449,-66.871991,-48.577567,-73.545537,-48.803913,-69.780584,-44.967058,-58.991212,26.974972,267.85755,-131.753254,149.851772
33,2.485085,-1.292918,-35.402503,-57.515705,0.0,-59.062615,-32.373368,-91.355084,-28.91153,-95.68665,-22.966324,-85.780094,-15.546707,-66.269291,0.0,17.765804,24.597931,40.553361,42.105186,52.508512,54.89603,64.919777,63.43647,73.918442,0.0,56.784496,15.008434,29.322921,1.229702,9.019226,-11.635254,-6.321511,-24.042504,-25.856118,0.0,-4.412141,-58.021483,-99.181523,-64.316253,-108.146436,-63.97313,-102.231651,-58.195447,-86.768215,28.66646,266.737521,-167.949354,92.508956
34,1.807296,-0.836335,-26.869549,-44.587342,0.0,-59.970897,-32.962326,-92.28852,-29.305366,-96.59262,-23.25151,-86.887756,-15.790054,-67.033184,0.0,18.642054,25.529004,41.154797,43.030836,52.966898,55.708245,65.421733,64.155899,74.326649,0.0,46.580063,12.804771,27.346527,-3.769524,3.926651,-19.426724,-15.947708,-34.889889,-40.035084,0.0,-11.302505,-61.580456,-120.58509,-67.150911,-131.823915,-65.701364,-123.147685,-58.174489,-101.100559,29.775936,265.947369,-195.516723,47.967797
35,1.941674,-0.431141,-28.213131,-39.006722,0.0,-60.925564,-33.603516,-93.545769,-29.806732,-97.727761,-23.675354,-88.051312,-16.222504,-67.801174,0.0,19.207045,25.963664,41.603895,43.50955,53.256791,56.136805,65.784084,64.481262,74.502403,0.0,41.411716,15.024353,32.299804,-0.884079,8.464027,-16.362545,-11.918633,-32.001114,-36.128666,0.0,-16.146109,-63.409566,-128.662294,-70.097919,-143.59074,-69.765789,-135.839285,-63.551332,-114.054651,31.0887,265.920795,-224.358764,9.365642
36,1.925354,-0.376184,-23.034222,-32.783103,0.0,-61.845337,-34.103348,-94.873924,-30.222039,-98.930832,-24.051865,-89.202553,-16.701073,-68.739544,0.0,19.88036,26.279802,41.958528,43.925921,53.479895,56.537208,66.064333,64.77948,74.654717,0.0,34.327629,16.87048,35.645474,1.351719,11.588963,-13.99617,-9.563415,-29.904144,-34.441063,0.0,-20.344877,-65.074933,-132.20146,-72.290836,-150.353898,-72.16783,-144.561555,-65.994153,-123.072507,32.226843,266.28959,-248.180197,-22.672482
37,1.621055,-0.373738,-19.742866,-25.516233,0.0,-62.6189,-34.48201,-95.847644,-30.55854,-99.78836,-24.406952,-89.868633,-17.186622,-69.240097,0.0,20.352022,26.576044,42.209321,44.29567,53.952051,56.868276,66.504811,64.999064,74.697201,0.0,28.507049,19.376564,38.772708,3.910057,16.078422,-11.415333,-5.44875,-27.525696,-29.718796,0.0,-23.872012,-65.733931,-133.894203,-73.409869,-152.71399,-73.664706,-147.838934,-68.022902,-126.687766,33.590051,266.943743,-268.18091,-47.160824
38,1.274598,-0.40076,-13.839981,-18.129402,0.0,-63.408131,-34.761979,-96.641877,-30.795548,-100.416275,-24.679963,-90.330586,-17.624428,-69.810631,0.0,20.644916,26.869,42.327857,44.628678,54.227248,57.164839,66.701548,65.216191,74.74691,0.0,21.655769,20.50407,39.843406,5.216274,18.555599,-9.986847,-2.332112,-25.917538,-26.55526,0.0,-25.474207,-65.198738,-134.51284,-72.935626,-153.586715,-73.297181,-148.211638,-68.041652,-127.269742,34.486851,267.685693,-282.398689,-64.147516
39,1.095176,-0.469044,-8.723099,-10.750438,0.0,-64.268188,-35.118942,-97.544128,-31.123054,-101.399826,-25.060501,-91.158623,-18.169945,-70.881786,0.0,20.97417,27.074085,42.450543,44.905073,54.41455,57.43701,66.887528,65.421956,74.970249,0.0,20.309452,21.712406,40.958061,6.618885,21.098739,-8.419213,1.369388,-24.157288,-23.215519,0.0,-23.724539,-64.674909,-134.55844,-72.523192,-153.164083,-73.175217,-147.773973,-68.488975,-126.940353,35.060325,268.335653,-291.64349,-73.77895
40,0.742127,-0.391078,-1.6726,-3.172144,0.0,-65.088764,-35.443177,-98.32584,-31.396752,-102.284169,-25.357224,-91.907444,-18.580307,-71.723797,0.0,20.911716,27.245752,42.448802,45.178677,54.6843,57.684802,66.989293,65.544333,75.100679,0.0,18.309677,22.190666,40.452473,7.509212,22.395973,-7.145027,3.964748,-22.730965,-20.347195,0.0,-23.530272,-64.439003,-134.582469,-72.421361,-152.854997,-73.360493,-147.241807,-69.123476,-126.536452,35.121649,268.883138,-293.996893,-76.012531
41,0.207573,-0.313889,2.451828,1.697606,0.0,-65.652455,-35.65297,-98.709755,-31.551041,-102.661332,-25.525521,-92.224469,-18.802552,-72.018666,0.0,20.851422,27.386023,42.37906,45.346365,54.68656,57.815614,67.081757,65.589163,75.38778,0.0,20.788456,22.613811,42.795158,9.746418,26.740276,-3.46534,10.490192,-17.810062,-13.457703,0.0,-21.050135,-62.650511,-131.098175,-70.848474,-149.115436,-72.161553,-143.209123,-68.633092,-123.642088,34.436989,269.077578,-292.437298,-73.806596
42,-0.014786,-0.118895,14.325502,11.615589,0.0,-66.276764,-35.961182,-99.167118,-31.748337,-102.997845,-25.704346,-92.632244,-19.021958,-72.594532,0.0,20.551167,27.359484,42.331909,45.389974,54.585092,57.888925,67.04635,65.652829,75.629447,0.0,25.12765,23.111813,45.074353,11.120499,30.095988,-1.409042,15.347803,-15.078237,-7.962255,0.0,-17.641016,-61.202526,-127.093099,-69.562238,-144.692451,-71.20985,-139.181952,-68.199866,-120.922149,33.209221,268.988731,-279.324778,-62.160959
43,-0.037148,0.030493,23.741639,20.122211,0.0,-66.679298,-36.384361,-99.711548,-32.089691,-103.623527,-25.966301,-93.332531,-19.205978,-73.247795,0.0,20.181702,27.200241,42.229884,45.294606,54.582473,57.832348,67.114238,65.603242,75.740857,0.0,32.850374,24.457317,47.900962,12.5587,33.769243,0.150775,20.104803,-13.295786,-2.088095,0.0,-14.032401,-60.412358,-123.230169,-68.829735,-139.573453,-70.859675,-134.975724,-68.380229,-118.609166,31.986408,269.158792,-256.768804,-41.89918
44,-0.21746,0.271504,29.764469,27.273416,0.0,-67.120377,-36.841187,-100.244877,-32.436196,-104.168232,-26.23169,-93.878323,-19.406845,-73.691014,0.0,19.665802,26.959773,42.171789,45.144652,54.576163,57.766905,67.134035,65.569181,75.802472,0.0,41.976476,26.278129,54.026561,14.630653,40.906442,2.210792,27.000772,-11.420454,5.653169,0.0,-7.639653,-58.433368,-113.117434,-67.147102,-128.431104,-69.751929,-125.077473,-67.895961,-112.915865,30.045542,269.786469,-228.727741,-14.269591
45,-0.391228,0.374467,34.857101,33.359888,0.0,-67.346031,-37.181717,-100.299362,-32.791351,-104.372234,-26.57103,-93.899941,-19.735085,-73.930149,0.0,19.347799,26.479589,41.963604,44.761132,54.529516,57.564388,67.044979,65.556485,75.580368,0.0,50.482664,26.567448,62.110485,15.705494,51.433828,3.866696,38.225229,-9.072595,16.614401,0.0,-4.560759,-55.964068,-100.98835,-63.892457,-113.749165,-66.084782,-111.81559,-63.538627,-102.517565,28.163996,270.404826,-195.360958,19.334187
46,-0.424644,0.318644,33.779858,35.881355,0.0,-67.405907,-37.452782,-100.498375,-33.092835,-104.806572,-26.83841,-94.087086,-19.892327,-74.04871,0.0,19.058018,26.228414,41.857097,44.554343,54.646435,57.45251,67.171555,65.525548,75.500858,0.0,58.821413,26.57888,71.371937,16.801872,62.314241,6.486099,48.937814,-4.298533,28.563314,0.0,-6.257833,-55.245911,-83.470665,-62.150162,-92.239286,-63.105614,-91.161849,-59.211615,-85.627493,26.573182,270.943928,-162.74727,55.436
47,-0.432541,0.46093,29.265306,32.365932,0.0,-67.387539,-37.75573,-100.590683,-33.443688,-105.045353,-27.14756,-94.194031,-20.093903,-73.970421,0.0,18.657949,25.73257,41.644972,44.111444,54.639111,57.141497,67.182966,65.3545,75.379061,0.0,63.637356,24.937203,76.7967,15.956555,70.620941,7.183789,58.887726,-1.438957,39.364723,0.0,-9.870062,-55.119202,-66.651999,-60.640819,-70.909499,-60.020771,-70.516612,-54.444276,-69.072411,25.373812,271.715781,-134.248793,88.112855
48,-0.61171,0.392436,23.574749,25.324647,0.0,-67.325649,-37.851654,-100.339714,-33.560692,-104.861984,-27.235428,-93.766823,-20.084747,-73.522808,0.0,18.485752,25.436292,41.620358,43.820859,54.681114,56.940352,67.200121,65.247894,75.282558,0.0,65.894074,21.437714,79.967983,13.656246,76.870365,6.683602,66.072178,0.336113,47.417782,0.0,-14.48309,-54.633498,-50.069315,-58.708556,-51.380017,-56.245684,-51.131774,-48.7813,-52.312844,24.123871,271.986469,-111.312275,113.315754
49,-0.766319,0.179422,17.568283,17.082177,0.0,-66.785191,-37.817871,-99.87957,-33.614067,-104.332443,-27.253395,-93.159153,-19.960877,-73.041767,0.0,18.485826,25.345284,41.545381,43.711437,54.701627,56.851777,67.21252,65.203261,75.165294,0.0,65.257817,15.630043,78.592495,9.035008,78.064431,4.518814,69.913262,1.665196,53.08564,0.0,-21.769589,-55.780784,-40.766813,-57.842834,-39.260072,-52.959315,-38.77937,-43.247389,-40.593307,23.435532,271.657738,-93.666012,129.889778
50,-0.664856,0.167739,10.45237,7.504373,0.0,-66.398243,-37.869049,-99.805927,-33.685387,-104.0873,-27.265114,-93.062004,-19.779122,-72.630409,0.0,18.493866,25.523891,41.5922,43.801,54.739085,56.854543,67.259228,65.160406,75.273258,0.0,63.574871,10.290379,73.977734,3.991779,74.092747,0.942043,67.695625,0.40638,52.531551,0.0,-26.408076,-57.131876,-33.316836,-58.024652,-30.693746,-51.567189,-30.52229,-40.628517,-33.505971,22.869839,271.241256,-83.114479,136.80993
51,-0.638901,0.151424,9.506252,2.799949,0.0,-66.119751,-37.883079,-99.547771,-33.710861,-103.61293,-27.234009,-92.683273,-19.632317,-72.183964,0.0,18.664705,25.61832,41.715701,43.837841,55.030659,56.837945,67.341517,65.153255,75.240753,0.0,59.213311,5.34565,65.781166,-2.460136,65.879334,-6.379211,61.031319,-7.346832,45.816651,0.0,-28.673156,-57.371944,-34.691845,-57.280281,-32.876531,-50.11585,-33.04916,-38.500357,-34.91288,22.309256,270.834537,-73.529909,139.051736
52,-0.560348,0.023182,4.0891,-1.64413,0.0,-65.950631,-37.850258,-99.488263,-33.697495,-103.475064,-27.189034,-92.511509,-19.494507,-72.010186,0.0,19.045111,25.952907,42.020945,44.092227,55.426663,56.971004,67.554469,65.199135,75.310802,0.0,57.303051,1.5649,61.442425,-6.602245,60.77972,-10.743576,55.97517,-11.639293,40.744629,0.0,-29.509169,-56.923042,-35.252544,-56.123578,-34.926811,-48.35876,-35.245356,-36.360291,-35.205163,21.815415,270.423799,-69.374302,136.973686
53,-0.43261,0.072248,-0.252765,-2.048619,0.0,-65.977421,-37.901802,-99.549477,-33.735489,-103.434608,-27.198441,-92.456394,-19.517807,-72.003559,0.0,19.275601,26.05466,42.191203,44.21327,55.725807,57.076387,67.703584,65.305086,75.322868,0.0,56.653656,-0.3765,59.909339,-8.477303,58.334518,-12.472779,54.407249,-13.104149,38.564094,0.0,-29.542045,-56.188682,-35.454332,-55.144192,-35.524191,-47.279073,-36.484484,-35.417677,-35.95916,21.440231,270.232734,-69.569641,134.661754
54,-0.163719,0.186585,-1.218247,-0.926985,0.0,-66.271088,-38.053574,-99.780133,-33.810791,-103.533783,-27.19606,-92.437821,-19.49968,-71.911606,0.0,19.330336,26.161858,42.328833,44.270611,55.980552,57.089849,67.84477,65.307729,75.301391,0.0,57.010048,-0.468052,59.018097,-8.688034,56.762146,-13.148289,53.295273,-14.34407,36.868607,0.0,-29.243118,-55.117917,-34.97108,-54.066017,-35.007556,-46.357985,-36.196331,-34.719508,-35.347529,21.332926,270.189802,-70.731474,133.505252
55,-0.209427,0.071852,-0.955433,0.417841,0.0,-66.373867,-37.980812,-99.873207,-33.67376,-103.562325,-27.007164,-92.338097,-19.342026,-71.853481,0.0,19.583081,26.280395,42.406935,44.395508,56.176252,57.200593,68.008076,65.393934,75.344691,0.0,57.196873,-0.528602,58.958965,-8.920212,55.632992,-13.741585,52.152947,-15.273353,35.65305,0.0,-28.625497,-54.309982,-34.442077,-53.107485,-34.663773,-45.439936,-35.735828,-34.018136,-35.01932,21.184651,270.003407,-71.625755,133.664846
56,-0.067383,0.183263,-0.985267,1.19429,0.0,-66.488834,-37.931671,-99.985222,-33.555038,-103.658489,-26.862648,-92.351303,-19.277092,-72.019592,0.0,19.752376,26.331697,42.467055,44.49526,56.139683,57.303605,67.881117,65.472406,75.185462,0.0,57.114292,-0.483433,58.536174,-9.050194,55.161792,-14.086773,51.646591,-15.806935,35.146225,0.0,-27.961667,-53.823463,-33.799335,-52.778849,-33.930493,-45.204846,-34.907199,-33.913537,-34.44853,21.193434,269.938418,-72.534856,134.610884
57,-0.019409,0.241926,-0.555748,1.223695,0.0,-66.577423,-37.83506,-99.899586,-33.393379,-103.517647,-26.686592,-92.176781,-19.174759,-71.990387,0.0,19.771049,26.378998,42.321015,44.576585,55.954901,57.365849,67.630793,65.490709,74.896803,0.0,56.842586,-0.33133,58.174587,-9.065083,54.244342,-14.335213,50.841316,-16.401123,34.365348,0.0,-27.180154,-53.26856,-33.02236,-52.369561,-33.255487,-44.934496,-34.125328,-33.762927,-33.933308,21.2589,269.93505,-73.005729,135.589285
58,0.085373,0.191179,-0.143956,0.987389,0.0,-66.564251,-37.728195,-99.926685,-33.263352,-103.499725,-26.548371,-92.108814,-19.049103,-71.868485,0.0,19.721538,26.466857,42.23128,44.674262,55.9046,57.396539,67.586567,65.436578,74.719419,0.0,56.793434,-0.654716,57.502739,-9.470134,53.549195,-14.802223,50.5891,-16.867527,34.243824,0.0,-26.621251,-53.365305,-32.758754,-52.11757,-33.05205,-44.398361,-33.594385,-32.989398,-33.013863,21.450869,269.904598,-73.043089,136.355043
59,-0.039803,0.133678,-0.111328,0.810722,0.0,-66.49284,-37.554588,-99.784984,-33.029159,-103.334518,-26.300033,-91.863498,-18.835006,-71.664722,0.0,19.871863,26.503326,42.108458,44.793687,55.852197,57.5006,67.615182,65.4553,74.669092,0.0,56.511978,-0.904197,57.113136,-9.743419,52.959229,-15.012829,50.099316,-17.008976,33.73391,0.0,-26.118998,-53.73608,-32.239563,-52.491982,-32.89061,-44.624399,-33.43972,-33.029407,-32.692756,21.52367,269.879315,-73.041813,137.006804
60,-0.035751,0.260858,-0.355465,0.996985,0.0,-66.48539,-37.460197,-99.633087,-32.906776,-103.166588,-26.192276,-91.584194,-18.805985,-71.496243,0.0,19.761787,26.407922,42.032999,44.749943,55.735996,57.492696,67.53114,65.467812,74.516828,0.0,56.749501,-0.735225,57.533352,-9.540653,53.552456,-14.71503,50.919171,-16.711292,34.065388,0.0,-26.151961,-54.257766,-32.188304,-53.130814,-33.081178,-45.174774,-33.603451,-33.390548,-32.529191,21.619537,270.010336,-73.26566,137.873952
61,-0.129021,0.201627,-0.211063,0.664199,0.0,-66.447635,-37.337356,-99.502727,-32.777366,-103.063179,-26.066665,-91.333671,-18.703445,-71.221149,0.0,19.471066,26.406428,41.772228,44.82087,55.536876,57.618853,67.457731,65.600304,74.420066,0.0,57.166054,0.146793,58.36956,-8.674175,54.172417,-13.972401,51.774353,-16.216313,34.994774,0.0,-26.418252,-54.574396,-31.471511,-53.537959,-32.339857,-45.593707,-32.793519,-33.820182,-32.119464,21.623714,270.07016,-73.343525,138.396348
62,-0.049942,0.163466,-0.237396,0.835595,0.0,-66.543503,-37.299637,-99.469677,-32.746742,-103.05487,-26.023155,-91.178043,-18.655403,-71.008095,0.0,19.206317,26.402821,41.690235,44.844767,55.392096,57.69935,67.490014,65.711701,74.402516,0.0,57.576004,0.535755,58.983032,-8.276596,55.400436,-13.504029,52.812286,-15.596192,36.214347,0.0,-26.69248,-54.762723,-32.084088,-53.776934,-32.540053,-45.806746,-33.014216,-34.011374,-32.387696,21.712034,270.07908,-73.442659,139.077397
63,-0.144584,0.160848,-0.1157,0.680143,0.0,-66.523236,-37.307534,-99.326661,-32.744912,-102.97197,-26.002236,-91.036435,-18.60743,-70.920582,0.0,19.068144,26.469141,41.716404,44.913618,55.281685,57.788295,67.42793,65.790395,74.445395,0.0,57.936539,0.853306,59.022583,-7.908371,55.740166,-13.112,52.892578,-15.266544,36.46645,0.0,-27.156312,-54.694488,-32.225138,-53.786195,-32.384923,-45.89101,-33.041287,-34.206721,-32.662911,21.695853,270.095568,-73.429956,139.61318
64,-0.013298,0.19271,-0.07806,0.428165,0.0,-66.69793,-37.292359,-99.348771,-32.755234,-103.132004,-26.041604,-91.21653,-18.676323,-70.986214,0.0,18.918437,26.497744,41.746255,44.973332,55.176402,57.877278,67.328685,65.894618,74.399317,0.0,58.317272,1.058464,58.852146,-7.721146,55.736789,-12.968857,52.56665,-15.290818,36.132843,0.0,-27.411205,-54.686208,-32.327748,-53.694706,-32.042455,-45.813476,-32.833855,-34.18717,-32.194145,21.836169,270.137955,-73.354402,139.891022
65,0.035499,0.111472,0.211532,0.111324,0.0,-66.797459,-37.38176,-99.41478,-32.857567,-103.34808,-26.131554,-91.490936,-18.724754,-71.122192,0.0,18.909001,26.546712,41.887305,45.026462,55.178402,57.919244,67.29224,65.913526,74.455374,0.0,58.458836,1.063305,57.655484,-7.797123,54.833096,-13.190712,51.362252,-15.659294,35.528309,0.0,-27.656268,-54.541119,-32.269228,-53.502521,-31.426267,-45.605495,-32.293489,-34.049918,-31.725812,22.001118,270.115608,-73.01342,139.868527
66,0.127602,0.017117,0.266888,-0.047807,0.0,-66.873837,-37.523735,-99.557854,-32.958779,-103.507324,-26.181999,-91.748417,-18.727822,-71.165074,0.0,19.117261,26.593556,42.080658,45.012457,55.374682,57.879427,67.542848,65.878082,74.593337,0.0,58.323349,0.111076,56.305252,-8.736019,53.933372,-14.004364,50.382408,-16.238434,34.738266,0.0,-27.579241,-54.448593,-32.911568,-53.176139,-31.666192,-45.117062,-32.652494,-33.497808,-31.517762,22.264258,269.999718,-72.610994,139.687713
67,-0.011696,0.062047,0.42588,-0.179126,0.0,-66.911625,-37.640167,-99.809063,-32.99643,-103.692696,-26.192528,-92.064549,-18.752564,-71.380772,0.0,19.336215,26.625778,42.26502,45.037219,55.616176,57.924283,67.67881,65.950194,74.671031,0.0,58.0364,-0.598949,55.170067,-9.470512,52.052594,-14.756149,48.417195,-17.062591,32.589352,0.0,-27.166729,-54.517765,-32.463346,-53.038386,-31.422098,-44.78335,-32.353998,-32.960702,-30.740763,22.418249,269.931388,-72.019427,139.37821
68,0.163078,0.192699,0.282635,0.196922,0.0,-67.201263,-37.835701,-100.184624,-33.145981,-103.888984,-26.352379,-92.46199,-18.986435,-71.686237,0.0,19.474066,26.670027,42.362375,45.078146,55.664674,57.973682,67.726332,66.035927,74.699955,0.0,57.713093,-1.116176,54.414883,-10.000385,50.273735,-15.313156,46.493019,-17.598312,30.831345,0.0,-26.976025,-54.715373,-31.941327,-53.251604,-31.363546,-44.869263,-31.896064,-32.741396,-29.762445,22.782846,269.967151,-71.535273,139.418196
69,-0.013618,0.135826,0.025108,0.76778,0.0,-67.182278,-37.936043,-100.228615,-33.22728,-103.906071,-26.444115,-92.524178,-19.109368,-71.737072,0.0,19.514476,26.745276,42.418087,45.086297,55.811739,57.96973,67.861208,66.072755,74.795594,0.0,57.809155,-1.160877,54.697392,-10.093734,50.313767,-15.500747,46.293377,-17.831817,30.455052,0.0,-27.24388,-55.243752,-31.76603,-53.824283,-31.455141,-45.254839,-31.528593,-32.774476,-29.266706,23.003409,269.95787,-71.275984,140.040869
70,-0.110092,0.181015,-0.142044,1.271528,0.0,-67.224244,-37.943207,-100.325398,-33.206864,-103.830082,-26.43647,-92.489136,-19.120629,-71.75496,0.0,19.535718,26.786452,42.433944,45.118247,55.91464,58.021317,67.976632,66.177175,74.860383,0.0,58.109082,-0.948566,54.7477,-9.895774,50.224411,-15.370754,46.240654,-17.695427,30.651902,0.0,-27.713468,-55.773578,-31.872321,-54.503044,-31.537294,-45.871312,-31.470382,-33.078183,-29.204018,23.16972,269.988798,-71.141625,141.16231
71,-0.179032,0.213496,-0.007736,1.830294,0.0,-67.237667,-37.906677,-100.233856,-33.231376,-103.744171,-26.534958,-92.39162,-19.287071,-71.762249,0.0,19.576708,26.853179,42.458496,45.143799,55.837464,58.026887,67.89769,66.19617,74.875289,0.0,58.370236,-0.546306,54.280277,-9.556652,49.645935,-15.22435,46.179978,-17.68824,31.345185,0.0,-28.314021,-56.842137,-31.647302,-55.563329,-31.159708,-46.607667,-31.059074,-33.238993,-29.28102,23.312324,270.061731,-70.827725,142.852041
72,-0.045227,0.12481,-0.276512,2.463125,0.0,-67.166885,-37.893608,-100.184498,-33.300133,-103.736114,-26.658531,-92.365757,-19.416733,-71.727596,0.0,19.61545,26.91388,42.44091,45.152852,55.797684,57.993418,67.869186,66.212262,74.945795,0.0,58.843357,0.213444,54.809017,-8.782997,50.725857,-14.533596,47.569244,-16.970741,33.278584,0.0,-29.414524,-57.813668,-31.809316,-56.566915,-30.715303,-47.376571,-30.440736,-33.584641,-28.702845,23.621281,270.035648,-70.750053,145.164273
73,-0.223114,0.010645,-0.080337,2.566385,0.0,-66.959747,-37.736664,-100.00993,-33.197388,-103.708912,-26.570549,-92.178669,-19.290733,-71.489857,0.0,19.641275,27.003097,42.2688,45.134278,55.875207,57.918528,67.794259,66.165419,74.871264,0.0,59.447261,0.876606,55.612918,-8.269478,52.243366,-14.23193,49.709289,-16.748898,35.4417,0.0,-30.004686,-58.379587,-31.847263,-56.937585,-30.236825,-47.368692,-30.368569,-33.144392,-29.14709,23.809381,269.883053,-70.419176,147.567418
74,-0.00444,0.052599,-0.016114,2.722143,0.0,-67.130837,-37.665344,-100.081272,-33.164108,-103.783791,-26.564209,-92.157326,-19.27375,-71.540074,0.0,19.64913,27.14642,42.171481,45.250035,56.00056,57.961247,67.780933,66.158762,74.823987,0.0,59.752888,1.135266,56.681683,-8.078384,53.718235,-14.043033,51.39679,-16.41505,36.799095,0.0,-30.100078,-58.651134,-32.321456,-56.733407,-30.167515,-46.698904,-30.547373,-32.056078,-29.197231,24.239456,269.708731,-70.000775,150.06264
75,-0.057862,0.010473,0.267998,2.929192,0.0,-67.258998,-37.577384,-100.090232,-33.111419,-103.851917,-26.547889,-92.142871,-19.290893,-71.593677,0.0,19.708027,27.361447,42.014981,45.423171,56.018591,58.044214,67.769756,66.156983,74.761014,0.0,59.812031,0.711239,57.383297,-8.464531,54.411037,-14.332523,51.791679,-16.501682,36.778656,0.0,-30.186188,-58.563386,-31.987448,-55.99557,-29.367118,-45.349663,-29.42052,-30.120541,-28.283553,24.703331,269.391779,-69.21104,152.664407
76,-0.187728,0.052464,0.313694,3.318307,0.0,-67.313553,-37.418656,-100.019875,-32.939232,-103.772908,-26.399231,-92.060257,-19.182358,-71.499779,0.0,19.75571,27.513402,41.967247,45.530665,56.159159,58.067481,67.820106,66.096566,74.813835,0.0,59.715065,0.388447,58.290871,-8.832069,52.644745,-14.634327,50.316067,-16.573929,36.77449,0.0,-30.522833,-57.957813,-31.602113,-54.884013,-28.478932,-43.760362,-28.191805,-27.985256,-27.524715,25.118918,269.079619,-68.294031,155.61809
77,-0.086838,0.106037,0.299206,3.5691,0.0,-67.523163,-37.247978,-99.873402,-32.744064,-103.591644,-26.222992,-91.919575,-19.069657,-71.423618,0.0,19.773532,27.728986,41.961949,45.705086,56.252082,58.16648,67.917883,66.094171,74.948451,0.0,59.303844,-0.232201,58.833355,-9.560738,52.566685,-15.220928,50.302837,-16.727314,37.211849,0.0,-30.492391,-57.282961,-30.447461,-53.539602,-27.072764,-41.831075,-26.686824,-25.487606,-26.17211,25.709152,268.754444,-67.317753,158.755978
78,-0.176285,0.226402,0.002941,4.20939,0.0,-67.755375,-36.852631,-99.648651,-32.303352,-103.193184,-25.82682,-91.668034,-18.780006,-71.325188,0.0,19.712893,27.886165,42.208494,45.88373,56.392934,58.297687,68.084461,66.095603,75.126416,0.0,59.680481,0.106281,59.115417,-9.359184,52.523163,-14.76289,49.166943,-15.913273,36.902653,0.0,-29.557416,-56.589288,-28.995623,-51.944095,-24.474011,-39.479052,-23.249722,-22.499331,-22.384661,26.209516,268.505392,-66.638163,162.489914
79,-0.345543,0.243717,-0.571381,3.412809,0.0,-67.843345,-36.386856,-99.285793,-31.759849,-102.631348,-25.305015,-91.281006,-18.423569,-71.12059,0.0,19.532803,27.99923,42.408293,45.927165,56.285093,58.319238,68.04,66.068272,75.182052,0.0,61.121727,1.890072,60.598069,-8.006984,53.713829,-13.540271,50.33582,-14.77906,39.294857,0.0,-25.555346,-53.596746,-24.178757,-47.729376,-18.166206,-34.197946,-15.726891,-16.429784,-14.359441,26.668768,268.214138,-66.404749,165.367752
80,-0.050262,-0.020057,-2.288875,2.890759,0.0,-67.728218,-36.11261,-99.199951,-31.452324,-102.296688,-25.041184,-91.256779,-18.261132,-70.981968,0.0,19.043481,28.084557,42.460917,45.916186,56.151515,58.322782,68.023463,66.122724,75.494559,0.0,60.985153,5.97567,65.942676,-4.101036,60.578373,-9.723233,56.789875,-11.01574,44.884426,0.0,-20.540126,-48.532008,-17.208555,-41.002416,-9.828504,-26.243567,-5.97891,-7.692175,-3.126621,27.452397,267.642375,-67.859733,167.706805
81,-0.160309,-0.312408,-2.5471,3.060449,0.0,-67.610127,-35.979859,-99.148487,-31.276611,-102.02116,-24.86126,-91.217915,-18.097641,-71.104042,0.0,18.544155,28.198869,42.645946,46.019989,56.033213,58.465784,68.052486,66.275717,75.649133,0.0,63.239124,10.812526,71.926323,1.095623,71.320564,-4.627625,65.270473,-6.368168,50.886051,0.0,-14.39801,-40.354518,-7.856813,-30.432918,1.734298,-14.662116,7.096654,4.201338,12.3785,28.195341,266.765932,-69.50358,170.203219
82,-0.146965,0.532894,-1.633461,5.303101,0.0,-67.091503,-35.368767,-99.261624,-30.888657,-101.904225,-24.773987,-91.333351,-18.381226,-71.559471,0.0,16.642576,27.446613,41.530857,45.106021,54.66354,57.491449,66.633005,65.192429,74.406455,0.0,66.434703,15.449855,77.170143,5.897163,78.395393,-0.766674,69.97665,-4.327366,52.655124,0.0,-9.690542,-30.262994,0.4912,-18.42268,14.427144,-2.121522,21.322677,16.410085,27.944655,29.12788,266.736011,-70.057537,174.943505
83,-0.941551,4.13808,-0.66956,7.466465,0.0,-65.822056,-34.264046,-98.008782,-30.087868,-100.538453,-24.159989,-89.981244,-17.71138,-69.248703,0.0,21.024126,23.368085,35.953894,39.097224,48.771513,50.679712,60.623998,58.324648,68.377022,0.0,68.634316,20.19492,82.136433,10.796837,84.922955,3.029606,74.385098,-2.73064,53.670193,0.0,-7.14992,-18.496175,11.833342,-5.173919,27.467398,11.104008,35.42941,28.697367,43.136182,29.548811,270.342349,-69.364615,181.878228
84,0.33213,9.038939,3.26223,12.538581,0.0,-64.977711,-32.332649,-97.782131,-27.817589,-99.512741,-21.67305,-87.51487,-15.007919,-65.725262,0.0,23.070189,19.147963,28.323852,28.31559,35.099243,34.190487,40.627288,36.904628,42.981634,0.0,66.832558,26.6632,84.382656,18.098774,86.216045,9.420719,73.825688,1.313244,51.970848,0.0,-6.79005,-6.514705,22.879751,8.970001,38.858361,25.43434,48.790903,41.720752,57.226392,31.281921,278.99746,-64.701405,194.032981
85,-2.212418,2.756304,3.125324,13.416253,0.0,-63.750206,-27.183883,-94.595546,-21.966957,-94.239612,-15.743042,-82.494632,-9.462318,-60.800296,0.0,23.341631,18.316296,25.285583,24.705426,26.146261,28.079851,29.956755,28.608991,32.694657,0.0,68.426857,28.146263,84.971787,19.771466,85.59842,10.410096,72.261429,0.907128,49.748898,0.0,-7.266122,3.141589,31.230901,20.087051,48.99148,36.336301,59.417234,51.033949,68.073284,30.519687,281.524639,-60.125897,207.220109
86,-5.554464,1.74088,2.454243,14.509729,0.0,-55.445726,-21.435144,-79.0179,-16.644773,-76.919065,-11.560066,-66.934175,-6.679006,-50.936548,0.0,20.388275,16.631047,22.159611,21.586993,20.690414,23.763683,22.997786,23.522529,26.457464,0.0,67.896641,28.061554,85.344944,19.721329,84.796085,10.322479,71.515789,0.343838,47.977226,0.0,-8.834162,9.763049,37.136228,27.172342,55.63223,42.851007,66.500451,55.767414,73.801647,26.325113,283.103684,-56.311764,221.568003
87,-9.295933,-0.461782,1.743645,12.880457,0.0,-40.275953,-15.614393,-50.704256,-12.127847,-47.358381,-9.0848,-40.606836,-6.211801,-35.867414,0.0,15.698986,14.996897,20.376024,20.023782,20.001539,22.378547,21.282755,22.824267,25.603617,0.0,66.669079,28.938537,86.526203,20.841968,85.669636,11.915691,73.244076,2.283108,50.384662,0.0,-9.039742,15.915242,43.991129,33.765125,60.834159,48.795163,71.98637,60.112877,77.996266,18.160904,282.573661,-53.436395,234.380219
88,-1.927162,-3.60941,0.835876,10.849868,0.0,-35.508299,-18.697145,-32.520704,-16.27648,-25.926916,-13.901916,-21.012537,-11.596349,-24.250093,0.0,7.330397,18.196506,24.372535,24.839412,24.671796,27.834689,24.589996,28.465797,28.355523,0.0,65.427166,29.466225,88.61491,21.662956,87.301403,13.233502,75.910343,4.396981,53.92384,0.0,-7.803511,20.978727,47.085517,39.461971,64.214797,53.961203,75.850094,63.887507,80.11764,17.106188,278.924697,-51.728073,245.190533
89,-4.119346,-6.713604,-2.0564,6.79446,0.0,-25.847495,-19.969534,-9.552424,-20.017268,-2.148039,-19.048371,-1.365824,-17.600104,-13.650164,0.0,-0.398976,19.591275,28.597215,32.584087,35.424408,41.277594,41.15074,47.135504,49.754684,0.0,66.806557,26.940468,91.496864,19.101047,92.109077,11.26339,80.667412,3.699806,57.823128,0.0,-6.965904,24.081228,47.666538,42.011584,65.365268,55.253515,76.114706,63.88626,78.97065,13.80629,272.160356,-52.965025,251.934256
90,-1.713845,-0.63472,-0.459251,6.603008,0.0,-19.434225,-25.798582,9.253561,-27.922937,17.731585,-28.172481,16.532896,-27.264032,-2.97278,0.0,-5.579749,18.595933,29.657692,34.541377,42.852489,45.921941,48.97779,54.499475,56.657232,0.0,66.499351,27.841438,93.0699,20.49654,94.886123,13.163223,83.378425,6.110366,61.249145,0.0,-6.108993,27.122448,47.978761,44.789538,64.506704,57.104879,75.457756,64.762993,77.188546,12.81011,271.542105,-52.706611,258.553733
91,0.667654,2.490271,0.414733,5.060175,0.0,-16.68354,-29.661438,18.61742,-33.274761,27.924649,-33.599624,25.864941,-32.0415,4.554737,0.0,-8.298391,18.119262,29.741616,35.322544,45.738369,47.712727,52.295374,57.254228,58.571698,0.0,66.257584,29.682553,94.646439,22.481942,96.677285,14.993443,84.656411,7.848736,62.886521,0.0,-5.411782,29.785719,48.336444,47.315487,63.727845,59.130811,74.755765,66.282793,76.589987,14.290758,274.106735,-51.478884,263.688267
92,4.685131,4.521624,0.251507,3.858832,0.0,-21.092113,-34.027599,16.031594,-38.263309,25.572419,-37.64138,23.503167,-34.637363,5.33963,0.0,-8.713712,18.058019,30.059607,34.816266,44.892772,46.870267,51.862615,55.94512,56.731598,0.0,65.966801,31.070011,95.838009,23.774426,97.708912,16.087166,84.807232,8.903298,63.029263,0.0,-4.643952,31.368172,48.939672,49.045327,63.399,60.602905,74.113252,67.377431,75.81749,19.829017,278.736997,-50.374249,267.655737
93,-4.454658,2.707867,0.245259,3.042431,0.0,-15.309094,-27.584141,22.659119,-32.183521,30.961761,-33.020165,27.236297,-31.968704,7.361481,0.0,-10.724293,17.518061,29.943096,34.467721,45.084815,46.613076,52.021363,55.809059,56.805636,0.0,65.857955,31.855384,96.444191,24.508369,98.549423,16.702022,84.964256,9.510841,63.45005,0.0,-4.066129,32.345026,49.616839,49.964568,63.701391,61.324124,73.857284,67.944756,75.975101,16.310972,281.62976,-49.192377,270.883064
94,-4.432526,3.4136,-0.152733,2.41575,0.0,-11.204349,-23.127731,25.903153,-27.418636,34.953667,-28.696163,29.221962,-28.428726,9.613335,0.0,-11.182494,16.682787,29.979849,33.794963,45.338733,46.141711,51.698865,55.675591,56.290292,0.0,65.941452,32.510605,96.803901,24.973571,98.707237,16.989532,84.726219,9.813629,63.165275,0.0,-3.749226,33.008288,50.946671,50.677686,64.786964,61.960425,73.953096,68.487184,75.840411,12.809503,285.233054,-48.414053,273.488508
95,-2.952072,2.458407,-0.446915,1.651132,0.0,-7.730061,-18.606399,30.210938,-23.566944,37.843872,-26.308926,30.64904,-27.874546,9.272553,0.0,-12.69318,15.613641,29.912863,32.44027,45.608632,44.59921,51.820205,54.023521,55.913565,0.0,66.344742,33.127979,97.047295,25.149937,98.160233,16.727726,83.541756,9.201462,61.659164,0.0,-2.976975,33.628212,52.329436,51.118967,65.949996,62.12993,74.300393,68.365647,75.685553,10.871086,287.801139,-47.847313,275.249318
96,-5.312324,3.932871,-0.717648,1.121807,0.0,-1.4828,-13.10582,34.388443,-18.24606,41.363205,-21.884961,31.73236,-24.71838,9.568519,0.0,-15.271753,12.29037,26.423916,28.846001,43.068467,41.416014,49.575454,51.403279,53.791883,0.0,66.588238,33.34013,97.002858,25.053647,97.474583,16.36401,82.479825,8.636902,60.477025,0.0,-1.332228,34.234552,53.378958,51.679118,66.747021,62.465285,74.334529,68.406934,75.121031,6.55996,291.770986,-47.563763,276.408101
97,-2.558075,-0.413616,-0.623657,0.652369,0.0,-1.215912,-10.909287,34.9132,-16.591931,42.021354,-21.848408,31.131019,-26.705098,7.446373,0.0,-14.495551,11.938639,27.33813,29.03739,44.652464,42.002889,50.551196,52.41086,54.364643,0.0,66.830029,33.348255,96.568966,24.939022,96.617283,16.107834,81.680203,8.239174,60.225964,0.0,0.407688,34.592173,53.895599,51.903518,66.898902,62.553229,74.380458,68.353087,74.91823,5.147616,291.355027,-47.041689,277.058127
98,-2.771336,2.552058,-0.678005,0.181929,0.0,3.645721,-9.704384,36.364254,-15.74017,44.001377,-20.46175,32.043789,-24.385277,9.353909,0.0,-14.005204,10.144283,25.454397,27.012705,42.522754,40.147549,48.82037,50.844672,52.494235,0.0,67.228912,33.145237,96.178299,24.631256,95.577049,15.746258,80.868553,7.832119,59.846146,0.0,2.131599,34.725233,54.387404,52.02429,66.815934,62.631813,74.344618,68.308182,74.809821,3.530554,293.855801,-46.56542,277.188772
99,1.05986,-2.298276,-0.594704,-0.082301,0.0,2.222306,-11.480724,36.077259,-18.49752,42.663677,-24.554867,30.754429,-29.846946,5.631169,0.0,-13.938427,10.421357,27.665456,27.436029,44.443093,40.756198,50.792171,51.598607,54.458775,0.0,67.558342,32.926014,95.915657,24.421795,94.795647,15.533627,80.513581,7.532936,59.994301,0.0,3.937527,34.502376,54.101191,51.711499,66.193922,62.301114,74.240742,67.925231,74.973386,5.745197,291.497056,-46.005341,277.046002
100,-3.975494,1.525531,-0.463382,-0.105618,0.0,8.454986,-9.081677,37.432995,-15.801945,45.050091,-20.954464,33.399113,-24.944664,9.835247,0.0,-12.684424,9.917425,25.852156,26.546786,42.537364,39.866498,49.260515,50.719121,53.349898,0.0,67.758327,32.309543,95.439983,23.87733,94.156711,15.103248,80.329502,7.220558,60.176777,0.0,5.535529,34.200861,53.940739,51.40518,65.966878,62.017198,74.237691,67.614787,75.269813,2.925167,292.962692,-45.313259,276.880489
101,-0.308201,-1.489234,-0.304207,-0.191933,0.0,7.043484,-9.82687,36.108856,-16.141079,44.189529,-20.964283,34.096893,-24.614079,12.01181,0.0,-10.866875,11.541646,28.534729,28.004985,44.524208,40.866027,51.070739,51.08677,54.741295,0.0,68.044773,31.793197,94.838459,23.318722,93.381717,14.574451,79.93919,6.73455,60.108455,0.0,6.545791,33.964407,53.958955,51.122413,65.841859,61.786092,74.407518,67.41132,75.722295,3.687464,291.415302,-44.546968,276.6304
102,-3.762485,-0.567326,-0.609101,0.126885,0.0,12.368076,-7.300152,40.495937,-13.608948,47.070041,-18.505497,36.633625,-22.387093,15.702358,0.0,-10.584218,10.945174,28.669568,27.589219,44.794724,40.709218,51.674227,51.252323,55.423292,0.0,68.654309,31.208531,94.430729,22.874783,93.108227,14.344094,80.094693,6.703927,60.340497,0.0,7.102286,33.338072,53.614277,50.563423,65.540541,61.391951,74.20174,67.195749,75.892096,0.807444,290.800808,-44.273604,276.710117
103,-0.778428,-2.364621,-0.338447,0.204357,0.0,12.541844,-6.418304,42.973881,-13.404819,47.59013,-19.663364,36.665165,-25.300323,14.638539,0.0,-10.982101,10.630617,30.582842,27.879385,46.898277,41.468044,54.058867,52.487109,57.838906,0.0,69.061809,30.442875,93.789036,22.263267,92.81036,13.938515,80.158161,6.487347,60.461002,0.0,7.402294,32.88123,53.290334,50.199973,65.171891,61.20975,73.747035,67.193538,75.667658,0.774084,288.403962,-43.866983,276.882249
104,-1.135929,0.292919,-0.437599,0.077188,0.0,13.505036,-5.462494,43.092316,-12.098533,47.569496,-18.086197,36.803879,-23.685665,16.274758,0.0,-11.023906,10.622985,29.011949,28.103675,45.882026,41.781947,53.50709,52.833838,57.265282,0.0,69.356884,29.933532,93.263614,21.71545,92.298351,13.442264,79.638462,6.073059,59.912922,0.0,7.263343,32.748256,53.22415,50.105309,65.051651,61.212751,73.543382,67.323634,75.554432,0.232721,288.669047,-43.710016,276.931603
105,-0.453815,1.111693,-0.175576,0.252757,0.0,14.245228,-4.919495,43.351101,-12.222347,47.049373,-18.491764,36.008732,-24.382359,16.287472,0.0,-10.516441,7.553347,25.353953,25.583541,44.208589,40.192676,52.045248,52.098785,55.854952,0.0,69.753354,29.308239,92.590657,21.012383,91.412487,12.792756,78.795514,5.501336,59.142048,0.0,6.788556,32.403207,53.087459,49.727854,64.824767,60.936319,73.292922,67.208074,75.389139,0.24396,289.754296,-43.420538,277.157916
106,-0.059315,-2.242281,-0.131584,0.192871,0.0,15.022408,-4.754906,45.097618,-12.631634,47.012192,-19.902351,35.156845,-27.211784,13.988411,0.0,-10.932762,7.164332,25.122488,26.122795,45.028462,41.646664,53.309834,54.544201,57.596289,0.0,70.153256,28.425774,91.984692,20.099213,90.825177,11.997906,78.276387,4.87341,58.561077,0.0,6.554349,32.235012,52.854969,49.563042,64.787174,60.823452,73.165754,67.146929,75.46256,0.536871,287.491909,-43.199896,277.330681
107,0.821079,0.620999,0.096852,0.00163,0.0,13.419525,-5.313091,43.404797,-12.714077,46.023892,-19.61721,34.847912,-26.730171,13.932965,0.0,-12.50578,6.573813,22.827781,25.667732,43.666396,41.385274,52.350431,54.437669,56.953245,0.0,70.301788,27.761695,91.348503,19.221347,89.915062,11.066825,77.222213,4.014587,57.522926,0.0,6.42208,32.487361,53.043184,49.784479,64.924729,61.044914,73.063211,67.338664,75.248595,1.62688,288.090949,-42.834114,277.310352
108,1.497677,0.51753,-0.020863,-0.148584,0.0,11.277844,-6.857918,40.981499,-13.777084,44.013634,-20.13668,33.393814,-26.749512,12.616242,0.0,-13.711568,6.339137,20.977949,25.489162,42.56083,41.206075,51.533177,54.135302,56.36448,0.0,70.275776,27.53595,91.016544,18.702644,89.188282,10.395252,76.322216,3.30154,56.539455,0.0,6.372198,32.659065,53.270117,49.948303,65.092641,61.227596,73.262776,67.487902,75.336417,3.343878,288.58678,-42.635656,277.140069
109,-2.415161,2.30003,-0.027065,-0.074681,0.0,16.102604,-5.353489,42.182785,-12.333424,45.450577,-18.047573,34.062698,-23.615021,14.340523,0.0,-11.722846,4.48166,18.525284,23.914786,40.249759,40.291242,48.933114,53.687871,54.334262,0.0,70.186615,26.900551,90.611938,17.964695,88.939338,9.725773,76.216621,2.811172,56.397148,0.0,6.452128,32.629869,53.318888,50.006731,65.141214,61.368869,73.335,67.583554,75.502328,1.110872,290.85951,-42.480566,277.038088
110,5.649502,-2.719451,-0.02615,-0.230983,0.0,7.670482,-11.078465,37.451465,-18.070084,40.417248,-23.977432,28.614956,-29.835354,7.129314,0.0,-13.444263,7.988552,23.412656,27.67756,43.601904,43.387766,51.976458,55.943799,57.108831,0.0,70.031078,26.555489,90.440289,17.480759,88.945255,9.208202,76.138927,2.379398,56.259991,0.0,6.670255,32.878426,53.522293,50.318126,65.360378,61.702296,73.526166,67.817402,75.769237,6.903042,288.114072,-42.364048,276.781118
111,-0.466931,2.716611,-0.037193,-0.136963,0.0,9.3032,-11.22948,35.973038,-18.560039,40.004288,-23.857074,28.920594,-28.621673,8.028191,0.0,-13.572815,6.821382,21.745741,26.317988,41.380495,41.933025,49.643268,54.200819,54.653313,0.0,69.639599,26.459873,90.444294,17.243259,88.922001,8.897152,76.037143,2.085022,56.100322,0.0,6.732413,33.06616,53.649129,50.554211,65.376075,61.960339,73.539789,68.038716,75.748502,6.594789,290.811568,-42.242563,276.62504
112,3.719719,0.128836,-0.117955,-0.087833,0.0,5.35896,-15.175174,31.437195,-22.75494,36.014008,-27.675258,24.880921,-31.739696,3.900238,0.0,-13.41934,7.389597,22.519486,26.85061,41.916105,42.231872,49.803905,54.087321,54.698613,0.0,69.429795,26.427338,90.592461,17.152005,89.0747,8.797738,76.165719,2.028054,56.225533,0.0,6.670773,33.115214,53.616845,50.611341,65.430662,61.993622,73.56513,68.01404,75.827949,10.472837,290.924438,-42.202189,276.521241
113,-1.779728,2.229857,-0.077819,-0.018945,0.0,9.583237,-14.051673,31.772221,-21.960823,37.188824,-26.44234,26.738263,-29.575138,6.547314,0.0,-12.77579,6.510432,21.438396,25.722813,40.314485,41.082722,48.110227,52.817325,52.969145,0.0,69.351997,26.259864,90.813446,17.018806,89.358101,8.73817,76.416114,2.080284,56.486709,0.0,6.741613,33.112917,53.464099,50.618714,65.439072,61.983939,73.543481,67.972111,75.925256,8.81674,293.131689,-42.156377,276.47969
114,4.521664,-2.005308,0.141723,0.078793,0.0,2.441311,-17.968014,28.444245,-25.949009,33.582207,-30.75713,23.894302,-34.3671,2.818291,0.0,-14.970338,8.341369,24.056046,27.273132,43.194006,41.892196,50.916055,53.023794,55.502777,0.0,69.647026,26.368504,91.036469,17.089314,89.377625,8.744293,76.188126,2.038559,56.243111,0.0,6.753667,33.166122,53.293261,50.622519,65.502528,61.89555,73.397367,67.829419,75.655098,13.444267,291.110304,-41.908791,276.542406
115,-4.479492,2.187978,0.208248,0.039879,0.0,10.3255,-14.017651,32.219101,-22.110764,37.659004,-26.656414,28.638748,-29.71336,7.712585,0.0,-15.191355,6.360477,21.826313,24.99937,40.511073,39.801796,48.917083,51.143976,53.76948,0.0,69.710553,26.377945,91.102444,17.104226,89.336346,8.745427,76.085782,2.006195,56.067891,0.0,6.736871,33.085771,53.07543,50.567869,65.433379,61.845445,73.205348,67.809238,75.399686,9.038292,293.282437,-41.627026,276.56644
116,-1.299946,-3.071182,0.209645,0.047436,0.0,11.886028,-13.113773,36.478077,-20.944954,40.284062,-25.529663,30.868023,-28.455768,9.524243,0.0,-12.035748,8.916019,27.28374,27.345244,45.236191,41.663213,52.801135,52.390322,57.552755,0.0,70.036789,26.316959,91.077392,17.099235,89.309532,8.809135,76.007354,2.110611,56.02359,0.0,6.765202,32.996185,52.992327,50.457126,65.25071,61.70899,73.002708,67.675253,75.217807,7.770412,290.196771,-41.385315,276.599392
117,-4.251022,-0.231132,0.326557,0.110076,0.0,17.120121,-8.305458,41.608326,-15.909966,44.626568,-20.809319,34.805202,-24.286949,13.656223,0.0,-10.541573,9.005051,27.25026,27.404043,45.241254,41.758951,53.052533,52.554961,57.628152,0.0,70.267628,26.152244,90.838543,17.007362,89.254795,8.813072,75.852962,2.195858,55.881168,0.0,6.694955,32.774044,52.819648,50.263304,64.969918,61.562012,72.836773,67.587197,75.124341,3.52557,289.953394,-41.052578,276.697223
118,4.594311,-2.373599,0.385139,0.000803,0.0,11.088501,-12.730362,37.939361,-20.279149,40.187965,-25.08799,29.873703,-28.456673,7.349647,0.0,-9.528348,10.598804,29.051198,29.384292,47.415573,43.687663,55.162396,54.386824,59.956711,0.0,70.50919,25.935837,90.469128,16.856976,89.061642,8.732872,75.611264,2.153126,55.605572,0.0,6.790125,32.566772,52.761479,50.073286,64.725522,61.434065,72.817185,67.520074,75.29003,8.11484,287.573447,-40.67248,276.691678
119,-4.735497,3.237895,0.215893,-0.001568,0.0,17.957909,-8.24461,42.324898,-15.858284,44.632301,-20.535393,34.619133,-23.605328,12.232201,0.0,-11.226249,8.301898,26.354557,26.674536,44.174961,41.060196,52.291731,51.849672,57.198592,0.0,70.49041,25.658753,90.205422,16.681046,88.975044,8.688423,75.498917,2.234505,55.562508,0.0,6.719976,32.403442,52.572448,49.936125,64.334024,61.385479,72.686743,67.554741,75.402526,3.349285,290.805287,-40.486645,276.684055
120,-2.354576,-2.796861,0.063137,-0.001865,0.0,19.951927,-5.647511,47.102692,-13.100041,47.463936,-18.567112,36.044266,-22.908508,13.394302,0.0,-9.962083,9.998367,28.188272,28.878728,46.491786,43.458001,54.908157,54.41734,59.457187,0.0,70.566662,25.417076,90.144963,16.595799,89.223942,8.755715,75.70071,2.426926,55.703579,0.0,6.720421,32.388461,52.389235,49.855566,64.03824,61.304969,72.65446,67.49036,75.658124,0.938776,288.00285,-40.479441,276.676614
