takenoko1/special-research/HandMotion_SimilarSearch_自分用/NewProject/handData/test_key/d4_feature_d3/101.csv
frame,vel_0x_L,vel_0y_L,vel_0x_R,vel_0y_R,posFromWrist_0x_L,posFromWrist_1x_L,posFromWrist_2x_L,posFromWrist_3x_L,posFromWrist_4x_L,posFromWrist_5x_L,posFromWrist_6x_L,posFromWrist_7x_L,posFromWrist_8x_L,posFromWrist_9x_L,posFromWrist_0y_L,posFromWrist_1y_L,posFromWrist_2y_L,posFromWrist_3y_L,posFromWrist_4y_L,posFromWrist_5y_L,posFromWrist_6y_L,posFromWrist_7y_L,posFromWrist_8y_L,posFromWrist_9y_L,posFromWrist_0x_R,posFromWrist_1x_R,posFromWrist_2x_R,posFromWrist_3x_R,posFromWrist_4x_R,posFromWrist_5x_R,posFromWrist_6x_R,posFromWrist_7x_R,posFromWrist_8x_R,posFromWrist_9x_R,posFromWrist_0y_R,posFromWrist_1y_R,posFromWrist_2y_R,posFromWrist_3y_R,posFromWrist_4y_R,posFromWrist_5y_R,posFromWrist_6y_R,posFromWrist_7y_R,posFromWrist_8y_R,posFromWrist_9y_R,posFromBody_0x_L,posFromBody_0y_L,posFromBody_0x_R,posFromBody_0y_R
6,-2.064743,-0.533251,0.449775,-0.160366,0.0,17.370987,-4.095268,44.206215,-10.86145,45.805596,-16.359924,32.047692,-21.650116,8.210346,0.0,-15.763374,9.059007,23.956442,28.888596,40.748701,43.862713,48.207978,55.071141,51.963836,0.0,69.890786,24.914063,89.346291,16.424778,88.211174,9.076138,76.169152,3.522652,57.173699,0.0,6.743602,32.70087,49.543443,50.255981,60.842175,61.765566,69.804383,67.781242,72.8716,6.242689,287.650361,-33.940493,274.949449
7,0.141255,-1.869309,0.171627,0.081301,0.0,14.831279,-2.589158,46.176647,-9.510292,46.528873,-16.229714,31.685703,-23.303685,4.835357,0.0,-17.363512,10.399473,25.02002,29.849803,42.115621,44.41449,50.223796,55.302385,53.399076,0.0,69.573521,24.736771,89.292927,16.17302,88.184086,8.845791,76.143643,3.355042,57.081425,0.0,6.602181,32.677725,49.281398,50.24836,60.604176,61.782831,69.514958,67.838681,72.727412,6.198309,285.671448,-33.954501,274.921146
8,2.682872,-3.759945,-0.00912,0.060985,0.0,11.904465,-4.966461,44.206879,-11.867546,43.716774,-19.036193,27.928093,-26.756538,-0.460453,0.0,-14.680408,12.501766,26.547094,32.643169,44.287667,47.46575,52.863823,58.455953,55.615681,0.0,69.517044,25.064208,89.523262,16.438716,88.187438,8.987068,76.163383,3.320961,56.992538,0.0,6.398269,32.693941,49.387782,50.222351,60.527408,61.721698,69.351146,67.772905,72.646803,8.727361,281.814765,-34.117441,274.885393
9,3.294308,0.08335,0.302639,0.071124,0.0,8.097256,-8.485382,40.045452,-15.382313,40.246685,-22.117618,25.184315,-29.173016,-2.940868,0.0,-14.082984,12.962795,26.292881,33.010363,44.354086,47.675456,52.639584,58.502007,55.318119,0.0,69.397121,24.957138,89.326709,16.279083,87.989833,8.778179,75.979671,3.069831,56.929309,0.0,6.477223,32.594201,49.579974,50.148769,60.607906,61.67331,69.374488,67.724567,72.596588,11.896242,281.80816,-33.940229,274.866562
10,-1.353641,3.7524,0.308109,0.104766,0.0,11.463661,-6.993737,41.036979,-14.140881,41.400489,-20.461853,26.531524,-26.666131,-0.014706,0.0,-15.196999,8.837089,21.776814,28.290272,40.863545,43.295128,49.437133,54.704949,52.847892,0.0,69.232887,24.963878,89.149818,16.280205,87.785431,8.726681,75.71743,2.949188,56.806412,0.0,6.325922,32.564956,49.739549,50.10868,60.67504,61.625194,69.344131,67.683972,72.53475,10.434042,285.482152,-33.740679,274.89292
11,1.342186,-0.083215,0.22673,-0.017476,0.0,10.738929,-7.429528,39.256347,-14.521443,40.219986,-20.727494,26.151718,-26.916745,0.68169,0.0,-15.202457,8.304566,20.894672,27.783919,40.876859,42.966159,49.498575,54.659044,53.017681,0.0,69.074616,25.060593,89.021782,16.37756,87.548905,8.760967,75.566414,2.897919,56.783089,0.0,6.247895,32.419633,49.844809,50.006447,60.601892,61.590985,69.373723,67.692062,72.627611,11.666783,285.337881,-33.623394,274.814388
12,-0.773495,2.19771,0.096268,-0.126699,0.0,12.942043,-7.455448,38.036487,-14.675514,40.443363,-20.186737,27.292362,-25.144844,4.551109,0.0,-14.622399,5.586917,19.137885,24.894061,39.757731,40.527091,48.314843,52.677646,52.000157,0.0,69.032432,25.190483,89.048858,16.525486,87.474335,8.872421,75.53936,2.985065,56.927719,0.0,6.262825,32.512691,49.981215,50.075978,60.692862,61.649141,69.465199,67.712945,72.745739,10.792769,287.485061,-33.627645,274.637159
13,-0.844734,-0.12481,0.024113,-0.175137,0.0,14.318195,-6.917416,39.19836,-14.16742,41.785984,-19.582753,29.241451,-24.485676,8.124412,0.0,-14.608629,4.930325,19.247146,24.234319,40.380805,40.025567,48.813725,52.379984,52.707163,0.0,69.008045,25.140174,88.920055,16.528255,87.553699,8.893055,75.592792,3.064888,57.083347,0.0,6.401986,32.623113,50.14851,50.200813,61.08452,61.762429,69.634482,67.777648,72.830869,9.863291,287.323327,-33.688276,274.425098
14,-2.954579,0.113386,-0.206864,-0.234096,0.0,18.19059,-3.90176,42.668404,-11.044189,45.353188,-16.602825,33.132157,-21.909588,13.136284,0.0,-14.915541,3.856634,18.458742,23.211189,40.167148,39.313548,48.880996,52.015015,53.015075,0.0,69.100628,25.189705,89.003643,16.656143,87.728451,9.056477,75.734333,3.266247,57.240841,0.0,6.50758,32.773575,50.330192,50.328303,61.379626,61.871196,69.818746,67.846635,73.006352,6.825737,287.403572,-33.978115,274.157861
15,5.198822,-3.837714,-0.308853,-0.216954,0.0,11.298043,-9.155193,36.971489,-16.247715,40.172882,-21.817074,28.638176,-27.277073,7.78038,0.0,-13.3084,7.99895,22.60895,27.894526,43.932306,43.630186,52.250864,55.716322,56.00687,0.0,69.373615,25.262283,89.093204,16.812057,87.906795,9.281296,75.871456,3.596775,57.487438,0.0,6.671762,32.978388,50.456126,50.556656,61.643103,62.081246,69.839976,68.005853,73.021308,11.931518,283.530086,-34.380009,273.905135
16,-3.545116,2.917484,-0.295143,-0.122426,0.0,16.567142,-6.25296,39.30209,-13.29419,43.461468,-18.53714,32.449299,-23.341862,12.32809,0.0,-13.32764,5.585745,19.948459,24.991269,41.341024,40.842538,49.845402,53.09377,53.983717,0.0,69.589702,25.420887,89.267681,17.012066,88.122013,9.49855,75.964062,3.855595,57.690067,0.0,6.76456,33.203468,50.619789,50.766669,62.029808,62.235029,69.859069,68.117448,72.970536,8.292801,286.401282,-34.768753,273.736421
17,3.507145,-2.524109,-0.273182,-0.116893,0.0,11.032127,-10.007138,36.697609,-16.922184,40.445549,-22.307511,29.46476,-27.455693,8.249656,0.0,-12.485427,8.549702,22.765684,28.054657,43.692986,43.438636,51.790836,55.123962,55.870895,0.0,69.721527,25.430408,89.396393,17.042381,88.359055,9.54784,76.070526,3.931457,57.725876,0.0,6.768376,33.216176,50.762531,50.831889,62.318626,62.321344,69.896538,68.233266,72.961125,11.687651,283.836171,-35.15423,273.578526
18,-2.320187,3.200017,-0.152229,-0.047067,0.0,14.617825,-8.301533,37.784489,-15.440369,42.36343,-20.613579,31.417248,-25.040474,9.924671,0.0,-13.238695,6.017763,21.184973,25.029789,41.840079,40.401047,49.581802,52.188583,53.70568,0.0,70.026237,25.510219,89.553772,17.099029,88.463974,9.571048,76.038322,3.905262,57.658355,0.0,6.769883,33.221809,50.735337,50.85491,62.318504,62.364347,69.713647,68.322212,72.812134,9.248817,286.990622,-35.425106,273.485893
19,-0.517696,-0.088896,-0.05571,-0.038223,0.0,14.982101,-7.72609,38.169937,-14.900379,42.619674,-20.218609,31.502975,-24.70744,9.776779,0.0,-12.804504,6.395799,21.503087,25.298946,42.129602,40.552842,49.800942,52.256064,53.865786,0.0,70.230423,25.562038,89.714378,17.106159,88.519821,9.546593,76.113991,3.866936,57.759819,0.0,6.752444,33.188302,50.634523,50.851057,62.133326,62.386194,69.504152,68.404105,72.689189,8.61212,286.860724,-35.599817,273.406668
20,-3.252251,-0.014684,-0.034126,-0.015709,0.0,18.972038,-4.110214,41.971321,-11.186531,46.163475,-16.876762,34.737373,-21.960068,13.755867,0.0,-12.35606,5.957778,21.186875,24.707056,41.881476,40.094789,49.851392,52.027488,53.972515,0.0,70.373245,25.61214,89.873725,17.115154,88.540214,9.504947,76.19387,3.771125,57.826583,0.0,6.718123,33.109867,50.54638,50.766446,62.003242,62.329396,69.402325,68.411305,72.655645,5.242521,286.811814,-35.751291,273.356733
21,4.895222,-3.341451,0.020565,0.014005,0.0,12.715221,-9.879009,37.832714,-17.094361,41.373676,-22.685635,29.897701,-27.656925,8.822605,0.0,-10.880879,8.756554,25.306628,27.75297,45.772617,42.885908,53.311996,54.443857,57.013699,0.0,70.366024,25.507804,89.89516,16.976898,88.561466,9.341857,76.202671,3.590858,57.754795,0.0,6.638737,33.031271,50.399537,50.671289,61.935169,62.246366,69.356259,68.365721,72.612395,10.017735,283.448788,-35.850734,273.349163
22,-5.622528,3.708199,0.081859,0.059947,0.0,19.542858,-4.163395,43.831455,-11.49448,46.879474,-17.278027,34.728183,-22.351879,13.554256,0.0,-13.386699,5.426429,22.692548,23.803141,42.732755,38.908428,50.080041,50.664484,53.770406,0.0,70.431244,25.510403,89.828934,16.9216,88.300484,9.231743,75.953133,3.445759,57.61892,0.0,6.59345,32.955059,50.293253,50.60198,61.919435,62.178182,69.325495,68.302835,72.546471,4.286694,287.140855,-35.877388,273.392978
23,2.172809,-3.579165,0.206074,-0.053637,0.0,17.437706,-6.056705,43.177208,-13.342209,45.164337,-19.554393,32.961068,-25.391269,11.660569,0.0,-12.674877,7.789802,24.866631,26.501362,45.214047,41.615196,53.087051,53.33036,56.771538,0.0,70.431049,25.427616,89.740436,16.78577,88.068775,9.072224,75.714466,3.293438,57.535915,0.0,6.601354,32.883663,50.234961,50.535438,61.975863,62.11889,69.389457,68.25777,72.638949,6.333818,283.549059,-35.796999,273.32671
24,0.647415,0.096578,0.129627,-0.167393,0.0,16.930481,-6.757347,43.2128,-14.220233,44.998993,-20.479408,32.714287,-26.302734,11.059479,0.0,-13.826016,7.309569,24.794667,26.053548,45.150419,41.21441,53.175045,53.040195,56.815627,0.0,70.219666,25.398926,89.72461,16.737957,88.018387,9.029045,75.630158,3.241276,57.485207,0.0,6.463675,32.80818,50.254178,50.443863,62.117827,62.046172,69.604052,68.228932,72.905303,6.850627,283.635364,-35.797978,273.149044
25,4.776101,0.474033,0.147789,-0.276481,0.0,11.193649,-10.606865,38.826393,-18.455521,40.18016,-24.668461,27.878494,-30.163388,4.950393,0.0,-14.710751,7.444444,24.37227,26.284631,44.643967,41.335293,52.524987,53.061894,56.152058,0.0,70.116989,25.650307,89.970795,16.991112,88.274735,9.193863,75.606354,3.188587,57.062943,0.0,6.449905,32.680714,49.932643,50.201801,62.372338,61.721982,70.060857,67.906397,73.372099,11.496037,284.088819,-35.78088,272.851985
26,-0.340233,1.974235,0.280472,-0.637338,0.0,12.278801,-9.724423,39.159691,-18.150318,40.540146,-24.231102,28.149536,-29.134518,5.386574,0.0,-15.844835,6.144227,22.966793,24.83378,42.593063,39.790644,50.597805,51.336884,53.873196,0.0,70.336372,25.850235,90.456596,17.108746,88.413437,9.163319,75.297844,2.888008,56.475197,0.0,6.301963,32.106781,49.711724,49.601191,62.723364,61.163054,70.592293,67.476737,73.780639,11.032906,286.036418,-35.623306,272.188011
27,0.918388,-2.889265,0.646843,-1.457186,0.0,10.535179,-10.664772,38.897415,-19.137749,40.614395,-25.23603,29.975853,-29.822788,6.839379,0.0,-13.725672,8.872645,26.595408,27.426112,45.672457,41.860826,53.554613,52.813028,56.919442,0.0,70.27977,25.646782,90.412743,17.010017,88.577408,9.02869,75.370056,2.520756,56.120636,0.0,6.231505,31.232778,49.975732,48.607417,63.674048,60.233241,71.997053,66.747045,75.209902,11.799522,283.125411,-35.128235,270.709083
28,4.348091,-2.073752,1.453457,-2.787686,0.0,3.952492,-13.414203,33.664376,-22.550834,35.041489,-29.105999,24.302948,-33.668266,-4.016784,0.0,-11.840703,10.428348,30.576939,28.636247,47.876157,42.390349,55.274375,52.823847,59.320422,0.0,69.530605,25.032383,88.971805,16.341282,87.329189,7.987415,73.898609,0.747173,54.228367,0.0,6.172386,28.774111,50.303911,45.901626,65.424241,57.866176,74.393179,65.217463,77.586244,16.019851,281.033813,-33.80254,267.903551
29,2.843514,5.338916,2.332042,-4.425195,0.0,-8.694935,-19.615654,17.721737,-27.322083,29.547363,-31.219631,22.223167,-32.35088,-5.684075,0.0,-3.447414,8.987661,29.833081,20.941368,40.429909,29.449784,44.468472,35.696839,46.587314,0.0,68.744614,24.012509,85.93142,14.880124,83.34517,5.716645,68.492707,-2.676898,46.259457,0.0,6.77218,25.909522,50.414494,42.713822,67.232305,54.969044,76.847104,62.836207,78.79796,18.720377,286.348674,-31.613486,263.454301
30,-5.087689,2.23681,2.781086,-4.147306,0.0,-12.596946,-16.365039,13.154709,-21.407741,27.417286,-23.442592,24.312207,-22.882839,1.590466,0.0,6.238051,6.943093,28.184765,11.354382,32.802337,13.47967,32.30637,14.230679,29.251763,0.0,66.007794,21.742974,80.296086,12.450966,76.350049,2.974698,60.67693,-6.036129,38.435864,0.0,9.012424,20.657045,48.707206,35.535967,64.439458,47.014467,73.640689,55.072945,75.357696,13.485002,288.565486,-28.980086,259.286997
31,-1.765937,-2.753982,2.238036,-10.614154,0.0,-21.281514,-15.216443,0.164852,-16.39095,13.914287,-15.723565,15.029685,-12.925736,-0.205868,0.0,7.765756,6.711652,27.162858,9.590827,31.722409,10.833616,31.355846,11.085335,28.817497,0.0,63.238763,23.702179,72.213072,15.160446,67.362476,5.500974,52.150623,-4.352074,31.397461,0.0,9.811541,16.03899,46.720472,30.032121,62.844851,41.58353,72.487919,50.353212,74.241371,11.601964,285.770258,-26.859151,248.631597
32,16.59201,-12.266423,1.454544,-16.631856,0.0,-38.390499,-23.131748,-29.906902,-21.447578,-16.776981,-18.002644,-12.20303,-12.831757,-19.127964,0.0,12.931685,9.746821,32.828643,12.70022,37.104254,14.054011,37.733553,14.312819,34.727197,0.0,60.869768,30.128883,62.447851,23.007202,56.464737,13.148718,42.43032,2.152885,24.736633,0.0,8.892497,11.943258,43.917572,26.218786,61.985866,38.767415,72.655682,48.803437,74.427252,28.156042,273.416937,-25.442539,231.912843
33,12.648994,-11.869751,-0.225209,-19.71561,0.0,-48.362125,-27.153476,-51.82521,-22.223293,-38.082366,-15.447509,-29.195606,-7.296478,-23.962589,0.0,16.872782,12.223976,34.939915,15.039326,39.376484,16.233245,39.785717,15.946748,36.155225,0.0,59.25717,30.432129,56.337634,23.280259,48.970013,13.517928,34.98816,2.776005,18.211911,0.0,5.89286,6.538516,36.04122,20.014278,52.295139,32.55625,62.690994,43.286186,65.263541,40.775836,261.463832,-25.696948,212.113879
34,13.110718,-15.663486,0.596386,-16.152698,0.0,-47.511154,-28.291672,-54.499889,-22.538143,-50.527359,-15.487198,-41.404186,-7.29087,-30.4911,0.0,14.92936,15.202297,33.93405,19.743287,40.264529,22.064472,41.150043,22.203831,37.611818,0.0,55.761446,29.067627,51.768362,22.150944,44.466408,12.716029,31.990002,2.424958,18.101338,0.0,1.042576,-1.270959,18.527421,9.878393,32.575356,21.261421,43.027971,32.400343,48.564797,53.948221,245.81942,-25.038895,195.980255
35,24.414654,-24.437935,-1.088813,-27.542314,0.0,-45.073322,-32.11544,-64.642616,-28.840118,-65.2878,-23.277809,-58.277298,-15.88385,-46.627258,0.0,-0.68049,15.199123,32.188649,26.666545,43.435808,35.30539,50.186116,41.157267,53.608114,0.0,55.162714,28.89537,49.868139,22.164711,43.382675,13.728223,32.859272,5.067798,21.268398,0.0,-2.990072,-6.661097,9.920951,5.890946,24.38346,18.95072,35.251199,32.045537,42.170752,78.537231,221.620481,-25.953352,168.676937
36,25.878067,-24.76793,0.109766,-25.638073,0.0,-38.216057,-35.60257,-63.697414,-36.351906,-66.566242,-34.1269,-63.105686,-29.509598,-56.551414,0.0,-9.072691,12.427345,26.918166,24.530191,37.439596,33.933716,45.569433,40.873289,50.399538,0.0,54.718471,23.411499,50.77074,15.87006,46.09584,8.523319,36.749668,2.291553,25.335434,0.0,-6.395268,-13.179094,1.200854,0.186141,15.017694,14.833363,26.122789,30.049547,33.947122,104.607027,197.656279,-25.651857,143.842592
37,7.914986,-9.338156,2.318916,-22.611686,0.0,-33.276947,-31.927025,-51.111729,-31.346054,-51.446286,-27.754944,-47.6353,-21.739746,-38.605133,0.0,-18.273516,2.83401,4.910405,9.491544,10.094105,14.861101,14.102262,19.192225,15.65573,0.0,53.375851,12.989204,53.036808,3.195751,49.63258,-3.599888,41.201454,-7.411331,27.226524,0.0,-7.905077,-21.170424,-7.616382,-8.302336,4.57202,7.246424,15.51042,24.357117,24.193472,112.837103,189.644649,-23.017851,122.557432
38,11.934906,-18.846547,6.690662,-15.707242,0.0,-16.980011,-30.27285,-37.910248,-33.922692,-41.570389,-33.919075,-41.8862,-30.916924,-37.227906,0.0,-32.274866,-9.156845,-11.696164,-4.016926,-8.091638,1.400456,-3.486682,6.910871,-0.658754,0.0,47.281655,5.683377,48.618988,-4.531482,47.732003,-10.897842,39.631348,-13.582122,25.316174,0.0,-13.598472,-29.662354,-20.8589,-18.350246,-2.828545,-3.109059,8.478332,14.233143,16.332515,125.349352,172.68575,-15.749846,108.737838
39,13.304557,-24.644195,7.306126,-21.64967,0.0,-3.645744,-25.451042,-34.321769,-32.768737,-42.047882,-36.524208,-45.571311,-37.098701,-44.465881,0.0,-47.184984,-17.527595,-24.818416,-9.697241,-19.23474,-0.877448,-11.366429,8.617839,-4.244223,0.0,40.99371,0.470718,43.311893,-10.603386,42.585537,-16.942795,34.241169,-19.068569,21.262756,0.0,-21.291029,-36.511863,-23.903374,-25.023026,-1.556882,-8.91524,10.542827,9.434877,16.324043,139.306549,149.941695,-7.79108,88.988308
40,5.046616,-14.205774,9.53207,-13.289682,0.0,4.851654,-22.545662,-29.806709,-31.352989,-38.571304,-36.729057,-43.882896,-39.195648,-45.547188,0.0,-51.64744,-22.81642,-38.001766,-16.5181,-35.017893,-8.396556,-27.399257,1.192684,-18.93335,0.0,36.220917,-5.549492,38.861252,-17.436218,36.258774,-24.596054,26.578423,-27.296139,13.74234,0.0,-32.21716,-43.267335,-35.202447,-33.562362,-8.50134,-18.397801,4.416562,-0.371584,9.27816,145.153873,137.509387,2.541698,77.472092
41,2.665192,-10.936566,11.689739,-12.470959,0.0,9.3815,-19.455643,-30.175896,-28.904892,-39.546135,-35.324021,-45.50544,-39.277176,-48.133873,0.0,-55.780321,-26.785403,-49.40062,-21.553136,-48.545723,-14.028243,-41.382298,-4.655031,-31.527791,0.0,28.666157,-10.749447,32.456944,-23.24612,26.681706,-31.192451,15.341183,-34.889614,3.020977,0.0,-41.801775,-48.700784,-45.083575,-40.846274,-14.597544,-27.356699,-1.538333,-10.746307,2.98428,148.841366,127.850851,15.253738,66.279163
42,5.074218,-19.90682,11.497055,-9.318526,0.0,22.922768,-19.030265,-29.041625,-34.172584,-44.31269,-46.14933,-56.12297,-55.46759,-67.039215,0.0,-61.178085,-28.332108,-50.529183,-18.906476,-45.442339,-7.309298,-34.717465,5.871618,-19.733962,0.0,24.423489,-14.677768,28.051953,-27.059909,18.654225,-35.512035,4.868832,-40.073604,-5.719471,0.0,-52.225177,-53.294385,-56.369766,-47.574537,-22.363919,-36.45674,-9.576433,-21.911091,-6.181667,155.080467,108.578158,27.915676,57.594764
43,-0.869842,-7.356568,9.485676,-12.496783,0.0,23.727676,-16.256836,-31.345573,-31.163155,-46.702583,-43.346077,-58.63726,-53.064354,-69.57122,0.0,-61.932724,-27.962,-57.976937,-18.417807,-53.381002,-6.708484,-42.341269,6.735241,-25.370873,0.0,25.079727,-15.629665,29.094475,-28.00835,12.984581,-36.488777,-0.614685,-41.185661,-8.937149,0.0,-57.044969,-55.043657,-57.859284,-49.277403,-24.93636,-38.70648,-12.48723,-24.727224,-9.346555,155.08235,101.625638,38.273077,45.502029
44,-2.287376,-5.396035,9.667626,-9.358065,0.0,24.514137,-15.69143,-31.60318,-30.662041,-46.887497,-43.032692,-58.960717,-53.201477,-69.704041,0.0,-62.195923,-28.679201,-61.422252,-19.549446,-57.867651,-7.924233,-46.539606,5.587573,-28.783738,0.0,26.980545,-16.295151,30.043327,-28.222744,10.778709,-36.29646,-2.661896,-40.515816,-11.000176,0.0,-58.284911,-55.976421,-58.530937,-50.356189,-26.06714,-40.236223,-14.690047,-26.865351,-11.720333,153.562117,96.81832,48.707846,36.732681
45,-2.367783,-4.270732,9.706741,-6.716889,0.0,25.29245,-16.04908,-31.97477,-30.987602,-47.226563,-43.312546,-59.447937,-53.463707,-69.79612,0.0,-61.013921,-29.37687,-63.374751,-20.415489,-59.598874,-8.75661,-48.307638,4.827634,-30.572889,0.0,27.021698,-16.455345,30.282944,-28.423119,8.905495,-36.20319,-4.108063,-40.03664,-12.701111,0.0,-58.626576,-57.521281,-57.99976,-52.403147,-25.903372,-42.641654,-15.504571,-29.687684,-12.738301,151.697228,93.2069,58.917481,30.675104
46,-2.235649,-3.22494,7.722404,-2.802135,0.0,26.156067,-15.901611,-31.41806,-30.963158,-47.187378,-43.256218,-59.734245,-53.293923,-69.504776,0.0,-59.566924,-29.755678,-64.469728,-20.954114,-60.837575,-9.215496,-49.515556,4.749915,-31.755953,0.0,29.145127,-16.892509,31.468598,-29.045471,8.235901,-36.781047,-4.156013,-40.340869,-12.678726,0.0,-59.129601,-59.472896,-57.818714,-55.160877,-25.496424,-45.704709,-16.373356,-32.616808,-14.246326,149.480124,90.728782,66.65843,28.619791
47,-1.125275,0.662007,6.324669,-2.269266,0.0,25.831421,-14.606186,-31.410782,-29.788902,-47.413055,-42.278137,-59.38797,-52.462349,-69.15097,0.0,-60.087282,-29.225432,-67.395579,-20.909745,-65.025042,-9.676598,-52.655459,3.765269,-33.707148,0.0,26.96006,-18.020118,31.107857,-30.380584,7.79979,-37.853714,-4.021385,-40.823959,-12.652839,0.0,-59.421742,-60.858884,-54.556297,-56.57104,-24.042899,-46.754442,-15.712707,-33.081511,-13.26552,147.881281,92.358115,72.509531,27.317851
48,-3.429313,-2.876192,4.793816,-0.639734,0.0,28.61325,-16.283318,-31.891869,-31.641335,-46.359284,-44.016633,-56.493371,-53.834908,-65.037964,0.0,-57.677645,-33.885026,-68.112347,-26.780209,-66.193218,-16.318485,-53.387955,-3.361612,-36.766461,0.0,24.687469,-18.227829,30.327599,-30.91436,8.619301,-38.396965,-3.20137,-41.041351,-12.61187,0.0,-59.077774,-61.46255,-51.948059,-57.114932,-23.464533,-46.835779,-14.881954,-32.532019,-11.813422,143.973748,90.145687,76.825127,27.341881
49,-1.441933,-3.062814,3.598846,0.685541,0.0,30.417068,-15.922302,-30.879318,-31.279999,-45.776482,-43.666397,-56.506256,-53.329147,-64.449669,0.0,-54.400008,-33.002205,-66.526695,-25.784441,-64.817561,-15.564451,-53.336233,-3.001743,-35.384437,0.0,23.161446,-17.815521,30.729401,-30.475044,9.556893,-37.988571,-2.066825,-40.622795,-11.073715,0.0,-58.105878,-60.870543,-49.351819,-56.326275,-22.909829,-45.670074,-13.879233,-30.880813,-10.230247,142.01552,87.450569,79.907678,28.395118
50,0.366302,-0.75556,3.694451,1.997175,0.0,31.138459,-15.536361,-30.173996,-30.881263,-45.317276,-43.400253,-57.232498,-53.337753,-64.865226,0.0,-53.269011,-32.368819,-66.000804,-25.062368,-64.378478,-14.824242,-54.032598,-2.167791,-35.473351,0.0,21.399032,-17.137024,30.771698,-29.622895,11.242103,-37.213921,-0.341286,-40.124108,-9.288918,0.0,-55.820582,-59.185473,-45.613548,-53.995308,-21.828746,-42.834415,-11.802363,-27.665173,-8.240722,141.887666,86.908873,83.107973,30.606157
51,0.838303,-0.036822,3.17736,4.012227,0.0,31.877563,-15.030396,-29.841911,-30.315582,-44.935661,-42.926079,-57.413956,-53.042381,-64.978706,0.0,-52.261145,-31.632025,-65.499131,-24.188871,-63.825775,-14.013558,-54.135147,-1.495057,-35.201538,0.0,20.076004,-16.542778,30.464722,-28.93975,12.229683,-36.503059,0.968949,-39.52082,-7.116394,0.0,-53.756093,-57.346595,-43.451549,-51.285527,-22.564836,-39.486061,-11.600309,-23.957067,-7.480989,142.644756,86.936722,86.20412,34.683055
52,-0.323158,-1.593327,2.346154,5.51315,0.0,33.308052,-20.614746,-28.92865,-36.48951,-43.097924,-48.89589,-54.538239,-58.215615,-61.976281,0.0,-49.242977,-39.555214,-66.197343,-32.454312,-62.235715,-21.941903,-53.38822,-8.592878,-36.708347,0.0,20.154304,-16.070183,30.226158,-28.631104,12.500541,-36.129273,1.272285,-39.151543,-6.132592,0.0,-50.609878,-55.389508,-42.548077,-48.689267,-22.79911,-36.516476,-11.698739,-20.910097,-7.259637,142.419297,85.317395,88.647973,40.170205
53,1.471183,2.578858,1.298904,6.034726,0.0,32.942254,-20.919479,-29.426628,-37.49105,-43.285034,-50.894165,-55.840988,-61.311378,-64.371986,0.0,-50.340017,-42.539927,-65.781788,-35.474167,-60.28124,-24.722148,-52.185977,-10.831146,-36.041276,0.0,20.766266,-16.495949,28.705765,-29.357758,11.733856,-36.968514,0.456436,-40.372078,-6.668678,0.0,-46.636097,-53.2174,-42.336811,-46.058107,-22.970381,-33.665466,-11.847341,-17.996947,-7.307568,143.965232,87.808635,90.021629,46.117313
54,1.452576,2.490777,-1.515381,7.59564,0.0,32.558876,-21.260719,-30.365799,-37.851814,-42.555839,-51.186287,-54.306656,-61.449486,-63.526565,0.0,-51.623338,-44.344255,-65.850985,-37.33354,-60.22958,-26.408299,-52.790446,-12.196725,-39.34254,0.0,21.91111,-17.613579,26.536606,-31.124725,9.591637,-38.888008,-2.01123,-42.304642,-9.319656,0.0,-44.016465,-52.260052,-43.965515,-44.811471,-23.061333,-32.285387,-11.92874,-16.874874,-7.160281,145.325517,90.208145,88.413957,53.621686
55,0.94265,1.276523,-4.207077,8.159496,0.0,32.952232,-20.672562,-29.504631,-37.399635,-41.870636,-50.90007,-52.674591,-61.131294,-62.39724,0.0,-51.488624,-44.204193,-64.82465,-37.259013,-59.505359,-26.510878,-51.838075,-12.676143,-39.499096,0.0,22.772255,-18.767509,25.107514,-32.978645,7.590294,-40.906425,-4.350037,-44.051628,-11.718086,0.0,-43.095026,-52.816788,-46.095997,-45.231553,-23.474141,-32.608386,-12.387775,-17.341899,-7.515093,146.002962,91.397047,83.941675,61.693561
56,0.664124,1.637837,-5.267441,7.722809,0.0,33.34497,-20.125855,-28.610665,-37.083321,-40.686585,-50.84562,-51.149758,-61.211289,-61.182015,0.0,-51.571456,-44.135181,-65.032014,-37.334386,-59.850889,-26.801624,-52.052961,-13.332223,-39.990765,0.0,23.942185,-18.517273,25.430489,-33.107574,7.707253,-41.299621,-5.219719,-44.527839,-13.862823,0.0,-43.314622,-53.784609,-47.542858,-46.552771,-22.766432,-34.149281,-11.613993,-19.211004,-7.123262,145.998082,92.975959,78.00523,69.357445
57,2.243454,3.640045,-4.948745,8.091009,0.0,32.708724,-13.928605,-28.677796,-30.23243,-41.318619,-44.249749,-53.132378,-55.574479,-63.498391,0.0,-54.154327,-35.874199,-64.131391,-28.745496,-61.414793,-18.714099,-53.685444,-6.269001,-38.819545,0.0,25.802696,-17.12883,27.144607,-31.729363,8.455009,-40.196091,-4.982483,-43.874268,-14.27694,0.0,-43.895559,-55.25099,-48.960099,-48.612407,-22.677413,-36.493271,-11.232178,-21.812339,-6.906228,147.359133,96.59767,72.174082,77.43012
58,2.870819,2.895341,-3.841736,8.859214,0.0,31.236717,-10.562577,-25.873101,-26.093949,-40.348893,-39.460991,-53.11718,-50.477463,-63.858033,0.0,-55.192253,-27.363936,-64.070085,-19.507536,-63.019019,-9.561051,-55.24303,2.183148,-37.95168,0.0,26.777298,-15.013115,29.023063,-29.443932,9.610496,-37.953438,-4.035347,-41.591721,-13.151802,0.0,-45.879945,-57.516557,-50.037322,-51.651132,-23.663734,-39.904808,-11.572861,-25.450451,-6.975148,149.324479,99.484255,67.426873,86.280578
59,1.655433,3.504274,-2.402298,8.251658,0.0,30.755104,-9.705551,-24.650139,-25.277847,-40.349464,-38.878555,-53.627174,-50.380394,-64.061897,0.0,-56.903672,-25.734707,-65.437097,-18.100417,-64.502727,-8.494733,-55.157222,2.755538,-37.048401,0.0,26.872375,-13.912354,31.217193,-27.919602,11.948753,-36.108376,-1.905236,-39.337967,-11.003014,0.0,-48.766949,-58.993429,-51.348166,-53.74562,-25.381272,-42.41713,-12.907423,-28.19517,-7.872764,150.146255,102.90574,64.190918,94.449447
60,0.831894,2.732431,-1.882164,6.998674,0.0,30.420296,-9.847503,-25.010422,-25.32312,-40.447517,-38.761024,-53.655395,-50.15847,-63.563965,0.0,-58.005101,-25.846808,-66.684258,-18.236558,-65.404098,-8.65185,-55.327332,2.58289,-36.786802,0.0,27.451149,-13.562371,32.395683,-27.120873,12.851555,-34.893311,-0.475067,-37.67363,-9.447258,0.0,-51.059847,-59.259838,-52.403814,-54.53227,-26.151169,-43.514428,-14.153336,-29.443356,-8.507947,150.210291,105.453751,61.540896,101.263701
61,0.566139,1.902024,-2.099831,5.269256,0.0,30.40448,-10.098655,-24.889274,-25.34967,-40.67704,-38.507835,-53.834312,-49.646072,-63.234031,0.0,-58.713675,-26.228469,-66.909956,-18.605369,-65.41005,-8.80958,-54.996757,2.746868,-36.556843,0.0,28.046311,-13.90345,32.249291,-27.404137,12.126389,-34.900497,-0.651031,-37.201584,-9.239204,0.0,-51.750483,-58.86192,-52.15425,-54.402323,-25.7404,-43.514911,-14.375144,-29.417705,-8.430747,149.908081,107.15273,58.572716,106.329912
62,0.292855,1.590258,-2.41658,4.209111,0.0,30.275871,-10.318245,-24.994286,-25.448181,-40.804184,-38.441094,-53.778786,-49.346741,-62.843972,0.0,-59.265625,-26.474124,-67.075082,-18.823712,-65.215104,-8.867514,-54.160496,2.883133,-36.144597,0.0,29.321663,-15.196014,30.808823,-28.884361,10.661888,-36.25074,-1.859482,-38.193226,-10.255531,0.0,-52.896082,-58.310605,-51.926026,-53.831699,-24.869996,-42.965924,-13.997484,-28.827296,-8.137531,149.439915,108.533114,55.395115,110.329149
63,0.078872,1.35791,-2.864479,2.664444,0.0,30.205239,-10.370155,-24.836128,-25.386154,-40.610962,-38.282272,-53.473709,-48.984352,-62.367897,0.0,-59.68612,-26.589289,-67.200244,-18.8674,-65.155212,-8.761926,-53.625564,3.110751,-35.726213,0.0,31.479927,-16.845566,29.825043,-30.812256,9.482139,-38.156708,-3.047081,-39.877842,-11.827286,0.0,-53.849533,-57.58965,-50.866148,-52.732696,-23.026129,-41.598591,-12.759098,-27.344861,-7.294916,148.687442,109.679424,51.699291,112.781993
64,0.126915,1.19011,-2.891968,2.096958,0.0,29.857727,-10.582077,-24.897468,-25.40895,-40.349304,-38.127182,-53.155723,-48.650482,-62.126358,0.0,-59.925694,-26.890502,-67.374442,-19.213789,-65.176566,-8.948141,-53.284678,3.207001,-35.258195,0.0,34.810043,-17.305,29.076393,-31.686653,8.226013,-39.239422,-4.038734,-41.062672,-12.981697,0.0,-54.017328,-57.579721,-49.2437,-52.538319,-20.573261,-41.106249,-11.215456,-26.498615,-6.322051,147.988597,110.742479,47.981563,114.751896
65,-0.138038,1.029787,-1.84259,2.053726,0.0,29.873565,-10.386498,-24.628144,-25.132302,-39.848488,-37.843689,-52.61277,-48.390129,-62.003884,0.0,-60.256015,-26.920753,-67.472094,-19.445705,-65.438734,-9.25819,-53.580073,2.868072,-35.826379,0.0,35.286964,-16.974999,29.203079,-31.72728,7.89553,-39.606022,-4.638977,-41.851811,-13.776215,0.0,-54.694946,-58.081585,-48.61492,-52.980365,-18.846146,-41.307815,-10.012372,-26.327511,-5.403717,147.134274,111.7293,45.422688,116.762656
66,0.024925,0.85452,-1.11747,2.681302,0.0,29.394928,-10.319847,-25.009758,-25.039398,-40.018616,-37.779831,-52.561775,-48.407272,-62.206444,0.0,-60.461798,-26.708084,-67.311518,-19.327496,-65.263195,-9.293264,-53.532019,2.630586,-36.06639,0.0,35.761917,-16.199158,29.891327,-31.023903,8.158104,-39.0229,-4.275101,-41.556736,-13.392769,0.0,-55.764365,-59.097627,-49.002386,-54.07031,-19.001992,-42.291752,-10.40455,-27.121652,-5.664897,146.748402,112.547857,43.894421,119.407995
67,-0.089928,0.668949,-0.363236,1.884141,0.0,29.298111,-10.144294,-24.92221,-24.876548,-40.039283,-37.670974,-52.391876,-48.325264,-62.174652,0.0,-60.736421,-26.322132,-66.949247,-18.972728,-64.975785,-9.045843,-53.295682,2.670933,-36.064668,0.0,34.842408,-15.242225,30.673325,-30.124099,8.610856,-38.196361,-3.550071,-40.877986,-12.575637,0.0,-56.661363,-59.951456,-49.146097,-55.165077,-18.410639,-43.344745,-10.497805,-28.013229,-5.71229,146.352682,113.172395,43.225393,121.247725
68,0.106957,0.661124,0.045548,1.316975,0.0,28.945816,-10.238411,-25.019394,-24.978813,-40.022827,-37.749939,-52.335503,-48.296059,-62.370003,0.0,-61.134019,-26.391947,-66.815199,-19.041746,-64.768605,-9.03595,-52.885356,2.779349,-35.596383,0.0,32.829254,-14.36618,31.607758,-29.247276,9.258156,-37.343411,-2.802521,-40.099743,-11.645279,0.0,-57.065389,-60.692819,-49.420849,-56.125727,-17.459212,-44.308576,-10.499922,-28.869818,-5.689535,146.276201,113.806753,43.087503,122.537934
69,0.095672,0.471638,0.09874,0.613194,0.0,28.728218,-10.097259,-24.968696,-24.908203,-39.906395,-37.747375,-52.26194,-48.286949,-62.57753,0.0,-61.615908,-26.096243,-66.396242,-18.716915,-64.275597,-8.776593,-52.328751,2.895674,-35.218854,0.0,30.891586,-13.949685,32.415939,-28.828148,9.501869,-36.852677,-2.326401,-39.610588,-10.818764,0.0,-56.704607,-61.151315,-49.451372,-56.564859,-16.438583,-44.575319,-10.348906,-28.891659,-5.429923,146.238109,114.291936,43.052479,123.164673
70,0.142731,0.461701,-0.012085,0.441139,0.0,28.591622,-9.991928,-24.793442,-24.91159,-39.598251,-37.87722,-52.160431,-48.470947,-62.719459,0.0,-61.923331,-25.870742,-65.958394,-18.433288,-63.899141,-8.578256,-51.791108,2.969923,-34.941736,0.0,31.143333,-13.763329,32.808357,-28.622338,9.525741,-36.563988,-2.094612,-39.247811,-10.222092,0.0,-56.245295,-61.486145,-49.149851,-56.904024,-16.226502,-44.875439,-10.500398,-29.117505,-5.666842,146.225395,114.829973,42.884949,123.682148
71,0.266831,0.510361,0.156578,0.159791,0.0,28.667701,-9.937523,-24.430527,-24.878449,-39.162323,-37.85566,-51.946381,-48.402649,-62.735116,0.0,-62.340431,-25.851612,-65.637792,-18.385697,-63.596138,-8.487582,-51.160019,3.182024,-34.158278,0.0,30.900901,-14.19532,33.037994,-29.071656,9.486099,-36.926743,-2.119446,-39.407982,-10.078904,0.0,-56.144431,-61.608441,-48.610992,-57.034588,-15.956664,-45.025732,-10.371018,-29.215416,-5.649551,146.349009,115.446597,42.89831,123.948202
72,0.388778,0.574508,-0.062119,0.25808,0.0,28.415337,-9.794357,-24.14463,-24.803123,-38.819664,-37.854309,-51.766479,-48.45021,-62.840332,0.0,-62.522107,-25.644428,-65.331844,-18.179266,-63.32971,-8.309259,-50.660631,3.343593,-33.554118,0.0,31.591599,-14.392708,33.402329,-29.244575,9.704888,-36.974441,-1.901298,-39.223972,-9.66703,0.0,-55.396257,-61.689304,-48.361144,-57.080345,-16.248194,-45.022762,-10.511945,-29.10316,-5.679753,146.635786,116.112246,42.73419,124.297423
73,0.403542,0.904402,-0.244469,0.491774,0.0,28.6726,-9.388344,-24.028427,-24.469826,-38.634659,-37.63575,-51.686257,-48.384453,-62.635071,0.0,-62.825974,-25.250818,-65.188452,-17.691703,-63.260166,-7.87138,-50.484216,3.655446,-33.403879,0.0,33.02044,-14.551116,33.893235,-29.371765,10.179497,-37.022712,-1.552711,-39.196472,-9.254859,0.0,-54.838034,-61.779731,-48.349708,-57.040171,-16.325747,-44.893426,-10.47445,-28.858338,-5.827201,146.989735,117.085854,42.440128,124.858403
74,0.599991,1.045953,-0.186447,0.464635,0.0,28.676239,-9.269188,-24.178986,-24.320343,-38.981736,-37.47416,-51.729149,-48.265412,-62.347756,0.0,-62.824165,-25.037797,-64.773489,-17.281112,-62.983296,-7.321548,-50.102543,4.300849,-32.678441,0.0,32.802452,-14.627586,34.566491,-29.461944,10.466996,-37.082657,-1.450584,-39.1306,-9.206932,0.0,-54.422929,-61.863458,-48.142585,-57.02829,-16.717498,-44.808186,-10.462026,-28.656057,-5.756639,147.570883,118.144034,42.234838,125.335265
75,0.78511,1.440755,-0.281547,0.489051,0.0,28.440857,-9.270698,-24.664192,-24.216247,-39.838829,-37.27343,-52.142761,-48.028931,-62.212463,0.0,-62.649838,-24.80117,-64.256318,-16.813205,-62.480561,-6.677572,-49.833849,5.042674,-32.074294,0.0,33.598343,-14.3069,35.3974,-29.173371,11.055679,-36.888016,-1.414215,-38.978428,-9.461518,0.0,-54.557218,-61.993153,-47.638152,-57.122713,-16.986828,-44.819042,-10.379472,-28.574225,-5.6744,148.317644,119.54575,41.914942,125.785277
76,0.631096,1.645537,-0.672501,0.494621,0.0,28.087509,-8.82502,-25.648132,-23.701744,-41.179756,-36.769501,-53.055977,-47.683228,-62.371468,0.0,-62.167369,-23.619718,-63.227056,-15.218994,-61.53754,-5.020951,-49.244817,6.403598,-31.286624,0.0,33.94677,-13.987518,36.214142,-28.870056,11.34803,-36.604717,-1.427902,-38.662147,-9.483856,0.0,-53.861846,-62.291976,-47.469283,-57.268351,-17.443139,-44.796905,-10.418073,-28.433836,-5.533127,148.769188,121.146521,41.062889,126.235132
77,0.37738,2.837592,-0.705643,0.356219,0.0,27.165505,-8.777984,-27.185714,-23.415092,-43.028503,-36.315445,-54.053764,-47.317131,-62.815544,0.0,-62.227137,-22.943359,-62.619648,-14.152225,-60.730795,-3.842858,-48.706564,7.451021,-30.356317,0.0,32.608796,-14.485496,36.255799,-29.275291,11.145539,-36.886688,-1.727417,-38.682975,-9.86547,0.0,-53.90869,-62.391294,-46.672573,-57.05249,-17.745104,-44.454448,-10.322927,-28.077893,-5.215118,148.896886,123.962816,40.107564,126.570054
78,0.301049,3.367942,-0.67131,0.150536,0.0,24.251541,-9.000985,-30.364678,-23.236908,-46.392083,-35.903687,-56.27472,-46.951767,-64.368325,0.0,-61.976882,-21.880437,-61.47374,-12.410647,-58.832847,-1.859077,-47.331648,9.32375,-28.554502,0.0,30.294411,-14.963379,35.448486,-29.738846,10.304718,-37.305977,-2.437111,-38.903263,-10.493019,0.0,-53.602069,-62.083957,-45.452916,-56.495922,-17.292092,-43.766914,-10.030188,-27.418289,-4.704715,148.784953,127.337961,39.023272,126.727793
79,-0.346367,4.276154,-1.286819,0.532331,0.0,19.083893,-9.22284,-35.504746,-22.667359,-51.337692,-34.722084,-60.026619,-45.486878,-67.199364,0.0,-62.274062,-20.208304,-59.9468,-9.759245,-55.876861,1.399116,-44.257582,12.770041,-24.462734,0.0,29.18843,-15.638031,34.470497,-30.347786,10.066154,-37.763901,-2.706047,-39.104187,-10.692971,0.0,-52.500348,-61.2195,-44.73734,-55.34879,-17.072093,-42.55411,-9.667552,-26.410731,-4.251843,147.942507,131.614399,37.240374,127.260408
80,-1.012253,4.643415,-2.442284,0.663187,0.0,10.01358,-10.722267,-42.662041,-22.761635,-58.463013,-33.409515,-65.598358,-42.938713,-70.893929,0.0,-61.102947,-17.80633,-56.519183,-6.219341,-50.067901,5.731519,-37.433557,17.548071,-16.244335,0.0,28.054161,-16.479561,33.203705,-30.833874,9.613495,-37.792225,-2.653564,-38.60384,-10.247406,0.0,-50.011022,-59.868012,-43.905265,-53.468693,-16.932815,-40.500384,-8.999326,-24.494177,-3.013105,146.359171,136.167093,34.227007,127.832874
81,-2.180534,5.957025,-2.76606,1.485925,0.0,-1.381531,-11.469269,-51.028405,-22.011887,-66.386238,-31.184967,-71.337983,-39.350808,-73.742157,0.0,-59.079342,-16.546714,-51.530095,-3.991182,-42.83079,8.895789,-29.622938,21.379129,-8.260167,0.0,27.167198,-17.203674,31.255623,-31.257889,9.257469,-37.974243,-2.773704,-38.556438,-10.239258,0.0,-47.626246,-57.934767,-42.461849,-51.064046,-16.078368,-37.997338,-7.52819,-22.184613,-1.271286,143.681088,141.806727,30.963398,129.001408
82,-3.352456,6.774292,-3.899231,2.49347,0.0,-13.94712,-12.359481,-54.847274,-21.180358,-72.0065,-28.751586,-76.254432,-35.215393,-73.342712,0.0,-53.066767,-15.111993,-46.453662,-2.005777,-35.024173,11.208354,-21.548868,23.354352,-1.363153,0.0,27.804268,-16.911735,30.164314,-30.661308,8.90316,-37.252178,-2.882904,-38.041569,-10.066543,0.0,-44.086855,-55.497819,-40.929859,-47.938994,-14.312851,-34.548084,-5.112373,-18.748216,1.364653,139.691511,148.114112,26.427046,131.027971
83,-6.443985,8.002606,-5.802681,3.518365,0.0,-28.793724,-15.941505,-65.971504,-22.4038,-80.930305,-27.748855,-83.382751,-32.003356,-76.680816,0.0,-44.307995,-10.695968,-33.083888,4.095942,-19.612258,18.398696,-5.811893,30.868426,12.369472,0.0,30.769066,-14.527519,31.257637,-27.912483,10.746506,-34.520565,-1.027267,-35.722709,-8.068909,0.0,-39.350536,-52.670829,-38.124717,-44.419504,-13.441694,-30.699192,-2.728028,-14.723743,3.990423,132.599893,155.531772,19.976732,133.96139
84,-6.994148,8.320016,-7.254307,1.477292,0.0,-42.190086,-19.95092,-75.144264,-23.53846,-88.085838,-25.982689,-87.687698,-27.305694,-76.464088,0.0,-32.680368,-5.998546,-15.455399,9.955747,0.131893,24.92112,13.217664,37.645707,28.466335,0.0,34.640637,-10.476768,32.597821,-22.910774,13.872586,-29.082149,3.012761,-30.404754,-3.536808,0.0,-31.048329,-46.165015,-30.25822,-36.491677,-8.735238,-22.281703,2.792286,-6.276559,9.782982,124.940798,163.174303,12.057478,134.761197
85,-7.704414,10.96018,-7.494163,3.080222,0.0,-52.087532,-23.464691,-81.906647,-24.537392,-91.988045,-24.244194,-88.382652,-22.655571,-72.055023,0.0,-20.761242,-1.187794,3.22878,14.788211,19.131982,29.410486,29.774023,41.438935,40.536626,0.0,39.93449,-6.312298,37.455311,-17.995148,21.056087,-23.984516,9.768276,-25.843002,2.037289,0.0,-23.069818,-38.85749,-21.275086,-28.233128,-1.545069,-13.585331,9.907952,2.51318,16.298947,116.49396,173.324719,3.820891,137.031655
86,-10.480454,12.532851,-5.540234,4.500444,0.0,-59.683136,-28.606865,-86.026806,-26.60662,-93.348358,-23.021827,-87.606926,-18.258087,-67.917549,0.0,-5.377757,7.334059,24.929716,23.680258,41.174508,37.673679,50.946831,48.429193,57.562795,0.0,42.383423,-1.818203,41.367508,-13.211174,28.248162,-19.879738,16.424355,-23.20586,7.151665,0.0,-14.809206,-31.461946,-11.21201,-21.220356,7.001459,-7.243231,18.112162,8.081524,23.598525,105.055812,185.108815,-2.677037,140.783344
87,-9.422538,12.584907,-7.658134,7.811897,0.0,-65.884781,-32.642212,-94.462326,-27.855332,-96.925164,-21.453003,-87.326043,-14.077217,-66.533776,0.0,7.163937,15.761397,47.6254,33.022749,64.391304,47.271644,73.604614,58.006225,77.398547,0.0,48.522056,5.422909,46.516525,-5.236519,36.12117,-12.330792,24.339317,-16.757229,13.551796,0.0,-10.237175,-22.252873,-0.128305,-11.164426,15.327316,3.039744,25.91766,18.221941,30.804724,94.748137,196.92102,-11.220308,147.822539
88,-7.621079,12.806677,-6.428021,10.440907,0.0,-67.996261,-33.548149,-94.167251,-26.68705,-95.53648,-18.19487,-83.794865,-8.769012,-60.394112,0.0,16.880105,20.600617,61.752227,37.261878,78.964611,50.829185,88.115516,60.744473,89.569578,0.0,52.724819,8.303604,53.249417,-2.325279,45.537106,-10.143814,33.470684,-15.652828,19.367695,0.0,-6.486312,-13.989901,11.482156,-2.411606,26.635695,11.632518,35.829664,26.167404,39.773614,86.347469,208.920302,-18.427918,157.456051
89,-7.536095,13.159025,-4.29451,14.214599,0.0,-65.309577,-34.642593,-94.008647,-26.981735,-94.145885,-17.464393,-81.378959,-6.754737,-56.615341,0.0,18.005161,25.541107,70.577967,41.216017,87.285628,53.640768,96.688721,62.284874,96.182788,0.0,55.892338,9.863766,59.581799,-1.691425,52.874005,-11.266124,39.207379,-18.708343,20.59766,0.0,-5.625981,-8.101468,21.708951,2.87531,37.63532,15.979834,44.569472,29.505274,47.273794,78.132848,221.219606,-23.400954,170.810929
90,-7.518791,11.00837,-4.270397,16.296181,0.0,-63.353393,-33.681564,-93.880005,-25.470474,-93.260959,-15.675888,-80.033592,-4.868454,-55.432342,0.0,20.094028,30.152627,74.068791,45.340845,91.197306,56.893272,102.222743,64.272039,102.437017,0.0,57.04596,12.273262,62.545555,-0.291778,56.437958,-11.597912,42.252182,-20.888889,19.918225,0.0,-6.364652,-3.186704,29.84206,7.135396,45.103489,18.976285,51.126266,31.120578,53.019966,70.10095,231.512901,-28.184458,186.392035
91,-5.383529,8.965777,-6.007278,16.883699,0.0,-60.806878,-31.484093,-94.187165,-23.642922,-93.40075,-14.361901,-79.09401,-3.759797,-53.485245,0.0,18.271206,32.814811,72.634749,46.309857,87.154531,56.440765,99.339505,62.401434,101.649885,0.0,60.569206,17.990627,66.133278,6.284797,58.499817,-5.129963,44.138786,-15.218502,21.15057,0.0,-6.998063,3.855251,41.709056,16.63813,58.346334,29.900624,65.219241,42.482764,67.812882,64.460953,239.882412,-34.448204,202.679468
92,-5.333153,7.460314,-3.802391,14.884134,0.0,-59.377487,-30.043236,-93.564926,-23.047348,-92.959122,-14.489136,-79.834557,-4.274346,-53.745106,0.0,13.149145,34.571697,62.201807,47.066003,76.493545,56.132829,91.62268,60.939456,99.272543,0.0,61.325683,17.235649,70.884247,5.235466,64.576812,-6.134869,49.583656,-15.998543,25.060558,0.0,-5.255133,7.375235,48.677096,21.549758,65.94077,35.255817,71.99982,47.358503,74.593115,58.947207,246.916998,-38.431188,217.137874
93,-10.697869,15.2288,-4.319584,12.986136,0.0,-54.07521,-30.966682,-78.673851,-26.446735,-75.798809,-19.905166,-65.036281,-11.397422,-49.272686,0.0,16.367799,30.792572,50.712192,37.574805,59.879165,41.284251,70.555959,41.927739,76.448616,0.0,62.376629,19.324116,72.831447,7.821853,67.551006,-3.218754,52.158703,-13.135391,27.527412,0.0,-3.590008,11.952373,53.681474,26.793949,71.231274,40.377199,77.983274,51.776943,80.975502,48.019374,261.872638,-42.980736,229.85085
94,-7.836067,13.272621,-4.752251,12.256506,0.0,-56.957828,-34.869186,-63.273365,-32.068382,-58.971599,-26.62627,-50.599159,-18.941814,-46.264354,0.0,26.010867,24.413754,41.094578,27.59437,46.783977,28.264152,54.353466,26.932171,60.631285,0.0,63.292431,21.012428,75.631428,10.512257,71.110279,0.513039,56.34438,-8.764515,33.398632,0.0,-2.571818,16.011536,56.674306,31.77738,74.472911,45.623069,82.935435,56.555733,86.160819,39.911401,275.035986,-48.004893,241.998083
95,-5.941818,13.535394,-3.305477,9.459546,0.0,-59.310997,-40.132027,-47.881714,-38.870224,-41.530117,-34.032062,-35.818199,-26.466591,-45.996002,0.0,30.950344,16.645787,34.756775,16.384212,35.977124,14.305064,39.978118,11.250863,42.233676,0.0,63.716995,22.26408,78.287888,12.734917,74.512299,3.684483,60.533752,-4.864094,39.731495,0.0,-0.283583,20.288258,60.164649,37.49464,79.148479,51.867246,88.185282,62.55544,91.519372,33.662395,288.521245,-51.617558,251.407494
96,-3.349205,9.476218,-2.936966,7.786109,0.0,-60.725361,-45.338676,-33.288403,-45.529999,-24.662041,-41.484112,-22.306709,-34.500652,-50.537968,0.0,37.098944,9.935802,31.184329,8.301899,32.133667,5.375016,33.053946,2.35568,32.253191,0.0,64.911255,20.298786,82.613365,10.542652,80.797279,1.846985,67.056999,-5.944862,45.681187,0.0,0.831544,22.141648,57.962518,38.960435,75.902717,52.284741,84.033666,61.814299,86.77179,30.010305,297.932248,-54.857409,259.128388
97,-3.011536,4.075441,-1.715229,6.468949,0.0,-58.610023,-48.537346,-18.489944,-49.330867,-7.416664,-45.546924,-7.532684,-38.74847,-44.972534,0.0,39.120751,8.558126,39.511668,6.959457,38.994632,4.404472,35.776077,2.189744,30.374386,0.0,64.539311,22.011475,84.49847,12.58168,82.596439,3.741016,68.783398,-4.54343,47.317246,0.0,1.785278,25.280754,58.728495,41.234554,77.220607,53.354245,86.487849,61.805728,89.089048,26.666668,301.882308,-56.904739,265.471956
98,3.28624,-6.3483,-0.225174,5.484029,0.0,-60.235497,-47.417587,-18.704613,-46.659119,-8.362656,-41.559414,-7.696449,-33.594624,-40.568115,0.0,32.263281,13.379017,48.425451,16.680601,51.939988,18.685798,51.764221,20.049037,48.761472,0.0,63.93195,23.424774,86.315014,14.257439,84.199734,5.537808,70.702229,-2.669907,49.96376,0.0,2.071541,27.745843,59.370959,43.881238,77.447317,55.637936,87.000501,63.530627,89.531132,29.653009,295.388802,-57.429812,270.810779
99,-0.386673,-4.785485,0.047413,4.856398,0.0,-54.814316,-43.162771,-15.033417,-43.005976,-5.597374,-38.937286,-5.95451,-32.077852,-36.300819,0.0,24.550118,18.493014,54.420416,25.632831,60.629155,30.633021,62.261428,33.952816,59.697607,0.0,63.616196,25.591495,87.730728,16.772964,86.371513,8.039932,72.874466,-0.324944,52.009872,0.0,1.749007,29.156087,58.160639,45.443117,75.641933,57.044265,85.75407,64.76156,88.939069,28.971348,290.431623,-57.677387,275.495483
100,-2.703598,-5.028113,0.298336,4.551586,0.0,-46.13641,-39.530222,-7.590271,-41.876913,-0.624321,-40.586838,-3.486133,-36.334047,-31.597332,0.0,18.15916,23.015687,58.050315,34.806237,67.817124,43.40329,71.442022,49.615054,72.607098,0.0,63.7981,26.75766,89.11092,18.432484,88.802868,9.92062,75.474072,1.69138,54.842754,0.0,1.703064,30.366691,57.046772,46.689104,73.24908,58.175063,83.992911,65.711232,88.307782,25.965998,285.214174,-57.680803,279.857733
101,-6.417801,0.493682,0.331192,4.15458,0.0,-36.516277,-34.718256,2.495957,-38.675108,8.203583,-38.701778,2.841488,-35.676996,-19.94886,0.0,9.849209,24.624879,56.345448,39.919715,68.784939,51.097614,73.5857,59.192136,76.388397,0.0,64.080929,27.816307,90.434406,19.79987,90.373203,11.441299,77.061138,3.391537,56.859936,0.0,2.364411,31.341916,55.708208,47.765006,70.877074,59.098837,81.681012,66.347916,86.787611,19.217926,285.465254,-57.679882,283.769711
102,-3.374176,5.14581,0.395439,3.298991,0.0,-33.004795,-34.310881,8.426514,-40.576956,12.651924,-42.524586,6.687458,-41.265501,-18.519585,0.0,10.262727,21.025052,52.193054,36.576572,64.317729,47.69261,68.42418,55.836865,70.371424,0.0,64.619419,28.270455,91.455242,20.526901,91.859013,12.402867,78.635868,4.64233,58.892201,0.0,3.959486,32.146227,54.445783,48.677356,68.636781,59.823071,79.440053,66.726273,85.063675,15.526949,290.395388,-57.601244,286.853026
103,-5.772675,6.267012,0.404251,2.470869,0.0,-22.748142,-33.747007,18.129616,-42.488519,22.546349,-45.94289,13.885426,-45.875593,-15.184753,0.0,7.598494,16.761297,45.080419,33.553322,58.08279,45.797255,62.918403,55.006965,65.092518,0.0,65.607434,28.446694,92.313664,20.909134,93.05357,13.002743,79.969517,5.613339,60.516003,0.0,5.557673,32.719123,53.098216,49.40606,66.947413,60.475229,77.599384,67.065146,83.59047,9.468595,296.446265,-57.482672,289.10776
104,0.667878,3.131722,0.715405,1.712648,0.0,-23.745449,-36.779515,19.687156,-47.253685,23.225555,-51.574574,12.502601,-52.10265,-20.002098,0.0,8.387373,14.025445,42.860578,31.447892,55.628982,44.360767,60.473154,54.381822,62.530517,0.0,66.091003,28.056106,92.778099,20.384228,93.358909,12.538387,80.233223,5.431022,60.893829,0.0,6.850072,33.06369,52.32221,49.984315,66.126379,61.020126,76.463028,67.27821,82.625805,9.895037,299.361233,-57.008703,290.603654
105,-4.473999,3.45186,0.660312,0.847796,0.0,-20.354519,-33.747025,22.751861,-42.67392,28.753051,-45.339169,18.689895,-44.644661,-9.642174,0.0,11.311058,12.517204,38.80412,29.728168,52.495866,42.749082,57.039202,52.706435,58.139545,0.0,66.53127,27.897973,93.175702,19.927712,93.173665,11.990342,79.828274,4.966988,60.53722,0.0,7.908955,33.242655,51.547058,50.437674,65.733338,61.432348,76.004272,67.378431,81.891012,5.249131,302.614899,-56.520298,291.253256
106,5.770248,-0.03153,0.609982,-0.007583,0.0,-28.020378,-38.761185,17.244553,-47.926838,22.739136,-50.669506,13.208107,-50.075008,-17.891762,0.0,13.021668,11.146925,40.11597,28.105923,52.897503,41.07015,56.948231,51.215681,58.05528,0.0,66.814156,27.464127,93.006638,19.291523,92.792793,11.360744,79.771225,4.449703,60.402626,0.0,8.510812,33.524657,51.361819,50.872385,65.532266,61.836998,76.086647,67.553827,81.805809,10.905476,302.461548,-56.024219,291.123852
107,-1.230537,0.256154,0.562683,-0.011226,0.0,-25.519112,-38.039086,18.767509,-46.446465,24.696144,-48.205651,14.702682,-46.648373,-13.050682,0.0,12.423886,12.077689,38.522179,29.441966,52.425815,42.784711,56.977191,53.118037,58.626483,0.0,67.202728,27.419735,93.08551,19.101517,92.480805,11.095287,79.693359,4.209778,60.34893,0.0,8.360128,33.638796,51.185571,51.0565,65.294305,62.055619,76.094007,67.703127,81.949675,9.611796,302.601247,-55.524679,290.996171
108,4.63607,-1.216274,0.538628,-0.043732,0.0,-34.656017,-42.150765,14.665581,-51.219418,19.307487,-53.554001,9.019203,-52.396603,-20.597923,0.0,15.601081,12.246713,42.005755,29.145281,54.558799,41.993961,58.039892,52.201193,59.294154,0.0,67.346672,27.265239,92.980934,18.903465,92.225715,10.885814,79.551452,4.018444,60.123756,0.0,8.407133,33.776376,51.229846,51.18378,65.112438,62.170685,76.057019,67.789442,82.090281,14.225681,301.26702,-55.008236,290.834486
109,-4.440811,1.430214,0.339477,0.099789,0.0,-25.733872,-37.029499,18.52375,-44.765808,24.159164,-46.371174,14.383484,-44.82993,-11.547638,0.0,13.241882,13.157346,39.277807,29.813692,52.759836,42.398883,56.228665,52.100218,57.499736,0.0,67.784638,27.341641,92.943856,19.055214,92.096924,11.076004,79.521492,4.264446,60.159989,0.0,8.611786,33.633312,51.247852,51.033245,64.871907,62.111466,75.747155,67.84556,82.026653,9.776058,302.582576,-54.677571,290.819617
110,7.327629,-2.199698,0.402718,-0.005533,0.0,-31.562439,-41.412266,12.25676,-50.451244,14.571098,-53.323998,4.072655,-52.775139,-25.3633,0.0,11.499372,14.082923,41.962283,30.95085,54.541681,43.736878,58.641785,53.760045,61.314454,0.0,67.811897,27.35812,92.697761,19.193092,91.900543,11.23526,79.372398,4.390137,60.099289,0.0,8.625791,33.389497,51.178976,50.738016,64.521992,61.89513,75.464524,67.789256,81.958481,17.10038,300.248553,-54.27816,290.679759
111,-4.873375,0.088982,0.452053,0.0216,0.0,-21.887238,-37.089386,16.198265,-45.185429,19.495972,-47.473148,9.370743,-46.440537,-13.466412,0.0,11.493222,16.134296,40.697486,32.73419,54.410166,45.176009,58.409048,54.66643,60.795504,0.0,67.90781,27.428535,92.321354,19.311516,91.577396,11.300022,79.096035,4.341522,59.860256,0.0,8.882661,33.109571,51.183113,50.445962,64.423822,61.676793,75.346432,67.693407,81.911106,12.226307,300.189821,-53.826805,290.553645
112,4.219597,-1.65538,0.392876,0.012486,0.0,-25.299191,-39.228424,12.296379,-48.462971,14.055908,-51.897045,3.877556,-51.954827,-20.895481,0.0,10.834357,15.948415,42.49157,33.239345,55.745432,46.332001,60.255904,56.437715,63.095768,0.0,67.777187,27.21801,92.024746,19.188537,91.361103,11.232479,79.014438,4.31678,59.757144,0.0,9.229698,32.801522,51.276146,50.166998,64.220959,61.482613,75.16296,67.592013,81.794052,16.456953,298.390406,-53.42288,290.422096
113,-4.327034,0.247002,0.286102,0.09454,0.0,-14.63205,-35.156731,16.065903,-43.269837,18.521072,-45.880463,8.620216,-45.302307,-12.474919,0.0,9.543057,17.584516,40.763818,34.84409,55.164113,47.892619,59.975754,57.66535,63.080602,0.0,67.572498,27.153328,91.687305,19.13348,91.245746,11.141876,78.927486,4.153278,59.609859,0.0,9.402636,32.345471,51.09707,49.767707,63.955914,61.179653,74.868138,67.406144,81.709763,12.141896,298.503622,-53.124801,290.38285
114,2.641594,-2.844027,0.296322,-0.058725,0.0,-18.297112,-36.624092,13.655937,-45.640103,14.536651,-49.331692,5.049614,-49.762734,-17.235501,0.0,10.095575,18.12445,43.094069,35.820735,57.006943,49.301949,62.491269,59.589444,66.250338,0.0,67.615791,26.93922,91.359054,18.902687,91.051414,10.872654,78.785499,3.808845,59.396713,0.0,9.493113,32.181783,51.006075,49.601846,64.006871,60.987177,75.029418,67.209828,81.661277,14.790819,295.550383,-52.82115,290.214913
115,-6.124008,2.190078,0.019272,-0.055415,0.0,-7.424012,-32.079586,19.61705,-40.204136,22.96083,-43.057686,13.650398,-42.834229,-5.840859,0.0,7.935323,17.158648,40.311249,34.866727,54.721881,48.542616,60.462137,58.931122,63.740479,0.0,67.671638,26.826461,91.369354,18.762336,91.116485,10.712436,78.884582,3.63882,59.434639,0.0,9.640376,32.015465,50.89816,49.449162,64.159568,60.840446,75.091515,67.068111,81.707108,8.672762,297.660745,-52.795927,290.079782
116,2.887252,-2.071702,0.121261,-0.011423,0.0,-12.526176,-32.566841,16.361641,-41.234001,17.888581,-44.997184,9.360077,-45.824421,-11.068519,0.0,6.951503,17.732668,41.386583,35.663901,55.492971,49.55042,61.458431,60.041914,65.491598,0.0,67.577179,26.562367,91.405724,18.514389,91.101128,10.480065,78.874901,3.403748,59.338829,0.0,9.673004,31.866349,50.587814,49.24005,64.143648,60.593073,75.030233,66.830025,81.641812,11.565353,295.529447,-52.669327,290.008763
117,-4.809036,2.090313,0.020039,-0.000853,0.0,-5.131233,-28.266952,21.11023,-35.795288,24.594589,-38.684635,16.044548,-38.847278,-3.447029,0.0,4.66433,17.673153,38.589562,35.070603,52.99308,48.673737,59.509798,58.877474,64.082305,0.0,67.551006,26.418056,91.352337,18.415718,91.096309,10.407875,78.812313,3.323387,59.280384,0.0,9.705807,31.713555,50.239691,49.026184,64.17897,60.33818,75.00956,66.609873,81.551707,6.760626,297.582824,-52.644979,289.970974
118,0.909508,-1.981855,0.039482,-0.093947,0.0,-8.889198,-27.562008,20.726189,-35.673649,23.68325,-39.784802,15.592254,-41.528046,-5.570297,0.0,3.324717,17.459015,39.465207,35.308441,53.746139,49.387708,60.587492,60.185126,65.558783,0.0,67.556019,26.180969,91.296993,18.257355,91.051929,10.323646,78.831104,3.310455,59.326229,0.0,9.778894,31.753062,50.018303,49.04077,64.144747,60.309121,75.035643,66.55247,81.512285,7.673584,295.569149,-52.602047,289.845207
119,-4.646462,3.537941,-0.142719,-0.078781,0.0,-2.168975,-24.894218,24.737709,-32.160358,30.463555,-35.147472,22.26558,-35.775467,2.335556,0.0,1.91924,15.530006,35.598606,33.061059,50.627582,47.165841,57.354227,58.086142,61.838838,0.0,67.228569,26.070842,91.31044,18.199607,91.067711,10.336406,79.007927,3.406871,59.460022,0.0,9.659444,31.714011,49.713034,49.030902,63.898326,60.29188,74.946944,66.495795,81.584978,3.032867,299.066857,-52.739021,289.726193
120,4.040818,-3.229473,-0.10294,-0.256523,0.0,-10.208565,-28.045475,20.313743,-35.738228,24.923034,-39.278286,17.531822,-40.430272,-3.232453,0.0,2.612648,17.779982,38.266978,35.538696,52.978408,49.554471,59.333822,60.332709,63.99977,0.0,67.025951,25.804482,91.142338,17.989883,90.757702,10.254478,79.015263,3.44965,59.57793,0.0,9.7279,32.059406,49.759988,49.347261,63.84422,60.521603,75.102456,66.599375,81.684667,7.079207,295.803974,-52.836439,289.43626
