takenoko1/special-research/HandMotion_SimilarSearch_自分用/NewProject/handData/test_key/d4_feature_d3/104.csv
frame,vel_0x_L,vel_0y_L,vel_0x_R,vel_0y_R,posFromWrist_0x_L,posFromWrist_1x_L,posFromWrist_2x_L,posFromWrist_3x_L,posFromWrist_4x_L,posFromWrist_5x_L,posFromWrist_6x_L,posFromWrist_7x_L,posFromWrist_8x_L,posFromWrist_9x_L,posFromWrist_0y_L,posFromWrist_1y_L,posFromWrist_2y_L,posFromWrist_3y_L,posFromWrist_4y_L,posFromWrist_5y_L,posFromWrist_6y_L,posFromWrist_7y_L,posFromWrist_8y_L,posFromWrist_9y_L,posFromWrist_0x_R,posFromWrist_1x_R,posFromWrist_2x_R,posFromWrist_3x_R,posFromWrist_4x_R,posFromWrist_5x_R,posFromWrist_6x_R,posFromWrist_7x_R,posFromWrist_8x_R,posFromWrist_9x_R,posFromWrist_0y_R,posFromWrist_1y_R,posFromWrist_2y_R,posFromWrist_3y_R,posFromWrist_4y_R,posFromWrist_5y_R,posFromWrist_6y_R,posFromWrist_7y_R,posFromWrist_8y_R,posFromWrist_9y_R,posFromBody_0x_L,posFromBody_0y_L,posFromBody_0x_R,posFromBody_0y_R
6,-0.652771,-0.581331,0.407685,0.006472,0.0,-2.156318,-10.932014,35.525254,-16.525417,32.457711,-21.570728,17.862648,-24.551822,-38.039405,0.0,-9.752736,18.621343,32.159985,34.333451,43.173789,44.466632,49.705513,52.718241,59.172419,0.0,68.939335,29.573215,92.485393,21.650345,93.584415,12.696293,81.2784,4.16217,61.952007,0.0,2.992054,29.226457,50.582739,47.578025,64.843638,60.319914,75.140272,68.299228,78.036021,7.682424,279.963919,-40.716688,263.407683
7,-0.620842,-0.565918,0.361519,0.129256,0.0,-1.338981,-10.453582,36.278939,-16.226154,32.950951,-21.341514,17.966195,-24.246196,-37.65493,0.0,-8.522322,18.788144,32.808142,34.3851,43.8937,44.462866,50.457744,52.718982,59.705807,0.0,68.58173,29.343258,92.188396,21.309162,93.083347,12.230552,80.77779,3.558654,61.250759,0.0,3.047135,29.095917,50.611502,47.427169,64.834042,60.1975,75.091354,68.198316,77.950472,7.365205,279.34204,-40.051546,263.480978
8,0.762475,-1.072802,0.412468,0.131824,0.0,1.386337,-10.414513,36.197982,-16.778801,31.437515,-22.369503,14.949348,-25.527306,-44.878567,0.0,-11.198919,19.826625,33.014018,36.391383,44.286037,46.883593,51.801593,55.198014,62.95063,0.0,68.319522,29.098674,91.942714,20.982524,92.613887,11.856388,80.290615,3.153637,60.592929,0.0,3.08489,29.126398,50.697397,47.477311,64.753767,60.233896,75.017044,68.1513,77.747511,8.319626,278.219754,-39.447132,263.563318
9,-1.52948,-0.794123,0.279304,0.082746,0.0,3.172416,-9.358612,37.722656,-15.826275,32.789566,-21.611012,16.42575,-24.87703,-44.176678,0.0,-10.376724,20.001366,33.73987,36.62417,45.068897,47.178328,52.721218,55.594736,63.64063,0.0,68.189655,29.037666,91.804928,20.904533,92.280155,11.776886,79.966404,3.053593,60.141964,0.0,3.193707,29.168116,50.787194,47.508754,64.694882,60.254731,74.93657,68.123079,77.639089,6.902184,277.399452,-39.05579,263.619885
10,2.576202,-2.631345,0.310856,0.144916,0.0,-3.839195,-11.246361,33.75428,-17.370483,27.397568,-23.559586,12.140373,-27.588535,-54.065735,0.0,-8.805164,22.85274,35.236946,39.640714,47.175252,49.73393,54.356306,57.481087,66.28861,0.0,68.272499,28.854469,91.636276,20.771095,92.030754,11.740665,79.749504,3.133678,59.982628,0.0,3.103526,29.092644,50.670684,47.441359,64.443693,60.188349,74.766361,68.034393,77.496248,9.526108,274.755828,-38.697212,263.752522
11,-0.68042,2.677633,0.104382,0.139383,0.0,0.37365,-10.61879,36.155479,-17.16085,30.823288,-22.81311,14.697212,-25.835861,-47.558704,0.0,-10.182667,20.028302,33.31441,36.761984,44.555084,47.35959,52.578846,55.679075,64.019283,0.0,68.268436,28.863452,91.647777,20.846523,91.995494,11.91941,79.73093,3.39759,59.792072,0.0,3.059869,29.065017,50.416803,47.426823,64.239546,60.131007,74.55704,67.869915,77.296943,8.846735,277.435832,-38.591783,263.894276
12,-3.108444,2.90269,0.085063,0.057304,0.0,8.372749,-7.941811,40.399841,-14.243076,37.626915,-19.118282,22.946022,-21.471806,-29.080605,0.0,-13.709073,16.916488,31.256774,33.687653,42.510416,45.017038,50.491089,53.7802,60.075654,0.0,68.366868,28.916691,91.693017,20.99865,91.979805,12.196381,79.761109,3.788224,59.741021,0.0,3.029438,29.042948,50.165702,47.445584,64.122443,60.135874,74.470762,67.796482,77.275096,5.711987,280.341322,-38.533024,263.95438
13,1.414924,-2.918843,-0.095466,0.084215,0.0,4.64811,-10.014358,38.823601,-16.039363,35.653565,-21.268432,21.792115,-24.228378,-37.010753,0.0,-13.010788,19.461963,32.827902,36.523923,45.631492,47.495243,52.916126,55.836426,63.177266,0.0,68.664528,28.916141,91.989441,21.150925,92.204819,12.53659,80.060554,4.301124,60.222633,0.0,2.835826,28.775285,49.849009,47.170819,63.945751,59.878881,74.237914,67.552321,77.251038,7.088047,277.419191,-38.667354,264.035307
14,-1.981155,-0.115412,0.019306,0.155908,0.0,7.650215,-8.652534,42.34211,-14.640404,40.5355,-19.936855,27.246071,-23.010372,-34.37756,0.0,-13.528577,19.279627,32.343705,36.342662,46.434247,47.335235,53.61671,55.801674,64.151947,0.0,68.960323,29.038971,92.11742,21.387932,92.321537,12.882122,80.146328,4.778172,60.582172,0.0,2.363015,28.623662,49.451558,47.012466,63.580966,59.721306,73.852245,67.430931,77.082792,5.065029,277.297508,-38.689911,264.184944
15,-4.609222,-0.207802,-0.058102,0.055538,0.0,13.880767,-5.313149,48.847366,-11.319603,48.156898,-16.909287,34.979667,-20.326241,-29.252266,0.0,-14.325528,18.524185,31.997668,35.792885,47.589227,47.006204,54.55949,55.779159,65.221118,0.0,69.002015,29.074654,92.215828,21.52501,92.411843,13.144478,80.191704,5.148194,60.653458,0.0,2.06812,28.424369,49.163789,46.786583,63.453686,59.485395,73.61342,67.216324,76.958995,0.407364,277.069665,-38.796456,264.220441
16,-2.316559,-2.651106,0.040707,0.005496,0.0,13.378761,-3.804932,51.117874,-9.337807,50.799545,-15.560154,38.95626,-20.144749,-31.925057,0.0,-13.975143,20.678496,33.134048,38.242104,50.734336,49.241853,56.878885,57.796829,68.351,0.0,69.15485,29.005657,92.31435,21.563988,92.458248,13.308426,80.210232,5.47213,60.96294,0.0,1.809546,28.328977,48.925222,46.668701,63.254158,59.367711,73.415818,67.154129,76.957995,-1.958839,274.383068,-38.805393,264.190446
17,0.796028,-3.022695,-0.023827,-0.014301,0.0,8.155495,-4.930161,50.886909,-10.440983,49.257568,-17.42553,37.022919,-22.788002,-47.16378,0.0,-11.291594,23.379731,34.883968,41.023763,53.548475,51.432301,59.667101,59.77425,73.25355,0.0,69.187741,29.025765,92.519406,21.688786,92.651516,13.515278,80.377522,5.755932,61.374813,0.0,1.572103,28.278626,48.651173,46.56543,63.065214,59.247643,73.223453,67.094292,76.988227,-1.207043,271.317373,-38.873452,264.133145
18,-0.167702,-0.16685,0.057152,-0.009226,0.0,8.817925,-5.072834,51.382988,-10.469639,49.822174,-17.297745,37.592446,-22.481746,-47.129253,0.0,-11.498062,23.451436,35.381998,41.016662,54.011184,51.366129,60.062045,59.761246,73.767783,0.0,69.083462,29.024391,92.481777,21.72797,92.690083,13.572281,80.373997,5.836338,61.373371,0.0,1.454902,28.400151,48.38666,46.640556,62.973317,59.248656,73.100595,67.06464,76.999578,-1.422398,271.113575,-38.863953,264.086971
19,0.039437,2.00248,0.036289,-0.019624,0.0,11.267097,-5.830628,51.170059,-11.485577,50.12471,-17.479306,37.807571,-21.478604,-40.533806,0.0,-10.332684,21.543286,35.139146,38.827905,51.790972,49.525979,58.248743,58.199454,70.770134,0.0,69.017647,28.88863,92.480301,21.61837,92.7044,13.53201,80.378449,5.865303,61.277779,0.0,1.431214,28.375352,48.350115,46.60574,63.097497,59.174432,73.158726,66.937521,77.054177,-1.4286,273.081033,-38.873303,264.032325
20,1.198127,2.385233,0.069764,-0.000198,0.0,13.856942,-6.699783,50.156891,-12.757278,49.548226,-17.890571,37.628197,-21.004131,-27.997604,0.0,-10.127883,18.969665,34.537376,35.882102,50.009584,47.02862,56.299481,56.114118,66.19328,0.0,69.021331,28.712516,92.485107,21.457214,92.735641,13.422855,80.409965,5.812534,61.289657,0.0,1.394497,28.384034,48.309509,46.610681,63.108736,59.144014,73.139559,66.867385,77.037505,-0.271345,275.441199,-38.844411,264.00706
21,2.402481,-0.211854,-0.03312,0.071828,0.0,11.33947,-9.352111,47.539765,-15.189022,46.933548,-19.875663,35.194725,-22.544746,-30.678131,0.0,-9.601756,19.426544,35.110877,36.133032,50.271221,47.026237,56.464046,55.901327,66.145189,0.0,69.11847,28.667794,92.439858,21.423432,92.761506,13.420899,80.414841,5.824917,61.28302,0.0,1.280395,28.149877,48.207485,46.377252,63.092582,58.945622,72.996978,66.738969,76.894824,2.093387,275.213802,-38.91528,264.063345
22,0.569252,-0.196563,0.048088,0.097084,0.0,11.091957,-10.210189,46.846459,-15.908981,46.322228,-20.308101,34.424492,-22.667015,-31.419307,0.0,-9.259067,19.457134,35.182692,36.225274,50.21289,47.124061,56.284487,55.938216,66.120822,0.0,69.155594,28.587788,92.303078,21.3914,92.642212,13.465233,80.394951,5.94199,61.350358,0.0,1.021216,27.85345,48.133199,46.089273,62.94343,58.717837,72.753953,66.600364,76.610031,2.624199,274.997992,-38.905632,264.141182
23,-0.563118,0.050795,-0.012084,0.015784,0.0,11.521111,-9.598102,47.976723,-15.198291,47.624726,-19.539173,35.741364,-21.93536,-30.340278,0.0,-8.973989,19.078161,34.638289,35.84136,49.738142,46.821398,55.899882,55.716631,66.153439,0.0,69.269554,28.555606,92.183052,21.378536,92.645416,13.487285,80.448509,6.00745,61.518997,0.0,0.8444,27.629024,48.149809,45.908294,62.820448,58.626001,72.57558,66.625792,76.432128,2.018869,275.026285,-38.959928,264.134464
24,1.275925,-2.102897,-0.087868,-0.023206,0.0,7.104881,-10.583794,46.834625,-15.80595,46.588646,-20.647247,34.825791,-23.898182,-38.011185,0.0,-9.566078,20.547597,35.028415,37.612521,51.702582,48.304766,57.53276,56.99001,69.403387,0.0,69.215423,28.512153,92.140297,21.386913,92.737701,13.53511,80.640198,6.063354,61.680015,0.0,0.857478,27.419678,48.068558,45.726254,62.702146,58.522162,72.426391,66.629473,76.353606,3.247261,272.89933,-39.095329,264.0872
25,5.299461,-2.158116,-0.158249,-0.243321,0.0,-2.89151,-15.352867,39.33236,-20.615718,38.639534,-26.01614,25.454728,-29.620285,-58.64495,0.0,-9.294425,23.470159,36.572349,40.471986,53.12609,50.308802,58.734053,58.325216,73.225874,0.0,69.243828,28.702709,92.228737,21.586647,92.822548,13.703087,80.737312,6.181572,61.678253,0.0,0.968357,27.482638,48.174176,45.713521,62.768404,58.473218,72.565045,66.590458,76.442798,8.496534,270.71983,-39.303766,263.822495
26,-2.370368,2.796998,-0.054863,-0.231552,0.0,0.412582,-12.305489,42.348701,-17.947644,42.25003,-23.434514,29.707763,-26.962109,-44.136338,0.0,-10.738644,20.694292,34.807385,37.467359,50.17316,47.884937,55.527131,56.290848,68.777732,0.0,69.02758,28.829029,92.294517,21.691624,92.796936,13.760353,80.686111,6.196072,61.632889,0.0,1.064293,27.751055,48.412545,45.870923,62.913296,58.545294,72.849493,66.631164,76.659654,6.073203,273.50042,-39.411592,263.574535
27,4.384872,0.757937,-0.099335,-0.278186,0.0,-4.562782,-15.508461,36.443115,-22.007343,36.257698,-27.741108,22.527237,-31.326119,-49.685394,0.0,-11.352789,20.426764,34.924798,36.987311,49.156798,47.276276,54.383044,55.544507,67.656357,0.0,69.123596,28.877781,92.316994,21.707932,92.830147,13.746197,80.636582,6.16816,61.504486,0.0,1.357311,28.106404,48.629178,46.131522,63.150492,58.708501,73.215352,66.724593,76.949856,10.410273,274.266651,-39.558729,263.304643
28,-3.193897,2.07779,-0.122932,-0.190401,0.0,1.054355,-12.126194,40.418506,-19.418289,40.369869,-25.60651,26.790676,-29.419716,-37.524571,0.0,-13.503259,17.860269,34.413727,34.590135,47.440729,45.58119,52.43099,54.163731,63.74726,0.0,69.100296,28.988033,92.284767,21.816982,92.787391,13.825367,80.487716,6.20042,61.260063,0.0,1.506587,28.314071,48.733783,46.196521,63.285527,58.671574,73.438209,66.646886,77.088202,7.179125,276.359316,-39.718912,263.129117
29,4.347656,0.361067,-0.23687,-0.219905,0.0,-3.359654,-15.342785,34.332836,-23.149544,34.173237,-29.399448,19.413357,-33.191174,-43.761704,0.0,-14.076908,17.592383,35.017337,34.152263,46.840194,45.049334,51.45006,53.504286,62.258062,0.0,69.082008,29.216309,92.480461,22.042225,92.911102,14.003311,80.292137,6.284637,60.960548,0.0,1.568349,28.277131,48.512222,46.023495,63.134189,58.41894,73.313991,66.388645,77.008259,11.49317,276.746846,-39.989393,262.935675
30,-4.441315,0.820971,-0.367195,-0.698892,0.0,3.052655,-12.185177,40.991627,-19.740532,41.447903,-25.595386,28.302052,-28.810123,-37.026638,0.0,-15.481272,15.830237,34.25824,32.597685,45.398274,44.165921,50.288264,53.103811,61.472128,0.0,68.848938,29.198147,92.460159,22.344188,93.489807,14.501186,80.935501,6.808273,60.816582,0.0,1.650675,28.169019,47.900252,45.852213,62.738172,58.289462,73.015429,66.377976,76.62048,7.024046,277.600928,-40.384397,262.269894
31,4.204262,4.977541,-0.999459,-2.592541,0.0,-9.428226,-20.464279,19.311482,-26.214569,32.768841,-29.429718,23.504505,-29.849407,-41.296703,0.0,-6.746727,14.119157,31.719037,25.803261,37.644706,33.183918,40.429378,38.805169,50.106062,0.0,67.831215,29.358536,92.797028,22.772736,94.176133,14.960827,81.343163,7.067963,58.668755,0.0,0.724283,27.771852,47.151169,45.346538,62.307376,57.920416,72.884752,66.056169,76.426348,11.211365,282.628564,-41.400799,259.727448
32,-3.961945,-5.653102,-1.436553,-5.763314,0.0,-13.489608,-21.650058,9.547806,-23.036739,22.584549,-22.261631,19.164849,-19.546623,-28.702537,0.0,-1.318063,17.117313,28.53284,28.941109,37.214577,36.35143,41.594114,41.301738,51.062095,0.0,64.477935,30.95676,93.177475,24.592483,91.538131,16.314056,74.467781,7.399292,48.810379,0.0,-2.221089,26.737434,47.119751,44.384158,64.354908,57.273815,76.173282,65.595202,78.525677,7.271295,277.000659,-42.815477,253.989331
33,4.424229,-4.486193,3.200271,-2.359533,0.0,-26.210976,-25.279701,-12.205627,-23.620903,2.049534,-19.840702,2.6521,-14.463901,-32.79887,0.0,5.111675,15.82878,26.171307,25.708636,34.914511,32.035114,39.004735,36.471498,47.892471,0.0,55.714966,33.13876,79.743233,25.579926,74.832287,15.925575,57.313213,5.4314,34.443718,0.0,6.698005,21.760759,47.80134,34.926132,61.575251,44.996228,69.968132,51.719786,70.235388,11.691141,272.571632,-39.619589,251.686964
34,1.815033,-16.234195,-5.544079,-17.692753,0.0,-35.711986,-26.430382,-31.917057,-20.557136,-12.238197,-13.180321,-5.977123,-4.876545,-23.145206,0.0,10.428323,11.2252,17.166022,21.97029,33.441627,30.658215,39.865473,36.70852,48.926914,0.0,44.399575,36.422058,74.532727,31.600045,70.740372,23.788422,53.874184,14.426777,33.657372,0.0,-3.705729,17.685281,46.947245,31.519745,63.95321,42.609958,73.661573,50.683528,75.726753,13.333168,256.562325,-45.336674,234.219099
35,14.721703,-26.415419,-9.401081,-25.158711,0.0,-51.427266,-31.992028,-60.397648,-24.219899,-41.728192,-15.064682,-31.692227,-5.30523,-28.121201,0.0,14.249945,10.923735,15.264245,22.023594,34.72075,31.466356,42.253387,38.063473,49.688001,0.0,31.642685,39.689427,67.559567,37.112011,64.504269,30.625935,48.267678,21.850342,31.992771,0.0,-15.570996,9.170134,36.228349,23.358971,53.584624,35.810571,64.048478,45.755586,67.352928,27.677639,230.551702,-55.114987,209.465184
36,15.377609,-41.698737,-11.979904,-30.73439,0.0,-49.20377,-34.887188,-66.240452,-28.153221,-60.754612,-19.857033,-51.073322,-10.528954,-39.749611,0.0,0.485401,10.709324,14.984694,27.615642,40.55633,42.342733,52.049514,53.576973,62.26733,0.0,16.024612,40.938332,56.656426,41.81012,55.949993,38.17947,43.228466,31.609703,33.243015,0.0,-28.06584,-2.748956,21.214033,10.982107,38.119702,24.32839,49.056923,36.408426,54.692698,43.036291,189.591407,-67.113848,179.469236
37,20.791672,-35.048904,-14.411568,-33.529671,0.0,-43.851746,-37.477295,-70.436119,-34.913041,-65.353066,-29.854248,-57.873253,-22.353928,-47.83049,0.0,-13.257795,-0.985704,5.712975,15.538138,29.46151,31.620552,41.108292,45.417162,51.269669,0.0,0.509217,39.375698,44.598118,44.744465,49.828778,45.444592,45.546078,42.955811,42.821286,0.0,-38.386008,-17.614169,1.90931,-5.346777,16.354263,8.141606,26.31642,21.824732,35.686761,63.979735,155.767863,-81.373644,147.164925
38,17.246429,-34.822083,-19.344715,-38.252306,0.0,-43.572521,-39.380104,-70.571972,-36.370514,-65.410492,-30.357193,-56.874149,-21.640503,-44.473755,0.0,-26.209388,-6.801233,-15.880421,8.657439,4.077003,23.525116,15.525036,36.21327,28.760909,0.0,-5.827263,31.696839,46.458035,41.405731,56.706379,46.879612,55.889649,49.27557,52.277275,0.0,-61.966254,-23.560425,-25.703423,-8.744,-10.368684,6.792249,3.693577,22.336977,18.076007,81.560303,122.184466,-100.38422,110.151305
39,20.655602,-33.577768,-14.357116,-29.726339,0.0,-29.10624,-38.140137,-64.874131,-39.020829,-66.568783,-36.053971,-61.451706,-29.498314,-50.724495,0.0,-42.410214,-12.963517,-32.303857,0.739115,-19.822376,14.04473,-8.933025,26.643845,6.494075,0.0,-14.874905,26.488941,39.346962,38.433059,50.800998,46.251651,53.98582,51.030475,52.140289,0.0,-64.916844,-35.808681,-48.112562,-23.884436,-38.692598,-9.789015,-25.589321,5.18919,-12.035872,103.135695,90.011189,-113.821546,81.829457
40,14.50241,-25.174674,-11.237652,-22.516294,0.0,-14.33638,-32.933074,-56.331047,-36.491249,-59.5895,-36.665885,-57.85659,-33.664581,-50.93431,0.0,-57.237445,-23.544197,-57.814545,-12.011857,-50.145823,0.319108,-38.577155,13.272467,-19.296553,0.0,-22.152855,17.414955,34.351833,31.091251,47.26934,41.97203,53.926174,50.576889,53.736408,0.0,-67.604919,-39.65646,-65.876148,-29.901013,-60.075537,-17.619337,-47.352395,-4.034623,-31.514032,119.276184,66.907784,-123.421119,61.384432
41,12.24273,-19.721099,-8.722904,-17.322571,0.0,-5.831063,-25.448593,-50.05513,-30.46241,-56.0289,-33.255364,-57.468132,-34.021431,-52.366631,0.0,-63.22353,-32.510734,-82.819338,-23.293027,-77.455543,-12.323622,-66.152932,0.080035,-43.906346,0.0,-26.419911,10.258186,33.055435,24.95399,46.345539,37.793827,54.030704,48.830165,54.700584,0.0,-67.929127,-39.599946,-79.62066,-31.063063,-77.017788,-20.488811,-64.520159,-8.940787,-47.285687,133.059643,50.59181,-130.603294,47.466986
42,6.86856,-14.295554,-6.209061,-12.226643,0.0,1.32621,-17.013496,-45.94503,-23.059684,-53.816894,-27.979934,-56.904716,-31.967697,-53.528572,0.0,-66.501235,-37.036662,-100.305714,-29.721863,-98.860779,-20.097202,-87.75942,-8.622179,-62.786374,0.0,-28.887806,4.535042,32.506393,19.209492,46.010364,33.008858,53.710888,45.424015,54.68985,0.0,-68.226055,-36.26984,-90.651266,-28.173354,-90.957042,-18.725448,-78.416151,-8.723543,-59.790269,140.801759,39.681608,-135.938799,38.625695
43,8.590806,-17.613428,-5.878899,-11.395131,0.0,13.226532,-12.940751,-42.833085,-23.598588,-54.871445,-33.872841,-62.612412,-43.576653,-66.271935,0.0,-69.596265,-40.507165,-105.576557,-32.787382,-103.484391,-21.923712,-90.491345,-8.782384,-63.992872,0.0,-35.87495,3.926548,30.810597,20.146088,45.810768,35.459233,54.689621,49.242691,58.813362,0.0,-66.216523,-37.410049,-94.103898,-29.306369,-95.116932,-19.923301,-82.953058,-10.227585,-63.463986,149.832465,25.960917,-141.377798,31.123301
44,-0.0905,-4.474602,-1.770756,-3.194713,0.0,18.190429,-8.396942,-37.059883,-20.673912,-50.88089,-33.151108,-59.209076,-45.444374,-65.157624,0.0,-69.243114,-42.444534,-110.430694,-36.324278,-111.476543,-26.697568,-98.907598,-14.543327,-72.485369,0.0,-38.121036,-0.503162,29.224286,15.53246,44.864869,31.714154,53.730114,46.857377,59.166756,0.0,-64.932343,-33.215176,-101.182892,-25.012869,-103.006727,-16.162516,-90.926661,-7.342019,-68.938648,149.718092,25.861832,-143.172427,32.304105
45,-2.994484,-1.553504,-0.078151,-0.580658,0.0,22.640442,-6.799439,-32.428414,-19.9907,-46.930367,-33.235657,-55.837281,-45.965081,-63.135727,0.0,-67.031017,-43.09502,-112.407264,-37.632461,-114.477872,-28.65442,-102.496002,-17.3547,-76.557117,0.0,-41.307873,-1.339314,26.497387,15.279316,42.380035,31.913898,51.641075,47.35231,57.835155,0.0,-61.563944,-32.285802,-101.939729,-24.485434,-104.161861,-16.197676,-92.468247,-8.071835,-70.427463,146.165663,27.927896,-143.808523,35.343015
46,-4.894661,5.20191,1.418094,3.906282,0.0,26.831337,-4.874954,-28.448937,-19.467522,-42.928803,-33.847893,-52.096092,-47.063118,-61.513092,0.0,-64.578655,-42.390404,-112.15434,-37.59538,-115.602934,-29.60784,-104.487705,-19.611338,-79.424003,0.0,-44.033054,-2.743148,23.071118,14.228886,38.989266,31.267582,48.446309,47.20443,55.544632,0.0,-57.355265,-30.202429,-100.714669,-22.777899,-102.627376,-15.116384,-91.661361,-7.909203,-70.110869,140.272579,34.717032,-143.388852,40.836523
47,-5.46167,7.793112,2.202416,5.460978,0.0,30.068161,-4.504555,-26.109192,-19.554474,-40.659096,-34.187531,-50.210495,-47.195297,-59.707627,0.0,-59.634781,-38.873891,-108.040114,-34.089877,-110.336303,-26.930262,-100.471601,-18.417993,-76.619392,0.0,-46.177117,-3.587689,19.643726,13.948986,35.726143,31.281898,45.452488,47.282558,53.464016,0.0,-49.591472,-24.486428,-92.655141,-17.776511,-94.94597,-11.417979,-85.076031,-5.921321,-64.993711,133.886044,42.93545,-142.111301,46.722807
48,-5.462792,10.060982,2.745415,6.469059,0.0,32.694947,-4.726135,-24.547371,-19.475784,-39.007759,-33.499397,-48.826057,-45.53881,-58.407966,0.0,-50.028831,-35.062328,-99.714028,-30.185491,-100.05526,-23.291489,-90.839487,-15.43806,-67.33008,0.0,-45.708573,-2.127514,17.023761,15.729538,34.222904,32.766426,44.862556,47.788124,53.795414,0.0,-38.028565,-18.72107,-76.114823,-13.257646,-77.871295,-8.301509,-69.767505,-4.24481,-51.897874,127.841829,52.464879,-139.947309,52.660313
49,-5.156433,10.717248,3.33736,8.71956,0.0,34.608307,-4.478393,-22.308838,-19.135277,-37.093002,-32.611313,-47.317589,-43.69368,-56.787414,0.0,-37.819071,-29.754721,-87.517989,-25.293667,-86.491314,-19.282975,-77.998805,-12.743575,-56.263067,0.0,-38.964878,-0.481327,14.557331,16.612244,30.527412,32.325634,41.243237,45.862015,50.000782,0.0,-28.526097,-16.028734,-58.951599,-11.81906,-59.014696,-7.242051,-52.088727,-2.877847,-37.460956,122.218151,61.73998,-137.077194,59.937726
50,-4.39373,12.028887,2.856503,14.697956,0.0,36.676964,-3.675362,-20.390304,-18.03788,-35.129425,-31.08474,-45.452476,-41.746857,-55.099022,0.0,-29.487421,-23.898021,-77.883343,-19.494031,-75.868915,-14.238002,-68.326855,-8.889373,-47.930651,0.0,-40.66903,-1.119851,13.649562,16.213565,29.103149,32.315608,39.676471,46.427009,48.35749,0.0,-24.794235,-14.188577,-51.213284,-9.711153,-50.854749,-5.265661,-44.615648,-1.162494,-31.374575,117.471125,72.110803,-134.573987,72.977618
51,-3.039436,12.058299,1.792865,12.61485,0.0,38.924835,-2.773682,-18.681061,-16.933686,-33.998223,-29.781098,-44.731957,-40.402725,-54.442383,0.0,-24.575299,-18.970597,-72.052554,-14.268124,-70.597047,-9.265439,-62.731761,-4.582979,-43.100392,0.0,-41.374008,-1.520897,13.200714,15.997628,28.70216,32.307942,39.370079,46.569832,48.139836,0.0,-23.740539,-11.373926,-46.924132,-6.766765,-47.402778,-2.584403,-41.293933,1.06496,-28.572873,114.349062,82.766025,-132.863749,84.189391
52,-1.085243,12.370096,1.351273,11.459104,0.0,40.621421,-1.99086,-17.68071,-16.479928,-32.980294,-29.712731,-43.959321,-41.09713,-54.168755,0.0,-25.033172,-18.945039,-72.659857,-14.142975,-72.513953,-8.877276,-63.704695,-3.903824,-44.500539,0.0,-42.759888,-2.284561,12.707863,15.025692,28.566147,31.365829,39.310844,45.960846,48.033554,0.0,-26.211209,-12.320751,-48.847799,-7.040843,-49.155674,-2.153082,-42.616627,2.054702,-29.341097,113.538254,94.334363,-131.238041,94.846737
53,-0.027329,10.261943,0.578819,10.594852,0.0,41.898674,-0.746841,-16.955864,-16.207832,-32.077423,-30.576851,-43.381164,-43.18705,-53.993248,0.0,-30.394461,-18.945891,-77.201421,-14.098181,-78.961258,-9.05952,-69.648395,-4.266429,-51.419333,0.0,-45.743683,-4.704277,12.79113,12.741165,28.200462,29.514233,38.274971,45.116306,46.163132,0.0,-33.534204,-14.033337,-59.727567,-7.344656,-60.554702,-1.348926,-52.734339,3.59761,-37.796118,113.68115,104.132106,-130.488997,104.977389
54,0.319588,8.814773,-0.284431,6.85077,0.0,43.241432,0.20066,-17.161377,-16.097374,-31.518059,-31.563538,-42.822396,-45.461678,-53.825295,0.0,-39.199607,-20.467403,-85.756848,-14.961452,-88.960095,-9.482795,-79.031957,-4.352682,-60.323218,0.0,-54.402535,-7.041527,13.39738,11.49345,30.760437,29.610981,40.948574,46.555812,48.560348,0.0,-39.154195,-12.552828,-71.169629,-4.281027,-73.17359,1.842546,-64.867542,5.8185,-47.184466,114.104925,112.51906,-130.669241,111.40034
55,0.696579,5.571295,-0.543572,-0.997467,0.0,43.919998,0.620659,-17.14222,-16.534859,-31.456604,-32.891327,-42.91713,-47.576363,-53.850357,0.0,-44.855148,-22.322391,-91.769721,-16.690717,-96.144966,-11.010124,-85.47292,-5.613848,-66.772617,0.0,-53.717308,-6.486145,13.647206,12.127636,32.093754,29.932629,42.525376,46.28595,49.784901,0.0,-39.870679,-10.896922,-73.653002,-2.507826,-75.501414,3.477295,-67.409084,7.11742,-48.725836,114.833679,117.644721,-131.180638,109.957239
56,0.607933,2.035954,-0.048832,-1.173838,0.0,43.695579,0.55957,-17.061791,-17.017044,-31.078354,-33.791519,-42.734459,-48.754784,-53.349495,0.0,-47.013491,-23.740607,-94.135391,-18.439606,-98.649914,-12.761581,-87.918446,-7.000681,-69.485522,0.0,-53.857544,-5.842369,13.691941,12.695286,32.604767,30.2902,43.369789,46.367581,50.381253,0.0,-39.546551,-11.368115,-73.886641,-2.852375,-75.045054,3.326315,-67.514844,7.327242,-48.658843,115.372788,119.231836,-131.298294,108.334562
57,0.261658,0.01582,0.009178,-0.488681,0.0,43.319686,0.56607,-17.119858,-17.280556,-30.79358,-34.254273,-42.663323,-49.024796,-53.178978,0.0,-47.003777,-23.292304,-93.775503,-18.187583,-98.366103,-12.75606,-87.708871,-7.03691,-69.503571,0.0,-53.722675,-5.348499,14.319992,13.385571,33.127224,31.100544,44.05457,47.137024,51.329098,0.0,-39.499793,-11.442049,-73.652841,-2.977802,-74.809253,3.114061,-67.736287,7.135946,-48.902306,115.594265,118.794528,-131.329297,107.392753
58,-0.045479,0.55568,0.397808,0.029122,0.0,43.1716,0.379211,-16.970879,-17.575882,-30.755425,-34.619042,-42.85714,-49.402474,-53.292755,0.0,-47.250761,-23.356062,-93.601966,-18.247024,-98.317456,-12.78194,-87.644095,-6.995358,-69.743892,0.0,-53.77209,-5.112121,14.624543,13.739285,33.212723,31.710721,44.424534,47.910965,52.01175,0.0,-39.332049,-11.042629,-72.866654,-2.69435,-74.273952,3.101704,-67.736219,6.852863,-49.34108,115.554446,118.917563,-130.925829,106.98923
59,-0.197777,0.573278,0.233975,0.146262,0.0,42.881744,0.245361,-16.89727,-17.714882,-30.824822,-34.750809,-43.213806,-49.512955,-53.50621,0.0,-47.315648,-23.249345,-93.055382,-18.14647,-97.832721,-12.654703,-87.215448,-6.802555,-69.491493,0.0,-53.634235,-4.985012,14.787449,14.113541,33.431671,32.38417,44.737198,48.792263,52.604164,0.0,-39.393392,-10.426224,-71.730007,-2.257015,-73.798998,3.243409,-67.498468,6.707311,-49.525992,115.367638,119.072569,-130.680885,106.71722
60,-0.383194,0.577947,0.212185,0.433222,0.0,42.877693,0.164177,-16.887795,-17.830193,-30.810928,-34.848518,-43.23642,-49.561318,-53.672127,0.0,-47.448232,-23.168186,-92.707758,-18.052554,-97.51701,-12.529628,-87.014969,-6.620416,-69.306618,0.0,-53.548828,-5.161251,14.726372,14.090561,33.437393,32.629005,44.809879,49.237942,53.090435,0.0,-39.730499,-10.037221,-71.173549,-1.948812,-73.847713,3.343093,-67.497152,6.537362,-49.971144,114.971764,119.334276,-130.48138,106.834202
61,-0.218628,0.171407,-0.118252,0.426356,0.0,42.787674,0.041794,-17.002831,-18.036049,-30.940086,-35.081451,-43.43367,-49.820869,-53.743698,0.0,-47.361047,-22.649316,-92.120574,-17.421279,-96.922181,-11.895476,-86.408735,-6.024142,-68.708251,0.0,-53.338016,-5.001709,15.130428,14.37949,33.900856,32.978817,45.178471,49.606522,53.560719,0.0,-40.103793,-10.00324,-71.088698,-1.878466,-74.045043,3.421084,-67.619462,6.528735,-50.050975,114.738001,119.266817,-130.614767,107.021692
62,-0.182282,0.166473,-0.182007,0.223808,0.0,42.84771,0.006089,-16.869117,-18.10469,-30.911521,-35.172752,-43.416389,-49.936569,-53.716529,0.0,-47.143025,-22.225838,-91.699504,-16.937835,-96.562565,-11.431971,-86.024061,-5.628649,-68.314759,0.0,-53.02779,-4.887623,15.720852,14.565136,34.59074,33.201142,45.727181,49.864769,53.948857,0.0,-40.544752,-10.056481,-71.470557,-1.896034,-74.342902,3.356302,-67.790387,6.447836,-50.336453,114.522233,119.265073,-130.83026,107.077283
63,-0.121467,0.020347,-0.213764,-0.050518,0.0,42.740272,-0.120552,-16.839203,-18.249527,-30.889137,-35.313057,-43.199524,-50.055451,-53.642532,0.0,-46.92977,-21.892627,-91.333793,-16.627416,-96.204178,-11.190194,-85.804007,-5.476447,-68.016504,0.0,-52.784969,-4.763157,16.333385,14.668201,35.18977,33.257916,46.159023,49.8895,54.354286,0.0,-40.915082,-10.329572,-71.766712,-2.112241,-74.478956,3.219506,-67.872144,6.444149,-50.33796,114.341028,119.132696,-131.103762,106.874041
64,-0.018585,0.070902,0.029732,-0.100561,0.0,42.650093,-0.166603,-16.989716,-18.307366,-30.927292,-35.386505,-43.132965,-50.150093,-53.651093,0.0,-47.002068,-21.885316,-91.372233,-16.620179,-96.227298,-11.181851,-85.823113,-5.481541,-67.855836,0.0,-52.619866,-4.779053,16.886741,14.560409,35.67445,33.078403,46.462967,49.697754,54.569343,0.0,-41.329692,-10.545488,-72.27924,-2.213511,-74.840708,3.228331,-68.09447,6.583057,-50.347191,114.23572,119.066256,-131.160753,106.636138
65,0.18592,-0.157359,0.28228,-0.162465,0.0,42.437828,-0.286995,-17.138053,-18.483421,-30.945121,-35.602363,-43.258964,-50.409164,-53.650268,0.0,-46.906743,-21.765723,-91.176861,-16.435002,-96.032092,-10.967929,-85.52831,-5.263834,-67.597244,0.0,-52.509487,-4.669098,17.103618,14.556392,35.909763,32.949291,46.658363,49.546989,54.479622,0.0,-41.732083,-10.797078,-72.555314,-2.321889,-75.082863,3.286406,-68.252428,6.793144,-50.184547,114.326242,118.801911,-130.973871,106.366687
66,0.121354,0.377258,0.535206,-0.215546,0.0,42.425766,-0.145455,-17.227982,-18.310547,-30.993782,-35.42894,-43.408905,-50.277008,-53.746674,0.0,-47.237941,-22.177117,-91.688148,-16.805566,-96.457521,-11.238445,-85.781808,-5.433623,-67.873885,0.0,-52.632855,-5.008358,17.073349,14.161182,35.92622,32.544216,46.574306,49.209091,54.110916,0.0,-41.813902,-10.825316,-72.656949,-2.279893,-75.069105,3.393463,-68.201805,6.945977,-50.054266,114.355614,119.087621,-130.530647,106.059593
67,0.063697,0.375665,0.625454,0.110509,0.0,42.356575,-0.006546,-17.20008,-18.142776,-30.923332,-35.247184,-43.390823,-50.133613,-53.663818,0.0,-47.816284,-22.59145,-92.207148,-17.19673,-96.952766,-11.538485,-86.179005,-5.637269,-68.219669,0.0,-52.825207,-5.340603,16.775253,13.653797,35.652969,31.891788,46.158462,48.553356,53.602191,0.0,-41.949161,-11.087744,-72.957217,-2.452912,-75.423003,3.427901,-68.305503,7.114296,-49.940683,114.349697,119.404225,-129.974807,106.111041
68,0.180039,0.431678,0.605587,0.228044,0.0,42.282852,0.167908,-17.294312,-17.898903,-31.005753,-35.004662,-43.537674,-49.969803,-53.675102,0.0,-48.391365,-22.991629,-92.59021,-17.56152,-97.336927,-11.838449,-86.492783,-5.877064,-68.602577,0.0,-52.962067,-5.621705,16.561626,13.203025,35.367565,31.248973,45.723232,47.854614,53.054489,0.0,-42.094577,-11.309872,-73.332511,-2.568731,-75.856936,3.523608,-68.451456,7.341519,-49.753209,114.484291,119.799695,-129.414665,106.302877
69,0.232246,0.368391,0.58176,0.493824,0.0,42.377884,0.045799,-17.48014,-18.005768,-31.017425,-35.088638,-43.500915,-50.043686,-53.740379,0.0,-48.815405,-23.201056,-92.919834,-17.732526,-97.561637,-11.979395,-86.746096,-5.997058,-68.918103,0.0,-53.199726,-5.780502,16.388786,12.875954,35.233612,30.660553,45.394123,47.102302,52.553135,0.0,-42.305139,-11.780848,-74.126998,-2.8982,-76.508785,3.461179,-68.793942,7.466249,-49.797002,114.701431,120.14208,-128.848011,106.770695
70,0.350579,0.448518,0.508221,0.413209,0.0,42.379417,0.073036,-17.67334,-17.915429,-31.023377,-34.996743,-43.623459,-49.9861,-53.879174,0.0,-49.175373,-23.407852,-93.278005,-17.865592,-97.816234,-12.079857,-87.004373,-6.131328,-69.050601,0.0,-53.515068,-6.087365,16.465862,12.415752,35.386734,29.962646,45.078872,46.215705,52.147659,0.0,-42.354583,-12.142385,-75.05326,-3.148678,-77.059031,3.456257,-68.892063,7.687933,-49.587205,115.055066,120.562286,-128.336734,107.155592
71,0.406242,0.395295,0.337829,0.428622,0.0,42.361404,0.170952,-17.69268,-17.729324,-30.953453,-34.774315,-43.554108,-49.800247,-53.861572,0.0,-49.523923,-23.609906,-93.55351,-18.032781,-98.029798,-12.233565,-87.244353,-6.279838,-69.156003,0.0,-53.390682,-5.871105,16.596039,12.459984,35.679188,29.679634,45.067681,45.660736,52.03117,0.0,-42.517178,-12.594849,-75.819286,-3.53058,-77.777719,3.33664,-68.989092,7.87779,-49.376691,115.452896,120.905188,-128.007317,107.531821
72,0.651237,0.372009,0.241791,0.143984,0.0,42.214165,0.18647,-18.021171,-17.696891,-31.216026,-34.715377,-43.706199,-49.73957,-54.062347,0.0,-49.762551,-23.757087,-93.680259,-18.116366,-98.02235,-12.276611,-87.234449,-6.303278,-69.249795,0.0,-53.071758,-5.544914,16.95908,12.736233,36.208076,29.79443,45.36945,45.571072,51.958981,0.0,-42.65524,-12.74812,-76.11199,-3.558788,-77.679141,3.435965,-68.861652,8.156877,-49.221371,116.067998,121.194393,-127.801661,107.593001
73,0.601891,0.230403,0.23774,-0.206722,0.0,41.842483,0.116936,-18.176788,-17.760155,-31.119347,-34.756577,-43.636093,-49.737808,-54.221077,0.0,-50.024058,-23.731572,-93.899442,-18.100527,-98.169693,-12.23175,-87.461603,-6.213128,-69.253346,0.0,-52.651738,-5.015213,17.539661,13.27573,36.754669,30.271076,45.838565,45.885944,52.217582,0.0,-42.676105,-12.789258,-76.205912,-3.552829,-77.347973,3.462543,-68.650261,8.22815,-49.266659,116.631186,121.3321,-127.602624,107.293583
74,0.59713,0.290956,0.214244,-0.41521,0.0,40.739959,0.17054,-18.593903,-17.6987,-31.449005,-34.688942,-44.097061,-49.69075,-54.632469,0.0,-51.068109,-23.909512,-94.458574,-18.184823,-98.6717,-12.218381,-87.996412,-6.109258,-69.397496,0.0,-51.725429,-4.272766,18.382977,13.967514,37.506043,30.978299,46.778527,46.53653,52.944466,0.0,-43.006748,-12.658365,-75.827851,-3.357296,-76.833524,3.638384,-68.566552,8.432574,-49.275625,117.13999,121.528587,-127.476706,106.783904
75,0.657783,0.172247,0.176274,-0.478893,0.0,38.221573,-0.007255,-20.051559,-17.866974,-33.018104,-34.815719,-45.268158,-49.860328,-55.790794,0.0,-53.514303,-24.245256,-95.09569,-18.345937,-99.063704,-12.202104,-88.527003,-5.904674,-69.671521,0.0,-50.340328,-3.333126,19.891765,14.872387,38.734359,31.950851,48.102756,47.540325,54.284523,0.0,-43.869493,-12.760185,-75.298582,-3.285171,-76.284477,3.760625,-68.483103,8.652505,-49.538336,117.639616,121.588451,-127.458589,106.192628
76,0.846497,-0.434291,0.492771,-0.386199,0.0,33.564125,-0.671265,-23.460228,-18.5159,-36.926468,-35.414589,-48.599465,-50.436882,-58.917481,0.0,-56.879496,-24.527918,-94.995099,-18.125321,-98.592653,-11.539973,-87.91634,-4.888539,-68.915016,0.0,-48.125061,-2.261479,22.151161,15.784172,40.608158,32.85545,50.066002,48.418259,56.019161,0.0,-45.985773,-13.40013,-75.321819,-3.644275,-75.73919,3.619975,-68.452845,8.784601,-49.722124,118.363318,120.934693,-127.088613,105.586962
77,0.540413,-1.137918,0.557499,-0.583585,0.0,26.423469,-2.246956,-28.925698,-19.704849,-43.336601,-36.242226,-54.029503,-51.001465,-63.741806,0.0,-60.348925,-24.446902,-94.070757,-17.202831,-96.980146,-9.935116,-86.137459,-2.666198,-66.623915,0.0,-43.866909,-0.614582,25.941421,17.077434,43.927894,33.843921,53.273586,49.157158,58.812,0.0,-49.238568,-13.791195,-75.142187,-3.541578,-75.337275,4.262761,-67.819088,9.945052,-49.219358,118.77653,119.547313,-126.658315,104.753915
78,0.080772,-1.40384,0.838096,-0.2343,0.0,17.107681,-4.650947,-37.298149,-21.454422,-52.451431,-37.364731,-61.858681,-51.630684,-70.644905,0.0,-64.087017,-24.642052,-92.539631,-16.115734,-94.1897,-7.764188,-82.987632,0.439935,-62.888441,0.0,-37.683551,0.981503,31.11501,17.920178,48.476223,34.137795,57.63295,49.091481,62.282822,0.0,-53.57005,-14.69033,-74.653876,-3.456726,-74.370856,5.449573,-66.260081,12.17163,-47.595223,118.587473,117.868331,-126.090048,104.244473
79,-0.642288,-2.032404,1.019921,0.77792,0.0,6.784996,-8.538506,-48.361542,-24.457489,-64.452484,-39.334099,-71.929184,-52.565689,-79.170158,0.0,-66.395803,-24.109182,-88.335687,-14.100669,-88.409806,-4.485611,-76.681235,4.820626,-56.095328,0.0,-28.77792,2.644924,38.317989,18.555073,54.826355,34.037498,63.055034,48.487415,66.54705,0.0,-58.206581,-16.11716,-74.533408,-3.835812,-73.303019,6.453325,-64.165811,14.551441,-45.509548,117.536568,115.489733,-125.478744,104.676199
80,-1.711876,-1.797029,1.617565,1.344738,0.0,-4.015366,-13.2537,-60.765541,-28.177895,-77.544983,-41.793663,-83.355858,-53.627724,-88.224838,0.0,-66.655013,-23.312751,-82.256372,-11.928939,-80.124766,-1.021432,-67.705548,9.445534,-46.512251,0.0,-18.390495,4.607288,46.583473,19.290321,62.362026,33.692127,69.429829,47.183338,71.569462,0.0,-62.448321,-16.633541,-72.962107,-3.261576,-70.86066,8.391505,-60.479878,17.780562,-41.473978,115.46775,113.205629,-124.218121,105.533862
81,-3.135521,-0.876381,1.819702,2.170064,0.0,-14.575699,-18.6828,-72.990784,-32.376228,-89.605133,-44.327316,-93.422081,-54.331215,-95.392433,0.0,-65.012723,-21.918012,-74.206884,-9.083596,-69.44999,3.175188,-56.783493,14.828201,-35.370691,0.0,-7.148838,7.209618,56.139816,20.241566,71.032711,33.180096,76.471893,45.3097,76.455196,0.0,-65.367102,-16.514907,-69.547667,-1.818401,-66.455614,11.344008,-54.618795,22.1713,-35.285889,111.996174,111.503,-122.734474,106.877678
82,-4.142944,0.947375,2.251694,3.656779,0.0,-24.341103,-24.53373,-84.073334,-36.79422,-99.435219,-46.58384,-101.599789,-54.074249,-99.959725,0.0,-62.121285,-20.178664,-64.718112,-6.195777,-57.264948,7.341155,-43.953035,20.195299,-22.525284,0.0,4.597847,10.087108,65.342296,21.194,79.043037,32.508236,83.189632,43.039993,80.828487,0.0,-66.086285,-16.126589,-64.457395,-0.156463,-59.807361,14.309294,-47.043619,26.362999,-27.556498,107.561812,111.318662,-120.774198,109.402744
83,-5.453499,2.981823,2.914879,5.125754,0.0,-32.965576,-30.529472,-90.966545,-41.434525,-104.28186,-49.067642,-104.837563,-53.892059,-100.468369,0.0,-57.615099,-17.406145,-53.501156,-2.665451,-43.668737,11.68022,-29.684899,25.174049,-9.239622,0.0,15.739139,13.255588,74.176929,22.480167,87.448265,32.088398,89.464187,40.76556,84.562935,0.0,-64.876533,-14.545415,-57.423196,2.170972,-51.123938,17.315958,-37.760482,29.895085,-18.381999,101.880953,112.836118,-118.086679,113.064131
84,-6.078873,6.387172,3.475158,5.80951,0.0,-41.249656,-41.287193,-106.495617,-49.33715,-116.375999,-53.5513,-112.994259,-54.424965,-103.483749,0.0,-52.488443,-16.512604,-45.476579,-1.293153,-31.70005,13.855811,-16.655476,28.481877,1.305996,0.0,24.987912,17.030903,81.780545,24.372734,94.596794,31.974335,94.317593,38.385727,86.392342,0.0,-61.822321,-11.582216,-47.887426,5.710252,-39.816308,21.217342,-26.455019,33.996269,-7.392575,95.621921,117.537963,-114.79168,117.188314
85,-7.197143,7.932668,5.28661,7.999247,0.0,-49.765641,-50.403191,-116.104328,-55.262558,-120.660141,-55.718125,-114.816651,-52.481301,-101.395672,0.0,-44.288995,-14.909884,-39.025402,1.411194,-21.359505,17.588401,-4.685992,33.404645,11.184531,0.0,32.881107,23.097828,89.969776,29.931187,101.711048,36.264667,100.69376,40.686584,90.156384,0.0,-56.653737,-9.164373,-38.065542,9.149682,-29.382501,25.167455,-15.303685,38.549831,2.571867,88.120011,123.868214,-109.809837,123.585144
86,-7.033219,10.960537,5.150482,9.620992,0.0,-56.522369,-58.68045,-119.490543,-60.320297,-117.682102,-57.174705,-109.891525,-50.017433,-95.388508,0.0,-35.631272,-13.10511,-34.743591,4.029011,-12.491577,20.677601,5.008817,36.910389,18.490198,0.0,40.673184,26.831326,96.125748,32.680527,106.687054,37.724899,104.905449,40.615666,91.803417,0.0,-50.994034,-4.750676,-28.059184,14.060544,-18.120819,30.0452,-4.325617,43.14308,12.331637,80.619014,133.579463,-105.127133,131.956848
87,-6.265205,13.124081,5.580368,11.196912,0.0,-61.092499,-65.862419,-119.534397,-65.213196,-111.488915,-59.772263,-101.994564,-50.197563,-89.622517,0.0,-26.463368,-10.99132,-32.182814,7.070694,-6.044964,24.237247,12.171043,40.774303,24.474615,0.0,46.576275,29.946923,100.509739,33.776047,109.610962,36.599499,105.929352,37.26495,89.112522,0.0,-44.786506,-0.206543,-16.523503,18.075086,-4.295958,33.394079,9.829937,45.83123,24.489225,73.743439,145.683783,-100.157135,142.133999
88,-7.300804,14.29837,5.605087,12.653647,0.0,-67.303253,-66.99392,-117.587368,-63.783554,-105.414162,-56.827217,-95.735024,-46.422592,-85.219506,0.0,-17.526305,-8.84797,-29.656852,10.919399,-0.49036,29.470569,18.629432,46.981516,30.966016,0.0,51.38609,32.588173,103.228661,34.549462,110.480782,35.144452,104.873841,33.560006,84.652268,0.0,-38.735731,4.332397,-5.108062,21.96829,8.444505,36.484367,21.683423,48.051318,33.962443,65.831738,159.21771,-95.162945,154.023203
89,-6.823952,14.859619,6.070107,13.917493,0.0,-70.462692,-60.923126,-101.681007,-57.276695,-88.679935,-50.711723,-82.813911,-41.367462,-77.859604,0.0,-6.720174,-4.204944,-24.421973,17.03416,4.551363,36.539991,24.646837,54.046109,39.576061,0.0,55.451729,34.11969,102.111626,34.623482,107.319397,33.529816,99.830452,30.393459,77.71756,0.0,-32.659576,8.831779,5.115293,25.353966,19.561086,38.436705,31.400147,48.354266,40.195665,58.493963,173.547959,-89.606661,167.411326
90,-5.960106,17.194007,5.60043,14.489562,0.0,-72.709213,-54.512855,-85.818374,-50.029037,-73.413608,-43.887108,-69.88512,-35.847313,-71.3638,0.0,3.704172,-0.051796,-16.658372,21.279414,10.232537,40.848539,29.203215,57.694027,46.30945,0.0,59.827125,34.258815,101.10149,32.643779,103.643955,29.949955,94.846675,25.644687,72.806797,0.0,-27.26771,14.259899,14.275102,32.050575,29.964733,45.677014,42.454174,55.24098,51.261857,52.230348,190.14391,-84.30974,181.302832
91,-5.536629,16.376036,4.541278,14.588152,0.0,-75.770221,-45.400474,-75.950443,-39.980369,-67.365074,-34.300529,-67.032188,-27.962402,-70.392986,0.0,15.505862,5.017851,-8.554976,25.820466,14.207992,44.947582,33.777821,60.780325,54.787485,0.0,64.027806,35.080719,101.308205,31.473301,102.600953,26.929997,91.675393,21.150479,68.317749,0.0,-21.464802,17.496127,25.04793,35.620749,42.112249,49.478876,54.552043,58.891886,62.631849,46.62573,205.986323,-79.836451,195.357361
92,-4.470611,15.296034,5.175064,14.082823,0.0,-75.953053,-36.646431,-70.326359,-30.945099,-66.470432,-26.025604,-68.803688,-21.080864,-70.580166,0.0,15.450694,11.488294,-0.826443,31.524178,17.759023,49.253388,37.673988,62.856337,61.916595,0.0,67.103978,35.417256,100.075516,31.021798,101.057946,25.705536,89.091271,19.280903,66.230977,0.0,-16.965777,20.911827,34.14804,39.631328,50.33365,53.622082,61.684339,62.649264,69.208516,42.226284,220.868055,-74.590222,209.025882
93,-1.98127,14.219342,5.137814,13.172252,0.0,-72.303348,-34.038437,-66.985966,-27.458702,-65.5616,-21.549454,-67.07159,-15.566711,-66.102516,0.0,14.810898,17.898307,10.847361,34.823453,24.266565,49.054885,41.089687,58.899185,64.52834,0.0,69.863709,35.861527,99.1562,30.420124,98.92844,24.308636,86.706013,17.452297,64.877907,0.0,-12.536828,24.104656,42.060725,43.489333,58.176471,57.718888,69.389469,66.67292,76.32735,40.386131,234.786997,-69.311291,221.897734
94,-0.491478,14.704255,4.803944,12.175588,0.0,-69.417835,-34.149994,-56.350078,-27.550026,-53.615742,-21.114029,-53.726646,-14.757728,-52.64962,0.0,13.103277,19.306636,21.622549,32.343099,32.003781,42.808189,43.71776,49.427215,61.437275,0.0,71.912773,36.733417,100.531036,30.144882,99.810539,23.031017,87.462524,15.371521,65.892059,0.0,-8.893442,26.357052,48.709281,46.719757,65.184773,61.803308,77.374477,71.62229,84.881882,40.057182,249.270837,-64.344818,233.852907
95,0.992249,14.939437,3.751373,10.638596,0.0,-64.879452,-36.397797,-48.961773,-31.114037,-45.115963,-25.281166,-44.277626,-19.105156,-42.72202,0.0,10.745733,19.502658,28.471695,28.103897,35.851647,34.230205,43.029429,37.095745,54.67242,0.0,73.244087,35.896328,99.127991,27.660988,99.158501,19.045269,85.031067,10.356148,61.483063,0.0,-6.148797,27.532953,54.972032,45.885434,72.288836,59.585245,82.35256,68.486122,87.273833,41.118393,264.141802,-60.524483,244.423031
96,1.231681,12.77563,5.061333,9.403847,0.0,-58.113967,-41.032402,-39.690536,-37.669487,-32.373287,-32.820327,-29.873004,-26.689498,-30.202331,0.0,4.47646,19.756352,36.087546,24.426672,41.045153,26.617144,42.58748,26.204355,46.297383,0.0,72.58786,35.653598,96.20494,26.71455,95.695266,17.324524,81.209884,7.923877,58.279678,0.0,-3.796601,28.873406,58.088649,46.319046,74.825469,59.134689,84.110569,67.472069,87.013469,42.25217,276.912557,-55.561054,253.822003
97,0.268181,10.279517,3.741623,7.722407,0.0,-53.965782,-43.897796,-27.344833,-41.167236,-16.704174,-36.192833,-12.790775,-29.561851,-16.17295,0.0,9.319767,17.625877,43.454592,18.965836,47.155492,18.632297,43.289459,16.637018,39.17782,0.0,72.037445,35.101249,94.795509,25.725116,93.587768,15.816959,78.850822,6.01577,55.926887,0.0,-1.270206,29.455441,59.494596,46.631837,76.047621,59.225957,85.276677,67.496239,87.002391,42.399358,287.212979,-51.940424,261.565315
98,-6.229271,4.736577,2.459896,6.188664,0.0,-45.72591,-42.119899,-8.698196,-43.627544,1.894318,-42.310054,2.003563,-38.702385,-20.56834,0.0,9.868716,16.603204,45.389134,19.549279,50.32729,20.295582,46.66223,20.052039,44.185643,0.0,71.264522,34.352611,93.432117,24.993827,92.39233,15.006477,77.745105,5.251053,55.337825,0.0,0.225278,29.736997,59.634052,47.000647,75.231367,59.559532,84.619455,67.801545,86.168056,36.040426,291.96383,-49.610189,267.768253
99,-10.342437,3.326717,1.337791,4.15952,0.0,-32.439343,-35.766278,5.533378,-39.768608,12.087204,-40.739056,7.949409,-38.625481,-25.466195,0.0,8.188031,16.938496,44.183309,22.736403,49.866274,25.678205,48.169681,27.593048,49.404171,0.0,70.498936,33.422974,92.525471,24.168308,91.429745,14.189827,77.576717,4.518871,55.543041,0.0,1.264883,30.118788,59.840188,47.540629,74.234246,60.007593,83.63661,67.988192,84.963738,25.578719,295.268758,-48.391668,271.905984
100,-4.43319,-2.198598,0.353554,2.242306,0.0,-29.686077,-34.09671,10.682099,-39.563003,14.104386,-41.709171,7.889626,-40.607036,-38.360092,0.0,4.586919,19.976492,44.488257,29.719238,52.130525,35.427483,52.644436,39.800857,58.433031,0.0,69.667683,32.69704,91.953632,23.56834,91.0238,13.585728,77.759502,3.987385,55.852375,0.0,2.04174,30.447065,59.874903,48.041709,73.636242,60.474438,82.99469,68.269156,84.31684,21.045439,293.040116,-48.138204,274.118246
101,-8.840835,-1.526409,-0.222084,0.752614,0.0,-20.019047,-27.367596,22.906311,-34.578255,23.239746,-38.295273,14.748756,-38.533471,-41.392388,0.0,0.337602,19.625454,43.515244,33.300281,53.379539,42.311765,56.037252,49.434255,65.371518,0.0,69.329441,31.938675,91.714062,22.927597,91.094387,12.997272,78.233929,3.505977,56.355388,0.0,2.398805,30.727462,59.754379,48.524857,73.029322,60.982891,82.501971,68.622232,84.032665,12.166798,291.470154,-48.398094,274.827307
102,-4.921715,-2.809421,-0.390003,0.254214,0.0,-17.912304,-26.111332,28.066154,-35.051159,25.737945,-40.291397,14.71566,-41.905895,-52.538841,0.0,-1.124821,20.989903,43.2274,38.032572,54.514511,49.376395,58.976188,58.535846,73.045636,0.0,69.103065,31.218624,91.739593,22.318119,91.23088,12.56932,78.847206,3.324726,57.328079,0.0,2.329719,30.876317,59.445639,48.858852,72.554745,61.352418,81.979106,68.916745,83.619332,7.226458,288.581773,-48.806722,275.002561
103,-1.927963,2.961784,-0.152825,-0.125354,0.0,-11.613877,-24.069249,31.863441,-32.143811,29.484603,-36.42175,18.758903,-37.295174,-38.056401,0.0,-4.250651,18.685613,40.59871,35.636521,52.172886,47.364085,56.687916,56.603528,67.809338,0.0,69.111328,30.66061,91.653008,21.899266,91.31028,12.230713,79.058716,2.947689,57.365868,0.0,2.403833,30.717656,59.113213,48.610036,72.59003,61.123633,82.128196,68.796777,83.558237,5.304268,291.456091,-48.953774,274.789741
104,6.020691,-1.159277,0.067623,0.060997,0.0,-22.210259,-30.313786,23.475036,-38.064801,22.304718,-41.666028,13.081993,-42.092423,-45.247685,0.0,-0.594509,20.074577,41.092515,36.736691,52.822821,47.974253,56.559944,56.446434,67.598015,0.0,69.162655,30.083783,91.510128,21.418248,91.356526,11.866597,79.10558,2.694718,57.590367,0.0,2.397102,30.468568,58.866841,48.406395,72.531071,61.087102,82.121688,68.983275,83.618777,11.349381,290.19206,-48.861729,274.745984
105,-4.46505,1.759738,0.082135,0.260118,0.0,-13.154572,-25.384083,30.339798,-33.651867,29.656448,-37.691529,19.890243,-38.420151,-35.251511,0.0,-4.414006,17.874114,40.512828,34.777326,52.500386,46.435087,56.211474,54.99835,65.45535,0.0,69.051155,29.658714,91.022964,21.074981,90.935028,11.619014,78.903076,2.469635,57.684494,0.0,2.238032,30.26137,58.373603,48.196196,72.062335,60.996439,81.85558,69.076839,83.636326,6.927052,291.831092,-48.736873,274.885396
106,4.437286,-1.21941,-0.076973,0.391905,0.0,-20.619438,-30.87347,23.977753,-39.264404,23.572243,-42.9837,13.123375,-43.413769,-45.750915,0.0,-3.282973,19.142739,40.960209,36.328718,52.410712,48.047329,56.918677,56.890531,68.132539,0.0,68.718864,29.187938,90.517799,20.71154,90.68042,11.446666,78.933769,2.43742,57.947845,0.0,1.981929,29.943565,57.903263,47.93272,71.585153,60.874001,81.504579,69.135119,83.489867,11.417719,290.478403,-48.760465,275.144022
107,-5.528068,1.098009,-0.180313,0.32808,0.0,-13.372193,-25.661076,31.107215,-34.296364,31.083343,-38.572838,20.630745,-39.642609,-35.835949,0.0,-6.889605,16.937866,39.953961,34.653442,51.425681,47.112538,56.453066,56.399393,66.209668,0.0,68.625274,29.092735,90.057083,20.761116,90.470352,11.580493,78.802001,2.596172,58.098861,0.0,1.701928,29.574508,57.652593,47.544804,71.140081,60.598199,81.072684,69.079235,83.315175,5.963854,291.445198,-48.866575,275.340888
108,1.0112,-3.055806,-0.10191,0.082906,0.0,-18.180932,-27.703789,27.945007,-37.008007,27.711982,-41.991108,16.721649,-43.664338,-49.348755,0.0,-3.270376,19.711213,42.546121,37.563344,53.64283,49.659793,58.782761,58.738227,71.320108,0.0,68.410435,28.669029,89.51778,20.433803,90.177898,11.374821,78.751133,2.554241,58.223385,0.0,1.907211,29.418501,57.70413,47.421315,71.029721,60.523123,80.948887,69.072097,83.303022,7.057595,288.256193,-48.885944,275.290595
109,-6.849976,1.128884,-0.147125,-0.026194,0.0,-7.536095,-20.697865,36.741623,-30.112083,36.065941,-35.604698,23.966789,-37.771706,-40.148918,0.0,-6.46554,18.2017,41.68243,36.472906,52.807668,49.147412,58.598301,59.068505,71.615917,0.0,68.004261,28.290401,88.848209,19.99871,89.669941,11.00362,78.195545,2.268436,57.415844,0.0,2.401004,29.407188,57.771684,47.38072,71.168411,60.341131,81.004425,68.702668,83.262575,0.285547,289.279256,-48.955141,275.15858
110,3.260765,-1.827454,-0.070771,0.057872,0.0,-15.371899,-25.610252,30.63755,-34.838436,30.349869,-40.272697,18.710289,-42.500118,-49.931042,0.0,-1.711845,21.340671,43.515701,38.711086,53.230016,50.391473,59.227303,59.854971,74.541751,0.0,67.840222,27.969407,88.655102,19.597618,89.451405,10.664544,77.848378,2.076153,57.038258,0.0,2.912841,29.510053,58.201035,47.442422,71.528157,60.262153,81.09694,68.422507,83.08124,3.61619,287.330524,-48.956034,275.095174
111,-4.891457,1.763876,-0.156887,0.078114,0.0,-7.113864,-20.37664,36.852883,-29.591583,36.290452,-35.257873,24.160447,-37.674705,-43.986179,0.0,-3.769072,19.131698,43.543612,36.43462,52.707595,48.434183,58.945955,58.289622,72.22737,0.0,67.751198,27.66623,88.550309,19.073353,89.110085,10.068673,77.146614,1.513333,56.037644,0.0,3.270512,29.492108,58.573057,47.447868,71.861412,60.155399,81.266679,68.11478,82.942326,-1.212594,288.940577,-49.050248,275.019465
112,5.746766,-0.660717,-0.062954,-0.002445,0.0,-14.19983,-26.512185,28.680198,-35.568947,27.697334,-40.789639,15.563827,-42.765358,-58.404168,0.0,-3.398162,22.016344,44.622379,38.547225,52.738199,49.627522,59.101072,59.133318,74.739512,0.0,67.472615,27.598195,88.375683,18.86023,88.798428,9.751191,76.641026,1.127404,55.389439,0.0,3.711867,29.56648,58.729545,47.431097,72.242523,60.002727,81.461353,67.777956,83.001038,4.575177,288.121995,-49.072197,274.859155
113,-2.231095,2.602669,-0.075885,0.141977,0.0,-9.078026,-23.990902,32.291313,-32.890686,31.191582,-37.857845,18.810517,-39.521621,-52.903255,0.0,-6.269878,18.446478,43.357002,35.495902,51.453098,47.351142,57.916143,57.526424,71.077107,0.0,67.285217,27.566105,88.329162,18.627708,88.486404,9.374015,76.043014,0.644806,54.442176,0.0,3.817509,29.384007,58.750749,47.232853,72.489055,59.755848,81.538553,67.441465,82.916613,2.400427,290.529248,-49.091737,274.805716
114,-0.190304,1.847745,-0.078484,0.111397,0.0,-5.821712,-22.839557,33.343083,-31.823856,32.739636,-37.250759,19.890095,-39.336845,-54.275871,0.0,-12.497073,17.39582,42.975619,34.169133,50.723097,45.852954,57.362662,55.442558,69.190052,0.0,67.15638,27.598949,88.529388,18.632893,88.42424,9.284924,75.888245,0.479816,54.40551,0.0,3.850904,29.144898,58.776636,46.976799,72.604406,59.540192,81.531379,67.3017,82.90782,2.274587,292.14149,-49.105757,274.68161
115,-5.025741,2.958129,-0.212048,0.147621,0.0,5.215942,-15.907002,41.425472,-24.964817,40.306103,-30.615784,25.70422,-32.757946,-43.812813,0.0,-19.000516,13.613792,40.785813,30.891458,49.057886,43.522715,56.276423,53.778668,65.693805,0.0,67.098553,27.653172,88.486577,18.723679,88.321988,9.353829,75.71291,0.514893,54.226994,0.0,3.769665,28.692465,58.484062,46.587993,72.534541,59.249224,81.441902,67.151152,82.878216,-2.670587,294.839433,-49.237238,274.569045
116,-0.65538,0.531078,-0.071067,0.108606,0.0,8.460617,-14.34232,41.448452,-23.319146,40.248493,-28.932759,26.143718,-31.018868,-35.720787,0.0,-19.767542,13.648595,38.722782,30.709418,48.601958,43.085374,55.644049,53.119964,64.219539,0.0,67.091938,27.896335,88.447162,19.038219,88.252636,9.59349,75.546924,0.648754,54.257023,0.0,3.843988,28.333115,58.265516,46.189234,72.589499,58.896889,81.365159,66.914439,82.825359,-3.234346,295.104388,-49.216684,274.411528
117,-0.72313,-0.050747,-0.069809,0.102864,0.0,8.976757,-13.415508,42.903637,-22.780643,42.362194,-28.525566,27.37975,-30.66933,-35.282615,0.0,-20.570655,12.740308,38.816915,30.304941,48.716716,43.048361,55.937574,53.297658,64.018826,0.0,67.224025,27.832283,88.444576,18.973503,88.168842,9.507076,75.335415,0.561298,54.046978,0.0,3.840073,27.884943,58.196948,45.828069,72.660475,58.650714,81.328689,66.800781,82.736228,-3.850371,294.766857,-49.179388,274.227608
118,-0.298141,-0.319274,-0.067692,-0.006385,0.0,8.580219,-13.307076,43.560276,-22.821865,42.59563,-28.725598,27.801258,-30.930073,-33.6828,0.0,-20.322493,12.445104,38.867216,30.147786,49.128356,43.005037,56.455821,53.257087,64.233705,0.0,67.272125,28.042431,88.479881,19.259697,88.236374,9.785889,75.326362,0.803696,54.258087,0.0,3.946086,27.546402,58.17105,45.50236,72.681532,58.415347,81.211388,66.709563,82.782479,-4.056473,294.187589,-49.155041,273.961229
119,0.337372,-0.671042,0.025234,0.083178,0.0,8.483997,-14.001263,43.263668,-23.453522,41.997722,-29.178761,27.482769,-31.189957,-35.588173,0.0,-19.5032,13.084727,40.281634,30.602726,49.712639,43.351297,57.121725,53.636853,64.82725,0.0,67.546909,28.009609,88.369091,19.230114,88.173374,9.765427,75.1833,0.845684,54.139446,0.0,4.087149,27.22772,58.235751,45.272327,72.714543,58.332206,81.099014,66.770004,82.809563,-3.625848,293.26556,-49.036554,273.79342
120,-0.482392,-0.730902,0.071663,-0.074965,0.0,7.947453,-14.593071,42.783543,-23.956993,41.241497,-29.371124,27.863079,-30.917347,-31.931797,0.0,-16.979128,13.135152,40.166654,30.862819,50.612194,43.640164,57.961653,54.073057,65.203223,0.0,67.629444,28.004036,88.507862,19.24847,88.240688,9.786816,75.331524,0.847939,54.453381,0.0,4.31108,27.235637,58.334219,45.30503,72.682816,58.453138,81.026297,67.015796,83.023935,-4.029293,292.325858,-48.885944,273.509655
