takenoko1/special-research/HandMotion_SimilarSearch_自分用/NewProject/handData/test_key/d4_feature_d3/108.csv
frame,vel_0x_L,vel_0y_L,vel_0x_R,vel_0y_R,posFromWrist_0x_L,posFromWrist_1x_L,posFromWrist_2x_L,posFromWrist_3x_L,posFromWrist_4x_L,posFromWrist_5x_L,posFromWrist_6x_L,posFromWrist_7x_L,posFromWrist_8x_L,posFromWrist_9x_L,posFromWrist_0y_L,posFromWrist_1y_L,posFromWrist_2y_L,posFromWrist_3y_L,posFromWrist_4y_L,posFromWrist_5y_L,posFromWrist_6y_L,posFromWrist_7y_L,posFromWrist_8y_L,posFromWrist_9y_L,posFromWrist_0x_R,posFromWrist_1x_R,posFromWrist_2x_R,posFromWrist_3x_R,posFromWrist_4x_R,posFromWrist_5x_R,posFromWrist_6x_R,posFromWrist_7x_R,posFromWrist_8x_R,posFromWrist_9x_R,posFromWrist_0y_R,posFromWrist_1y_R,posFromWrist_2y_R,posFromWrist_3y_R,posFromWrist_4y_R,posFromWrist_5y_R,posFromWrist_6y_R,posFromWrist_7y_R,posFromWrist_8y_R,posFromWrist_9y_R,posFromBody_0x_L,posFromBody_0y_L,posFromBody_0x_R,posFromBody_0y_R
6,-3.492553,-1.524481,0.078701,0.184387,0.0,12.04319,-10.222184,48.678096,-19.635682,51.160686,-25.639538,35.846019,-28.428658,-17.249886,0.0,4.095077,22.713703,53.343414,39.959136,63.338916,50.854379,67.000111,59.283248,75.514863,0.0,67.5546,27.827671,85.236683,17.369488,83.913746,6.210011,69.395931,-4.344269,47.078076,0.0,8.170752,32.214029,63.524933,48.850158,76.526285,60.303513,84.456964,67.210334,86.783769,-9.583643,295.126338,-43.306956,285.62642
7,-1.110981,-1.773052,-0.097091,-0.145966,0.0,10.543888,-10.064496,49.410369,-19.128067,52.642158,-24.476498,38.311431,-26.759526,-8.907143,0.0,7.659447,23.93399,54.325641,40.962506,65.148846,51.567732,68.452764,59.645464,75.493287,0.0,67.326862,28.051197,85.036823,17.659046,83.969318,6.529895,69.683155,-4.00858,47.322956,0.0,8.09023,32.435244,63.797685,49.205408,76.745265,60.651057,84.746858,67.466067,87.062116,-11.198661,293.666175,-43.908084,285.793343
8,3.727375,-2.018597,-0.287076,-0.236072,0.0,9.530834,-13.128182,44.736225,-22.596463,48.474071,-28.595765,32.76971,-31.352589,-25.794732,0.0,-0.527644,24.70287,56.009526,43.272935,67.618863,54.872293,71.463308,63.869687,81.719026,0.0,67.22715,28.2174,85.111451,17.725514,84.143395,6.559605,69.916398,-3.937671,47.488839,0.0,8.273567,32.700906,64.22527,49.627016,77.090832,61.067823,85.050893,67.702584,87.267572,-7.664342,291.833234,-44.388216,285.742927
9,-1.522328,2.142085,-0.288608,-0.219276,0.0,15.753342,-10.645981,47.560616,-20.426639,48.964348,-26.620102,32.684601,-29.787323,-17.138809,0.0,-0.416902,23.235618,54.654845,41.872028,65.926222,53.82918,69.965415,63.180515,77.550947,0.0,67.187359,28.278992,85.29958,17.763096,84.33118,6.617786,70.146297,-3.851704,47.71558,0.0,8.462042,32.950527,64.384747,49.959085,77.39173,61.357766,85.432041,67.881463,87.424443,-9.212174,294.099996,-44.702328,285.648328
10,3.21666,-0.399994,-0.230049,-0.331402,0.0,10.494278,-14.054604,42.730774,-23.721371,45.683441,-30.103936,29.754226,-33.397488,-30.670235,0.0,-5.245525,22.882282,54.708642,42.267971,65.950082,54.654758,70.405288,64.446929,80.671627,0.0,67.264858,28.349121,85.471081,17.847713,84.517467,6.722706,70.469456,-3.754086,48.152538,0.0,8.787911,33.161602,64.579162,50.166714,77.645265,61.524492,85.851895,68.008174,87.61167,-5.931736,293.796064,-44.868599,285.412988
11,-1.537434,2.112321,-0.114327,-0.304269,0.0,15.925289,-11.919708,45.026333,-21.479816,46.334484,-27.590778,31.461331,-30.794186,-17.784176,0.0,-3.549883,21.492169,52.784622,40.478531,64.602157,53.116877,68.704138,63.192321,76.159759,0.0,67.264263,28.325695,85.569203,17.853413,84.529164,6.768402,70.606076,-3.674171,48.397511,0.0,9.092292,33.376827,64.851123,50.308135,77.932367,61.587712,86.167291,68.031504,87.891313,-7.376358,295.9826,-44.890114,285.182934
12,-0.240314,0.733101,-0.299034,-0.210383,0.0,19.543762,-10.533829,44.828521,-20.181874,46.758705,-26.572998,31.910362,-29.992482,-16.314927,0.0,-4.819645,19.428581,51.496002,38.214761,63.997126,51.449887,68.694307,62.054347,76.628395,0.0,67.439999,28.316632,85.837475,17.884358,84.781323,6.881344,71.007488,-3.46915,48.856922,0.0,9.235836,33.498635,64.959618,50.429598,78.04595,61.710854,86.313355,68.164131,88.000944,-7.506734,296.757932,-45.07921,285.014782
13,-1.444153,-0.684183,0.047722,0.036815,0.0,21.731849,-10.003441,45.586487,-19.619522,48.111099,-25.992897,33.796829,-29.340718,-15.140774,0.0,-3.711138,19.378786,52.116953,38.127051,64.778579,51.375182,69.595494,62.007059,77.234316,0.0,67.318989,27.991859,85.958347,17.563774,84.67107,6.647358,70.806004,-3.562454,48.68668,0.0,9.08871,33.533117,64.809145,50.4603,78.038726,61.741755,86.339105,68.240998,88.03734,-8.828602,296.102633,-44.909203,285.080481
14,-0.99717,-1.334352,0.050079,0.091984,0.0,23.126747,-10.211311,46.890908,-19.847076,49.07309,-26.004707,35.375725,-28.956436,-13.595283,0.0,-1.100726,20.591836,53.113431,39.136152,66.465204,52.293485,70.989398,62.753548,79.116666,0.0,67.084271,27.881894,86.059124,17.487282,84.614857,6.62661,70.708661,-3.505577,48.560841,0.0,8.757122,33.485075,64.388291,50.425114,77.951719,61.718623,86.353715,68.258436,88.0365,-9.686371,294.787368,-44.719723,285.191552
15,-1.076339,-0.942793,0.050446,0.19276,0.0,24.90184,-10.125504,47.439537,-19.37994,49.776557,-25.066338,36.509147,-27.359425,-12.496914,0.0,0.035902,21.309993,54.075132,39.712369,67.68848,52.757712,72.257652,63.18296,80.164484,0.0,66.977268,27.780716,86.172558,17.400284,84.542118,6.607349,70.64645,-3.413132,48.551365,0.0,8.505576,33.400069,64.085084,50.413011,77.808928,61.733826,86.234117,68.27564,87.854089,-10.639051,293.852649,-44.545618,285.392386
16,-1.063683,-1.299364,0.199757,0.232268,0.0,26.546059,-9.586658,49.234314,-19.322639,50.662308,-25.292232,37.054802,-27.705345,-12.088222,0.0,0.735583,21.728031,55.133991,40.548593,68.690899,53.842543,73.554015,64.252032,81.715172,0.0,66.782363,27.733451,86.159385,17.32592,84.332679,6.513599,70.363517,-3.503014,48.230484,0.0,8.146756,33.269961,63.661785,50.321312,77.612005,61.669531,86.100229,68.252668,87.590971,-11.58256,292.555745,-44.225687,285.627114
17,2.018692,-1.490334,0.385425,0.225438,0.0,19.91304,-13.40538,46.399933,-22.995403,48.603012,-28.882679,35.156754,-31.020172,-26.355869,0.0,-1.008767,24.174261,57.090256,43.360744,69.836048,56.04975,74.340629,65.949835,84.649651,0.0,66.468258,27.873036,85.985653,17.413708,83.970234,6.472069,69.847813,-3.659912,47.648266,0.0,7.862199,33.158724,63.343116,50.250127,77.403771,61.627517,85.83122,68.243332,87.307858,-9.445507,291.063991,-43.721901,285.851132
18,-2.902531,0.646588,0.225449,0.147732,0.0,24.681118,-9.806156,51.701306,-19.548259,51.403233,-25.431186,38.029942,-27.738544,-12.297134,0.0,3.468496,24.843117,56.482584,43.40255,69.702359,55.79771,73.493933,65.251142,81.298889,0.0,66.402385,28.077369,85.836376,17.67865,83.769733,6.684654,69.657017,-3.558655,47.435016,0.0,7.673662,33.038323,63.176995,50.056576,77.176468,61.441722,85.452097,68.134182,87.074157,-12.247301,291.695216,-43.395715,285.983501
19,2.197163,-0.920649,0.192112,0.149016,0.0,18.245224,-12.011581,48.036438,-21.618187,50.519028,-27.459263,37.374687,-29.676064,-21.756123,0.0,1.292807,25.065777,57.282375,43.726998,69.936565,55.864795,73.949651,65.104904,83.344988,0.0,66.45005,28.116726,85.700134,17.720936,83.611885,6.697769,69.508552,-3.578476,47.177559,0.0,7.567735,32.82684,63.19615,49.847551,76.967307,61.292471,85.032639,68.051436,86.870529,-9.974144,290.75765,-43.127609,286.1156
20,-2.550716,1.436006,0.08567,0.124514,0.0,20.765956,-8.373345,53.224834,-18.351746,53.794521,-24.447407,39.682491,-27.112816,-9.475422,0.0,6.984033,24.93599,56.38645,42.639487,68.702533,54.182281,72.252564,62.775666,79.604531,0.0,66.422928,28.284497,85.740555,17.917855,83.588288,6.839218,69.43776,-3.550792,47.009308,0.0,7.276162,32.509813,63.032115,49.473343,76.781314,60.97842,84.708264,67.858528,86.801343,-12.463262,292.17439,-42.980341,286.220848
21,3.856327,-0.688789,0.139069,-0.080696,0.0,12.793945,-12.259804,48.495712,-22.284474,51.867416,-28.276486,37.070091,-30.711205,-24.251942,0.0,4.916235,25.92223,57.657385,43.357681,69.303525,54.274734,72.901721,62.44566,82.538404,0.0,66.454239,28.276485,85.717872,17.937893,83.643722,6.8764,69.430389,-3.496365,46.795738,0.0,7.467774,32.476308,63.336706,49.449644,76.944163,60.98588,84.549813,67.867865,86.963636,-8.556512,291.470997,-42.790849,286.125548
22,-2.291932,1.366957,0.014511,-0.065295,0.0,18.828209,-9.867553,52.527375,-19.891399,53.500947,-25.635189,38.643403,-27.918102,-13.769966,0.0,7.398613,25.123105,56.309781,42.382914,68.526099,53.676348,71.705875,62.232102,79.606593,0.0,66.158089,28.085346,85.804069,17.865692,83.976791,6.971844,69.775635,-3.228561,47.252197,0.0,7.45535,32.411322,63.872601,49.384806,77.627542,60.937307,85.019943,67.871323,87.304474,-10.816018,292.827367,-42.743912,286.049666
23,3.453587,-1.128576,0.051121,-0.349828,0.0,13.920353,-13.264126,48.037136,-23.254452,51.219853,-29.352276,35.736729,-31.932609,-28.302601,0.0,2.889315,24.881946,57.858012,42.717441,70.167006,54.188655,74.143288,63.132251,83.963382,0.0,66.188198,27.881836,85.822574,17.790481,84.477619,6.996757,70.309307,-3.170311,48.000332,0.0,7.444135,31.739786,64.613383,48.754865,78.788252,60.429373,86.05346,67.550344,88.00376,-7.342432,291.702156,-42.672792,285.703203
24,-0.795341,2.124585,-0.098866,-1.064516,0.0,10.7616,-12.343792,49.650341,-21.797974,52.349979,-27.360455,37.208919,-29.844876,-16.783574,0.0,10.762899,23.855815,58.020341,39.442928,69.629332,49.372332,71.563108,57.174299,77.940777,0.0,66.274017,27.101452,85.315796,17.292492,84.745949,6.879009,70.586586,-2.987526,48.60054,0.0,7.456301,30.880023,65.195628,47.854643,80.374757,59.601869,87.767615,66.976819,89.372903,-8.166915,293.841648,-42.8008,284.653594
25,7.541187,0.638907,0.148419,-2.568594,0.0,-1.542137,-18.92062,36.392898,-27.859223,37.498764,-32.76622,23.050918,-34.408939,-30.294949,0.0,7.306333,20.689179,53.452021,36.695355,65.722174,47.642567,69.292681,56.507172,78.003096,0.0,65.79523,25.577533,82.915111,15.64389,82.379711,5.181015,68.122455,-4.72942,46.287151,0.0,7.854146,28.77537,65.69157,45.272598,81.316684,57.101902,88.632984,64.874093,89.646691,-0.732124,294.542321,-42.758777,282.146766
26,-0.680443,3.901144,0.67535,-4.786485,0.0,-10.29602,-16.751026,20.260563,-20.499298,21.854027,-21.324898,13.487549,-20.189518,-18.383812,0.0,11.888115,16.994072,47.863275,30.604196,63.173759,40.589361,67.078003,48.920554,72.240881,0.0,63.962082,23.762615,77.783775,13.913223,74.740013,3.546913,59.722927,-6.277474,39.147297,0.0,9.838743,26.938803,65.37158,42.999097,82.879971,54.974972,89.694981,63.357281,88.80701,-1.591278,298.545958,-42.262138,277.462774
27,10.707207,-8.459782,-2.290135,-7.242452,0.0,-26.416397,-22.213246,-5.618798,-21.273308,-1.114403,-17.926289,-3.918938,-13.377571,-23.987629,0.0,21.204808,18.951646,56.340743,31.189528,71.820558,40.330775,76.103332,47.892928,79.624081,0.0,62.146225,23.261925,70.667931,14.137917,66.119728,4.248288,51.487416,-5.400415,32.86908,0.0,8.4768,21.196718,57.560269,33.422688,72.901412,42.752008,77.548174,49.558305,74.064172,8.885639,290.197231,-44.782563,270.331377
28,10.421516,-12.124533,-5.328678,-9.476503,0.0,-34.231338,-24.434418,-26.962395,-18.743774,-20.566475,-10.743255,-16.956322,-2.334125,-16.430477,0.0,34.121549,19.006246,61.500385,29.861857,77.158128,38.825881,81.305693,46.127756,82.115007,0.0,59.734875,24.189846,61.660801,16.448284,56.607777,7.489826,43.510311,-1.749796,27.733772,0.0,3.645139,12.177873,42.431024,17.171771,51.435352,20.961153,52.259195,23.896823,45.216171,19.075418,278.209321,-50.342978,260.991497
29,15.130577,-21.15516,-8.88747,-27.728022,0.0,-42.849792,-28.138767,-48.030761,-18.403415,-39.519378,-7.041549,-30.976318,4.210533,-21.653675,0.0,36.939381,19.397262,62.856646,31.26274,78.967897,41.52178,84.928911,49.705204,86.829379,0.0,51.798145,27.522251,54.743122,21.334305,47.802566,13.276897,36.397533,4.374418,23.973369,0.0,-8.434396,6.333283,28.556694,11.158726,37.153506,15.572985,38.855947,19.603119,33.774808,33.780212,257.308393,-59.656231,233.517707
30,10.90448,-30.527551,-6.161682,-31.970634,0.0,-42.1054,-28.11819,-56.739647,-14.979286,-42.852997,-0.5961,-28.621353,13.306229,-10.953712,0.0,40.995432,21.850433,65.948045,33.279841,81.333468,42.990155,85.658739,50.404515,85.086572,0.0,44.205311,22.311653,40.696621,16.126613,33.941162,8.976208,24.720657,1.703344,15.083198,0.0,-15.268604,-5.98777,-1.892347,-2.742082,14.11378,1.492835,18.233687,6.375014,15.552749,44.233892,227.278893,-66.268713,202.045124
31,19.472008,-39.662147,-7.496315,-37.846135,0.0,-40.647377,-30.471405,-55.53297,-18.354996,-42.041084,-4.93943,-28.984611,8.434731,-14.647408,0.0,27.043358,17.565077,63.708029,30.127161,75.681249,41.131622,79.82627,49.952001,80.97048,0.0,36.587482,17.091453,26.205345,9.979786,25.752537,3.097824,17.961204,-3.350206,10.709278,0.0,-27.292207,-20.824993,-36.395705,-19.881169,-6.984855,-16.202308,-2.658924,-10.791595,-2.850029,63.504513,188.323952,-73.966415,164.906195
32,10.391121,-34.089921,-5.167488,-43.747561,0.0,-38.195458,-25.504852,-44.639763,-13.43811,-32.871758,-1.161575,-20.475403,10.788986,-8.105026,0.0,12.691408,1.605746,24.283226,12.34221,51.468469,23.494526,55.94378,33.278051,58.973299,0.0,28.299854,10.642971,12.376522,1.842602,17.913986,-5.447743,10.145221,-11.497067,3.888118,0.0,-37.85249,-32.180635,-65.030323,-30.087728,-16.01802,-24.19136,-9.347802,-16.155736,-6.675788,73.676027,155.261632,-79.35351,122.186235
33,8.129242,-37.001217,-2.966378,-48.124702,0.0,-34.561043,-19.546692,-31.09639,-7.356514,-23.534363,4.286819,-11.853928,15.575981,-1.128662,0.0,-7.110652,-13.927101,-15.993406,-5.409243,25.408819,4.711279,31.126326,14.4061,34.977694,0.0,20.750782,2.53204,0.130291,-8.930202,11.80687,-17.364395,2.801285,-23.642555,-4.235973,0.0,-45.272661,-40.474783,-88.728612,-33.637469,-15.696554,-22.883011,-4.807739,-10.227733,2.215314,81.816324,119.961979,-82.308833,75.763097
34,5.931404,-39.07986,0.701317,-36.036744,0.0,-27.111923,-13.066887,-17.824104,-0.38784,-15.373466,11.103195,-4.054504,22.252762,5.73381,0.0,-27.554373,-29.843301,-54.602425,-23.342983,4.766502,-13.975038,11.329299,-3.83927,15.257465,0.0,18.493904,-7.658226,-13.596862,-22.234417,4.715939,-32.162693,-5.487522,-38.879024,-13.44722,0.0,-45.487317,-52.028038,-113.911056,-47.822205,-22.870729,-38.487136,-13.282378,-26.281605,-8.193292,88.14957,83.135101,-81.205674,41.979335
35,5.44384,-34.994866,-3.30368,-35.599063,0.0,-22.665642,-6.134788,-7.520439,7.294693,-10.044411,18.968124,0.862862,29.87661,10.478096,0.0,-45.254925,-44.456147,-84.707041,-40.64485,-15.181666,-32.554644,-7.178627,-22.53493,-2.756081,0.0,17.755543,-8.025753,-16.939751,-23.249897,6.958305,-34.157524,-5.019024,-42.256188,-13.943081,0.0,-51.559995,-55.001253,-119.799563,-51.729691,-21.935587,-43.113298,-14.75386,-31.173584,-11.557529,94.103594,50.298051,-83.99917,8.538088
36,2.184174,-35.895378,-2.412323,-32.025092,0.0,-17.991715,-0.192238,2.485427,14.106308,-4.750122,26.141395,6.800491,37.238868,17.687347,0.0,-45.849336,-52.636712,-114.409453,-50.415315,-26.922408,-43.751186,-18.283347,-34.755806,-14.596439,0.0,17.908436,-7.676674,-17.162682,-22.942062,8.995468,-34.143231,-3.184433,-42.839974,-13.063603,0.0,-53.779304,-56.264564,-124.116349,-53.008752,-23.433558,-44.888881,-16.101185,-33.292598,-13.666428,96.683556,16.907001,-86.015705,-20.982676
37,3.914291,-33.882964,-1.659268,-26.763338,0.0,-15.854256,2.20562,7.159241,16.40744,-3.210938,28.752228,8.889816,40.167114,19.36924,0.0,-53.711861,-53.810686,-117.983051,-51.682773,-31.538646,-45.95809,-21.824708,-37.578732,-18.702249,0.0,19.588395,-7.62656,-16.272388,-22.816898,11.779896,-34.154113,-0.69255,-43.160362,-11.226631,0.0,-54.694872,-56.805523,-126.810572,-53.745873,-25.027621,-46.112358,-17.838015,-34.742987,-16.177305,100.833727,-14.40747,-87.439093,-45.177521
38,2.412666,-27.769611,-0.613048,-22.044335,0.0,-17.511612,3.34037,8.976517,17.552101,-3.219108,30.002564,9.700127,41.516579,20.297837,0.0,-58.375721,-54.616535,-120.287885,-52.332073,-33.13976,-46.475173,-23.234315,-37.772746,-20.217246,0.0,20.377212,-7.307968,-15.2276,-22.201069,13.029808,-33.393894,0.567215,-42.25375,-10.039375,0.0,-55.278043,-56.412441,-127.006022,-53.74055,-25.479443,-46.453684,-18.327202,-35.229796,-17.792276,103.055093,-40.176621,-88.243441,-65.221396
39,1.993561,-20.950828,-0.524952,-16.331453,0.0,-20.155609,3.384842,8.885285,17.348122,-4.325409,29.88897,9.602715,41.42244,20.604263,0.0,-61.102076,-54.69205,-120.626413,-52.68405,-34.062046,-47.03707,-23.705952,-38.453331,-21.004464,0.0,21.060986,-6.748604,-14.369797,-21.153877,14.535393,-32.051342,2.003963,-40.720917,-8.803871,0.0,-56.390757,-55.828927,-127.147143,-53.167537,-26.179408,-46.196375,-18.38705,-35.290061,-18.216106,104.521894,-59.657215,-89.295153,-80.082615
40,0.247513,-16.098104,0.53302,-11.483724,0.0,-21.364838,3.88195,10.027222,18.262916,-4.687912,30.876045,10.037361,42.24852,20.949852,0.0,-62.350882,-55.714093,-126.048408,-53.494126,-31.973598,-47.692298,-21.417964,-38.981176,-19.660294,0.0,20.536205,-6.628143,-14.965897,-20.998661,14.297527,-31.744297,2.288429,-40.266438,-7.980286,0.0,-57.433703,-56.052998,-130.030476,-53.29223,-25.654286,-46.645036,-17.454841,-36.254365,-18.159327,104.103327,-74.241609,-89.428213,-90.052629
41,0.176536,-8.433075,0.224201,-7.312218,0.0,-23.772148,3.174546,9.441308,17.574509,-5.746833,30.381478,9.707566,42.013115,20.836373,0.0,-64.293192,-56.277003,-126.554505,-54.234442,-32.575414,-48.460454,-21.77992,-39.794732,-20.361753,0.0,20.189976,-6.896072,-15.39299,-21.27119,14.019459,-32.134632,2.432842,-40.743576,-8.134998,0.0,-58.597202,-55.981649,-129.489463,-53.439514,-25.592344,-47.020271,-16.348323,-36.922356,-17.70113,103.529136,-81.636935,-89.954739,-96.327098
42,0.238289,-4.914307,0.069248,-4.419922,0.0,-25.575325,2.130753,8.842163,16.736184,-6.216613,29.760933,9.407158,41.830056,20.989312,0.0,-65.187663,-56.846784,-128.291468,-54.575462,-32.269784,-48.750203,-21.954847,-40.324214,-20.941578,0.0,19.406754,-7.012333,-15.718723,-21.524791,13.341488,-32.496425,2.420643,-41.208469,-8.263401,0.0,-59.001642,-56.193014,-129.491701,-53.601658,-26.509267,-47.226181,-16.540512,-37.347523,-17.910438,103.183502,-85.984583,-90.469414,-100.180361
43,0.579323,-2.022444,-0.346103,-2.378978,0.0,-26.160484,1.621536,8.765854,16.295288,-6.481613,29.322922,9.011353,41.533402,21.045273,0.0,-64.345263,-57.421495,-129.968059,-54.865352,-32.323043,-49.135365,-22.45274,-41.102933,-21.366173,0.0,19.004596,-6.948063,-15.562088,-21.506424,13.035587,-32.599571,2.856353,-41.401268,-7.615471,0.0,-59.730263,-56.34764,-129.74622,-53.773098,-26.62139,-47.513468,-16.59576,-37.890695,-18.082512,103.28861,-87.661956,-91.289732,-102.214268
44,0.880623,0.368928,-0.401413,-1.345634,0.0,-27.25914,1.332962,8.215073,15.969566,-6.910767,28.881775,8.190468,41.125488,20.2733,0.0,-64.00554,-57.533831,-130.706368,-54.784363,-32.706834,-49.241017,-23.027303,-41.688876,-21.626519,0.0,18.898968,-6.977394,-15.432518,-21.578202,12.913833,-32.767525,3.359585,-41.598438,-7.069302,0.0,-59.747624,-56.156402,-129.52608,-53.691279,-26.452188,-47.504789,-16.560729,-37.971946,-18.19307,103.850063,-87.287199,-92.010315,-103.554073
45,0.56012,1.818704,-0.175713,-0.295278,0.0,-28.58329,1.527603,7.9132,16.124359,-6.535447,28.918487,8.279503,41.156387,20.120842,0.0,-63.482613,-57.842472,-131.364906,-55.0148,-32.713818,-49.518628,-23.199154,-42.101758,-21.50531,0.0,18.316075,-7.103313,-14.483299,-21.81403,12.218491,-33.048145,2.999245,-41.912887,-7.547859,0.0,-59.625361,-55.966467,-129.178645,-53.642253,-25.907521,-47.548648,-16.506413,-38.160232,-18.311828,104.193787,-85.760896,-92.402424,-104.141752
46,0.616035,3.477425,0.459618,2.147457,0.0,-28.532661,1.813957,7.500961,16.468529,-6.040787,29.135925,8.332169,41.184494,19.509293,0.0,-62.763681,-58.174513,-132.332442,-55.383139,-32.657505,-49.890223,-23.357316,-42.422693,-21.447258,0.0,18.924511,-7.200703,-11.780674,-21.970803,11.07859,-33.162838,1.701004,-41.936131,-8.290352,0.0,-59.610955,-55.989497,-127.749089,-53.690297,-25.401748,-47.44391,-16.684402,-38.098084,-18.627852,104.627815,-82.745129,-92.124813,-102.455953
47,0.230919,4.636443,1.040268,5.069085,0.0,-27.699944,2.459976,7.400528,17.117203,-5.824173,29.56881,8.294746,41.306465,18.732124,0.0,-62.050911,-58.438299,-133.059704,-55.65287,-32.058448,-50.130627,-22.850029,-42.610059,-20.925874,0.0,21.556663,-6.661732,-6.21999,-21.448689,10.647068,-32.469017,0.675064,-41.173268,-8.879917,0.0,-59.09478,-56.157782,-120.771539,-53.991741,-24.39007,-47.482627,-16.093991,-38.171199,-17.377072,104.819029,-78.747247,-91.12425,-98.025429
48,0.141449,5.488321,2.11607,8.119018,0.0,-25.737556,2.954521,6.853935,17.680504,-5.743217,29.972946,8.30674,41.372337,17.978668,0.0,-61.543718,-58.481573,-133.333298,-55.627055,-31.273119,-49.920981,-22.104356,-42.21121,-20.019675,0.0,23.251121,-6.646019,-1.523129,-21.760838,10.54771,-32.581902,-0.874569,-40.949227,-10.472672,0.0,-56.223036,-56.995454,-113.679241,-54.9466,-23.159269,-47.791478,-15.040986,-38.002796,-15.404819,105.04303,-73.873445,-88.925628,-90.52093
49,0.251381,5.943156,1.439964,10.23712,0.0,-24.452202,3.326546,6.196609,18.143967,-5.813942,30.292007,8.218964,41.341255,17.271812,0.0,-59.556697,-58.430549,-133.438935,-55.627608,-30.989117,-49.806604,-21.637585,-41.829287,-19.359019,0.0,24.546158,-5.920223,4.188434,-21.409172,10.987186,-32.284527,-1.50951,-40.74456,-10.634709,0.0,-53.938976,-57.87517,-107.287365,-56.085377,-21.691691,-48.480869,-13.731717,-38.353913,-13.885513,105.410191,-68.374484,-87.369884,-80.728005
50,0.555633,5.660167,0.936321,10.134539,0.0,-22.93634,3.477585,5.361924,18.409264,-6.194068,30.411919,7.572693,41.071084,16.145165,0.0,-57.313673,-58.208717,-133.208866,-55.43362,-30.438217,-49.476141,-21.314143,-41.214695,-18.956043,0.0,25.569306,-5.204716,9.019707,-21.18932,12.030922,-32.11219,-1.587524,-40.489906,-9.877556,0.0,-52.358397,-58.505999,-101.527168,-56.934108,-20.198023,-48.957734,-12.922391,-38.415367,-12.097505,106.134006,-63.153724,-86.265381,-71.032873
51,0.530823,4.862036,-0.174831,7.9053,0.0,-22.607483,3.269577,4.704643,18.256645,-6.43959,30.213158,7.128754,40.683953,15.774468,0.0,-56.066151,-58.068596,-133.08782,-55.354079,-30.213081,-49.37563,-21.150146,-41.040874,-18.633274,0.0,26.055484,-4.197476,12.422355,-20.413754,13.465313,-31.343605,-0.589188,-39.627663,-8.708645,0.0,-50.766209,-59.301878,-97.614245,-57.983149,-19.720852,-49.877815,-13.06937,-38.8557,-11.407277,106.833538,-58.715783,-86.271503,-63.551668
52,0.627114,3.335782,-0.597279,4.242019,0.0,-22.732293,3.195968,4.298698,18.207687,-6.291413,30.155616,6.967071,40.455688,15.810539,0.0,-55.451574,-57.750116,-132.713164,-55.094385,-30.199132,-49.186494,-20.994548,-40.874296,-18.197229,0.0,24.141953,-3.945923,13.263519,-20.306866,14.421021,-31.170833,0.283264,-39.080383,-7.640018,0.0,-50.13892,-60.129646,-98.704712,-58.973925,-19.820086,-50.87262,-13.721701,-39.364684,-11.790883,107.554883,-55.734223,-86.774551,-59.663871
53,0.755722,1.835833,-1.517441,0.830845,0.0,-23.411087,3.184524,4.317466,18.219863,-5.969674,30.13211,6.815734,40.238067,15.892593,0.0,-55.083319,-57.536107,-132.403442,-55.12211,-29.777407,-49.384101,-20.651777,-41.163269,-17.832271,0.0,24.216362,-3.183368,14.670719,-19.456535,15.230107,-30.223732,1.660824,-37.950428,-5.562561,0.0,-50.929319,-60.533256,-100.295538,-59.657131,-20.529208,-51.854809,-14.974802,-40.228269,-13.080324,108.390856,-54.352139,-88.211741,-59.286775
54,0.735076,0.628422,-0.819111,-1.231056,0.0,-23.361991,3.202401,4.647103,18.287476,-5.417335,30.1829,6.909096,40.203553,16.228638,0.0,-55.057495,-57.338129,-132.048103,-54.986939,-28.668141,-49.317911,-20.204476,-41.202024,-17.555105,0.0,24.276101,-2.905586,15.199986,-19.088287,15.570752,-29.706001,2.238774,-37.196994,-4.858291,0.0,-51.342269,-60.883896,-101.426892,-60.124156,-21.069901,-52.588824,-16.353621,-40.949576,-14.150749,109.197853,-54.274932,-88.958931,-61.069046
55,0.466187,0.225346,-0.631691,-1.608654,0.0,-23.24334,3.252617,5.211502,18.211578,-5.029037,30.098373,7.125435,40.171692,16.814713,0.0,-55.676691,-57.077549,-131.678885,-54.764953,-28.129598,-49.216826,-20.147962,-41.284047,-17.353274,0.0,24.854199,-2.60028,15.999287,-18.648353,15.85738,-29.136577,2.665501,-36.472057,-4.608306,0.0,-51.135646,-61.42235,-101.581518,-60.798316,-22.549157,-53.352819,-17.564102,-41.632714,-15.160004,109.706961,-54.580596,-89.547701,-63.20871
56,0.218216,-0.269226,-0.274692,-1.175388,0.0,-23.143158,3.50251,5.954315,18.406471,-4.773926,30.295303,7.23864,40.369263,17.121918,0.0,-55.918271,-56.772032,-131.222021,-54.44837,-27.421197,-48.948823,-19.687754,-41.090348,-16.836725,0.0,25.283558,-2.535507,16.514213,-18.569046,15.951576,-28.93404,2.640438,-36.113983,-4.618286,0.0,-51.364863,-61.464989,-101.44475,-61.034123,-22.737521,-53.722333,-18.016671,-42.16425,-15.489325,109.952654,-55.379745,-89.794916,-64.914021
57,0.186378,-0.07276,-0.458679,-0.21194,0.0,-22.938148,3.575524,6.327645,18.489785,-4.617027,30.388916,7.4049,40.472008,17.26371,0.0,-55.937889,-56.770705,-131.156817,-54.47735,-26.691801,-48.973184,-19.393749,-41.138137,-16.755357,0.0,25.959606,-2.387673,16.682155,-18.513005,15.89241,-28.980915,2.757316,-36.337933,-4.278054,0.0,-50.782094,-61.428374,-101.78091,-61.248813,-22.91328,-54.127861,-18.417628,-42.734416,-16.028604,110.170675,-55.853503,-90.221952,-65.526959
58,0.041062,0.199966,-0.403897,0.232102,0.0,-22.657929,3.587723,6.512649,18.508941,-4.519959,30.443733,7.51062,40.581482,17.277534,0.0,-56.242924,-56.783876,-131.13018,-54.463894,-26.425261,-48.936177,-19.426803,-41.093627,-16.825987,0.0,25.484253,-2.382671,16.946171,-18.611137,15.677662,-29.264167,2.640759,-36.927852,-4.273487,0.0,-51.074223,-61.249752,-101.606919,-61.052698,-22.419124,-54.09065,-18.367685,-42.937983,-16.179139,110.23593,-55.910506,-90.601656,-65.551826
59,0.040054,0.241271,-0.384784,0.30299,0.0,-22.633049,3.500885,6.457947,18.380242,-4.564499,30.325127,7.462624,40.460312,17.1316,0.0,-56.338834,-56.829515,-131.104458,-54.493368,-26.545397,-48.972053,-19.537021,-41.158397,-16.925584,0.0,25.291591,-2.56081,17.278358,-18.95279,15.441524,-29.644776,2.494297,-37.301033,-4.283112,0.0,-51.354606,-61.297022,-101.074402,-61.105271,-22.374311,-54.093237,-18.264975,-42.865592,-15.84552,110.319099,-55.835924,-90.943325,-65.415525
60,-0.071297,-0.16751,-0.317654,0.099869,0.0,-22.168121,3.586831,6.543915,18.517777,-4.44651,30.452225,7.467316,40.556511,17.043526,0.0,-56.226955,-56.874563,-131.16058,-54.445271,-26.411609,-48.849022,-19.351888,-40.999958,-16.739672,0.0,25.127907,-2.723865,17.677013,-19.17762,15.319553,-29.876862,2.453865,-37.539013,-4.082291,0.0,-51.464195,-61.337567,-100.864512,-61.04633,-21.778728,-53.928709,-17.799815,-42.589802,-15.538997,110.326589,-56.174121,-91.182192,-65.486343
61,0.36493,0.187931,0.140671,-0.165077,0.0,-22.211357,3.448036,6.167267,18.344444,-4.567818,30.27333,7.320305,40.383499,16.701622,0.0,-56.282771,-56.915182,-131.301803,-54.473762,-26.546193,-48.877903,-19.677133,-41.065203,-17.012269,0.0,24.973949,-3.111729,17.872433,-19.601509,15.158912,-30.36739,2.553989,-38.130398,-3.549694,0.0,-51.628488,-61.41449,-100.813871,-60.975509,-21.116251,-53.669043,-16.909906,-42.081992,-15.073263,110.814406,-56.160419,-90.918634,-65.825649
62,0.088028,-0.177526,0.205261,-0.200491,0.0,-22.079636,3.730659,6.059166,18.622718,-4.460381,30.52462,7.324379,40.562622,16.723457,0.0,-56.306632,-56.870061,-131.12068,-54.394648,-26.484616,-48.75426,-19.64096,-40.926376,-16.881964,0.0,24.986778,-3.300762,18.054165,-19.803646,14.97543,-30.577366,2.529923,-38.384342,-3.347088,0.0,-51.900635,-61.438755,-100.592771,-60.910579,-20.299639,-53.449403,-16.132487,-41.708303,-14.639535,111.028696,-56.47898,-90.587111,-66.167175
63,0.175438,-0.022965,0.179409,-0.268139,0.0,-22.185425,3.731208,5.819915,18.577629,-4.777039,30.483718,7.129921,40.48954,16.494735,0.0,-56.277794,-56.811732,-131.062523,-54.306345,-26.513015,-48.654496,-19.668297,-40.829725,-16.961159,0.0,25.326244,-3.506309,18.096554,-19.972183,15.097126,-30.690891,2.763565,-38.435829,-2.878109,0.0,-51.803711,-61.455591,-100.731187,-60.914892,-20.016773,-53.306105,-15.543511,-41.365786,-14.294733,111.297501,-56.627076,-90.314335,-66.560445
64,-0.126137,-0.236381,0.129181,-0.318348,0.0,-21.846886,3.770988,5.648277,18.70697,-4.966439,30.640548,7.050659,40.58361,16.455848,0.0,-55.94147,-56.859149,-130.928747,-54.358406,-26.230463,-48.662369,-19.297226,-40.785647,-16.728143,0.0,25.879314,-3.66663,18.109257,-20.02573,15.399387,-30.674892,3.158638,-38.354176,-2.363251,0.0,-51.409515,-61.314921,-101.186044,-60.709674,-19.951725,-52.979853,-15.210504,-40.878971,-14.23397,111.237437,-56.978634,-90.119081,-66.99397
65,-0.197594,0.212514,0.299812,-0.125384,0.0,-22.215935,3.719353,5.462059,18.603355,-5.274879,30.568543,6.903442,40.524719,16.295471,0.0,-55.849252,-57.009437,-130.665527,-54.658593,-26.256417,-49.01539,-19.301382,-41.136031,-16.891658,0.0,26.364064,-3.965561,17.529808,-20.24739,15.525387,-30.863159,3.37619,-38.502639,-2.079368,0.0,-51.093292,-61.156133,-101.670059,-60.478153,-19.841606,-52.693233,-14.95001,-40.539566,-14.225418,111.066931,-56.845756,-89.792181,-67.19899
66,-0.649635,-0.314933,0.026505,0.025305,0.0,-21.839882,3.921432,5.520836,18.85833,-5.370026,30.804405,6.863205,40.687385,16.46466,0.0,-55.567411,-57.0857,-130.17709,-54.800094,-25.675809,-49.119162,-18.662129,-41.151969,-16.48962,0.0,26.540039,-4.041161,17.236965,-20.317932,15.699142,-30.91848,3.572571,-38.474648,-1.937668,0.0,-50.673494,-61.070028,-102.066401,-60.32973,-20.030858,-52.482991,-15.033897,-40.269451,-14.353007,110.396342,-57.211574,-89.78663,-67.22457
67,-0.384361,0.247051,-0.057392,0.018272,0.0,-21.895913,3.60498,5.302734,18.499237,-5.628571,30.459297,6.723884,40.375099,16.260452,0.0,-55.53109,-57.141053,-130.216231,-54.921687,-25.696996,-49.283436,-18.733803,-41.329254,-16.633048,0.0,26.677391,-4.128182,17.308719,-20.351796,16.101562,-30.902115,3.929706,-38.377224,-1.612221,0.0,-50.346544,-60.913682,-102.514514,-60.073388,-20.185277,-52.208387,-15.008765,-40.009,-14.388143,109.979599,-56.988501,-89.876404,-67.230276
68,-0.573395,-0.014178,-0.076905,0.16446,0.0,-21.663758,3.704841,5.292938,18.651306,-5.253136,30.601684,6.83741,40.521721,16.330581,0.0,-55.545119,-57.196776,-130.191135,-54.981326,-25.551542,-49.313119,-18.611883,-41.320801,-16.446203,0.0,26.601014,-4.124633,17.500832,-20.287468,16.364628,-30.794757,4.184704,-38.261158,-1.54977,0.0,-50.415957,-60.690022,-102.444067,-59.728312,-20.159281,-51.896621,-14.989302,-39.841564,-14.495842,109.398829,-57.018765,-89.960684,-67.081902
69,-0.351151,0.386033,-0.071548,0.396314,0.0,-21.70047,3.724594,5.195183,18.550347,-5.055038,30.49395,6.897583,40.51783,16.297348,0.0,-55.909323,-57.088849,-130.297189,-54.86518,-25.599622,-49.246615,-18.993124,-41.322277,-16.714386,0.0,26.177742,-4.121555,17.743137,-20.249004,16.328991,-30.738991,4.066704,-38.230831,-1.697239,0.0,-50.643372,-60.599168,-102.640621,-59.558452,-19.92072,-51.75378,-15.023351,-39.851376,-14.665031,109.04441,-56.62594,-90.0355,-66.678796
70,-0.114372,0.396839,-0.159462,0.475941,0.0,-21.582184,3.732101,5.029839,18.57756,-4.732636,30.513428,7.009689,40.554657,16.360245,0.0,-56.14689,-57.095333,-130.533853,-54.865606,-25.788677,-49.26099,-19.257403,-41.382026,-16.927326,0.0,26.034244,-4.10162,18.082535,-20.201237,16.41679,-30.654785,3.984993,-38.164673,-1.861382,0.0,-50.656049,-60.588491,-102.949737,-59.500054,-19.678084,-51.651552,-15.041974,-39.791119,-14.663166,108.928288,-56.222039,-90.196712,-66.195793
71,0.118927,0.76576,-0.000916,0.641914,0.0,-21.705299,3.69754,4.829979,18.555565,-4.328339,30.49855,7.300621,40.575714,16.604736,0.0,-56.578975,-57.17704,-130.837023,-54.994577,-26.311189,-49.473929,-19.841037,-41.691395,-17.420421,0.0,25.774945,-4.07714,18.368123,-20.16045,16.446591,-30.560428,3.750721,-38.095939,-2.176139,0.0,-51.108432,-60.73442,-103.217132,-59.601602,-19.543153,-51.671726,-15.061537,-39.800629,-14.511952,109.046539,-55.450858,-90.198304,-65.548458
72,-0.328056,0.060991,0.211945,1.102986,0.0,-20.893616,4.186363,4.443077,19.207992,-4.346741,31.250198,7.698463,41.273803,16.961654,0.0,-56.026155,-56.791156,-129.250991,-54.752497,-25.865685,-49.088533,-18.649791,-41.041973,-16.746292,0.0,25.090645,-4.247372,18.592953,-20.418491,16.17588,-30.711262,3.270355,-38.140411,-2.678341,0.0,-51.335594,-60.964027,-103.031331,-59.779221,-19.364497,-51.73602,-15.262991,-39.871253,-14.255002,108.712,-55.386165,-89.992842,-64.44177
73,-0.284592,1.49851,0.449833,1.854112,0.0,-21.384911,3.933632,4.785782,18.93132,-4.631241,31.109665,7.853233,41.335373,17.012695,0.0,-56.066805,-56.862398,-129.276948,-54.920187,-26.084912,-49.305395,-18.760998,-41.303338,-17.206894,0.0,24.788338,-4.133789,18.261623,-20.373104,15.955044,-30.70229,2.932239,-38.199268,-2.625366,0.0,-51.460398,-60.902616,-103.517326,-59.781352,-18.944607,-51.73184,-15.184408,-39.91685,-14.014312,108.429045,-53.763842,-89.541372,-62.463845
74,-0.668518,2.536837,0.766491,3.374882,0.0,-21.670578,3.956291,4.689148,18.9253,-5.058426,31.057388,7.464157,41.273804,16.388237,0.0,-56.205936,-57.033366,-129.211055,-54.972879,-26.777085,-49.094838,-18.610815,-40.767573,-17.234942,0.0,25.2812,-4.13253,17.960243,-20.524727,15.87149,-30.751728,2.589432,-37.979839,-2.899532,0.0,-51.626345,-61.103021,-105.046713,-59.945454,-19.329917,-51.647124,-15.2051,-39.660783,-13.272238,107.778048,-51.141932,-88.75736,-59.00389
75,-2.345169,4.017481,0.839012,5.462676,0.0,-22.924256,4.605606,4.474457,19.829498,-5.900574,31.767334,6.471908,41.593254,15.278274,0.0,-55.504506,-57.000304,-127.870755,-54.583597,-26.809633,-47.880553,-17.581639,-38.498245,-16.612935,0.0,27.947525,-3.832523,18.61306,-20.062592,16.860237,-30.081551,3.440895,-36.994011,-1.442665,0.0,-51.318587,-60.8869,-107.409494,-59.661093,-18.072153,-51.008106,-13.252145,-38.680359,-11.744897,105.392761,-47.3078,-87.958466,-53.724563
76,-1.982025,7.389814,0.962288,8.13261,0.0,-26.682129,3.177475,0.102356,18.199745,-11.282318,29.741958,0.971077,39.120483,9.994857,0.0,-54.039984,-56.70686,-123.756887,-54.14223,-25.940168,-46.483524,-15.230838,-35.662845,-14.055425,0.0,31.210339,-3.451149,20.398132,-19.368702,19.404201,-28.996273,6.305408,-35.487843,1.214836,0.0,-49.961005,-60.45471,-107.747504,-58.994164,-16.637334,-49.659348,-10.174653,-36.718549,-9.260265,103.3925,-40.058607,-87.014414,-45.732574
77,-1.661339,9.333637,1.667015,10.669088,0.0,-32.009537,-1.700684,-10.53788,12.646614,-20.102303,23.694191,-8.350639,33.048958,1.787132,0.0,-49.223761,-54.782033,-112.370075,-51.641154,-21.495171,-42.759382,-9.10566,-30.851593,-7.449422,0.0,34.550514,-1.992119,23.295742,-17.775959,23.497158,-27.39148,9.539326,-33.84494,3.190784,0.0,-48.014947,-59.345827,-106.681235,-57.743126,-12.5072,-47.60314,-4.356319,-33.796612,-5.243629,101.620039,-30.944348,-85.458521,-35.282864
78,-1.6539,11.265374,1.168819,11.431495,0.0,-39.519722,-7.075699,-28.145943,6.086677,-35.052132,16.256218,-23.598198,24.776527,-10.470887,0.0,-39.406896,-48.861069,-84.879547,-44.229961,-10.480761,-33.775277,2.998242,-19.966668,5.51827,0.0,37.831776,-0.152996,27.986504,-15.379154,28.89085,-24.352718,15.41177,-30.30693,8.262268,0.0,-43.968096,-55.798722,-96.368526,-53.180461,-6.41525,-41.5376,4.106106,-26.341558,2.534392,99.920054,-20.31353,-84.335787,-24.485925
79,-1.624375,16.237253,1.421345,10.708269,0.0,-48.729171,-15.470375,-47.990822,-4.432388,-52.747833,4.629845,-41.470321,12.766594,-25.591301,0.0,-27.584428,-39.762023,-53.680714,-33.692408,3.792327,-22.038537,17.175574,-7.26183,20.591953,0.0,40.16494,1.3988,33.393883,-12.754612,35.090721,-21.184833,23.184403,-26.865372,14.743607,0.0,-37.549259,-48.881472,-79.106542,-44.736525,1.079687,-31.667124,15.021763,-15.410958,13.972012,97.508262,-4.778614,-83.701859,-14.479993
80,1.026215,18.625005,0.662928,14.313789,0.0,-56.108093,-25.902397,-71.522415,-16.81485,-73.62442,-8.040093,-62.165108,0.299126,-43.327721,0.0,-14.658264,-29.332996,-21.624587,-21.700577,19.995783,-9.26284,33.249873,5.605869,38.34377,0.0,41.713354,6.238443,39.578762,-5.534706,41.73595,-12.701254,31.663484,-17.802664,22.39306,0.0,-31.49184,-41.192774,-59.34222,-34.710802,6.18544,-20.211386,22.470246,-3.276551,23.445671,97.559521,12.941531,-84.013887,-1.071064
81,-2.589993,21.904454,-0.249733,17.331488,0.0,-61.234176,-34.175079,-89.256866,-26.394905,-88.080854,-17.513271,-76.473438,-8.571212,-55.323738,0.0,-0.161443,-16.351218,11.276271,-6.566875,38.094602,6.364912,50.377802,20.359599,55.615129,0.0,44.38365,14.556501,46.132782,6.648182,48.492462,1.373914,40.104498,-2.944742,31.683637,0.0,-25.757573,-32.448533,-40.029498,-22.958878,10.552342,-7.288908,27.261473,9.762777,30.730935,94.00387,33.524789,-85.229278,14.939228
82,-5.767501,27.175116,0.755093,18.82888,0.0,-65.60273,-39.185051,-98.836167,-32.139199,-96.754595,-22.97604,-85.077404,-13.453286,-62.568627,0.0,12.453375,-2.610684,38.881644,9.406122,54.895375,22.191486,64.670027,34.762672,69.37383,0.0,45.218233,21.096879,53.177959,15.92847,54.706054,11.564054,49.112405,7.23187,40.761457,0.0,-22.25651,-23.096513,-21.263332,-11.259083,13.066696,4.768768,29.533586,21.405305,36.567251,87.483353,59.116825,-85.227201,32.185028
83,-5.208184,28.788474,1.490352,26.176987,0.0,-65.675972,-42.865402,-101.480255,-36.423179,-101.125471,-27.302387,-90.00325,-17.251922,-66.93148,0.0,17.415873,6.987109,48.141359,20.278641,65.901324,33.189012,74.625058,44.617711,79.608881,0.0,48.250574,30.51325,59.134026,27.968365,58.997143,23.840372,53.147833,18.692019,44.478144,0.0,-21.536265,-15.111326,-6.994638,-1.369562,16.522669,14.474532,31.581736,30.105895,39.768041,81.491438,86.387724,-84.52058,56.84444
84,-5.300583,27.101996,2.30658,28.923992,0.0,-63.81697,-44.039589,-102.430995,-37.14006,-102.239679,-27.57146,-91.465553,-17.337181,-68.564712,0.0,19.149819,15.009741,56.419719,29.423674,75.48066,42.594712,83.875468,53.153458,89.610744,0.0,52.260343,35.977037,66.939148,33.529346,65.802681,28.349893,59.163488,21.731329,48.272729,0.0,-20.825197,-9.510415,6.223482,4.626847,23.106016,19.735117,34.773479,34.447925,41.483374,76.26143,111.853794,-82.143425,84.132506
85,-14.552742,32.193306,4.338632,29.933407,0.0,-64.282459,-42.640731,-97.016521,-34.844558,-94.101385,-24.843532,-82.576114,-14.142837,-61.642273,0.0,10.921502,21.802119,54.25139,38.143733,76.619973,51.35993,85.637509,60.639491,91.907847,0.0,52.916497,44.440842,67.320557,42.435528,63.107895,36.245407,55.629353,27.668839,46.102215,0.0,-18.084188,0.049061,25.673475,14.784753,40.910723,29.142261,49.935576,42.257487,54.634622,62.13941,142.744065,-77.374071,112.762878
86,-10.673229,34.716708,5.183579,28.505139,0.0,-64.767105,-41.567596,-92.520401,-34.4664,-88.836387,-25.367008,-77.105438,-15.441719,-58.917606,0.0,7.256125,24.310668,46.398463,38.627859,66.772487,48.767845,73.167934,54.459097,78.460129,0.0,53.276813,43.307018,72.82996,38.700142,67.76905,30.209587,58.515026,19.626846,45.369186,0.0,-15.055047,6.85303,37.693952,21.028708,51.236861,34.521062,58.205179,46.657908,61.641861,51.942455,176.397903,-71.714218,140.205147
87,-6.793716,37.240112,3.310318,28.15628,0.0,-65.270909,-40.820183,-88.942635,-36.005585,-86.444687,-29.141888,-75.053524,-21.233826,-60.390713,0.0,8.153685,22.535386,32.860938,30.876052,45.9382,34.818457,46.46674,34.612273,49.267591,0.0,56.621853,41.215793,74.945537,35.227512,69.961899,26.110931,58.960407,15.150696,43.723755,0.0,-10.261474,12.174088,49.054867,26.239399,62.245459,39.153658,68.233285,50.291629,69.846317,45.560715,212.766457,-67.991924,167.489869
88,-7.452919,29.912097,2.660087,23.067601,0.0,-67.245724,-38.990731,-85.064507,-35.072113,-80.382649,-29.218174,-68.92939,-22.444428,-58.492195,0.0,11.917237,21.999652,22.051924,26.778035,27.838611,26.943106,26.315432,22.982509,29.090977,0.0,57.408223,35.818806,76.884648,28.215889,72.932877,18.486569,61.233273,7.399693,42.686348,0.0,-3.817633,16.910054,56.376286,29.937835,69.980235,41.582036,75.155426,51.272565,75.688666,38.508808,241.936206,-64.930825,189.815122
89,-7.148873,21.135894,2.012936,23.740205,0.0,-67.97335,-34.880172,-81.043075,-31.514007,-78.321705,-26.579166,-67.966747,-20.601127,-57.565361,0.0,9.978447,22.188362,11.598777,27.561561,18.819432,27.744207,21.139414,23.346034,27.105355,0.0,57.467194,37.03545,75.10318,30.111328,69.438755,21.218422,56.723167,10.771419,40.873054,0.0,2.928464,23.735648,60.717328,38.212625,75.447259,50.013969,82.303173,58.871781,84.154413,31.677629,262.542615,-62.600195,213.025842
90,0.775933,13.928151,-0.456928,19.213962,0.0,-66.050102,-33.700356,-75.430378,-31.188767,-74.767548,-27.103855,-66.27808,-21.894699,-57.714455,0.0,17.66294,23.67583,18.479231,27.037424,19.443087,26.054802,19.970417,21.147201,25.365637,0.0,61.246891,31.909126,82.809528,23.283542,78.988872,13.808075,64.981304,3.710895,45.063778,0.0,7.711145,25.292092,58.260884,39.915738,71.603901,51.528854,79.390492,60.25956,82.203334,32.717097,276.068796,-62.793588,231.837834
91,-0.339684,6.81798,-0.477333,17.79763,0.0,-64.209846,-32.787369,-68.61684,-29.332535,-66.762863,-24.368912,-58.197727,-18.416427,-49.331829,0.0,18.793936,25.344135,28.893438,29.710606,30.081664,30.361554,31.826348,27.463261,37.479388,0.0,63.739345,32.01218,84.1516,23.342296,80.837093,14.098297,66.21191,4.360004,45.789539,0.0,11.898958,28.371338,61.07895,43.191696,75.462511,54.40152,84.013325,62.391801,86.952459,32.608349,282.615259,-63.039985,249.363947
92,-3.451973,8.539452,0.394146,15.701882,0.0,-63.669033,-34.777141,-55.282482,-30.111728,-51.111774,-23.711883,-42.93251,-16.308517,-38.21046,0.0,19.427841,23.915713,36.214802,29.257481,41.430513,31.66634,45.471596,30.989309,50.429141,0.0,64.954467,33.71434,86.427841,24.737148,83.21775,15.067337,67.755226,4.933582,46.994693,0.0,16.385904,32.269691,64.01275,47.560254,78.630789,58.663509,87.729972,66.07693,90.395589,29.391117,291.012969,-62.411098,264.924087
93,-1.799904,8.087427,0.839847,12.673939,0.0,-58.41378,-37.846641,-42.310741,-33.498642,-36.534931,-27.02988,-30.054176,-19.292473,-29.679771,0.0,21.929399,23.733191,46.896523,29.720844,54.075836,33.107113,57.516557,33.514122,60.193215,0.0,66.66029,34.869885,88.40855,25.241387,84.879696,14.981507,68.559185,4.506088,47.923542,0.0,20.439794,35.131575,67.476824,51.519949,82.141917,63.096472,91.937891,70.489688,95.022238,27.830721,299.058449,-61.331743,277.556079
94,-1.669189,9.120203,0.148075,7.832694,0.0,-51.221844,-39.274979,-27.077774,-35.936165,-18.197937,-30.094059,-13.08942,-22.777977,-19.377411,0.0,27.196709,23.214141,55.463405,27.409451,58.99454,29.499616,56.894285,29.528244,54.637184,0.0,68.459496,33.705208,91.614167,23.343842,89.851158,12.447819,73.121247,1.644688,50.004776,0.0,22.061952,35.548638,68.745758,51.718885,83.837398,62.696193,92.34043,69.406833,94.619292,26.411499,308.140222,-60.933701,285.350343
95,-2.607491,8.339918,1.356526,5.417932,0.0,-47.771393,-40.374052,-15.013824,-39.103197,-5.902954,-34.700946,-3.074455,-28.446149,-17.910398,0.0,32.488818,19.593597,53.910209,23.612233,58.494356,25.736275,55.53012,26.121702,52.252043,0.0,68.09103,32.339584,90.855297,21.711536,89.601139,10.699047,72.508953,-0.075783,49.300953,0.0,23.164518,35.678017,68.586491,51.936221,83.979263,62.621488,92.000605,68.941618,94.322297,23.998621,316.466156,-59.382562,290.754291
96,-3.420295,7.217635,1.333316,2.374056,0.0,-46.719693,-42.357714,-3.735684,-43.994139,4.090393,-41.731396,2.687713,-37.303637,-27.079325,0.0,39.115267,15.583636,49.925825,20.046888,54.536883,22.789903,51.617021,24.063363,49.278477,0.0,67.588669,31.727028,89.321938,20.474911,87.791062,8.912694,70.067391,-2.205402,47.156342,0.0,24.585877,35.885252,69.283295,52.399745,84.799976,62.9016,92.614849,68.935233,94.345898,20.744923,323.685005,-57.882649,293.129561
97,-4.773377,-0.906743,0.498208,0.412258,0.0,-41.999164,-39.093927,2.845928,-41.565542,10.863007,-40.24403,6.73835,-36.670378,-24.047739,0.0,39.246981,15.735258,49.203877,22.414955,55.537079,27.27696,54.23057,30.562755,54.134283,0.0,67.149765,31.124565,88.513687,19.68441,87.026344,7.873226,68.980133,-3.409813,46.257843,0.0,25.034432,35.381924,68.991167,52.166785,84.671251,62.573693,92.291277,68.430806,93.924563,16.138561,322.80324,-57.217426,293.566797
98,-3.324875,-2.247444,0.183712,-0.279087,0.0,-41.638721,-37.578535,6.980335,-41.386179,13.66008,-41.002567,7.226303,-38.229269,-31.284708,0.0,37.576176,15.213876,49.113141,24.445902,56.338551,31.440346,56.670762,36.815886,58.082234,0.0,66.241596,30.76506,87.923503,19.450435,86.745472,7.782257,69.10857,-3.35994,47.068256,0.0,25.188598,34.914473,67.600424,51.957167,83.961467,62.412068,91.650986,68.276739,93.602324,13.034311,320.595554,-56.813089,293.327468
99,-7.503753,5.047788,0.133678,0.138765,0.0,-42.927521,-36.617861,12.946895,-40.311659,21.190521,-39.702702,14.037162,-36.783537,-25.713381,0.0,39.582903,12.20763,44.849806,20.014692,50.5483,25.580219,50.249077,29.738288,50.335681,0.0,65.180306,30.438,87.007393,19.141731,86.095413,7.445343,68.490074,-3.802139,46.380341,0.0,25.153883,34.138679,66.87172,51.172419,83.457695,61.72917,91.135988,67.699743,93.216842,5.832962,325.710125,-56.377007,293.533016
100,-1.610688,1.502579,-0.060013,0.200961,0.0,-45.555164,-38.215416,13.830689,-42.331443,22.339806,-41.860668,14.814812,-39.06427,-31.361171,0.0,42.295265,10.626184,43.675609,17.967344,48.104534,23.163394,47.9096,27.238292,48.5409,0.0,64.423897,30.037182,86.482659,18.718231,85.650307,7.049435,68.037506,-4.179554,45.53785,0.0,25.265737,33.758765,66.440615,50.754652,83.352398,61.325359,90.99642,67.257919,92.736695,4.683752,327.311119,-55.975542,293.832392
101,-4.710846,0.389102,-0.223732,0.148139,0.0,-41.378688,-35.337249,17.839531,-38.944896,26.910462,-38.305091,18.91095,-35.097919,-19.928627,0.0,43.406995,11.453565,43.429287,18.401351,47.62314,23.113525,47.073537,26.579662,46.335051,0.0,63.754898,29.704148,86.255356,18.506069,85.466263,6.936882,68.049179,-4.234405,45.405533,0.0,25.028702,33.400576,65.748097,50.420965,83.07977,61.043987,90.870214,66.996357,92.516184,0.561166,327.82973,-55.611014,294.11004
102,3.031884,-2.845768,-0.282543,0.02927,0.0,-43.039765,-37.371598,15.875656,-41.892357,23.719413,-41.885353,14.971595,-39.299252,-29.472725,0.0,44.592134,11.92209,45.250899,20.294841,49.996134,26.395263,50.296711,31.2804,51.40933,0.0,63.411861,29.538219,85.905796,18.437668,85.1926,6.944103,67.878696,-4.155292,45.278996,0.0,24.979054,33.158983,65.360847,50.178768,82.708588,60.841717,90.619532,66.860592,92.534709,4.258547,325.114552,-55.22806,294.2699
103,-2.792038,0.059515,-0.250935,-0.032431,0.0,-34.129864,-34.030037,19.150634,-38.598015,26.839302,-38.978348,17.237114,-36.716366,-21.074478,0.0,41.342913,12.777988,44.159238,21.436976,50.062874,27.609646,50.408393,32.309223,51.088351,0.0,63.196839,29.229527,85.593956,18.161648,84.860207,6.754635,67.84124,-4.2182,45.343873,0.0,24.888293,32.898841,65.299294,49.884193,82.365626,60.598803,90.336172,66.693297,92.445664,2.168782,325.316793,-54.776722,294.380195
104,4.535202,-2.372006,-0.253818,0.075347,0.0,-38.477429,-37.804035,14.628662,-42.939801,21.06752,-43.561009,11.483986,-41.412678,-31.877564,0.0,42.60235,12.961004,46.072908,22.507765,51.870346,29.714866,53.078888,35.511464,55.323009,0.0,63.031826,28.706783,85.423542,17.66423,84.545689,6.388287,67.694355,-4.35268,45.336719,0.0,24.825975,32.788827,65.380423,49.755877,82.142362,60.471722,90.048119,66.56198,92.131319,7.358122,323.071018,-54.376402,294.581773
105,-0.809372,0.765371,-0.06031,0.205321,0.0,-33.158959,-35.876976,14.965416,-40.444451,21.037994,-40.960419,11.320335,-38.815888,-22.836663,0.0,40.875858,13.0818,45.390579,22.389415,52.103639,29.356986,53.096981,34.517974,53.6927,0.0,62.747417,28.093792,84.968204,17.014057,83.890331,5.798526,67.144146,-4.814667,45.089962,0.0,24.828741,32.743477,65.484706,49.679552,81.923913,60.386592,89.802055,66.425572,91.772931,7.160094,323.927761,-53.825368,294.878466
106,0.873802,0.77235,-0.041394,0.447035,0.0,-24.317185,-33.205502,14.942711,-38.24366,20.025742,-39.426064,10.150566,-38.018074,-22.379471,0.0,29.594243,11.801207,41.827716,22.384302,51.405686,30.6584,53.807431,37.018421,55.208919,0.0,62.668145,27.350601,84.713082,16.224404,83.392502,5.089669,66.90596,-5.334938,45.051338,0.0,24.696522,32.548988,65.528858,49.456189,81.506518,60.21284,89.240362,66.250622,91.344853,8.595989,324.756603,-53.304669,295.381993
107,-0.2826,-2.05267,0.01632,0.405552,0.0,-23.447606,-33.253636,14.626121,-38.20411,20.009445,-39.252114,10.488761,-37.703202,-19.008557,0.0,28.643249,13.219602,43.304971,24.962875,53.377723,34.131873,56.219748,41.056329,56.777676,0.0,62.510627,26.662788,84.636131,15.518508,83.090721,4.470748,66.875495,-5.780079,45.167793,0.0,24.63923,32.360082,65.585854,49.28009,81.192419,60.100627,88.775974,66.154291,90.968176,8.843703,322.754343,-52.758035,295.837955
108,0.432518,1.934492,0.036895,0.356646,0.0,-26.245686,-34.825951,13.054,-39.243542,18.939514,-39.708218,10.223213,-37.670414,-20.028065,0.0,30.77254,12.220863,42.951425,22.991432,51.785303,31.437184,54.406336,37.749336,54.495912,0.0,62.376892,26.10466,84.568749,14.959442,82.894387,3.97292,66.737366,-6.163398,45.053994,0.0,24.466724,32.225428,65.473653,49.159651,80.972204,60.022364,88.459046,66.057528,90.623843,9.749451,324.717987,-52.24791,296.223753
109,-1.210007,2.183927,-0.004085,0.304553,0.0,-26.115521,-35.115486,13.723045,-38.992596,20.297447,-38.931565,12.32666,-36.390473,-16.905178,0.0,31.103336,11.883311,42.394856,20.950432,50.154363,27.658071,51.744844,32.360958,49.988749,0.0,62.278415,26.104522,84.633327,14.991886,82.962696,3.956589,66.871914,-6.289158,45.15636,0.0,24.151513,32.107337,65.166359,49.062703,80.616361,59.917092,88.110119,65.885047,90.24309,8.993563,326.91692,-51.797876,296.543312
110,-1.95195,-0.940941,-0.001431,0.192908,0.0,-18.60014,-32.397091,17.129036,-36.984719,23.406601,-37.435433,14.584762,-35.183144,-13.360256,0.0,22.489784,11.47256,40.894704,22.51131,50.602573,30.921173,53.638359,37.239055,52.764443,0.0,62.231438,26.157097,84.678429,15.136219,83.188477,4.136044,67.331726,-6.09494,45.67701,0.0,23.764177,31.92237,64.933757,48.920986,80.23714,59.823343,87.697886,65.843823,90.011538,7.427948,325.993713,-51.412972,296.753954
111,2.314728,1.013707,0.064327,0.028085,0.0,-32.455285,-38.246487,12.996345,-41.8186,20.438461,-41.010338,13.252075,-37.580533,-18.743878,0.0,32.97882,12.288184,44.031267,20.272426,49.967594,25.866976,50.76368,29.927547,48.463823,0.0,62.072056,26.43203,84.822361,15.551823,83.520665,4.573151,67.871899,-5.699489,46.206082,0.0,23.64669,31.925382,64.774638,48.962037,79.882222,59.891749,87.428444,65.95601,89.842576,10.080883,327.024454,-51.010438,296.799073
112,-1.566582,2.077815,0.104714,0.076694,0.0,-20.781418,-34.331806,15.835144,-38.223999,22.722542,-38.031189,14.23851,-35.211971,-15.18718,0.0,25.931863,10.674362,40.589151,18.861404,48.231086,24.770659,49.637674,29.123359,47.794955,0.0,62.036739,26.506496,84.75214,15.744919,83.644901,4.81921,68.219822,-5.417931,46.670048,0.0,23.52377,31.94287,64.560154,49.01576,79.623957,59.96291,87.136623,66.051068,89.615112,8.784725,329.119235,-50.6353,296.892733
113,1.162834,-0.496485,0.273663,-0.000334,0.0,-27.568634,-36.146931,14.473412,-40.073868,21.747688,-39.8363,13.838081,-36.995625,-22.008831,0.0,28.753548,10.594394,41.377617,18.297239,48.133952,23.950169,49.363353,28.515759,48.613579,0.0,61.852569,26.674884,84.661743,15.903156,83.631889,4.893974,68.247871,-5.443543,46.715927,0.0,23.57154,32.055948,64.506358,49.155526,79.514116,60.085831,87.011345,66.128837,89.523055,10.179485,328.638503,-50.129711,296.908152
114,-5.104168,-0.80136,0.272827,0.059923,0.0,-21.413921,-31.313038,19.76508,-35.135067,27.915058,-35.130066,18.730579,-32.515274,-16.807823,0.0,27.938862,10.817412,41.190254,19.899737,48.97193,26.844658,51.153288,32.434354,50.609983,0.0,61.643371,26.466224,84.449707,15.747207,83.543129,4.831581,68.329353,-5.40001,46.864608,0.0,23.467861,31.921381,64.348511,49.015711,79.288863,60.027168,86.782201,66.198232,89.484782,5.245417,327.874255,-49.686784,297.005187
115,0.474861,-0.817946,0.291835,0.080349,0.0,-31.144878,-34.333362,18.382336,-38.110599,27.1432,-37.906299,18.252285,-35.136566,-26.109215,0.0,38.342029,11.880767,44.122633,19.947445,49.349521,25.926207,50.555643,30.904957,50.795172,0.0,61.431393,26.402585,84.320996,15.72575,83.405743,4.810856,68.240284,-5.45177,46.790463,0.0,23.264789,31.904783,64.253996,48.926482,79.058806,59.957106,86.557813,66.198134,89.441261,5.841894,327.099877,-49.273333,297.129104
116,-5.834747,-3.03985,0.221329,0.121439,0.0,-18.96904,-28.253037,26.03651,-33.150444,34.236454,-33.956429,23.393818,-31.999237,-18.866066,0.0,34.611119,12.391023,45.525208,23.617952,52.823044,32.261837,55.157741,39.263296,55.605209,0.0,61.264309,26.148113,84.10722,15.493035,83.231655,4.628185,68.082974,-5.573376,46.682362,0.0,22.992395,31.811157,64.037573,48.797843,78.91489,59.845498,86.374994,66.136395,89.359144,0.084091,324.125871,-48.97506,297.316387
117,0.435722,-0.450839,0.305294,0.099776,0.0,-29.678318,-31.399074,24.751293,-36.229168,33.559788,-36.709259,23.629177,-34.558262,-29.062786,0.0,42.853205,12.934093,47.830634,23.322859,52.615661,31.106794,54.062769,37.644224,55.701823,0.0,61.006966,26.020169,83.939438,15.383137,83.032974,4.513001,67.834946,-5.729221,46.411171,0.0,22.705565,31.725484,63.888063,48.633278,78.864576,59.68144,86.377353,66.01928,89.367889,0.569767,323.751405,-48.619812,297.492536
118,-5.370334,-1.842843,0.025017,0.15655,0.0,-18.004441,-26.273701,31.078765,-31.491955,39.992614,-32.329834,29.739532,-30.575821,-15.466725,0.0,37.940787,13.604728,48.237632,25.628558,55.288541,34.704868,56.645716,41.951526,57.065347,0.0,60.90873,25.998837,83.923553,15.453655,83.092072,4.642479,67.929634,-5.540817,46.53273,0.0,22.403308,31.636588,63.8098,48.497662,78.907751,59.560594,86.414477,65.950082,89.334543,-4.779499,321.9894,-48.573727,297.729924
119,4.347416,-0.526632,0.213467,0.134826,0.0,-22.612713,-29.723362,27.159839,-35.569268,35.153697,-36.805333,25.311595,-35.464863,-23.0682,0.0,39.047614,13.518487,48.92826,25.388089,55.511138,34.373392,56.724769,41.773635,58.167431,0.0,60.875873,25.996227,83.83057,15.44775,82.848529,4.588462,67.639858,-5.639031,46.271724,0.0,22.363479,31.65946,63.824472,48.492005,79.04601,59.526878,86.54046,65.904411,89.42355,-0.4195,321.545306,-48.347677,297.947288
120,-2.19793,0.343493,0.048912,0.115683,0.0,-11.246487,-25.829235,30.70071,-31.818901,38.064892,-33.467216,26.966984,-32.285992,-16.363289,0.0,29.767614,13.680174,47.674134,26.502017,56.000164,36.123151,57.921479,43.734989,58.163392,0.0,60.910183,25.969791,84.091381,15.420364,82.998447,4.55793,67.770412,-5.653164,46.393169,0.0,22.389118,31.610147,63.809096,48.444865,79.029004,59.480331,86.596678,65.861606,89.427836,-2.624291,321.960399,-48.305626,298.134571
