takenoko1/special-research/HandMotion_SimilarSearch_自分用/NewProject/handData/test_key/d4_feature_d3/114.csv
frame,vel_0x_L,vel_0y_L,vel_0x_R,vel_0y_R,posFromWrist_0x_L,posFromWrist_1x_L,posFromWrist_2x_L,posFromWrist_3x_L,posFromWrist_4x_L,posFromWrist_5x_L,posFromWrist_6x_L,posFromWrist_7x_L,posFromWrist_8x_L,posFromWrist_9x_L,posFromWrist_0y_L,posFromWrist_1y_L,posFromWrist_2y_L,posFromWrist_3y_L,posFromWrist_4y_L,posFromWrist_5y_L,posFromWrist_6y_L,posFromWrist_7y_L,posFromWrist_8y_L,posFromWrist_9y_L,posFromWrist_0x_R,posFromWrist_1x_R,posFromWrist_2x_R,posFromWrist_3x_R,posFromWrist_4x_R,posFromWrist_5x_R,posFromWrist_6x_R,posFromWrist_7x_R,posFromWrist_8x_R,posFromWrist_9x_R,posFromWrist_0y_R,posFromWrist_1y_R,posFromWrist_2y_R,posFromWrist_3y_R,posFromWrist_4y_R,posFromWrist_5y_R,posFromWrist_6y_R,posFromWrist_7y_R,posFromWrist_8y_R,posFromWrist_9y_R,posFromBody_0x_L,posFromBody_0y_L,posFromBody_0x_R,posFromBody_0y_R
6,1.341751,-0.208692,0.115425,0.159304,0.0,-0.724892,-23.804317,28.715881,-33.22633,30.304596,-37.357578,20.191155,-38.254051,-5.329548,0.0,-16.639106,8.30464,29.634912,25.865518,47.340669,40.057332,55.3876,51.130292,61.110097,0.0,67.69463,24.752506,87.596729,16.711281,88.374584,8.604252,75.683842,1.091412,55.543636,0.0,2.833874,28.948185,53.148999,46.190963,64.98748,58.303393,74.569205,65.940782,82.633981,6.279819,291.068002,-49.602059,272.600047
7,-0.079353,0.18372,-0.024204,-0.069618,0.0,-0.397225,-24.048889,29.226104,-33.86641,30.50251,-38.224125,20.152336,-39.329773,-3.87529,0.0,-17.283298,7.595572,29.129324,25.49672,47.127605,39.994321,55.361381,51.316655,60.798369,0.0,67.479492,24.709282,87.414917,16.662083,88.33699,8.50185,75.702278,0.944916,55.541611,0.0,2.981545,29.036291,53.325977,46.304942,65.200791,58.413482,74.737858,66.00199,82.67528,6.350395,291.245781,-49.476334,272.524488
8,1.938652,-0.09764,-0.118332,-0.032616,0.0,-3.498963,-26.16552,27.398964,-36.105904,28.307922,-40.216004,17.745964,-40.911507,-8.153195,0.0,-17.275925,7.65095,30.012096,25.57113,47.830968,39.944316,55.992371,51.201132,61.128042,0.0,67.431175,24.719673,87.455978,16.661247,88.464249,8.470104,75.860779,0.919029,55.698166,0.0,3.152124,29.15358,53.380193,46.438557,65.409457,58.498018,74.901558,65.992307,82.63923,8.397646,291.135535,-49.486067,272.479266
9,1.30339,0.030949,-0.078346,-0.044498,0.0,-5.517929,-27.474037,26.259453,-37.592617,26.962487,-41.600761,16.20076,-42.15049,-9.489246,0.0,-17.111039,7.894865,31.428947,25.818934,47.657264,40.098038,55.826708,51.209975,61.622947,0.0,67.361732,24.744552,87.314872,16.673321,88.538749,8.471718,75.943451,0.933162,55.781273,0.0,3.236204,29.258976,53.427111,46.588439,65.515471,58.609564,74.973572,66.029741,82.636032,9.799398,291.150525,-49.466051,272.418809
10,0.208008,0.848933,-0.039047,-0.043855,0.0,-5.388748,-27.47398,26.234528,-37.757904,26.778008,-41.83699,15.915596,-42.464092,-10.469799,0.0,-18.393139,7.133568,30.816049,25.158217,46.850506,39.542061,54.92977,50.745315,61.126621,0.0,67.40023,24.703571,87.241516,16.636688,88.575164,8.481307,76.023124,1.035781,55.960258,0.0,3.255914,29.467087,53.714436,46.813012,65.617853,58.770165,74.972942,66.083785,82.593696,10.089449,291.983208,-49.423055,272.358704
11,-1.056736,1.08157,-0.026883,-0.011905,0.0,-3.900272,-26.199062,27.682285,-36.486465,27.442555,-40.785576,16.74606,-41.665489,-9.849197,0.0,-21.255208,7.033199,31.22191,24.617321,46.694168,38.585832,54.362272,49.446149,60.54187,0.0,67.42384,24.60973,87.412938,16.559121,88.646588,8.521225,76.079991,1.249947,56.142163,0.0,3.158225,29.58482,53.851645,46.945108,65.740649,58.851798,75.023268,66.090651,82.543183,9.107935,293.05266,-49.374716,272.334681
12,0.072418,0.414852,-0.097641,0.025552,0.0,-4.336887,-25.379642,27.832501,-35.330715,27.570706,-39.550049,15.913388,-40.340698,-14.260379,0.0,-21.823966,7.637773,30.678185,25.034951,45.878654,38.768082,53.854251,49.499476,60.815153,0.0,67.608021,24.600701,87.543835,16.619271,88.774739,8.712296,76.146389,1.559842,56.359211,0.0,2.953646,29.601419,53.817077,46.975725,65.67864,58.861073,74.987095,66.078165,82.499674,9.240549,293.462176,-49.412161,272.354897
13,-2.673408,-0.671647,0.093075,0.030888,0.0,-0.556881,-23.182366,30.466152,-32.939301,30.264484,-37.280228,19.144146,-38.404427,-8.124413,0.0,-21.284305,8.058231,29.983308,25.330921,45.43352,39.152219,53.797996,49.973929,60.793824,0.0,67.604027,24.476109,87.492233,16.491532,88.691185,8.635048,75.973572,1.548924,56.349838,0.0,2.732332,29.453094,53.730268,46.893818,65.649073,58.805831,74.959418,66.041695,82.503058,6.622072,292.795491,-49.264155,272.390747
14,-2.209992,-0.484469,0.054474,-0.026479,0.0,2.238659,-21.011535,33.35503,-30.390175,33.50504,-34.824886,22.628506,-36.255901,-4.314422,0.0,-21.335286,8.352558,28.133982,25.819119,45.327557,39.839773,53.843753,50.83615,60.472821,0.0,67.688919,24.432106,87.654053,16.418495,88.700867,8.55304,75.832489,1.457359,56.294792,0.0,2.664111,29.438089,53.620427,46.897104,65.648246,58.791938,75.007583,65.996469,82.486089,4.462446,292.320013,-49.159315,272.373259
15,-2.019275,-2.209343,0.089104,-0.029455,0.0,3.36708,-18.620007,36.503563,-27.769833,36.492347,-32.526776,25.279907,-34.52742,-1.40617,0.0,-19.079395,9.802692,30.139116,27.294571,47.402728,41.289635,56.064261,52.210986,62.448858,0.0,67.686928,24.52922,87.864509,16.430649,88.745315,8.455375,75.690719,1.233993,56.146431,0.0,2.587552,29.397247,53.364385,46.877924,65.634007,58.758951,75.081338,65.940956,82.504726,2.494509,290.12474,-49.018873,272.357874
16,10.859058,-5.342559,0.030189,-0.021983,0.0,-11.279674,-28.693096,24.823025,-38.426983,24.848476,-42.811787,14.450581,-44.12503,-13.4477,0.0,-11.985027,14.573714,35.127388,32.869423,51.991352,46.882197,59.965911,57.584914,66.209162,0.0,67.767746,24.642117,87.985131,16.485947,88.803154,8.410527,75.601021,1.05986,56.030915,0.0,2.561148,29.427665,53.218012,46.937069,65.6696,58.800286,75.141631,65.966323,82.594152,13.405397,284.801789,-48.936854,272.355499
17,-3.716492,0.204875,0.071217,-0.040693,0.0,-6.209461,-26.854694,29.018132,-36.229557,30.140431,-40.157249,20.246807,-41.204017,-3.316349,0.0,-12.788103,14.176499,34.431709,32.309915,51.91188,46.363025,59.912374,57.098976,65.442827,0.0,67.809734,24.750835,88.211048,16.525451,88.891353,8.345547,75.518383,0.86483,55.910946,0.0,2.541029,29.448882,53.040429,46.988482,65.686988,58.853181,75.184362,66.020551,82.623965,9.738269,285.035632,-48.816273,272.343774
18,-4.120903,3.494419,-0.075932,-0.085969,0.0,-1.036068,-22.173626,33.220242,-31.1823,34.765698,-35.041671,25.27715,-36.107963,0.783589,0.0,-17.311271,10.607128,29.063276,28.380032,48.405234,42.562805,56.903486,53.504151,62.980011,0.0,67.961289,24.925495,88.379723,16.706349,89.026772,8.487751,75.570397,0.927567,55.916405,0.0,2.597741,29.670245,53.09267,47.180365,65.690495,59.008607,75.272048,66.164924,82.704142,5.663841,288.552478,-48.84573,272.280232
19,8.588745,-3.211787,-0.064796,-0.018661,0.0,-13.670608,-29.820716,23.99873,-39.384796,25.127804,-43.220558,15.482953,-44.08144,-11.792038,0.0,-12.324592,14.1702,34.001419,32.154156,51.603769,46.113096,59.468499,56.773872,65.588916,0.0,68.056366,25.061966,88.481415,16.82595,89.073623,8.562973,75.56472,0.918972,55.807731,0.0,2.586169,29.740344,53.226051,47.210882,65.725286,59.005803,75.343937,66.174446,82.768399,14.299095,285.364894,-48.864017,272.285774
20,6.72044,0.321435,-0.113949,0.025885,0.0,-21.335666,-35.926517,16.713501,-46.108749,18.659569,-49.846641,7.980103,-50.597545,-18.959186,0.0,-12.750805,13.760833,32.454201,31.974067,50.561769,46.312389,58.256228,57.50007,64.230778,0.0,68.188969,25.288044,88.580578,17.071301,89.077457,8.791191,75.518177,1.097271,55.751438,0.0,2.507425,29.638691,53.362595,47.073784,65.721038,58.87782,75.328809,66.106039,82.728275,21.069482,285.706846,-48.928019,272.332176
21,-8.620788,3.815694,-0.042744,-0.024132,0.0,-10.355107,-28.208233,26.562858,-37.885277,28.183685,-41.638928,17.299301,-42.584347,-8.951809,0.0,-18.305181,9.47854,25.38058,27.28006,46.665478,41.759173,55.085628,53.142071,61.126338,0.0,68.268105,25.422203,88.547768,17.283177,89.076004,9.043911,75.517571,1.353379,55.774132,0.0,2.377367,29.509781,53.460802,46.928325,65.657991,58.785997,75.252671,66.12265,82.637156,12.489401,289.543464,-48.930056,272.328968
22,3.586921,-0.750502,-0.020977,-0.325251,0.0,-15.639484,-29.965953,21.81942,-39.691074,22.609726,-43.671947,11.507561,-44.749019,-18.866168,0.0,-16.634721,10.546513,26.716723,28.197844,47.13756,42.408985,55.310758,53.57709,62.144231,0.0,68.006596,25.608765,88.628437,17.490498,88.988995,9.237202,75.385975,1.538464,55.682225,0.0,2.364089,29.588944,53.750053,46.905736,65.942474,58.719751,75.45699,66.101988,82.707909,16.132747,288.811496,-48.894608,272.022251
23,6.217232,-3.517452,0.021996,-0.644675,0.0,-25.163166,-36.651146,15.064156,-46.785061,15.773506,-50.757168,4.406891,-51.620682,-24.798214,0.0,-12.109663,14.088641,32.024258,32.155082,50.016735,46.232349,57.355685,57.165555,63.628452,0.0,67.728596,25.636551,88.604084,17.45208,88.985332,9.156509,75.430034,1.457897,55.663456,0.0,2.382628,29.369435,53.860587,46.654326,66.250832,58.466315,75.628076,65.845502,82.753642,22.423233,285.311548,-48.799358,271.39508
24,-5.247482,1.636065,-0.278721,-1.602806,0.0,-20.778191,-33.317345,20.034576,-42.770966,21.107025,-46.071499,10.583427,-46.280365,-26.621887,0.0,-12.016284,12.204611,30.775319,29.165757,47.800945,42.363574,54.787164,52.643239,62.081728,0.0,67.242943,25.836514,88.779098,17.74379,89.197174,9.556881,75.584793,1.945839,55.798141,0.0,2.260448,29.143292,53.535496,46.384576,66.605353,58.143744,76.262389,65.476296,82.83782,17.262257,286.959833,-48.991573,269.804494
25,3.190544,2.547118,-0.429405,-3.67883,0.0,-31.765526,-36.709934,13.29332,-44.15015,15.754417,-45.845432,7.758202,-44.568844,-37.512474,0.0,-1.941939,9.233255,29.787757,22.357231,42.888983,32.444531,47.774244,40.343656,54.982394,0.0,66.280723,25.304832,88.383934,17.243511,89.097542,9.135452,75.24131,1.569156,54.786484,0.0,2.756884,28.528048,53.454133,45.755623,67.888885,57.600451,77.948854,65.025913,83.668807,20.563053,289.512981,-49.310726,266.131694
26,9.107025,0.117598,-1.153668,-6.570688,0.0,-44.574177,-40.694309,-11.164558,-46.083252,-8.828052,-46.085186,-12.69881,-43.398342,-50.005188,0.0,10.603509,12.232707,31.798214,20.626329,35.555282,26.090154,37.465938,29.561651,43.747697,0.0,64.827839,23.542832,87.054875,15.661126,87.752278,8.058426,73.785199,1.039135,53.551449,0.0,2.994289,27.016645,54.022854,44.659985,69.408377,57.123317,79.75677,65.288611,84.579601,29.834856,289.632753,-50.299616,259.56318
27,-1.168007,-2.792589,-3.678394,-11.055473,0.0,-43.245037,-35.61565,-23.122512,-37.577751,-19.002182,-34.841961,-17.57674,-29.797531,-42.064659,0.0,13.111552,11.525344,30.061892,18.320409,34.850192,22.718594,37.518526,25.198775,42.533487,0.0,64.703888,27.645699,86.391037,19.240414,85.155487,10.537708,71.273163,2.100128,51.609844,0.0,4.455416,27.624664,60.770939,45.182826,76.290559,57.755506,85.284605,66.060072,87.221605,28.883188,286.815223,-53.761671,248.482766
28,8.460732,-14.60659,-5.861938,-14.613531,0.0,-49.744869,-34.855259,-42.385746,-32.010521,-38.056744,-25.506809,-31.972378,-17.480232,-48.440483,0.0,22.127605,13.429331,39.010353,19.522516,43.566187,23.637514,46.277623,25.764174,50.858257,0.0,63.661434,33.525306,88.174415,25.40958,86.402114,16.242187,73.242347,6.64112,54.190006,0.0,5.585929,29.19736,66.185277,46.946862,79.919025,59.685218,87.989261,68.088449,87.926535,37.612856,272.179783,-59.354673,233.840385
29,14.459656,-20.029203,-9.618691,-18.484171,0.0,-58.939488,-35.090195,-63.736966,-28.390503,-57.774823,-19.18055,-47.38258,-9.29543,-44.685151,0.0,27.710485,16.06758,47.059161,22.097829,51.638893,26.655244,53.858277,29.194718,56.918479,0.0,65.027264,34.193195,80.453545,24.98243,75.979408,14.929974,63.016285,4.639641,46.144959,0.0,3.374153,25.848105,61.179393,43.070702,74.334034,56.515496,81.961902,66.375048,82.489769,52.333003,252.301723,-68.712873,215.507357
30,11.029907,-25.057058,-11.056251,-20.144232,0.0,-57.977131,-30.767555,-73.534344,-21.467537,-64.723057,-10.276222,-51.153774,1.078789,-33.038773,0.0,20.423875,20.868046,54.231781,29.574063,59.05182,36.425333,62.096289,40.673416,64.555239,0.0,66.753788,36.20581,71.487945,26.241577,64.063636,15.213626,51.479267,3.997352,37.223934,0.0,0.8217,22.401111,56.164927,38.927645,68.231723,52.802814,75.13411,64.065806,76.273356,63.612648,227.666671,-79.519386,195.785131
31,10.883949,-28.928845,-11.578171,-20.474683,0.0,-59.321686,-30.244949,-67.235241,-18.899391,-52.808784,-5.550133,-38.323883,7.551682,-21.17617,0.0,13.460528,20.783521,59.208888,33.58411,67.867716,44.410884,72.39953,52.693541,75.799013,0.0,69.594223,37.140369,61.523437,25.819896,51.706238,13.220661,39.412742,0.934147,26.942482,0.0,-1.127587,19.148494,48.51704,34.208407,60.68954,47.817012,67.541983,59.89606,69.48864,74.669477,199.680733,-90.924677,176.253355
32,11.852806,-23.635143,-9.942009,-18.568052,0.0,-59.709251,-28.303161,-60.123195,-16.100326,-43.290882,-2.258491,-28.799515,10.702355,-13.563812,0.0,10.794243,17.20632,56.336963,29.97959,63.013899,41.079819,65.899002,49.936916,70.040269,0.0,71.294586,31.570759,51.05096,19.218567,39.686062,6.304172,27.144859,-5.488083,16.026638,0.0,-2.356273,13.235077,36.267449,27.184519,47.628377,40.832114,55.465591,53.947975,60.01998,86.593586,177.704542,-100.795383,159.344255
33,4.766098,-10.486912,-8.747486,-15.814627,0.0,-53.120979,-22.901665,-45.210777,-11.21418,-26.193466,2.008438,-11.569496,14.408661,1.803795,0.0,2.263115,13.232681,37.874578,23.818702,42.229748,32.891752,44.332337,40.216326,49.193231,0.0,73.563297,24.710266,38.628078,10.657104,23.35017,-3.293999,9.71371,-15.135727,-0.259037,0.0,-2.007221,6.476915,26.42641,18.600484,37.700022,31.80329,45.823005,45.590527,52.097427,91.358385,169.267522,-109.544168,145.57952
34,6.363121,-17.256344,-5.743595,-11.575917,0.0,-54.955879,-22.088905,-36.00824,-9.745125,-15.703743,4.207855,-0.961418,17.253662,11.437729,0.0,-2.19716,9.926539,28.94361,19.422832,32.571595,27.766573,35.512532,34.917196,40.642028,0.0,73.657012,23.861114,35.735618,9.181755,18.875656,-5.909924,4.269584,-18.818711,-5.975247,0.0,4.563553,5.959841,29.729711,16.599733,38.103993,28.380736,45.124657,41.018835,50.856911,97.69535,154.140894,-115.313919,136.133319
35,4.93293,-13.968493,-4.613217,-7.084711,0.0,-58.359558,-22.033561,-31.028412,-9.265892,-11.676521,5.123223,2.611084,18.423844,14.339264,0.0,-1.984411,7.398366,23.066088,15.943574,27.756193,23.661807,31.239002,30.472383,36.647276,0.0,73.548706,22.043301,35.732964,6.791428,15.92347,-9.229179,0.671448,-23.127205,-9.632366,0.0,12.886903,6.802166,36.320579,16.239407,38.766044,26.58354,44.908296,37.598677,50.569339,102.548109,142.162147,-120.007307,131.038354
36,3.688797,-10.042266,-3.551857,-2.157189,0.0,-62.762924,-23.380989,-29.318046,-10.073501,-11.858139,4.78093,2.710808,18.589142,14.729187,0.0,1.422094,7.737753,22.736977,14.876014,27.734982,21.492842,31.319136,27.394045,35.976451,0.0,72.068001,22.637936,37.160637,7.141205,14.160404,-9.784355,-1.736561,-25.153507,-12.384704,0.0,21.959212,9.221819,46.302855,17.579465,40.821024,26.327461,45.216751,35.353778,50.639438,106.086828,133.745841,-123.709242,130.507125
37,3.089607,-7.440399,-2.672333,2.305587,0.0,-70.407783,-27.344398,-31.24514,-13.337768,-12.747917,2.569039,2.126633,17.628685,14.073601,0.0,5.697043,11.229522,28.699788,17.903494,31.806525,23.737624,34.980027,28.714176,38.574914,0.0,70.346363,23.619358,38.268059,8.173039,12.975438,-9.36597,-2.904556,-25.868122,-13.683803,0.0,29.422133,12.089447,55.578187,19.343959,44.574906,26.566114,46.901303,33.906015,52.026044,109.002542,127.417292,-126.555468,133.924562
38,2.742234,-8.254092,-1.908268,4.750978,0.0,-80.291199,-30.975884,-38.745186,-15.995362,-16.823456,0.961738,-1.272309,16.850944,10.695373,0.0,9.927219,13.583658,42.02186,21.317663,43.150188,27.965688,46.027597,33.58721,49.042029,0.0,69.324418,24.513131,39.047882,9.079239,12.152584,-8.941257,-3.82473,-26.321731,-14.486915,0.0,35.236144,15.1516,63.521451,21.682151,47.7439,27.835307,48.605713,33.996875,53.301622,111.443419,120.019342,-128.765093,139.531682
39,-2.22686,3.134927,-0.70214,6.077389,0.0,-80.863633,-31.108223,-40.421173,-16.122872,-16.180687,0.916717,-0.493676,16.95346,10.983673,0.0,12.017921,15.323204,46.301959,23.266894,45.225835,29.66914,47.107691,34.732686,49.788894,0.0,68.856605,24.14463,39.474174,8.827812,10.995082,-9.18805,-4.361802,-26.893525,-15.487565,0.0,36.594813,16.541639,68.500868,22.85773,48.868412,28.54666,49.070768,34.110286,53.548315,108.771447,123.868483,-129.912345,146.323285
40,-2.175568,3.297317,-0.278756,4.421194,0.0,-80.086693,-30.999779,-41.854294,-16.10598,-15.591682,0.972954,0.270836,17.236748,11.645416,0.0,12.157693,16.016711,49.245905,24.273457,46.570889,30.680421,47.72845,35.699618,50.533586,0.0,68.502217,23.943478,36.813424,8.388874,10.40926,-9.571415,-4.721122,-27.151153,-16.076213,0.0,35.08709,17.129033,64.708047,23.266444,48.762287,29.040169,49.078215,35.047829,53.308217,105.976324,127.880215,-130.810656,151.458894
41,-1.311081,1.591191,-0.729332,0.352866,0.0,-79.088104,-30.157814,-44.501976,-15.614776,-15.725487,1.032967,0.037148,17.011963,11.231072,0.0,9.707134,14.868443,50.650955,23.750302,47.290287,30.720095,48.207071,36.308014,51.317353,0.0,70.007344,24.520031,35.718201,8.686558,11.507046,-8.834186,-3.676059,-25.8525,-15.143589,0.0,30.158655,16.827358,58.203901,23.452091,48.146401,30.026706,49.040585,36.918262,53.252864,103.96011,130.097673,-132.245121,152.438027
42,0.473694,-1.721904,-1.565334,-4.482919,0.0,-76.592011,-29.082436,-47.230431,-15.075439,-16.785004,0.744667,-1.505997,15.863342,10.457726,0.0,5.136406,12.260297,47.859459,22.011453,45.813594,30.114305,47.767735,37.056398,51.555629,0.0,71.493496,25.928764,35.716679,10.201103,14.398911,-6.424541,-0.94741,-22.356605,-12.485687,0.0,23.425031,15.504849,49.331737,23.575826,45.130573,31.806365,48.07177,40.229331,53.138885,103.684067,128.969054,-134.560192,148.548393
43,2.417679,-4.95108,-2.128681,-10.290848,0.0,-71.663544,-27.743752,-44.090813,-14.343842,-17.675011,0.270195,-3.150742,14.000519,8.564415,0.0,6.220391,9.700527,41.487805,18.994927,43.681704,27.680481,45.991664,35.770167,50.273832,0.0,71.034702,26.855873,35.842735,11.867924,18.053799,-3.266293,3.352135,-17.534512,-7.466332,0.0,19.847953,14.146519,40.300857,23.772019,42.634689,33.709,47.145149,43.837105,53.601784,105.337481,124.480111,-137.453138,138.719682
44,4.797706,-14.006284,-3.383343,-18.649545,0.0,-69.650985,-27.410316,-43.05661,-14.820694,-20.246521,-1.390182,-6.60791,11.151513,4.862938,0.0,-2.791594,5.931646,33.109206,16.487317,39.696617,26.936635,44.468689,36.904584,50.366038,0.0,70.510964,27.880898,37.647526,14.284241,23.464611,1.238629,9.703217,-10.672931,-0.630386,0.0,7.217963,9.498788,26.739423,21.229607,37.091941,33.585204,45.144442,46.166263,53.461821,109.454046,110.781659,-141.517622,120.377969
45,7.193642,-20.51697,-6.718826,-24.748774,0.0,-65.917694,-27.059967,-43.584709,-15.914497,-22.952545,-4.370842,-10.750397,6.411667,-0.290817,0.0,-12.201838,2.182229,20.538873,14.256367,33.365144,26.502227,40.999069,38.266373,48.55958,0.0,69.772751,28.323509,41.931805,17.914741,30.368843,8.411201,18.813766,0.000755,9.938267,0.0,-7.198771,3.798867,15.256686,17.872786,29.439873,32.56177,40.632746,47.056765,51.228549,116.209391,90.094095,-148.674745,95.458601
46,11.441528,-24.419638,-8.406664,-28.878834,0.0,-61.654014,-25.781387,-45.645904,-16.318199,-27.641052,-7.022689,-16.472374,1.443261,-6.706237,0.0,-18.607721,-4.859671,-0.101994,7.682004,25.531096,21.652102,35.452585,35.560246,44.68387,0.0,66.060562,27.442703,44.06476,20.739681,35.313818,14.95352,26.613785,10.212914,19.909475,0.0,-20.345007,-3.05822,3.959331,12.777973,20.693069,29.19972,34.708483,45.285211,47.111532,127.632997,65.204107,-157.099331,66.109417
47,13.591896,-29.537112,-9.861729,-32.139126,0.0,-56.564506,-24.226615,-42.647071,-17.338668,-28.964241,-10.925102,-19.999763,-4.966964,-13.115158,0.0,-29.559027,-9.882931,-12.767997,3.402059,18.710721,18.747098,30.265242,34.051091,40.972646,0.0,60.788132,25.4553,43.985419,22.549256,38.097891,20.557131,32.540589,19.546486,28.367964,0.0,-33.220968,-10.28676,-7.144232,6.493745,11.11697,23.840951,27.231058,40.853712,40.744404,141.180633,34.806188,-167.00532,33.109484
48,14.79506,-32.576695,-11.013507,-28.267615,0.0,-49.915421,-19.87246,-41.841339,-15.351265,-28.966622,-11.808106,-22.332299,-8.475563,-17.23494,0.0,-46.04643,-17.182528,-24.939677,-2.555134,9.928435,14.186095,23.557763,30.684279,35.930385,0.0,54.647266,27.78123,40.55591,26.453384,36.839715,24.815385,32.350868,23.476512,31.336229,0.0,-51.314241,-15.509814,-19.95966,-0.114773,-3.534359,15.371616,11.095193,30.111356,20.885668,155.804158,1.335761,-178.190362,3.948137
49,13.76184,-24.756037,-15.362927,-28.56676,0.0,-39.782775,-14.627357,-35.113357,-11.636947,-25.452941,-9.69429,-20.665351,-8.217041,-18.044952,0.0,-48.03777,-23.17559,-43.11892,-10.308132,-2.036751,5.323719,12.285275,21.162823,24.837856,0.0,46.544415,24.831963,36.192965,26.061001,35.315008,26.698648,33.232498,27.469997,34.66725,0.0,-58.239416,-21.019142,-27.299728,-6.938514,-12.118827,7.254167,1.469675,20.672084,10.718624,169.279684,-24.284029,-193.839603,-25.482376
50,17.789727,-23.376397,-15.421749,-23.543975,0.0,-30.304047,-6.85199,-27.54895,-4.889122,-22.733574,-5.335121,-19.573677,-6.900376,-18.319016,0.0,-50.608914,-31.445758,-57.115796,-19.930007,-11.419769,-4.659297,3.087496,11.184896,15.913539,0.0,38.267258,21.770244,30.845495,24.507156,32.006533,26.694631,31.73394,29.153252,34.960939,0.0,-62.88469,-25.798735,-33.286482,-13.050928,-19.783677,-0.323127,-7.708461,11.550801,0.131282,186.543589,-48.116758,-209.787174,-49.482683
51,16.512794,-21.367198,-14.731493,-18.453153,0.0,-19.789421,-1.415634,-16.140449,0.264679,-17.589844,-1.243881,-16.852066,-4.518608,-16.821945,0.0,-58.751633,-34.825507,-61.712785,-23.711726,-17.135665,-8.62418,-2.37079,6.864768,10.49531,0.0,31.184235,16.782474,24.110264,20.40374,27.406174,23.664574,28.775196,27.549694,33.720119,0.0,-64.950158,-29.451634,-47.89734,-18.571041,-27.092185,-7.43814,-16.155952,2.842186,-9.688584,202.23983,-69.346302,-225.33522,-67.798182
52,13.898987,-14.361182,-14.477577,-14.103165,0.0,-15.400703,5.085274,-5.47792,7.816177,-13.892761,6.128403,-13.756851,1.595604,-13.885368,0.0,-55.327375,-39.295091,-74.473609,-29.566304,-23.226998,-15.309175,-8.905781,-0.455187,3.726588,0.0,25.133537,11.211342,17.581443,14.989448,23.893913,19.05923,26.387272,24.201496,32.897678,0.0,-67.645035,-31.987293,-61.521382,-22.577519,-31.441753,-12.527769,-21.823892,-3.329798,-16.713792,215.421633,-83.251176,-240.529981,-81.445039
53,13.384987,-9.673517,-14.297333,-14.149748,0.0,-14.176209,8.214661,1.623779,11.273529,-12.394363,9.356094,-12.623818,4.08696,-13.623756,0.0,-54.28555,-41.411055,-85.902196,-32.721454,-26.899218,-19.024882,-12.764539,-4.510565,-0.009325,0.0,21.523865,2.077297,15.964519,7.727886,24.843521,15.627251,30.123493,25.438408,36.366188,0.0,-67.592699,-36.635325,-73.051392,-26.542766,-31.010366,-14.902752,-18.744894,-3.544307,-9.979132,228.346115,-92.398089,-255.287819,-95.068183
54,11.999977,-9.098917,-8.645737,-6.786247,0.0,-14.961067,11.492477,4.868546,14.46389,-12.538994,11.146706,-13.176247,4.360657,-14.408066,0.0,-54.757542,-43.390684,-88.609856,-34.283409,-24.777214,-19.943253,-11.578067,-4.968778,1.265439,0.0,19.970719,-1.510505,14.417473,4.556706,24.550186,13.516354,30.27475,24.602349,37.295883,0.0,-67.886612,-37.042797,-83.963851,-26.9457,-32.459623,-15.062395,-20.131715,-3.209472,-11.065075,240.063652,-100.905113,-264.215996,-101.262537
55,6.083817,-4.138136,-4.71785,-4.95079,0.0,-15.246392,11.781875,7.826728,14.900711,-12.511712,11.597419,-13.248482,4.851402,-15.062737,0.0,-55.671844,-42.42756,-90.553907,-33.472444,-22.760223,-19.231407,-10.204348,-4.398247,2.684352,0.0,19.999066,-4.047706,13.912205,1.714577,24.340062,10.815102,29.983613,22.190392,37.182152,0.0,-67.287028,-36.872566,-92.805574,-27.068778,-31.933515,-15.000706,-19.448533,-2.561889,-9.813863,246.026053,-104.451495,-269.055262,-105.621573
56,2.177444,-1.030479,-2.438953,-3.681646,0.0,-17.956215,12.812782,8.340019,15.885384,-12.755905,12.10247,-12.831528,4.970444,-15.363281,0.0,-51.412405,-41.670607,-92.372917,-33.046196,-22.742698,-19.451447,-10.379231,-5.19584,2.635952,0.0,21.356129,-4.093975,16.23056,1.528118,26.348854,10.74638,31.622372,22.075859,38.611942,0.0,-67.631228,-36.405462,-91.579742,-26.178377,-30.015881,-13.555043,-17.521049,-0.289869,-7.306871,248.101513,-105.241866,-271.596199,-109.063111
57,1.022186,-1.235107,0.084366,-1.753391,0.0,-14.953422,11.973976,5.612618,14.827423,-14.488746,10.839524,-13.829017,3.779984,-16.601623,0.0,-56.073947,-40.095672,-90.465774,-31.231459,-20.711869,-17.484604,-8.143984,-3.161436,5.122357,0.0,22.886307,-3.086987,19.210751,2.705532,27.902641,11.821781,32.801845,22.701279,39.338264,0.0,-66.38913,-35.667708,-89.815316,-25.385949,-29.421863,-12.595336,-16.533351,1.137196,-5.600601,249.035162,-106.285908,-271.60037,-110.625437
58,-1.078354,-0.931647,1.913109,-1.267266,0.0,-12.401985,10.93602,3.957962,13.945702,-15.303016,10.128113,-14.09864,3.365136,-16.766807,0.0,-59.222594,-37.913249,-87.243742,-28.640347,-17.835964,-14.735445,-5.020963,-0.537451,7.923004,0.0,24.081997,-2.633778,20.588493,3.285919,28.530246,12.173618,32.858631,22.707641,39.38126,0.0,-65.669544,-34.814759,-87.886691,-24.325729,-28.255976,-11.262645,-15.162777,2.724755,-4.065919,247.863201,-107.062831,-269.780868,-111.737979
59,-0.842788,-0.767959,2.056778,-0.751904,0.0,-8.338143,9.6557,1.485649,12.546203,-16.721009,8.75576,-15.183266,2.093376,-17.574898,0.0,-63.122315,-35.850403,-83.926278,-26.148533,-15.563358,-11.951879,-2.596024,2.387852,10.025383,0.0,24.506458,-2.502846,21.31319,3.391685,28.792831,12.228985,33.129341,22.678745,39.908203,0.0,-64.602407,-34.267832,-87.043273,-23.596438,-27.316567,-10.309287,-14.070752,3.779477,-3.054855,246.933844,-107.73604,-267.810659,-112.395133
60,-1.769944,-0.594094,1.510082,-0.944664,0.0,-6.648719,9.152207,0.250054,12.071526,-17.153732,8.423653,-15.300727,1.931649,-17.363616,0.0,-64.649628,-33.853259,-81.323088,-23.879678,-13.543342,-9.524964,-0.425424,4.794141,11.751733,0.0,23.883934,-2.42775,21.616848,3.421864,29.24263,12.247856,33.427391,22.60524,40.43161,0.0,-64.073478,-33.754128,-85.93443,-22.939287,-26.222979,-9.471031,-12.983642,4.751768,-2.152298,245.112218,-108.307286,-266.352259,-113.316949
61,-0.82109,-1.167194,0.859497,-1.053938,0.0,-5.457802,8.07328,-1.21843,10.773056,-18.237511,7.1613,-15.958351,0.903854,-17.818909,0.0,-65.417309,-31.721644,-78.571857,-21.30866,-10.905611,-6.609085,1.850888,7.863723,13.621449,0.0,22.683655,-2.42347,22.051437,3.621826,29.385304,12.529839,33.589165,22.810215,40.577328,0.0,-63.549655,-33.072418,-85.063807,-22.131508,-25.117054,-8.518969,-11.909116,5.713272,-1.098595,244.261717,-109.487469,-265.522173,-114.383876
62,-0.305786,3.953026,0.671574,-0.816494,0.0,-7.581505,7.180595,-2.078637,9.517318,-18.717362,5.589935,-17.345948,-0.784767,-18.635811,0.0,-61.643383,-34.773132,-81.848479,-24.54162,-14.834252,-9.794411,-1.846028,4.89658,10.139684,0.0,21.86436,-2.716793,22.367443,3.471004,29.41444,12.44379,33.624813,22.702514,40.311012,0.0,-62.760946,-32.511243,-84.48546,-21.347809,-24.108772,-7.571212,-10.926983,6.64017,0.063004,243.935435,-105.581793,-264.871095,-115.24772
63,-1.138962,4.073292,0.575809,-0.747742,0.0,-11.956261,7.802765,-1.494736,9.888199,-18.235954,5.723305,-17.543289,-0.945465,-18.911041,0.0,-57.718573,-37.793592,-85.121282,-28.046385,-18.567521,-13.469142,-5.532355,1.40029,6.914287,0.0,21.504616,-3.009693,22.804001,3.19764,29.506474,12.176125,33.664238,22.450333,40.056496,0.0,-62.067078,-31.851162,-83.717822,-20.503221,-23.130531,-6.596754,-9.89911,7.596307,1.152114,242.790327,-101.588771,-264.301432,-116.075732
64,-1.195633,3.499168,0.259564,-0.865686,0.0,-17.177216,8.223312,-0.908066,10.160225,-17.563408,5.869492,-17.407745,-0.96096,-19.02388,0.0,-53.821876,-40.269025,-88.498965,-30.993094,-21.984024,-16.738394,-8.756382,-1.91929,4.494034,0.0,21.380264,-3.116112,23.424568,3.200328,29.246624,12.163295,33.464653,22.380489,39.579597,0.0,-62.047891,-30.954342,-82.477042,-19.453102,-22.219576,-5.370908,-8.907391,8.836589,2.169583,241.594225,-98.184309,-264.042337,-117.036124
65,-0.604706,3.753461,0.303978,-0.617386,0.0,-22.56823,8.211136,-0.660942,10.05336,-17.22448,5.693733,-17.490692,-1.233581,-19.250564,0.0,-50.60013,-43.155025,-91.795285,-34.45836,-25.405441,-20.491528,-12.229755,-5.614082,1.774911,0.0,21.393093,-3.181046,24.133873,3.20145,29.032081,12.145191,33.334373,22.32471,39.171924,0.0,-61.793789,-30.178408,-81.577299,-18.566914,-21.350273,-4.370898,-7.941844,9.853254,3.201956,240.998554,-94.517484,-263.729324,-117.740146
66,-1.027748,3.704525,0.453723,-0.456262,0.0,-26.894554,8.92273,0.059509,10.70993,-16.338135,6.194801,-17.372955,-0.962883,-19.23262,0.0,-48.864509,-45.941525,-95.172159,-37.732836,-29.102735,-24.160466,-15.840043,-9.420007,-1.178235,0.0,21.493447,-3.349067,24.59237,2.882733,28.889454,11.702351,33.012337,21.879673,38.652615,0.0,-62.073842,-29.579769,-80.495657,-17.861408,-20.528115,-3.570378,-7.082056,10.71169,4.01048,239.983234,-90.881561,-263.263173,-118.26501
67,-1.143929,-0.975385,0.311131,-0.405268,0.0,-30.136093,9.433457,0.479531,11.241852,-15.85707,6.771927,-16.577522,-0.420364,-19.256355,0.0,-48.564288,-44.204931,-93.754029,-36.072843,-27.187453,-22.785741,-14.330659,-8.324369,0.308727,0.0,22.3503,-3.433102,25.394955,2.706013,28.775928,11.488678,32.964993,21.716251,38.594582,0.0,-61.868145,-29.004051,-79.548418,-17.277339,-19.897301,-2.849263,-6.338013,11.595468,4.533438,238.859092,-91.929623,-262.932255,-118.742955
68,-0.539268,-0.71029,0.624229,-0.179885,0.0,-30.635147,8.970749,0.020897,10.92794,-16.110168,6.592163,-16.547104,-0.40052,-19.344864,0.0,-47.846118,-43.270687,-92.847185,-35.079502,-25.703134,-21.883988,-13.432796,-7.599203,0.9087,0.0,22.608078,-3.823711,25.729649,2.290432,27.912266,11.076233,32.293202,21.339066,38.021313,0.0,-61.377584,-28.59066,-78.862019,-16.91429,-19.358362,-2.461915,-5.878658,11.999674,4.980393,238.346666,-92.684154,-262.281184,-118.967081
69,-0.285988,-0.594027,0.350293,-0.09575,0.0,-30.267059,8.877823,-0.285965,10.950073,-16.416916,6.642929,-16.59613,-0.31089,-19.385307,0.0,-47.825277,-42.339201,-91.487971,-34.093322,-24.103341,-20.859067,-12.386373,-6.640151,1.427367,0.0,22.89014,-3.815003,26.506908,2.368354,28.07381,11.236564,32.478584,21.571186,38.428985,0.0,-60.414615,-28.108636,-78.436154,-16.420537,-18.72476,-2.011285,-5.470185,12.417217,5.111823,238.092138,-93.314296,-261.899431,-119.098946
70,-1.200233,-0.467574,0.706009,-0.182059,0.0,-29.27195,9.132522,0.201004,11.632621,-16.337082,7.595421,-15.835099,0.77481,-18.581955,0.0,-47.338233,-41.389056,-90.382827,-33.164269,-22.20299,-19.976863,-10.868004,-5.845072,2.448225,0.0,23.181793,-4.090188,26.986278,2.267738,27.737331,11.212589,32.215404,21.576747,38.270519,0.0,-59.740723,-27.546198,-77.667689,-15.822956,-18.28468,-1.42573,-5.103863,12.938274,5.293678,236.920779,-93.812813,-261.164548,-119.311948
71,-0.994995,-0.350248,0.967277,0.000575,0.0,-28.321015,9.072258,-0.165551,11.955368,-16.452691,8.181861,-15.325585,1.497345,-17.982399,0.0,-46.934812,-40.334295,-88.847855,-32.076104,-20.527048,-18.819173,-9.01041,-4.661909,3.898334,0.0,23.299919,-4.180332,27.520374,2.380257,27.457443,11.489136,32.169434,21.946907,38.217682,0.0,-58.421658,-26.76052,-77.07111,-15.143474,-18.07534,-0.911424,-4.995022,13.293573,5.290398,235.956768,-94.190799,-260.166287,-119.339111
72,-1.220147,-1.477453,1.485088,0.008657,0.0,-24.0485,9.19455,-0.950317,12.324532,-17.005851,8.791352,-15.21817,2.263939,-17.644134,0.0,-50.236887,-37.946662,-85.394737,-29.237974,-17.437828,-15.646671,-5.64224,-1.342738,6.877742,0.0,23.702694,-3.984237,28.176602,2.725914,27.129605,11.934838,31.97778,22.419697,37.884705,0.0,-57.004698,-25.47127,-75.945733,-13.812184,-17.356318,0.263934,-4.352805,14.200063,5.858447,234.764602,-95.707161,-258.653218,-119.369363
73,-1.005409,0.039409,2.024964,0.841843,0.0,-25.233513,8.42482,-3.276718,11.299736,-17.688263,7.695511,-15.363762,1.152374,-17.995857,0.0,-48.193087,-35.806634,-83.252242,-26.795992,-15.219914,-13.088697,-3.265207,1.243067,9.132849,0.0,25.495411,-3.669628,29.195938,3.079708,27.271763,12.392795,32.153972,22.936752,37.895977,0.0,-54.508972,-24.250714,-75.005598,-12.532061,-16.694866,1.369587,-3.822807,14.994069,6.362973,233.781864,-95.715899,-256.605583,-118.575667
74,-1.698257,1.22251,2.918758,1.582657,0.0,-27.550713,7.329483,-7.290711,9.893234,-18.836174,6.227714,-16.107926,-0.351792,-18.921616,0.0,-44.077503,-33.798341,-81.097532,-24.390258,-13.091766,-10.415584,-0.990841,4.178447,11.659725,0.0,27.702175,-3.337818,30.415146,3.403439,26.768578,12.876744,31.897648,23.611061,37.3358,0.0,-51.783556,-22.837584,-73.8418,-10.978266,-16.024652,2.714449,-3.246608,15.972034,7.028086,232.105282,-94.652427,-253.66515,-117.152048
75,-2.526741,1.797746,4.100784,2.948107,0.0,-30.018998,5.490326,-13.230149,7.313461,-20.279663,3.507705,-17.496437,-2.898445,-20.313378,0.0,-40.458694,-31.141004,-77.328966,-20.945005,-10.851795,-6.436103,1.593686,8.494819,14.578451,0.0,29.570469,-2.423286,32.345799,4.013112,26.995297,13.468941,31.88237,24.272645,36.759133,0.0,-48.769342,-21.618897,-72.457918,-9.423348,-14.996881,4.200318,-2.296146,17.239443,8.217442,229.586151,-93.191777,-249.556756,-114.541037
76,-4.498947,6.876575,5.532509,4.820348,0.0,-31.167389,3.150054,-21.627915,4.903312,-21.90857,1.262123,-19.493706,-4.751496,-21.506882,0.0,-44.101514,-32.51036,-74.815175,-21.371984,-10.996816,-5.716087,1.930176,10.294652,15.269025,0.0,31.487652,-1.247509,34.388157,5.012638,26.654961,14.367371,31.341317,25.047078,35.671189,0.0,-45.94368,-20.319924,-70.145859,-7.8018,-13.425129,5.821032,-0.793703,18.797752,10.041389,225.056242,-86.863394,-244.055209,-110.268881
77,-6.069031,10.931219,6.862908,6.416541,0.0,-37.192818,-0.130486,-32.32885,1.30497,-24.379189,-2.124253,-21.768975,-7.716454,-23.217018,0.0,-44.235281,-34.488785,-73.839473,-22.893879,-11.873394,-6.394867,1.380109,10.622176,15.056269,0.0,32.476959,1.668331,36.958351,7.805877,25.618583,16.558079,29.622436,26.224216,33.668552,0.0,-43.017708,-19.220248,-66.42159,-6.638058,-10.667106,7.033242,1.756528,20.155421,12.762816,218.889576,-76.577316,-237.289936,-104.497481
78,-8.340088,13.081516,9.779983,7.459876,0.0,-40.266335,-3.456185,-42.425148,-1.700432,-27.051338,-4.340561,-24.200913,-9.230667,-24.995911,0.0,-48.718457,-35.890575,-70.262111,-23.726645,-11.158713,-6.186626,2.81609,11.958233,16.540187,0.0,32.452961,4.151631,38.496907,9.043568,24.851349,15.963673,27.467491,23.60725,29.576443,0.0,-40.123834,-17.129391,-60.364393,-4.57444,-5.773694,9.194167,6.829219,22.59731,18.083231,210.584284,-64.356965,-227.475157,-97.89877
79,-9.73494,15.73503,8.720822,15.829891,0.0,-41.998512,-8.533493,-53.08802,-6.464813,-31.347038,-7.920158,-27.579277,-11.584533,-27.301346,0.0,-53.473875,-36.396446,-65.077685,-24.042517,-9.478658,-5.759121,4.913394,13.343523,18.257577,0.0,36.404113,6.146335,43.376278,10.484733,26.994987,16.646015,28.416423,23.578823,30.00246,0.0,-44.316103,-19.191052,-57.357482,-5.983059,-5.252614,8.622377,8.290999,22.911811,19.821067,201.197061,-49.390712,-218.406618,-82.837656
80,-9.88092,19.711584,9.178871,18.56683,0.0,-45.506058,-14.200035,-66.893738,-12.180061,-37.48819,-12.860252,-32.847084,-15.631783,-32.083969,0.0,-58.210941,-36.925907,-58.968482,-24.41255,-8.409128,-5.67913,6.981186,14.360768,19.856777,0.0,39.722797,8.555134,47.956386,12.381225,29.086921,17.738262,29.900505,23.767044,30.629299,0.0,-48.71156,-20.772147,-52.428002,-7.170112,-4.907867,8.248669,9.401271,23.655977,21.791282,191.943724,-30.341132,-208.600164,-64.93283
81,-7.366379,17.059329,9.59309,20.731743,0.0,-45.480057,-21.843475,-79.834282,-21.911705,-47.637245,-22.472053,-41.794235,-24.128998,-40.702537,0.0,-53.036824,-31.394928,-49.682338,-17.928633,-1.900344,0.919433,13.8464,20.992472,26.560075,0.0,42.655117,11.178543,54.452167,14.461086,32.784416,18.867004,32.902347,23.872742,32.481857,0.0,-53.441208,-22.382153,-48.854854,-8.126774,-4.388904,8.184876,10.848646,24.868417,23.795886,185.307335,-14.093448,-198.277084,-45.012732
82,-7.084625,17.514177,9.95779,23.325014,0.0,-40.555802,-29.883087,-90.597565,-30.571976,-64.005684,-29.477326,-56.880135,-28.2621,-51.569779,0.0,-51.270417,-24.32907,-38.411912,-9.748785,4.123439,8.6117,20.697398,27.424364,34.33736,0.0,46.561764,12.642414,60.409596,15.270046,37.480591,18.843453,36.726082,23.276963,35.110771,0.0,-57.011969,-22.514762,-46.03508,-7.50034,-5.211654,9.37622,11.235858,26.820477,24.921602,178.779436,2.581831,-187.762568,-22.526616
83,-14.837494,21.685404,8.271904,26.463893,0.0,-44.184952,-38.130913,-99.097229,-39.098648,-70.709564,-36.67337,-60.916145,-32.93644,-53.369499,0.0,-43.245246,-17.61286,-20.946301,-1.904302,14.37628,16.376562,29.596775,34.472952,42.39829,0.0,49.297074,14.229996,65.388108,17.252175,46.404946,21.045365,42.576176,25.477959,40.329518,0.0,-60.969856,-22.734223,-46.916327,-7.066155,-8.935106,10.086571,8.319781,27.700673,21.906002,164.271875,23.416225,-179.160731,3.086267
84,-14.259384,23.027174,12.059155,22.889643,0.0,-48.982498,-44.045311,-106.739479,-44.715752,-80.606941,-41.186165,-68.573639,-35.391747,-58.457245,0.0,-36.090622,-10.645308,-4.041244,6.201624,25.008373,24.05788,39.145735,41.142947,50.545947,0.0,48.216058,18.114784,67.684438,20.402046,51.771143,22.791057,45.425937,25.469667,41.137378,0.0,-58.728428,-19.059716,-39.706744,-3.059773,-5.293931,14.292055,11.870513,32.222773,25.516465,150.058451,45.427398,-167.055616,24.959909
85,-13.42527,22.52311,13.395538,24.413822,0.0,-53.215622,-48.15342,-110.715248,-47.7388,-92.147301,-42.580742,-79.404145,-34.320717,-64.641999,0.0,-26.83881,-3.384373,12.068705,14.49993,37.562276,31.950411,50.157063,47.650552,60.058692,0.0,48.705465,23.276344,71.181479,24.692562,56.022795,25.51165,48.038944,26.512957,42.391411,0.0,-56.877274,-15.710534,-29.741166,1.138464,1.213037,19.159723,18.224679,37.68149,31.31171,136.405381,66.811611,-153.887878,48.234834
86,-19.907891,27.277269,12.908764,23.997334,0.0,-60.496376,-49.208725,-109.074852,-46.401008,-96.668724,-39.355522,-83.807212,-29.510788,-67.040496,0.0,-20.982938,2.306588,26.255615,20.248578,46.933901,37.124206,58.353936,51.664711,66.979221,0.0,50.722486,27.452717,76.530836,26.431801,66.372328,24.551594,56.212063,22.620718,46.201355,0.0,-52.671083,-9.37283,-17.010553,7.388878,7.523818,24.630723,23.481634,41.867421,36.072018,116.151151,93.208566,-141.325453,71.351854
87,-19.137451,27.173374,12.975677,25.937624,0.0,-71.916778,-47.993751,-105.419666,-44.080948,-93.912941,-37.037475,-81.944561,-27.758331,-66.061134,0.0,-8.633325,5.672702,36.906807,23.968077,56.794818,41.190149,66.842295,55.870525,73.132649,0.0,51.765433,30.187558,80.983115,26.51968,71.99623,21.660668,55.492024,16.770522,40.750214,0.0,-50.509009,-5.505667,-5.062756,9.943567,13.444781,25.509296,26.256815,40.502534,37.047188,96.891844,119.499052,-128.471632,96.40659
88,-10.140907,23.319444,13.747754,26.408373,0.0,-72.336868,-45.32016,-102.64436,-40.791229,-99.418018,-33.810265,-89.512356,-24.879524,-72.57605,0.0,-3.600067,10.049991,39.128729,28.530135,60.958562,45.310995,72.217144,59.014844,79.021212,0.0,53.419126,38.056308,89.873136,32.577884,78.45437,25.210121,63.405189,17.37042,46.459224,0.0,-47.087913,0.912844,15.400336,16.978402,31.184495,32.449955,42.870726,46.973081,51.911981,86.686415,142.125573,-114.7884,122.12204
89,-11.695427,28.44245,11.462894,24.956472,0.0,-72.593674,-43.593201,-101.330933,-40.581207,-102.828838,-35.059616,-96.015839,-27.615166,-79.881535,0.0,7.225156,14.28019,31.670378,29.607816,47.297283,42.280816,55.92142,51.254632,61.852707,0.0,55.991501,39.339306,95.856182,32.080605,85.362934,23.2244,71.250034,14.092781,51.083839,0.0,-42.907144,7.341142,30.904179,23.494951,45.406584,38.231582,55.864745,51.44328,63.396789,74.927547,169.990687,-103.388947,146.501176
90,-10.997955,22.113106,9.073334,23.328966,0.0,-73.613159,-41.347687,-98.968918,-39.606011,-103.950852,-35.554596,-99.133805,-29.708039,-84.172703,0.0,8.538761,18.718971,22.243129,34.586764,37.623328,46.927708,49.246423,54.607631,60.154769,0.0,58.830608,37.564544,98.739864,28.486381,91.454407,18.46899,76.189007,8.261547,53.150276,0.0,-38.270108,13.813339,40.683339,29.176273,55.375145,42.053074,65.06681,52.728572,70.904077,63.920477,191.628077,-94.324728,169.354426
91,-5.705498,17.044139,8.778373,23.369956,0.0,-75.943176,-38.861916,-98.998936,-37.800659,-106.159172,-34.859299,-102.473648,-30.060608,-86.689945,0.0,10.740225,22.789298,15.583495,38.740171,30.823558,50.382532,44.898576,56.729202,59.777141,0.0,60.505944,38.520985,97.805203,29.763794,90.128907,20.116963,74.189953,10.510941,53.47918,0.0,-34.816315,19.784955,46.375732,36.252074,61.20933,49.113906,71.079392,58.712921,76.32425,58.249346,208.207137,-85.511988,192.259303
92,-5.205734,16.124786,6.1447,19.101242,0.0,-76.249752,-37.283913,-97.999661,-36.541237,-104.620835,-34.322457,-102.108147,-30.283676,-86.888901,0.0,10.370686,27.234773,14.836451,42.698768,26.215557,53.028994,40.163321,57.580284,57.468898,0.0,63.478683,40.089489,98.098033,31.71865,94.100498,22.878044,81.893932,14.052612,63.022201,0.0,-30.261098,25.637672,55.14318,44.247295,70.435917,58.12139,81.280845,67.778982,87.005602,53.088885,223.952059,-79.322015,210.980681
93,-4.810089,17.358362,4.11787,15.049403,0.0,-75.793019,-37.363495,-93.336892,-36.342614,-97.869107,-34.122918,-93.840134,-30.492737,-81.231881,0.0,13.667713,29.933982,17.12749,41.771659,23.054393,48.438938,32.809155,49.494104,47.293492,0.0,66.837616,36.539349,96.125519,27.660381,93.584885,19.136478,79.834236,11.29953,60.255855,0.0,-27.242108,27.507487,57.268431,46.21018,70.431742,59.832346,80.842787,68.657171,87.065599,48.312115,240.928044,-75.170826,225.647707
94,-1.34768,8.731607,4.309902,12.282034,0.0,-73.849651,-38.0373,-85.38454,-35.077949,-85.488269,-31.413139,-79.598384,-26.689521,-69.176044,0.0,11.173725,29.7276,28.306587,41.584272,36.987781,49.059394,46.945232,51.274739,60.510711,0.0,68.54147,37.082543,94.99522,27.654625,92.256077,18.446629,76.369091,9.84145,56.769688,0.0,-24.433638,29.304559,58.695495,47.97886,70.936835,61.199783,81.083626,69.373549,86.908345,46.926567,249.328434,-70.898792,237.598524
95,-0.588455,14.629945,4.158714,9.087326,0.0,-69.464641,-40.738289,-77.298534,-36.89003,-71.016769,-32.459404,-61.886753,-27.177589,-54.231296,0.0,16.660792,26.259079,38.295407,32.939831,42.63961,36.316442,45.572644,35.574005,51.57445,0.0,68.728672,38.276505,95.254361,28.740944,92.682942,19.007435,75.755917,9.818493,55.558697,0.0,-21.301237,31.218489,60.684748,50.290931,72.719632,63.548769,82.109548,71.456107,87.362754,46.188343,263.679946,-66.889847,246.407417
96,-0.527069,15.386288,3.413063,5.931214,0.0,-65.58086,-45.165024,-63.474266,-40.868774,-52.011497,-35.785423,-42.628017,-29.848801,-40.487469,0.0,22.034746,19.544179,42.789837,20.932995,43.546576,20.280602,39.876243,16.708476,38.20808,0.0,69.069317,36.780419,95.13374,26.5551,93.371396,16.167733,75.720875,6.346642,53.283726,0.0,-18.899257,30.147835,64.598835,48.556448,78.141565,61.494975,86.659663,69.363126,90.345274,45.467789,278.862832,-63.670269,252.135229
97,-0.873619,13.204128,4.288411,4.871453,0.0,-62.416946,-49.271416,-50.819904,-44.750565,-35.279503,-39.052483,-24.983299,-32.387398,-28.015526,0.0,26.769199,13.285737,42.128342,10.488209,41.449964,6.709676,33.455953,1.181854,26.079299,0.0,68.473526,35.391792,94.257087,24.835647,92.930809,14.106159,75.106407,3.992569,51.475181,0.0,-17.136641,29.703973,64.481978,47.719668,79.595923,60.497311,88.473261,68.61728,90.885466,44.351383,291.924572,-59.624645,256.864294
98,-1.160614,9.423755,3.921718,4.121988,0.0,-60.488663,-51.806076,-40.748428,-47.803024,-23.148193,-42.045914,-14.99382,-34.723251,-19.683357,0.0,28.257544,8.187747,38.590056,3.63952,37.267226,-1.426496,27.807977,-7.395859,18.322928,0.0,68.070202,34.035633,92.891613,23.361763,91.543385,12.587895,74.351315,2.553486,50.72572,0.0,-15.417942,29.847259,63.785286,47.846664,78.725341,60.437302,87.511782,68.404118,89.152688,42.936745,301.257178,-55.956951,260.895133
99,-1.711006,4.217689,2.487396,3.329743,0.0,-56.144692,-52.204971,-28.858475,-49.442551,-12.83178,-44.281403,-6.912094,-37.024727,-13.809013,0.0,26.753465,6.644505,36.151087,2.736111,35.435894,-1.70751,26.064935,-6.699104,16.627003,0.0,67.894375,32.937459,92.332501,22.686139,91.558468,12.390896,75.446537,2.90474,52.445424,0.0,-14.140301,29.561614,62.82062,47.651483,77.154669,60.262251,86.020621,68.139764,87.530171,40.94355,305.404277,-53.751744,264.154286
100,-2.402321,-0.503019,1.864174,2.72875,0.0,-47.870224,-48.29464,-16.26004,-46.885643,-3.168983,-42.597427,-1.362305,-35.931038,-11.598862,0.0,20.722154,7.115513,32.810155,6.800795,35.476143,5.654078,29.325925,3.951582,22.744468,0.0,68.01408,31.860398,91.700489,22.065628,91.209332,12.258076,76.275616,3.24931,54.316738,0.0,-13.032708,28.931205,61.639756,47.03419,75.326006,59.730754,84.401933,67.723172,86.080717,38.275618,304.876397,-52.153181,266.858175
101,-6.017738,-5.065707,1.237027,2.222151,0.0,-40.858086,-44.479683,-6.055504,-45.12814,4.565345,-42.321888,3.747299,-36.867611,-18.147618,0.0,15.817417,11.298893,34.442626,15.405295,39.521474,17.556963,36.291359,18.916337,34.924995,0.0,67.854858,30.921764,91.080871,21.522502,90.774993,12.135337,76.877838,3.505588,55.546897,0.0,-12.612473,28.28427,60.039382,46.332149,73.29018,59.062145,82.613863,67.156883,84.524248,32.005349,299.80344,-51.168685,269.073076
102,-9.346596,-2.340081,0.709076,1.274318,0.0,-25.166084,-35.950676,8.608269,-38.566418,15.642242,-37.529755,11.6968,-33.39949,-23.366432,0.0,2.825945,12.743617,34.805743,20.823251,41.583345,26.24017,41.889614,30.295382,43.712622,0.0,67.443901,29.880008,90.676116,20.795265,90.645973,11.75735,77.625892,3.446582,56.672836,0.0,-12.175119,27.832195,59.017253,45.840789,71.949715,58.568883,81.380843,66.625978,83.410691,22.444611,297.458018,-50.673751,270.342053
103,-11.265438,-7.370715,0.261325,0.742969,0.0,-8.379101,-24.949116,23.583492,-29.694866,27.834583,-31.437481,19.857365,-30.404617,-25.914997,0.0,-3.730466,15.776428,36.785659,29.034192,47.004019,38.590624,51.391497,46.245995,58.238864,0.0,67.131008,29.039612,90.461895,20.241028,90.605816,11.464039,78.257962,3.376065,57.600643,0.0,-12.027301,27.022499,58.051846,44.939047,70.963808,57.727965,80.491835,65.891407,82.724915,11.020392,290.075712,-50.571207,271.073431
104,-4.086022,-2.44807,0.450222,0.238344,0.0,-4.777896,-22.952545,28.407223,-29.081783,31.357556,-32.0102,21.16824,-32.206935,-36.422126,0.0,-7.161158,16.87703,37.105427,32.03047,48.498563,42.812882,54.360036,51.713821,64.787606,0.0,66.670555,28.385239,89.97551,19.726914,90.257882,11.063759,78.231034,3.059235,57.811249,0.0,-11.371647,26.587035,57.695398,44.483922,70.599691,57.369369,80.067103,65.670056,82.415299,6.835521,287.60996,-50.219834,271.294093
105,-8.050621,1.427892,0.250386,0.272097,0.0,2.784176,-19.167183,38.440739,-26.041099,40.072529,-29.871173,28.003956,-30.731426,-44.517906,0.0,-14.367469,15.505182,38.003451,31.525647,48.445569,42.762111,54.594527,51.769532,64.597884,0.0,66.4258,27.776081,89.768634,19.165374,90.039493,10.577201,78.325229,2.671669,57.98695,0.0,-11.07028,25.98939,57.165111,43.958797,70.207662,56.997866,79.715904,65.454498,82.138718,-1.271742,288.998338,-50.02609,271.526676
106,-5.3432,2.554836,0.126148,0.180768,0.0,12.031299,-13.18459,45.074146,-19.94822,45.150593,-24.240738,33.492084,-25.461388,-42.283116,0.0,-21.65871,13.237226,37.754141,29.620784,48.14445,41.283201,53.7957,50.221598,60.919746,0.0,66.332199,27.329235,89.652351,18.772304,89.910232,10.230514,78.401344,2.377521,58.350746,0.0,-10.527346,25.299058,56.655028,43.347542,69.922931,56.573628,79.433742,65.282943,81.970844,-6.633711,291.500794,-49.918711,271.655064
107,-1.404442,-0.291214,0.014088,0.312247,0.0,11.832767,-12.292248,45.939503,-18.984249,45.529713,-23.475689,34.527775,-25.070721,-42.027214,0.0,-20.504682,12.849754,38.877676,29.084221,49.268665,40.57375,53.915322,49.224649,60.417825,0.0,66.322666,27.145076,89.661403,18.672821,89.963871,10.148391,78.511974,2.303043,58.706485,0.0,-10.343157,24.751924,56.279931,42.817551,69.555689,56.183613,79.026189,65.094481,81.768673,-8.04142,291.139799,-49.90789,271.89753
108,0.423042,3.635641,-0.047997,0.049265,0.0,11.402104,-12.834251,45.902836,-19.313381,44.131748,-23.496654,34.383808,-24.492657,-46.146789,0.0,-26.262968,10.400449,38.702009,25.996146,48.296751,37.206563,52.078544,45.327149,56.452746,0.0,66.27174,26.998627,89.57333,18.569412,89.952885,10.030666,78.504925,2.145023,58.781971,0.0,-10.203959,24.377259,56.068719,42.563546,69.439845,56.075969,78.926795,65.173274,81.722558,-7.616427,294.691083,-49.953936,271.862438
109,-3.592026,-1.092315,0.03772,0.097603,0.0,17.106915,-8.021129,50.214901,-15.158523,47.950253,-20.503109,37.805432,-22.741252,-35.631717,0.0,-28.392,9.975051,38.381994,26.501165,49.068063,38.646211,53.774494,47.222825,56.255379,0.0,66.153431,26.576545,89.219227,18.166626,89.71368,9.666069,78.199367,1.832863,58.51308,0.0,-10.048991,24.14162,55.901474,42.423817,69.236488,55.991914,78.769578,65.136854,81.546816,-11.203698,293.506084,-49.911461,271.867357
110,-1.288856,-1.482528,-0.099655,0.045571,0.0,14.55946,-7.534161,50.019459,-14.392101,48.519779,-19.391373,38.703747,-21.49522,-25.419354,0.0,-24.12748,10.556591,39.043624,26.770841,50.306146,38.503567,54.968747,46.97087,56.768734,0.0,66.100307,26.474304,88.926029,18.054782,89.556209,9.505188,77.92377,1.586792,58.314937,0.0,-9.908051,23.999039,55.751916,42.302552,69.141813,55.893608,78.752227,65.110289,81.47673,-12.483387,291.936614,-50.001949,271.825986
111,-0.554237,-3.518996,-0.00832,0.012733,0.0,13.953174,-6.144162,50.022548,-13.816693,49.181179,-19.736561,38.415172,-23.139931,-15.956738,0.0,-19.318172,12.421281,38.660797,29.261124,51.281754,41.359981,57.166753,50.245853,59.743487,0.0,66.062599,26.486206,88.682556,18.042938,89.340065,9.417652,77.522552,1.389885,57.998909,0.0,-9.743412,24.148783,55.842405,42.424855,69.133637,55.965152,78.845927,65.135743,81.477174,-13.028646,288.327521,-50.001291,271.748622
112,4.55175,-3.107528,0.001739,-0.044299,0.0,5.22417,-11.991452,43.601566,-20.038639,44.166263,-25.574662,33.485126,-28.506787,-11.405651,0.0,-12.485328,14.894953,39.464244,31.963323,53.149654,44.089609,59.52221,53.208737,62.22389,0.0,65.824379,26.300698,88.399842,17.765797,88.938446,9.084126,77.10418,1.016979,57.501091,0.0,-9.520049,24.130566,55.934671,42.403242,69.281442,55.928101,79.0695,65.078993,81.493401,-8.46746,285.106558,-49.990116,271.590888
113,4.18816,-1.622492,-0.09811,0.075039,0.0,-5.486218,-18.631771,37.050338,-26.684304,40.12706,-31.24926,30.315696,-33.052094,-5.710991,0.0,-1.83164,17.255338,40.590757,32.728163,53.461136,43.15535,59.031949,51.24936,61.381207,0.0,65.712925,26.465229,88.232678,17.921013,88.718159,9.174465,76.808704,0.975391,57.192867,0.0,-9.468043,24.213818,55.937747,42.364228,69.280788,55.847443,79.126521,65.006807,81.533848,-4.259983,283.38052,-50.068909,271.562381
114,1.661659,1.247383,-0.224842,0.035926,0.0,-11.598965,-22.655274,33.846107,-29.947414,38.412941,-33.236698,29.859878,-33.673496,-4.712311,0.0,1.697186,17.78055,41.521854,31.825792,53.140083,40.898521,57.247609,47.923384,59.058354,0.0,65.697121,26.707409,88.303139,18.138107,88.698532,9.277061,76.766281,0.891071,56.982994,0.0,-9.541871,24.119365,55.756374,42.185683,69.255977,55.680952,79.172784,64.921407,81.644851,-2.557222,284.521232,-50.252649,271.491636
115,3.321762,-2.248987,-0.124672,0.027294,0.0,-17.117615,-27.151909,29.395157,-35.041809,34.534813,-38.53006,26.434456,-39.03162,-8.814297,0.0,6.137794,20.125979,43.344529,34.20916,54.960164,43.093439,58.577614,49.85322,61.716981,0.0,65.566177,26.672962,88.191559,18.081379,88.520371,9.142216,76.616913,0.6343,56.536995,0.0,-9.473736,24.067062,55.567862,42.047485,69.274168,55.515176,79.285022,64.746591,81.801178,0.830172,282.154561,-50.311689,271.401246
116,0.020496,-0.028911,-0.26651,0.108223,0.0,-18.348003,-28.255405,28.702366,-35.971916,34.621251,-39.175129,26.596951,-39.388275,-7.811599,0.0,6.55262,20.437571,43.665161,34.370612,55.12421,43.172973,58.792962,49.818762,62.048456,0.0,65.438507,26.539639,87.861076,17.953365,88.266953,9.009865,76.425247,0.477219,56.158035,0.0,-9.487753,23.802994,55.275709,41.785788,69.158325,55.301434,79.170278,64.588807,81.819667,0.94103,281.992556,-50.487837,271.376375
117,-2.629989,-0.28919,-0.391102,0.084895,0.0,-15.836838,-25.697651,31.253208,-33.477265,37.708294,-37.029431,29.321422,-37.69883,-5.566567,0.0,6.818382,20.638433,44.08131,34.49646,55.325936,43.211296,58.979202,49.793445,62.519328,0.0,65.490315,26.586777,87.618267,18.015976,88.190449,9.068699,76.352474,0.504502,56.09515,0.0,-9.582552,23.648555,55.002278,41.698275,69.057857,55.301335,79.038996,64.686101,81.842168,-1.571794,281.579016,-50.761774,271.33692
118,-2.145905,-1.889377,-0.320206,0.032098,0.0,-10.950542,-22.469318,33.952687,-30.683269,39.652828,-35.107509,30.237339,-36.788749,-5.504333,0.0,2.911915,21.111132,44.073282,36.810606,56.709886,47.228259,61.750869,55.038303,66.812674,0.0,65.417943,26.551426,87.480114,17.961926,88.075093,8.989186,76.198643,0.399125,55.857045,0.0,-9.578613,23.703118,54.863796,41.752726,68.992253,55.35197,78.956942,64.742454,81.859075,-3.600981,279.540793,-50.965262,271.220172
119,-4.426986,2.082038,-0.355762,0.082684,0.0,-0.739827,-16.372376,40.530269,-24.713597,44.343006,-29.846982,32.881839,-32.345295,-6.837708,0.0,-0.22214,19.1099,42.223796,35.286903,55.766501,46.620808,62.177207,55.221813,67.217226,0.0,65.227409,26.501095,87.328148,17.919868,87.994766,8.963356,76.13887,0.399342,55.853462,0.0,-9.811425,23.660238,54.782223,41.748515,68.917041,55.391045,78.877938,64.836574,82.065235,-7.917377,281.470564,-51.210434,271.150589
120,1.928306,1.698927,-0.353531,0.065109,0.0,-4.325077,-18.801144,38.127537,-26.59053,42.045101,-31.075344,30.612019,-32.974068,-9.811741,0.0,0.114955,18.140826,41.004892,33.923034,54.333644,45.140737,60.717785,53.695972,65.613456,0.0,65.109467,26.556473,87.377197,17.952988,87.992523,8.956398,75.996208,0.36192,55.800247,0.0,-9.93301,23.616248,54.836404,41.760939,68.871976,55.472273,78.781781,65.00004,82.246992,-5.887871,283.021818,-51.462765,271.068025
