takenoko1/special-research/HandMotion_SimilarSearch_自分用/NewProject/handData/test_key/d4_feature_d3/117.csv
frame,vel_0x_L,vel_0y_L,vel_0x_R,vel_0y_R,posFromWrist_0x_L,posFromWrist_1x_L,posFromWrist_2x_L,posFromWrist_3x_L,posFromWrist_4x_L,posFromWrist_5x_L,posFromWrist_6x_L,posFromWrist_7x_L,posFromWrist_8x_L,posFromWrist_9x_L,posFromWrist_0y_L,posFromWrist_1y_L,posFromWrist_2y_L,posFromWrist_3y_L,posFromWrist_4y_L,posFromWrist_5y_L,posFromWrist_6y_L,posFromWrist_7y_L,posFromWrist_8y_L,posFromWrist_9y_L,posFromWrist_0x_R,posFromWrist_1x_R,posFromWrist_2x_R,posFromWrist_3x_R,posFromWrist_4x_R,posFromWrist_5x_R,posFromWrist_6x_R,posFromWrist_7x_R,posFromWrist_8x_R,posFromWrist_9x_R,posFromWrist_0y_R,posFromWrist_1y_R,posFromWrist_2y_R,posFromWrist_3y_R,posFromWrist_4y_R,posFromWrist_5y_R,posFromWrist_6y_R,posFromWrist_7y_R,posFromWrist_8y_R,posFromWrist_9y_R,posFromBody_0x_L,posFromBody_0y_L,posFromBody_0x_R,posFromBody_0y_R
6,1.812252,-0.925219,0.02275,-0.241271,0.0,-0.593147,-20.156033,36.716618,-29.142792,36.117107,-33.306839,26.227627,-33.960354,-8.233749,0.0,-16.658014,10.168292,31.119861,26.653182,44.313899,39.414102,50.596447,49.229577,56.600502,0.0,66.325493,25.691597,89.206376,17.476639,88.077805,8.813508,75.534234,0.684392,55.347405,0.0,4.199534,27.125017,51.503202,44.045642,65.250067,56.50958,75.746587,64.697598,80.592031,3.732073,289.858382,-46.12369,270.871205
7,1.07904,2.097661,0.136757,0.05907,0.0,-1.508811,-20.092517,34.690762,-29.319786,34.70422,-33.879707,24.916844,-34.993686,-14.856147,0.0,-21.384563,8.401169,29.094707,25.767052,42.62941,39.154529,48.837314,49.21393,55.051777,0.0,66.107346,25.739285,89.140023,17.487294,87.920288,8.76487,75.43863,0.555806,55.337723,0.0,4.233139,27.074715,51.344677,43.980508,65.272878,56.474136,75.779525,64.726807,80.56885,5.028144,292.027902,-45.769902,271.002134
8,-2.513351,2.794577,-0.040317,-0.024564,0.0,1.803211,-19.472076,37.150509,-28.273407,37.922367,-32.061058,30.041874,-31.851631,-5.556805,0.0,-22.899103,6.187502,28.015334,22.692659,41.409345,35.839544,46.981949,45.804998,53.573077,0.0,65.991314,25.757652,89.081028,17.557091,88.038677,8.83929,75.524975,0.622284,55.256252,0.0,4.279501,26.987844,51.318186,43.925143,65.372567,56.456055,75.847006,64.75578,80.57684,2.696932,294.878694,-45.62808,271.033785
9,1.211517,2.077259,0.009441,0.042904,0.0,-0.648204,-20.570377,35.116757,-29.224102,35.528309,-32.809822,28.359661,-32.216388,-9.634266,0.0,-24.507948,5.107809,27.046532,21.142427,40.271692,33.80919,45.586649,43.302798,52.360348,0.0,65.83033,25.86216,88.931191,17.741524,88.06572,8.989849,75.591454,0.661663,55.317238,0.0,4.253479,26.867579,51.153807,43.791169,65.239001,56.358057,75.813167,64.733945,80.626673,4.053423,297.007335,-45.473665,271.128071
10,0.885922,-0.445356,-0.020004,0.166504,0.0,-3.215492,-22.561684,33.149345,-31.109001,33.715416,-34.236786,28.115524,-32.93161,-5.969788,0.0,-22.677283,4.97675,26.765654,20.73832,40.033199,33.300009,45.702641,42.980139,53.365101,0.0,65.778786,26.252083,89.010796,18.217964,88.172172,9.374142,75.60807,0.847137,55.263245,0.0,4.01716,26.720391,50.921637,43.587108,64.957617,56.165655,75.51364,64.612259,80.526365,5.044235,296.6058,-45.388779,271.338396
11,-1.14616,1.902938,-0.003593,0.253917,0.0,-1.624363,-20.979595,34.189922,-29.651516,35.157131,-33.090981,29.243602,-32.290421,-5.9366,0.0,-25.2709,3.623847,25.721442,19.376007,39.370901,31.954442,44.357506,41.508441,51.343158,0.0,65.835983,26.578262,89.172912,18.673748,88.361022,9.802688,75.636863,1.17509,55.199478,0.0,3.685327,26.493928,50.697854,43.321298,64.6419,55.947183,75.110991,64.492662,80.279871,4.015314,298.566833,-45.275133,271.650408
12,-2.205311,-0.638487,0.124042,0.133567,0.0,1.740967,-19.622097,36.23719,-28.23848,37.443993,-31.584698,31.900474,-30.552544,-0.290279,0.0,-23.755396,3.873973,26.125228,19.470584,39.740774,32.042461,45.098363,41.740969,52.779275,0.0,65.734211,26.80085,89.151249,19.03656,88.436543,10.166405,75.497761,1.442734,54.946415,0.0,3.445512,26.435437,50.733595,43.2439,64.449522,55.902178,74.822628,64.523141,80.187714,1.938028,297.989223,-45.023066,271.844852
13,-3.716503,1.341873,0.002884,0.053735,0.0,7.316036,-14.767445,41.408283,-23.521557,42.316829,-27.645882,35.266765,-27.856156,1.388134,0.0,-26.608499,2.781399,24.293069,18.709683,39.354575,31.531798,44.494259,41.278125,50.792925,0.0,65.804981,26.742588,89.460354,18.952274,88.648716,10.091789,75.394833,1.388889,54.737011,0.0,3.458257,26.340577,50.678674,43.288829,64.436629,56.04003,74.692952,64.702007,80.177846,-1.646478,299.383321,-44.888185,271.950812
14,-2.612217,-4.071069,0.077465,-0.006978,0.0,10.352829,-10.780758,45.049415,-19.846562,45.184479,-25.101208,36.320114,-26.985821,3.214977,0.0,-23.469886,4.955767,25.448839,21.697181,41.055737,34.985017,47.483412,45.111924,53.457604,0.0,66.10881,26.672241,89.815727,18.697632,88.656166,9.790249,75.212883,1.143105,54.711273,0.0,3.612486,26.58391,50.916376,43.650391,64.726757,56.359626,74.743724,64.872068,80.044132,-4.126322,295.355141,-44.678347,271.986723
15,-1.136627,-3.431186,0.035145,-0.150906,0.0,11.629898,-7.604485,47.468696,-17.118233,46.485122,-23.597283,35.354187,-27.371041,0.413463,0.0,-21.786916,7.023381,26.546873,24.669956,42.672635,38.366593,50.196342,48.68668,55.438174,0.0,66.198749,26.472862,90.227474,18.316841,88.780163,9.412376,75.137203,0.878963,54.787525,0.0,3.906652,26.978434,51.107568,44.186162,64.943736,56.839735,74.845933,65.146006,80.008885,-5.144067,291.958316,-44.52432,271.870178
16,0.500942,-4.310031,0.013241,-0.282681,0.0,10.772724,-6.491833,48.10223,-16.462246,46.155773,-23.95966,33.105778,-29.30888,-1.646038,0.0,-18.312591,9.815809,28.213801,28.034515,44.63142,42.046041,53.602853,52.714228,58.604859,0.0,66.402443,26.310642,90.565475,17.943798,88.877678,8.994861,75.105102,0.528785,54.921753,0.0,4.377932,27.464904,51.42352,44.75455,65.335913,57.287698,75.20232,65.338828,80.166781,-4.552568,287.657236,-44.420522,271.596448
17,0.470249,-2.909,0.015266,-0.169579,0.0,9.496193,-4.814335,49.155556,-15.315582,46.307739,-24.068424,31.045738,-31.34539,-5.5872,0.0,-16.754937,11.610807,28.937898,30.439199,45.836565,44.771581,55.721176,55.713593,59.997997,0.0,66.865059,26.106388,90.88076,17.530621,88.903862,8.547478,75.111145,0.175541,55.124794,0.0,4.794043,27.704965,51.633879,45.092732,65.676158,57.558337,75.529992,65.414916,80.168844,-4.017592,284.739757,-44.340529,271.41839
18,3.513302,-4.148133,0.112312,-0.074594,0.0,4.20338,-7.310085,45.27499,-18.149838,42.205639,-27.341961,25.802456,-35.239369,-11.080341,0.0,-12.67137,14.777195,31.78847,33.987229,47.772663,48.331763,58.665818,59.4448,63.679223,0.0,67.234452,26.256901,91.006325,17.57349,88.763581,8.480461,75.13353,0.014546,55.387688,0.0,4.92315,27.876396,51.820414,45.18222,65.912933,57.546135,75.728643,65.31141,80.120678,-0.461128,280.573025,-44.185055,271.325197
19,2.804592,0.810239,0.097069,0.050388,0.0,1.133583,-10.75613,41.53981,-21.451492,40.279724,-29.542568,24.981766,-35.950802,-11.48933,0.0,-11.228287,14.656103,31.74464,33.843154,47.457353,48.148427,57.845106,59.628483,63.242772,0.0,67.266907,26.363972,90.967896,17.751618,88.80883,8.660671,75.207504,0.153534,55.486702,0.0,4.828401,27.694591,51.630643,45.00722,65.808834,57.415842,75.621679,65.268765,80.043095,2.372681,281.354445,-44.058769,271.346766
20,-0.713287,3.80821,0.195339,0.139951,0.0,5.166687,-10.565918,43.496177,-20.889805,43.09124,-28.234818,27.929054,-33.689965,-6.906773,0.0,-14.408582,11.756649,28.370486,30.351365,45.01736,44.764665,54.989792,56.499157,60.473611,0.0,67.478611,26.408398,90.890728,17.848904,88.799321,8.766175,75.239537,0.260891,55.554234,0.0,4.686338,27.374995,51.52531,44.696962,65.828656,57.206669,75.510788,65.217303,79.863364,1.680279,285.115765,-43.842545,271.439827
21,4.335777,0.232145,0.077282,0.109508,0.0,-0.098923,-15.443401,38.774734,-25.562691,38.765053,-32.089382,24.129272,-36.386559,-14.835445,0.0,-14.069437,12.536815,28.904281,31.191195,45.133956,45.345562,54.355874,56.879922,60.541203,0.0,67.521538,26.537705,90.886437,18.009613,88.793244,8.887184,75.295784,0.308659,55.650421,0.0,4.529257,27.079507,51.443639,44.41165,65.882071,57.021714,75.446024,65.200161,79.735949,6.029091,285.304336,-43.752228,271.505761
22,0.238609,1.668187,-0.106361,-0.069308,0.0,-0.002861,-16.706886,38.570366,-26.518524,39.619766,-32.20348,25.977974,-35.346439,-11.167167,0.0,-16.094664,11.566074,28.427395,30.161347,44.688662,44.360866,53.009802,55.870612,58.977609,0.0,67.339622,26.748997,90.943382,18.256084,88.957764,9.052574,75.468933,0.343574,55.708031,0.0,4.463838,26.968245,51.33581,44.242873,66.042559,56.87718,75.525138,65.164382,79.844913,6.278291,286.935985,-43.847998,271.399915
23,-3.050983,3.159361,-0.277577,-0.40885,0.0,4.022404,-14.743721,41.951168,-24.363053,43.083469,-29.79316,29.934185,-32.457035,-4.788586,0.0,-19.326002,9.006952,27.360126,27.312071,43.749809,41.549209,50.926256,52.930168,56.116403,0.0,66.710347,27.06403,90.643216,18.709614,89.130558,9.499421,75.468144,0.687138,55.534893,0.0,4.272351,27.125351,51.854649,44.331523,66.378161,56.922642,75.804349,65.252303,80.18049,3.238409,290.05787,-44.114474,270.953589
24,-0.190499,-2.648574,-1.40998,-1.71818,0.0,1.765893,-16.19522,40.683873,-26.024551,41.419156,-32.045803,27.566197,-35.286563,-12.42073,0.0,-18.774237,10.855599,31.787766,29.092595,47.606962,42.789182,54.069019,53.365706,59.887859,0.0,65.790218,27.463348,90.686451,19.075859,89.280521,9.833599,75.391124,0.936573,54.886196,0.0,5.028002,27.551576,53.675372,44.714152,68.667471,57.204631,77.858451,65.530266,82.090627,3.094842,287.36612,-45.477522,269.192233
25,1.730668,1.031726,-2.701779,-4.047159,0.0,-14.928395,-20.427933,30.098636,-28.874806,30.129283,-33.347866,18.03638,-35.062821,-21.952321,0.0,-10.633088,10.292657,31.142721,26.656195,44.114395,38.723375,49.624372,47.983158,55.883666,0.0,63.851658,26.992012,88.73861,18.649819,87.252411,9.498974,73.217881,0.666149,52.216988,0.0,4.075527,27.886276,56.622744,45.002243,73.115489,57.522361,82.39991,65.948723,85.692454,4.881627,288.363426,-48.123184,265.110654
26,1.441795,7.499736,-7.178467,-10.586454,0.0,-25.275272,-21.722832,6.278263,-27.781185,5.912155,-30.286045,-1.282173,-30.451344,-26.55946,0.0,-3.262176,9.491236,22.211512,19.051373,26.648563,24.857492,26.816067,28.098425,30.69939,0.0,63.300053,29.33812,86.827218,21.375596,83.373871,12.802357,69.199105,4.476059,50.056561,0.0,4.238524,31.328961,62.769739,48.903646,80.52786,61.416676,91.070879,69.604398,93.999157,6.414717,295.830589,-55.210356,254.491627
27,6.590469,-4.842603,-12.11317,-20.327704,0.0,-39.581119,-26.849601,-22.10384,-29.534591,-23.526123,-29.1072,-25.704632,-26.75275,-41.385029,0.0,7.237308,13.799796,27.69312,23.109202,32.230084,28.395939,33.009991,30.971536,36.863476,0.0,62.097141,30.83234,81.279007,22.746231,78.622284,13.77697,65.195778,4.776581,47.17028,0.0,0.701237,30.488907,62.87422,48.066804,83.592273,60.933676,95.596492,69.720883,99.346088,13.017048,291.139006,-67.311664,234.314943
28,8.790287,-6.078452,-18.111614,-31.450998,0.0,-55.597847,-33.661503,-51.850307,-33.118984,-53.61969,-29.419967,-49.901058,-24.137901,-54.440986,0.0,18.508204,18.918425,33.581529,28.142936,37.904268,33.124971,39.982046,35.258609,43.911743,0.0,58.417053,30.620212,71.015178,23.186325,68.07154,14.785137,57.571712,6.088817,43.468814,0.0,-0.056823,25.205647,57.292606,42.967104,78.694472,57.102193,92.463863,67.64058,98.227658,21.77996,285.395519,-85.450653,203.19891
29,5.583115,-0.85302,-27.380688,-42.355157,0.0,-64.948357,-35.386013,-75.750023,-31.197132,-78.284374,-24.241642,-68.715729,-16.235745,-57.396435,0.0,24.820294,20.530234,34.194093,29.391899,39.2918,34.435438,42.388422,36.25137,45.278984,0.0,53.894863,28.866875,60.045856,24.774422,58.097385,19.339943,51.862266,13.249752,43.467579,0.0,-13.033629,18.225412,42.421903,36.593664,66.389733,52.205774,82.001435,64.520338,90.837622,27.51725,285.057096,-112.677166,161.35835
30,7.018959,-7.604674,-29.445477,-45.51371,0.0,-66.121124,-37.17128,-95.271,-31.160866,-97.181271,-22.856884,-83.467426,-13.888092,-62.451427,0.0,28.287777,27.328843,43.485727,38.283341,50.310123,44.40813,54.776765,46.551363,56.959926,0.0,48.447132,26.14317,48.926869,22.403572,46.723938,17.778248,43.476174,12.866066,38.530472,0.0,-26.277622,0.315156,8.008171,17.199417,30.9576,32.633753,49.128128,45.509894,61.701617,35.29335,278.139593,-141.365502,116.531811
31,1.25219,-10.671509,-26.942756,-46.801626,0.0,-62.860588,-35.383416,-93.663277,-28.265236,-95.305264,-19.085015,-80.710041,-9.317437,-58.902924,0.0,29.052556,30.739145,57.152773,48.119737,72.823163,60.308305,83.482864,67.847784,87.04527,0.0,40.951151,20.332569,37.182003,16.876595,36.792375,12.770178,36.482139,8.733272,32.913416,0.0,-39.688777,-20.028067,-29.383183,-5.620925,-8.478023,9.237776,10.329365,22.747676,26.246963,37.390858,268.226626,-167.46294,70.488727
32,1.201583,0.248916,-23.971241,-44.872174,0.0,-62.471523,-34.172607,-93.089252,-26.927604,-94.163532,-17.728454,-79.272537,-8.053779,-57.356391,0.0,29.115134,31.019294,57.797151,48.344299,73.021925,60.471413,83.85906,67.737028,87.397544,0.0,33.369033,15.125484,28.4748,12.700438,27.249646,10.289,28.961826,8.468937,27.925891,0.0,-48.37083,-35.395713,-60.413171,-23.42294,-44.573763,-9.88139,-26.12614,3.192365,-7.953764,39.698936,269.187151,-190.327686,26.328162
33,0.980759,0.052377,-19.82444,-41.243357,0.0,-62.254108,-33.12767,-92.649319,-25.702514,-93.392155,-16.485329,-78.273617,-6.941208,-56.258789,0.0,29.641519,31.297665,58.25908,48.598932,73.495908,60.621836,84.418235,67.70409,87.812605,0.0,27.900995,11.260998,24.263191,9.230076,23.012785,7.657358,24.682468,7.192062,23.789854,0.0,-58.692063,-45.842611,-86.103067,-36.944874,-73.944396,-26.012595,-56.91107,-14.766496,-37.585263,42.004892,269.926872,-208.826929,-14.227851
34,1.078697,0.122105,-11.51072,-36.964697,0.0,-62.043342,-32.37426,-92.147049,-24.910492,-93.017189,-15.760917,-77.714172,-6.336708,-55.70327,0.0,29.712248,31.351203,58.738857,48.531193,73.790754,60.473241,84.747081,67.531967,87.952791,0.0,22.910122,8.669587,19.970055,4.728802,17.806012,1.752686,18.143006,0.392762,16.272549,0.0,-56.63967,-54.049673,-103.380187,-49.184024,-98.767407,-41.457208,-83.732509,-32.286969,-63.995849,44.549406,270.763969,-218.871832,-50.477556
35,0.730866,0.042423,-10.253219,-39.386766,0.0,-61.547665,-31.860924,-91.67165,-24.349137,-92.759297,-15.164932,-77.139553,-5.663384,-54.983093,0.0,29.768416,31.345818,59.201243,48.326551,74.219932,60.154386,85.090993,67.213594,88.000166,0.0,19.137874,7.724304,17.234402,5.005028,15.756077,2.783066,15.957813,1.87191,15.61504,0.0,-51.54645,-50.521377,-101.966732,-48.05983,-103.55084,-42.455458,-92.262325,-34.526668,-71.861866,46.336928,271.338415,-228.068395,-89.332299
36,0.578865,0.166133,-7.623419,-30.139773,0.0,-61.256905,-31.483132,-91.215511,-23.997826,-92.482784,-14.88121,-77.018578,-5.406349,-54.971981,0.0,29.580114,31.349214,59.490668,48.223675,74.035842,59.95119,84.928849,66.975336,87.735454,0.0,17.338924,10.964602,21.884737,9.874238,22.595629,8.58444,23.249731,8.050781,23.79821,0.0,-46.99575,-43.400022,-90.565904,-42.230362,-95.292447,-38.140015,-87.286686,-31.527801,-68.392917,48.122961,272.115917,-234.484646,-118.860703
37,0.285644,0.023564,-4.993618,-20.89278,0.0,-61.178066,-31.024726,-90.826927,-23.654663,-92.535095,-14.642074,-77.228656,-5.242263,-55.347152,0.0,29.777654,31.312868,59.609871,48.313744,73.783653,60.108407,84.816179,67.212223,87.607409,0.0,17.51327,18.390478,33.921061,19.336433,38.324668,19.156808,40.018759,18.929375,40.822058,0.0,-42.987571,-32.685606,-69.177702,-31.69562,-73.992226,-28.510877,-68.805594,-23.290369,-53.589002,49.634885,272.695491,-238.251984,-139.197473
38,0.055779,-0.014215,-3.248915,-12.211274,0.0,-61.240894,-30.794037,-90.579449,-23.363709,-92.134655,-14.352242,-77.209522,-5.028397,-55.417442,0.0,30.053938,31.478236,59.970604,48.577443,73.770092,60.42589,84.822737,67.572549,87.709816,0.0,19.368334,26.05937,47.322218,28.559448,54.295827,28.990498,56.245308,28.583948,56.588943,0.0,-38.538346,-22.27374,-45.370472,-20.890102,-48.828696,-18.115468,-45.377016,-14.009426,-34.287567,50.838226,273.127911,-240.353337,-150.962112
39,-0.033783,-0.191957,-1.504211,-3.529769,0.0,-61.164906,-30.736954,-90.275368,-23.231827,-91.435673,-14.172203,-76.800373,-4.863098,-55.081741,0.0,30.583892,31.769228,60.434967,48.924233,74.047463,60.812139,85.155596,67.995601,88.138586,0.0,22.904114,33.971277,62.088209,37.543281,70.509104,38.085508,71.929378,37.014501,71.098863,0.0,-33.648075,-12.164422,-19.144213,-9.813808,-19.801855,-6.953787,-17.000951,-3.684973,-10.488613,51.70915,273.24557,-240.952841,-154.182265
40,-0.119476,-0.210853,-0.699967,3.094245,0.0,-60.936688,-30.62883,-89.826416,-23.060601,-90.920185,-13.977471,-76.59137,-4.719086,-54.92347,0.0,31.054578,32.056973,60.721613,49.313409,74.219203,61.196745,85.29556,68.325027,88.433259,0.0,26.922638,41.082179,78.799548,44.789498,88.035593,44.778563,88.179566,42.421389,83.235815,0.0,-31.823828,-4.461135,-2.411198,-0.742564,0.618441,2.559689,3.330585,5.47064,6.734574,52.426672,273.48531,-240.81581,-150.637427
41,-0.263031,-0.242581,-3.486654,0.412591,0.0,-60.573796,-30.417984,-89.338784,-22.664177,-90.116604,-13.468872,-75.762795,-4.225388,-53.993752,0.0,31.59944,32.189341,61.025265,49.51274,74.796681,61.412242,85.675091,68.514725,88.741666,0.0,27.765352,43.581814,86.580071,46.65552,94.013357,45.859698,92.305533,42.502722,83.774025,0.0,-33.143073,-4.52344,-5.087823,0.023799,-0.420202,3.922313,3.609405,7.426506,8.08804,52.762837,273.525364,-243.703268,-149.942201
42,-0.134766,-0.132603,-7.655674,-7.37214,0.0,-59.824139,-30.246918,-88.650398,-22.435158,-89.42791,-13.180893,-74.889507,-3.883713,-52.9491,0.0,31.660264,32.067656,60.952523,49.242459,75.154377,61.078766,85.969677,68.177346,88.879295,0.0,21.580725,39.278973,81.668347,42.424845,87.39818,41.893049,84.951182,38.878744,75.679436,0.0,-37.007615,-12.438534,-23.432778,-7.076317,-18.580974,-1.451509,-11.63685,4.556723,-2.820727,53.054701,273.249231,-250.932312,-157.457871
43,-0.013939,-0.097689,-8.40885,-6.163854,0.0,-59.040344,-30.002861,-87.899689,-22.178192,-88.881729,-12.882522,-74.067284,-3.434029,-52.079967,0.0,31.704934,32.07314,60.819278,49.126121,75.414556,60.831381,86.093746,67.817081,88.972414,0.0,15.115185,31.920182,70.750225,34.925629,75.816468,35.397263,73.867207,34.24339,64.885666,0.0,-43.012506,-21.360499,-48.599547,-16.183912,-46.013341,-9.561486,-36.721818,-1.583191,-22.047281,53.436487,272.752375,-258.945437,-164.020892
44,0.083954,-0.002075,-6.335895,-5.900684,0.0,-58.41964,-29.531868,-87.233791,-21.739998,-88.618263,-12.468384,-73.762436,-2.956329,-51.682583,0.0,31.563501,31.974623,60.767605,48.951207,75.536896,60.559247,86.141862,67.47827,89.028904,0.0,7.523781,25.018352,60.015495,28.071155,65.298592,29.57999,64.35442,30.159748,55.943722,0.0,-50.679579,-29.94581,-74.8013,-24.630909,-73.835485,-16.976516,-62.334664,-7.160896,-41.986282,53.872496,272.065917,-264.929277,-170.605959
45,0.261887,0.160317,-5.136772,-3.488923,0.0,-58.033665,-29.232193,-86.752511,-21.525307,-88.33952,-12.307732,-73.328602,-2.73452,-51.093087,0.0,31.300691,31.785444,60.835752,48.622373,75.740709,60.177678,86.352418,67.10847,89.167533,0.0,2.558407,23.152748,56.792587,26.797382,62.892551,29.350582,63.328697,31.18959,56.092323,0.0,-55.297361,-34.656465,-84.273473,-28.783389,-83.587042,-19.973983,-71.299382,-8.745387,-48.745451,54.39489,271.329764,-269.805542,-174.991352
46,0.328743,0.368465,-0.395603,2.372711,0.0,-57.48388,-28.921738,-86.237401,-21.396195,-88.111153,-12.307389,-72.905388,-2.706185,-50.638184,0.0,30.883011,31.626881,60.787834,48.275002,75.719034,59.742214,86.437325,66.644317,89.249438,0.0,1.155837,21.514968,54.880886,25.299896,61.744117,28.164211,63.285045,30.460498,57.174717,0.0,-55.085916,-35.003264,-80.054585,-29.117583,-79.222462,-19.827218,-67.405563,-8.235493,-45.769912,55.006102,270.869448,-269.918676,-173.447422
47,0.381248,0.48868,5.727897,13.337424,0.0,-57.153442,-28.688484,-86.039978,-21.248657,-88.021305,-12.232269,-72.708664,-2.587257,-50.292675,0.0,30.42244,31.640182,60.826317,48.232296,75.86437,59.60335,86.552996,66.384459,89.254725,0.0,7.167606,22.296227,58.041825,24.2952,62.897507,25.456741,63.579563,26.35223,56.224961,0.0,-50.643439,-30.89901,-65.885948,-26.071894,-65.078557,-17.950632,-55.180853,-8.005314,-36.667154,55.686304,270.902772,-263.891825,-160.565354
48,0.311691,0.635449,9.320652,15.874605,0.0,-57.048385,-28.770836,-86.160175,-21.438812,-88.185505,-12.462616,-72.919944,-2.799637,-50.552295,0.0,29.846493,31.56129,60.779621,48.153403,75.821157,59.527224,86.513735,66.304196,89.146896,0.0,14.139862,25.692559,65.610707,25.787304,67.37368,24.2192,66.481144,22.094593,57.407078,0.0,-43.358444,-25.294013,-43.045731,-21.070822,-39.827341,-13.797086,-31.753643,-5.415311,-18.544174,56.237526,271.340805,-254.331642,-144.888165
49,0.334511,0.664076,8.189026,13.466885,0.0,-57.270103,-29.08818,-86.678181,-21.866226,-88.506214,-12.94741,-73.36243,-3.284408,-51.052219,0.0,29.323776,31.604392,60.559444,48.285154,75.60718,59.717267,86.47235,66.51805,89.133916,0.0,20.535278,29.006275,71.466248,28.101517,72.862656,25.264114,70.863773,21.718288,61.4786,0.0,-37.80088,-18.518869,-20.910857,-14.186775,-16.818485,-7.341643,-10.77793,0.335922,-1.804255,56.747217,272.061271,-245.967436,-131.36489
50,0.075668,0.551999,8.822731,10.977438,0.0,-57.671299,-29.352241,-87.211349,-22.119255,-88.902431,-13.17588,-74.043342,-3.531692,-51.765655,0.0,29.001686,31.677245,60.17222,48.581025,75.182313,60.118275,86.172293,66.925961,88.929436,0.0,24.040283,29.766346,65.672493,29.139141,67.423348,26.363525,66.54657,22.866783,62.401097,0.0,-32.553036,-13.766992,-4.254776,-9.176543,-0.050354,-2.207435,6.381662,5.443185,13.158556,56.954841,272.768514,-237.012749,-120.232208
51,-0.12133,0.230848,6.414768,7.355812,0.0,-58.380981,-29.634659,-87.871353,-22.306343,-89.324203,-13.236946,-74.743378,-3.561561,-52.509098,0.0,29.022323,31.966855,60.03296,49.06416,75.057774,60.689182,86.094623,67.49015,88.848321,0.0,26.335808,30.552758,62.272347,30.209873,63.798291,27.537102,63.818802,24.028721,63.742722,0.0,-29.855125,-10.656628,6.62823,-6.131846,10.379747,0.572398,16.761167,7.757308,21.876675,56.903995,273.129488,-230.527497,-112.74627
52,-0.394111,0.248286,4.006806,3.734186,0.0,-58.805981,-29.948616,-88.178753,-22.58812,-89.523091,-13.467179,-75.338139,-3.813332,-53.141922,0.0,29.077454,32.104126,59.762456,49.335195,74.746317,61.072899,85.934751,67.963516,88.81458,0.0,27.421852,31.365509,61.265808,31.313713,61.987484,28.784843,62.680469,25.204101,65.503475,0.0,-29.707148,-9.187776,11.73816,-5.052685,14.47182,0.997855,20.360586,7.278292,24.350101,56.531273,273.488684,-226.499302,-108.901174
53,-0.426774,0.056811,1.598842,0.112558,0.0,-59.130168,-30.041152,-88.211265,-22.620117,-89.569782,-13.417373,-75.530422,-3.714523,-53.334251,0.0,29.27361,32.237469,59.503104,49.520187,74.618839,61.314589,85.995118,68.279505,88.892015,0.0,27.298417,32.204602,62.652878,32.450661,61.990929,30.106751,63.131573,26.392926,67.683358,0.0,-32.109102,-9.360436,11.075017,-5.939055,12.225866,-0.93106,17.179922,4.006138,20.578838,56.091333,273.619614,-224.913626,-108.714497
54,-0.476074,-0.003187,1.369269,1.080046,0.0,-59.211113,-30.165413,-88.065376,-22.628814,-89.585048,-13.291076,-75.462879,-3.508758,-53.19255,0.0,29.565949,32.297997,59.484678,49.544258,74.893024,61.327385,86.218766,68.280432,88.853125,0.0,27.73835,32.311643,64.985258,31.775774,60.526617,28.443609,61.501264,23.725227,65.738067,0.0,-32.87443,-11.333813,9.462621,-9.46724,9.539364,-5.819655,13.898008,-2.875905,16.111575,55.551704,273.690509,-223.607912,-107.560369
55,-0.333366,0.074002,1.188652,2.038159,0.0,-59.293831,-30.220711,-87.854576,-22.668251,-89.556404,-13.290711,-75.254574,-3.469071,-53.01741,0.0,29.825412,32.365354,59.442009,49.500217,75.022267,61.227793,86.355716,68.179964,89.000906,0.0,28.501304,30.622427,70.289961,27.950231,61.416544,22.777307,59.945955,16.795418,59.58332,0.0,-34.625239,-13.349013,5.822131,-13.238535,4.420175,-11.352931,7.695481,-10.781292,8.523369,55.080637,273.843067,-222.556961,-105.443654
56,-0.189491,0.223512,0.135799,1.31233,0.0,-59.29398,-30.290772,-87.589211,-22.783013,-89.561257,-13.457634,-75.223675,-3.643181,-52.968052,0.0,29.731489,32.269283,59.27133,49.433674,74.978795,61.197251,86.33288,68.193289,89.221256,0.0,28.844746,28.590388,75.859701,25.314455,66.227515,19.844405,63.483511,13.930611,59.813816,0.0,-37.896146,-15.021185,3.364156,-16.073795,1.884484,-15.165387,4.95078,-15.863534,5.090727,54.663094,274.135422,-222.649214,-104.062481
57,-0.022225,0.1019,0.272412,-0.509032,0.0,-59.381344,-30.380607,-87.646671,-22.838837,-89.61803,-13.485145,-75.17165,-3.626221,-53.026783,0.0,29.532616,32.272124,59.35131,49.503379,75.229601,61.30902,86.564679,68.339897,89.614903,0.0,28.556419,26.98776,78.80829,23.875963,70.75649,18.941122,68.2338,13.89355,63.367618,0.0,-40.00118,-15.823728,1.828196,-16.537452,1.477682,-15.271673,5.721673,-15.82265,6.809154,54.29896,274.302749,-222.718711,-104.506086
58,0.175141,0.195057,-1.265534,-3.099197,0.0,-59.626397,-30.429039,-87.897675,-22.88189,-89.688893,-13.594071,-75.143132,-3.838326,-52.931317,0.0,29.372288,32.143128,59.470217,49.459326,75.529214,61.318901,86.829008,68.376479,89.983232,0.0,28.794388,28.902781,80.15233,28.119959,76.811995,25.442888,77.13592,22.453674,73.800385,0.0,-40.923053,-15.974307,1.71655,-14.735884,3.518205,-11.552582,10.544145,-10.181769,14.180726,54.048495,274.550062,-224.409851,-107.553027
59,0.198165,0.293475,0.322329,-4.169085,0.0,-59.745426,-30.396492,-88.106037,-22.855888,-89.644306,-13.612152,-75.059967,-3.902664,-52.942188,0.0,28.964933,31.86982,59.2842,49.256353,75.397402,61.174738,86.836184,68.272812,90.208473,0.0,29.82122,32.102234,79.817299,33.262973,81.625271,32.568557,84.631542,31.345825,83.462768,0.0,-39.988499,-15.121565,5.876904,-12.043603,9.170541,-6.849455,17.286941,-2.592338,21.93905,53.740459,274.867954,-224.593723,-111.697695
60,0.1978,0.189253,0.670086,-3.910129,0.0,-59.907246,-30.384247,-88.386635,-22.815513,-89.543564,-13.599769,-74.940697,-3.933243,-52.91486,0.0,28.56474,31.716877,59.230032,49.249128,75.470687,61.260558,86.994203,68.383221,90.541715,0.0,29.866367,35.991577,81.024627,39.222129,87.366691,40.497608,93.26081,40.703544,93.889103,0.0,-39.050556,-14.581378,10.640115,-10.099941,15.630573,-2.912162,25.092903,4.39482,30.204714,53.323339,275.038913,-224.538557,-115.626118
61,0.185852,0.069716,2.358192,-3.728527,0.0,-60.223057,-30.461952,-88.764267,-22.784271,-89.344162,-13.53495,-74.723442,-3.88884,-52.804035,0.0,28.450885,31.692819,59.460719,49.326896,75.600239,61.386801,87.203327,68.517269,90.972782,0.0,29.756676,40.405975,80.399643,44.667687,88.743828,46.894959,96.329887,47.719311,99.265652,0.0,-36.37178,-13.320472,15.050681,-7.139793,21.053395,1.932411,31.31548,11.888887,36.992257,52.83074,275.04468,-222.858816,-119.418594
62,0.170517,-0.018352,2.430393,-2.176449,0.0,-60.569,-30.419311,-89.094269,-22.646049,-89.165325,-13.377594,-74.477749,-3.778633,-52.509487,0.0,28.411476,31.700636,59.605796,49.458585,75.689345,61.581883,87.388825,68.705077,91.409345,0.0,30.2234,44.629486,81.786141,49.498982,91.595936,52.272469,99.333962,53.352013,102.713963,0.0,-34.563484,-12.050037,19.836715,-4.861357,26.553171,5.496009,36.511981,17.597682,41.427678,52.263719,274.934749,-221.165961,-121.686622
63,0.128678,0.062714,4.438145,0.495195,0.0,-60.829674,-30.409607,-89.365265,-22.518929,-89.031304,-13.164185,-74.205803,-3.505875,-52.215271,0.0,28.076838,31.606158,59.724788,49.415273,75.679279,61.613215,87.535297,68.762122,91.631424,0.0,29.616222,45.430881,82.808533,49.29538,92.465515,51.490562,98.280556,52.214539,100.335113,0.0,-33.582347,-10.721329,23.609795,-3.194793,30.487111,7.737,39.422161,21.112929,42.584752,51.445719,274.857379,-217.674494,-121.331511
64,0.281044,0.052216,3.231926,3.667437,0.0,-61.25631,-30.476075,-89.684075,-22.491189,-89.119572,-13.089135,-74.274056,-3.401253,-52.179394,0.0,27.693504,31.532304,59.809288,49.443468,75.649837,61.784091,87.514289,69.073529,92.11945,0.0,28.476402,44.976173,85.596027,48.302833,94.144592,50.081669,98.502571,50.383575,98.934219,0.0,-34.264087,-10.489332,22.008835,-2.602248,30.193081,8.797032,39.717643,22.519091,43.110229,50.597912,274.710629,-215.571419,-117.86304
65,0.378982,0.17631,3.477287,6.115144,0.0,-61.535099,-30.500999,-89.876804,-22.478599,-89.239654,-13.071648,-74.366569,-3.363739,-52.13142,0.0,27.179283,31.386092,59.765037,49.35535,75.553778,61.798009,87.432556,69.200846,92.511589,0.0,29.64727,43.757286,87.336811,46.444782,94.281384,47.603852,96.790318,47.40921,96.317906,0.0,-33.766367,-9.816383,19.299498,-1.34632,29.724289,10.320729,39.27278,24.059306,42.844825,49.784409,274.692225,-213.286617,-111.94261
66,0.450394,0.321584,-0.658436,12.803849,0.0,-61.668206,-30.379349,-90.183197,-22.429322,-89.643688,-13.102135,-74.838913,-3.412766,-52.441532,0.0,26.264549,31.105535,59.377899,49.132703,75.192501,61.690588,87.324221,69.218247,92.745438,0.0,34.533875,44.985489,91.243561,48.243336,96.318924,49.61546,98.042107,49.296444,97.00549,0.0,-34.077033,-14.420543,12.733744,-5.558216,24.553094,6.662036,33.85638,20.703388,38.698464,49.058155,274.939038,-215.121701,-99.213532
67,0.449043,0.456829,1.977276,13.275011,0.0,-61.908382,-30.36113,-90.447281,-22.488121,-90.070255,-13.229462,-75.438789,-3.536453,-52.958702,0.0,25.32687,30.767069,58.833076,48.793335,74.597943,61.434732,87.027486,69.075444,92.875868,0.0,40.17556,46.665447,95.601506,49.422455,99.493092,50.090355,100.154343,49.109974,97.66919,0.0,-33.250454,-15.812224,9.253392,-6.077204,21.635374,6.755137,31.926747,21.006718,36.842154,48.343889,275.368154,-214.307734,-85.966234
68,0.344925,0.396993,3.894928,15.428525,0.0,-62.059605,-30.472275,-90.748798,-22.724167,-90.666802,-13.549828,-76.351559,-3.840386,-53.900883,0.0,24.52761,30.562589,58.181634,48.689089,73.884776,61.430743,86.592331,69.184927,92.982511,0.0,45.606137,47.767376,99.974728,49.846779,101.881542,49.713913,100.840943,48.182259,96.828381,0.0,-31.707092,-16.387466,6.461897,-5.866264,20.708051,7.699233,31.752186,22.486104,36.924499,47.682404,275.75699,-211.419216,-70.545866
69,0.176514,0.385941,5.329491,17.681854,0.0,-62.081211,-30.546845,-90.988369,-22.956185,-91.077176,-13.878823,-76.92199,-4.18705,-54.580891,0.0,23.92227,30.357391,57.682554,48.537799,73.329009,61.342007,86.238896,69.166685,92.791232,0.0,51.10405,48.969211,102.370846,50.334675,103.34935,49.284153,100.768764,47.019482,95.45565,0.0,-30.095236,-16.47588,5.601362,-5.071079,21.130948,9.116677,32.471732,24.342859,37.543121,47.010693,276.123732,-206.93795,-52.883211
70,0.037696,0.385137,5.54504,20.070823,0.0,-62.221206,-30.644508,-91.466503,-23.198455,-91.644207,-14.199348,-77.787265,-4.497573,-55.444679,0.0,23.225528,30.166595,57.004535,48.372025,72.677629,61.218481,85.87179,69.07658,92.486494,0.0,56.038639,50.27116,104.703278,51.254723,105.758572,49.592171,102.344124,46.714611,95.426765,0.0,-29.742734,-16.303183,4.433408,-3.831712,19.975332,11.151859,31.933732,26.956321,38.220986,46.193166,276.310898,-202.248133,-33.010359
71,0.029595,0.350977,10.694916,16.849897,0.0,-62.499207,-30.922691,-91.89275,-23.62928,-92.264099,-14.693138,-78.565292,-4.980469,-56.460995,0.0,22.563983,29.982554,56.26574,48.234173,72.026323,61.136353,85.407217,69.066181,92.083684,0.0,58.564533,48.370502,105.334568,47.287536,107.451931,43.946411,102.708355,39.725475,91.608696,0.0,-28.419145,-10.131174,8.715144,3.599234,25.121444,19.127153,38.227031,35.355124,44.648907,44.949658,276.225126,-192.82632,-16.597211
72,0.131904,0.395684,8.795585,20.87929,0.0,-62.982273,-31.418838,-92.582851,-24.326889,-93.078334,-15.476646,-79.501945,-5.742805,-57.588878,0.0,21.861597,29.747557,55.700527,48.057505,71.463542,61.031267,84.945003,69.035491,91.568402,0.0,59.899327,46.182827,104.666119,44.225384,107.060784,39.994984,101.070786,34.626034,87.196518,0.0,-28.412871,-6.865213,10.528464,7.385658,27.689397,23.198568,41.085439,39.511606,49.158391,43.240619,276.085437,-185.871678,3.746706
73,0.036644,0.424979,7.919369,22.90852,0.0,-63.604557,-31.879623,-93.191345,-24.933654,-93.750801,-16.185607,-80.345855,-6.522583,-58.536151,0.0,21.008429,29.435841,55.161433,47.743442,70.892042,60.781573,84.32982,68.892674,91.171828,0.0,62.801754,45.154587,104.97852,42.128254,107.954281,36.595722,99.678681,29.36443,80.639317,0.0,-28.331528,-3.884435,13.372255,10.258719,29.970142,25.310913,42.911263,40.376526,51.271676,41.219793,275.978514,-180.009779,26.123324
74,-0.175186,0.500462,7.916954,24.19512,0.0,-64.400505,-32.376938,-93.856556,-25.500343,-94.50206,-16.796745,-81.219074,-7.152855,-59.359153,0.0,20.268795,29.219678,54.499432,47.488623,70.313478,60.525877,83.780588,68.660024,90.864694,0.0,65.452172,43.373635,106.13934,39.108193,108.934468,32.321446,97.331509,23.475655,72.063172,0.0,-28.653945,-1.469857,16.370689,11.988046,32.43977,25.823559,43.996551,38.971562,50.835589,38.796615,275.927835,-174.340817,49.767303
75,-0.459503,0.533153,10.713032,26.152572,0.0,-64.916942,-32.839851,-94.287678,-26.076942,-95.093731,-17.450592,-81.794105,-7.880035,-59.904442,0.0,19.335228,28.882891,53.921102,47.122604,69.615266,60.211864,83.145213,68.454099,90.489239,0.0,67.406879,42.308556,105.309299,37.539093,106.87318,30.019798,94.940735,20.20174,69.067451,0.0,-28.640792,1.572233,20.969847,16.082759,36.337357,30.552887,47.711017,43.757046,54.782829,36.091398,276.017611,-165.873499,75.476498
76,-0.581497,0.316644,10.122665,26.216248,0.0,-65.627907,-33.403038,-94.821865,-26.696732,-95.644363,-18.073151,-82.43755,-8.478035,-60.255558,0.0,19.099106,28.610003,53.601704,46.81773,69.207985,59.965837,82.753604,68.311727,90.310138,0.0,69.155617,41.969502,105.327622,36.417927,106.497906,28.517876,94.049824,18.579518,67.617039,0.0,-27.027933,5.256788,25.756888,20.097722,40.342786,34.268404,51.706183,46.690018,58.698306,33.528008,276.039776,-157.732727,101.398267
77,-1.028069,0.283138,10.254547,25.312661,0.0,-65.953365,-33.538604,-94.812938,-26.871963,-95.74617,-18.308212,-82.670242,-8.799522,-60.302684,0.0,18.982941,28.449687,53.137279,46.541854,68.66447,59.665162,82.349386,68.051634,90.014922,0.0,71.643322,41.199578,104.556862,35.086327,105.555954,26.995652,92.448784,17.135537,66.335083,0.0,-24.599585,9.87927,31.2001,24.689631,45.558182,38.142013,56.264839,49.596258,62.404201,30.884182,275.981885,-149.093937,126.369899
78,-1.344749,0.276407,11.73404,24.527165,0.0,-65.659115,-33.53611,-94.416103,-27.166008,-95.69022,-18.825462,-82.867687,-9.432472,-60.743649,0.0,18.284964,28.484391,52.518639,46.40504,67.87052,59.446159,81.663623,67.818798,89.464034,0.0,72.756317,39.696041,102.343998,33.396641,102.529609,25.553089,90.403095,16.444759,68.361385,0.0,-21.086302,15.222959,36.153817,32.173725,49.709082,46.383402,60.357162,57.433651,66.824802,27.954575,275.955601,-138.944755,150.594373
79,-0.893875,0.36392,10.370098,22.21912,0.0,-62.761803,-33.759407,-94.058144,-28.040703,-95.87312,-20.150368,-83.543564,-10.975159,-61.713753,0.0,11.647511,28.062833,51.687602,45.432693,67.076644,58.306987,80.662143,66.848958,88.62839,0.0,74.137516,38.695862,100.997715,32.433964,101.193638,25.12476,90.606708,17.025856,72.237785,0.0,-16.68645,20.768998,41.94866,39.391946,55.220158,54.356282,67.640043,65.551508,75.802175,25.626389,276.078728,-130.008968,172.5727
80,-1.470452,0.385631,9.730568,18.908618,0.0,-61.625106,-33.215332,-93.184021,-28.109687,-95.217292,-20.732048,-83.5177,-11.902748,-62.200676,0.0,7.728262,27.832158,49.162282,44.280665,65.171558,56.773502,78.957091,65.376607,87.283714,0.0,74.668888,36.309139,99.952629,30.362732,99.142788,24.144218,88.597286,17.549686,71.485691,0.0,-11.469472,26.366759,46.840627,46.070995,61.226003,60.682686,75.279224,70.462086,83.241408,22.822002,276.264418,-121.612335,191.281377
81,-0.685249,10.07295,8.9393,16.981351,0.0,-61.669086,-31.107902,-92.811825,-26.811607,-94.868923,-20.649193,-84.185154,-13.331749,-63.53239,0.0,10.824193,24.520323,42.033777,33.98466,46.922619,40.212362,55.164459,43.396979,60.399325,0.0,74.537796,34.371998,98.288109,28.283947,97.01698,21.990372,85.301411,15.436638,68.227353,0.0,-7.704265,30.147292,51.364388,50.100431,66.06563,64.124012,79.877209,72.635417,86.831182,20.926615,286.079275,-113.883173,208.004635
82,-1.21962,0.540983,9.083886,14.640356,0.0,-60.37627,-28.341659,-90.824386,-25.155304,-94.108211,-20.249542,-85.143997,-14.091659,-64.407451,0.0,9.46887,23.582272,33.60797,32.733338,37.885113,38.736429,48.799103,41.739265,58.269084,0.0,74.025226,32.408042,96.444236,25.895336,94.86034,19.585189,82.993961,13.489528,65.368263,0.0,-4.69523,32.314991,54.46348,52.910087,69.929254,66.829087,83.648047,74.536255,89.428305,18.768196,286.455518,-105.738086,222.480251
83,-0.958213,0.503933,7.42852,11.540522,0.0,-57.625981,-22.907387,-85.390995,-21.035523,-91.021992,-18.118607,-84.075497,-14.133866,-65.189976,0.0,5.119356,22.797437,26.086708,31.907561,31.122788,37.887014,43.950892,40.883404,57.335233,0.0,73.464351,30.853546,95.313652,23.63966,94.463871,17.130157,82.001163,11.19144,62.496597,0.0,-3.390814,33.327142,58.423843,52.854907,74.804387,66.023405,88.225642,73.377422,92.645193,17.110314,286.819885,-99.009235,233.881207
84,-2.350491,1.858175,7.634033,9.585183,0.0,-55.855001,-21.188753,-72.286686,-20.653839,-77.923679,-19.141846,-73.596285,-16.703464,-64.971754,0.0,8.283768,20.775901,21.119351,29.835248,25.671165,35.53265,38.685626,38.355638,54.322652,0.0,72.698387,29.854431,94.455379,22.066029,93.210422,15.238632,80.677162,9.246037,60.988873,0.0,-2.822389,33.937446,60.619774,53.179455,77.343379,66.074077,89.894644,73.293935,93.430411,14.189924,288.568614,-91.945101,243.356944
85,-2.629875,3.27744,5.290421,6.885245,0.0,-51.067137,-24.331106,-52.233044,-25.439095,-55.971382,-24.81926,-54.944967,-23.196545,-64.785982,0.0,10.778386,16.985439,20.262107,25.947788,22.90098,31.194054,33.506261,33.925318,49.552519,0.0,72.724651,29.961055,94.51649,20.575664,95.044017,12.205547,80.620937,4.833034,57.991252,0.0,-3.110022,33.2359,62.300929,50.645193,78.657588,62.269276,89.215563,68.904407,91.45672,11.125534,291.789432,-87.089195,250.185567
86,-6.742584,-4.741827,6.016273,5.194013,0.0,-36.199259,-23.364813,-26.943158,-26.244027,-30.492291,-26.577324,-32.367262,-25.151036,-62.021593,0.0,-2.830799,15.615383,23.576561,30.71665,35.946372,41.577275,50.549746,49.762051,69.108122,0.0,72.220928,30.099987,93.642117,20.366753,94.189625,11.433861,79.283283,3.478523,56.465893,0.0,-3.264967,32.908659,63.301644,49.894258,79.648497,61.420887,89.684124,68.236255,91.361599,4.103405,287.015279,-81.352467,255.347254
87,-4.66301,-0.057798,5.729427,3.919866,0.0,-24.605375,-24.571501,-3.121227,-29.102165,-4.609955,-30.701488,-10.139998,-30.385609,-58.694761,0.0,-7.260959,15.068866,31.089535,30.783636,43.560754,41.609262,53.930482,50.115671,70.163782,0.0,71.135216,30.588433,93.324417,20.737931,93.631554,11.369465,78.21579,2.734383,55.325535,0.0,-3.694996,32.586001,63.802996,49.376062,79.637345,60.940827,89.645852,68.056364,91.226132,-0.750252,286.916241,-75.813687,259.22588
88,-7.20393,1.770063,5.210278,2.914595,0.0,-12.914057,-25.580229,21.551972,-31.189613,23.027927,-32.890079,13.997377,-31.984096,-52.108206,0.0,-5.67364,13.902191,39.006729,29.271603,48.45992,39.730691,55.554098,48.288785,68.622492,0.0,70.110386,30.91048,93.181881,21.256485,93.343357,11.744202,77.81123,2.695862,55.094112,0.0,-3.784065,32.243855,63.204276,49.038361,78.764133,60.679438,88.98306,68.028317,90.473542,-8.043995,288.589544,-70.693222,262.043715
89,-2.815235,-1.142784,4.385948,2.397793,0.0,-3.883507,-25.077026,33.169132,-31.618183,36.278423,-34.306961,24.410259,-34.236923,-51.437439,0.0,-7.680813,14.860336,43.566768,30.778542,53.081976,41.209718,58.746316,49.801263,71.120469,0.0,69.296711,31.244499,92.656071,21.793156,92.849018,12.16626,77.208172,2.831074,54.715393,0.0,-3.257062,31.99032,62.490491,48.773081,77.667285,60.410157,87.67631,67.80793,89.3762,-10.873793,287.355984,-66.321837,264.350732
90,-3.898087,-0.627977,3.479668,2.131871,0.0,5.37109,-18.464412,41.473606,-25.549289,42.919773,-29.107154,29.204579,-29.508167,-46.673996,0.0,-10.832442,16.188142,45.203401,33.162404,54.188395,44.407648,60.907272,53.520638,73.198333,0.0,68.476467,31.068821,92.006069,21.591396,91.925274,11.88351,76.185871,2.577152,54.121868,0.0,-2.056301,31.94791,62.321863,48.926087,77.015917,60.641758,86.308255,67.982289,87.970576,-14.752676,286.630923,-62.822965,266.385519
91,-2.089885,-0.723122,2.268276,2.170713,0.0,6.111351,-15.233311,47.300903,-22.194947,48.327873,-25.929074,33.453048,-26.469326,-42.034802,0.0,-5.320638,18.217878,46.715681,35.069652,55.374645,46.354071,62.37829,55.348648,75.400958,0.0,67.679626,30.662132,91.550262,21.298141,91.409523,11.633194,75.590767,2.381813,53.838135,0.0,-1.25877,31.365232,61.145369,48.435195,75.674883,60.212703,84.719033,67.55211,86.541708,-16.773199,285.864155,-60.485327,268.512586
92,-3.172783,6.957876,1.333271,1.481392,0.0,10.057251,-10.958576,52.23484,-17.718041,52.230446,-21.135956,36.876228,-21.267632,-35.353615,0.0,2.034454,14.300827,42.168924,29.357912,49.554681,40.211584,57.404628,49.260996,69.512204,0.0,67.333179,30.112507,91.114574,20.777527,90.737995,11.119698,74.894634,1.976189,53.351818,0.0,0.067567,30.94796,60.554973,48.20089,74.817874,60.106567,83.555001,67.447579,85.737681,-19.836736,292.836249,-59.04281,270.008196
93,7.071041,0.587592,0.463692,1.211197,0.0,1.763306,-17.094486,43.125606,-24.580673,43.295666,-28.268418,27.603779,-28.819382,-45.322941,0.0,0.880981,14.023939,39.890606,29.268559,48.29275,40.156058,55.9478,49.463093,68.464571,0.0,67.030346,29.578331,90.554363,20.214088,89.996944,10.512989,74.181255,1.429699,52.610859,0.0,0.90084,30.561453,59.767508,47.853519,73.847787,59.772843,82.340297,67.076781,84.846808,-12.622181,293.469339,-58.435604,271.264891
94,-3.887077,1.19455,0.320503,0.863407,0.0,5.215438,-13.234051,48.161418,-21.002083,47.922878,-25.039994,33.37215,-25.658833,-39.648594,0.0,2.112827,12.916691,39.955702,28.375092,48.40595,39.775095,55.447288,49.352682,66.697855,0.0,66.700184,28.78212,90.004612,19.410541,89.317532,9.705517,73.615482,0.617523,52.114483,0.0,1.342923,30.136943,58.78885,47.38697,73.034287,59.307874,81.609703,66.650653,84.159192,-16.336475,294.695286,-57.942318,272.159695
95,1.681343,-1.878967,0.132751,0.442676,0.0,1.562896,-14.955723,44.723499,-22.99577,45.904209,-27.574311,31.358173,-28.984326,-41.794087,0.0,2.820895,14.851617,40.11087,30.243314,50.062924,41.283127,56.780813,50.424473,68.858762,0.0,66.63612,28.432904,89.75742,19.257431,89.15704,9.669011,73.943493,0.580502,52.674809,0.0,1.191894,29.690574,57.830657,46.848951,72.146563,58.79137,80.976551,66.254648,83.724445,-14.473428,292.852406,-57.627863,272.638458
96,0.26239,-0.3655,0.308224,0.095652,0.0,-0.257103,-16.177391,44.21989,-24.181446,46.021969,-28.51355,31.045017,-29.464154,-40.836022,0.0,5.059112,14.529056,40.408284,30.148243,49.922577,41.268282,56.785024,50.578836,68.765987,0.0,66.784447,27.98663,89.463066,18.842583,88.743439,9.333389,73.994476,0.405739,52.919861,0.0,1.205269,29.447388,57.72221,46.685868,71.942959,58.724851,80.687262,66.239691,83.354954,-14.030136,292.499772,-57.138737,272.746976
97,0.581234,-6.189689,0.04002,0.10253,0.0,-1.367237,-16.227425,42.765838,-25.170788,45.679046,-30.888817,30.436615,-33.376637,-41.186028,0.0,0.349347,17.903384,44.22609,35.013447,55.259011,46.693155,61.463791,56.089184,73.01843,0.0,66.845844,28.007652,89.620205,18.985039,88.772724,9.525295,74.353214,0.617729,53.598141,0.0,1.104196,29.388738,57.445383,46.582374,71.673851,58.648034,80.318539,66.222488,83.191983,-13.252172,286.28462,-56.901987,272.824043
98,-3.888611,-1.645451,0.101784,0.171036,0.0,3.633865,-12.249447,46.873993,-21.45076,50.44471,-27.805538,35.462059,-30.978745,-30.583614,0.0,3.373388,18.873495,44.951521,35.922648,57.008598,47.511064,63.187727,56.571899,73.857,0.0,66.831882,28.099457,89.700748,19.21542,88.732326,9.796371,74.585506,0.856247,54.104084,0.0,0.935099,29.049111,57.110227,46.202412,71.326185,58.344939,79.922114,66.057368,83.046265,-16.908314,284.588861,-56.567734,272.944771
99,0.245281,2.373328,0.091347,0.061109,0.0,-1.329975,-12.540802,47.10339,-21.040729,50.811642,-26.387821,35.317989,-28.579777,-23.749237,0.0,5.48829,17.616874,42.705967,33.320856,53.466038,44.1048,60.553541,52.839951,69.174158,0.0,66.474346,28.231063,89.777515,19.481964,88.705776,10.055385,74.670902,1.026558,54.278034,0.0,0.863023,28.793118,56.926766,46.002908,71.318749,58.286288,79.758845,66.191415,83.128997,-16.410107,286.910976,-56.223461,272.954667
100,-3.947742,0.589309,0.164486,0.193674,0.0,2.906639,-7.856232,51.766822,-16.584309,55.203163,-22.656361,40.31195,-25.872094,-9.974991,0.0,7.453015,16.168246,42.360857,31.304482,53.010814,42.092934,59.955154,50.962751,66.32655,0.0,66.025749,28.220191,89.81401,19.521354,88.601371,10.009197,74.489685,0.833175,54.014511,0.0,0.61554,28.375709,56.656978,45.629688,71.179823,58.052291,79.600208,66.141767,83.297464,-20.058231,287.443614,-55.759357,273.09167
101,-0.682274,-2.537732,0.194068,0.260994,0.0,5.526558,-5.896134,51.274086,-15.904907,55.119438,-23.714642,40.051735,-29.176449,-2.645005,0.0,7.304135,16.543516,42.407231,32.150117,54.830908,43.463497,61.580746,52.677906,67.552394,0.0,65.507973,28.220353,89.815842,19.612782,88.62053,10.076981,74.327523,0.792481,53.87732,0.0,0.361289,28.016273,56.141424,45.284208,70.727267,57.781256,79.214145,65.99763,83.364501,-20.356338,284.852449,-55.181122,273.299231
102,0.046268,0.471736,0.422757,0.390151,0.0,4.286259,-5.98629,50.831875,-15.995613,54.794209,-23.798034,40.280079,-29.227466,1.778538,0.0,7.047439,16.030098,41.98392,31.500836,54.503285,43.034196,61.134563,52.53341,66.004719,0.0,65.005611,27.801635,89.521076,19.211506,88.274334,9.671711,73.818866,0.362995,53.300754,0.0,0.058145,27.491383,55.793115,44.801974,70.277514,57.42403,78.697134,65.801264,83.050982,-19.869765,285.278672,-54.31806,273.643869
103,-1.850075,0.171913,0.196071,0.273406,0.0,5.210896,-4.301811,52.828297,-14.125373,56.61176,-22.027256,42.892788,-27.661857,9.005276,0.0,6.264703,14.851777,41.999518,30.394516,54.381649,42.350483,61.06476,52.335376,64.810157,0.0,64.711647,27.559708,89.473274,19.045693,88.25029,9.527733,73.701966,0.213593,53.253708,0.0,-0.103777,27.154003,55.344128,44.529729,69.832442,57.265986,78.196795,65.782072,82.806043,-21.233128,285.413087,-53.635277,273.879777
104,-0.388927,-2.055498,0.170552,0.242321,0.0,11.315414,-3.047218,53.631065,-13.679821,57.526566,-22.163692,43.476814,-28.293159,9.653286,0.0,5.029978,14.628055,41.451458,31.072795,55.784754,43.861367,63.179699,54.545831,67.983733,0.0,64.608249,27.219394,89.434764,18.789894,88.383281,9.377872,73.766338,0.170116,53.3791,0.0,-0.311345,26.861788,54.946369,44.271625,69.280912,57.08407,77.615612,65.700438,82.380879,-21.086054,283.306914,-52.928724,274.071423
105,1.515724,0.222252,0.231411,0.098356,0.0,7.745304,-5.218712,51.692963,-15.764545,55.76603,-23.895412,41.646195,-29.558029,7.230274,0.0,6.416498,14.753198,41.547381,31.009414,55.429837,43.573548,62.739913,54.111503,67.819699,0.0,64.471916,27.014122,89.305892,18.642814,88.277664,9.32175,73.726615,0.181068,53.469909,0.0,-0.29424,26.792269,54.644558,44.21316,68.959613,57.054133,77.267093,65.723236,81.967189,-19.01916,283.467795,-52.146143,274.108408
106,0.943497,1.24763,0.181011,0.096652,0.0,3.229545,-7.145668,49.818558,-16.896927,54.632103,-24.217117,41.443817,-29.16996,7.434345,0.0,10.239058,14.892199,41.163726,30.025767,54.129905,41.542466,60.79007,51.393126,65.544913,0.0,64.405941,26.743114,89.245708,18.430286,88.214504,9.208111,73.802845,0.17934,53.56969,0.0,-0.37333,26.688751,54.300682,44.116508,68.670546,57.007771,76.9833,65.752284,81.612939,-17.561817,284.64012,-51.451286,274.129755
107,0.468223,1.102183,0.145637,-0.002248,0.0,-0.59127,-8.796695,48.441193,-17.907531,53.919068,-24.482746,41.804169,-28.726284,8.440327,0.0,14.984009,15.346212,41.44432,29.052396,53.038652,39.224578,59.001222,48.063433,63.673913,0.0,64.24149,26.698998,89.215061,18.423294,88.247006,9.219189,73.946789,0.173413,53.574085,0.0,-0.257845,26.63299,53.888115,43.993143,68.427769,56.85584,76.930479,65.613135,81.569849,-16.64419,285.661858,-50.856245,274.047062
108,-0.707496,0.172839,0.2986,0.130393,0.0,1.396683,-6.919144,49.68576,-16.298664,54.466736,-23.482647,41.387832,-28.331795,5.342869,0.0,13.152282,15.375174,40.381929,29.350972,52.378367,39.615878,58.97199,48.409693,64.705849,0.0,64.045131,26.470458,88.904125,18.146873,87.995853,8.943122,73.759723,-0.079663,53.195926,0.0,-0.301491,26.484937,53.480253,43.880448,68.096563,56.769562,76.790947,65.522102,81.401925,-16.981539,285.739787,-50.187498,274.082545
109,7.08435,-0.430882,0.178504,-0.08466,0.0,-10.889476,-14.599285,40.894593,-24.036621,45.449959,-31.068248,32.948891,-35.794635,-6.801933,0.0,14.067856,17.652282,42.484123,31.421549,53.044209,41.168617,58.816329,49.456486,65.942376,0.0,64.006314,26.73713,88.948185,18.335209,87.807965,8.956765,73.634343,-0.304092,52.949444,0.0,-0.215608,26.697877,53.477314,43.868443,68.074284,56.587225,77.013434,65.243324,81.582014,-9.60398,285.227925,-49.715785,273.916905
110,0.672501,1.269762,0.192135,0.027775,0.0,-10.046825,-14.417049,41.885971,-23.433643,45.609009,-29.935101,33.457649,-33.862988,-13.369171,0.0,8.924095,16.885082,42.408886,31.340619,53.312094,41.499315,58.761568,49.752615,65.598475,0.0,63.935486,26.802086,88.892235,18.341801,87.724343,8.876908,73.56514,-0.460899,52.692398,0.0,-0.268948,26.608376,53.4445,43.662827,67.903952,56.324897,76.988253,64.953085,81.588411,-8.71257,286.433951,-49.304741,273.880944
111,5.961697,-1.265464,0.13242,-0.046029,0.0,-13.357384,-19.147396,36.363956,-28.877472,38.933086,-35.426686,26.10593,-39.054394,-28.513379,0.0,3.261484,17.996343,43.071258,33.731929,54.436323,44.599803,60.696259,53.314441,69.135107,0.0,63.821651,27.093555,88.979061,18.588604,87.616917,8.966869,73.499897,-0.591339,52.443798,0.0,-0.236257,26.607092,53.435151,43.481615,67.855737,56.061174,77.041173,64.694104,81.687817,-2.590519,285.109571,-49.011967,273.775999
112,0.165722,-0.497869,0.016514,-0.021884,0.0,-10.440342,-18.370091,38.241577,-28.452851,39.556915,-35.124791,26.277488,-38.579419,-33.111008,0.0,-2.229399,17.155772,43.927255,34.436735,55.797599,46.612385,62.564023,56.137596,70.932612,0.0,63.729217,27.407627,89.139541,18.931572,87.660026,9.241722,73.564384,-0.435425,52.390663,0.0,-0.287497,26.564632,53.595529,43.336168,67.878437,55.884839,77.080458,64.549435,81.734315,-2.294191,284.557331,-48.864847,273.699744
113,-1.140061,4.927597,-0.064888,-0.192859,0.0,-10.172275,-18.246563,39.980507,-27.102859,41.927399,-32.259018,28.949982,-34.31591,-32.128395,0.0,3.331731,15.410865,42.062083,30.668305,52.708435,41.625014,58.851922,50.329821,66.068915,0.0,63.872177,27.829513,89.413078,19.43629,87.847023,9.689495,73.848198,-0.118687,52.628746,0.0,-0.178681,26.648181,53.954707,43.24926,68.116941,55.740578,77.365659,64.457229,82.009129,-3.314381,289.437007,-48.809864,273.458964
114,0.203636,-0.587197,-0.019341,0.051747,0.0,-9.084903,-17.615959,40.010834,-26.620182,42.030808,-32.064571,28.656143,-34.613857,-35.642475,0.0,0.368045,15.878476,41.994244,31.68137,52.966292,42.854885,59.229908,51.676104,66.611417,0.0,63.938965,27.878517,89.258057,19.596394,87.991997,9.910526,74.075913,0.140671,52.655434,0.0,-0.262452,26.409626,53.791513,43.112137,68.000307,55.726388,77.302167,64.561143,81.982243,-3.017081,288.795865,-48.735541,273.456766
115,0.699131,-0.758777,-0.179729,-0.04493,0.0,-12.444202,-19.251766,38.78619,-28.579284,40.840542,-34.078136,27.499455,-36.512935,-38.054237,0.0,4.651189,16.202382,43.668459,31.551521,53.427951,42.447443,59.839385,51.24316,67.307085,0.0,64.136181,28.127632,89.373562,19.932667,88.201778,10.201618,74.333873,0.300327,52.801723,0.0,-0.283953,26.263006,53.585526,42.947054,67.932197,55.600948,77.347813,64.536653,82.051268,-2.19678,287.982963,-48.7941,273.357711
116,1.612702,0.100814,-0.126114,-0.104259,0.0,-14.938465,-20.957886,37.187954,-29.920212,39.923023,-34.850739,26.897175,-36.869557,-41.879105,0.0,3.728947,15.905646,43.998514,31.440827,53.607397,42.408676,59.497312,51.217533,66.683677,0.0,64.510425,28.147087,89.424236,19.98666,88.386989,10.241077,74.591343,0.305282,52.993229,0.0,-0.245939,26.155091,53.677941,42.856354,67.963825,55.572802,77.501411,64.560426,82.209978,-0.435276,288.025862,-48.771412,273.195537
117,-0.931011,-1.10784,-0.096966,-0.129342,0.0,-14.357644,-20.211194,38.306419,-29.358891,40.880882,-34.602059,27.843772,-36.979569,-40.743599,0.0,5.17944,16.905522,44.655885,32.581333,54.702418,43.528422,60.109148,52.158424,68.083535,0.0,65.004845,28.143757,89.420357,20.005932,88.477913,10.258347,74.726074,0.29591,53.108276,0.0,-0.200541,26.149471,53.518365,42.860948,67.880499,55.608876,77.66185,64.601823,82.360884,-1.183341,286.861313,-48.685432,273.009486
118,7.488372,-4.947603,-0.099678,-0.144842,0.0,-22.937999,-27.503025,29.750222,-37.509338,32.189781,-42.863262,19.614373,-45.180725,-55.413013,0.0,-1.874755,19.222841,47.671738,37.221061,58.083401,49.23453,63.438964,58.550024,72.625907,0.0,65.199852,28.113419,89.43219,19.9823,88.487389,10.208302,74.765762,0.187809,53.034622,0.0,-0.18309,26.118041,53.379501,42.832049,67.795827,55.614088,77.718303,64.627524,82.414483,6.49344,281.863881,-48.596701,272.814815
119,-7.086925,-0.692877,-0.072144,-0.180978,0.0,-14.241955,-21.702313,38.567951,-31.469319,40.380901,-37.099011,28.39365,-39.542805,-40.65897,0.0,0.597596,19.000985,49.371727,37.025374,59.8052,49.265183,64.306447,58.362303,72.631304,0.0,65.363297,28.165455,89.516694,20.031579,88.46624,10.244351,74.773797,0.192879,53.098298,0.0,-0.108706,26.071172,53.30797,42.789639,67.700373,55.598799,77.792502,64.625301,82.515951,-0.387874,281.123907,-48.463234,272.58674
120,4.997017,-1.116336,-0.053203,-0.123316,0.0,-17.468697,-26.358696,32.272876,-36.348393,34.247097,-41.645783,22.258403,-44.012249,-46.670483,0.0,-0.167776,19.605521,48.080167,38.398246,59.680563,51.057636,64.627326,60.468239,73.943401,0.0,65.430187,28.159149,89.544857,20.03326,88.44128,10.25219,74.748058,0.214783,53.059215,0.0,-0.043052,26.036654,53.389653,42.814389,67.659877,55.68683,77.857007,64.743837,82.635624,4.794817,279.941263,-48.330763,272.397116
