takenoko1/special-research/HandMotion_SimilarSearch_自分用/NewProject/handData/test_key/d4_feature_d3/118.csv
frame,vel_0x_L,vel_0y_L,vel_0x_R,vel_0y_R,posFromWrist_0x_L,posFromWrist_1x_L,posFromWrist_2x_L,posFromWrist_3x_L,posFromWrist_4x_L,posFromWrist_5x_L,posFromWrist_6x_L,posFromWrist_7x_L,posFromWrist_8x_L,posFromWrist_9x_L,posFromWrist_0y_L,posFromWrist_1y_L,posFromWrist_2y_L,posFromWrist_3y_L,posFromWrist_4y_L,posFromWrist_5y_L,posFromWrist_6y_L,posFromWrist_7y_L,posFromWrist_8y_L,posFromWrist_9y_L,posFromWrist_0x_R,posFromWrist_1x_R,posFromWrist_2x_R,posFromWrist_3x_R,posFromWrist_4x_R,posFromWrist_5x_R,posFromWrist_6x_R,posFromWrist_7x_R,posFromWrist_8x_R,posFromWrist_9x_R,posFromWrist_0y_R,posFromWrist_1y_R,posFromWrist_2y_R,posFromWrist_3y_R,posFromWrist_4y_R,posFromWrist_5y_R,posFromWrist_6y_R,posFromWrist_7y_R,posFromWrist_8y_R,posFromWrist_9y_R,posFromBody_0x_L,posFromBody_0y_L,posFromBody_0x_R,posFromBody_0y_R
6,1.597835,-1.361794,0.145992,0.144595,0.0,42.058732,4.192509,65.89293,-5.489696,65.1316,-14.249816,52.245163,-22.557621,33.071274,0.0,-3.000514,10.286618,34.501413,30.820952,48.853666,47.66539,60.253409,61.098711,64.591783,0.0,64.842717,23.924092,85.509053,14.039406,81.810322,5.234929,69.255284,-1.638656,50.640393,0.0,20.169166,31.904079,55.039241,49.815008,65.53318,61.293619,74.813613,67.074372,77.439956,-28.014943,287.467656,-46.063958,280.556859
7,0.196404,-0.828431,0.110974,-0.122488,0.0,42.841919,5.509289,66.366074,-4.39539,63.848854,-13.601303,51.569366,-22.470589,32.344803,0.0,-4.107193,9.561928,34.633966,30.564268,49.659434,47.87565,61.225669,61.672075,65.554052,0.0,64.821441,23.794864,85.664863,13.978088,81.986595,5.288212,69.494293,-1.454212,50.851524,0.0,20.302757,31.895829,55.133522,49.999778,65.414977,61.589749,74.657199,67.353693,77.440623,-28.426466,286.661857,-46.560911,280.457003
8,0.275413,0.418384,-0.087376,-0.123884,0.0,43.048874,5.947129,66.584107,-3.795204,63.059464,-13.100452,50.838593,-22.261356,31.264412,0.0,-6.540764,9.56152,33.863963,30.89341,48.89058,48.260478,60.645746,62.070143,65.460216,0.0,64.964413,23.769825,85.880459,13.866222,82.096996,5.195526,69.655598,-1.489895,50.935925,0.0,20.434002,31.847022,55.220825,50.039385,65.505739,61.651636,74.792889,67.368007,77.625862,-28.565775,287.078799,-47.063009,280.331677
9,1.106186,0.623284,-0.069946,-0.067592,0.0,43.185379,6.42754,66.583557,-3.459823,61.279496,-13.235206,49.086892,-23.078807,28.950165,0.0,-8.786491,8.203665,32.855825,29.996263,48.256885,47.659462,60.159746,61.834713,65.120971,0.0,65.064869,23.658806,85.979564,13.728813,82.09013,5.123691,69.692081,-1.440434,50.974743,0.0,20.411228,31.637453,55.258208,49.964308,65.419782,61.662763,74.675724,67.416247,77.647833,-27.714747,287.681356,-47.388113,280.243358
10,0.221787,0.435019,-0.010723,-0.107594,0.0,43.526253,7.316803,67.513618,-2.485851,60.937363,-12.452717,48.667374,-22.662541,28.596794,0.0,-11.069996,7.695657,32.003015,29.722523,47.802192,47.384364,59.652232,61.611893,64.847331,0.0,65.255722,23.631775,86.150596,13.624077,82.165786,5.005714,69.698959,-1.516743,50.930122,0.0,20.36494,31.555202,55.35733,49.964,65.386326,61.696417,74.627868,67.413814,77.71608,-27.653269,288.065984,-47.559145,280.085373
11,0.387382,0.397327,-0.05547,-0.092428,0.0,44.087883,7.78386,68.049294,-2.062763,60.633179,-12.194023,48.329956,-22.658706,28.331063,0.0,-12.101772,6.963174,31.096828,29.17802,47.301038,46.947838,59.14967,61.344366,64.478693,0.0,65.404255,23.605293,86.323414,13.502873,82.283283,4.921807,69.877888,-1.489025,51.116764,0.0,20.367571,31.42644,55.388601,49.993183,65.223675,61.808877,74.585408,67.563102,77.819685,-27.363997,288.403666,-47.712725,279.9333
12,-0.058902,0.320151,-0.11198,-0.030616,0.0,44.224765,8.332042,68.670559,-1.411389,60.972713,-11.496003,48.567089,-22.010514,28.860157,0.0,-12.479869,6.746813,30.673653,29.031746,46.784792,46.7831,58.683899,61.273526,64.120516,0.0,65.524475,23.598072,86.468925,13.441761,82.271141,4.877071,69.912071,-1.482594,51.162643,0.0,20.209811,31.221441,55.352156,49.848947,65.066496,61.699209,74.604069,67.480332,77.910927,-27.457271,288.665759,-47.859077,279.844626
13,-0.267735,-0.713588,-0.155651,0.033457,0.0,44.638916,8.084141,68.873062,-1.849422,61.113945,-11.814983,48.84993,-22.223167,29.790733,0.0,-11.037429,7.103718,31.448164,29.30845,47.457106,47.068251,59.249323,61.583118,64.252403,0.0,65.560146,23.538448,86.612102,13.480201,82.412487,5.046306,70.065868,-1.165879,51.38499,0.0,20.109614,31.135817,55.425243,49.762829,65.090183,61.577288,74.593497,67.345147,77.917275,-27.738499,287.892764,-48.028221,279.818676
14,-0.575363,-0.77493,-0.17656,0.041953,0.0,45.398552,8.693264,68.729347,-1.393261,60.889435,-11.278713,48.772591,-21.671814,30.5056,0.0,-9.374318,7.760532,31.990381,29.925225,47.992136,47.671268,59.611649,62.086334,64.423291,0.0,65.648197,23.459622,86.937527,13.491371,82.750569,5.189907,70.401638,-0.87561,51.792446,0.0,19.935095,31.000757,55.364444,49.631424,65.079117,61.448218,74.613319,67.237973,77.999057,-28.309341,287.054852,-48.20026,279.797647
15,-0.322495,-0.75191,-0.185692,-0.030727,0.0,45.850548,8.498017,68.257714,-1.520336,60.183953,-10.987003,48.090958,-21.008194,30.733384,0.0,-7.219982,8.647367,32.696423,30.672467,48.531069,48.227491,59.877312,62.344574,64.261825,0.0,65.545796,23.236462,87.155651,13.395859,82.948231,5.275074,70.61974,-0.622512,52.066372,0.0,19.958721,30.917036,55.433518,49.56151,65.195677,61.367288,74.650357,67.165577,78.010617,-28.607901,286.259485,-48.362017,279.723463
16,-0.379268,-0.642229,-0.198703,-0.029789,0.0,45.781551,8.68816,67.907444,-1.12912,59.386493,-10.242794,47.440647,-20.017124,30.830784,0.0,-5.680952,9.521506,33.470995,31.469677,49.248658,48.826483,60.082928,62.637493,64.029607,0.0,65.352012,23.257953,87.335426,13.571399,83.035652,5.58451,70.766098,-0.236081,52.228088,0.0,20.025634,31.068942,55.425046,49.712355,65.339186,61.489529,74.696584,67.280977,77.935344,-28.952179,285.587638,-48.52573,279.664056
17,0.142753,-0.163318,-0.220585,-0.016857,0.0,44.76479,8.643574,67.084637,-0.978962,57.926846,-9.845386,46.095578,-19.608581,29.961331,0.0,-5.443064,10.080076,33.474553,31.93924,49.537317,49.127171,59.967826,62.648831,63.587005,0.0,65.309337,23.279068,87.487575,13.624294,83.148044,5.651962,70.891834,-0.176743,52.247669,0.0,20.034007,31.315844,55.413881,49.893962,65.62073,61.570014,74.890393,67.285311,77.95036,-28.754305,285.403886,-48.691194,279.626765
18,0.529381,0.241617,-0.132958,-0.006879,0.0,43.583965,8.104374,65.930523,-1.165329,56.794293,-9.805378,45.270893,-19.465519,28.841366,0.0,-5.595131,10.160265,33.178694,31.969337,49.36428,49.078141,59.601387,62.533086,63.229816,0.0,65.243969,23.300858,87.457753,13.599781,83.010876,5.57087,70.782566,-0.308372,52.147007,0.0,20.002403,31.362009,55.244894,49.951439,65.500069,61.681609,74.809376,67.467969,77.912557,-28.133726,285.630625,-48.732954,279.605008
19,0.127556,0.017685,-0.068126,-0.011708,0.0,43.238125,7.573769,65.255711,-1.468311,56.782574,-9.916649,45.463314,-19.333191,28.910419,0.0,-5.239448,10.32525,32.972547,32.107695,49.309557,49.273519,59.562916,62.815656,63.2023,0.0,65.015899,23.298065,87.200248,13.510883,82.697616,5.362083,70.455711,-0.632332,51.822097,0.0,20.08731,31.450571,55.048429,50.002803,65.447495,61.717178,74.787134,67.478281,77.894797,-27.901365,285.63734,-48.696275,279.58233
20,1.659863,0.418051,-0.147892,-0.003817,0.0,40.046264,4.732395,62.521751,-4.144055,55.725471,-12.268982,44.454116,-21.174729,27.352867,0.0,-5.592352,10.342465,32.915909,32.035582,48.90288,49.339196,59.581441,63.045404,63.378288,0.0,64.950885,23.481788,86.996326,13.587959,82.49699,5.299301,70.250713,-0.824845,51.557407,0.0,20.181838,31.513064,54.783669,50.035063,65.253254,61.753167,74.681677,67.541984,77.890463,-26.128068,286.029749,-48.730733,279.552871
21,-0.570054,0.177582,-0.051361,0.043164,0.0,39.891312,3.981446,62.590783,-4.818077,56.961525,-12.757164,45.638352,-21.350887,28.41401,0.0,-4.817101,10.218507,32.700276,31.846824,48.297257,49.302998,59.445392,63.207795,63.487043,0.0,64.827243,23.380794,86.782962,13.383899,82.292163,5.022171,70.02634,-1.131489,51.398242,0.0,20.14112,31.47563,54.651165,49.9794,65.109857,61.723254,74.561399,67.536351,77.877001,-26.580403,286.178203,-48.664375,279.566907
22,-1.052398,-0.256079,-0.060723,-0.054908,0.0,40.863418,3.418613,63.321121,-5.369602,59.013679,-13.078835,47.581558,-21.196289,30.404686,0.0,-3.138082,10.019103,33.222005,31.718852,48.189749,49.417533,59.619578,63.576408,63.667342,0.0,64.704472,23.320473,86.544857,13.242497,82.058911,4.84425,69.843647,-1.311207,51.181263,0.0,20.399137,31.437011,54.550474,49.972027,64.925284,61.762576,74.456077,67.615157,77.898663,-27.502767,285.891082,-48.595064,279.480957
23,-2.22765,-0.481135,-0.100799,0.073717,0.0,43.023686,4.377091,65.070797,-4.416481,61.466068,-11.880466,49.635876,-19.57822,33.156338,0.0,-1.200848,10.237724,33.36108,32.015625,48.012057,49.845464,59.680452,64.043933,63.708209,0.0,64.591816,23.256614,86.372783,13.142212,81.995922,4.730381,69.825496,-1.395379,51.130954,0.0,20.349182,31.300333,54.26478,49.827643,64.668947,61.616821,74.288833,67.469748,77.772384,-29.600784,285.382107,-48.56623,279.526834
24,-1.395996,-0.123896,-0.063778,-0.00431,0.0,43.881603,4.911839,66.221889,-3.854931,62.898319,-11.194965,50.924572,-18.740341,34.591267,0.0,-0.686875,9.890564,33.343037,31.830102,47.664204,49.826914,59.502944,64.097113,63.441126,0.0,64.569717,23.238636,86.24913,13.118671,81.852813,4.694481,69.753296,-1.421631,51.159439,0.0,20.352775,31.097137,54.18406,49.651135,64.52839,61.514834,74.135989,67.455199,77.64477,-30.849174,285.234542,-48.482402,279.498855
25,-1.697502,-0.33407,-0.097584,0.017253,0.0,46.11636,6.809841,68.109135,-2.275063,64.488361,-10.007309,52.692478,-17.895435,36.388836,0.0,-0.867729,9.779203,33.37947,31.863225,47.958359,49.898767,59.758949,64.144377,63.669961,0.0,64.366825,23.062603,86.081371,13.062492,81.710575,4.696838,69.672787,-1.416836,51.215572,0.0,20.061301,31.022147,54.205636,49.540911,64.526365,61.432274,74.174212,67.398698,77.570917,-32.374466,284.888795,-48.407776,279.504431
26,-0.946896,-0.505044,-0.100433,0.202541,0.0,47.477761,7.629788,68.937767,-1.691517,65.535347,-9.666584,53.685745,-17.665443,37.427284,0.0,-0.92796,9.919599,33.733287,32.053416,48.268309,50.095368,60.228301,64.327553,64.107882,0.0,64.184566,22.967697,85.80273,13.096527,81.770702,4.785644,69.692195,-1.350724,51.154872,0.0,19.774026,30.98159,53.84657,49.448483,64.347104,61.332967,73.953862,67.316706,77.263771,-33.116701,284.382812,-48.303548,279.706033
27,-0.671104,-0.500586,-0.037915,0.105878,0.0,48.506973,8.029392,69.576507,-1.506649,66.194298,-9.666081,54.261154,-17.733525,38.02771,0.0,-0.625988,10.12256,34.085017,32.186192,48.744899,50.174779,60.683439,64.374731,64.610358,0.0,63.952194,22.8578,85.540833,13.061955,81.612603,4.746311,69.50425,-1.464145,51.032181,0.0,19.385158,30.78468,53.569124,49.189303,64.112192,61.11847,73.790396,67.175951,77.086658,-33.569841,283.890476,-48.123499,279.820161
28,-0.564251,-0.563769,-0.023735,0.083424,0.0,49.271404,8.273128,69.912151,-1.385307,67.253734,-9.591145,55.390652,-17.520722,39.300693,0.0,-0.523507,10.673139,34.387792,32.698856,49.004374,50.663484,61.064242,64.808589,65.056282,0.0,63.65609,22.73235,85.303253,13.034271,81.49038,4.769703,69.418946,-1.490753,50.907074,0.0,19.152558,30.681878,53.300745,49.066952,63.987753,61.016459,73.597204,67.091453,76.889452,-33.905216,283.333639,-47.918358,279.910517
29,-1.234955,-0.723764,-0.087616,0.050031,0.0,50.857143,9.17625,71.039257,-0.557075,68.641125,-8.703609,56.649021,-16.482433,41.026806,0.0,1.044545,11.243861,34.674635,33.116104,49.560325,50.973026,61.605978,65.021035,65.654248,0.0,63.455246,22.736286,85.153427,13.078034,81.512444,4.814541,69.439614,-1.514271,50.695587,0.0,18.784586,30.625536,53.007949,48.966434,63.884913,60.905123,73.603156,66.974558,76.842373,-34.888475,282.625078,-47.754278,279.975751
30,-1.471607,-0.549406,-0.092834,0.084474,0.0,52.589126,10.380169,72.622742,0.672443,70.419273,-7.499829,58.141205,-15.231789,42.858375,0.0,2.661134,11.483848,34.72054,33.249905,49.508714,51.150349,61.69375,65.282746,65.881898,0.0,63.502144,22.789661,85.150223,13.161209,81.73423,4.907398,69.642174,-1.434757,50.757751,0.0,18.612464,30.425614,52.488283,48.756434,63.592279,60.698383,73.332147,66.762718,76.680069,-36.113479,282.107396,-47.600509,280.091949
31,0.578979,0.01792,-0.20937,-0.169678,0.0,52.022644,10.500138,72.105675,0.723015,69.655518,-7.598568,57.405053,-15.411358,42.076493,0.0,2.429731,11.380527,34.145607,33.118018,49.343952,51.061465,61.622292,65.197221,65.971028,0.0,63.553608,23.009239,85.413242,13.406685,82.050602,5.122685,69.984959,-1.252006,51.062428,0.0,18.409478,30.210772,52.051226,48.572998,63.440793,60.560667,73.259306,66.66477,76.740523,-35.308056,282.165908,-47.583435,279.962863
32,0.427025,0.22061,-0.258785,-0.152622,0.0,50.947746,11.082813,71.983681,1.528908,68.873772,-6.736038,56.834358,-14.518627,41.748779,0.0,1.619021,11.461173,33.242642,33.109039,48.783801,50.935111,61.080148,64.940142,65.601773,0.0,63.704452,23.239654,85.969437,13.695751,82.629524,5.434112,70.487045,-0.935051,51.549225,0.0,18.201897,30.081602,51.559285,48.475309,63.416376,60.471388,73.156788,66.552384,76.627074,-34.683157,282.44133,-47.644346,279.865053
33,0.254414,-0.03589,-0.314198,-0.282841,0.0,50.838695,12.438274,72.507351,2.82336,68.55701,-5.851433,56.39146,-14.097599,40.806873,0.0,0.678119,10.914423,32.820097,32.451571,48.884183,50.277507,61.28905,64.243449,65.804562,0.0,63.855046,23.526444,86.597111,14.017811,83.261158,5.724278,70.968304,-0.710472,51.98869,0.0,17.911707,29.929745,51.344541,48.345743,63.615891,60.395311,73.354376,66.531647,76.761937,-34.249311,282.473613,-47.779112,279.650385
34,1.077003,-0.354682,-0.389213,-0.806127,0.0,47.97012,11.84745,71.86678,2.323128,67.76952,-6.390941,55.895565,-14.583572,39.976513,0.0,-1.392336,12.331854,34.182114,33.542466,50.401996,50.853675,62.809358,64.296419,67.046609,0.0,63.912678,23.917728,87.272404,14.533596,84.435619,6.217403,71.781246,-0.339031,52.67593,0.0,17.734384,30.149539,52.890969,48.461711,65.667339,60.487702,74.59199,66.6931,77.746683,-33.004126,282.187199,-48.000143,278.912526
35,2.37592,-0.460016,-0.733258,-1.430609,0.0,44.067993,10.190231,69.403541,0.483604,65.050415,-8.414349,52.793563,-16.912949,36.469917,0.0,-1.849387,13.803774,38.483598,34.261858,55.092928,50.680564,66.768856,63.302151,69.509364,0.0,63.736519,23.962166,86.839028,14.561852,84.497338,6.15532,71.68499,-0.621723,52.290528,0.0,16.814884,30.193321,56.358983,48.366331,70.854954,60.304205,79.146404,66.703449,81.087207,-30.443561,281.794466,-48.548756,277.5492
36,8.754833,-0.17295,-1.015136,-3.872653,0.0,25.00827,-1.30481,54.004955,-10.030518,51.69572,-16.640476,41.789509,-22.455918,26.886738,0.0,-1.87473,13.995854,43.945422,33.08797,60.96076,48.141819,70.331064,59.751539,71.08122,0.0,62.491997,22.437778,83.003334,12.919143,80.46064,4.428509,67.642021,-2.488106,48.211818,0.0,15.179314,30.2332,61.396508,48.034152,78.102292,59.915721,85.259498,66.597227,85.028033,-21.370502,281.685937,-49.245666,273.740968
37,11.519989,5.023717,-5.986233,-10.153237,0.0,-1.397186,-13.241924,20.219684,-20.014195,20.294048,-24.121147,13.64566,-27.299652,4.414467,0.0,3.131339,15.788222,31.492513,29.953643,42.840769,40.02968,49.023751,47.031436,51.31852,0.0,62.419476,25.416115,78.720921,16.997131,74.20039,9.135521,61.199455,2.179562,44.68158,0.0,9.908348,33.075052,66.07814,50.362586,82.650074,61.893932,90.988528,68.414344,90.949428,-9.286623,286.770491,-54.668009,263.648568
38,11.96822,-2.200748,-10.80154,-19.051151,0.0,-26.585198,-24.526577,-13.520199,-27.91705,-12.641739,-28.45245,-14.849854,-28.074006,-17.175431,0.0,9.59536,19.927488,33.846216,33.622198,44.062723,42.624853,49.898236,48.473592,53.132364,0.0,60.234329,24.767635,67.526161,17.880775,63.658893,11.175865,54.263603,5.126609,42.339695,0.0,-0.293462,30.252441,61.622774,47.346993,80.126866,59.509033,90.713467,67.349174,92.434488,3.481465,284.753355,-64.669681,244.781029
39,12.224945,-1.631297,-18.972302,-23.878588,0.0,-48.429016,-34.383419,-46.75224,-34.895199,-45.436867,-32.51912,-43.552266,-29.176541,-39.129364,0.0,15.380138,22.101485,34.274023,35.322285,44.022696,43.648723,49.401515,48.772846,53.910431,0.0,56.216606,23.828854,58.932987,17.127754,52.99696,10.617279,44.464703,4.479115,34.349487,0.0,-2.793786,17.047782,37.004676,30.390503,52.249642,40.794632,63.383433,48.638639,67.550147,16.755616,283.400728,-82.592777,221.181111
40,10.541267,-1.584639,-23.7976,-36.968625,0.0,-68.903721,-42.531692,-77.754982,-39.733635,-75.806236,-33.997925,-69.147617,-27.250317,-57.669262,0.0,19.970676,24.447692,31.619508,37.618845,40.513865,45.568605,46.462578,50.156154,53.416267,0.0,45.179661,21.541661,45.103913,13.853051,36.952183,6.22593,27.458542,-0.956268,19.838185,0.0,-16.333429,2.741366,6.927556,11.25731,15.677497,19.062562,31.844045,25.804509,37.650276,28.401638,282.249938,-105.285622,184.646335
41,3.358429,-2.034874,-31.384437,-47.843966,0.0,-73.452324,-40.559761,-94.547344,-35.529739,-94.073971,-28.763409,-85.472317,-21.484337,-68.706654,0.0,25.27721,28.379341,28.173477,42.025058,36.007727,50.039236,44.023042,54.303399,53.758637,0.0,34.258335,12.221512,23.486446,5.462528,14.988762,-0.792423,8.526134,-6.294583,5.261192,0.0,-32.668092,-11.444476,-24.34791,-4.146269,-17.806053,3.550797,0.266348,11.006548,11.159806,32.777332,280.824312,-135.652794,137.411617
42,0.614319,-7.223119,-33.871102,-49.476277,0.0,-69.89835,-38.037266,-93.286686,-31.958267,-93.986721,-24.594956,-84.405178,-16.892807,-66.806214,0.0,25.766867,30.571851,42.731347,48.358687,55.468963,60.190264,66.654433,67.741017,75.590569,0.0,20.810452,-3.899093,-1.318737,-11.429031,-7.618572,-17.142597,-10.826477,-21.044151,-13.75185,0.0,-46.772645,-30.486814,-59.501363,-24.570532,-52.824093,-16.882723,-34.754051,-8.411276,-21.20414,34.198717,274.469978,-168.71683,88.804125
43,0.733864,0.412555,-34.385021,-48.04755,0.0,-68.171379,-36.802666,-92.576706,-30.912987,-93.036049,-23.671967,-83.390087,-16.119805,-65.661255,0.0,25.010683,30.779863,42.34516,48.330961,55.240128,59.985252,66.668709,67.277716,75.381667,0.0,6.68256,-16.462108,-21.21627,-25.233558,-29.532142,-31.26519,-34.041572,-34.924415,-37.32661,0.0,-53.693404,-42.485754,-84.7007,-38.825751,-82.343811,-32.482922,-66.367151,-24.404461,-51.084387,35.671715,275.796186,-202.362717,41.670228
44,0.445541,0.108483,-31.60738,-47.447337,0.0,-67.518597,-35.569084,-91.791195,-29.586296,-92.15633,-22.257202,-82.370178,-14.724747,-64.504852,0.0,25.180916,31.213487,42.410134,48.627437,54.85588,60.177876,66.777229,67.340751,75.16249,0.0,-6.527607,-28.570873,-43.846779,-37.190414,-51.74049,-42.308475,-54.255306,-43.991535,-53.375095,0.0,-66.962728,-43.231933,-91.128989,-38.393523,-88.320349,-31.171009,-71.768277,-22.273955,-54.91692,36.661474,276.851016,-233.425879,-4.830762
45,0.440369,0.062689,-28.169929,-36.682388,0.0,-66.709568,-34.447403,-91.078503,-28.446373,-91.580956,-21.107895,-81.701683,-13.552666,-63.663174,0.0,25.527373,31.324996,42.416469,48.705489,54.645755,60.270069,66.814008,67.428498,75.008275,0.0,-14.717434,-38.102257,-61.868019,-45.567753,-69.376591,-48.917496,-68.622277,-48.397934,-65.224045,0.0,-68.648396,-41.653364,-93.474384,-34.339935,-88.19184,-25.325548,-75.668489,-15.021263,-55.302551,37.693938,277.835605,-261.003713,-40.59125
46,0.60189,0.007114,-21.638249,-26.392892,0.0,-65.996544,-33.467857,-90.937305,-27.596603,-91.509636,-20.340912,-81.659706,-12.778335,-63.288254,0.0,25.671536,31.426625,42.47901,48.750406,54.472595,60.311368,66.820368,67.42814,74.872806,0.0,-22.87128,-40.342243,-69.659855,-47.372543,-77.080558,-50.000816,-76.219825,-48.402053,-70.255794,0.0,-65.462803,-38.457144,-94.915088,-32.126362,-91.615322,-23.925611,-79.109215,-14.18055,-56.828012,38.981186,278.597046,-281.956604,-66.229815
47,0.625992,0.041051,-13.712894,-20.640205,0.0,-65.287239,-32.545578,-90.957928,-26.863129,-91.576034,-19.755501,-81.866066,-12.237739,-63.152138,0.0,25.555149,31.549237,42.476404,48.788136,54.376388,60.315036,66.880217,67.435353,74.708588,0.0,-30.062794,-39.360317,-71.617092,-46.026867,-80.599686,-48.688305,-80.236759,-47.075226,-72.413738,0.0,-60.393465,-34.288867,-90.964198,-29.008679,-90.76681,-21.752811,-79.502352,-12.585592,-57.216906,40.355524,279.143725,-294.921152,-86.364392
48,0.377815,0.056119,-6.390392,-15.477327,0.0,-64.905693,-31.88697,-91.006439,-26.413078,-91.866932,-19.494072,-82.377319,-12.066032,-63.342292,0.0,25.34043,31.386697,42.248582,48.518027,54.252121,60.042828,66.774673,67.237813,74.558794,0.0,-33.015988,-38.006276,-70.313347,-43.781788,-78.533078,-45.683899,-77.850895,-43.11216,-69.441365,0.0,-56.824174,-29.602027,-87.229373,-24.951748,-87.47383,-18.846117,-76.668697,-11.094702,-55.085085,41.425569,279.598443,-300.619314,-101.44312
49,-0.053993,-0.039829,2.338943,-11.932977,0.0,-64.843185,-31.382927,-90.809475,-26.07106,-91.911816,-19.284508,-82.567383,-11.909798,-63.391868,0.0,25.013067,31.371754,42.045769,48.476605,54.247379,60.019721,66.794914,67.22056,74.593658,0.0,-34.545353,-37.452564,-67.71199,-42.204941,-75.129352,-43.40094,-74.441402,-40.732613,-67.119461,0.0,-52.749465,-27.315668,-84.295447,-23.197613,-85.527142,-18.125092,-75.587351,-11.957933,-54.934676,42.104977,279.923537,-297.54697,-113.011174
50,-0.58287,-0.027454,7.866383,-10.176035,0.0,-64.364983,-31.01326,-90.598549,-25.790863,-91.774418,-19.093026,-82.400814,-11.739075,-63.061306,0.0,24.493573,31.235939,41.83541,48.29165,54.355318,59.82869,66.764175,67.01109,74.440072,0.0,-32.546368,-37.509545,-61.207352,-40.713856,-67.440914,-40.328797,-66.016812,-36.199036,-58.835656,0.0,-48.333632,-26.20686,-81.873319,-23.043997,-85.129622,-19.282388,-76.834383,-14.495351,-58.034612,42.23584,280.295559,-288.966854,-122.787733
51,-1.003464,-0.109607,16.293394,-7.111604,0.0,-63.884388,-30.754852,-90.153523,-25.487755,-91.393902,-18.760414,-81.899071,-11.359497,-62.556244,0.0,24.263984,30.924384,41.697731,47.972722,54.473793,59.564966,66.826456,66.815205,74.389215,0.0,-29.275006,-35.998873,-53.12487,-38.918513,-59.041248,-38.733668,-57.866301,-35.19183,-53.385475,0.0,-45.096713,-27.552675,-81.029222,-25.801838,-86.921393,-23.722254,-81.284531,-20.746885,-66.237655,41.896019,280.616726,-272.009817,-129.468563
52,-1.244087,-0.213249,22.833847,-4.917074,0.0,-63.702656,-30.693604,-89.692715,-25.321839,-91.138813,-18.494133,-81.457512,-11.002762,-62.16259,0.0,24.243039,30.719299,41.650974,47.738256,54.70816,59.35935,66.915019,66.670364,74.444667,0.0,-25.350506,-35.061739,-46.711281,-37.300203,-51.179661,-36.770674,-49.645678,-33.113137,-46.55436,0.0,-42.269585,-28.587619,-81.803437,-28.346385,-89.471558,-28.009561,-86.266502,-27.092543,-73.860772,40.91347,280.895375,-248.914432,-133.893739
53,-1.336716,-0.198355,23.235042,-2.841516,0.0,-63.432461,-30.814499,-89.402023,-25.323349,-90.79184,-18.350853,-81.018871,-10.716248,-61.77824,0.0,24.240915,30.608161,41.764336,47.552943,54.717534,59.161687,66.790518,66.522336,74.357105,0.0,-22.706909,-33.222456,-39.360317,-34.950765,-42.344398,-33.903791,-40.39163,-29.9328,-37.53622,0.0,-39.257141,-31.719677,-83.197956,-32.520815,-93.986903,-33.28618,-92.887687,-33.581174,-82.654923,39.70158,281.364356,-225.554564,-136.067919
54,-1.692833,-0.036198,23.020577,-1.04961,0.0,-62.956638,-30.926193,-88.862137,-25.314079,-90.044037,-18.195099,-80.344563,-10.437195,-61.327526,0.0,24.306568,30.42617,41.916872,47.316809,54.526775,58.915068,66.442542,66.307457,74.084304,0.0,-19.680012,-31.058488,-33.764748,-32.776973,-35.708686,-31.619364,-33.463554,-27.318377,-30.994913,0.0,-38.379603,-33.837026,-84.859389,-35.454331,-97.565053,-37.067323,-98.191376,-38.162436,-89.998505,38.171488,282.093428,-202.371246,-136.352259
55,-1.604095,-0.17626,22.334728,0.656915,0.0,-62.488518,-30.893692,-88.130448,-25.24585,-89.29842,-18.032479,-79.702229,-10.205704,-60.826149,0.0,24.622087,30.438482,42.097997,47.290034,54.436817,58.86731,66.384793,66.272012,74.164443,0.0,-17.138992,-29.209845,-31.029751,-31.515482,-32.495438,-30.913954,-30.392736,-27.054893,-28.370319,0.0,-37.929451,-35.983541,-87.085273,-38.106521,-100.462477,-40.132087,-101.745439,-41.636165,-94.672225,36.731581,282.55497,-179.87233,-135.057542
56,-1.390984,-0.091699,18.399565,1.222829,0.0,-62.049305,-30.960136,-87.599407,-25.329964,-88.649117,-18.095398,-79.164356,-10.237747,-60.550827,0.0,24.864927,30.501233,42.215829,47.358379,54.369582,58.914413,66.254771,66.325043,74.12801,0.0,-14.064617,-27.804066,-29.640392,-30.805683,-30.91996,-30.664948,-29.037182,-27.098595,-27.255898,0.0,-37.804494,-37.542099,-89.425822,-39.618982,-103.056439,-41.50675,-104.107512,-42.802006,-96.979952,35.588047,283.11709,-161.225315,-133.180894
57,-1.206024,-0.132961,14.464401,1.788743,0.0,-61.360028,-30.852905,-87.063126,-25.258347,-87.952984,-17.996132,-78.542885,-10.107033,-60.064408,0.0,25.057279,30.508038,42.379418,47.394404,54.220356,58.973323,66.198973,66.378864,74.161713,0.0,-10.456886,-26.841151,-29.596672,-30.647577,-30.982253,-30.872345,-29.39689,-27.449481,-27.651647,0.0,-38.004733,-38.512699,-91.881036,-39.991714,-105.346938,-41.191312,-105.277594,-41.659958,-96.921688,35.123852,283.619615,-146.019085,-130.756665
58,-0.87529,-0.087007,15.169869,2.638391,0.0,-60.837296,-30.765541,-86.561302,-25.224815,-87.414597,-17.938316,-78.040661,-9.995567,-59.721165,0.0,25.194959,30.408003,42.374825,47.367222,54.182516,59.012634,66.298355,66.446939,74.318992,0.0,-6.11578,-27.089005,-32.349129,-32.308178,-34.878312,-33.803959,-33.792019,-31.463681,-33.128205,0.0,-39.322431,-39.417413,-95.140866,-40.59507,-107.036589,-41.078628,-105.618717,-40.675686,-96.233396,35.173691,284.012489,-129.924087,-127.638393
59,-0.529038,-0.064257,15.169868,2.638391,0.0,-60.383812,-30.555999,-86.341415,-24.993599,-87.148532,-17.656356,-77.733787,-9.680946,-59.403396,0.0,25.281285,30.3155,42.306627,47.341657,54.22642,59.02665,66.522422,66.451285,74.518186,0.0,-1.774673,-27.336858,-35.101585,-33.968779,-38.77437,-36.735573,-38.187148,-35.47788,-38.604762,0.0,-40.640128,-40.322127,-98.400696,-41.198427,-108.72624,-40.965943,-105.95984,-39.691413,-95.545103,35.739629,284.227674,-113.659243,-124.72056
60,-0.181137,0.113151,15.169869,2.638391,0.0,-60.459331,-30.459388,-86.426033,-24.893875,-87.175838,-17.556083,-77.792873,-9.564537,-59.381103,0.0,25.264379,30.311894,42.146472,47.385945,54.134573,59.087216,66.499575,66.476184,74.361835,0.0,2.566432,-27.584712,-37.854043,-35.629381,-42.670428,-39.667187,-42.582277,-39.49208,-44.08132,0.0,-41.957825,-41.226841,-101.660526,-41.801783,-110.415891,-40.853259,-106.300963,-38.707141,-94.856811,36.721464,284.593304,-97.326402,-121.82969
61,0.072052,0.107816,15.169868,2.638391,0.0,-60.457409,-30.291824,-86.622722,-24.71537,-87.397522,-17.344528,-77.855243,-9.350898,-59.190776,0.0,25.259043,30.374398,41.950538,47.449103,54.14806,59.105963,66.665869,66.3739,74.352683,0.0,6.907539,-27.832565,-40.606499,-37.289982,-46.566486,-42.598801,-46.977406,-43.506279,-49.557877,0.0,-43.275522,-42.131555,-104.920356,-42.40514,-112.105542,-40.740575,-106.642086,-37.722868,-94.168519,37.9008,284.88341,-81.04925,-119.009009
62,0.199494,0.219881,15.169868,2.638391,0.0,-60.695618,-30.175049,-86.805611,-24.607727,-87.757805,-17.249611,-78.248726,-9.251152,-59.309212,0.0,25.24037,30.452994,41.641452,47.502221,53.99645,59.092205,66.740673,66.239457,74.289167,0.0,11.248646,-28.080418,-43.358955,-38.950583,-50.462544,-45.530414,-51.372534,-47.520478,-55.034434,0.0,-44.593219,-43.036268,-108.180186,-43.008496,-113.795192,-40.627891,-106.983209,-36.738596,-93.480226,39.058159,285.225884,-64.921517,-116.248025
63,0.198051,0.281693,11.972988,3.037501,0.0,-60.888862,-30.06031,-86.995823,-24.509239,-88.123901,-17.239403,-78.553196,-9.342911,-59.462379,0.0,25.393869,30.612125,41.478827,47.652633,54.032945,59.140432,66.791061,66.132123,74.038855,0.0,14.68063,-28.12647,-45.20891,-40.140867,-53.247411,-47.76919,-54.624737,-50.674537,-59.19552,0.0,-45.633601,-43.744187,-110.379334,-43.451462,-114.675037,-40.470215,-106.786277,-35.853219,-92.511145,40.09318,285.551485,-52.111559,-113.166616
64,0.445862,0.470242,8.776108,3.436612,0.0,-61.146893,-30.11055,-87.282074,-24.649498,-88.625999,-17.493072,-78.994984,-9.715324,-59.639889,0.0,25.193118,30.720213,41.029876,47.691856,53.754067,59.039285,66.689099,65.842921,73.698277,0.0,17.20349,-27.970721,-46.156363,-40.860834,-54.921087,-49.315129,-56.734013,-52.968455,-62.041136,0.0,-46.396667,-44.255311,-111.5178,-43.734038,-114.745077,-40.267547,-106.05129,-35.06674,-91.261274,41.084398,286.096652,-42.790095,-109.655079
65,0.335037,0.365377,5.579228,3.835722,0.0,-61.186031,-30.19638,-87.400772,-24.802322,-89.061619,-17.716781,-79.440445,-10.02539,-59.903869,0.0,24.898087,30.714569,40.665759,47.641555,53.61482,58.957182,66.624693,65.706428,73.658522,0.0,18.817226,-27.61317,-46.201315,-41.110484,-55.483572,-50.16823,-57.700364,-54.402233,-63.571282,0.0,-46.882417,-44.569639,-111.595585,-43.856223,-114.00531,-40.019887,-104.778247,-34.379156,-89.730614,41.785778,286.514582,-36.844524,-105.766804
66,0.301735,0.339195,2.382347,4.234832,0.0,-61.36084,-30.352615,-87.51487,-25.071396,-89.363388,-18.109749,-79.975468,-10.542206,-60.233196,0.0,24.580456,30.734773,40.49881,47.634947,53.266795,58.959676,66.529869,65.699228,73.766734,0.0,19.52184,-27.053817,-45.343765,-40.889816,-54.934864,-50.328493,-57.523788,-54.975869,-63.785957,0.0,-47.090852,-44.687172,-110.612687,-43.818017,-112.455738,-39.727234,-102.967149,-33.790467,-87.919165,42.308201,286.912353,-34.241489,-101.473396
67,0.398621,0.252127,-0.814533,4.633942,0.0,-61.436566,-30.671517,-87.790959,-25.516915,-89.674656,-18.65641,-80.403763,-11.177262,-60.567787,0.0,24.344878,30.85447,40.48299,47.712024,53.095734,59.026737,66.430278,65.761595,73.951676,0.0,19.317331,-26.292663,-43.583713,-40.198832,-53.274966,-49.795919,-56.204286,-54.689365,-62.685161,0.0,-47.02197,-44.60791,-108.569106,-43.619421,-110.096359,-39.38959,-100.617995,-33.300675,-85.826926,42.864458,287.211929,-34.898386,-96.792005
68,0.247261,0.08345,-0.814534,4.633942,0.0,-61.520634,-30.931183,-87.884583,-25.80304,-89.837288,-18.881035,-80.649845,-11.31942,-60.621243,0.0,23.92432,30.962607,40.466996,47.75741,53.002465,59.098022,66.497438,65.863211,74.277668,0.0,19.112823,-25.531508,-41.82366,-39.507846,-51.615066,-49.263343,-54.884783,-54.40286,-61.584364,0.0,-46.953089,-44.528648,-106.525526,-43.420825,-107.73698,-39.051945,-98.268841,-32.810883,-83.734687,43.19192,287.32543,-35.632719,-92.128012
69,-0.012634,-0.177138,-0.814533,4.633942,0.0,-61.523747,-31.010766,-87.863308,-25.888367,-89.811013,-18.912232,-80.753472,-11.261399,-60.622525,0.0,24.007894,31.091642,40.787037,47.920543,53.097599,59.359424,66.673588,66.243941,74.757062,0.0,18.908313,-24.770353,-40.063608,-38.816862,-49.955168,-48.730769,-53.565281,-54.116355,-60.483568,0.0,-46.884207,-44.449385,-104.481946,-43.222228,-105.377601,-38.714301,-95.919687,-32.32109,-81.642449,43.188727,287.142138,-36.437811,-87.500224
70,0.010665,-0.064368,-0.814533,4.633942,0.0,-61.438854,-30.992363,-87.934135,-25.789054,-89.783466,-18.717865,-80.681991,-10.987884,-60.495678,0.0,24.205531,31.246474,41.028826,48.111808,53.268869,59.567016,66.913216,66.456127,75.026602,0.0,18.703804,-24.009199,-38.303556,-38.125877,-48.295269,-48.198195,-52.245779,-53.829851,-59.382772,0.0,-46.815326,-44.370123,-102.438365,-43.023632,-103.018222,-38.376656,-93.570533,-31.831298,-79.55021,43.176715,287.055083,-37.275021,-82.888969
71,0.08471,0.035667,-0.814533,4.633942,0.0,-61.564454,-31.0765,-88.077874,-25.776192,-89.87051,-18.627732,-80.662342,-10.828171,-60.548882,0.0,24.099346,31.411669,41.109731,48.291638,53.404362,59.742214,66.914673,66.643971,75.095306,0.0,18.499295,-23.248045,-36.543505,-37.434893,-46.635371,-47.66562,-50.926277,-53.543347,-58.281977,0.0,-46.746444,-44.29086,-100.394785,-42.825036,-100.658844,-38.039012,-91.221379,-31.341505,-77.457971,43.227826,287.062932,-38.123153,-78.282845
72,-0.082467,0.030579,-0.814533,4.633943,0.0,-61.678504,-31.03141,-88.098758,-25.623184,-89.853115,-18.402557,-80.550189,-10.569465,-60.405864,0.0,24.068087,31.416794,41.120179,48.365948,53.533,59.869334,66.989193,66.834632,75.035049,0.0,18.294785,-22.486891,-34.783453,-36.743908,-44.975472,-47.133046,-49.606775,-53.256843,-57.181181,0.0,-46.677564,-44.211599,-98.351206,-42.62644,-98.299466,-37.701368,-88.872226,-30.851714,-75.365733,43.111232,287.06584,-38.971813,-73.676573
73,-0.028312,0.24174,-0.814534,4.633942,0.0,-61.820606,-31.202065,-88.135872,-25.796585,-89.734028,-18.610291,-80.437351,-10.802307,-60.550244,0.0,24.038201,31.402147,40.739711,48.45025,53.281751,59.975816,66.731435,66.992343,74.819776,0.0,18.090277,-21.725735,-33.0234,-36.052923,-43.315572,-46.60047,-48.287272,-52.970338,-56.080384,0.0,-46.608683,-44.132337,-96.307626,-42.427844,-95.940087,-37.363723,-86.523072,-30.361921,-73.273495,43.056256,287.270089,-39.813011,-69.080122
74,0.226478,0.359783,-0.814533,4.633942,0.0,-62.183796,-31.467979,-88.26456,-26.05664,-89.826553,-18.887191,-80.438221,-11.109123,-60.751785,0.0,23.858235,31.318228,40.306087,48.394773,53.120878,59.927379,66.512813,66.960171,74.514037,0.0,17.885768,-20.964581,-31.263348,-35.361938,-41.655674,-46.067896,-46.96777,-52.683833,-54.979588,0.0,-46.539801,-44.053074,-94.264045,-42.229248,-93.580708,-37.026079,-84.173918,-29.872129,-71.181256,43.261945,287.592185,-40.648333,-64.483867
75,0.21389,0.27721,-0.814533,4.633942,0.0,-62.463615,-31.706153,-88.411697,-26.31768,-89.846225,-19.194671,-80.530826,-11.459472,-61.074726,0.0,23.627733,31.22186,39.969782,48.34956,52.790439,59.917647,66.148585,67.010188,74.156069,0.0,17.681258,-20.203427,-29.503296,-34.670954,-39.995775,-45.535321,-45.648268,-52.397329,-53.878792,0.0,-46.47092,-43.973812,-92.220465,-42.030651,-91.22133,-36.688434,-81.824764,-29.382337,-69.089017,43.464523,287.829091,-41.474178,-59.890229
76,0.210846,0.143261,-0.814533,4.633942,0.0,-62.492076,-31.913704,-88.531665,-26.483413,-89.884082,-19.306182,-80.547718,-11.526901,-61.20417,0.0,23.768956,31.151489,39.832819,48.324205,52.751796,59.93306,66.109435,67.060935,73.987676,0.0,17.476749,-19.442273,-27.743245,-33.979969,-38.335877,-45.002747,-44.328766,-52.110825,-52.777996,0.0,-46.402038,-43.894549,-90.176885,-41.832055,-88.861951,-36.35079,-79.47561,-28.892544,-66.996778,43.685709,287.902781,-42.278371,-55.325858
77,0.359002,0.252596,-0.814534,4.633942,0.0,-62.662869,-32.254807,-88.645684,-26.806962,-89.982766,-19.585236,-80.580906,-11.762764,-61.492894,0.0,23.745849,31.147698,39.583768,48.350363,52.583563,59.955167,65.907338,67.080572,73.818727,0.0,17.272241,-18.681117,-25.983192,-33.288984,-36.675977,-44.470172,-43.009263,-51.82432,-51.6772,0.0,-46.333157,-43.815287,-88.133304,-41.633458,-86.502572,-36.013145,-77.126456,-28.402752,-64.904539,44.061648,288.064045,-43.075968,-50.783248
78,0.389282,0.122019,-0.814533,4.633943,0.0,-62.876393,-32.206421,-88.87135,-26.676682,-90.231137,-19.413094,-80.756344,-11.626259,-61.556328,0.0,23.703649,31.084181,39.709504,48.305717,52.521492,59.94525,65.933706,67.063318,73.901732,0.0,17.067731,-17.919963,-24.22314,-32.597999,-35.016079,-43.937597,-41.689761,-51.537816,-50.576404,0.0,-46.264276,-43.736026,-86.089725,-41.434863,-84.143194,-35.675502,-74.777303,-27.91296,-62.812302,44.477509,288.106968,-43.863922,-46.228401
79,0.270538,0.097726,-0.814533,4.633942,0.0,-62.900459,-32.158699,-89.016437,-26.651276,-90.426292,-19.406593,-80.993225,-11.619713,-61.792568,0.0,23.690978,31.029829,39.691707,48.257638,52.379367,59.924959,65.878958,67.078472,73.974301,0.0,16.863222,-17.158809,-22.463088,-31.907015,-33.35618,-43.405023,-40.370259,-51.251311,-49.475608,0.0,-46.195395,-43.656763,-84.046145,-41.236267,-81.783815,-35.337857,-72.428149,-27.423168,-60.720063,44.77918,288.130383,-44.647322,-41.66877
80,0.238152,0.110373,-0.814533,4.633942,0.0,-62.985695,-32.186234,-89.027974,-26.673226,-90.491879,-19.415634,-80.948227,-11.619484,-61.746209,0.0,23.801881,30.926508,39.849838,48.127876,52.361793,59.814092,65.928123,66.992515,74.013167,0.0,16.658713,-16.397655,-20.703036,-31.21603,-31.696282,-42.872448,-39.050757,-50.964807,-48.374812,0.0,-46.126513,-43.577501,-82.002564,-41.03767,-79.424437,-35.000213,-70.078995,-26.933375,-58.627824,45.046028,288.196812,-45.433159,-37.078772
81,0.123024,0.150955,-0.814534,4.633942,0.0,-62.899269,-31.99347,-88.763237,-26.51072,-90.330769,-19.272812,-80.705876,-11.511063,-61.640408,0.0,23.864718,30.738601,40.158664,47.953628,52.389938,59.675956,65.850553,66.885872,73.943166,0.0,16.454204,-15.636499,-18.942984,-30.525045,-30.036382,-42.339873,-37.731254,-50.678302,-47.274015,0.0,-46.057632,-43.498238,-79.958984,-40.839074,-77.065058,-34.662568,-67.729842,-26.443583,-56.535585,45.189583,288.359555,-46.227162,-32.433042
82,0.126228,0.099714,-0.814533,4.633942,0.0,-62.722996,-31.83886,-88.653133,-26.340866,-90.214977,-19.093941,-80.572472,-11.342697,-61.59708,0.0,24.008005,30.545249,40.439691,47.741751,52.50892,59.510046,65.89878,66.778538,73.903412,0.0,16.249695,-14.875345,-17.182932,-29.83406,-28.376484,-41.807298,-36.411753,-50.391798,-46.173219,0.0,-45.98875,-43.418976,-77.915404,-40.640478,-74.705679,-34.324923,-65.380688,-25.953791,-54.443347,45.366674,288.505393,-46.990832,-27.752976
83,0.192673,0.13537,-0.814533,4.633942,0.0,-62.470528,-31.785805,-88.535775,-26.275017,-90.167828,-19.008362,-80.439995,-11.241852,-61.448582,0.0,24.203049,30.579693,40.697238,47.719532,52.782918,59.47339,65.957455,66.749317,73.761385,0.0,16.045186,-14.114191,-15.42288,-29.143076,-26.716585,-41.274724,-35.092251,-50.105294,-45.072424,0.0,-45.919869,-43.339714,-75.871823,-40.441881,-72.3463,-33.987279,-63.031534,-25.463998,-52.351108,45.630993,288.694221,-47.733719,-23.065576
84,0.197708,-0.014166,-0.814533,4.633943,0.0,-62.402378,-31.650124,-88.515976,-26.015351,-90.06181,-18.664238,-80.21624,-10.880402,-61.026982,0.0,24.393055,30.654633,41.091268,47.793473,53.241983,59.559236,66.26107,66.829766,73.864188,0.0,15.840676,-13.353037,-13.662828,-28.452092,-25.056687,-40.74215,-33.772749,-49.818789,-43.971628,0.0,-45.850988,-43.260452,-73.828244,-40.243286,-69.986922,-33.649635,-60.682381,-24.974207,-50.25887,45.956354,288.725802,-48.420599,-18.385886
85,0.247169,0.149522,-0.814534,4.633942,0.0,-62.344677,-31.600387,-88.469558,-25.949203,-90.100788,-18.572204,-80.185501,-10.743164,-60.782867,0.0,24.259366,30.663896,41.070879,47.746666,53.307624,59.481554,66.41673,66.729595,74.166037,0.0,15.636168,-12.591881,-11.902775,-27.761106,-23.396787,-40.209574,-32.453246,-49.532284,-42.870831,0.0,-45.782107,-43.18119,-71.784664,-40.04469,-67.627544,-33.311991,-58.333227,-24.484414,-48.166631,46.350689,288.905706,-49.087967,-13.721562
86,0.184365,0.384829,-0.814533,4.633942,0.0,-62.46991,-31.481438,-88.398388,-25.949044,-90.196885,-18.69674,-80.399105,-10.949044,-60.899609,0.0,24.198517,30.472025,40.589694,47.554375,52.923857,59.333464,66.41342,66.651011,74.53912,0.0,15.431659,-11.830727,-10.142723,-27.070122,-21.736889,-39.677,-31.133744,-49.24578,-41.770035,0.0,-45.713225,-43.101927,-69.741083,-39.846093,-65.268165,-32.974346,-55.984073,-23.994622,-46.074392,46.5903,289.250736,-49.847254,-9.127419
87,0.285461,0.553135,-0.814533,4.633942,0.0,-62.319546,-31.26693,-88.441852,-25.89315,-90.314232,-18.798866,-80.531433,-11.172684,-60.968388,0.0,23.989924,30.21029,40.159566,47.318193,52.464361,59.141766,66.325303,66.511332,74.823728,0.0,15.227149,-11.069573,-8.382672,-26.379137,-20.07699,-39.144425,-29.814242,-48.959276,-40.669239,0.0,-45.644344,-43.022665,-67.697503,-39.647497,-62.908786,-32.636702,-53.634919,-23.504829,-43.982154,46.690853,289.579202,-50.846695,-4.718146
88,0.341126,0.696693,-0.814533,4.633942,0.0,-62.115292,-31.090142,-88.497792,-25.948014,-90.539132,-19.084717,-80.845322,-11.648278,-61.542332,0.0,23.624386,29.630701,39.434591,46.78646,51.530003,58.70424,65.842785,66.217573,74.874598,0.0,15.02264,-10.308418,-6.62262,-25.688153,-18.417092,-38.611851,-28.49474,-48.672772,-39.568444,0.0,-45.575462,-42.943403,-65.653923,-39.448901,-60.549407,-32.299057,-51.285765,-23.015037,-41.889915,46.738736,289.697862,-51.954471,-0.662237
89,0.333183,0.938903,-0.814533,4.633942,0.0,-61.74559,-30.799828,-88.43581,-25.883515,-90.649052,-19.26844,-81.06847,-12.035729,-62.049854,0.0,23.130296,29.105081,38.656462,46.287269,50.542934,58.220264,65.333023,65.72762,74.656013,0.0,14.818131,-9.547264,-4.862568,-24.997168,-16.757193,-38.079277,-27.175238,-48.386267,-38.467648,0.0,-45.506581,-42.86414,-63.610343,-39.250304,-58.190029,-31.961412,-48.936611,-22.525245,-39.797676,46.612032,289.965661,-53.228891,3.300601
90,0.370903,0.883056,-0.814534,4.633943,0.0,-61.501248,-30.407799,-88.536644,-25.699448,-90.766148,-19.367615,-81.343678,-12.430939,-62.709709,0.0,22.812417,28.834577,38.020988,46.053729,49.822949,57.988206,64.862361,65.487781,74.409938,0.0,14.613622,-8.786109,-3.102515,-24.306183,-15.097294,-37.546701,-25.855735,-48.099762,-37.366851,0.0,-45.437701,-42.784879,-61.566763,-39.051709,-55.830651,-31.623769,-46.587458,-22.035453,-37.705438,46.031233,290.135707,-54.995127,7.221534
91,0.575317,0.616886,-0.814533,4.633942,0.0,-61.149353,-30.269485,-88.953918,-25.603592,-90.877693,-19.335502,-81.333217,-12.455795,-62.717434,0.0,22.282809,28.793649,38.06614,45.956349,49.841203,57.808081,64.866239,65.198321,74.025912,0.0,14.409113,-8.024955,-1.342463,-23.615198,-13.437395,-37.014127,-24.536233,-47.813258,-36.266055,0.0,-45.368819,-42.705616,-59.523183,-38.853112,-53.471272,-31.286124,-44.238304,-21.545661,-35.6132,45.137312,290.053232,-57.278898,11.156115
92,0.333344,0.373059,-0.814533,4.633942,0.0,-61.012505,-29.989723,-89.021782,-25.34523,-90.77718,-19.112686,-81.16198,-12.259896,-62.571751,0.0,21.89141,28.766565,38.22595,45.904207,50.277643,57.690224,65.087417,64.975389,73.958432,0.0,14.204604,-7.2638,0.417588,-22.924214,-11.777496,-36.481552,-23.216731,-47.526754,-35.165259,0.0,-45.299938,-42.626354,-57.479603,-38.654516,-51.111893,-30.94848,-41.88915,-21.055868,-33.520961,43.853251,289.856699,-59.710836,15.220465
93,0.301071,0.232688,-0.814533,4.633942,0.0,-61.26844,-29.707581,-89.252094,-25.003235,-90.89946,-18.750389,-81.23782,-11.910965,-62.472141,0.0,21.724388,28.897563,38.574988,46.085703,51.085832,57.79205,65.656706,64.890914,74.162405,0.0,14.000094,-6.502646,2.17764,-22.233229,-10.117598,-35.948978,-21.897229,-47.24025,-34.064463,0.0,-45.231056,-42.547092,-55.436022,-38.45592,-48.752514,-30.610835,-39.539996,-20.566076,-31.428722,42.115254,289.865199,-62.564437,19.630219
94,0.351334,0.216114,-0.814534,4.633942,0.0,-61.734948,-29.863404,-89.617459,-25.136101,-91.398869,-18.842881,-81.690217,-11.977135,-62.777298,0.0,21.611533,28.872208,38.719707,46.23225,51.890749,58.023244,66.220302,65.127468,74.366577,0.0,13.795586,-5.741491,3.937693,-21.542244,-8.457698,-35.416402,-20.577726,-46.953745,-32.963667,0.0,-45.162175,-42.467829,-53.392442,-38.257323,-46.393136,-30.273191,-37.190842,-20.076283,-29.336483,40.393216,290.194517,-65.452343,24.377365
95,0.38388,0.227032,-0.814533,4.633942,0.0,-62.130775,-30.223045,-90.234718,-25.44532,-91.863499,-19.012276,-81.933586,-12.034378,-63.005024,0.0,21.326394,28.671939,38.725153,46.229063,52.412588,58.167332,66.708056,65.323859,74.702116,0.0,13.591077,-4.980337,5.697745,-20.851259,-6.7978,-34.883828,-19.258224,-46.66724,-31.862871,0.0,-45.093293,-42.388567,-51.348862,-38.058727,-44.033757,-29.935546,-34.841688,-19.586491,-27.244244,38.987057,291.159544,-68.056915,29.749302
96,0.258133,0.166726,-0.814533,4.633943,0.0,-62.669071,-30.35955,-90.604065,-25.580658,-92.327213,-19.081924,-82.371139,-12.077316,-63.669479,0.0,21.157025,28.490924,38.737293,46.348266,52.845632,58.467562,67.099899,65.699153,75.257413,0.0,13.386567,-4.219182,7.457797,-20.160275,-5.137901,-34.351254,-17.938722,-46.380736,-30.762075,0.0,-45.024413,-42.309305,-49.305282,-37.860132,-41.674379,-29.597903,-32.492535,-19.0967,-25.152007,37.874399,292.01777,-70.242239,35.074745
97,0.219956,0.259537,-0.814533,4.633942,0.0,-63.403073,-30.675957,-91.097535,-25.928055,-92.868027,-19.420578,-82.791333,-12.42492,-64.395997,0.0,20.639951,28.307698,38.67285,46.375016,52.992783,58.706487,67.393016,66.105051,75.686739,0.0,13.182058,-3.458028,9.217848,-19.46929,-3.478003,-33.818679,-16.61922,-46.094232,-29.661279,0.0,-44.955531,-42.230043,-47.261702,-37.661535,-39.315,-29.260258,-30.143381,-18.606907,-23.059768,36.857644,292.608418,-72.293483,40.039798
98,-0.047631,0.205135,-0.814534,4.633942,0.0,-63.91531,-30.956932,-91.395927,-26.226928,-92.973587,-19.679901,-82.845943,-12.662521,-64.763729,0.0,20.058275,28.060387,38.786051,46.279365,53.176873,58.818638,67.759727,66.37858,76.139443,0.0,12.97755,-2.696873,10.977901,-18.778305,-1.818103,-33.286104,-15.299717,-45.807727,-28.560482,0.0,-44.88665,-42.150781,-45.218122,-37.462939,-36.955622,-28.922613,-27.794228,-18.117115,-20.967529,35.810148,292.783638,-74.107882,44.643825
99,-0.12458,0.097454,-3.555748,9.32608,0.0,-64.361389,-31.167458,-91.827038,-26.526329,-93.117279,-20.006401,-82.979508,-12.992867,-65.283199,0.0,19.455752,27.978729,38.717126,46.233497,52.980705,58.851082,67.782155,66.517569,76.579823,0.0,14.429339,1.941052,15.523684,-11.858322,4.523095,-24.678319,-7.811826,-36.099577,-19.76272,0.0,-44.889711,-40.232839,-42.606051,-34.522428,-33.583071,-25.264688,-23.91367,-13.955616,-16.746231,34.690201,292.416374,-78.658997,53.505187
100,-0.422379,-0.001951,-6.296962,14.018218,0.0,-64.854789,-31.27462,-92.024048,-26.67881,-93.411232,-20.203079,-83.402183,-13.209572,-65.753757,0.0,18.900899,27.800418,38.90418,46.14854,53.137736,58.867347,68.052548,66.593731,76.865134,0.0,17.537426,10.455746,22.855197,1.290659,15.545591,-7.995326,5.844453,-16.969781,-3.267991,0.0,-44.964714,-36.476219,-39.42549,-28.840003,-29.197348,-18.286482,-18.501707,-6.122411,-10.395874,33.163839,290.998567,-86.059942,66.107549
101,-0.526725,0.028911,-4.34673,18.670147,0.0,-65.275921,-31.712906,-92.462918,-27.153008,-93.902104,-20.732003,-84.02789,-13.796082,-66.387772,0.0,18.237342,27.586157,38.633096,45.946839,52.812608,58.749392,67.867445,66.57596,76.763049,0.0,21.154067,19.581338,31.42532,14.397282,27.753968,7.94865,20.499522,0.715559,13.78337,0.0,-42.723075,-30.342814,-34.205594,-20.710855,-22.842433,-8.892024,-11.028068,3.962748,-1.947873,31.249913,289.375821,-91.793873,83.126039
102,-0.816628,-0.261686,-2.396495,23.322076,0.0,-65.699936,-31.645065,-92.790859,-27.088303,-94.347668,-20.787872,-84.844448,-14.072891,-67.381107,0.0,17.929554,27.348455,38.477769,45.899798,52.50046,58.85459,67.521248,66.757642,76.484777,0.0,25.27926,29.317823,41.234052,27.461545,41.148222,23.153606,36.153379,16.956442,31.391361,0.0,-38.164796,-21.832625,-26.946361,-10.134984,-14.518325,2.918685,-1.492752,16.299861,8.597772,28.936684,287.727072,-95.686969,105.061052
103,-0.557281,-0.185189,-0.120318,26.785599,0.0,-66.029091,-31.999032,-93.419369,-27.559456,-95.020924,-21.350693,-85.62624,-14.717949,-68.050633,0.0,17.375714,26.956772,38.110613,45.528542,52.121028,58.585419,67.111064,66.625607,76.011793,0.0,30.018488,36.739346,49.97006,37.924215,53.242647,35.924503,50.234591,31.215168,47.581696,0.0,-30.144251,-11.500489,-16.349002,2.684692,-3.081296,17.019516,10.355276,30.742307,21.30497,26.791146,286.360975,-97.395544,130.665743
104,-0.738991,-0.394523,4.897076,25.556986,0.0,-66.028244,-32.112877,-93.788487,-27.624573,-95.273575,-21.41565,-85.958016,-14.791031,-68.194199,0.0,17.335884,26.588875,38.630119,45.175712,52.329991,58.276321,67.158414,66.325907,75.808523,0.0,33.71545,37.969133,54.847612,39.556291,59.355943,38.18613,56.574766,34.070091,54.657406,0.0,-18.589498,-1.185089,-2.982008,15.006258,10.455481,30.090185,22.984608,43.618379,34.04466,24.274504,284.948944,-94.276119,155.205221
105,-0.677605,0.606734,7.815582,22.03356,0.0,-61.026043,-31.862022,-93.952022,-27.807175,-95.827606,-21.929283,-86.726658,-15.581108,-68.630161,0.0,14.643197,25.138556,37.925943,43.136591,51.426509,56.126123,65.422993,64.522549,74.324229,0.0,37.451363,31.821917,61.070807,30.859182,64.511622,28.292645,60.043264,24.127739,54.617844,0.0,-6.204972,7.315052,13.072951,24.345884,27.130117,39.343385,39.21295,51.861503,48.259685,21.79656,284.834155,-88.260876,176.517258
106,-1.444405,3.29599,9.185932,23.401047,0.0,-59.454036,-30.188072,-93.001018,-26.474372,-94.768787,-20.994758,-85.135013,-14.891967,-66.464607,0.0,17.140062,22.565491,34.211211,38.553586,47.352847,50.411011,60.224523,58.274618,68.931244,0.0,37.536324,28.736189,58.303551,28.706612,56.005348,26.888981,49.584664,23.616961,45.357708,0.0,0.286139,14.133527,26.213383,33.612114,42.015474,50.292839,55.177791,63.32301,65.51623,18.859657,287.679985,-80.567442,199.468145
107,-0.102859,10.114335,5.558853,18.153472,0.0,-58.896709,-29.119698,-92.985157,-25.718925,-93.877647,-20.527817,-84.097446,-14.600075,-65.459095,0.0,19.495358,19.593801,28.458381,28.507016,32.93,34.065282,38.790695,36.471016,42.780957,0.0,41.953286,22.600027,62.795792,21.03843,59.226483,18.950672,50.921528,16.488036,42.262402,0.0,9.239579,19.139905,39.390662,39.794479,55.861955,56.601484,67.656796,68.908261,77.205522,17.544806,297.481986,-76.220581,217.309283
108,-2.718063,5.067115,3.253607,15.917114,0.0,-56.88572,-27.221146,-85.182942,-23.423928,-86.227707,-17.971939,-76.128559,-11.618569,-59.117432,0.0,16.207396,17.785243,21.23777,23.71243,23.301395,26.994279,27.82791,27.692738,32.19627,0.0,46.893631,19.352097,67.964562,16.025173,63.232556,13.001827,53.281368,10.486256,40.842797,0.0,14.933831,23.112142,49.91061,43.846782,66.848291,59.998676,78.229843,71.036661,85.472364,13.90444,302.411367,-73.889277,233.088663
109,-2.20942,11.461729,2.015396,13.437359,0.0,-58.347484,-31.190082,-70.070583,-27.564537,-68.62611,-21.980598,-59.261055,-15.043979,-49.744995,0.0,15.987243,11.105021,16.319312,10.31343,13.997695,7.816651,12.449772,3.719832,9.965133,0.0,51.261578,18.517765,73.996571,13.537068,68.108837,9.12481,56.687268,5.699341,40.162915,0.0,17.982621,26.082386,56.797337,46.041181,74.661003,61.158324,86.387665,70.929141,91.558744,10.987884,313.779226,-72.581017,246.432152
110,-2.115371,8.369774,2.333393,13.103931,0.0,-62.310036,-35.55177,-52.854149,-32.643849,-47.782917,-27.170208,-39.565934,-19.971829,-36.910527,0.0,20.117457,6.820976,16.0701,1.709869,10.598668,-4.644816,4.352083,-12.145429,-2.767246,0.0,54.518864,21.390885,75.693444,15.456517,69.335885,9.708229,56.950905,4.725758,39.630204,0.0,19.727516,28.952891,59.939705,48.380682,77.614995,62.741457,89.109723,71.817397,94.138676,8.446009,322.106695,-70.674128,259.493778
111,-0.066674,2.173158,-0.476703,7.128851,0.0,-53.63079,-39.281707,-34.680015,-38.359119,-28.652286,-33.852001,-24.235427,-27.210491,-29.972614,0.0,20.394247,5.410225,19.908147,-0.56819,13.322355,-7.579517,5.242993,-15.63271,-3.982124,0.0,60.705551,21.230678,84.889755,11.619541,82.876968,3.235611,70.069748,-3.697712,48.071159,0.0,25.043163,31.35902,63.362456,48.58867,79.330779,60.390964,88.904464,67.350149,90.730633,8.099784,324.247761,-71.430382,266.590537
112,-4.371391,-7.844451,1.621032,7.733127,0.0,-45.32951,-40.472374,-13.098083,-41.634464,-5.935581,-38.842209,-5.277191,-33.858742,-18.088497,0.0,17.558445,6.510395,27.596358,7.382002,29.982678,6.477099,26.554443,3.907615,20.323851,0.0,62.227112,23.152611,85.708214,13.122666,83.559128,4.042431,70.71579,-3.652587,50.307507,0.0,25.123192,32.928506,63.863734,49.294737,78.572842,60.158721,88.316625,66.298108,88.908034,3.506658,316.354654,-70.031085,274.275008
113,-4.557175,-2.355717,2.135182,6.055653,0.0,-33.20129,-40.608776,4.540444,-44.828167,13.598511,-44.532177,9.450257,-41.872421,-8.941772,0.0,19.29404,6.661943,36.135637,10.592085,40.76488,12.117568,37.013963,11.639261,29.195187,0.0,62.578297,23.953171,86.155689,14.096226,84.277393,4.993469,71.667583,-2.790047,52.371986,0.0,24.864866,33.665102,62.886509,50.003174,76.736978,60.719353,86.214592,66.71974,87.426814,-1.191531,313.920307,-68.036917,280.252031
114,-6.392154,-5.887494,1.442287,3.993819,0.0,-17.004879,-32.989311,13.993824,-39.275952,23.906833,-40.688679,16.261242,-39.714707,-2.225659,0.0,18.317037,8.513505,37.263274,19.717475,47.446386,27.956387,47.951455,33.414346,45.997363,0.0,62.926209,24.448677,86.645462,14.799225,85.128502,5.921585,72.825486,-1.498981,54.558426,0.0,23.992567,33.697188,61.687921,50.437193,74.394488,61.329423,83.815415,67.322905,85.719996,-7.532598,307.914332,-66.543543,284.127369
115,-9.05698,-2.728516,1.185048,2.180086,0.0,0.377163,-21.561905,27.158477,-28.507267,35.437385,-31.448548,25.958381,-32.056309,7.016532,0.0,11.217691,10.308256,36.806654,25.860591,50.510985,37.866007,54.007071,46.648274,55.044008,0.0,62.532497,24.925575,86.885112,15.415454,85.564807,6.577171,73.396579,-0.754315,55.423381,0.0,23.787235,33.83851,60.331104,50.850353,72.040019,61.807803,81.250303,67.683132,83.726001,-16.40744,305.070667,-65.176357,286.192306
116,-1.811303,-2.493667,0.948989,1.214087,0.0,-1.925972,-21.153682,29.036637,-27.997993,38.178933,-31.187793,28.453469,-32.354255,10.299591,0.0,6.230814,12.227767,37.854497,30.544829,53.438955,44.342403,57.198715,54.396012,58.634918,0.0,62.376721,24.502888,87.083622,14.996189,85.625965,6.261635,73.427708,-0.76926,55.424183,0.0,23.408865,33.744378,59.174136,50.997838,70.437572,62.010135,79.40546,67.713761,82.048427,-17.951043,302.510341,-63.959668,287.339734
117,-1.848678,3.826932,0.543732,0.289141,0.0,4.184429,-19.160259,30.378525,-25.667221,40.809654,-28.244042,31.559074,-28.386326,13.773399,0.0,2.899849,9.979275,32.553373,28.012877,48.665759,41.975794,53.446303,52.387815,54.792228,0.0,62.206226,24.32539,86.919994,14.702522,85.515301,5.893089,73.213085,-1.177906,54.937901,0.0,23.380175,33.797754,58.207457,51.134083,69.583143,62.153592,78.79355,67.7867,81.852875,-19.470217,306.30402,-63.086432,287.595622
118,2.983063,-0.005088,0.195923,-0.089761,0.0,-0.23457,-21.282887,27.494522,-27.65696,37.542709,-30.069008,29.109443,-30.092057,11.03302,0.0,3.37571,9.829678,32.784591,27.579784,49.318696,41.285004,53.38107,51.41632,54.373399,0.0,62.075832,24.539955,87.175449,14.84008,85.593189,5.886257,73.013981,-1.391155,54.242557,0.0,23.320932,33.924281,57.549816,51.149892,69.201291,62.073367,78.902046,67.642427,82.075276,-16.042745,306.256,-62.4461,287.462929
119,1.177448,0.182213,0.009842,-0.081881,0.0,0.839836,-22.234863,26.662136,-28.543305,37.198643,-30.814236,29.383632,-30.603356,11.727619,0.0,1.983065,10.520541,32.264652,27.580945,49.255859,40.661696,53.755623,50.279359,54.540891,0.0,61.876064,25.004745,87.173549,15.268696,85.503353,6.114143,72.687984,-1.485272,53.682804,0.0,23.16174,33.767744,57.088849,50.910152,68.876434,61.77305,78.954546,67.351014,82.207595,-14.332254,306.389693,-61.903215,287.332528
120,4.778972,-4.56564,0.075256,-0.080374,0.0,-3.43674,-27.095432,21.373261,-34.174839,31.746506,-37.019187,23.0934,-37.784454,4.936821,0.0,4.190025,12.426394,34.205776,30.286329,51.487432,43.945595,56.816011,53.862871,57.682937,0.0,61.869198,24.970539,87.122212,15.249413,85.427571,6.088886,72.488262,-1.533531,53.429203,0.0,22.982836,33.609156,56.871289,50.774795,68.928835,61.631382,79.066092,67.20653,82.156021,-8.876605,301.808053,-61.151282,287.236154
121,-6.397441,1.185398,-0.098579,-0.118042,0.0,6.209346,-21.284295,26.859523,-28.27295,38.209682,-31.026593,28.914127,-31.43668,10.557666,0.0,5.254009,9.328771,30.374608,28.092819,48.511099,42.917265,54.754757,54.074527,56.261035,0.0,62.166996,24.75951,86.990032,15.171272,85.669109,6.190063,72.901806,-1.290425,53.733272,0.0,23.103879,33.31825,56.435751,50.503476,68.615773,61.413625,79.047332,67.082226,82.439591,-14.386425,302.967544,-60.36224,287.092205
122,-4.59755,-1.675881,0.072555,-0.025157,0.0,10.528965,-17.103161,33.122898,-23.658829,43.192578,-26.503269,34.119976,-27.16008,16.128948,0.0,6.264245,10.391865,33.222635,29.235423,51.237058,44.016792,56.440605,55.035832,58.637598,0.0,62.37537,24.59911,86.810337,15.143223,85.519558,6.341034,72.918904,-0.972152,53.92606,0.0,23.139262,33.055625,56.261763,50.280236,68.416653,61.269191,78.778285,67.035506,82.289031,-17.943678,301.229996,-59.249388,287.005381
123,-1.711624,5.960458,0.179066,-0.122353,0.0,8.988602,-16.643074,34.282185,-22.710937,45.568897,-25.035919,37.392117,-25.106918,19.270809,0.0,10.728208,9.430412,31.111858,23.128111,45.244626,33.042448,47.561069,39.72367,46.057311,0.0,62.461212,24.24955,86.588448,14.795025,85.271576,6.128002,72.905205,-0.995144,53.993088,0.0,23.428823,32.767412,56.201372,50.09128,68.071271,61.167723,78.392976,66.989959,82.142029,-18.58857,307.160319,-58.00359,286.852893
124,2.779449,-1.18194,0.164154,0.046165,0.0,2.75449,-20.206775,33.808949,-26.716552,43.194798,-29.509471,35.263264,-30.217781,17.156033,0.0,14.57306,12.146442,35.978717,23.692361,47.135498,31.181772,47.233298,35.682315,44.294546,0.0,62.623467,23.87994,86.465927,14.509964,85.081833,6.039951,72.998772,-0.859989,54.196953,0.0,23.590411,32.540121,56.015861,49.896012,67.715341,61.01657,78.025573,66.86505,81.98454,-14.772332,305.991017,-56.802647,286.911696
125,1.847489,5.820532,0.139126,0.196947,0.0,-4.423966,-24.245911,30.975368,-30.159199,41.797565,-31.707939,35.146007,-30.728245,17.261021,0.0,20.216184,11.50073,35.189201,18.231612,42.951845,21.204808,39.524438,21.798513,33.402786,0.0,62.721325,23.522701,86.392651,14.19033,84.757519,5.905952,72.996517,-0.76062,54.397167,0.0,23.568045,32.27163,55.664254,49.696398,67.096268,60.874383,77.36714,66.739462,81.614383,-11.983223,311.829947,-55.721901,287.127041
126,4.815342,5.309733,0.146862,0.191068,0.0,-17.520275,-30.962837,26.097999,-36.272129,37.397415,-37.020058,32.474899,-35.319775,14.585609,0.0,23.776638,13.005439,36.711262,12.9634,39.538159,9.375602,32.00488,4.091681,21.541137,0.0,62.520973,23.592361,86.502708,14.200333,84.456619,5.894977,72.847687,-0.753422,54.434647,0.0,23.313139,32.098457,55.539926,49.592101,66.730311,60.823674,76.88981,66.716071,81.091505,-6.394249,317.172602,-54.801407,287.351031
127,4.500732,0.589062,0.340233,0.181929,0.0,-21.96223,-35.099601,19.17762,-40.599998,32.182434,-41.060428,26.960243,-38.973221,8.311318,0.0,23.524894,12.163707,33.734386,12.246267,37.608841,8.915117,30.554733,3.910542,19.655761,0.0,62.235649,23.503441,86.419967,14.051319,84.131767,5.710018,72.511184,-0.942662,54.128059,0.0,23.362157,32.023134,55.468357,49.564573,66.632214,60.796035,76.581181,66.657137,80.700736,-1.201716,317.828154,-53.769373,287.59945
128,2.7006,-1.813869,0.132889,0.174729,0.0,-26.142082,-38.014,16.472031,-43.21344,29.57,-43.234737,24.333572,-40.658661,6.023964,0.0,22.349351,12.111096,34.19576,14.19017,39.611135,12.806195,33.494152,9.664495,24.507009,0.0,62.118667,23.601928,86.377693,14.158344,84.074203,5.782322,72.310318,-0.921868,54.095237,0.0,23.138188,31.861693,55.166929,49.454843,66.211793,60.734729,76.146928,66.676909,80.445991,2.171305,316.079111,-52.964063,287.839005
129,-0.79628,0.980658,0.20605,0.149559,0.0,-22.414272,-34.433842,16.232117,-38.785618,30.153076,-38.393566,24.085854,-35.613087,5.584145,0.0,16.526238,11.00275,30.709357,15.001769,37.702826,15.596252,33.716281,14.204336,26.082053,0.0,61.997853,23.469738,86.374226,14.039303,84.093647,5.674633,72.122052,-0.997135,53.993763,0.0,23.071053,31.88979,55.038921,49.496945,66.185858,60.773533,75.821331,66.724062,80.106513,1.992084,317.132412,-52.140954,288.061207
130,1.578941,-0.069654,0.092995,0.008781,0.0,-25.575416,-35.521968,14.553246,-39.587654,28.465325,-38.945823,22.699356,-36.009418,4.485169,0.0,16.038101,10.536979,30.807416,15.123491,38.098682,16.273703,34.380406,15.39439,27.044605,0.0,61.835438,23.537247,86.496128,14.092976,84.229077,5.684372,72.062496,-1.029236,53.97591,0.0,23.157245,31.899868,55.022655,49.489164,66.039979,60.746351,75.658346,66.706426,80.04596,4.142572,317.144361,-51.476412,288.151591
131,-1.394439,-3.950261,0.102562,0.048647,0.0,-16.58226,-29.41626,16.144134,-33.565739,29.574852,-33.683625,22.322021,-31.701714,4.179153,0.0,8.944696,10.863577,28.995067,20.996944,40.431268,27.504572,40.79252,31.447929,37.586896,0.0,61.618023,23.51437,86.358296,14.090229,84.140614,5.671978,71.818874,-1.056518,53.885388,0.0,23.372531,31.992518,54.905256,49.575158,65.92952,60.825144,75.435082,66.805943,79.877468,3.309866,313.301651,-50.812117,288.307789
132,3.606697,4.076997,-0.137592,0.009226,0.0,-29.356156,-35.173577,13.584617,-38.914364,26.651344,-38.453133,20.491012,-35.941281,3.037216,0.0,13.514745,10.850795,31.416189,16.350756,37.936119,18.279518,35.407476,18.167218,29.059337,0.0,61.477661,23.616256,86.371559,14.243316,84.310776,5.825981,71.938453,-0.937203,54.187271,0.0,23.345768,31.999644,54.626613,49.577084,65.582383,60.865924,75.296439,66.931135,79.96619,7.428606,317.501784,-50.437666,288.440151
133,-1.247498,-3.390357,-0.127774,-0.067049,0.0,-20.913139,-31.053497,14.565766,-34.767483,27.54522,-34.5088,20.76883,-32.185249,4.03537,0.0,9.711475,11.446563,31.337939,20.05956,40.337419,25.083796,40.371703,27.665457,35.990474,0.0,61.389416,23.739625,86.379376,14.391964,84.315045,5.990685,71.976437,-0.750938,54.256932,0.0,23.377471,32.127616,54.624415,49.666709,65.69966,60.945298,75.416902,66.976979,80.003538,6.654098,314.261592,-50.09245,288.523267
134,1.7295,-1.456643,-0.141883,-0.038866,0.0,-28.995243,-36.217289,13.449989,-40.241879,26.181175,-39.74049,20.27552,-37.046391,3.492897,0.0,15.138583,11.469547,34.610983,19.495124,42.961615,24.028098,41.542232,26.231501,36.516144,0.0,61.213474,23.691146,86.345707,14.416317,84.274829,6.092331,72.009876,-0.567215,54.390415,0.0,23.251179,32.102199,54.540187,49.679924,65.664092,61.009568,75.4995,67.063653,80.143106,8.833014,312.958745,-49.784917,288.638197
135,-3.12561,-1.671645,0.006889,0.064283,0.0,-18.451069,-31.490399,16.324539,-35.623776,29.787346,-35.245297,22.912902,-32.571602,6.349434,0.0,8.874386,10.778781,31.509395,22.430998,42.753738,30.574469,44.506362,36.0038,42.12455,0.0,61.053234,23.607376,86.154087,14.333965,84.087101,6.024227,71.849178,-0.616608,54.298382,0.0,23.23831,31.978204,54.402434,49.57412,65.751999,60.995883,75.571599,67.112472,80.067523,6.101303,311.417992,-49.384129,288.833372
136,2.318252,-2.624714,0.089561,0.091575,0.0,-25.307625,-37.410312,14.655716,-42.141907,27.597725,-41.67128,21.106293,-38.765465,4.443352,0.0,13.064967,11.523257,35.315024,23.340829,46.167153,31.56297,47.194581,37.039874,44.548143,0.0,60.816227,23.451863,86.009526,14.135033,83.864926,5.797944,71.611096,-0.850078,54.058972,0.0,23.294985,31.853605,54.418379,49.433095,65.915268,60.882251,75.747094,66.992195,80.105438,8.746341,308.882347,-48.967782,289.014016
137,-3.314232,-2.943123,0.088978,-0.013054,0.0,-13.277916,-31.847717,17.711197,-37.255645,31.018639,-37.446224,23.172341,-35.152668,6.317391,0.0,6.920344,10.855302,32.171236,27.310873,47.071067,40.095296,51.673362,49.60833,52.220446,0.0,60.476715,23.238625,85.864266,13.83704,83.504196,5.459027,71.207497,-1.192531,53.624062,0.0,23.375891,31.692436,54.471793,49.273223,65.96,60.755959,75.917871,66.856579,80.239745,5.69985,306.011787,-48.611063,289.073525
138,-4.797008,2.706755,0.228035,0.152882,0.0,-8.822674,-28.03299,23.397571,-33.287018,36.133175,-33.565315,28.439426,-31.456936,11.335819,0.0,3.587045,9.371119,29.921101,25.524694,44.526963,37.994547,48.939622,47.354724,49.822826,0.0,59.964981,22.938412,85.786263,13.465943,83.014069,5.035675,70.637879,-1.654793,53.155792,0.0,23.588843,31.605343,54.591921,49.147894,66.139594,60.632865,75.983462,66.729706,80.148021,1.120411,308.759538,-48.165459,289.267403
139,-0.163033,-1.053845,0.118286,0.069889,0.0,-5.936989,-27.872532,23.4306,-33.2975,35.848446,-33.726928,27.883404,-31.751667,10.833012,0.0,1.091995,9.776511,29.537211,26.893392,45.090929,40.184797,50.230045,50.21241,51.624592,0.0,59.562195,22.888253,85.453743,13.29514,82.475327,4.744458,70.08133,-2.043411,52.690888,0.0,23.743503,31.532453,54.492825,49.032433,66.003336,60.51365,75.98492,66.623224,80.022581,1.148351,307.72921,-47.8562,289.360809
140,-0.473831,0.230119,0.040604,0.01671,0.0,-5.510536,-27.801453,23.258618,-33.675213,36.097218,-34.333568,27.960835,-32.399322,10.627476,0.0,1.782895,8.661817,28.262374,25.996096,44.394076,39.582508,50.150659,49.913068,51.60461,0.0,59.073692,22.711521,85.325386,13.07563,82.075745,4.48645,69.625397,-2.294609,52.304581,0.0,23.782146,31.66345,54.44582,49.124811,66.063913,60.53467,76.093822,66.5695,80.009749,0.846828,307.978197,-47.643288,289.396387
141,-5.60289,3.394359,-0.162838,-0.107965,0.0,4.18182,-20.649937,29.516316,-26.136074,41.435314,-26.951214,33.623234,-25.111622,16.686733,0.0,-3.112468,6.884158,25.184695,23.822914,41.174866,37.186691,47.311992,47.427169,49.356585,0.0,58.890942,22.816212,85.341831,13.130173,81.931995,4.480511,69.456013,-2.302288,52.218807,0.0,23.753606,31.728968,54.43289,49.234987,66.048031,60.668274,76.13301,66.694286,80.004588,-4.603981,311.397723,-47.654045,289.313589
142,2.218254,-2.190781,-0.092468,0.030826,0.0,-4.005317,-24.847755,28.19775,-30.322437,38.781155,-31.122539,31.244717,-29.385429,13.759358,0.0,2.065316,8.883686,29.645953,25.37459,44.498495,38.084937,49.243496,47.716037,50.88555,0.0,58.688312,22.728939,85.321209,13.015674,81.862621,4.356148,69.329281,-2.38226,52.095051,0.0,23.754643,31.819741,54.434075,49.350547,66.309643,60.771816,76.208567,66.765595,79.820695,-2.250847,309.222876,-47.611633,289.360349
143,2.778889,-0.035124,-0.187088,-0.111978,0.0,-6.653217,-27.616367,24.120026,-33.344067,36.059715,-33.928185,28.292999,-31.903107,10.938995,0.0,2.71808,8.935235,28.790833,25.664015,43.682303,38.608494,48.859075,48.451596,50.146102,0.0,58.704265,22.813373,85.291088,13.065731,81.980816,4.365291,69.409343,-2.375725,52.132313,0.0,23.729473,31.839365,54.34597,49.439356,66.308926,60.914102,76.290967,66.94377,79.893103,0.638094,309.206756,-47.688669,289.267375
144,-2.618866,4.597812,-0.174328,-0.073705,0.0,-0.884113,-23.214455,26.571281,-28.608902,38.044189,-29.059525,30.820404,-26.800541,14.148949,0.0,-1.933405,6.614408,24.365774,22.595439,38.810949,35.071283,44.521615,44.743225,46.190506,0.0,58.586517,22.968098,85.546348,13.218601,82.15979,4.48843,69.489281,-2.301407,52.132919,0.0,23.731585,31.916305,54.456206,49.503971,66.519458,60.968405,76.409552,66.987687,79.97302,-1.889122,313.82388,-47.771347,289.212982
145,3.850342,-1.174172,-0.316395,0.225722,0.0,-11.474396,-28.090439,23.798286,-33.02393,33.76094,-33.2692,27.180771,-31.131558,10.383865,0.0,2.534139,9.068172,29.289715,23.423525,41.653,34.150362,44.950015,42.196132,45.793637,0.0,59.092793,22.834866,85.638554,13.285046,82.793324,4.783253,70.200131,-1.772484,52.808476,0.0,23.781764,31.696339,54.354059,49.331552,66.2699,60.856353,75.888688,66.92979,79.558675,2.050244,312.651407,-47.998718,289.440403
146,3.294845,-0.442923,-0.271751,0.294772,0.0,-14.058426,-29.821197,19.493729,-34.650821,30.589646,-34.775013,23.352356,-32.68214,6.789734,0.0,2.940975,10.035936,28.168537,24.735239,40.783813,35.559098,44.659689,43.590085,45.270363,0.0,59.44115,22.450458,85.727543,13.119335,83.417461,4.91494,70.957294,-1.340882,53.375255,0.0,23.738748,31.479162,54.060707,49.116241,65.804252,60.652292,75.253091,66.7343,79.276945,5.424717,312.194846,-48.190841,289.721537
147,0.560761,-0.041607,-0.187031,0.192772,0.0,-13.407658,-30.107071,19.117332,-34.898747,29.988075,-34.920033,22.914345,-32.749855,6.854416,0.0,2.041444,10.546871,28.50152,25.080658,41.026566,35.678264,44.661837,43.483244,45.283775,0.0,59.82724,22.25045,85.712013,13.105007,83.817078,5.126896,71.480553,-0.91135,53.846306,0.0,23.814417,31.433702,53.891796,49.064185,65.522683,60.584108,74.891159,66.648505,79.115295,6.067492,312.138805,-48.295858,289.899875
148,0.162918,-0.104371,-0.08408,0.16149,0.0,-13.296879,-30.045502,19.021339,-34.728527,30.022156,-34.715618,22.809791,-32.505295,6.669433,0.0,2.558875,10.951633,28.50441,25.47412,41.05733,36.0285,44.737692,43.727443,45.407091,0.0,60.014614,21.978287,85.659382,12.991814,84.199734,5.22955,71.966824,-0.57209,54.239514,0.0,23.845873,31.321711,53.731183,48.962309,65.244362,60.483084,74.385991,66.552816,78.92955,6.294474,312.014865,-48.315874,290.041796
149,-0.037422,-0.129972,-0.024422,0.100147,0.0,-12.823254,-30.641934,18.83979,-35.101204,30.754829,-34.733334,23.466613,-32.138558,7.337173,0.0,2.792712,10.713573,27.500472,25.543947,40.568353,36.357469,44.469016,44.303364,45.254629,0.0,60.302708,21.638455,85.498982,12.779023,84.532094,5.236977,72.445256,-0.300945,54.63715,0.0,23.961395,31.093802,53.663529,48.804142,64.894298,60.37707,73.863039,66.495252,78.743261,6.307898,311.865167,-48.28945,290.122217
150,-0.849335,0.904149,0.090558,-0.178607,0.0,-12.253246,-30.417973,19.484413,-34.762402,31.755501,-34.24728,24.575615,-31.497219,8.64727,0.0,3.259866,10.536646,27.020622,24.759643,39.606801,34.94278,43.148521,42.336861,43.422977,0.0,60.196403,21.660862,85.456466,12.67527,84.321189,5.037254,72.238746,-0.602177,54.305694,0.0,24.163751,30.976785,53.759711,48.718556,65.049897,60.308725,74.194726,66.442035,79.126496,5.494062,312.764283,-48.163393,289.938577
