takenoko1/special-research/HandMotion_SimilarSearch_自分用/NewProject/handData/test_key/d4_feature_d3/12.csv
frame,vel_0x_L,vel_0y_L,vel_0x_R,vel_0y_R,posFromWrist_0x_L,posFromWrist_1x_L,posFromWrist_2x_L,posFromWrist_3x_L,posFromWrist_4x_L,posFromWrist_5x_L,posFromWrist_6x_L,posFromWrist_7x_L,posFromWrist_8x_L,posFromWrist_9x_L,posFromWrist_0y_L,posFromWrist_1y_L,posFromWrist_2y_L,posFromWrist_3y_L,posFromWrist_4y_L,posFromWrist_5y_L,posFromWrist_6y_L,posFromWrist_7y_L,posFromWrist_8y_L,posFromWrist_9y_L,posFromWrist_0x_R,posFromWrist_1x_R,posFromWrist_2x_R,posFromWrist_3x_R,posFromWrist_4x_R,posFromWrist_5x_R,posFromWrist_6x_R,posFromWrist_7x_R,posFromWrist_8x_R,posFromWrist_9x_R,posFromWrist_0y_R,posFromWrist_1y_R,posFromWrist_2y_R,posFromWrist_3y_R,posFromWrist_4y_R,posFromWrist_5y_R,posFromWrist_6y_R,posFromWrist_7y_R,posFromWrist_8y_R,posFromWrist_9y_R,posFromBody_0x_L,posFromBody_0y_L,posFromBody_0x_R,posFromBody_0y_R
6,-5.672584,-3.462716,-0.226021,-0.622284,0.0,18.924545,4.094364,55.663513,-4.766133,51.743454,-15.359917,39.285049,-24.959072,-1.455769,0.0,-14.947873,15.66582,34.118116,36.021486,51.675326,50.526806,61.315554,61.877346,70.512092,0.0,72.207345,29.58117,93.371888,20.74759,90.222771,12.033806,76.811234,4.334244,56.734864,0.0,5.797302,32.240112,52.041654,50.372232,62.706148,62.021175,71.552339,68.229969,74.640835,-12.621511,276.331929,-47.570761,272.309631
7,2.065086,0.576502,-0.130542,-0.409232,0.0,15.592918,1.531689,52.736778,-6.752918,49.94941,-16.771786,38.507286,-25.736126,-3.725967,0.0,-14.999879,16.440405,34.06217,36.373685,51.460373,50.39934,60.47739,61.437165,70.100303,0.0,72.150753,29.840069,93.218731,20.945583,90.030979,12.073276,76.601406,4.137176,56.388187,0.0,6.25029,32.790543,52.293324,50.787416,63.010355,62.270548,72.020345,68.382208,75.094564,-10.064695,276.9378,-47.209573,271.929768
8,-0.398106,0.009423,0.007015,-0.088254,0.0,16.36163,2.457207,52.556591,-5.832698,49.449086,-15.920105,37.110409,-25.009975,-3.441455,0.0,-16.034297,16.422559,32.921109,36.530321,50.770547,50.689357,60.386531,61.759959,69.45222,0.0,72.326569,29.845573,93.217392,20.912384,89.969376,12.019501,76.510712,4.045864,56.226974,0.0,6.355908,32.790234,52.262646,50.89175,63.049134,62.414723,72.114947,68.504153,75.021378,-10.193848,276.975437,-46.933605,271.869728
9,-0.576129,0.117869,-0.096668,-0.139568,0.0,17.501541,3.630752,52.902786,-4.958085,49.455688,-15.390358,36.586921,-24.84462,-1.818364,0.0,-16.823195,16.454843,32.331108,36.676374,50.424745,50.942942,60.206924,62.013482,68.615144,0.0,72.424564,29.884254,93.377254,20.88866,90.047115,11.964225,76.650112,3.959964,56.388759,0.0,6.397219,32.733905,52.275848,50.939458,62.984506,62.514931,72.155961,68.602213,75.080374,-10.689153,277.119034,-46.949449,271.755888
10,-0.927441,-0.301156,-0.031266,0.030393,0.0,18.784618,4.6959,53.872204,-4.141457,49.559727,-14.746376,35.654308,-24.343975,-1.833618,0.0,-16.908844,16.667733,32.664906,37.103661,50.511454,51.436821,60.259028,62.433742,68.302279,0.0,72.659741,29.969536,93.432988,21.034642,90.010998,12.147149,76.561535,4.16058,56.443051,0.0,6.305989,32.757544,52.312776,50.960701,62.881247,62.565048,72.011466,68.675412,74.931075,-11.582239,276.848392,-46.94636,271.816795
11,-0.15231,-0.243445,1.2e-05,-0.022366,0.0,18.568589,5.043458,54.023186,-3.940189,48.764557,-14.689716,33.113297,-24.385929,-4.691871,0.0,-17.173432,16.955996,33.029085,37.491886,50.649713,51.708288,60.276936,62.42028,68.158227,0.0,72.886734,29.928772,93.497406,21.067783,89.888351,12.256691,76.467338,4.324768,56.377441,0.0,6.230987,32.772932,52.315604,51.053845,62.72676,62.710742,71.794685,68.836383,74.742773,-11.723517,276.640225,-46.935316,271.829707
12,-2.137722,-0.840226,0.128872,0.040422,0.0,21.902722,7.203049,56.588414,-2.111755,49.88181,-13.138435,32.64124,-23.034381,-4.509647,0.0,-17.253003,17.08776,33.50139,38.052197,51.143248,52.439562,60.88787,63.021804,68.240788,0.0,72.953991,29.718315,93.492313,20.893455,89.486767,12.183849,76.129726,4.401901,56.154957,0.0,6.019307,32.551297,52.364016,50.983388,62.474967,62.766342,71.428653,68.947015,74.432242,-13.860306,275.840069,-46.805511,271.910199
13,-0.918731,-0.831469,-0.094666,-0.082289,0.0,23.450168,7.735348,57.686291,-1.55072,50.44376,-12.58675,33.961612,-22.475899,-3.007324,0.0,-17.102443,16.900606,34.02754,38.060817,51.788354,52.645758,61.500162,63.346438,68.836309,0.0,72.733395,29.904843,93.566036,21.114693,89.539547,12.379463,76.217457,4.489414,56.097622,0.0,5.922458,32.600352,52.365622,50.960121,62.410487,62.700331,71.556674,68.88198,74.504392,-14.796438,275.038447,-46.917578,271.857757
14,1.509762,-1.088623,-0.091919,0.04414,0.0,20.909694,4.895897,55.401054,-4.075104,48.339866,-14.606736,33.347923,-23.836144,-7.392403,0.0,-15.901398,17.51853,36.217864,38.377375,53.065859,52.679586,62.236771,63.207734,70.323753,0.0,72.611767,30.030648,93.56773,21.321007,89.596516,12.595356,76.293423,4.638909,56.030468,0.0,5.83897,32.644478,52.239947,50.941076,62.142206,62.651449,71.344252,68.857872,74.243804,-13.315401,273.976732,-47.038222,271.928805
15,-0.140191,-0.894541,-0.05278,-0.046684,0.0,20.869137,4.588921,55.570633,-4.284656,48.597702,-14.849464,34.804665,-24.073974,-7.123054,0.0,-15.549976,17.370959,37.159237,38.223221,53.99235,52.67031,63.169375,63.479411,71.769738,0.0,72.374508,30.231846,93.64642,21.517502,89.71439,12.695652,76.215923,4.530178,55.5798,0.0,5.616917,32.575726,52.004048,50.843091,62.062375,62.554625,71.368829,68.822378,74.171273,-13.493626,273.104208,-47.129036,271.904138
16,-0.779903,-0.686072,-0.090202,-0.020822,0.0,22.285812,5.469933,56.48283,-3.570763,49.032406,-14.410263,35.589512,-23.805233,-8.940033,0.0,-15.27184,17.193575,37.589267,38.158334,54.541101,52.736952,63.916049,63.71662,72.876256,0.0,72.316418,30.194984,93.767795,21.536293,90.048649,12.740673,76.40443,4.54359,55.622051,0.0,5.498516,32.457437,51.708338,50.69016,61.985014,62.383663,71.397839,68.648884,74.084081,-14.31922,272.434904,-47.264929,271.900084
17,0.636005,-0.044954,-0.283276,-0.123266,0.0,20.376881,4.939225,55.707482,-4.134716,48.272644,-15.106887,35.070305,-24.605094,-10.751758,0.0,-15.217043,16.936952,37.288913,37.865538,54.260346,52.536263,63.85704,63.670059,73.256502,0.0,72.244927,30.457363,94.128136,21.879799,90.699715,13.081501,76.82412,4.784374,55.857834,0.0,5.656646,32.45651,51.372601,50.639808,62.064598,62.289567,71.490082,68.532101,74.004831,-13.732962,272.398438,-47.597952,271.785306
18,-0.098602,-0.208445,0.023495,-0.133233,0.0,20.070637,4.920868,55.662689,-4.228523,47.969101,-15.261783,34.595009,-24.864441,-10.033562,0.0,-15.253833,16.756691,37.31449,37.741803,54.155396,52.546884,63.867093,63.842146,73.192541,0.0,72.399479,30.282852,94.171085,21.754875,90.804279,13.033459,76.693874,4.878479,55.767734,0.0,5.685138,32.432021,51.192018,50.66215,61.921658,62.352936,71.1581,68.610512,73.778602,-13.870943,272.191864,-47.613836,271.653944
19,-1.739227,0.215917,-0.114578,-0.301082,0.0,21.938415,7.093288,57.93322,-2.293385,49.451362,-13.575428,35.860817,-23.464497,-3.648857,0.0,-15.693176,16.100012,36.175639,37.431272,53.463507,52.554874,63.375337,63.987506,71.746544,0.0,72.242099,30.25851,94.332378,21.736919,90.91959,13.056392,76.673847,4.974655,55.756427,0.0,5.740454,32.54406,51.299241,50.825949,62.112751,62.498234,71.31786,68.70373,73.879749,-15.640766,272.403406,-47.75901,271.348487
20,1.003521,-0.001902,-0.084378,-0.215077,0.0,20.410778,6.303119,56.445705,-3.024662,48.01157,-14.213253,34.569271,-23.980751,-3.834652,0.0,-15.904276,15.785678,35.705336,37.057509,53.114024,52.225522,63.160359,63.688016,71.397234,0.0,72.063286,30.164738,94.409111,21.677708,91.001839,13.085221,76.778229,5.152646,55.928284,0.0,5.748766,32.61716,51.535511,50.998023,62.317355,62.680472,71.411511,68.826799,73.895582,-14.657335,272.394418,-47.863478,271.126324
21,1.162731,0.081745,-0.145374,-0.326709,0.0,19.266197,5.063633,55.656898,-4.286797,47.564827,-15.307423,34.449966,-24.922165,-1.338627,0.0,-16.005694,15.553669,35.275318,36.696146,52.568101,51.910953,62.729625,63.486093,70.858314,0.0,71.761768,30.341847,94.479298,21.826195,90.981846,13.205738,76.737248,5.256134,55.815022,0.0,5.73917,32.724174,51.774225,51.100195,62.612015,62.768306,71.664305,68.91341,74.037101,-13.502335,272.467092,-48.016583,270.790544
22,0.793648,-0.226994,-0.038166,-0.472984,0.0,19.506546,4.60952,55.783241,-4.863327,47.735527,-15.88559,34.171669,-25.503102,-2.451588,0.0,-15.584557,15.339704,35.347059,36.250381,52.630987,51.329474,63.110045,62.921582,71.220899,0.0,71.840057,30.32729,94.498764,21.773048,91.005341,13.10947,76.782051,5.150059,55.800179,0.0,5.708122,33.038373,51.964108,51.377121,62.91936,62.958127,72.052221,68.995675,74.319746,-12.704664,272.228739,-48.050726,270.306201
23,1.450699,-0.100209,-0.01886,-0.541452,0.0,17.470916,3.126834,54.625145,-6.261441,46.947372,-17.061757,32.866722,-26.197895,-7.019886,0.0,-14.067398,16.077547,35.818339,36.527691,52.884621,51.06906,63.124914,62.268103,71.565233,0.0,71.351235,30.307881,94.57473,21.728005,91.022324,13.076649,76.874588,5.108139,55.545616,0.0,5.509001,32.952959,52.276429,51.340009,63.198583,62.986211,72.220923,69.076283,74.308976,-11.240701,272.12404,-48.056322,269.760259
24,7.486873,-0.758863,0.010494,-0.859405,0.0,9.796074,-4.050602,46.309033,-13.166244,40.271496,-23.164146,26.411282,-31.508503,-21.225288,0.0,-12.927918,16.869953,37.160978,36.689711,53.058856,50.559372,63.020074,61.38338,73.808427,0.0,71.190274,30.414174,94.97865,21.818356,91.633999,13.077725,77.193547,4.975102,55.403653,0.0,5.025298,32.589422,52.003282,50.932864,63.403001,62.669419,72.300803,68.919128,74.326698,-3.720108,271.360247,-48.012108,268.895924
25,1.599747,1.593,-0.268901,-1.776387,0.0,7.488579,-7.509636,44.485119,-15.968514,40.288914,-24.290394,26.229847,-30.675304,-27.665508,0.0,-8.674451,16.015599,36.059993,35.149977,50.810746,48.694732,60.234452,59.630113,72.314833,0.0,71.041488,30.505977,95.602569,21.901233,92.84127,13.094925,78.242706,4.915901,55.671569,0.0,4.555995,31.845725,51.362647,50.186005,63.577125,62.086261,72.465924,68.560952,74.641033,-2.064411,272.960237,-48.225059,267.126527
26,-2.994656,-3.835775,-0.128689,-4.348068,0.0,10.560757,-6.425262,44.989174,-13.953586,43.285881,-21.793625,28.824761,-27.917335,-31.280101,0.0,-7.780725,16.708809,35.521307,36.160807,51.959958,49.575738,61.146987,60.338662,75.504489,0.0,70.400333,31.038082,95.743961,22.748829,93.903545,14.015018,79.655216,5.635711,56.478687,0.0,4.104982,30.513039,51.100516,48.994468,63.803341,61.46678,73.033323,68.687799,75.396314,-4.946062,269.147136,-48.240743,262.801133
27,0.578774,-4.688079,0.427093,-4.676828,0.0,9.249378,-8.286026,40.783653,-15.097515,42.413154,-22.233891,28.059471,-27.863663,-33.356495,0.0,-5.786829,17.568153,36.794193,36.502966,53.261027,49.324414,62.113294,59.600781,77.094315,0.0,69.110607,30.699475,95.278942,22.653374,94.363621,13.945061,80.081921,5.335453,55.50642,0.0,2.567928,28.022299,49.615369,46.514053,63.65062,59.663285,73.218822,67.957835,76.225634,-4.190758,264.498856,-47.63712,258.164104
28,7.530956,-6.897484,0.006329,-7.421288,0.0,-0.194332,-17.236736,29.863369,-23.185547,34.039135,-28.514431,21.098843,-32.473595,-42.684963,0.0,-1.328227,18.921574,38.861906,36.948433,54.089841,48.917157,61.919127,58.471687,79.583227,0.0,68.513695,30.935497,94.97081,23.013794,94.341568,13.913978,79.031158,4.474422,49.946068,0.0,1.571251,25.876683,48.169384,44.277935,63.805848,58.003755,74.843598,67.043817,78.402139,3.571678,257.622083,-47.399311,250.763527
29,-1.708809,-1.00027,-0.633293,-9.818365,0.0,-3.499855,-19.618423,26.202862,-23.930248,36.050228,-26.708118,26.578732,-27.741485,-25.405002,0.0,8.586901,16.717615,35.433164,27.896489,44.63778,34.331364,48.01428,39.352698,57.238359,0.0,66.180427,31.078182,94.93016,23.649994,94.094398,14.83342,78.563415,5.368171,47.905975,0.0,1.069875,22.88385,45.05662,40.905239,60.952078,55.024754,73.24062,65.173064,77.568916,2.227821,256.646223,-47.667652,240.969572
30,2.435658,-10.889278,-1.437916,-11.460358,0.0,-7.661751,-21.586235,20.12416,-24.727845,31.874199,-27.074868,24.78218,-28.143254,-16.149342,0.0,15.047859,17.073952,35.675831,24.333911,42.499227,27.151397,42.820972,28.825389,47.38224,0.0,64.691357,30.774994,94.704449,24.19162,94.545879,15.999149,79.680096,6.806557,49.897945,0.0,-0.940619,19.531581,41.310964,37.308154,57.654384,51.990796,71.026089,63.263272,76.047831,5.139015,245.794551,-48.630032,229.54682
31,14.412689,-14.12821,-2.394997,-11.121743,0.0,-24.391502,-31.071259,-1.856449,-32.173485,11.163345,-31.600205,8.741524,-29.564873,-18.983048,0.0,27.66253,19.021226,39.096211,21.63438,39.909254,20.988755,36.384442,19.459296,37.21685,0.0,62.786236,29.39954,94.459866,23.509129,94.354832,15.971134,80.144085,7.515347,51.334683,0.0,-4.265583,15.985267,35.218989,33.478529,52.586947,48.280016,66.554655,60.078186,72.622165,19.956024,231.726575,-50.620709,218.485311
32,12.786175,-22.495894,-3.993267,-15.324958,0.0,-36.510155,-37.975674,-20.906679,-36.487255,-8.28102,-32.589489,-6.060459,-27.008171,-22.304272,0.0,38.087243,20.423785,44.993798,20.027767,43.112942,17.402245,36.787675,14.185974,34.468231,0.0,61.384106,33.044667,94.947899,28.016018,93.436295,20.782894,81.029,12.243107,54.959542,0.0,-8.980449,13.858077,31.362194,31.859297,47.3896,47.325651,61.811224,59.861726,68.287953,33.073969,209.394255,-54.282206,203.323927
33,7.126098,-29.447506,-5.928016,-14.335395,0.0,-38.033329,-37.152923,-33.294817,-33.077659,-21.15909,-26.539272,-15.720714,-18.258247,-16.803314,0.0,44.933357,20.167885,54.161419,18.037459,52.618597,14.876684,45.599021,11.585461,36.685497,0.0,58.742214,32.175556,94.42852,28.673492,93.97673,23.227901,84.608963,16.51514,65.003528,0.0,-16.133284,10.414454,24.526312,28.512536,39.87912,44.403461,53.933279,58.218387,61.885274,40.539413,180.297951,-59.870876,189.339734
34,10.309319,-43.397837,-9.446515,-13.442089,0.0,-41.09515,-36.954849,-47.722086,-31.642571,-40.599421,-24.139858,-34.372158,-14.909111,-29.862328,0.0,43.627719,20.694888,61.5194,22.694057,66.326503,23.981905,62.02797,24.856976,56.731057,0.0,56.16821,31.160305,94.078606,29.729977,96.149037,26.252907,89.49115,21.450474,73.770882,0.0,-24.768109,8.263711,18.034528,26.771965,33.07352,42.935333,46.700749,56.810761,56.159011,51.23715,137.484718,-68.928973,176.482249
35,10.024017,-35.388019,-9.533557,-11.062019,0.0,-50.698322,-40.03545,-65.89718,-33.060081,-58.818861,-23.649753,-49.802479,-12.372104,-39.536453,0.0,40.216675,22.687981,60.739968,24.858175,65.054439,26.466267,61.235083,27.182293,57.637831,0.0,50.838878,30.765884,93.263088,30.988197,97.311378,29.193363,92.513351,26.042976,78.926319,0.0,-32.740161,6.903079,12.319282,25.659137,26.612156,41.639439,39.734217,55.211365,50.732904,61.541765,102.842869,-78.181932,166.1664
36,6.239113,-35.051479,-10.217858,-6.413039,0.0,-52.989429,-40.959583,-76.156042,-34.5298,-72.77096,-25.62038,-63.744198,-14.92281,-50.29343,0.0,29.209115,15.051567,51.114567,17.900595,56.518901,20.935659,55.045753,23.660952,51.449217,0.0,42.942284,31.117333,91.907879,33.166866,98.345467,33.244263,95.196453,31.716969,83.909088,0.0,-40.098631,5.809812,8.092367,24.302554,20.096622,39.736007,32.656853,52.699975,44.347021,68.204241,68.491192,-87.976427,160.453163
37,4.392757,-27.567548,-10.423702,0.936791,0.0,-55.472888,-41.266571,-85.700386,-35.593597,-85.342575,-27.651306,-75.870952,-18.02703,-60.042961,0.0,18.286791,8.026176,33.86395,10.625936,37.781248,13.708999,37.503865,16.879919,35.695856,0.0,33.998234,27.970825,90.93227,32.308056,101.378002,35.065475,99.939835,36.374187,89.69046,0.0,-43.594495,5.016109,3.985334,21.751446,15.9733,35.070232,27.130006,46.050406,37.981628,72.940143,41.548058,-98.056984,162.014368
38,2.896729,-19.876137,-8.991091,7.152655,0.0,-57.943806,-41.534615,-94.708202,-37.026581,-96.530582,-30.733246,-86.625664,-22.825951,-69.617111,0.0,7.407987,1.225283,11.846453,2.924006,12.985921,5.120511,12.717356,7.530698,13.513967,0.0,26.182543,30.70261,91.768341,36.877556,104.068937,41.093537,104.196093,43.654724,95.199126,0.0,-44.021622,5.534547,3.214504,20.370028,13.925347,31.319556,23.733085,39.587991,32.627905,76.180618,22.127179,-106.704329,169.622281
39,2.031052,-13.996669,-5.431423,13.467443,0.0,-58.157879,-41.607834,-101.960278,-37.996651,-105.780762,-33.189789,-95.488221,-26.994667,-77.028054,0.0,-0.452624,-3.26488,-3.985501,-2.055171,-6.24753,-0.610514,-6.396126,1.033739,-3.34029,0.0,20.007277,35.08889,92.657455,42.272907,105.254877,47.12606,106.775476,50.028385,99.351179,0.0,-42.260246,5.786848,4.668776,18.205924,14.151046,26.691252,22.936604,32.692817,29.41928,78.403439,8.438302,-111.943983,183.397516
40,2.851593,-16.64052,-3.186556,16.520916,0.0,-55.147797,-41.632737,-108.320332,-39.231285,-116.167752,-35.546906,-106.170422,-30.354424,-85.835564,0.0,-6.720513,-9.362455,-12.722869,-7.303202,-14.395114,-4.781204,-13.111742,-1.656522,-9.814585,0.0,13.841972,38.491665,93.019146,46.944901,105.383103,52.666941,108.483696,56.137539,102.359207,0.0,-36.275101,7.393772,8.893566,16.996325,16.0567,23.068008,23.550051,27.045476,26.991043,81.614703,-7.946868,-114.770868,200.173782
41,-0.45939,-8.273417,-0.551422,17.129947,0.0,-53.600739,-41.331127,-110.267747,-38.848698,-118.344436,-35.12174,-107.338246,-29.706512,-85.642376,0.0,-8.078542,-8.891452,-15.756072,-6.779291,-17.553632,-4.575975,-16.308997,-1.846469,-12.73653,0.0,9.198257,40.938984,93.382507,50.545177,105.63414,57.090689,110.310024,61.118877,104.962875,0.0,-26.415221,10.912903,16.225662,17.790287,21.446745,21.7095,27.246097,23.998661,27.525925,81.502235,-15.719696,-114.975368,217.804318
42,-0.497842,-6.138431,0.940292,14.721644,0.0,-52.588306,-41.534901,-111.734439,-39.106948,-119.860163,-35.463106,-108.383962,-29.960929,-86.023797,0.0,-8.866136,-8.598535,-15.386771,-6.206436,-16.341875,-3.833737,-15.066907,-1.054345,-11.970144,0.0,5.533985,42.536683,94.753006,52.940712,106.607838,59.838244,110.27076,63.76268,106.262215,0.0,-15.496118,14.675467,24.306086,19.234975,27.350344,21.394634,31.376607,22.349839,30.109032,81.505466,-21.239906,-113.534003,233.144183
43,-0.886621,-4.210927,1.704707,10.835042,0.0,-52.315392,-41.665857,-112.542418,-39.230925,-120.718056,-35.580287,-108.864651,-29.976493,-86.14776,0.0,-9.041575,-8.097177,-14.473298,-5.474441,-14.904281,-2.888715,-13.493405,0.028349,-10.651643,0.0,3.031042,42.643879,95.68008,53.303993,107.055811,60.237161,109.596158,63.964542,105.748506,0.0,-6.788124,17.417772,31.006265,20.495894,32.733819,21.679755,35.091148,21.931258,32.736771,81.08014,-24.768995,-111.368001,244.661063
44,-0.659457,-1.22347,3.274017,6.393304,0.0,-52.012837,-41.676868,-112.488528,-39.164667,-120.707659,-35.44916,-108.905932,-29.760778,-85.987933,0.0,-9.403497,-7.505095,-13.281695,-4.699684,-12.586471,-1.975808,-10.839269,0.952046,-8.810291,0.0,-0.334013,40.943321,96.01704,51.564915,106.890467,58.391527,108.197531,61.993103,103.427072,0.0,0.745056,19.697215,36.988695,21.578293,37.428135,22.034733,37.785133,21.812438,34.453025,80.812608,-25.325616,-107.702059,251.721216
45,-0.677493,1.521757,2.632307,1.654763,0.0,-52.024174,-41.657014,-112.241551,-39.116893,-120.304634,-35.33223,-108.667841,-29.584348,-85.773587,0.0,-9.045076,-7.644517,-12.696014,-4.72169,-11.47949,-1.759548,-9.543206,1.48136,-7.431816,0.0,-1.401627,39.576084,97.114803,50.322487,106.869965,57.041645,106.968292,60.590538,101.803986,0.0,3.395322,19.640719,38.541087,21.171598,39.345646,21.377276,38.173463,20.975047,34.487914,80.249253,-23.216572,-104.955614,253.963266
46,-0.677494,1.521757,2.514393,-3.074516,0.0,-52.035509,-41.63716,-111.994573,-39.069118,-119.901608,-35.215298,-108.429749,-29.407916,-85.559241,0.0,-8.686656,-7.783939,-12.110334,-4.743695,-10.37251,-1.543288,-8.247143,2.010673,-6.05334,0.0,0.237888,39.422378,99.291504,49.39341,107.88232,55.297588,106.017574,58.172001,99.817005,0.0,4.709531,18.664494,37.511399,20.010011,39.070894,19.955436,36.783671,19.295114,33.4181,79.4544,-21.254445,-102.55858,251.32912
47,-0.677493,1.521757,4.072225,-7.761965,0.0,-52.046845,-41.617306,-111.747596,-39.021344,-119.498583,-35.098368,-108.191658,-29.231486,-85.344895,0.0,-8.328236,-7.923361,-11.524654,-4.765701,-9.265529,-1.327028,-6.95108,2.539987,-4.674865,0.0,3.959519,39.255118,98.443177,48.211453,106.144335,53.4917,104.578692,56.118657,97.280022,0.0,2.76406,15.335771,32.777971,17.003705,34.356824,17.383297,32.637087,17.191976,29.633936,78.158182,-19.379247,-99.10508,243.920596
48,-0.677493,1.521757,5.755268,-12.738184,0.0,-52.058181,-41.597452,-111.500619,-38.973569,-119.095558,-34.981437,-107.953567,-29.055056,-85.130549,0.0,-7.969815,-8.062784,-10.938974,-4.787706,-8.158549,-1.110768,-5.655017,3.069301,-3.29639,0.0,8.665387,38.802492,95.821415,47.167843,103.275244,52.313084,102.590361,55.079476,95.103676,0.0,1.439464,11.643998,27.030601,13.436161,28.179967,14.032115,27.46764,14.187806,24.452163,76.518733,-17.279074,-94.311768,231.760828
49,-0.677494,1.521757,6.157597,-13.169065,0.0,-52.069516,-41.577598,-111.253641,-38.925794,-118.692532,-34.864506,-107.715475,-28.878624,-84.916202,0.0,-7.611395,-8.202206,-10.353293,-4.809712,-7.051568,-0.894508,-4.358955,3.598615,-1.917914,0.0,13.433521,37.658792,93.913101,44.751846,100.606607,49.09029,99.325373,51.223538,90.853935,0.0,0.243173,8.87317,20.416217,10.206058,21.397771,10.549341,20.912277,10.589782,17.884426,74.716348,-14.788747,-89.279062,219.560333
50,-0.677493,1.521757,5.084198,-15.933379,0.0,-52.080852,-41.557744,-111.006664,-38.87802,-118.289507,-34.747575,-107.477385,-28.702194,-84.701856,0.0,-7.252974,-8.341628,-9.767613,-4.831717,-5.944587,-0.678248,-3.062892,4.127929,-0.539439,0.0,17.53201,37.580808,92.915327,43.402151,99.58601,46.872558,97.75084,48.198077,88.050831,0.0,-0.304905,6.569818,14.772829,7.323804,15.084065,7.339228,14.951626,7.170145,12.133358,72.679714,-11.363922,-85.554005,205.530022
51,-0.677493,1.521757,3.487003,-18.706954,0.0,-52.092189,-41.53789,-110.759686,-38.830246,-117.886482,-34.630645,-107.239294,-28.525763,-84.48751,0.0,-6.894554,-8.481051,-9.181933,-4.853723,-4.837607,-0.461988,-1.766829,4.657242,0.839037,0.0,20.551165,37.688328,92.50996,43.302056,99.325435,46.549814,97.757631,47.58794,87.756604,0.0,-3.751628,3.317733,8.25248,4.055197,8.654305,4.153722,9.058152,4.052866,6.622297,70.573844,-7.570327,-83.495379,189.094906
52,-0.677494,1.521758,1.143534,-18.867622,0.0,-52.103524,-41.518036,-110.512708,-38.782471,-117.483456,-34.513713,-107.001202,-28.349332,-84.273163,0.0,-6.536135,-8.620474,-8.596254,-4.875729,-3.730627,-0.245729,-0.470767,5.186555,2.217511,0.0,21.065018,38.450084,94.130106,44.260023,101.183782,47.450176,99.824961,48.321181,89.583103,0.0,-7.506924,0.985561,2.781671,1.981986,3.619619,2.273008,4.028268,2.229859,2.345461,68.779865,-3.601311,-83.46833,172.674542
53,-0.677493,1.521757,-1.199936,-19.028291,0.0,-52.11486,-41.498182,-110.265731,-38.734697,-117.080431,-34.396783,-106.763111,-28.172901,-84.058817,0.0,-6.177714,-8.759896,-8.010573,-4.897735,-2.623647,-0.029469,0.825296,5.715869,3.595987,0.0,19.07357,39.866078,97.775768,46.276051,105.161053,49.573643,103.952831,50.397801,93.530331,0.0,-11.570792,-0.426695,-1.639597,1.104172,-0.019995,1.697087,-0.138024,1.701125,-0.69715,67.170365,0.261376,-85.600273,155.987181
54,-0.677493,1.521757,-3.067589,-23.179159,0.0,-52.126196,-41.478329,-110.018754,-38.686923,-116.677406,-34.279853,-106.52502,-27.996471,-83.844471,0.0,-5.819294,-8.899318,-7.424893,-4.919741,-1.516666,0.186792,2.121359,6.245183,4.974462,0.0,17.522232,42.659272,101.106755,50.930981,110.013279,55.487584,110.957142,57.380082,102.026997,0.0,-16.486959,-2.760429,-5.820748,0.517826,-2.952948,2.308632,-2.473092,3.089966,-1.561063,65.425247,3.715776,-89.735487,134.740665
55,-0.677494,1.521757,-3.164852,-19.686797,0.0,-52.137531,-41.458474,-109.771776,-38.639148,-116.27438,-34.162921,-106.286928,-27.820039,-83.630124,0.0,-5.460873,-9.038741,-6.839213,-4.941746,-0.409686,0.403052,3.417421,6.774497,6.352937,0.0,17.954723,44.813134,104.701479,53.977664,114.827651,59.034719,115.938043,61.281622,107.519165,0.0,-19.502942,-4.299391,-9.66883,0.712963,-5.367854,3.804227,-3.617511,5.753048,-1.132652,63.888616,6.231236,-93.759476,116.047571
56,-0.677493,1.521757,-1.870273,-15.635557,0.0,-52.148867,-41.43862,-109.524799,-38.591374,-115.871355,-34.045991,-106.048837,-27.643609,-83.415778,0.0,-5.102453,-9.178163,-6.253533,-4.963752,0.697295,0.619312,4.713484,7.30381,7.731413,0.0,18.243356,46.125712,107.434197,55.84191,118.620696,61.198942,119.44571,63.712468,110.879161,0.0,-20.819904,-4.852804,-12.027961,1.513617,-6.895487,5.682699,-4.106553,8.559113,-0.631043,62.352444,8.275442,-96.488428,100.934463
57,-0.677493,1.521757,-0.872761,-10.734574,0.0,-52.160204,-41.418767,-109.277822,-38.543599,-115.46833,-33.92906,-105.810746,-27.467178,-83.201432,0.0,-4.744033,-9.317585,-5.667852,-4.985757,1.804276,0.835572,6.009547,7.833124,9.109888,0.0,18.776843,46.625787,109.263025,56.380018,121.024946,61.708401,121.038927,64.232034,111.795891,0.0,-21.392109,-4.733583,-13.355379,2.627572,-7.64293,7.509332,-4.226623,10.970687,-0.147751,60.866369,10.064794,-98.169771,90.467484
58,-0.677494,1.521757,-0.075176,-5.203899,0.0,-52.171539,-41.398912,-109.030844,-38.495824,-115.065304,-33.812129,-105.572654,-27.290747,-82.987085,0.0,-4.385612,-9.457008,-5.082172,-5.007763,2.911256,1.051832,7.30561,8.362438,10.488364,0.0,19.646988,46.565666,110.221424,55.890953,122.509403,60.864029,121.400356,63.144584,111.072704,0.0,-21.341936,-4.200874,-13.532781,3.914131,-7.322326,9.3501,-3.186735,13.343443,1.07271,59.277027,11.694732,-99.156795,85.371766
59,-0.677493,1.521758,0.478889,-0.287022,0.0,-52.182875,-41.379058,-108.783867,-38.44805,-114.662279,-33.695198,-105.334563,-27.114317,-82.772739,0.0,-4.027193,-9.596431,-4.496493,-5.029769,4.018236,1.268091,8.601672,8.891751,11.866838,0.0,21.118618,45.820095,110.001469,54.521324,122.269558,59.00869,119.834644,60.907539,108.748913,0.0,-20.053687,-2.947791,-13.037605,5.212816,-6.778688,10.769822,-2.187378,15.044716,2.171583,57.920138,13.327304,-99.357302,85.195558
60,-0.677493,1.521757,1.41322,1.054611,0.0,-52.194211,-41.359205,-108.53689,-38.400276,-114.259254,-33.578268,-105.096472,-26.937886,-82.558393,0.0,-3.668773,-9.735853,-3.910813,-5.051775,5.125216,1.484351,9.897735,9.421065,13.245314,0.0,20.388336,44.948307,108.691795,53.560089,121.065742,58.0471,118.645156,60.097126,107.266571,0.0,-19.91339,-1.775695,-11.891351,6.228974,-6.138528,11.580209,-1.957568,15.514235,2.058067,56.641001,14.944224,-98.545726,86.345332
61,-0.677494,1.521757,0.506034,1.556981,0.0,-52.205546,-41.33935,-108.289912,-38.352501,-113.856228,-33.461336,-104.858381,-26.761455,-82.344046,0.0,-3.310352,-9.875275,-3.325132,-5.07378,6.232197,1.700611,11.193797,9.950379,14.623789,0.0,20.035859,44.846867,107.898308,53.012638,120.145409,57.128701,117.252228,58.869461,105.834137,0.0,-20.378852,-1.309022,-11.44366,6.792576,-5.35515,12.12536,-1.141827,16.003922,3.022411,55.51848,16.616711,-98.484719,88.053043
62,-0.677493,1.521757,0.006134,1.386414,0.0,-52.216882,-41.319497,-108.042934,-38.304727,-113.453203,-33.344406,-104.62029,-26.585024,-82.1297,0.0,-2.951932,-10.014698,-2.739452,-5.095786,7.339177,1.916871,12.48986,10.479692,16.002265,0.0,19.859894,45.031655,107.244439,52.858097,119.413765,56.681958,116.276734,58.179921,105.182511,0.0,-20.539119,-1.201614,-11.314633,6.918325,-4.897524,12.388362,-0.251009,16.496332,4.284163,54.457622,18.34284,-98.86195,89.643829
63,-0.677493,1.521757,-0.210559,0.425726,0.0,-52.228219,-41.299643,-107.795957,-38.256953,-113.050178,-33.227475,-104.382199,-26.408594,-81.915354,0.0,-2.593511,-10.15412,-2.153772,-5.117792,8.446158,2.133131,13.785923,11.009006,17.38074,0.0,19.883205,45.13219,106.913921,52.674533,118.668949,56.233017,115.020664,57.492691,104.026554,0.0,-20.458856,-0.925558,-11.307698,7.300375,-4.666448,12.921539,0.141865,17.171128,5.230816,53.625193,20.093201,-99.227445,90.298159
64,-0.677494,1.521757,-0.252297,0.282335,0.0,-52.239554,-41.279788,-107.548979,-38.209178,-112.647152,-33.110544,-104.144107,-26.232162,-81.701007,0.0,-2.235091,-10.293542,-1.568091,-5.139797,9.553139,2.349391,15.081986,11.53832,18.759215,0.0,19.626217,45.494717,107.476811,52.611523,119.008976,55.806622,114.578236,56.783856,103.164173,0.0,-20.696879,-0.954846,-11.299195,7.65213,-4.164886,13.594508,0.817106,18.093587,6.245789,52.867396,21.82222,-99.560045,90.787756
65,-0.677493,1.521757,-0.561584,0.051099,0.0,-52.25089,-41.259935,-107.302002,-38.161403,-112.244127,-32.993614,-103.906016,-26.055732,-81.486661,0.0,-1.876671,-10.432965,-0.982411,-5.161803,10.660119,2.565651,16.378049,12.067634,20.137691,0.0,19.859481,46.206916,108.190258,52.892131,119.430187,55.669796,114.516552,56.22417,102.779285,0.0,-20.541065,-1.34159,-11.300844,7.599536,-3.656761,13.934838,1.686552,18.839797,7.579264,52.117656,23.549964,-100.193876,91.044842
66,-0.677493,1.521757,-0.182076,0.397376,0.0,-52.262226,-41.240081,-107.055025,-38.113629,-111.841102,-32.876683,-103.667925,-25.879301,-81.272315,0.0,-1.51825,-10.572387,-0.396731,-5.183808,11.7671,2.781912,17.674112,12.596948,21.516166,0.0,20.000816,46.432617,108.791416,53.132481,119.663807,55.949135,114.730351,56.586422,102.968685,0.0,-20.686098,-1.430689,-11.540856,7.472528,-4.117857,13.840274,1.277628,18.778504,7.351454,51.378262,25.234013,-100.437853,91.60451
67,-0.677494,1.521758,-0.135212,0.384767,0.0,-52.273561,-41.220226,-106.808047,-38.065854,-111.438076,-32.759752,-103.429833,-25.70287,-81.057968,0.0,-1.159831,-10.71181,0.188948,-5.205815,12.874079,2.998171,18.970173,13.12626,22.894641,0.0,20.012238,46.559132,109.497551,53.336849,120.305123,56.21719,115.286957,56.92329,103.429573,0.0,-20.708007,-1.182014,-11.572281,7.798126,-4.470693,14.124678,0.980862,18.919739,7.095486,50.639479,26.850441,-100.634354,92.083947
68,-0.677493,1.521757,-0.253349,0.910096,0.0,-52.284897,-41.200373,-106.56107,-38.01808,-111.035051,-32.642821,-103.191742,-25.526439,-80.843622,0.0,-0.801411,-10.851233,0.774629,-5.22782,13.98106,3.214431,20.266236,13.655574,24.273116,0.0,20.122833,46.704803,110.085548,53.677929,121.036125,56.769894,116.104866,57.691566,104.673569,0.0,-20.875097,-1.198989,-12.051976,7.554977,-5.419723,13.724393,0.118604,18.384592,6.26424,49.906305,28.38812,-100.943384,93.009965
69,-0.677493,1.521757,0.067566,0.9633,0.0,-52.296234,-41.180519,-106.314093,-37.970306,-110.632026,-32.525891,-102.953651,-25.350009,-80.629276,0.0,-0.44299,-10.990655,1.360309,-5.249826,15.08804,3.430691,21.562299,14.184888,25.651592,0.0,20.251556,46.38327,109.827141,53.520515,120.935165,56.828144,116.428871,57.950065,105.159073,0.0,-20.776624,-1.051504,-12.284022,7.651018,-6.173732,13.745765,-0.369311,18.316333,5.694876,49.17776,29.859307,-100.92687,93.922695
70,-0.677494,1.521757,0.241195,1.342973,0.0,-52.307569,-41.160665,-106.067115,-37.922531,-110.229,-32.408959,-102.715559,-25.173578,-80.414929,0.0,-0.08457,-11.130077,1.945989,-5.271831,16.195021,3.646951,22.858362,14.714202,27.030067,0.0,20.280785,45.850628,109.349122,53.06456,120.57969,56.542294,116.337594,57.877087,105.422013,0.0,-20.978925,-0.764038,-12.669561,7.816367,-6.812608,13.797672,-0.840991,18.282525,5.221343,48.46507,31.293677,-100.720871,95.178281
71,-0.677493,1.521757,0.157929,1.637324,0.0,-52.318905,-41.140811,-105.820138,-37.874757,-109.825975,-32.292029,-102.477468,-24.997147,-80.200583,0.0,0.273851,-11.269499,2.531669,-5.293837,17.302001,3.863211,24.154425,15.243516,28.408542,0.0,20.488312,45.404652,108.905708,52.430088,120.088715,55.79932,115.935379,57.04557,105.012314,0.0,-21.113435,-0.596027,-12.77679,8.082567,-6.70962,14.14195,-0.45368,18.687552,5.630428,47.735683,32.731232,-100.614836,96.731403
72,-0.677493,1.521757,0.198658,2.280894,0.0,-52.330241,-41.120957,-105.573161,-37.826983,-109.42295,-32.175098,-102.239378,-24.820717,-79.986237,0.0,0.632271,-11.408922,3.11735,-5.315842,18.408982,4.079471,25.450488,15.772829,29.787018,0.0,21.164577,45.025532,108.148968,51.635273,119.276699,54.697723,115.437275,55.686905,104.029621,0.0,-21.018797,-0.686776,-12.18461,8.169215,-5.705281,14.543667,0.733206,19.48738,6.810008,46.990447,34.146296,-100.483921,98.905604
73,-0.677494,1.521757,0.531933,2.502818,0.0,-52.341576,-41.101103,-105.326182,-37.779208,-109.019924,-32.058167,-102.001286,-24.644285,-79.77189,0.0,0.990691,-11.548344,3.70303,-5.337848,19.515963,4.295731,26.74655,16.302143,31.165493,0.0,21.454399,44.600338,107.161239,50.852634,118.213417,53.625183,114.399238,54.339145,102.551262,0.0,-21.419291,0.102796,-11.358544,9.208339,-4.629879,15.760706,2.15349,20.849823,8.277772,46.214253,35.553089,-100.050688,101.293458
74,-0.677493,1.521757,0.649132,3.609114,0.0,-52.352912,-41.081249,-105.079205,-37.731433,-108.616899,-31.941236,-101.763195,-24.467855,-79.557544,0.0,1.349112,-11.687766,4.28871,-5.359854,20.622943,4.511991,28.042613,16.831457,32.543969,0.0,22.635131,43.4687,106.426322,49.567474,117.700973,52.426048,114.021743,53.219009,101.901741,0.0,-23.427026,1.452234,-10.237996,11.065742,-3.318442,17.79159,3.918033,22.841323,10.071931,45.369362,36.957545,-99.568954,104.785271
75,-0.677493,1.521758,0.579677,4.783224,0.0,-52.364249,-41.061395,-104.832228,-37.683659,-108.213874,-31.824306,-101.525104,-24.291424,-79.343199,0.0,1.707531,-11.82719,4.874389,-5.38186,21.729923,4.72825,29.338675,17.36077,33.922443,0.0,24.512856,42.346424,105.731724,48.282349,117.4277,51.375893,114.30978,52.47377,101.8904,0.0,-25.374016,3.443215,-9.147181,13.6626,-1.655652,20.560041,6.4683,25.49982,12.786757,44.527372,38.277738,-99.153774,109.36693
76,-0.677494,1.521757,0.386925,6.596025,0.0,-52.375584,-41.041541,-104.58525,-37.635884,-107.810848,-31.707375,-101.287012,-24.114993,-79.128852,0.0,2.065951,-11.966612,5.46007,-5.403866,22.836903,4.94451,30.634738,17.890084,35.300919,0.0,27.403313,40.963177,105.491672,46.938011,117.524883,50.507767,115.234783,52.117412,102.633121,0.0,-28.017842,5.394015,-8.71491,16.301287,-0.964406,23.519916,8.485062,28.586982,15.494654,43.696286,39.322263,-98.920441,115.485723
77,-0.677493,1.521757,0.563679,7.977153,0.0,-52.38692,-41.021687,-104.338273,-37.58811,-107.407823,-31.590444,-101.048921,-23.938562,-78.914506,0.0,2.424372,-12.106034,6.04575,-5.425871,23.943884,5.16077,31.930801,18.419397,36.679394,0.0,30.867015,39.652977,106.061096,45.556102,117.960777,49.528267,116.053619,51.580742,103.386863,0.0,-31.643332,7.648375,-9.457274,19.38283,-1.130348,26.920567,9.988271,31.899824,17.80239,42.966791,40.190497,-98.408764,122.809353
78,0.549428,4.805222,0.297409,9.806934,0.0,-52.439556,-41.275449,-104.828263,-38.282449,-108.139609,-32.809811,-102.16098,-25.626275,-81.048132,0.0,2.512055,-10.871296,8.492648,-2.815391,26.324254,8.831816,34.839423,22.641079,40.162498,0.0,35.859741,38.61232,107.224022,43.96035,118.648796,47.950962,117.211601,50.182399,104.339676,0.0,-34.887599,9.151387,-9.967368,21.977343,-0.566862,30.216762,12.117129,35.559185,20.806752,43.756906,43.872994,-97.870668,131.493562
79,1.146399,7.656378,-0.067704,10.108784,0.0,-54.252682,-41.412471,-104.927533,-39.352029,-109.415624,-34.538298,-103.802832,-27.815552,-83.370826,0.0,-0.473058,-9.421742,9.788788,0.214201,26.679598,12.995455,35.553934,27.389223,42.403514,0.0,40.165364,38.747475,108.536202,43.396134,119.362793,46.815114,117.563965,48.573304,104.563797,0.0,-37.133493,9.456872,-10.904543,23.369252,-0.49706,32.634333,13.198292,38.778425,23.594208,45.344795,49.833088,-97.496882,139.906062
80,0.483535,11.560552,-0.033599,10.061439,0.0,-56.82566,-41.659023,-105.755325,-40.171863,-110.329301,-35.728678,-103.523552,-29.218911,-84.154232,0.0,-3.959453,-8.154613,12.074322,3.121426,28.12749,16.976786,37.157851,31.681663,44.191153,0.0,45.039379,38.968196,110.450317,42.970413,120.301483,45.690261,117.664604,46.721729,104.30278,0.0,-38.452383,9.393565,-10.535744,24.614239,0.574161,35.074401,14.860119,42.039193,26.30173,46.411149,59.149689,-96.947662,147.72355
81,-0.551583,15.289448,0.562866,9.049937,0.0,-58.405964,-42.298188,-105.406369,-40.622086,-105.723393,-35.550843,-94.083458,-28.411904,-76.068993,0.0,-6.714611,-5.100726,14.811521,8.048653,30.161494,22.532521,38.045102,36.604557,46.163638,0.0,49.736034,38.458854,110.769745,41.624462,120.355362,43.568916,116.900734,43.866154,103.123237,0.0,-38.789954,9.624258,-7.892401,26.227783,3.969674,37.926238,18.603608,45.725179,30.490599,46.537302,71.984784,-95.70706,154.319134
82,-3.481201,20.346248,0.768436,8.563028,0.0,-59.044282,-43.130494,-99.030379,-41.644227,-95.23177,-36.347558,-81.04045,-28.918534,-65.723208,0.0,-8.190655,-0.898969,17.391837,15.009333,32.10541,30.846708,39.961458,44.903695,49.752733,0.0,54.746659,38.199829,110.609814,40.532238,119.901135,41.55867,115.647709,41.000817,101.580998,0.0,-37.188191,10.141505,-3.853967,27.930255,9.359201,40.71049,23.693806,49.219141,35.272193,43.664441,89.827068,-94.330284,160.378198
83,-7.637742,22.119584,1.393021,7.763447,0.0,-58.69931,-43.882324,-85.890386,-42.49617,-77.719619,-36.782524,-63.044374,-28.874656,-50.768903,0.0,-8.116851,3.076498,17.95405,21.370978,32.685845,38.46456,41.294359,52.886708,52.853808,0.0,57.882488,37.648407,109.618091,39.167003,118.426426,39.274853,113.180706,37.781822,98.617573,0.0,-33.715503,11.120805,2.478587,29.763909,16.091219,43.401141,29.976997,52.445564,40.992752,36.403278,109.623419,-92.560684,165.818412
84,-5.116973,25.331618,1.643188,8.155253,0.0,-57.689976,-46.219037,-75.766943,-45.357274,-60.036747,-39.688042,-44.574801,-31.868317,-36.589343,0.0,-5.893274,2.982317,16.009857,22.402185,33.022429,40.149877,42.228896,54.6457,53.603291,0.0,61.507794,37.014119,109.131626,37.267651,116.762089,36.331066,110.701847,33.956292,95.103299,0.0,-28.826784,13.232459,10.649637,32.273026,25.0948,46.32905,38.970167,55.652102,48.422623,31.587994,132.925838,-90.615807,171.944466
85,-4.966828,24.273599,2.238785,9.013165,0.0,-54.682148,-47.870613,-62.54746,-46.872631,-40.848369,-40.93087,-25.962862,-32.985077,-21.636103,0.0,-1.601527,5.196785,12.44416,25.007083,31.767018,42.769003,41.524219,56.865337,53.813854,0.0,64.684982,36.076973,108.085682,35.111607,114.615086,33.212448,108.061649,30.098671,91.620037,0.0,-23.867535,15.798349,18.784833,35.02818,34.407576,49.297836,47.766055,58.758073,55.617101,26.823183,155.571554,-88.175005,179.329748
86,-5.932686,27.437709,2.551598,10.017695,0.0,-53.60729,-49.04635,-48.321727,-48.629871,-26.332563,-43.325964,-16.347982,-35.890096,-17.46472,0.0,4.601394,6.286884,8.809246,24.006609,27.576469,39.758769,37.210706,52.258639,48.048169,0.0,67.33406,36.167186,106.973705,33.61885,111.409229,30.354767,103.898746,26.046489,86.126072,0.0,-18.308923,18.908223,27.321136,37.8625,44.07364,51.948645,56.543531,61.115741,62.426455,21.063142,181.721533,-85.450762,188.059713
87,-5.004043,29.273913,2.871483,10.862243,0.0,-54.414717,-49.945719,-37.940031,-49.687466,-16.855459,-44.530558,-10.172264,-37.059374,-17.467095,0.0,12.167616,6.8915,5.713667,19.387314,21.126984,29.93513,27.542586,38.079818,34.874472,0.0,68.908607,35.675365,105.629116,31.691082,108.540012,27.269577,100.235652,22.003429,80.833889,0.0,-13.133176,21.759968,36.024338,40.405975,53.267363,54.207846,65.289032,63.123704,69.950459,16.234543,209.846647,-82.403835,197.773157
88,-1.280205,22.166595,2.987457,12.307438,0.0,-47.164976,-49.155516,-25.171492,-50.181358,-6.946707,-45.602022,-3.721275,-38.456045,-25.414868,0.0,6.787982,5.885796,6.163272,16.790351,21.99228,25.723307,28.47992,32.611374,37.455478,0.0,70.679512,35.371593,105.066685,30.364197,106.730129,25.217022,98.163288,19.40847,77.353992,0.0,-8.687048,25.399673,43.171985,43.459656,61.39778,56.514298,72.908032,64.718927,76.120165,15.110773,231.118432,-79.259943,209.185785
89,-6.579929,16.822961,3.521839,11.486601,0.0,-38.090659,-44.07236,-8.217654,-44.904065,3.899877,-40.354288,1.851505,-32.875655,-31.211552,0.0,3.064259,9.733032,12.823313,19.642886,26.509619,26.928564,32.662041,32.410216,43.979002,0.0,71.739487,34.820045,103.239807,28.942566,104.248329,22.892326,94.643234,16.243114,72.287327,0.0,-4.794339,27.867381,49.265368,45.891733,67.580071,58.771708,78.464742,66.607749,81.034683,8.650647,247.335097,-75.618301,220.06609
90,-2.423104,16.768707,3.678337,11.035367,0.0,-39.18873,-43.831449,-5.362798,-44.194084,-1.056249,-39.42267,-7.199638,-31.871733,-41.513523,0.0,8.186617,14.150422,17.773523,22.476205,27.976599,27.706756,34.058946,31.6568,46.375387,0.0,72.386684,34.283249,101.376732,27.237419,101.070763,20.076496,89.971687,12.527996,66.414585,0.0,-1.245617,29.965042,54.603741,47.700835,72.527921,60.207245,83.117623,67.555507,84.989031,6.324383,263.728186,-71.843124,230.725839
91,-0.780784,10.140394,3.671208,10.594185,0.0,-30.073986,-40.113076,4.70145,-41.924595,4.093883,-38.316731,-6.284981,-31.638199,-50.651013,0.0,0.265032,15.271383,23.998482,25.858182,34.187831,32.731497,41.693557,38.145576,57.085625,0.0,72.200271,33.523418,99.600093,25.784111,99.243129,17.752292,86.988109,9.512489,62.325691,0.0,1.782697,31.005042,57.637612,48.489548,75.497783,60.67756,85.533027,67.854601,86.985224,5.602261,273.624971,-68.113254,241.076415
92,3.411117,2.082174,3.752311,9.479244,0.0,-25.411789,-38.007877,8.893353,-41.9225,5.790894,-40.741997,-7.822265,-36.732433,-62.71439,0.0,-9.024934,17.344641,33.053538,32.331491,45.021657,42.8598,55.071253,51.561322,73.995136,0.0,71.514187,32.77113,97.283741,24.414814,96.511563,15.655323,82.778195,6.849529,57.903694,0.0,4.362222,31.991196,60.443613,49.331725,77.789069,61.266128,87.00927,68.269551,87.434693,9.080881,275.582505,-64.29344,250.431019
93,-5.47657,3.79271,3.640698,7.345705,0.0,-17.626682,-29.90419,15.227612,-34.871818,11.736099,-35.962475,-3.218491,-34.25425,-59.028099,0.0,-4.893152,19.444686,40.622237,34.80704,50.63004,45.362952,58.825493,53.902602,74.552681,0.0,71.331253,31.980617,94.25885,23.013027,93.449432,13.419376,78.628601,3.837135,54.178745,0.0,6.352722,31.669527,61.758242,49.051292,78.738296,61.157349,87.725155,68.510428,88.027806,3.667282,279.298225,-60.589771,257.699734
94,-1.616718,2.308107,3.105194,6.671354,0.0,-13.058304,-25.678391,16.96685,-31.639744,13.527866,-35.244679,-0.794049,-36.642906,-59.955643,0.0,-2.51917,21.833624,44.186743,37.6607,55.105191,48.060185,62.051952,56.457463,74.473801,0.0,70.852821,31.218006,92.124687,21.818859,90.904083,11.851146,75.930542,2.07867,52.43486,0.0,8.014957,32.053824,62.230719,49.074226,78.917261,60.799617,87.655241,67.964196,87.447575,2.101988,281.540475,-57.433153,264.305231
95,-6.253842,-0.74135,2.133487,4.865822,0.0,1.724076,-16.617485,30.878987,-24.740181,29.327969,-31.709072,14.753094,-36.459446,-56.54528,0.0,-10.863294,21.530022,49.621988,39.147167,62.451365,50.390534,67.915264,59.308652,78.636926,0.0,69.993313,30.692746,89.977673,21.282258,89.221241,11.171471,74.37164,1.248448,51.51772,0.0,9.371464,32.164295,62.235226,48.940857,78.335115,60.428335,86.811433,67.613626,86.813743,-4.101986,280.72127,-55.249798,269.093198
96,-6.840946,-1.426324,1.198758,3.122594,0.0,8.838879,-10.121132,36.827202,-18.707279,34.992806,-27.853294,20.776795,-35.235145,-51.3838,0.0,-7.552816,23.677232,53.400645,41.454336,67.434748,52.338106,71.894832,60.972283,79.932537,0.0,69.709396,30.503631,88.828972,21.140808,87.801475,11.041053,72.977623,1.145061,51.572193,0.0,10.718921,32.460957,62.328754,49.147635,77.403771,60.510316,85.87988,67.661718,86.635804,-10.879091,279.20998,-53.987199,272.130826
97,-6.244022,-0.009324,0.340587,1.626284,0.0,17.043434,-4.634217,43.414867,-13.355427,41.094074,-23.553223,26.525081,-31.948277,-46.371758,0.0,-6.136213,23.844934,53.331657,41.704524,68.634681,52.69422,73.320636,61.409043,80.765389,0.0,69.701809,30.433777,88.498936,21.274086,87.587986,11.297779,73.135311,1.50222,52.643727,0.0,11.675694,32.575368,61.555182,49.125096,75.748366,60.400906,84.339849,67.531486,86.350578,-17.074116,279.092905,-53.597615,273.649359
98,2.473388,-0.037804,-0.395748,0.482419,0.0,11.894234,-7.344074,38.212338,-15.640319,35.451222,-26.095756,21.585812,-35.128589,-52.138973,0.0,-6.908648,24.477258,51.22482,42.014869,67.540687,52.445416,72.466678,60.960007,80.327172,0.0,69.386467,30.20422,88.474228,21.036747,87.211373,11.030514,72.946793,1.318463,52.530338,0.0,12.709396,32.771796,61.486725,49.423066,74.886182,60.648291,83.303245,67.630484,85.517404,-14.526845,278.944892,-53.91948,274.021569
99,0.694817,0.40843,-0.606205,0.066023,0.0,9.632675,-9.164474,36.556881,-17.639488,34.136616,-27.892902,20.280865,-36.641121,-53.992721,0.0,-6.162061,23.617754,50.602548,41.203481,66.1185,51.839001,71.431617,60.457902,79.999746,0.0,69.442486,30.067257,88.435375,20.955631,87.322392,10.964516,73.173443,1.313175,52.901241,0.0,13.325332,32.720358,61.360273,49.452003,74.468577,60.675103,82.75195,67.613639,85.15698,-13.692936,279.239269,-54.386593,273.973539
100,1.724098,0.227834,-0.452534,0.064517,0.0,6.250946,-11.258789,34.553593,-20.136039,33.421383,-30.302044,19.058934,-38.89064,-57.65974,0.0,-4.201251,22.776121,50.619295,40.230011,65.445643,51.097169,71.090607,59.9844,80.510175,0.0,69.522721,29.98795,88.651932,20.863839,87.371956,10.883137,73.105729,1.279885,53.047314,0.0,13.671332,32.53297,61.051336,49.388659,74.180511,60.685415,82.42429,67.638895,84.799581,-11.775112,279.352886,-54.645401,273.923839
101,4.844456,0.884896,-0.347488,-0.198614,0.0,-2.115086,-16.716785,28.125572,-26.062351,28.869965,-35.74807,14.375404,-43.622761,-65.032139,0.0,-3.720784,22.156554,50.503896,39.299222,63.896869,50.119141,69.556652,59.064676,80.111563,0.0,69.515167,29.610558,88.787384,20.468147,87.502121,10.488682,73.280525,0.94582,53.090023,0.0,13.754472,32.384003,60.910594,49.381706,74.393933,60.738348,82.592584,67.623272,84.662656,-6.722134,280.154407,-54.784367,273.64185
102,-1.884315,2.98972,-0.242374,0.001001,0.0,-6.083588,-16.811131,31.320281,-25.9101,31.843414,-34.071808,17.305046,-40.104104,-58.470887,0.0,1.104937,20.098611,48.435949,36.914928,60.229821,47.9776,66.23737,57.212844,76.195661,0.0,69.395931,29.134151,88.554576,19.847728,86.981495,9.830314,72.81847,0.35329,52.613124,0.0,13.762635,32.259391,60.717624,49.318115,74.273148,60.664197,82.500291,67.461016,84.246334,-8.382499,283.091472,-54.802791,273.590196
103,0.141094,-0.064072,-0.175473,0.123834,0.0,-6.575901,-17.555111,31.355518,-26.844704,32.359577,-34.919335,17.75703,-40.682877,-58.874359,0.0,2.173948,20.113776,48.686421,36.682647,60.342811,47.601244,66.222327,56.717778,76.318668,0.0,69.244286,28.86454,88.521996,19.609623,86.984276,9.609341,72.486351,0.117794,52.245449,0.0,13.511435,31.855469,60.146692,48.907302,73.940227,60.285927,82.048723,67.079374,84.128934,-8.033277,282.990171,-54.770136,273.676801
104,-0.03027,-0.153845,-0.274498,0.05891,0.0,-6.521233,-17.951763,31.841286,-27.474678,32.907555,-35.633961,18.157471,-41.355331,-59.364201,0.0,2.349331,20.069032,48.789038,36.548266,60.284556,47.400098,66.104199,56.477297,76.42205,0.0,69.058731,28.575371,88.509316,19.325856,86.823441,9.397007,72.101944,-0.008331,51.893143,0.0,13.672924,31.722286,59.88508,48.766326,73.726534,60.13596,81.77607,66.906435,84.043632,-7.881535,282.813525,-54.862622,273.71291
105,2.075169,0.550764,-0.247707,0.056082,0.0,-9.623371,-20.720696,29.50407,-30.45084,30.195041,-38.32267,15.489017,-43.42812,-61.916794,0.0,2.225893,20.172353,48.54705,36.280294,59.364697,46.797599,65.206929,55.63312,75.521483,0.0,68.974422,28.134064,88.298138,18.895317,86.659893,9.047836,71.96497,-0.244778,51.632732,0.0,13.758387,31.519139,59.639721,48.523782,73.631932,59.8649,81.725953,66.572143,83.999567,-5.629697,283.365014,-54.93366,273.769717
106,-3.631096,2.039703,-0.137432,0.166059,0.0,-11.982422,-18.325344,35.771198,-27.605988,36.016216,-34.367729,21.54047,-38.147782,-52.886627,0.0,7.923553,19.199771,47.170189,35.10338,56.757446,45.820856,63.228272,54.764674,72.18123,0.0,68.682564,27.745388,88.094536,18.428844,86.523651,8.606575,71.770592,-0.632984,51.278984,0.0,13.9241,31.261208,59.493903,48.268778,73.342965,59.633521,81.493068,66.343704,83.86069,-9.081379,285.408191,-54.891678,273.93925
107,4.471447,-2.481873,-0.267643,0.118227,0.0,-12.741532,-21.914246,29.340385,-31.766556,30.518074,-39.430882,15.982452,-44.10957,-62.308502,0.0,3.862279,21.213181,49.49813,37.099376,59.752885,47.292801,65.556411,55.740479,75.123464,0.0,68.594799,27.685501,88.174633,18.402294,86.854992,8.594204,71.99683,-0.693958,51.39537,0.0,13.934647,30.990556,59.202096,48.010093,73.365232,59.425373,81.428502,66.184561,83.963344,-4.401489,282.943219,-54.950878,274.074378
108,-1.32811,2.049373,-0.325287,0.136839,0.0,-12.544201,-21.671299,32.854065,-31.636574,33.4235,-38.264202,18.674698,-41.485187,-55.320351,0.0,6.17682,19.945852,48.48378,36.114111,57.151118,46.824893,63.437964,55.619979,71.705826,0.0,68.730503,27.635719,88.287357,18.372963,87.185177,8.646606,72.243084,-0.51757,51.666596,0.0,13.950493,30.821039,59.120697,47.921296,73.286402,59.394967,81.295652,66.197726,83.859739,-5.486687,285.016526,-55.033253,274.235151
109,1.721455,0.352323,-0.180336,0.111101,0.0,-16.378945,-23.432556,29.761196,-33.278263,30.865368,-39.430756,16.310749,-42.201496,-56.725571,0.0,6.667007,20.713558,48.765449,36.621798,57.045228,46.985148,62.859178,55.568862,71.058323,0.0,68.683422,27.290371,88.128742,18.133896,87.356998,8.552673,72.531704,-0.446491,51.949413,0.0,13.941453,30.708307,58.86158,47.806428,73.240633,59.328697,81.281191,66.197615,83.966803,-3.50612,285.384685,-54.954477,274.362088
110,-4.776741,3.101106,-0.167656,-0.018451,0.0,-19.643383,-20.70607,36.000744,-29.498497,37.503078,-34.088642,23.637142,-35.281483,-44.889119,0.0,13.676234,19.538089,47.160234,34.636954,53.851756,44.755093,59.719688,53.228583,66.246163,0.0,68.579601,27.084744,88.097729,18.036621,87.605198,8.549057,72.821743,-0.350361,52.228947,0.0,13.959533,30.717706,58.814304,47.775022,73.277843,59.295278,81.261604,66.203716,84.177087,-8.009285,288.488317,-54.848557,274.346163
111,3.705093,-1.792145,-0.2463,0.021786,0.0,-18.543858,-23.601368,29.665386,-32.674049,31.652515,-38.128727,17.48901,-40.455036,-53.593311,0.0,8.289116,21.043972,48.3277,36.030081,56.182241,45.655228,61.491208,53.781175,69.367732,0.0,68.543599,26.742485,87.958409,17.841099,87.699429,8.513821,73.044423,-0.204002,52.476254,0.0,14.059889,30.754817,58.630336,47.803908,73.314609,59.305207,81.334506,66.206544,84.312679,-3.999001,286.69452,-54.789666,274.366297
112,-5.667732,2.587947,-0.050674,0.006459,0.0,-14.730995,-19.789662,36.408611,-27.819981,38.43639,-31.973088,25.32455,-33.04739,-39.576485,0.0,11.861908,19.415849,46.053988,34.329598,53.417762,44.404548,59.248335,52.869925,65.667772,0.0,68.413845,26.316845,87.778347,17.505421,87.613895,8.31221,73.135815,-0.228012,52.536587,0.0,14.148835,30.690856,58.544627,47.720187,73.269173,59.246754,81.389093,66.190736,84.429943,-9.352083,289.265272,-54.52569,274.355561
113,3.148784,-1.683032,0.063435,-0.016426,0.0,-18.050708,-22.276439,30.348679,-30.148178,33.092125,-34.786766,20.052544,-36.648468,-48.49308,0.0,9.213396,21.425269,47.25696,35.993055,55.723584,45.317071,60.732814,53.260854,68.528742,0.0,67.971565,25.923168,87.448448,17.130111,87.293586,7.973396,72.933631,-0.511837,52.259994,0.0,14.370507,30.646236,58.413445,47.678037,73.258367,59.223672,81.450807,66.172273,84.538599,-5.891053,287.568628,-54.150009,274.325523
114,-3.644588,2.199043,0.017967,-0.023329,0.0,-17.436493,-20.055347,36.334774,-27.610554,38.682941,-31.379356,25.702778,-32.091122,-41.827984,0.0,14.998508,20.110998,46.166905,34.435772,53.067995,44.018189,58.869274,52.174566,65.866201,0.0,67.747604,25.891159,87.30233,17.052051,87.025726,7.800773,72.675796,-0.812599,51.883907,0.0,14.500615,30.313994,58.334515,47.429454,73.270853,59.070889,81.509408,66.082772,84.504871,-9.222588,289.760044,-53.818989,274.294567
115,3.469002,-3.235734,-0.010792,0.017821,0.0,-13.632946,-21.409149,30.901554,-29.771324,32.895687,-35.059948,19.086261,-37.475601,-52.60611,0.0,7.215931,22.073982,47.478027,37.476646,56.340286,47.371397,61.976394,55.61084,70.752288,0.0,67.542011,25.816292,87.106487,16.937782,86.778889,7.644093,72.475124,-1.005913,51.643524,0.0,14.71647,29.946542,58.322746,47.229185,73.163136,59.034802,81.468825,66.131061,84.362302,-5.446764,286.519698,-53.522959,274.307776
116,-5.097256,2.691602,-0.028358,-0.01808,0.0,-12.941837,-18.272861,36.941895,-25.294315,38.890595,-29.170727,26.872948,-30.195831,-38.742542,0.0,14.920554,21.252219,45.799502,35.729974,54.056014,45.289098,58.844783,53.290828,65.289686,0.0,67.62965,26.026062,87.010814,17.149692,86.667423,7.785324,72.404331,-0.986447,51.592025,0.0,14.747567,29.582201,58.278458,46.975588,73.105337,58.929369,81.40248,66.142459,84.231958,-10.241192,289.195556,-53.248489,274.273952
117,3.519997,-2.964588,-0.126721,0.023662,0.0,-14.781292,-19.810788,31.929062,-27.326317,33.775612,-32.641926,20.926529,-35.361512,-50.619473,0.0,10.783079,23.824186,47.739849,38.548115,57.153403,47.725782,61.538089,55.331815,69.620613,0.0,67.675301,26.192963,86.999794,17.346886,86.648071,7.943024,72.408531,-0.88266,51.660427,0.0,14.850419,29.121025,58.171482,46.680879,72.965386,58.790962,81.257108,66.118266,84.05765,-6.429153,286.217414,-53.083168,274.28406
118,-1.168293,-0.031048,-0.019192,0.003977,0.0,-13.624512,-18.689392,33.172313,-26.007946,35.083912,-31.400265,22.212696,-34.311402,-49.496659,0.0,10.911174,23.857506,47.39254,38.556624,56.931879,47.776837,61.485713,55.370149,69.691663,0.0,67.786457,26.120568,86.919354,17.284012,86.545727,7.921578,72.442257,-0.794059,51.824616,0.0,14.858915,28.900243,58.342629,46.552598,72.967449,58.765298,81.27693,66.149017,83.936693,-7.318823,286.174522,-52.823737,274.276193
119,-2.319832,0.967295,-0.024776,0.008287,0.0,-14.164444,-17.180569,34.591175,-23.706368,37.226269,-28.665882,25.378818,-31.324036,-39.403839,0.0,14.390897,24.205199,46.669418,37.690982,56.439482,45.983593,59.948437,52.831936,66.497809,0.0,67.818191,26.023579,86.882629,17.153549,86.433105,7.802227,72.328651,-0.837891,51.74596,0.0,14.799005,28.800281,58.333885,46.466518,72.927496,58.687135,81.225862,66.045548,83.75984,-9.381523,287.13169,-52.591381,274.274353
120,-1.312294,-0.148386,0.041359,-0.023613,0.0,-12.540253,-15.797516,36.44997,-22.294693,39.347133,-27.499466,27.203762,-30.580067,-37.864334,0.0,15.354833,23.846095,46.833699,37.316145,57.037139,45.707877,60.627185,52.655453,66.847686,0.0,67.895874,26.011665,86.877502,17.021427,86.236336,7.586506,72.094505,-1.081112,51.496685,0.0,14.798041,28.765231,58.353546,46.378993,72.948454,58.532919,81.219477,65.807142,83.648948,-10.473839,286.980732,-52.330044,274.248168
