takenoko1/special-research/HandMotion_SimilarSearch_自分用/NewProject/handData/test_key/d4_feature_d3/125.csv
frame,vel_0x_L,vel_0y_L,vel_0x_R,vel_0y_R,posFromWrist_0x_L,posFromWrist_1x_L,posFromWrist_2x_L,posFromWrist_3x_L,posFromWrist_4x_L,posFromWrist_5x_L,posFromWrist_6x_L,posFromWrist_7x_L,posFromWrist_8x_L,posFromWrist_9x_L,posFromWrist_0y_L,posFromWrist_1y_L,posFromWrist_2y_L,posFromWrist_3y_L,posFromWrist_4y_L,posFromWrist_5y_L,posFromWrist_6y_L,posFromWrist_7y_L,posFromWrist_8y_L,posFromWrist_9y_L,posFromWrist_0x_R,posFromWrist_1x_R,posFromWrist_2x_R,posFromWrist_3x_R,posFromWrist_4x_R,posFromWrist_5x_R,posFromWrist_6x_R,posFromWrist_7x_R,posFromWrist_8x_R,posFromWrist_9x_R,posFromWrist_0y_R,posFromWrist_1y_R,posFromWrist_2y_R,posFromWrist_3y_R,posFromWrist_4y_R,posFromWrist_5y_R,posFromWrist_6y_R,posFromWrist_7y_R,posFromWrist_8y_R,posFromWrist_9y_R,posFromBody_0x_L,posFromBody_0y_L,posFromBody_0x_R,posFromBody_0y_R
6,0.960022,-1.434487,0.200398,0.068593,0.0,-22.156677,-42.736633,17.703369,-54.263523,19.928971,-58.184795,9.407776,-58.270729,-11.955643,0.0,-2.412452,14.649112,45.041591,34.965134,58.428203,50.32939,65.072399,62.285344,66.040633,0.0,65.669472,26.870521,90.345817,18.317116,89.225258,10.001289,75.189789,2.647465,57.067543,0.0,6.80797,33.176582,56.823803,50.172037,70.052829,61.330348,80.157987,67.898789,84.731828,12.244617,295.666805,-56.411213,287.013424
7,-6.082077,1.587962,0.242523,0.085487,0.0,-12.964359,-36.319691,23.117272,-46.971634,26.223244,-50.485657,15.600563,-50.533504,-5.561668,0.0,-3.693466,14.912341,43.078594,34.731902,57.096826,49.59383,63.758226,60.941074,64.537171,0.0,65.830284,26.699947,90.27095,18.238598,89.215759,10.015205,75.208626,2.754215,57.256851,0.0,6.620138,32.954688,56.687459,49.931,69.976851,61.113753,79.955063,67.727938,84.631978,6.265405,297.292718,-56.065825,287.136862
8,4.479973,-1.223931,0.059052,0.042274,0.0,-18.692493,-40.086937,19.003738,-51.428478,21.381088,-55.527042,11.33004,-56.101135,-10.644585,0.0,-2.788018,14.600601,43.979162,34.838187,58.013203,50.147967,64.606295,62.087878,65.518954,0.0,66.106613,26.793102,90.397956,18.386329,89.307014,10.200656,75.28054,2.936038,57.421234,0.0,6.434084,32.840191,56.480052,49.737561,70.037935,60.897367,79.836219,67.54449,84.552332,10.821699,296.080962,-55.930452,287.191311
9,-5.005463,1.165762,0.223194,0.00683,0.0,-10.480453,-34.757492,23.361855,-45.484531,25.757813,-49.375064,15.758767,-49.971153,-5.578399,0.0,-3.023375,14.660807,42.940001,34.502215,57.482322,49.379655,64.003116,60.747412,64.563254,0.0,66.338321,26.668636,90.285816,18.30677,89.372692,10.130264,75.310123,2.852588,57.573246,0.0,6.43669,32.73251,56.451214,49.641354,69.927945,60.839297,79.578089,67.530275,84.45321,5.870309,297.253186,-55.653185,287.204603
10,4.395539,-1.67729,0.202858,-0.027726,0.0,-16.034237,-39.152607,19.285721,-50.456154,21.187957,-54.625923,11.637039,-55.325512,-9.998932,0.0,-1.25299,14.767142,44.621354,35.017473,58.886799,50.327525,65.451547,62.140354,66.036965,0.0,66.455921,26.607238,90.339969,18.193393,89.336208,9.999641,75.092937,2.756687,57.483432,0.0,6.467886,32.634438,56.430725,49.619877,69.970713,60.884844,79.473373,67.622678,84.416135,10.305044,295.579113,-55.411131,287.180094
11,-4.742935,1.437562,0.367744,0.014351,0.0,-8.519429,-33.869305,23.17646,-44.189541,25.932426,-47.816575,16.509864,-48.340714,-3.519265,0.0,-2.244059,15.026555,43.181878,34.83978,57.66976,49.729941,64.228506,60.972518,64.723904,0.0,66.448872,26.424763,90.263294,17.954533,89.279858,9.754292,74.948124,2.538609,57.3475,0.0,6.464169,32.437726,56.34357,49.517618,69.928723,60.869209,79.344339,67.667225,84.345011,5.58763,297.022007,-55.017866,287.199777
12,5.53022,-1.7248,0.258202,-0.077818,0.0,-16.563504,-38.488965,18.19416,-49.212502,20.189643,-53.232914,11.045791,-53.961846,-9.118126,0.0,-0.822935,16.034371,44.939529,36.017249,58.924404,51.076853,65.345237,62.617968,66.356338,0.0,66.37405,26.602752,90.351711,18.116043,89.288417,9.858993,74.980854,2.555832,57.324062,0.0,6.588633,32.40921,56.22785,49.505552,69.854919,60.912236,79.261507,67.798605,84.361486,11.137665,295.313358,-54.739849,287.13811
13,-4.726273,2.198685,0.275711,-0.067012,0.0,-9.637219,-33.100124,22.199272,-42.952618,25.443672,-46.507713,16.206139,-47.150951,-2.496964,0.0,-3.465421,14.858248,41.670512,34.582824,56.147661,49.62872,63.095262,61.042975,64.515892,0.0,66.369198,26.427326,90.235347,17.9603,89.400089,9.768757,75.050022,2.569061,57.338436,0.0,6.997619,32.23968,56.248599,49.487139,69.613426,61.029624,79.035304,67.986957,84.064961,6.417601,297.532266,-54.457929,287.091321
14,-2.192986,2.694195,0.213581,-0.143397,0.0,-6.986972,-30.124466,24.934525,-39.557922,29.027596,-43.178958,19.939248,-43.945999,1.099114,0.0,-7.7127,13.19615,38.600825,32.353499,53.404535,47.271843,60.280753,58.915933,62.407585,0.0,66.236892,26.412563,90.20034,17.956661,89.296142,9.813412,74.976494,2.69965,57.239937,0.0,7.206805,32.344273,56.226381,49.641132,69.594259,61.211714,79.040392,68.146631,83.902607,4.214939,300.252335,-54.254024,286.973798
15,-9.465168,4.370139,0.210491,-0.069209,0.0,4.746815,-19.860248,34.288159,-28.048256,39.406346,-31.670791,30.90746,-32.797954,12.797917,0.0,-12.140983,11.210861,33.68811,29.648015,49.373517,43.977939,56.2526,55.153442,58.910461,0.0,66.327335,26.264145,90.163364,17.865028,89.380108,9.795822,75.294193,2.762638,57.550358,0.0,7.421794,32.234789,56.214932,49.636673,69.312985,61.30655,78.892659,68.278258,83.637104,-5.263882,304.656862,-54.057186,286.938977
16,5.88929,-0.881253,0.150398,-0.103346,0.0,-4.678184,-25.477352,28.838848,-34.301834,33.998417,-38.155266,25.758282,-39.349022,6.119213,0.0,-11.750288,10.99024,34.616281,29.845765,50.234047,44.621342,56.857248,56.393033,59.872916,0.0,66.312367,26.238476,90.121296,17.894257,89.439343,9.873699,75.506459,2.872616,57.739895,0.0,7.703413,32.126356,56.11402,49.636266,69.073431,61.408142,78.752202,68.448837,83.457781,0.600288,303.806942,-53.931908,286.866964
17,-6.048099,1.943199,0.219624,0.046474,0.0,3.557041,-19.04147,34.879326,-27.254574,40.640533,-30.905503,32.351646,-32.19215,13.537445,0.0,-14.455672,9.769125,31.603034,28.181974,47.898486,42.709574,55.051122,54.265583,58.106706,0.0,66.315285,26.174892,89.943741,17.837894,89.22686,9.841507,75.376259,2.871734,57.633751,0.0,7.554705,31.995284,55.911416,49.527374,68.686909,61.338931,78.505781,68.390446,83.085092,-5.481537,305.772621,-53.74601,286.935918
18,-1.038586,1.613094,0.285381,-0.009708,0.0,4.997521,-17.106113,37.188938,-25.174644,42.435436,-28.976143,33.495632,-30.336662,14.176586,0.0,-14.106029,8.442813,30.301471,26.912682,46.24392,41.650665,53.238797,53.493517,56.12122,0.0,66.280048,26.087757,89.888409,17.795391,88.979977,9.793842,75.347775,2.795437,57.771687,0.0,7.326773,32.065137,55.74101,49.556954,68.48858,61.33929,78.355333,68.35536,82.936423,-6.559977,307.405447,-53.500483,286.945942
19,8.303764,-3.084198,0.090157,-0.014857,0.0,-6.999755,-24.857276,28.847661,-33.49744,33.46851,-37.316448,24.486615,-38.481605,3.897801,0.0,-9.569042,10.331066,34.215903,29.288356,49.141434,44.152964,55.832437,55.99284,58.378753,0.0,66.115871,26.183063,90.076961,17.860061,88.929439,9.832603,75.363933,2.78199,57.815838,0.0,7.123231,31.948206,55.645816,49.379001,68.390965,61.131216,78.326989,68.158203,82.84565,1.694171,304.335869,-53.459942,286.945705
20,6.979786,-2.904888,0.252639,0.074446,0.0,-15.412983,-31.96265,21.715737,-40.980446,26.271057,-44.238567,16.645226,-44.698116,-4.062515,0.0,-6.677702,12.569333,36.780707,31.691522,51.29566,46.594206,58.015661,58.317768,60.609376,0.0,66.22054,26.099648,89.868153,17.787392,88.755124,9.732319,75.161992,2.631054,57.56519,0.0,6.97035,31.975105,55.305151,49.258489,68.162588,60.879929,78.09566,67.818354,82.65373,8.614191,301.435763,-53.267069,287.024933
21,1.210808,0.287362,0.212998,-0.02365,0.0,-16.730415,-32.318035,20.709549,-41.099132,24.84684,-44.258823,14.984436,-44.529407,-6.083061,0.0,-7.288352,13.707517,36.741371,32.499686,50.920896,46.916567,57.324043,58.072051,59.880733,0.0,66.07172,26.259476,89.771061,17.931347,88.504932,9.793224,74.905735,2.56723,57.267368,0.0,6.808897,32.259823,55.191901,49.341358,68.071604,60.786982,78.135847,67.604746,82.673934,9.763744,301.724962,-53.115326,287.00312
22,2.078785,-0.636931,0.106087,-0.120648,0.0,-18.767681,-34.170216,18.557476,-42.90073,22.402393,-46.001896,12.172817,-46.250015,-9.450611,0.0,-6.417338,14.580717,37.291753,33.498894,51.365944,47.800401,57.567044,58.727643,60.134873,0.0,66.052494,26.216297,89.88438,17.88438,88.575908,9.742881,75.042446,2.518341,57.258419,0.0,6.967558,32.417559,55.087567,49.456695,68.005383,60.814387,78.161165,67.51753,82.704649,11.779489,301.087157,-53.072279,286.881598
23,8.088444,-2.580451,0.065666,-0.102666,0.0,-30.820164,-42.379028,9.694107,-51.663643,13.345825,-54.649738,3.946907,-54.563336,-18.295258,0.0,-5.005945,17.15713,40.614518,35.934751,54.1921,49.750961,59.614848,60.216779,62.148048,0.0,66.130108,26.166401,89.964855,17.793697,88.547802,9.666996,75.179088,2.497307,57.168331,0.0,7.145881,32.370826,54.94007,49.419522,67.711352,60.768766,78.011,67.421039,82.61616,19.807984,298.506243,-53.066562,286.778469
24,-4.026009,0.776116,0.287716,0.044855,0.0,-24.963833,-38.246017,14.055634,-47.104419,17.643128,-49.79314,7.064438,-49.488018,-15.363418,0.0,-7.012068,17.390695,38.314575,35.90679,52.456926,49.369837,58.463277,59.316297,61.483478,0.0,66.482094,25.711223,89.671875,17.401176,88.387527,9.408474,75.302444,2.455684,57.217666,0.0,7.253685,32.032236,54.469372,49.196146,67.101444,60.663062,77.461088,67.340875,82.235741,15.730453,299.280636,-52.830368,286.821601
25,1.285057,-1.405205,0.090603,-0.51569,0.0,-27.355556,-38.708221,12.498505,-47.992927,15.469414,-51.468647,5.212944,-51.942833,-17.754295,0.0,-5.923803,17.052525,38.470668,36.097525,52.870864,50.204901,59.043299,60.797048,62.413093,0.0,66.505359,25.039821,89.415859,16.694126,88.231624,8.844188,75.254894,2.124733,56.969341,0.0,8.103136,31.8138,54.3167,49.053861,67.316199,60.570671,77.460347,67.241951,82.411372,16.975696,297.879282,-52.779579,286.309762
26,-6.913696,3.526196,0.39244,-1.008322,0.0,-23.412334,-34.622463,17.715248,-42.416553,23.116196,-44.788502,13.466835,-44.385544,-10.217422,0.0,2.421258,16.139433,37.144318,31.779405,49.637352,43.212432,55.157148,51.598187,57.623669,0.0,65.93652,23.217957,88.457646,14.798607,87.729481,7.150944,75.367642,0.737904,56.560559,0.0,9.673609,30.541568,54.059744,48.106745,68.130329,59.981263,78.544634,66.871621,83.043955,10.040834,301.405203,-52.408305,285.301165
27,3.60434,7.79021,-0.364368,-2.23434,0.0,-37.381325,-38.525792,6.062187,-44.157772,12.884376,-44.417462,5.284858,-41.728638,-16.459809,0.0,9.050461,12.627502,32.65384,21.509163,39.973215,26.896367,40.036978,29.94149,37.494492,0.0,64.556511,20.738193,87.063972,12.168514,86.486961,4.968452,74.337616,-0.789242,54.429771,0.0,12.496801,28.882668,53.867873,46.969562,68.669262,59.405304,79.694551,66.722555,83.40023,13.668635,309.206979,-52.749212,283.078391
28,-1.455712,-1.493249,-1.939316,-3.524417,0.0,-41.472255,-31.512016,-10.469867,-34.021866,-4.526722,-32.841202,-8.868679,-29.47372,-22.067756,0.0,15.969509,12.3085,26.088672,20.861204,34.131404,26.029306,36.411032,28.327335,37.543448,0.0,61.212227,16.139603,83.932984,8.693985,83.85276,3.197342,71.793411,-0.828255,50.817913,0.0,15.181252,26.461484,50.659359,45.421812,67.64045,58.789171,79.849371,66.914796,83.892381,12.287201,307.724091,-54.61425,279.564335
29,6.600655,-4.442769,-3.203556,-6.518145,0.0,-48.31081,-31.084179,-33.427368,-30.467892,-26.683674,-27.20842,-22.509567,-22.358551,-27.310295,0.0,23.463934,13.968956,27.719883,22.615607,37.177231,27.624689,36.577103,29.360431,37.270943,0.0,56.627935,15.086632,76.226223,8.232834,75.886122,3.497635,64.717936,0.116776,46.05328,0.0,17.490878,24.427697,46.421205,43.555857,63.796036,57.242595,75.690333,65.883824,80.280982,18.97835,303.288559,-57.727312,273.053427
30,6.649544,-3.853806,-4.267261,-9.000135,0.0,-52.289509,-26.90078,-43.935379,-23.144898,-46.269379,-18.005093,-32.963814,-12.011433,-32.146843,0.0,28.330286,14.118997,23.410433,22.491229,34.200626,27.111913,31.034225,27.838024,32.235629,0.0,50.953954,17.565479,63.862197,10.910785,62.564993,6.107963,53.378328,2.434227,40.590213,0.0,18.653182,22.418561,40.831398,41.150444,56.287162,54.72224,66.641452,63.692796,71.992273,25.739588,299.437955,-61.882879,264.056494
31,7.753555,-8.118401,-5.916544,-8.955644,0.0,-58.479687,-21.444351,-54.58033,-14.564152,-58.284439,-7.975502,-41.698654,-1.778412,-33.907059,0.0,22.583422,14.203361,15.615333,23.713924,26.310245,29.183245,24.360007,30.511607,27.601236,0.0,44.423612,20.260482,53.163723,14.021473,50.229212,9.051887,42.043333,4.899776,33.596317,0.0,16.612726,16.902323,29.726605,32.213307,40.613277,43.481183,47.940211,51.241159,52.618267,33.617632,291.330567,-67.674934,255.111863
32,5.342903,-16.917575,-6.445439,-8.299021,0.0,-54.333801,-17.306946,-58.594505,-8.232651,-58.052673,-0.08361,-38.361374,7.350517,-26.045059,0.0,12.965215,11.802887,7.847304,23.723829,22.139227,32.076597,24.547345,36.577276,32.169877,0.0,36.848803,22.90836,43.668949,17.355709,39.11582,11.876107,31.773875,6.639015,26.366433,0.0,10.939111,7.409815,13.186634,16.235487,17.905922,23.077118,20.922849,28.157991,23.24824,39.105972,274.498106,-73.974936,246.897956
33,5.253708,-9.676006,-4.534784,-13.979076,0.0,-48.078804,-16.947144,-49.928433,-6.993599,-47.479992,2.12709,-26.88168,10.413895,-15.9104,0.0,4.505199,6.276251,-4.038686,14.628685,6.223071,20.349886,4.992781,23.497885,11.097908,0.0,30.691566,24.115574,33.493452,18.341944,27.61068,11.990948,22.049137,5.786556,20.088015,0.0,2.301049,-2.123418,-1.880671,1.127216,-3.552508,4.436044,-3.635197,7.696775,-2.57732,44.481405,264.935366,-78.387995,233.032146
34,-0.764168,-18.167168,-3.106625,-18.087418,0.0,-43.456192,-13.201332,-36.531921,-1.437813,-28.582752,9.677559,-11.01487,19.907547,-0.173698,0.0,-12.101834,-7.338135,-25.701244,-4.126904,-14.913935,-1.256881,-14.164483,0.78439,-8.908349,0.0,25.267611,18.50504,25.685995,13.337351,19.61954,7.86398,15.869471,2.871552,14.380457,0.0,-8.969945,-12.647442,-17.233725,-13.046004,-22.453364,-11.425994,-22.35176,-8.46752,-20.570254,43.74543,246.887441,-81.466427,215.063971
35,7.129212,-30.362962,-5.835491,-21.814717,0.0,-40.66008,-11.946534,-30.948853,-4.420395,-16.820618,3.324485,-7.721627,11.207542,0.256118,0.0,-26.553097,-13.264989,-33.393351,-11.308989,-25.924817,-9.004988,-22.000326,-6.50422,-16.720171,0.0,22.193979,12.775978,22.894003,12.157065,22.032457,10.690567,18.863737,9.095821,15.59598,0.0,-19.738124,-25.600658,-34.255479,-28.060332,-39.06273,-26.023568,-32.302239,-21.216311,-29.123204,50.831801,216.98117,-87.344759,193.705945
36,11.894233,-35.969467,-2.040418,-27.304371,0.0,-33.726562,-13.606155,-29.972625,-12.8069,-24.414962,-10.114448,-12.546936,-5.340294,-7.39064,0.0,-39.945217,-20.822412,-42.792659,-18.759423,-39.689435,-15.586267,-28.921565,-11.692267,-23.073159,0.0,18.648931,9.070598,20.461069,9.865087,20.110582,9.853557,17.355314,9.758171,12.892747,0.0,-31.658806,-36.477802,-47.039679,-38.168288,-50.302985,-34.23654,-38.311832,-27.102892,-31.183248,62.725662,181.984559,-89.385549,167.37443
37,10.29982,-36.772716,-5.01907,-33.363006,0.0,-29.606346,-10.913612,-23.854385,-17.450134,-31.845634,-21.423935,-19.455711,-22.327308,-19.267181,0.0,-48.190336,-22.671268,-46.981313,-17.850982,-53.841147,-12.462524,-31.099977,-6.975055,-23.383133,0.0,22.570707,3.688946,16.565157,8.642904,19.427828,13.714611,20.286856,18.796989,19.061708,0.0,-44.552225,-35.371661,-49.002997,-31.982675,-47.153362,-24.522843,-31.136738,-15.318289,-19.079914,73.096555,146.96146,-94.333546,135.761041
38,8.484719,-39.717179,-4.531649,-33.453854,0.0,-27.368363,-8.868668,-18.524872,-21.449639,-34.541451,-30.722741,-21.960068,-35.69101,-27.044198,0.0,-57.620378,-25.112738,-45.367781,-18.979027,-62.567957,-12.371177,-25.608032,-5.807546,-18.652886,0.0,26.352551,2.72675,14.908642,12.037194,23.104832,21.444935,24.238392,30.382645,26.215862,0.0,-52.644215,-36.010364,-50.184906,-29.402471,-50.255647,-19.695708,-26.121721,-8.754418,-12.712131,81.647438,108.948244,-98.799031,104.01115
39,9.863708,-31.449325,-4.882232,-28.050576,0.0,-24.546432,-8.227592,-15.847778,-27.945694,-45.002289,-44.154533,-32.994026,-55.439484,-42.806854,0.0,-59.778573,-22.181526,-42.489637,-13.981423,-76.176562,-5.91404,-25.548862,1.461379,-17.120672,0.0,26.597374,4.523471,15.915378,17.946155,29.581787,30.661811,28.640728,42.030418,33.04581,0.0,-58.663107,-34.325115,-51.691146,-26.426323,-59.793393,-16.523879,-24.540076,-6.406994,-12.442189,91.61994,79.25703,-103.572469,77.718685
40,-0.775337,-20.38512,-0.871937,-23.686649,0.0,-20.115395,-7.52504,-16.080116,-27.893509,-48.310295,-44.785721,-33.654534,-57.011261,-43.635521,0.0,-63.361233,-25.404564,-49.610015,-19.273576,-94.648611,-12.682343,-33.54296,-6.500534,-26.040013,0.0,24.581691,3.143268,16.712677,17.21656,30.541145,31.08015,28.806003,43.847809,34.863464,0.0,-65.498421,-31.064397,-53.452095,-23.524535,-70.138964,-15.532958,-30.114589,-8.396994,-20.624903,90.891947,60.811883,-104.397062,55.972009
41,-4.140175,-16.416884,-2.635002,-20.183289,0.0,-17.43354,-5.422989,-13.966278,-25.75779,-44.64814,-43.083824,-33.709076,-56.277191,-44.604332,0.0,-63.323177,-27.064625,-50.032234,-22.180588,-103.63211,-16.570643,-36.458894,-11.552638,-30.323787,0.0,24.42889,0.459755,16.052318,18.062896,34.609085,35.620685,33.106922,51.846107,42.245578,0.0,-68.675134,-26.00337,-54.149911,-18.85826,-78.144732,-12.343641,-32.179911,-7.29825,-25.700774,86.641405,46.232781,-107.142431,37.626502
42,-15.96936,-19.005017,2.32291,-15.508134,0.0,-9.547257,-3.79992,-9.822831,-17.668259,-31.561249,-29.223656,-21.437394,-37.282494,-28.807251,0.0,-57.017268,-24.898853,-47.163174,-21.200571,-99.625546,-17.16809,-36.120527,-13.390984,-31.240114,0.0,18.812714,0.51067,15.963203,18.873791,36.895523,36.570579,32.834747,52.68893,42.55949,0.0,-67.701781,-28.729793,-60.291583,-23.729004,-94.379626,-18.470511,-38.759227,-13.921155,-34.291609,70.402428,28.203766,-105.089138,23.09437
43,-7.312981,-11.338691,2.584888,-10.959574,0.0,-5.88961,-4.184898,-8.577621,-17.866585,-28.350655,-28.943848,-20.402092,-36.467056,-27.513817,0.0,-52.951262,-22.908711,-43.913688,-19.875901,-94.585088,-16.399174,-35.708151,-13.303626,-31.252865,0.0,13.832234,-0.444511,15.074833,18.248909,36.017556,35.977616,32.3657,52.043644,42.140511,0.0,-68.306546,-28.167105,-62.237197,-24.510795,-104.210261,-20.265676,-42.330741,-17.08067,-38.315785,62.734617,17.840383,-102.85908,13.110104
44,-16.039398,-7.364138,2.944931,-10.694591,0.0,-2.883934,-3.058251,-5.098549,-11.563202,-17.929299,-17.781304,-10.054802,-20.496529,-14.080559,0.0,-50.869705,-21.526749,-42.013078,-17.755238,-91.377506,-14.659721,-34.26665,-11.683474,-30.730444,0.0,12.491066,-0.49253,14.113083,18.477734,34.260716,36.338826,32.429135,52.418873,42.390232,0.0,-67.810733,-28.853109,-61.743749,-25.626717,-107.399429,-21.558693,-43.223819,-18.438617,-39.140091,46.337986,11.404721,-100.271382,3.343989
45,-7.114746,-2.398151,3.014454,-9.01188,0.0,-4.280869,-3.194664,-5.232811,-12.466278,-16.962982,-19.296707,-10.403321,-22.3144,-15.455475,0.0,-49.868126,-20.162689,-38.012276,-16.156582,-90.119033,-13.353292,-33.060306,-10.806458,-29.736479,0.0,12.379875,-0.717853,12.626473,18.508519,32.859616,36.408543,31.754196,52.331463,41.536537,0.0,-66.195799,-28.733825,-57.342581,-25.245828,-108.300018,-20.79878,-40.802109,-17.326103,-35.872494,38.905255,9.47122,-97.574913,-5.203241
46,-6.14859,-0.208575,2.359875,-6.376878,0.0,-6.107483,-3.749291,-5.652878,-13.50911,-16.87539,-20.834954,-10.753945,-24.036393,-16.824337,0.0,-49.863828,-18.598866,-35.576394,-14.395781,-90.372549,-11.994214,-32.025252,-10.160215,-30.361634,0.0,12.38102,-1.282883,11.108986,18.284683,32.035103,36.375595,31.18103,52.293812,40.892681,0.0,-64.897936,-28.18342,-52.833499,-24.444383,-109.880255,-19.65683,-37.597264,-15.982915,-32.431984,32.408238,9.323685,-95.563465,-11.519079
47,4.315178,7.305198,1.656017,-4.358048,0.0,-11.111527,-5.075524,-8.445969,-21.159256,-26.335991,-34.452965,-22.295998,-43.200852,-32.372921,0.0,-55.92226,-21.003681,-36.744169,-17.043398,-98.802944,-14.240911,-34.800859,-12.345087,-34.221498,0.0,10.838837,-1.986808,9.354103,17.667309,30.478466,35.92091,30.796601,51.96436,40.56823,0.0,-64.603954,-27.421567,-48.278633,-23.261491,-110.463024,-18.1322,-34.74106,-14.33103,-29.453014,36.339627,16.703465,-94.291237,-15.802545
48,-3.273057,4.990316,0.37896,-1.654121,0.0,-13.518196,-4.748245,-9.73542,-21.193428,-28.426757,-35.321205,-23.682037,-45.157138,-34.346797,0.0,-60.763184,-22.938253,-39.746202,-18.763709,-106.570467,-15.808451,-37.812951,-13.963584,-38.631175,0.0,9.859772,-2.215565,8.546848,17.536022,29.620674,35.94738,30.514194,52.124107,40.495113,0.0,-64.546507,-27.266357,-46.94375,-22.810744,-110.463456,-17.554956,-33.888811,-13.672801,-28.790172,32.74621,21.780436,-94.232637,-17.370011
49,5.883362,3.258754,-0.048294,1.289411,0.0,-16.680862,-5.095802,-13.208839,-26.994507,-37.650078,-46.447197,-34.36766,-61.381256,-48.921913,0.0,-61.578412,-23.542276,-39.993883,-19.791118,-109.994841,-16.594799,-39.168687,-15.080883,-39.91249,0.0,10.152477,-2.617893,7.554645,17.324913,28.378029,35.97377,30.267116,52.424812,40.363048,0.0,-64.773941,-27.58788,-46.476362,-23.153441,-110.498086,-17.942534,-34.405626,-13.997627,-29.566931,38.336374,25.122849,-94.574129,-15.996941
50,-5.0373,-3.483291,-0.479611,4.206598,0.0,-14.67881,-4.914413,-12.449364,-24.298141,-34.237335,-41.610855,-30.355705,-54.679813,-43.016212,0.0,-60.012249,-23.615463,-38.858546,-19.265147,-108.242526,-15.677892,-37.299083,-13.696303,-38.522062,0.0,9.62605,-2.774551,6.866341,17.215485,26.833031,36.149117,30.456082,52.992234,41.114651,0.0,-65.842025,-27.492123,-45.647862,-23.166062,-111.152612,-18.160963,-34.882888,-14.453394,-30.81293,33.07465,21.507391,-95.278164,-11.92251
51,-0.17395,-4.009868,-0.440643,6.499929,0.0,-12.804703,-6.097916,-12.046806,-25.121269,-33.829399,-41.974262,-31.349281,-54.689987,-43.438019,0.0,-59.926947,-24.979499,-39.148847,-20.661416,-108.083988,-16.384688,-37.384823,-13.230415,-35.795016,0.0,10.672989,-2.567081,5.945469,17.407837,25.911507,36.556297,31.162583,53.723637,42.315674,0.0,-63.856021,-25.583943,-43.075531,-20.809846,-107.570132,-15.83438,-33.29786,-12.27358,-29.067802,32.820305,17.218615,-95.799202,-5.701489
52,1.417282,-6.847744,-0.237058,13.598175,0.0,-10.946091,-6.950844,-10.091629,-25.735474,-31.807777,-42.304241,-31.485878,-54.945568,-43.995232,0.0,-59.513404,-26.07831,-41.227162,-22.069239,-105.43248,-17.504056,-37.393481,-13.295901,-34.063522,0.0,13.485694,-2.36015,5.331384,17.855712,25.571491,37.252309,31.833503,54.552246,42.982589,0.0,-62.284759,-23.388339,-40.643349,-17.936775,-103.506402,-13.01141,-31.517459,-9.686364,-27.265236,34.21871,9.889653,-96.055137,7.415468
53,0.756317,-14.704879,0.108512,20.644429,0.0,-10.978157,-6.387863,-7.707435,-23.252037,-27.576828,-38.263241,-31.815536,-49.880562,-43.371895,0.0,-60.286427,-30.889093,-51.65295,-25.859726,-98.284984,-19.923017,-36.579795,-13.476206,-30.717724,0.0,16.109024,-2.258285,4.907107,18.216797,25.121808,37.804018,32.654927,55.102856,43.420178,0.0,-61.358516,-20.965463,-38.642982,-14.795488,-99.499411,-10.048435,-29.709321,-7.102406,-25.70313,34.824022,-5.025329,-96.09763,27.849794
54,5.619255,-13.217447,0.468956,26.050881,0.0,-11.372039,-6.778152,-6.134628,-23.898353,-24.036026,-39.033657,-29.833099,-50.375896,-41.641033,0.0,-61.062451,-31.908741,-53.179384,-27.414725,-99.226413,-21.549362,-41.839782,-14.82996,-32.952317,0.0,16.136376,-1.577682,4.755061,18.617489,24.970952,38.063101,33.351506,55.209698,44.083798,0.0,-60.391783,-17.634417,-35.082391,-10.978695,-93.174613,-6.416559,-26.573864,-4.105522,-22.338931,40.266077,-18.222127,-95.805874,53.921324
55,10.409157,-9.847104,1.619763,24.978919,0.0,-12.438789,-5.215507,-6.033989,-24.788727,-25.106872,-42.177738,-33.052963,-55.658066,-46.218601,0.0,-63.156759,-33.878165,-57.112619,-30.37465,-104.251117,-24.689012,-47.427984,-18.13323,-35.038431,0.0,17.742439,-1.502003,3.720434,18.306496,23.047279,37.455213,33.205398,54.095833,44.092895,0.0,-58.304761,-12.527955,-31.754545,-5.02059,-75.065311,-0.641044,-22.570832,0.767857,-17.312238,50.500803,-27.700744,-94.360542,79.26873
56,6.833473,-10.563791,1.558307,23.761966,0.0,-13.630119,-2.141304,-4.91851,-22.024566,-22.458778,-40.013878,-30.870392,-54.179821,-43.808006,0.0,-63.751601,-34.132299,-58.886573,-31.15068,-104.094704,-26.058056,-50.559557,-20.164226,-37.905725,0.0,16.768033,-1.842189,3.003291,18.302033,21.588444,37.425574,31.646256,53.331288,42.102024,0.0,-58.690158,-9.377319,-30.329216,-1.391018,-68.428834,2.574498,-22.101375,2.941076,-16.484054,57.135349,-37.634829,-93.001162,103.660402
57,5.824082,-7.293508,1.086359,17.554623,0.0,-15.426178,1.256263,-5.407608,-19.072197,-20.725846,-37.812996,-28.805626,-52.643441,-41.361077,0.0,-63.72104,-34.746475,-58.588312,-32.019107,-107.991692,-27.323124,-61.625543,-22.266056,-42.595131,0.0,14.805851,-2.325359,3.038636,18.029377,21.529404,37.113007,30.62922,52.535695,41.209912,0.0,-59.95342,-8.211243,-31.211585,-0.21759,-65.765325,3.409913,-23.1408,3.017156,-16.981771,62.810583,-43.915807,-92.063651,122.227555
58,6.767212,1.327776,0.131939,9.131855,0.0,-14.802842,3.09304,-6.070908,-19.443077,-20.972214,-40.10225,-27.175393,-56.42363,-40.638932,0.0,-63.1688,-31.072338,-49.870157,-30.085208,-115.868856,-27.07322,-67.806179,-24.30876,-46.712359,0.0,12.27158,-1.312717,3.897641,18.754166,21.713505,37.443089,30.109337,52.393158,41.511864,0.0,-59.777808,-6.989943,-32.272871,0.33967,-65.014496,3.434662,-23.206775,2.358563,-16.902329,69.610176,-41.584018,-91.899331,132.363423
59,2.433838,0.935865,-0.401012,0.854279,0.0,-14.324776,5.419647,-5.95086,-17.096398,-21.464493,-38.060669,-28.748749,-55.210122,-42.030144,0.0,-62.809531,-31.263017,-49.577776,-30.561767,-116.592951,-27.798165,-63.494852,-25.406688,-44.432941,0.0,11.913986,0.117496,5.680962,20.541252,22.334713,38.975292,29.605247,53.2523,41.194359,0.0,-59.938426,-5.620973,-32.375135,1.064158,-67.404928,3.448792,-23.59716,1.660697,-17.679964,72.149357,-39.825845,-92.195,134.04001
60,1.167572,2.354105,-1.33445,-0.989914,0.0,-14.126587,6.184661,-4.760033,-16.236718,-20.845894,-37.334542,-29.563569,-54.69468,-42.761628,0.0,-62.65324,-31.409502,-49.64719,-30.705899,-117.825335,-28.014421,-60.165461,-25.918106,-44.518596,0.0,11.111149,2.195034,8.626522,23.21434,26.386173,41.312233,29.967442,55.137875,40.446728,0.0,-60.602528,-5.64526,-32.335678,0.261216,-81.337371,1.99271,-25.088544,-0.102018,-20.431872,73.509562,-36.768492,-93.336817,133.753344
61,0.729812,3.036879,-1.348194,-1.558297,0.0,-13.732544,6.512238,-4.479973,-15.762749,-20.212623,-36.859176,-30.506584,-54.335449,-43.553924,0.0,-62.610046,-32.142862,-49.844377,-31.230154,-120.513342,-28.29696,-57.920537,-26.181125,-44.471326,0.0,10.813522,5.003952,11.573937,25.934223,29.369694,43.376175,31.689434,56.843857,41.621819,0.0,-61.859327,-5.611488,-32.993992,-0.681119,-87.687974,0.461646,-25.660464,-1.768636,-21.767119,74.486841,-33.133675,-94.437544,132.792985
62,0.787583,2.524424,-0.77465,-2.497686,0.0,-13.297829,7.105499,-4.156609,-15.094048,-20.282341,-36.271958,-31.80867,-54.004876,-44.463547,0.0,-63.341127,-32.556058,-50.214533,-31.389772,-122.276035,-28.168142,-47.162093,-26.015924,-41.275247,0.0,10.991008,7.688438,13.775733,28.528896,30.875747,45.339088,32.658096,58.330822,41.830753,0.0,-61.213419,-3.565982,-30.986999,0.521117,-90.355908,0.950499,-24.716072,-1.621591,-21.452742,75.551325,-30.167584,-94.935293,130.736966
63,0.772522,1.543693,-0.05309,-1.185244,0.0,-13.171029,7.501647,-4.123307,-14.675148,-20.279847,-36.047562,-32.567322,-53.949212,-44.620995,0.0,-63.649966,-33.259093,-50.487983,-31.745245,-124.713818,-28.207891,-41.392055,-25.970068,-39.759411,0.0,11.274113,8.957611,14.838879,29.984494,32.313652,46.467019,33.275952,59.058197,41.39264,0.0,-61.357679,-1.91538,-28.176194,1.802544,-91.190174,1.779579,-24.446834,-1.117287,-21.275827,76.611752,-28.408141,-94.700478,129.767472
64,0.876503,0.711328,0.255845,0.23798,0.0,-13.690316,7.841491,-4.545342,-14.362175,-20.084771,-35.903824,-32.44661,-54.030098,-44.33281,0.0,-64.130551,-34.06104,-50.903459,-32.286358,-126.388079,-28.478895,-41.061172,-26.155727,-40.210276,0.0,11.208515,9.316291,14.793045,30.280872,33.273399,46.536197,33.787536,58.992839,41.409233,0.0,-61.226738,-1.200002,-27.848028,2.454227,-90.780849,2.288464,-24.648301,-0.595743,-21.36019,77.785367,-27.520858,-94.147521,130.181407
65,0.807746,-0.033049,0.352443,0.866976,0.0,-14.422462,8.275841,-5.009033,-13.930572,-20.253616,-35.598037,-32.11045,-53.909362,-44.145881,0.0,-64.836562,-34.536086,-50.946653,-32.651871,-127.028591,-28.614209,-41.227379,-26.114706,-39.940945,0.0,10.59565,9.532574,14.797863,30.393734,33.105561,46.53328,34.00446,58.829762,41.733204,0.0,-61.30568,-1.408453,-28.436133,2.183408,-90.986182,1.94804,-25.385811,-0.968327,-21.875355,78.843887,-27.427671,-93.544304,131.174619
66,0.813515,-0.313742,0.461449,0.114189,0.0,-15.54229,8.52198,-5.493164,-13.813957,-20.880546,-35.636467,-31.916038,-54.057312,-44.272339,0.0,-65.849182,-34.568103,-50.941502,-32.653648,-127.083654,-28.578992,-41.192384,-26.055419,-39.466954,0.0,10.644459,9.273994,14.934929,29.987297,32.906193,46.101002,33.862827,58.425682,41.545921,0.0,-61.098513,-1.404835,-27.801641,2.209096,-91.214053,2.007061,-25.080079,-0.926257,-21.457701,79.891949,-27.611703,-92.848308,131.418518
67,0.783646,-0.287528,0.241516,0.099547,0.0,-16.682122,8.318229,-6.050743,-14.120636,-21.666847,-36.006272,-32.084336,-54.338356,-44.366364,0.0,-66.934378,-34.746661,-50.957187,-32.807889,-127.144518,-28.669858,-41.122113,-26.089278,-39.005889,0.0,10.655193,9.31287,14.839039,29.816494,32.959156,45.831436,33.857243,58.16621,41.491333,0.0,-61.184617,-1.713975,-27.195671,2.007852,-91.320906,1.887754,-24.78995,-1.055944,-21.153554,80.867232,-27.787466,-92.415155,131.62983
68,0.784584,0.057675,0.378204,-0.052364,0.0,-17.968506,7.785324,-6.574791,-14.680664,-22.479286,-36.496857,-32.398545,-54.726814,-44.826256,0.0,-67.096059,-34.81006,-50.835897,-32.868151,-127.120763,-28.693509,-41.360087,-26.031844,-38.780803,0.0,10.574982,8.925923,14.717743,29.292218,32.874493,45.30875,33.562615,57.799988,41.224846,0.0,-61.096191,-1.937277,-27.126079,1.962354,-91.228515,1.968461,-24.73359,-0.885316,-20.933408,81.815569,-27.629129,-91.873198,131.678128
69,0.501526,0.323319,0.261772,0.024354,0.0,-19.164414,7.271255,-6.890511,-15.239456,-22.951813,-36.97403,-32.483574,-55.009003,-45.006249,0.0,-67.451408,-34.609581,-50.541132,-32.684969,-127.041772,-28.562499,-41.566506,-25.912752,-38.461664,0.0,10.031937,8.730515,14.599217,28.915158,32.83286,44.908837,33.641041,57.566689,41.226746,0.0,-60.969281,-2.246887,-26.886148,1.959551,-91.14864,2.174918,-24.240846,-0.524816,-20.747484,82.459339,-27.205953,-91.469182,131.802339
70,0.469047,0.471742,-0.016937,0.167894,0.0,-20.121803,6.966774,-7.303344,-15.611938,-23.22258,-37.344543,-32.483871,-55.251137,-45.011192,0.0,-67.477491,-34.591179,-50.21404,-32.76086,-126.897115,-28.631869,-41.754289,-25.854157,-38.18517,0.0,9.67162,8.668167,14.475632,28.793976,32.583103,44.799374,33.731884,57.539589,41.130261,0.0,-60.962323,-2.37171,-26.569832,1.769785,-91.026919,2.022066,-23.765264,-0.61496,-20.787591,83.037037,-26.666637,-91.377468,132.037807
71,0.296723,0.762543,-0.099746,0.420514,0.0,-20.591835,6.919304,-7.300644,-15.529496,-23.011551,-37.166474,-32.550568,-55.005524,-45.133828,0.0,-66.738826,-34.761956,-50.285713,-32.976924,-126.841755,-28.858437,-41.925849,-26.033905,-38.067153,0.0,9.625591,8.649181,14.235866,28.83982,32.467609,44.788833,33.77909,57.498241,41.123931,0.0,-60.857112,-2.438518,-26.739195,1.745511,-90.720377,1.989901,-23.688533,-0.579763,-21.069834,83.424855,-25.86416,-91.386119,132.498255
72,0.335403,0.862802,-0.18845,0.595514,0.0,-20.382179,6.801224,-6.763252,-15.456596,-22.854561,-36.907905,-32.66748,-54.67115,-45.185623,0.0,-64.709171,-34.786113,-50.180824,-32.977437,-126.411476,-28.801627,-42.179879,-25.799452,-37.862728,0.0,9.357856,8.720993,13.950542,28.973385,32.233989,44.832687,33.827739,57.422847,40.897693,0.0,-60.904419,-2.280646,-27.074307,1.896498,-90.56169,2.036801,-23.771531,-0.607593,-21.534153,83.844646,-24.986761,-91.490181,133.108366
73,0.395416,1.299321,-0.349903,0.345068,0.0,-19.573288,7.096184,-6.255958,-14.95491,-22.331016,-36.244331,-32.302116,-53.965233,-44.852668,0.0,-64.427626,-34.550492,-50.076972,-32.896414,-125.836737,-28.891276,-42.543335,-25.977046,-38.203751,0.0,9.713401,8.565273,13.957466,29.029769,32.14587,44.991611,33.761741,57.47105,40.796047,0.0,-60.769643,-1.845312,-27.32867,2.193523,-90.421524,2.241935,-24.116055,-0.489829,-21.655721,84.326683,-23.706647,-91.753463,133.434227
74,0.732148,2.131766,-0.332589,0.372645,0.0,-18.263787,7.072631,-5.978508,-14.938065,-22.007607,-36.162278,-32.383782,-53.839966,-44.871163,0.0,-64.150428,-34.714784,-50.079009,-33.058385,-125.429638,-29.056038,-42.718175,-25.962571,-38.510224,0.0,10.300518,8.556141,13.891869,29.196568,32.119149,45.153351,33.504834,57.451378,40.504635,0.0,-60.70323,-1.409039,-27.82865,2.338285,-90.503503,2.13452,-24.680794,-0.790263,-21.895288,85.129155,-21.649016,-92.015728,133.732737
75,1.012847,3.559912,-0.319301,-0.051395,0.0,-17.718864,6.598092,-6.067016,-15.341857,-22.32518,-36.41764,-32.569427,-53.960289,-45.187316,0.0,-63.806256,-34.866963,-49.557935,-33.03602,-124.900262,-28.842636,-42.78205,-25.376209,-38.155777,0.0,11.163997,8.3069,13.830471,29.033226,32.71867,45.037124,33.404331,57.348999,40.537937,0.0,-60.216266,-1.090975,-27.996037,2.789019,-90.359884,2.631278,-24.659403,-0.278574,-21.286126,86.194828,-18.155908,-92.282203,133.614538
76,1.308152,4.818656,-0.434647,-0.121382,0.0,-18.06086,5.023842,-7.439873,-17.139633,-24.602486,-38.039658,-33.073426,-55.122391,-45.710518,0.0,-63.144884,-34.988969,-48.216482,-32.768745,-123.730721,-28.13408,-42.41876,-24.024164,-37.403571,0.0,11.745495,8.26038,13.834202,29.016026,33.740467,45.070313,33.559593,57.387245,40.727463,0.0,-59.845758,-0.927658,-28.211288,3.012808,-90.057098,2.922554,-24.366343,0.048937,-20.856177,87.598183,-13.405067,-92.621647,133.425341
77,0.377678,6.55577,-0.468246,-0.322251,0.0,-19.503983,3.287727,-9.554009,-18.793442,-28.616639,-39.284249,-32.780022,-55.7127,-45.822281,0.0,-62.754956,-33.992942,-46.257425,-31.321057,-121.564538,-26.316501,-40.640491,-21.742302,-35.57395,0.0,13.378086,8.218391,14.081062,29.012317,35.714607,45.121959,34.029567,57.452099,41.384216,0.0,-59.099016,-0.976459,-28.343532,3.60276,-88.801779,3.980191,-23.911007,1.528304,-20.17197,88.24704,-6.954776,-92.818714,132.997611
78,-0.65387,8.250268,-0.459172,0.167356,0.0,-21.087799,0.099335,-11.551003,-21.722488,-34.007698,-41.335533,-33.796761,-56.616051,-46.718559,0.0,-60.903468,-32.936539,-43.496644,-29.307795,-116.236172,-23.391926,-37.806461,-17.729556,-32.183981,0.0,15.46399,8.658612,14.584214,29.256661,38.725411,45.202149,34.909573,57.484635,42.228573,0.0,-58.593064,-1.269095,-27.603781,4.297798,-86.727361,5.464498,-22.576698,3.758624,-18.552343,87.93148,1.042433,-92.939576,132.911908
79,-2.718132,8.905212,-0.615543,0.789318,0.0,-21.953316,-2.498909,-12.044083,-23.932411,-35.246819,-42.584404,-34.525818,-56.375175,-46.97715,0.0,-57.207693,-29.751385,-39.60241,-25.488711,-98.621919,-18.949441,-33.83163,-12.568049,-27.469504,0.0,18.410397,8.760716,15.861191,29.142529,43.195461,45.147068,36.349113,57.679882,43.825092,0.0,-57.509455,-1.535257,-26.05545,5.505105,-83.510436,7.755389,-20.425943,7.012074,-16.269967,85.574987,9.227212,-93.19348,132.980793
80,-3.345806,13.371299,-0.3204,2.276207,0.0,-24.995716,-6.976284,-15.245453,-27.626885,-37.655468,-44.878945,-36.386971,-56.904751,-47.790276,0.0,-53.293545,-27.77863,-37.612423,-21.976394,-80.852735,-14.138569,-29.532737,-6.554541,-22.387615,0.0,21.221935,8.99604,16.94751,29.086086,47.879379,45.073288,37.715137,57.684185,45.195614,0.0,-56.634261,-1.785365,-25.686424,6.718216,-79.373825,10.155713,-18.215044,10.545414,-13.603974,82.659599,21.458111,-93.083462,134.1166
81,-3.933724,17.738781,-0.269016,3.493221,0.0,-30.023151,-12.638088,-20.496803,-31.921417,-40.143665,-47.414474,-39.129913,-57.664409,-49.094902,0.0,-49.858116,-27.147034,-37.612206,-18.976318,-63.120042,-9.081475,-25.102089,0.353756,-16.308614,0.0,25.142051,10.449806,17.90681,29.872535,46.760982,45.400554,40.239257,57.637229,46.919265,0.0,-55.745969,-1.486845,-24.527363,8.430049,-64.905401,13.279574,-15.782245,15.017521,-9.575062,79.121172,37.611012,-92.957181,136.023941
82,-6.254837,21.640235,-0.05127,5.305194,0.0,-34.395961,-19.523952,-26.552192,-34.397415,-39.506916,-45.310821,-39.475135,-51.58176,-45.514022,0.0,-45.763008,-28.642191,-36.632055,-20.228481,-46.435458,-9.693966,-22.582876,0.651571,-12.989098,0.0,29.448189,11.168003,19.304352,29.896431,45.247822,45.201656,42.81443,57.436684,49.417934,0.0,-54.996523,-1.487203,-22.686157,9.946108,-50.500679,16.434156,-12.835916,19.587663,-5.735045,73.110105,57.052778,-92.764681,139.130666
83,-4.874233,22.969977,0.110699,7.131462,0.0,-40.395058,-26.976814,-39.319513,-37.866646,-40.789186,-44.686924,-40.442322,-47.33329,-42.930897,0.0,-39.074868,-27.734868,-33.608823,-17.901266,-28.618902,-6.02069,-16.155174,5.619633,-5.708687,0.0,33.965824,12.580009,22.670631,30.089847,44.685917,44.61716,45.96159,56.315712,51.532058,0.0,-53.766158,-2.206527,-23.733017,11.008499,-38.15009,19.372358,-9.58099,24.304919,-1.069925,68.317537,77.577336,-92.572317,143.816709
84,-2.598862,24.797742,0.789665,9.025311,0.0,-48.992798,-36.598159,-59.98586,-43.772644,-49.183874,-46.549861,-42.908729,-45.77909,-42.113536,0.0,-30.940275,-25.895291,-28.579146,-12.890793,-18.533774,1.587202,-6.182655,15.535959,5.314232,0.0,37.77903,13.447758,28.674271,29.734108,52.484997,43.345356,50.215782,54.255432,54.107014,0.0,-52.158338,-2.545698,-26.445627,12.201684,-31.66077,22.13341,-8.819781,28.343809,1.186676,65.636713,100.270254,-91.864614,150.737196
85,-2.083454,22.55519,1.362614,9.804841,0.0,-56.080364,-43.900165,-77.327379,-47.334732,-60.465082,-46.133594,-48.094345,-42.040798,-42.355877,0.0,-22.408776,-22.799684,-21.386625,-7.348999,-5.729771,9.134495,5.746849,24.802862,15.77121,0.0,41.95063,16.016029,39.288585,30.069053,58.072403,41.707237,58.712883,50.820613,58.910316,0.0,-48.720951,-2.151051,-28.256865,13.766526,-22.272818,25.107718,-7.89605,32.45167,3.779286,63.246694,120.855402,-90.808565,158.571995
86,-2.397205,20.97656,3.034584,9.965504,0.0,-60.3626,-48.64991,-88.894861,-48.526886,-68.473091,-43.703373,-51.67812,-36.495712,-42.001717,0.0,-11.570413,-16.902644,-13.440755,0.082656,5.626592,17.416966,16.785148,33.492757,25.364581,0.0,45.02742,15.782707,48.474483,27.350807,68.214306,37.077598,65.923336,44.712066,62.590587,0.0,-42.908533,-1.278147,-27.191448,15.245806,-19.265005,27.302969,-3.280898,35.373612,8.170456,60.309963,140.081514,-88.313507,166.787051
87,0.102379,19.448768,2.619793,13.482783,0.0,-64.462984,-51.443939,-96.604849,-50.891579,-76.133114,-45.489246,-57.999882,-37.565025,-47.373459,0.0,0.670106,-8.579343,-7.731732,12.019832,15.84016,31.395252,28.133793,48.418288,37.124094,0.0,50.340087,20.109558,66.359378,29.757534,85.650856,37.613376,80.539295,43.533531,73.111095,0.0,-36.315337,2.486899,-25.121612,20.031364,-16.393883,32.577578,1.524741,41.043572,13.766785,59.612114,158.369849,-86.493942,179.109401
88,-1.058727,19.051314,3.517753,14.017318,0.0,-67.694029,-50.915898,-97.112057,-49.094994,-81.324137,-43.13601,-64.412728,-35.215268,-54.22173,0.0,9.291146,-1.934566,-3.77634,20.603772,22.29167,41.004818,35.977593,58.143675,44.877167,0.0,55.324494,22.915638,82.465725,30.082901,100.287758,35.833683,92.650452,40.055626,81.220082,0.0,-29.618776,7.740563,-18.990363,25.955712,-9.877978,38.478806,8.950859,46.440818,20.303301,57.700619,176.636223,-83.828957,192.341779
89,-1.844605,19.118656,3.668621,14.243832,0.0,-69.526628,-47.140102,-90.04866,-43.834625,-84.332617,-37.617599,-70.181053,-30.290005,-60.735786,0.0,15.484848,2.98257,-1.295554,26.079712,24.925288,46.436693,39.677567,62.566956,49.170933,0.0,60.624459,25.847866,93.543995,30.032067,103.341671,33.375012,101.075192,35.692543,86.291451,0.0,-22.661821,13.254813,-8.271184,31.795522,5.079033,44.421814,21.678112,52.27512,32.573676,55.05546,195.107553,-80.96089,205.938285
90,-3.078712,19.172145,3.85096,14.901523,0.0,-70.705702,-42.168377,-85.653077,-37.29435,-84.546942,-30.847184,-74.41166,-24.146473,-65.367039,0.0,18.247005,9.718909,2.367726,32.220012,25.779716,51.322224,42.301094,65.442339,55.115496,0.0,65.685791,27.526669,99.62558,28.979736,106.171223,30.238552,102.47485,31.10471,86.445408,0.0,-16.173186,18.808879,5.890026,37.658328,18.983114,50.169073,35.329399,57.635315,45.411611,51.322277,213.89385,-77.764401,220.45396
91,-3.176754,17.537024,2.867935,15.66025,0.0,-72.760701,-37.11509,-84.907608,-30.789162,-85.998757,-23.735321,-77.747555,-16.964882,-66.42294,0.0,16.473948,15.948279,7.593905,37.31628,29.827141,54.707185,47.898547,66.449025,63.176204,0.0,70.946755,29.758599,106.619877,29.068005,110.115589,28.651692,104.334286,28.27739,87.057827,0.0,-11.166598,23.42991,18.373045,43.401537,31.529761,56.461625,47.682915,63.807529,57.155614,47.567122,231.21723,-75.474867,235.900566
92,-1.698349,15.171644,4.378292,12.055163,0.0,-75.049107,-31.590249,-86.339734,-24.880852,-89.786419,-18.275071,-82.568722,-12.464013,-68.757901,0.0,10.916065,21.905119,14.989863,41.927134,35.610215,57.582333,54.105538,67.114843,71.611804,0.0,73.020859,27.465008,103.422638,23.709,105.161866,21.066937,96.754761,19.158463,77.987023,0.0,-5.720361,25.820379,30.62545,45.845124,44.98252,59.130885,60.661777,66.331033,69.042259,45.458159,246.121754,-71.507189,247.688609
93,-1.012391,12.777284,3.687493,10.911261,0.0,-75.456653,-28.994911,-88.347175,-22.146995,-92.281276,-15.442451,-84.752723,-9.383331,-67.276817,0.0,6.398738,27.61534,25.519864,45.736381,42.76263,58.901878,58.79237,65.815405,75.836274,0.0,73.857902,26.384948,99.116523,20.607673,100.65438,16.330902,90.54158,13.218498,70.809677,0.0,-1.258807,27.718401,41.167073,47.420599,56.21629,60.560852,70.192804,67.720244,78.02635,44.109598,258.619568,-68.155866,258.3204
94,-0.692115,10.310343,3.211338,8.407602,0.0,-73.610779,-29.841408,-82.613205,-23.034302,-82.970478,-15.867463,-74.872536,-8.916138,-57.611515,0.0,1.915349,29.626748,35.863947,45.121643,50.815513,55.915146,63.446449,61.328409,77.928884,0.0,73.916874,26.531124,96.632503,19.301239,98.018451,13.424652,86.040287,8.842975,65.094349,0.0,1.9153,29.449797,49.209706,48.623065,64.400147,61.439104,76.459434,68.589913,83.625854,43.077347,268.658808,-65.284664,266.456899
95,-0.128334,6.938498,2.906902,6.316845,0.0,-71.243843,-31.583016,-73.219746,-25.311425,-70.404087,-18.114144,-61.433579,-10.605744,-46.688713,0.0,0.021304,30.70107,43.787674,44.175097,57.93399,53.22499,67.554099,57.54227,77.848979,0.0,73.223557,26.412289,94.485306,18.539612,96.733063,11.695404,83.921036,6.043167,61.869713,0.0,3.468076,30.062583,53.673767,48.809897,69.846657,61.422505,81.225208,68.751538,87.422775,42.595145,275.341095,-62.73163,272.517533
96,0.906669,4.781075,2.910759,4.783051,0.0,-66.741508,-33.991997,-61.108738,-28.49485,-55.645511,-21.781631,-47.134208,-14.529075,-37.323017,0.0,-0.239986,30.119492,50.542515,41.972311,62.628861,50.029246,68.348283,54.196818,74.342532,0.0,72.506218,27.177338,92.513168,18.752724,94.757149,10.951847,81.12616,4.203278,58.895805,0.0,4.099264,30.893744,56.608764,48.807415,72.217058,60.881979,82.780812,68.171825,88.859806,43.269979,279.897441,-60.052706,277.075855
97,-0.595161,3.476808,1.878365,3.586365,0.0,-61.64843,-36.282006,-49.789685,-30.170449,-39.829365,-22.460861,-31.129372,-14.044441,-25.374882,0.0,0.827455,27.506264,54.204265,37.515067,65.330244,44.445575,67.990748,48.440901,69.156658,0.0,71.042129,28.379962,91.554405,19.734455,93.822006,11.283405,79.956275,3.668746,57.55101,0.0,3.622625,31.518979,58.29171,48.690583,73.376175,60.261042,83.013277,67.539192,88.990569,42.474644,283.263787,-58.374515,280.551758
98,-0.461197,2.789785,1.346683,2.505918,0.0,-58.410164,-36.735993,-37.074967,-31.06723,-24.486855,-23.586937,-16.268715,-15.286102,-14.543564,0.0,0.900617,24.207841,53.495666,33.694902,65.713948,40.918095,67.892244,45.834206,67.624309,0.0,69.755161,29.48053,91.431187,20.7369,93.189365,11.668213,79.011189,3.138268,56.684223,0.0,4.247564,31.808292,59.610501,48.41057,73.904746,59.676253,82.810069,66.977066,88.625019,41.861372,285.982346,-57.179907,282.98645
99,-3.95446,4.05794,0.909714,1.846733,0.0,-56.21505,-38.268929,-26.911721,-35.641468,-15.787262,-30.153946,-10.09758,-23.433964,-13.134636,0.0,4.227718,22.980256,51.004235,32.729917,63.247304,39.918492,65.378558,44.773582,64.286996,0.0,68.898525,29.794098,91.307247,20.87558,92.45026,11.484398,78.196918,2.588779,56.275005,0.0,5.116973,32.024677,60.035714,48.473765,74.106682,59.502672,82.580444,66.568364,87.984815,37.845034,289.977585,-56.332071,284.770482
100,-5.909523,4.291568,0.284946,1.275899,0.0,-48.933358,-36.937432,-14.104019,-37.044972,-4.189408,-33.61742,-2.827515,-28.555825,-10.690476,0.0,0.35299,20.49264,47.513829,32.031902,60.526543,40.454992,63.378931,46.433098,63.242055,0.0,68.361489,30.017555,91.489723,20.949635,92.159821,11.329857,77.699318,2.27504,56.105988,0.0,6.29832,32.466873,60.032256,48.895755,74.06815,59.734978,82.331689,66.558633,87.570087,31.920988,294.216785,-56.061648,285.994013
101,-4.424767,3.161744,-0.44268,0.648762,0.0,-47.201568,-39.099232,-6.516105,-41.998604,1.598259,-40.221634,0.754235,-36.271202,-10.517052,0.0,4.005157,18.848338,45.417539,31.104942,58.074694,39.844416,60.993809,46.240092,60.982447,0.0,67.831558,30.213844,91.964126,20.982696,92.215599,11.178417,77.490532,1.993,55.934852,0.0,7.643602,32.756779,59.675043,49.318992,74.184352,60.060575,82.335839,66.711922,87.44818,27.516123,297.342788,-56.484426,286.607034
102,-7.589836,4.746619,-0.643547,0.185388,0.0,-38.512127,-36.733543,6.087204,-42.598766,12.1539,-43.357223,6.903626,-41.659298,-9.535171,0.0,-1.815784,16.403922,41.356115,30.593834,54.549721,40.941461,58.829012,48.824926,60.056783,0.0,68.061905,30.157528,92.504196,20.719436,92.179184,10.781238,77.117637,1.565048,55.824348,0.0,8.731261,32.827321,59.322311,49.667881,74.163912,60.441451,82.273593,66.995677,87.331409,19.972841,302.04311,-57.081419,286.746125
103,-9.004761,4.97255,-0.374314,-0.110176,0.0,-26.19794,-34.040428,18.513382,-42.273616,23.024597,-44.898788,14.185204,-44.637233,-12.839389,0.0,-6.899003,13.898079,37.580017,29.035056,51.409923,39.982478,56.238867,48.331801,57.621224,0.0,68.273942,29.709355,92.788605,20.050221,92.194931,10.115605,76.724373,1.076775,55.578141,0.0,9.162712,32.886763,59.020439,50.051068,74.445976,60.901505,82.406049,67.322881,87.36063,11.021301,306.961347,-57.402512,286.581636
104,0.317299,-0.547516,-0.052333,0.090477,0.0,-24.28751,-34.746746,18.668564,-43.469147,23.060486,-46.287838,13.175789,-46.072918,-13.373371,0.0,-10.802308,14.036116,37.072971,30.36332,51.866209,42.274962,57.352721,51.266439,59.498782,0.0,68.365047,29.33345,92.62611,19.580268,92.063884,9.698661,76.424984,0.804439,55.287746,0.0,9.546342,32.779601,58.612516,50.127725,74.39765,61.100823,82.203075,67.556408,87.407572,11.400759,306.348972,-57.392686,286.607254
105,-2.029083,0.347433,-0.030533,0.159007,0.0,-21.255135,-33.895569,19.632751,-42.487312,24.062187,-45.079811,14.448875,-44.736271,-11.762615,0.0,-10.574549,13.944848,36.597579,30.198186,51.046694,42.103061,56.578926,51.031429,58.087488,0.0,68.589077,28.845543,92.274135,19.1147,91.878216,9.424473,76.357281,0.774284,55.318714,0.0,9.729507,32.726583,58.439158,50.240951,74.431736,61.365003,82.065594,67.879129,87.420158,9.444105,306.62211,-57.35079,286.691966
106,-0.3162,-0.758901,-0.13686,0.212718,0.0,-18.268112,-33.161419,20.270302,-42.132592,23.961754,-45.12323,13.790497,-45.184159,-13.009541,0.0,-13.906514,14.70717,36.621107,31.730487,51.611452,44.235538,57.82053,53.437918,59.957341,0.0,68.774391,28.582683,92.160644,18.846428,91.780815,9.284019,76.313896,0.806877,55.397461,0.0,9.833037,32.658706,58.394759,50.2626,74.548803,61.465829,82.038362,67.997751,87.355369,9.205004,305.779237,-57.410551,286.820712
107,-0.16333,-1.224683,-0.11055,0.21178,0.0,-18.077568,-34.549061,19.57901,-43.424675,23.580322,-46.035622,13.611145,-45.60434,-14.01772,0.0,-11.427803,16.026047,38.309227,33.033234,52.785969,45.391023,58.677674,54.33252,60.119485,0.0,68.654823,28.409477,91.849548,18.841885,91.782577,9.46423,76.409592,1.13784,55.594597,0.0,9.933517,32.575972,58.065727,50.152943,74.477147,61.359717,81.88175,67.900184,87.184171,9.146199,304.480281,-57.416576,286.958219
108,5.929069,-3.048309,-0.345177,0.296463,0.0,-27.520111,-41.264156,12.757645,-50.570412,16.817299,-52.983478,8.023522,-52.246307,-13.586517,0.0,-6.260257,18.362399,41.35509,35.684056,55.163433,48.038375,60.529594,56.934188,61.917162,0.0,68.90197,28.374722,91.554039,19.019326,91.705399,9.856728,76.566605,1.67997,56.053002,0.0,9.837372,32.386844,57.715257,49.933841,74.180795,61.164117,81.59408,67.761901,86.861242,15.210754,301.367718,-57.626267,287.190428
109,-4.743439,1.415578,-0.278377,0.186091,0.0,-20.895561,-36.954551,16.132508,-44.53442,22.188034,-45.9845,13.672829,-44.463478,-7.760994,0.0,-5.795399,18.840039,41.288178,35.321236,54.798069,46.94007,60.095748,55.301422,60.982781,0.0,69.105526,28.047661,91.432605,18.881847,91.858051,9.928459,76.91486,2.019905,56.707042,0.0,10.111519,32.225503,57.740921,49.85958,74.089861,61.136724,81.507234,67.691963,86.414021,10.655393,302.727936,-57.716566,287.321159
110,4.486222,-0.182855,-0.20501,0.149263,0.0,-28.445526,-42.95549,10.98246,-50.693733,17.138099,-51.80959,10.30973,-49.638977,-10.437744,0.0,0.264601,19.075913,43.004543,34.194772,55.091692,44.690095,58.906349,52.22856,59.227772,0.0,69.177716,27.612957,91.258198,18.510784,91.864048,9.713768,77.114994,2.070534,57.193257,0.0,10.412787,32.317881,57.911179,49.995826,74.148796,61.247653,81.53706,67.688678,85.970851,15.351568,302.487224,-57.711623,287.412565
111,-1.722748,1.613366,-0.116775,0.030666,0.0,-26.219467,-41.552445,12.267288,-48.08876,19.909172,-48.247536,13.360084,-45.149277,-7.148735,0.0,1.547638,18.971245,43.105393,33.20164,54.603814,42.927453,58.035568,49.926245,57.880859,0.0,69.191723,27.115974,91.079189,18.12371,91.847889,9.555874,77.231197,2.242309,57.602978,0.0,10.49836,32.463784,58.211483,50.187412,74.256019,61.447007,81.70218,67.796185,85.718068,13.866749,304.047179,-57.590469,287.38982
112,5.721725,0.635201,-0.248989,0.004964,0.0,-35.88525,-47.394001,6.264496,-53.629989,13.255486,-53.222133,8.34549,-49.433715,-12.71965,0.0,8.098814,19.025907,44.477031,31.494143,54.429592,39.801216,56.365443,45.821832,54.961523,0.0,69.368774,26.912429,91.126075,17.9645,91.966278,9.523979,77.448349,2.440395,58.043975,0.0,10.704644,32.6551,58.540515,50.403688,74.424042,61.633716,81.958395,67.858454,85.550417,19.826356,304.620247,-57.601576,287.332651
113,-0.531921,4.996164,0.044735,-0.099899,0.0,-37.114391,-47.940376,5.66803,-52.091526,14.686935,-49.872253,10.873512,-44.303387,-8.039062,0.0,14.747011,17.235701,44.54529,25.523014,51.100924,30.438013,50.635709,33.580813,46.562442,0.0,69.391124,26.494491,91.051311,17.50946,91.983799,9.11832,77.547306,2.207748,58.124576,0.0,10.875667,32.9413,58.955032,50.716082,74.721382,61.891054,82.294934,67.958168,85.542413,19.53507,309.545179,-57.316206,287.16152
114,4.079407,1.141383,-0.092171,0.07841,0.0,-41.2122,-50.805851,2.191314,-54.851658,10.554703,-52.378796,7.414352,-46.487686,-10.392472,0.0,16.892776,16.208445,43.777374,23.636155,49.83378,28.193719,48.91318,31.146772,44.758674,0.0,69.572719,26.395454,91.076603,17.389778,91.97327,9.038818,77.51199,2.186726,58.085987,0.0,10.6372,33.058441,58.949018,50.766027,74.730966,61.895773,82.382052,67.939619,85.503091,23.841219,310.617957,-57.181635,287.171325
115,0.519218,-0.425115,-0.102905,0.120031,0.0,-41.222076,-50.901031,1.764839,-55.307487,10.024086,-53.126644,6.457993,-47.550201,-12.551422,0.0,15.143671,16.028962,43.431152,24.344026,50.017834,29.64557,49.749923,33.174754,46.096819,0.0,69.665783,26.58308,91.15488,17.60432,92.053493,9.232772,77.492717,2.320896,58.014873,0.0,10.367005,32.796557,58.756665,50.471538,74.621915,61.617167,82.299121,67.734162,85.453616,24.591596,310.118189,-57.053381,287.216703
116,-1.703087,-0.383235,0.033989,0.155228,0.0,-39.036758,-49.297943,3.991608,-54.006775,11.912796,-52.209034,7.709862,-47.139942,-11.04705,0.0,11.571409,15.798077,42.328302,25.101147,49.391264,31.222465,50.037828,35.328151,46.532492,0.0,69.62479,26.751537,91.118007,17.712867,92.032093,9.179718,77.36436,2.060337,57.810894,0.0,10.247641,32.348126,58.440306,50.061232,74.480395,61.252444,82.127183,67.460077,85.238293,23.11366,309.660832,-56.794241,287.297809
117,-1.510505,-0.712143,0.173584,0.144125,0.0,-37.421643,-48.881584,5.783661,-54.11142,13.703499,-52.637684,9.58564,-47.850838,-7.918763,0.0,10.976494,16.263823,42.065603,26.173147,49.68837,32.65216,50.407466,36.897822,47.61699,0.0,69.559513,26.842884,90.911121,17.773544,91.906345,9.122989,77.103252,1.845405,57.57471,0.0,9.961268,31.959482,58.177595,49.711589,74.215536,60.979644,81.832202,67.311914,85.051881,21.826269,308.881359,-56.397543,287.374604
118,-3.861809,-3.605125,0.197204,0.136197,0.0,-30.228962,-43.918774,11.257896,-50.569965,17.919525,-50.65852,11.182434,-47.491882,-10.556923,0.0,1.812646,17.454754,41.056145,31.548421,52.176381,41.417557,55.824583,48.495254,55.671664,0.0,69.384236,27.192078,90.79311,18.129467,91.876087,9.369118,76.931477,1.907147,57.558781,0.0,9.802767,31.502244,57.979006,49.294564,73.896879,60.714907,81.491302,67.282076,84.912374,18.18944,305.206407,-55.975359,287.440974
119,0.808433,-2.263041,0.149128,0.087167,0.0,-34.044513,-46.32368,10.916703,-54.451618,16.881066,-55.452793,9.456116,-53.155826,-14.190033,0.0,-1.135615,18.270205,42.056921,33.978213,53.68272,44.82366,57.582506,52.566409,57.875586,0.0,69.112244,27.68652,90.818962,18.627686,91.868775,9.716297,76.795784,1.970638,57.383263,0.0,9.684613,30.99557,57.791852,48.821555,73.659621,60.355519,81.208485,67.14205,84.931257,19.208107,302.855341,-55.615997,287.440116
120,-6.725601,1.066516,0.225449,-0.055032,0.0,-22.772117,-38.566063,18.026024,-45.98275,24.391617,-46.970421,15.599373,-44.882721,-8.176368,0.0,-5.2445,17.494151,40.966915,33.863061,53.385269,45.28196,58.080585,53.339339,58.442775,0.0,69.169121,27.968136,90.354103,19.030128,91.644539,10.076877,76.761474,2.185478,57.489395,0.0,9.551554,30.72451,57.743107,48.654199,73.428736,60.362337,80.959113,67.353385,84.949264,12.681724,303.834776,-55.19133,287.298003
