takenoko1/special-research/HandMotion_SimilarSearch_自分用/NewProject/handData/test_key/d4_feature_d3/126.csv
frame,vel_0x_L,vel_0y_L,vel_0x_R,vel_0y_R,posFromWrist_0x_L,posFromWrist_1x_L,posFromWrist_2x_L,posFromWrist_3x_L,posFromWrist_4x_L,posFromWrist_5x_L,posFromWrist_6x_L,posFromWrist_7x_L,posFromWrist_8x_L,posFromWrist_9x_L,posFromWrist_0y_L,posFromWrist_1y_L,posFromWrist_2y_L,posFromWrist_3y_L,posFromWrist_4y_L,posFromWrist_5y_L,posFromWrist_6y_L,posFromWrist_7y_L,posFromWrist_8y_L,posFromWrist_9y_L,posFromWrist_0x_R,posFromWrist_1x_R,posFromWrist_2x_R,posFromWrist_3x_R,posFromWrist_4x_R,posFromWrist_5x_R,posFromWrist_6x_R,posFromWrist_7x_R,posFromWrist_8x_R,posFromWrist_9x_R,posFromWrist_0y_R,posFromWrist_1y_R,posFromWrist_2y_R,posFromWrist_3y_R,posFromWrist_4y_R,posFromWrist_5y_R,posFromWrist_6y_R,posFromWrist_7y_R,posFromWrist_8y_R,posFromWrist_9y_R,posFromBody_0x_L,posFromBody_0y_L,posFromBody_0x_R,posFromBody_0y_R
6,5.203433,-2.540967,0.540299,0.28031,0.0,-25.650638,-34.754127,12.457123,-43.493122,15.168618,-47.380954,5.026589,-48.522491,-22.538829,0.0,-8.858233,14.729572,39.893347,31.790186,54.443288,45.042911,60.722811,55.688411,64.245252,0.0,68.026702,28.193332,90.473602,18.778495,89.670227,8.984195,74.952758,-0.010781,54.851234,0.0,7.830619,30.663254,58.018439,48.224577,72.640628,60.273651,80.244833,67.761617,85.089425,19.152448,300.299828,-53.4862,285.069101
7,-6.731014,2.933144,0.189731,0.021995,0.0,-15.578853,-28.313678,20.379078,-36.652679,23.586125,-40.27787,13.458081,-41.185627,-13.050087,0.0,-11.084162,12.204611,36.080297,28.882397,52.195437,42.135987,58.451112,52.822167,61.868578,0.0,68.055782,28.144592,90.516918,18.719902,89.730641,8.916149,75.062176,-0.096165,54.83511,0.0,7.883194,30.633009,57.952503,48.216006,72.799043,60.277826,80.22059,67.774634,85.06517,12.926891,303.334211,-52.791012,285.192335
8,-2.21767,0.31652,0.187878,0.016253,0.0,-12.857163,-26.72081,23.533401,-34.70557,25.623665,-38.089028,16.834808,-38.55304,-9.224522,0.0,-10.788945,12.344661,35.54644,28.921868,51.670559,41.901953,58.427907,52.212246,62.109244,0.0,67.946548,28.339599,90.570694,18.969497,89.928314,9.158031,75.255707,0.089298,54.978264,0.0,8.072039,30.497429,57.798806,48.112117,72.911046,60.238836,80.253145,67.82049,85.080755,11.078179,303.728296,-52.234176,285.286153
9,-0.351975,-0.639672,0.100971,0.053785,0.0,-11.553497,-26.259155,24.517868,-34.896595,26.676613,-38.70655,18.029572,-39.579094,-5.413948,0.0,-11.647956,12.218035,35.729801,29.573421,52.343811,43.128958,59.409898,53.883483,62.578324,0.0,67.947224,28.534618,90.647816,19.255062,90.207859,9.452351,75.495541,0.324314,55.181133,0.0,8.207778,30.208104,57.714862,47.889865,72.922,60.135885,80.202509,67.858182,85.11242,10.992124,303.145783,-51.867285,285.397097
10,-4.20298,0.322559,0.109211,-0.025244,0.0,-6.094093,-22.54676,29.238762,-31.0578,31.770333,-34.944362,22.763146,-36.022464,-2.098938,0.0,-13.127754,12.207699,34.947844,29.896018,51.880054,43.398202,58.855578,53.930637,61.585539,0.0,68.312576,28.669281,90.888382,19.460804,90.573715,9.680523,75.845444,0.578556,55.540123,0.0,8.194267,30.200558,58.098073,47.904796,73.120787,60.194104,80.220442,67.927652,85.123783,6.980392,303.506118,-51.566826,285.409629
11,5.113472,-2.1387,0.301117,0.055946,0.0,-13.798267,-27.67218,24.1913,-36.690571,25.729065,-40.712253,16.857468,-41.692978,-10.105488,0.0,-10.339699,14.925457,37.847296,32.680578,53.691699,45.830229,60.291558,56.071189,63.231643,0.0,68.757454,28.626457,91.014244,19.482799,90.737595,9.737675,76.060501,0.677456,55.828445,0.0,8.030616,30.159864,58.239938,47.840502,73.204224,60.164402,80.239251,67.966875,85.090339,12.217077,301.384125,-51.142496,285.482282
12,0.282257,-1.734347,0.339912,0.083375,0.0,-14.65456,-27.669204,23.407151,-36.456928,25.687729,-40.523025,16.296982,-42.009235,-9.843692,0.0,-9.001555,16.44679,40.482038,34.421038,55.407311,47.714333,61.735727,58.127157,64.372025,0.0,69.054978,28.711682,91.056633,19.650914,90.80484,9.913102,76.094445,0.808972,55.863488,0.0,7.816256,29.916321,58.150289,47.570134,73.095198,59.948671,80.120913,67.892084,85.050621,12.573846,299.655147,-50.728072,285.571026
13,10.283215,-1.414937,0.202046,0.128923,0.0,-28.588154,-36.518234,11.671245,-45.553013,14.395763,-49.190575,4.79108,-50.053196,-20.73745,0.0,-7.216388,18.475316,42.55069,36.407302,56.417437,49.600648,61.829095,59.931344,64.464417,0.0,69.328502,28.942177,91.219173,19.992302,90.989742,10.22961,76.230663,1.021602,56.012523,0.0,7.474196,29.927016,58.137531,47.499874,72.82336,59.849154,79.922323,67.851748,84.962799,22.905825,298.235758,-50.477262,285.695497
14,-3.837044,0.298638,0.127887,0.049437,0.0,-22.993961,-31.832393,16.39999,-40.56039,19.232357,-44.358444,8.427807,-45.54467,-16.049538,0.0,-8.50612,18.12067,41.50171,36.262633,56.287118,49.590063,61.961104,59.872087,64.560129,0.0,69.509812,29.180123,91.419617,20.30127,91.133492,10.531037,76.390595,1.268521,56.149476,0.0,7.242743,29.983666,58.168654,47.465492,72.730759,59.740399,79.85898,67.734237,84.886686,19.087349,298.521965,-50.330807,285.732503
15,4.98436,-0.113881,0.229283,0.102444,0.0,-30.538056,-36.238312,10.884693,-44.96901,13.257053,-48.574322,3.143314,-49.413426,-21.29242,0.0,-7.819911,18.52421,42.228242,36.288914,56.353896,49.354746,61.766727,59.570079,64.749198,0.0,69.358188,29.3195,91.330639,20.49963,91.060558,10.7108,76.293011,1.350654,56.013599,0.0,7.06358,30.005674,57.963704,47.429318,72.508705,59.639376,79.744396,67.640821,84.777869,24.067331,298.397164,-50.105902,285.824027
16,-4.461273,0.372899,0.064167,-0.003816,0.0,-23.616818,-32.276116,15.596065,-40.77166,18.806568,-44.320015,8.579715,-45.347489,-13.776936,0.0,-8.490423,17.456137,41.089477,35.447626,56.174819,48.916503,61.796416,59.334032,64.437691,0.0,69.25058,29.557857,91.537308,20.794144,91.267959,10.975216,76.465736,1.512176,56.064056,0.0,7.169087,29.991483,57.931235,47.362023,72.404655,59.530077,79.631553,67.547602,84.76074,19.570593,298.758908,-50.0772,285.809056
17,7.788494,-0.779006,0.007027,0.005916,0.0,-34.311527,-39.747883,8.160187,-48.870655,10.529136,-52.355828,0.223663,-52.847328,-24.005333,0.0,-7.495994,18.685341,42.339083,36.809062,56.770315,50.035037,62.366693,60.244319,65.36738,0.0,69.281524,29.779666,91.766944,21.060161,91.49794,11.228782,76.676422,1.719852,56.236518,0.0,7.155193,30.215872,58.031049,47.509223,72.342386,59.586541,79.562973,67.5272,84.77425,27.281731,297.967354,-50.147529,285.802424
18,-6.182648,1.044162,0.087776,0.029467,0.0,-25.353447,-34.078033,15.407341,-43.241512,18.646683,-47.092941,7.446671,-48.309837,-17.533653,0.0,-9.495583,16.970582,40.904869,35.396028,56.187441,48.930533,62.236116,59.47276,64.756089,0.0,69.354011,29.87915,92.006218,21.152046,91.739959,11.31443,76.850509,1.769714,56.274032,0.0,7.111634,30.26179,57.88512,47.542198,72.331926,59.579687,79.506249,67.474416,84.796419,20.982668,298.997406,-50.176168,285.817781
19,3.92466,-0.218535,0.158294,0.077509,0.0,-30.467079,-38.469853,11.447914,-48.074787,14.22995,-51.885246,3.793304,-52.801975,-23.254154,0.0,-8.589729,17.424806,41.503959,35.635546,55.986147,48.916948,61.911346,59.403082,65.037893,0.0,69.400544,29.929322,92.191338,21.20961,91.895371,11.374375,76.954308,1.82523,56.372361,0.0,6.970831,30.407558,57.652704,47.64605,72.201039,59.619517,79.407819,67.47102,84.76668,24.755556,298.763103,-50.169646,285.879522
20,-8.314556,1.393337,0.195477,0.106087,0.0,-18.124352,-29.695519,20.314396,-39.183781,23.747875,-43.620838,12.843532,-45.805046,-12.719605,0.0,-11.131685,15.467613,38.98958,33.89569,54.566023,47.705157,61.057671,58.630583,63.85699,0.0,69.441524,29.829884,92.471935,21.079456,92.117741,11.312519,77.122295,1.9006,56.522518,0.0,6.889901,30.539383,57.604465,47.774639,72.198705,59.674709,79.389368,67.402724,84.717589,16.244396,300.144732,-50.170773,285.973901
21,1.258232,-1.218237,0.333881,0.192662,0.0,-19.450585,-31.265053,19.698109,-41.217945,22.661693,-46.222161,12.63525,-48.918331,-13.752915,0.0,-10.867813,15.460154,39.858273,34.098738,55.466307,48.149859,62.291148,59.518246,65.432169,0.0,69.601525,29.607846,92.442124,20.9114,92.222763,11.281128,77.362633,1.996811,56.624382,0.0,6.456104,30.653509,57.096036,47.891742,72.266149,59.706819,79.713483,67.331895,85.059142,17.281906,298.909511,-50.057614,286.149579
22,-8.686913,0.458991,0.650471,0.031023,0.0,-5.295467,-23.674278,29.293385,-33.376396,32.845654,-38.637623,22.53693,-41.753334,-2.538231,0.0,-11.110851,13.887791,39.24377,32.929839,56.446607,47.550941,63.617176,59.233292,66.626619,0.0,69.532551,29.098606,91.871349,20.496002,91.842876,11.140904,77.373837,2.102806,56.439526,0.0,6.16894,30.95111,57.508677,48.231184,73.945982,59.973532,81.949305,67.50928,86.73332,8.401771,299.34558,-49.600365,286.15768
23,-2.141178,-1.237775,1.087784,-0.768286,0.0,0.519127,-22.304077,32.203423,-32.6189,35.357895,-38.363502,23.529099,-41.419807,-8.474247,0.0,-7.737611,13.841083,41.979733,32.437059,57.906795,46.559317,65.486188,57.859012,70.031834,0.0,68.86845,28.455814,90.79842,19.754036,90.523533,10.396419,76.270122,1.286808,54.896244,0.0,5.973426,30.473544,57.760508,47.638133,75.565053,59.385087,83.965542,67.114361,88.459157,6.101137,298.075296,-48.672037,285.356885
24,-3.819946,3.640496,1.810295,-4.337065,0.0,0.546295,-20.481823,16.176578,-28.215351,19.140827,-31.767002,11.934265,-32.609951,-9.382633,0.0,-6.521202,12.645978,37.740406,29.745963,53.685758,43.035331,61.657959,53.518637,66.284423,0.0,67.507656,28.019085,88.295483,19.090404,85.47678,9.196587,67.118031,-0.695812,42.488148,0.0,6.110747,29.731798,57.971435,47.047367,77.48948,58.918575,87.027066,66.40969,90.110486,2.153446,301.700136,-46.989487,281.004164
25,4.937359,-0.875572,2.511852,-0.676896,0.0,-11.144703,-25.679867,-8.729245,-30.710907,-7.268898,-31.287586,-9.469528,-28.756394,-22.122105,0.0,-0.338195,14.213648,38.728994,30.260283,54.430629,42.594545,62.744075,52.314875,67.91766,0.0,60.236573,29.288418,71.182915,21.513874,64.72807,12.16539,47.949429,2.124722,29.521099,0.0,17.031073,27.610462,61.220458,40.609344,76.471772,49.621396,82.853405,55.07376,83.61175,7.013941,300.861444,-44.554499,280.364148
26,1.416733,-1.485147,1.285858,-21.740616,0.0,-19.018914,-24.850995,-30.732731,-26.314156,-29.991028,-23.785195,-27.99495,-18.537758,-31.297703,0.0,5.97397,16.533475,40.173361,31.993136,55.710469,43.711351,64.614298,52.483664,69.802691,0.0,60.230462,30.209107,62.491013,23.382534,55.543271,15.017384,39.644955,5.740551,23.898583,0.0,18.849919,22.724498,51.453704,36.611437,66.441072,47.135942,74.118773,54.160089,76.389299,8.304944,299.547213,-43.394371,258.794448
27,7.203758,-3.620476,-0.432769,-28.488898,0.0,-35.94294,-29.026772,-58.734776,-27.389443,-59.22012,-22.021454,-52.053143,-14.185707,-46.438465,0.0,12.985124,20.168599,43.020672,34.982794,57.383707,45.946123,67.100209,53.8791,72.336285,0.0,59.596161,32.218608,55.178238,26.873314,46.993,19.844753,32.724643,11.310619,21.215229,0.0,9.687244,16.159922,34.953012,26.803347,46.402656,35.067293,52.610412,40.833534,55.032782,15.10009,296.734327,-44.235752,231.11314
28,6.490482,-2.956955,-3.516358,-43.981657,0.0,-53.048778,-32.782322,-85.97311,-27.574596,-87.893703,-19.18309,-74.313354,-8.917236,-53.2714,0.0,17.621949,23.697918,44.127844,38.678469,59.411355,49.671661,69.717228,57.178473,73.912143,0.0,57.938587,35.096031,49.243389,33.088188,41.259453,28.777462,29.097759,22.360394,21.914429,0.0,4.02877,7.76136,19.140041,18.911397,29.236949,28.835294,38.115967,36.906276,42.980448,21.039596,295.230193,-48.303086,188.584304
29,1.811165,-6.949626,-4.494083,-49.497166,0.0,-55.864311,-31.082989,-88.374939,-25.046082,-90.777649,-16.394165,-77.307964,-6.4254,-55.407761,0.0,22.79987,27.249259,50.249657,43.668915,66.09711,55.386464,77.094438,63.100498,81.245078,0.0,55.778675,37.482456,46.329345,38.644043,38.066757,37.352657,31.495422,33.750629,31.647766,0.0,-4.354436,-2.299376,-7.637057,9.515479,5.715408,21.266928,18.917146,32.22071,28.000045,22.073565,290.633467,-53.574365,141.440038
30,1.532753,-3.916693,-4.89893,-63.281168,0.0,-58.952053,-31.760834,-90.441341,-25.467957,-92.551403,-16.814301,-79.26606,-7.066727,-57.402752,0.0,25.208865,29.66843,53.941121,47.054493,69.250839,59.222276,80.73008,66.799533,84.730741,0.0,59.729531,39.347901,65.856915,42.18235,55.536598,42.224224,45.518463,40.003819,42.326523,0.0,-23.257669,-11.458536,-34.762864,5.49951,-12.55221,21.975718,8.306702,37.487428,22.166459,22.572115,289.642864,-59.507498,81.08496
31,-0.356598,-0.890009,-5.409416,-45.106422,0.0,-59.166481,-32.073738,-90.662167,-25.777405,-92.956089,-17.130524,-79.724853,-7.286087,-57.562054,0.0,25.546714,29.977787,54.50352,47.489624,69.562,59.662124,81.092691,67.113164,85.349221,0.0,57.975574,40.445995,77.614552,45.5308,67.10511,47.447296,52.420738,46.782497,49.802616,0.0,-30.385624,-17.567393,-44.18171,-1.853822,-22.897108,14.249278,2.349998,30.065337,18.476155,21.083805,291.653858,-66.048626,38.879541
32,-0.808022,-0.388583,-6.027351,-39.638201,0.0,-59.166137,-32.393817,-90.669261,-26.10395,-93.098121,-17.51271,-79.860626,-7.730484,-57.701854,0.0,25.690098,30.001327,54.655352,47.529848,69.62049,59.706869,81.077488,67.105815,85.434202,0.0,55.37812,40.243572,79.949237,47.915165,74.334938,51.756992,55.470073,52.935814,53.300445,0.0,-28.082315,-22.975185,-47.030602,-3.627318,-24.413569,16.325432,5.790503,35.42878,25.760315,19.160825,293.483903,-73.190935,1.459968
33,-0.696304,-0.091637,-5.387684,-22.533602,0.0,-58.981006,-32.783649,-90.793728,-26.651527,-93.362629,-18.188438,-80.097484,-8.490875,-57.782879,0.0,25.452309,29.424676,54.471187,47.025186,69.299943,59.35205,80.737144,66.945931,85.189238,0.0,52.307293,40.202156,89.5387,48.676025,72.539394,52.942074,52.759117,54.487003,51.549797,0.0,-30.150738,-26.309232,-53.520181,-7.62189,-25.618455,12.093244,4.330371,30.741732,23.922505,17.077652,294.898383,-79.965488,-19.567517
34,-0.561859,-0.258475,-6.362686,-7.090834,0.0,-58.64257,-33.196197,-91.071327,-27.226604,-93.637653,-18.780533,-80.214546,-9.022362,-58.073261,0.0,25.421965,28.901922,54.525737,46.547633,69.125436,59.013411,80.524007,66.806548,84.952968,0.0,48.837415,41.413421,96.419128,50.795751,71.368269,55.292587,52.004716,56.828779,50.993082,0.0,-32.66832,-26.711805,-46.308431,-8.838642,-19.631533,10.382492,7.233292,28.433237,26.055497,14.825249,295.072985,-88.018718,-26.225274
35,-0.450348,-0.221104,-8.025399,9.340374,0.0,-58.646873,-33.402019,-91.211265,-27.633991,-93.901348,-19.290962,-80.441242,-9.579185,-58.639904,0.0,25.251646,28.407697,54.283948,46.0263,68.887846,58.569389,80.126347,66.537316,84.488211,0.0,43.659125,42.584015,94.384781,52.880751,64.675055,57.729847,49.586592,59.527834,49.512869,0.0,-38.382599,-25.592906,-39.345745,-8.40224,-14.936101,10.409952,9.469323,28.102933,28.176771,12.537289,294.626381,-97.881729,-17.1104
36,-0.108169,-0.338664,-6.457077,17.146626,0.0,-58.571217,-33.637986,-91.758889,-27.998166,-94.502976,-19.732132,-81.12957,-10.115181,-59.53339,0.0,25.065258,27.825736,53.895328,45.447908,68.623258,58.111325,79.725957,66.337677,83.962641,0.0,35.584849,44.481949,93.646019,54.204581,52.628512,57.80706,42.823935,58.491354,42.852202,0.0,-46.494368,-23.711816,-35.579717,-6.471391,-8.53186,11.770085,10.898172,28.785664,26.116438,10.481169,293.917545,-106.286757,-0.333946
37,0.361198,-0.519407,-5.458328,22.19734,0.0,-58.918991,-33.992489,-92.430004,-28.467934,-95.213757,-20.222763,-82.09203,-10.60881,-60.615704,0.0,25.02801,27.257224,53.492109,44.936244,68.311282,57.752801,79.314847,66.245434,83.6632,0.0,29.723333,46.886776,103.644081,55.602133,44.334189,57.911568,39.621569,57.397413,38.698557,0.0,-54.07583,-21.126567,-34.208543,-4.2624,-4.394638,13.091285,12.18147,29.355917,24.862578,8.680658,293.069858,-113.906794,21.535114
38,0.619377,-0.5705,-4.095749,21.222517,0.0,-59.284698,-34.474045,-93.11103,-28.993824,-95.810726,-20.725227,-82.749596,-11.042908,-61.314422,0.0,25.175717,27.077346,53.212306,44.730504,68.171158,57.571206,79.100969,66.149623,83.485705,0.0,27.057558,48.687962,105.86435,57.173887,43.316328,58.825127,40.344378,57.699446,38.347933,0.0,-60.751142,-18.379741,-30.392552,-1.106626,-4.028921,15.68069,11.817729,31.23878,24.144458,7.337425,292.197213,-119.965153,42.455486
39,0.855972,-0.458867,-2.553383,12.994563,0.0,-60.282898,-34.740291,-93.620315,-29.258354,-96.387954,-21.031311,-83.451416,-11.392479,-61.941982,0.0,25.168986,26.927057,53.073812,44.62396,68.295375,57.563536,79.091916,66.291315,83.638759,0.0,26.35072,48.896221,108.889126,57.551319,43.113739,59.241852,41.212223,58.143151,39.18274,0.0,-63.56007,-16.423498,-29.445777,0.875188,-4.185289,17.067708,10.917262,31.816078,22.807236,6.689827,291.56282,-124.022106,55.274523
40,0.891449,-0.080733,-1.230091,5.180773,0.0,-61.083149,-34.927986,-94.013877,-29.438324,-96.786518,-21.241424,-83.838455,-11.605682,-62.034164,0.0,25.199071,26.784933,52.829972,44.590739,68.394473,57.622768,79.090558,66.417237,83.977288,0.0,27.404583,47.931301,112.759896,56.988545,43.79932,59.222901,42.296482,58.598591,40.801483,0.0,-62.971428,-15.638595,-30.973346,1.455482,-5.520209,17.072309,9.40284,31.053164,20.516401,6.403312,291.284236,-126.430161,60.257445
41,0.906075,0.118845,-1.3908,-0.668788,0.0,-61.754517,-35.137653,-94.337288,-29.616074,-97.142658,-21.406723,-84.069386,-11.696755,-62.143787,0.0,25.347075,26.866518,52.887623,44.730566,68.631483,57.795187,79.325271,66.55578,84.516962,0.0,29.606518,47.407654,114.957893,57.829593,44.591984,61.05574,43.954879,61.155006,43.312099,0.0,-62.554816,-16.221747,-33.292729,1.120739,-7.291192,17.212242,8.552574,31.560543,21.040996,6.454445,291.204362,-128.675903,59.389938
42,0.575043,0.537834,-0.83923,-4.625563,0.0,-62.094509,-35.130513,-94.360485,-29.537876,-96.973835,-21.386856,-83.865258,-11.749009,-61.871395,0.0,25.044571,26.973667,53.100562,44.85666,69.023462,57.928765,79.657957,66.644947,84.872298,0.0,31.137829,46.887898,114.896702,58.215798,45.366211,61.950909,44.523514,62.460915,44.451187,0.0,-61.536978,-16.772128,-34.242462,0.537821,-7.311656,16.997455,9.424447,31.775965,22.709517,6.636538,291.49131,-129.908083,54.513489
43,0.172577,0.737238,-0.524631,-4.609557,0.0,-62.002316,-35.122342,-94.040211,-29.413193,-96.660244,-21.178231,-83.348214,-11.477601,-61.465382,0.0,24.78354,27.013224,53.092955,44.959734,69.145617,58.037582,79.702381,66.684381,84.905186,0.0,32.015258,45.652118,114.757347,57.264141,46.091423,61.404682,44.846901,62.353054,45.225883,0.0,-60.210406,-16.845784,-34.332377,0.390151,-6.885054,16.96847,9.955401,31.973468,23.629061,6.613055,291.994607,-130.628774,49.669991
44,-0.11538,0.657753,-0.998394,-2.676769,0.0,-61.241054,-35.035938,-93.691314,-29.237503,-96.296264,-20.852806,-82.805843,-11.013977,-60.987762,0.0,24.541676,26.98435,53.025005,44.963291,69.280393,58.043498,79.795809,66.636278,84.936086,0.0,32.522426,45.195739,114.989261,56.804031,46.53004,60.986091,44.902084,62.03128,45.197891,0.0,-60.043569,-17.488353,-34.28536,-0.24644,-6.704119,16.530109,10.528673,31.96121,24.369071,6.392515,292.427665,-131.732328,46.768527
45,0.069145,0.394783,-1.034008,-1.167256,0.0,-60.702415,-35.119663,-93.504638,-29.223564,-96.148555,-20.703552,-82.584571,-10.716293,-60.912803,0.0,24.523497,27.09508,53.119964,45.025263,69.380552,58.07746,79.866575,66.650529,84.997775,0.0,32.566795,44.908046,115.172332,56.438392,46.671466,60.561218,44.879367,61.609165,44.875957,0.0,-60.532015,-17.872428,-34.366976,-0.526805,-6.606535,16.423065,10.973579,32.168809,25.091767,6.441175,292.623285,-132.786821,45.402108
46,-0.118881,0.320435,-0.877442,-0.269738,0.0,-60.315388,-35.119789,-93.166672,-29.184013,-95.857281,-20.587692,-82.123546,-10.48011,-60.533432,0.0,24.442554,27.26072,53.132969,45.141947,69.518256,58.12854,79.923385,66.656408,84.877707,0.0,32.898915,45.031071,115.268326,56.493061,46.277218,60.53587,44.464028,61.508778,44.429501,0.0,-60.782542,-17.876553,-34.771651,-0.472885,-6.586114,16.461036,11.274038,32.270067,25.458139,6.289198,292.776009,-133.697359,44.964659
47,-0.087684,0.284299,-0.657486,0.301039,0.0,-60.065941,-35.133557,-92.935822,-29.24675,-95.84562,-20.613259,-81.907689,-10.411515,-60.264485,0.0,24.323487,27.207367,52.802617,45.065945,69.240008,58.016229,79.696378,66.525102,84.621245,0.0,33.609936,45.318993,115.685097,56.790264,46.190689,60.78788,44.256592,61.716248,44.281964,0.0,-60.77226,-18.007284,-35.073715,-0.572432,-6.779849,16.327649,11.162338,32.061154,25.34437,6.204031,292.947166,-134.352328,45.152556
48,0.064521,0.059478,-0.13924,0.23761,0.0,-60.321006,-35.009674,-93.042789,-29.128898,-95.910164,-20.480644,-81.987053,-10.227127,-60.174465,0.0,24.113943,27.196833,52.827675,45.03565,69.34575,57.994431,79.838256,66.559287,84.715427,0.0,33.501411,45.939331,115.476116,57.28101,45.481144,61.052193,43.601658,61.758865,43.782738,0.0,-61.053639,-18.20743,-35.11302,-0.792462,-6.209029,16.175928,11.718499,32.046111,25.848981,6.300842,292.925074,-134.459278,45.308596
49,-0.005241,-0.0391,0.175209,0.304059,0.0,-60.617546,-34.975674,-93.243073,-29.015236,-95.958057,-20.360825,-81.926422,-10.193275,-60.269486,0.0,24.144411,27.372957,52.816992,45.250294,69.353666,58.200689,79.976651,66.739894,84.751798,0.0,33.446182,46.619019,115.03664,57.809464,44.430542,61.330845,42.648685,61.840496,42.883392,0.0,-61.085379,-18.09636,-34.931554,-0.619548,-5.596897,16.371182,12.379438,32.231615,26.424502,6.35214,292.816394,-134.22753,45.543075
50,-0.131722,-0.007225,-0.038532,0.613317,0.0,-60.650184,-35.042655,-93.323421,-29.051193,-95.785469,-20.364028,-81.818538,-10.181625,-60.176765,0.0,24.165591,27.526604,52.579562,45.452675,69.370277,58.363933,80.12752,66.842054,84.85544,0.0,33.993393,47.298866,115.230835,58.418003,43.446922,61.80281,41.973518,62.149612,42.325344,0.0,-60.958815,-18.236854,-34.879905,-0.802582,-5.220763,16.22397,12.826252,32.197838,26.840947,6.274303,292.730119,-134.212177,46.077342
51,-0.066719,0.058527,-0.163307,1.061663,0.0,-60.823734,-35.231437,-93.464252,-29.225601,-95.672367,-20.540817,-81.86127,-10.375167,-60.124626,0.0,24.172631,27.505943,52.274045,45.575114,69.152125,58.558545,80.120863,67.039668,85.456556,0.0,34.560733,47.703495,115.361045,58.851493,42.744266,62.225406,41.791191,62.539547,42.202434,0.0,-61.406296,-18.241035,-34.936253,-0.835057,-5.056939,16.183091,13.047757,32.215999,27.05325,6.258133,292.679688,-134.324935,47.030047
52,0.137009,0.072001,0.204414,1.44751,0.0,-61.230617,-35.449928,-93.705631,-29.406097,-95.645107,-20.677071,-81.815082,-10.490593,-60.122658,0.0,24.004139,27.489307,52.061155,45.629306,69.137811,58.695557,80.270929,67.230094,86.120014,0.0,34.525944,48.064613,115.076889,59.084644,42.052174,62.322098,41.462357,62.522461,41.684521,0.0,-61.71774,-17.956285,-34.845369,-0.5072,-4.897259,16.52294,13.30026,32.621773,27.421178,6.473305,292.6354,-134.042358,48.361268
53,0.413796,0.010843,-0.275894,2.649055,0.0,-61.859677,-35.473435,-94.068284,-29.364739,-95.747475,-20.61438,-81.912587,-10.507164,-60.25811,0.0,23.913724,27.586515,51.912633,45.751868,69.127437,58.865717,80.426318,67.390954,86.782251,0.0,35.280933,48.508278,115.016281,59.462757,41.922558,62.643162,41.738994,62.778202,41.656025,0.0,-62.025825,-17.748069,-35.155306,-0.128465,-5.394645,16.81331,12.841505,32.747831,26.830591,7.053132,292.508472,-134.152221,50.872552
54,0.807243,-0.051561,0.23893,3.773204,0.0,-63.007507,-35.489216,-94.647926,-29.352791,-95.969341,-20.641319,-82.32161,-10.652207,-60.549202,0.0,23.711577,27.756155,51.847856,45.999759,68.973975,59.174641,80.459959,67.674178,87.259519,0.0,35.743892,48.472412,115.073341,59.178806,41.745471,62.217544,41.840984,62.217968,41.37141,0.0,-62.299114,-17.473484,-35.486394,0.311376,-5.491514,17.270478,12.596769,33.210872,26.70943,8.112854,292.317562,-133.660812,54.506407
55,1.188446,-0.294883,0.32706,5.503968,0.0,-64.164894,-35.539043,-95.370998,-29.419464,-96.45496,-20.82415,-82.865467,-11.122902,-61.116497,0.0,23.207496,27.871184,51.714204,46.162903,68.621294,59.440712,80.324096,67.99691,87.209625,0.0,36.621517,48.427139,115.308598,58.695374,41.751606,61.431896,42.244892,61.13657,41.349896,0.0,-63.074137,-16.209434,-35.803037,1.959859,-5.845566,18.700044,11.917447,34.200633,25.585129,9.582974,291.921745,-133.052078,59.909441
56,1.411308,-0.770522,0.874981,7.179325,0.0,-65.252849,-35.466991,-96.045936,-29.356498,-96.921913,-20.866653,-83.555042,-11.46698,-62.024128,0.0,22.6481,28.008369,51.491594,46.266175,68.126562,59.583541,80.158321,68.137232,86.840222,0.0,37.531014,47.864994,115.661522,57.359871,41.343567,59.691479,42.278092,58.985539,40.830391,0.0,-63.138796,-14.925179,-35.129457,3.621576,-5.518788,20.416811,12.125577,35.868802,25.612373,11.376623,291.084856,-131.794756,67.022399
57,1.468827,-1.216125,1.104138,8.989255,0.0,-66.001969,-35.447217,-96.566266,-29.41079,-97.505093,-21.081505,-84.556309,-11.960198,-63.098694,0.0,21.885655,28.228114,51.032183,46.526033,66.994924,59.863258,79.532604,68.389384,86.154978,0.0,40.358356,46.96883,115.980388,55.563434,40.800785,57.552681,42.223285,56.58839,40.305324,0.0,-61.955911,-13.595496,-33.235832,4.955625,-3.127078,21.808807,13.900654,37.436718,27.187539,13.287398,289.749544,-130.24867,75.892467
58,1.421424,-1.785118,1.982059,11.009086,0.0,-66.466816,-35.443222,-97.028286,-29.540657,-98.148067,-21.424667,-85.796276,-12.612236,-64.497768,0.0,21.009034,28.310921,50.204073,46.713767,65.585199,60.107654,78.663072,68.654997,85.390841,0.0,43.598579,46.138825,116.151032,53.487087,40.781284,54.826149,42.125198,53.406967,39.579781,0.0,-60.323367,-11.572491,-30.320089,6.776027,0.589339,23.697294,16.810222,39.568848,29.582664,15.096817,287.622681,-127.878616,86.559808
59,1.397599,-2.122275,1.826477,13.665094,0.0,-66.758938,-35.530815,-97.487286,-29.884552,-99.000698,-22.077599,-87.138394,-13.586312,-65.929367,0.0,19.912482,28.009233,49.004682,46.439545,63.872934,59.872285,77.426285,68.516689,84.33954,0.0,47.608257,45.582115,116.044876,51.861019,42.408806,52.745842,43.652882,51.086884,40.59613,0.0,-58.252436,-9.388749,-27.330016,8.854929,2.816257,25.630972,19.034064,41.625341,31.085534,16.944489,284.926689,-125.602066,99.651185
60,0.949562,-2.436276,2.357185,15.74612,0.0,-66.930084,-35.367394,-97.784832,-29.96608,-99.860642,-22.415108,-88.420384,-14.128853,-67.224106,0.0,18.781585,27.627319,47.890013,46.092187,61.925474,59.571252,75.872941,68.276936,83.306357,0.0,51.276089,45.208558,114.714501,50.254487,43.978409,50.606404,44.432522,48.748959,40.935814,0.0,-54.689524,-7.817694,-23.505133,10.013577,5.189727,26.705572,21.393054,43.00232,33.356715,18.601221,281.690285,-122.537711,114.597177
61,0.524345,-2.50041,2.236119,18.571678,0.0,-66.936447,-35.058769,-97.857399,-29.827034,-100.417133,-22.514923,-89.454586,-14.442581,-68.24921,0.0,17.519827,27.047569,46.565158,45.511585,60.069615,59.031195,74.331811,67.852748,82.183771,0.0,56.250332,45.069362,112.272274,49.193699,47.707065,49.094936,47.002933,47.124023,43.463081,0.0,-50.423917,-5.771478,-20.098117,11.601198,5.104672,27.566365,21.204023,43.348363,32.268233,20.069612,278.108792,-119.357546,132.087772
62,0.094116,-2.336117,3.143051,20.982345,0.0,-66.796302,-34.864746,-97.941055,-29.847015,-100.709358,-22.824829,-90.117107,-14.997001,-69.225494,0.0,16.67208,26.362387,45.365496,44.913396,58.573007,58.537279,73.049589,67.443504,81.333691,0.0,59.424934,44.536182,109.312626,47.321651,52.412075,46.442848,49.517544,44.156204,46.505276,0.0,-47.315913,-1.490933,-17.7573,14.838254,1.680031,28.92033,17.394443,42.406027,27.285377,21.427808,274.50936,-114.950415,151.806802
63,0.056374,-1.756392,3.67773,21.76284,0.0,-66.826778,-34.915329,-98.180626,-30.207138,-101.026417,-23.497398,-90.643158,-15.869797,-70.04694,0.0,15.855234,25.79353,43.786896,44.195474,56.839674,57.738439,71.671246,66.608811,80.257443,0.0,61.928994,43.812825,104.9618,45.170437,58.441967,43.505196,53.636971,40.904229,50.468091,0.0,-44.075555,2.408612,-15.55404,17.449925,-2.802493,29.459874,12.753411,40.405209,22.416054,23.145338,271.551682,-109.611529,172.368356
64,-0.868172,-1.372403,3.946187,20.667653,0.0,-66.237591,-34.719429,-97.647274,-30.361061,-100.918773,-23.828315,-90.529243,-16.205406,-69.998737,0.0,11.38175,25.583702,42.230564,43.771817,55.477534,57.230492,70.539225,66.111091,79.740357,0.0,63.961051,42.80223,101.194965,42.769901,66.846313,40.319732,58.820972,37.184097,54.335929,0.0,-40.132556,6.245745,-11.491912,20.172167,-3.065451,30.470123,11.750918,39.043587,20.15773,24.206548,269.078695,-103.73596,191.935425
65,0.313843,-0.597768,6.482448,19.934861,0.0,-62.657536,-34.969963,-90.928207,-31.355919,-101.247505,-25.261963,-91.481255,-17.767914,-71.569382,0.0,6.700179,23.677911,34.943187,41.977349,53.038589,55.685447,69.101996,64.7881,79.006391,0.0,64.246925,42.621872,98.204704,42.759899,73.164368,40.260693,60.951199,36.695595,55.560642,0.0,-36.273292,12.243044,-5.008725,27.368881,2.825612,38.074859,20.062585,45.8275,30.441891,26.374191,267.432581,-95.399712,210.82194
66,-0.847893,0.115177,5.33923,16.821318,0.0,-62.222248,-34.405082,-82.738769,-31.326416,-94.516376,-25.875938,-88.7532,-18.829857,-72.604797,0.0,3.287678,22.39822,27.845718,40.534464,47.223936,54.431172,65.131728,63.836143,77.139429,0.0,64.726181,40.644973,98.258228,40.084556,81.990452,37.369274,68.189289,33.611297,60.3078,0.0,-31.997408,17.320867,2.418504,33.274061,10.820068,44.146568,27.87957,50.9803,39.08228,27.207086,266.717212,-88.379694,226.812712
67,-0.881538,0.583578,4.424972,13.229655,0.0,-60.259792,-31.240082,-76.02657,-29.495842,-89.430554,-25.6726,-86.847141,-20.009514,-72.635182,0.0,-0.156327,21.408423,20.384811,39.436357,42.30275,53.263127,62.360037,62.799317,76.40933,0.0,65.889199,38.881451,98.662571,37.572682,88.371311,34.501751,74.143799,30.466954,62.933899,0.0,-26.751513,20.807234,12.028697,38.140093,21.625205,49.85364,38.432617,56.755681,50.717738,27.716303,266.774244,-82.563967,239.515821
68,-2.041283,1.623184,4.199673,10.728925,0.0,-56.219272,-28.922996,-65.02438,-27.520981,-78.667076,-24.164314,-78.924991,-18.852058,-68.767364,0.0,-3.172897,19.209367,15.074498,36.910012,37.901279,50.833383,58.078745,60.763233,74.212077,0.0,66.851051,36.833691,100.238846,34.70747,93.226891,31.22398,78.490574,26.928635,63.623897,0.0,-21.562775,24.391091,21.845369,43.380294,34.216298,56.079575,50.589346,63.232495,62.675247,26.803413,268.135918,-77.235901,249.983236
69,-3.577263,1.002678,3.785511,8.67571,0.0,-51.665989,-30.241951,-49.501751,-30.902664,-61.792671,-28.806507,-65.165096,-24.727054,-60.344467,0.0,-1.509205,19.912458,12.419292,38.612039,34.852081,52.948867,54.363519,63.035735,70.783028,0.0,68.09277,35.078545,101.55479,32.055954,94.686619,28.100887,81.383915,23.597603,64.540947,0.0,-17.143149,28.132833,30.082738,48.412854,44.199562,61.866886,60.531521,69.238551,73.125814,24.155399,269.086655,-72.521141,258.607005
70,-4.969986,2.623985,1.123455,5.688448,0.0,-46.299556,-29.912624,-32.610168,-32.881988,-37.843277,-32.501484,-45.454868,-29.735035,-50.602008,0.0,-0.365723,20.347798,17.943398,39.469678,35.575932,53.844445,53.015149,64.271237,68.359188,0.0,70.769737,32.50058,102.769981,27.24131,98.141441,22.101894,87.15049,17.267555,67.790199,0.0,-12.8058,29.946603,36.361656,49.196121,49.514691,61.302067,62.42012,67.478775,72.128779,20.254257,271.960655,-70.328842,264.545468
71,-7.300335,2.600545,2.51889,4.462147,0.0,-34.770938,-27.231891,-14.216571,-32.330532,-16.505767,-33.934742,-23.829734,-33.220974,-33.887672,0.0,-1.099182,19.720241,23.014329,39.640911,39.840056,54.513189,54.32369,65.832509,67.293561,0.0,71.630837,31.885334,101.785836,25.331246,96.944161,19.218796,85.751267,13.848542,65.574166,0.0,-10.439068,31.833621,41.522175,50.325165,54.71126,61.721006,66.710699,67.38836,74.99632,14.210723,274.986305,-66.553151,269.43272
72,-10.176773,5.726017,3.022511,3.536656,0.0,-18.11182,-23.910152,9.939274,-29.948513,9.646866,-31.99641,0.763241,-31.69796,-16.181556,0.0,-6.644073,17.509699,26.7814,38.003994,41.008633,53.347539,52.153805,65.210991,62.365717,0.0,71.820064,31.526951,100.761555,24.168251,96.817326,17.380966,85.228077,11.565903,64.666477,0.0,-8.664645,32.842426,45.086026,50.92796,59.194661,62.174476,70.912345,67.963009,77.361941,5.50538,281.154952,-62.05921,273.412006
73,-8.744201,2.111246,2.32449,2.610955,0.0,-5.17685,-18.844139,29.8568,-26.610054,30.581943,-30.950249,21.074123,-33.278435,-0.07988,0.0,-8.376344,18.379541,31.197234,39.56318,44.916151,55.09084,54.433359,67.153919,62.228731,0.0,72.144813,31.538246,99.804084,24.105651,96.645172,17.122661,84.842582,11.04214,64.908714,0.0,-7.693866,33.217807,47.129483,50.929554,61.159819,62.141428,73.010847,68.255806,78.741347,-1.729643,283.67946,-58.225542,276.436223
74,-6.164601,3.903923,2.067626,2.134033,0.0,6.487679,-10.864608,44.39518,-18.85564,44.909523,-24.764488,34.084923,-29.080112,9.763871,0.0,-11.701666,15.434318,32.483718,36.046358,46.793696,51.594704,55.480016,64.203793,62.632368,0.0,72.005906,31.578495,98.766427,23.938134,95.872673,16.631825,83.522782,10.288342,63.791085,0.0,-6.805822,33.29991,49.468872,50.770275,62.635715,61.910703,73.834214,68.110605,79.148627,-6.479943,287.990769,-54.743615,278.977642
75,-5.452503,2.331362,1.569317,1.900875,0.0,13.482296,-4.39991,50.655224,-11.758644,52.176167,-18.433536,42.325024,-24.396515,19.62917,0.0,-14.448917,14.59965,31.243424,34.770027,46.440163,50.230008,54.818298,62.906207,62.166968,0.0,71.719128,31.386406,97.74828,23.706196,95.121197,16.218018,82.563984,9.68224,63.244068,0.0,-6.943599,32.686062,50.430018,49.912302,63.080442,61.104058,74.015476,67.532227,78.812174,-10.658724,290.700929,-51.900576,281.257315
76,-1.8391,1.97195,1.0742,1.110347,0.0,17.035332,-1.340549,53.484535,-8.321102,55.027725,-15.243702,45.611939,-21.650242,22.103989,0.0,-16.062665,14.565625,30.754509,34.329672,46.473471,49.367824,54.428073,61.544363,61.778138,0.0,71.423035,31.262318,96.579712,23.39558,94.305908,15.598114,81.566231,8.753918,62.249382,0.0,-6.064916,32.680466,51.604745,49.788258,63.739602,60.979421,74.338764,67.443701,78.751177,-11.422354,292.996652,-49.750906,282.691435
77,2.99421,-1.347666,0.276237,0.839027,0.0,11.854431,-3.154942,49.976829,-10.348343,52.760078,-18.035523,44.6315,-25.575818,20.625228,0.0,-12.116307,15.772303,32.470565,35.141962,48.843465,49.962617,56.373236,62.178108,64.184688,0.0,71.281357,31.008488,95.734887,23.106663,93.967049,15.213971,81.137833,8.21156,61.695649,0.0,-5.570393,32.685531,51.835704,49.721913,63.775998,60.895947,74.309458,67.416086,78.677744,-7.575874,291.974257,-48.622399,283.855733
78,0.382255,2.611833,-0.055641,0.531906,0.0,13.61467,-4.90749,47.991463,-12.416679,51.163445,-19.13578,41.993454,-25.088196,18.130875,0.0,-12.581968,14.184144,30.4864,34.233366,46.727191,49.471194,54.180169,61.849571,61.830218,0.0,71.115578,30.649041,95.369431,22.493752,93.289948,14.36681,80.385819,7.188961,61.052788,0.0,-4.905922,32.678342,52.461692,49.681306,64.26726,60.830874,74.577281,67.337848,78.66012,-6.481081,294.924963,-47.965502,284.726512
79,-0.415443,1.546539,-0.229305,0.331328,0.0,15.768493,-5.844807,46.991089,-12.994538,50.570022,-18.688855,41.128921,-23.010281,15.14265,0.0,-12.424813,13.618769,30.590956,33.702597,46.446264,48.832818,53.644485,61.079778,60.339736,0.0,71.149944,30.186081,94.914311,22.042969,92.819767,13.901814,79.880619,6.664284,60.71275,0.0,-4.64457,32.665943,52.384171,49.61506,64.291281,60.755082,74.724112,67.347395,78.658206,-6.276043,296.760973,-47.574326,285.347311
80,-0.353955,1.76989,-0.107483,0.099591,0.0,18.744358,-6.200912,45.91721,-13.223087,49.57552,-18.128254,39.075863,-21.304607,11.811161,0.0,-13.245216,12.504323,30.818791,32.530759,45.723117,47.672738,52.888401,59.851599,58.68669,0.0,71.237377,29.588196,94.36504,21.424473,92.292538,13.38414,79.566227,6.280621,60.566082,0.0,-4.137735,32.740142,52.403277,49.843685,64.321044,61.104317,74.805005,67.750045,78.689031,-6.174214,298.696854,-47.226025,285.612893
81,-0.188484,2.52637,-0.197193,0.014919,0.0,21.193188,-6.674606,45.131619,-13.549175,48.330746,-17.532451,36.085362,-19.451935,8.719036,0.0,-14.559796,10.972196,29.971168,30.986085,44.000034,46.051889,50.985191,58.010103,56.103707,0.0,71.219238,29.168644,94.153496,20.97575,91.935059,13.02142,79.425179,6.051121,60.70887,0.0,-3.839209,32.577566,52.218186,49.892826,64.161815,61.329064,74.904398,68.085461,78.841913,-6.053141,301.326008,-47.113661,285.730596
82,-0.783039,-0.177001,-0.212048,0.023885,0.0,21.036816,-5.472885,45.161179,-12.145935,48.017693,-16.40134,35.701103,-18.591064,6.852562,0.0,-14.889605,11.504954,30.298716,31.415015,44.310601,46.219368,50.977336,57.852219,56.103522,0.0,71.19254,28.886731,93.910939,20.732003,91.769291,12.890717,79.404087,6.053536,60.910527,0.0,-3.609991,32.311508,52.19088,49.743835,64.007204,61.30492,74.936731,68.129069,78.927129,-6.638792,301.175282,-47.128321,285.780756
83,0.78368,-1.62621,-0.044609,-0.188956,0.0,17.08532,-4.700695,44.673077,-11.301578,47.28368,-16.834625,35.8736,-20.816689,5.528309,0.0,-15.008153,12.774024,31.843774,31.896212,46.135721,46.233732,52.409637,57.743304,57.751925,0.0,70.978627,28.589745,93.473545,20.457035,91.461903,12.701752,79.176602,5.966378,60.774136,0.0,-3.025005,32.266479,52.326385,49.798224,64.128741,61.423431,75.156389,68.245974,79.191692,-5.722269,299.51149,-47.040087,285.554218
84,2.674599,-1.459199,0.098832,-0.304442,0.0,10.237964,-6.110813,41.900516,-12.990406,44.472667,-19.708718,33.929043,-25.140873,3.628578,0.0,-15.088145,13.856842,32.266529,32.708699,46.684275,46.781939,52.988214,58.117734,58.942423,0.0,70.56142,28.258941,93.110904,20.107463,91.327365,12.366268,79.018764,5.653232,60.442691,0.0,-2.306749,32.160899,52.383146,49.785121,64.36916,61.476524,75.544009,68.294708,79.48434,-2.946001,298.008263,-46.839586,285.205748
85,0.348335,0.287905,-0.02932,-0.248929,0.0,9.492931,-5.678123,41.077526,-13.004883,42.042263,-20.08786,31.159229,-25.659805,1.781227,0.0,-14.523882,14.08086,30.410732,33.281052,45.214035,47.373064,51.620418,58.719208,58.371355,0.0,70.209285,28.227699,93.186092,20.04475,91.38232,12.206394,78.770153,5.352527,59.913654,0.0,-1.816067,32.166901,52.610536,49.615481,64.799092,61.176232,75.939274,67.892862,79.773616,-2.529573,298.27864,-46.800813,284.939291
86,0.002701,0.217324,0.154609,0.01345,0.0,9.836735,-5.082905,40.887279,-12.751957,39.874821,-20.086292,29.170543,-25.925194,1.032234,0.0,-15.334689,13.84196,29.508373,33.07982,43.614391,47.261876,50.322918,58.726211,57.353968,0.0,69.992146,28.009598,93.128209,19.837933,91.391522,11.940709,78.628865,4.983662,59.42957,0.0,-1.643488,32.00183,52.458061,49.247423,64.90319,60.715166,75.88203,67.400513,79.684707,-2.486091,298.49602,-46.605423,284.952797
87,1.275409,-0.012029,0.101452,-0.100765,0.0,8.468342,-6.720794,39.806901,-14.521785,38.745827,-21.736186,27.704155,-27.316806,0.195111,0.0,-15.637896,13.761747,29.634826,32.990294,43.479342,47.142204,50.500537,58.568364,57.147697,0.0,69.898316,27.914692,93.237854,19.655239,91.409157,11.606381,78.497086,4.464386,58.947625,0.0,-1.416258,31.871747,52.368018,48.924555,65.061988,60.270971,75.935742,66.865829,79.757166,-1.169718,298.493303,-46.463007,284.861344
88,-0.931652,1.822082,0.049725,0.026022,0.0,12.544945,-6.83361,40.298962,-14.74657,38.147313,-20.941497,26.206685,-25.075115,0.648011,0.0,-16.072669,12.418317,28.027129,32.117155,41.185055,46.549721,48.736093,58.092058,55.042712,0.0,69.88139,27.833324,93.33855,19.552299,91.494907,11.434765,78.472835,4.182461,58.598316,0.0,-1.427324,31.724768,52.18783,48.595215,65.114611,59.819291,75.76389,66.327266,79.601579,-2.081744,300.325849,-46.393656,284.89783
89,-2.132309,2.608214,0.123287,-0.008695,0.0,19.439267,-4.951698,42.602589,-12.807666,39.177578,-18.02124,26.591252,-21.033199,3.514504,0.0,-18.421086,10.277949,25.819342,30.252354,38.259283,45.032513,46.163521,56.83913,52.040172,0.0,69.927841,27.855251,93.524483,19.570622,91.615082,11.397434,78.415489,4.062847,58.428841,0.0,-1.428916,31.634539,52.240664,48.322378,65.265184,59.45531,75.643835,65.927013,79.534086,-4.227454,302.938805,-46.28377,284.893877
90,3.427002,-2.02114,0.441502,0.034754,0.0,11.804341,-8.500122,40.042843,-15.977371,38.967259,-21.447006,28.043736,-25.03775,4.388981,0.0,-17.748131,11.223495,27.891167,30.858681,40.490474,45.499531,48.252698,57.292835,54.004724,0.0,69.929569,27.693695,93.342212,19.346649,91.382366,11.130352,78.067508,3.806476,58.120868,0.0,-1.418173,31.472591,52.132575,48.20473,65.189341,59.374762,75.371811,65.893308,79.357492,-0.832095,300.915603,-45.873911,284.926569
91,-0.338104,0.400328,0.345371,-0.025936,0.0,11.817776,-7.814678,41.577931,-15.355533,42.339924,-21.046692,31.354923,-25.032417,7.440914,0.0,-18.684526,10.436177,26.628,29.985567,40.525733,44.810248,48.618693,56.807279,54.044244,0.0,69.885429,27.5686,93.24868,19.187702,91.410484,10.969025,77.883934,3.65593,57.925026,0.0,-1.391101,31.321118,52.086312,48.070263,65.109598,59.260278,75.288746,65.807822,79.354084,-1.188114,301.296056,-45.546455,284.880758
92,4.270386,0.106272,0.444305,0.076978,0.0,7.09037,-12.645985,37.821979,-20.370014,39.057163,-25.258244,28.504452,-28.143459,5.741741,0.0,-17.941557,10.333993,26.267971,30.125457,40.471751,45.147801,48.455252,57.277249,53.786956,0.0,69.599602,27.468853,93.095147,19.099022,91.311333,10.915158,77.656586,3.664284,57.758881,0.0,-1.250371,31.240164,52.142975,48.02521,65.099915,59.276666,75.10673,65.932002,79.176144,3.058537,301.360282,-45.125885,284.91569
93,0.631416,2.09035,0.317574,0.062554,0.0,6.619286,-10.944454,38.611119,-18.769111,41.168644,-24.261657,30.325527,-28.036606,5.71471,0.0,-22.079477,8.540021,23.913391,27.634261,39.339224,42.501241,47.176105,54.532246,52.138491,0.0,69.529015,27.4422,93.112884,19.098976,91.42012,10.934257,77.60955,3.688053,57.712578,0.0,-1.208369,31.124047,52.157917,47.959853,64.974932,59.27175,74.973225,65.984069,79.008417,3.680763,303.39343,-44.817501,284.921042
94,6.899586,-2.452244,0.251335,0.140247,0.0,-4.786972,-17.726143,32.344826,-25.779247,36.485527,-31.359203,26.391403,-35.048561,0.156349,0.0,-19.480909,10.70799,25.857651,29.793363,42.063071,44.498223,49.577368,56.35902,54.792956,0.0,69.563324,27.467411,93.190796,19.12785,91.433716,10.969173,77.60598,3.735535,57.674858,0.0,-1.23155,31.091407,52.045507,48.003597,64.76587,59.350631,74.790358,66.081401,78.793217,10.565517,300.882977,-44.580998,285.00308
95,-2.506302,3.126077,0.156132,0.09969,0.0,1.967354,-14.520721,35.713692,-22.851791,39.337761,-28.170238,28.465073,-31.463413,3.002564,0.0,-23.050885,7.963173,22.363443,26.836754,39.730771,41.675983,47.460737,53.525183,52.132094,0.0,69.549511,27.551182,93.174625,19.222194,91.556774,11.048046,77.685619,3.737995,57.542713,0.0,-1.130391,30.869636,51.921142,47.825484,64.647346,59.23948,74.717616,66.026011,78.754388,8.038473,303.954451,-44.445608,285.048167
96,8.715798,-2.9687,0.363979,0.157698,0.0,-10.584836,-23.658314,26.746925,-32.434456,30.682022,-37.643258,20.694305,-40.391465,-5.815911,0.0,-19.561679,10.504955,26.043434,29.563615,42.94504,44.166871,50.198614,55.739009,55.147317,0.0,69.502144,27.55299,93.069397,19.237747,91.372948,11.044201,77.452789,3.690651,57.158936,0.0,-0.973754,30.87533,51.910373,47.844145,64.648902,59.248162,74.527449,66.037052,78.540782,16.713828,300.946441,-44.122072,285.166555
97,-6.822007,2.674744,0.263615,-0.038544,0.0,1.308975,-15.791164,33.199837,-24.417217,37.116051,-29.921631,26.635186,-33.375423,0.482987,0.0,-22.404618,7.751232,23.176177,26.775015,40.615172,41.602956,48.316474,53.353702,52.841791,0.0,69.637584,27.533134,93.001133,19.292816,91.372455,11.173565,77.396816,3.862724,56.974354,0.0,-0.621617,31.016071,52.028711,48.059876,64.631933,59.474773,74.507392,66.227341,78.593948,9.849506,303.597976,-43.900772,285.104802
98,5.636078,-3.982581,0.361381,-0.009868,0.0,-7.998333,-23.659675,27.457398,-32.204922,31.569122,-37.205612,22.117127,-39.982029,-3.369896,0.0,-17.403983,10.578056,27.531483,30.060829,44.355259,44.960068,51.996564,56.937906,56.702514,0.0,69.561756,27.574288,92.91267,19.378144,91.29617,11.324971,77.335934,4.114437,56.936085,0.0,-0.200146,31.209757,52.272156,48.389167,64.766327,59.87252,74.553952,66.651122,78.639903,15.431751,299.610467,-43.593224,285.090006
99,-8.621818,4.41529,0.327919,-0.013165,0.0,5.792953,-13.945542,37.326324,-22.084546,40.842567,-27.376156,30.730545,-30.833783,6.379898,0.0,-23.2051,6.081304,21.159952,25.188858,40.087392,40.426241,48.360367,52.800406,52.887969,0.0,69.451619,27.481259,92.7216,19.34665,91.292096,11.390911,77.290295,4.266117,56.81004,0.0,-0.010436,31.238928,52.304389,48.554163,64.687348,60.107517,74.478666,66.902804,78.657551,6.756215,304.019369,-43.319023,285.070453
100,3.764968,-3.316293,0.307057,0.00284,0.0,-1.056518,-19.02499,33.391869,-26.989677,37.027337,-32.11774,27.466919,-35.516544,3.335999,0.0,-19.350467,8.471996,24.391215,28.052199,42.595545,43.499472,51.028391,56.26658,55.828053,0.0,69.419357,27.526439,92.623489,19.45768,91.237839,11.555832,77.282684,4.465702,56.808517,0.0,0.139667,31.395602,52.433942,48.794534,64.577766,60.36971,74.402565,67.150683,78.598271,10.467779,300.693008,-43.06537,285.063225
101,-10.480133,4.461998,0.138107,-0.004545,0.0,14.465069,-7.139717,46.216118,-14.481433,48.926056,-20.017662,38.625184,-24.445438,15.527001,0.0,-25.337379,4.191791,16.866668,23.29165,37.931068,39.100176,47.155937,52.360188,52.022153,0.0,69.395279,27.573967,92.663246,19.582466,91.396042,11.748848,77.603348,4.687924,57.068802,0.0,0.265601,31.360454,52.512081,48.864003,64.487623,60.495521,74.370319,67.28446,78.654155,-0.059933,305.143079,-42.974842,285.046753
102,6.612305,-2.561642,0.254551,0.09948,0.0,4.247349,-14.419109,40.549713,-22.034386,42.899048,-27.371166,32.52507,-31.330009,9.420525,0.0,-22.858495,6.318624,19.437202,25.613565,40.267024,41.458573,49.374691,54.878308,54.394283,0.0,69.218662,27.516003,92.564449,19.520256,91.324024,11.670181,77.678364,4.562737,57.059933,0.0,0.054538,31.268519,52.412132,48.773279,64.339027,60.388742,74.281115,67.14825,78.615018,6.47224,302.571235,-42.800423,285.136031
103,-7.067493,3.741705,0.192043,0.043275,0.0,15.397121,-5.591996,48.020725,-13.148255,50.379078,-18.900879,39.547725,-23.478722,17.272739,0.0,-26.843769,2.64151,14.058296,21.655005,36.350738,37.810284,45.937638,51.415888,51.04804,0.0,69.190453,27.416416,92.525528,19.373406,91.158989,11.486561,77.652558,4.312912,56.863884,0.0,-0.070013,31.197667,52.318778,48.655447,64.265,60.199303,74.282819,66.887552,78.719191,-0.687223,306.298324,-42.70035,285.16469
104,10.858795,-4.702183,0.239033,0.057267,0.0,1.027531,-16.714165,35.70132,-24.629952,38.432155,-29.798767,28.262363,-33.349285,6.593937,0.0,-20.480339,6.698154,20.526294,26.161624,41.226724,42.111521,50.222969,55.345412,55.386958,0.0,69.186733,27.398724,92.349918,19.341625,90.882855,11.415459,77.558567,4.178547,56.864079,0.0,0.029517,31.215389,52.451776,48.612246,64.354538,60.111643,74.343804,66.794025,78.819572,10.069903,301.586977,-42.562986,285.212793
105,-3.123264,2.58859,0.248074,0.080968,0.0,7.939682,-11.515309,38.913917,-19.743187,41.44448,-25.038128,31.184165,-28.722291,9.999023,0.0,-22.175067,4.327358,17.734693,23.388956,39.077019,39.128457,48.251068,52.024388,53.284294,0.0,69.151451,27.395485,92.177307,19.293342,90.530937,11.315025,77.352058,4.027336,56.774162,0.0,0.191253,31.261146,52.583402,48.636649,64.475111,60.110666,74.37863,66.789257,78.887695,6.808125,304.172668,-42.453426,285.290862
106,6.645858,-4.482401,0.394729,0.051845,0.0,-1.618446,-18.07283,30.728211,-26.491275,33.738465,-31.8559,24.341721,-35.536045,3.296723,0.0,-16.186697,7.873128,24.528573,27.369549,43.845201,42.838941,52.64934,55.412288,57.52966,0.0,69.252342,27.314759,91.816567,19.149113,90.10437,11.15633,76.989762,3.891506,56.565766,0.0,0.460646,31.452313,52.854351,48.855382,64.537863,60.322063,74.382966,66.955206,78.922189,13.275821,299.689017,-42.236859,285.341457
107,-4.908531,1.656751,0.302857,0.141507,0.0,7.503021,-12.895798,35.357254,-21.144333,38.486366,-26.242641,28.696175,-29.580631,8.224709,0.0,-16.666423,6.395379,22.50621,25.983228,42.753639,41.665572,51.491989,54.230138,56.154392,0.0,69.405327,27.385265,91.56942,19.171955,89.901558,11.135948,76.750786,3.840934,56.496071,0.0,0.763668,31.546705,53.038541,48.998532,64.658462,60.51002,74.387338,67.173939,78.941159,8.155603,301.332553,-42.145689,285.469749
108,0.204987,-0.51217,0.4869,0.293068,0.0,8.602478,-12.917794,35.148376,-21.302456,38.044716,-26.525105,28.318382,-29.99746,7.633758,0.0,-15.877006,7.621952,24.827037,26.94993,44.015793,42.277938,52.441723,54.372868,57.090133,0.0,69.408783,27.426556,91.368027,19.176601,89.745827,11.077538,76.496407,3.717018,56.356819,0.0,0.769892,31.633736,53.042295,49.120328,64.578,60.655058,74.135235,67.340553,78.772543,8.085566,300.796001,-41.933813,285.738435
109,-0.98037,0.539835,0.22665,0.273888,0.0,9.161614,-11.931782,36.917084,-20.934872,39.236481,-26.887276,28.84156,-30.985828,6.515419,0.0,-16.285968,7.137841,24.959714,26.449479,43.484553,41.74639,52.131389,53.900403,56.785753,0.0,69.403096,27.381089,91.700741,19.140885,90.228665,11.102818,76.746723,3.812542,56.500752,0.0,0.779611,31.59424,52.917941,49.101161,64.539628,60.668742,73.971399,67.303663,78.462358,6.769237,301.267861,-42.043122,285.944348
110,-0.5266,-0.178212,0.337498,0.193427,0.0,9.576061,-11.667194,38.467312,-20.679142,40.441624,-26.83128,29.003391,-31.071464,6.446652,0.0,-16.974176,7.621841,26.338996,27.39394,44.226559,42.899604,52.333622,55.108068,56.893656,0.0,69.467651,27.200523,91.992805,18.972576,90.745972,11.014847,77.09182,3.849014,56.762283,0.0,0.749897,31.772563,52.991363,49.2936,64.583039,60.840569,73.908574,67.356287,78.278638,5.866281,301.008058,-42.08198,286.056184
111,2.530174,-0.104618,0.097527,0.252769,0.0,6.541043,-15.519218,36.298337,-25.163806,38.385922,-31.134017,26.542706,-34.647022,2.940892,0.0,-16.595905,8.084241,27.415849,27.91772,44.465879,43.407983,52.412836,55.545867,56.909872,0.0,69.584518,27.303199,92.57785,19.079624,91.44239,11.175498,77.564804,4.077735,57.173515,0.0,0.572932,31.688977,52.820252,49.223414,64.62288,60.804939,73.76141,67.32083,77.988374,7.958084,300.798421,-42.422824,286.203934
112,-1.939407,0.678588,0.311553,0.349421,0.0,8.353169,-13.033253,38.933773,-22.677154,40.477261,-29.155323,28.526013,-33.525902,5.295925,0.0,-17.968345,7.722395,28.747324,27.421765,43.714574,42.830357,51.75775,54.917284,56.580025,0.0,69.702691,27.232087,92.949418,19.061028,91.823342,11.240513,77.862557,4.24767,57.328583,0.0,0.40118,31.770735,52.679313,49.26643,64.470517,60.795046,73.469961,67.232391,77.599309,5.518833,301.366115,-42.611115,286.442461
113,6.827351,-2.780214,0.039677,0.18924,0.0,-3.255249,-20.906662,32.938225,-30.724377,34.375763,-36.918926,22.487388,-40.815079,-1.540764,0.0,-14.843687,10.282778,31.435172,30.487649,45.794649,45.952607,53.803752,58.270542,58.881958,0.0,69.902378,27.365101,93.458096,19.282677,92.410801,11.585861,78.385632,4.730152,57.839779,0.0,0.566399,31.898633,52.75828,49.385065,64.603701,60.911594,73.494772,67.310061,77.275404,11.775742,298.490447,-43.14188,286.536247
114,-8.018578,2.555813,0.233803,0.176977,0.0,9.42231,-12.658607,40.929337,-21.758194,42.910744,-27.696899,31.397164,-31.755157,9.020416,0.0,-17.1297,8.527596,29.064066,28.679868,43.671287,44.406426,51.785624,57.042523,56.788186,0.0,70.148266,27.531853,93.569035,19.477306,92.623981,11.763668,78.571003,4.888481,57.979855,0.0,0.671486,32.051168,52.862477,49.508973,64.684297,60.98089,73.469714,67.339244,77.173553,3.128391,300.982858,-43.53685,286.649822
115,4.712357,-2.55517,0.16309,0.214175,0.0,2.389389,-18.727181,36.27285,-27.801556,38.655807,-33.449913,27.932281,-37.173535,5.182937,0.0,-14.317747,11.353492,31.138818,31.456116,45.366508,47.046181,53.795921,59.709289,59.228809,0.0,70.461982,27.755321,93.76989,19.732109,92.933098,11.99675,78.808067,5.100837,58.201469,0.0,0.846808,32.075708,52.835344,49.503712,64.671379,60.968145,73.48588,67.342072,77.104886,7.097952,298.374978,-44.116556,286.811287
116,-7.619568,2.893982,0.293506,0.171283,0.0,14.354301,-10.289566,43.417396,-18.651043,45.924568,-24.111294,35.381859,-28.076557,14.213905,0.0,-16.787949,8.936779,28.163758,29.092509,42.592618,45.027647,51.192833,58.082438,56.80313,0.0,70.656132,27.834263,93.769535,19.84037,93.025486,12.104016,78.926777,5.238167,58.432881,0.0,1.158388,32.337135,52.857291,49.773179,64.551028,61.205613,73.500997,67.536586,76.959143,-1.357773,301.255754,-44.659207,286.969364
117,7.866234,-2.583193,0.074868,-0.034889,0.0,3.761512,-18.779274,35.453567,-27.347855,38.570068,-32.387776,28.695259,-35.521683,6.624366,0.0,-14.247314,11.88262,29.588995,31.929138,44.676806,47.55918,53.229856,60.458446,59.217658,0.0,70.868557,28.068637,94.033161,20.003551,93.26334,12.21421,79.153049,5.347618,58.817745,0.0,1.354199,32.457721,53.016557,49.921701,64.726239,61.340562,73.780936,67.623753,77.064761,5.627587,298.698534,-45.465213,286.960448
118,-5.754479,3.121027,0.311737,0.046325,0.0,14.517472,-11.43005,40.7398,-19.58028,44.009995,-24.658058,33.945923,-28.039661,13.047135,0.0,-16.963802,9.245136,27.074307,29.182874,42.108816,44.95924,50.938001,57.92364,56.684729,0.0,71.041294,28.140529,94.099353,20.033912,93.393688,12.178997,79.18674,5.257141,58.847866,0.0,1.50093,32.533155,53.063241,49.963741,64.719162,61.35027,73.852184,67.620653,77.190905,-0.997845,301.850525,-46.024429,287.037737
119,8.485909,-2.501015,0.425743,0.014771,0.0,2.175133,-20.080834,32.585174,-28.374001,36.040718,-33.022682,26.060554,-35.699284,4.650787,0.0,-14.473309,12.427764,29.570543,32.317955,44.494123,47.711628,52.950558,60.196413,59.05424,0.0,71.136646,28.116691,94.099125,19.927654,93.238483,12.002575,79.060901,5.043686,58.731685,0.0,1.697815,32.683196,53.22972,50.099591,64.722583,61.446526,73.966842,67.675302,77.411243,6.621111,299.38594,-46.465639,287.088938
120,-4.413494,4.103191,0.26271,-0.052229,0.0,10.056369,-13.13237,36.619434,-21.213158,40.053325,-26.023545,29.830478,-29.002373,8.98312,0.0,-18.761121,9.155697,26.664853,28.769332,41.59157,44.096772,49.874807,56.450312,55.501752,0.0,71.002728,28.195381,94.080151,19.967514,93.26556,12.007965,79.170285,4.997406,58.725277,0.0,1.630928,32.820727,53.198709,50.238542,64.67117,61.551341,74.047031,67.751503,77.642585,1.454493,303.532066,-46.956053,287.079644
