takenoko1/special-research/HandMotion_SimilarSearch_自分用/NewProject/handData/test_key/d4_feature_d3/129.csv
frame,vel_0x_L,vel_0y_L,vel_0x_R,vel_0y_R,posFromWrist_0x_L,posFromWrist_1x_L,posFromWrist_2x_L,posFromWrist_3x_L,posFromWrist_4x_L,posFromWrist_5x_L,posFromWrist_6x_L,posFromWrist_7x_L,posFromWrist_8x_L,posFromWrist_9x_L,posFromWrist_0y_L,posFromWrist_1y_L,posFromWrist_2y_L,posFromWrist_3y_L,posFromWrist_4y_L,posFromWrist_5y_L,posFromWrist_6y_L,posFromWrist_7y_L,posFromWrist_8y_L,posFromWrist_9y_L,posFromWrist_0x_R,posFromWrist_1x_R,posFromWrist_2x_R,posFromWrist_3x_R,posFromWrist_4x_R,posFromWrist_5x_R,posFromWrist_6x_R,posFromWrist_7x_R,posFromWrist_8x_R,posFromWrist_9x_R,posFromWrist_0y_R,posFromWrist_1y_R,posFromWrist_2y_R,posFromWrist_3y_R,posFromWrist_4y_R,posFromWrist_5y_R,posFromWrist_6y_R,posFromWrist_7y_R,posFromWrist_8y_R,posFromWrist_9y_R,posFromBody_0x_L,posFromBody_0y_L,posFromBody_0x_R,posFromBody_0y_R
6,-1.55175,2.272255,0.052826,0.085302,0.0,4.778778,-20.429306,33.444614,-29.361019,33.926365,-33.984272,23.780697,-35.970966,0.866215,0.0,-22.326553,10.113853,34.109569,27.18694,48.086046,40.517866,55.699625,50.623803,58.771325,0.0,64.464374,24.018402,84.71664,15.690685,85.455768,7.422844,73.03117,-0.176857,52.700809,0.0,-2.664963,26.634052,55.509001,43.395114,68.466757,55.271509,76.824132,63.146181,82.004695,3.525593,295.15692,-47.028339,276.858556
7,-0.892902,-2.210727,0.063652,0.136061,0.0,4.474559,-19.748108,34.263816,-28.573185,35.252815,-33.076996,25.924141,-35.103711,2.33876,0.0,-18.130489,12.011246,36.413786,29.196015,50.818959,42.159402,57.771006,51.903198,60.623615,0.0,64.152889,24.207481,84.596638,15.943313,85.528965,7.678814,73.038219,-0.05436,52.618183,0.0,-2.708917,26.864702,55.253713,43.459532,68.178074,55.17461,76.605177,62.942985,81.911242,2.608504,292.926504,-46.988874,276.974928
8,5.762924,-1.661555,0.148739,0.127934,0.0,-3.945076,-25.563183,26.871826,-34.842877,28.688049,-39.514012,19.62989,-41.573536,-2.493324,0.0,-15.900892,12.408128,37.197695,30.495527,51.696877,44.296275,58.646256,54.81589,61.982235,0.0,64.088608,24.224407,84.42469,15.967312,85.36544,7.717037,72.815872,-0.024147,52.460266,0.0,-2.844199,27.002999,55.154345,43.576439,68.064343,55.229841,76.529966,62.93381,81.761239,8.342697,291.259799,-46.868866,277.097712
9,-3.020096,0.570919,0.024708,0.033309,0.0,0.748295,-23.133911,30.130234,-31.953472,32.493462,-36.088886,23.683708,-37.629776,2.328644,0.0,-16.432118,13.244081,37.982716,30.762611,52.197624,43.855983,58.697793,53.68676,61.738075,0.0,63.891712,24.367435,84.494693,16.091182,85.343914,7.798919,72.651958,-0.017773,52.246044,0.0,-2.79165,27.113012,55.153331,43.660196,68.048126,55.262283,76.537807,62.943639,81.7293,5.293642,291.824296,-46.873117,277.124599
10,-2.093342,2.69159,0.179615,0.139679,0.0,4.3144,-20.304611,32.139874,-28.733963,34.825985,-32.980568,25.917286,-34.730438,3.475559,0.0,-20.887756,10.840025,34.004408,27.896354,49.365403,41.231973,56.349795,51.467684,59.951363,0.0,63.851028,24.287246,84.419563,16.000625,85.245803,7.69337,72.512214,-0.140866,52.21305,0.0,-2.799393,27.039493,55.130101,43.642585,68.020092,55.289479,76.5055,63.010145,81.664846,3.167867,294.506759,-46.725935,277.255151
11,-1.094501,-1.561866,0.138599,0.098986,0.0,4.886844,-20.086499,33.375984,-28.563664,36.264656,-32.643826,27.549431,-34.122128,0.32127,0.0,-18.138776,12.59233,36.483663,29.763168,51.973766,42.633658,57.948563,52.329251,60.873803,0.0,63.854725,24.091186,84.358189,15.771206,85.123341,7.501499,72.370434,-0.238369,52.17532,0.0,-2.814584,27.049743,55.181329,43.713734,68.018116,55.390317,76.431029,63.09315,81.570627,2.042885,292.935195,-46.617817,277.344439
12,9.591488,-1.82675,-0.028713,0.136493,0.0,-6.891358,-30.440312,23.006733,-39.728268,26.16505,-43.629078,17.578319,-44.425873,-8.859948,0.0,-14.682235,12.168783,37.393098,30.220491,52.867121,44.043605,59.311703,54.772208,62.517328,0.0,63.860733,24.108627,84.566871,15.772247,85.237472,7.495857,72.359688,-0.225334,52.231613,0.0,-2.889944,26.858996,55.190011,43.625419,67.946646,55.392367,76.26066,63.168523,81.485757,11.600241,291.101038,-46.680662,277.473525
13,-4.592057,1.50734,-0.058869,0.123859,0.0,-0.262928,-26.059238,28.115559,-34.845405,31.54636,-38.392227,22.838322,-39.084034,-3.080795,0.0,-17.396425,12.600814,36.740396,30.121777,51.906482,43.225535,58.252634,53.123645,61.383256,0.0,64.117676,23.912625,84.717705,15.58001,85.367958,7.327904,72.537392,-0.352054,52.411629,0.0,-3.162831,26.448764,55.002438,43.363165,67.887205,55.264741,76.202417,63.123642,81.405074,6.958076,292.599702,-46.789639,277.588708
14,-4.44128,3.175429,0.118115,0.096343,0.0,6.115631,-20.845665,32.424225,-28.9701,36.0046,-32.759754,27.372482,-34.045864,0.569744,0.0,-22.790274,10.009111,33.252819,27.111172,48.956689,40.412347,55.58777,50.539686,59.106333,0.0,64.244144,23.64204,84.724468,15.339226,85.431804,7.160843,72.636051,-0.42968,52.613331,0.0,-3.374277,26.219262,54.799378,43.242356,67.810177,55.259085,76.240875,63.183231,81.463366,2.457092,295.765424,-46.731228,277.675344
15,-0.961292,-1.085906,-0.18639,0.077114,0.0,5.966732,-20.334812,33.356678,-28.504555,36.83955,-32.202828,28.91209,-33.348988,-0.756832,0.0,-20.654525,11.29935,35.507339,28.382305,51.011398,41.289104,56.748147,51.027156,60.149545,0.0,64.582443,23.600521,84.958465,15.330871,85.669395,7.193481,72.859543,-0.345028,52.848884,0.0,-3.795156,25.876522,54.512634,43.000591,67.695692,55.136696,76.194883,63.14213,81.437011,1.440937,294.670413,-46.972481,277.743353
16,9.536567,-1.663025,0.180336,-0.008373,0.0,-7.693565,-29.897667,22.737454,-38.520927,26.524052,-41.925762,19.204274,-42.394558,-5.691444,0.0,-15.041622,11.084705,36.559763,28.639273,51.749649,42.286781,57.6046,52.94752,61.219655,0.0,64.669601,23.455078,84.956108,15.203007,85.62474,7.072986,72.880348,-0.459458,53.041237,0.0,-3.854115,25.788762,54.556489,42.94835,67.882388,55.158357,76.524469,63.21013,81.598254,10.924678,292.994087,-46.844971,277.721679
17,-2.747772,1.050597,0.000492,-0.006855,0.0,-2.421799,-27.165275,25.406628,-35.176895,29.973713,-38.087482,22.277767,-38.081394,-2.534317,0.0,-15.572899,12.123767,36.832367,28.502841,51.468684,41.065469,56.94907,50.626235,60.264264,0.0,64.824772,23.259201,84.846027,15.041565,85.664097,6.970139,72.980587,-0.465454,53.13541,0.0,-4.102203,25.467056,54.409227,42.711105,67.915413,55.030387,76.609093,63.167782,81.561315,8.123136,294.0287,-46.898249,277.69884
18,4.527237,-1.247062,0.229351,-0.096763,0.0,-10.147259,-31.343582,19.921269,-39.519173,24.676701,-42.488605,17.521969,-42.31683,-7.484138,0.0,-12.091842,11.912259,37.937094,28.516933,52.673719,41.567821,57.857851,51.739781,61.345712,0.0,64.726776,23.072205,84.777672,14.776485,85.400711,6.687355,72.768082,-0.68549,53.075363,0.0,-3.870281,25.532906,54.627885,42.763383,68.262055,55.11123,77.07584,63.243858,81.763671,12.615412,292.766046,-46.703859,277.586485
19,5.374981,-2.89213,-0.108318,-0.031332,0.0,-17.137962,-37.710388,13.497185,-45.959644,19.346603,-48.176422,12.691246,-46.980309,-11.926357,0.0,-4.032561,15.114463,42.352866,31.291342,55.898362,43.630396,60.490296,53.113505,63.67017,0.0,64.960407,23.165199,84.858204,14.826862,85.473278,6.694244,72.781803,-0.6931,53.102932,0.0,-4.013455,25.390448,54.63695,42.651195,68.337069,55.030955,77.14337,63.174957,81.650532,17.969484,289.858058,-46.833086,277.539295
20,8.648117,-2.399461,0.211681,-0.193587,0.0,-29.253479,-45.824535,4.393433,-54.86879,9.996185,-57.229008,3.128288,-55.927334,-17.91925,0.0,0.550913,15.584989,44.056511,32.532859,57.276681,45.650746,62.141898,55.874157,65.393946,0.0,64.950714,23.120029,84.779434,14.696217,85.150063,6.5033,72.558907,-0.914154,53.02256,0.0,-3.516909,25.524508,54.927683,42.786292,68.736507,55.189541,77.707706,63.317341,81.931397,26.586187,287.434876,-46.652819,277.321987
21,-3.063171,0.388917,-0.025005,-0.022638,0.0,-24.179364,-42.798889,7.832039,-51.575878,13.911346,-53.735001,6.826309,-52.370831,-13.762001,0.0,-1.267786,17.131849,44.539794,33.361277,57.265294,45.570791,62.105699,54.751818,65.276064,0.0,64.979725,23.112808,84.746029,14.682792,85.248813,6.469207,72.587871,-0.988873,52.899913,0.0,-3.560813,25.324153,54.740999,42.621764,68.520702,55.051456,77.50204,63.212452,81.807292,23.486853,287.797271,-46.713987,277.272827
22,3.282806,-0.833631,0.157219,-0.125847,0.0,-30.884869,-46.173088,4.207695,-55.113762,9.849449,-57.339546,3.571541,-56.039909,-16.496178,0.0,-0.320756,16.369046,44.353975,33.483519,57.548926,46.530998,62.327346,56.574715,65.922258,0.0,64.860958,23.34161,84.807964,14.860427,85.064861,6.545276,72.496868,-1.060868,52.965671,0.0,-3.222347,25.594446,55.001672,42.853588,68.648488,55.272707,77.807112,63.437149,82.067495,26.733187,286.936664,-46.59324,277.120004
23,-2.117752,0.474663,0.063675,-0.032432,0.0,-26.659538,-44.479694,6.460716,-52.964493,12.749496,-54.691715,6.499809,-52.918636,-13.52179,0.0,0.574366,17.926602,45.215924,33.968013,57.703105,45.881631,62.176972,54.783422,65.568774,0.0,64.777896,23.4398,84.691967,15.004417,85.079486,6.671573,72.512821,-1.0112,52.911998,0.0,-3.185543,25.549283,54.976614,42.804978,68.428324,55.224295,77.646759,63.427504,81.992061,24.580793,287.384453,-46.564207,277.060698
24,2.655762,-0.344863,0.287647,0.07231,0.0,-31.945713,-46.35006,4.208656,-55.442345,9.767532,-57.806271,3.290657,-56.663819,-16.729042,0.0,-2.041864,16.092355,43.130365,33.511676,56.924123,46.720522,61.912939,56.934756,65.762101,0.0,64.603294,23.527691,84.770805,15.061981,84.832878,6.640869,72.334511,-1.163761,52.856506,0.0,-3.24549,25.394573,54.860153,42.586727,68.321706,55.068215,77.705558,63.380376,82.001793,27.202761,287.0053,-46.310354,277.098718
25,-3.838623,1.340255,0.371681,0.157031,0.0,-25.742947,-42.489373,9.123481,-51.275688,14.648826,-53.452481,7.537033,-52.161724,-12.562592,0.0,-4.782248,16.237864,42.495547,33.037619,55.901302,45.61582,61.079951,55.228704,64.499911,0.0,64.324493,23.596046,84.681541,15.171524,84.875381,6.699017,72.351402,-1.253151,52.749344,0.0,-3.708606,25.3172,54.210712,42.500215,67.841004,55.000499,77.368055,63.369805,81.814455,23.338475,288.299561,-45.964336,277.209755
26,-2.75013,-1.48154,0.148602,-0.37627,0.0,-22.030827,-38.752865,13.09362,-48.010151,17.313011,-51.654213,10.199387,-52.301136,-10.263405,0.0,-2.758453,15.238643,42.76295,32.306889,56.968608,45.427098,62.593194,55.906167,66.014105,0.0,64.174175,24.225128,85.565311,15.844917,85.333637,7.249202,72.802356,-0.97641,52.926509,0.0,-3.903898,25.745328,53.833837,42.796025,68.165033,55.225728,77.963687,63.58724,82.524165,20.568569,286.760247,-45.83551,276.775711
27,-8.247631,4.15369,-0.666436,-1.872408,0.0,-16.873112,-32.261421,21.418476,-40.156002,27.330357,-43.026455,19.479572,-43.226612,-4.493534,0.0,3.091164,14.229444,42.099159,28.225076,53.257273,38.84096,58.793568,47.430862,62.159089,0.0,63.548252,24.891495,86.644375,16.786171,86.674771,8.252209,74.209797,-0.149265,53.654583,0.0,-4.728748,26.241677,53.602482,43.169318,69.548958,55.566886,79.944874,64.028434,85.057389,12.303635,290.81057,-46.519249,274.799936
28,2.28788,0.328476,-1.58868,-4.155951,0.0,-23.932251,-32.515675,10.016407,-37.505081,17.302025,-38.372395,11.859524,-36.719731,-9.420548,0.0,12.847988,14.227764,38.094767,25.444442,47.030114,33.687492,51.111791,40.03152,55.870784,0.0,61.033333,24.845421,87.7817,17.193981,87.52137,9.231937,75.027672,1.346352,54.472916,0.0,-7.048427,26.593618,53.585575,43.343862,70.548364,55.698464,81.719594,64.355711,87.265361,14.555786,291.032644,-48.143658,270.537583
29,3.720772,3.469953,-2.804409,-5.059359,0.0,-28.416664,-30.432267,-6.297535,-33.727101,-1.493557,-33.643753,-5.262589,-31.536061,-21.02076,0.0,21.174562,13.756818,34.529978,18.15488,36.256495,20.312711,36.064278,20.936304,37.331323,0.0,55.045601,25.632385,87.451618,19.514488,86.156055,12.380837,72.572903,4.76643,51.954289,0.0,-11.028525,24.451508,47.824681,41.335108,69.097957,53.694786,80.379152,62.520192,85.342119,18.222227,294.40132,-51.002398,265.376947
30,6.880233,0.431845,-5.314339,-9.633651,0.0,-38.599845,-30.965618,-29.018932,-31.840175,-27.033542,-30.003307,-26.78215,-26.688858,-32.73944,0.0,27.970948,11.477722,24.489917,10.423606,19.950558,7.646134,16.59052,3.810643,16.741562,0.0,44.34755,27.610526,83.75156,24.107563,84.273589,18.693329,72.799038,12.10762,55.002239,0.0,-17.814685,19.097154,38.563336,35.97487,61.502854,48.75379,73.616439,58.576095,79.478127,24.951049,294.785577,-56.468148,255.695708
31,8.549973,-3.953632,-7.453571,-13.835995,0.0,-46.660263,-34.792889,-47.865086,-33.377358,-44.215233,-28.56348,-40.718514,-21.885899,-40.234818,0.0,27.123844,9.210815,13.495676,5.697044,6.21203,0.947264,3.043505,-4.55429,3.852534,0.0,28.741882,30.244452,75.661972,30.414517,81.404829,27.655884,75.332565,22.921394,63.315765,0.0,-27.418109,10.3983,25.392183,27.315214,47.22942,40.998963,60.954023,52.618329,69.135193,33.331736,290.81932,-64.091005,241.847088
32,18.603458,-21.86461,-8.795963,-16.985908,0.0,-44.393142,-42.566185,-67.504326,-42.960376,-67.685588,-39.049095,-62.668499,-32.391082,-53.814251,0.0,11.705717,3.551538,4.38812,3.278848,0.286732,1.950053,-0.658136,-0.559064,1.683724,0.0,12.116729,32.258783,66.891243,36.731392,75.847692,37.007847,73.349361,34.619167,65.270027,0.0,-36.529741,-2.870369,6.623503,13.119363,26.370982,27.550934,40.937528,41.176496,51.117139,51.743986,268.983588,-73.078176,224.890058
33,12.86007,-24.100988,-6.137913,-17.766854,0.0,-30.781071,-43.658936,-67.460862,-48.420411,-73.039399,-47.832184,-70.172436,-43.995507,-59.68554,0.0,-9.361851,-7.806982,-6.342447,-5.256134,-7.669315,-2.677992,-4.954619,-0.470477,-1.21121,0.0,5.147724,30.053186,58.069267,36.162861,67.9657,38.108414,67.59375,37.236694,60.808502,0.0,-44.064383,-11.508683,-17.204381,2.544383,0.217652,16.152821,14.387155,29.912258,27.068701,64.354946,244.945798,-79.465199,207.186402
34,8.377464,-31.007315,-8.910599,-24.691655,0.0,-25.718605,-39.293587,-62.18367,-44.104683,-67.046574,-43.738701,-63.581726,-40.122414,-52.689125,0.0,-27.116842,-11.269846,-21.126724,-3.468632,-17.505902,4.115529,-9.573222,11.36336,1.505252,0.0,-9.246574,27.238753,49.757263,36.944264,64.068117,42.520809,69.222096,45.123242,67.298744,0.0,-48.639552,-18.798357,-34.607352,-6.081366,-23.969818,7.489151,-9.765457,21.962559,7.071391,72.468916,214.281886,-88.639292,182.83815
35,13.348137,-35.794324,-7.632602,-22.814672,0.0,-9.866043,-38.341026,-53.828613,-46.877815,-59.473034,-49.974289,-59.792839,-49.103417,-55.296066,0.0,-41.468959,-20.232906,-30.343579,-8.077306,-20.745169,4.862851,-8.147288,18.079217,6.829861,0.0,-18.14494,21.277072,45.883838,33.687675,62.870361,42.555976,70.032199,48.595882,69.681266,0.0,-51.703163,-21.198113,-50.36823,-9.817142,-43.873198,2.655385,-30.166453,16.055478,-10.920566,85.678425,179.200548,-96.410522,160.736464
36,13.948059,-30.820526,-4.861405,-21.990661,0.0,2.324501,-31.609017,-50.408547,-43.515381,-62.489914,-50.903069,-66.550369,-54.544487,-65.407105,0.0,-53.774816,-25.046282,-45.267838,-11.793532,-35.116793,2.369666,-21.324616,16.817607,-2.954535,0.0,-22.723057,14.70718,45.175713,28.626526,61.479973,39.738854,67.422146,48.425423,65.919674,0.0,-51.996824,-21.07244,-63.770225,-11.067551,-59.170628,-0.117166,-47.262284,11.402318,-27.005413,99.459137,149.862393,-101.439274,140.228174
37,5.943581,-22.329801,-3.02235,-19.620342,0.0,7.948402,-21.663254,-47.661416,-34.4385,-62.107132,-44.133683,-68.713829,-50.984162,-69.430184,0.0,-55.861535,-26.335483,-61.408723,-15.035065,-53.607484,-2.809626,-40.612351,10.045773,-19.84972,0.0,-25.214939,8.779461,44.23732,23.460354,61.471115,36.450485,69.028667,47.273689,68.684658,0.0,-51.769995,-16.251732,-72.213222,-6.545901,-69.726342,2.673559,-59.075921,11.590652,-37.957305,105.178717,129.829041,-104.685625,122.904281
38,2.987113,-17.833303,-4.984097,-18.095723,0.0,10.784363,-13.470336,-46.738105,-26.690963,-62.577117,-38.058174,-70.582717,-47.174812,-73.224334,0.0,-56.976426,-23.654885,-73.979668,-13.205968,-68.704756,-2.570355,-55.710697,8.242827,-34.106377,0.0,-36.003238,8.260575,43.492058,26.389698,64.681721,42.021836,74.802876,54.787812,77.9473,0.0,-51.922383,-16.212694,-77.414423,-5.809732,-75.480511,3.252629,-65.24183,11.183605,-43.375916,108.049816,114.676706,-109.785736,107.489526
39,2.926026,-14.59681,-0.913353,-11.19748,0.0,24.015633,-11.067764,-42.940727,-27.386902,-61.734146,-41.958504,-73.253769,-53.990204,-79.328682,0.0,-57.585575,-27.131686,-82.150858,-17.43789,-77.940931,-7.297571,-64.982706,3.107614,-43.835932,0.0,-36.330414,7.672989,42.525811,26.33392,64.84496,42.528317,75.382519,55.697193,78.788475,0.0,-52.432028,-15.178591,-84.053401,-5.224493,-82.433676,2.630092,-72.344165,8.838639,-50.307919,110.829477,102.530319,-110.845454,98.742469
40,-2.136131,-8.573452,0.708893,-8.383502,0.0,27.04129,-6.228402,-39.689049,-23.162774,-59.226517,-38.770478,-71.943993,-52.118363,-79.024086,0.0,-58.266608,-23.948755,-90.359538,-15.061802,-88.812999,-6.396453,-76.689287,2.035084,-54.221956,0.0,-37.871452,8.769837,39.612236,27.835236,61.707321,44.135365,73.139259,57.179718,77.593941,0.0,-50.610298,-15.873622,-87.483673,-6.456258,-87.376888,0.689845,-78.248485,6.253681,-55.762795,108.465643,95.991086,-110.364264,92.393186
41,-2.393578,-7.917199,0.644909,-2.471189,0.0,29.532097,-6.523155,-36.656868,-24.209129,-55.099686,-40.1399,-69.133507,-53.512596,-77.364349,0.0,-57.381472,-24.979876,-93.252619,-16.856047,-93.400845,-8.903181,-82.011117,-1.147051,-59.878004,0.0,-39.214119,9.228619,36.207928,28.923695,57.936092,45.522766,70.991558,58.54105,77.014,0.0,-48.726448,-16.475264,-89.969492,-7.548414,-90.815442,-1.02218,-82.291841,3.953668,-59.140025,105.912449,89.373844,-109.878971,91.221954
42,-1.819908,-3.902175,1.37907,2.78256,0.0,31.929062,-5.519417,-32.873932,-24.023392,-51.351654,-40.552277,-65.643379,-54.204483,-75.246414,0.0,-56.824039,-24.858697,-95.666246,-17.71783,-97.459299,-10.710461,-86.33117,-3.848317,-64.852833,0.0,-40.925777,8.934105,33.252514,29.019619,54.872944,45.739941,67.644516,58.74701,74.821839,0.0,-46.545676,-16.678713,-91.509251,-8.397359,-92.952488,-2.230629,-84.611088,2.446928,-61.362354,103.900246,85.988638,-108.692196,94.521483
43,-0.704796,-2.586583,1.867493,7.894981,0.0,33.661697,-5.154327,-29.492752,-23.99398,-47.540016,-40.805443,-62.694855,-54.553917,-72.976089,0.0,-56.297085,-25.673265,-97.882536,-19.47014,-100.899167,-13.296198,-90.614988,-7.117754,-69.395879,0.0,-42.452866,8.187756,29.714069,28.484699,51.259575,45.372791,63.603848,58.602493,71.627254,0.0,-43.008026,-15.582099,-90.874568,-7.906467,-93.512014,-2.191571,-84.634404,2.089078,-61.456288,102.812811,83.544192,-107.207342,102.558601
44,0.524826,-0.611842,1.259823,11.993851,0.0,34.940758,-5.155998,-26.754089,-24.23806,-44.641228,-41.290764,-60.570946,-55.025047,-71.558556,0.0,-55.730864,-25.860516,-99.120903,-20.566827,-103.137415,-15.151785,-93.247413,-9.540735,-72.447108,0.0,-43.61919,6.872669,26.134907,27.348152,48.312,44.459793,60.95137,57.923824,69.531772,0.0,-38.364784,-13.883136,-86.554096,-6.772434,-90.407482,-1.480781,-81.57813,2.444779,-59.028924,102.881756,82.968424,-106.4034,114.588526
45,1.284165,2.692491,0.284237,13.804088,0.0,35.743057,-5.150803,-24.455086,-24.248223,-42.030442,-41.501221,-58.46624,-55.299134,-70.840233,0.0,-55.208227,-26.07518,-99.644787,-21.203177,-104.209489,-16.17841,-94.638125,-10.875884,-74.464852,0.0,-45.537152,5.169891,23.336162,25.440078,45.044609,42.547119,57.653011,56.294494,66.696419,0.0,-34.346277,-11.875994,-82.885052,-5.024859,-86.71409,-0.009979,-77.763516,3.535921,-55.751903,103.654902,85.668146,-106.630182,128.399845
46,1.041069,6.349579,-2.71518,11.397218,0.0,36.834754,-4.423531,-22.321175,-23.508522,-40.284371,-40.783631,-56.874001,-54.607476,-69.99907,0.0,-53.909567,-25.37974,-99.581586,-20.550272,-103.988071,-15.653989,-94.732851,-10.628185,-74.531321,0.0,-47.212097,3.977967,21.336479,24.344788,43.423268,41.641228,55.196629,55.597275,64.06453,0.0,-31.168465,-9.578094,-79.62828,-3.277249,-83.439281,1.076791,-74.360044,4.023749,-53.893117,104.094658,92.018423,-109.946675,139.797761
47,1.278762,10.163031,-6.008114,7.04839,0.0,36.937935,-4.312317,-21.939468,-23.044281,-39.824775,-40.149627,-56.277649,-53.936416,-69.425514,0.0,-51.276171,-24.754153,-98.439432,-19.664721,-101.855051,-14.514058,-93.440563,-9.494286,-72.82688,0.0,-48.051086,3.73629,19.485054,23.99524,42.093121,41.293843,53.684453,55.428189,62.602089,0.0,-29.593435,-9.213878,-78.549705,-3.382083,-82.163011,0.599862,-72.988234,3.340703,-53.350695,104.722257,102.20562,-116.605952,146.870317
48,0.837868,13.33804,-8.183853,-1.380283,0.0,37.487572,-3.847938,-20.83596,-22.246834,-38.772858,-39.018104,-55.247291,-52.61467,-68.253754,0.0,-47.262105,-23.249883,-94.649056,-18.45865,-97.432264,-13.590605,-90.158097,-8.926029,-69.69535,0.0,-49.942474,2.169503,17.196991,22.481816,38.879174,40.126477,51.168675,54.90128,60.657841,0.0,-28.959942,-10.838883,-76.701057,-5.304224,-80.463862,-1.303452,-71.938316,1.958662,-53.124799,104.604967,115.6354,-125.744963,145.581774
49,1.776695,15.398385,-9.980999,-4.464826,0.0,38.342286,-2.752533,-19.060409,-20.990844,-37.246193,-37.684662,-53.459564,-51.576278,-66.617065,0.0,-43.630748,-21.279297,-91.118321,-16.796186,-94.116915,-12.439442,-87.542102,-8.356461,-67.019482,0.0,-52.053657,-0.095901,14.825913,20.247746,35.72984,38.287583,47.860119,53.669461,57.942261,0.0,-30.876503,-11.682406,-78.81491,-6.486455,-82.327891,-2.883238,-73.96284,0.109885,-55.630378,105.214038,131.181251,-136.893586,141.264414
50,3.789231,12.813179,-11.711734,-4.351021,0.0,38.862465,-2.034439,-16.60627,-20.008713,-35.38813,-36.571175,-51.441696,-50.841362,-64.446419,0.0,-40.407827,-20.7997,-88.414647,-16.947054,-91.010492,-12.966419,-84.474983,-8.918896,-64.660684,0.0,-52.532696,-1.781594,13.08229,18.761375,34.25204,37.305187,46.467739,53.120475,56.919342,0.0,-34.437167,-14.011613,-83.157044,-9.094643,-86.505707,-5.691523,-77.976481,-2.832392,-59.930405,107.765705,144.161283,-149.842884,137.080246
51,9.104095,6.695147,-10.195656,-1.877224,0.0,38.017021,-2.322418,-16.933182,-20.56176,-36.413338,-37.310531,-52.297462,-51.884697,-64.658226,0.0,-40.089207,-22.565083,-86.895785,-19.459488,-89.257337,-15.800739,-82.810656,-11.723168,-63.839972,0.0,-52.826809,-4.186993,10.897476,15.902366,31.871452,34.613537,44.638149,51.030475,55.42971,0.0,-36.776817,-15.53717,-85.862442,-10.490636,-89.735804,-6.962464,-81.016362,-4.179886,-62.330619,115.697748,150.900652,-161.210592,135.247244
52,11.452583,2.05811,-9.042183,2.247418,0.0,38.19777,-1.579193,-13.978912,-20.114913,-34.54248,-37.284667,-50.502296,-52.462326,-63.866729,0.0,-41.196571,-22.495082,-87.256401,-20.255191,-90.324223,-17.448789,-83.622852,-13.847264,-65.735536,0.0,-52.573975,-6.242192,9.355762,13.855259,29.793697,32.985031,43.082062,49.907135,54.016834,0.0,-37.616288,-15.091646,-85.527587,-9.811893,-89.666131,-6.45306,-81.613278,-4.253035,-62.478165,126.206377,152.644792,-171.196729,137.180692
53,14.359017,-2.036016,-7.940987,9.387847,0.0,36.82489,-0.392693,-12.044449,-19.344292,-33.140877,-37.104813,-49.416962,-52.979828,-64.269356,0.0,-44.603854,-22.942661,-90.672341,-20.857196,-94.27415,-18.367561,-87.697219,-15.123151,-69.184976,0.0,-49.98389,-7.080128,7.437882,12.601914,28.742615,31.584263,42.662247,48.414231,53.344494,0.0,-36.947105,-12.597392,-84.487222,-7.468496,-88.772843,-4.835458,-81.400387,-3.976306,-61.811989,140.212687,150.101021,-179.490423,146.060784
54,15.550644,-5.307423,-7.126236,9.992291,0.0,34.138824,1.046058,-11.702545,-18.109955,-33.01165,-36.253876,-49.51355,-52.542618,-64.961701,0.0,-47.405501,-23.617242,-93.464232,-20.759389,-96.785947,-17.788651,-89.432467,-14.489277,-70.757994,0.0,-51.910652,-8.589134,6.249619,10.566765,26.737324,29.344998,40.433544,46.453377,51.056889,0.0,-34.468783,-11.441604,-81.56024,-5.716717,-85.538819,-2.685593,-78.574972,-1.588943,-58.359412,155.850666,144.18631,-186.529324,155.445787
55,14.811012,-3.46594,-6.623451,8.379062,0.0,30.482025,2.690918,-12.065758,-16.337471,-33.322769,-34.678184,-50.512642,-51.12957,-65.691559,0.0,-50.278513,-23.000787,-95.142632,-18.850078,-98.348121,-15.344483,-90.69094,-12.405176,-71.371459,0.0,-53.655293,-10.073307,3.103043,8.485084,23.847794,26.996841,37.631653,44.090813,48.028908,0.0,-32.540559,-10.349344,-78.776174,-4.460146,-82.871795,-1.312215,-76.029614,-0.508626,-56.22249,170.970457,139.919335,-192.843996,163.023814
56,10.238663,1.746673,-8.837517,0.76305,0.0,23.825592,5.370964,-9.136002,-12.781906,-30.29979,-30.84977,-47.752167,-47.549103,-62.848458,0.0,-51.061496,-20.456708,-94.248067,-15.421734,-97.621566,-11.596734,-88.874701,-8.772579,-68.840372,0.0,-55.916107,-11.27465,1.049458,7.358792,20.848744,26.000542,34.481598,43.448399,45.302284,0.0,-30.453716,-9.492144,-76.002315,-3.256136,-79.770584,-0.300725,-73.361663,0.111657,-54.222685,181.634525,140.569527,-201.256108,162.690383
57,7.712974,3.499729,-8.880329,-2.878347,0.0,17.253846,7.707367,-6.382599,-9.310867,-27.414322,-26.617698,-45.132751,-43.159195,-59.435073,0.0,-49.676867,-18.18641,-88.185331,-12.793895,-90.959604,-8.791517,-82.199104,-5.99444,-62.057682,0.0,-56.576626,-14.196991,-8.011631,3.793121,15.875336,22.493752,29.945847,40.47345,41.118027,0.0,-32.025166,-10.748444,-75.005898,-4.606624,-81.477711,-1.703688,-75.434859,-1.483029,-57.076258,189.817056,142.736022,-209.66688,158.478802
58,9.384087,10.846898,-12.167347,-10.95992,0.0,20.968483,9.155708,-6.162437,-7.438019,-26.873085,-24.749291,-44.679726,-41.709618,-58.142258,0.0,-48.850257,-17.467475,-86.002127,-11.297392,-88.413338,-6.852529,-78.864471,-3.789653,-59.125568,0.0,-60.454353,-15.560703,-8.539318,2.460056,14.606735,21.503082,28.414375,40.131386,39.863731,0.0,-32.591053,-12.202456,-76.525989,-5.59975,-83.113505,-2.094611,-76.480028,-1.257597,-58.380643,199.739388,151.94089,-221.295982,145.876852
59,8.97155,10.60635,-11.269615,-10.200242,0.0,25.457085,9.789757,-3.411484,-6.499512,-24.351013,-23.631455,-42.347374,-40.692787,-55.978294,0.0,-47.484437,-16.322394,-83.46563,-10.216322,-85.9379,-5.936425,-76.849407,-3.103736,-57.860186,0.0,-60.114842,-16.22279,-10.183857,1.74456,14.106354,20.89333,28.568642,39.565132,39.739105,0.0,-35.936146,-13.810245,-81.066386,-7.575732,-87.572508,-4.283775,-80.569968,-3.860778,-62.953489,209.210472,160.518365,-232.066063,133.647735
60,11.728363,4.877529,-10.860409,-9.169739,0.0,31.267639,9.956062,-3.292465,-6.149872,-23.606026,-23.147919,-40.629021,-40.391464,-53.855553,0.0,-45.89529,-15.72126,-81.184483,-9.698594,-83.264428,-5.311363,-74.841956,-2.170218,-55.3794,0.0,-60.352947,-16.879394,-10.367454,1.240105,13.979027,20.637005,29.011643,39.69508,39.843578,0.0,-37.486026,-14.439241,-83.640649,-8.308783,-89.852845,-5.158814,-82.743094,-4.940428,-64.978081,221.383141,163.072794,-242.482166,122.154896
61,13.380684,2.233031,-7.975056,-1.871605,0.0,39.941734,10.62307,-1.697205,-5.625275,-21.245361,-22.730461,-37.872757,-39.906304,-51.918526,0.0,-44.378441,-15.49802,-81.233927,-10.037727,-84.032579,-6.180488,-76.835698,-3.593775,-58.767398,0.0,-60.87577,-18.300212,-12.3773,-0.421325,13.256939,18.911831,28.700203,37.869461,38.731968,0.0,-38.493565,-14.90253,-85.008242,-9.12484,-91.735357,-5.913652,-84.371737,-5.807293,-66.48875,235.094227,163.230246,-250.12682,118.207712
62,16.930572,-2.119484,-6.999286,0.858911,0.0,49.556145,11.306466,-2.91481,-4.932014,-22.094329,-22.13507,-37.584503,-39.318031,-51.11325,0.0,-46.003569,-17.85683,-86.427322,-11.824148,-89.595019,-7.505195,-82.870795,-4.511905,-64.125315,0.0,-63.968022,-18.672901,-8.652981,-0.379212,13.181099,18.798317,28.424938,37.456409,38.065567,0.0,-35.565724,-13.324671,-83.984198,-7.772809,-88.463813,-4.75748,-80.828029,-4.891306,-63.427905,252.241888,159.564087,-256.909017,117.519948
63,13.920617,-8.056416,-3.541237,8.589951,0.0,50.621658,13.302955,0.318397,-2.346131,-19.12365,-19.358826,-34.109391,-36.404664,-47.393692,0.0,-47.480417,-18.469196,-87.613868,-12.413451,-91.57906,-7.988231,-84.764321,-5.194568,-66.581808,0.0,-65.389046,-19.944237,-11.58252,-1.641174,10.993961,17.18716,25.967159,35.404667,35.445236,0.0,-34.279432,-11.675786,-81.891432,-6.765023,-86.490677,-4.286985,-79.515067,-5.087999,-63.032826,266.163987,150.37624,-260.448772,124.978468
64,12.986846,-7.904275,-2.851994,8.178225,0.0,52.200783,16.220421,2.054238,1.289635,-16.943,-15.709259,-31.711669,-32.926116,-44.434501,0.0,-49.34292,-19.900571,-89.568979,-13.664977,-93.995712,-8.953563,-86.836004,-5.977218,-68.423847,0.0,-66.57249,-20.835422,-12.843486,-2.507148,9.227818,16.172551,23.784256,34.314412,33.485859,0.0,-31.20809,-8.683615,-77.180914,-3.860438,-81.481021,-1.580033,-75.437317,-2.734821,-59.705973,279.073173,141.808704,-263.378426,132.493432
65,9.403084,-3.713843,-1.589195,7.592732,0.0,54.177704,20.132492,5.863449,5.610489,-13.333992,-11.523948,-28.261253,-28.918625,-40.92794,0.0,-50.49856,-20.459307,-91.06939,-14.280505,-96.933783,-9.610167,-89.134021,-6.992308,-70.514537,0.0,-67.595364,-21.680786,-14.357105,-3.630112,7.094639,14.774471,21.345337,32.89579,31.734924,0.0,-28.981482,-6.250507,-73.034022,-1.204306,-77.136664,1.311356,-71.884989,0.215385,-55.968431,288.408004,137.943643,-265.035874,139.934946
66,7.249054,-2.423815,-1.281876,5.787483,0.0,57.819947,23.203903,7.406708,9.3284,-11.856262,-7.843437,-27.153419,-25.628998,-39.040008,0.0,-51.654059,-20.737239,-92.346234,-13.670991,-97.739398,-8.393548,-89.55903,-5.703972,-69.489757,0.0,-68.245479,-22.030002,-14.729793,-4.382434,5.2683,13.853955,19.787957,32.210701,31.074589,0.0,-28.975442,-5.330234,-71.592934,0.292252,-74.568186,3.314984,-70.123255,2.501929,-54.024336,295.595815,135.493893,-266.378993,145.696494
67,3.231514,2.085077,-1.278762,4.197324,0.0,59.528252,26.002899,10.096184,12.093979,-8.610443,-5.56961,-25.136123,-23.908035,-37.562004,0.0,-51.182582,-19.396199,-92.146243,-12.011184,-97.973895,-6.699351,-88.785051,-4.592094,-69.079105,0.0,-69.282212,-21.903614,-14.432499,-4.722473,5.124801,13.565139,19.979427,32.272922,32.076599,0.0,-30.984356,-5.977267,-72.29645,0.223475,-75.777549,3.850669,-71.745951,3.455417,-54.683652,298.790142,137.570436,-267.694942,149.885284
68,1.863465,2.351271,-0.425286,1.559222,0.0,60.253532,26.846878,10.311515,12.877189,-7.453995,-4.786652,-24.140465,-23.144486,-36.674126,0.0,-49.550093,-18.387519,-91.387313,-10.872575,-96.737504,-5.549893,-87.216474,-3.515353,-67.361543,0.0,-70.025757,-22.24863,-14.297607,-5.799499,5.002888,12.542302,20.010109,31.633633,32.672184,0.0,-34.197038,-7.28908,-73.865281,-0.407812,-77.474808,3.841518,-73.351097,3.76622,-55.726801,300.654213,139.887117,-268.119622,151.409916
69,0.322494,2.93428,-0.160251,0.489286,0.0,60.820015,26.844154,10.22184,12.733658,-6.878082,-4.873833,-23.347366,-23.128967,-35.630264,0.0,-48.137719,-16.95418,-90.336116,-9.34669,-94.915644,-4.092323,-85.405247,-2.276886,-65.482699,0.0,-70.679959,-22.316082,-14.70488,-6.423558,4.878479,11.901146,20.294986,31.229267,33.301414,0.0,-37.961554,-9.797839,-76.272757,-2.429656,-80.453692,2.337673,-76.143297,2.599211,-57.690983,301.015217,142.813293,-268.241363,151.891098
70,-0.517525,3.094561,-0.214955,-0.333909,0.0,60.418625,26.352265,10.175171,12.172097,-6.486305,-5.335121,-22.970466,-23.533584,-35.396782,0.0,-47.854655,-15.992622,-89.95579,-8.472626,-93.782494,-3.466557,-84.211575,-1.864171,-65.040796,0.0,-71.217281,-22.230629,-14.337719,-6.462547,5.880181,11.98486,21.095604,31.451844,33.991059,0.0,-41.170321,-11.585897,-78.323846,-4.082999,-82.994919,0.771374,-78.483249,1.064169,-60.052875,300.558019,145.89312,-268.395991,151.542455
71,-0.783897,2.78193,0.141552,-0.372973,0.0,59.655235,25.792419,9.952606,11.456085,-6.385254,-6.041565,-22.69146,-24.205856,-35.04174,0.0,-47.831122,-15.762583,-89.885685,-8.39897,-93.593896,-3.491047,-83.583629,-1.795295,-64.762252,0.0,-71.415413,-21.811111,-13.93016,-6.035488,7.761463,12.487667,22.259354,31.866921,34.82555,0.0,-43.268347,-12.555118,-79.664793,-5.25307,-85.08601,-0.456471,-80.018468,-0.175149,-61.778175,299.834971,148.654642,-268.19359,151.149074
72,-0.789299,2.078729,1.045796,-0.304824,0.0,59.356636,25.179497,9.90889,10.687889,-6.458908,-6.738144,-22.618721,-24.792091,-34.883743,0.0,-48.436968,-15.858581,-90.216914,-8.726754,-93.858354,-3.943332,-83.648331,-2.210949,-64.779943,0.0,-71.601872,-21.880863,-13.04892,-6.073071,8.797943,12.429416,22.670917,31.724956,34.666408,0.0,-44.778806,-12.785275,-81.250254,-5.4546,-85.822823,-0.614195,-80.302595,-0.348619,-62.275149,299.089485,150.695882,-267.103981,150.806761
73,-1.21431,1.26897,0.96833,0.442466,0.0,59.468605,25.422203,10.102021,10.836319,-6.743294,-6.574585,-22.730919,-24.681106,-34.783104,0.0,-49.207075,-16.265305,-90.907171,-9.078335,-94.552706,-4.277167,-84.204294,-2.467052,-64.745634,0.0,-71.340523,-21.869934,-12.761284,-5.831222,9.2104,12.769283,23.166252,32.127445,34.652607,0.0,-45.982117,-13.128508,-82.391086,-5.789027,-86.923671,-1.048818,-81.402721,-0.898407,-63.215737,297.906709,151.930858,-266.104117,151.215233
74,-1.192795,0.821651,0.76276,0.495152,0.0,59.294976,25.837441,10.169953,11.222695,-6.951759,-6.171821,-23.038307,-24.319976,-34.931053,0.0,-50.269726,-17.078533,-91.747823,-9.884314,-95.518643,-4.987185,-84.686762,-2.945692,-64.747418,0.0,-70.826935,-21.54277,-11.979664,-5.326893,10.107617,13.368096,23.931965,32.774414,35.074402,0.0,-46.844647,-13.258172,-83.092719,-5.916381,-87.596621,-1.226475,-81.91349,-1.155672,-63.792282,296.739269,152.705949,-265.316002,151.663825
75,-1.300254,0.204518,1.140793,0.504081,0.0,59.308776,26.33654,10.316619,11.675216,-7.07119,-5.747292,-23.175454,-23.973839,-34.88221,0.0,-50.972359,-17.484148,-92.300064,-10.204886,-96.284787,-5.266977,-85.069294,-3.095721,-64.719403,0.0,-70.471504,-21.268947,-11.620228,-5.067215,10.501637,13.644413,24.413773,33.07069,35.602204,0.0,-47.569134,-13.506779,-83.533636,-6.07424,-88.03739,-1.329474,-82.310484,-1.23512,-64.305243,295.455912,152.860582,-264.158312,152.118021
76,-1.384621,0.017735,1.367581,0.236652,0.0,58.932976,26.523056,9.92498,11.858803,-7.119141,-5.561943,-23.144714,-23.865189,-35.159981,0.0,-51.697952,-17.765236,-92.597034,-10.445268,-96.804189,-5.481091,-85.499275,-3.166117,-64.751056,0.0,-70.07919,-20.922364,-11.032597,-4.829224,11.054328,13.827312,24.973342,33.273628,36.364254,0.0,-48.362842,-13.598676,-83.702918,-6.075166,-88.092008,-1.24143,-82.497087,-1.07279,-64.345078,294.094557,152.832369,-262.767465,152.308725
77,-1.998894,-0.156785,1.780357,0.077003,0.0,58.492172,26.517288,9.104325,11.842301,-7.486519,-5.538482,-23.376457,-23.885742,-35.728706,0.0,-52.365955,-17.82596,-92.583022,-10.351493,-96.962244,-5.325738,-85.836882,-2.894365,-64.715043,0.0,-69.211865,-20.56945,-10.416401,-4.600445,11.858459,13.931053,25.515518,33.364437,37.002033,0.0,-49.31446,-14.167854,-84.163021,-6.470233,-88.308165,-1.328116,-82.658601,-0.75911,-63.909596,292.125538,152.64026,-260.957233,152.350404
78,-2.876838,-0.58837,1.980308,-0.410072,0.0,57.166557,25.716384,7.150016,11.072891,-8.818795,-6.13971,-24.3853,-24.350625,-36.872384,0.0,-52.645697,-17.872842,-92.024978,-10.188052,-96.320361,-4.852459,-85.089987,-1.987906,-64.150379,0.0,-67.320694,-19.512451,-8.17163,-3.626792,13.519513,14.834691,26.943387,34.303654,38.369133,0.0,-51.102017,-14.560266,-85.068442,-6.496304,-88.146947,-0.848686,-82.133698,0.294339,-62.343346,289.283038,151.983748,-258.942587,151.87219
79,-3.89605,-1.074976,2.531834,-0.969358,0.0,54.981262,23.228508,3.048225,8.339607,-12.293861,-8.680115,-27.009338,-26.483162,-39.280998,0.0,-52.400825,-17.634794,-90.977888,-9.677697,-94.9054,-3.981123,-83.70398,-0.73935,-62.843938,0.0,-63.983139,-17.716255,-3.898956,-1.897568,17.129036,16.391235,29.658589,35.703644,40.620724,0.0,-53.429168,-15.385609,-85.655855,-6.605257,-87.558429,-0.076213,-80.994095,2.100971,-59.726678,285.370119,150.739897,-256.427622,150.733957
80,-6.034355,-1.737397,3.53928,-1.666224,0.0,51.252434,19.716614,-2.758164,4.938904,-17.542832,-11.607147,-31.177757,-28.685257,-42.602738,0.0,-51.984078,-16.535019,-88.672758,-8.033371,-91.77873,-1.795813,-80.68118,1.789774,-59.896405,0.0,-58.346889,-14.970177,2.914238,0.32785,22.846344,17.99437,34.190392,36.837376,43.563847,0.0,-56.137936,-16.195849,-85.641017,-6.329627,-85.481509,1.521394,-78.16398,5.313055,-55.006866,279.126045,148.768136,-253.098061,148.833369
81,-9.353668,-1.585856,4.736504,-1.57093,0.0,44.947757,12.843177,-11.085137,-1.957959,-25.171669,-17.66494,-37.604634,-33.278446,-47.334973,0.0,-51.64647,-19.055269,-84.355218,-10.152243,-85.15546,-2.697069,-74.22577,2.620305,-54.066441,0.0,-50.371617,-11.723614,11.507114,2.639431,30.698112,19.370842,40.764358,37.461341,47.563614,0.0,-59.751039,-16.9063,-85.098713,-5.647039,-82.760725,3.777914,-73.854765,9.446862,-48.690657,269.317057,146.88999,-248.816877,146.970149
82,-12.25177,-1.285816,6.180599,-2.036159,0.0,36.079685,2.708656,-22.038597,-12.193966,-35.044968,-26.674691,-46.168591,-40.086308,-53.537396,0.0,-51.428059,-25.657278,-78.098025,-16.630775,-75.201443,-7.24198,-64.320579,1.334476,-45.223449,0.0,-40.066532,-7.207958,22.581184,5.848835,40.721615,21.093601,48.986091,37.808155,52.279163,0.0,-63.111063,-16.790147,-82.372851,-4.021372,-77.215987,7.186019,-67.276684,14.93288,-40.255575,256.59458,145.357552,-243.106985,144.687368
83,-14.241166,-1.046917,7.548214,-1.140838,0.0,22.656636,-4.426437,-36.1669,-17.903102,-49.231521,-30.477516,-58.951435,-41.739818,-62.742931,0.0,-50.540446,-26.470277,-72.598193,-16.492306,-66.280119,-5.628479,-55.388332,4.542916,-35.156087,0.0,-27.934147,-2.541722,34.872299,8.880249,52.226497,22.267296,58.780494,37.283775,58.881386,0.0,-66.276211,-16.74628,-77.326645,-2.388926,-69.510278,10.803259,-58.135395,20.934772,-30.663983,241.927236,144.211418,-235.984949,143.447313
84,-19.251731,0.947696,9.380298,-0.455941,0.0,9.646808,-17.959809,-45.743248,-31.24078,-58.362992,-41.775101,-66.931446,-49.77142,-68.335751,0.0,-48.881459,-30.367389,-62.231978,-19.419695,-52.196431,-6.404854,-40.740479,6.996841,-21.524653,0.0,-15.214393,3.240715,47.036717,12.543835,63.323788,23.241738,67.600422,35.379445,63.584015,0.0,-67.309283,-15.539738,-69.707737,0.252288,-59.168485,15.125344,-45.933217,27.281073,-18.287483,222.407273,145.327683,-226.872883,143.159941
85,-19.393479,3.050779,11.17828,0.427461,0.0,-6.914509,-25.895691,-61.619545,-37.459751,-73.262008,-45.613495,-80.279812,-50.962177,-77.201603,0.0,-48.153842,-29.898987,-53.08279,-17.602121,-39.649241,-2.836076,-27.453742,12.474078,-8.574399,0.0,-3.897709,8.669838,56.295639,15.50544,70.714199,22.796643,71.81939,30.949368,62.906971,0.0,-65.496408,-13.905007,-60.044995,2.609844,-46.952253,18.472858,-32.186426,31.753742,-4.402045,203.049448,148.644779,-215.658949,143.853719
86,-18.198761,5.369328,12.329968,1.630471,0.0,-22.597023,-30.784195,-76.431701,-40.108749,-87.201416,-45.582916,-90.323158,-48.185119,-82.096367,0.0,-45.964326,-24.90877,-42.524359,-11.058967,-27.400917,4.422472,-15.084668,19.807557,3.242799,0.0,6.246849,11.151317,58.491405,16.285663,73.290584,21.386204,72.980198,26.896946,61.032863,0.0,-61.731671,-11.400325,-49.118656,4.749619,-34.624469,20.192631,-20.782305,33.149337,3.516074,185.231695,154.350122,-202.947973,145.820205
87,-20.865394,7.047674,13.016407,5.181267,0.0,-38.565995,-33.194893,-89.616669,-39.819649,-99.138909,-43.022805,-100.430741,-43.819542,-88.484436,0.0,-40.403542,-13.914813,-30.976835,2.289223,-15.790643,18.158351,-2.014879,32.322092,15.859728,0.0,15.67131,16.6875,62.846512,22.151104,76.35823,26.741558,75.582916,30.688442,64.088058,0.0,-58.339882,-9.187103,-38.322288,8.480875,-24.437886,24.613158,-9.674474,37.997177,12.116703,164.78773,161.648176,-189.510137,151.251852
88,-19.777657,8.836508,12.861168,6.033645,0.0,-50.162773,-37.714577,-98.13176,-43.110306,-106.76651,-44.95697,-105.386558,-44.155128,-91.503342,0.0,-34.311307,-6.855759,-15.737111,10.809472,-0.217349,27.097711,14.458328,41.017069,29.950222,0.0,24.885349,18.464012,68.3554,22.980011,80.964992,26.72311,79.525486,29.319843,66.887237,0.0,-53.20053,-5.428578,-27.19235,13.505494,-13.690289,29.95552,1.47481,43.114137,21.108341,145.454252,170.529394,-176.20479,157.330207
89,-16.585304,9.673696,11.298465,7.940374,0.0,-61.758042,-34.680428,-110.300629,-36.971924,-117.254219,-37.148186,-113.148354,-35.657593,-95.176552,0.0,-27.792909,3.622033,-2.9162,22.464158,12.338177,38.234139,27.412453,49.992405,40.680208,0.0,33.479828,19.686963,73.149559,23.3126,85.119004,26.573616,83.926461,28.521058,70.703339,0.0,-48.280714,-1.250372,-17.281989,17.875756,-3.854053,33.919378,11.165364,46.246786,27.973431,129.22637,180.066424,-164.548903,165.133915
90,-17.005943,10.547934,12.968422,9.766865,0.0,-68.314202,-36.206727,-113.197518,-37.103692,-118.781949,-35.975052,-112.211049,-33.116135,-92.947701,0.0,-18.945817,10.316617,12.054644,29.462912,26.793084,44.582019,42.486642,55.009922,52.203243,0.0,40.611706,18.761319,76.844845,23.017708,89.254555,27.383824,88.528164,30.450451,77.179711,0.0,-43.427638,3.33104,-7.470392,23.966731,4.98148,40.390302,18.976482,52.60399,32.386412,112.555436,190.458867,-151.245472,174.745289
91,-18.356736,10.862453,11.388554,10.665865,0.0,-73.970512,-37.480201,-117.493892,-37.466995,-123.580913,-35.784599,-115.222778,-32.637542,-94.837063,0.0,-10.375106,16.86179,22.453648,36.45506,35.904407,51.478824,53.046556,61.200722,62.72702,0.0,48.032433,20.620686,86.501255,23.822903,95.889702,27.370193,93.874855,29.728981,81.770325,0.0,-39.00957,7.459487,1.695147,29.836329,14.488585,47.226048,30.280982,59.745512,43.544414,94.515106,201.193312,-139.540512,185.283146
92,-13.671684,10.567941,10.11834,9.63583,0.0,-76.934395,-37.84259,-120.373157,-36.780601,-126.409916,-33.922485,-114.981892,-29.206375,-91.661236,0.0,-4.025336,21.376931,27.865503,39.960384,40.987725,53.958016,59.212705,62.809876,69.994463,0.0,54.066478,18.570041,91.974185,18.660186,99.255569,19.938766,95.190216,20.959018,80.273242,0.0,-32.939608,11.995228,11.660368,33.570044,26.666397,50.167801,41.873202,61.60252,53.248443,81.191299,211.679066,-129.074295,194.836789
93,-12.837913,10.244505,10.347827,10.072221,0.0,-76.453103,-39.326523,-121.115628,-36.773186,-124.741562,-32.110863,-111.104245,-25.157227,-84.944745,0.0,1.771594,24.245373,31.023431,41.372924,44.79302,54.357924,65.354623,62.573409,76.186608,0.0,58.044434,19.677487,92.679154,18.050286,98.098916,17.390751,91.585774,16.567383,74.618077,0.0,-27.008951,15.656447,20.697466,36.020374,37.3332,51.495497,51.98987,61.86638,61.514711,68.668139,221.956506,-118.411715,204.941945
94,-11.165886,9.357237,12.160676,9.750897,0.0,-75.642392,-38.911126,-118.871487,-35.431321,-121.952443,-29.786705,-107.211056,-21.66845,-79.450001,0.0,6.555251,26.974507,29.625044,42.982362,44.69732,55.124334,67.291832,62.738345,81.241695,0.0,60.749805,20.010829,93.211521,17.735687,95.706642,16.370727,87.432804,14.960208,70.562004,0.0,-20.709718,19.740544,30.083467,40.893877,46.702306,56.458883,60.447379,66.593163,69.452084,57.84965,231.388677,-105.903642,214.767776
95,-8.191887,8.61685,8.489799,9.154474,0.0,-75.46518,-37.543282,-115.679226,-33.809029,-118.988777,-27.930748,-104.713967,-19.580223,-76.332962,0.0,8.525311,28.276527,24.829335,43.602102,40.810563,55.408657,65.809761,62.937959,84.877905,0.0,64.493763,21.781918,93.842777,17.11623,94.882301,13.661453,85.289268,10.613045,66.230392,0.0,-16.128961,22.348746,38.292443,42.51958,55.172128,57.161368,69.16834,66.240198,76.78082,49.940209,240.091832,-97.131397,224.008555
96,-5.421524,6.706787,8.641926,8.654838,0.0,-72.637551,-34.726044,-107.466202,-30.49086,-109.744984,-24.326706,-98.054215,-15.67907,-70.35038,0.0,8.656148,30.13798,20.978319,44.229436,39.032867,55.075822,65.412322,61.912408,87.76875,0.0,66.858948,23.396335,93.981651,17.362781,93.651478,12.566093,82.819542,8.441253,63.107162,0.0,-12.284626,24.800658,46.216405,44.378206,63.558736,58.442023,75.561979,66.962086,81.42807,44.716845,246.876088,-88.291311,232.740862
97,-4.541588,6.576418,8.242218,7.976128,0.0,-67.467236,-31.411057,-97.292885,-26.125511,-97.739388,-19.708695,-86.720066,-11.673844,-61.305416,0.0,7.558523,33.638846,26.725949,45.618216,41.098419,54.023201,62.4022,58.18298,81.723657,0.0,68.464851,24.652805,93.108375,17.629772,92.648998,11.804191,80.768921,6.636886,60.130016,0.0,-9.220374,27.032725,51.851303,46.261581,68.766865,59.840571,79.972144,67.973989,84.608365,40.32684,253.561082,-79.89751,240.825566
98,-2.871094,8.993775,7.761829,7.401405,0.0,-63.520203,-29.184792,-86.134174,-23.973793,-84.859543,-18.087112,-74.301304,-11.370781,-52.832645,0.0,10.733123,32.752678,30.021346,41.728989,40.390426,47.389366,54.760945,49.063839,70.160238,0.0,69.070301,26.048561,92.751286,18.07885,91.904789,11.283486,79.451557,5.328255,58.26836,0.0,-6.707503,28.411451,56.540838,47.586053,73.285697,61.089534,83.653592,69.257348,87.35212,37.618177,262.666082,-71.97325,248.338196
99,0.187614,12.274685,5.955769,6.604774,0.0,-59.946659,-31.505584,-70.6562,-26.872489,-65.847782,-21.278572,-56.622058,-15.09391,-42.090145,0.0,13.229828,27.172627,34.295129,31.807884,40.370221,33.950858,47.673986,33.136235,55.981516,0.0,69.479748,27.139583,91.129303,17.529224,90.931846,8.944256,77.288498,1.335754,54.413624,0.0,-5.403087,28.452503,59.679859,46.252479,77.225251,58.972286,86.709793,66.760507,88.839454,37.925142,275.046462,-65.89813,255.048665
100,-0.608505,13.900141,5.581913,6.078118,0.0,-56.835846,-35.298443,-54.966167,-30.976742,-46.288295,-25.387699,-37.907398,-19.156723,-29.836738,0.0,19.327237,20.93071,38.40846,20.354319,39.589375,18.096589,38.971933,13.934351,39.105561,0.0,69.302044,28.448341,90.72076,18.419872,89.900768,9.070175,75.68034,0.477585,52.93975,0.0,-3.976578,29.580041,61.550798,46.706085,79.622859,58.953551,88.270633,66.641502,89.763598,37.40439,289.059356,-60.228464,261.239536
101,0.084481,12.993053,5.005554,5.899634,0.0,-54.876732,-40.07761,-40.891858,-36.326123,-27.985589,-30.687802,-19.404831,-24.06736,-18.213147,0.0,25.720281,14.746838,43.290719,9.811325,39.933127,3.965685,31.977574,-2.853079,22.698278,0.0,69.059612,29.211491,89.674587,19.099434,88.933926,9.21801,73.923649,-0.211292,51.096336,0.0,-2.075357,30.173993,61.946569,46.738517,79.752547,58.648245,88.792066,66.389412,90.262788,37.601687,302.151309,-55.110094,267.23807
102,0.387977,10.341662,4.166611,5.42139,0.0,-53.821506,-44.595646,-27.540035,-42.27903,-13.372616,-36.965504,-6.149574,-30.078232,-10.733803,0.0,31.520115,8.280125,41.357141,1.886611,39.27961,-4.568764,30.230273,-11.255185,18.254472,0.0,68.728946,29.749889,88.451008,19.619636,87.651821,9.381225,72.416462,-0.542599,49.80764,0.0,-0.199071,30.78447,62.460591,47.054271,79.710198,58.7858,88.722758,66.495425,90.042376,38.123428,312.598545,-50.809719,272.765034
103,-0.0783,7.053824,2.716598,4.755943,0.0,-51.069031,-47.350045,-16.377434,-46.2514,-2.40033,-41.222798,2.084747,-34.004013,-6.537369,0.0,32.186476,6.025963,40.65699,-0.201578,39.075043,-6.541061,30.080849,-12.994411,17.405305,0.0,68.641468,29.975327,87.74326,20.10981,86.899716,9.884606,71.789326,-0.158798,49.76144,0.0,1.809781,31.49003,62.551352,47.479978,78.826636,58.943349,87.72124,66.405306,89.324787,38.129013,319.771409,-48.009236,277.640017
104,-4.985093,-3.517007,1.838265,3.803578,0.0,-45.770977,-45.242546,-7.956504,-47.156581,3.450303,-44.600315,3.171364,-39.365592,-20.575389,0.0,27.763516,10.564779,43.888019,9.22109,44.030477,6.370271,37.749966,3.012099,30.837847,0.0,68.301075,29.935363,86.939403,20.449196,86.326664,10.376541,71.609951,0.405361,49.921886,0.0,3.340525,31.819074,61.853844,47.780579,77.225152,59.133776,86.226892,66.48347,88.216577,33.23188,316.385186,-46.083011,281.574379
105,-7.076293,-4.946307,1.07444,2.745448,0.0,-34.651623,-39.732033,3.198761,-44.040402,10.404121,-43.504212,4.902671,-39.805813,-31.125893,0.0,20.263027,13.693697,47.394578,18.401067,49.542282,20.484884,45.918965,21.595638,43.502585,0.0,67.956218,29.779586,86.320759,20.478264,85.607494,10.420681,71.083225,0.446331,49.422649,0.0,4.382155,31.623794,61.029118,47.644383,75.869199,58.975917,84.662507,66.291142,86.879668,26.280602,311.57682,-44.883556,284.457768
106,-9.349869,-3.886954,0.204002,1.37969,0.0,-18.147068,-31.018799,17.986473,-37.440365,20.625778,-39.243942,10.598259,-37.639481,-38.236531,0.0,9.736879,15.127505,49.358858,25.222598,53.580215,31.742355,53.26167,36.452689,55.163743,0.0,67.6161,29.742027,86.057247,20.663109,85.514042,10.762928,71.373127,0.926777,49.986363,0.0,5.290775,31.497613,60.475649,47.683532,74.957442,59.053487,83.584728,66.327192,86.173132,17.053459,307.833553,-44.556828,285.981145
107,-9.124718,-3.280206,0.065346,0.409985,0.0,-2.918117,-23.192493,30.667465,-31.776661,30.122521,-35.733421,16.245735,-35.805714,-41.625629,0.0,2.844384,15.478692,49.279249,29.868822,55.10398,39.883516,58.211718,47.671775,64.224306,0.0,67.366665,29.740928,86.008381,20.782425,85.424915,10.910763,71.551472,1.046699,50.293636,0.0,6.023494,31.199692,59.999455,47.457761,74.344026,58.815638,82.805315,66.048402,85.834543,8.030794,304.664174,-44.389429,286.501957
108,-9.332519,-4.419971,0.234318,-0.116992,0.0,10.944477,-15.147309,41.755142,-25.43089,39.04557,-31.123753,22.28128,-32.69957,-41.623353,0.0,-3.409833,16.335244,49.729607,34.596817,57.944993,47.733365,64.015936,58.192983,73.2659,0.0,67.106598,29.758449,85.938377,20.76844,85.221267,10.761783,71.161033,0.736335,49.895004,0.0,6.225047,30.905773,59.580107,47.31466,73.884664,58.734003,82.153242,65.99784,85.382023,-1.191043,300.307941,-44.044429,286.448703
109,-2.176896,-0.551258,0.255283,-0.387027,0.0,12.605587,-12.415031,44.052086,-22.369537,40.696907,-28.351341,24.652886,-30.325504,-38.537613,0.0,-4.3445,17.045892,48.881897,35.378564,57.322672,48.528734,63.755065,58.873571,73.788383,0.0,66.825909,29.465343,85.647228,20.405914,84.789562,10.300838,70.620449,0.162449,49.358402,0.0,6.762424,30.857916,59.771645,47.390551,74.048735,58.832952,82.208719,66.026282,85.319075,-3.260828,299.787441,-43.682035,286.092434
110,-1.707309,0.017154,0.227554,-0.181879,0.0,13.450103,-10.302143,45.691784,-20.004616,42.017681,-25.863465,27.877498,-27.770142,-30.288472,0.0,-3.463531,17.64807,46.703763,35.909149,57.131345,48.94702,64.072289,59.125896,73.742082,0.0,66.749966,29.180935,85.561375,20.100025,84.62122,9.967541,70.306332,-0.178814,49.23293,0.0,7.028086,30.677481,59.759393,47.282858,73.999643,58.766607,82.165369,65.912612,85.440661,-4.881775,299.801384,-43.368119,285.907344
111,-0.874089,0.869606,0.32341,-0.175372,0.0,14.831303,-9.023231,45.965378,-18.721149,43.689217,-24.454387,29.613739,-26.505821,-22.556087,0.0,-0.507502,16.949624,42.853341,34.808164,55.317958,47.871093,62.918619,58.358586,72.165681,0.0,66.541661,28.807137,85.112126,19.702023,84.178814,9.521782,70.011051,-0.665657,49.156163,0.0,7.261639,30.433926,60.150299,47.037018,74.199172,58.569945,82.205446,65.777256,85.50114,-5.672928,300.640063,-42.961773,285.701045
112,5.964272,-1.114138,0.102608,-0.27511,0.0,3.08004,-14.502651,38.198822,-24.596088,37.207695,-30.596397,22.871246,-33.228573,-34.644688,0.0,-1.509995,18.657554,44.186841,36.212702,56.778652,48.73387,63.47888,58.956317,73.268432,0.0,66.268856,28.525887,84.920734,19.468586,83.974834,9.2784,69.885922,-0.965195,49.155293,0.0,7.486953,30.154048,60.341786,46.740431,74.443555,58.322449,82.475345,65.633216,85.740262,0.379492,299.485234,-42.771017,285.385244
113,1.752136,0.404218,0.134102,-0.195798,0.0,-1.680405,-16.318233,36.703537,-26.607239,36.250214,-32.888672,21.696533,-35.830261,-43.191982,0.0,-3.461938,18.276122,44.814769,36.157077,56.829781,48.754569,63.17313,59.088587,72.542692,0.0,65.949314,27.982979,84.528019,18.98109,83.607525,8.841202,69.67622,-1.372845,49.077701,0.0,7.73272,29.818977,60.342515,46.361616,74.50859,57.955009,82.665091,65.317745,85.954276,2.240335,299.849435,-42.528208,285.149429
114,-3.182373,3.595221,-0.10706,0.031542,0.0,8.141842,-13.248058,42.424667,-23.115543,41.433815,-28.802559,26.385384,-31.038906,-37.528198,0.0,-7.049279,15.188822,42.895899,33.194032,53.875715,46.195347,60.268933,56.656077,67.904742,0.0,65.70131,27.731221,84.68319,18.808892,83.545441,8.750702,69.655037,-1.360313,49.148667,0.0,7.829866,29.346611,60.102145,45.881692,74.377988,57.525869,82.645813,64.995729,85.969689,-0.828484,303.415025,-42.521714,285.15134
115,0.134617,0.179755,-0.106041,-0.005521,0.0,7.936077,-13.541519,41.642475,-23.045551,41.796787,-28.352634,27.511059,-30.3983,-34.836536,0.0,-6.615272,15.327638,43.035962,32.964,53.728922,45.575077,60.061822,55.610112,66.885811,0.0,65.260666,27.500359,84.555909,18.646866,83.420701,8.63324,69.619034,-1.436119,49.145531,0.0,7.940548,29.212675,60.131428,45.690217,74.395835,57.346064,82.729312,64.892545,86.010395,-0.580461,303.560832,-42.514349,285.111871
116,6.720943,-2.357693,-0.114543,0.175631,0.0,-5.477245,-20.80553,32.658669,-30.775245,33.30201,-35.99683,18.567856,-37.877986,-50.68832,0.0,-6.678591,17.125465,47.19342,35.16418,55.926941,47.425651,61.557801,57.255526,69.488357,0.0,64.830585,27.470912,84.673015,18.676872,83.389949,8.683261,69.486774,-1.401638,49.020847,0.0,7.881674,29.100771,59.703176,45.530987,74.112585,57.168445,82.582951,64.726473,85.8524,6.254253,301.178131,-42.515121,285.262494
117,-5.200103,0.272999,-0.038659,0.232293,0.0,5.143798,-16.451329,39.377449,-26.562962,39.355545,-31.901459,24.461265,-33.658047,-43.025814,0.0,-6.756495,15.300604,47.632292,34.108976,56.663957,46.973106,62.273092,56.857853,68.00374,0.0,64.424618,27.39013,84.686932,18.644955,83.408513,8.647191,69.34821,-1.466606,48.808514,0.0,7.806067,28.929833,59.176086,45.325531,73.718876,56.973177,82.261614,64.581297,85.667087,1.167469,301.430928,-42.440461,285.474585
118,0.552795,-0.006014,-0.19733,0.079102,0.0,4.565941,-16.740578,38.792908,-26.834598,37.670609,-32.07233,22.621834,-33.746189,-41.098755,0.0,-5.508792,15.807932,47.474037,34.339873,55.664353,47.119047,61.74599,57.069841,68.104764,0.0,64.120995,27.411392,84.793556,18.698387,83.511681,8.692165,69.339203,-1.459042,48.612831,0.0,7.810649,28.806987,58.819663,45.261607,73.589287,56.99011,82.222069,64.680321,85.664321,1.814793,301.414867,-42.543262,285.54364
119,0.492268,-0.632386,-0.079239,0.078485,0.0,2.158092,-17.358925,37.812687,-27.41391,36.906452,-32.546608,22.279094,-34.073891,-36.724091,0.0,-4.045023,16.488755,47.65136,34.906322,56.189602,47.596303,62.581424,57.470009,68.1986,0.0,63.974968,27.535915,84.843842,18.761387,83.541184,8.643448,69.178688,-1.618595,48.148819,0.0,7.648406,28.746175,58.62999,45.266287,73.49056,57.080623,82.158528,64.832733,85.601422,2.389796,300.771567,-42.539766,285.611211
120,-0.080223,0.890811,-0.194275,0.134665,0.0,3.922004,-17.121666,37.434139,-27.295063,37.604908,-32.575848,22.276668,-34.224621,-36.662568,0.0,-5.788064,15.595425,46.935426,33.749243,55.110835,46.371941,61.781287,56.195073,67.3789,0.0,64.15448,27.375275,84.743958,18.639347,83.534134,8.566887,69.181549,-1.636276,48.041931,0.0,7.30905,28.618204,58.113201,45.209909,73.057443,57.149426,81.630426,65.031285,85.557382,2.417868,301.659831,-42.625746,285.743329
