takenoko1/special-research/HandMotion_SimilarSearch_自分用/NewProject/handData/test_key/d4_feature_d3/130.csv
frame,vel_0x_L,vel_0y_L,vel_0x_R,vel_0y_R,posFromWrist_0x_L,posFromWrist_1x_L,posFromWrist_2x_L,posFromWrist_3x_L,posFromWrist_4x_L,posFromWrist_5x_L,posFromWrist_6x_L,posFromWrist_7x_L,posFromWrist_8x_L,posFromWrist_9x_L,posFromWrist_0y_L,posFromWrist_1y_L,posFromWrist_2y_L,posFromWrist_3y_L,posFromWrist_4y_L,posFromWrist_5y_L,posFromWrist_6y_L,posFromWrist_7y_L,posFromWrist_8y_L,posFromWrist_9y_L,posFromWrist_0x_R,posFromWrist_1x_R,posFromWrist_2x_R,posFromWrist_3x_R,posFromWrist_4x_R,posFromWrist_5x_R,posFromWrist_6x_R,posFromWrist_7x_R,posFromWrist_8x_R,posFromWrist_9x_R,posFromWrist_0y_R,posFromWrist_1y_R,posFromWrist_2y_R,posFromWrist_3y_R,posFromWrist_4y_R,posFromWrist_5y_R,posFromWrist_6y_R,posFromWrist_7y_R,posFromWrist_8y_R,posFromWrist_9y_R,posFromBody_0x_L,posFromBody_0y_L,posFromBody_0x_R,posFromBody_0y_R
6,-4.614624,1.36403,0.68914,0.389991,0.0,17.565651,-11.764469,41.948845,-21.967495,42.275116,-27.786129,26.521179,-30.277634,-22.20052,0.0,-7.428575,11.258261,38.585486,30.59975,50.803126,44.834479,57.026777,55.34246,61.992918,0.0,66.467331,25.507245,85.913109,17.009732,83.714997,7.888321,69.115654,-0.886539,50.009812,0.0,5.668256,28.720994,54.428888,45.488849,68.810991,57.851207,77.888808,66.142645,83.655803,-1.232259,304.950424,-41.1826,287.159883
7,0.081505,-1.555357,0.25438,0.282261,0.0,17.865119,-12.266419,41.196235,-22.33429,42.253349,-27.837582,26.96894,-30.057713,-17.852211,0.0,-4.577953,12.575014,39.471394,31.614803,51.455408,45.753227,58.231108,56.230308,63.743011,0.0,65.998214,25.178924,85.654976,16.682796,83.516967,7.613285,68.892883,-1.088837,49.8414,0.0,5.294777,28.49558,53.984347,45.320492,68.456618,57.685185,77.590455,65.924913,83.21262,-1.482645,304.221482,-41.260111,288.268559
8,-0.823254,-0.687282,0.110801,0.201998,0.0,21.091312,-11.268402,41.531994,-21.212162,43.532925,-26.830628,28.023525,-29.238316,-15.09771,0.0,-3.910876,12.050432,39.374187,31.015367,51.836729,45.397482,58.368218,56.293034,64.435517,0.0,65.626007,24.9096,85.488671,16.292096,83.343361,7.249363,68.617287,-1.315097,49.623619,0.0,4.822028,28.180678,53.723291,45.132228,68.087956,57.562475,77.398856,65.731893,83.002385,-2.460926,304.054642,-41.304337,288.990999
9,5.492718,-2.055499,-0.100078,0.047042,0.0,10.490364,-17.848732,37.102707,-27.959874,37.563995,-33.433972,21.583442,-35.605259,-28.424069,0.0,-6.377113,14.690411,42.860727,34.226957,53.231807,48.25113,59.928985,58.756987,67.722542,0.0,65.49242,24.762886,85.555218,16.067264,83.374019,7.058693,68.670399,-1.393021,49.74068,0.0,4.714742,27.912483,53.635852,45.022373,67.898443,57.523053,77.382257,65.611924,82.887738,2.983727,302.33152,-41.45248,289.370418
10,-6.708733,-0.11446,-0.183678,0.031604,0.0,21.362595,-12.221146,44.521156,-22.408276,44.664711,-28.198574,28.664475,-30.484634,-14.453419,0.0,-5.573469,13.801884,42.733496,33.800545,54.25201,48.436825,60.832578,59.19765,66.473935,0.0,65.492191,24.852436,85.784237,16.080231,83.479969,7.031136,68.724232,-1.369686,49.845097,0.0,4.543891,27.906567,53.616017,45.060992,67.843325,57.536131,77.34596,65.521596,82.737536,-3.745852,302.409431,-41.657004,289.594393
11,-0.375401,0.710093,-0.146358,0.030381,0.0,22.475178,-11.348716,45.752049,-20.9664,45.311543,-26.519439,28.947339,-28.705204,-13.305828,0.0,-6.708355,13.832833,42.1266,33.512973,52.938726,48.000595,59.573808,58.7991,65.722951,0.0,65.330314,24.636074,85.781616,15.805801,83.652786,6.791267,68.913391,-1.481072,49.95623,0.0,4.401656,27.728948,53.747805,44.97343,67.962602,57.496772,77.311985,65.460105,82.556521,-4.124989,303.264042,-41.807098,289.769292
12,-0.676483,-0.259488,-0.028748,0.03316,0.0,22.672039,-10.202545,46.475476,-20.060863,46.602986,-25.88903,29.960804,-28.472717,-11.529625,0.0,-6.307817,13.422526,40.570836,33.310037,52.778843,47.914775,59.396918,58.939014,66.487039,0.0,65.199715,24.623909,85.755936,15.820438,83.709114,6.803616,68.947128,-1.491852,50.022743,0.0,4.335941,27.717314,53.666196,44.963006,67.87236,57.45162,77.186261,65.397638,82.452484,-4.811995,303.129552,-41.846369,289.92745
13,6.551628,-0.513307,-0.078907,-0.164578,0.0,8.842232,-17.793102,38.860989,-28.073867,39.375081,-33.576255,23.324215,-35.662342,-27.080051,0.0,-5.734168,14.288799,41.335726,34.239801,52.74803,48.479743,59.614182,59.191055,68.46824,0.0,65.062946,24.762772,85.760456,16.042557,83.648014,7.030026,69.086506,-1.320568,50.273998,0.0,4.554217,28.038343,53.814731,45.213405,68.035283,57.56329,77.362325,65.410841,82.501058,1.727422,302.718001,-41.937487,289.864628
14,-4.580772,1.396955,0.053055,-0.238455,0.0,15.454536,-13.810181,43.641781,-23.689842,43.662403,-29.021908,28.642719,-30.616962,-21.422001,0.0,-5.567195,12.707531,41.249708,32.680344,52.828132,47.225221,59.107149,58.064975,66.893901,0.0,64.905086,24.779766,85.635052,16.079773,83.527508,7.076877,69.163868,-1.252224,50.428196,0.0,4.881259,28.323346,54.075787,45.504768,68.228141,57.769598,77.513637,65.508382,82.585977,-2.863226,304.2104,-41.894308,289.721617
15,-1.609943,3.766689,0.024204,-0.332291,0.0,15.059108,-10.865971,45.595642,-20.095734,44.776016,-25.597424,29.296051,-27.734013,-25.179795,0.0,-11.13392,10.904814,38.075847,29.682941,49.89332,43.748129,55.653868,54.354689,64.862682,0.0,64.614967,24.808445,85.549233,16.096733,83.482475,7.123661,69.356529,-1.16962,50.705956,0.0,5.379671,28.620439,54.33399,45.899032,68.447503,58.142051,77.829935,65.799683,82.791259,-4.48344,308.06169,-41.880375,289.473927
16,8.02811,-0.60944,-0.08622,-0.266219,0.0,-0.037399,-19.58963,36.507855,-29.123726,36.984226,-34.07159,22.303883,-35.605236,-41.390842,0.0,-10.366955,11.48927,39.242869,30.105735,50.193255,43.842583,55.951073,54.484686,67.079757,0.0,64.578507,25.248574,85.749253,16.543785,83.50708,7.477444,69.46447,-0.964714,50.789017,0.0,5.617176,28.962339,54.476362,46.203573,68.663791,58.347952,78.121336,65.920381,83.096999,3.538565,307.512232,-41.9727,289.26769
17,2.431709,0.132356,-0.054863,-0.289461,0.0,-4.596633,-22.730999,34.347187,-32.622837,34.260373,-37.552471,19.745465,-38.795208,-49.273967,0.0,-13.32291,11.265894,40.42266,30.085468,50.578404,43.812128,56.196432,54.109182,66.491177,0.0,64.623711,25.492596,85.878113,16.749894,83.551552,7.627877,69.627732,-0.850055,50.888695,0.0,5.892348,29.140575,54.776494,46.408498,68.997935,58.537118,78.342945,66.050439,83.237048,5.970182,307.683629,-42.027655,289.01727
18,-5.863311,1.743498,-0.073242,-0.156549,0.0,7.162548,-15.902722,42.234615,-25.509236,40.382206,-30.765072,25.727611,-32.277386,-41.06099,0.0,-17.460497,9.800322,38.652745,28.78267,49.996518,42.870323,55.241055,53.15699,64.455167,0.0,64.792465,25.737431,85.894409,16.958817,83.724358,7.775345,69.71283,-0.778656,50.703301,0.0,5.876984,29.067339,54.900105,46.373904,69.19866,58.55715,78.330582,66.123514,83.290474,0.114212,309.459367,-42.093556,288.892961
19,-2.492237,2.951275,-0.013641,-0.065555,0.0,9.818,-11.148526,45.96698,-20.46468,43.733345,-26.419098,27.709808,-29.296303,-35.895321,0.0,-22.584546,7.613542,33.049166,25.698101,46.609779,39.645654,52.655021,49.995715,62.442313,0.0,64.986625,25.942486,85.725586,17.219433,83.718338,8.005737,69.609329,-0.660187,50.425621,0.0,5.743332,29.097548,54.927214,46.374449,69.262338,58.564424,78.31186,66.182412,83.318732,-2.369751,312.424706,-42.098923,288.84147
20,9.355625,-3.698578,0.103546,0.058651,0.0,-3.578041,-21.059841,35.470562,-30.93132,35.197094,-36.152893,19.894214,-38.075077,-48.436341,0.0,-17.21641,10.180445,37.137488,28.589193,48.674528,42.24484,54.991076,52.682562,65.515051,0.0,65.141579,26.135616,85.589584,17.425529,83.595978,8.139908,69.337692,-0.655483,50.004547,0.0,5.582731,28.957201,54.913641,46.157408,69.257632,58.349174,78.112369,66.034112,83.158798,6.997147,308.738002,-41.984104,288.911995
21,-7.038243,-0.722764,0.191826,-0.16517,0.0,7.406239,-14.395156,43.02974,-24.399879,42.091256,-30.072635,26.478653,-32.238109,-35.242504,0.0,-18.103541,10.023982,36.774223,28.980037,49.754851,43.020808,56.022728,53.277268,64.307262,0.0,65.298248,25.977814,85.298103,17.263046,83.470848,7.983192,69.151863,-0.827545,49.682831,0.0,5.744196,28.650079,54.973144,45.918767,69.295732,58.24636,78.097154,66.063555,83.156624,-0.033463,308.027916,-41.784645,288.759503
22,-1.104011,0.664447,0.398517,-0.083054,0.0,9.594349,-12.96159,45.06578,-22.003773,44.243088,-27.046772,28.48217,-28.71777,-34.936844,0.0,-16.936409,10.287384,36.661022,28.791574,48.323649,42.628841,55.211932,52.986213,64.734365,0.0,65.411992,25.868317,84.932019,17.115658,83.090756,7.791779,68.818898,-1.06295,49.197041,0.0,5.680803,28.384527,54.877961,45.57783,69.263374,57.913488,78.063944,65.783689,83.036507,-1.143476,308.704342,-41.39213,288.688428
23,0.542736,-0.064542,0.554936,-0.434303,0.0,5.139336,-13.282677,44.159077,-21.900112,44.736454,-26.435532,28.862881,-27.695698,-35.11686,0.0,-11.32789,11.484231,37.842925,28.883916,47.923853,41.738598,55.235608,51.682971,65.457808,0.0,65.505386,25.998482,84.989685,17.231106,82.972435,7.782875,68.712616,-1.245964,48.967529,0.0,5.842354,28.185469,55.077007,45.142453,69.440524,57.395871,78.323642,65.276027,83.154982,-0.623136,308.665946,-40.85959,288.280271
24,4.634983,-6.685902,1.131283,-1.119474,0.0,-2.330372,-18.178459,37.776123,-27.075451,40.163612,-31.5966,24.7649,-32.6922,-42.560452,0.0,-4.827289,16.429525,45.059461,34.236577,53.43562,46.737343,60.293411,56.471061,72.140425,0.0,65.234928,26.016586,85.086078,17.252002,83.110302,7.62228,68.617092,-1.778,48.284465,0.0,5.917369,27.75586,55.600775,44.452949,70.277206,56.639022,78.792118,64.673874,83.445012,3.975597,302.012002,-39.764557,287.192755
25,-3.635239,6.282697,2.363514,-3.240723,0.0,-1.839992,-14.178669,35.105484,-22.123855,41.870316,-26.12836,27.878701,-26.859981,-28.028011,0.0,5.736082,13.595477,39.985701,25.872472,46.58929,33.872892,50.010238,39.396886,57.161591,0.0,65.171058,25.795372,84.17585,17.092849,82.215088,7.36988,67.856117,-2.352848,46.841079,0.0,6.199865,26.404241,55.951653,43.174752,72.354106,55.741553,80.532677,64.355044,84.334193,0.243976,308.394954,-37.497425,284.052287
26,5.853299,-5.653411,3.672523,-4.333088,0.0,-10.656933,-19.142727,10.622818,-23.280819,17.653106,-23.79522,9.292133,-21.379956,-31.941514,0.0,6.273064,18.073926,42.974693,29.505891,50.889527,36.790266,55.458193,41.735214,63.365988,0.0,62.196259,25.987312,80.608795,17.004707,76.317375,6.626141,57.729321,-4.26297,34.669819,0.0,11.38995,24.488299,57.249474,39.739453,73.743157,51.226684,81.968139,59.192969,82.253784,5.96564,302.970109,-33.956537,279.947765
27,7.026924,-6.161419,4.755038,-14.696327,0.0,-24.512387,-21.460614,-14.163369,-22.332962,-6.998944,-20.326516,-9.121914,-16.276406,-31.379517,0.0,6.106511,19.516576,44.64225,30.4463,55.148503,37.440917,60.337217,41.956626,67.575304,0.0,60.802396,26.924486,76.177637,17.661249,69.270933,6.717018,48.350109,-4.992091,24.414653,0.0,15.105609,20.312947,54.249751,34.957044,71.164615,46.725846,80.009589,55.621579,79.250177,12.850273,297.156728,-29.34379,265.599476
28,11.096408,-9.256683,5.977581,-24.646133,0.0,-36.434898,-25.372535,-40.128593,-23.432418,-32.963996,-18.909999,-28.743118,-12.992969,-32.911468,0.0,7.871535,20.986779,46.438286,32.76525,59.793949,40.472702,66.266368,45.103118,72.684434,0.0,60.888353,28.224134,70.403532,18.629831,60.558877,7.281234,39.360259,-4.71488,15.876731,0.0,17.049882,13.832809,46.579633,28.843914,64.361065,42.239023,74.406913,53.584186,74.902626,23.780296,288.301818,-23.532594,241.355116
29,8.755326,-4.198336,6.058078,-37.131751,0.0,-42.520226,-25.096424,-58.787522,-19.836914,-51.563141,-11.817696,-40.742775,-3.05595,-26.723843,0.0,8.08156,17.774757,43.291348,29.257913,58.209915,36.970354,66.086982,41.29581,69.587317,0.0,59.29798,30.44826,63.742762,21.840781,52.564093,11.543152,32.587544,0.804423,11.991062,0.0,16.807863,5.034214,35.932497,19.883348,53.317473,34.529521,64.661196,48.014675,66.705771,32.379799,284.669403,-17.630339,204.789286
30,17.342422,-26.223746,0.800537,-35.701118,0.0,-46.525165,-27.721721,-75.31343,-19.234188,-72.791244,-8.45446,-57.288002,2.601425,-31.928455,0.0,7.317461,23.814985,53.927599,40.995272,73.737094,53.566334,86.031119,61.726762,92.98571,0.0,60.551543,32.881857,65.169108,23.870779,51.536208,13.231465,31.43327,2.090739,11.053769,0.0,15.15528,-8.87819,10.438209,1.812739,22.784963,13.952579,32.7843,26.767327,35.218896,49.596714,259.427532,-16.955309,170.070043
31,18.648423,-20.861623,-1.999225,-43.71258,0.0,-52.306916,-27.911294,-76.185688,-18.560257,-73.449841,-7.245965,-57.358613,3.663803,-32.195229,0.0,19.794897,22.390959,58.022046,40.091307,77.712338,53.550155,89.583323,62.355406,96.366829,0.0,63.855898,34.812967,67.00379,25.846063,52.9573,15.431362,36.361644,4.724172,18.881469,0.0,8.717991,-24.690809,-19.471146,-17.470056,-11.259737,-7.233956,-2.403968,5.253565,2.61739,68.086934,239.868845,-19.112737,127.660399
32,18.487541,-24.483112,-2.227232,-38.352909,0.0,-49.808922,-28.948036,-71.343418,-19.727921,-67.131958,-8.276253,-51.933541,3.168823,-30.312767,0.0,30.113935,23.408062,57.103508,40.609973,76.116077,53.808506,86.310897,62.30435,92.820737,0.0,64.347313,35.19342,68.454368,24.808182,54.04042,13.13245,37.258095,1.270191,17.534397,0.0,2.246264,-33.962053,-47.483263,-31.284796,-44.82203,-24.273439,-38.003272,-13.629662,-30.861936,86.530466,217.471888,-21.383978,91.393645
33,25.872917,-38.771237,-4.895542,-37.573008,0.0,-54.216843,-31.891731,-69.106384,-23.372452,-65.400192,-12.766617,-51.867279,-1.706955,-33.658379,0.0,32.257013,20.99041,52.064236,39.621664,72.641931,54.413246,83.638259,64.543265,91.95352,0.0,61.597972,35.195194,69.11372,24.160675,55.973751,11.758438,38.326046,-1.267628,16.123478,0.0,-3.608002,-44.899348,-71.619325,-47.193141,-73.068293,-43.995526,-67.688813,-36.104545,-60.393366,112.6745,181.104752,-26.008403,56.224738
34,29.30278,-50.443801,-7.275296,-25.148454,0.0,-59.233681,-33.827019,-68.418182,-26.137527,-65.132286,-16.719337,-53.337547,-6.558037,-39.803101,0.0,30.691196,17.229088,46.408726,36.92348,68.109457,53.82847,80.061058,66.543275,92.443498,0.0,60.423981,34.694859,72.751534,21.292431,57.667351,6.499833,35.233681,-9.313888,6.623486,0.0,-5.637726,-53.281059,-92.580207,-60.001307,-101.204572,-60.132156,-99.532213,-54.306344,-90.637174,142.319321,132.835127,-32.941658,33.25046
35,25.522888,-40.618013,-2.600246,-24.828914,0.0,-58.015205,-30.562523,-61.013237,-24.038315,-58.077209,-16.141731,-47.887459,-7.602127,-38.544182,0.0,15.673267,1.575494,21.066882,17.188524,39.107129,31.990474,50.347217,44.516008,61.947859,0.0,56.281185,33.491375,70.647755,19.118442,52.879703,3.385437,27.325928,-13.374756,-5.188271,0.0,-4.06403,-54.628571,-97.894244,-62.275124,-111.16337,-62.744217,-109.946346,-57.061302,-97.677299,167.940222,94.340072,-35.443891,10.544504
36,23.428437,-45.528103,0.410351,-14.348592,0.0,-53.187493,-24.115403,-51.444558,-19.106209,-49.480477,-13.561341,-41.622208,-7.500367,-36.829743,0.0,-5.114762,-14.49008,-6.638268,-2.596012,7.590114,10.369018,18.377169,22.815412,29.041997,0.0,52.646873,33.305855,71.390716,18.232738,52.617965,1.441761,23.368377,-16.480706,-13.40617,0.0,1.012788,-51.387723,-93.513823,-60.000047,-112.723129,-60.746072,-114.96528,-55.023056,-99.723404,191.48556,50.612178,-34.916639,-2.003879
37,25.077919,-51.057847,0.79097,-8.2229,0.0,-52.572625,-19.346833,-47.744202,-15.196198,-47.042038,-11.308297,-40.356102,-7.42479,-36.265069,0.0,-25.179792,-28.820612,-34.983794,-19.012775,-24.216779,-6.706527,-11.952138,6.434585,1.41703,0.0,50.38124,35.208709,76.959159,21.440357,55.651748,5.418285,26.072731,-12.057599,-10.101277,0.0,8.566017,-50.544145,-84.167979,-59.979404,-108.355455,-61.605645,-113.688067,-56.872902,-99.746463,216.585349,0.611776,-34.103799,-9.169334
38,19.878524,-42.856845,4.801975,2.380459,0.0,-45.862999,-13.996444,-43.898758,-12.177932,-45.29338,-11.09745,-43.74282,-10.546554,-44.348053,0.0,-40.242839,-39.783194,-60.809277,-33.563603,-55.4646,-23.109412,-42.210868,-10.209196,-23.391062,0.0,48.572834,37.619854,86.011905,24.735706,62.472324,8.991142,32.04475,-8.328415,-7.095669,0.0,16.13868,-44.290557,-71.531763,-55.000073,-102.62388,-58.317675,-112.444536,-55.250434,-99.579001,236.236633,-41.138702,-29.529064,-5.682508
39,15.109703,-38.296583,9.543606,2.797702,0.0,-41.219627,-11.982536,-42.142158,-11.906158,-46.961998,-13.125183,-50.534843,-15.379394,-54.5186,0.0,-48.83239,-46.453974,-84.083567,-43.010475,-83.57524,-34.38866,-69.086738,-22.353912,-45.968329,0.0,49.578575,39.790065,90.610153,28.140129,68.741455,13.234542,40.867286,-3.486157,3.585262,0.0,23.152637,-37.702171,-61.550014,-49.803863,-93.754632,-55.388965,-103.993699,-55.250095,-96.771804,251.369876,-76.936709,-19.961918,-0.38623
40,6.366188,-36.911593,12.117611,-0.21044,0.0,-39.539154,-10.867401,-40.037429,-13.772369,-50.004547,-18.363372,-59.559562,-23.837425,-68.156959,0.0,-49.74683,-46.704974,-96.057255,-42.003736,-96.86259,-31.989838,-78.555274,-18.082148,-46.202264,0.0,51.012256,40.133525,92.219272,29.121002,73.381221,14.419269,47.407722,-2.282547,11.407653,0.0,27.546557,-31.057851,-51.736113,-43.527982,-83.370867,-50.205505,-94.872971,-51.565397,-91.74166,258.294571,-110.848584,-7.2858,2.403048
41,-2.856124,-29.359385,13.519123,-8.364396,0.0,-41.205986,-11.912407,-44.176598,-16.502518,-56.239609,-23.123887,-70.885781,-30.878678,-81.94883,0.0,-48.486751,-45.198853,-103.756565,-39.194777,-104.703592,-27.453535,-82.128332,-11.707301,-40.024607,0.0,53.287765,43.025665,98.225715,32.782425,79.810936,18.417114,54.745628,1.909881,19.693771,0.0,27.794861,-29.778938,-47.727764,-42.407379,-80.626407,-49.452132,-92.520024,-51.175586,-91.768846,256.087555,-136.658355,6.882431,-2.411734
42,-9.037079,-17.840904,13.660217,-17.421433,0.0,-42.194138,-15.702187,-51.331467,-22.667839,-66.960434,-31.390709,-85.075493,-40.915169,-99.862404,0.0,-47.168083,-45.84408,-105.370891,-38.920291,-105.365406,-25.812163,-79.78952,-8.374693,-31.291132,0.0,54.827156,43.685989,98.731132,34.089683,81.5923,20.168266,57.609215,3.894939,23.411087,0.0,23.345422,-30.958958,-48.968108,-44.412925,-81.682655,-51.936095,-93.134315,-53.809501,-93.743634,247.853634,-150.678563,21.345806,-16.012471
43,-29.662651,-12.436163,11.60083,-21.25845,0.0,-44.629189,-20.550087,-61.67363,-25.454476,-70.642228,-31.732201,-82.294556,-38.713646,-94.530373,0.0,-47.206007,-45.394058,-93.320541,-36.157991,-83.507628,-20.922719,-58.121714,-1.946191,-16.133805,0.0,56.950264,40.978134,94.212135,30.794792,77.907578,16.771797,54.458839,0.595024,23.254555,0.0,14.739178,-33.430213,-61.289137,-45.850518,-89.650934,-52.519532,-99.335075,-53.623512,-97.636751,218.359738,-158.635194,33.115391,-32.791389
44,-38.867077,-4.933729,1.404551,-31.015224,0.0,-44.538025,-21.940041,-60.684826,-23.849533,-66.673336,-27.522034,-73.612416,-32.083695,-82.52496,0.0,-44.267823,-41.815359,-80.92327,-28.630397,-57.112228,-10.136789,-32.13868,11.079175,4.773546,0.0,56.364069,36.962224,88.168539,29.634996,74.279005,18.470495,53.77466,5.040693,25.211763,0.0,2.346886,-38.501252,-70.10927,-48.570814,-93.328583,-51.80751,-98.923007,-48.944212,-89.529664,178.715224,-159.632337,33.742505,-59.870027
45,-47.089691,-1.890668,-8.881291,-37.790082,0.0,-39.520958,-18.829766,-49.292279,-15.501023,-54.590207,-15.60212,-58.264584,-17.826668,-63.10516,0.0,-42.054379,-34.839004,-68.822184,-15.024762,-25.568393,9.03408,-0.862807,33.634347,31.516896,0.0,55.048651,34.003389,79.528834,33.551359,72.869173,29.070391,58.47254,21.611521,35.910605,0.0,-12.472073,-46.715511,-77.964296,-54.082605,-94.570819,-52.635858,-91.959848,-44.37034,-73.885725,130.150097,-158.293604,23.385778,-94.430708
46,-32.278222,23.478862,-5.561165,-26.164816,0.0,-42.323204,-25.642067,-50.924995,-21.082649,-55.338787,-18.538215,-53.078395,-16.893264,-55.595821,0.0,-42.614928,-26.260282,-58.207026,-3.566701,-10.042539,21.349101,14.918845,45.038845,44.912014,0.0,59.282278,27.148035,65.319941,24.6425,60.570276,19.053675,46.616186,10.612078,19.177214,0.0,-15.943688,-49.671112,-77.773988,-59.18308,-102.883469,-59.111578,-102.989488,-51.297131,-85.32234,95.606735,-132.817057,15.559473,-118.597839
47,-23.838478,26.481868,-21.075428,-25.299564,0.0,-45.624252,-30.213959,-54.985405,-24.211658,-58.172304,-19.188194,-51.873373,-14.339813,-49.267044,0.0,-37.234146,-17.902808,-44.570559,7.558253,9.159668,33.680677,34.354688,57.069042,60.976924,0.0,56.724913,23.621081,60.019186,19.561518,53.179453,13.20769,38.44047,4.346106,8.047091,0.0,-20.414041,-52.098826,-84.080564,-60.506993,-109.754665,-59.067165,-107.245479,-49.870562,-86.517916,68.567379,-106.723263,-8.716833,-144.285477
48,-4.099296,34.909437,-27.826938,-22.028805,0.0,-47.564301,-31.94545,-57.525639,-27.183598,-67.63983,-22.256333,-63.270258,-16.534539,-54.660484,0.0,-27.235124,-11.683056,-40.669383,14.335,10.488269,40.179812,36.71633,62.878262,67.326062,0.0,47.888368,22.009214,55.579771,17.033529,44.388902,10.141897,27.927972,1.227316,-1.428355,0.0,-17.300962,-54.371002,-82.335992,-63.001249,-111.875543,-60.792195,-108.351816,-50.580229,-82.885809,61.671141,-73.83827,-39.340713,-168.338726
49,8.544124,32.982802,-29.345679,-5.894122,0.0,-54.004051,-36.008949,-68.663978,-33.468784,-81.369226,-28.802536,-77.201917,-21.976181,-64.406536,0.0,-19.146495,-8.784706,-35.274784,15.230696,9.594343,39.092355,35.388577,60.081971,67.386625,0.0,40.161885,21.465443,54.228802,12.381844,35.598461,1.997979,14.853928,-9.918171,-18.746566,0.0,-18.207016,-55.533703,-83.816806,-66.056059,-119.465033,-65.6897,-119.243144,-57.284881,-95.534371,67.828416,-44.56212,-71.073241,-177.9395
50,19.335617,30.8062,-24.306049,2.209134,0.0,-60.722763,-41.926071,-88.129692,-42.265697,-95.742273,-38.276481,-88.675352,-30.699096,-74.427257,0.0,-12.721874,-7.793106,-26.964686,10.627125,1.064154,29.610733,25.637594,47.038845,57.117346,0.0,32.085709,19.630234,52.079739,2.64323,21.117027,-14.768761,-7.343216,-31.995621,-45.658539,0.0,-5.973698,-47.735831,-77.698759,-60.609259,-121.002768,-63.839609,-127.266026,-59.545713,-108.857912,85.063734,-19.255995,-97.479589,-181.230441
51,22.158348,1.364869,-36.489555,15.208286,0.0,-64.462921,-41.122077,-91.7914,-41.357082,-97.296861,-37.637878,-89.835187,-30.722122,-74.78992,0.0,-5.001612,-12.019409,-28.435568,2.279766,-4.533261,18.226557,15.279692,34.003247,41.558811,0.0,17.752098,21.097847,52.434047,5.258228,16.88491,-11.046238,-11.693963,-26.695931,-44.615902,0.0,-7.063185,-47.260651,-84.761974,-57.669452,-118.665864,-58.666524,-120.166609,-52.982267,-98.305399,106.211105,-22.956031,-134.980121,-171.08706
52,21.42199,-17.676969,-19.837109,29.298403,0.0,-63.05349,-39.251427,-86.327168,-40.627029,-88.837681,-38.272293,-80.512745,-33.115952,-67.79258,0.0,-8.381427,-16.491871,-32.268076,-3.397313,-11.051302,11.809596,6.932715,27.390883,29.696075,0.0,12.548023,19.929314,45.77179,4.554234,11.206284,-11.562641,-17.470699,-26.994083,-48.456436,0.0,0.352385,-44.088758,-78.12358,-54.423677,-111.827611,-55.476131,-115.158837,-49.746883,-92.80447,128.204372,-43.699331,-154.245953,-144.854988
53,14.325005,-25.533854,-9.933437,36.966446,0.0,-57.884697,-36.143853,-75.667534,-35.552239,-74.774346,-32.048447,-64.878571,-26.235581,-55.016144,0.0,-18.417385,-21.687075,-47.531855,-13.497859,-35.175241,-3.015477,-21.885852,8.435375,-3.617701,0.0,15.813961,20.472141,44.982273,6.060962,12.017727,-9.217461,-13.554829,-24.355763,-46.374848,0.0,7.49927,-39.78735,-69.997218,-50.422773,-100.992675,-52.43286,-105.909664,-47.857293,-90.576833,144.061158,-71.593517,-162.647609,-110.248874
54,15.686988,-36.123837,3.108249,34.305287,0.0,-53.123817,-33.05619,-70.559509,-33.559982,-70.595558,-32.457344,-64.291763,-29.879814,-60.092788,0.0,-28.293974,-28.061694,-63.40209,-21.624439,-58.65242,-11.87483,-42.8989,-0.385974,-22.007964,0.0,19.54263,24.08947,50.248547,11.963116,10.757527,-1.68972,-10.145656,-15.284626,-25.742843,0.0,23.021607,-31.940953,-55.774409,-42.895949,-78.819061,-46.320688,-84.86428,-44.158609,-80.56763,162.313917,-109.261065,-156.973589,-77.487298
55,9.790558,-41.83579,10.440285,36.674474,0.0,-51.961235,-30.875335,-67.985069,-33.419288,-73.146034,-34.825767,-72.628555,-35.22306,-71.859192,0.0,-38.339687,-35.771987,-81.161855,-29.705482,-78.40869,-19.362356,-60.523285,-6.862471,-35.322966,0.0,24.238426,32.520527,61.242737,21.274223,26.84111,7.406044,5.168507,-7.250828,-12.423271,0.0,27.881707,-32.250363,-50.267981,-44.340016,-73.781056,-48.854675,-79.14511,-47.590783,-74.774351,176.408277,-151.146064,-142.229502,-40.862033
56,-8.364944,-37.384045,20.045242,17.074434,0.0,-47.137802,-26.497879,-65.408615,-31.400368,-75.230805,-35.475998,-81.084,-38.680573,-81.626839,0.0,-42.792065,-40.259226,-88.399865,-32.698467,-87.009012,-19.906351,-64.713947,-4.563468,-32.502797,0.0,29.82383,35.885273,71.677185,25.4431,39.713242,11.624829,19.118409,-3.769111,-0.808708,0.0,33.653851,-28.463383,-43.271814,-40.679881,-66.163053,-46.033234,-71.9533,-45.982735,-71.240061,172.417265,-187.602491,-117.810328,-22.859981
57,-18.811272,-22.48536,22.344864,2.03701,0.0,-46.0112,-25.017837,-69.351494,-30.10659,-83.292251,-35.048355,-94.664749,-39.198761,-96.206303,0.0,-44.860499,-44.452839,-97.368919,-38.251929,-98.595103,-25.993931,-74.266901,-10.183492,-37.044864,0.0,31.792053,42.487507,80.30127,32.573673,53.090698,18.980862,33.985863,3.841358,16.366986,0.0,37.118605,-26.324799,-46.623413,-41.106916,-65.051774,-49.156897,-70.139656,-52.289829,-72.778276,157.416836,-208.549312,-91.654621,-19.284432
58,-27.629196,-21.437569,15.557594,-12.856229,0.0,-51.48143,-27.31263,-79.480728,-37.347565,-92.414429,-46.840805,-104.010132,-55.119312,-109.093082,0.0,-41.957455,-46.862743,-92.562092,-37.654498,-85.106071,-21.250835,-53.357705,-1.109132,-13.731676,0.0,33.256021,46.597675,84.889068,36.686539,61.130659,22.777539,40.500042,7.418615,24.508666,0.0,35.521449,-27.00905,-52.248992,-43.786476,-70.484512,-53.501164,-74.503752,-58.213902,-77.759963,131.824717,-226.212214,-74.05995,-28.365994
59,-40.976078,-4.85914,8.076673,-22.994952,0.0,-48.383121,-26.76152,-75.607712,-38.740048,-87.132957,-49.472073,-95.290596,-58.371864,-101.689369,0.0,-40.290078,-48.574891,-90.345828,-40.177643,-77.111418,-24.83502,-46.569571,-5.781199,-13.535597,0.0,34.557318,46.521847,83.849682,34.712234,68.739802,19.242728,43.930885,2.382654,12.324234,0.0,29.400051,-31.524495,-63.082278,-49.147251,-87.652116,-58.850031,-90.417297,-62.615936,-85.129883,91.565497,-227.449621,-65.266419,-47.739213
60,-45.212616,7.091226,-0.252963,-30.132592,0.0,-37.746632,-22.956001,-61.021202,-36.316532,-74.221344,-48.165699,-79.62291,-57.747654,-89.236427,0.0,-39.776259,-50.847676,-90.859131,-44.274717,-72.271555,-31.345023,-44.751808,-14.769059,-22.56711,0.0,36.651295,42.880325,81.397522,30.600454,62.193798,15.535658,38.428248,-0.891106,7.427525,0.0,20.633591,-36.021441,-75.134689,-53.754598,-99.600667,-63.408515,-103.411299,-66.994787,-98.496234,44.771811,-217.37188,-67.100452,-74.88529
61,-46.979267,16.629972,-7.039181,-34.98104,0.0,-19.14608,-14.95237,-35.244461,-29.156914,-54.220367,-42.210182,-57.919945,-53.263138,-73.565151,0.0,-43.327343,-54.4732,-96.000906,-51.243264,-72.754523,-42.019429,-50.619077,-28.971173,-42.299384,0.0,39.017487,40.310898,77.149315,26.736918,53.32243,11.326189,28.597842,-5.036201,-2.069721,0.0,10.417726,-40.529366,-84.908534,-58.055515,-109.556327,-66.978005,-111.951525,-69.322009,-103.110599,-4.87809,-199.049807,-76.810267,-108.174229
62,-43.50206,30.491079,-18.860218,-29.941024,0.0,-22.844181,-18.546673,-41.342915,-31.962261,-57.445415,-43.493534,-56.349976,-52.533222,-66.953018,0.0,-33.507917,-46.667766,-78.242561,-41.580508,-51.866218,-31.067296,-31.554575,-17.61408,-24.601096,0.0,39.815895,34.163956,72.571759,19.462687,42.130234,3.743025,15.679362,-12.724823,-18.603298,0.0,-3.377066,-47.665512,-91.830682,-62.072193,-118.669672,-67.549419,-119.73288,-65.984195,-105.669184,-51.114092,-167.53289,-98.404427,-137.089415
63,-32.868656,37.749746,-21.063414,-24.988305,0.0,-20.934231,-18.652451,-37.181751,-28.867848,-59.713268,-37.02546,-61.056175,-42.81197,-65.794968,0.0,-30.945632,-37.844464,-65.79519,-31.030062,-40.396062,-20.358788,-22.711476,-7.790168,-13.371218,0.0,38.936605,28.28001,66.346161,12.640774,30.461523,-3.376617,2.752084,-19.88819,-33.149884,0.0,-14.104937,-53.081084,-97.84437,-64.846082,-125.411659,-67.343005,-124.499926,-62.503684,-106.605458,-84.899431,-130.949372,-120.384524,-163.243948
64,-21.073284,39.38696,-23.505484,-17.899777,0.0,-27.076462,-23.89106,-46.189886,-31.456501,-70.292868,-36.157011,-71.285153,-38.170546,-68.290997,0.0,-25.955991,-27.732996,-50.3804,-17.650099,-24.836863,-5.265233,-7.206855,7.761396,6.446064,0.0,35.93799,22.965843,58.363209,6.491847,18.406683,-9.706887,-10.308984,-25.970015,-45.291435,0.0,-22.198501,-57.663837,-104.336652,-67.168877,-131.005636,-67.023982,-127.900661,-59.48404,-106.330481,-106.248077,-92.563386,-144.16537,-182.144699
65,-9.277913,41.024174,-24.902707,-9.975177,0.0,-41.270874,-34.2625,-68.367319,-39.728221,-89.184213,-40.888189,-87.036907,-38.608949,-74.441104,0.0,-18.538993,-16.333364,-31.998189,-1.440619,-5.188622,14.213367,14.959287,29.04061,34.850751,0.0,29.848354,18.005619,49.229725,0.813572,7.159035,-15.367252,-22.403286,-30.984203,-55.760204,0.0,-26.760211,-60.916374,-110.588047,-68.672836,-134.804916,-66.483061,-129.146389,-56.909509,-104.442479,-114.810414,-52.049323,-168.352501,-192.629987
66,2.119492,38.134887,-25.149525,-1.445355,0.0,-60.115597,-48.399593,-102.202875,-51.666973,-116.100855,-48.798059,-109.023468,-41.515509,-84.647529,0.0,-9.652439,-4.555084,-12.071045,16.120562,17.982106,36.205035,43.753214,53.966235,73.39284,0.0,22.595421,13.978707,39.828015,-3.753101,-3.3521,-19.748806,-33.122703,-34.468471,-63.546158,0.0,-29.031598,-63.130446,-116.487252,-69.683129,-136.913878,-66.007729,-128.939725,-55.073054,-101.4053,-111.008532,-14.103713,-191.819636,-194.264619
67,6.151691,22.938567,-19.573974,2.668911,0.0,-56.770236,-48.703205,-101.837911,-51.82109,-119.583372,-48.206022,-111.718517,-40.172063,-85.36528,0.0,-10.557212,-2.758437,-13.125729,18.449893,20.423884,38.256224,48.287368,55.125464,75.843634,0.0,17.204326,10.116657,31.167984,-8.255654,-13.445034,-24.214806,-43.552998,-38.478081,-70.814644,0.0,-28.622276,-63.944306,-119.826446,-69.521797,-137.837611,-64.874079,-128.23668,-53.101394,-98.473952,-102.909737,8.614615,-209.446506,-191.815947
68,7.568951,16.08702,-14.532051,4.840495,0.0,-55.697971,-50.437935,-105.746813,-53.684852,-123.868463,-49.858663,-113.766689,-41.433512,-85.51165,0.0,-7.047788,-1.651327,-14.085034,19.393989,20.987159,38.984786,49.561106,55.703676,75.510336,0.0,12.829101,7.08673,24.408508,-11.787014,-21.132432,-27.536694,-51.344914,-41.155278,-76.466401,0.0,-28.477641,-64.834657,-122.350686,-69.41019,-138.629972,-63.870489,-127.859455,-51.433309,-95.736075,-93.744644,24.397647,-222.382415,-187.27944
69,5.840721,7.880763,-9.324292,5.376287,0.0,-53.263252,-50.661083,-107.177078,-54.003433,-126.405796,-50.148777,-115.344772,-41.498497,-85.983844,0.0,-3.615647,-1.190838,-15.438387,19.503096,20.406474,38.778154,49.646875,55.266798,75.113677,0.0,10.652859,5.108895,20.9469,-14.016826,-25.291053,-29.507858,-55.403938,-42.610874,-80.125614,0.0,-27.975987,-65.734221,-123.836461,-69.678262,-138.992102,-63.67779,-127.513113,-50.881836,-93.854332,-86.020518,32.120048,-229.823302,-182.061515
70,4.743313,-0.121913,-4.317306,4.285435,0.0,-50.002315,-49.664841,-106.63076,-52.896423,-128.056251,-49.08316,-117.157379,-40.472179,-87.135876,0.0,-2.480391,-1.261574,-17.703572,18.727448,18.730085,37.441065,48.602532,53.563635,74.685678,0.0,10.551201,4.165397,19.236442,-14.96814,-27.947777,-30.282852,-57.402535,-43.16827,-81.71426,0.0,-28.060242,-66.582597,-124.37727,-69.96414,-139.017631,-63.576805,-127.406628,-50.624025,-92.725746,-79.264647,31.946048,-232.12805,-177.828167
71,3.945431,-3.366318,-0.654099,2.749376,0.0,-49.415817,-48.778336,-105.598526,-52.400974,-129.116993,-49.160374,-118.918247,-41.029644,-88.122986,0.0,-1.974537,-1.055444,-19.300054,18.505444,16.884582,36.844872,46.679322,52.706379,73.182192,0.0,10.470623,3.817807,18.743614,-15.236091,-28.469764,-30.482666,-57.676346,-43.30291,-81.795273,0.0,-27.683306,-67.124441,-124.279278,-70.090083,-138.791952,-63.522323,-126.903571,-50.66379,-92.224379,-73.240854,28.689973,-230.703787,-174.968548
72,3.779697,-3.810667,0.920483,1.93615,0.0,-50.181656,-48.387508,-104.754581,-52.18206,-129.375835,-49.224884,-119.632084,-41.32838,-89.46286,0.0,-2.3983,-1.439804,-21.528991,17.854884,14.468103,36.060999,44.120465,51.909236,71.641667,0.0,13.105419,4.038471,20.059318,-14.874138,-27.846874,-29.996189,-56.753826,-42.733292,-81.067864,0.0,-27.746316,-67.657526,-123.661356,-70.496995,-138.752719,-63.744762,-126.834279,-50.74547,-92.039827,-67.632248,25.051204,-227.954395,-172.8605
73,3.786564,-3.106312,1.642708,2.109718,0.0,-51.316154,-47.848961,-104.324055,-51.789528,-129.330837,-49.026752,-119.99453,-41.394161,-90.623623,0.0,-2.484243,-2.324124,-23.255075,17.054964,12.31759,35.344355,41.81825,51.207999,70.357018,0.0,15.532207,4.558925,22.103176,-14.196991,-26.30468,-29.266674,-55.102696,-42.056225,-79.89711,0.0,-27.823062,-68.451732,-123.894695,-71.382456,-139.204531,-64.652397,-127.763478,-51.603905,-92.730947,-62.329931,21.998074,-224.795934,-170.6976
74,4.130699,-1.544538,2.562664,2.035985,0.0,-52.913223,-47.550018,-104.211742,-51.445804,-129.780155,-48.697323,-120.891758,-41.293441,-91.431896,0.0,-3.963117,-3.273914,-25.111009,16.295211,10.489265,34.641333,39.931268,50.472348,69.292175,0.0,17.093307,4.98064,23.469635,-13.640431,-24.957676,-28.720207,-53.512905,-41.638413,-78.936482,0.0,-27.963235,-68.573806,-123.599109,-71.604217,-139.296627,-64.926579,-128.074476,-51.890838,-93.133104,-56.983641,20.332629,-221.017679,-168.782522
75,3.958615,-0.169881,3.37714,2.89017,0.0,-54.397065,-46.921841,-104.159512,-50.826886,-129.841427,-48.195603,-121.469422,-41.028752,-91.978649,0.0,-4.603759,-4.27671,-26.520419,15.526282,9.010187,34.024977,38.445361,49.901804,68.525142,0.0,18.589931,5.386997,24.900673,-13.172928,-23.621453,-28.327824,-52.079304,-41.430462,-77.956616,0.0,-27.80764,-68.457367,-123.198625,-71.696931,-139.330176,-65.211341,-128.306646,-52.300768,-93.726957,-52.142864,19.770204,-216.758377,-166.284896
76,4.063499,1.090759,4.163269,4.167547,0.0,-55.375568,-46.503136,-103.951149,-50.41967,-129.325046,-47.860577,-121.179623,-40.869175,-92.514038,0.0,-5.065004,-5.169942,-27.270415,14.917115,7.599555,33.567437,36.805678,49.472584,67.331439,0.0,21.279224,6.03899,26.656357,-12.418362,-21.919544,-27.597496,-49.691265,-40.892807,-76.399441,0.0,-28.10448,-68.054747,-122.553835,-71.604541,-139.073658,-65.421853,-128.299984,-52.721504,-94.318893,-47.426851,19.95036,-211.942594,-163.027952
77,4.208347,1.85242,5.610374,5.916866,0.0,-56.280716,-45.841575,-103.417602,-49.995185,-128.218814,-47.768989,-120.664329,-41.242378,-93.177646,0.0,-4.771751,-6.186231,-27.26574,14.070973,6.270989,32.859234,34.638683,48.880187,64.982885,0.0,23.20998,6.734494,28.84861,-11.477771,-19.662632,-26.684108,-46.678791,-40.253826,-73.530098,0.0,-29.079677,-67.146322,-121.382664,-70.957755,-138.060983,-65.049094,-127.563416,-52.655558,-94.552535,-42.778485,20.570483,-205.892201,-158.343383
78,4.261322,2.289902,7.783264,8.32034,0.0,-57.59444,-44.849453,-102.769592,-49.038333,-126.070026,-47.105117,-119.629795,-41.073223,-93.935119,0.0,-4.545645,-7.152389,-25.958595,13.098103,5.745975,32.000453,32.058091,48.334746,61.483774,0.0,26.224183,7.237027,30.7729,-10.640842,-16.685989,-25.912376,-42.992958,-39.859954,-70.150177,0.0,-29.739134,-66.047462,-119.345169,-70.352258,-135.840862,-64.851209,-125.089866,-52.984959,-94.558561,-38.280528,21.555321,-197.872302,-151.328107
79,4.820595,3.054207,9.839734,10.769828,0.0,-58.059849,-44.180855,-103.006725,-48.412994,-123.803695,-46.828216,-117.890796,-41.392238,-94.546726,0.0,-4.618425,-7.677182,-22.557197,12.310753,6.692633,31.205138,30.610371,47.871494,58.154599,0.0,29.710144,7.695488,32.512493,-9.66726,-13.442906,-24.904816,-37.825402,-39.116753,-64.840496,0.0,-29.837447,-64.022975,-115.800284,-68.746598,-131.638929,-63.681039,-120.904199,-52.499626,-92.993445,-33.468882,23.338235,-188.041517,-141.829572
80,4.352143,4.288955,11.266674,12.908643,0.0,-58.636151,-43.797856,-102.370228,-47.587578,-120.236721,-45.833485,-114.480927,-40.56601,-93.109017,0.0,-3.79983,-7.509814,-17.013603,12.080177,9.357071,30.751199,30.838687,47.482294,55.524315,0.0,32.592292,7.745304,34.460392,-9.621827,-8.093216,-25.010159,-30.194973,-38.975796,-55.411892,0.0,-29.878759,-60.561757,-109.35111,-66.059875,-120.790795,-61.791578,-108.311436,-51.900864,-85.106569,-29.252134,26.577828,-176.910238,-129.970291
81,3.831493,5.992883,13.016893,18.941858,0.0,-60.060024,-43.102387,-101.277351,-45.950295,-116.076714,-43.67387,-110.075489,-38.272305,-90.478729,0.0,-2.13234,-7.331002,-9.714043,11.667154,13.974952,30.121932,33.184894,46.986056,54.366638,0.0,36.513851,8.01115,36.015198,-9.153854,-1.691563,-24.582115,-21.844414,-38.477795,-45.491604,0.0,-30.089375,-58.252212,-102.330845,-63.769992,-109.395977,-59.859671,-96.410696,-50.752629,-76.7311,-25.661905,31.818937,-164.134609,-111.780207
82,2.65464,7.80227,14.110119,24.401379,0.0,-60.332279,-42.413177,-99.316315,-43.809116,-110.567024,-40.738884,-104.020855,-35.079872,-86.139564,0.0,1.537172,-6.371982,-0.658469,11.874561,20.331706,30.029337,37.361099,46.949863,55.096262,0.0,42.220161,8.728935,37.138424,-8.225281,5.849407,-23.627678,-12.641533,-37.588028,-35.668236,0.0,-30.363932,-57.096155,-95.082265,-62.085073,-97.894465,-58.301949,-85.380363,-49.573715,-68.31817,-23.246761,39.437639,-150.263986,-87.562396
83,2.946636,10.462879,13.24395,25.664892,0.0,-59.787952,-41.311592,-97.480442,-41.31348,-105.53294,-37.396133,-98.32307,-31.39809,-81.306724,0.0,4.942305,-5.112971,8.839034,12.316014,27.283141,30.024686,43.11381,46.723708,57.687111,0.0,46.152179,9.166866,39.400474,-7.213841,14.418011,-22.262638,-3.115277,-35.838639,-25.533978,0.0,-29.367,-54.952274,-85.024822,-58.702274,-83.773968,-54.477456,-72.608413,-45.810334,-57.967415,-20.8734,49.480961,-137.593311,-62.317061
84,3.112976,12.667924,12.389751,30.301785,0.0,-59.231952,-39.533489,-94.997669,-38.003975,-101.13216,-33.091518,-93.641384,-26.473285,-76.367179,0.0,9.591839,-3.292013,17.881363,12.985173,34.553048,30.111575,49.148876,46.438897,61.513506,0.0,51.024147,12.167382,46.334622,-3.608631,27.28141,-18.389019,10.311997,-31.81303,-12.413006,0.0,-28.532505,-53.467793,-74.062342,-56.644188,-69.646403,-52.397517,-60.532311,-43.552479,-48.560511,-18.329081,60.961977,-125.772217,-33.202184
85,3.868847,14.622825,10.868935,29.933784,0.0,-58.325901,-37.909664,-93.378856,-35.042782,-97.389599,-29.364246,-89.575206,-22.325271,-71.808391,0.0,13.355027,-1.538975,26.329826,13.7918,42.040298,30.26208,55.171195,46.109088,65.867651,0.0,54.878288,14.180786,50.956627,-0.277691,36.059315,-13.844067,17.511909,-26.455033,-4.982918,0.0,-28.111734,-53.006885,-60.809314,-53.956437,-55.796903,-47.970664,-48.846095,-37.345099,-36.519008,-15.005768,73.766172,-115.448816,-5.08703
86,5.070374,16.648226,9.776401,26.112521,0.0,-56.296761,-36.861397,-92.642819,-33.112553,-94.989567,-26.989002,-87.169521,-19.7608,-68.78698,0.0,15.832212,0.567819,33.576675,15.137514,48.528068,30.95135,60.314875,46.149158,69.491357,0.0,57.052758,15.754727,56.358754,2.488724,44.833031,-9.871805,25.820647,-21.327575,3.104473,0.0,-23.184832,-48.225945,-44.274206,-46.974067,-38.126866,-39.268708,-32.067116,-27.051479,-20.527495,-10.504274,88.302639,-106.241295,18.913732
87,6.352501,18.117361,8.683869,22.291256,0.0,-55.054379,-35.915108,-92.826496,-31.530979,-94.14148,-24.902413,-86.258492,-17.22139,-66.399628,0.0,12.747687,2.887653,39.47014,16.846636,54.591019,31.820901,65.377507,46.159334,73.485503,0.0,57.547554,16.889202,62.541,4.690613,53.602558,-6.472235,35.238207,-16.430661,11.849167,0.0,-13.751795,-39.124971,-24.457016,-35.697076,-16.63629,-26.291649,-10.195373,-12.671617,-0.585971,-4.761417,103.58472,-98.16707,38.369708
88,4.049623,18.07789,7.01536,24.386248,0.0,-50.929796,-33.757095,-88.116228,-29.200619,-90.449758,-22.521703,-82.615305,-14.659172,-62.577318,0.0,7.266936,5.658017,42.125001,20.043665,59.78991,34.749099,70.145738,48.434349,78.648646,0.0,60.255272,20.402721,67.833046,9.178631,60.330248,-0.997948,43.465679,-9.926451,20.752218,0.0,-7.476886,-31.019079,-7.210612,-25.354766,2.711105,-14.285418,10.692972,0.792408,19.535702,-1.019125,118.825102,-91.459041,59.918448
89,1.66317,17.837804,5.326606,22.809126,0.0,-44.556753,-30.402019,-78.699858,-26.231838,-83.247877,-20.019522,-76.133795,-12.38736,-57.471674,0.0,-1.005852,8.31415,41.726303,24.524133,64.109303,39.648291,74.65915,52.880682,84.566992,0.0,62.989552,23.175728,68.735905,13.086319,62.103098,3.969223,45.937489,-3.904752,25.578238,0.0,-3.31098,-23.109005,8.51113,-13.986595,21.8266,-0.358446,32.796625,16.288854,41.284766,0.327742,134.333146,-86.448738,80.397814
90,-2.091293,18.745492,4.795876,24.294761,0.0,-33.124077,-23.975104,-63.156681,-20.175894,-70.092104,-14.869909,-63.990034,-8.298094,-47.267401,0.0,-8.12355,11.816547,41.949927,27.888685,65.973424,41.562097,74.941622,52.790706,82.831453,0.0,67.624924,26.383965,75.327175,16.792236,70.4746,7.73109,56.505787,-0.394632,34.643675,0.0,0.201834,-15.012044,19.165015,-3.850512,34.856764,10.906855,46.119703,28.248661,53.477311,-2.132498,151.010858,-82.021809,102.624795
91,-6.417744,18.995742,3.760946,24.632011,0.0,-16.961448,-14.152479,-41.287353,-10.453909,-49.769411,-6.328623,-44.585867,-1.574358,-30.143503,0.0,-13.69487,16.363112,43.418913,30.345406,66.284208,40.46055,71.754541,47.92347,74.14514,0.0,73.08292,29.865395,80.745163,20.654549,77.278925,11.211256,64.165598,1.990534,41.360888,0.0,-0.390164,-8.583626,27.0149,3.775154,43.960461,18.807687,55.846865,35.874806,62.576416,-8.960838,168.084102,-78.671459,125.334308
92,-3.135017,27.622985,6.130634,26.289138,0.0,-10.426151,-9.779772,-22.343102,-7.366774,-29.19956,-5.039137,-25.488539,-2.111796,-15.388716,0.0,-4.51125,16.00039,37.237289,22.828714,53.404158,25.998356,51.278573,26.701051,45.713941,0.0,75.05317,34.363186,81.858742,25.379071,75.834624,15.216208,63.493544,4.558715,42.813956,0.0,-4.755189,-3.349703,34.697134,10.126352,53.282476,25.716651,66.606246,42.588287,72.758399,-12.601816,193.906115,-73.046786,149.822474
93,7.422483,28.82282,5.250372,22.886787,0.0,-15.694719,-14.781675,-19.812807,-13.459448,-21.945282,-11.676281,-18.614811,-8.956232,-11.502205,0.0,5.559241,14.801635,31.408347,14.135454,38.865425,10.176666,30.192926,4.504785,16.998869,0.0,76.440011,35.368412,85.433453,26.046673,79.908589,15.417595,67.280251,4.121727,46.413266,0.0,-7.564141,1.990512,40.115729,16.39894,59.183602,32.107627,72.435351,48.198339,78.424796,-5.698494,220.85719,-68.315575,170.837516
94,3.726402,22.114786,5.490715,19.819221,0.0,-20.179922,-14.634515,-16.742368,-12.204843,-14.461292,-9.623451,-10.983238,-6.501199,-6.178905,0.0,14.810923,13.355947,27.546464,9.496318,28.601877,2.887277,18.591147,-4.618344,4.717787,0.0,75.707875,34.312546,88.142498,24.438618,83.450993,13.420899,70.45649,1.616044,48.333092,0.0,-9.298204,7.881526,44.982767,22.274831,63.911627,37.209378,76.217039,51.919882,82.051971,-2.533036,241.100871,-63.385804,188.785632
95,12.235291,26.413881,5.245686,18.580773,0.0,-35.788399,-25.482777,-22.549873,-24.146645,-13.568035,-21.449844,-9.517113,-17.37933,-8.198685,0.0,24.543652,9.976112,21.621153,0.140371,14.897102,-11.827402,0.845388,-23.653421,-17.821317,0.0,74.53418,33.568794,86.388565,23.608246,81.667122,12.617912,68.76598,0.738636,47.153698,0.0,-10.620083,12.945492,49.500822,27.626356,68.673251,41.968853,81.24125,55.111193,86.864724,9.012217,266.135674,-58.830156,205.987327
96,14.175156,21.024397,7.107891,16.61832,0.0,-56.124104,-34.499108,-36.488285,-32.940182,-22.854653,-29.295834,-17.942162,-23.480118,-16.317398,0.0,34.596138,8.304739,14.038648,-4.703059,2.84578,-19.315763,-13.249563,-33.720331,-30.056716,0.0,70.302738,32.870373,83.286083,22.302635,76.882153,11.192345,63.753605,-0.173893,43.775082,0.0,-9.304638,18.186324,53.556837,34.254436,71.738368,49.080771,84.332414,61.543684,90.542295,22.300764,286.136555,-52.608874,221.582131
97,10.744686,11.453911,1.440537,13.200448,0.0,-65.831887,-42.264347,-42.983483,-39.746132,-27.561859,-34.552002,-21.447956,-26.774163,-20.486435,0.0,31.940846,6.672157,15.280597,-4.661242,5.81353,-17.736422,-7.170396,-30.510211,-19.987237,0.0,70.546886,30.379188,85.289074,19.663307,81.93449,8.935833,67.795887,-1.704724,45.945922,0.0,-8.591014,20.292556,54.70921,36.885941,72.413164,51.412121,83.412703,62.953594,89.511828,32.063971,296.917429,-52.149816,234.109542
98,1.168785,8.278273,2.787254,12.164337,0.0,-66.822487,-43.423817,-36.909897,-40.260052,-21.393013,-34.390331,-14.837162,-25.941914,-14.40897,0.0,30.654473,4.727797,19.310181,-5.266964,11.704383,-17.075965,0.323387,-28.430569,-10.39483,0.0,69.209919,29.539238,84.30518,18.67495,81.074718,7.879086,66.415798,-2.800301,44.403843,0.0,-8.38147,22.153219,56.609974,38.550325,74.182647,52.415787,84.501808,63.014097,89.970338,32.140497,304.884369,-50.454821,245.962546
99,5.413627,12.47162,2.8358,10.178728,0.0,-70.69313,-50.610569,-34.383075,-48.527469,-16.766178,-42.934032,-9.827568,-34.310188,-10.821098,0.0,32.762063,3.5196,23.544715,-10.570263,12.866575,-26.259104,-2.31343,-41.119958,-18.758047,0.0,68.223347,28.702423,83.910587,17.489147,80.888889,6.626267,65.811825,-3.790924,43.870274,0.0,-7.473653,23.545864,58.029999,40.346286,75.391806,53.99577,85.26056,63.913986,89.977439,36.414894,317.350821,-48.758251,256.136106
100,-0.93608,3.784176,3.002758,8.382248,0.0,-66.799954,-49.184086,-26.675583,-46.117539,-10.336476,-39.653332,-3.57573,-30.587025,-5.066529,0.0,33.804991,3.533803,27.884806,-9.663507,18.558765,-24.12086,4.620339,-37.942652,-9.680131,0.0,67.261917,28.401615,84.223114,16.892864,81.491203,5.855633,65.689842,-4.4855,43.590912,0.0,-5.763142,25.389262,59.582577,42.542995,76.16812,55.913059,85.277578,65.157182,89.047194,34.311471,321.169352,-46.922836,264.552709
101,0.660896,0.599139,0.937191,7.197949,0.0,-58.274677,-51.520912,-16.159401,-50.232502,-1.027909,-44.514176,3.763298,-36.073105,-7.773972,0.0,32.405616,2.95498,33.693816,-7.245188,27.373143,-18.268908,16.973336,-28.654414,4.869576,0.0,68.05711,27.474598,85.953037,16.463196,84.849667,5.906342,69.282543,-4.066498,46.538407,0.0,-5.47883,25.42525,59.652861,42.178952,77.256237,54.856756,85.938382,63.408287,87.85094,33.851824,321.794031,-47.106188,271.776198
102,-4.61776,-5.258282,1.939865,5.373311,0.0,-48.639336,-46.797581,-6.20121,-47.841705,6.212494,-44.293453,7.496018,-38.151558,-13.924004,0.0,30.104857,9.025465,39.407989,3.901132,36.190286,-3.310427,28.737926,-10.256311,20.765318,0.0,67.336499,27.157597,85.917286,16.379631,84.97205,6.154759,69.794026,-3.258121,47.717835,0.0,-4.254542,26.896651,58.960318,43.497015,75.622197,55.506642,84.545119,63.089037,86.041159,28.190592,316.555132,-46.209795,277.168892
103,-7.395309,-3.98526,1.068226,3.495184,0.0,-29.88794,-37.59779,7.962341,-40.471035,16.668205,-38.98153,14.375518,-34.783173,-18.085442,0.0,19.262324,12.442078,40.795965,13.143044,41.093664,10.973851,38.012442,8.201307,34.150361,0.0,67.012871,26.854752,86.370735,16.525726,85.446602,6.727753,71.023316,-2.142471,49.256973,0.0,-2.594394,27.985731,58.386237,44.743175,74.302814,56.530069,83.428919,63.727043,84.823651,19.805804,312.610992,-46.131048,280.705196
104,-6.401551,-5.201694,0.977612,2.118212,0.0,-12.716388,-29.815166,19.350907,-34.647812,24.954415,-35.223083,18.758927,-32.867019,-21.48896,0.0,9.62395,14.796535,41.646836,21.65887,46.255924,24.881698,47.506617,26.833703,46.881135,0.0,66.633442,26.610763,86.589283,16.712745,85.409465,7.129154,71.414943,-1.535557,49.842258,0.0,-0.753898,28.770184,57.727632,45.560442,72.949961,57.200889,82.222119,64.213006,83.827815,12.500496,307.469921,-46.057193,282.884031
105,-5.112602,-4.769454,0.433593,0.911634,0.0,2.344849,-22.77523,28.297806,-29.548141,30.934868,-32.368709,20.967568,-32.020786,-28.488396,0.0,-2.060142,16.274025,42.528818,28.998315,50.605092,37.333867,55.89278,43.680154,59.10784,0.0,66.523671,26.439938,86.900814,16.911347,85.486325,7.537606,72.040524,-0.936515,50.936657,0.0,0.519024,29.093435,56.794299,45.806752,71.458861,57.339901,80.988864,64.318364,83.226242,6.600511,302.764675,-46.410983,283.859873
106,-5.986359,-0.159514,-0.087352,0.045213,0.0,11.68895,-17.051113,36.076973,-24.576828,37.310189,-28.394222,25.475235,-28.860385,-30.303668,0.0,-12.727377,14.957383,41.033285,30.547732,50.537069,41.157539,57.686136,49.681294,62.161448,0.0,66.58683,26.423904,87.22126,17.051639,85.539161,7.735244,72.166145,-0.668061,51.34021,0.0,0.923231,29.286578,56.541852,45.902552,70.663702,57.306445,79.986174,64.225554,82.822728,-0.029538,302.658958,-47.142025,283.958883
107,-3.83353,-1.299339,0.449707,-0.074569,0.0,17.344288,-11.600384,41.046398,-19.351032,40.367649,-24.169281,27.865116,-25.737843,-29.301762,0.0,-17.825714,14.036449,39.410039,31.169236,49.704499,43.095637,57.936484,52.401041,63.196347,0.0,66.764373,26.276733,87.291252,16.934669,85.316253,7.599037,71.653633,-0.853672,51.167862,0.0,1.150237,28.905676,56.039993,45.569902,70.138625,57.099716,79.36132,64.229419,82.408814,-4.356731,301.421194,-47.185981,283.945889
108,-2.990044,-4.048864,0.729091,-0.041707,0.0,17.663098,-7.173236,42.700001,-15.32333,41.057682,-21.619217,28.286145,-25.169014,-26.919296,0.0,-14.634329,15.754321,40.638551,33.48689,51.407737,45.604359,59.433771,54.915234,65.262615,0.0,66.939045,26.22884,87.064968,16.889752,84.9604,7.486794,71.12756,-1.028766,50.926793,0.0,1.502017,28.709113,55.82898,45.404041,69.892908,56.995977,79.000267,64.22937,82.232419,-7.710984,297.439983,-46.821099,283.971835
109,-3.04161,-3.266448,0.561573,-0.106297,0.0,17.282512,-3.243748,45.294491,-11.522507,42.180027,-18.982041,28.963291,-24.116432,-28.914173,0.0,-13.525354,18.601953,41.655506,36.575114,53.009418,48.457005,60.704767,57.223489,68.148162,0.0,67.167023,25.957089,86.81028,16.650593,84.831505,7.344578,71.389161,-1.058727,51.513337,0.0,1.63735,28.870331,56.093494,45.633962,69.773026,57.267802,78.79323,64.466628,82.115204,-11.055874,294.253882,-46.562806,283.945885
110,-3.309094,-3.313071,0.2608,-0.040878,0.0,15.946244,0.205296,47.799179,-8.426491,43.011246,-16.97929,29.108803,-23.495155,-29.055404,0.0,-10.916596,21.499086,41.724099,39.801932,54.270363,51.556333,61.842618,59.947078,70.95693,0.0,67.195392,25.945759,86.584087,16.749458,84.890247,7.592239,71.694568,-0.685765,52.058109,0.0,1.720811,28.896315,56.076018,45.750522,69.682857,57.438133,78.802071,64.659226,82.087601,-14.579201,291.021809,-46.516239,283.986005
111,0.774857,-3.934896,0.100067,-0.270566,0.0,9.616184,-0.710518,46.461937,-9.808457,40.179725,-19.216255,25.358047,-26.557686,-30.389557,0.0,-6.482472,25.156475,43.521789,43.628703,56.854888,55.134608,63.886198,63.017221,74.681454,0.0,66.928814,26.068989,86.448223,16.936821,84.841976,7.851906,72.048695,-0.410397,52.451809,0.0,2.06008,29.222715,56.467701,46.078602,69.883806,57.728632,79.010023,64.852506,82.189922,-13.980629,287.157395,-46.592457,283.785921
112,1.360874,2.816374,0.027946,-0.163614,0.0,9.906189,-2.776382,45.118389,-11.459335,39.926617,-19.458218,26.096546,-25.081203,-23.573341,0.0,-6.120911,23.383424,41.386324,41.552581,55.304385,53.109257,62.043035,61.471152,70.842234,0.0,66.776837,26.261948,86.508351,17.202965,84.911442,8.158345,72.418042,-0.134559,52.834889,0.0,2.018411,29.448191,56.535417,46.260198,69.98126,57.82421,79.137364,64.825434,82.238198,-12.773752,290.025707,-46.718508,283.674245
113,2.035412,0.593953,-0.065837,-0.140667,0.0,6.308201,-5.699764,44.091522,-14.626877,39.384384,-22.51244,24.871925,-27.832741,-28.15456,0.0,-6.088591,23.650148,40.932928,41.730903,54.848395,53.21343,61.830391,61.470077,71.486649,0.0,66.627662,26.382144,86.484558,17.339023,84.943382,8.33678,72.61132,0.054657,53.096946,0.0,1.976494,29.686955,56.634019,46.511694,70.051309,58.03852,79.206055,64.955456,82.232937,-10.863693,290.65512,-46.909698,283.569038
114,2.455776,0.696149,-0.116524,-0.022218,0.0,2.420483,-8.544651,42.325001,-17.821735,37.706051,-25.630314,23.120281,-30.682068,-29.564816,0.0,-5.953604,23.050997,40.457931,41.114215,54.1241,52.720378,61.269772,61.056696,71.447067,0.0,66.495323,26.52721,86.217911,17.483425,84.757576,8.440452,72.363029,0.107242,52.884292,0.0,2.157287,29.60269,56.61216,46.434012,70.238549,58.018526,79.416056,65.039473,82.367182,-8.478081,291.364644,-47.096386,283.560195
115,0.753777,0.301737,0.003536,-0.051969,0.0,1.295608,-9.52652,42.053546,-19.137749,37.627132,-27.034619,23.130603,-32.097416,-28.030335,0.0,-6.476148,22.32044,40.099483,40.582322,53.687957,52.423692,61.106454,60.902135,71.022842,0.0,66.203945,26.559013,86.015064,17.437328,84.326672,8.263493,71.912647,-0.172966,52.45245,0.0,2.35332,29.553043,56.688298,46.418229,70.408943,58.059701,79.518673,65.132,82.327279,-7.761949,291.672831,-47.130495,283.514676
116,-1.575234,0.54722,0.051327,0.105408,0.0,3.183621,-7.886341,43.834431,-17.760692,39.289364,-25.919025,24.644543,-31.338478,-24.771194,0.0,-8.698138,21.394208,38.681965,40.082785,52.423877,52.303105,60.206145,60.932787,69.575363,0.0,66.172828,26.215393,85.794319,17.024757,84.114509,7.835872,71.599067,-0.541855,52.085151,0.0,2.302277,29.235275,56.328812,46.160544,70.335781,57.859395,79.465172,64.974475,82.203321,-9.334768,292.242071,-47.076753,283.642104
117,0.134743,-2.391124,-0.020668,-0.028677,0.0,0.168548,-8.379662,44.310573,-19.05637,39.272152,-28.498341,22.699528,-35.201786,-33.330082,0.0,-9.216731,23.222613,40.594103,42.096874,53.962623,54.222814,62.176502,62.404435,73.470739,0.0,65.958206,26.111641,85.584022,16.874439,83.971252,7.603924,71.293167,-0.841633,51.817222,0.0,2.477772,29.006515,56.238619,45.953816,70.34849,57.718258,79.476238,64.924902,82.20715,-9.167112,289.899888,-47.064508,283.662368
118,1.769565,3.336819,0.015609,-0.162886,0.0,-5.608062,-10.979553,40.283707,-20.332283,36.485413,-27.570488,22.268647,-32.063163,-26.610225,0.0,-5.66807,20.75319,37.682177,39.271249,50.502352,51.447245,58.421707,60.056105,67.97557,0.0,65.746102,25.943722,85.350998,16.684067,83.864159,7.386006,71.232354,-1.04203,51.699097,0.0,2.763776,29.001131,56.412843,45.967822,70.525825,57.739723,79.626243,64.946713,82.315374,-7.336562,293.304536,-46.987914,283.567311
119,2.930272,-0.011498,-0.128952,-0.023304,0.0,-9.556618,-14.785332,36.774044,-24.437439,33.538295,-31.198483,19.310085,-34.917744,-32.196499,0.0,-5.523599,20.663603,38.504964,39.112143,50.541638,51.208839,58.52378,59.973767,68.184348,0.0,65.570847,26.018841,85.582329,16.7463,83.978394,7.394886,71.193856,-1.072116,51.625947,0.0,2.646944,28.861253,56.122689,45.803936,70.444895,57.55131,79.550586,64.746801,82.262182,-4.306926,293.375265,-47.017502,283.626234
120,1.231544,2.549638,-0.131675,-0.178125,0.0,-7.567509,-16.930057,35.842106,-26.311569,33.635044,-31.9659,19.959606,-34.171852,-33.396297,0.0,-5.357861,18.602324,38.513164,36.657848,49.702042,48.831942,57.630548,58.243902,66.869286,0.0,65.591102,25.855259,85.634742,16.601291,84.161293,7.282734,71.444847,-1.15725,51.72052,0.0,2.799627,29.110626,56.29275,45.983901,70.467915,57.644441,79.686844,64.748925,82.523114,-2.937109,296.019218,-47.010904,283.542424
