takenoko1/special-research/HandMotion_SimilarSearch_自分用/NewProject/handData/test_key/d4_feature_d3/131.csv
frame,vel_0x_L,vel_0y_L,vel_0x_R,vel_0y_R,posFromWrist_0x_L,posFromWrist_1x_L,posFromWrist_2x_L,posFromWrist_3x_L,posFromWrist_4x_L,posFromWrist_5x_L,posFromWrist_6x_L,posFromWrist_7x_L,posFromWrist_8x_L,posFromWrist_9x_L,posFromWrist_0y_L,posFromWrist_1y_L,posFromWrist_2y_L,posFromWrist_3y_L,posFromWrist_4y_L,posFromWrist_5y_L,posFromWrist_6y_L,posFromWrist_7y_L,posFromWrist_8y_L,posFromWrist_9y_L,posFromWrist_0x_R,posFromWrist_1x_R,posFromWrist_2x_R,posFromWrist_3x_R,posFromWrist_4x_R,posFromWrist_5x_R,posFromWrist_6x_R,posFromWrist_7x_R,posFromWrist_8x_R,posFromWrist_9x_R,posFromWrist_0y_R,posFromWrist_1y_R,posFromWrist_2y_R,posFromWrist_3y_R,posFromWrist_4y_R,posFromWrist_5y_R,posFromWrist_6y_R,posFromWrist_7y_R,posFromWrist_8y_R,posFromWrist_9y_R,posFromBody_0x_L,posFromBody_0y_L,posFromBody_0x_R,posFromBody_0y_R
6,1.886833,-0.128317,0.159119,-0.17689,0.0,6.844895,-18.114338,38.092266,-28.898334,37.899227,-34.111599,23.227398,-35.817203,-21.596992,0.0,-8.36928,12.265694,36.694651,30.967115,48.275781,44.704569,55.682718,55.230668,59.628989,0.0,68.084037,23.385051,85.678733,14.638183,84.887809,6.358554,71.789451,-0.694542,52.421562,0.0,3.458863,28.559726,54.449686,45.341907,68.220657,56.96415,77.660282,63.9437,81.645851,0.873356,302.62092,-45.277175,286.623006
7,-6.270538,2.168699,-0.017579,-0.026367,0.0,19.922642,-10.202145,43.759769,-19.848496,45.052036,-24.810287,31.004436,-26.65519,-4.251343,0.0,-7.436059,10.049559,33.317089,28.150123,47.063311,42.085203,53.978641,52.943667,56.093074,0.0,68.169342,23.145607,85.651978,14.367554,84.930817,6.155983,71.852852,-0.779869,52.538979,0.0,3.510745,28.542127,54.458466,45.420589,68.240479,57.115735,77.778275,64.135805,81.683828,-5.717239,304.809299,-45.614811,286.616319
8,1.884567,-0.865679,-0.05421,0.013116,0.0,16.508137,-12.17292,41.659756,-21.918033,42.855641,-27.248096,28.17461,-29.294014,-12.136242,0.0,-7.388486,11.260509,33.858072,29.340498,47.472025,42.984487,54.732614,53.760106,57.803931,0.0,68.173588,22.976063,85.611957,14.124515,84.875828,5.938362,71.87939,-0.917439,52.585842,0.0,3.484748,28.498963,54.515647,45.462901,68.267797,57.216462,77.864552,64.230641,81.609677,-4.079195,303.964665,-45.915544,286.65048
9,0.45179,-0.789392,-0.026757,0.091896,0.0,13.548534,-13.201641,40.676182,-23.462276,40.661533,-29.021553,26.414143,-31.204513,-9.990429,0.0,-6.364677,11.109541,33.703362,29.751484,47.832647,43.779523,54.834464,54.972822,58.335651,0.0,68.142827,23.133946,85.72189,14.203629,84.83051,5.948605,71.838902,-0.938026,52.684102,0.0,3.384429,28.589997,54.456701,45.617759,68.246198,57.416843,77.863713,64.436358,81.512125,-3.793717,303.199269,-46.108613,286.766372
10,3.938084,-3.399496,-0.043911,0.000828,0.0,4.224529,-18.360844,35.569107,-29.192803,35.527862,-35.176564,21.284408,-37.485729,-18.97617,0.0,-6.012218,13.607469,35.887314,32.874202,50.252608,46.836847,57.35808,57.84781,62.789634,0.0,68.114525,23.206719,85.774384,14.198983,84.907494,5.896809,71.85814,-1.02761,52.778573,0.0,3.427123,28.608509,54.295643,45.750868,68.197192,57.638193,77.85177,64.704601,81.520893,0.023077,299.832701,-46.273814,286.800128
11,0.591957,-1.389842,-0.101634,0.01314,0.0,0.639873,-20.834381,35.158676,-31.982002,33.430755,-37.988983,18.555771,-40.084339,-22.915901,0.0,-6.309817,15.180944,39.357441,34.991514,51.543773,48.967188,58.882377,59.920451,64.104215,0.0,68.145984,23.546356,85.942989,14.53244,85.113613,6.156211,72.037891,-0.85912,53.124195,0.0,3.395754,28.593109,54.131807,45.828526,68.132231,57.827569,77.841347,64.980305,81.567466,0.523659,298.480212,-46.466823,286.850621
12,-1.93681,1.377603,-0.03629,-0.108026,0.0,1.668068,-19.335022,38.317166,-30.607097,34.796711,-37.039192,19.43018,-39.644806,-25.437778,0.0,-11.087608,14.556906,39.027001,34.370267,50.927849,48.299949,58.391745,58.891059,63.546657,0.0,68.132904,23.762192,86.024506,14.704068,85.087578,6.226948,71.984482,-0.943153,53.040711,0.0,3.549747,28.558047,54.114418,45.805814,68.204158,57.81023,77.8967,64.985529,81.716605,-1.477124,299.898502,-46.567086,286.783282
13,1.602013,0.454643,-0.064499,0.021366,0.0,-0.44632,-20.441998,36.354298,-31.821842,32.994358,-38.155941,17.537052,-40.706863,-28.796757,0.0,-10.631025,14.204447,38.981936,33.818317,50.829531,47.692215,58.103223,58.312483,63.681471,0.0,68.093903,23.658944,86.213951,14.556141,85.153519,6.042481,71.960747,-1.177459,52.862595,0.0,3.678188,28.709668,54.167214,45.914976,68.151484,57.843327,77.831182,64.974883,81.778405,0.089447,300.387059,-46.667027,286.838562
14,-1.731926,-0.089797,-0.099769,0.026256,0.0,4.304901,-18.881413,37.6199,-29.970818,36.004497,-36.368156,21.083782,-39.181023,-24.9753,0.0,-12.146652,14.182513,38.540074,33.942966,50.787009,47.918134,57.874264,58.354263,63.534258,0.0,67.973671,23.575332,86.290329,14.448887,85.26741,5.915851,71.867271,-1.359467,52.720115,0.0,3.944098,28.678299,54.124212,45.883631,68.061465,57.819233,77.733074,64.994692,81.807242,-1.662712,300.316025,-46.787029,286.883581
15,-4.388317,1.058772,-0.034401,0.045942,0.0,12.355499,-14.15831,43.016258,-24.431511,41.091659,-29.946945,26.069504,-31.993035,-18.72971,0.0,-9.966911,12.91973,38.09236,32.33096,50.67865,46.344845,57.936312,56.978266,62.435286,0.0,67.807205,23.495407,86.479957,14.300148,85.201744,5.688812,71.67247,-1.705032,52.407005,0.0,4.072638,28.745805,54.276402,45.868281,68.16134,57.725632,77.748771,64.877194,81.774058,-6.063269,301.384028,-46.83367,286.938754
16,-2.042874,-0.643612,-0.070072,0.084846,0.0,16.841595,-11.575767,45.432667,-21.347156,44.55209,-26.570228,29.805783,-28.450778,-17.67239,0.0,-7.785739,13.311969,38.795339,31.980217,52.153287,45.660083,59.498856,56.081959,63.78557,0.0,67.753223,23.438553,86.589832,14.18058,85.179348,5.513992,71.507435,-1.951802,52.214161,0.0,4.152011,28.788128,54.30635,45.889324,68.066886,57.723717,77.658627,64.867659,81.703723,-8.10604,300.752035,-46.903639,287.035219
17,7.541577,-3.668468,-0.222931,0.152708,0.0,3.245418,-20.288738,36.516609,-30.492623,36.503448,-35.29089,22.690864,-36.43721,-28.411961,0.0,-2.286902,16.474392,43.165625,35.425964,55.135448,48.770389,62.352626,59.113212,67.96506,0.0,67.634754,23.462883,86.77145,14.198593,85.39365,5.500751,71.517025,-2.029873,52.118122,0.0,4.046221,28.747522,54.205376,45.790388,67.965912,57.555917,77.536078,64.655893,81.677431,-0.546198,297.097924,-47.108305,287.202284
18,-4.807663,0.808263,-0.149712,0.021983,0.0,11.053036,-16.345986,41.55645,-25.885666,42.556801,-30.191322,29.485451,-30.979649,-16.411858,0.0,-0.404798,15.477296,42.315952,34.312333,54.949642,47.867092,61.937775,58.226958,66.094257,0.0,67.6749,23.694615,86.795094,14.403202,85.433201,5.593987,71.486378,-2.075901,52.06992,0.0,3.869812,28.725181,54.247626,45.729886,68.013275,57.489103,77.584725,64.596687,81.689423,-5.313274,297.927478,-47.21743,287.245558
19,0.716011,1.654961,-0.147034,0.01676,0.0,11.041798,-16.423611,42.195099,-25.601738,42.407272,-29.610523,28.616295,-30.145512,-19.839123,0.0,-0.834372,14.840279,42.242357,32.99858,53.894833,46.206499,61.348318,56.385005,64.932361,0.0,67.806279,23.84705,86.834256,14.534741,85.507267,5.675835,71.590222,-2.03144,52.154194,0.0,3.770788,28.738209,54.284466,45.73438,68.092265,57.487311,77.607176,64.563921,81.665203,-4.554771,299.614728,-47.321972,287.294607
20,0.095169,1.227721,-0.17839,0.050042,0.0,12.964176,-15.619469,41.641228,-24.783463,43.487823,-28.925262,30.250282,-29.586365,-19.687786,0.0,-1.890439,13.187196,39.897559,31.402839,52.001381,44.951386,59.862072,55.468802,64.14245,0.0,67.967983,23.977341,86.833271,14.695106,85.648304,5.869194,71.706127,-1.788734,52.300793,0.0,3.697343,28.670753,54.192878,45.665282,68.052511,57.424438,77.505671,64.479768,81.544111,-4.41449,300.874242,-47.45525,287.376442
21,0.835522,1.267045,-0.211819,-0.079325,0.0,12.494522,-15.766434,40.771969,-24.776425,43.469661,-29.174732,29.88319,-30.231034,-16.846848,0.0,-3.541325,12.416303,38.187973,30.780221,50.352434,44.529234,57.939917,55.146378,62.667949,0.0,68.153023,24.142376,86.988556,14.898743,85.822541,6.120152,71.912224,-1.499027,52.505722,0.0,3.740729,28.722995,54.181961,45.71446,68.199354,57.449076,77.549218,64.474729,81.622918,-3.52981,302.166737,-47.617911,287.322567
22,-6.377587,1.864492,-0.069477,-0.034395,0.0,26.000599,-8.573776,47.66193,-16.917995,51.060917,-21.195167,36.437222,-22.118934,-8.054397,0.0,-3.912963,10.438055,36.238464,28.626873,48.701216,42.629545,56.842884,53.481031,60.523838,0.0,68.417988,24.173035,87.121845,14.916836,85.902546,6.185051,72.088909,-1.340973,52.752445,0.0,3.819745,28.838357,54.269572,45.876765,68.342998,57.634982,77.559876,64.648643,81.55151,-9.866513,304.058933,-47.646504,287.315876
23,0.207299,1.963774,-0.116741,0.022329,0.0,29.057087,-7.147751,48.207721,-15.140374,51.256908,-19.353722,35.796489,-20.233269,-9.870873,0.0,-6.633254,9.489309,35.015102,27.555232,46.87065,41.475072,55.402445,52.345293,58.660928,0.0,68.680275,24.38522,87.30938,15.203041,86.192459,6.551846,72.280426,-0.906761,53.0793,0.0,3.810112,28.770666,54.002909,45.869713,68.255127,57.677195,77.395484,64.729845,81.532997,-9.631788,306.054132,-47.735819,287.36963
24,-0.209141,-0.073755,0.080498,-0.030776,0.0,29.929184,-6.163124,47.350822,-13.924473,51.779777,-18.205021,36.536751,-19.319607,-5.8442,0.0,-6.69698,9.140444,33.323919,27.36556,46.72072,41.530005,54.803096,52.719167,58.419644,0.0,68.903869,24.404754,87.375801,15.257492,86.216263,6.657406,72.251381,-0.754086,53.083717,0.0,3.673446,28.849632,53.797601,45.9933,68.221299,57.789765,77.294781,64.834376,81.600971,-9.814625,306.010502,-47.629017,287.368979
25,0.230507,0.949474,0.097927,-0.046004,0.0,30.190063,-5.970291,46.52829,-13.627693,50.872535,-18.104313,34.941787,-19.638726,-5.484913,0.0,-7.569995,9.070679,33.230392,27.124845,46.294704,41.098172,53.977765,52.139949,56.766129,0.0,68.897449,24.289638,87.354664,15.217712,86.190319,6.717235,72.295498,-0.587071,53.259464,0.0,3.634197,28.903157,53.760156,46.124186,68.13349,57.942906,77.357026,64.997508,81.772971,-9.566076,306.989181,-47.513048,287.35218
26,0.509834,0.311692,0.173229,-0.071828,0.0,29.600349,-6.40139,45.547874,-14.114548,50.106308,-18.499569,34.223763,-19.865959,-8.762295,0.0,-7.098482,9.348555,33.162713,27.194301,45.847902,40.852578,54.0932,51.760541,56.709627,0.0,68.67865,24.300545,87.174568,15.330734,86.105255,6.865574,72.197319,-0.45393,53.215393,0.0,3.72807,28.933847,53.784004,46.160248,68.1337,57.984909,77.444477,65.074486,81.926482,-9.058027,307.321711,-47.341604,287.30119
27,0.086746,0.126341,0.272804,-0.281928,0.0,29.546173,-6.612533,45.381798,-14.329502,50.076119,-18.766399,34.762482,-20.434936,-3.316475,0.0,-7.34636,9.587962,34.052734,27.276689,46.625205,40.93236,54.047666,51.88981,56.653447,0.0,68.395707,24.435208,87.031792,15.533512,86.013405,7.043965,72.117371,-0.367962,52.889283,0.0,3.888967,29.202141,54.328334,46.337386,68.513688,58.098468,77.785475,65.188515,82.425759,-9.011896,307.459756,-47.109415,287.030966
28,-0.691532,-4.702998,0.395748,-0.98198,0.0,26.835537,-6.3349,46.23547,-14.545692,50.841786,-20.195034,34.907215,-23.387249,-7.099892,0.0,-5.865029,12.760661,39.52944,30.278352,52.808953,43.314839,59.951648,53.731763,62.413674,0.0,67.694447,24.674527,86.667881,15.687584,85.599186,6.962037,71.804387,-0.862861,51.886975,0.0,4.35622,29.948567,57.386671,46.869798,71.76565,58.459474,80.467753,65.517632,84.449839,-9.77603,302.769791,-46.786269,286.062019
29,5.208378,-4.732811,0.234719,-2.535224,0.0,16.658752,-12.329018,39.207001,-21.731804,43.325661,-27.869007,27.645035,-31.224232,-21.970116,0.0,-0.527286,15.719519,49.157849,32.476691,62.000884,44.456036,67.693186,54.194607,68.789774,0.0,66.422367,24.560028,85.454899,15.401573,84.068493,6.493435,70.044994,-1.687615,50.142849,0.0,5.68368,30.854704,62.432025,47.54899,77.771778,58.923021,85.554689,65.993035,88.254911,-4.834991,298.124699,-46.818889,283.614514
30,1.569981,2.256768,0.777351,-5.133053,0.0,0.845901,-16.220261,33.015163,-24.575215,36.437473,-29.8121,21.947422,-32.579682,-28.03822,0.0,5.984912,13.9118,50.011054,27.763516,61.561641,37.661082,64.754607,45.809938,63.897462,0.0,64.087086,23.670548,81.015164,14.081474,79.026661,4.605034,63.579083,-4.244133,41.188179,0.0,6.05653,31.313436,67.665855,47.749284,84.896208,58.9958,92.057477,65.880539,91.054749,-3.736187,300.574746,-46.512715,278.67474
31,5.572448,-4.564899,0.441067,-8.311544,0.0,-16.48257,-22.451488,7.164494,-28.00328,9.561802,-30.702255,0.706662,-31.352371,-35.077434,0.0,7.075239,18.469956,50.958836,31.84239,63.663822,40.944105,67.156203,47.842774,68.908655,0.0,60.25264,22.16621,73.012276,12.807999,68.833832,3.319851,52.15448,-5.824951,29.253868,0.0,4.363173,29.977763,70.807988,46.741765,92.529152,58.651517,99.654779,66.545418,97.023643,1.260017,296.37524,-46.647892,270.728589
32,8.138214,-5.988259,-2.659,-14.249759,0.0,-34.583427,-28.226944,-21.192089,-31.295894,-20.943134,-31.534515,-24.2677,-29.84119,-50.584911,0.0,12.468545,22.128297,53.83664,35.724824,67.618764,44.709139,72.789398,51.144816,75.538921,0.0,57.106075,19.335422,64.028034,10.58234,60.966968,1.950622,45.940715,-6.30074,25.000637,0.0,-0.403749,27.591553,68.477786,44.881644,91.98224,57.598055,100.408146,66.394722,98.86651,8.624496,290.866667,-50.080627,256.958516
33,8.215428,-1.394485,-5.858689,-18.632582,0.0,-50.813919,-33.474667,-50.634865,-33.316464,-51.358624,-29.947529,-48.333023,-24.82639,-57.879215,0.0,17.456385,22.765154,51.518135,36.485083,65.552361,45.962993,72.268805,52.474327,76.418025,0.0,52.018593,15.882889,51.799816,7.567211,47.94912,-0.250786,35.21727,-7.265911,18.179501,0.0,-8.651467,21.576718,59.71518,38.828437,86.571867,52.186965,96.375733,61.744225,96.305868,15.641482,290.157766,-57.137758,239.011518
34,3.069832,-1.367895,-7.830877,-21.980578,0.0,-60.212048,-33.193463,-72.724274,-29.269822,-74.498669,-23.002991,-66.364792,-15.551583,-57.528225,0.0,18.142271,24.086922,45.794835,38.409473,60.300784,48.56418,70.191434,55.00129,76.840015,0.0,44.960232,12.061758,36.973509,3.684408,31.866079,-3.815438,21.257789,-10.018908,7.256029,0.0,-19.951817,14.308744,44.697205,30.877874,71.733799,44.168588,82.505664,54.026214,84.645773,17.298781,289.710913,-66.381168,217.951982
35,6.481224,-8.77419,-10.376507,-24.306592,0.0,-64.121098,-35.329056,-95.053173,-29.759983,-97.446259,-21.960892,-84.679768,-13.061531,-61.779133,0.0,16.759655,30.614941,49.175447,47.861312,65.106831,59.856021,78.680733,67.083709,88.675012,0.0,36.571152,8.21763,21.87945,-0.601633,15.03301,-7.860912,7.164471,-13.299757,-1.529257,0.0,-32.522633,6.537701,25.059123,21.799217,49.160577,34.142704,59.66599,44.042147,66.617888,22.470097,281.939895,-78.067583,194.648562
36,2.072067,-1.587109,-12.819122,-22.563094,0.0,-65.975121,-34.265717,-97.583141,-28.864449,-100.287563,-21.312561,-87.329063,-12.702896,-64.290161,0.0,19.836814,29.823226,51.306911,47.672096,66.755357,60.431744,81.184514,68.30281,89.63097,0.0,24.750183,6.628149,12.696825,-2.154288,-0.449427,-9.772042,-6.269165,-15.550066,-9.357805,0.0,-39.524426,-2.194437,-4.736637,12.189543,19.005764,24.51164,31.395774,34.520802,43.471178,23.306591,281.397405,-92.122278,173.130087
37,0.173813,-0.286188,-11.862705,-23.548193,0.0,-67.344875,-33.638741,-97.605286,-28.227631,-99.635536,-20.913139,-86.917923,-12.663872,-63.82695,0.0,19.680696,29.836959,50.870347,47.554548,65.876796,60.254125,80.4566,67.99097,88.983381,0.0,13.429,0.618169,-5.268694,-8.233298,-21.856288,-15.682801,-26.968083,-21.042097,-26.420557,0.0,-48.721402,-8.834736,-20.541753,4.907651,1.078385,17.461615,14.190659,28.434861,30.5879,22.273934,282.145386,-105.191453,150.616063
38,0.737457,-0.217609,-8.92733,-19.653464,0.0,-67.347107,-33.93013,-97.549736,-28.639709,-99.588524,-21.390152,-86.943386,-13.079498,-63.812919,0.0,18.90605,29.779322,50.800607,47.41992,65.70665,60.072925,80.257134,67.822775,89.053851,0.0,3.893749,-4.566897,-22.265277,-13.401404,-39.371276,-20.485291,-44.006138,-25.490874,-41.401617,0.0,-53.788993,-13.647242,-34.699696,-0.231978,-15.984965,12.762909,-1.971635,25.046264,17.776097,22.034523,282.811925,-115.095651,131.846747
39,0.891861,0.038718,-5.992579,-15.782201,0.0,-67.417866,-34.240906,-97.406788,-29.002624,-99.492702,-21.804359,-86.6693,-13.573357,-63.532814,0.0,18.448454,29.601381,50.717157,47.269113,65.684407,59.97342,80.001894,67.775004,89.021135,0.0,-2.800346,-9.311405,-35.684361,-17.286896,-52.190289,-23.42981,-55.790463,-27.682789,-51.176445,0.0,-56.359552,-18.135312,-44.806994,-4.500105,-26.853315,9.628476,-11.468645,23.637749,11.531679,22.141354,283.496642,-121.87326,116.710545
40,0.906807,0.282693,-2.451061,-12.187981,0.0,-67.409981,-34.304558,-97.190598,-29.066574,-99.308601,-21.869019,-86.434593,-13.626526,-63.138485,0.0,18.429299,29.397877,50.638117,47.061026,65.78716,59.776733,79.900031,67.625791,89.099497,0.0,-7.840508,-10.961094,-43.080139,-17.018303,-58.627442,-21.72567,-59.89975,-25.166519,-53.350983,0.0,-55.949869,-20.452107,-50.36003,-6.299506,-31.582774,9.374879,-13.301959,25.254683,13.398777,22.325403,284.397605,-125.047079,105.140834
41,0.683693,0.459127,7.23579,-13.452414,0.0,-67.4011,-34.140633,-96.913948,-28.792145,-99.068333,-21.573601,-86.364452,-13.372994,-63.035637,0.0,18.277764,29.403002,50.444257,47.092556,65.55399,59.781599,79.57084,67.577983,89.181353,0.0,-7.220501,-11.998283,-48.503838,-17.986599,-58.593029,-22.119862,-58.917183,-24.763607,-53.297779,0.0,-60.381906,-18.853661,-42.398741,-5.141858,-26.979478,9.939797,-10.379899,25.589858,14.789446,22.365463,285.486453,-118.454922,92.318141
42,0.131355,0.311024,9.375137,-7.477784,0.0,-67.451751,-33.990761,-96.745479,-28.544243,-98.638733,-21.250465,-86.30619,-12.996254,-63.003891,0.0,17.731335,29.58398,50.243803,47.317575,65.110907,59.950042,79.368348,67.609267,89.290231,0.0,-3.863857,-6.755356,-38.690208,-11.884918,-47.173381,-16.040611,-48.442497,-19.247154,-44.858951,0.0,-58.16614,-17.614811,-40.169532,-4.434284,-24.048914,10.255731,-8.686121,25.43326,13.756634,22.071487,286.483351,-109.505116,85.526231
43,-0.147217,-0.195996,11.762387,-5.24708,0.0,-67.544597,-33.779296,-96.406219,-28.291511,-98.135833,-20.941543,-85.985561,-12.625282,-62.638893,0.0,17.617121,29.816804,50.131455,47.547077,64.859743,60.162513,79.53505,67.753973,89.870686,0.0,-0.586544,-1.284623,-26.655259,-5.691822,-34.240746,-10.194203,-36.037983,-14.34359,-34.550904,0.0,-57.291162,-15.106967,-35.800469,-2.447428,-19.87668,11.482446,-5.718484,25.612181,15.188378,21.757644,287.004265,-97.909355,80.996061
44,-0.442543,-0.50886,10.679489,-1.241943,0.0,-67.501373,-33.527206,-96.128242,-27.929626,-97.480739,-20.479568,-85.508548,-12.011192,-62.056869,0.0,17.386026,29.991533,50.003508,47.742467,64.788384,60.341206,79.79818,67.889922,90.565686,0.0,-0.844242,4.546772,-16.358345,0.092399,-24.103684,-5.643345,-26.913929,-11.487156,-28.119633,0.0,-54.358054,-14.820963,-39.396769,-3.157527,-17.954426,9.548806,-4.913419,22.034436,12.469668,21.421897,287.150485,-87.12307,80.409198
45,-0.192031,-0.634918,4.990225,-0.417553,0.0,-67.498043,-33.422333,-95.888501,-27.766617,-97.160683,-20.218804,-85.152066,-11.560936,-61.415852,0.0,16.695842,29.812432,49.749034,47.479435,64.626141,60.084818,80.174994,67.680452,91.193083,0.0,-1.004254,5.524435,-13.181065,0.940715,-20.723683,-5.225373,-24.795737,-11.36582,-26.666703,0.0,-54.057688,-14.533259,-38.880774,-2.561247,-13.948402,10.107742,-1.958563,22.048188,13.465924,21.395852,287.069455,-81.966859,80.545533
46,0.14859,-0.624086,-6.133953,1.887247,0.0,-67.356125,-33.444786,-95.554711,-27.750801,-97.055889,-20.126541,-84.961945,-11.262864,-60.930771,0.0,16.532042,29.461652,49.823369,47.086097,64.982922,59.724986,80.632687,67.456335,91.795717,0.0,-2.579533,1.442991,-18.911751,-2.199772,-24.701146,-6.955536,-27.501864,-11.394339,-27.596444,0.0,-54.385126,-14.346742,-35.393814,-1.116417,-10.807517,12.784833,2.827884,25.813747,21.258388,21.576388,286.778738,-88.068866,82.766149
47,0.599647,-0.206296,-8.917797,3.190958,0.0,-67.283855,-33.488159,-95.454609,-27.709854,-97.129818,-20.024139,-84.753593,-11.059547,-60.45718,0.0,16.704758,29.046825,50.004273,46.708283,65.389388,59.463312,80.988246,67.364944,92.33218,0.0,-9.172852,-2.720942,-31.642834,-6.640114,-37.717015,-10.889672,-38.487116,-14.623072,-36.483594,0.0,-56.126178,-14.791641,-34.91552,-0.733934,-10.277926,13.511426,4.85601,26.749976,24.207848,21.829588,286.685211,-97.33311,86.069876
48,0.750687,0.29119,-11.671109,2.567422,0.0,-67.260624,-33.221764,-95.522988,-27.375733,-97.226235,-19.710594,-84.731632,-10.838242,-60.27475,0.0,16.566104,28.746237,50.123229,46.422329,65.557238,59.215582,81.126839,67.170715,92.411529,0.0,-15.842811,-7.936426,-45.181057,-11.893021,-51.597565,-15.37318,-51.489584,-18.112982,-46.816807,0.0,-57.903967,-15.606555,-35.061461,-0.241148,-10.34508,15.067418,5.806336,29.170258,26.215316,22.015251,287.017314,-109.569243,88.678211
49,0.682136,0.489644,-10.657093,-0.173877,0.0,-67.215351,-33.038337,-95.484821,-27.163673,-97.171268,-19.532547,-84.702999,-10.730209,-60.316555,0.0,16.517605,28.651462,50.091502,46.33967,65.532723,59.123537,81.00561,67.088821,92.175729,0.0,-18.921192,-13.451586,-55.69107,-16.981018,-62.380646,-18.848865,-61.032938,-19.520319,-51.909622,0.0,-62.191402,-13.039084,-26.483248,4.092527,-7.834438,20.870512,9.543125,36.432169,33.687073,22.031753,287.520191,-120.89197,88.517567
50,0.570877,0.350569,-3.541826,0.276423,0.0,-67.180011,-32.897117,-95.550109,-27.047836,-97.049343,-19.483955,-84.69524,-10.80281,-60.425663,0.0,16.871682,28.824957,50.184325,46.672172,65.52766,59.498004,80.950307,67.42793,92.014622,0.0,-20.61557,-16.934372,-60.103249,-20.497456,-66.896542,-21.556904,-65.288738,-21.057942,-54.019283,0.0,-63.555006,-11.695028,-21.624643,5.993785,-6.417541,23.339791,11.228756,39.656917,36.719487,21.930416,287.856585,-125.10601,88.779815
51,0.076355,0.15818,3.584885,1.141129,0.0,-67.075458,-32.762992,-95.556541,-26.922134,-96.67678,-19.366996,-84.550312,-10.736023,-60.483112,0.0,17.144063,29.173871,50.115683,47.16394,65.311632,60.039617,80.962608,67.914511,92.123711,0.0,-19.681492,-12.582367,-54.262185,-16.479893,-63.241768,-18.333184,-63.048752,-19.030816,-51.876183,0.0,-63.905205,-11.013285,-23.676294,6.221082,-6.753476,23.074628,9.98159,38.924687,33.959497,21.664684,288.087677,-121.863212,89.993856
52,-0.41146,-0.087537,7.0471,1.870864,0.0,-66.857792,-32.488884,-95.338006,-26.695931,-96.166249,-19.177666,-84.213948,-10.574296,-60.181435,0.0,17.007236,29.501852,50.003445,47.52287,65.179091,60.340884,81.057666,68.098638,92.253732,0.0,-14.898068,-7.336956,-44.920189,-11.281094,-54.112919,-14.113392,-54.785363,-16.002457,-45.208134,0.0,-64.020826,-10.425495,-24.115326,6.197933,-8.403885,22.550535,6.763992,38.029486,29.688456,21.560486,288.240951,-114.50885,92.105531
53,-0.444855,-0.33223,9.380149,1.269144,0.0,-66.688889,-32.431732,-95.2687,-26.661667,-95.907097,-19.129486,-84.035294,-10.452805,-59.905781,0.0,17.043966,29.556761,49.958047,47.648137,65.107893,60.52064,81.09358,68.331499,92.478603,0.0,-9.664295,-2.157978,-34.130046,-6.344638,-43.339267,-10.125904,-44.575859,-13.057067,-36.695583,0.0,-62.585178,-9.456612,-23.030946,6.358934,-8.429388,21.946214,5.569474,36.928192,27.488172,21.891295,288.167156,-104.353037,93.63311
54,-0.421555,-0.404021,9.393071,1.877065,0.0,-66.572788,-32.500145,-95.170429,-26.731796,-95.759159,-19.161255,-83.848755,-10.402633,-59.704685,0.0,17.116622,29.538681,50.119833,47.634009,65.395021,60.568843,81.673788,68.442305,92.927109,0.0,-4.706875,3.662223,-23.172009,-0.786633,-32.726281,-5.906296,-35.626454,-10.671799,-31.171486,0.0,-61.259003,-10.690997,-29.699392,4.333965,-11.015891,19.588996,3.242588,34.455939,23.713899,22.49374,288.071735,-93.935966,95.818775
55,-0.443115,-0.159896,6.486271,3.186778,0.0,-66.480869,-32.47007,-95.054214,-26.671852,-95.675709,-19.075401,-83.699375,-10.260178,-59.751972,0.0,17.094898,29.378215,50.221931,47.448671,65.594375,60.433918,82.019478,68.398239,93.109828,0.0,-2.509129,9.885509,-13.277894,5.424968,-23.683857,-1.036274,-27.540665,-7.809746,-26.073876,0.0,-57.792402,-12.899488,-40.138089,1.224097,-15.282412,15.927469,-0.764322,30.341701,18.142283,23.226088,288.205497,-86.274232,99.299211
56,-0.211784,-0.037001,3.292739,2.641837,0.0,-66.434189,-32.456452,-95.046891,-26.588013,-95.697132,-18.936539,-83.422863,-10.06968,-59.565594,0.0,17.075706,29.125125,50.417742,47.170053,65.957134,60.191659,82.524622,68.218471,93.210382,0.0,-3.882099,10.570954,-9.354904,6.062828,-18.690731,-1.006221,-22.067585,-8.471111,-22.773204,0.0,-50.985617,-15.760058,-48.442451,-2.496001,-18.903944,11.993338,-4.050982,26.413788,14.272348,24.061072,288.375282,-81.934725,102.147834
57,0.210754,0.118672,2.986313,1.497935,0.0,-66.561047,-32.636627,-95.18145,-26.696571,-95.982754,-18.969772,-83.591721,-9.992706,-59.710258,0.0,17.158007,28.919015,50.59909,46.837416,66.112066,59.857367,82.829915,67.96816,93.212049,0.0,-8.65464,8.931393,-8.153114,4.051575,-18.814121,-3.367916,-22.281601,-11.048195,-23.565513,0.0,-44.426031,-18.601398,-58.875251,-6.039468,-20.483402,8.281762,-5.038945,22.761393,12.510047,25.139122,288.600968,-78.081116,103.752783
58,0.033554,0.167245,1.492813,0.821009,0.0,-66.481922,-32.543129,-94.875458,-26.552238,-95.909466,-18.789299,-83.452,-9.761101,-59.735229,0.0,17.350186,28.887114,50.843881,46.744222,66.328908,59.736521,83.132962,67.829308,93.231797,0.0,-11.04911,7.274094,-8.14793,1.556031,-19.732063,-6.439636,-23.547901,-14.249473,-25.439323,0.0,-42.070939,-20.898451,-68.729697,-9.351415,-22.92476,4.411622,-6.939196,18.459625,9.644241,25.822826,288.83658,-75.938153,104.642159
59,0.110619,0.249299,0.323033,-0.062738,0.0,-66.439328,-32.326218,-94.654232,-26.332787,-95.845379,-18.585823,-83.437718,-9.543022,-59.74609,0.0,17.327462,28.969699,50.917895,46.723906,66.339369,59.628951,83.041262,67.65753,93.038012,0.0,-13.739582,5.504413,-9.543835,-0.805321,-20.91259,-8.975842,-24.185143,-16.523506,-26.089371,0.0,-38.659068,-21.277896,-71.146892,-10.481225,-22.413412,2.613919,-7.861001,16.002156,7.587736,26.444773,289.123997,-75.103792,104.617539
60,0.080017,0.22776,-2.153538,-2.20567,0.0,-66.407547,-32.169525,-94.437653,-26.169708,-95.786522,-18.445931,-83.452996,-9.437325,-59.778362,0.0,17.247359,29.039922,50.964455,46.734354,66.355387,59.57681,82.958084,67.553827,92.966097,0.0,-11.092163,5.966641,-10.580761,-0.572605,-22.099812,-8.531685,-24.522686,-15.59626,-25.010204,0.0,-43.917714,-19.226639,-62.321103,-7.435212,-18.28195,6.228758,-4.732922,20.034903,10.722441,26.911978,289.372082,-76.870142,102.432194
61,0.08963,0.229501,-1.784031,-1.517047,0.0,-66.522698,-31.993424,-94.348366,-26.035881,-95.852406,-18.36969,-83.643391,-9.419632,-59.946098,0.0,17.19339,29.116604,51.055278,46.725166,66.45614,59.50045,82.76756,67.451853,93.041211,0.0,-6.303554,6.6488,-11.42942,-0.646019,-22.417076,-8.731167,-24.591717,-15.759899,-24.377792,0.0,-51.631699,-17.291233,-54.547226,-4.834754,-16.003792,9.187153,-3.441789,23.418751,12.600345,27.309935,289.617771,-78.345846,100.931335
62,-0.204506,0.103828,-2.159592,-1.041068,0.0,-66.401848,-31.732018,-94.155682,-25.777885,-95.633503,-18.16452,-83.488152,-9.293587,-60.036049,0.0,17.369835,29.374522,51.327263,46.978194,66.958429,59.710993,82.891715,67.626655,93.246098,0.0,-1.141079,7.840188,-11.643665,0.150364,-21.616481,-7.941833,-24.068115,-14.971,-23.044521,0.0,-59.320453,-15.315121,-46.143823,-2.04899,-14.337143,12.686332,-2.643955,27.563198,15.335338,27.351059,289.752061,-80.259808,99.920729
63,-0.10405,0.346024,-2.267509,-0.204864,0.0,-66.494762,-31.825218,-94.274402,-25.782142,-95.632084,-18.123665,-83.485531,-9.260009,-60.084034,0.0,17.251114,29.467173,51.39041,47.064806,67.276901,59.768706,82.967397,67.662051,93.380715,0.0,1.611969,9.260571,-11.275852,1.902214,-20.681614,-5.83913,-23.19619,-12.900044,-21.725681,0.0,-63.344937,-13.537234,-38.09725,0.818934,-12.34542,16.383138,-1.29041,32.029056,18.362208,27.484188,290.136787,-82.290138,99.754567
64,-0.089081,0.299403,-2.087746,0.091181,0.0,-66.63446,-31.862022,-94.333156,-25.702606,-95.563053,-17.966903,-83.267807,-9.107345,-59.963733,0.0,17.382297,29.534037,51.44517,47.126334,67.627532,59.787601,83.32918,67.620777,93.440304,0.0,4.58955,10.214905,-9.81229,3.226925,-19.625724,-4.282974,-22.253494,-11.440075,-20.373825,0.0,-67.975631,-11.989972,-29.436168,3.163301,-9.576797,19.371722,1.539364,35.673584,22.212154,27.63529,290.487486,-84.137701,99.897044
65,0.063126,0.159477,0.107724,1.980367,0.0,-66.80373,-31.9888,-94.509956,-25.744354,-95.603771,-17.942985,-83.197472,-9.064545,-59.925934,0.0,17.656863,29.693982,51.494768,47.18864,67.990871,59.737694,83.706944,67.449345,93.567151,0.0,4.491703,9.137638,-9.051991,2.080558,-17.925236,-5.524418,-21.222714,-13.001496,-20.277615,0.0,-67.30522,-12.263076,-30.167176,1.928428,-10.495267,17.751378,0.181484,33.929375,21.750026,27.939468,290.715018,-83.788925,101.945466
66,0.153374,0.159884,-0.206418,2.056684,0.0,-66.986881,-32.108162,-94.772255,-25.781021,-95.606117,-17.938934,-83.21402,-9.096771,-59.993912,0.0,17.61139,29.767984,51.477119,47.249266,68.138702,59.730902,83.958713,67.335737,93.484529,0.0,4.499119,8.91829,-7.672771,2.013863,-15.476829,-5.704662,-19.027462,-13.496326,-19.772357,0.0,-66.111912,-12.233486,-30.630737,1.250711,-10.200681,16.248126,2.149099,31.466274,21.315285,28.385554,290.93028,-83.702631,104.057528
67,0.30471,0.037161,0.049141,0.909089,0.0,-67.306366,-32.188019,-95.058929,-25.828743,-95.821415,-17.970497,-83.341381,-9.195007,-60.060024,0.0,17.537537,29.763872,51.353693,47.289207,68.095465,59.733829,84.115399,67.218362,93.337267,0.0,4.780117,8.645691,-7.032234,1.628632,-13.970455,-6.170803,-17.308467,-13.999168,-18.915149,0.0,-62.686239,-10.037887,-26.391113,2.694399,-5.357719,16.002397,6.637083,29.047314,22.023674,28.958278,290.990381,-83.385476,104.989557
68,0.235771,-0.440774,-0.311039,2.234494,0.0,-67.43217,-32.223129,-95.274879,-25.884613,-95.99469,-18.037239,-83.515766,-9.30812,-60.319347,0.0,17.809115,29.98926,51.542464,47.538024,68.199637,59.931566,84.312666,67.293055,93.176444,0.0,6.689496,8.247757,-3.658859,1.340035,-10.716934,-6.537311,-14.130901,-14.23859,-17.195194,0.0,-58.966938,-9.644148,-27.69827,2.252797,-4.616732,14.477514,10.729882,26.149472,23.288588,29.401903,290.449383,-83.488661,107.123827
69,0.163788,-0.732595,0.275208,0.50883,0.0,-67.538143,-32.220154,-95.656322,-25.910316,-96.198967,-18.069694,-83.889656,-9.407135,-60.632732,0.0,17.977003,29.911443,51.806879,47.598762,68.251582,60.073691,84.371181,67.464055,93.260993,0.0,8.091934,6.179386,-1.427696,-0.031197,-5.82581,-6.900524,-8.060291,-13.132164,-10.863155,0.0,-52.605991,-5.362684,-19.056264,6.488789,3.010333,17.74382,17.819792,27.569077,28.863137,29.734857,289.307231,-83.044287,107.2231
70,0.249459,-0.808535,-2.130158,8.105297,0.0,-67.694596,-32.154076,-96.235348,-25.901665,-96.511517,-18.108468,-84.190751,-9.548768,-60.829457,0.0,17.734496,29.682509,52.046508,47.473161,68.304156,60.035924,84.357152,67.482616,93.169899,0.0,13.574078,7.356652,4.23174,1.996319,2.030194,-3.738258,0.62954,-8.537487,-3.318695,0.0,-50.12497,-3.593176,-13.202188,9.691703,8.348631,21.675179,24.244626,31.723966,34.007261,30.174941,287.71274,-84.98382,114.542441
71,0.098945,-1.34359,-1.863269,10.493575,0.0,-67.661041,-32.078522,-96.453907,-25.867561,-96.819317,-18.091347,-84.595562,-9.534485,-61.280445,0.0,17.842041,29.82351,52.301315,47.683409,68.495891,60.295634,84.669695,67.734274,93.25236,0.0,19.25061,7.456627,14.100002,1.502346,14.160679,-4.075207,12.448105,-8.031658,6.745971,0.0,-46.950302,-1.55569,-4.307474,12.680842,16.210305,25.391072,31.418184,35.980755,41.205451,30.469396,285.466838,-86.651579,124.133704
72,-0.002197,-1.120066,-1.651005,13.356793,0.0,-67.65081,-32.316216,-96.675316,-26.200928,-97.004665,-18.466736,-84.698685,-9.868149,-61.323383,0.0,17.338367,29.733774,52.030687,47.560933,68.20764,60.209245,84.463387,67.733311,93.191869,0.0,25.778915,7.778435,27.125072,1.135139,26.479305,-5.108711,22.480408,-9.43483,12.160251,0.0,-43.507728,-0.472749,2.090894,14.19282,22.271873,27.569386,37.49611,38.780117,47.694635,30.769901,283.292757,-87.999882,136.436482
73,0.138107,-0.947918,-0.818562,14.742781,0.0,-67.659279,-32.267509,-96.895042,-26.438209,-97.430065,-18.919304,-85.156791,-10.408195,-61.982288,0.0,16.56624,29.395332,51.271577,47.216254,67.595051,59.926527,83.956119,67.580861,92.606253,0.0,30.58524,8.537213,35.360791,0.84058,34.658032,-6.092445,29.424477,-10.914173,15.441216,0.0,-39.366974,2.26834,14.37218,16.640378,30.594452,29.28404,41.307797,39.485678,50.232053,31.275295,281.295709,-88.451157,150.130133
74,0.097252,-0.882031,-0.566276,21.643118,0.0,-67.605595,-32.3134,-96.973835,-26.754364,-97.984257,-19.437973,-85.706772,-11.021347,-62.92749,0.0,15.854221,29.304498,50.685294,47.0251,67.159897,59.672968,83.453805,67.297279,91.971607,0.0,36.941116,11.071094,46.607311,2.409462,45.908237,-4.96423,38.954017,-10.38707,21.887867,0.0,-38.501036,1.12865,17.24447,16.911462,33.300022,31.194802,44.756971,43.203738,53.205218,31.691837,279.519915,-88.698143,170.879488
75,-0.321213,-0.720145,0.402614,15.506789,0.0,-64.361435,-32.191475,-96.417755,-27.014328,-98.29438,-19.881065,-86.194416,-11.469291,-63.753147,0.0,15.207533,28.744471,49.978165,46.518166,66.727458,59.340132,82.79263,67.241481,91.535957,0.0,41.511692,10.528096,56.263424,0.828747,56.015236,-7.096115,47.29216,-12.994938,28.153805,0.0,-32.604255,3.347082,24.817132,18.810546,41.83131,32.486212,52.438462,43.669842,58.910337,31.616478,278.181003,-88.049675,185.76751
76,-0.223594,-0.130269,-0.12062,14.246412,0.0,-59.028626,-32.362175,-96.161923,-27.567078,-99.078232,-20.672654,-86.710408,-12.329796,-64.192578,0.0,14.374323,28.835083,48.475988,46.118629,66.098456,58.586024,81.738539,66.409011,90.728114,0.0,46.149078,11.134769,62.491596,2.002327,61.592777,-5.265393,52.015503,-10.833767,31.833549,0.0,-26.597248,7.054232,32.398083,22.614854,49.690458,35.887673,59.809782,46.085185,64.942637,31.515095,277.476341,-88.048084,199.439529
77,-0.767807,-0.208037,1.881614,15.093221,0.0,-55.814862,-32.497101,-95.430966,-28.120606,-98.924572,-21.441536,-86.723545,-12.935006,-64.173386,0.0,13.090161,29.661279,47.976019,46.08285,65.832447,57.996691,81.592326,65.652223,90.401022,0.0,48.713379,10.115136,65.591,3.048134,66.622444,-1.536392,58.682728,-4.596656,41.083466,0.0,-21.130855,10.112149,37.981814,27.821253,54.647238,42.544824,66.176497,53.55901,72.140203,30.66477,276.765893,-86.248988,214.030339
78,-0.664124,0.148645,0.372494,13.317119,0.0,-52.455425,-32.651962,-94.595192,-28.889809,-99.147114,-22.55555,-87.27261,-14.107429,-64.681641,0.0,12.927116,29.538804,42.629064,45.224162,60.884721,56.97492,80.046343,64.896225,90.594721,0.0,53.230877,10.894363,72.771423,4.349957,75.483021,0.716148,67.058533,-1.289806,50.524796,0.0,-16.458337,13.735935,44.533915,33.315002,62.526689,49.380989,75.596855,61.295101,81.620991,29.749838,276.436071,-86.127302,226.868991
79,-0.952789,0.64901,0.397877,9.281371,0.0,-49.529206,-32.308365,-91.333706,-29.188111,-97.682224,-23.229469,-86.953663,-14.685402,-64.617954,0.0,12.826165,29.233941,35.648006,44.317208,54.631108,56.120466,77.764393,64.561673,90.591435,0.0,56.91814,11.813072,76.956379,5.004226,78.706993,1.040966,69.146084,-1.14996,51.383674,0.0,-11.395606,17.984474,49.893703,36.777631,68.986165,51.539895,81.519226,61.87122,85.966256,28.471001,276.679301,-86.055473,235.744582
80,-0.588936,0.825751,2.515102,8.133443,0.0,-50.489582,-31.571457,-88.751782,-29.143227,-95.705612,-23.924355,-86.012089,-15.864578,-64.885975,0.0,13.01832,29.804503,29.011788,44.373673,48.140979,56.026371,74.951736,64.573888,90.265628,0.0,58.729603,12.74802,79.382973,5.44019,79.719532,0.933758,69.196518,-1.621284,50.839806,0.0,-6.741725,22.085949,54.666615,40.729621,72.868265,54.721437,85.298771,63.837107,88.998745,27.397848,277.116565,-84.024588,243.489538
81,-1.009552,1.075346,3.477013,7.441913,0.0,-53.999073,-30.460854,-86.517094,-28.425705,-93.416004,-23.70076,-85.191639,-15.960686,-64.92754,0.0,12.119667,30.37835,25.203727,44.672249,43.466696,56.27299,71.886335,64.942056,90.389364,0.0,59.813587,13.577785,80.962498,5.767216,80.684246,0.579872,68.755726,-2.560467,49.906196,0.0,-3.328384,24.708983,57.999037,43.327078,75.647342,56.821729,87.456701,65.289044,90.637069,25.85404,277.849208,-81.081831,250.588748
82,-1.088814,1.262549,1.510506,5.624734,0.0,-55.929657,-29.202965,-83.84515,-27.145935,-90.645859,-22.615219,-83.565662,-15.320778,-65.123428,0.0,10.128229,29.881481,22.794152,44.5177,40.088479,56.412077,68.6507,65.188144,89.305014,0.0,61.949169,16.574993,83.459873,7.112949,82.642971,-0.041852,68.694339,-5.06646,48.309608,0.0,-1.926403,26.844299,60.457259,43.859897,78.093449,55.826645,88.743641,62.980764,90.263553,24.207041,278.832945,-80.12951,255.93467
83,-1.715378,2.447157,2.825168,5.650854,0.0,-57.767978,-28.462852,-78.038772,-25.735244,-84.07648,-21.037902,-77.710453,-13.90599,-61.508846,0.0,8.375159,30.204621,27.472301,43.640004,42.009138,54.245328,64.951738,61.786671,84.509637,0.0,62.754593,17.896694,84.556709,8.494423,83.396805,1.132908,68.948479,-4.283729,48.103798,0.0,-0.815303,28.255,60.503498,44.900157,78.482328,56.49786,88.714606,63.299088,90.401677,21.908832,281.064868,-77.887173,261.37029
84,0.407273,4.245056,2.922398,4.792771,0.0,-59.546517,-30.404595,-65.984883,-27.76886,-67.402897,-23.424202,-62.37386,-17.048653,-53.551323,0.0,7.404282,28.486849,33.404182,39.588412,45.120792,47.994112,60.663889,53.875111,75.726457,0.0,63.418716,19.352966,85.901653,10.030803,85.063923,2.429477,70.477352,-3.427643,49.556499,0.0,0.963775,29.262618,60.458136,45.798341,77.915953,57.255821,88.467098,63.958853,90.41357,21.744198,285.138091,-75.536682,265.991228
85,-0.154106,3.372758,3.499969,3.816323,0.0,-59.45953,-31.622841,-52.201275,-28.523117,-50.10331,-23.817559,-46.144661,-17.280877,-44.181817,0.0,6.163964,27.316666,39.602417,36.222718,49.471294,42.614812,57.971806,46.908565,67.680687,0.0,63.396069,21.273777,87.594555,12.066319,87.176983,4.034363,72.441731,-2.624737,50.874699,0.0,2.605225,30.306151,59.899345,46.674642,77.11594,57.998692,88.112565,64.632255,90.146537,21.096177,288.373417,-72.530628,269.670119
86,-1.919564,2.320667,3.857254,3.387443,0.0,-57.544624,-35.47126,-33.423877,-33.817508,-29.93153,-29.732654,-28.849926,-23.898708,-45.691829,0.0,7.791704,24.269382,43.324756,33.914018,51.472303,40.555423,56.940129,45.152581,64.536072,0.0,63.707646,22.702172,88.897396,13.732899,88.32407,5.516567,74.170933,-1.60231,52.935253,0.0,3.843135,30.578507,58.50686,46.906106,75.12912,58.24899,86.417009,64.963693,89.159221,18.691452,290.566017,-69.158535,272.929495
87,-1.736778,2.811213,3.906647,2.394656,0.0,-51.450451,-37.642033,-13.341774,-38.596779,-9.402431,-36.084274,-11.540165,-31.303413,-48.429279,0.0,7.864865,21.529256,46.556945,31.473913,53.835676,38.074167,56.6634,43.018375,62.003773,0.0,64.202396,23.829243,89.889301,14.771347,89.063496,6.254562,74.935078,-1.267021,53.718796,0.0,5.658746,30.535924,57.952527,47.134102,74.008906,58.639401,84.920167,65.445198,87.83838,16.515884,293.25664,-65.690678,275.203561
88,-3.395416,3.506349,3.339603,1.287187,0.0,-39.475434,-37.394303,5.493232,-40.935745,8.722847,-40.035221,3.516426,-36.072945,-51.731072,0.0,2.331831,17.309344,45.123421,28.956274,53.643694,36.827945,56.570997,43.090462,60.803568,0.0,64.263291,24.665383,90.484177,15.621472,89.662857,6.798809,75.559067,-1.262889,54.225472,0.0,7.250561,30.629514,57.682209,47.384673,73.372074,58.987588,83.912833,65.877637,87.063944,12.763745,296.637726,-62.707798,276.365485
89,-3.046463,-2.202996,2.621121,0.643699,0.0,-33.722706,-37.400769,11.812752,-43.283077,13.16542,-44.040402,5.045929,-41.451107,-61.112526,0.0,4.443276,17.383667,45.717535,31.909871,55.407694,41.740488,59.895405,49.418213,66.768955,0.0,64.155659,25.574009,90.781231,16.402084,89.744854,7.194248,75.446514,-1.388764,53.803013,0.0,8.48857,30.518227,57.404689,47.433048,72.832561,59.060119,82.865175,65.945562,86.202081,9.367522,294.30003,-60.436437,276.874484
90,-5.836808,-0.110978,1.546612,0.268021,0.0,-22.401123,-35.838581,22.081421,-44.59727,21.016114,-47.297355,9.901085,-46.057491,-67.23151,0.0,3.613622,15.490017,45.757068,32.731844,55.861584,44.626838,62.253085,54.053285,71.324863,0.0,64.383018,25.868477,90.504913,16.586013,89.027046,7.218681,74.599823,-1.548054,52.990219,0.0,9.150646,30.195124,57.645949,47.319304,72.922297,59.010645,82.101953,65.93504,85.495866,3.233419,294.06528,-59.18712,277.018733
91,-1.18753,0.001137,0.595367,-0.389941,0.0,-21.933769,-34.380226,22.548363,-43.540031,21.961945,-46.916863,10.728561,-46.353848,-66.278,0.0,7.771338,14.992827,46.221616,31.694436,56.160295,43.314789,62.16761,52.600285,70.619487,0.0,64.274506,25.9468,90.342522,16.502094,88.553238,6.971134,73.748497,-1.961689,51.742951,0.0,10.228758,30.287515,58.333539,47.539814,73.644826,59.247556,82.280509,66.145176,85.385123,1.79143,293.961197,-58.846212,276.523572
92,-2.638207,0.868149,0.021011,-0.364426,0.0,-18.650001,-32.648094,25.158555,-41.677665,24.493218,-45.066673,13.222435,-44.477703,-63.38562,0.0,8.159872,13.94286,44.998167,30.723794,55.152553,42.575501,61.180171,52.038986,68.813238,0.0,64.156449,26.0392,90.263901,16.642651,88.454659,7.038701,73.476746,-2.068565,51.247055,0.0,10.709608,30.446077,58.616479,47.613149,73.813305,59.23943,82.494376,66.10757,85.476599,-1.056628,294.711591,-59.035052,276.041391
93,2.635163,-3.311206,0.134537,-0.229057,0.0,-26.895264,-35.547249,20.332489,-44.812763,21.562385,-48.400269,9.505874,-48.511151,-66.26833,0.0,16.080018,16.112301,46.906218,33.017785,56.699266,44.811397,62.690031,54.186394,71.658081,0.0,64.269631,26.269043,90.037811,16.832462,88.069679,7.144364,72.966614,-2.067787,50.956673,0.0,11.087002,30.359602,58.922947,47.630291,73.977771,59.35205,82.651753,66.299688,85.575153,1.397495,291.302137,-59.081555,275.714086
94,-3.141335,1.982127,0.130131,-0.231194,0.0,-22.882415,-32.80006,25.048508,-41.85767,25.802468,-45.091793,14.412232,-44.60503,-62.075935,0.0,12.864883,14.513866,45.785053,31.586126,55.483301,43.817722,61.370943,53.542214,69.123683,0.0,64.457577,26.165909,89.764973,16.653946,87.789516,6.889057,72.753605,-2.333393,50.893627,0.0,11.434077,30.47841,59.334588,47.823879,74.225811,59.597101,82.946834,66.506478,85.819932,-1.856283,293.204826,-59.063867,275.403454
95,2.975991,-1.52757,0.23204,-0.222079,0.0,-30.361405,-35.377762,19.529937,-43.937165,21.018951,-46.99894,9.863914,-46.791424,-67.034169,0.0,15.516496,15.869066,45.681992,32.924147,55.436766,44.943877,61.161239,54.442881,70.324766,0.0,64.571949,25.960659,89.602146,16.35648,87.58405,6.601342,72.617741,-2.491516,50.971676,0.0,11.91657,30.575828,59.654813,48.040215,74.415668,59.91561,83.129158,66.805523,86.110048,1.048651,291.618238,-58.902884,275.122357
96,-3.026528,0.944325,0.277245,-0.149868,0.0,-22.173008,-32.243236,25.235527,-41.303306,25.885987,-44.719734,14.654709,-44.473423,-58.686413,0.0,7.871374,15.054874,44.878248,32.800707,55.27388,45.466569,61.020238,55.322873,68.684773,0.0,64.715183,25.888126,89.274525,16.271439,87.356289,6.528408,72.596477,-2.483254,51.23901,0.0,12.275932,30.789051,59.837915,48.298294,74.508578,60.210319,83.197058,67.067838,86.310526,-2.008742,292.497181,-58.656504,274.907107
97,3.036621,-1.526483,-0.016136,-0.113769,0.0,-28.710285,-34.901813,20.540955,-43.734787,22.010948,-47.028122,10.542733,-47.103069,-61.946033,0.0,12.042096,16.87703,44.457086,34.430029,54.679731,46.751608,60.771668,56.153429,70.114308,0.0,65.134517,25.684879,89.174068,16.084373,87.42857,6.454113,72.96175,-2.342984,51.87038,0.0,12.545152,30.752532,59.828146,48.361774,74.485619,60.383159,83.081005,67.269342,86.326298,1.034122,290.901115,-58.666397,274.723755
98,-4.558159,1.746154,0.161579,0.081609,0.0,-22.135082,-30.593193,26.987984,-39.493629,28.22976,-43.003257,17.450432,-43.043998,-52.462463,0.0,9.164848,15.392105,43.128155,33.115078,53.952335,45.736788,59.848289,55.177648,67.41637,0.0,65.215965,25.549015,89.195892,15.967163,87.477905,6.34275,73.127746,-2.419464,52.168396,0.0,12.517031,30.715223,59.72779,48.312337,74.327205,60.387852,82.935089,67.335724,86.358581,-3.452151,292.542534,-58.432932,274.700629
99,3.97744,-0.880425,0.025783,0.153227,0.0,-29.746067,-34.077301,21.686669,-42.592128,23.632119,-45.752037,13.034317,-45.861488,-58.153232,0.0,11.935873,16.384903,42.840768,34.059625,53.529345,46.485772,59.67829,55.743974,68.406217,0.0,65.460949,25.615036,89.2897,16.078938,87.563885,6.483239,73.169598,-2.231506,52.381497,0.0,12.355974,30.490538,59.513059,48.137386,74.090849,60.292041,82.530414,67.307888,86.10249,0.658258,291.524467,-58.27418,274.716214
100,-4.011566,1.713598,-0.01395,0.184572,0.0,-24.732548,-30.193931,27.462158,-38.75861,29.448853,-41.987217,19.511398,-41.963276,-48.403175,0.0,10.141542,15.085873,41.851354,32.67465,53.197795,45.28958,58.706685,54.525305,65.76803,0.0,65.754227,25.906403,89.457436,16.461433,87.721092,6.836231,73.423485,-1.957992,52.74408,0.0,12.082333,30.237942,59.190846,47.862918,73.739144,60.08735,82.105831,67.246631,85.852759,-3.156904,293.061437,-58.091726,274.724158
101,3.731644,-1.298747,0.090454,0.227452,0.0,-31.813603,-33.559525,22.134933,-41.871048,24.63501,-44.706379,14.222236,-44.559609,-57.540585,0.0,13.756312,16.310544,41.528881,33.873522,53.229238,46.331693,59.151078,55.503259,67.659124,0.0,66.017349,26.031544,89.541138,16.640637,87.791886,6.974178,73.479401,-1.896618,52.801781,0.0,11.717585,29.873145,58.953711,47.544927,73.490054,59.904346,81.733611,67.229761,85.655417,0.819838,291.582997,-57.756174,274.771917
102,-5.415573,1.30738,0.291802,0.179928,0.0,-23.912327,-28.216988,29.471168,-36.517845,31.609153,-39.592232,21.737159,-39.306542,-46.167378,0.0,9.933566,14.627512,40.876846,32.671587,53.373079,45.6226,58.605488,55.024347,65.936386,0.0,66.170951,26.274307,89.607421,16.939212,87.797012,7.235149,73.455803,-1.737317,52.797454,0.0,11.387283,29.730527,58.783428,47.429108,73.260393,59.877078,81.438284,67.32845,85.548873,-4.30644,292.729986,-57.175077,274.791454
103,3.603447,-1.691381,0.147068,-0.007484,0.0,-29.934815,-31.513871,24.962219,-39.707531,27.262046,-42.449421,16.495697,-42.003456,-53.790722,0.0,12.144911,16.184474,41.397723,34.152572,53.333448,46.894128,59.14662,56.291453,68.360028,0.0,66.420444,26.446334,89.637233,17.130855,87.810527,7.444885,73.492756,-1.52425,52.823124,0.0,11.310823,29.675655,58.678243,47.430109,73.167285,59.913461,81.330381,67.35646,85.489469,-0.390083,290.890342,-56.715099,274.635707
104,-5.338967,1.309615,0.28593,0.114016,0.0,-19.763935,-26.098423,32.101891,-34.532524,33.766297,-37.756313,23.21798,-37.365165,-43.402473,0.0,7.731065,14.920394,41.308136,33.056589,53.108776,45.949124,58.540008,55.365494,66.116525,0.0,66.460259,26.529591,89.654846,17.262383,87.756455,7.628174,73.388718,-1.334369,52.76825,0.0,11.127968,29.594688,58.483198,47.388847,73.036918,59.935395,81.215871,67.474811,85.472154,-5.423132,292.08223,-56.123251,274.631996
105,5.105896,-0.941903,0.257675,0.052784,0.0,-25.226543,-30.841884,26.694626,-39.762188,28.336922,-42.93956,16.964516,-42.419895,-53.955414,0.0,6.261034,15.175917,41.848427,33.656024,52.505659,46.698403,59.142358,56.50343,68.171158,0.0,66.506882,26.553601,89.661988,17.351407,87.717339,7.760354,73.192772,-1.216438,52.550423,0.0,10.981768,29.594663,58.346865,47.428713,72.83923,60.059649,81.188429,67.705461,85.636447,-0.002301,291.059147,-55.550641,274.6036
106,-6.669605,-0.297341,0.233803,0.041225,0.0,-12.156647,-23.936932,34.966587,-33.765438,36.083782,-38.211674,24.437222,-38.666141,-39.773289,0.0,2.092499,14.534096,43.051955,33.477838,53.81021,46.947591,60.426001,56.741478,68.105134,0.0,66.526634,26.589226,89.734131,17.485749,87.665909,7.945347,72.978035,-1.077713,52.274529,0.0,10.876693,29.754572,58.119871,47.519251,72.368371,60.160746,81.084688,67.879968,85.97374,-6.352758,290.691222,-54.99769,274.574241
107,4.814507,-1.889822,0.373638,0.121969,0.0,-16.447495,-27.542073,29.026966,-38.319958,30.088909,-43.393742,17.042118,-44.600327,-48.930542,0.0,1.138739,15.612196,43.425891,34.837903,54.117246,48.475494,62.143466,58.601586,70.967266,0.0,66.374577,26.399529,89.725514,17.382706,87.527081,7.896744,72.643879,-1.141021,51.729756,0.0,10.765715,29.773702,57.628202,47.479744,71.545769,60.14563,80.756572,67.930579,86.209763,-1.219064,288.732416,-54.304865,274.627226
108,-4.029969,0.330463,0.265046,0.156056,0.0,-6.205204,-23.647922,35.179699,-34.899593,35.680905,-40.571193,23.255642,-42.111728,-38.021747,0.0,-2.440783,14.356885,43.399376,34.272294,54.59822,48.535417,63.029869,58.905485,70.46179,0.0,66.375309,26.275898,89.892757,17.378597,87.508449,7.942005,72.597141,-1.175206,51.183689,0.0,10.561049,29.773616,57.052157,47.370692,70.645719,60.038493,80.331259,67.895479,86.572707,-4.94565,289.018292,-53.736436,274.738695
109,-1.335754,-1.336908,0.065506,0.147312,0.0,-3.305454,-22.15971,37.654873,-33.51725,38.692486,-39.355087,24.659305,-41.156902,-33.600746,0.0,-0.219906,15.858963,44.498273,35.341897,55.074044,49.304085,64.874723,59.546255,74.206717,0.0,66.269611,26.355171,90.157962,17.640461,87.859897,8.174171,73.009952,-1.212067,50.693836,0.0,10.015361,29.752176,56.31908,47.098509,69.548624,59.674141,79.756041,67.567856,87.153901,-5.981867,287.634151,-53.371393,274.838774
110,-8.657444,3.549537,0.196163,0.184016,0.0,6.966408,-14.175236,47.164467,-24.186207,50.192139,-29.42672,36.236961,-30.688831,-15.286652,0.0,3.804258,14.627178,42.53729,32.104237,51.905803,44.683796,61.802628,53.932402,71.015678,0.0,65.930809,26.28804,90.335495,17.675823,88.088676,8.135891,73.360908,-1.533737,50.182457,0.0,9.547231,29.51193,55.691894,46.617979,68.697222,59.113237,79.141674,67.059651,87.6524,-14.366753,291.118937,-52.902672,274.958039
111,6.753605,-0.396475,0.292545,0.24815,0.0,-1.780071,-19.769898,40.041103,-30.016514,43.028309,-35.196419,29.380611,-36.382736,-23.941395,0.0,4.2436,14.271521,41.901829,31.806711,51.988351,44.587441,62.456664,54.431902,72.274127,0.0,65.545406,26.209248,90.503071,17.656517,88.320454,8.0667,73.793713,-1.79052,49.781101,0.0,8.903632,29.206142,55.076107,46.159137,67.938544,58.615727,78.54624,66.634931,88.117962,-7.351221,290.653431,-52.3482,275.137158
112,-6.439064,-0.535808,0.234135,0.194477,0.0,10.667347,-14.680813,48.289936,-24.679253,51.273548,-29.8774,38.280246,-30.838497,-9.79715,0.0,3.589786,13.250008,42.401217,31.213919,53.090435,44.381219,63.373744,54.380043,72.730463,0.0,65.218483,26.118324,90.502052,17.648815,88.527122,8.018429,74.339355,-2.019001,49.571937,0.0,8.389312,28.992078,54.5494,45.795118,67.383272,58.199368,78.105305,66.268776,88.700799,-13.566147,290.054236,-51.889927,275.268248
113,0.786873,-1.51864,0.444202,0.212224,0.0,10.211872,-14.002201,46.881855,-24.218342,49.481632,-30.457489,35.51057,-32.879815,-13.590363,0.0,2.7514,13.270941,42.795061,31.135582,54.021804,44.36357,64.916787,54.558106,75.281471,0.0,64.871784,25.904331,90.1852,17.474785,88.459271,7.806187,74.444332,-2.349689,49.2327,0.0,7.82232,28.913185,54.217133,45.537149,66.819429,57.880056,77.666408,65.97677,89.124456,-12.582967,288.459523,-51.249418,275.404399
114,3.076286,-1.844436,0.50156,0.130441,0.0,8.170452,-15.933495,42.833851,-26.81274,44.184551,-34.114929,30.968227,-37.786137,-20.253914,0.0,-0.039298,12.497481,43.093723,31.193023,55.723881,45.074899,66.557348,55.821409,76.665508,0.0,64.749047,25.574421,89.791283,17.119812,88.158097,7.472626,74.29271,-2.632827,49.05954,0.0,7.620038,28.87411,54.066759,45.455392,66.489868,57.806438,77.420049,65.894878,89.398554,-9.316006,286.5465,-50.557183,275.466253
115,0.106007,-3.707112,0.437748,0.078757,0.0,4.974083,-16.511982,42.48603,-27.681942,42.510978,-35.269822,29.254623,-39.478695,-18.770176,0.0,1.436204,14.42623,46.127842,34.200021,58.968334,48.767154,69.072467,59.945263,78.263819,0.0,64.757138,25.278626,89.387295,16.791355,87.852185,7.176865,74.173268,-2.84539,48.842091,0.0,7.460376,28.908542,53.873332,45.477042,66.11377,57.833435,77.243701,65.849972,89.608851,-9.036489,282.78816,-49.945925,275.493782
116,1.660835,0.282731,0.244938,-0.011177,0.0,3.281181,-17.548416,40.413185,-28.452278,40.441063,-35.97155,27.500954,-40.265499,-24.734574,0.0,0.045399,14.743108,47.11549,34.071629,59.237059,48.083835,68.943557,58.940175,78.566939,0.0,64.896218,24.960777,89.144921,16.44714,87.675911,6.847515,74.107933,-3.097847,48.781952,0.0,7.537601,28.863872,53.729639,45.410574,65.862113,57.768412,77.05682,65.712281,89.651286,-7.21491,283.03164,-49.540243,275.443354
117,1.419479,-0.421953,0.234661,-0.017414,0.0,1.485077,-18.834652,38.522576,-29.956215,38.739395,-37.498718,25.629112,-41.816757,-28.845028,0.0,0.770176,15.239755,47.644296,34.591148,59.38237,48.559709,69.47503,59.314111,79.463394,0.0,64.903393,24.810425,89.002659,16.255635,87.413235,6.619778,73.844548,-3.339958,48.524952,0.0,7.49424,28.925635,53.730541,45.395976,65.745331,57.722569,76.894306,65.608282,89.620917,-5.638018,282.583819,-49.148169,275.400072
118,-3.722465,0.315223,0.180313,-0.010275,0.0,4.152649,-16.480007,43.627762,-27.192627,44.524406,-33.758046,30.839927,-36.690937,-22.996697,0.0,4.844197,16.364465,48.651211,35.401623,58.961801,48.814059,68.543341,59.216213,79.052087,0.0,64.755696,24.566746,89.038273,16.01944,87.33347,6.417115,73.752285,-3.471141,48.449124,0.0,7.453744,28.855968,53.604347,45.325568,65.663931,57.662708,76.723664,65.534329,89.507259,-9.206451,282.893648,-48.813824,275.384403
119,5.063369,1.08414,0.222325,-0.010621,0.0,-2.876106,-20.898307,37.71357,-31.637695,39.122681,-37.64114,26.231575,-39.865116,-30.541729,0.0,4.011937,16.636413,48.797967,35.327188,58.823554,48.299097,67.671103,58.482358,77.892822,0.0,64.559967,24.383766,89.028282,15.796921,87.170814,6.200729,73.584228,-3.630329,48.228287,0.0,7.381582,28.806011,53.574929,45.279527,65.57795,57.640416,76.624888,65.528166,89.418141,-4.005913,283.978743,-48.45433,275.374737
120,2.414795,-0.880524,0.102333,0.046128,0.0,2.595658,-22.70327,35.164902,-34.56356,36.490837,-41.325851,23.657181,-43.891559,-38.604995,0.0,-2.984854,16.201974,48.065175,36.272773,59.832568,50.215028,69.673262,60.788291,81.391835,0.0,64.18325,24.371017,89.12146,15.775463,87.040672,6.17886,73.432686,-3.608025,48.092125,0.0,7.203432,28.849841,53.555984,45.273277,65.418584,57.614048,76.414183,65.506405,89.216488,-1.462475,283.105746,-48.223354,275.428392
