takenoko1/special-research/HandMotion_SimilarSearch_自分用/NewProject/handData/test_key/d4_feature_d3/132.csv
frame,vel_0x_L,vel_0y_L,vel_0x_R,vel_0y_R,posFromWrist_0x_L,posFromWrist_1x_L,posFromWrist_2x_L,posFromWrist_3x_L,posFromWrist_4x_L,posFromWrist_5x_L,posFromWrist_6x_L,posFromWrist_7x_L,posFromWrist_8x_L,posFromWrist_9x_L,posFromWrist_0y_L,posFromWrist_1y_L,posFromWrist_2y_L,posFromWrist_3y_L,posFromWrist_4y_L,posFromWrist_5y_L,posFromWrist_6y_L,posFromWrist_7y_L,posFromWrist_8y_L,posFromWrist_9y_L,posFromWrist_0x_R,posFromWrist_1x_R,posFromWrist_2x_R,posFromWrist_3x_R,posFromWrist_4x_R,posFromWrist_5x_R,posFromWrist_6x_R,posFromWrist_7x_R,posFromWrist_8x_R,posFromWrist_9x_R,posFromWrist_0y_R,posFromWrist_1y_R,posFromWrist_2y_R,posFromWrist_3y_R,posFromWrist_4y_R,posFromWrist_5y_R,posFromWrist_6y_R,posFromWrist_7y_R,posFromWrist_8y_R,posFromWrist_9y_R,posFromBody_0x_L,posFromBody_0y_L,posFromBody_0x_R,posFromBody_0y_R
6,-4.620713,-5.174907,-1.021236,0.496337,0.0,1.337014,-6.260341,39.884377,-15.67567,43.08355,-24.398883,28.264687,-31.726043,-30.190052,0.0,-0.848228,20.803171,47.488673,38.091594,61.053682,49.504453,66.766695,58.153772,75.762964,0.0,65.038971,25.768249,82.447014,17.074585,82.255234,7.607963,70.064506,-1.575256,50.460869,0.0,1.450962,26.533177,57.335875,42.436291,72.517412,54.264632,80.413289,62.530962,83.342506,-11.268374,293.953527,-46.942171,288.305328
7,-3.002014,0.552642,-0.152092,-0.153808,0.0,4.694413,-3.023975,43.671433,-12.398094,46.79892,-21.50513,31.151871,-29.342342,-27.443435,0.0,-3.477487,19.892648,46.005823,37.61551,60.538708,49.375703,66.391881,58.199454,74.910462,0.0,65.087906,25.828102,82.47995,17.272488,82.680382,7.878925,70.543739,-1.253975,51.123539,0.0,1.715735,26.856378,57.486855,42.79374,72.407533,54.621982,80.438359,62.880716,83.575885,-13.6621,294.356418,-46.485975,288.001769
8,0.612122,-3.012074,-0.038212,-0.189215,0.0,6.022705,-1.846275,44.21299,-12.843556,46.528427,-24.629139,27.952949,-35.380531,-41.765545,0.0,-6.62661,22.373557,48.121503,40.632055,63.844171,52.587811,70.266411,61.343044,80.937685,0.0,65.151089,25.802605,82.426701,17.299851,82.731113,7.956139,70.598774,-1.134247,51.070908,0.0,1.933837,26.926514,57.622816,42.876225,72.379041,54.728575,80.711221,63.02494,83.706536,-12.81134,291.199484,-46.285549,287.667694
9,2.38591,0.497869,0.139835,-0.086439,0.0,2.278141,-4.215008,40.9907,-15.218067,43.4897,-26.707924,25.42765,-37.171131,-45.43277,0.0,-6.337309,22.759534,47.93866,40.733375,63.387415,52.468732,69.640039,61.199153,80.810812,0.0,65.071816,25.645638,82.303025,17.139828,82.59803,7.8265,70.463082,-1.225708,50.886292,0.0,2.017189,27.026674,57.51878,42.960157,72.356453,54.778532,80.926225,63.026077,83.822665,-10.242474,291.616747,-45.962758,287.500649
10,1.2938,0.451877,-0.04581,-0.059107,0.0,-0.472515,-5.722263,39.103432,-16.889534,41.400284,-28.201252,23.615502,-38.430713,-47.254177,0.0,-6.036572,22.989851,47.993519,40.803783,63.034079,52.414935,69.099909,61.146579,80.548077,0.0,65.249622,25.814987,82.391178,17.300594,82.678035,7.948997,70.473209,-1.158554,50.88739,0.0,2.065428,27.14884,57.550001,43.016053,72.277795,54.768058,81.037548,62.970341,83.894814,-8.794504,292.02807,-45.854398,287.400988
11,-0.860641,0.13511,-0.060562,-0.061405,0.0,-0.442932,-4.678116,40.161896,-15.765942,42.230598,-27.139595,24.505829,-37.413117,-45.544384,0.0,-6.270619,23.101187,47.64742,40.847428,62.797168,52.429706,68.634064,61.146752,80.229581,0.0,65.401554,25.616146,82.440731,17.114399,82.773731,7.798461,70.628963,-1.257843,50.957027,0.0,2.132168,26.897578,57.472998,42.817575,72.312536,54.648707,81.246425,62.91342,83.947932,-9.514303,292.127988,-45.774118,287.304391
12,2.629268,0.423052,-0.150628,-0.019785,0.0,-3.547863,-7.170902,37.640706,-18.284797,39.477711,-29.222751,22.542767,-38.988189,-47.022045,0.0,-6.446509,22.700859,47.122851,40.517545,62.618931,52.181358,68.283963,60.995044,79.511436,0.0,65.370015,25.677441,82.570073,17.152668,82.914036,7.773892,70.807744,-1.387596,50.955265,0.0,2.115014,26.635263,57.449163,42.590334,72.369186,54.48707,81.239744,62.821461,83.964271,-6.767189,292.531054,-45.8069,287.26462
13,0.704773,4.907169,-0.172988,0.039792,0.0,-8.759216,-9.554123,36.160733,-18.93077,39.038441,-27.202629,25.167126,-33.909439,-34.783882,0.0,-0.640648,19.988337,45.426555,35.005518,58.866668,44.651476,62.114949,52.194524,69.366436,0.0,65.406658,26.022594,82.921314,17.554595,83.169948,8.148021,71.075351,-1.122025,51.302879,0.0,2.023142,26.506785,57.196159,42.509021,72.312092,54.443881,81.071474,62.860771,83.916847,-6.009802,297.425682,-45.927274,287.291871
14,1.265843,-0.357312,-0.19645,0.017377,0.0,-9.271717,-10.622418,34.946159,-19.960613,38.276916,-28.060661,25.134979,-34.505631,-36.231571,0.0,-0.880364,19.765528,45.886027,34.978187,59.175135,44.669321,62.247786,52.341872,69.572373,0.0,65.512379,26.270176,83.262669,17.821347,83.37711,8.364579,71.326802,-0.989788,51.612065,0.0,1.889698,26.227734,57.119378,42.354163,72.43495,54.400816,80.961447,62.919434,83.843425,-4.729025,297.06833,-46.10879,287.309208
15,-1.171555,5.506889,-0.01197,0.015993,0.0,-15.425262,-11.700004,34.141182,-18.399811,39.265068,-23.363662,30.066857,-26.555614,-19.500137,0.0,6.778503,17.107705,43.455827,29.030412,53.916014,36.308563,54.548103,42.224141,57.871424,0.0,65.40073,26.237514,83.413479,17.787987,83.371456,8.312965,71.328609,-1.088413,51.598903,0.0,1.780845,25.987834,56.934127,42.214175,72.57174,54.333546,80.891706,62.935168,83.705858,-5.898011,302.582595,-46.118191,287.332577
16,2.03579,-0.279198,0.134159,0.053624,0.0,-17.418606,-14.028179,31.074028,-20.559059,37.06652,-24.932293,28.485374,-27.46891,-21.88535,0.0,8.071989,17.369341,44.825118,29.063325,54.658809,36.102699,54.905131,41.978078,58.035976,0.0,65.17923,26.427452,83.397835,17.983635,83.201042,8.488964,71.093376,-0.997719,51.424896,0.0,1.596458,26.25693,56.692214,42.461844,72.432085,54.500395,80.688745,63.047085,83.575676,-3.874763,302.318378,-45.996574,287.401182
17,-2.279961,2.727145,0.276855,0.163515,0.0,-15.377918,-13.377193,32.976425,-18.584507,40.137634,-21.111053,32.99469,-21.443642,-7.855179,0.0,11.856153,16.026035,44.535027,25.796518,52.812558,31.53039,51.671608,36.659429,51.944755,0.0,65.045449,26.204396,83.332238,17.771736,82.917229,8.326058,70.748978,-1.125503,51.137043,0.0,1.355755,26.178161,56.015565,42.330118,72.022198,54.305585,80.347006,62.839986,83.184771,-6.166878,305.056551,-45.731873,287.575725
18,5.356316,-2.840704,0.258854,-0.00657,0.0,-18.713425,-18.085053,26.780937,-24.253166,33.203476,-27.5369,25.94545,-28.809094,-20.34668,0.0,10.571127,17.465116,46.717558,28.085347,55.248031,34.230995,55.174474,39.504295,57.456547,0.0,64.907215,26.027733,83.165463,17.520081,82.585018,8.014527,70.43771,-1.485203,50.83255,0.0,1.291078,26.058439,55.906921,42.220437,72.059001,54.215207,80.278611,62.750398,82.999433,-0.823236,302.22193,-45.485693,287.575238
19,1.321609,3.329236,0.273091,-0.043756,0.0,-15.908249,-20.098148,26.483345,-25.653499,32.933029,-27.443699,25.828514,-26.660923,-18.421509,0.0,8.116696,14.104177,43.174468,24.266208,51.78418,30.653917,52.777929,36.262757,54.998894,0.0,64.663948,26.074642,83.100586,17.567195,82.32582,8.028865,70.150405,-1.569043,50.510925,0.0,1.308701,26.200255,55.706022,42.22771,71.849667,54.126051,80.098485,62.634357,82.819504,0.485412,305.544222,-45.225563,287.524538
20,7.799595,-4.635962,0.26588,-0.085228,0.0,-15.843853,-25.38303,20.578274,-33.560875,25.106655,-37.330089,15.412754,-38.442638,-40.966129,0.0,1.582836,15.050626,45.972972,28.179369,56.455525,36.831836,59.610859,44.211109,64.896423,0.0,64.553387,26.094475,83.155575,17.565285,82.225743,7.973065,70.023251,-1.713821,50.299851,0.0,1.337489,26.046336,55.54231,42.014548,71.647002,53.916545,79.899377,62.434718,82.64375,8.267103,300.887243,-44.977587,287.418293
21,-0.501812,1.445034,0.191082,-0.73026,0.0,-12.277897,-24.695503,24.235085,-33.27198,27.519631,-36.894058,17.301567,-37.287575,-38.919422,0.0,-0.896863,13.095064,45.747904,26.656998,55.449005,35.867048,58.415828,43.546428,63.059521,0.0,64.553055,26.066219,83.52404,17.542191,82.638474,7.929268,70.394394,-1.761806,50.523789,0.0,1.595321,26.006445,55.80544,42.014782,71.842603,53.944159,80.182132,62.438163,82.873091,7.74543,302.2954,-44.806366,286.651156
22,0.343277,-2.663517,0.697403,-2.692257,0.0,-8.558132,-24.423466,26.677574,-33.598823,29.118897,-37.821854,17.121597,-38.683594,-47.728683,0.0,-4.191828,12.633195,47.559611,27.943296,57.727508,38.762969,62.619166,47.65504,70.225878,0.0,64.307144,25.703842,83.261009,17.195217,82.273659,7.596439,69.806099,-2.114696,50.028832,0.0,2.7175,26.161834,57.394637,42.329636,74.083736,54.357542,82.384794,62.985334,84.730532,8.045093,299.611551,-44.152577,283.938567
23,-5.817387,4.34056,0.923836,-5.365913,0.0,-8.187904,-20.796855,21.246701,-26.778602,31.816693,-28.424308,22.861439,-26.926528,-32.33456,0.0,-1.859108,10.147383,44.326644,22.181205,51.869703,30.695944,54.743,37.582362,61.104502,0.0,63.481682,24.736873,80.673935,16.069828,79.077255,6.241184,64.672096,-3.782684,40.567245,0.0,3.94374,25.748971,59.299859,41.818651,77.7731,53.843605,87.127818,62.329038,86.692984,2.163991,303.934309,-43.292456,278.554852
24,5.83944,-11.448267,-2.164656,-13.045046,0.0,-18.799656,-22.120766,2.502468,-24.555737,12.438309,-23.46492,8.599537,-19.859711,-28.603066,0.0,9.34837,16.124514,52.098686,27.043889,60.003949,34.452283,62.42275,39.940512,67.299699,0.0,62.80497,24.840128,75.299618,15.962237,72.261904,5.805044,56.806131,-4.623373,31.45907,0.0,3.41071,23.456616,57.054596,39.537844,76.388563,52.039363,86.805444,61.171736,86.073232,7.942829,292.470138,-45.517714,265.493902
25,8.117134,-18.668817,-5.235546,-20.724266,0.0,-19.970753,-20.940422,-13.975353,-18.962105,-3.442257,-14.028362,-1.421917,-6.725956,-18.973137,0.0,19.637273,18.398918,59.681131,28.6195,69.481971,36.163066,72.405025,41.725889,74.924146,0.0,62.152062,26.190062,67.111851,17.099196,61.772398,6.53583,46.158995,-4.4116,22.643446,0.0,1.255806,19.613753,50.604074,35.731327,69.777379,49.082494,81.274052,59.587406,82.833065,16.00205,273.857063,-50.811173,244.825378
26,15.055378,-22.058729,-7.505562,-26.343256,0.0,-29.749363,-26.042942,-34.174805,-19.58083,-20.806526,-10.118225,-12.358315,1.195278,-11.277248,0.0,31.439864,21.584621,60.675559,29.970451,70.382403,36.308933,73.378656,40.725483,74.600203,0.0,52.954708,25.668417,54.150696,14.870688,45.248617,2.764086,29.512499,-9.399084,7.688467,0.0,-7.288284,9.168237,31.721248,21.844325,48.49345,32.828674,59.168429,41.993812,60.46846,30.985703,252.195485,-58.38846,218.879273
27,28.035244,-36.785789,-15.462238,-35.373082,0.0,-45.437691,-31.231957,-57.262447,-21.350247,-42.287991,-8.863255,-27.572949,4.978134,-9.604031,0.0,39.916003,19.506671,58.727501,26.728166,68.377979,32.893808,69.886751,37.516432,69.198135,0.0,46.954697,18.411032,33.79937,5.713823,21.250151,-7.297777,5.705938,-19.761263,-13.432898,0.0,-19.578011,-8.400267,0.322936,1.627556,13.900709,11.904967,25.664114,21.690468,31.070455,59.081463,216.321317,-73.790182,184.417812
28,32.000988,-46.487532,-21.782078,-42.012837,0.0,-46.412945,-33.120815,-58.057526,-22.193802,-48.89296,-8.690346,-33.376465,6.066788,-12.906967,0.0,28.455331,11.61847,45.267134,18.036104,54.686943,24.16277,57.366145,29.323739,56.785568,0.0,40.100659,10.685663,13.772564,-3.396875,-2.939993,-16.965082,-16.60306,-29.381132,-29.134374,0.0,-34.664693,-25.757746,-37.462135,-18.532355,-30.067314,-9.443861,-17.540131,0.740053,-3.498865,91.039856,170.686361,-95.614855,143.257551
29,26.330086,-43.71839,-24.360369,-45.221723,0.0,-40.764061,-24.976364,-43.91977,-12.728302,-32.210415,1.271026,-16.955109,15.859474,0.873436,0.0,9.464628,-6.498231,17.503253,-1.995508,23.893501,3.997005,26.617737,10.584644,26.848492,0.0,32.187252,1.291569,-4.999454,-14.001583,-24.328823,-27.990852,-37.294315,-40.282093,-46.524684,0.0,-48.128271,-41.333756,-71.002612,-36.949217,-69.576171,-29.302725,-56.480298,-19.052268,-36.858815,116.76713,127.786673,-120.578036,98.85453
30,28.311218,-44.598895,-27.295223,-46.28872,0.0,-33.373879,-16.261276,-22.242897,-3.068688,-8.328896,10.817757,5.203995,24.803055,21.716103,0.0,-13.033129,-23.243677,-24.005498,-20.692032,-21.725827,-15.537769,-18.034523,-8.395142,-11.98943,0.0,24.451561,-9.25819,-21.42572,-25.62537,-41.598976,-39.951633,-54.588856,-52.10693,-64.549084,0.0,-60.149607,-55.032684,-101.072074,-53.629029,-103.793016,-48.016818,-90.853292,-38.512905,-68.380313,144.255615,84.253686,-148.695992,53.631718
31,34.397438,-52.085843,-29.984653,-46.814686,0.0,-24.47731,-5.829918,-4.573219,8.225624,9.355476,21.840294,22.367203,34.987633,38.719139,0.0,-33.757011,-40.610616,-59.319292,-39.435487,-59.493743,-34.280457,-53.817652,-25.55944,-42.470137,0.0,24.72773,-18.208741,-34.106335,-34.310509,-53.624668,-47.980328,-66.377335,-59.415161,-77.095642,0.0,-66.347554,-62.663175,-118.885795,-60.591659,-123.274845,-53.572385,-108.662922,-41.975256,-80.880257,177.69857,33.163155,-179.635128,7.812344
32,28.598396,-43.808114,-26.143971,-40.906017,0.0,-13.039627,5.331414,15.644509,20.459496,30.589623,34.425408,42.919968,47.256661,58.276245,0.0,-53.700603,-52.627045,-91.831717,-53.356601,-94.92469,-49.133651,-86.896655,-40.111428,-69.925734,0.0,21.648697,-19.668216,-39.009418,-35.071609,-57.358806,-48.328411,-69.827293,-59.595852,-82.219379,0.0,-69.668503,-61.46141,-123.994073,-59.221325,-129.021187,-52.219621,-114.72579,-40.503379,-85.93136,205.246771,-9.551177,-206.829294,-31.999891
33,30.763413,-45.737409,-24.581623,-35.518651,0.0,-5.101845,15.20002,29.654159,30.716995,44.124,44.291656,55.422638,56.031234,70.908783,0.0,-61.507822,-57.381577,-108.355754,-54.846583,-110.100077,-47.20982,-98.535454,-34.623833,-74.978619,0.0,20.276219,-20.231392,-41.79586,-35.349632,-57.886036,-48.416244,-69.868915,-59.630745,-83.042541,0.0,-70.567982,-60.869311,-123.451714,-58.268708,-127.691337,-50.88117,-114.181523,-38.589342,-86.38183,235.154188,-53.755756,-232.266913,-65.985712
34,30.825485,-36.43776,-21.619789,-27.533793,0.0,-1.1017,17.350845,37.707436,32.568718,51.651878,45.894722,63.125885,57.454628,79.207603,0.0,-65.317434,-57.432518,-118.145089,-54.292231,-120.951,-46.375498,-108.42996,-33.464528,-80.799624,0.0,20.638458,-20.702419,-43.255554,-35.582417,-57.348278,-48.208351,-68.218071,-59.208,-82.288822,0.0,-70.968908,-59.329789,-121.805691,-56.398056,-124.182517,-48.851161,-111.515467,-36.501931,-83.976509,265.752646,-88.408102,-254.113729,-91.734091
35,24.69841,-29.175801,-17.471615,-20.594472,0.0,0.879158,20.624702,41.757248,35.310768,54.723015,48.096382,66.407959,58.972366,81.080109,0.0,-69.224046,-56.458192,-117.288087,-52.776367,-120.306625,-44.552854,-107.441928,-31.529705,-78.697393,0.0,20.470482,-21.066135,-44.053516,-35.803894,-56.987274,-48.001419,-67.099193,-58.719074,-81.055984,0.0,-71.227223,-57.947136,-119.411971,-54.523783,-120.824027,-46.621978,-108.433971,-34.112867,-81.2472,290.502211,-116.049714,-271.534189,-110.794374
36,19.505859,-21.83234,-13.469307,-15.411958,0.0,0.523316,22.013718,43.281739,36.560921,56.478356,48.865265,67.237381,59.155083,80.42109,0.0,-72.89433,-55.470772,-116.776343,-51.439303,-119.431055,-42.812579,-106.497221,-29.379527,-77.060219,0.0,21.449524,-21.144047,-43.956836,-35.541996,-56.57214,-47.163894,-66.084068,-57.491226,-79.294739,0.0,-71.647243,-56.874297,-117.537809,-53.197989,-118.100789,-45.125898,-106.213941,-32.464825,-79.352614,310.203123,-136.523619,-284.808443,-124.847897
37,12.824868,-16.685928,-9.401367,-12.603411,0.0,1.336166,22.742752,44.139495,36.930427,56.727699,48.707382,66.579597,58.66246,78.858925,0.0,-75.945638,-54.489952,-115.948073,-49.968127,-117.977729,-41.164312,-104.952094,-27.897341,-75.625528,0.0,23.341873,-21.220596,-42.445095,-35.506725,-55.188698,-47.059593,-64.358562,-57.38736,-77.580666,0.0,-71.8791,-57.52915,-117.458726,-54.01897,-118.404965,-46.140031,-106.582543,-33.468504,-79.828249,323.123137,-152.502788,-294.114664,-136.744549
38,5.382408,-13.138233,-2.686111,-11.397613,0.0,1.398948,22.910156,42.520889,36.507637,55.356743,47.663772,65.113106,57.523681,76.848266,0.0,-77.536558,-53.856135,-116.040211,-49.35708,-118.240799,-40.724369,-105.238115,-27.525166,-75.961118,0.0,25.024818,-21.055321,-40.982243,-35.233487,-53.606976,-46.699734,-62.877789,-57.006936,-76.624878,0.0,-71.435782,-56.89406,-116.887884,-53.471355,-117.774514,-45.912367,-106.193489,-33.531949,-80.078612,328.48272,-165.344252,-296.8236,-147.845393
39,-1.745384,-12.005367,2.957908,-11.201765,0.0,0.901496,22.705261,40.067596,35.995513,52.643463,46.834396,61.929817,56.8022,73.248367,0.0,-77.562914,-53.920517,-116.383901,-49.639406,-118.43225,-41.241189,-105.333293,-28.256019,-76.915504,0.0,26.750736,-19.750534,-37.819931,-34.172996,-50.832172,-46.055969,-60.954883,-56.670055,-75.30114,0.0,-70.529905,-57.139691,-117.387219,-53.857864,-118.577587,-46.665203,-107.107171,-34.612672,-81.799136,326.64441,-177.367209,-293.958618,-159.064748
40,-7.856278,-10.122322,8.864239,-11.595449,0.0,-1.411056,21.114189,35.484764,34.468002,48.098145,45.293724,57.5877,55.681366,69.187821,0.0,-75.950992,-55.04481,-117.39086,-51.530572,-119.760163,-43.622121,-106.569238,-30.93084,-79.949762,0.0,29.557411,-18.071251,-33.626701,-32.723351,-47.111572,-45.12014,-58.041424,-56.185444,-73.577316,0.0,-68.243454,-57.373491,-118.170708,-54.584185,-119.581324,-48.018628,-108.135045,-36.538612,-83.595941,318.661795,-187.69851,-285.220716,-170.869176
41,-13.048874,-7.880109,14.04673,-10.986504,0.0,-3.491295,19.190804,29.705406,31.877907,40.4935,42.316727,50.609986,52.758888,62.645302,0.0,-73.838069,-55.569911,-117.667144,-52.881021,-120.658379,-45.79722,-107.781953,-33.93895,-83.305195,0.0,32.385452,-15.494488,-26.955288,-30.4189,-41.035297,-43.393616,-53.164249,-54.978241,-70.333294,0.0,-65.527998,-57.461224,-119.239258,-55.532254,-121.246619,-49.906686,-110.046532,-39.229237,-86.29052,305.563894,-195.945688,-271.223013,-182.222749
42,-17.260574,-5.839832,18.556835,-9.997061,0.0,-6.835373,16.419594,21.434212,28.557426,31.259788,38.559791,42.705643,48.954918,55.724304,0.0,-70.860428,-55.879478,-118.907853,-54.202862,-122.235903,-48.152342,-110.185605,-37.323306,-87.727769,0.0,35.112522,-12.611984,-19.790474,-27.610256,-34.081856,-40.972572,-47.217121,-53.103515,-65.762832,0.0,-61.88855,-57.155374,-119.300189,-56.361579,-122.107139,-51.851568,-111.914375,-42.16421,-89.145313,288.359951,-202.083481,-252.609547,-192.517771
43,-24.470398,-2.675062,20.861378,-7.492959,0.0,-12.824593,12.160515,13.49089,24.663711,23.297996,35.275062,35.707168,46.447128,49.986374,0.0,-69.796094,-57.599054,-122.035373,-57.051955,-126.235574,-51.950149,-114.628855,-42.014382,-93.741653,0.0,38.21291,-8.309979,-10.381382,-23.233051,-24.922474,-36.887695,-38.69632,-49.731766,-58.816132,0.0,-58.548003,-56.99858,-119.825623,-57.661692,-123.668172,-54.437247,-114.830838,-45.849709,-92.907167,263.870407,-204.974101,-231.767315,-200.226288
44,-25.453102,0.130438,22.27177,-4.682503,0.0,-19.138436,7.770332,3.571449,20.192093,13.143402,31.06842,27.360466,42.708229,43.495422,0.0,-67.461785,-58.945203,-123.5769,-59.736317,-128.828686,-55.716523,-118.607787,-46.727288,-99.23777,0.0,40.666397,-3.413005,0.010792,-17.734577,-14.047153,-31.322113,-28.035896,-44.674724,-50.020488,0.0,-54.394996,-57.10591,-119.890018,-59.419261,-125.156477,-57.601738,-117.886106,-50.296961,-97.2961,238.359038,-204.745715,-209.553812,-204.810843
45,-25.67601,3.399345,22.397805,-1.581978,0.0,-24.436432,2.723053,-7.22168,14.84468,2.035835,25.775551,17.662353,37.761772,35.504539,0.0,-65.093201,-59.926754,-124.754322,-61.984658,-130.718262,-59.041458,-122.087566,-50.931476,-103.989607,0.0,42.432529,2.097919,11.15839,-11.461785,-2.068909,-24.703011,-16.136559,-38.321423,-39.456482,0.0,-50.363808,-56.750942,-119.374952,-60.623505,-126.252531,-60.256433,-120.671065,-54.474847,-101.778424,212.495505,-201.12589,-187.34353,-206.172341
46,-26.668259,6.546374,22.263095,0.876872,0.0,-32.904556,-2.243294,-17.389091,9.807518,-8.469658,21.101234,7.742111,33.800011,27.488136,0.0,-63.230348,-61.248731,-125.720731,-64.145951,-131.576887,-62.059073,-124.525508,-54.96044,-108.191757,0.0,44.124825,7.92318,21.484303,-4.740989,9.856728,-17.52016,-3.813022,-31.344577,-28.468402,0.0,-45.131141,-55.987354,-117.419689,-61.352999,-125.749768,-62.371842,-121.605419,-58.157565,-105.14547,185.224216,-194.198439,-165.683465,-204.914392
47,-25.730896,9.196261,20.863301,2.659371,0.0,-37.152832,-8.413879,-28.475464,3.683075,-19.712082,15.527435,-2.533928,29.153275,18.790649,0.0,-60.765296,-61.321783,-124.53576,-65.412306,-131.406382,-64.388723,-126.130744,-58.303156,-111.47809,0.0,42.949848,13.481209,32.487751,2.048652,22.725494,-10.004414,9.281994,-23.702889,-16.162274,0.0,-41.654827,-53.905708,-113.777423,-60.216919,-123.234195,-62.334852,-119.844782,-59.792387,-105.700834,159.089973,-184.670143,-145.223511,-201.922986
48,-23.481537,12.585481,24.906292,9.149024,0.0,-43.209503,-14.213653,-40.527603,-2.104957,-31.973327,10.071762,-13.79116,24.324303,8.990341,0.0,-56.361127,-60.942867,-122.767458,-66.534156,-130.165682,-66.620732,-125.098193,-61.604803,-112.662233,0.0,48.385174,18.249401,41.770981,6.275665,31.187416,-6.311772,17.262119,-20.465561,-9.029869,0.0,-37.03589,-55.562255,-113.475414,-62.581103,-122.011114,-64.919735,-118.916093,-62.793778,-108.80038,135.012182,-171.684108,-120.913473,-192.373408
49,-22.391624,15.52543,23.455742,12.102896,0.0,-51.033291,-18.650071,-51.564846,-6.250191,-42.405876,6.387336,-24.492737,20.993934,-0.307434,0.0,-53.991942,-61.182163,-124.184659,-67.820218,-132.127328,-68.886672,-127.536685,-65.071231,-115.434675,0.0,53.26308,20.681774,48.587276,7.894844,37.4519,-5.163288,22.871521,-19.254227,-1.96502,0.0,-33.176694,-56.261528,-109.851847,-64.20256,-119.02021,-67.188638,-116.491883,-65.696517,-108.974643,112.074423,-155.423836,-98.003866,-179.53567
50,-20.234162,17.522387,21.355592,15.449153,0.0,-55.335949,-22.83284,-59.650142,-10.248687,-50.267784,2.721062,-33.477539,17.614632,-9.186653,0.0,-52.922919,-61.136008,-125.567348,-68.476727,-134.838902,-70.516945,-131.567018,-68.224029,-119.811208,0.0,56.678793,21.885354,52.945998,8.557221,41.608483,-4.662067,26.901204,-18.369625,3.891886,0.0,-30.843141,-57.042487,-106.905302,-65.741157,-116.592112,-69.204965,-114.569969,-68.052884,-108.9886,91.385456,-136.847845,-77.103079,-163.032913
51,-17.918243,19.217809,19.425114,18.191094,0.0,-56.224995,-27.12616,-66.003994,-13.583176,-53.974777,0.488731,-35.818153,16.394028,-10.758682,0.0,-49.879668,-60.65529,-124.941495,-69.395651,-137.298576,-72.65455,-135.382521,-71.522165,-123.879754,0.0,58.088922,21.664009,55.132101,8.067718,44.002945,-4.958073,29.429329,-17.956833,8.605127,0.0,-29.950429,-57.461193,-105.091958,-66.644609,-115.189954,-70.475194,-113.744631,-69.5787,-109.201872,73.316362,-116.145911,-57.828816,-143.357694
52,-16.322067,20.255722,17.885176,21.824992,0.0,-60.903923,-29.144715,-69.376202,-14.719803,-54.407421,0.387268,-34.766465,17.105964,-8.633744,0.0,-48.75296,-61.137811,-123.437064,-70.944465,-137.440586,-74.988774,-136.347593,-74.732661,-126.172531,0.0,60.627021,21.016022,54.628441,7.088848,43.9907,-5.63007,30.113651,-17.801342,11.438312,0.0,-28.667574,-59.206814,-105.865308,-69.156146,-116.432315,-73.516379,-115.794195,-72.734591,-112.019153,56.475472,-93.861756,-40.462463,-119.504269
53,-10.309777,19.982964,11.495987,19.837159,0.0,-61.473152,-30.605449,-73.693805,-16.025779,-57.620006,-0.37722,-34.927379,16.892235,-5.155151,0.0,-47.144071,-60.032361,-119.511207,-70.42255,-134.893523,-75.361506,-137.340357,-76.369022,-128.355595,0.0,54.727935,19.458542,53.033905,7.406654,46.040344,-3.221016,33.938484,-13.364792,18.080826,0.0,-29.114661,-56.9427,-103.442489,-67.570183,-116.404132,-73.050511,-116.796515,-73.351431,-111.630429,45.925598,-72.886503,-29.206573,-98.674821
54,-7.142646,18.151923,10.654115,21.026432,0.0,-60.486191,-33.795342,-77.842415,-19.421631,-62.483677,-3.495621,-37.483212,14.506576,-4.469559,0.0,-43.590792,-57.421359,-111.926003,-68.574095,-128.630974,-74.46141,-133.726625,-76.513917,-128.160202,0.0,47.893553,18.790284,50.97848,9.071446,47.394848,0.792675,37.756577,-7.460975,23.491488,0.0,-30.880717,-55.107249,-105.24335,-65.959405,-118.650642,-72.017097,-119.602243,-73.015501,-113.981836,38.47098,-54.721634,-18.86443,-77.635443
55,-5.465493,15.314886,10.654116,21.026432,0.0,-63.335392,-36.585296,-82.683815,-22.603134,-68.460983,-6.67765,-43.005272,11.554711,-9.127567,0.0,-38.576371,-54.58985,-103.610639,-66.670564,-121.004409,-73.345932,-126.702367,-76.161405,-123.37476,0.0,41.05917,18.122025,48.923054,10.736237,48.749352,4.806366,41.574669,-1.557159,28.902149,0.0,-32.646774,-53.271797,-107.04421,-64.348627,-120.897151,-70.983683,-122.40797,-72.679571,-116.333243,32.695295,-39.895064,-8.520506,-57.097327
56,-3.422355,12.07927,13.023659,15.980309,0.0,-66.738407,-38.930306,-87.594979,-26.044258,-76.32058,-10.855797,-52.03204,6.937248,-19.114655,0.0,-34.551961,-51.737941,-97.488207,-64.400471,-114.483998,-71.789896,-120.494107,-75.631374,-118.4648,0.0,36.799999,15.585136,46.522602,6.991402,43.849846,-0.151406,33.119202,-7.335571,14.950264,0.0,-34.267119,-52.096967,-106.378926,-62.290639,-121.051187,-67.348118,-122.275171,-67.25765,-113.265378,28.980847,-29.006546,4.21106,-42.30777
57,-0.770325,8.159304,9.210188,12.206988,0.0,-69.312927,-41.991291,-93.029457,-30.18639,-85.282024,-15.908707,-63.113102,1.25576,-31.422192,0.0,-29.709074,-48.77105,-93.555301,-61.919676,-110.850492,-70.058498,-117.035818,-74.852534,-115.197829,0.0,35.367948,14.635883,46.085512,5.171631,41.872249,-2.978039,29.062958,-11.057602,7.06446,0.0,-34.874629,-51.282277,-105.623135,-61.16895,-121.101633,-65.508131,-122.39463,-64.683851,-112.274665,28.087206,-22.612813,13.297932,-31.866353
58,0.221466,3.833021,5.396717,8.433668,0.0,-71.191578,-44.150196,-95.681992,-33.626884,-90.779961,-20.707947,-72.677284,-4.648315,-45.199505,0.0,-25.98127,-46.266941,-90.366325,-59.831598,-107.867833,-68.568472,-113.582238,-74.095079,-112.306261,0.0,36.763017,15.274265,47.611784,5.276924,42.816562,-3.673534,29.405937,-12.723251,5.244739,0.0,-34.469304,-50.827727,-104.776838,-60.983562,-121.04849,-65.463725,-122.766349,-64.958175,-113.361105,28.228981,-19.633392,18.614958,-24.286285
59,-0.0588,1.23922,6.219042,3.835586,0.0,-72.45599,-45.171581,-96.694484,-35.418354,-92.812328,-23.394447,-77.579887,-8.220772,-54.372665,0.0,-23.598383,-45.128869,-88.91495,-58.896697,-106.28443,-67.867562,-111.351208,-73.77633,-109.487031,0.0,37.185196,13.844249,47.062179,1.855876,38.905105,-9.15754,21.957389,-19.955201,-8.043612,0.0,-34.668873,-50.696616,-103.599591,-60.738588,-120.700038,-64.211169,-122.558679,-62.354386,-112.570584,28.158022,-18.81535,24.821841,-20.871877
60,0.033715,-0.410745,6.056305,-1.838587,0.0,-73.257317,-45.468441,-97.211461,-35.917775,-93.708252,-24.070748,-78.479187,-9.010392,-55.911244,0.0,-21.712452,-44.436282,-88.390417,-58.370936,-105.762685,-67.547337,-111.026327,-73.690626,-109.015067,0.0,34.5344,8.610523,39.795799,-5.458638,26.746971,-18.300133,7.065834,-30.231492,-26.285609,0.0,-34.056378,-51.259928,-102.035435,-59.863857,-117.056199,-61.008669,-117.824022,-56.881355,-104.625752,28.194186,-19.4556,30.880595,-22.939969
61,0.134742,-1.245068,-5.376938,0.456514,0.0,-73.219688,-45.526268,-97.88871,-35.852085,-94.178055,-23.999771,-78.77631,-8.997207,-55.971965,0.0,-21.420965,-44.355216,-88.185084,-58.360629,-105.384806,-67.610291,-111.069144,-73.794854,-109.357364,0.0,22.346717,11.229389,39.245086,0.985073,32.243957,-8.639786,18.597633,-18.481018,-8.151747,0.0,-32.586958,-48.921643,-101.376811,-59.568152,-117.490724,-63.529846,-118.974688,-62.682256,-109.790034,28.340955,-20.79886,25.515684,-22.581647
62,-0.203224,-1.219114,0.58873,-0.872721,0.0,-72.70166,-45.446457,-97.930904,-35.679039,-94.285652,-23.669266,-78.450554,-8.44075,-55.176395,0.0,-21.003951,-44.318857,-88.283026,-58.298193,-105.442524,-67.545632,-111.178714,-73.757767,-109.573592,0.0,15.840889,9.076103,35.343498,0.16674,31.507415,-8.310036,19.787818,-16.956986,-6.764672,0.0,-32.553515,-49.000385,-101.518215,-59.511336,-116.120045,-63.387669,-116.912191,-62.304468,-107.579237,28.103325,-22.107537,26.070008,-23.543931
63,-0.477287,-1.017714,-1.83323,-0.457237,0.0,-71.913254,-45.295738,-97.799389,-35.358948,-94.011749,-23.089737,-77.443726,-7.510025,-53.229389,0.0,-21.212002,-44.394366,-88.383643,-58.190557,-105.655017,-67.259543,-111.373161,-73.310423,-109.775199,0.0,-0.136104,6.778382,26.670823,1.032006,27.04319,-4.555595,19.233376,-10.843894,-2.459541,0.0,-34.111836,-47.185479,-101.74793,-58.473312,-116.784899,-63.132448,-116.730762,-62.947068,-107.966137,27.532477,-23.232116,24.143217,-24.108033
64,-0.266373,-0.956384,0.157837,-3.230307,0.0,-71.443668,-45.377872,-97.826328,-35.249565,-93.903602,-22.742981,-76.725311,-6.867439,-52.113453,0.0,-21.317045,-44.362917,-88.602499,-58.079881,-105.842102,-67.038502,-111.402992,-72.995385,-109.541699,0.0,-8.708622,2.295479,19.489266,-1.872848,15.105767,-5.583183,10.883675,-9.653251,-3.919075,0.0,-38.120746,-47.8947,-101.730713,-56.468269,-112.294862,-58.691173,-110.09245,-56.600946,-98.40474,27.139068,-24.399644,24.174018,-27.549484
65,-0.178139,-0.714088,-6.990852,0.646787,0.0,-70.988571,-45.517238,-97.923282,-35.242641,-93.723552,-22.628402,-76.271278,-6.602325,-51.447235,0.0,-21.498073,-44.414849,-88.837681,-58.090373,-106.048623,-66.980604,-111.577536,-72.859157,-109.58925,0.0,-11.289951,8.052406,26.226608,6.172073,25.748863,4.188149,23.901833,0.962402,13.264916,0.0,-42.474107,-47.063849,-101.994641,-57.364046,-115.42271,-61.846687,-113.945278,-62.136457,-106.106289,26.79281,-25.360634,17.015047,-27.149599
66,-0.042526,-0.778198,5.422874,-2.298758,0.0,-70.885105,-45.488308,-97.988846,-35.095825,-93.532825,-22.307922,-75.340908,-6.040764,-49.135677,0.0,-21.11236,-44.284789,-88.995904,-57.872887,-106.335629,-66.629633,-111.538234,-72.346863,-109.264717,0.0,-0.094425,4.946595,26.279618,-0.199882,20.796433,-5.003082,13.704346,-10.169769,-2.716964,0.0,-42.706665,-48.846935,-101.247887,-57.393828,-113.075836,-59.563163,-111.18983,-57.110301,-100.52052,26.552885,-26.314639,22.240522,-29.624164
67,-0.031402,-0.864536,-3.151702,-2.454394,0.0,-71.034485,-45.456952,-97.942418,-35.036488,-93.24947,-22.203873,-74.89198,-5.854203,-48.292969,0.0,-21.005169,-44.231894,-88.756634,-57.787302,-106.219342,-66.489022,-111.211977,-72.144637,-108.760346,0.0,-7.632397,3.355522,21.275413,1.99134,19.914482,1.028755,17.483665,-0.603814,8.822113,0.0,-43.061644,-49.651845,-100.574668,-56.255298,-110.603568,-56.667204,-108.045066,-52.83348,-96.282064,26.326876,-27.363926,18.894213,-32.263309
68,0.03733,-0.784459,-0.517456,-1.18788,0.0,-71.350158,-45.450783,-97.920971,-34.97018,-93.174625,-22.087898,-74.779186,-5.705429,-47.882664,0.0,-20.743384,-44.162289,-88.767452,-57.74917,-106.260452,-66.44395,-110.974355,-72.085066,-108.417866,0.0,-11.887173,0.565727,7.793232,1.333442,12.136024,2.318641,13.637123,2.2546,10.578735,0.0,-44.301036,-48.407834,-98.063705,-55.3809,-110.864859,-55.955828,-108.199436,-52.279708,-96.174442,26.177862,-28.41172,18.190413,-33.714524
69,-0.120827,-0.629904,-5.238465,2.110654,0.0,-71.520309,-45.295669,-97.869392,-34.78973,-93.002174,-21.79676,-74.083545,-5.252151,-45.378273,0.0,-20.332342,-44.138595,-88.768928,-57.727891,-106.557455,-66.351404,-111.23683,-71.896838,-108.985519,0.0,-20.960781,2.891052,-2.747543,7.853096,16.533989,12.04493,23.963082,13.634033,27.701569,0.0,-41.830946,-45.152223,-96.076766,-56.124302,-116.271969,-61.013452,-114.984257,-61.634859,-107.515983,25.901973,-29.283346,12.796886,-31.845592
70,-0.241287,-0.403137,-0.026092,-0.306264,0.0,-71.86417,-45.225929,-97.641197,-34.820881,-92.936371,-21.826584,-74.139656,-5.262863,-45.39743,0.0,-20.395111,-44.155108,-88.918722,-57.776162,-106.669882,-66.422374,-111.315316,-72.00978,-109.065829,0.0,-32.01099,-1.598145,-21.482884,6.599167,5.578331,13.64019,19.49041,17.48014,30.151954,0.0,-39.025421,-42.942694,-93.404467,-54.801089,-116.70014,-60.541802,-115.331368,-62.018989,-108.340397,25.566038,-29.916237,12.676146,-32.38161
71,-0.306175,-0.213508,-5.730835,0.866889,0.0,-72.043682,-45.247078,-97.485947,-34.941433,-92.888798,-21.945717,-74.101341,-5.312965,-44.699055,0.0,-20.344655,-44.249611,-88.89824,-57.871795,-106.71697,-66.48757,-111.3962,-72.024736,-109.499903,0.0,-48.394295,-3.10698,-40.427662,11.293991,-1.502552,23.937103,24.048935,32.007019,47.839943,0.0,-40.388128,-40.029723,-92.465483,-53.987638,-119.303846,-62.2683,-118.278357,-66.717825,-114.239688,25.2195,-30.301199,6.904948,-31.686175
72,-0.349571,0.079707,-1.369446,2.197556,0.0,-72.153385,-45.327061,-97.421929,-35.099591,-93.022866,-22.070481,-74.466431,-5.378494,-45.32959,0.0,-20.336158,-44.32381,-89.116638,-57.968526,-106.86898,-66.599307,-111.603468,-72.160864,-109.617729,0.0,-53.888981,-2.9133,-54.41573,12.227966,-10.705696,25.020103,19.0448,32.074814,46.72023,0.0,-41.195398,-35.305508,-89.346218,-53.412575,-123.682769,-65.844669,-124.788086,-74.452497,-124.404628,24.877854,-30.174734,5.543427,-29.441861
73,-0.417114,0.312649,0.338585,0.288016,0.0,-72.163857,-45.249035,-97.420968,-35.052945,-93.095891,-22.046265,-74.793389,-5.396325,-46.089776,0.0,-20.766435,-44.563439,-89.347289,-58.169543,-107.198975,-66.751652,-111.955436,-72.260104,-109.507814,0.0,-54.849129,-2.767822,-54.52359,12.037102,-11.940216,24.68827,19.943825,31.6352,47.551369,0.0,-40.311552,-34.671622,-88.663505,-52.564304,-122.40917,-65.137836,-125.37561,-73.951726,-124.020059,24.530314,-29.63657,5.951586,-28.92833
74,-0.18615,0.554611,0.429291,0.229964,0.0,-72.209576,-45.186207,-97.480064,-34.985024,-93.097069,-21.981011,-74.729061,-5.34462,-46.168533,0.0,-21.349884,-44.784178,-89.499645,-58.301071,-107.554345,-66.790437,-112.272487,-72.163051,-109.345913,0.0,-56.889119,-4.082131,-56.292824,10.780929,-11.79776,23.814262,22.006622,31.142097,47.901649,0.0,-38.335983,-32.962382,-86.700585,-51.213611,-120.547715,-64.375409,-125.770651,-73.850967,-123.994055,24.439848,-28.697111,6.476561,-28.313518
75,0.060265,0.945374,-0.727456,1.039667,0.0,-72.521164,-45.138245,-97.327721,-34.879921,-92.799271,-21.793099,-74.135674,-5.080033,-44.95102,0.0,-21.651973,-45.086001,-89.628309,-58.502297,-107.847798,-66.875925,-112.8262,-72.102535,-109.769317,0.0,-56.897998,-3.26802,-58.417316,12.323456,-17.390132,25.691712,18.792206,33.067543,49.57631,0.0,-38.79532,-30.496509,-87.426011,-48.756174,-120.51148,-62.265472,-126.79949,-72.323441,-124.114836,24.595139,-27.338883,5.844131,-26.860997
76,0.490127,1.845924,-1.573585,-0.720936,0.0,-73.193184,-45.082752,-96.962265,-34.81311,-92.649891,-21.733086,-74.159878,-5.078796,-45.904049,0.0,-22.198742,-45.366188,-89.70228,-58.832242,-108.203824,-67.238628,-113.497458,-72.530046,-110.191526,0.0,-38.224365,2.870041,-37.059574,12.735237,-16.941673,20.671898,5.273918,23.652054,32.847565,0.0,-44.480229,-32.93302,-91.402154,-47.803303,-117.962108,-58.202603,-121.238841,-65.240508,-115.188292,25.173414,-25.262183,4.358694,-27.351157
77,0.736519,3.101346,-0.916924,-3.957658,0.0,-73.636368,-44.566692,-96.561665,-34.222939,-92.181484,-21.068024,-73.403446,-4.38588,-44.86615,0.0,-23.491715,-45.365737,-89.520542,-58.85793,-109.243947,-67.149312,-114.453987,-72.238145,-110.509967,0.0,-15.407352,6.585114,-16.684536,9.942696,-17.539684,11.945252,-7.60017,10.656647,13.91708,0.0,-46.785767,-34.649848,-92.270068,-44.638878,-109.255738,-50.649065,-107.311943,-53.774636,-97.778998,25.938778,-22.288771,3.470615,-31.436749
78,1.018387,4.624297,-1.590797,-5.755101,0.0,-72.761742,-44.15617,-95.677529,-34.058727,-91.722439,-20.920326,-72.511791,-4.265854,-43.694756,0.0,-23.814676,-44.621589,-87.488669,-58.330236,-108.400465,-66.804121,-113.97251,-72.05734,-110.756301,0.0,7.224461,8.357529,1.336887,5.65044,-17.033993,1.938503,-19.043427,-3.475376,-4.323189,0.0,-48.574393,-35.684563,-88.848676,-40.61027,-93.399082,-41.726439,-87.067615,-40.273409,-75.831528,27.340948,-18.366101,2.263601,-37.893477
79,1.535042,7.002386,-1.864357,-5.232168,0.0,-72.165493,-44.351647,-95.01685,-34.624443,-91.440789,-21.789162,-73.426392,-5.406212,-45.4376,0.0,-24.617883,-43.761523,-85.237515,-57.44873,-106.82235,-66.127776,-112.673918,-71.761401,-109.766264,0.0,28.414398,9.05175,17.216309,0.254734,-16.601429,-9.201519,-27.884445,-18.512398,-20.371696,0.0,-48.414336,-36.383756,-84.680473,-36.696442,-73.254085,-32.997049,-62.073129,-26.773274,-50.421021,30.157557,-13.018259,1.680811,-44.780189
80,0.735992,9.742665,-10.194363,-0.370891,0.0,-69.850697,-44.840641,-91.909847,-34.881512,-85.670872,-21.891014,-66.829571,-5.487717,-40.457439,0.0,-26.145705,-43.494755,-83.301528,-57.156879,-106.132517,-65.686945,-112.128498,-71.023323,-108.7809,0.0,50.355412,15.840512,39.076596,3.638947,0.961659,-8.634819,-19.756702,-19.773182,-21.071811,0.0,-37.516136,-38.276636,-69.840065,-36.130864,-52.825523,-29.605087,-40.222817,-20.530697,-31.519862,32.368784,-4.865484,-7.038317,-46.74097
81,0.049851,13.541383,-8.74669,6.706215,0.0,-66.208661,-47.846146,-88.512818,-38.291056,-79.134751,-25.386389,-59.781344,-9.124249,-36.55568,0.0,-26.230479,-43.261903,-81.26721,-56.763775,-104.790609,-65.215511,-110.885437,-70.221185,-107.465933,0.0,53.981855,17.293138,40.596284,6.585485,13.677652,-4.225325,-1.713221,-14.252901,-5.500203,0.0,-27.103679,-37.421886,-56.602602,-36.014576,-40.443182,-29.96942,-29.865377,-21.410847,-25.697582,34.285698,7.370084,-13.917944,-41.34057
82,-0.431191,16.84931,-9.095536,14.663555,0.0,-61.554577,-53.778786,-84.91618,-45.235514,-72.08305,-32.646074,-52.269465,-16.624317,-33.329842,0.0,-23.808757,-43.328402,-79.157729,-56.570941,-102.412079,-65.059363,-108.98839,-69.776347,-106.585502,0.0,54.650854,21.22542,47.205202,11.583052,29.677614,1.597407,16.791521,-8.504076,11.193959,0.0,-24.836587,-39.12335,-51.886278,-39.594018,-38.696599,-35.138763,-31.503448,-27.727636,-31.551978,36.179626,23.969166,-20.688361,-26.927243
83,-3.654945,18.629089,-9.185211,20.44902,0.0,-57.189598,-58.285591,-77.217957,-49.842734,-60.501191,-37.125181,-41.053332,-21.048535,-27.379765,0.0,-20.98352,-42.972903,-77.768321,-54.947737,-99.000878,-62.347956,-104.794296,-65.788107,-101.142992,0.0,52.514563,25.04302,51.133616,16.974982,43.210871,8.238539,33.039831,-1.122167,26.588699,0.0,-22.854319,-42.530053,-48.640683,-45.462488,-43.349636,-43.175024,-38.729087,-37.433326,-41.293057,34.524622,43.145256,-27.873631,-5.931222
84,-7.288353,19.469804,-13.312706,19.220667,0.0,-51.523831,-60.801899,-64.871441,-51.682326,-44.501953,-38.316096,-25.152838,-21.951977,-18.111958,0.0,-16.863367,-41.597229,-75.549418,-51.731383,-93.435941,-57.231208,-97.622356,-58.661236,-91.860055,0.0,56.897787,29.380617,57.389082,24.991625,59.116373,20.511057,56.264769,14.697985,53.740196,0.0,-22.197905,-35.388123,-36.905652,-34.955852,-34.145223,-30.689751,-28.401391,-24.585645,-29.673901,28.297881,64.208751,-40.124725,14.883136
85,-9.644326,19.707335,-1.786606,25.799885,0.0,-46.144603,-61.440433,-50.902187,-51.510469,-29.671726,-37.59831,-12.553304,-21.034595,-11.487567,0.0,-11.079262,-38.46862,-71.791146,-45.814742,-84.481532,-48.754759,-86.070848,-47.990036,-77.780701,0.0,56.780165,27.373038,60.365713,20.655928,59.917895,13.90745,56.168021,5.972185,49.684719,0.0,-32.494145,-36.29433,-42.493472,-36.006604,-39.410175,-32.345898,-33.988347,-26.87282,-34.489619,19.499336,85.287829,-41.06555,42.054764
86,-8.126747,21.31615,-2.051828,25.453418,0.0,-43.48352,-59.958469,-45.382404,-48.547868,-19.114179,-33.679104,-4.231355,-16.728447,-8.154138,0.0,-6.112223,-36.483088,-65.860405,-41.124808,-75.673515,-40.958736,-72.595862,-37.271209,-59.711914,0.0,55.479338,24.858948,60.636509,16.904634,59.243608,9.198257,55.327183,0.771086,47.190828,0.0,-35.15171,-34.942382,-40.817066,-34.477228,-36.895866,-30.856573,-31.775654,-25.323042,-31.0678,11.763651,107.605453,-42.726316,68.509656
87,-6.609169,22.924964,-2.317051,25.106951,0.0,-43.54058,-56.356006,-48.312091,-42.794523,-12.829313,-26.558475,-0.18699,-9.033531,-8.111669,0.0,-1.962249,-35.640634,-57.757195,-37.66158,-67.01189,-33.843138,-57.197397,-26.504753,-37.653691,0.0,52.995306,21.838348,58.201469,13.737745,57.093515,6.38348,53.742256,-0.905314,46.258524,0.0,-30.170599,-31.332279,-31.876433,-30.367725,-26.602293,-26.221778,-21.763312,-19.936312,-19.408445,5.248501,130.233271,-44.949348,93.319461
88,-4.18868,22.774019,-3.728874,19.958005,0.0,-43.471054,-52.999127,-59.237818,-37.906855,-13.801264,-20.79311,-1.380532,-3.079485,-10.554259,0.0,2.879574,-33.85314,-49.420747,-33.25958,-57.300731,-26.283827,-40.024119,-16.053882,-16.245813,0.0,56.004198,21.244812,59.696525,12.076052,56.837145,4.388935,52.771522,-2.756773,44.2502,0.0,-20.524358,-25.576449,-18.533065,-22.114332,-9.608518,-15.216045,-3.581088,-6.388753,0.415722,1.195416,151.880941,-48.542627,112.151117
89,-1.768193,22.623075,4.138698,28.187019,0.0,-43.27494,-49.887829,-78.159582,-33.884862,-22.030031,-16.383007,-7.811977,1.133692,-15.481905,0.0,8.413246,-31.120609,-40.851063,-27.91881,-46.540039,-18.280805,-21.076031,-5.918598,4.511719,0.0,50.110697,25.040417,51.472744,14.329691,41.732855,3.562729,30.748238,-7.140741,22.97513,0.0,-20.4478,-26.45438,-6.187335,-25.421517,-1.686441,-20.28397,1.693459,-12.488699,3.666375,-0.36759,172.875966,-44.198742,138.710086
90,-9.736885,23.220526,8.600899,21.079776,0.0,-33.881447,-35.45153,-66.793951,-21.499151,-14.813719,-6.707416,-0.823036,7.585459,-5.515096,0.0,19.649499,-23.202897,-20.76119,-24.229167,-30.773664,-19.492774,-11.827702,-11.900509,-0.194045,0.0,38.369345,19.743359,33.707291,11.204836,25.51906,2.765763,15.140316,-5.573427,11.166304,0.0,-19.198096,-19.005607,10.948749,-14.103989,20.069192,-5.492271,26.418675,5.272787,30.930287,-9.771607,194.435465,-35.264975,158.128835
91,5.897209,25.969364,-0.316486,18.011168,0.0,-37.97351,-33.652988,-66.54368,-23.198284,-21.669113,-11.889301,-8.88379,-0.670286,-11.751732,0.0,26.23084,-15.89153,-8.495054,-20.740272,-19.115788,-21.07654,-7.986811,-19.322556,-6.669421,0.0,38.311535,23.986988,33.297901,16.906254,24.305671,8.8908,13.14434,-0.066731,9.765095,0.0,-14.880089,-9.742338,27.823501,-1.159883,41.038571,10.553714,50.202295,23.651983,55.609105,-3.446206,218.635757,-35.153269,174.370931
92,3.651192,21.021866,-2.18375,16.180065,0.0,-39.897869,-32.885914,-53.536611,-26.025467,-18.254906,-17.737701,-7.164465,-8.987772,-9.54562,0.0,30.528471,-8.255018,2.156435,-15.431922,-6.332558,-20.052496,-4.350366,-23.555424,-12.732583,0.0,41.587108,25.623458,37.988662,19.012802,29.976127,11.084598,19.000888,1.977378,13.419456,0.0,-12.914752,-0.897492,42.913622,11.427698,58.940225,25.807424,68.97321,40.053133,74.476333,0.525936,238.01571,-37.016069,188.909083
93,4.493368,14.941555,-1.153531,20.123719,0.0,-44.957451,-30.212356,-42.056293,-25.908657,-20.543873,-20.441826,-12.555542,-14.617927,-14.561268,0.0,39.67112,3.791352,8.300108,-1.64492,1.51501,-7.196084,-0.822095,-13.254367,-10.662159,0.0,42.606411,26.500157,41.875317,20.382454,35.408925,12.50758,24.026528,3.076447,17.055302,0.0,-15.693806,8.66504,52.586589,22.035647,70.486749,35.811064,80.556808,48.288982,83.957564,5.249124,251.755488,-37.93978,207.831025
94,5.955334,12.132734,-4.88087,15.386757,0.0,-49.237747,-27.11451,-30.192707,-24.844288,-23.210129,-21.467663,-19.120285,-17.558567,-21.077705,0.0,36.785659,13.7954,19.625071,8.818588,12.676099,2.012161,3.579424,-6.081169,-6.747344,0.0,48.339019,23.704353,56.306934,16.993492,52.388351,9.340553,40.672805,0.570797,28.189224,0.0,-10.402141,14.109932,52.736408,28.712003,72.624895,42.724653,83.34736,54.810222,85.971641,11.433952,262.965124,-42.591156,222.294684
95,18.135109,8.883241,-11.595257,13.107563,0.0,-63.673428,-39.604282,-47.130844,-36.956589,-39.004967,-32.36689,-36.18655,-26.660877,-39.644783,0.0,25.240975,16.443974,22.980008,17.76032,21.837095,16.597288,18.876619,13.117998,19.859698,0.0,62.291633,28.687672,79.181339,20.413032,75.350693,11.275452,63.144424,1.127449,45.276283,0.0,-3.711212,19.737407,56.362577,34.689059,75.270837,48.007228,84.92917,58.635869,86.682807,29.628977,271.087421,-54.126497,234.641303
96,1.759895,2.252951,-2.76828,13.492934,0.0,-62.01218,-39.944835,-40.954674,-36.702553,-32.500282,-31.269207,-30.815597,-24.811878,-37.845829,0.0,18.209604,19.851214,30.866277,26.577551,34.220584,30.428084,36.258842,31.768241,41.177423,0.0,65.305206,25.072231,85.793964,16.090645,84.111316,7.312088,72.884823,-1.433499,52.542343,0.0,-2.83364,23.231925,57.245868,38.514769,75.479295,50.997195,83.887626,59.965072,85.651934,31.391481,272.81926,-56.892168,247.613125
97,3.069832,1.539611,-0.534668,12.205549,0.0,-60.748764,-37.836536,-40.649837,-34.136295,-33.59404,-28.521046,-31.234451,-21.908569,-37.298962,0.0,12.889176,24.522225,36.974023,35.263277,44.305723,43.036592,50.866149,47.858545,58.625384,0.0,65.772262,24.635341,88.019245,16.164047,87.11626,8.120487,75.475971,0.170494,55.172207,0.0,-1.737421,27.013175,56.69314,41.970249,75.506564,53.338574,84.432117,60.894613,86.251123,34.409471,274.056785,-57.478678,259.516588
98,-0.193439,5.222103,0.78511,10.331659,0.0,-53.52055,-37.463797,-30.650036,-35.324433,-22.45253,-30.683533,-20.668259,-24.346259,-30.401608,0.0,1.151348,22.738996,45.985779,33.675457,55.750439,42.152338,60.732123,48.186322,64.820439,0.0,66.345681,25.071705,89.925259,17.166333,89.250401,9.580307,77.354451,2.050988,57.465489,0.0,-0.567634,29.02451,55.265705,44.317419,73.15543,55.537,83.032013,62.754079,85.840977,34.148844,279.031525,-56.760756,269.600884
99,-4.0765,5.633107,1.662426,8.164022,0.0,-44.242047,-37.344424,-12.865288,-38.270531,-4.401638,-36.29068,-5.053757,-32.127131,-22.874737,0.0,-0.13075,20.953705,48.212437,33.616239,60.305545,43.255855,64.875341,50.413351,66.051779,0.0,66.678429,26.151959,90.336411,18.197743,90.585343,10.440811,78.243759,2.742382,58.293366,0.0,0.103259,30.043194,54.739691,45.641002,71.282959,56.791632,81.509346,63.963411,85.600669,29.91651,284.417028,-55.254164,277.517302
100,-8.463375,6.657534,1.895485,5.440829,0.0,-28.784203,-32.006007,4.06279,-35.734063,12.248657,-36.136803,8.96783,-34.21324,-12.221501,0.0,-0.320657,19.248098,45.408005,33.160595,58.797044,43.773114,63.666404,51.887605,64.188016,0.0,66.644028,27.351872,91.184395,19.220719,91.732453,10.986763,78.819191,2.879196,58.203575,0.0,0.785021,30.771256,54.981567,46.654301,71.136858,57.803277,81.498046,64.964114,85.425903,21.275488,290.805226,-53.536326,282.688795
101,-4.748955,2.04573,1.788059,3.097327,0.0,-21.407456,-29.288355,12.285255,-35.382752,19.212158,-38.022995,14.309566,-38.185301,-8.128739,0.0,-1.04089,18.823551,44.083915,35.187824,58.433544,47.332049,64.601811,56.66211,66.769306,0.0,66.720646,28.263634,91.665104,20.090252,92.666531,11.470173,79.067379,2.925053,58.139706,0.0,1.931911,30.973315,55.333111,47.047985,70.909307,58.26775,81.2629,65.5975,85.321347,16.312803,292.625857,-51.961997,285.561023
102,-9.94162,4.17187,1.481575,1.45253,0.0,-5.333919,-22.914911,27.432449,-30.656033,32.789864,-34.926544,24.70602,-36.803129,-0.438103,0.0,-4.759697,16.33927,41.13542,34.629748,56.486936,48.298282,63.558019,59.005353,66.406856,0.0,66.822796,29.124642,91.765606,20.923359,92.615559,11.922844,78.821721,2.948914,57.917725,0.0,2.741842,30.604727,56.09484,47.035091,70.836504,58.464969,81.110883,66.071175,84.948696,6.121136,296.632572,-50.730469,286.848398
103,-6.51685,3.530339,1.193127,0.404206,0.0,6.848534,-18.514286,37.791584,-26.886131,42.477665,-31.439884,32.648793,-33.50283,7.831398,0.0,-8.265145,14.155615,39.115848,33.081474,54.793462,47.328924,61.850608,58.744575,64.516571,0.0,66.820542,29.485829,91.759941,21.252434,92.630928,11.96957,78.679184,2.720604,57.601582,0.0,3.368114,30.212352,56.712937,47.009934,71.402755,58.634165,81.136114,66.3893,84.914733,-0.675911,300.017637,-49.817539,287.10733
104,-3.289741,2.784042,0.420262,-0.158266,0.0,14.785366,-15.212013,43.858944,-23.166195,49.109608,-26.923988,38.21014,-28.219906,16.7509,0.0,-11.696862,11.849373,37.344747,30.06404,52.715561,44.439227,59.717119,56.317462,62.216664,0.0,66.94646,29.708232,91.807766,21.681438,92.844463,12.382106,78.74921,3.104106,57.727809,0.0,3.910777,29.943577,56.568181,46.892497,71.236572,58.59977,80.463528,66.476838,84.221856,-4.280193,302.696907,-49.711818,286.844292
105,-0.301701,1.029737,0.484302,-0.328377,0.0,17.351555,-13.54327,45.54261,-21.495037,51.004578,-25.459762,38.92154,-27.034732,16.90717,0.0,-13.641851,10.692121,36.524097,28.453405,51.278654,42.762222,58.373455,54.747681,61.516798,0.0,67.299889,29.744431,91.621033,21.831379,92.771141,12.601639,78.644417,3.434086,57.846462,0.0,4.140736,29.879431,56.356625,46.973514,70.885348,58.759864,79.896104,66.65752,83.983512,-4.867985,303.670072,-49.513607,286.459343
106,4.433052,1.015869,0.453392,0.100443,0.0,13.056393,-16.628654,41.875489,-24.639576,46.919976,-28.177688,34.781548,-29.172054,12.289971,0.0,-14.200903,11.222569,36.00459,28.386022,50.443602,42.217435,56.872302,53.768603,59.896973,0.0,67.444428,29.826176,91.29982,22.076958,92.626259,12.996334,78.639793,3.971878,58.081215,0.0,3.865897,29.56201,55.908107,46.734095,70.511907,58.613047,79.561788,66.583346,83.639476,-0.710839,304.649193,-49.336121,286.523038
107,5.677597,-0.671437,0.431923,0.026726,0.0,5.021027,-21.194309,36.239113,-29.078189,41.765648,-32.03128,30.274201,-32.30056,8.318482,0.0,-13.11454,12.191371,37.363741,29.367656,51.314851,42.806694,57.534452,53.846927,59.926601,0.0,67.414421,29.859432,91.087189,22.223682,92.62262,13.242348,78.80072,4.306011,58.33271,0.0,3.936935,29.277513,55.686843,46.584684,70.26961,58.614998,79.173093,66.703314,83.435354,4.723056,303.95099,-49.1479,286.522998
108,2.534283,1.285162,0.265789,0.019785,0.0,1.276898,-21.912517,34.124439,-29.59869,39.200993,-32.47625,28.149616,-32.762501,5.702763,0.0,-15.464008,11.060462,35.620478,27.988534,49.785454,41.378716,56.344929,52.226893,59.363931,0.0,67.369343,29.722927,91.051746,22.208942,92.717022,13.399567,78.964336,4.608982,58.587902,0.0,3.758772,28.982556,55.091408,46.353367,69.828638,58.436292,78.632616,66.580072,83.167344,7.035782,305.220245,-49.103668,286.526876
109,1.736057,-0.623173,0.120724,-0.211112,0.0,-3.506698,-23.330246,32.26252,-30.555816,36.826401,-32.913139,27.6549,-32.565971,5.38456,0.0,-15.571169,11.489615,34.66694,28.608138,49.367367,41.779872,56.169657,52.109876,59.722701,0.0,67.385261,29.538975,91.353607,22.138057,93.046051,13.55587,79.418815,4.996273,59.04293,0.0,4.249947,28.829674,54.73475,46.251873,69.50672,58.369021,78.213232,66.492423,83.094824,8.598203,304.58538,-49.15658,286.304072
110,2.79403,0.283891,0.158878,-0.176804,0.0,-8.267258,-25.707505,28.876533,-32.857064,32.891395,-34.834603,25.20124,-34.002674,3.130394,0.0,-17.743968,10.70068,32.587619,28.220099,47.996582,41.550272,55.242079,51.82002,58.802942,0.0,67.274059,29.253536,91.494999,21.879856,93.289181,13.401695,79.609417,4.926613,59.22028,0.0,4.504865,28.457739,54.227754,45.911987,69.15709,58.084105,77.729047,66.25955,82.869608,11.21695,304.861352,-49.172985,286.119349
111,-5.788571,2.129871,0.361141,-0.354151,0.0,-1.107227,-20.881176,35.435108,-26.959625,39.744976,-28.031582,33.061146,-26.42506,12.534451,0.0,-20.541053,8.81513,30.027064,26.232402,45.68577,39.631698,53.305993,49.810204,57.790531,0.0,67.075608,28.906781,91.597184,21.434292,93.382737,12.919957,79.526711,4.481198,59.025536,0.0,5.151997,28.49826,54.044084,45.981382,69.110851,58.109731,77.548254,66.16296,82.855492,5.284292,306.992056,-48.955931,285.766031
112,-2.479019,1.743374,0.136208,-0.070593,0.0,2.097038,-17.957004,38.580311,-23.874172,42.030705,-25.270992,35.799328,-24.11903,14.885365,0.0,-23.242262,7.633907,27.767827,24.587915,43.584565,37.840776,50.980968,47.90045,56.419956,0.0,67.027634,28.61166,91.809105,21.100536,93.472687,12.615646,79.401329,4.209572,58.96138,0.0,5.125766,28.321011,53.467125,45.795563,68.778831,57.904324,77.139405,65.945982,82.710403,2.68923,308.746076,-48.935766,285.706084
113,0.26191,-1.130242,0.156155,-0.163083,0.0,0.240898,-19.083001,38.144245,-24.736634,42.02219,-25.779614,36.496181,-24.257618,15.672008,0.0,-21.739751,8.708451,28.288148,25.803064,43.972888,38.931424,51.408181,48.729782,57.193688,0.0,66.987293,28.568561,92.112567,21.006843,93.597484,12.483947,79.393489,4.091239,58.882953,0.0,5.527934,28.259224,53.480303,45.698219,68.770001,57.78879,77.002813,65.80566,82.603983,2.851044,307.63623,-48.879707,285.563397
114,1.015296,1.222633,0.115688,0.00016,0.0,0.672112,-18.785671,36.966763,-24.946506,40.835301,-26.556152,34.928479,-25.714908,14.033993,0.0,-23.300962,7.977067,27.828688,24.752468,43.328375,37.854485,50.469761,47.6883,55.987592,0.0,66.905044,28.567955,92.180717,20.959625,93.648422,12.38483,79.334404,3.957584,58.823433,0.0,5.281847,28.110912,53.353962,45.529962,68.67046,57.632265,76.816562,65.702451,82.402072,3.763332,308.884678,-48.867027,285.589372
115,-0.27769,0.527151,0.083908,-0.035605,0.0,0.171775,-18.593079,36.810081,-24.518212,40.829338,-25.99181,35.5391,-24.961029,14.262703,0.0,-23.455795,8.355214,27.711375,24.864434,43.024254,37.499074,49.699498,46.774962,55.614879,0.0,66.995933,28.77602,92.27623,21.214336,93.852653,12.63953,79.423599,4.21067,58.902718,0.0,5.143488,28.190311,53.421554,45.583796,68.562928,57.654964,76.647106,65.71306,82.331405,3.391892,309.439715,-48.876869,285.581653
116,-0.39029,1.281297,-0.085625,0.08319,0.0,1.24403,-17.030319,37.294693,-23.093868,40.982346,-25.007927,35.315918,-24.582756,14.106583,0.0,-25.108681,7.433625,26.589554,23.603317,41.921724,36.213949,48.576443,45.51771,54.33993,0.0,67.257385,28.668858,92.397148,21.185257,93.954575,12.747517,79.553673,4.450241,59.113426,0.0,4.890917,28.135921,53.371869,45.496802,68.323941,57.538417,76.283792,65.59156,82.08034,2.87087,310.744845,-49.093226,285.688676
117,-0.268329,-0.667547,0.105973,0.002594,0.0,0.774009,-17.257084,37.039684,-22.973271,41.189335,-24.437107,36.132785,-23.444149,14.4818,0.0,-23.938375,8.059923,26.751365,24.227922,42.206542,36.664727,49.382335,45.798453,55.343276,0.0,67.438659,28.652378,92.381332,21.221397,94.118751,12.830829,79.727165,4.585063,59.265449,0.0,4.842492,28.294681,53.391061,45.591453,68.19776,57.553681,76.143556,65.546247,82.073732,2.43639,310.095033,-49.153404,285.709005
118,-1.695259,1.416814,0.187397,-0.00163,0.0,3.919097,-14.369294,39.479816,-20.34652,43.301502,-22.406353,37.403308,-22.180653,15.780201,0.0,-26.41096,6.269581,24.723976,22.243746,40.757803,34.959958,48.197592,44.666444,54.146318,0.0,67.559703,28.463756,92.187046,21.04692,93.979007,12.695835,79.594882,4.454692,59.184848,0.0,4.795845,28.405646,53.374079,45.659761,68.083077,57.582382,76.11972,65.549482,82.077276,0.544653,311.523382,-49.162485,285.71891
119,5.887218,-3.878185,0.233631,-0.054637,0.0,-2.992138,-20.072903,33.44355,-26.146294,37.342392,-27.895729,31.317902,-27.316875,10.173363,0.0,-22.028274,8.72285,27.497989,25.353731,43.922388,38.391725,51.508068,48.392958,57.313225,0.0,67.721901,28.433349,92.100402,21.040661,93.905731,12.656994,79.437767,4.344783,59.029998,0.0,4.73517,28.598542,53.392432,45.752053,68.049201,57.600525,76.136109,65.547581,82.120601,6.208088,307.66094,-49.152637,285.680016
120,2.551083,-1.51953,0.086998,0.017315,0.0,-4.937519,-21.681004,31.634823,-28.13855,35.91592,-29.894085,29.314785,-29.26696,8.360584,0.0,-20.524133,9.273195,28.641434,26.062181,44.942753,39.263753,53.037083,49.495697,58.567895,0.0,67.724167,28.374858,91.987587,21.051372,93.822006,12.695629,79.416046,4.351627,59.060875,0.0,4.567554,28.707618,53.311847,45.754387,67.819489,57.55599,76.053413,65.532661,82.023776,8.498623,306.156279,-49.326187,285.7122
