takenoko1/special-research/HandMotion_SimilarSearch_自分用/NewProject/handData/test_key/d4_feature_d3/133.csv
frame,vel_0x_L,vel_0y_L,vel_0x_R,vel_0y_R,posFromWrist_0x_L,posFromWrist_1x_L,posFromWrist_2x_L,posFromWrist_3x_L,posFromWrist_4x_L,posFromWrist_5x_L,posFromWrist_6x_L,posFromWrist_7x_L,posFromWrist_8x_L,posFromWrist_9x_L,posFromWrist_0y_L,posFromWrist_1y_L,posFromWrist_2y_L,posFromWrist_3y_L,posFromWrist_4y_L,posFromWrist_5y_L,posFromWrist_6y_L,posFromWrist_7y_L,posFromWrist_8y_L,posFromWrist_9y_L,posFromWrist_0x_R,posFromWrist_1x_R,posFromWrist_2x_R,posFromWrist_3x_R,posFromWrist_4x_R,posFromWrist_5x_R,posFromWrist_6x_R,posFromWrist_7x_R,posFromWrist_8x_R,posFromWrist_9x_R,posFromWrist_0y_R,posFromWrist_1y_R,posFromWrist_2y_R,posFromWrist_3y_R,posFromWrist_4y_R,posFromWrist_5y_R,posFromWrist_6y_R,posFromWrist_7y_R,posFromWrist_8y_R,posFromWrist_9y_R,posFromBody_0x_L,posFromBody_0y_L,posFromBody_0x_R,posFromBody_0y_R
6,8.15197,-3.292581,0.098831,0.119931,0.0,-17.614139,-26.707866,31.37106,-36.047206,30.929043,-40.278865,16.874394,-41.093925,-53.687301,0.0,-11.735629,15.665869,44.136823,33.129936,53.135846,44.817868,59.534733,53.912938,70.94164,0.0,66.054565,25.488979,86.957588,16.481895,85.161529,6.796165,71.306534,-2.513157,50.856468,0.0,5.064522,29.156322,57.004943,45.651166,72.270966,57.399948,81.669119,64.965164,85.829813,9.443367,299.359535,-45.629413,281.378506
7,-4.070343,0.001247,0.081127,-0.039162,0.0,-10.684261,-23.407402,35.653073,-32.425666,35.662548,-36.434063,23.125271,-36.867427,-44.438095,0.0,-11.852448,15.415608,43.985288,32.994456,53.725749,44.785808,60.300377,53.608213,70.953694,0.0,65.962246,25.338821,86.839657,16.279129,85.035725,6.590023,71.274273,-2.653919,50.941212,0.0,5.01716,29.207167,57.175991,45.783584,72.331049,57.56681,81.616434,65.119144,85.733667,4.577333,299.381169,-46.343977,281.359731
8,-2.724792,2.488529,-0.052288,0.088575,0.0,-4.728207,-19.530361,38.626224,-27.728806,39.050159,-31.580727,26.768406,-31.971268,-38.864308,0.0,-14.139473,13.556859,40.808229,30.626142,51.022328,42.545651,58.110991,51.566016,69.573461,0.0,65.930488,25.616306,86.841019,16.590877,85.133812,6.830933,71.321709,-2.532246,51.068664,0.0,4.81011,29.098462,56.917874,45.639668,71.930956,57.410494,81.223034,64.985306,85.458594,1.327326,301.87616,-46.92148,281.454768
9,0.771938,1.532485,0.009647,0.050759,0.0,-5.114708,-18.975231,37.158554,-27.129101,38.2454,-31.016544,25.603867,-31.664623,-38.00655,0.0,-14.476112,11.987126,36.898588,28.6123,48.75568,40.465601,56.691781,49.661657,67.91892,0.0,65.806423,25.794262,86.911686,16.770447,85.091641,6.928517,71.225613,-2.582267,51.042195,0.0,4.732971,29.05284,56.821852,45.579473,71.702257,57.388647,81.115403,65.038053,85.323076,1.695001,303.402943,-47.316096,281.499825
10,1.381222,2.09224,0.054772,0.09039,0.0,-1.199787,-19.54945,34.255154,-28.081215,35.056492,-32.394253,23.802029,-33.541523,-37.973328,0.0,-20.72003,9.733532,34.379245,26.357645,47.406631,38.541952,55.089358,47.821495,65.244164,0.0,65.644672,25.784156,86.833225,16.781604,85.041309,6.88013,71.041866,-2.752613,50.731991,0.0,4.522613,28.93113,56.630056,45.428482,71.44398,57.254315,81.016071,64.958902,85.274392,2.781464,305.487004,-47.556083,281.582036
11,-7.791515,4.295569,0.101646,-0.017574,0.0,11.695793,-11.668934,42.48262,-20.502858,42.044975,-25.605847,30.516998,-27.143555,-31.023949,0.0,-22.917048,6.407864,30.248575,21.812579,44.169946,33.768756,51.952819,42.748081,60.923722,0.0,65.230053,25.747776,86.715145,16.761761,84.950878,6.811741,70.737545,-2.929653,50.322041,0.0,4.448401,28.90974,56.473555,45.362285,71.31628,57.188625,81.040401,64.946972,85.302316,-5.240244,309.772569,-47.68463,281.554458
12,-4.083596,2.977678,0.076447,-0.014524,0.0,17.454735,-7.581001,45.787743,-16.042968,44.837792,-21.139984,33.735855,-22.623172,-27.026596,0.0,-23.642738,4.477967,27.888216,18.701249,41.855097,30.160495,49.250882,38.962732,57.035472,0.0,64.853542,25.670437,86.703952,16.743175,85.049732,6.77433,70.641597,-3.066021,50.05775,0.0,4.367681,28.990646,56.272842,45.359037,71.105217,57.157256,81.004166,64.945255,85.355681,-9.498064,312.739012,-47.782407,281.528699
13,7.611512,-2.324693,0.107185,0.092564,0.0,5.196716,-15.737069,36.581085,-24.603436,36.190773,-29.277203,25.828788,-30.49474,-36.218354,0.0,-19.656131,5.55797,30.685176,19.884251,43.847931,31.195987,50.791937,40.132445,59.588901,0.0,64.731915,25.618458,86.730251,16.632568,84.890957,6.59,70.308941,-3.378616,49.578701,0.0,4.351564,28.827723,56.104029,45.172489,71.110478,56.970338,81.095384,64.790064,85.423927,-2.037277,310.40392,-47.825947,281.610864
14,0.758365,-3.626021,0.144287,0.094071,0.0,4.599461,-17.757213,35.019436,-27.18132,34.84338,-31.949764,24.839802,-33.041702,-38.381229,0.0,-17.617182,8.332885,35.349542,23.494019,47.486956,34.794999,54.023435,43.339514,63.237683,0.0,64.844776,25.540936,86.856388,16.482067,84.821285,6.379933,70.035153,-3.633499,49.180309,0.0,4.349785,28.628331,56.047292,44.991449,71.104722,56.807538,81.033361,64.603911,85.401363,-1.396311,306.775089,-47.799059,281.702125
15,-0.206669,-3.638668,0.147995,0.047807,0.0,5.661003,-18.099598,36.336663,-27.681736,35.921929,-32.401222,24.640206,-33.327381,-41.250709,0.0,-13.417302,10.701754,39.16988,26.826133,50.504477,38.481412,57.252241,47.516745,67.430005,0.0,64.907765,25.632156,86.988522,16.514465,84.65823,6.334625,69.812863,-3.75135,48.929615,0.0,4.404175,28.473053,56.039314,44.827156,71.189592,56.626276,81.091678,64.405593,85.390026,-1.689967,303.120271,-47.738051,281.733782
16,-0.746875,-3.07102,0.172485,-0.009275,0.0,7.390491,-16.991295,37.796985,-26.258652,38.453029,-30.785099,26.524555,-31.755455,-39.656067,0.0,-9.793986,13.717211,41.92107,30.29774,53.30067,41.898852,60.564458,50.966233,70.615992,0.0,65.053402,25.657757,87.0752,16.465954,84.585309,6.238255,69.778004,-3.867164,48.794529,0.0,4.529813,28.297163,56.014774,44.709497,71.256789,56.546322,81.201384,64.311943,85.316555,-2.500482,300.027783,-47.629206,281.703039
17,1.643463,-0.614059,0.043442,-0.164318,0.0,7.048061,-16.910054,38.047954,-26.953869,39.179432,-32.135365,24.953235,-34.037625,-41.491184,0.0,-4.960657,12.992731,41.313051,29.56238,52.565965,41.172396,60.581427,50.511553,70.345995,0.0,65.183888,25.818787,87.055081,16.627453,84.755963,6.418076,70.033711,-3.667328,48.937718,0.0,4.60027,27.802345,55.924755,44.23907,71.493133,56.118725,81.28019,63.89819,84.962775,-0.914371,299.387409,-47.643116,281.512406
18,-7.126465,4.998165,0.369473,-0.752107,0.0,15.333813,-9.013973,46.837612,-18.859852,48.128712,-24.730728,31.844227,-27.280918,-32.271504,0.0,3.384145,10.005246,36.574695,24.290932,47.727943,34.431437,55.857459,42.490508,63.161965,0.0,64.955726,25.030472,86.50209,15.929317,84.963157,5.975372,70.474365,-3.765827,49.049469,0.0,4.610656,27.221421,55.777368,43.826243,71.989198,55.891261,81.790668,63.782729,84.690714,-8.065641,304.352763,-47.298448,280.727488
19,2.710441,3.113369,0.285736,-1.545366,0.0,5.138249,-13.866027,41.480107,-22.528163,44.591206,-26.953102,29.144749,-28.170639,-32.120063,0.0,14.61615,7.395761,35.329362,18.109309,44.223225,25.646157,50.641686,32.202581,57.204656,0.0,64.891456,23.938316,85.553444,15.031654,84.584816,5.538894,70.535637,-3.649258,49.182037,0.0,4.712964,25.832951,55.161371,42.689554,72.750618,55.084195,82.522559,63.346697,84.837051,-5.329875,307.422694,-46.987387,279.138684
20,3.185612,-0.530152,0.333881,-3.5413,0.0,-2.638138,-17.351188,34.770195,-26.258171,38.584946,-31.123169,23.248284,-32.624828,-33.15002,0.0,26.453321,5.704973,32.762002,14.079131,42.207728,20.177701,47.526378,25.699978,53.705741,0.0,64.667942,22.859837,83.503773,13.670002,82.350552,4.079109,68.155461,-5.088478,46.897877,0.0,5.359948,23.204854,55.219688,40.140917,73.58946,53.082433,83.28572,62.081629,85.102207,-2.110628,306.862049,-46.619871,275.566891
21,13.124886,1.046188,-0.269279,-5.58635,0.0,-20.403992,-25.959549,6.824398,-34.027909,14.088398,-37.943917,4.580475,-38.712055,-36.753857,0.0,37.665714,7.49156,33.308456,10.261696,30.569097,10.508339,30.321663,10.186879,31.89925,0.0,64.112171,21.154358,80.464542,12.099552,79.152591,2.860588,65.326091,-5.823109,45.044883,0.0,5.140549,19.008024,52.484096,35.909779,71.506483,49.623903,81.840699,59.828529,83.264898,11.07185,307.874917,-46.831558,269.947221
22,8.721176,-9.448406,-0.757771,-9.521382,0.0,-36.650894,-30.223045,-16.630566,-33.18631,-6.955685,-32.778282,-9.977268,-30.076229,-35.653748,0.0,41.3502,12.34224,43.35841,14.652644,39.734525,14.581656,38.68798,13.555315,38.787941,0.0,62.525734,27.574059,74.275818,19.880608,70.222435,10.943699,57.509194,1.665013,41.042988,0.0,4.525725,19.205366,60.21747,34.782784,78.568112,48.080106,87.754721,58.474491,86.8667,19.877804,298.298805,-47.504551,260.298133
23,16.470863,-19.486108,-5.111492,-15.55425,0.0,-49.995826,-34.977173,-41.415699,-33.589668,-29.18803,-29.23827,-25.929439,-23.483951,-36.040031,0.0,42.177619,16.665078,54.481228,20.335819,51.150904,21.73612,50.183053,21.835711,49.903694,0.0,62.66637,28.656441,72.104427,20.745552,64.191456,11.288841,51.319748,1.69598,35.883041,0.0,3.351689,14.621572,51.728913,29.239672,73.517558,42.431845,81.717877,53.365176,80.469827,36.450708,278.603804,-52.514002,244.53499
24,18.239273,-22.292936,-7.21114,-17.164811,0.0,-53.677368,-33.428409,-59.124538,-28.456478,-42.084171,-21.446342,-34.714931,-13.792877,-32.371101,0.0,39.697561,17.466302,55.952789,22.907081,57.060814,26.622751,57.562511,28.577362,56.654385,0.0,61.081387,29.135342,68.220234,19.801941,57.370057,9.04525,42.995716,-1.360199,28.51426,0.0,4.400729,4.63075,33.977868,15.961024,65.625102,28.673445,72.400752,40.622508,69.668148,54.767286,256.183937,-59.647837,227.243248
25,23.980751,-24.924121,-7.845989,-15.502108,0.0,-59.204658,-33.688705,-77.144565,-24.178299,-52.90916,-12.999847,-39.626804,-2.361053,-27.459205,0.0,33.817761,15.530833,50.970037,20.55113,60.0842,25.099924,59.564991,28.204537,57.512135,0.0,54.825829,29.703838,64.183148,19.579937,48.679379,7.837601,32.971207,-3.578407,20.99675,0.0,3.429655,-5.802525,8.032364,1.290176,48.447175,11.903146,55.858435,23.431898,52.650192,78.713836,231.420824,-67.528027,211.902148
26,17.072571,-31.426353,-8.089411,-18.79982,0.0,-58.292106,-29.478184,-71.854694,-16.159149,-43.94395,-1.86969,-30.139515,11.04554,-17.458317,0.0,23.413023,9.354816,39.948833,17.194448,63.282214,26.221834,69.020794,34.448214,70.301476,0.0,52.58376,30.488823,60.027912,18.743626,38.43159,5.293219,21.465992,-7.668268,11.035389,0.0,0.148667,-15.703006,-17.195708,-13.073149,34.287185,-4.80228,39.809429,5.735292,36.516773,95.552713,200.612488,-75.851132,193.720345
27,22.273545,-26.328746,-8.336242,-20.087755,0.0,-57.553185,-28.580349,-66.566266,-14.856995,-33.78867,-0.036324,-18.754693,13.306114,-8.218197,0.0,13.241552,1.367376,15.920124,6.930178,37.494396,14.499871,47.644926,21.991662,50.760355,0.0,55.038253,22.597858,57.85326,7.50159,31.13035,-7.921423,12.777282,-21.417944,0.944629,0.0,-5.879809,-30.873218,-54.971695,-31.698234,10.985352,-24.544035,14.80807,-14.053084,13.85841,117.512936,175.694859,-84.500696,175.043707
28,16.06224,-22.576623,-4.383488,-16.787769,0.0,-55.861908,-24.824627,-55.043095,-10.833366,-20.662044,4.640488,-4.37883,18.79097,5.775089,0.0,-0.692158,-6.380152,-16.475594,-2.728767,14.629484,3.418771,24.975108,10.106893,29.938572,0.0,55.652229,20.632576,52.900108,4.149296,21.197565,-12.332972,2.739487,-26.906977,-7.795624,0.0,-10.086668,-41.084853,-75.940623,-45.908776,-0.883423,-40.490345,1.948806,-30.467011,1.098811,133.006422,155.58494,-89.452938,160.722642
29,12.704773,-20.966303,-2.138409,-16.11829,0.0,-54.247238,-21.06007,-44.130215,-6.888817,-11.041546,8.892792,6.343872,23.270485,16.632465,0.0,-12.355217,-12.201073,-42.861291,-9.41867,-7.258474,-3.636948,4.310413,2.953152,12.5023,0.0,58.455128,20.280075,51.700596,3.636784,13.364611,-13.290327,-3.79541,-28.727823,-13.325454,0.0,-16.379202,-45.128301,-87.893984,-51.789867,-10.495653,-48.190578,-8.191946,-39.618775,-8.381884,144.961658,137.298475,-92.340884,147.28419
30,9.008698,-18.150614,0.036232,-16.4316,0.0,-53.61866,-17.22369,-31.98444,-3.30542,-0.977658,12.234603,16.557746,26.449493,27.244319,0.0,-21.719018,-16.173927,-61.796542,-12.528,-26.393734,-6.277852,-12.790023,0.510757,-1.128405,0.0,66.3135,20.129082,52.107182,2.997128,9.672301,-14.204389,-6.292122,-29.843164,-16.416961,0.0,-21.362583,-47.72183,-92.314633,-55.071216,-11.390453,-51.88566,-11.659904,-43.749562,-12.160935,153.198996,121.762157,-93.076012,133.466886
31,9.30384,-13.885327,3.22431,-11.244892,0.0,-53.09095,-13.860992,-24.236595,-0.6679,4.540695,13.954926,20.741844,27.31263,30.816788,0.0,-25.562985,-22.096724,-77.046557,-18.896435,-30.880393,-12.72865,-19.170193,-5.974964,-7.786739,0.0,70.846916,20.624108,54.152127,3.443825,8.814663,-13.835518,-6.980198,-29.684543,-17.718532,0.0,-22.958698,-49.211342,-93.801679,-57.083655,-12.034735,-54.171765,-13.648014,-46.200911,-14.378522,161.608635,110.149804,-90.745903,124.494968
32,8.704697,-9.250718,6.451813,-5.506173,0.0,-51.410683,-10.634239,-18.72535,1.778297,7.706383,15.269073,21.845764,27.470444,31.289177,0.0,-24.74473,-27.629469,-86.942351,-24.730762,-25.892652,-18.075803,-18.802241,-10.650507,-8.281644,0.0,71.542591,21.757748,58.459545,5.089416,10.228168,-11.884415,-5.659527,-27.786884,-16.656647,0.0,-21.546151,-49.638235,-93.120245,-57.76919,-12.769652,-55.107784,-14.123789,-47.148644,-15.177838,169.102204,102.420978,-85.505218,120.510687
33,9.38031,-6.127475,9.635445,-2.22751,0.0,-49.551705,-8.868118,-16.337769,2.863632,8.271835,14.805359,20.438415,25.333855,27.938415,0.0,-22.335667,-31.131606,-87.483037,-29.218171,-24.424604,-23.033892,-17.254726,-15.985341,-9.236318,0.0,72.416702,23.408065,62.984241,6.881687,12.265812,-10.019635,-4.358254,-26.019986,-15.508805,0.0,-20.809698,-49.885867,-93.049677,-58.203889,-12.612411,-55.627772,-15.029587,-47.68775,-15.830503,177.096897,96.836351,-77.25539,118.826025
34,11.924343,-2.534042,12.670898,-1.420217,0.0,-49.353699,-7.241032,-14.081566,4.891228,8.521877,16.325718,19.246582,26.269043,25.596336,0.0,-22.447785,-36.085184,-90.514288,-36.28424,-20.860867,-31.338452,-15.226469,-25.103006,-10.797859,0.0,72.95351,24.594727,66.365112,8.376606,13.946148,-8.300766,-3.239834,-24.205902,-14.342342,0.0,-20.447203,-49.772153,-91.930296,-58.1818,-11.963981,-55.549966,-14.910637,-47.293708,-15.404134,187.373468,94.541465,-66.232264,117.644964
35,14.309967,-0.918402,13.721329,-2.62617,0.0,-50.42482,-6.080807,-12.394707,7.476677,7.502186,19.470463,17.559242,30.000298,23.741936,0.0,-24.090216,-41.598063,-94.835798,-44.584557,-16.615069,-41.094263,-12.810589,-35.824236,-11.879677,0.0,73.964264,25.514694,69.223858,10.050705,16.369514,-6.071434,-1.019119,-21.557545,-12.436936,0.0,-19.507974,-49.861988,-90.53194,-58.315929,-11.395841,-55.746161,-14.530434,-47.149453,-14.862565,199.657316,93.482149,-54.537054,114.87788
36,14.245972,-5.453617,14.17511,-5.380684,0.0,-50.735024,-5.700978,-9.84668,9.207092,8.422863,22.172092,18.432495,33.845627,26.101066,0.0,-25.55627,-43.341216,-96.288625,-46.91085,-16.957315,-43.377547,-13.855487,-37.970853,-13.814768,0.0,74.794418,25.776329,70.209137,11.392089,18.171638,-4.02063,1.189808,-19.075539,-10.134728,0.0,-19.867374,-49.738247,-88.331118,-58.030685,-11.119465,-56.084454,-14.137856,-48.11376,-15.575825,211.898278,87.3742,-42.366954,108.842864
37,13.911003,-10.000628,15.647609,-10.562124,0.0,-51.534645,-5.993923,-9.210274,9.698135,8.177822,23.460262,18.693191,36.169578,27.624321,0.0,-28.731037,-43.839739,-94.668911,-47.705046,-17.914736,-44.334733,-15.311598,-39.111834,-15.988345,0.0,74.190777,26.502835,70.837155,12.200604,18.202481,-3.082054,1.39024,-18.174877,-9.393951,0.0,-20.009227,-50.010202,-90.898225,-58.096535,-11.115272,-56.790205,-14.313653,-49.839851,-17.333569,223.890976,76.66966,-28.63765,97.576828
38,11.331413,-16.589347,13.568413,-16.319164,0.0,-51.985977,-6.051304,-8.752098,11.068337,8.275189,26.323917,19.724167,40.725838,31.032921,0.0,-33.704186,-48.031357,-101.954694,-51.72304,-17.459215,-47.675097,-16.028705,-41.487452,-17.124633,0.0,73.173031,26.865475,69.983082,12.563713,16.687889,-2.761562,0.52105,-17.917236,-9.634918,0.0,-21.216454,-50.550351,-94.322297,-58.695681,-12.608033,-58.350379,-14.897732,-52.792533,-20.388585,233.432218,59.333516,-16.859408,80.510867
39,5.222683,-21.545851,10.677143,-21.740363,0.0,-51.945282,-5.753059,-8.474167,11.564964,8.850655,27.409081,20.684898,42.659546,33.207321,0.0,-38.415543,-48.615686,-104.014861,-51.477997,-19.529248,-47.479139,-18.713259,-41.52564,-20.35548,0.0,72.186676,25.455048,66.38784,11.032723,15.543549,-4.500538,-0.27618,-20.064045,-11.421707,0.0,-21.314649,-51.144674,-97.886426,-58.192384,-15.342143,-57.824877,-16.53807,-52.857673,-22.258535,237.126863,37.23775,-7.710303,58.220589
40,-0.765106,-28.319425,6.776161,-27.806766,0.0,-51.519356,-6.643845,-10.356148,10.295151,8.628479,26.068428,20.178818,41.184059,32.987343,0.0,-41.208378,-49.188952,-108.771282,-50.677921,-20.987322,-46.565621,-19.404579,-40.608528,-21.940662,0.0,68.177559,25.351799,62.253846,9.779755,17.847634,-6.965583,-0.554534,-23.526683,-11.95729,0.0,-22.789058,-55.16977,-107.700095,-60.799499,-32.424484,-59.167047,-18.007668,-53.555021,-23.298431,235.445046,8.481036,-1.850853,29.976534
41,-6.996803,-27.660776,2.570229,-29.353071,0.0,-52.721421,-5.47847,-12.71402,11.330589,6.010574,26.65702,18.04573,40.77555,29.885833,0.0,-46.671313,-50.531736,-109.580935,-51.928045,-25.127663,-48.279374,-23.081723,-42.476929,-25.161971,0.0,61.379654,25.822357,60.224007,8.778282,21.313728,-9.359276,-1.206551,-27.249126,-13.518471,0.0,-26.334618,-56.31624,-115.473187,-60.706071,-48.746597,-57.996252,-23.113605,-51.510767,-25.349742,227.890555,-18.69382,0.161688,1.109383
42,-14.511589,-28.901551,-7.14941,-29.989233,0.0,-53.101433,-5.919915,-15.060906,11.198112,4.151893,26.72438,16.838996,41.134849,28.31211,0.0,-48.846151,-53.663517,-118.835531,-54.431031,-27.539993,-50.648436,-24.905955,-44.384011,-26.906236,0.0,58.375065,24.437381,56.559688,6.526107,25.671444,-12.541449,-0.918526,-31.344074,-15.179386,0.0,-29.157045,-58.023015,-118.290642,-61.177173,-64.77847,-57.251324,-26.704357,-49.378024,-26.152434,213.004504,-46.428044,-7.362184,-27.712523
43,-20.445191,-26.156397,-13.991593,-29.77711,0.0,-55.695373,-7.176613,-18.898361,9.749725,2.520378,25.187004,15.458336,39.585434,26.699181,0.0,-49.436729,-52.967349,-118.277119,-53.539389,-29.68837,-50.284991,-26.891999,-44.564816,-28.433475,0.0,58.095921,21.904347,52.460026,2.943032,29.742428,-16.869341,-0.724228,-36.407489,-17.278827,0.0,-30.654021,-60.489549,-119.930592,-62.191215,-79.827346,-56.544829,-29.299456,-46.717875,-25.407289,192.66239,-71.254272,-21.2507,-56.159464
44,-23.136085,-21.916892,-23.473514,-27.842952,0.0,-56.046708,-5.697007,-21.388184,10.788803,-1.386864,24.813743,10.641838,36.883689,19.7807,0.0,-50.653668,-54.215889,-111.872848,-55.441258,-31.399257,-52.555016,-28.126707,-46.859529,-29.966033,0.0,56.515468,20.486515,48.476715,0.99757,27.968021,-18.770479,-2.164581,-38.109387,-17.802338,0.0,-34.490355,-60.842879,-123.090295,-62.275411,-80.828474,-56.4358,-29.825666,-46.732047,-25.454349,170.135519,-91.71148,-44.115,-82.542732
45,-30.026047,-15.937794,-29.050278,-21.386403,0.0,-54.31501,-7.004585,-24.563187,9.175781,-5.052567,23.292801,7.844101,35.790459,16.956665,0.0,-49.849863,-53.508297,-110.020452,-55.300149,-33.836691,-52.876303,-29.792116,-47.448936,-30.541361,0.0,57.763058,16.652607,43.68005,-2.420631,20.916138,-21.265737,-5.872169,-39.947044,-21.197044,0.0,-37.851912,-57.589037,-120.460727,-58.787612,-67.665367,-53.753461,-30.838601,-45.402891,-26.65926,141.192845,-105.864224,-72.081905,-102.144085
46,-34.481438,-10.963106,-34.543556,-17.072551,0.0,-55.506889,-9.894356,-28.963165,6.395279,-8.588402,21.195465,5.789818,35.174721,16.172424,0.0,-45.601559,-54.851039,-111.745154,-56.227038,-40.081949,-53.334001,-30.217317,-47.294536,-29.538078,0.0,60.479324,12.568256,36.721,-6.293415,12.137054,-24.250437,-10.110684,-42.0294,-24.912506,0.0,-38.842165,-57.734884,-122.026837,-58.496035,-55.243305,-53.405203,-27.896455,-45.395588,-25.312736,108.170809,-115.540057,-105.166059,-117.929363
47,-32.268974,-2.42794,-36.538262,-9.686228,0.0,-55.987507,-8.944359,-29.949463,6.905296,-11.612572,21.370376,2.937652,34.955177,16.723801,0.0,-42.303018,-55.907934,-109.279627,-57.967934,-52.83891,-55.457545,-41.693409,-49.383465,-40.263248,0.0,61.060296,9.956875,30.275609,-8.174297,4.469754,-25.094799,-13.063236,-41.947792,-26.842254,0.0,-41.217082,-56.503625,-123.992756,-56.753726,-42.742616,-51.974578,-25.745982,-44.716462,-24.600145,78.170609,-117.2531,-139.435547,-126.900694
48,-30.522371,6.42133,-37.475601,-0.50368,0.0,-54.856293,-9.42615,-33.412663,6.334688,-15.944304,20.740579,-0.985909,34.228849,14.667589,0.0,-39.980477,-58.857476,-109.136619,-61.770236,-61.817189,-59.240318,-48.848309,-52.596605,-46.806794,0.0,58.781159,8.408856,23.836064,-8.679703,-2.705978,-24.677032,-15.626793,-40.707447,-28.309055,0.0,-45.221385,-54.593906,-126.776714,-54.261615,-29.37735,-49.847322,-23.717388,-43.395386,-23.865277,50.654252,-110.276473,-173.905134,-126.849077
49,-30.48016,12.046001,-33.764534,8.79413,0.0,-55.69051,-14.749243,-40.913235,1.951589,-19.527987,18.185903,-2.620308,34.34337,15.934553,0.0,-36.134087,-62.570336,-118.814325,-65.862509,-64.145759,-62.502456,-49.171488,-54.481974,-45.690148,0.0,56.477909,6.85278,17.687611,-9.744026,-4.89933,-25.510391,-17.49353,-41.321811,-30.800068,0.0,-48.608862,-55.139762,-128.587091,-53.957325,-29.543577,-48.944883,-22.895129,-41.866193,-22.914791,23.151404,-98.049197,-204.692356,-117.873672
50,-25.557232,17.036927,-31.343719,16.908899,0.0,-56.291805,-14.880804,-44.14912,1.780764,-19.476637,17.435137,-4.485661,32.780908,11.366598,0.0,-33.666084,-64.842048,-119.144808,-68.352141,-69.582547,-64.292237,-49.895142,-55.54607,-46.536549,0.0,52.388054,5.542717,10.901493,-10.818753,-7.13522,-26.479408,-19.234486,-42.036083,-32.853676,0.0,-51.900073,-55.167509,-130.448463,-53.398502,-28.813233,-47.795862,-21.588052,-39.978282,-21.197308,0.267483,-81.088032,-233.362764,-101.040535
51,-18.484806,26.128316,-27.25676,24.735295,0.0,-55.881203,-18.038687,-49.035851,-1.320585,-21.000235,14.311735,-7.032566,29.48057,8.324255,0.0,-32.576214,-63.891975,-121.162867,-68.273857,-61.5097,-65.04373,-48.211041,-57.206341,-47.187257,0.0,48.221844,3.461689,3.868984,-12.40044,-9.193931,-27.762142,-20.746376,-42.857609,-34.863109,0.0,-54.534963,-54.677687,-130.900949,-52.156242,-26.426636,-46.124023,-19.358483,-37.895395,-19.64352,-15.39315,-54.969272,-257.795351,-76.314796
52,-15.903008,30.577754,-20.388691,31.470844,0.0,-56.435268,-22.268903,-55.653144,-4.973791,-21.947187,11.201781,-7.883823,27.061484,4.620833,0.0,-33.000735,-62.323684,-121.542731,-66.836656,-46.610566,-63.535633,-35.163482,-55.971018,-35.909847,0.0,42.853924,0.447155,-4.964321,-15.179558,-11.375095,-30.331226,-22.78632,-44.894932,-37.449062,0.0,-56.32109,-54.498388,-130.37723,-51.255661,-23.154543,-44.414036,-16.486088,-35.375913,-16.981947,-28.837469,-24.356681,-275.725353,-44.809115
53,-10.468431,32.927524,-12.313705,36.100069,0.0,-55.926499,-24.549271,-59.081761,-8.001309,-20.415928,7.583805,-6.427826,23.134083,3.307308,0.0,-33.260649,-59.226787,-119.982332,-64.080607,-35.90716,-61.507442,-25.501481,-55.245926,-27.952318,0.0,37.475738,-3.145535,-14.107384,-18.622914,-13.490124,-33.424645,-24.928242,-47.33408,-40.009358,0.0,-56.919363,-53.910889,-128.786913,-49.833833,-20.799855,-42.141881,-14.163136,-32.301523,-14.74632,-37.560316,8.326027,-286.293474,-8.953862
54,-1.682694,35.113007,-2.252632,39.377571,0.0,-56.530769,-25.548042,-60.571849,-9.95533,-19.925686,4.661305,-4.753624,19.504166,3.070485,0.0,-33.094775,-55.357737,-117.243979,-60.418536,-35.016472,-58.642939,-21.361616,-53.483618,-25.022187,0.0,32.292137,-7.789261,-23.714699,-23.348648,-16.281247,-37.694642,-27.549694,-50.668499,-42.963375,0.0,-56.437234,-53.105244,-126.069259,-48.225053,-18.548997,-39.791602,-12.506534,-29.113486,-13.349983,-37.534825,42.530423,-286.837921,29.515098
55,7.27846,34.911149,7.250141,39.448207,0.0,-59.805914,-27.132631,-62.257221,-11.567562,-21.609003,3.06748,-3.589611,17.834427,6.710867,0.0,-33.090012,-52.736236,-113.046109,-58.076918,-30.03139,-56.709905,-18.259397,-51.849555,-22.254722,0.0,31.070091,-11.623913,-30.630821,-27.58223,-17.61874,-41.652993,-28.414994,-53.922135,-44.282433,0.0,-54.341443,-52.750691,-122.546774,-47.137745,-15.296497,-37.859406,-9.631583,-26.327103,-10.625215,-28.886021,75.659711,-278.217436,67.181444
56,13.465633,28.816076,17.036773,37.486192,0.0,-60.515047,-25.22442,-59.200035,-9.810734,-18.95331,4.338587,-0.258098,17.963654,10.399252,0.0,-32.495138,-51.383975,-107.681301,-56.292478,-31.282669,-53.866119,-16.702687,-47.944347,-19.622308,0.0,30.835957,-14.104568,-34.887622,-30.471096,-17.94326,-44.242698,-28.334198,-55.847362,-43.569236,0.0,-52.016293,-52.315412,-118.450152,-46.493478,-15.1047,-36.458746,-8.696668,-24.203777,-8.079176,-14.815081,102.343323,-260.575356,102.535172
57,22.384461,22.755317,25.237816,31.975871,0.0,-62.322218,-24.062479,-55.488716,-8.764023,-15.181956,5.125768,3.515419,17.854912,13.547922,0.0,-30.181486,-49.28167,-102.170243,-53.648063,-31.821271,-50.204196,-15.441024,-43.342478,-17.266919,0.0,33.463749,-15.071319,-34.358974,-32.098732,-17.514473,-45.774856,-27.919155,-56.938957,-41.631386,0.0,-49.454251,-51.262321,-113.3321,-45.42897,-16.377266,-34.833556,-9.072797,-21.956063,-6.556116,7.71809,122.863763,-235.18883,132.276166
58,29.17416,16.90341,30.749039,25.102777,0.0,-65.483763,-22.55226,-50.525849,-6.354344,-10.382086,8.199674,7.449589,20.847851,17.086252,0.0,-26.978314,-46.899117,-96.73806,-50.011082,-31.083453,-44.940351,-14.453771,-36.466533,-15.472378,0.0,39.322403,-12.720165,-31.513046,-30.867771,-15.509296,-45.209049,-26.728672,-56.42815,-40.139248,0.0,-47.006309,-49.99569,-109.451889,-45.056775,-15.312929,-34.175278,-9.119004,-20.927993,-4.096911,36.778101,137.744711,-204.55394,155.356481
59,33.106407,8.986519,33.754143,13.431338,0.0,-67.443541,-20.686827,-44.185982,-3.855343,-4.948591,11.354101,10.409294,24.201015,20.189466,0.0,-24.201111,-45.294344,-93.698232,-47.495216,-25.592817,-41.454105,-14.07236,-32.280627,-14.976356,0.0,46.066074,-8.820648,-21.993073,-27.384133,-15.066445,-42.205147,-25.36298,-53.611908,-37.090519,0.0,-45.496419,-44.734468,-96.72537,-39.549965,-12.246014,-28.39768,-4.544991,-15.066026,1.906483,69.492651,145.458446,-171.191654,167.515035
60,36.060648,4.168193,35.251716,5.835686,0.0,-68.575699,-19.563458,-38.624886,-2.527645,-1.877438,13.18618,11.585014,26.795345,20.975338,0.0,-22.664578,-44.956736,-94.180657,-46.895088,-21.472023,-40.692846,-14.327732,-31.549885,-15.723119,0.0,51.939778,-2.88755,-10.265224,-20.505443,-10.790863,-34.66016,-20.066116,-45.159027,-29.997059,0.0,-43.714228,-40.598611,-90.01867,-35.863651,-22.618268,-26.088493,-13.28738,-14.838735,-5.418673,105.214474,148.907614,-136.278763,172.631696
61,35.770111,-3.047253,36.320847,-1.999244,0.0,-67.024933,-17.598804,-32.490326,-0.20644,1.301548,16.023193,13.942955,30.676701,22.922665,0.0,-23.720622,-45.774942,-96.074833,-47.924498,-19.452711,-41.991692,-14.490327,-33.294637,-16.294261,0.0,58.496681,1.101448,-0.370045,-16.73077,-11.918484,-31.296581,-21.46035,-41.699043,-29.81773,0.0,-41.902323,-39.018097,-86.794749,-35.03798,-24.621748,-26.23184,-13.920358,-16.130257,-7.180523,140.677082,145.321521,-100.265419,170.093612
62,31.614372,-9.410578,31.311973,-6.959691,0.0,-63.753101,-15.772648,-25.62101,0.812027,3.689129,16.633518,14.84689,31.374596,23.357781,0.0,-25.046007,-45.654121,-98.632936,-47.312381,-18.947459,-41.819148,-15.20435,-33.866785,-16.956552,0.0,62.166676,5.444092,10.215077,-11.457595,-6.245933,-26.014263,-16.923877,-36.880634,-26.209499,0.0,-42.07725,-38.149874,-83.518772,-35.736248,-23.343712,-28.534699,-13.348587,-19.341921,-8.962757,171.983213,135.272521,-69.261687,162.495499
63,27.099472,-15.212183,29.987916,-13.027824,0.0,-60.330013,-15.133426,-21.537071,-0.350006,1.471997,14.25539,11.879986,28.132256,19.359558,0.0,-27.824609,-44.016339,-100.984453,-44.817294,-22.523654,-39.33081,-17.6088,-31.846176,-18.487302,0.0,64.157993,7.782588,20.661769,-8.253056,-4.328888,-22.202775,-14.354165,-33.104084,-22.438809,0.0,-42.213088,-39.70118,-85.727387,-38.23136,-23.38025,-32.207768,-12.358771,-23.856012,-10.668187,198.726213,119.483429,-39.630243,148.890766
64,22.233776,-18.76424,25.226154,-13.23236,0.0,-56.852554,-13.031753,-17.120269,1.885392,2.634568,16.730141,13.292084,30.995522,21.801247,0.0,-31.505109,-46.093033,-105.827837,-46.775344,-22.720854,-41.743433,-18.493946,-34.827683,-19.742298,0.0,65.485897,8.780994,26.528343,-6.914978,2.361935,-20.654148,-9.576576,-31.662083,-18.81015,0.0,-41.817836,-46.245161,-97.882035,-46.797136,-26.370723,-41.626459,-17.314766,-33.206346,-16.987279,220.479143,100.058614,-14.884935,134.997831
65,15.290612,-21.568678,20.369259,-15.218803,0.0,-53.310562,-10.682465,-13.638153,4.323646,5.479339,19.237358,15.879181,33.516014,25.196846,0.0,-34.503364,-46.648669,-107.536162,-47.354421,-22.436907,-42.399765,-17.879727,-35.674293,-19.222403,0.0,64.609497,7.709598,29.013427,-8.473652,4.736126,-22.973431,-9.521839,-35.294678,-19.85701,0.0,-43.421537,-51.428096,-103.936206,-53.526091,-17.805824,-48.115316,-10.97143,-37.944016,-12.674457,234.881997,78.245988,4.596566,119.53508
66,10.991409,-19.945525,14.321296,-15.981278,0.0,-52.282265,-9.909233,-12.30336,4.88427,7.195976,19.756279,17.158218,34.053039,26.512871,0.0,-36.528697,-46.785947,-110.337661,-47.144371,-21.968024,-42.32769,-17.486611,-35.836796,-19.03412,0.0,63.072648,8.076313,32.619713,-7.919506,10.284256,-22.067195,-4.333866,-34.699218,-15.30804,0.0,-44.80174,-54.44645,-109.809313,-57.207552,-15.672249,-51.920728,-11.666382,-41.385126,-13.452513,244.734037,58.385175,17.778493,103.638514
67,7.58773,-15.331658,12.545174,-15.52561,0.0,-52.706977,-9.714958,-13.760856,5.908768,7.073502,21.423752,18.018288,36.35035,28.043976,0.0,-39.513094,-49.205056,-114.740027,-50.392424,-21.607667,-45.90123,-18.148143,-39.592598,-20.209687,0.0,62.446381,6.862953,32.561989,-9.71228,8.379158,-23.70377,-5.486252,-35.92638,-15.597679,0.0,-44.871777,-57.607855,-117.393486,-59.927225,-16.439886,-53.996808,-12.968056,-43.163155,-13.920951,250.907072,43.49984,28.908972,88.559227
68,4.339486,-10.725527,6.906876,-10.967663,0.0,-53.180947,-9.098626,-14.421845,8.261352,8.81948,25.098449,20.640609,41.50756,32.497604,0.0,-41.597326,-54.20429,-120.60854,-56.699556,-19.165933,-53.073862,-18.32391,-47.23633,-21.523693,0.0,61.201698,5.555076,31.811439,-11.085274,9.194137,-24.916352,-4.62497,-36.934307,-14.47435,0.0,-45.382638,-58.786319,-119.183378,-60.748407,-18.4123,-54.647182,-15.539337,-43.591209,-15.671749,253.737437,33.430716,34.306727,78.247967
69,0.918502,-5.314982,3.77639,-6.92119,0.0,-53.845962,-9.72995,-16.119461,7.551201,8.349381,24.304276,20.403443,40.688256,31.843552,0.0,-42.250348,-54.782755,-121.924811,-57.460666,-19.806982,-53.831706,-18.838989,-48.044216,-21.761271,0.0,60.832626,6.082351,31.069679,-10.771088,7.779579,-24.603836,-5.469704,-36.802986,-14.371994,0.0,-45.881946,-58.839615,-120.936237,-60.830844,-18.786476,-55.141822,-16.663763,-44.975246,-16.754561,253.033287,28.890298,36.460465,72.101341
70,-0.331993,-0.43752,1.530189,-3.470577,0.0,-54.63652,-10.520645,-17.516601,6.807221,7.722107,23.590737,20.526718,40.01072,31.51696,0.0,-43.308145,-56.128191,-124.484891,-58.491207,-20.945876,-54.955045,-19.89418,-49.372771,-22.684446,0.0,61.029602,6.561631,31.196297,-10.655616,6.089173,-24.409561,-6.685226,-36.443847,-14.847381,0.0,-46.013696,-58.908004,-123.432763,-60.918393,-18.58672,-55.410312,-17.108582,-45.85346,-16.766756,251.18252,29.134823,36.47188,69.312809
71,-0.902366,1.967207,-0.670372,-0.133011,0.0,-55.129258,-11.166733,-18.856499,6.066536,6.995544,22.83435,20.249221,39.289878,30.704246,0.0,-43.419647,-56.955616,-125.633121,-59.348722,-21.109427,-55.932504,-20.204382,-50.560113,-23.16508,0.0,61.576355,7.138459,30.957115,-10.08538,6.172692,-23.977684,-6.662178,-36.212631,-14.941955,0.0,-46.530312,-58.9289,-123.805618,-61.306488,-18.68628,-56.034553,-17.523001,-46.591136,-17.433839,248.916087,31.554692,34.437441,69.63246
72,-0.817475,3.107892,-1.227356,1.66179,0.0,-55.699287,-11.720787,-19.908439,5.467736,6.356713,22.277138,19.889809,38.860977,30.033463,0.0,-42.959699,-57.390209,-125.617479,-59.74406,-21.638301,-56.308928,-20.189568,-50.953395,-23.140225,0.0,62.039337,7.986168,31.087281,-9.395027,6.16388,-23.570343,-6.603218,-36.188278,-14.946441,0.0,-47.125388,-58.85223,-124.401243,-61.684221,-18.532867,-56.726491,-17.70748,-47.605127,-18.0075,247.016269,34.913824,32.127742,71.54549
73,-0.479919,3.175657,-1.100807,1.544705,0.0,-56.368035,-12.156052,-20.795769,4.986877,6.081779,21.739654,19.640419,38.268745,29.727104,0.0,-42.577032,-57.41531,-125.077948,-60.041327,-21.85092,-56.758484,-20.051847,-51.438883,-22.843916,0.0,62.076141,7.992577,30.820404,-9.536293,6.285942,-23.847359,-6.639725,-36.573189,-14.927833,0.0,-47.214241,-58.862629,-124.340234,-61.82182,-18.255441,-56.855364,-17.458014,-47.694789,-17.929627,245.566561,38.162038,30.057146,73.162752
74,-0.394982,2.440371,-0.79351,1.155258,0.0,-56.947677,-12.535377,-21.441009,4.649323,6.108879,21.324303,19.320237,37.744057,29.226403,0.0,-42.419063,-57.247437,-124.639817,-60.163019,-21.957163,-57.039294,-19.995784,-51.691054,-22.507902,0.0,61.748794,7.451774,30.786323,-10.152741,6.225814,-24.4273,-6.863343,-37.039582,-15.17434,0.0,-47.209024,-59.030609,-124.040584,-62.009955,-18.113366,-56.90411,-17.328246,-47.500912,-17.563071,244.37261,40.596994,28.464667,74.312595
75,-0.32975,1.567194,-0.480194,0.531233,0.0,-57.556205,-12.928482,-21.989113,4.303734,6.052231,20.962532,18.873253,37.34784,28.648613,0.0,-42.117436,-56.937103,-123.902164,-60.131872,-21.956155,-57.130851,-19.771549,-51.70759,-22.034029,0.0,61.474067,7.06137,30.647644,-10.609086,6.271385,-24.914086,-6.986893,-37.574181,-15.241974,0.0,-47.170949,-59.209327,-123.575277,-62.056237,-18.037419,-56.73166,-17.054606,-47.028855,-17.072279,243.487964,42.10491,27.429577,74.78455
76,-1.006851,0.923897,-0.384957,-0.074311,0.0,-57.567787,-12.966911,-21.951256,4.393089,6.257012,21.089173,18.749085,37.43676,28.570061,0.0,-41.762359,-56.649821,-123.52616,-59.781531,-21.922026,-56.699302,-19.411322,-51.050671,-21.437773,0.0,60.997147,6.441834,30.631783,-11.222076,6.29654,-25.421837,-7.058098,-37.879326,-15.314163,0.0,-47.037672,-59.396116,-123.360626,-62.064017,-18.254434,-56.505276,-17.09683,-46.47712,-16.492325,242.045454,42.916314,26.608961,74.597746
77,-2.114868,1.018536,-0.411667,-0.554716,0.0,-57.700058,-12.778725,-21.595917,4.677132,6.50164,21.455109,19.058601,37.847076,29.016884,0.0,-41.502198,-56.377934,-123.101354,-59.279049,-21.623734,-56.043784,-18.74417,-50.176686,-21.133041,0.0,60.735901,5.945526,30.607865,-11.735801,6.455429,-25.832428,-6.985817,-38.081817,-15.254036,0.0,-46.786645,-59.413795,-123.150341,-61.920621,-18.587683,-56.1378,-17.37346,-45.810025,-16.042819,239.530369,43.675436,25.797077,73.783616
78,-4.000786,2.482188,-0.755035,-0.353336,0.0,-57.171226,-12.133255,-20.561714,5.424751,6.210938,22.263016,18.978264,38.769768,29.23819,0.0,-41.407078,-56.538912,-122.835859,-59.036407,-22.756046,-55.495281,-19.414558,-49.427883,-21.991415,0.0,60.462295,5.837997,30.553688,-11.799957,6.511826,-25.796127,-6.924362,-37.881363,-15.522972,0.0,-47.029793,-58.829204,-122.929324,-61.243213,-18.700995,-55.448554,-17.440774,-45.145325,-15.845588,235.167366,45.906828,24.679825,73.179484
79,-6.40242,4.196712,-1.567314,-0.180861,0.0,-55.463837,-11.038902,-18.972244,6.658173,6.386582,23.569656,19.332001,40.225594,30.19487,0.0,-41.960911,-56.192134,-120.969946,-58.291833,-23.389734,-54.341054,-19.104138,-47.987128,-22.081725,0.0,60.040741,5.935135,30.787262,-11.538849,7.018204,-25.26677,-6.215813,-37.006966,-14.9916,0.0,-47.478515,-58.126206,-122.293504,-60.369518,-18.610333,-54.518389,-16.906213,-44.234833,-15.150939,228.455217,49.915964,22.802782,72.811047
80,-9.254356,6.471271,-2.109055,0.663274,0.0,-52.690567,-9.415489,-17.57206,8.622505,6.417892,25.427719,19.371505,41.721863,30.483398,0.0,-43.015208,-55.755028,-116.59359,-57.911216,-22.868191,-53.315745,-17.994163,-46.329025,-20.27405,0.0,59.000336,5.904785,31.596703,-11.271858,7.682831,-24.650779,-5.462494,-36.000206,-14.311065,0.0,-48.647561,-57.179091,-120.807228,-59.089414,-18.222954,-52.982261,-16.178898,-42.530102,-14.252847,218.884381,56.233399,20.377247,73.320485
81,-11.351441,8.262341,-2.717056,1.458316,0.0,-49.573219,-7.736274,-17.093559,10.313942,5.266686,26.74038,18.509217,42.293152,30.162575,0.0,-42.578231,-53.924066,-105.330827,-55.42793,-21.201788,-49.934866,-15.313485,-42.30467,-16.802189,0.0,57.275825,6.230942,33.439156,-10.6119,8.781166,-23.741959,-4.512154,-34.758785,-13.337975,0.0,-49.916829,-55.503549,-116.982117,-56.943865,-16.635073,-50.355547,-13.879745,-39.545118,-12.00047,207.301735,64.341815,17.428986,74.624876
82,-12.871547,11.755247,-3.51725,3.716801,0.0,-48.310753,-7.146767,-20.122914,10.631847,1.334999,26.396061,14.849864,40.921886,26.838043,0.0,-40.290928,-51.228531,-87.502141,-51.923625,-16.220361,-45.232211,-9.994076,-36.464678,-10.601015,0.0,54.584061,6.464699,37.199638,-10.141663,9.585365,-22.932312,-3.513222,-33.160297,-12.388481,0.0,-51.915881,-54.471836,-109.528972,-55.536907,-15.078735,-48.392261,-11.051743,-37.004102,-9.022804,194.275029,75.926964,13.756577,78.171579
83,-13.66269,14.398078,-4.322365,5.015146,0.0,-49.497482,-7.856964,-26.966823,9.344822,-4.972412,24.274624,9.260662,37.529515,21.251885,0.0,-36.109801,-47.547256,-63.264672,-47.262685,-6.53324,-39.09356,-0.590779,-28.70606,-1.013016,0.0,52.559898,6.776733,41.191246,-9.464241,12.874031,-21.92942,-0.979454,-31.553364,-10.274551,0.0,-53.11282,-52.804599,-96.071551,-52.697493,-12.81108,-44.488498,-5.878911,-32.24974,-4.150332,180.51444,90.106615,9.336313,82.968298
84,-13.129852,14.254496,-5.771187,6.396114,0.0,-53.783478,-11.352974,-39.084858,4.99252,-17.998764,19.054653,-2.544514,31.125813,9.942856,0.0,-27.847707,-40.47416,-34.933268,-38.579583,8.282388,-29.11063,14.205509,-17.101898,13.755676,0.0,51.98893,8.166344,47.690071,-7.426941,19.032967,-19.456501,4.284714,-28.5779,-5.91204,0.0,-49.398934,-49.711126,-79.660409,-48.656571,-6.349554,-39.436172,2.768672,-26.312851,2.857827,167.345953,103.989961,3.526491,88.993262
85,-13.93325,15.354622,-6.432129,5.653225,0.0,-59.749672,-16.135231,-52.252591,-1.034558,-32.609391,12.431911,-16.856175,23.96442,-2.99112,0.0,-17.375652,-31.202069,-7.487524,-26.628821,24.808102,-15.707937,31.094741,-2.496961,30.047368,0.0,51.651833,10.767197,54.242844,-4.097969,27.563942,-15.690433,12.513314,-24.357891,1.078286,0.0,-41.584654,-43.097132,-58.929184,-40.237982,3.627818,-29.56146,15.115982,-15.454856,15.060444,153.474661,118.827707,-2.84368,94.129611
86,-12.434784,16.42461,-5.30381,7.186044,0.0,-65.199143,-22.842819,-67.69122,-9.315365,-50.219147,3.658664,-34.347668,15.308475,-18.371132,0.0,-7.287432,-21.340869,14.087562,-14.509563,40.114157,-2.650307,46.291517,11.163538,45.641705,0.0,51.487107,12.004647,58.614533,-2.138878,36.197273,-13.558365,21.282692,-21.874248,7.812653,0.0,-33.861666,-34.803249,-37.494536,-30.142476,13.243858,-18.772638,27.617322,-4.390263,27.747757,141.116953,134.698592,-8.070414,100.76193
87,-14.749386,16.785231,-2.857979,6.092468,0.0,-68.355263,-28.700592,-79.638107,-16.678047,-66.716057,-4.308151,-51.425079,7.34008,-33.188233,0.0,2.911304,-10.672163,31.97931,-1.223949,54.169129,11.582358,61.277293,25.579028,60.58491,0.0,50.099305,11.940354,58.496979,-1.257476,41.925682,-12.592701,26.782425,-21.146381,10.03489,0.0,-24.280391,-22.44005,-11.20702,-15.755969,25.863271,-4.892077,39.895781,7.682943,39.486771,126.528357,151.021108,-10.767603,106.391683
88,-13.780769,14.9539,-6.357845,13.751965,0.0,-67.274895,-33.130806,-88.817002,-22.847214,-81.128197,-11.436402,-66.971329,-0.158867,-46.487572,0.0,10.95272,0.797414,43.085325,12.533648,64.507802,25.905631,73.17698,39.49213,74.099247,0.0,52.231487,21.406483,60.205158,10.14259,46.860912,-1.243927,32.602467,-11.102348,15.253796,0.0,-19.729584,-11.265146,6.931725,-1.982386,39.042044,9.647946,51.595841,21.99152,51.1889,112.969786,165.495482,-16.90325,119.664122
89,-16.808545,20.685579,-5.981644,15.746442,0.0,-65.39792,-34.166622,-90.061237,-26.047725,-85.01806,-16.287964,-73.49465,-6.183059,-53.122318,0.0,17.213631,7.203192,43.019252,17.606327,59.679754,28.388714,65.459166,38.321478,65.165092,0.0,52.973614,25.242291,63.20953,14.473092,53.197163,2.740517,39.936436,-7.882129,19.85384,0.0,-19.33043,-2.920789,22.909446,8.409504,47.410157,20.761075,58.114455,33.197163,59.398579,96.50299,185.682242,-22.543145,134.911745
90,-18.123092,24.536872,-5.126197,18.722521,0.0,-63.988409,-33.191517,-86.775296,-27.598194,-82.88526,-20.271836,-73.916148,-12.224282,-55.853268,0.0,23.300036,10.158146,35.61886,15.620557,42.758832,20.293285,41.576058,23.603625,36.474949,0.0,53.967624,26.519336,65.499836,15.389396,56.382465,2.501278,42.799266,-9.454777,19.552528,0.0,-21.469698,3.20334,34.867086,15.114889,54.277846,26.793374,62.487094,38.146045,63.865154,79.002966,209.741363,-27.046274,153.156515
91,-19.330147,15.150464,-7.709633,19.865682,0.0,-55.746489,-28.200565,-76.146629,-24.14082,-76.397924,-18.800583,-70.88724,-12.585228,-55.201,0.0,11.309723,10.511754,28.159015,17.652466,34.256232,23.016552,36.551587,26.105147,36.687889,0.0,56.35104,32.614071,70.299007,22.383636,60.212871,9.541649,46.071453,-3.558964,23.007133,0.0,-22.703404,8.647052,45.07425,22.327411,60.990307,34.87344,67.849308,46.326993,69.544147,60.57649,224.390837,-33.852236,172.521207
92,-12.687515,11.849508,-11.079277,21.282779,0.0,-51.927756,-23.801937,-68.326229,-20.835606,-73.081393,-17.085617,-70.2955,-12.772866,-56.316937,0.0,0.611811,11.705538,15.084181,19.781671,23.940258,25.149189,30.536197,27.476081,36.719,0.0,61.970363,37.891948,78.164074,28.119472,69.477459,15.765381,54.997318,2.845436,33.541214,0.0,-25.45452,9.758109,46.470285,25.728347,63.513918,40.792014,71.194916,54.292259,74.131086,49.007086,235.636395,-43.813402,193.200036
93,-10.855912,10.273231,-6.950638,14.207115,0.0,-53.315591,-20.502307,-63.845249,-18.299297,-70.875818,-15.586876,-70.104566,-12.480629,-57.773345,0.0,-6.085367,13.207691,3.007344,22.153232,14.146828,27.271341,24.066667,28.454713,36.491968,0.0,63.134869,32.621921,84.156612,22.145336,77.198536,10.426197,62.935238,-1.198254,40.003395,0.0,-22.886024,11.815411,50.362796,28.054818,66.255537,43.377763,73.808465,56.693535,77.880534,39.31525,245.213649,-49.599964,206.711174
94,-7.194477,5.463584,-5.501656,12.751609,0.0,-53.276024,-18.005355,-64.062,-14.892265,-71.722469,-12.021148,-70.709758,-9.691406,-57.815242,0.0,-11.608077,19.549921,4.269213,29.613559,15.514692,34.573833,27.420678,34.731494,41.96348,0.0,64.525441,31.911312,85.859768,21.502476,79.640042,10.123936,65.378895,-1.322754,43.07388,0.0,-20.622773,15.612122,53.494974,32.351683,70.120433,47.462935,78.190915,59.810843,82.45567,33.258436,249.969641,-53.963957,218.755191
95,-3.945785,3.538657,-5.128875,11.597715,0.0,-52.808052,-20.469658,-60.084521,-16.709227,-68.263064,-12.92605,-66.289621,-9.989897,-57.080189,0.0,-14.890649,23.154873,10.452622,35.266549,24.990891,41.827469,40.943518,43.333012,58.758573,0.0,65.88129,32.259533,87.32603,22.605262,82.834293,12.404422,69.395839,1.891616,48.383171,0.0,-18.969307,17.901951,54.81016,35.700655,71.822818,51.331685,81.297184,63.545607,85.95661,30.295292,252.791688,-58.110191,229.636296
96,-3.19828,15.577443,-3.173996,9.835951,0.0,-61.01294,-29.219903,-53.156943,-26.08964,-56.439326,-21.662322,-53.103373,-17.947878,-54.493367,0.0,2.371555,23.351301,15.014977,28.363446,24.633134,28.43315,32.363496,24.660416,40.247763,0.0,66.254619,29.307151,87.943233,19.199226,85.088321,9.188827,72.335964,-0.711445,50.404358,0.0,-17.447122,19.388185,55.32585,36.809075,72.779505,51.689899,81.627117,62.809481,85.984596,27.982911,267.63879,-60.398288,238.741906
97,-4.808236,15.334603,-1.086686,8.462536,0.0,-61.776935,-34.775928,-44.858682,-32.051759,-39.650625,-27.01264,-35.322836,-22.053262,-47.094314,0.0,15.612733,20.460048,22.611031,18.882621,24.693885,13.291714,23.6783,5.249952,20.556595,0.0,65.747715,28.623459,87.472561,18.445404,85.009404,8.341908,72.631474,-1.884086,49.592446,0.0,-15.018058,22.203608,56.405062,38.721189,75.106829,52.232673,83.871904,61.956547,87.250838,23.922535,282.341304,-60.737114,246.572353
98,-4.502082,9.347012,-0.397556,7.436084,0.0,-58.869771,-40.767346,-29.610026,-39.582579,-20.728644,-35.059325,-17.528235,-30.186442,-41.966195,0.0,24.110392,18.00495,32.851472,14.159505,30.434931,6.863867,23.383071,-1.619411,13.939433,0.0,65.518662,28.518231,87.108811,18.302033,84.940292,8.152908,71.963699,-2.153343,48.869923,0.0,-13.047677,24.23879,56.814565,40.484335,75.920427,53.189742,85.211875,62.010171,88.131101,20.204968,291.148358,-60.350155,253.468479
99,-5.627793,6.343125,0.149437,6.107276,0.0,-50.193867,-44.481766,-10.203237,-45.778547,0.306318,-42.355081,1.169043,-37.19121,-36.954151,0.0,27.010044,13.188085,36.527932,10.078359,35.718668,4.284528,28.793433,-1.772724,20.638242,0.0,65.108963,28.578232,87.37722,18.624046,85.921509,8.674038,72.534096,-1.315636,50.014549,0.0,-10.574845,26.02003,57.146795,42.460892,76.118646,54.856398,85.919535,63.256529,89.011502,15.36478,297.075628,-59.413113,259.1599
100,-0.017807,1.831061,0.410088,4.819681,0.0,-48.649383,-48.566254,-1.718147,-51.298267,9.048226,-48.56496,8.201477,-43.331989,-33.851177,0.0,28.58944,11.386665,40.450249,10.229215,41.377691,6.72872,35.100873,3.371165,28.138736,0.0,64.786056,29.218609,88.24974,19.655651,87.112816,9.888324,73.508011,0.063526,51.661079,0.0,-8.166294,27.704533,58.048092,44.218927,75.729026,56.3968,85.596235,64.544483,88.654153,16.072986,298.657699,-58.277012,263.730591
101,2.161835,-3.562826,0.549213,3.539077,0.0,-42.182648,-47.020672,-0.710037,-50.368172,9.802505,-48.539005,8.291565,-44.013325,-28.503491,0.0,26.832456,14.576728,45.551537,17.117128,48.53486,17.10353,44.766035,16.847822,41.171099,0.0,64.56522,29.33765,88.746769,20.193043,88.559681,10.808533,74.818668,1.472248,53.171459,0.0,-6.414584,28.643311,58.348285,45.467088,75.055909,57.671007,84.992835,65.728435,88.432221,18.857792,294.968652,-57.104828,267.143447
102,2.410538,-6.631797,0.19669,2.411687,0.0,-41.370232,-49.315773,1.673652,-54.339798,9.373512,-53.741993,5.501907,-50.141522,-31.975182,0.0,20.085841,18.627889,49.575565,26.789564,55.810677,31.560105,55.1508,35.376317,57.504269,0.0,64.153587,29.433368,89.957176,20.71455,90.260948,11.568855,76.605034,2.437957,55.023719,0.0,-4.973946,29.049728,58.312791,45.964808,73.995,58.144138,84.003815,66.248287,88.054778,21.823809,288.30003,-56.352659,269.518309
103,0.694656,-0.996306,-0.061089,1.509118,0.0,-38.11124,-49.150394,2.128349,-54.378571,10.314835,-53.831188,6.404961,-50.034164,-27.413303,0.0,16.013759,20.386257,51.072235,29.279687,57.551125,34.586912,57.946167,38.706838,59.913745,0.0,63.835487,29.732769,91.052513,21.400131,91.678803,12.413693,78.380333,3.337864,56.690163,0.0,-3.831526,29.3352,58.275791,46.288788,72.724572,58.419076,82.441049,66.56219,86.914446,22.975365,287.37194,-55.956848,271.095643
104,1.010055,4.898623,-0.208053,0.93957,0.0,-37.109218,-50.382247,0.320801,-54.65332,9.794152,-52.952819,7.604485,-48.155937,-18.592964,0.0,21.408967,19.647895,49.504207,24.527943,52.411712,26.481899,50.475034,27.621787,48.752741,0.0,63.764991,29.623226,91.514648,21.671539,92.611999,12.91389,79.638999,3.96112,57.718437,0.0,-3.435954,29.280995,57.686432,46.131954,71.176168,58.150733,80.74448,66.268418,85.577957,24.351636,292.369833,-55.798685,272.134483
105,1.354752,-1.615477,-0.34282,0.363722,0.0,-36.491775,-50.582073,-0.408531,-55.479641,8.320129,-54.170689,5.912109,-49.663467,-18.425148,0.0,17.279643,20.574879,49.971262,27.024623,53.783176,30.367161,52.667272,32.530636,51.56157,0.0,63.64325,29.249966,91.514717,21.469025,93.015496,12.845684,80.142266,4.019978,58.028183,0.0,-2.973863,29.298026,57.186649,46.103166,70.350911,57.993085,79.708902,66.035174,84.933345,26.023533,290.812284,-55.82436,272.556133
106,0.229454,1.051943,-0.337005,0.185968,0.0,-39.502876,-51.720966,-2.096237,-56.312759,7.08197,-54.697666,5.188225,-50.008541,-18.568107,0.0,16.258254,19.863712,49.778428,25.83883,53.223631,28.790401,51.468363,30.670479,49.772784,0.0,63.712829,29.025638,91.292106,21.329578,93.076011,12.751247,80.343681,3.915527,58.023925,0.0,-2.587911,29.198126,56.758175,45.861771,69.7504,57.632017,78.94064,65.655137,84.428609,26.535747,291.905677,-55.878605,272.783551
107,-0.181366,0.847265,-0.187592,0.198144,0.0,-34.408115,-50.031074,-1.114494,-54.448196,8.150002,-52.63298,6.794769,-47.796444,-12.350418,0.0,19.807013,18.926884,49.230269,24.342358,52.579933,27.240491,51.424867,29.177082,49.758334,0.0,64.016144,28.808979,91.029579,21.126732,92.849579,12.58667,80.206329,3.80072,57.908272,0.0,-2.31296,29.113134,56.488771,45.70416,69.270699,57.480717,78.288865,65.559215,84.047029,26.593809,292.7775,-55.826769,273.006253
108,0.509789,-0.530584,-0.120678,0.281397,0.0,-36.344639,-50.396016,-1.539322,-55.629708,6.743797,-54.478455,4.870605,-50.285866,-13.76841,0.0,17.222252,17.677587,47.928817,24.390067,52.535139,28.519243,51.633447,31.451251,49.80146,0.0,64.41901,28.852982,90.811672,21.206028,92.728924,12.683796,80.050678,3.90477,57.838749,0.0,-2.31832,29.062251,56.475198,45.600641,68.933492,57.410791,77.892661,65.575899,83.720455,27.31057,292.249877,-55.740475,273.290611
109,-1.904,-5.14045,-0.039997,0.217411,0.0,-33.345394,-47.681087,2.554093,-54.392177,9.053788,-54.699657,4.731835,-51.775772,-16.572052,0.0,6.44678,17.818551,47.705515,30.219738,57.006782,39.04192,59.414542,45.852163,60.9461,0.0,64.558342,29.051605,90.659317,21.373512,92.406075,12.792263,79.611603,3.981091,57.632629,0.0,-2.351888,29.091014,56.521338,45.609657,68.801222,57.40564,77.707669,65.562228,83.493152,25.604667,287.106352,-55.582375,273.504947
110,-0.686622,0.244396,-0.023689,0.141445,0.0,-32.72033,-46.55468,3.403015,-53.958916,9.730728,-54.816262,4.413849,-52.448925,-18.934674,0.0,5.409669,16.181794,46.554809,29.285071,56.596451,38.734662,59.737299,46.322491,61.310712,0.0,64.801689,29.3031,90.675201,21.596477,92.328186,12.917827,79.391647,4.003624,57.514297,0.0,-2.352505,29.068365,56.449671,45.579943,68.596396,57.37384,77.428533,65.533835,83.289944,25.108773,287.346027,-55.415336,273.641671
111,-2.340729,-2.925377,0.021663,0.032617,0.0,-27.577091,-44.242561,7.576584,-52.319183,12.364815,-53.679359,5.680183,-51.676128,-18.906269,0.0,1.797604,17.518679,45.933514,33.213028,58.492572,44.691293,63.789831,53.794662,67.080449,0.0,64.998127,29.601861,90.806523,21.818745,92.127011,13.020413,79.014164,3.988553,57.346104,0.0,-2.253915,29.134524,56.482669,45.620352,68.621763,57.377742,77.453986,65.510518,83.183844,22.939201,284.429841,-55.222516,273.683479
112,-0.416313,-0.771225,-0.003353,0.068234,0.0,-31.807572,-44.877171,7.206665,-53.842873,11.424797,-56.008644,4.335182,-54.889927,-22.138218,0.0,-1.559322,16.760395,46.508175,33.387546,59.872359,45.450291,64.514274,55.085455,66.795025,0.0,65.116356,29.776692,90.836907,21.968903,91.970513,13.101735,78.680695,3.996037,57.230164,0.0,-2.161832,29.133672,56.443965,45.602087,68.661568,57.31299,77.559975,65.41031,83.090243,22.663553,283.67402,-55.085204,273.767117
113,-3.82766,0.798396,0.148854,0.088019,0.0,-24.850891,-41.010132,11.514359,-49.394497,16.416985,-51.268455,9.29187,-49.926979,-16.158039,0.0,-2.644437,16.986155,45.665862,33.451507,59.179198,45.331063,64.234742,54.657389,67.205776,0.0,65.218128,30.025303,90.74168,22.175296,91.67332,13.17913,78.232784,3.909359,56.950138,0.0,-2.114013,29.14759,56.179253,45.533741,68.526729,57.160343,77.453159,65.226417,82.943722,18.950432,284.487588,-54.821811,273.870308
114,5.151787,-0.111658,0.108146,-0.037668,0.0,-34.663811,-46.023731,6.014923,-54.778793,10.12191,-56.625366,3.860619,-55.255028,-20.835514,0.0,0.726037,16.469255,47.121913,31.997965,60.300105,43.335624,63.924459,52.564322,65.342162,0.0,65.429364,30.110791,90.607785,22.283936,91.590878,13.282196,78.110356,4.008396,56.970303,0.0,-1.957339,29.171982,56.124135,45.610645,68.618417,57.294391,77.5188,65.41877,82.950897,24.189228,284.390975,-54.626656,273.847685
115,-2.47261,-0.221115,0.092068,0.015808,0.0,-28.201058,-43.121773,8.825202,-51.1661,13.590065,-52.698716,7.928421,-51.122292,-14.811585,0.0,-0.866581,17.759183,46.81127,33.332156,60.462903,44.692811,64.6964,53.700862,67.311827,0.0,65.577072,30.260822,90.448036,22.466572,91.442528,13.445206,77.970429,4.155178,56.982285,0.0,-1.924352,29.234757,56.109031,45.711768,68.766371,57.446532,77.620009,65.62845,82.937547,21.777586,284.197417,-54.47362,273.89105
116,-2.787232,2.288507,-0.005836,0.032308,0.0,-21.791508,-40.020023,11.663132,-47.795345,17.193901,-49.308311,11.204521,-47.847404,-12.719994,0.0,-6.435789,15.008808,42.905643,30.667008,56.930632,42.491014,62.535593,51.98656,66.027258,0.0,65.716964,30.452865,90.383903,22.696907,91.430992,13.672245,78.023918,4.367534,57.078666,0.0,-1.907717,29.285467,56.072215,45.770604,68.734866,57.561264,77.578364,65.814405,82.962543,19.034563,286.521764,-54.435247,273.959198
117,-0.000961,0.674759,-0.008366,-0.150251,0.0,-22.29982,-40.921509,11.436355,-48.380814,17.01281,-49.558869,11.59069,-47.732952,-11.404084,0.0,-5.505988,15.115068,43.173801,29.844369,56.68263,40.85884,61.629603,49.701449,64.82725,0.0,65.902256,30.737057,90.357548,22.962994,91.407429,13.861622,78.048969,4.500378,57.110996,0.0,-1.77278,29.480363,56.292182,45.958362,68.943372,57.768832,77.725281,66.053144,83.182264,19.058676,287.235175,-54.418539,273.847599
118,-0.085625,0.590791,-0.042984,-0.12355,0.0,-22.053291,-40.250668,11.344391,-47.553142,16.946251,-48.739654,11.293304,-47.047726,-11.612709,0.0,-6.312584,14.707441,42.507773,29.355306,56.091258,40.337394,61.189743,49.205606,64.386747,0.0,66.051762,30.745308,90.349445,22.915752,91.402508,13.795235,78.020954,4.484837,57.142879,0.0,-1.646587,29.613262,56.515657,46.138154,69.150532,57.981229,77.857266,66.267368,83.335219,18.982012,287.859521,-54.452562,273.757604
119,-7.778698,3.634036,-0.019249,-0.09848,0.0,-8.346599,-31.641415,19.797535,-38.183006,25.833721,-39.518383,19.236088,-38.20293,-4.230823,0.0,-15.015279,12.21853,36.033231,27.486628,50.972508,39.286687,58.277001,48.633587,63.634603,0.0,66.178356,30.709579,90.445187,22.788757,91.391567,13.626034,77.958515,4.329895,57.070049,0.0,-1.560531,29.683004,56.698883,46.237832,69.262202,58.082598,77.868888,66.34326,83.415829,11.198542,291.517544,-54.476583,273.683111
120,-6.908089,1.175926,0.020245,-0.09344,0.0,-0.526943,-25.084385,27.722432,-31.448444,32.962887,-33.168182,26.28162,-32.420173,2.918736,0.0,-17.110669,11.174935,34.113681,26.426373,49.506886,38.207709,56.894285,47.505394,62.278131,0.0,66.080383,30.414527,90.403747,22.44271,91.419479,13.32661,77.93724,4.1235,56.965759,0.0,-1.575315,29.716212,56.779219,46.327629,69.110999,58.197132,77.696863,66.432143,83.53403,4.272594,292.673389,-54.474197,273.56959
