takenoko1/special-research/HandMotion_SimilarSearch_自分用/NewProject/handData/test_key/d4_feature_d3/134.csv
frame,vel_0x_L,vel_0y_L,vel_0x_R,vel_0y_R,posFromWrist_0x_L,posFromWrist_1x_L,posFromWrist_2x_L,posFromWrist_3x_L,posFromWrist_4x_L,posFromWrist_5x_L,posFromWrist_6x_L,posFromWrist_7x_L,posFromWrist_8x_L,posFromWrist_9x_L,posFromWrist_0y_L,posFromWrist_1y_L,posFromWrist_2y_L,posFromWrist_3y_L,posFromWrist_4y_L,posFromWrist_5y_L,posFromWrist_6y_L,posFromWrist_7y_L,posFromWrist_8y_L,posFromWrist_9y_L,posFromWrist_0x_R,posFromWrist_1x_R,posFromWrist_2x_R,posFromWrist_3x_R,posFromWrist_4x_R,posFromWrist_5x_R,posFromWrist_6x_R,posFromWrist_7x_R,posFromWrist_8x_R,posFromWrist_9x_R,posFromWrist_0y_R,posFromWrist_1y_R,posFromWrist_2y_R,posFromWrist_3y_R,posFromWrist_4y_R,posFromWrist_5y_R,posFromWrist_6y_R,posFromWrist_7y_R,posFromWrist_8y_R,posFromWrist_9y_R,posFromBody_0x_L,posFromBody_0y_L,posFromBody_0x_R,posFromBody_0y_R
6,-0.048088,0.123562,0.0905,-0.135987,0.0,-11.863941,-30.231708,25.659851,-38.212864,27.638329,-40.796253,19.24292,-40.347564,-5.736809,0.0,-17.156228,11.324976,34.558853,27.998094,50.498129,40.687285,58.098863,50.445505,63.699391,0.0,65.87661,30.573109,89.83667,22.67379,91.012093,13.453858,77.594216,3.969052,56.836807,0.0,-3.367583,29.152258,54.97239,45.547437,67.02323,57.254463,75.879931,65.352919,83.789813,9.6051,292.034077,-52.870669,274.918345
7,-0.256164,0.028158,0.196587,-0.201183,0.0,-12.651329,-30.302491,26.752945,-38.286541,29.040504,-40.728791,20.694786,-40.122792,-4.679055,0.0,-17.338861,11.514118,34.479837,28.387468,50.095714,41.192848,57.642417,50.973903,63.515338,0.0,65.762283,30.683189,89.826324,22.73782,91.097626,13.441463,77.627701,3.843212,56.803528,0.0,-3.134797,29.268831,55.116874,45.683881,67.172543,57.42098,76.067035,65.550755,84.015943,9.352804,292.069417,-52.670214,274.724344
8,-0.356987,0.359363,0.106956,-0.146188,0.0,-12.924385,-29.447148,28.5252,-37.876179,29.634544,-40.601612,20.986885,-40.341934,-3.954117,0.0,-18.269045,11.35453,34.290757,28.587835,49.526856,41.511455,56.93861,51.294227,63.013875,0.0,65.791741,30.738888,89.886109,22.80431,91.244271,13.499394,77.740219,3.888794,56.907212,0.0,-2.911754,29.282132,55.317575,45.787338,67.31226,57.622891,76.214915,65.853826,84.111546,8.994959,292.43447,-52.564116,274.583846
9,1.020607,-0.9494,0.060997,-0.140161,0.0,-15.698067,-30.866959,27.277221,-39.169167,28.431289,-41.648461,20.419189,-40.991238,-6.031357,0.0,-17.013029,12.838059,36.842827,29.966178,51.347468,42.559112,58.026282,52.01888,63.734267,0.0,65.730309,30.704213,89.756287,22.820252,91.233765,13.552368,77.831131,3.951348,56.993431,0.0,-2.702383,29.312612,55.319971,45.877901,67.385508,57.78054,76.408527,66.072756,84.230897,10.017294,291.491884,-52.501391,274.450499
10,-1.353951,2.013113,0.120289,-0.060256,0.0,-13.796242,-28.627235,28.677269,-37.005272,29.750725,-40.040211,20.866493,-40.24633,-5.007637,0.0,-21.157816,11.679497,33.568919,28.802195,48.697054,41.483358,55.332074,50.910917,61.731183,0.0,65.655911,30.616734,89.721943,22.746437,91.132199,13.501305,77.845677,3.911156,56.984631,0.0,-2.533767,29.286689,55.376584,45.839097,67.37396,57.773673,76.456804,66.117883,84.272479,8.663177,293.509558,-52.381268,274.394804
11,-9.042251,1.29172,0.011055,-0.001482,0.0,-1.634022,-19.738827,38.173393,-26.865029,39.532974,-29.459004,31.168785,-29.548211,7.726089,0.0,-22.205659,11.883175,32.553569,28.059053,47.68804,40.062148,54.413129,48.793273,61.603174,0.0,65.700726,30.527401,89.761013,22.733483,91.160443,13.56506,77.98415,4.021179,57.090878,0.0,-2.472128,29.202943,55.297,45.69097,67.327005,57.613344,76.417728,65.993703,84.182855,-0.387703,294.819442,-52.378842,274.411486
12,3.661537,-1.150781,-0.017624,-0.039335,0.0,-6.818619,-22.764473,33.69294,-30.92989,34.775917,-34.299992,26.03611,-35.011872,-2.053574,0.0,-19.784178,11.140775,34.511465,27.50367,48.915935,39.694202,55.636417,48.907462,62.376067,0.0,65.734028,30.603298,89.896054,22.894032,91.214665,13.761143,78.168583,4.185963,57.305729,0.0,-2.420258,29.207192,55.258554,45.649536,67.280631,57.566612,76.37701,65.985626,84.197045,3.257504,293.683403,-52.412796,274.386893
13,-1.98856,-3.188594,0.032135,0.050932,0.0,-4.732807,-21.84383,34.283993,-29.998283,36.128735,-33.689346,27.772511,-34.774315,-0.178356,0.0,-15.034879,13.090729,37.758957,29.668307,52.738458,41.942658,59.033987,51.17679,64.506407,0.0,65.621968,30.459973,89.821049,22.845612,91.090863,13.834019,78.103993,4.369835,57.411793,0.0,-2.486825,29.07055,55.104511,45.530073,66.989119,57.46749,76.171084,65.90472,84.018882,1.23004,290.507555,-52.419565,274.450571
14,-2.675754,-0.895455,0.136025,0.089204,0.0,1.202178,-19.126397,37.570266,-27.381798,39.300453,-31.454499,29.862442,-33.000504,4.101379,0.0,-14.456537,12.446969,38.162335,29.769034,53.033045,42.883031,59.503179,52.941815,65.267641,0.0,65.527553,30.269279,89.697452,22.717838,91.028606,13.799171,78.095707,4.446602,57.557682,0.0,-2.558603,28.929723,54.878876,45.444747,66.620544,57.434355,75.891961,65.909463,83.851268,-1.49719,289.624675,-52.335016,274.55235
15,-1.318039,-2.199834,0.047046,0.00536,0.0,4.388214,-19.003327,37.778709,-27.068276,41.004982,-30.874535,30.738624,-31.941456,4.162445,0.0,-11.393741,13.452031,41.216029,31.326355,55.428973,44.777299,62.375055,55.302002,67.061034,0.0,65.34327,30.10365,89.706826,22.625554,91.135529,13.801346,78.170678,4.555355,57.673165,0.0,-2.53042,28.888016,54.735788,45.468632,66.484817,57.496982,75.79237,65.98039,83.723765,-2.880884,287.438704,-52.353625,274.571573
16,-1.155602,-0.236812,0.099152,0.037261,0.0,8.559563,-18.033668,39.157906,-26.33963,42.779686,-30.462204,30.984924,-31.6199,1.574925,0.0,-11.671755,12.624303,40.499316,31.183365,55.266952,45.262311,62.624415,56.336555,66.661101,0.0,65.102531,29.916435,89.675308,22.461193,91.081398,13.701725,78.041542,4.552448,57.697701,0.0,-2.55233,28.807789,54.624896,45.493195,66.341728,57.601414,75.669844,66.118043,83.611663,-4.101242,287.195047,-52.319229,274.601989
17,-1.752731,-0.3306,0.146816,0.089007,0.0,11.168026,-15.84597,41.317131,-24.225037,44.371811,-28.838963,32.4123,-30.507626,1.818832,0.0,-13.00723,13.012059,40.312361,31.696585,55.203362,45.734912,62.787646,56.776836,67.243519,0.0,64.98943,29.542282,89.552388,22.089169,90.985462,13.425007,77.869183,4.453675,57.65173,0.0,-2.689564,28.602692,54.421366,45.386231,66.171235,57.561412,75.531066,66.086785,83.391189,-5.911978,286.850421,-52.230418,274.67697
18,-4.424378,0.439614,0.176892,-0.049166,0.0,16.181935,-10.98349,46.379975,-19.405506,49.155052,-24.530319,36.98758,-26.968242,6.337807,0.0,-15.160467,12.087433,39.183551,31.074227,53.979011,45.558836,61.949396,57.019651,66.784206,0.0,64.94284,29.347194,89.539787,21.824443,90.933448,13.095726,77.805839,4.079406,57.486671,0.0,-2.678758,28.413094,54.377993,45.250504,66.338233,57.500675,75.657753,66.063246,83.435304,-10.371689,287.272501,-52.088859,274.61027
19,7.67062,-2.844447,0.104198,-0.066974,0.0,3.651604,-17.969375,37.897122,-27.535503,40.563298,-33.280678,28.774967,-36.099609,-9.03257,0.0,-12.003934,13.75325,42.225723,32.959579,56.717087,47.268088,64.747753,58.800818,69.688786,0.0,64.910626,29.211433,89.696102,21.63509,90.842114,12.85334,77.680882,3.76545,57.271877,0.0,-2.621972,28.26094,54.48597,45.057843,66.560299,57.310594,75.851056,65.891703,83.479628,-2.729885,284.418735,-52.013477,274.533977
20,-1.809723,-1.291361,0.154656,-0.047944,0.0,4.150704,-16.061714,40.198506,-26.205883,42.124203,-32.713131,31.046162,-36.650425,-5.928497,0.0,-11.917793,14.538146,43.008692,33.846006,57.604687,48.361193,65.409692,59.803816,70.529073,0.0,64.946079,29.145435,89.690906,21.498138,90.62495,12.630226,77.436252,3.440002,57.047229,0.0,-2.625553,28.103823,54.469891,44.853437,66.64659,57.091616,75.955033,65.670588,83.47443,-4.555739,283.113496,-51.874952,274.472155
21,10.239212,-1.638967,0.153636,0.011214,0.0,-11.451107,-24.854049,29.265828,-36.060001,30.344662,-42.969738,20.167248,-47.259842,-20.816608,0.0,-9.746475,15.470787,45.78362,34.759862,59.534918,49.036249,66.870114,60.509932,72.139425,0.0,64.993149,28.92928,89.632897,21.245762,90.513932,12.380814,77.326355,3.213364,56.894097,0.0,-2.624911,27.997402,54.444215,44.707904,66.633166,56.921839,75.914425,65.477939,83.353905,5.673488,281.472723,-51.731301,274.481563
22,-7.367179,-0.139532,0.137352,-0.02286,0.0,-2.431664,-18.844918,36.605999,-29.166195,38.883693,-35.823773,28.840999,-40.219094,-7.419182,0.0,-9.119399,16.401848,46.148566,35.061761,59.95103,49.15775,67.296328,60.198229,72.246488,0.0,65.026726,28.76112,89.570183,21.089951,90.464333,12.230942,77.279618,3.058583,56.783822,0.0,-2.590689,27.943754,54.36184,44.601335,66.583938,56.778467,75.877128,65.316276,83.31168,-1.702783,281.335417,-51.603041,274.460929
23,10.163646,-0.977076,0.120129,0.105174,0.0,-15.083633,-27.773803,25.723389,-38.878875,27.656113,-45.683349,17.546471,-49.612175,-22.304626,0.0,-6.985997,16.799471,47.957753,35.292694,61.241465,48.984922,68.319062,59.964207,73.070608,0.0,65.081028,28.559303,89.621258,20.910725,90.386868,12.13337,77.156513,3.074982,56.72945,0.0,-2.696925,27.918608,54.356615,44.527567,66.526139,56.649469,75.689085,65.145462,83.120451,8.447181,280.368857,-51.496594,274.576619
24,-6.639038,0.744722,0.16721,0.075101,0.0,-5.912544,-22.417934,32.310402,-32.784679,34.497666,-39.025028,25.019921,-42.660164,-8.35786,0.0,-6.700587,16.607835,47.018098,34.960082,60.524296,48.708033,67.206925,59.297574,71.144292,0.0,65.074608,28.211334,89.535942,20.560775,90.278457,11.865394,77.005279,2.970485,56.629486,0.0,-2.817301,27.981359,54.271733,44.608065,66.491707,56.679196,75.507403,65.069546,82.965988,1.796259,281.112761,-51.341268,274.650902
25,1.523598,1.81976,0.101989,0.027824,0.0,-5.739098,-23.464485,30.749542,-33.455567,32.95388,-39.201668,22.865913,-42.177075,-9.921925,0.0,-9.120486,15.341038,44.124905,33.507601,58.147782,47.212327,65.15528,57.90062,70.54945,0.0,64.936478,28.327515,89.577553,20.618592,90.227143,11.873612,76.889672,2.921597,56.578812,0.0,-2.975369,28.083112,54.518574,44.685315,66.562844,56.696882,75.404033,65.048736,82.834349,3.310736,282.934781,-51.2484,274.680986
26,0.862656,0.255498,0.121663,-0.031739,0.0,-7.508492,-25.005433,29.730514,-34.855454,32.343498,-40.182553,22.512359,-42.704613,-5.850483,0.0,-8.151005,14.459205,44.089054,32.531204,58.130307,46.404336,65.011526,57.224638,69.937097,0.0,64.819072,28.577716,89.597477,20.781692,89.994175,11.848033,76.605846,2.62619,56.397228,0.0,-3.111517,28.135513,54.69439,44.637421,66.758321,56.581,75.49735,64.942241,82.791679,4.16494,283.188621,-51.135189,274.647589
27,6.990325,0.405145,-0.039551,-0.075793,0.0,-16.602802,-31.866313,22.276177,-41.468193,24.937912,-45.651626,15.889527,-46.802192,-10.791057,0.0,-6.491697,14.407594,43.838915,32.173496,57.952564,45.640149,64.28245,56.175572,68.998255,0.0,64.742191,28.855488,89.769527,21.007725,90.01363,12.002563,76.548214,2.68745,56.490703,0.0,-3.164017,28.29988,54.991731,44.764245,66.925072,56.670379,75.534722,65.010821,82.763151,11.148078,283.588205,-51.181927,274.566235
28,2.238739,0.573451,0.050617,-0.123451,0.0,-19.589321,-34.550285,20.361557,-44.020454,23.203309,-47.746044,14.366295,-48.421817,-10.327972,0.0,-7.461487,13.348871,43.22377,31.378028,57.611418,45.265127,63.876899,56.164766,68.586825,0.0,64.583885,29.041946,89.659973,21.14138,89.999519,12.016708,76.479744,2.516224,56.28788,0.0,-3.150445,28.594738,55.152121,44.945408,67.082819,56.744936,75.68601,65.027617,82.978363,13.380809,284.146762,-51.137318,274.42789
29,6.108262,0.911449,0.016537,-0.464215,0.0,-27.796795,-40.449406,12.813102,-49.891377,15.993736,-53.091946,7.160362,-52.939293,-19.799607,0.0,-3.996079,13.386834,44.418195,30.181637,58.258006,43.06365,63.882715,53.437719,68.350357,0.0,64.384952,29.20166,89.16093,21.175014,89.30048,11.866161,75.746052,2.115177,55.402851,0.0,-2.721588,28.81925,57.009474,45.092497,68.993883,56.858334,77.338229,65.148092,84.093032,19.467225,285.02958,-51.142627,273.935044
30,8.555992,-1.180471,0.144996,-1.474168,0.0,-43.211838,-49.176224,0.597404,-59.168072,3.488159,-62.04871,-4.995003,-61.254422,-32.715798,0.0,4.497542,15.053158,50.470699,30.997065,62.68908,42.942114,66.730497,52.670842,67.893059,0.0,63.858456,27.726963,86.26228,19.003544,85.972218,9.291527,72.24416,-0.572113,51.323113,0.0,-0.973977,28.607027,61.073986,44.848398,73.877736,56.651656,81.669378,64.761585,86.548093,27.962128,283.822226,-51.05872,272.433993
31,-1.213658,3.955114,-0.01791,-3.174379,0.0,-45.222129,-48.39866,-9.614444,-57.450943,-7.396568,-59.59354,-14.337066,-58.190546,-36.715393,0.0,9.992081,16.136723,47.801587,28.108146,55.078743,36.261824,55.763796,42.282551,54.992916,0.0,63.134491,25.266472,80.906571,15.118824,79.317879,4.46711,64.714863,-5.773681,42.86792,0.0,3.200376,27.399486,65.837635,42.977373,79.472632,54.44151,85.775386,62.230151,87.819732,26.600269,287.794047,-51.224831,269.276321
32,2.284676,7.28004,-0.794357,-6.126332,0.0,-53.256958,-50.145556,-32.158619,-58.374642,-31.357979,-59.923348,-35.214088,-58.033545,-51.16404,0.0,17.16328,15.208639,40.876785,20.554638,38.686948,22.418654,33.671216,22.486469,30.60096,0.0,59.139908,24.670452,69.160641,12.908627,64.609051,1.152992,50.168987,-10.062607,31.399452,0.0,13.704059,30.643321,73.681752,44.253013,85.224584,53.803307,89.061285,59.783316,88.031634,28.607237,295.19308,-52.296896,263.268982
33,-1.190483,-2.856537,-10.606659,-17.608451,0.0,-57.164692,-48.022917,-51.962345,-52.480545,-51.946804,-51.014717,-51.367138,-46.719572,-56.450226,0.0,24.094888,18.665748,42.693877,23.754766,41.307401,25.146207,37.22363,24.379576,34.447357,0.0,56.241268,22.891045,65.202931,9.408268,56.964375,-3.443687,42.496754,-15.016548,24.059899,0.0,21.794091,26.651181,73.449608,39.081416,89.254515,48.521646,92.067073,55.008724,87.90102,27.067658,292.638796,-63.252651,245.962784
34,1.621513,-3.884631,-15.50869,-27.524172,0.0,-64.002147,-46.944151,-72.62241,-48.508632,-73.927929,-45.05769,-68.927341,-39.20482,-62.945411,0.0,26.643129,21.307072,43.520788,27.297461,43.381584,29.331958,41.575687,28.693125,39.385524,0.0,51.024102,18.303211,56.351635,3.294823,46.615814,-9.887237,33.659855,-20.846637,17.398464,0.0,29.012666,20.039034,70.436237,31.469011,87.753251,41.440405,89.721706,49.279373,84.054698,28.307636,289.402189,-79.142876,219.086636
35,0.394432,-3.66201,-17.900779,-27.573189,0.0,-67.30529,-45.107683,-90.832832,-43.334484,-92.549812,-37.576332,-82.204284,-29.891962,-66.592437,0.0,28.564209,23.74772,42.71691,30.573654,44.0919,33.137204,44.261658,32.476265,44.234562,0.0,42.247535,13.918956,39.418155,-3.258111,31.560779,-17.662537,17.759811,-29.399403,3.414951,0.0,25.29266,4.731638,38.93637,12.245354,67.317045,21.449388,68.396701,30.3397,63.165657,28.198688,286.415296,-97.547035,192.188564
36,-0.265056,-6.902337,-21.49577,-37.28409,0.0,-68.385189,-42.323571,-99.515934,-37.867894,-101.562046,-30.349011,-88.037888,-21.396801,-66.69104,0.0,27.909234,26.294004,46.288973,37.17623,53.292803,43.413948,58.239147,45.799687,60.729998,0.0,28.573414,9.344994,23.543198,-8.411579,16.730896,-23.041191,3.792881,-34.87643,-8.254555,0.0,13.0556,-7.785115,5.879306,-2.315832,41.321196,6.451572,44.108925,16.022145,41.843475,27.176646,280.136623,-119.799791,155.528138
37,-0.707978,-9.950301,-25.157215,-43.386043,0.0,-67.071876,-38.796535,-98.810886,-32.381343,-100.878627,-23.681717,-86.399334,-13.934303,-63.239685,0.0,24.510974,28.743112,54.075774,46.884259,70.967315,59.880473,83.277729,68.248333,88.468938,0.0,16.598911,2.531204,13.153393,-15.549511,10.327286,-30.157723,-2.628594,-41.463467,-17.001927,0.0,-6.524518,-28.027685,-34.216366,-23.405543,15.538559,-13.624117,20.931889,-1.947386,20.33793,25.392116,270.930368,-146.033558,112.886141
38,0.342476,0.146583,-18.856876,-42.265335,0.0,-67.172046,-37.745361,-98.850494,-31.534218,-100.548774,-23.228416,-85.878364,-13.883102,-63.291836,0.0,24.021305,28.408684,53.406042,46.480251,69.854375,59.543884,82.394563,67.871829,87.763502,0.0,1.500869,-4.333386,-7.480111,-22.953495,-3.621598,-37.509087,-16.18665,-48.658047,-29.557847,0.0,-23.602496,-41.061332,-65.778317,-38.095558,-8.478054,-29.013425,-2.441148,-17.60847,-0.89075,24.198274,271.992241,-166.426752,71.536096
39,-0.219749,0.080745,-17.290158,-41.973929,0.0,-67.24633,-37.1483,-98.902313,-30.872177,-100.069313,-22.601052,-85.592709,-13.402428,-62.926106,0.0,23.456104,28.076504,52.979099,46.235127,69.159275,59.399462,81.511951,67.74855,86.853708,0.0,-11.246841,-8.811905,-24.68819,-27.870975,-15.64381,-42.842949,-29.146602,-54.529026,-43.01128,0.0,-40.297923,-48.787456,-93.50646,-47.083497,-29.489415,-39.195246,-22.187559,-28.969847,-18.782332,21.663386,272.992912,-186.032049,30.482093
40,0.013412,-0.093169,-18.398666,-47.928397,0.0,-67.332149,-36.853958,-98.910644,-30.73265,-100.012047,-22.57711,-85.825618,-13.515472,-63.295978,0.0,22.743578,27.558171,52.6742,45.644188,68.623615,58.89364,81.142499,67.401501,86.378538,0.0,-21.434063,-13.532868,-33.994744,-31.347714,-20.73618,-45.151623,-32.183167,-55.731068,-46.220936,0.0,-46.302179,-47.382187,-93.902539,-43.658292,-34.202661,-35.494245,-24.713157,-25.832501,-20.17544,18.726024,274.439863,-207.381489,-15.906184
41,-0.096771,-0.033222,-18.295338,-39.71324,0.0,-66.923641,-36.741795,-98.842278,-30.85849,-99.85445,-22.842201,-86.035709,-13.807617,-63.714798,0.0,22.02011,27.036504,52.173936,45.059918,67.931641,58.34584,80.487611,66.918193,85.574375,0.0,-29.270256,-16.684719,-43.129555,-33.679046,-22.105236,-46.449612,-31.931888,-55.908623,-45.980495,0.0,-43.821841,-49.664952,-92.287362,-45.092287,-32.366247,-36.437621,-23.21579,-26.628315,-19.298183,15.901068,276.333094,-228.405012,-53.692971
42,-0.328629,-0.187882,-15.644554,-31.6964,0.0,-66.467674,-36.693202,-98.606037,-30.992179,-99.968513,-23.07724,-86.524372,-14.036888,-64.408,0.0,21.172734,26.817698,51.490705,44.766443,67.067258,58.078325,79.715373,66.764286,84.889749,0.0,-37.574066,-18.73724,-53.011848,-34.843575,-24.954872,-46.665619,-32.602123,-55.066555,-44.992298,0.0,-39.351163,-49.085606,-84.943388,-43.413936,-31.60618,-34.283162,-23.172358,-24.393061,-18.234017,12.949356,278.0978,-246.672649,-83.436783
43,-0.473831,-0.261179,-12.157345,-21.741777,0.0,-66.241024,-36.461277,-98.72668,-30.958534,-100.3946,-23.160324,-87.227256,-14.225578,-65.342491,0.0,20.752436,26.619034,50.91088,44.636124,66.180275,58.003384,79.048036,66.757827,84.102146,0.0,-43.005512,-20.544514,-57.726162,-35.846512,-32.209327,-46.829429,-37.061828,-54.082065,-46.860958,0.0,-32.79455,-47.063224,-70.657662,-40.907857,-30.284578,-31.775054,-21.627671,-21.72314,-16.143499,9.931297,279.608595,-261.374222,-103.406586
44,-0.327736,-0.380037,-8.140629,-9.973284,0.0,-66.12878,-36.374084,-98.941589,-31.096756,-100.96804,-23.435096,-88.002376,-14.646949,-66.277267,0.0,20.197769,26.34275,50.064924,44.447477,65.093888,57.917304,78.192855,66.783206,83.176088,0.0,-44.611839,-22.279026,-57.89701,-37.245597,-37.452358,-48.086174,-41.624771,-55.066005,-49.909309,0.0,-22.965145,-46.556887,-53.936969,-41.424023,-23.87467,-32.814292,-16.913114,-22.809037,-12.424779,7.202756,280.871082,-271.915656,-111.737346
45,-0.080177,-0.167517,-2.442375,-0.621644,0.0,-66.017441,-36.284729,-99.390198,-31.245094,-101.789989,-23.738342,-89.020111,-15.017052,-67.131477,0.0,19.479551,25.894986,48.83419,44.104343,63.784162,57.633167,77.222324,66.557583,82.330034,0.0,-40.247251,-20.303409,-50.231672,-35.669649,-37.697691,-47.169285,-41.982519,-54.536058,-48.827202,0.0,-7.386662,-40.751208,-30.16662,-37.124969,-9.896686,-29.653464,-7.793001,-20.576258,-5.380555,5.051456,281.449538,-276.429154,-111.613017
46,0.176949,-0.073112,3.434567,4.824961,0.0,-66.154004,-36.343403,-99.84779,-31.503182,-102.597428,-24.130234,-90.034893,-15.432015,-67.947064,0.0,18.662012,25.530597,47.541827,43.792243,62.533111,57.319066,76.221683,66.217918,81.660116,0.0,-28.597281,-16.212284,-35.961703,-32.737822,-33.835883,-45.64246,-39.138171,-54.225683,-45.129318,0.0,12.555291,-27.610683,0.951274,-25.637703,10.327623,-19.86476,5.822786,-12.674126,5.13882,2.824482,281.535841,-275.39851,-106.628641
47,0.328857,0.116844,7.2327,12.062134,0.0,-66.103947,-36.445175,-100.271152,-31.861931,-103.057674,-24.662544,-90.57851,-16.035782,-68.336735,0.0,17.970395,24.965692,46.40667,43.266797,61.523751,56.840279,75.324882,65.796175,81.01454,0.0,-9.440363,-11.121368,-13.343565,-27.308458,-20.98934,-40.109974,-27.796618,-48.54677,-33.278915,0.0,28.884487,-16.633389,26.011058,-15.931866,27.51866,-11.38507,19.53687,-5.448729,15.788608,1.000786,281.402673,-270.318363,-94.816519
48,0.794174,0.14909,17.268471,16.263533,0.0,-66.108238,-36.69572,-100.585052,-32.32212,-103.598053,-25.204948,-91.119243,-16.469352,-68.539959,0.0,17.144681,24.54243,45.436583,42.692592,60.891007,56.239917,74.704253,65.272829,80.782803,0.0,6.18786,-3.549717,6.833399,-20.473738,-6.203837,-34.763295,-16.823954,-45.350813,-25.376473,0.0,47.400265,-0.277002,53.717718,1.394503,46.103861,5.660474,35.363383,10.273513,30.181252,-0.143606,281.052965,-254.988458,-79.051784
49,0.785019,0.425238,19.800178,16.629818,0.0,-65.785732,-36.708229,-100.36409,-32.643585,-103.899525,-25.72641,-91.520565,-16.972069,-68.728397,0.0,16.554137,24.180659,44.602051,42.258672,60.258843,55.800217,74.018515,64.923037,80.573296,0.0,15.816221,5.029919,25.001925,-12.069917,8.742502,-27.200386,-4.496023,-38.91184,-15.201404,0.0,60.356946,16.304747,75.230024,19.72231,60.806338,23.722485,47.829705,26.832402,42.404363,-1.030272,280.682731,-236.859965,-63.217438
50,0.742218,0.369675,19.933514,16.007556,0.0,-65.69799,-36.736267,-100.121567,-32.881302,-103.912159,-26.118919,-91.539699,-17.424476,-68.819137,0.0,16.270369,23.975388,44.185557,42.023193,59.892923,55.599009,73.571182,64.817358,80.301323,0.0,22.236683,11.900185,37.607414,-4.770847,18.3815,-20.192562,3.336399,-32.683296,-9.084595,0.0,66.672235,27.550484,88.259203,32.891184,66.300924,37.085575,54.673383,39.526427,50.607304,-1.985155,280.522016,-218.623552,-47.740272
51,0.445931,0.377962,19.586826,14.623696,0.0,-65.304703,-36.573212,-99.756855,-32.880249,-103.614716,-26.235649,-91.157662,-17.576821,-68.394425,0.0,15.919652,23.740107,44.01026,41.712811,59.815735,55.322071,73.440086,64.68373,80.204967,0.0,24.396,16.73148,44.496025,0.605049,22.46933,-14.972454,6.045159,-28.089763,-7.584091,0.0,66.594145,33.965555,92.621913,41.730391,63.960169,46.556989,56.39998,48.897508,54.643014,-3.048374,280.622311,-200.545876,-33.394243
52,0.227531,0.253461,17.630814,9.36545,0.0,-64.902477,-36.260628,-99.368511,-32.65599,-103.357418,-26.064537,-90.816788,-17.33123,-67.970158,0.0,15.639193,23.814602,44.045408,41.713589,59.814166,55.269706,73.619397,64.581792,80.294789,0.0,21.577171,20.123096,45.358726,2.967911,18.775806,-14.282307,0.669193,-29.570332,-15.003822,0.0,67.309993,42.243068,101.42265,51.90371,64.673868,57.163882,59.122346,59.185195,59.60713,-4.289068,280.803101,-184.383287,-24.101464
53,-0.182968,0.149177,7.731468,6.216247,0.0,-64.533623,-36.01086,-98.867958,-32.442352,-102.866615,-25.898895,-90.354939,-17.141212,-67.493111,0.0,15.537095,24.046734,44.198857,41.93568,59.89869,55.430986,73.78574,64.631785,80.321836,0.0,21.122212,21.966671,45.650791,5.174824,17.504047,-12.203705,-0.68874,-27.814384,-16.047867,0.0,64.973469,42.994169,100.483118,52.798906,62.743291,57.96728,57.917935,59.873515,59.098016,-5.747606,281.039609,-177.927389,-17.797886
54,-0.16507,-0.052995,4.547905,4.055082,0.0,-64.520198,-35.908619,-98.775501,-32.278061,-102.577137,-25.635841,-89.907898,-16.72174,-66.877567,0.0,15.619718,24.239791,44.533978,42.052154,60.273392,55.448598,74.32928,64.504085,80.664465,0.0,22.791882,23.137802,45.147949,6.306519,15.301231,-11.371525,-2.172043,-27.642094,-17.221619,0.0,64.249828,42.402427,100.917846,52.531959,60.845256,57.953892,57.503281,60.16681,58.875548,-6.834155,281.175209,-174.300963,-13.554209
55,-0.315857,-0.055402,2.432304,2.838512,0.0,-64.210292,-35.889953,-98.474647,-32.184585,-102.163101,-25.398422,-89.342342,-16.2751,-66.155193,0.0,15.622928,24.449705,44.834109,42.142347,60.773187,55.411893,74.85485,64.310386,81.011835,0.0,23.074082,23.237607,44.82383,6.011239,13.703053,-12.07315,-3.694713,-28.819782,-18.587997,0.0,63.628378,41.520403,101.008539,51.882233,59.701126,57.436152,56.8509,59.797,58.117555,-7.704077,281.305858,-172.422724,-10.529646
56,-0.123458,-0.040953,0.807679,2.411422,0.0,-64.044388,-36.005139,-98.297917,-32.187516,-102.027832,-25.249993,-89.045071,-15.963707,-65.805359,0.0,15.853578,24.71748,45.033439,42.351421,61.159794,55.525736,75.236504,64.3031,81.271755,0.0,23.079197,22.996135,44.891224,5.579132,12.877384,-12.638375,-4.544232,-29.594273,-19.365189,0.0,62.829747,39.70294,101.088796,49.857887,58.049222,55.517307,55.553566,58.220573,57.164159,-8.19794,281.431961,-171.98545,-7.951168
57,-0.043122,0.014462,0.90477,1.712345,0.0,-63.928688,-36.090591,-97.987701,-32.18296,-101.833202,-25.124931,-88.759563,-15.755974,-65.489616,0.0,16.210409,24.896037,45.123101,42.521507,61.540942,55.659833,75.500314,64.37846,81.508469,0.0,22.874645,22.58345,44.11893,4.920147,11.723796,-13.504326,-5.615365,-30.589108,-20.251374,0.0,63.807905,38.537129,100.979238,48.388827,57.069274,53.937719,54.33063,56.659294,56.039783,-8.591252,281.582234,-171.43087,-6.103012
58,0.231308,0.14993,0.810413,1.224053,0.0,-63.935955,-36.155319,-97.976063,-32.192825,-101.871689,-25.08332,-88.788803,-15.757164,-65.574337,0.0,16.393289,24.889726,45.183048,42.583294,61.683981,55.800612,75.539612,64.592388,81.576209,0.0,22.86002,22.430855,43.914047,4.642971,11.26831,-13.847065,-6.187706,-30.969292,-20.636765,0.0,63.042632,38.008367,100.615609,47.843448,56.973129,53.331985,54.031401,55.983677,55.723449,-8.712416,281.789712,-170.972929,-4.821411
59,0.158501,0.033098,0.804302,1.580237,0.0,-63.965149,-36.106453,-98.068371,-32.006676,-101.85807,-24.837845,-88.83276,-15.621025,-65.804764,0.0,16.609231,25.075756,45.354838,42.873916,61.817214,56.165754,75.543169,64.978687,81.547817,0.0,23.333748,22.46267,44.007111,4.61467,11.261902,-13.951938,-6.446434,-31.089134,-20.943523,0.0,63.528966,37.381569,99.630393,47.160166,56.215426,52.596302,53.099383,55.227055,54.785638,-8.872072,281.847831,-170.486784,-3.216153
60,0.327919,0.04509,0.482128,1.281197,0.0,-64.160305,-36.069225,-98.359085,-31.871132,-102.02837,-24.701477,-89.066151,-15.62899,-66.238678,0.0,16.8908,25.147201,45.375352,43.070295,61.70752,56.461885,75.445295,65.343669,81.500466,0.0,23.522049,22.996033,44.385659,5.191029,11.633217,-13.382961,-6.204551,-30.541214,-20.639316,0.0,63.244087,37.026035,99.1938,46.900303,55.879412,52.419832,52.80463,55.125569,54.595306,-8.737587,281.850727,-170.19809,-1.97715
61,0.30455,0.098023,0.214577,0.86466,0.0,-64.462841,-35.864193,-98.597843,-31.718948,-102.250362,-24.641785,-89.417782,-15.667122,-66.632206,0.0,16.644836,25.171222,45.444363,43.189905,61.549908,56.627116,75.395993,65.531982,81.564316,0.0,23.590908,23.346039,44.886852,5.592178,12.150501,-12.916351,-5.85323,-30.076584,-20.063805,0.0,62.173563,37.137674,99.18568,47.170566,56.07174,52.731592,53.089405,55.46356,54.960621,-8.437311,281.852284,-169.987787,-1.208956
62,0.250031,0.091477,0.271648,0.986723,0.0,-64.716809,-35.749558,-98.867226,-31.64637,-102.447682,-24.661354,-89.700165,-15.758812,-66.89225,0.0,16.350484,25.208173,45.508213,43.261178,61.50756,56.685371,75.404799,65.599488,81.723706,0.0,23.404999,23.432694,45.477047,5.659195,12.747872,-12.76593,-5.383609,-29.84238,-19.409156,0.0,61.16963,37.079325,99.000668,47.37055,56.171453,53.089879,53.341179,55.93632,55.405872,-7.989114,281.811096,-169.517973,-0.354898
63,0.188003,0.029924,0.157059,1.12198,0.0,-65.004455,-35.598266,-99.062267,-31.498031,-102.613678,-24.535789,-89.896488,-15.590309,-67.050796,0.0,16.156539,25.266515,45.55691,43.30407,61.556145,56.66224,75.52956,65.542604,81.899917,0.0,23.619633,23.722527,46.130264,5.973347,13.410599,-12.381019,-4.931442,-29.355709,-18.941105,0.0,61.005566,37.060763,98.549248,47.551454,55.963386,53.426574,53.290019,56.41299,55.450054,-7.377726,281.671596,-168.937529,0.597658
64,0.296425,0.089699,0.096554,0.798711,0.0,-65.412197,-35.632439,-99.156406,-31.552574,-102.799828,-24.609718,-90.100307,-15.590286,-67.246891,0.0,15.894593,25.286596,45.559763,43.284482,61.581117,56.582335,75.621987,65.438875,82.101878,0.0,23.426731,23.875912,46.865318,6.156658,13.895645,-12.118309,-4.602505,-29.035641,-18.463371,0.0,59.940038,37.12946,98.457833,47.823569,56.016917,53.814502,53.593516,56.889339,56.0538,-6.578156,281.59974,-168.33783,1.234814
65,0.024536,0.077855,0.037102,0.837681,0.0,-65.601127,-35.625572,-99.222576,-31.506248,-102.815025,-24.545723,-90.163673,-15.474335,-67.33699,0.0,15.53565,25.262748,45.717424,43.233143,61.761873,56.504146,75.741894,65.351906,82.338123,0.0,24.085762,24.070793,47.563099,6.442382,14.269249,-11.785801,-4.324105,-28.740143,-18.040238,0.0,59.455989,37.017692,97.964318,47.827065,56.193937,53.908313,53.798348,57.073022,56.39696,-5.955465,281.525828,-167.702573,1.920728
66,-0.110138,-0.029974,0.146381,1.196328,0.0,-65.728477,-35.629623,-99.214371,-31.39508,-102.665977,-24.356918,-89.995983,-15.261726,-67.223133,0.0,15.692892,25.265366,45.908677,43.21631,62.054372,56.505196,76.028799,65.335641,82.60633,0.0,25.478371,24.131493,48.057438,6.689529,14.656792,-11.458076,-3.95858,-28.398205,-17.874058,0.0,60.231784,36.668469,96.927892,47.555647,55.605986,53.80088,53.394964,57.148864,56.099539,-5.460131,281.336618,-166.95072,2.95782
67,-0.132339,-0.004977,-0.192169,0.938254,0.0,-66.099861,-35.600556,-99.260914,-31.217903,-102.504479,-24.119957,-89.873349,-15.087227,-67.303517,0.0,16.049315,25.296563,46.144971,43.284594,62.145047,56.62293,76.328091,65.415904,83.012339,0.0,25.952053,24.655701,49.05582,7.38002,15.324657,-10.695637,-3.432999,-27.604557,-17.481239,0.0,59.68822,36.443895,96.234491,47.464232,55.400809,53.866774,53.310014,57.412279,56.24193,-5.052246,281.18357,-166.602665,3.748003
68,-0.19233,0.129058,-0.272232,1.007575,0.0,-66.129284,-35.601539,-99.227737,-31.086685,-102.133575,-23.952209,-89.497123,-14.990547,-66.923011,0.0,16.326426,25.210211,46.27445,43.24747,62.148258,56.626301,76.721392,65.367875,83.337319,0.0,27.03202,25.220638,50.255733,8.127273,16.037853,-9.909096,-2.790745,-26.859192,-16.982872,0.0,59.313364,35.983608,95.600185,47.194358,55.129039,53.838332,53.370159,57.62152,56.458729,-4.560133,281.176796,-166.190454,4.619746
69,-0.314232,0.29313,-0.283665,1.512527,0.0,-65.909179,-35.602111,-99.11808,-30.978195,-101.711093,-23.78849,-89.183269,-14.814079,-66.58707,0.0,16.207865,25.107458,46.118221,43.112112,62.027782,56.480051,76.897849,65.208793,83.51616,0.0,28.222378,25.887463,51.676312,9.118229,16.87896,-8.801205,-1.971863,-25.756657,-16.377067,0.0,59.188289,35.276887,94.554096,46.66893,54.410882,53.660287,53.148555,57.833547,56.606455,-3.655518,281.296833,-165.255272,5.95918
70,0.010872,0.391077,-0.335312,2.129185,0.0,-66.07267,-35.62825,-99.143795,-30.899917,-101.414703,-23.646652,-88.775882,-14.652076,-66.076343,0.0,16.17699,25.276371,46.066734,43.211555,62.154359,56.5039,77.336352,65.143844,83.866248,0.0,29.093033,26.526409,53.673638,10.124439,18.185715,-7.556946,-0.694359,-24.366096,-15.269634,0.0,58.386793,34.538969,93.498368,46.25795,53.663967,53.700561,53.149395,58.378772,57.061827,-1.991959,281.575117,-163.937897,7.975572
71,0.267998,0.302911,-0.31905,2.946631,0.0,-66.220802,-35.853081,-99.355019,-30.958626,-101.110588,-23.598152,-88.393478,-14.589935,-65.762878,0.0,16.131826,25.54249,46.176192,43.462163,62.354022,56.709664,77.756711,65.273557,84.192623,0.0,29.802441,27.519493,56.217362,11.549572,19.863934,-5.895778,0.964783,-22.617187,-13.644413,0.0,57.098359,33.550086,92.133955,45.722154,53.051304,53.723297,53.481439,58.993503,57.91058,0.489927,281.718897,-162.043059,10.763072
72,0.513519,0.177359,-0.151405,4.452773,0.0,-66.222587,-36.035225,-99.549167,-31.004768,-100.879074,-23.527954,-88.080574,-14.43322,-65.355171,0.0,15.97519,25.860208,46.421539,43.746746,62.641323,56.93288,78.092338,65.424093,84.424114,0.0,31.804138,28.500561,59.090584,13.155121,21.269142,-3.993141,2.694843,-20.744007,-11.843227,0.0,56.708244,32.344674,90.184377,44.843841,52.571862,53.405171,53.771215,59.299791,58.416328,3.629161,281.685576,-159.568749,15.005165
73,0.606034,0.101617,-0.051384,6.151879,0.0,-66.428685,-36.11364,-99.662224,-30.964096,-100.863247,-23.389824,-88.113488,-14.237801,-65.529579,0.0,15.627535,26.134787,46.654993,44.064439,62.736208,57.282164,78.160189,65.756914,84.697211,0.0,33.66917,29.446049,62.931587,14.802521,23.091099,-1.946377,4.924564,-18.56987,-9.471107,0.0,55.298426,30.814511,87.294526,43.760973,51.554795,53.005769,53.822881,59.622591,59.063194,7.131283,281.626469,-156.724045,20.99632
74,0.626403,-0.190858,0.025898,7.950977,0.0,-66.660358,-36.072486,-99.707405,-30.756225,-100.656806,-23.089004,-87.769145,-13.974128,-65.352481,0.0,15.703463,26.486283,47.25412,44.530976,63.229581,57.817194,78.664912,66.235393,85.18305,0.0,36.208466,30.695286,67.516525,16.872128,25.425373,0.636932,7.725609,-15.72575,-6.377346,0.0,53.665591,29.142248,83.414685,42.779592,50.546707,52.876717,53.812439,60.326953,59.573672,10.681085,281.331321,-153.774748,28.843007
75,0.48301,-0.421064,0.471977,9.776207,0.0,-66.584129,-35.753082,-99.428879,-30.357468,-100.357258,-22.672806,-87.431648,-13.608627,-65.202027,0.0,15.734783,26.652886,47.80917,44.824352,63.556945,58.187623,79.041194,66.590767,85.51239,0.0,39.937191,31.575417,72.140202,18.559696,27.379498,2.866413,10.261551,-13.186363,-3.690765,0.0,52.474574,27.370908,78.505244,41.647282,48.959352,52.619163,53.144752,60.948806,59.559489,13.937605,280.656086,-150.529261,38.365043
76,0.366577,-0.472452,0.101979,11.294336,0.0,-66.555817,-35.377304,-99.050652,-29.90847,-100.084797,-22.226212,-87.113937,-13.21463,-65.068325,0.0,15.765176,26.826787,48.209287,45.035575,63.919197,58.415025,79.416661,66.804399,85.893773,0.0,43.446682,33.018768,77.364246,20.901466,29.985134,5.923988,13.457096,-9.588272,-0.330368,0.0,50.043448,25.698508,73.006919,40.702025,47.798672,52.585274,52.75828,61.832312,59.861597,16.80839,279.825278,-147.923074,49.301023
77,-0.013596,-0.544775,-0.239457,12.685202,0.0,-66.491249,-35.092392,-98.558109,-29.463569,-99.661949,-21.661674,-86.582153,-12.606628,-64.502678,0.0,15.762546,26.956056,48.676281,45.148246,64.559858,58.520618,80.119529,66.892035,86.263041,0.0,46.244339,35.052109,83.121415,24.081013,33.839642,10.026181,17.803563,-4.69836,4.385411,0.0,46.160532,23.699283,66.119525,39.787884,46.212946,52.844879,52.531112,63.280124,60.694832,19.1019,279.002542,-145.855425,61.708264
78,-0.022888,-0.643303,-0.05896,14.20249,0.0,-66.48587,-34.867241,-98.068908,-29.125007,-99.115322,-21.234237,-85.880253,-12.118263,-63.760151,0.0,16.026739,27.161363,49.287449,45.198658,65.336382,58.458448,80.754014,66.786923,86.674471,0.0,49.117527,37.240391,88.537537,27.667374,38.160622,14.82692,22.712655,1.19553,9.842137,0.0,41.258686,21.421125,58.379055,38.715853,44.75035,53.045839,52.198327,64.719087,61.115834,21.317196,278.079846,-143.676201,75.631361
79,-0.096153,-0.6086,1.051953,16.199214,0.0,-66.385563,-34.58725,-97.616467,-28.713364,-98.666863,-20.725731,-85.309708,-11.518135,-63.009567,0.0,16.327525,27.344058,49.774784,45.238475,66.05754,58.371874,81.464305,66.652901,87.230768,0.0,54.437359,38.291862,89.082893,29.77145,41.730835,18.084263,27.148338,5.566383,14.725719,0.0,35.93149,18.94896,49.683795,37.202091,42.519777,52.482885,50.992397,65.155539,60.27081,23.295233,277.114956,-140.550058,91.474285
80,-0.209358,-0.509552,0.794746,17.462485,0.0,-66.454468,-34.558754,-97.337231,-28.479012,-98.301144,-20.353684,-84.804714,-11.059296,-62.315563,0.0,16.57449,27.621083,50.237764,45.402497,66.695953,58.415815,82.203914,66.590459,87.854485,0.0,59.947563,39.768883,91.734535,32.556324,48.007038,22.353791,34.259629,11.205036,22.058556,0.0,28.9043,16.233998,41.503737,35.408465,40.285345,51.621813,50.019007,65.359452,59.371774,25.345333,276.288464,-137.495854,108.61983
81,-0.552178,-0.463314,5.157143,19.215117,0.0,-66.36502,-34.547653,-96.823116,-28.360908,-97.826797,-20.187034,-84.405407,-10.864082,-61.780048,0.0,16.855381,27.905222,50.698385,45.674804,66.997518,58.653012,82.68584,66.776439,88.526441,0.0,64.200153,38.975258,91.196468,32.647659,50.514095,23.43576,37.456489,13.166988,25.62474,0.0,22.030108,15.005591,35.010267,34.628816,37.777722,51.426268,49.108293,65.847434,58.724784,27.059543,275.557054,-130.072323,127.566851
82,-0.617935,-0.356435,5.030159,20.583388,0.0,-66.121353,-34.302246,-96.241836,-28.158234,-97.327412,-20.083855,-84.06681,-10.850738,-61.558296,0.0,17.347382,28.088904,50.914548,45.863649,66.89532,58.824406,82.703018,66.92254,88.962472,0.0,70.063099,38.415562,90.993496,32.835651,58.676296,24.722877,46.313644,15.448425,33.951107,0.0,15.627714,14.710714,29.371195,34.159013,35.505876,50.659538,47.394892,64.77651,56.521677,28.656132,274.616185,-122.82764,147.565805
83,-0.716354,-0.074694,5.744945,20.610139,0.0,-65.711838,-34.101174,-95.578812,-28.06826,-96.933998,-20.147278,-83.809983,-11.04538,-61.385033,0.0,17.410233,28.346688,50.884106,46.070748,66.739117,58.878166,82.691941,66.790209,88.989902,0.0,75.421475,37.613675,91.074692,32.2248,67.638749,24.771893,55.870732,16.087258,41.882744,0.0,10.381028,15.604002,26.453611,34.65288,34.216625,50.468173,46.458953,63.806509,55.803038,29.904522,273.652817,-115.117951,167.28727
84,-1.065148,0.056687,5.672757,20.156563,0.0,-65.785629,-34.033939,-94.612026,-28.272422,-96.334259,-20.514198,-83.527839,-11.598953,-61.484996,0.0,11.690131,28.463223,50.707846,46.113121,66.011623,58.876659,81.835018,66.780366,88.664453,0.0,77.57381,37.234897,95.317577,32.150653,77.630882,25.440559,65.875808,17.415744,49.721042,0.0,5.151689,17.752996,26.525025,36.28674,35.07726,51.130737,47.156357,63.226988,56.798721,30.617025,272.668246,-107.667543,186.402575
85,-1.519111,1.008582,10.44754,20.47351,0.0,-65.515641,-32.645542,-93.352032,-27.232819,-95.042576,-19.931008,-82.606934,-11.559655,-60.542267,0.0,11.243256,27.686044,48.855037,44.337883,63.704492,56.597439,78.796144,64.436432,86.203847,0.0,75.214577,37.514419,92.734394,33.74493,79.147201,28.067001,67.62355,20.698356,51.7859,0.0,0.564769,21.155135,26.609166,40.760928,37.284244,56.136039,52.700419,67.91288,65.258737,30.64531,272.681433,-95.672607,205.88069
86,-1.319023,0.784799,5.864776,17.540809,0.0,-64.962674,-29.770649,-90.339043,-24.988793,-93.678864,-18.510773,-82.333489,-10.917481,-59.75449,0.0,9.282358,25.945102,42.126155,42.501907,58.612404,54.791968,75.371799,62.508299,84.84409,0.0,74.931073,37.627041,95.419064,34.185128,88.380112,29.190182,77.505272,22.654885,60.208683,0.0,-1.178519,24.250511,28.391296,44.194733,41.043054,59.044559,56.756298,69.424791,68.76453,30.69912,272.559091,-88.434998,222.514358
87,-0.502121,1.054771,7.056141,15.340001,0.0,-63.815747,-26.876782,-84.562901,-23.290787,-90.28711,-18.320847,-81.777512,-12.036141,-61.165112,0.0,4.029066,24.06805,35.964279,40.896174,53.413377,53.596344,71.48897,61.920361,83.793987,0.0,73.904469,35.872456,95.646206,32.014023,90.324509,27.119877,79.553994,21.181927,60.941243,0.0,-1.132416,27.089794,31.694152,47.117565,45.421343,61.410476,61.340957,70.556428,73.417139,31.426936,273.020268,-80.14892,237.260765
88,0.119979,1.241134,7.296856,13.143402,0.0,-63.408851,-22.310955,-80.702453,-20.068176,-87.486145,-17.008049,-81.157962,-12.915641,-62.661701,0.0,0.570956,22.504665,30.405964,39.88238,49.277162,53.052718,67.923761,61.714053,82.834386,0.0,72.048786,33.388344,95.334069,29.241154,91.115982,24.549317,80.3569,19.35133,61.064415,0.0,-0.931777,29.616658,34.805546,49.67938,49.730879,63.602245,65.838783,71.832352,77.576882,32.628267,273.898649,-71.770712,250.041414
89,0.888176,1.164723,6.482609,10.168638,0.0,-62.959087,-17.58831,-77.419933,-16.230812,-84.985244,-14.940216,-80.374225,-13.09037,-63.409503,0.0,3.638508,21.277994,26.996478,39.312276,47.306744,52.775966,65.902955,61.468917,81.494119,0.0,70.622086,31.809654,94.676251,27.38538,91.157375,22.585808,80.673866,17.803608,61.604611,0.0,-0.557063,31.258095,36.544215,51.464745,52.194696,65.355673,69.230227,73.113365,80.405854,34.436771,274.951601,-64.367775,260.098281
90,0.582779,0.599029,1.760445,6.574196,0.0,-60.090843,-17.075203,-68.079311,-16.104789,-76.776661,-15.454239,-75.427986,-14.205505,-62.117054,0.0,1.823094,20.269622,27.085101,39.544593,47.245364,53.770554,65.257279,63.08159,80.600824,0.0,72.035648,29.623306,98.191944,23.724518,97.324505,18.129661,86.872661,13.32209,65.90673,0.0,1.050979,32.411828,38.973105,50.946448,53.760625,62.977664,67.925194,69.011025,76.384975,35.712432,275.490086,-61.914448,266.611933
91,1.078263,1.450665,2.339939,5.473667,0.0,-58.969116,-15.190338,-62.840103,-14.456955,-70.256287,-14.560501,-70.058945,-14.538666,-59.821839,0.0,1.024785,19.496977,28.987323,39.145217,47.950554,53.617426,64.178315,63.266854,77.377675,0.0,72.324623,29.179676,98.310562,23.05592,98.427315,17.398476,87.65554,12.754909,66.218056,0.0,0.563214,32.794137,39.35113,50.650763,54.439707,61.969318,68.156882,67.504291,76.626161,37.441801,276.94387,-58.923403,272.088719
92,0.652061,1.875941,2.243843,3.559047,0.0,-58.018581,-15.534393,-52.768204,-14.699318,-57.203316,-14.644295,-56.678158,-14.928291,-50.322384,0.0,2.678757,18.314641,29.78641,37.954965,48.021628,52.45963,62.146454,62.117506,72.619781,0.0,71.461304,29.079849,99.056442,23.169846,99.90271,17.565445,89.235763,12.875462,67.52536,0.0,0.420496,32.961975,39.195963,50.772325,54.385255,62.043986,68.194364,67.553555,76.444985,38.725044,278.806732,-56.048378,275.634687
93,-7.54882,4.79734,1.515655,2.504869,0.0,-49.232964,-16.595845,-33.375401,-15.863022,-34.199238,-15.928997,-34.967354,-16.379196,-35.673214,0.0,9.17931,17.113237,31.014317,34.092044,45.76407,46.403063,56.093123,54.688585,63.219726,0.0,71.023201,29.430405,99.095192,23.674176,100.612542,18.065106,90.007233,13.284096,68.439629,0.0,0.414258,32.821529,38.77517,50.629817,54.218788,61.875012,68.155325,67.426238,75.90636,31.755541,283.593386,-53.953406,278.12887
94,-3.78138,4.240549,1.594563,1.623591,0.0,-43.672737,-22.107765,-15.45092,-22.939957,-13.335594,-23.250469,-16.697491,-23.131886,-24.648285,0.0,14.616606,15.689273,31.092691,30.896818,43.108308,41.964814,50.704473,49.664275,55.967634,0.0,69.804691,29.317188,98.670605,23.50518,100.388386,17.807774,89.577015,12.821308,68.009823,0.0,1.640091,32.951415,40.385967,50.694025,56.140449,61.825525,69.646511,67.399018,76.655208,28.501064,287.760116,-51.83194,279.678642
95,-1.103577,2.398312,1.937084,1.171454,0.0,-40.922104,-26.433757,-4.058326,-29.71614,-0.023792,-31.163669,-5.070327,-31.687431,-19.433338,0.0,14.972573,15.529673,29.876442,31.098174,41.985327,42.328487,48.987021,50.004421,54.296334,0.0,68.808792,28.905991,97.835289,22.765423,99.306748,16.759564,88.194855,11.460491,66.594773,0.0,3.015076,32.648431,42.316101,50.417162,58.280052,61.62706,71.30456,67.366427,77.262104,27.825903,290.056861,-49.46644,280.748529
96,-5.282455,3.75361,1.96827,0.625063,0.0,-29.666302,-28.407475,12.621986,-33.486168,17.909248,-35.549206,10.449783,-35.991772,-10.02404,0.0,11.705581,15.346323,30.511261,30.569973,42.286324,41.526608,47.684075,49.231565,52.506387,0.0,67.663261,28.620059,96.93077,21.98006,97.883262,15.448802,86.24382,9.647861,64.891777,0.0,4.597516,32.162566,44.642361,49.916699,60.34023,61.255346,72.841749,67.192982,78.022312,22.76861,293.690286,-47.273008,281.253407
97,-3.427323,1.124857,1.593704,0.32829,0.0,-23.455925,-30.962345,19.545067,-37.964046,25.501832,-41.206707,15.831734,-42.290336,-7.56752,0.0,12.160237,16.721073,33.161503,31.745764,44.592604,42.337318,48.94334,49.818306,53.548019,0.0,67.476768,28.433166,95.964958,21.328159,96.123939,14.335075,84.006775,8.147335,63.197502,0.0,5.63102,31.820456,46.991755,49.560053,62.357863,61.002688,74.412433,67.133677,79.150554,19.446779,294.697851,-45.573812,281.464405
98,0.133587,1.346579,1.221073,-0.079757,0.0,-16.019268,-30.087341,23.442982,-38.335018,28.149182,-41.727768,17.266743,-42.382793,-5.595989,0.0,2.676177,14.850925,31.671367,32.058073,45.017273,44.865392,51.413813,54.26562,56.097878,0.0,67.246845,28.584446,94.939625,20.983704,94.12643,13.465919,81.746487,6.730579,61.434482,0.0,6.894903,31.671045,49.240952,49.329588,64.172535,60.775472,75.768731,67.03563,80.016665,19.60782,295.962265,-44.325285,281.302483
99,-4.439987,2.407476,1.075447,-0.112695,0.0,-7.331165,-25.03965,28.218144,-32.464588,32.598095,-35.408718,22.860958,-35.766929,1.475796,0.0,-7.761953,13.392466,29.713878,31.304038,43.910138,44.79013,51.248433,54.695749,56.707182,0.0,67.297794,28.579365,94.14323,20.64156,92.745815,12.71616,80.215931,5.545177,60.113514,0.0,7.623632,31.438086,50.158674,49.035039,64.684915,60.563421,76.139987,66.980005,80.451364,15.13892,298.312149,-43.278751,281.132196
100,-4.749985,4.436989,0.75642,-0.307949,0.0,0.907345,-18.948005,32.329022,-25.989349,36.777432,-28.983501,27.614789,-29.562572,7.809163,0.0,-14.746949,10.147347,26.395967,27.061995,40.476803,40.222329,48.025939,49.99054,52.915028,0.0,67.248825,28.409271,93.407089,20.276493,91.599404,12.15406,79.028,4.757298,59.118416,0.0,8.410826,31.35576,50.77624,48.955529,64.995013,60.57214,76.268724,67.072952,80.609161,10.338935,302.695243,-42.572331,280.770352
101,-4.004093,0.242334,0.6992,-0.152956,0.0,6.70697,-14.887813,38.084381,-21.922634,41.490738,-25.188251,32.515572,-26.013416,12.862175,0.0,-14.314326,9.070073,26.081311,25.782785,40.093752,38.910725,47.419179,48.772204,52.549168,0.0,67.617336,28.061497,92.958355,19.784672,90.82497,11.584282,78.43713,4.134029,58.623882,0.0,9.222326,31.171769,50.893665,48.927038,64.927088,60.721231,76.058823,67.35446,80.54373,6.288551,302.853794,-41.919422,280.533613
102,-5.629406,-0.080881,0.671676,-0.076274,0.0,14.759228,-8.890983,45.083393,-16.138881,47.592785,-20.124618,37.741528,-21.979156,18.729916,0.0,-15.37789,7.631091,24.912722,24.719048,39.24813,38.404891,47.281661,48.78884,52.537065,0.0,67.735234,28.016465,92.530941,19.550847,90.210949,11.217179,77.870923,3.674286,58.06374,0.0,9.651565,30.874897,51.102258,48.73844,64.911515,60.698926,75.98161,67.479245,80.420859,0.617666,302.63679,-41.289225,280.321216
103,-1.371025,-3.567074,0.643021,-0.173321,0.0,14.595486,-7.636654,47.050747,-15.149116,49.351834,-20.052498,39.013195,-23.229011,20.153286,0.0,-12.389541,8.694371,26.689602,26.192783,41.403453,40.251746,49.643688,50.926639,55.794239,0.0,68.069584,27.862049,92.100529,19.329231,89.750256,10.917286,77.37917,3.305088,57.512775,0.0,10.055758,30.738701,51.257757,48.618298,64.932003,60.63583,75.939706,67.460164,80.460577,-0.801819,298.919388,-40.694664,279.997567
104,1.70501,-3.234882,0.456837,-0.131973,0.0,10.88879,-9.345051,45.85001,-17.554871,48.492611,-23.306694,36.819271,-27.447876,16.937015,0.0,-4.599158,9.971345,28.691168,27.507264,43.371612,41.730854,51.621183,52.746473,57.829137,0.0,68.548919,27.718551,91.79013,19.103702,89.337982,10.63789,76.967537,2.997253,57.009041,0.0,10.344577,30.671455,51.355521,48.596142,65.032545,60.6208,75.98203,67.416568,80.541779,0.849673,295.523062,-40.291345,279.70415
105,0.431877,-4.255381,0.434292,0.003903,0.0,8.753963,-10.213097,45.712223,-18.44315,48.932133,-24.720532,36.721882,-29.557812,15.981937,0.0,2.960858,12.777592,31.597673,30.494675,46.178205,44.711744,54.307301,55.829362,61.18663,0.0,69.07941,27.795662,91.485889,19.082634,88.96693,10.498409,76.529079,2.787403,56.529132,0.0,10.214963,30.58588,51.474637,48.569144,64.997273,60.613858,75.948153,67.393313,80.51078,1.217503,291.115778,-39.9211,279.55615
106,0.778061,0.500919,0.290153,-0.074792,0.0,9.457363,-11.688824,44.310093,-19.895096,48.951038,-25.924633,35.730915,-30.529106,14.214145,0.0,4.781729,12.740407,32.07346,30.579483,45.131301,45.065389,53.590626,56.517694,60.334771,0.0,69.405979,27.927441,91.257031,19.170685,88.719395,10.474377,76.284382,2.645714,56.243717,0.0,10.074925,30.699835,51.70278,48.655891,65.00882,60.635841,76.004272,67.343233,80.593068,1.87682,291.494515,-39.749691,279.359176
107,5.364658,-0.094849,0.190567,-0.053217,0.0,2.344975,-17.497696,37.817413,-25.588543,43.215248,-30.962448,30.44751,-34.470966,7.418816,0.0,6.778466,13.790843,32.854603,31.309089,45.531358,45.4362,53.495753,56.526105,60.405303,0.0,69.598377,27.948498,91.09045,19.224472,88.475521,10.501053,76.03133,2.60059,55.879658,0.0,10.051139,30.838032,51.800272,48.67328,65.020961,60.544204,75.996183,67.200318,80.605234,7.096413,291.32793,-39.704189,279.234223
108,-0.943359,4.305684,0.09232,0.040336,0.0,6.209209,-15.935234,38.785652,-23.799431,44.6128,-28.893563,31.162605,-31.805661,6.713997,0.0,2.763676,11.297336,30.740602,28.467718,43.232451,42.37291,50.470995,53.329631,56.569885,0.0,69.859245,27.953327,91.053886,19.30759,88.432434,10.61697,75.867851,2.690208,55.556945,0.0,9.966306,30.859286,51.761072,48.629869,64.730598,60.466485,75.849488,67.141902,80.791596,5.97349,295.585835,-39.791433,279.22678
109,-3.061203,-1.057995,0.183929,0.274283,0.0,13.998172,-12.22443,44.049568,-20.670845,47.911308,-26.487076,33.677124,-30.328205,8.575653,0.0,-2.868899,10.411021,30.090469,28.886843,43.573425,43.984917,52.448021,55.863622,58.806066,0.0,69.90715,27.617146,91.056587,19.177048,88.572327,10.710777,75.758057,2.990238,55.238319,0.0,9.90726,30.63039,51.386988,48.360008,64.17824,60.215062,75.406688,66.927331,80.755089,2.720661,294.498092,-39.79913,279.471315
110,-2.806504,-0.740091,0.174007,0.228007,0.0,20.307415,-9.334659,48.451378,-18.087249,50.789521,-24.272747,36.282715,-28.690212,10.992737,0.0,-6.846836,9.188116,29.421478,28.746225,43.773694,44.876359,54.015839,57.573824,60.547847,0.0,69.755391,27.130875,91.077382,18.859292,88.721798,10.582169,75.562146,3.015347,54.737584,0.0,10.095352,30.346635,51.083189,47.984491,63.787113,59.828381,75.057897,66.604673,80.79971,-0.275443,293.732844,-39.814723,279.674165
111,0.492154,-2.527593,0.104611,0.222054,0.0,18.185005,-9.287098,48.84312,-18.536946,49.975948,-25.742547,35.472278,-31.518437,9.700618,0.0,-8.892047,8.689506,28.821153,29.078356,45.03071,46.056471,56.243869,59.425794,63.612607,0.0,69.589737,26.787598,91.127518,18.695114,88.912033,10.559807,75.381271,3.082798,54.256576,0.0,10.195055,30.143748,50.737535,47.631082,63.476312,59.430807,74.830841,66.25671,80.917864,0.060814,291.177778,-39.866009,279.868746
112,-1.262879,-0.51459,0.15469,0.223314,0.0,21.325276,-8.291588,50.531788,-17.537556,51.700573,-24.738052,37.511089,-30.51218,11.30135,0.0,-10.217421,8.121562,28.500248,28.980938,45.263718,46.478275,57.119353,60.20717,64.970251,0.0,69.383617,26.386871,91.134578,18.424782,89.085445,10.428589,75.239055,3.076435,53.943248,0.0,10.302699,30.021618,50.4562,47.410522,63.160063,59.155339,74.59908,65.96326,80.985542,-1.343256,290.638645,-39.85251,280.067517
113,1.27208,-1.207715,0.305465,0.209285,0.0,20.044979,-10.097317,48.987957,-19.583737,49.765422,-26.573388,36.124225,-31.965248,10.57806,0.0,-8.703054,9.334995,30.179057,30.242795,46.719645,47.69918,58.179559,61.312997,66.218894,0.0,69.188771,26.094384,91.146527,18.124855,89.083706,10.133595,74.96719,2.830708,53.485257,0.0,10.289397,29.908219,50.320608,47.238485,63.080047,58.932802,74.464328,65.686074,80.883184,-0.190979,289.406431,-39.666848,280.252303
114,-3.112049,1.40865,0.093007,-0.109199,0.0,23.764686,-6.608128,51.986824,-16.111554,52.26741,-23.176484,39.322128,-28.029694,12.57241,0.0,-7.676094,10.296153,31.238743,30.178798,47.773688,46.557847,57.969904,59.087117,66.240495,0.0,69.257308,26.310367,91.216781,18.239845,88.997337,10.072013,74.76242,2.569004,53.220726,0.0,10.42563,30.044737,50.616775,47.309139,63.35712,58.934605,74.713676,65.657335,81.053492,-3.433719,290.798624,-39.704532,280.126647
115,6.301002,0.0206,0.053203,-0.164701,0.0,15.851212,-13.614086,44.152382,-23.23494,45.382324,-29.550636,33.09034,-32.968369,5.973358,0.0,-4.892584,11.517922,32.335801,31.015009,48.929779,46.916864,58.168283,58.906979,66.461191,0.0,69.44862,26.739819,91.319973,18.596501,88.864872,10.243286,74.606312,2.507961,53.070934,0.0,10.507524,30.314759,50.824467,47.538999,63.533776,59.108198,74.955824,65.797941,81.377657,2.7201,290.81136,-39.798512,279.954082
116,0.288895,2.645018,0.185394,-0.112312,0.0,16.849479,-13.634972,43.154937,-23.091202,45.752403,-28.87785,33.473533,-31.38208,5.985969,0.0,-5.750446,10.970454,31.318722,29.865821,48.321624,45.024547,56.407852,56.443433,63.887741,0.0,69.480824,26.991864,91.320568,18.765061,88.720745,10.260601,74.430668,2.338532,52.829396,0.0,10.561902,30.447313,50.979399,47.622029,63.583115,59.12702,75.092466,65.797028,81.615013,2.853585,293.456193,-39.768528,279.841585
117,-6.219052,2.121114,0.060391,-0.124266,0.0,22.568287,-7.342449,50.011975,-16.13491,51.05531,-21.546386,39.456105,-23.822845,14.120098,0.0,-1.850228,11.278737,32.757531,27.613092,48.447558,40.335937,54.77285,49.988873,60.403252,0.0,69.493378,27.405315,91.409889,19.095852,88.63575,10.397129,74.315849,2.221046,52.580246,0.0,10.652934,30.499269,51.106814,47.664402,63.649558,59.171072,75.262155,65.886405,81.910451,-3.536059,295.580994,-39.878729,279.721006
118,4.714817,-3.686105,0.035225,-0.118722,0.0,14.365265,-12.361004,45.319359,-21.343917,45.923172,-26.782905,34.77475,-29.010326,7.611351,0.0,0.39608,13.41671,34.097466,30.296049,50.51206,43.319841,57.926308,53.058474,64.735489,0.0,69.391983,27.736793,91.42987,19.435993,88.642044,10.597744,74.355491,2.161915,52.455757,0.0,10.732345,30.571123,51.017968,47.664205,63.525638,59.160514,75.32939,65.946946,82.150933,0.973846,291.89981,-40.048416,279.607205
119,4.955361,1.506377,0.108581,-0.153808,0.0,10.317673,-17.835446,39.662864,-26.932274,41.481903,-31.780083,29.771965,-33.368889,3.284408,0.0,-1.090117,11.825896,33.161404,29.008405,49.134198,42.414481,56.283846,52.657997,62.458146,0.0,69.245888,28.033562,91.336693,19.693222,88.538658,10.672589,74.277077,1.966301,52.241913,0.0,10.783796,30.53884,51.121339,47.559069,63.500419,59.061762,75.39671,65.923789,82.392229,5.671646,293.408179,-40.197396,279.455389
120,-5.89103,4.687758,0.115391,-0.17505,0.0,17.058999,-10.442813,46.747536,-19.44437,47.161011,-24.79747,34.670243,-27.063125,8.05346,0.0,-7.305062,9.001234,31.295257,25.20695,46.010578,37.91206,52.502818,47.531194,58.286597,0.0,69.142147,28.053166,91.184132,19.631069,88.457302,10.488396,74.304691,1.663136,52.122425,0.0,11.018373,30.527477,51.353273,47.495984,63.58309,58.962974,75.454064,65.79478,82.507653,-0.526457,298.08865,-40.389078,279.273052
