takenoko1/special-research/HandMotion_SimilarSearch_自分用/NewProject/handData/test_key/d4_feature_d3/135.csv
frame,vel_0x_L,vel_0y_L,vel_0x_R,vel_0y_R,posFromWrist_0x_L,posFromWrist_1x_L,posFromWrist_2x_L,posFromWrist_3x_L,posFromWrist_4x_L,posFromWrist_5x_L,posFromWrist_6x_L,posFromWrist_7x_L,posFromWrist_8x_L,posFromWrist_9x_L,posFromWrist_0y_L,posFromWrist_1y_L,posFromWrist_2y_L,posFromWrist_3y_L,posFromWrist_4y_L,posFromWrist_5y_L,posFromWrist_6y_L,posFromWrist_7y_L,posFromWrist_8y_L,posFromWrist_9y_L,posFromWrist_0x_R,posFromWrist_1x_R,posFromWrist_2x_R,posFromWrist_3x_R,posFromWrist_4x_R,posFromWrist_5x_R,posFromWrist_6x_R,posFromWrist_7x_R,posFromWrist_8x_R,posFromWrist_9x_R,posFromWrist_0y_R,posFromWrist_1y_R,posFromWrist_2y_R,posFromWrist_3y_R,posFromWrist_4y_R,posFromWrist_5y_R,posFromWrist_6y_R,posFromWrist_7y_R,posFromWrist_8y_R,posFromWrist_9y_R,posFromBody_0x_L,posFromBody_0y_L,posFromBody_0x_R,posFromBody_0y_R
6,6.094094,0.245063,0.49585,-0.032135,0.0,-15.756077,-33.379464,21.406768,-42.808537,23.433677,-46.63583,11.038581,-46.972424,-19.051117,0.0,4.857905,9.861034,30.709073,29.729686,46.625501,45.520736,54.944195,57.441085,62.644224,0.0,68.057659,25.265602,90.233311,17.207359,87.796406,9.215847,73.796436,1.867905,51.727054,0.0,12.168165,30.206585,49.030988,47.685668,62.297693,59.575797,72.791249,66.519087,80.306287,16.709095,295.439996,-43.052811,282.50205
7,1.770309,-0.107792,0.537746,-0.161428,0.0,-14.201969,-34.546852,19.313896,-44.243008,20.414429,-48.255569,8.512001,-48.697117,-20.661095,0.0,1.682773,9.368168,30.206363,29.203647,46.534246,45.051582,55.249811,56.61631,63.597725,0.0,67.755776,24.981079,89.533928,16.912022,87.182144,8.903389,73.304283,1.517624,51.167931,0.0,12.26909,30.262049,49.006954,47.754014,62.186456,59.635201,72.65882,66.515061,80.230544,18.112495,295.480185,-42.881974,282.488603
8,1.905579,-0.27322,0.492222,-0.112695,0.0,-14.700371,-35.053734,17.790481,-45.187363,18.886894,-49.637925,6.677147,-50.467392,-24.147938,0.0,-0.930814,9.230859,30.173993,29.169474,46.422131,45.146109,55.555795,56.927877,64.603738,0.0,67.547367,24.606148,88.828732,16.556729,86.656643,8.572117,72.964199,1.196171,50.585621,0.0,12.30871,30.454809,48.9188,47.897831,61.965415,59.711945,72.348722,66.51332,80.066041,19.676114,295.317953,-42.731712,282.486896
9,-5.465813,0.612218,0.475662,-0.08051,0.0,-3.8256,-28.876179,23.775787,-39.47477,24.581062,-44.601151,11.902473,-46.173912,-17.056561,0.0,-5.289368,8.588618,29.584178,28.17281,46.109502,44.020028,55.104697,55.720151,63.358985,0.0,67.32835,24.274304,88.172734,16.170582,86.108471,8.158047,72.643948,0.756638,49.907215,0.0,12.195867,30.578273,48.755816,47.899992,61.649462,59.615404,72.083775,66.322845,79.977207,13.899794,296.006028,-42.566557,282.482243
10,-1.462921,0.840201,0.505875,0.125464,0.0,-3.404389,-27.211762,24.623268,-37.489918,25.599861,-42.779228,13.454773,-44.43219,-18.410935,0.0,-5.758473,7.656594,29.890571,27.069886,45.890584,42.680094,54.552215,54.259963,64.192183,0.0,66.9715,23.999748,87.580433,15.814327,85.54295,7.753979,72.242855,0.332233,49.282551,0.0,11.897255,30.553104,48.622275,47.757362,61.262522,59.370132,71.610459,65.982465,79.666714,12.163445,296.901082,-42.33411,282.66256
11,-8.141751,2.488072,0.287796,-0.083153,0.0,7.500287,-19.326931,32.640301,-29.118827,33.932431,-34.443534,22.855992,-36.043636,-8.070854,0.0,-9.223832,7.057035,28.89303,25.520494,44.839185,40.351548,52.645116,51.243653,62.134512,0.0,66.71339,23.930409,87.287167,15.678612,85.257282,7.576733,72.112141,0.100719,48.936642,0.0,11.850633,30.60369,48.631229,47.771922,61.053398,59.345753,71.309574,65.881157,79.496764,3.767927,299.422431,-42.300081,282.612684
12,3.802369,-2.382084,0.346333,0.006706,0.0,2.69672,-22.388649,30.032993,-32.833477,30.810711,-38.926964,18.981067,-41.30904,-13.233021,0.0,-10.387728,8.271912,29.77763,27.315715,45.95215,42.495522,54.539322,53.905936,64.614878,0.0,66.410636,23.861778,87.140716,15.540824,85.029945,7.37915,71.874641,-0.149369,48.568565,0.0,11.624034,30.632824,48.69356,47.788694,61.029476,59.34511,71.129287,65.82773,79.267189,7.349139,297.05744,-42.174905,282.636483
13,-7.999295,1.397165,0.006923,-0.190685,0.0,12.101853,-15.309345,38.029702,-25.198963,40.143471,-31.121051,28.916451,-33.742046,-0.523384,0.0,-9.723097,7.211114,28.885645,25.725308,44.734098,40.749628,52.440092,51.946447,61.066872,0.0,66.28014,24.163262,87.582356,15.679997,85.224072,7.363037,72.128437,-0.296642,48.780064,0.0,11.633,30.569925,49.029482,47.772885,61.274205,59.413641,71.32222,65.933867,79.469409,-0.857214,298.469647,-42.37504,282.46084
14,-4.974712,0.121265,0.221993,-0.167578,0.0,16.401569,-10.304112,44.448475,-19.849857,46.039204,-26.10593,35.613613,-29.001217,5.5956,0.0,-9.400956,8.701189,29.765626,26.84677,45.531136,41.302764,52.681586,51.943335,61.763676,0.0,66.068928,24.291984,87.742481,15.785797,85.184658,7.415634,72.119556,-0.299515,48.949321,0.0,11.6608,30.567664,49.376407,47.844738,61.535508,59.566794,71.658871,66.116635,79.786126,-6.031837,298.604395,-42.352958,282.306745
15,5.518776,-3.728872,0.133804,-0.285361,0.0,8.389515,-15.139195,40.329082,-25.398148,40.788196,-31.887554,29.135639,-35.120419,0.291138,0.0,-7.502737,10.954868,31.142857,30.083368,47.60065,45.123681,55.497565,56.264394,63.727326,0.0,66.030155,24.421669,87.903294,15.899334,85.226978,7.513996,72.320171,-0.188782,49.311688,0.0,11.791859,30.653917,49.575268,48.053788,61.759477,59.880597,72.056457,66.460499,80.106117,-0.708658,294.899127,-42.414751,282.044988
16,1.627544,-1.256881,0.27903,-0.120253,0.0,8.116173,-16.636573,38.85418,-27.121341,40.22731,-33.546512,27.592392,-37.026123,-0.470913,0.0,-5.652694,10.602917,30.945725,30.354724,47.393022,46.040725,55.66728,57.771031,63.046961,0.0,65.969707,24.373581,87.96072,15.819534,85.149799,7.392391,72.298428,-0.315456,49.450367,0.0,11.803085,30.596971,49.610009,48.05774,61.901713,59.940421,72.317723,66.551124,80.281612,0.749513,293.662318,-42.305094,281.944807
17,-7.643909,3.762762,0.126869,-0.215225,0.0,16.598453,-8.808449,46.674373,-18.122612,48.690708,-24.203877,36.873127,-27.511379,8.419567,0.0,-8.069285,8.520988,29.390578,27.470881,45.348107,42.522321,52.504683,53.477326,60.179,0.0,65.999279,24.426853,88.160191,15.835922,85.267902,7.375809,72.527241,-0.317711,49.730129,0.0,11.945926,30.625451,49.761459,48.112883,62.096252,60.039074,72.608469,66.656001,80.629798,-7.055174,297.43903,-42.339003,281.743532
18,3.682651,-2.193165,0.444889,-0.094848,0.0,13.942658,-10.621936,44.340248,-20.401794,43.590958,-27.245281,30.346505,-31.317661,0.706604,0.0,-10.865405,10.442192,30.103326,29.812247,46.175859,44.726676,54.480301,55.55818,62.744742,0.0,66.046623,24.287361,87.97007,15.786392,85.214195,7.37661,72.394821,-0.27206,49.55468,0.0,11.870195,30.673022,49.659804,48.146833,62.175267,60.039221,72.73376,66.619073,80.747271,-3.547955,295.256069,-42.069546,281.658888
19,4.968922,2.036986,0.287087,-0.036223,0.0,-3.09058,-18.083359,37.486736,-25.805386,39.002094,-30.089928,26.825306,-31.743759,-1.528393,0.0,-1.675697,11.14012,29.231397,28.064821,42.457804,40.881823,49.783577,50.361215,56.213907,0.0,66.21421,24.207973,88.040176,15.676872,85.421035,7.288639,72.602623,-0.26928,49.687614,0.0,11.791315,30.560291,49.552087,48.111178,62.14002,60.023932,72.540876,66.586926,80.507841,1.254209,297.298529,-41.949217,281.628139
20,-2.356865,0.137629,0.344318,-0.02806,0.0,1.848599,-15.559696,40.839283,-23.249863,42.674183,-27.939365,29.790882,-30.109383,0.296196,0.0,-3.25521,10.325805,28.564913,27.077024,42.022477,39.92899,49.850231,49.568624,56.781504,0.0,66.257984,24.174809,88.073376,15.629768,85.565884,7.20845,72.681645,-0.394123,49.641598,0.0,11.67998,30.316711,49.43265,47.885049,62.154927,59.820267,72.58509,66.394167,80.527947,-1.258713,297.438607,-41.760956,281.602528
21,-0.062118,-0.361067,0.298302,-0.114065,0.0,-3.38411,-15.439614,41.531169,-22.933674,43.6226,-27.365834,30.446949,-29.189702,-1.250565,0.0,1.993328,10.83632,29.462653,27.563334,42.392806,40.3215,50.205925,50.015203,56.485152,0.0,66.333721,24.302101,88.117916,15.752895,85.716602,7.313667,72.861683,-0.300179,49.745922,0.0,11.625478,30.313389,49.48783,47.939105,62.249195,59.887464,72.663908,66.46308,80.625055,-1.491205,297.084147,-41.633028,281.49507
22,1.889202,-3.622514,0.246254,-0.054933,0.0,-4.67577,-16.333351,41.00164,-24.663082,41.947723,-29.894039,27.387222,-32.884587,-3.34235,0.0,2.983249,12.04117,30.712852,29.669258,43.95135,43.073728,53.228448,53.576498,59.152881,0.0,66.494739,24.524128,88.244327,15.955444,85.880825,7.442951,73.001026,-0.282234,49.780025,0.0,11.5022,30.140524,49.462463,47.81474,62.128497,59.833185,72.601725,66.500945,80.556179,0.213805,293.46774,-41.570966,281.446244
23,-2.414452,0.331229,0.146438,-0.154697,0.0,-1.709896,-13.632008,44.273369,-21.973377,45.920837,-27.560234,31.16359,-31.124748,0.404926,0.0,3.084816,11.248122,31.066311,28.768863,44.260769,42.251695,53.4981,52.957178,59.705078,0.0,66.597256,24.728749,88.42281,16.111405,86.028843,7.535317,73.109814,-0.263042,49.891903,0.0,11.459234,30.018505,49.602537,47.780221,62.216492,59.871717,72.734859,66.597128,80.545249,-2.379839,293.820872,-41.60372,281.31345
24,-1.525017,-3.773963,0.212666,-0.204073,0.0,11.226803,-8.25008,48.500107,-18.788601,47.778534,-27.297603,30.609627,-34.431404,-0.817188,0.0,-8.141446,9.85344,31.22832,30.691931,47.227543,47.049504,58.732423,59.992489,66.750652,0.0,66.571541,24.964966,88.424629,16.304695,85.933342,7.627579,72.928573,-0.312618,49.582146,0.0,11.455023,30.071537,49.857344,47.838538,62.537903,59.952981,73.127246,66.70839,80.81637,-4.086068,290.070112,-41.572266,281.13258
25,-2.760647,-0.090822,0.097217,-0.069753,0.0,14.895264,-4.853588,51.840764,-15.120883,50.84451,-23.698493,34.069188,-31.376174,5.591481,0.0,-8.040336,9.619183,30.945651,30.554721,46.82635,47.077649,58.439108,60.20985,65.80298,0.0,66.707051,25.046872,88.596394,16.358975,85.994626,7.699654,72.909451,-0.190887,49.696507,0.0,11.392704,29.815803,49.881711,47.634539,62.538841,59.818575,73.138102,66.638426,80.694895,-7.036372,290.000655,-41.664706,281.084192
26,-0.896656,-1.84388,0.184662,0.029097,0.0,20.630906,-2.450546,54.7034,-13.023021,51.416268,-22.697662,34.249329,-32.075717,8.325097,0.0,-14.987109,9.940137,30.872749,31.305817,46.981097,48.165902,59.889687,61.527604,68.347604,0.0,66.8111,24.957665,88.617359,16.315819,86.066769,7.701062,72.732159,-0.152115,49.546063,0.0,11.171205,29.418266,49.754381,47.222824,62.415365,59.475057,73.050119,66.393388,80.411102,-8.114954,288.172935,-41.66197,281.129449
27,4.02388,-0.552147,0.283161,0.002741,0.0,17.394036,-6.941276,50.863129,-17.740825,47.505707,-27.001602,30.363144,-35.543392,3.652897,0.0,-13.818619,10.625381,31.396639,31.895236,47.38387,48.692892,60.11058,62.022793,68.226116,0.0,66.819375,24.811032,88.473313,16.229622,86.136132,7.731217,72.677124,0.034276,49.778435,0.0,11.029501,29.039021,49.641947,46.915654,62.305314,59.235911,72.948516,66.221241,80.044441,-4.285521,287.642935,-41.573256,281.154337
28,0.498002,1.259288,0.341435,-0.017006,0.0,13.757858,-9.365777,48.584632,-19.533143,47.526306,-27.200409,31.31797,-33.601822,5.575527,0.0,-7.635006,10.66069,31.294059,31.528254,46.651918,48.109178,58.097184,61.270661,65.127122,0.0,66.684826,24.493607,88.254719,15.98045,86.185169,7.63797,72.604053,0.128002,49.828846,0.0,10.843965,28.642311,49.641885,46.56774,62.172872,58.971224,72.795387,66.04519,79.563961,-4.006038,288.91612,-41.45034,281.151228
29,2.584053,-0.550295,0.051533,-0.26733,0.0,12.508026,-12.296391,46.311103,-22.403344,45.060287,-29.715306,29.222648,-35.591504,3.930278,0.0,-6.963865,11.293261,31.716037,32.000892,46.925386,48.481187,58.462944,61.554256,65.022394,0.0,66.736999,24.23323,88.334747,15.794838,86.407287,7.631939,72.75119,0.36264,50.429603,0.0,10.856538,28.402757,49.736647,46.414475,62.27581,58.89537,72.632243,66.032519,79.104316,-1.65652,288.384341,-41.633342,280.902414
30,0.471119,-1.345084,0.084686,-1.352161,0.0,10.857639,-13.619225,45.911167,-24.011513,45.241687,-31.312031,28.983135,-36.901852,2.492385,0.0,-5.605246,13.340349,34.328264,33.769892,49.010647,49.738734,60.07637,62.123631,65.689149,0.0,66.606491,23.957325,88.203827,15.621437,86.458923,7.620747,72.648468,0.567478,51.060196,0.0,11.041233,28.714411,51.55101,46.650707,64.534714,59.078892,74.390475,66.248448,79.700553,-1.437412,287.075214,-41.800667,279.58621
31,4.85432,1.144593,0.255043,-4.899203,0.0,-2.772388,-20.860886,29.706059,-30.318684,28.656647,-36.027225,15.105583,-39.536247,-9.991436,0.0,3.014038,13.602727,32.998914,30.865462,45.724291,44.250037,54.600048,54.742914,60.92287,0.0,65.568695,24.346447,87.227371,16.012115,84.215149,7.862972,69.719467,0.475239,47.392365,0.0,12.517747,28.532926,53.924226,46.707925,67.661877,59.680019,77.917509,67.481257,82.751393,3.157906,288.267725,-41.804626,274.734925
32,-0.485138,1.316087,0.511379,-6.220675,0.0,-14.124905,-23.218975,10.02134,-29.152771,10.412556,-31.597618,3.032513,-32.546253,-13.798256,0.0,11.261459,16.966617,31.729535,30.842317,41.169938,40.51137,46.619634,47.327306,50.729383,0.0,62.624211,24.98568,82.228329,16.630417,74.874035,7.875527,57.678646,-0.493641,35.690632,0.0,12.193014,26.810757,56.269025,44.918781,72.427984,58.357079,82.734474,66.663534,85.984485,2.445974,289.641305,-41.520041,268.571743
33,6.411186,-3.914618,-4.85329,-10.639843,0.0,-26.401806,-27.093578,-17.227214,-30.265915,-19.196857,-30.468692,-21.478981,-29.537338,-28.530578,0.0,12.069834,20.227817,34.898097,33.70351,45.127633,42.835532,52.023684,48.953688,56.461575,0.0,62.341072,26.371719,74.273472,17.967601,66.607429,9.092811,50.802475,0.432403,32.661861,0.0,12.12599,20.220345,48.089566,34.045213,61.581784,44.57183,69.642078,51.329301,70.343142,8.592035,285.829705,-46.638456,258.034918
34,5.275841,-2.589874,-11.730469,-26.795146,0.0,-41.474522,-31.021614,-45.116375,-31.141319,-46.746059,-28.074474,-43.42503,-23.724724,-41.133797,0.0,19.177887,23.330713,38.192728,36.21837,48.440814,44.640373,55.73875,49.794927,59.863134,0.0,61.440342,25.86034,64.93927,18.575123,57.457397,10.93903,43.938915,3.490253,28.717483,0.0,10.310824,13.57994,39.843811,28.443289,54.64326,41.08019,63.785038,50.453149,65.747121,13.432548,283.399703,-58.804253,231.399644
35,6.843887,-1.335193,-19.703064,-28.469435,0.0,-56.476387,-35.903389,-74.689441,-32.568019,-76.661556,-26.080959,-67.025184,-18.31414,-54.568771,0.0,24.691693,24.954935,39.214439,37.331051,49.788913,45.350689,57.819579,50.004447,62.408351,0.0,52.906036,24.825863,55.331646,21.483856,49.595764,16.946709,38.517895,11.833054,27.503746,0.0,0.755041,3.886923,21.359295,17.694994,36.566359,30.564737,46.953593,41.176002,51.091575,19.632196,282.292079,-79.151556,203.157778
36,2.849396,-4.050654,-25.794113,-29.537717,0.0,-60.490196,-35.04491,-88.971954,-29.423092,-90.346195,-21.113663,-77.701824,-11.837562,-57.717876,0.0,23.040265,28.52648,44.404833,43.221843,56.843737,52.858711,67.153351,58.23427,70.631925,0.0,43.775093,22.157032,43.8498,23.26894,41.241852,22.779659,34.830894,21.297752,30.183952,0.0,-13.41264,-9.400586,-4.134048,2.47445,11.931489,14.623591,23.618983,25.826418,29.864735,21.659717,278.81638,-105.767544,174.195016
37,3.428169,-4.04769,-28.144684,-34.636825,0.0,-61.583713,-34.039421,-94.754093,-28.467361,-97.319389,-20.304679,-84.854095,-10.748519,-62.574394,0.0,21.220912,28.284542,48.985725,45.7184,64.475013,58.302664,78.75282,66.284906,83.964617,0.0,33.745445,14.918106,33.209049,20.09967,37.008865,24.210834,36.983963,27.424747,37.736767,0.0,-27.747307,-17.557686,-26.482917,-6.964971,-11.429439,4.587864,1.566281,16.153463,11.324983,24.060985,275.483179,-134.939129,140.27268
38,0.036896,-0.633707,-24.56361,-30.211914,0.0,-61.611019,-33.597359,-94.432022,-28.068374,-96.915653,-20.073509,-84.237099,-10.736183,-62.442913,0.0,21.515646,28.581227,49.414124,46.067561,64.431602,58.614047,78.888325,66.477097,84.117485,0.0,20.105839,8.028591,21.706352,16.083481,27.527504,23.349552,29.618603,29.961193,32.786705,0.0,-37.903619,-21.508397,-39.64193,-9.36558,-19.477259,3.734338,-3.444357,16.969847,9.272047,22.67003,275.869169,-160.93059,111.080463
39,0.005997,-0.308839,-26.38686,-16.145355,0.0,-61.487686,-33.360787,-94.046482,-27.746544,-96.495003,-19.757607,-83.816357,-10.468277,-62.009411,0.0,21.576619,28.530395,49.837844,46.040441,64.674924,58.546393,78.893278,66.321363,84.266675,0.0,7.499851,1.646736,12.48523,13.349567,21.1833,24.339752,26.765717,34.44841,33.814087,0.0,-50.68882,-23.241947,-54.686943,-14.105048,-29.54241,-4.080937,-13.489489,6.374446,-1.810862,20.994301,276.983439,-188.999176,96.358217
40,0.23323,-0.285324,-19.955463,-13.074199,0.0,-61.370281,-33.174293,-93.659282,-27.47937,-96.097251,-19.438064,-83.210277,-10.138,-61.273075,0.0,21.622142,28.300968,50.137778,45.782546,64.967065,58.269011,79.116703,66.044808,84.491422,0.0,2.088764,-4.478383,1.804081,8.48014,13.082302,21.591224,21.409458,34.234737,30.775589,0.0,-55.21342,-23.647024,-63.016727,-16.839633,-30.513237,-8.943868,-15.793402,-0.508897,-6.146778,19.444335,278.154981,-210.737835,84.740884
41,0.61155,0.086463,-14.050221,-8.94199,0.0,-61.099709,-33.066925,-93.507145,-27.382164,-95.923142,-19.335915,-82.752651,-10.009049,-60.500096,0.0,21.580053,27.949064,50.120303,45.444673,65.035435,57.910105,79.073663,65.603947,84.368168,0.0,-2.35944,-10.362694,-7.762447,2.736374,4.517304,17.132813,16.7845,31.432686,27.647232,0.0,-55.138753,-17.864432,-63.185276,-12.394049,-36.188922,-6.869036,-18.893447,-1.369909,-11.006882,17.868113,279.493807,-226.975828,77.051257
42,1.139168,0.099369,-12.986881,-10.320977,0.0,-61.08775,-33.050354,-93.632218,-27.327919,-95.867707,-19.271096,-82.552025,-9.993187,-60.216946,0.0,21.425713,27.602953,49.85259,45.094041,65.014181,57.613999,78.880236,65.427266,84.227735,0.0,-5.610363,-13.160626,-13.995278,0.873802,1.728504,16.833767,16.185402,32.818062,28.456329,0.0,-55.890724,-15.570897,-70.263342,-10.799856,-36.879772,-6.483416,-20.846655,-2.777298,-14.263363,16.24831,280.861128,-242.72168,67.998232
43,1.455894,0.349977,-10.177563,-16.615004,0.0,-61.18277,-32.97654,-93.727707,-27.262894,-95.880844,-19.234131,-82.47171,-9.999962,-59.97377,0.0,21.086308,27.327274,49.49172,44.782757,64.785358,57.289932,78.740729,65.071151,84.012102,0.0,-5.051811,-16.612793,-15.544361,-0.469654,3.585766,17.971321,20.403111,36.222462,33.543961,0.0,-61.74286,-13.255102,-77.588096,-7.639427,-36.665462,-3.113283,-21.957891,-0.173735,-14.931614,15.094992,282.181349,-255.508455,52.353472
44,1.594551,0.291474,0.23933,-20.95042,0.0,-61.457256,-32.865143,-93.795582,-27.217735,-96.104381,-19.295265,-82.753841,-10.127266,-60.236881,0.0,20.908084,27.301104,49.183586,44.720253,64.429911,57.197529,78.554786,64.94749,83.854367,0.0,-3.525283,-17.89508,-17.082664,-1.678402,3.62328,17.198388,20.441689,36.060265,33.473694,0.0,-62.548431,-13.603227,-83.329616,-7.703957,-38.149948,-3.182783,-24.725063,-0.556946,-17.054563,14.205328,282.958295,-257.75334,31.888524
45,1.336281,0.272097,3.988369,-25.827017,0.0,-61.639309,-32.579132,-93.909668,-26.921722,-96.055824,-19.08046,-82.797798,-10.02475,-60.389854,0.0,20.611608,27.116187,49.044178,44.564371,64.160642,57.115475,78.332942,64.945403,83.762223,0.0,-0.678348,-18.355568,-15.920574,-2.441333,4.643464,16.570633,22.091046,35.730023,34.82531,0.0,-63.614163,-12.44708,-87.688744,-4.67773,-39.686052,0.996231,-25.610045,4.095565,-16.134871,13.182627,283.576408,-256.123953,6.407523
46,1.299248,0.231823,5.535359,-25.705555,0.0,-62.16235,-32.429032,-94.143379,-26.727082,-96.170574,-18.957779,-83.02684,-10.051575,-60.850102,0.0,20.413711,26.979175,48.968917,44.495532,63.971031,57.11723,78.257483,65.005993,83.72337,0.0,4.708626,-16.940014,-10.703682,-0.478958,10.622532,18.898098,25.795177,38.571018,38.176849,0.0,-67.357559,-15.999772,-95.514885,-7.373832,-33.155198,-0.162187,-23.300764,4.498277,-13.496157,12.518761,283.990558,-252.551708,-19.115705
47,0.821182,0.183164,9.398414,-19.191453,0.0,-62.316479,-32.26577,-94.055923,-26.622231,-96.1073,-18.968903,-83.187904,-10.157249,-61.240425,0.0,20.212639,27.049188,48.900139,44.63783,63.555525,57.270457,78.103502,65.109215,83.676403,0.0,12.073506,-13.585922,-4.807663,2.97614,13.883549,22.122883,28.883801,41.641526,40.504235,0.0,-67.791795,-19.608171,-99.419161,-11.046427,-34.122247,-3.292304,-24.456949,2.442611,-14.804859,12.009928,284.068447,-244.483309,-38.412433
48,0.416702,-0.06648,11.808072,-11.858167,0.0,-62.671486,-32.22789,-94.276897,-26.62294,-96.094791,-19.082428,-83.571888,-10.395401,-62.049385,0.0,20.221074,27.351073,49.076893,45.099092,63.493737,57.750047,78.175441,65.518299,83.950105,0.0,16.584045,-10.341431,0.474449,6.265491,16.718101,25.100063,31.535476,44.269569,42.726814,0.0,-67.514177,-22.793905,-101.335399,-14.548211,-36.306506,-6.379447,-25.207981,0.311815,-15.708903,11.482446,283.495265,-233.619421,-50.777302
49,0.037079,-0.190241,13.768249,-3.188989,0.0,-62.663589,-32.604698,-94.756576,-26.908996,-96.306267,-19.314903,-83.88668,-10.675781,-62.76598,0.0,20.339289,27.484022,49.226243,45.425518,63.654029,58.207606,78.286889,66.090132,84.101048,0.0,19.663983,-7.063064,5.402252,9.686051,19.538956,28.161289,33.919624,46.652355,44.494755,0.0,-67.61265,-25.461195,-102.632034,-17.615892,-38.397665,-9.064003,-26.143247,-1.361794,-16.611459,10.750156,282.704028,-220.620541,-54.567287
50,-0.201073,-0.189907,15.638489,2.671614,0.0,-62.849372,-32.936874,-95.080043,-27.210685,-96.388904,-19.582672,-84.117885,-10.969963,-63.31826,0.0,20.542608,27.674954,49.283103,45.76265,63.929053,58.611305,78.501014,66.562511,84.07799,0.0,21.147995,-4.125652,9.752392,12.035374,21.990612,29.665752,35.41151,47.223907,45.014717,0.0,-66.342284,-25.951692,-99.973065,-18.188961,-37.206093,-9.306522,-24.970027,-0.696385,-14.983275,10.030254,281.639612,-205.500881,-52.770182
51,-0.358749,-0.315458,19.033619,3.494449,0.0,-62.777962,-33.135269,-95.233395,-27.443092,-96.270069,-19.844009,-84.329876,-11.274559,-63.86475,0.0,20.532802,27.850695,49.402293,46.060917,64.086047,58.981462,78.694503,67.025317,84.244667,0.0,18.547817,-2.566475,10.322765,12.050915,21.634403,27.590492,33.604076,42.974064,42.382175,0.0,-61.368313,-20.684597,-86.430273,-12.553031,-27.438085,-3.359012,-14.337877,5.294394,-3.637494,9.952629,280.474055,-186.186138,-50.125832
52,-0.317299,-0.269936,16.922218,20.389085,0.0,-62.988098,-33.494018,-95.251911,-27.725418,-95.698425,-20.075477,-84.326935,-11.514358,-64.211117,0.0,20.500878,27.814893,49.308989,46.191284,64.371668,59.265279,78.860402,67.473737,84.533869,0.0,17.930054,0.573452,12.815552,15.402146,22.481186,30.501778,33.889698,45.09272,43.077358,0.0,-63.340399,-21.246409,-85.074908,-12.841085,-27.928014,-3.211639,-13.566665,6.07427,-3.032335,10.503244,279.460344,-168.396006,-30.480522
53,-0.227714,-0.245878,16.309193,22.978137,0.0,-63.228894,-33.72757,-94.41956,-27.919419,-94.723572,-20.202713,-84.150433,-11.590805,-64.179177,0.0,20.661577,27.564816,49.04135,46.089396,64.647248,59.339108,79.091509,67.774474,84.684948,0.0,16.790966,2.195835,14.551643,17.068245,23.343704,32.003391,34.624523,46.345585,43.267376,0.0,-66.801997,-19.140658,-79.733645,-9.378529,-24.536267,1.034078,-10.690497,10.936319,0.65708,11.546036,278.783084,-150.816307,-7.933767
54,-0.153534,-0.126316,14.648609,29.384588,0.0,-63.358223,-33.657807,-92.773407,-27.835694,-92.871517,-20.100952,-83.57119,-11.473481,-63.880268,0.0,20.558441,27.156485,48.713381,45.730836,64.779035,59.075544,79.273338,67.61885,84.933505,0.0,16.874783,4.03474,15.810848,19.473129,23.136681,34.420944,34.405174,48.504112,43.715916,0.0,-69.070683,-17.333588,-78.566911,-7.407499,-23.26645,2.709972,-10.034491,11.961086,0.921489,13.132725,278.31414,-134.427475,21.108193
55,0.181869,-0.118635,12.306576,31.950151,0.0,-63.300911,-33.745994,-91.610367,-27.91127,-91.560882,-20.155929,-83.250606,-11.483688,-63.737091,0.0,20.501408,26.923711,48.172781,45.513993,64.648334,58.921724,79.319466,67.541711,85.421098,0.0,17.807544,5.830982,17.065006,22.588222,22.621547,37.873317,34.657413,51.832981,44.509346,0.0,-72.947954,-16.929691,-79.430802,-7.174465,-25.122105,2.423278,-12.291914,10.828614,-2.198809,14.969021,278.145953,-120.466472,53.008792
56,0.213043,0.050549,7.906357,33.633449,0.0,-63.139686,-33.689071,-91.23357,-27.815071,-91.027942,-20.007362,-82.987804,-11.22496,-63.083301,0.0,20.394494,26.753477,47.813517,45.259026,64.391576,58.630509,79.334941,67.209679,85.615242,0.0,21.645641,8.250022,21.031677,26.87408,24.188632,43.590259,36.771915,58.431907,47.479888,0.0,-77.357384,-19.400072,-89.192339,-9.714205,-34.318712,-0.594465,-22.47762,7.332108,-12.784522,16.183393,278.112299,-111.558786,86.558038
57,0.324509,0.216497,6.747242,17.992384,0.0,-62.805977,-33.388664,-91.562508,-27.594978,-91.873501,-19.816544,-83.215759,-10.954811,-62.770477,0.0,20.317466,26.733581,47.990061,45.103995,64.404617,58.364982,79.403348,66.812809,85.629889,0.0,23.585151,9.041896,22.597904,27.817932,25.191352,44.331092,36.844516,58.526618,47.396324,0.0,-74.90149,-16.03284,-87.639106,-6.341724,-37.225501,1.776565,-25.432951,8.224451,-14.54455,17.018972,278.242935,-104.300474,104.464561
58,0.186745,0.313099,3.814155,13.645353,0.0,-62.200093,-32.958664,-92.43504,-27.191849,-93.282154,-19.443947,-83.597683,-10.552346,-62.605614,0.0,19.889944,26.65953,47.996446,44.883386,64.220922,58.057132,79.269757,66.423733,85.549786,0.0,26.008679,11.320164,24.444923,30.546261,25.74939,46.533188,36.497269,59.524876,47.44907,0.0,-70.876518,-15.116026,-90.009877,-6.324694,-41.770721,0.415512,-29.541836,5.154152,-19.120984,17.243723,278.470998,-100.448313,118.024878
59,0.187088,0.422546,1.79036,4.538803,0.0,-61.839924,-32.467667,-93.89613,-26.809868,-95.339138,-19.16066,-84.334248,-10.287461,-62.601242,0.0,19.422505,26.586541,48.039239,44.687167,63.94969,57.814403,79.037847,66.186203,85.343676,0.0,27.878128,12.390014,26.392273,31.643268,26.88018,47.109512,36.604568,59.316707,47.23645,0.0,-68.196951,-13.713679,-88.69818,-4.876701,-44.564167,1.40728,-31.391322,5.51346,-20.523552,17.172203,278.790924,-98.916561,122.461061
60,-0.117989,0.400883,-0.020565,0.47693,0.0,-61.667427,-31.961105,-94.887714,-26.35865,-96.861179,-18.798523,-84.703159,-9.935921,-62.43037,0.0,18.982534,26.603807,48.369098,44.598149,63.931647,57.640959,79.000266,65.92064,85.198365,0.0,29.097541,13.389209,27.525547,32.462368,28.044124,47.506565,36.620842,59.096809,47.334995,0.0,-65.853987,-13.674197,-89.053808,-4.850847,-47.625197,1.11741,-33.139606,4.776443,-22.029614,16.884327,279.07621,-99.107013,122.822394
61,-0.169716,0.208272,-0.818173,-2.206651,0.0,-61.852844,-31.951286,-95.180397,-26.389229,-97.870411,-18.809051,-85.253254,-9.866775,-63.088508,0.0,18.740645,26.651515,48.619138,44.694121,64.200039,57.807821,79.090706,66.176509,85.311591,0.0,28.94656,14.243008,27.353806,33.341389,28.202236,48.046497,36.526085,59.143627,47.235226,0.0,-65.217019,-14.048225,-89.973951,-5.26899,-49.742767,0.566455,-34.076539,4.174951,-23.06013,16.645162,279.161707,-99.994635,120.492968
62,-0.242065,0.088081,-0.566048,-2.457512,0.0,-62.187481,-32.173622,-95.371468,-26.499458,-98.166813,-18.79065,-85.542149,-9.752289,-63.288403,0.0,18.69327,26.494953,48.564278,44.567075,64.313956,57.807018,79.316638,66.341432,85.550268,0.0,28.768135,13.821946,27.158341,33.029023,27.606926,47.811814,36.135636,59.021107,46.983216,0.0,-65.108029,-14.319631,-90.246072,-5.599318,-47.962953,0.305504,-32.56768,4.017136,-22.289874,16.431044,279.12701,-100.532736,117.912678
63,-0.217484,0.075484,-0.594635,-1.756114,0.0,-62.472633,-32.522483,-95.427257,-26.784622,-98.164638,-18.943611,-85.59629,-9.723381,-63.183139,0.0,18.882065,26.552454,48.907474,44.649475,64.466973,57.931643,79.526441,66.509553,85.765715,0.0,29.381791,12.908661,27.04469,32.236153,27.332497,47.37212,35.862294,59.052418,47.105999,0.0,-65.096395,-14.764166,-91.505978,-6.103399,-47.867524,-0.071291,-32.405474,3.910882,-22.137819,16.308099,279.079666,-101.032832,116.033736
64,-0.1501,0.093576,-0.504764,-1.042329,0.0,-62.686627,-33.027352,-95.680756,-27.246964,-98.252289,-19.290596,-85.815949,-9.907151,-63.44458,0.0,19.038628,26.704769,49.020429,44.83774,64.447473,58.148585,79.60731,66.739438,85.86727,0.0,29.239849,12.253795,26.677242,31.498146,27.291859,46.874382,35.865154,58.946285,47.454952,0.0,-65.230294,-15.760236,-92.77866,-7.07698,-48.163289,-0.833871,-32.439566,3.470318,-22.257812,16.325941,279.029187,-101.369654,114.847352
65,-0.049256,0.157476,-0.617558,-1.03117,0.0,-62.773796,-33.471061,-95.969558,-27.673118,-98.461544,-19.610481,-86.229114,-10.076179,-63.84581,0.0,19.129994,26.754045,49.079722,44.950348,64.362195,58.328241,79.508608,66.991627,85.877459,0.0,29.419533,11.760498,27.015107,31.006531,27.554318,46.62434,35.889084,59.066437,47.879208,0.0,-65.418973,-15.901583,-93.656436,-7.145023,-48.682833,-0.768008,-32.375148,3.743045,-21.997491,16.455013,279.039852,-101.808884,113.669371
66,0.03106,0.299823,-0.476989,-0.547454,0.0,-62.712422,-33.681908,-96.232911,-27.858536,-98.515984,-19.772118,-86.37592,-10.20179,-63.838772,0.0,19.076382,26.654195,48.892568,44.84121,64.219107,58.237073,79.315601,66.94477,85.721984,0.0,29.909088,11.134368,27.340828,30.411884,27.828437,46.29206,36.019329,59.114547,48.25748,0.0,-65.496414,-15.795416,-93.87139,-6.764122,-48.698857,-0.237227,-31.979606,4.387237,-21.179644,16.670437,279.202626,-102.101509,112.984868
67,0.000869,0.215781,-0.365548,-0.256376,0.0,-62.613933,-33.691108,-96.056316,-27.927726,-98.35762,-19.905006,-86.369899,-10.342163,-63.831562,0.0,18.911261,26.643042,48.833745,44.807074,64.026063,58.188969,79.074885,66.913981,85.586873,0.0,30.318787,10.935711,27.411061,30.181607,27.990212,46.111908,36.071801,59.074608,48.373066,0.0,-65.547173,-15.58907,-93.865529,-6.390216,-48.792433,0.217306,-31.674077,4.865692,-20.588717,16.847242,279.267186,-102.291121,112.577271
68,0.077408,0.193661,-0.387531,0.142249,0.0,-62.549572,-33.791565,-96.171432,-28.04013,-98.435623,-20.065246,-86.397194,-10.569717,-63.908317,0.0,18.634719,26.51312,48.716876,44.644153,63.983159,58.047746,78.958523,66.803387,85.437809,0.0,30.036839,11.171837,27.641247,30.298897,28.318783,46.104618,35.958355,58.998848,48.311703,0.0,-65.770463,-15.435491,-93.674912,-6.060958,-50.06516,0.577996,-32.482341,5.160241,-20.848125,17.091316,279.311485,-102.511986,112.570158
69,0.055802,0.025775,-0.361793,0.042046,0.0,-62.980752,-33.903969,-96.365868,-28.118935,-98.521042,-20.145058,-86.419739,-10.666443,-63.883507,0.0,18.480194,26.59631,48.926296,44.672039,64.223998,58.018168,79.152271,66.708143,85.521394,0.0,29.941051,11.246704,27.871673,30.430492,28.430706,46.198745,35.934173,59.01464,48.315044,0.0,-66.143454,-15.001565,-93.249421,-5.446405,-50.85199,1.14011,-33.279619,5.584034,-21.091996,17.251465,279.226449,-102.769432,112.501393
70,0.003616,0.007608,-0.200535,0.279642,0.0,-63.426418,-34.03711,-96.568176,-28.267639,-98.696354,-20.299805,-86.596687,-10.870995,-63.916969,0.0,18.675399,26.675091,49.210064,44.714486,64.464108,58.010498,79.37472,66.641118,85.650316,0.0,29.834759,11.359085,28.134464,30.612797,28.435558,46.352405,36.130096,59.08152,48.497452,0.0,-66.129189,-14.783999,-92.936167,-5.148761,-50.570555,1.368729,-33.272906,5.701694,-20.965895,17.362724,279.106802,-102.862324,112.65378
71,-0.068962,0.060997,-0.39933,-0.043873,0.0,-63.886437,-33.8993,-96.634575,-28.127175,-98.647385,-20.176117,-86.427246,-10.845154,-63.575066,0.0,19.103539,26.774287,49.709835,44.769456,64.937659,57.995258,79.852347,66.532042,85.891081,0.0,30.820793,11.591526,28.538692,30.844722,28.560722,46.494598,36.465809,59.106125,48.710357,0.0,-66.091948,-14.531237,-92.706443,-4.863012,-49.868633,1.642474,-32.777885,5.896658,-20.257877,17.396874,279.054036,-103.158542,112.496144
72,-0.102494,0.127453,-0.585389,-0.145558,0.0,-64.158153,-33.810356,-96.772911,-27.979064,-98.554378,-19.998847,-86.136199,-10.721328,-63.230255,0.0,19.428976,26.913744,50.244358,44.925054,65.567476,58.109879,80.424354,66.555841,86.199067,0.0,31.476529,11.979573,29.045506,31.184807,28.716591,46.714028,36.883164,59.206295,48.958535,0.0,-65.961123,-14.469906,-92.602011,-4.8331,-48.923506,1.693937,-32.277435,5.963113,-19.803808,17.397857,279.089546,-103.640454,112.258643
73,-0.482734,0.156549,-0.672855,-0.159409,0.0,-64.010994,-33.57209,-96.214302,-27.651879,-97.919003,-19.597367,-85.410977,-10.254273,-62.542568,0.0,19.939591,27.033404,50.775116,45.0748,66.273111,58.224427,80.955939,66.667412,86.937343,0.0,32.049248,12.324303,29.340443,31.476952,28.890976,46.934898,37.281349,59.355492,49.252556,0.0,-65.740637,-14.545377,-92.652214,-5.007532,-48.444693,1.486592,-32.066995,5.790867,-19.724063,17.038262,279.206532,-104.19017,112.059671
74,-0.535332,0.210038,-0.764854,-0.373102,0.0,-63.544956,-33.123024,-95.2859,-27.100479,-97.026775,-18.928802,-84.310192,-9.470306,-61.370464,0.0,20.477832,27.141097,51.433116,45.188902,67.036284,58.324376,81.633242,66.766608,87.748101,0.0,32.503338,12.54071,29.786945,31.600856,29.1217,47.031726,37.592182,59.447502,49.343914,0.0,-65.437548,-14.463991,-92.568561,-4.978677,-47.971197,1.545644,-31.780368,5.98304,-19.35626,16.727743,279.417817,-104.730211,111.687816
75,-0.219635,0.128589,-1.08886,0.092113,0.0,-63.358131,-32.602638,-94.460335,-26.400124,-96.067142,-18.10881,-83.191429,-8.555626,-60.256245,0.0,20.855374,27.378194,52.094574,45.443141,68.076223,58.561485,82.591473,67.010917,88.814309,0.0,32.861824,12.721871,30.23386,31.638474,29.707832,47.007935,37.716499,59.360447,49.208027,0.0,-65.452448,-14.413547,-92.585474,-5.036944,-48.780683,1.490951,-32.47884,6.029143,-19.922437,16.824491,279.577155,-105.502688,111.810678
76,0.103363,0.071915,-1.194832,1.447288,0.0,-63.127338,-32.216858,-93.822842,-25.837692,-95.190777,-17.450706,-82.181511,-7.821167,-59.268528,0.0,20.906972,27.6958,52.691639,45.803331,68.806767,58.924108,83.22639,67.361993,89.875365,0.0,31.870274,12.869053,31.067597,31.483784,30.202332,46.765663,37.924164,59.110646,49.207649,0.0,-65.865009,-15.053436,-92.313618,-5.666502,-50.103865,1.017189,-33.59995,5.850067,-20.925554,17.468588,279.670034,-106.156786,113.27893
77,0.463532,0.024811,-1.26812,2.565556,0.0,-63.028988,-31.944947,-93.347145,-25.463608,-94.692215,-17.011139,-81.567936,-7.300576,-58.611397,0.0,20.733948,28.033563,53.047593,46.102117,69.143171,59.152449,83.564696,67.514763,90.566859,0.0,31.900841,12.826149,32.011334,31.058327,31.252076,46.323189,38.446644,58.814049,49.40371,0.0,-66.216214,-15.686296,-89.81343,-6.087269,-53.233227,0.838966,-34.760813,5.932443,-21.42722,18.786101,279.698642,-106.570925,115.848283
78,0.900833,-0.35441,-1.481872,3.20702,0.0,-63.474873,-31.610825,-93.35574,-25.13205,-94.66087,-16.776581,-81.656124,-7.248688,-58.909516,0.0,20.631504,28.393765,53.396198,46.479547,69.129413,59.534634,83.729384,67.845906,90.958406,0.0,32.448566,13.157204,32.5933,31.071247,32.728042,46.24094,39.124431,58.723446,49.645008,0.0,-66.752924,-15.159646,-82.722766,-5.053079,-53.160114,2.346905,-32.667221,7.780849,-19.586088,20.794373,279.2362,-106.945358,118.947271
79,0.984741,-0.698496,-1.558067,5.254862,0.0,-63.996906,-31.346718,-93.646385,-24.868195,-94.763558,-16.644676,-81.892571,-7.394669,-59.325703,0.0,20.361618,28.636988,53.312946,46.807936,69.028253,59.85665,83.732731,68.037468,91.057589,0.0,33.32032,14.167511,33.188301,31.524662,33.855949,46.244602,40.286361,58.375911,50.32315,0.0,-67.020816,-14.220243,-74.668877,-3.521435,-49.542788,4.360184,-29.516024,10.046359,-16.974812,23.051411,278.303009,-107.231128,123.967438
80,1.003075,-0.922156,-1.645363,6.274484,0.0,-64.360726,-31.380639,-94.031743,-25.039879,-95.290078,-16.985894,-82.470189,-7.925698,-60.097458,0.0,19.840308,28.736863,52.906283,46.88894,68.36477,59.936938,83.368391,68.056055,90.884738,0.0,35.925419,15.225071,33.719593,31.878044,34.526172,46.023422,41.712146,57.844471,50.889255,0.0,-66.156903,-12.528745,-64.573765,-0.967617,-43.247791,7.504348,-24.286734,13.43487,-12.143188,25.444176,277.032136,-107.486801,129.893205
81,0.590766,-1.146767,-1.520668,6.660905,0.0,-64.571399,-31.4943,-94.387619,-25.262741,-95.760807,-17.315528,-83.059021,-8.394653,-60.945533,0.0,19.565482,28.673063,52.595506,46.776493,67.866568,59.801655,83.078152,67.855564,90.459117,0.0,38.635437,16.567737,34.091251,32.641262,35.655819,46.22462,43.136215,57.513084,51.487827,0.0,-63.984504,-9.865647,-55.338996,2.359397,-37.488878,11.20594,-19.443025,17.202473,-7.673946,27.439767,275.496552,-107.602644,136.165293
82,0.349526,-1.480466,-1.760102,8.925109,0.0,-65.015865,-31.693314,-94.901356,-25.626686,-96.222199,-17.849945,-83.773727,-9.124603,-62.113289,0.0,19.204983,28.746187,52.035985,46.911294,67.471365,59.946559,82.796348,67.978188,90.236,0.0,40.134808,19.406983,39.998669,35.171231,36.612774,47.808632,44.742188,57.944939,52.141022,0.0,-59.039304,-6.454765,-49.685036,5.635021,-29.589902,13.979749,-14.514429,19.374377,-3.686253,29.299267,273.532197,-107.852772,144.606513
83,0.323753,-1.341861,-0.548252,9.775868,0.0,-65.56596,-32.118507,-95.586067,-26.173324,-96.87743,-18.50338,-84.629184,-9.853157,-63.016525,0.0,18.624838,28.690192,51.266229,46.882555,66.919551,59.874014,82.446988,67.810609,89.776824,0.0,42.350659,21.946678,43.716282,36.823872,37.547619,48.176228,45.859738,57.08852,51.834721,0.0,-52.336457,-2.451158,-43.95398,9.147298,-22.584898,16.610725,-10.82791,20.947185,-1.054957,31.383733,271.623609,-106.640311,153.815654
84,0.059143,-1.082535,0.448323,8.318237,0.0,-65.676658,-32.508888,-96.154667,-26.692382,-97.533107,-19.127792,-85.276085,-10.529777,-63.61861,0.0,18.087042,28.25936,50.538662,46.443572,66.356684,59.478553,82.012958,67.500191,89.412485,0.0,46.754814,22.917171,44.982891,36.757404,38.286907,47.225166,45.88195,55.560436,50.590541,0.0,-45.014395,2.160968,-36.491214,13.581546,-17.431554,20.460567,-6.392155,23.960778,2.495816,33.265829,269.904224,-104.369035,161.497041
85,-0.706649,-0.742561,1.255897,10.331091,0.0,-65.433598,-32.853219,-96.407296,-27.18068,-97.874051,-19.734971,-85.57433,-11.204613,-64.079167,0.0,17.470303,28.077382,49.721914,46.292234,65.576134,59.328932,81.008612,67.379926,88.373695,0.0,50.353621,24.339398,51.384287,36.805573,41.556553,45.989771,47.338423,53.096758,50.666096,0.0,-37.680089,5.999707,-30.512823,18.00605,-13.268552,25.233719,-2.15349,28.976406,7.004257,34.33215,268.623468,-101.340168,171.289937
86,-0.664284,-0.52657,1.751713,12.542979,0.0,-65.23621,-33.28244,-96.640206,-27.864578,-98.341049,-20.59655,-85.909928,-12.133393,-64.52013,0.0,16.840325,27.970676,48.575492,46.102993,64.448781,59.094341,79.954063,67.176359,87.425776,0.0,54.944853,26.025043,62.818354,36.660427,46.838013,44.074831,50.216017,49.500372,51.665199,0.0,-30.364339,9.366104,-23.769827,22.909131,-7.821907,31.466472,3.549629,36.484489,14.067404,35.36816,267.566499,-97.888161,183.302517
87,-0.970436,-0.11325,3.535835,11.649351,0.0,-61.795018,-33.750778,-96.442143,-28.719612,-98.586823,-21.590126,-86.246487,-13.092316,-64.824509,0.0,14.897496,27.371104,47.582595,45.33052,63.058582,58.344024,78.462938,66.65085,86.353764,0.0,59.642847,25.577133,70.010622,33.429474,57.574516,38.967287,58.47024,43.013174,56.685551,0.0,-24.990003,12.187394,-12.687728,28.163387,-1.018678,38.735311,11.125886,45.036378,22.246604,35.797732,266.876889,-92.952318,194.375508
88,-2.430268,0.698755,3.608654,12.194842,0.0,-61.708259,-32.87416,-94.034019,-28.092292,-96.612876,-21.042183,-84.361049,-12.361335,-62.83073,0.0,11.040282,26.330907,45.151605,43.432313,61.003392,56.1774,75.951414,64.568997,84.209346,0.0,64.074984,25.687878,80.948359,30.594143,70.37851,34.199862,68.704062,36.799204,63.003422,0.0,-20.28561,15.082352,-3.209089,33.014314,9.122765,45.339023,22.651465,52.956782,34.418438,34.232706,267.158671,-88.478422,206.153377
89,-0.632286,10.67677,3.68652,13.505062,0.0,-63.291309,-32.79483,-93.683681,-28.964447,-93.362583,-22.740188,-81.046199,-14.712524,-62.113243,0.0,14.07119,21.505457,36.948198,31.180697,43.659023,37.588538,51.658752,41.099431,55.284304,0.0,66.242094,26.845447,92.898897,29.140388,81.417812,30.529215,76.673315,31.058447,66.713699,0.0,-16.194052,16.709871,3.941745,36.329644,17.358158,50.348562,31.450244,59.36913,44.675021,34.150457,277.567096,-84.241865,219.390094
90,-1.356491,0.399377,4.965374,12.53295,0.0,-62.357986,-28.740532,-87.363842,-25.321838,-89.747635,-20.271126,-80.414783,-13.702492,-62.926643,0.0,10.193017,19.35763,28.457306,29.852816,36.962302,36.981543,46.50668,40.984378,54.556662,0.0,68.313457,27.653789,98.509964,27.090706,89.912613,26.198318,83.018692,24.77132,69.396766,0.0,-12.491528,19.306846,13.932375,39.2135,28.073244,53.474868,42.142161,62.452934,54.609026,33.176782,277.692486,-78.893675,231.649057
91,-0.369667,1.028428,5.688766,10.652576,0.0,-62.81932,-23.714149,-81.692917,-21.394455,-84.881389,-18.269417,-79.177185,-14.018852,-64.453193,0.0,7.027506,17.886414,21.412029,29.087383,29.877393,36.730911,40.846218,40.856876,52.471746,0.0,69.526497,27.444557,99.537529,24.486786,97.034935,21.755883,88.404053,18.998852,70.797158,0.0,-8.997529,22.465911,24.357721,41.828629,39.259034,55.419117,52.863984,63.296815,63.582534,33.020742,278.491141,-72.991282,242.07186
92,-1.016556,1.489012,4.409054,9.073753,0.0,-64.913692,-21.42025,-70.942703,-19.696746,-73.992565,-17.60115,-71.305652,-14.535987,-60.229076,0.0,5.664588,16.679713,18.354322,27.899232,26.866543,35.692072,37.292927,39.815122,48.810996,0.0,70.771374,28.414215,99.576656,23.76519,98.650898,19.585602,88.251011,15.725304,68.747166,0.0,-6.604997,25.326253,32.01812,44.130204,48.065002,57.207064,61.703025,64.647433,71.134672,32.101982,279.890723,-68.484432,251.056183
93,1.190186,1.77036,4.80193,8.264317,0.0,-59.199623,-23.680286,-54.069317,-23.353638,-54.937878,-22.264275,-55.078365,-20.218254,-51.465077,0.0,6.041648,15.763942,18.38537,27.165995,26.603856,35.034269,35.611598,39.320291,46.419588,0.0,71.132423,29.024276,98.189552,23.246269,97.198333,17.775478,85.844467,12.660621,65.799659,0.0,-5.300729,27.034096,37.786806,45.548599,53.730343,58.43423,66.741031,65.839031,75.235047,33.391445,281.592024,-63.583225,259.251441
94,-9.703732,-6.896755,4.465473,7.369406,0.0,-41.745334,-17.794796,-24.827327,-19.215168,-27.624401,-20.349437,-32.080547,-20.859752,-34.75391,0.0,-2.686452,18.185607,22.983824,37.506644,40.665079,52.272193,55.427454,62.368854,70.918903,0.0,70.948368,29.48743,97.792225,22.663238,97.764827,16.157226,86.18391,10.196811,65.788181,0.0,-4.364433,28.767652,43.331931,46.894831,59.551875,59.297142,72.531293,66.318756,79.140933,23.771965,274.664863,-59.0335,266.590441
95,-6.451721,3.675718,3.002357,5.391601,0.0,-29.631866,-18.168651,-3.795067,-21.792846,-2.274433,-24.672718,-8.086635,-26.867374,-18.074363,0.0,-3.601062,18.023426,29.180046,36.946506,45.34108,51.635225,57.257847,62.268856,68.481417,0.0,70.26685,29.638767,98.318012,22.426758,98.183109,15.420742,86.203915,9.136574,65.323918,0.0,-3.569865,29.695514,46.579558,47.798079,62.515635,60.080088,75.194823,67.040273,80.972722,17.393915,278.340436,-55.957472,271.981897
96,-8.178783,4.568925,2.086315,3.9099,0.0,-14.253216,-18.385517,18.420341,-23.622608,21.728199,-26.802407,14.214729,-28.627236,-1.810742,0.0,-4.672839,16.991367,34.082745,35.7556,50.08219,50.321708,59.230933,61.587477,66.140323,0.0,69.58651,30.060768,97.84195,22.31472,96.99765,14.79459,84.698433,8.175454,63.979569,0.0,-3.536088,30.567207,49.762607,48.45319,64.72199,60.387556,76.81324,67.141371,81.429873,9.270155,282.924286,-53.816134,275.906722
97,-8.525345,6.25423,2.571534,3.454219,0.0,2.914261,-13.105579,37.43708,-20.12637,40.346146,-24.760563,29.227203,-27.914234,7.449383,0.0,-8.946474,13.738985,32.754456,32.839425,49.556645,47.81243,57.300097,59.816969,62.938823,0.0,68.870338,30.001579,96.573875,21.755138,95.30017,13.706188,82.387413,6.581176,61.576904,0.0,-3.356863,31.570812,53.17144,49.035015,67.539328,60.56457,78.353493,67.148004,82.068892,0.80072,289.225814,-51.18869,279.408239
98,-1.53582,3.049408,1.188549,2.148347,0.0,4.338272,-13.334553,39.592758,-22.008316,41.411293,-28.19941,29.137276,-32.855118,5.591183,0.0,-11.694194,13.331321,32.53665,33.697978,49.435614,49.457338,57.424598,62.12441,63.172499,0.0,68.464725,29.795883,95.871952,21.345005,94.313861,13.137783,80.938213,5.971447,59.93732,0.0,-2.690058,32.315164,55.504889,49.660237,69.238242,60.966836,78.951903,67.408071,82.107584,-0.681004,292.330729,-49.946045,281.612093
99,2.309223,4.09656,0.722774,1.634323,0.0,3.195248,-15.187683,36.91721,-24.404194,38.232754,-30.399204,24.94495,-34.525532,1.596428,0.0,-14.033547,12.812395,33.232861,32.751356,48.594301,47.994211,56.172991,60.183124,60.879891,0.0,68.472084,29.601208,95.333313,20.902634,93.484497,12.510178,79.51664,5.213253,58.434197,0.0,-1.994884,32.896803,57.117859,50.064307,70.391184,61.147074,79.158693,67.505513,82.057381,1.676514,296.48117,-49.174976,283.300297
100,-2.774792,6.527524,0.658264,0.872089,0.0,9.838257,-11.101661,40.966965,-20.622814,40.372742,-26.620216,25.236123,-30.464859,1.500882,0.0,-20.898673,9.630854,29.866575,28.921374,44.027106,43.739201,51.353026,55.476595,54.936329,0.0,68.448281,29.407379,94.758888,20.473526,92.635346,11.873211,78.203179,4.364342,56.994759,0.0,-1.564027,33.49514,57.740587,50.546788,70.782324,61.452516,79.176539,67.732903,81.940042,-1.053532,303.078774,-48.471966,284.242466
101,7.789639,0.203937,0.446984,0.630175,0.0,-0.302719,-19.765389,32.498737,-29.827892,32.504093,-35.755142,18.368282,-39.391422,-5.635162,0.0,-21.93261,9.778573,30.54394,29.406498,44.495964,44.487801,51.240196,56.347819,55.332494,0.0,68.686889,29.300056,94.277069,20.347423,91.910408,11.713256,77.34748,4.101425,56.405914,0.0,-0.984944,33.510701,57.472442,50.563411,70.307179,61.493148,78.642299,67.881191,81.486782,6.788778,303.341328,-47.972311,284.931258
102,-0.05983,-1.123314,-0.20501,0.360795,0.0,-1.328842,-20.622631,32.190937,-30.815059,33.039906,-36.996197,20.695095,-41.157417,-2.337971,0.0,-20.848791,11.343255,32.968175,30.964189,45.675459,45.885373,52.834838,57.473356,57.007832,0.0,69.217941,29.105953,94.139145,20.264992,91.66848,11.711907,77.261719,4.123604,56.322968,0.0,-0.317211,33.231862,56.405754,50.317472,69.178802,61.306081,77.888895,67.746859,81.154047,6.765278,302.276325,-48.140991,285.350364
103,1.405014,0.421706,-0.167518,0.089625,0.0,-4.268886,-23.283359,29.867214,-33.268398,31.556774,-38.713463,19.242245,-41.995548,-3.996448,0.0,-19.636977,11.250851,33.501958,30.942662,45.461296,45.866428,52.198562,57.47343,56.220786,0.0,69.626586,28.62957,93.755355,19.776363,90.966316,11.251396,76.849983,3.687927,55.855316,0.0,0.231564,32.862989,55.529231,49.980944,68.125092,60.987029,77.223781,67.367205,80.809837,8.21026,302.741154,-48.268541,285.483112
104,2.103104,-1.014547,-0.259484,-0.179138,0.0,-6.790547,-25.717552,27.796497,-35.631329,29.154957,-40.719475,16.910808,-43.542172,-6.763378,0.0,-17.952154,11.841704,33.516555,31.528266,45.911197,46.321627,52.498595,57.662214,56.374372,0.0,69.864372,28.399292,93.467446,19.449211,90.480858,10.856941,76.64225,3.231251,55.341705,0.0,0.912375,32.57028,55.033906,49.748096,67.508132,60.774187,76.933122,67.061973,80.74931,10.373806,301.76408,-48.467583,285.341447
105,9.33997,-4.660884,-0.360203,-0.155278,0.0,-22.246846,-37.327378,16.253242,-47.295491,19.510963,-51.405613,9.234626,-52.898701,-14.60328,0.0,-11.985569,15.211745,37.107626,35.84026,49.941053,50.899148,56.395318,62.326383,61.061117,0.0,70.122494,28.140461,93.221798,19.204136,90.06268,10.659233,76.333844,3.098111,54.953534,0.0,1.503339,32.225478,54.662898,49.512444,66.981957,60.62364,76.552418,66.903089,80.603147,19.799052,297.118125,-48.74251,285.201098
106,-7.147248,1.656492,-0.308727,-0.112311,0.0,-13.09378,-28.783527,24.312584,-38.228679,26.582199,-42.639049,15.820839,-44.981495,-6.86895,0.0,-13.758535,14.181056,34.980089,34.185843,47.72451,48.865534,54.786423,59.941533,58.830359,0.0,70.311699,27.932408,93.090683,19.046688,90.115677,10.560837,76.531815,3.079228,55.129395,0.0,2.008185,31.973696,54.415698,49.433205,66.576256,60.67488,76.270774,66.976324,80.52334,12.751533,298.789431,-48.951508,285.103601
107,0.538651,3.29147,-0.094894,-0.252325,0.0,-12.776001,-29.047589,24.365364,-38.35207,26.036956,-42.424267,14.179573,-43.963475,-11.678387,0.0,-17.622382,12.499383,31.954863,32.221563,44.570484,46.604691,51.585244,57.506368,54.836317,0.0,70.123649,27.759006,92.773842,18.814899,89.758049,10.310875,76.189224,2.85411,54.683372,0.0,2.409884,31.964768,54.50121,49.518767,66.6334,60.782759,76.437896,67.027491,80.606926,13.407904,302.084766,-48.928682,284.855141
108,-2.004433,-0.520062,-0.144654,-0.140507,0.0,-9.908352,-27.695972,27.196175,-37.110958,28.612953,-41.427761,16.532295,-43.30402,-9.349583,0.0,-18.160327,12.616511,31.529415,32.585001,44.371932,47.041414,51.828183,57.951798,55.181922,0.0,69.945992,27.813401,92.73967,18.822659,89.938179,10.296673,76.236512,2.885399,54.538422,0.0,2.7391,32.021146,54.563072,49.679726,66.762891,60.966701,76.599114,67.173185,80.761907,11.537178,301.571518,-48.939629,284.721448
109,-5.704159,0.275617,-0.139389,-0.220288,0.0,-3.877052,-22.681904,32.586949,-31.948024,34.330342,-36.558609,22.061199,-39.032421,-3.098968,0.0,-18.934912,11.42248,31.205879,31.674244,43.785192,46.679779,51.54749,58.172939,55.195581,0.0,69.929169,27.671894,92.572541,18.744404,89.879494,10.374585,76.111588,3.164418,55.006737,0.0,2.68702,32.258922,54.751151,50.011202,66.782354,61.343353,76.423434,67.55705,80.595897,5.955293,301.854718,-48.956744,284.508743
110,-0.546249,-0.201405,-0.080097,-0.137654,0.0,-2.749443,-21.825359,33.102115,-31.250427,34.489231,-36.085522,22.352222,-38.76931,-2.591904,0.0,-18.555419,11.046704,31.491401,31.190763,43.999552,46.24308,51.735125,57.914353,55.232125,0.0,69.8363,27.53611,92.475186,18.732903,90.035397,10.547665,76.293766,3.544441,55.715687,0.0,2.734469,32.378001,54.735862,50.16438,66.954033,61.550254,76.557976,67.815859,80.581719,5.547821,301.660618,-48.898064,284.378394
111,-2.143662,0.652356,-0.043281,-0.073952,0.0,0.353714,-19.533348,34.695385,-28.891262,36.076252,-33.912574,23.447262,-36.824638,-1.21186,0.0,-19.359261,10.164599,30.941328,30.252268,43.438265,45.41082,51.073679,57.271358,54.755782,0.0,69.704601,27.416748,92.417598,18.72916,90.191722,10.686298,76.336315,3.818527,56.00085,0.0,2.740112,32.504824,54.655339,50.248162,67.113904,61.635741,76.581873,67.952611,80.453562,3.540596,302.310276,-48.804908,284.301744
112,7.551155,-4.148183,0.095226,0.024823,0.0,-11.993362,-28.588806,25.337895,-38.333324,28.224621,-42.984603,17.477406,-45.418693,-4.614658,0.0,-14.667884,12.684201,34.429634,33.519692,47.149984,49.076609,54.512733,61.221322,59.597681,0.0,69.602119,27.234615,92.250938,18.665405,90.35186,10.744984,76.408424,4.021786,56.512344,0.0,2.76175,32.518323,54.67074,50.337553,67.138716,61.83301,76.450493,68.246469,80.290023,11.21977,298.151879,-48.581663,284.316353
113,-8.131462,2.942247,0.130978,-0.142013,0.0,0.233185,-18.739471,32.773785,-27.942192,35.528859,-32.984527,24.523808,-36.238083,3.994343,0.0,-17.231058,10.27554,31.488486,30.260641,44.316405,45.56348,51.984646,57.589039,56.520991,0.0,69.521999,27.081104,91.999935,18.530765,90.016628,10.683071,76.120891,4.037681,56.848011,0.0,2.688773,32.606428,54.850989,50.490249,67.298958,62.062264,76.523185,68.511403,80.288491,3.207962,301.074817,-48.331031,284.155031
114,7.987965,-1.304367,0.211418,0.006372,0.0,-11.792164,-27.852207,23.943878,-36.864006,27.748695,-41.03088,17.932571,-42.98782,-3.220779,0.0,-14.653088,11.9872,32.444679,32.190268,45.654957,47.38902,52.530211,59.225796,57.550236,0.0,69.284191,27.042801,91.711475,18.50798,89.782802,10.616443,75.92403,3.933609,56.761791,0.0,2.838,32.60218,54.836812,50.495375,67.415976,62.113752,76.806398,68.597866,80.464183,11.319048,299.743002,-47.996492,284.133955
115,-8.897129,3.073664,0.128952,0.011239,0.0,0.791553,-17.641663,33.238186,-26.105038,36.795032,-30.695961,26.074436,-33.574173,5.832355,0.0,-17.897591,9.607092,28.438683,29.216615,42.451136,44.245084,49.772339,55.963275,54.415809,0.0,69.164737,27.071479,91.523494,18.483833,89.525013,10.544861,75.642734,3.853271,56.584247,0.0,2.847237,32.630326,54.989248,50.628829,67.486902,62.311093,76.794196,68.784908,80.389453,2.509615,302.778791,-47.779844,284.107319
116,7.511627,-2.500632,0.073322,-0.151412,0.0,-10.488029,-27.086964,25.122334,-35.830604,29.470677,-39.821766,19.714497,-41.595886,-1.917377,0.0,-15.220402,11.84526,30.810096,32.071027,44.879755,47.267334,51.589122,58.972644,56.740786,0.0,69.122383,27.113789,91.399841,18.423248,89.17424,10.400883,75.309631,3.67234,56.338074,0.0,2.929847,32.741378,55.277376,50.820675,67.705115,62.524849,76.968418,68.931614,80.546361,10.091457,300.239179,-47.636307,283.916927
117,-8.47546,2.262461,-0.036381,-0.124773,0.0,0.862255,-17.863586,33.964211,-26.163586,38.049225,-30.466106,27.714684,-33.076755,7.287849,0.0,-17.996911,9.935048,27.974233,29.637345,42.210729,44.739902,49.68506,56.508592,54.408584,0.0,69.148648,27.255684,91.434323,18.505806,89.025616,10.449417,75.099415,3.711674,56.165257,0.0,3.039714,32.849181,55.46653,50.95786,67.889107,62.664046,77.083422,69.034318,80.636899,1.669424,302.452533,-47.619261,283.743047
118,8.168999,-2.947594,0.0164,0.01503,0.0,-12.000527,-27.47422,25.656074,-36.219189,29.834747,-40.089478,20.194198,-41.80893,-1.547745,0.0,-15.23731,12.389689,31.269778,32.720913,45.29857,47.965546,52.159424,59.757775,57.395908,0.0,69.075416,27.260009,91.32051,18.499019,88.973625,10.425716,74.950813,3.690673,55.925766,0.0,3.131746,32.836128,55.499727,50.937767,67.935333,62.645509,77.018288,69.025092,80.589438,9.869139,299.453927,-47.572145,283.707065
119,-5.77628,1.664803,-0.095547,0.003458,0.0,-2.785503,-20.882377,32.04665,-29.636684,35.719609,-33.835647,25.510449,-36.126388,4.702984,0.0,-17.937186,10.90495,29.253665,30.857558,43.402228,46.047134,51.245345,57.935583,55.962151,0.0,69.18156,27.155949,91.3484,18.361427,88.964069,10.316494,74.906284,3.640056,55.813625,0.0,3.239328,32.707897,55.506001,50.849698,67.904075,62.580325,76.808374,68.961415,80.427368,4.102501,301.074131,-47.65805,283.665924
120,-1.153919,-0.601622,-0.094677,-0.162515,0.0,-0.611275,-20.162281,33.470902,-28.92746,37.283753,-33.213684,27.543503,-35.402344,7.055122,0.0,-17.166824,11.313454,30.554474,31.398689,44.744065,46.617868,52.311046,58.531956,56.858162,0.0,69.204529,27.158775,91.283203,18.280769,88.839752,10.14648,74.906708,3.374565,55.694572,0.0,3.559208,32.678108,55.636825,50.752145,67.941336,62.468372,76.957365,68.862183,80.666848,2.950052,300.433307,-47.751257,283.464207
