takenoko1/special-research/HandMotion_SimilarSearch_自分用/NewProject/handData/test_key/d4_feature_d3/137.csv
frame,vel_0x_L,vel_0y_L,vel_0x_R,vel_0y_R,posFromWrist_0x_L,posFromWrist_1x_L,posFromWrist_2x_L,posFromWrist_3x_L,posFromWrist_4x_L,posFromWrist_5x_L,posFromWrist_6x_L,posFromWrist_7x_L,posFromWrist_8x_L,posFromWrist_9x_L,posFromWrist_0y_L,posFromWrist_1y_L,posFromWrist_2y_L,posFromWrist_3y_L,posFromWrist_4y_L,posFromWrist_5y_L,posFromWrist_6y_L,posFromWrist_7y_L,posFromWrist_8y_L,posFromWrist_9y_L,posFromWrist_0x_R,posFromWrist_1x_R,posFromWrist_2x_R,posFromWrist_3x_R,posFromWrist_4x_R,posFromWrist_5x_R,posFromWrist_6x_R,posFromWrist_7x_R,posFromWrist_8x_R,posFromWrist_9x_R,posFromWrist_0y_R,posFromWrist_1y_R,posFromWrist_2y_R,posFromWrist_3y_R,posFromWrist_4y_R,posFromWrist_5y_R,posFromWrist_6y_R,posFromWrist_7y_R,posFromWrist_8y_R,posFromWrist_9y_R,posFromBody_0x_L,posFromBody_0y_L,posFromBody_0x_R,posFromBody_0y_R
6,-3.404721,2.427792,0.029846,-0.187178,0.0,7.136113,-16.183422,37.2067,-26.06306,40.810513,-32.05735,29.107098,-36.001487,7.183629,0.0,-15.442173,8.059565,29.994744,28.698887,45.337881,45.286826,53.801047,58.598523,57.853022,0.0,67.751129,27.201405,90.946015,19.056279,90.354103,11.098561,75.988747,4.031994,55.311196,0.0,2.160474,30.456081,52.732543,48.294417,65.533823,60.3005,74.531253,67.3975,78.147703,4.127809,298.855528,-42.684214,285.254308
7,-3.639198,-2.731739,-0.150203,-0.228674,0.0,10.607105,-13.308185,42.982784,-22.885666,45.250546,-28.871624,34.739239,-32.698528,13.732945,0.0,-13.169647,10.5455,32.118871,31.143598,48.629165,47.318871,57.06053,59.912052,61.464606,0.0,67.520565,27.052894,91.127849,18.918514,90.502613,10.986831,76.183994,3.920173,55.530315,0.0,2.105442,30.420575,52.783746,48.255761,65.62278,60.249939,74.689902,67.360721,78.419503,0.551903,296.13915,-42.771125,285.040995
8,-1.637947,-0.447234,0.009361,-0.00084,0.0,11.467907,-10.827976,44.930729,-20.503052,46.837406,-26.879986,35.534214,-31.173626,13.597813,0.0,-14.023543,11.094252,32.720345,31.58851,48.995309,47.533936,57.385312,59.869988,61.735468,0.0,67.300724,26.827869,91.077267,18.773563,90.471302,10.93111,76.094776,3.939445,55.554531,0.0,2.070393,30.353378,52.818487,48.134792,65.667834,60.108382,74.609059,67.250336,78.40351,-1.035799,295.70995,-42.711519,285.058189
9,2.682564,-0.519074,-0.063721,-0.014462,0.0,8.81789,-13.9888,41.472553,-23.758324,44.093479,-29.60899,33.118023,-33.256828,11.249416,0.0,-13.439063,10.821784,32.616172,31.643752,49.03394,47.903426,57.804277,60.497632,62.57478,0.0,67.166073,26.74601,91.240139,18.751728,90.741291,10.974026,76.265247,4.019783,55.67181,0.0,1.916128,30.29332,52.609462,48.061309,65.614802,60.041284,74.447569,67.237776,78.324581,1.687758,295.21729,-42.734247,285.070141
10,-0.514481,-0.027516,0.080944,0.025454,0.0,8.790745,-13.566662,41.999073,-23.452915,44.951489,-29.424362,33.672444,-33.149059,11.59084,0.0,-13.662192,10.808928,33.013586,31.467467,49.313743,47.611494,57.974436,60.123178,62.587896,0.0,67.112892,26.514622,91.215821,18.56115,90.830361,10.873535,76.260086,4.025105,55.741196,0.0,1.747709,30.22842,52.400547,48.032064,65.480408,60.075296,74.148561,67.374553,78.103378,1.210224,295.213955,-42.616356,285.119776
11,-2.294288,0.652418,0.015782,-0.01466,0.0,10.793163,-10.631081,44.918163,-20.398007,47.666919,-26.757832,36.090603,-31.20076,14.124172,0.0,-14.564131,9.968258,32.593238,30.590413,48.763411,46.905069,57.287673,59.672869,61.884027,0.0,67.0834,26.303661,91.314525,18.328033,90.90398,10.692512,76.023594,3.947147,55.653865,0.0,1.560618,30.297902,52.404487,48.104164,65.450966,60.160487,73.957814,67.476182,77.882016,-1.059385,295.887396,-42.575895,285.126139
12,7.383716,-0.799359,-0.090546,0.056971,0.0,1.331887,-17.598358,36.155915,-28.14656,39.397133,-34.877083,27.144013,-39.873482,4.2873,0.0,-16.212262,9.541217,32.228083,30.460243,48.366578,47.169658,57.137495,60.556752,61.846199,0.0,67.320637,26.334206,91.539951,18.314472,91.276348,10.680416,76.136387,4.003864,55.825848,0.0,1.325374,30.190789,52.457407,48.071053,65.403035,60.185583,73.807192,67.518395,77.816066,6.342584,295.102156,-42.648188,285.197229
13,-4.988605,2.014471,-0.166386,-0.139519,0.0,9.904964,-14.172501,40.027416,-24.207791,44.45644,-30.181309,33.255077,-34.326817,11.995205,0.0,-15.914563,7.73209,30.099152,28.743631,46.469149,45.655315,55.494021,59.201985,59.847795,0.0,67.524353,26.330807,91.692627,18.330849,91.416481,10.768879,76.361321,4.194638,56.199372,0.0,1.29293,30.359986,52.436647,48.27856,65.342705,60.392459,73.729523,67.710179,77.813288,1.367295,297.128415,-42.801258,285.069498
14,-4.121132,0.338676,-0.06419,-0.070543,0.0,14.708072,-9.296265,45.911373,-19.162525,48.271648,-25.744663,36.878231,-30.547268,15.787411,0.0,-17.129354,8.831964,31.317821,29.450291,47.173042,45.821313,55.465641,58.728248,59.78812,0.0,67.578404,26.148468,91.610562,18.123413,91.278248,10.640637,76.374195,4.23317,56.374134,0.0,1.370809,30.433344,52.390222,48.437764,65.215437,60.563507,73.596845,67.814524,77.736346,-2.743452,297.471803,-42.855063,285.003667
15,-2.223358,-0.258363,-0.08115,-0.112349,0.0,18.656513,-6.529679,47.957782,-16.396134,49.401249,-23.41848,38.128063,-28.968933,16.817974,0.0,-17.848994,8.669918,30.559575,29.361518,46.898351,45.863426,55.49512,58.863098,59.731927,0.0,67.490799,26.060624,91.664521,17.972969,91.180481,10.489735,76.320969,4.159447,56.543267,0.0,1.401858,30.517733,52.452652,48.56003,65.18513,60.670298,73.521794,67.841732,77.698851,-4.958793,297.216852,-42.928196,284.89473
16,3.638706,-2.08541,-0.055996,-0.080029,0.0,12.960731,-10.456936,42.955833,-20.377201,43.350471,-26.783386,32.669243,-31.558239,11.156708,0.0,-12.961066,11.459209,31.992394,31.972152,48.624806,47.9364,56.674948,60.692639,60.953844,0.0,67.575039,26.096936,91.654576,17.96703,91.004139,10.479527,76.372616,4.190506,56.759686,0.0,1.517233,30.499999,52.490543,48.614,65.131383,60.758824,73.43422,67.907534,77.656182,-1.311968,295.127764,-42.976073,284.811023
17,-0.353119,-0.347976,0.083199,-0.172506,0.0,13.721764,-10.028572,42.953773,-19.893196,43.165649,-26.429421,32.794762,-31.334724,11.208298,0.0,-12.8409,11.482958,32.444531,32.005621,48.960407,48.037164,57.07472,60.829861,61.261015,0.0,67.515964,26.047222,91.517544,17.883533,90.606869,10.396969,76.23682,4.128376,56.723041,0.0,1.62805,30.606024,52.555961,48.761436,65.13452,60.908631,73.451276,68.019191,77.704891,-1.657036,294.76679,-42.884823,284.625519
18,-0.379578,-0.324449,0.014717,-0.154326,0.0,14.559883,-9.965149,43.029488,-19.7509,42.867485,-26.211982,32.353112,-31.113315,10.986878,0.0,-12.066389,11.964883,33.046362,32.48599,49.064012,48.383917,57.097518,61.102057,61.22021,0.0,67.595203,26.125294,91.576092,17.851227,90.483501,10.246754,76.111874,3.880234,56.576191,0.0,1.6208,30.60627,52.707558,48.797781,65.334282,60.944013,73.626066,68.020944,77.946446,-2.029467,294.419574,-42.862959,284.448426
19,8.758221,-3.101477,0.062576,-0.311951,0.0,2.262943,-19.542492,33.048145,-29.948753,33.368099,-36.154427,23.106503,-40.780678,1.577923,0.0,-10.245097,13.240054,34.229674,34.217275,50.783675,50.345877,59.318768,63.42165,63.517475,0.0,67.748898,26.220623,91.559613,17.871643,90.225552,10.158451,75.906887,3.672306,56.458157,0.0,1.767309,30.865437,53.09724,49.053848,65.52703,61.154854,73.874649,68.136887,78.275267,6.732285,291.278968,-42.796852,284.097346
20,-2.562252,1.981546,-0.034103,-0.374689,0.0,6.295166,-18.750801,34.022278,-28.590019,36.088142,-33.621288,26.646263,-36.797447,6.489807,0.0,-9.41527,12.459628,32.841451,33.328291,48.52261,49.348941,57.109066,62.33467,61.142986,0.0,67.989017,26.389584,91.653065,17.942551,90.049107,10.113476,75.742344,3.486889,56.252483,0.0,1.876101,31.138707,53.419429,49.312656,65.801449,61.334597,74.256995,68.213543,78.723958,4.172281,293.215221,-42.828707,283.677364
21,0.929443,-1.031565,-0.052929,-0.329648,0.0,4.360588,-19.879554,34.376519,-29.905609,36.495095,-35.632209,27.104462,-39.859726,7.303688,0.0,-12.648053,11.926104,32.840092,33.124724,48.914724,49.514778,58.356733,62.630491,62.581622,0.0,68.107567,26.541893,91.758431,18.059864,89.954819,10.14719,75.625832,3.421841,56.202484,0.0,1.905951,31.356513,53.670222,49.475393,66.02375,61.416292,74.556286,68.213074,79.115195,5.103389,292.137124,-42.879971,283.301184
22,-1.670105,0.914388,-0.095913,-0.2595,0.0,6.500176,-17.568821,36.242318,-27.440105,37.880288,-32.718647,27.232613,-36.190864,5.821164,0.0,-8.843067,12.910405,32.659706,33.753343,48.066224,49.588557,56.865189,62.378784,61.509437,0.0,68.214054,26.624943,91.931889,18.089768,89.943409,10.125893,75.627628,3.366509,56.298649,0.0,1.947064,31.640293,53.823771,49.702178,66.173347,61.555428,74.672846,68.276306,79.29521,3.434801,293.010577,-42.974367,283.000749
23,-0.320995,0.29881,-0.021435,-0.176026,0.0,6.085247,-16.139614,37.92738,-25.828411,39.089596,-31.205864,27.70055,-34.854389,4.985985,0.0,-8.676736,12.554625,32.40569,33.171457,47.783901,48.997198,56.342348,61.824278,60.991475,0.0,68.314865,26.769722,92.108963,18.171376,89.936394,10.146195,75.596901,3.352867,56.383026,0.0,1.955166,31.841872,53.91032,49.855381,66.121612,61.662455,74.639995,68.317667,79.28044,3.113611,293.268762,-42.995997,282.784098
24,-0.359116,0.330624,-0.143325,-0.042015,0.0,6.411221,-14.735698,38.262165,-24.54626,38.870579,-30.184089,27.218113,-34.195861,4.848427,0.0,-8.711464,12.3631,31.780591,33.005608,46.983987,48.903214,55.578693,61.760156,60.708646,0.0,68.416008,27.019054,92.47602,18.39569,90.234146,10.34674,75.831024,3.566413,56.747085,0.0,1.712141,31.899151,53.693947,49.884193,65.881922,61.669124,74.264899,68.334142,78.902219,2.74566,293.57023,-43.148157,282.712927
25,2.278325,-0.936247,-0.263054,-0.118116,0.0,1.971405,-15.390633,37.860694,-25.785485,36.80841,-31.976418,23.952095,-36.435769,0.899311,0.0,-7.99022,13.031276,33.318497,33.930888,48.192689,49.989132,56.571244,63.015418,61.598271,0.0,68.52555,27.229374,92.976013,18.623142,90.625557,10.602024,76.316185,3.86103,57.36296,0.0,1.502918,32.073991,53.47204,50.022218,65.724014,61.745608,74.043029,68.30276,78.550179,4.981202,292.605177,-43.453994,282.566005
26,-2.914456,2.921659,-0.703526,-0.457435,0.0,7.204228,-13.06279,39.232098,-22.618297,39.797093,-27.856499,27.391468,-30.92157,4.491005,0.0,-10.928069,11.570619,31.660535,32.07514,45.703406,47.855248,53.425579,60.612537,58.230453,0.0,68.303433,27.620373,93.71957,19.050602,91.495274,11.115898,77.444286,4.499245,58.284199,0.0,1.515046,32.356265,53.154335,50.26817,65.894556,61.900354,74.320116,68.336711,78.556688,1.966719,295.496488,-44.257547,282.078222
27,-3.701065,0.573278,-1.687546,-1.477403,0.0,9.268742,-11.527119,42.102345,-19.973923,44.498943,-24.576919,33.130039,-27.355682,12.406643,0.0,-14.409495,10.330745,30.582682,30.211846,44.759478,45.619019,52.355025,57.865471,56.126913,0.0,67.869541,27.66219,94.282688,19.21867,92.498944,11.537407,78.637631,5.261593,59.119206,0.0,1.90605,32.636204,53.146406,50.631213,66.91697,62.181281,75.473477,68.375897,78.747781,-1.887486,296.040629,-46.098233,280.571682
28,9.881218,-4.649176,-3.779995,-2.443921,0.0,-10.919472,-15.619652,12.343998,-21.896233,14.141064,-25.380146,6.805504,-27.63755,-6.074764,0.0,-13.249144,16.475578,28.128338,35.944446,41.866594,50.081535,51.281865,60.309812,57.496167,0.0,67.413277,26.688057,94.37368,18.757496,93.206726,11.84721,79.976807,6.37967,60.432129,0.0,2.25536,32.620791,52.417813,50.667794,67.929331,62.190668,76.807385,68.358225,79.525231,7.745796,291.390468,-50.126164,278.126776
29,8.545074,-3.121347,-6.209964,-4.057089,0.0,-21.657062,-19.756885,-18.626838,-23.323631,-16.882003,-24.369049,-18.802345,-24.247547,-22.561294,0.0,-3.056473,19.188434,23.93835,38.54515,37.506175,52.079247,47.768513,61.35716,55.614915,0.0,66.001533,24.100467,95.257106,17.512722,95.410137,12.134422,82.923191,8.139839,63.241493,0.0,2.840322,32.11923,51.174876,50.378148,68.88193,61.989992,77.905815,68.234514,79.439238,15.918943,288.317892,-56.708055,274.118458
30,16.641701,-7.044771,-12.526234,-8.611132,0.0,-34.393307,-21.93996,-44.672928,-21.782524,-42.063354,-20.419155,-39.306518,-18.675865,-35.555877,0.0,4.228013,21.100103,26.595618,40.093887,40.09758,53.202302,50.839472,61.541498,59.282742,0.0,66.422996,23.818725,95.806583,17.064457,95.870556,11.61906,83.4268,7.636837,63.369644,0.0,5.933449,31.436542,50.326352,49.788876,67.13364,61.539275,75.963962,68.041693,77.409699,32.091041,281.218182,-69.703892,265.452387
31,25.320202,-12.540842,-16.307957,-11.943283,0.0,-52.743622,-25.345058,-71.70718,-22.745327,-68.047611,-19.889145,-61.496441,-17.468536,-51.633305,0.0,16.363624,24.92485,32.275013,44.228485,42.9205,57.084946,53.873233,64.524808,63.491613,0.0,66.481316,20.169228,89.684303,13.694172,87.693249,9.033623,76.277893,6.004051,58.029556,0.0,10.993994,30.77874,46.011541,49.454954,61.147568,61.430039,70.080432,68.241072,71.957261,56.858099,268.568322,-86.564993,253.400086
32,30.912827,-12.33483,-16.987209,-11.944308,0.0,-68.190537,-30.274041,-96.104771,-26.182114,-89.334172,-22.109803,-79.128765,-18.795868,-64.119038,0.0,23.881329,27.701988,31.788605,48.136459,39.881096,61.312984,51.147076,68.358311,62.296915,0.0,64.231178,16.357441,77.912464,10.526115,74.096512,6.541489,64.021385,4.070846,48.840351,0.0,13.239165,26.574957,37.381538,45.793562,51.708832,58.641304,61.033132,66.635352,64.736996,87.136872,256.115321,-104.186256,241.337607
33,23.924148,-12.592805,-26.699307,-19.113296,0.0,-65.201145,-29.936508,-88.728206,-25.625507,-77.633205,-21.112907,-67.762184,-17.21418,-54.620773,0.0,28.487151,23.58168,32.996796,44.325063,39.280641,58.429357,49.193836,66.761618,59.347981,0.0,65.423722,14.801766,74.389721,9.176068,62.05283,5.240559,52.829625,2.744351,40.050854,0.0,16.867459,22.110921,31.316697,41.906571,42.540513,55.888223,52.592826,65.385992,57.986934,110.311861,243.560001,-131.634722,222.261796
34,25.220375,-16.347977,-26.073211,-19.025018,0.0,-65.728248,-25.446373,-74.658348,-20.120693,-58.647125,-15.238838,-50.588013,-11.297355,-41.191761,0.0,24.885274,19.773445,34.07213,40.038708,37.881439,54.653567,47.662451,63.796845,57.20586,0.0,68.090996,14.325897,68.02185,8.340957,48.662864,3.978298,40.185047,1.10733,30.215412,0.0,19.713659,19.085114,25.514468,39.136806,33.790851,53.846483,44.348022,64.387081,51.719848,134.684721,227.476776,-158.555448,203.50153
35,21.763138,-16.057577,-21.622067,-16.735547,0.0,-65.000359,-24.417229,-70.86644,-20.20792,-49.691254,-16.078926,-41.957085,-12.721596,-35.237194,0.0,21.369082,17.489915,27.379422,37.232757,29.526472,51.725424,39.427984,60.984163,49.664615,0.0,66.417343,12.328331,65.817501,7.852604,36.933495,4.545662,29.644638,2.48156,22.631504,0.0,19.46641,15.809624,19.630678,36.263115,26.751291,51.620047,38.360578,63.079305,47.148687,155.554459,212.092022,-181.070915,187.438806
36,16.942841,-15.742045,-17.892654,-15.315535,0.0,-63.597336,-24.921112,-65.505478,-21.372471,-43.252053,-17.509896,-35.303215,-14.214867,-29.755612,0.0,16.678298,13.458119,20.090108,32.250029,22.735051,46.890552,32.962209,56.885813,43.011095,0.0,65.629062,13.731937,69.714741,10.221622,33.90049,7.04623,26.357849,4.79504,20.419029,0.0,16.173804,12.270832,16.18871,32.478667,23.420943,48.133594,35.219681,60.276084,45.086273,171.582356,197.523183,-199.878513,173.296477
37,12.949813,-12.880753,-15.013012,-18.550799,0.0,-61.521469,-24.251197,-66.400451,-20.48878,-47.484054,-16.23619,-39.106842,-12.290702,-32.265918,0.0,12.82096,5.776825,12.077238,21.074514,14.04673,34.093594,23.833992,43.68092,34.29106,0.0,68.388445,16.154365,78.454594,13.011034,35.906874,9.757049,27.761782,7.332699,21.821079,0.0,15.128162,11.269487,16.066577,31.009337,22.380455,46.66034,34.483542,59.18525,44.724816,183.658384,186.752049,-215.76531,156.855297
38,8.539925,-16.268977,-2.042416,-14.699871,0.0,-62.22052,-24.824833,-65.44051,-20.818382,-49.255371,-16.280399,-40.121235,-11.936966,-32.361351,0.0,8.371377,-1.134441,6.446126,11.657416,8.949836,23.778948,18.165903,33.508494,28.361995,0.0,68.748511,17.80053,78.461644,14.904929,36.407381,11.533425,27.734705,8.898011,22.05534,0.0,12.614186,9.847523,13.390802,29.219693,20.791098,44.893266,33.075089,57.722679,43.480336,191.141235,173.222888,-218.8648,144.895242
39,4.130035,-19.6572,-0.828323,-16.341265,0.0,-65.694488,-26.642017,-62.625652,-22.361274,-48.566001,-17.64252,-38.346393,-13.153656,-30.041908,0.0,3.329548,-7.27568,3.19677,3.998735,7.444368,15.946612,15.957943,26.368535,25.223901,0.0,68.858294,20.369099,73.909046,17.373178,36.905371,13.671009,27.697351,10.542744,22.385834,0.0,9.82216,8.163559,11.038581,26.964537,19.146852,42.52796,31.633199,55.597385,42.746667,194.026308,156.919631,-220.938085,131.90792
40,3.390954,-20.928412,0.671842,-18.15597,0.0,-65.589455,-27.828472,-56.153103,-23.603486,-47.69751,-19.138127,-37.586232,-14.890961,-30.880806,0.0,-0.415967,-10.735662,-0.756202,-0.369768,4.430008,11.456961,13.324831,22.432865,22.91362,0.0,72.282155,21.417378,68.147502,18.060385,37.31979,14.221516,27.918892,11.068915,22.828074,0.0,7.376114,6.316965,7.895102,24.812513,17.968999,40.73507,30.901718,54.412422,42.543814,196.136284,139.315926,-221.547221,117.076657
41,3.746177,-20.954046,0.65355,-20.071935,0.0,-65.995147,-27.135486,-61.715801,-23.975601,-47.133247,-20.372394,-37.776272,-16.929199,-31.875686,0.0,-4.625467,-13.683817,-9.710079,-3.633943,0.512205,8.293803,10.696648,19.732792,21.087667,0.0,76.395183,21.433124,65.509832,17.890142,37.155029,14.054741,28.041229,11.05454,22.898409,0.0,5.498168,4.137596,5.328484,23.039981,16.553193,39.988274,30.77844,54.771847,43.111158,198.58683,121.119246,-222.189302,99.762088
42,4.839615,-24.212108,-3.055367,-16.127941,0.0,-70.575645,-26.024311,-65.510502,-24.018333,-42.609146,-22.038265,-33.929409,-20.610306,-30.507339,0.0,-10.802317,-14.970436,-14.647494,-2.626158,2.049265,11.638477,14.816382,25.20186,26.111156,0.0,80.434817,21.94796,68.966303,18.888302,38.528361,15.630077,30.012446,13.292318,25.173437,0.0,2.886708,2.07071,1.820803,21.364818,14.931367,39.186357,29.829175,54.800461,42.774593,202.037521,98.597222,-226.633593,85.324231
43,6.326752,-17.088849,-5.034588,-10.543148,0.0,-71.421272,-24.786003,-73.004746,-24.779366,-41.754593,-24.652748,-34.901344,-24.936104,-33.733086,0.0,-15.719104,-15.306655,-21.09315,-0.879949,0.531498,15.191164,15.729837,30.114929,28.286246,0.0,83.413485,21.530571,71.918501,19.137131,39.799525,16.708683,31.774756,15.247015,27.281119,0.0,-0.209445,0.906771,-1.58756,20.418301,12.814359,38.696516,27.849784,54.65105,41.723305,207.293364,82.278929,-232.73909,75.551639
44,6.457168,-7.569242,-4.321312,-5.25178,0.0,-70.208175,-22.238411,-79.884796,-24.545814,-43.672096,-26.67659,-38.850265,-28.936569,-39.583442,0.0,-20.322314,-14.346769,-26.862627,1.902444,-2.912186,18.922099,13.821163,34.293388,27.920678,0.0,85.631705,19.904126,76.700358,17.750862,39.686812,15.719456,32.090189,14.688647,27.321448,0.0,-1.395146,-0.575196,-2.541981,19.789725,12.317169,39.019168,28.211525,55.628967,42.396286,212.931638,74.700088,-237.879296,70.29026
45,3.898728,-0.351415,-4.427782,2.613447,0.0,-73.083389,-18.337074,-78.375824,-21.75483,-42.703812,-25.514511,-39.146713,-29.42791,-39.468018,0.0,-22.907266,-15.330528,-26.340923,2.367344,-2.331084,20.504866,14.785562,36.864823,29.782075,0.0,86.161824,19.020767,78.283974,16.599907,39.250763,14.640999,32.008667,13.707711,26.766529,0.0,-0.115659,-1.587128,-1.355607,19.064748,13.363147,38.831963,29.781285,56.11649,43.650496,216.120564,74.549087,-243.01688,73.104121
46,-1.328247,4.519655,-4.72039,12.923555,0.0,-70.360199,-14.721703,-61.241387,-16.059654,-34.340836,-18.395874,-30.855423,-21.263672,-29.915016,0.0,-20.008752,-10.711665,-15.909142,6.503689,4.143452,23.459061,19.507838,38.225042,34.100312,0.0,84.430544,18.507019,74.995039,15.50877,38.348167,13.372049,31.338884,12.27689,25.690275,0.0,2.776308,0.10074,1.457007,20.361248,16.018934,39.601043,31.882229,56.388535,44.961022,214.214585,79.69888,-248.315002,86.657814
47,-0.221581,18.346757,-3.038864,19.381892,0.0,-69.510292,-12.264656,-46.69059,-12.667557,-29.2313,-14.576866,-26.019836,-17.093307,-25.221863,0.0,-15.654044,-8.175946,-8.294575,9.330209,8.27755,26.142661,21.971068,40.616581,36.677188,0.0,80.399008,16.63282,64.538412,12.359962,35.650772,9.492411,28.635481,7.842258,22.134516,0.0,7.879788,4.836441,7.060524,24.227824,20.410049,42.077321,35.266115,57.334798,47.354684,213.634409,98.772541,-251.712461,106.76661
48,-1.616421,24.417447,-2.88299,24.272216,0.0,-68.728145,-10.225101,-32.97441,-9.725097,-25.47005,-11.328895,-22.17271,-13.821773,-21.230369,0.0,-8.902539,-2.698963,0.043169,14.772539,13.426342,30.542649,25.13343,43.59295,39.412595,0.0,74.953651,14.244181,54.315554,9.219435,33.036015,6.15564,26.898559,4.473913,21.533913,0.0,14.701251,12.276266,13.627964,30.489365,25.160224,46.241491,38.804833,59.083359,49.705504,211.777742,123.940206,-254.835697,131.789044
49,-1.654541,28.091787,-3.517582,28.321568,0.0,-66.337612,-9.78519,-24.406585,-8.945159,-23.954578,-10.191215,-21.155857,-12.419094,-19.910018,0.0,1.192253,5.373583,6.919671,22.532917,18.460922,36.688792,28.610776,47.332766,41.998796,0.0,68.535393,11.586359,47.553858,6.840814,31.271381,4.542755,26.843925,3.759905,24.718815,0.0,21.648221,21.955074,18.227659,38.324442,27.759329,51.12034,39.645663,60.704609,49.941081,210.088216,152.197873,-258.388264,160.276492
50,-2.037334,29.978016,-3.067165,28.340641,0.0,-63.133999,-11.69173,-28.329872,-10.236134,-24.31168,-10.467052,-21.9398,-11.610306,-21.51487,0.0,9.634133,14.205028,10.946971,30.168565,21.715632,41.954218,29.933716,49.489886,42.520642,0.0,61.554989,9.545168,47.642595,5.059976,29.484752,3.264415,24.954872,3.05385,23.482773,0.0,27.621494,31.52839,24.301887,45.837887,29.602506,55.004016,39.43909,60.690599,48.291895,208.107296,181.162679,-261.399015,187.603923
51,1.049538,32.876957,-1.95575,24.500986,0.0,-64.048863,-15.582676,-41.863014,-15.48785,-31.894032,-16.853543,-30.932568,-18.851029,-34.591233,0.0,13.872471,20.656068,12.631454,36.340797,20.846748,46.866352,28.059739,52.743731,40.931767,0.0,55.690653,8.451651,51.051258,4.032606,31.487869,2.527605,25.40938,2.525579,24.335661,0.0,31.771711,38.714365,30.24663,51.241863,30.178631,57.363805,37.70771,59.926774,45.369504,209.161063,212.360325,-263.350536,210.425598
52,-1.705925,23.087862,-0.722763,18.684563,0.0,-61.578495,-17.642613,-55.951561,-17.826382,-36.428959,-19.149662,-35.058323,-20.946602,-37.886467,0.0,19.539577,29.847345,22.802537,44.412094,22.596507,52.535558,28.431291,55.567491,38.956605,0.0,51.912649,8.939787,58.948185,4.734072,35.123966,3.628904,27.262041,3.811941,26.119669,0.0,34.326214,43.833487,35.195308,54.919223,29.939274,58.656562,35.837303,59.059169,42.330852,207.311463,233.410019,-264.216974,227.071993
53,-2.902668,17.499226,1.087229,10.716846,0.0,-59.1446,-19.190621,-68.432579,-19.08553,-38.805863,-20.078007,-36.434624,-21.416165,-38.586319,0.0,22.233156,36.683728,32.070725,49.733844,23.653323,55.518795,28.196677,56.215921,36.31543,0.0,50.756321,11.525654,69.319851,7.265899,38.375301,5.798927,28.212627,5.61018,25.63266,0.0,34.906977,46.526021,38.513324,56.652928,28.818238,58.754677,33.791678,57.853294,39.193653,204.143309,248.689762,-263.395231,235.569356
54,-3.717888,9.999875,2.772365,1.229957,0.0,-56.238281,-21.064614,-79.323784,-19.766567,-40.214104,-19.653065,-35.275887,-20.002499,-36.64666,0.0,22.000912,40.226138,39.793737,51.597137,23.760755,55.3206,26.47731,54.428467,32.469934,0.0,51.5094,16.163544,81.485791,11.440464,47.948903,8.701664,29.388096,7.192692,23.137047,0.0,33.961924,45.642385,40.313349,55.085073,28.75629,56.587534,32.105212,55.590747,36.216493,200.067095,256.816969,-260.981192,234.926645
55,-3.50996,1.353754,4.367386,-5.195575,0.0,-53.526421,-21.924981,-86.594513,-20.123154,-40.571732,-19.238297,-33.792778,-18.904541,-33.375801,0.0,21.008762,39.96268,43.759664,50.913165,21.981825,53.96508,24.377556,52.736716,28.945826,0.0,52.490376,22.141886,87.216168,17.228731,56.850786,13.420927,33.856871,10.521635,26.992367,0.0,30.03826,40.787339,34.709765,48.292849,24.222637,48.922919,26.144378,47.481738,29.086482,196.119948,257.043049,-257.050993,228.603396
56,-4.481095,-10.220719,5.487545,-10.207256,0.0,-56.195343,-21.319267,-82.543419,-17.629806,-38.449218,-15.105423,-29.446357,-13.443901,-25.076065,0.0,20.475461,37.420503,40.332122,47.00844,19.221842,49.289377,20.26514,47.945651,22.241807,0.0,52.594334,29.503115,91.715801,24.650511,61.412424,19.850996,37.632277,15.454497,30.614834,0.0,24.838047,32.012963,23.821141,35.946211,15.661757,34.823397,17.063411,32.365904,17.716971,191.274427,246.450034,-251.927874,218.023844
57,-0.719387,-20.170194,5.439926,-19.786182,0.0,-57.446994,-22.873844,-74.673397,-18.485653,-41.663658,-14.911422,-28.725551,-12.118229,-23.842094,0.0,18.704502,32.14568,32.193333,41.71253,17.322759,44.796815,18.088946,44.497597,20.241868,0.0,54.003033,34.555596,93.332852,30.005087,62.766009,24.403164,39.151944,18.7708,32.240445,0.0,19.2446,23.612447,14.52278,26.432931,9.673959,25.645749,11.934333,23.9139,12.001255,190.266071,226.753466,-246.776917,198.711288
58,3.717522,-28.432502,4.61126,-27.286599,0.0,-58.284382,-25.250072,-66.195087,-21.392086,-51.140671,-17.468697,-31.254238,-14.007076,-25.897888,0.0,16.59144,22.989768,24.065578,34.465001,16.119127,40.614157,17.797824,43.344884,21.819536,0.0,56.282261,37.368553,93.277794,33.042715,62.692102,26.932102,39.773781,20.238436,32.008713,0.0,13.880656,15.49877,8.235878,19.513884,7.990871,21.169696,12.12558,22.079351,12.858412,193.350861,199.474005,-242.798389,172.57773
59,4.933525,-28.053848,2.238693,-27.760812,0.0,-59.981975,-25.181087,-61.121693,-22.258015,-53.894211,-18.794792,-34.133892,-15.64278,-29.120705,0.0,10.806513,14.667449,12.372587,26.763033,10.436181,34.810198,14.016247,39.333225,20.077526,0.0,60.360878,38.603462,84.232681,34.586878,57.282572,28.728939,40.577191,22.131151,32.884712,0.0,8.248185,10.41216,2.552593,16.047191,5.236815,19.858254,12.074,22.667357,14.140925,197.558607,173.041136,-241.285475,146.437897
60,7.108017,-29.054122,-1.371151,-27.644597,0.0,-64.391292,-24.354435,-55.381554,-22.304672,-55.355164,-19.854195,-36.443367,-17.528446,-31.910568,0.0,4.381779,7.091059,1.948606,20.076819,6.964925,30.245994,12.09803,36.990356,19.516298,0.0,64.694012,38.256426,76.436657,35.219605,53.031578,30.343626,41.076857,24.681267,34.13348,0.0,3.889977,8.925432,0.612981,18.085665,6.151104,25.17778,15.59909,30.691211,19.927618,204.024485,145.552967,-243.298765,120.359253
61,10.461571,-27.126042,-4.137623,-25.364426,0.0,-66.326008,-23.222569,-56.676018,-24.057541,-56.953057,-24.375183,-40.721604,-24.342465,-37.965157,0.0,-3.90152,-1.26655,-3.569986,15.079846,4.800048,29.084401,13.675444,39.511292,23.63715,0.0,70.088997,35.459524,73.729855,33.713127,50.683251,30.292036,41.337187,26.267327,34.742043,0.0,0.347386,11.684718,2.832964,26.298136,11.027286,37.762871,23.112707,46.741891,31.594184,213.857146,119.335092,-248.065298,95.902994
62,9.240589,-17.608046,-4.879142,-14.837633,0.0,-68.589157,-21.286629,-59.746113,-24.519161,-54.003113,-27.531349,-43.915478,-30.146256,-43.510437,0.0,-12.993121,-7.003278,-10.483535,10.927084,0.526935,26.900365,12.879317,39.119346,24.308343,0.0,74.140892,33.151542,65.3638,32.484981,49.607643,30.524963,42.314083,28.138263,36.394317,0.0,-1.717514,14.267544,3.216023,31.881379,13.377621,45.602395,26.541537,56.114915,37.175397,222.489109,101.749918,-253.553066,81.088233
63,5.009262,-7.592856,-4.305508,-3.021633,0.0,-72.535194,-17.938294,-57.555714,-21.976215,-44.382363,-26.709183,-42.513416,-31.320374,-43.801735,0.0,-20.01216,-10.022089,-14.925025,8.024395,-2.221051,24.361868,11.636936,37.202558,23.322584,0.0,78.032741,31.198803,55.466686,30.79731,48.550484,29.628422,42.252354,28.368976,37.37233,0.0,-1.879287,15.294132,2.941042,33.830006,13.970827,48.278664,27.314955,59.106945,38.542489,227.198507,93.575892,-258.158438,77.48543
64,3.107849,-3.598598,-3.115437,5.194031,0.0,-75.392738,-15.225586,-50.608967,-19.69527,-39.868057,-25.58123,-40.036388,-31.504829,-42.38546,0.0,-19.953855,-12.352981,-12.867785,7.205233,0.836397,25.352185,16.011175,40.427615,28.518332,0.0,79.721512,29.624611,54.32285,28.727738,46.094307,27.367905,40.482251,25.91486,35.904133,0.0,-0.4526,14.282247,3.85225,32.750788,15.582457,47.321378,28.875919,58.560404,39.436956,230.220777,89.062011,-261.359454,81.764178
65,-0.323914,6.922731,-1.342506,12.67015,0.0,-75.39307,-14.280052,-44.866378,-18.330345,-37.273315,-24.038806,-37.300701,-29.818897,-39.534198,0.0,-16.424659,-12.272403,-9.789673,7.996237,4.018652,26.976952,19.570963,43.003042,32.686716,0.0,80.084335,27.436907,53.748373,25.524862,43.58555,23.472158,37.611626,21.44315,32.296509,0.0,2.888641,14.943872,6.796377,33.084923,18.002292,47.473553,31.155544,58.760701,41.585966,229.903261,95.062678,-262.695562,93.512264
66,-3.755676,17.444059,-0.412949,17.982313,0.0,-72.53619,-15.101692,-40.327949,-17.881439,-36.598137,-22.081913,-34.306354,-26.262577,-35.247951,0.0,-9.42457,-9.780354,-5.690686,10.397408,7.325714,29.236171,22.3163,44.92884,35.827737,0.0,78.313877,25.503611,49.903124,22.416453,40.280085,19.42531,33.576073,16.575302,27.562432,0.0,8.60308,16.632875,11.357503,34.163579,20.936783,48.100591,33.741972,59.116859,43.613825,226.168373,111.524143,-263.087723,110.511983
67,-6.626896,21.149473,-0.787845,21.167739,0.0,-69.645676,-16.127701,-39.324016,-17.612457,-35.57777,-20.210209,-31.411182,-22.569179,-30.912872,0.0,0.277568,-2.802873,3.159951,16.707583,12.756484,34.138339,25.146395,48.371203,38.291789,0.0,74.69022,23.753643,50.764978,19.877134,38.03548,16.361698,31.164745,13.105779,26.042673,0.0,14.36204,20.263836,16.104658,36.714383,23.562502,49.333617,35.464221,59.105811,44.952357,219.611005,131.862898,-263.80604,130.869004
68,-6.48777,24.357691,-2.477898,23.063958,0.0,-65.367073,-17.9664,-48.890705,-19.236717,-36.335186,-21.037205,-32.126758,-22.35815,-31.273636,0.0,9.800896,8.563007,12.895224,26.520903,16.677598,41.015476,26.133963,51.942094,38.286163,0.0,68.030319,22.320683,52.205744,18.644766,38.10601,15.695309,32.132835,12.959684,29.45521,0.0,19.740087,27.216531,19.85896,41.742725,25.110733,51.590317,34.892919,58.430898,43.730329,213.360746,155.272415,-266.046427,152.984788
69,-6.790466,25.397413,-1.4622,21.428473,0.0,-60.560234,-19.278168,-56.42403,-20.20118,-41.553921,-21.203236,-34.352589,-21.507809,-32.10212,0.0,15.720019,17.518206,20.752316,33.195648,21.495359,44.507721,25.904567,51.665637,35.551979,0.0,60.980896,19.97691,56.96129,16.74254,37.097042,14.392776,32.328655,12.515127,33.064962,0.0,24.784837,34.013078,24.651046,47.142521,25.828984,54.40734,33.955332,58.174838,42.429106,206.826496,179.416544,-267.252411,173.159977
70,-6.135498,23.010729,-0.636246,18.123971,0.0,-58.341694,-18.93663,-61.911655,-19.354294,-41.906925,-19.811005,-34.594368,-19.865433,-31.977162,0.0,19.477161,25.652492,27.525969,38.580417,23.056962,46.500895,24.841956,49.938065,32.109671,0.0,56.24699,18.274824,63.17244,15.154072,42.364523,13.372977,32.296349,12.133066,33.11344,0.0,29.428808,39.623091,30.224289,51.696272,27.594271,56.777639,32.266091,58.031438,39.579514,200.964289,201.034159,-267.615366,189.890834
71,-4.464272,17.892034,0.427345,14.186083,0.0,-56.958675,-18.166992,-68.822834,-18.507751,-41.949588,-19.082794,-35.456909,-19.667953,-33.230816,0.0,20.837497,33.496597,34.316464,44.017787,23.691114,48.757699,23.217488,49.030803,28.201796,0.0,53.829323,17.596362,67.878342,14.26648,42.847807,12.888056,32.403843,12.210921,33.500788,0.0,31.921042,44.130957,33.968451,54.962337,27.440018,57.905115,30.478108,57.117445,36.569601,196.90163,217.709889,-266.786408,202.860613
72,-3.946621,12.59228,1.802479,9.502073,0.0,-55.072036,-17.615913,-70.186546,-17.672836,-40.928283,-18.324531,-34.922264,-19.406044,-33.750068,0.0,20.812877,38.120443,36.071021,46.913702,23.92805,49.534316,22.184675,47.847047,26.296178,0.0,53.50454,18.20509,74.692349,14.453625,43.790509,12.704682,31.64708,11.906788,31.783127,0.0,33.108212,46.486081,37.196065,56.47216,26.685243,58.00005,29.001563,56.03966,34.434846,193.450441,229.301281,-264.488497,211.361798
73,-2.513786,6.313498,3.459149,3.889646,0.0,-54.006775,-16.983467,-71.520927,-16.513275,-38.82605,-17.085617,-32.822617,-18.4674,-31.446648,0.0,18.071122,38.272547,37.040108,46.067153,22.576321,47.877848,21.043947,45.879988,24.308754,0.0,54.57994,19.220054,83.224594,15.12997,44.813667,12.829582,30.074764,11.653164,27.98838,0.0,32.227392,46.540792,39.698377,56.046626,25.926689,57.062827,28.084841,55.019506,32.889394,191.482252,234.972489,-260.483751,214.609154
74,-0.707016,0.764519,3.275631,-0.747106,0.0,-53.876152,-17.63633,-76.021294,-17.086418,-32.966926,-17.767502,-30.134788,-19.483818,-29.42791,0.0,15.848775,39.678419,37.368583,47.188294,19.621305,48.209572,20.024832,45.839036,23.038807,0.0,56.234401,21.741851,88.793323,17.591663,48.874626,15.047252,30.279636,13.461021,24.808605,0.0,30.592772,46.237375,39.37704,55.666132,24.846168,56.780566,26.737608,55.287281,31.38566,191.224399,235.442112,-256.758957,213.567152
75,0.808731,-4.553561,3.394844,-3.459776,0.0,-52.208198,-18.362549,-81.209472,-18.498596,-31.832084,-19.971199,-30.14447,-22.233856,-29.827606,0.0,14.659967,39.995581,37.629725,48.386412,19.345885,49.703524,20.150036,47.888136,23.276002,0.0,58.051838,24.202537,91.110157,20.564838,45.391788,18.078346,31.690418,16.606086,26.843788,0.0,27.615908,45.971032,36.143924,55.172239,21.998201,56.163642,26.008878,54.801737,30.973957,192.365278,230.806985,-253.031965,210.02581
76,1.745018,-6.625005,3.536453,-5.018444,0.0,-51.400246,-18.415901,-82.774612,-19.300484,-38.675377,-21.665703,-30.246254,-24.638649,-29.65876,0.0,13.717113,38.841862,36.161684,47.897807,21.468939,49.651136,19.545661,48.166619,22.637035,0.0,59.690472,25.947647,92.700382,22.96772,46.190151,20.612057,32.48719,19.23222,28.033195,0.0,25.711525,45.580338,32.951588,54.879641,20.314762,55.942329,24.858925,54.579448,29.865105,194.29529,224.345918,-249.310518,205.171304
77,3.073036,-7.064259,2.876896,-4.72776,0.0,-51.728874,-18.672271,-87.030624,-19.92897,-39.298919,-22.590065,-30.125793,-25.659942,-28.611694,0.0,12.786831,37.418168,37.415291,47.050652,20.27024,49.235888,18.475859,48.167779,21.150776,0.0,60.480594,26.742885,93.810264,24.305912,46.918636,22.299408,33.364403,21.18013,29.149326,0.0,23.845082,45.202858,29.937588,54.752497,19.378934,56.085257,24.153427,54.829266,29.069439,197.440446,217.556449,-246.361502,200.718334
78,2.63031,-6.002461,2.04816,-3.178862,0.0,-51.986389,-18.625877,-86.250526,-20.228942,-39.662132,-23.014343,-29.677597,-26.056549,-28.576812,0.0,13.427763,37.366174,36.577375,47.045169,19.882854,49.191551,17.614292,47.914343,20.725451,0.0,61.075997,27.423363,94.121968,24.926823,46.476036,22.787259,33.59071,21.560189,29.218998,0.0,23.320846,44.968145,27.433621,54.765082,18.374799,56.289996,23.499577,55.105611,28.388727,200.049894,211.827554,-244.334204,197.813038
79,2.609459,-3.763712,1.288845,-1.228462,0.0,-52.998024,-19.03688,-85.900337,-20.841407,-40.111976,-23.596893,-29.078315,-26.436081,-28.203827,0.0,14.462798,36.848249,36.246985,46.694352,18.366486,49.064098,16.133715,47.97802,20.04511,0.0,61.19513,27.576886,93.646672,25.075825,44.777218,22.996468,33.849976,21.935509,29.585621,0.0,23.107856,45.051248,26.321101,54.931376,18.012521,56.577024,23.422907,55.397011,28.280577,202.673601,208.338539,-243.031111,196.859273
80,1.796219,-2.294732,0.706421,-0.023404,0.0,-53.811081,-19.235344,-85.128593,-21.491386,-42.767509,-24.365364,-28.631103,-27.140785,-27.874855,0.0,15.040646,36.899576,36.010271,46.576891,17.472131,48.811539,14.201594,47.44457,18.619083,0.0,61.103291,27.393013,93.109303,24.738545,44.735138,22.567726,33.647393,21.477665,29.096833,0.0,22.938735,44.886758,25.90436,54.806085,17.773387,56.581248,23.14655,55.475582,28.012334,204.536836,206.305842,-242.257674,197.097904
81,0.539314,-1.331561,0.147686,0.538587,0.0,-54.165527,-19.432365,-83.448509,-21.737846,-43.078445,-24.33094,-29.169639,-26.786109,-28.128158,0.0,15.359439,35.877656,34.570165,45.862228,17.761666,48.559832,14.295158,47.630278,19.00301,0.0,60.743649,27.091484,92.745198,24.355408,45.356449,22.08918,34.100453,20.984894,29.591503,0.0,22.518955,44.678955,25.75422,54.62938,18.00647,56.459193,23.123418,55.321639,28.091523,205.229782,205.157948,-241.956356,197.820158
82,-0.95581,-0.892306,0.44442,0.381729,0.0,-54.24662,-19.080116,-82.221542,-21.40242,-43.933617,-23.866402,-28.98761,-26.145081,-27.674652,0.0,16.76352,35.477921,34.529533,45.923225,18.231797,49.194639,15.103706,48.777045,20.170105,0.0,60.277748,26.822445,91.873364,24.000767,45.208683,21.640045,34.19553,20.450169,29.560433,0.0,22.636108,44.121015,25.780896,54.185752,17.628224,56.20541,22.652027,55.256529,27.869912,204.481333,204.413846,-241.304575,198.350091
83,-1.646164,-0.896542,0.583718,-0.068271,0.0,-54.01284,-19.144707,-81.172531,-20.825043,-46.707573,-22.741745,-29.753746,-24.588409,-27.552681,0.0,17.120734,33.907139,34.426843,45.419527,18.723639,49.752986,16.107706,50.266379,21.730674,0.0,59.674324,26.6926,91.631172,23.967693,46.874771,21.611469,34.802249,20.360378,30.087375,0.0,22.669577,43.280024,25.915153,53.739914,17.101122,56.120219,21.862313,55.406829,27.737519,203.090452,203.68735,-240.465574,198.451866
84,-2.431938,-1.223819,0.848396,-0.272344,0.0,-53.674301,-18.367859,-77.909157,-19.794594,-52.941719,-21.555451,-30.49379,-23.301338,-27.750275,0.0,17.730482,32.60339,32.706772,45.025955,22.026606,50.434389,17.952228,51.767581,23.9898,0.0,59.13295,26.632873,91.479446,24.005871,50.151283,21.642883,35.613521,20.296085,30.7714,0.0,22.269607,42.457558,25.625816,53.224854,16.975312,55.905031,21.224049,55.373632,27.477859,200.971264,202.609039,-239.304428,198.32503
85,-2.507332,-0.878684,1.172184,-0.05723,0.0,-53.784599,-18.420799,-77.653816,-19.412819,-56.517334,-20.770157,-32.465881,-22.206162,-29.205139,0.0,16.979017,30.652769,32.466168,44.028303,23.13147,50.389485,19.117644,52.557678,25.490941,0.0,58.743015,26.802624,91.625301,24.231331,51.783142,21.848453,36.074501,20.414131,31.316036,0.0,21.53301,41.604809,24.764731,52.548056,16.74019,55.387377,20.683992,54.953235,27.022177,198.95026,201.873218,-237.645916,198.410663
86,-3.211967,-0.657271,1.598087,-0.194774,0.0,-54.237694,-18.765862,-78.935235,-19.511879,-52.671319,-20.556702,-33.364861,-21.622605,-30.305535,0.0,16.702276,29.651164,33.499512,43.567892,20.514882,50.380148,19.831886,53.049112,27.188187,0.0,58.972687,27.079445,92.340523,24.751522,52.167629,22.628002,37.019234,21.411633,32.400627,0.0,20.865279,40.630277,23.958493,52.00369,15.899719,55.190024,20.204945,54.987371,26.865481,196.382922,201.36844,-235.4032,198.368382
87,-4.490822,-0.445468,2.1927,-0.093502,0.0,-55.347519,-18.325104,-77.572083,-18.7034,-54.302582,-19.428063,-35.818543,-20.3825,-32.531983,0.0,15.484682,27.532113,32.340185,42.428931,21.251899,50.286325,21.334113,53.865626,29.487539,0.0,59.347732,27.851051,94.196285,25.773971,53.106239,23.903572,38.476444,22.923214,34.166507,0.0,19.114074,39.559278,22.715852,51.334513,15.146215,54.779544,19.937911,54.736306,26.638078,192.705798,201.104743,-232.396802,198.456651
88,-5.674164,0.092848,3.556217,0.074175,0.0,-57.317688,-18.411255,-77.404061,-18.795731,-53.149773,-19.300392,-37.389107,-20.024094,-34.493797,0.0,15.036831,26.516998,30.681594,42.41453,21.737775,51.248791,23.529785,55.617411,32.259342,0.0,59.889267,28.690166,95.286175,26.858425,52.763351,25.150955,39.97792,24.280517,35.84729,0.0,17.155548,38.444905,20.878345,50.422817,14.27026,54.018568,20.036168,54.166596,26.729135,187.987742,201.298136,-227.884477,198.631371
89,-7.175148,0.582689,4.990173,0.334193,0.0,-59.456291,-19.340401,-79.266426,-18.963867,-52.657791,-18.609284,-42.412193,-18.490654,-39.374886,0.0,13.800946,25.491213,30.933425,42.183251,21.494393,51.812672,27.008,56.898077,38.075292,0.0,61.308987,29.089966,96.088268,27.599144,51.572605,26.148148,42.406952,25.516457,38.237652,0.0,15.563747,37.532518,19.608818,49.899347,13.503271,53.85819,20.601592,54.313032,27.237217,181.879269,201.931837,-221.827629,199.016576
90,-8.220749,1.260944,6.819843,0.570833,0.0,-62.270874,-20.260025,-79.476334,-18.966751,-56.212692,-17.686844,-48.836105,-16.681664,-43.41465,0.0,12.612275,24.529943,30.254268,41.624681,24.951267,51.972642,33.871472,57.697695,45.590761,0.0,63.87418,29.60661,96.993531,28.120938,52.879784,26.726567,45.579873,26.105484,41.181885,0.0,13.826288,36.111505,19.123646,49.427154,13.329592,54.295828,21.534715,55.520573,28.617376,174.723702,202.967,-213.942604,199.361628
91,-10.474869,2.502201,8.353775,1.578822,0.0,-64.852798,-22.413093,-83.916458,-20.583664,-60.024582,-18.724136,-54.144401,-17.135376,-48.500679,0.0,11.995882,25.661557,30.551288,43.472623,26.673794,54.230323,37.290011,59.972704,49.890763,0.0,66.347809,29.970177,96.942055,28.450264,56.815625,26.879906,50.29113,25.991616,44.903607,0.0,10.864318,34.549257,19.054028,48.829991,14.464515,54.732354,23.093308,56.689719,30.317452,165.235771,204.935301,-204.601891,200.40655
92,-10.550285,3.682547,9.701191,2.852906,0.0,-67.46093,-25.749504,-89.538277,-23.22583,-68.794579,-20.765854,-62.838135,-18.480171,-55.7948,0.0,11.087867,26.681328,30.602751,44.520244,29.467124,55.268237,41.214708,60.852425,54.413092,0.0,68.744202,30.053582,95.642647,28.337952,60.206967,26.39391,54.565052,25.035759,47.59932,0.0,8.660174,33.124132,19.394878,48.355735,16.142904,55.302471,25.224327,57.911611,32.766041,155.624937,207.873873,-193.961249,202.515481
93,-11.177124,4.397334,10.406845,4.224506,0.0,-69.617752,-28.577339,-94.550057,-25.21415,-81.155937,-22.036217,-73.60009,-19.008087,-63.132981,0.0,9.933788,26.836457,31.550496,44.540102,34.338292,55.176154,46.563861,60.482256,59.537079,0.0,71.489583,30.064694,95.269375,28.212834,65.034897,26.075306,59.507481,24.528145,51.82322,0.0,5.809726,31.55824,19.334462,47.832845,17.155327,55.909836,26.979287,59.074755,35.350938,145.344172,211.390729,-182.658045,205.859509
94,-12.689141,5.095483,10.970582,5.154332,0.0,-70.687248,-29.880729,-98.625091,-26.765235,-90.038681,-23.805839,-81.671585,-20.925155,-68.477668,0.0,8.630732,26.984584,32.471874,45.122249,38.148454,56.16505,50.710426,61.596246,61.465953,0.0,73.427719,30.155124,95.626579,27.965698,71.447135,25.474708,65.380794,23.549034,56.294471,0.0,2.287482,29.564665,20.612819,46.751286,20.333892,55.954704,30.493132,59.764963,39.512434,133.531511,215.489378,-170.810983,210.017007
95,-13.492424,5.403161,11.343795,5.627846,0.0,-71.269889,-31.792831,-103.138778,-28.558273,-95.919548,-25.407325,-87.594612,-22.239624,-72.831436,0.0,8.933901,27.518207,33.985871,45.93581,41.104285,57.13489,53.678448,62.641038,63.18023,0.0,74.257107,29.699215,95.966641,27.272667,78.639244,24.513348,72.187809,22.385788,60.672306,0.0,-0.521136,28.610781,22.449362,46.150529,25.330945,55.984332,35.850659,60.027143,44.826983,120.947999,220.009527,-158.558276,214.761841
96,-12.482437,5.19542,11.548783,5.935894,0.0,-71.932525,-32.527107,-102.438961,-28.75399,-101.613441,-25.064872,-92.578056,-21.243599,-74.71717,0.0,8.958231,26.326486,36.773816,44.370339,47.426182,55.756534,60.288891,61.647795,67.681898,0.0,75.095283,29.293201,97.064129,26.499298,84.562832,23.556072,77.164604,21.306141,63.5629,0.0,-2.165241,28.286864,24.82621,45.902256,30.699094,56.076686,41.787048,60.264203,50.460535,109.419908,224.471392,-146.055147,219.96418
97,-13.001449,5.357627,11.816757,5.978095,0.0,-71.522187,-32.18747,-100.104161,-27.909989,-102.130486,-23.532463,-92.21196,-18.884468,-72.440094,0.0,10.316308,25.984659,40.764633,43.755205,53.551661,55.121134,66.752146,60.972208,71.156457,0.0,75.997181,28.962616,98.712959,25.758304,90.642483,22.630142,81.813526,20.352917,66.528225,0.0,-3.4054,28.344217,27.689094,46.23236,36.012655,56.853641,47.239201,61.261904,55.806157,97.278792,229.196355,-133.378057,225.309611
98,-12.855789,5.493526,10.962719,5.612507,0.0,-69.21135,-31.363816,-95.842919,-26.406144,-98.523995,-21.017945,-87.627137,-15.168183,-67.149651,0.0,14.153491,27.371117,46.403471,44.246838,60.267501,55.019889,73.107511,60.327646,74.4203,0.0,76.423427,28.838562,100.138092,25.140198,95.863323,21.743671,85.89378,19.327286,68.603737,0.0,-4.039588,28.689451,31.725942,46.805701,42.151992,57.809488,52.837234,62.541262,61.194288,85.232409,234.131559,-121.605932,230.363796
99,-12.627961,6.292528,10.475086,5.124864,0.0,-70.202362,-33.125702,-100.70375,-27.266533,-102.928608,-20.557663,-90.855491,-13.352577,-67.564052,0.0,21.367878,28.174897,43.678215,45.623279,59.466832,56.70192,73.818875,62.095164,78.319986,0.0,76.806725,28.756462,100.842854,24.298828,98.016335,20.388485,86.987755,17.645382,68.430714,0.0,-3.144973,29.457417,35.006741,47.883888,46.939996,59.136098,57.320623,64.041785,64.796943,73.349464,239.865743,-110.38583,234.930316
100,-9.902137,6.118959,9.852081,4.842085,0.0,-71.072709,-33.668724,-103.024922,-27.549981,-105.381649,-20.200035,-92.865532,-12.259209,-67.96391,0.0,26.25346,29.46127,39.998397,47.519165,58.189488,59.085635,74.185476,64.646358,83.092837,0.0,76.545891,28.775162,100.142189,23.435006,97.249306,18.766045,85.593144,15.378342,65.931622,0.0,-2.066972,29.723215,38.740603,48.510407,51.278271,60.270007,62.049309,65.671872,69.799467,64.050774,245.468916,-99.930302,239.256615
101,-7.736985,6.041018,8.885811,4.819286,0.0,-72.726997,-33.795066,-105.882911,-27.712875,-108.47937,-20.070694,-96.28442,-11.741386,-69.367859,0.0,25.457485,31.584447,34.253263,49.763422,54.896388,61.444328,74.163962,66.963456,88.057446,0.0,76.006268,28.782097,97.842808,22.383248,94.704334,16.677544,82.198105,12.314312,61.48756,0.0,-0.415346,29.817261,42.787243,48.850553,55.749297,61.080346,66.516605,66.997752,74.325488,56.776868,251.068067,-90.581412,243.634034
102,-5.977066,6.159221,7.894558,4.708914,0.0,-75.231411,-34.1166,-106.071109,-28.696197,-110.064205,-21.324669,-99.940967,-12.791359,-72.043716,0.0,21.028485,34.443367,28.903194,51.818007,50.00147,62.974256,71.373572,68.071073,91.436206,0.0,75.446869,27.898728,95.256844,20.436516,92.267441,13.812081,78.844139,8.562126,56.953823,0.0,1.893255,29.806812,47.642184,48.675515,61.626948,61.07543,72.391848,67.418766,79.557946,51.190939,256.825552,-82.295717,247.941212
103,-4.814529,5.1621,7.358563,4.814976,0.0,-77.711598,-33.916786,-107.343464,-29.150368,-111.4785,-22.69352,-103.698452,-15.073174,-76.968304,0.0,15.431761,36.772988,24.948747,54.029066,43.61975,64.863584,65.491017,69.356222,90.422721,0.0,74.28067,26.726898,92.88557,18.25344,90.066112,10.778457,76.014804,4.651668,52.464134,0.0,3.869503,29.820002,52.378601,48.469084,67.399747,61.066328,78.428136,67.838335,84.396758,46.684971,261.67889,-74.628593,252.447426
104,-1.204949,6.896125,6.735214,5.146069,0.0,-75.476097,-37.271575,-88.17921,-33.206256,-89.203891,-27.071754,-82.993938,-19.587432,-63.856567,0.0,8.218758,34.673375,31.798029,48.54358,47.821755,57.215833,64.833203,60.688268,83.775376,0.0,73.283031,26.246784,90.774891,17.140549,88.675701,9.007496,74.188213,1.961368,49.879806,0.0,4.312673,29.741666,56.222898,47.858323,71.979775,60.514119,83.650813,67.857886,89.761782,45.697483,268.398968,-67.675918,257.417448
105,-1.3255,6.470394,6.345955,5.486697,0.0,-71.924606,-40.535648,-67.023766,-38.528572,-65.859043,-33.93853,-62.695164,-27.618187,-56.555237,0.0,0.582034,31.477692,38.678025,43.952646,51.588097,52.037541,64.735155,55.812245,79.86655,0.0,72.473224,25.994259,89.205562,16.568104,87.950672,7.98341,73.180698,0.14257,48.98275,0.0,4.195829,29.884248,58.636647,47.405804,74.911388,59.858997,86.349578,67.515035,91.979227,44.502199,274.765591,-61.199747,262.800374
106,-3.31144,5.704392,6.094047,4.946751,0.0,-60.06958,-41.353614,-42.802825,-42.355213,-40.108703,-39.954311,-39.906646,-35.254303,-45.295635,0.0,-1.687935,26.956784,44.427544,39.625968,55.73938,48.27809,64.979168,53.112776,76.386581,0.0,71.482739,26.27686,88.918705,16.918362,88.751576,8.209305,74.181439,-0.072956,50.600682,0.0,3.454973,30.221751,60.056512,47.106352,76.429473,59.316668,87.844136,67.247311,93.387161,41.258571,280.395901,-55.037888,267.673043
107,-11.705646,2.43756,5.408901,4.155371,0.0,-37.664314,-34.710766,-12.865677,-37.62141,-7.661774,-38.004055,-10.403606,-36.238323,-36.844975,0.0,-3.386726,23.797534,50.154599,38.138759,62.288184,47.810961,68.588122,54.183023,77.037443,0.0,70.446648,27.315045,88.967858,18.183014,89.373345,9.424347,75.56234,0.748055,52.722096,0.0,1.847597,30.375769,59.908101,46.896573,76.089685,59.039519,87.802182,67.290696,93.775991,29.589077,282.740829,-49.592835,271.735782
108,-10.065102,2.529655,4.831719,3.478092,0.0,-17.131347,-29.042129,15.424359,-34.177311,21.622868,-37.231304,15.677204,-37.983226,-30.060802,0.0,-5.333593,20.265856,53.439758,35.713141,67.951759,46.544311,72.758535,55.067461,80.924471,0.0,69.851303,28.667232,88.588142,19.774326,89.37941,10.863556,76.200348,1.762699,54.358452,0.0,0.80893,30.721311,59.79427,47.045626,75.502043,59.117201,87.177638,67.543033,93.535313,19.514522,285.142438,-44.770569,275.085828
109,-12.572307,-0.950907,4.004517,2.872493,0.0,2.455833,-15.92054,33.547806,-22.827267,37.696106,-29.201992,27.250763,-33.409893,-32.040734,0.0,-7.646183,22.315611,52.772112,40.696263,69.247653,53.246701,75.807708,63.296321,88.958064,0.0,68.991233,29.427108,87.953842,20.677196,88.77404,11.691616,75.903053,2.550842,54.481246,0.0,0.53771,31.473753,59.787601,47.790373,74.913599,59.673301,86.144171,67.776141,92.23312,6.908564,284.038013,-40.799703,277.804803
110,-12.782982,-0.884525,2.215656,2.165328,0.0,20.434021,-3.792938,48.134056,-11.147415,51.230713,-19.418038,38.420677,-25.870445,-27.537426,0.0,-6.129321,25.085808,51.976223,44.206379,69.472387,56.760435,76.367969,66.781403,91.320572,0.0,68.664562,30.149059,88.029087,21.591694,88.58646,12.662418,75.841816,3.681827,54.783153,0.0,0.487457,31.847874,59.570326,48.117823,73.85984,59.808028,84.524532,67.642056,90.420041,-5.947677,282.987828,-38.657306,279.804471
111,-9.638672,-0.129182,1.329552,1.582564,0.0,28.166931,5.188042,57.150764,-1.147579,58.615494,-10.203472,44.687508,-18.196426,-28.397495,0.0,-1.794022,29.533283,53.017706,47.281673,69.056066,58.209742,74.451595,67.107396,90.48714,0.0,68.534145,30.084411,87.870014,21.634277,88.07278,12.823139,75.532459,4.177425,54.830074,0.0,0.640315,32.056318,59.061453,48.572701,73.084046,60.186842,83.401823,67.709463,88.860436,-15.675419,282.704563,-37.416824,281.232952
112,-0.148785,1.340762,0.472537,1.313802,0.0,25.401844,5.884644,56.831486,-0.502555,57.259724,-9.506275,43.062893,-17.639488,-27.475158,0.0,3.30797,30.695302,52.609103,47.245376,66.887157,57.341816,71.262161,65.531736,87.432421,0.0,68.211731,30.099461,87.616677,21.752575,87.71196,12.956131,75.144127,4.438809,54.60244,0.0,0.627619,32.080611,58.574316,48.620101,72.260184,60.069306,82.064,67.30643,87.090928,-15.926897,283.908307,-37.04698,282.409736
113,-1.292209,1.12781,0.385163,0.71402,0.0,24.61251,7.517647,58.603775,0.890911,58.052238,-8.218415,43.212501,-16.40577,-24.567078,0.0,5.050603,31.491499,50.457768,47.645,64.626783,57.460549,69.11973,65.212992,85.058302,0.0,68.344368,29.654056,87.237144,21.303852,87.181892,12.573326,74.569176,4.247269,54.208809,0.0,0.802076,31.943463,58.238555,48.556164,71.986049,59.9009,81.341965,66.904274,85.915373,-17.328392,284.909846,-36.771103,282.997485
114,-0.215733,0.988698,0.287601,0.476256,0.0,21.652897,7.597962,58.567555,1.383602,56.890309,-7.257923,42.050915,-15.119465,-22.673332,0.0,10.20801,32.505059,50.209334,47.429861,63.615015,56.566317,67.491471,63.939662,82.330713,0.0,68.575619,29.233246,86.929516,20.886532,86.785527,12.216214,74.307484,3.979889,53.99944,0.0,0.755343,31.418758,57.774254,48.021109,71.430678,59.382951,80.512954,66.445098,85.098811,-17.690283,285.772506,-36.62966,283.347703
115,0.346676,0.472786,0.727284,0.216275,0.0,20.081612,7.622269,58.065239,1.72205,55.20005,-6.57819,40.397804,-14.1423,-24.21595,0.0,11.429383,32.845155,49.46019,47.546817,63.100263,56.693152,67.036025,64.221799,81.52398,0.0,68.502708,28.741985,86.385589,20.256157,86.115944,11.534752,73.624191,3.320926,53.28685,0.0,0.975668,31.25891,57.543887,48.074931,71.431295,59.539278,80.434024,66.543664,84.557482,-17.53129,286.118191,-36.090059,283.436877
116,-1.94656,-0.88392,0.397545,0.24384,0.0,23.975933,9.282921,60.669537,3.113835,59.02763,-5.510021,43.03339,-13.230686,-21.388252,0.0,9.862924,31.45645,49.162973,47.376064,64.20788,57.562844,68.747734,65.776415,82.77366,0.0,68.576522,28.704254,86.239128,20.076095,85.777244,11.190582,73.093094,2.781418,52.697044,0.0,1.006457,30.87481,57.306901,47.732401,71.176167,59.224857,80.085381,66.241853,84.107235,-19.721489,285.092974,-35.936153,283.53942
117,-2.954281,-1.267205,0.614456,0.120981,0.0,29.763565,12.340966,63.868309,6.106259,62.263802,-2.940834,45.724205,-10.993778,-18.016948,0.0,7.837955,30.825472,49.201011,47.791027,65.207496,58.780624,70.299941,67.564373,84.216385,0.0,68.716278,28.216461,85.742019,19.52021,85.2033,10.677521,72.607132,2.354919,52.406868,0.0,1.226907,30.708875,57.44316,47.704787,71.132658,59.279284,79.959472,66.295638,83.867878,-22.974375,283.692017,-35.620302,283.526649
118,-1.905704,-1.107198,0.362297,0.213644,0.0,34.017414,14.063152,65.547123,8.06052,63.84312,-1.109894,47.295238,-9.271317,-15.872418,0.0,8.337442,30.272004,49.711984,47.997756,66.124355,59.550579,71.356788,68.827886,84.995392,0.0,68.541756,27.959724,85.503044,19.217102,84.866112,10.351318,72.247261,1.994705,52.009918,0.0,1.217101,30.602862,57.260885,47.606357,70.963549,59.16633,79.883705,66.175916,83.700584,-25.217262,282.477809,-35.595188,283.633283
119,-0.916409,-1.059044,0.23251,0.131368,0.0,37.478165,14.901798,67.08902,8.664757,66.205948,-0.801784,49.222115,-9.12878,-15.472572,0.0,7.759495,29.648188,49.952588,48.144388,67.011226,60.313196,72.819272,70.031612,86.897823,0.0,68.575733,27.835933,85.408596,19.057594,84.828838,10.162616,72.095569,1.771293,51.893383,0.0,1.348345,30.395628,57.031384,47.53338,70.911061,59.161353,79.900179,66.187809,83.52688,-26.484427,281.347875,-35.713434,283.693761
120,-0.898567,-1.025402,0.201095,0.052056,0.0,40.434105,15.855309,68.773384,9.421234,68.639786,-0.32095,51.37928,-8.785549,-13.046963,0.0,6.716962,29.467185,50.689789,48.323785,67.853279,60.672052,73.838055,70.461752,87.731971,0.0,68.460331,27.781849,85.197018,19.03093,84.690571,10.135883,71.999027,1.704163,51.966831,0.0,1.437179,30.246512,56.906277,47.385129,70.757561,59.030232,79.849198,66.120291,83.589902,-27.740255,280.281906,-35.8696,283.70525
