takenoko1/special-research/HandMotion_SimilarSearch_自分用/NewProject/handData/test_key/d4_feature_d3/14.csv
frame,vel_0x_L,vel_0y_L,vel_0x_R,vel_0y_R,posFromWrist_0x_L,posFromWrist_1x_L,posFromWrist_2x_L,posFromWrist_3x_L,posFromWrist_4x_L,posFromWrist_5x_L,posFromWrist_6x_L,posFromWrist_7x_L,posFromWrist_8x_L,posFromWrist_9x_L,posFromWrist_0y_L,posFromWrist_1y_L,posFromWrist_2y_L,posFromWrist_3y_L,posFromWrist_4y_L,posFromWrist_5y_L,posFromWrist_6y_L,posFromWrist_7y_L,posFromWrist_8y_L,posFromWrist_9y_L,posFromWrist_0x_R,posFromWrist_1x_R,posFromWrist_2x_R,posFromWrist_3x_R,posFromWrist_4x_R,posFromWrist_5x_R,posFromWrist_6x_R,posFromWrist_7x_R,posFromWrist_8x_R,posFromWrist_9x_R,posFromWrist_0y_R,posFromWrist_1y_R,posFromWrist_2y_R,posFromWrist_3y_R,posFromWrist_4y_R,posFromWrist_5y_R,posFromWrist_6y_R,posFromWrist_7y_R,posFromWrist_8y_R,posFromWrist_9y_R,posFromBody_0x_L,posFromBody_0y_L,posFromBody_0x_R,posFromBody_0y_R
6,1.633061,-0.120018,-0.092285,-0.139753,0.0,15.574527,-8.486218,43.800052,-22.055741,39.64999,-34.05859,22.873981,-43.245827,-13.546109,0.0,-0.53293,8.717738,39.59413,28.526986,54.937749,44.655305,64.110353,57.559844,70.339672,0.0,66.213123,25.403309,86.300205,16.486942,83.735813,6.977634,69.434612,-2.074997,47.878567,0.0,14.475926,27.463186,57.365959,44.450218,70.83265,56.891864,78.468693,64.873994,84.257115,-7.325254,289.048158,-51.135847,278.25825
7,-3.838669,-0.838953,0.275551,-0.029171,0.0,19.684879,-4.150727,47.845516,-17.547341,43.874462,-30.052368,26.65884,-40.068993,-10.717816,0.0,0.692111,9.154128,39.860842,29.143663,55.233471,45.208637,64.395429,57.923702,71.352613,0.0,65.791568,25.372318,86.266308,16.521629,83.77724,6.984901,69.384578,-2.145951,47.692794,0.0,14.490944,27.399151,57.39208,44.342563,70.622896,56.799906,78.185592,64.811589,84.139431,-10.984108,287.455133,-50.680481,277.475007
8,-0.922245,-1.297043,0.054645,-0.151981,0.0,22.207283,-0.143956,50.780983,-13.820675,45.210228,-27.823609,26.692016,-39.709465,-11.993351,0.0,-1.138542,9.193599,38.448301,29.474509,54.243093,45.88289,65.026469,58.904706,73.531934,0.0,65.299164,25.54382,86.435395,16.676983,83.930351,7.047627,69.545082,-2.242229,47.657238,0.0,14.568145,27.460619,57.208163,44.429743,70.390604,56.872982,78.018163,64.871772,84.243766,-11.72822,285.615632,-50.447703,276.780568
9,-0.561001,-0.175,-0.169601,-0.279951,0.0,23.140926,0.394329,51.295269,-13.137016,45.88805,-27.015919,26.976368,-38.731453,-12.928379,0.0,-1.203849,9.48863,37.922829,29.830611,53.774815,46.211291,64.829374,59.172641,74.042486,0.0,65.228737,25.851734,86.933967,16.970569,84.424255,7.240539,69.948646,-2.183132,47.898811,0.0,14.686014,27.763948,57.252833,44.687921,70.298447,57.065161,78.0079,64.996446,84.443836,-12.153076,285.025734,-50.481159,276.085719
10,-0.120152,0.247717,-0.005642,-0.147077,0.0,22.686379,0.060631,51.308029,-13.307705,46.296112,-26.923713,27.382943,-38.360607,-13.008693,0.0,-2.060598,9.180224,37.306425,29.709704,53.251469,46.217541,64.525884,59.241222,73.94912,0.0,65.225155,25.832416,87.143383,16.910259,84.687893,7.177688,70.281315,-2.211456,48.130085,0.0,14.791409,27.861613,57.156107,44.874049,70.180924,57.277792,78.014951,65.157441,84.614428,-12.186184,284.94505,-50.399757,275.610241
11,-0.034504,-0.088834,0.011375,-0.110163,0.0,21.963833,-0.247158,51.267186,-13.488132,46.733906,-26.857967,27.596478,-38.070362,-13.519077,0.0,-3.643558,9.522025,36.746744,30.312747,52.867603,46.845999,64.440544,59.75948,74.029037,0.0,65.279217,25.894913,87.343884,16.932301,84.791439,7.164963,70.489781,-2.238636,48.328892,0.0,14.814628,27.936689,57.157441,44.990424,70.080493,57.387795,78.080111,65.212708,84.707881,-12.163679,284.553577,-50.331373,275.197439
12,-0.090133,0.208853,-0.071193,-0.002297,0.0,22.901127,0.19297,51.551182,-13.065274,47.008701,-26.387627,28.317524,-37.709988,-10.779888,0.0,-5.946911,9.136912,35.724861,29.996967,52.258694,46.657228,63.953938,59.674042,73.145363,0.0,65.571807,25.930538,87.655883,16.95615,85.006118,7.214561,70.795349,-2.127251,48.670211,0.0,14.697351,27.980025,57.150117,45.068871,69.910568,57.468922,78.014248,65.232061,84.797889,-12.214227,284.481959,-50.362981,274.914671
13,1.0788,0.008521,-0.223813,-0.231206,0.0,20.792519,-1.701187,50.268333,-14.67136,46.181785,-27.55006,27.830315,-38.476959,-10.699299,0.0,-7.964679,9.023872,35.665111,29.938205,52.525493,46.608606,64.214624,59.757442,73.086936,0.0,66.194973,26.277409,88.11929,17.25253,85.329884,7.395195,70.999409,-2.066402,48.766709,0.0,14.671379,28.041405,57.257378,45.137933,70.076171,57.520138,78.249282,65.249277,84.988426,-11.088209,284.229406,-50.539576,274.422391
14,0.097149,0.047671,0.144001,0.03726,0.0,19.771717,-1.706417,49.779728,-14.523342,45.717418,-27.23354,28.204937,-38.195538,-7.978008,0.0,-10.517206,8.880167,35.245555,29.814767,52.159153,46.558675,63.934031,59.864345,72.288651,0.0,66.553528,26.198777,88.094628,17.133877,85.154778,7.255177,70.746163,-2.19841,48.434052,0.0,14.523314,27.983385,57.226849,45.066661,70.105119,57.416336,78.252679,65.109659,84.878881,-10.938835,284.06606,-50.34335,274.248634
15,0.268524,-0.143989,0.091393,-0.023181,0.0,18.830807,-1.325283,49.200634,-14.20467,44.86813,-26.998249,27.956486,-38.208344,-6.476406,0.0,-12.202462,9.120659,35.15425,29.912937,52.00921,46.530071,63.779518,59.776325,71.521365,0.0,66.809509,26.308754,88.189842,17.167168,85.025459,7.19141,70.476242,-2.343681,48.05032,0.0,14.456834,27.876396,57.150426,44.914718,70.175898,57.207484,78.343575,64.852654,84.815969,-10.611116,283.759708,-50.192762,274.06309
16,0.351471,0.145434,0.018024,-0.012189,0.0,19.28104,-0.360272,48.673725,-13.360897,43.634548,-26.443176,27.558071,-38.120545,-4.00359,0.0,-14.097125,8.61338,34.560829,29.278625,51.493434,45.990546,63.324579,59.457508,70.368078,0.0,66.992718,26.336724,88.2701,17.159764,85.023983,7.141777,70.293263,-2.414657,47.713955,0.0,14.395997,27.798504,56.99358,44.802764,70.256667,57.06526,78.40635,64.707071,84.782957,-10.194105,283.789607,-50.109198,273.935366
17,-0.013207,-0.381284,-0.11333,-0.116709,0.0,19.160054,-0.081573,48.349171,-13.130584,42.866009,-26.473777,27.332898,-38.354873,-4.112949,0.0,-13.975983,8.690605,35.212926,29.306141,51.96296,46.032512,63.84033,59.627285,70.746323,0.0,67.07389,26.530849,88.519569,17.349037,85.083961,7.263713,70.185447,-2.410515,47.381366,0.0,14.466726,27.921005,56.925112,44.840173,70.444858,57.001645,78.54687,64.577482,84.762407,-10.13506,283.339798,-50.150276,273.750132
18,-0.474517,-0.257635,0.081333,0.062813,0.0,20.273174,0.958568,48.442371,-12.272908,42.460086,-26.115441,26.962154,-38.378872,-5.911847,0.0,-13.742196,8.675402,35.966515,29.161904,52.388321,45.715102,64.082256,59.238998,70.807259,0.0,66.780361,26.459106,88.436359,17.328483,84.930187,7.298881,69.997547,-2.345204,47.207954,0.0,14.50306,28.028055,56.919344,44.869047,70.413118,56.98801,78.536841,64.548372,84.67503,-10.534189,283.06178,-49.993555,273.792562
19,-0.098786,-0.380321,-0.041245,-0.074607,0.0,20.985478,0.96571,47.821873,-12.143154,41.541607,-26.090229,26.028752,-38.33575,-9.705494,0.0,-13.521907,9.229662,36.827267,29.567864,53.133093,45.79812,64.553325,59.035852,71.168684,0.0,66.677067,26.544045,88.542996,17.432225,84.991688,7.400688,70.042774,-2.277031,47.303787,0.0,14.5698,28.002787,56.833819,44.836085,70.426938,56.966113,78.625293,64.553399,84.740399,-10.564436,282.676034,-49.966261,273.71253
20,1.847111,0.008164,0.004978,0.078596,0.0,19.380844,-1.161896,45.217483,-14.265175,39.079628,-28.135025,23.764458,-40.072117,-14.167946,0.0,-13.534344,9.32383,37.438719,29.506384,53.538546,45.549808,64.734846,58.671166,71.39511,0.0,66.584107,26.577725,88.488923,17.535359,84.97007,7.502301,69.955742,-2.258663,47.290387,0.0,14.428712,28.001972,56.797522,44.804432,70.342895,56.965422,78.515698,64.657522,84.684638,-8.648066,282.686665,-49.892024,273.793593
21,3.087284,0.359844,0.029572,0.033975,0.0,15.509777,-4.330261,41.460903,-17.564072,35.361363,-31.303619,20.345638,-42.909897,-17.42284,0.0,-13.163879,9.20401,38.018963,29.13976,54.01747,44.961241,64.949034,57.949378,71.396691,0.0,66.547325,26.667389,88.403847,17.650715,84.895088,7.583416,69.788956,-2.271778,47.241348,0.0,14.369098,28.025881,56.820358,44.825291,70.326396,56.999953,78.385738,64.746418,84.538278,-5.490028,283.054805,-49.791698,273.835864
22,0.348713,3.545795,0.194172,0.111077,0.0,2.453693,-9.28117,39.282715,-20.619244,35.896362,-31.418072,22.389725,-39.787708,-14.825432,0.0,-2.731097,10.414084,38.300607,27.630926,51.219052,41.157502,60.327782,52.395175,64.784371,0.0,66.526829,26.537727,88.150898,17.510948,84.746052,7.425842,69.601604,-2.442387,47.146271,0.0,14.253958,27.809149,56.662437,44.679053,70.15242,56.955097,78.167314,64.841625,84.34921,-5.077423,286.609856,-49.533634,273.956197
23,-0.006329,-0.107631,0.08535,0.054118,0.0,2.120797,-9.283607,38.965748,-20.490543,35.650532,-31.223293,22.076329,-39.525386,-16.078811,0.0,-3.206081,10.615514,38.337645,27.855932,51.320051,41.3842,60.297314,52.62695,65.119712,0.0,66.562374,26.548839,88.079464,17.507137,84.651043,7.379036,69.50893,-2.518021,47.141155,0.0,14.138806,27.627504,56.571343,44.541214,70.015223,56.868029,78.017631,64.81401,84.182965,-5.024804,286.509218,-49.389336,274.017308
24,1.203473,0.251856,0.093967,0.038816,0.0,0.152767,-10.477971,37.592903,-21.767727,34.730323,-32.431824,20.997001,-40.598877,-16.897328,0.0,-3.523936,10.382961,38.539963,27.611585,51.541685,41.150647,60.313245,52.450207,65.057356,0.0,66.421738,26.58672,87.925873,17.558876,84.515763,7.339795,69.389374,-2.71194,47.034691,0.0,14.026952,27.514304,56.560426,44.410859,69.969972,56.781369,78.017706,64.832597,84.185078,-3.772167,286.770562,-49.246205,274.065612
25,-3.093934,-0.829518,0.079537,0.06401,0.0,5.043766,-6.984684,40.684388,-18.004005,37.655411,-28.75447,23.596344,-37.249717,-14.992778,0.0,-5.478336,10.763047,38.211858,28.356221,51.710523,41.995393,60.784672,53.195781,65.689853,0.0,66.347099,26.484295,87.767875,17.505283,84.493698,7.350872,69.461883,-2.61113,47.234081,0.0,13.747544,27.462076,56.530675,44.347701,69.899071,56.732809,78.018904,64.820482,84.067518,-6.822779,285.964324,-49.123346,274.152902
26,-4.675586,-1.175506,0.150272,0.052797,0.0,11.60717,-2.384846,45.270641,-12.999882,42.087719,-23.803952,27.531589,-32.588631,-13.759781,0.0,-7.361192,11.435287,37.826734,29.531554,51.877719,43.279456,61.158818,54.33278,66.391561,0.0,66.205776,26.234471,87.537609,17.25832,84.353428,7.174164,69.484806,-2.660534,47.407894,0.0,13.495355,27.390568,56.452572,44.31974,69.811039,56.772625,78.068465,64.915417,84.092897,-11.465555,284.813123,-48.940264,274.230004
27,-1.784191,-4.256234,0.135063,-0.093181,0.0,26.051467,4.024921,48.06063,-8.117958,41.790939,-21.692013,25.391418,-33.607647,-18.501641,0.0,-19.278194,11.179122,37.480648,32.136002,54.883717,47.93813,65.944945,60.276282,73.368938,0.0,65.880581,26.145825,87.426007,17.154797,84.234158,7.045143,69.469654,-2.815097,47.523754,0.0,13.322762,27.408315,56.520263,44.297423,69.895118,56.741391,78.344032,64.886085,84.283606,-13.223384,280.582834,-48.778839,274.162768
28,-1.245278,-0.465981,0.30312,0.043213,0.0,26.88501,5.397618,48.982132,-6.597462,42.198075,-20.104019,25.857903,-31.922481,-18.492325,0.0,-19.556318,11.969132,37.425641,33.064246,54.919681,48.728659,66.046475,60.702273,73.362639,0.0,65.557594,26.055084,87.146141,17.040241,84.002289,6.871181,69.22966,-3.057278,47.460045,0.0,13.13178,27.522232,56.673848,44.368276,70.05247,56.791767,78.498259,64.969485,84.367056,-14.448218,280.143103,-48.455275,274.232231
29,-2.234768,-0.800223,0.077087,-0.048857,0.0,29.514805,7.655354,51.191654,-4.152981,44.123783,-17.729347,27.770497,-29.711014,-18.458164,0.0,-19.592899,12.644965,37.469322,33.919724,55.075723,49.558769,66.341851,61.397101,74.028456,0.0,65.363869,26.126908,87.064751,17.153149,83.972351,6.983803,69.296219,-2.964729,47.677861,0.0,13.03976,27.610424,56.626708,44.436028,70.062721,56.84633,78.639396,65.044117,84.425299,-16.662409,279.364758,-48.357611,274.205252
30,0.32634,0.053933,0.114499,-0.106433,0.0,28.073009,6.947124,50.675915,-4.746254,43.677212,-18.248726,27.68652,-30.068367,-19.280937,0.0,-18.373588,12.818298,38.000573,33.89469,55.399777,49.437664,66.490892,61.364892,74.341938,0.0,65.15205,26.197036,86.930019,17.200721,83.798618,6.94646,69.080188,-3.128712,47.511795,0.0,13.199743,27.748622,56.784098,44.533322,70.197991,56.91822,78.791772,65.130963,84.587863,-16.319235,279.428951,-48.226278,274.109079
31,1.100498,0.224302,-0.119053,-0.185165,0.0,26.165932,5.621247,49.473862,-5.988441,42.67701,-19.481746,26.869789,-31.201343,-20.818989,0.0,-17.3635,12.695526,38.532739,33.539551,55.501999,49.030457,66.44826,61.112876,74.535007,0.0,65.091247,26.572334,87.107093,17.584144,83.904007,7.214229,69.142891,-3.062634,47.625435,0.0,13.414548,27.807063,56.869931,44.529136,70.288802,56.866164,78.950594,65.097099,84.798926,-15.203442,279.659434,-48.330036,273.930095
32,0.690045,0.112262,-0.141083,-0.015339,0.0,25.191066,4.858612,48.751682,-6.676518,42.229763,-20.125969,26.622264,-31.748875,-21.681714,0.0,-17.119919,12.44319,38.71305,33.270072,55.449005,48.818048,66.401256,61.114136,74.513568,0.0,65.165726,26.720444,87.193771,17.802933,84.003822,7.474068,69.144218,-2.78302,47.57896,0.0,13.376807,27.975629,56.977192,44.652526,70.371856,56.942772,78.922115,65.148895,84.665916,-14.500064,279.791858,-48.457786,273.934918
33,0.428444,-0.029208,-0.090065,-0.081091,0.0,25.965579,4.237792,49.248401,-7.436669,43.243091,-20.867718,27.603778,-32.616028,-19.103199,0.0,-17.326523,11.555145,38.277055,32.435503,55.143501,48.344707,66.546332,61.146703,74.613702,0.0,65.238579,26.467918,87.315742,17.608875,84.200592,7.438934,69.430824,-2.627506,47.809181,0.0,13.304929,27.785981,56.54773,44.479921,70.135735,56.818098,78.725922,65.035386,84.469476,-14.064411,279.793901,-48.540642,273.885078
34,-0.187512,-0.851489,-0.059715,-0.372231,0.0,28.281601,4.750168,50.502388,-7.155121,44.320747,-20.942322,28.33889,-33.097824,-17.264957,0.0,-15.850688,11.671903,38.92147,32.638909,55.605555,48.679283,67.28998,61.573769,75.2719,0.0,65.038467,26.355388,87.51139,17.595657,84.448883,7.592468,69.506927,-2.290776,47.998855,0.0,13.423465,28.012926,56.450152,44.674608,70.236808,56.926186,78.577671,65.050971,84.081609,-14.25071,278.987713,-48.599144,273.558148
35,5.110245,-0.819341,0.288986,-1.791355,0.0,20.776909,-1.602265,44.589157,-13.993092,39.265571,-27.309025,23.449722,-38.664631,-20.900917,0.0,-9.526397,12.007775,41.466995,32.180165,57.431971,47.560735,68.053079,59.904161,75.295624,0.0,65.029243,26.16497,86.958961,17.299599,83.938637,7.28104,69.070404,-2.573353,47.493439,0.0,13.045269,27.613759,57.704908,44.230845,71.814445,56.44578,80.01443,64.560785,84.708981,-9.147486,278.227294,-48.317179,271.825715
36,2.803001,8.879129,1.77158,-4.69828,0.0,6.784321,-10.484127,30.386112,-19.558422,31.944695,-28.348171,21.519768,-35.137264,-13.630623,0.0,-2.037085,8.455163,37.044986,21.807182,47.12479,31.465601,53.287431,38.990346,55.707418,0.0,63.838176,25.276599,82.868305,16.047626,79.265842,5.638984,61.663719,-4.733941,38.793811,0.0,14.412954,27.276886,59.931813,43.47681,75.334255,55.570554,83.986575,63.681594,85.789761,-6.355477,287.192633,-46.556591,267.213645
37,0.611859,2.260855,0.693832,-10.261041,0.0,-4.082749,-12.210617,15.310146,-16.93697,19.769531,-21.185509,14.997997,-24.123082,-6.878323,0.0,2.345182,5.77496,33.971075,16.79894,44.538448,25.303244,49.987996,31.965694,50.635066,0.0,59.821358,31.655457,75.848019,22.208233,69.500221,10.764141,51.69952,-1.717049,31.237072,0.0,15.74144,28.985186,68.762085,42.630953,83.054119,52.924018,88.799377,59.709511,86.903528,-5.709537,289.53518,-45.828678,257.034296
38,14.28115,-13.616694,-4.95789,-24.791136,0.0,-20.388404,-20.69728,-12.354824,-20.762878,-5.094314,-19.714164,-3.747974,-17.615261,-14.925064,0.0,15.881415,8.290388,42.525026,18.325632,53.281602,26.221065,57.140978,32.276248,56.237063,0.0,58.341408,33.495083,67.922287,23.224228,60.952813,11.121895,44.627255,-1.705913,27.611859,0.0,18.082793,24.248708,64.15296,37.893523,79.197312,49.303851,86.155052,57.959147,84.35194,8.615152,276.080964,-50.743029,232.405638
39,18.341183,-20.67862,-8.660282,-26.502881,0.0,-39.566128,-29.608005,-39.081287,-24.955616,-28.726375,-18.434292,-20.93724,-11.348671,-19.772793,0.0,26.365882,8.111423,47.299099,16.954489,58.70624,24.572008,61.135131,30.565404,58.712749,0.0,54.92751,34.899445,57.105595,24.700802,48.737881,12.162575,33.491604,-1.48114,19.776158,0.0,17.410269,12.748866,47.634848,19.642102,56.33755,26.119238,58.130856,31.543734,48.725564,26.93125,255.702957,-59.428396,206.20337
40,15.512856,-32.238618,-21.208374,-47.394973,0.0,-48.124295,-31.859768,-54.940785,-22.875172,-42.899449,-12.222405,-29.923485,-1.265843,-17.099556,0.0,26.710227,8.162379,46.624537,16.928245,60.035455,24.845834,62.322356,30.952493,59.958526,0.0,46.743233,34.286728,46.261379,27.733647,39.717419,18.423374,28.553387,7.54216,20.129059,0.0,4.244439,3.738926,26.507494,10.198834,36.087126,17.307233,40.17764,24.027802,34.274486,42.376294,223.888626,-80.704582,159.232684
41,20.995308,-54.159681,-21.954689,-50.269751,0.0,-48.941185,-29.784897,-59.277649,-20.95942,-52.312031,-10.830666,-39.984559,-0.496537,-26.262383,0.0,13.986147,6.759287,44.827032,20.806338,65.771945,34.115775,74.144924,45.372924,77.073913,0.0,35.009686,26.715958,25.940632,19.327046,26.086636,10.479241,18.309139,0.673382,13.430855,0.0,-11.029167,-13.030442,-12.372003,-7.907325,11.965483,-0.590846,16.809407,7.29102,13.2919,63.21278,170.630745,-102.818093,109.864733
42,22.910339,-51.745141,-27.229797,-55.507988,0.0,-46.8731,-29.621773,-59.292423,-20.518387,-53.23526,-10.29982,-41.148239,0.104988,-28.990059,0.0,3.977103,-3.2468,25.381482,8.886879,54.824832,21.569277,64.018035,33.32863,67.536815,0.0,23.073234,10.776409,6.445873,2.385418,17.250995,-5.534363,11.369087,-12.805229,6.007667,0.0,-27.454122,-30.677926,-57.225614,-24.482668,-17.466209,-15.414614,-8.460968,-4.944788,-7.735962,85.459408,120.198594,-130.711601,55.669735
43,9.688614,-44.049588,-27.434178,-49.718073,0.0,-38.115692,-22.036858,-42.117954,-12.30304,-39.877922,-2.346817,-28.866257,7.694114,-17.932572,0.0,-16.930667,-19.047174,-15.076499,-9.527243,27.794799,1.7114,38.506186,13.190357,42.560928,0.0,6.585537,-1.503513,-13.852443,-9.812061,6.699841,-17.130638,1.109368,-23.76416,-5.105724,0.0,-44.322744,-41.863133,-86.354289,-37.133808,-36.084495,-29.38,-26.447139,-19.658071,-26.303934,94.166834,77.968738,-159.126967,7.771394
44,7.224518,-45.23792,-27.119808,-52.19774,0.0,-27.498665,-13.705605,-24.937729,-3.462159,-28.207077,6.363395,-18.001442,16.543327,-7.591256,0.0,-37.47622,-32.189082,-52.63318,-25.190661,2.84297,-15.857629,14.988221,-5.476965,18.930398,0.0,-8.859752,-13.394336,-33.154381,-22.145885,-1.495697,-29.181198,-6.324177,-35.067054,-14.137333,0.0,-59.805454,-44.262177,-100.848989,-34.353314,-35.913679,-22.018048,-19.313374,-8.044134,-11.371956,100.538447,34.645346,-187.09968,-42.511818
45,6.147857,-41.504539,-15.208523,-33.218239,0.0,-17.338371,-4.525749,-10.366722,6.492211,-18.644874,16.445458,-8.799362,26.542923,1.246926,0.0,-52.566162,-45.33517,-85.30217,-40.869702,-20.281904,-33.179484,-6.85069,-23.253989,-3.330953,0.0,-20.993019,-24.92213,-55.644584,-36.963947,-11.987182,-46.358963,-18.748352,-53.96101,-29.642795,0.0,-61.769864,-47.543217,-110.371362,-38.480418,-38.867649,-26.969422,-22.654562,-13.094756,-16.864816,105.846908,-4.689755,-203.147599,-73.560619
46,5.329949,-33.273401,-12.333,-28.027611,0.0,-9.054222,2.316444,-0.921868,14.617492,-11.021439,25.444702,-1.241181,36.41494,10.735496,0.0,-55.941461,-52.193455,-104.429471,-50.357248,-36.500106,-45.057386,-25.255301,-37.133384,-23.854147,0.0,-27.459537,-29.415447,-62.272762,-40.190311,-11.794018,-48.810264,-16.969413,-55.715423,-27.914314,0.0,-62.217906,-44.203529,-105.224916,-34.82994,-40.444788,-23.531878,-23.30312,-9.823864,-17.132127,110.444218,-35.935261,-216.213238,-99.560335
47,9.445953,-34.767186,2.297562,-13.642197,0.0,-5.744476,3.931069,6.907791,16.221863,-7.008545,27.256622,2.393715,39.125679,14.430908,0.0,-57.323198,-51.417891,-111.517931,-49.205183,-43.478416,-44.488578,-33.10748,-37.402419,-32.063222,0.0,-28.442482,-28.058647,-62.452171,-38.49456,-13.060879,-47.278175,-18.084091,-54.59206,-28.496533,0.0,-61.265162,-44.368122,-103.742319,-35.70261,-41.760597,-25.271643,-24.946963,-12.457834,-19.321226,119.325594,-68.800583,-214.480253,-111.300668
48,12.53112,-29.830444,14.792221,-0.175884,0.0,-3.639999,4.664315,7.90226,16.531403,-3.435722,27.736863,5.495934,40.252396,16.354706,0.0,-57.311203,-48.638981,-100.799869,-46.844712,-45.755311,-42.575918,-36.292795,-35.995591,-36.271208,0.0,-21.058857,-23.561474,-48.67487,-33.952,-9.292889,-43.137909,-14.985249,-51.223309,-25.236866,0.0,-61.052901,-44.652745,-92.609294,-37.349542,-41.977834,-28.263624,-26.897102,-16.842008,-21.941721,131.565588,-97.095875,-199.979158,-109.9414
49,13.407761,-21.9695,19.112595,6.570046,0.0,-0.218605,7.22525,15.319428,18.607407,0.822395,29.638092,8.958939,42.135086,19.158302,0.0,-57.5061,-47.618157,-99.899093,-45.16205,-47.672862,-40.341202,-37.769871,-33.112949,-37.552812,0.0,-8.920601,-15.35376,-26.669358,-26.516991,-1.84504,-36.561425,-9.629471,-45.782879,-18.938862,0.0,-58.677557,-46.353391,-92.35876,-41.600579,-39.19997,-34.413069,-26.194105,-24.788569,-23.407867,144.718082,-117.836613,-181.12183,-102.142592
50,10.944626,-12.328661,17.053905,9.983461,0.0,2.686157,8.880569,21.063949,20.150276,3.364128,31.208336,11.018944,43.69075,21.26168,0.0,-56.852728,-46.11627,-98.83287,-43.400317,-47.735684,-38.18614,-37.38186,-30.530781,-37.006121,0.0,3.223011,-5.18335,-2.379021,-17.58712,4.165043,-29.317211,-5.370209,-40.709118,-14.469234,0.0,-56.033373,-48.844076,-93.01258,-46.791563,-39.784268,-41.662972,-29.389161,-34.059357,-28.265019,155.496763,-129.34927,-164.23387,-91.343127
51,5.406738,-6.493945,8.593929,8.908182,0.0,3.790375,9.600449,24.114464,21.270264,3.804611,32.252541,11.462082,44.209808,21.858902,0.0,-53.304342,-46.003585,-102.940733,-42.314341,-43.779002,-35.982472,-33.293862,-27.221805,-32.549933,0.0,10.913865,5.959855,13.816201,-6.897674,6.133461,-20.061206,-4.149318,-33.580043,-13.18832,0.0,-56.250342,-49.706046,-86.348981,-49.500235,-46.34808,-46.146079,-37.457667,-40.382435,-36.281485,160.605268,-135.60484,-155.938174,-82.19657
52,-3.047996,5.080765,-6.310936,0.339338,0.0,2.424213,8.523594,21.680614,20.546837,3.069625,31.65366,10.634823,43.367752,20.893226,0.0,-52.870362,-46.610892,-103.316543,-42.882883,-41.579146,-36.347605,-30.6475,-27.403464,-29.873825,0.0,11.974617,5.467472,14.742382,-7.483188,7.105305,-20.505111,-3.444099,-33.781654,-11.983474,0.0,-57.629298,-49.564537,-86.864605,-49.100164,-45.608463,-45.283047,-35.993278,-39.007655,-34.578666,157.321267,-130.737271,-162.485115,-82.070428
53,-11.496254,13.951382,-16.022266,-5.355039,0.0,-1.268269,6.504146,17.199543,18.976318,-1.021752,30.004703,7.347233,41.339355,18.658012,0.0,-54.023384,-48.64689,-112.347748,-45.270339,-40.647021,-39.183002,-29.155913,-30.638902,-27.957398,0.0,3.360729,0.110447,-3.324486,-12.183002,0.424072,-24.272884,-8.750931,-36.716469,-16.893471,0.0,-57.10881,-48.39185,-97.096827,-46.175177,-44.542243,-40.495618,-33.339851,-32.045259,-30.127949,145.383465,-117.215237,-178.948929,-87.854815
54,-13.214402,15.654346,-18.292637,-6.505962,0.0,-7.202236,1.65849,4.185048,14.387879,-6.624664,25.561604,3.159153,37.062424,14.916115,0.0,-53.305041,-49.205894,-110.698231,-47.035153,-40.532748,-42.206419,-29.759522,-34.933978,-29.131519,0.0,-8.125339,-9.262138,-26.888878,-20.866241,-7.46505,-31.54549,-13.966518,-41.984848,-22.026844,0.0,-57.189187,-48.234522,-99.622567,-43.02958,-47.120955,-35.03958,-33.628428,-24.491399,-27.826585,131.317577,-101.878028,-198.093052,-94.677914
55,-9.84732,11.587385,-12.3158,-4.60421,0.0,-11.517551,-2.712925,-5.595829,10.133423,-9.804497,21.627903,0.59753,33.861534,11.49836,0.0,-53.38009,-50.18215,-108.935041,-49.024436,-41.334568,-45.155708,-31.309338,-38.914219,-31.598001,0.0,-15.579174,-16.969104,-44.013107,-28.197383,-12.959198,-37.976909,-17.775318,-47.039966,-25.921691,0.0,-58.807844,-48.546259,-103.89739,-40.980238,-48.633932,-30.989271,-31.956054,-18.600687,-24.956833,120.547474,-90.927207,-211.331635,-99.918688
56,-3.488457,6.886727,-4.490364,-2.092993,0.0,-11.475208,-4.941753,-7.266254,7.828995,-9.572319,19.672131,0.688008,32.724495,10.465897,0.0,-56.390787,-49.648802,-104.363,-49.129335,-44.879993,-45.972465,-34.303278,-40.439451,-34.432301,0.0,-17.883705,-23.437328,-50.169056,-35.037048,-12.750663,-44.196476,-18.198681,-52.226761,-25.833183,0.0,-58.881055,-49.224168,-112.429086,-40.651395,-40.329182,-29.256363,-23.069972,-15.182462,-16.555569,116.308777,-84.942422,-216.572239,-102.913623
57,4.938217,-0.29123,4.883721,4.373547,0.0,-9.745445,-4.574661,-3.457946,7.962342,-7.42646,19.998047,2.472199,33.646614,11.689293,0.0,-57.685173,-49.38656,-103.973248,-48.560651,-46.702359,-45.110995,-35.23733,-39.301643,-34.884827,0.0,-12.647953,-21.44046,-38.409291,-32.396977,-7.956906,-41.052098,-13.741242,-48.880509,-21.419461,0.0,-56.998273,-47.669904,-106.249284,-40.155647,-38.436084,-29.429919,-20.593898,-15.971342,-15.447971,120.980747,-86.096095,-211.954765,-99.402519
58,10.941811,-6.238509,12.155662,8.262619,0.0,-5.96489,-1.18206,4.572876,10.91391,-4.475922,22.718262,5.090103,36.000618,14.349335,0.0,-57.873755,-49.723401,-106.730955,-47.828216,-46.841256,-43.256163,-34.420497,-36.194087,-33.39558,0.0,-2.26934,-16.106998,-17.343441,-27.381443,0.591202,-36.347088,-7.251663,-44.459667,-15.712749,0.0,-56.440256,-47.077017,-102.671919,-41.874341,-35.745211,-33.084988,-19.315961,-21.772034,-16.960794,132.185223,-93.62956,-199.536438,-92.434856
59,10.030151,-7.099796,17.451714,10.060562,0.0,-2.302551,2.33194,12.661377,14.342285,-1.099502,26.107498,7.78434,39.09462,17.121323,0.0,-58.665226,-49.412053,-109.633652,-46.782011,-46.151891,-41.193475,-33.151608,-33.086294,-31.610225,0.0,6.474838,-10.161381,0.059978,-21.914074,7.037681,-31.989578,-3.456551,-41.746124,-12.10104,0.0,-56.632852,-46.944407,-101.394053,-43.915333,-33.607106,-36.885145,-18.229024,-27.410723,-18.580427,142.939893,-102.102444,-181.360205,-83.747382
60,6.3872,-4.424028,14.879253,8.653641,0.0,-1.137017,5.357391,17.333061,17.476249,0.404136,29.170532,9.330963,41.389412,19.320717,0.0,-59.634714,-50.013302,-114.432122,-46.592946,-45.178001,-40.268429,-31.756839,-31.496249,-29.75071,0.0,11.219136,-6.407856,10.416767,-18.398941,10.88395,-29.148365,-1.229049,-39.888119,-9.968605,0.0,-57.524343,-47.196908,-101.278548,-45.495292,-30.576049,-39.636953,-17.076341,-31.375816,-18.935807,150.156155,-107.616765,-165.65189,-76.184034
61,1.682716,-1.015949,11.132813,7.900898,0.0,-1.89473,8.06234,18.279739,20.034966,0.752243,31.605583,10.043266,43.626274,21.44886,0.0,-60.179648,-50.278066,-119.513492,-46.763315,-44.730294,-40.295059,-30.989762,-31.374057,-29.597723,0.0,14.450546,-4.561192,14.723991,-16.505528,11.242527,-27.692116,-1.194752,-39.051007,-10.568264,0.0,-58.334383,-47.394528,-102.53643,-46.205049,-31.681753,-41.274297,-18.431418,-34.069759,-20.956509,152.670467,-109.25622,-153.687481,-68.906642
62,-2.183945,1.541315,8.063701,6.008253,0.0,-2.568924,9.299904,16.620987,21.092812,0.282212,32.605225,9.577538,44.408089,21.441857,0.0,-60.428061,-49.691579,-118.764367,-46.563605,-44.728683,-40.412554,-31.026584,-31.741243,-29.857025,0.0,13.80502,-4.397838,11.572346,-16.75122,9.381546,-28.771831,-3.552623,-41.107601,-13.544963,0.0,-59.659716,-48.459932,-108.458411,-46.996077,-32.396162,-42.238239,-20.368379,-35.371729,-22.55511,151.163171,-108.408508,-144.947131,-63.591992
63,-3.392624,2.742737,3.792103,3.483501,0.0,-4.318359,8.821015,14.401452,20.655076,-0.744323,32.402276,8.622506,44.486412,20.751114,0.0,-59.992785,-48.141513,-117.203847,-45.468931,-44.526793,-39.67622,-30.995934,-31.517327,-29.924123,0.0,11.321526,-4.663078,5.271057,-17.549034,6.290257,-30.376556,-6.070049,-43.438843,-16.218773,0.0,-61.566766,-49.433427,-113.98913,-47.299197,-34.002074,-42.207808,-21.275073,-35.138652,-22.307385,148.223545,-106.016812,-140.70203,-60.459532
64,-3.135154,5.344097,0.137158,1.541649,0.0,-5.582749,8.050026,12.442909,20.012169,-1.432434,31.945816,8.116104,44.259842,20.040847,0.0,-59.987299,-48.50322,-117.090659,-46.083564,-44.562914,-40.498412,-30.883641,-32.440465,-29.84734,0.0,9.694954,-5.484158,1.773983,-18.434864,4.019027,-31.174679,-6.844151,-44.002282,-17.47649,0.0,-62.806764,-49.881452,-117.100304,-47.19697,-34.038612,-41.646676,-21.569184,-34.079207,-21.545892,145.421837,-101.155937,-140.231426,-59.401105
65,-2.582566,6.922579,-0.695446,2.06917,0.0,-6.032524,7.663605,11.623948,19.709656,-2.014572,31.806542,7.54049,44.408799,19.486039,0.0,-59.721093,-48.481536,-116.999157,-46.384341,-44.446193,-40.934178,-30.61578,-32.816571,-29.504303,0.0,9.132133,-5.840458,1.100338,-18.819981,3.509651,-31.39737,-6.860642,-43.973465,-17.453476,0.0,-62.494091,-49.883434,-118.310116,-47.049313,-33.590187,-41.342988,-21.26318,-33.600752,-20.983161,143.1219,-95.043153,-140.644243,-58.14173
66,-2.202896,8.975861,0.426281,3.344791,0.0,-7.14109,6.933518,10.928925,19.197167,-3.276649,31.445206,6.655678,43.948197,18.547234,0.0,-59.430285,-49.579511,-119.713548,-47.508794,-43.853466,-42.028661,-30.176506,-33.701479,-28.703055,0.0,8.400329,-5.75084,0.950317,-19.00153,2.728077,-31.685212,-7.012608,-44.260598,-17.69727,0.0,-62.034167,-50.090514,-118.964163,-47.288583,-32.121206,-41.346495,-20.128103,-33.316021,-19.776378,141.18168,-87.163714,-139.955286,-55.893361
67,-2.926986,11.695849,0.992202,5.267304,0.0,-8.521317,6.219291,10.351616,18.967186,-4.873352,31.342186,5.467414,43.628563,17.833145,0.0,-59.347256,-51.244493,-124.386442,-49.01781,-43.325707,-43.368599,-29.803737,-34.773164,-27.81811,0.0,8.172787,-5.346862,1.386052,-18.947731,2.290329,-31.754024,-6.752918,-44.363708,-17.710876,0.0,-61.491832,-50.407849,-119.729822,-47.593296,-30.906569,-41.514407,-18.553121,-33.377469,-18.56047,138.5663,-76.448745,-138.651478,-51.606937
68,-4.244271,14.76474,1.20979,7.107411,0.0,-8.626419,5.358513,8.695725,18.572777,-6.238609,31.013649,4.367638,43.114746,16.870629,0.0,-58.85882,-52.486856,-125.56155,-50.112954,-42.37748,-44.435195,-29.350088,-35.870154,-26.550047,0.0,8.195251,-5.349141,2.577392,-19.080071,2.549709,-31.671433,-6.447121,-44.06218,-17.264008,0.0,-59.90426,-50.794685,-120.127903,-47.981682,-29.577157,-41.639155,-17.997257,-33.209242,-17.917,134.717766,-62.539539,-137.045951,-45.35506
69,-5.826668,17.654955,1.698623,8.321775,0.0,-8.560569,4.942017,6.355706,18.647164,-7.718559,30.899758,3.016457,42.409447,15.291482,0.0,-58.364989,-53.534087,-126.356086,-50.8578,-40.680301,-44.837851,-27.977932,-35.943532,-24.500791,0.0,8.003014,-5.566646,3.625191,-19.4286,2.604962,-31.809631,-6.612842,-43.906299,-17.249233,0.0,-57.73514,-50.975261,-119.844949,-48.020615,-27.100187,-41.119803,-15.880649,-32.162733,-15.763954,129.343877,-45.299716,-134.894549,-37.448417
70,-6.107666,21.215966,2.356671,9.674376,0.0,-10.854652,3.725716,1.88411,17.75837,-10.860443,29.483094,-0.144699,39.923928,11.499253,0.0,-57.025654,-54.593107,-125.174523,-51.834587,-39.435011,-45.314429,-26.536641,-35.773033,-21.968512,0.0,8.129608,-6.559182,3.793831,-20.456097,2.242916,-32.383908,-6.868115,-43.704758,-17.211457,0.0,-54.46316,-50.754516,-118.292084,-47.351834,-23.624726,-39.584207,-12.38935,-29.928647,-12.767207,123.684219,-23.12116,-132.08987,-26.811451
71,-7.496475,22.44399,3.095157,10.336389,0.0,-14.119468,2.684098,-6.349708,16.250016,-14.175499,26.779289,-3.726265,35.656655,7.140038,0.0,-52.397238,-54.43791,-116.283007,-50.998505,-34.502246,-42.79763,-21.873311,-31.542524,-15.632525,0.0,7.679043,-7.466881,3.566014,-21.443172,1.894558,-33.024467,-7.353847,-43.59185,-17.834449,0.0,-49.404943,-49.86959,-114.372545,-45.99485,-18.354483,-37.035335,-7.364799,-26.396097,-8.226896,116.737879,0.674228,-128.444578,-15.123664
72,-6.833381,19.651797,3.919499,18.340644,0.0,-21.592347,0.127304,-18.881882,12.20652,-21.46177,21.0783,-10.99141,28.179771,-0.671631,0.0,-48.270143,-48.50443,-95.419753,-43.15314,-21.855243,-32.777607,-9.498967,-19.822506,-2.529581,0.0,8.627735,-8.434868,3.311771,-22.856312,3.034309,-34.236878,-6.713345,-44.168335,-16.328453,0.0,-47.51651,-51.277943,-114.725637,-47.370915,-16.788393,-37.814081,-7.215239,-26.272343,-7.673822,110.366496,21.860159,-124.063081,4.751114
73,-7.856713,21.010861,5.129768,21.116788,0.0,-32.153343,-5.460159,-31.897407,4.664269,-29.725227,12.079422,-18.938369,17.957772,-9.795089,0.0,-38.401648,-40.93428,-69.696047,-33.506131,-7.991528,-21.2852,5.023495,-6.812305,12.489812,0.0,9.071411,-8.966514,3.199802,-23.818336,3.831631,-35.199497,-5.837093,-44.65012,-14.612125,0.0,-46.877016,-52.04116,-114.475285,-47.926162,-14.992499,-37.758888,-5.912515,-25.331988,-6.072541,103.015852,44.164629,-118.427244,27.161511
74,-7.421814,23.918053,4.889385,24.06405,0.0,-43.697731,-13.146423,-49.187107,-5.591377,-42.007782,0.393814,-31.279312,5.571282,-21.184501,0.0,-25.762482,-31.85558,-42.041058,-21.972198,7.965896,-7.837677,20.830396,7.804919,28.661707,0.0,12.063401,-8.321479,5.29422,-23.286358,7.168465,-34.007801,-3.150203,-42.19392,-10.97208,0.0,-45.959041,-52.592129,-112.449576,-48.779825,-13.659809,-38.14825,-5.132905,-24.761341,-4.348829,95.995491,68.914034,-113.136406,52.056913
75,-6.85231,21.710012,1.406811,21.188912,0.0,-51.654465,-19.920021,-66.757461,-14.20063,-56.761047,-8.673065,-46.540466,-3.45639,-34.255165,0.0,-14.273113,-20.441047,-12.067704,-8.326722,25.250225,7.072615,37.681522,23.068145,46.796315,0.0,19.142887,-4.551006,13.764027,-17.778843,13.263565,-26.534649,3.670715,-32.682575,-2.800678,0.0,-42.031412,-48.792483,-101.16975,-43.512823,-8.886538,-31.144221,0.504007,-16.376684,3.445747,89.506697,90.175939,-111.366079,72.797718
76,-7.783699,26.111971,2.995068,25.553303,0.0,-59.957897,-27.138245,-79.091183,-22.878273,-71.241943,-17.5559,-60.8214,-11.863586,-46.913383,0.0,-2.977006,-9.182836,10.68907,5.479701,38.254732,21.554253,50.844684,37.049265,59.526551,0.0,28.877964,0.298805,24.349994,-10.460301,23.605419,-17.144955,13.803245,-21.524792,7.664566,0.0,-37.133709,-44.158677,-86.990788,-37.132962,-4.741839,-23.902603,4.912535,-8.485717,9.449412,81.883066,115.645829,-108.210943,97.70894
77,-8.467003,27.691021,3.556583,20.796495,0.0,-61.432789,-32.617218,-86.506473,-28.721512,-81.929329,-22.970375,-71.842735,-16.249283,-55.722839,0.0,7.895562,-1.079274,25.224766,14.841428,47.873829,30.819501,60.184051,45.436645,69.351641,0.0,38.409794,6.549076,37.739307,-1.893562,35.180283,-7.137978,25.512657,-10.262203,18.186081,0.0,-27.612111,-35.858903,-62.732231,-26.217817,5.135269,-11.210812,16.326278,5.220188,21.117048,73.534149,142.467308,-104.536274,117.635893
78,-7.416275,26.169689,2.653336,18.758978,0.0,-60.032432,-35.451484,-92.498623,-31.735084,-91.031215,-25.646049,-81.534645,-18.304687,-62.821815,0.0,13.43127,6.008902,33.285287,22.752804,55.319082,38.726215,67.943941,52.457975,77.401128,0.0,49.10535,13.790897,54.610199,6.642494,51.293174,1.790542,40.054641,-1.147179,28.979427,0.0,-14.797597,-25.69526,-32.924967,-14.058481,19.64708,1.948491,29.904039,18.817438,34.921328,66.143703,167.75774,-101.857109,135.515614
79,-5.359588,31.096569,9.872497,21.399606,0.0,-61.201355,-35.960358,-95.97202,-32.728638,-99.225998,-27.076172,-89.524739,-20.144921,-67.168087,0.0,17.625148,11.729404,37.70385,21.914715,45.012283,30.699353,47.987208,37.318367,53.004787,0.0,54.908352,23.411865,60.292969,17.897381,53.386482,12.649327,42.42152,7.888367,31.67395,0.0,-4.621222,-12.943121,0.997942,0.623697,38.667144,17.314729,50.217077,34.1461,54.733527,61.012202,198.048966,-91.756525,156.109877
80,-6.696007,26.917684,10.827702,24.202185,0.0,-62.57111,-34.71373,-95.478413,-32.074768,-99.259232,-27.732926,-87.900959,-22.573654,-67.620758,0.0,19.339377,18.159746,36.217333,23.69693,33.746624,26.572919,30.437185,26.661098,32.492708,0.0,60.410454,27.681999,67.71722,20.45549,62.39027,12.655735,49.713363,5.262108,35.20935,0.0,0.617714,-4.926831,22.569429,9.669287,50.434439,25.946782,60.661418,41.89096,63.902969,54.710833,224.361613,-80.534185,179.707025
81,-13.492447,23.634772,8.570652,21.013319,0.0,-57.283436,-29.684097,-83.477795,-27.414185,-85.116074,-23.989987,-75.137695,-20.28043,-57.591511,0.0,23.844255,22.352921,30.964608,21.460442,21.177502,17.079917,11.80064,10.06265,9.22624,0.0,63.657841,30.609501,74.09721,21.607532,68.519359,11.762157,55.016956,2.085377,38.05751,0.0,2.221965,2.883806,39.323366,17.739609,61.544252,33.523977,70.821486,48.549174,73.700438,41.680927,247.489303,-71.500992,200.213262
82,-17.928063,19.059611,7.391109,19.026611,0.0,-43.899387,-21.551376,-56.915187,-21.79121,-57.486305,-21.372596,-51.202755,-20.928073,-42.896266,0.0,29.966116,23.3884,27.218914,18.947138,14.248043,10.500299,2.036195,-0.254276,-3.590453,0.0,65.937207,31.880036,77.480976,21.985726,71.752465,11.103253,57.70451,-0.090374,38.677941,0.0,0.888872,10.10459,50.775721,24.85522,70.998759,39.646222,78.967761,53.093004,81.826224,24.227726,266.128934,-63.635021,218.819893
83,-10.621215,18.735593,7.712883,17.86516,0.0,-40.525624,-20.110154,-34.116635,-22.015114,-31.691861,-23.176014,-28.996296,-24.079491,-37.720322,0.0,36.442253,21.281897,27.547995,12.708136,9.183843,0.450186,-7.587495,-12.924472,-13.977119,0.0,66.582058,31.753567,76.716797,21.8344,70.605561,10.900772,57.528763,-0.864887,38.855507,0.0,-2.859933,16.398884,57.084835,31.335333,76.176333,45.399631,85.728319,57.315843,88.436717,13.982993,284.638147,-55.545656,236.458673
84,-13.557003,3.461766,0.961224,11.887769,0.0,-28.67173,-16.24141,-6.153729,-18.861191,0.220905,-20.906056,-1.002446,-22.787636,-29.474419,0.0,40.845983,23.331392,32.006597,18.456111,22.295937,9.779029,11.820461,0.436266,11.326112,0.0,69.925701,28.541393,85.28207,17.750381,81.282406,6.75468,67.796688,-4.45863,45.653389,0.0,-4.732341,20.108602,56.653867,35.773014,75.151338,49.290451,84.296809,59.754787,87.475325,0.630827,287.976563,-54.379595,248.223092
85,-12.126332,0.888415,2.645862,10.19755,0.0,-11.591972,-13.157123,22.187908,-18.168148,29.330132,-21.939251,20.269524,-24.189811,-26.151798,0.0,37.135747,22.515485,38.404668,23.233346,37.978763,20.067241,32.665684,16.639439,36.353209,0.0,69.240601,28.46473,86.303971,18.244858,82.931099,7.789673,69.371315,-3.148155,47.33511,0.0,-5.621326,23.573504,57.820578,39.166656,76.686713,51.840187,86.128499,61.189804,89.619941,-11.414641,288.838401,-51.652869,258.394065
86,-0.172966,-3.135871,2.705407,7.350979,0.0,-3.183414,-14.538379,35.325554,-21.497623,41.160851,-26.850837,27.243874,-29.794876,-34.13277,0.0,28.168068,22.9457,47.961928,29.743704,54.607075,32.495586,53.617784,35.187793,64.345572,0.0,68.363411,28.360073,86.432487,18.35091,83.561348,8.002109,69.773506,-2.727162,47.812694,0.0,-5.277092,26.167552,58.671894,42.142754,77.169675,54.396987,87.125743,62.855188,90.242064,-11.507384,285.718891,-48.867239,265.761405
87,3.217266,4.629725,1.972961,4.580287,0.0,-7.203094,-17.154407,37.732991,-23.668087,43.879292,-27.708973,29.878773,-28.914024,-34.955486,0.0,27.173503,21.418649,49.544405,28.421714,56.290613,32.045759,55.158246,35.970924,66.94987,0.0,67.55056,28.679031,86.696457,18.711685,84.516815,8.289848,70.371689,-2.375359,48.864349,0.0,-3.583994,27.944816,59.293573,44.093351,76.855835,56.081045,86.89455,64.172634,89.880047,-8.226923,290.449667,-46.831083,270.442743
88,2.057488,-4.446746,1.161598,2.740903,0.0,-2.88858,-17.033569,36.647747,-24.249779,41.992184,-29.211388,26.835949,-31.253346,-40.40688,0.0,16.76557,24.926529,52.130266,35.525827,61.359149,41.693693,62.08726,47.523845,75.933777,0.0,67.670037,29.197735,87.179901,19.289337,85.264389,8.760933,70.61586,-1.821899,49.19989,0.0,-2.150223,28.359087,58.713959,44.812855,75.370651,56.846899,85.365622,64.820087,88.195372,-6.085819,286.17255,-45.585869,273.353275
89,1.136925,-0.006286,0.517674,1.093477,0.0,4.597206,-15.629815,39.946621,-23.698689,42.557132,-29.101754,25.177745,-31.130139,-43.480511,0.0,5.605714,22.499034,50.654109,36.481451,60.695171,45.550574,63.967646,53.433792,77.763059,0.0,67.560917,29.35366,87.39806,19.697353,85.824199,9.189491,71.032596,-1.22382,49.398742,0.0,-0.786589,28.31885,58.125909,45.114986,74.134197,57.260218,83.9083,65.1979,86.591454,-4.836994,286.404633,-44.956295,274.685121
90,1.906574,3.57236,0.340381,0.410442,0.0,3.349628,-16.116051,40.273018,-23.885845,41.009422,-28.455563,24.261635,-29.679611,-41.972775,0.0,6.476185,20.140662,48.1073,33.889774,56.125826,43.026933,60.010075,50.997763,72.776886,0.0,67.544518,29.125718,87.466507,19.654118,86.23629,9.220059,71.548531,-1.023834,49.628518,0.0,0.330291,28.505435,57.647517,45.464359,72.964645,57.620557,82.785937,65.46223,85.489074,-2.807087,290.228002,-44.492581,275.346572
91,-0.336205,3.261162,-0.068847,0.170086,0.0,8.353878,-14.438507,43.692101,-22.228832,43.98658,-26.373527,28.578163,-27.090866,-38.30405,0.0,7.436887,17.5427,45.981234,30.959471,52.470511,40.428563,57.27352,48.596475,68.105024,0.0,68.011917,28.813396,87.406013,19.423095,86.363617,9.132557,72.214164,-0.860951,50.410835,0.0,1.123079,28.405572,57.014427,45.491269,72.168669,57.70366,81.954195,65.537947,84.869432,-2.979761,293.740355,-44.397897,275.767849
92,1.909001,-1.25047,0.248119,0.196811,0.0,14.764457,-14.181221,41.783397,-22.733734,42.150867,-27.331421,25.829715,-28.136891,-41.872673,0.0,-0.90084,16.7219,43.619651,32.975943,52.196277,44.818054,59.679217,54.884556,72.073994,0.0,68.254246,28.206253,87.262219,18.773117,86.251865,8.55962,72.264736,-1.201137,50.308125,0.0,1.793713,28.228743,56.324452,45.513079,71.475879,57.844957,81.261319,65.590225,84.365833,-0.882906,292.699395,-43.961924,276.17417
93,0.339935,0.152807,0.135075,0.258054,0.0,14.080536,-13.804241,42.014362,-22.785988,41.634785,-27.584335,24.547062,-28.465153,-42.898979,0.0,-2.118977,17.126354,42.248089,33.78869,51.20049,45.775902,59.190302,55.793622,72.300791,0.0,68.40374,27.54475,87.34909,18.111362,86.528709,8.101123,72.786781,-1.283432,51.005539,0.0,2.474018,28.105034,55.83581,45.652784,70.756636,58.122452,80.446412,65.855296,83.900742,-0.368362,292.985805,-43.65224,276.565827
94,1.660206,-0.468784,-0.112439,0.291969,0.0,9.006386,-16.380593,39.869339,-25.506478,38.801216,-29.982639,22.017197,-30.445027,-44.578697,0.0,1.133972,17.457212,41.215893,34.271133,50.58632,46.564071,58.997826,56.92106,72.650595,0.0,68.763806,27.069661,87.675946,17.623421,86.848835,7.823639,73.471928,-1.213634,51.993634,0.0,3.180554,27.913199,55.57148,45.628034,70.238475,58.220165,79.837688,66.039632,83.382162,1.440766,292.580411,-43.615757,276.921186
95,-1.920056,2.087287,-0.040821,0.170727,0.0,8.958745,-13.711441,42.136975,-22.759254,40.55032,-27.57899,24.343449,-28.606967,-43.029865,0.0,-0.217867,15.934608,39.729129,32.561956,50.194366,44.825057,57.70539,54.925621,70.234709,0.0,69.032319,26.708794,87.929421,17.258274,86.957154,7.522385,73.803818,-1.407039,52.528908,0.0,4.12536,28.017657,55.645841,45.80264,69.908654,58.424016,79.499024,66.204408,83.064234,-0.370211,294.692352,-43.547499,277.116567
96,4.338547,-2.434127,0.123745,0.243322,0.0,-0.939239,-17.561817,35.370884,-27.026539,33.505635,-32.343738,16.411617,-33.979992,-50.071449,0.0,-2.117607,17.808498,40.363132,35.166638,52.132452,47.355798,59.106148,57.253809,73.418202,0.0,69.150227,26.599938,88.07745,17.125683,86.830296,7.34578,73.678906,-1.645992,52.651623,0.0,4.771182,27.888388,55.485128,45.660724,69.597543,58.316842,78.991547,66.16296,82.648863,4.034923,292.218016,-43.357167,277.31968
97,1.064484,-2.480366,0.096039,-0.08487,0.0,-3.775086,-19.916496,34.820492,-29.332672,32.170406,-34.646244,14.792942,-36.291996,-57.718517,0.0,-0.641512,19.465052,45.460184,37.242254,54.949605,49.669475,61.475351,59.855996,76.567794,0.0,68.87907,26.392468,88.058384,16.978455,86.94849,7.301834,73.936489,-1.581722,53.217098,0.0,5.679333,27.964131,55.601454,45.914445,69.550563,58.657161,78.913717,66.539008,82.655964,5.122793,289.649116,-43.237742,277.146276
98,-3.829697,3.207132,0.159542,-0.038285,0.0,5.928921,-16.122757,41.698437,-25.024257,38.392353,-29.818565,22.197132,-30.765827,-50.707317,0.0,-0.036446,16.804547,44.450219,34.265735,52.476216,47.116194,58.928208,57.616456,72.877082,0.0,68.561074,26.390202,87.992707,16.986145,86.808953,7.264401,73.827576,-1.712951,53.146202,0.0,6.348522,28.059671,55.584719,46.026163,69.610498,58.746378,78.929833,66.548085,82.538144,1.307848,292.746073,-43.063448,276.997816
99,-1.516456,2.779287,0.193646,-0.01487,0.0,6.888118,-14.075695,42.622066,-22.552014,41.323757,-27.088532,26.226024,-27.777615,-45.43158,0.0,3.179566,16.035532,43.515021,31.988479,50.513442,43.63993,56.474469,53.05567,69.331312,0.0,68.071392,26.4165,87.542621,17.022926,86.502743,7.196079,73.407886,-1.968384,52.545101,0.0,6.820802,28.058004,55.610087,46.083283,69.774767,58.821837,79.060102,66.561473,82.600439,-0.205043,295.395446,-42.866237,276.853032
100,4.418071,-3.731368,0.248794,0.169542,0.0,2.143158,-18.431533,36.582802,-27.347591,36.298828,-32.286014,20.524453,-33.444706,-51.18536,0.0,3.156595,18.579575,45.368164,35.155905,52.75875,46.78436,59.155327,56.221021,74.020244,0.0,67.702778,26.436917,87.294766,17.089291,86.299977,7.281052,73.064221,-1.905716,52.192074,0.0,6.855975,27.719291,55.305991,45.790808,69.715981,58.586309,79.005206,66.385151,82.561202,4.204473,291.504478,-42.625998,276.862974
101,-4.146206,1.624987,0.252663,0.242247,0.0,11.457459,-15.41566,43.08347,-23.940856,42.493962,-28.288959,27.682194,-28.638118,-44.989952,0.0,5.909231,16.930111,45.926684,33.367576,51.97799,45.265535,58.593064,54.921965,71.90586,0.0,67.400906,26.150894,86.938213,16.824829,86.126392,7.052948,72.697391,-2.081818,51.64143,0.0,6.72089,27.357347,55.174919,45.535717,69.576511,58.442381,79.001464,66.316126,82.543085,0.04268,292.94183,-42.388922,276.917586
102,-1.216507,1.261993,0.232967,0.34889,0.0,15.565384,-13.777336,45.284649,-22.172218,44.625882,-26.675262,30.147709,-27.181228,-41.063735,0.0,4.83917,17.051487,45.80637,32.899669,51.698087,44.459161,58.149808,53.669099,71.481289,0.0,67.424561,26.194737,86.784577,16.855671,85.874451,7.019051,72.099106,-2.168907,51.130326,0.0,6.431639,27.121534,54.877974,45.217122,69.380564,58.153796,78.720339,66.1525,82.459759,-1.220313,294.021147,-42.202441,277.0838
103,0.790009,0.872188,0.246689,0.27653,0.0,13.128365,-14.310356,43.685658,-23.059227,44.018452,-27.570442,29.211811,-28.060501,-34.543911,0.0,6.826915,16.594361,44.192164,32.160689,50.271529,43.374045,57.078672,52.358989,68.595902,0.0,67.487778,26.350239,86.791466,16.98896,85.703133,7.074875,71.681648,-2.188305,50.651344,0.0,6.268902,26.770249,54.662972,44.821006,69.276367,57.808698,78.687723,65.969139,82.484929,-0.499603,294.732339,-42.025051,277.199334
104,-0.227921,-4.709729,0.122338,0.105976,0.0,14.282101,-13.944499,42.274327,-23.190021,41.932583,-29.031806,25.144673,-31.068706,-40.523345,0.0,0.462301,19.14001,46.201411,36.095438,55.144563,48.066953,61.904233,57.701709,74.66624,0.0,67.619155,26.44757,86.782402,17.10625,85.580154,7.174907,71.324775,-2.053551,50.301589,0.0,6.211993,26.764778,55.047455,44.761145,69.457407,57.775711,78.771951,66.056121,82.621916,-0.80999,289.867478,-41.985179,277.150178
105,-4.007869,-1.401314,0.04589,-0.007657,0.0,19.844536,-11.144715,44.766128,-20.150734,44.627632,-26.305939,27.498344,-28.556397,-38.545326,0.0,0.987438,20.486576,47.333136,37.259173,57.196294,49.270234,63.790571,59.09922,76.308405,0.0,67.775025,26.674267,86.820488,17.294186,85.379151,7.224095,70.950554,-2.155391,49.914414,0.0,6.404753,26.897652,55.429455,44.810138,69.669816,57.795768,78.955386,66.098148,82.836042,-4.911346,288.348282,-42.032776,277.024639
106,-1.634205,-2.997563,-0.072658,-0.124945,0.0,18.967998,-10.181545,43.788425,-19.231682,44.485073,-26.216984,25.762356,-29.503109,-40.324356,0.0,-1.404748,22.429528,47.438445,39.521153,59.81056,51.654146,66.730496,61.599062,80.244142,0.0,67.815136,26.940708,87.076618,17.53894,85.365795,7.378143,70.854526,-2.088066,49.920696,0.0,6.97771,27.188447,55.900029,45.071885,69.980358,58.029443,79.206574,66.306283,83.154216,-6.65213,285.283525,-42.212013,276.8325
107,-1.984909,-3.630628,0.019855,-0.05134,0.0,17.731235,-9.077362,42.995876,-18.126194,44.271206,-25.937382,23.736271,-30.230496,-43.400345,0.0,-3.377772,24.249004,47.342065,42.207136,62.704197,54.66559,69.969454,64.89094,84.433512,0.0,67.940964,27.05856,87.301941,17.615696,85.305657,7.360852,70.801003,-2.207359,49.706612,0.0,7.381249,27.136565,56.346473,44.980495,70.303203,57.948267,79.469545,66.2349,83.341617,-8.73369,281.604031,-42.288809,276.732294
108,-2.427796,-4.705702,-0.01593,-0.015375,0.0,19.081273,-7.48875,43.647252,-16.235172,44.203045,-24.929924,21.404309,-30.334247,-52.187805,0.0,-6.138843,27.09818,49.617086,46.089507,67.697063,59.131713,74.710934,69.862514,91.66635,0.0,68.029289,27.04129,87.333847,17.667458,85.374275,7.467865,70.881661,-2.036156,49.880379,0.0,7.60765,27.190731,56.794447,45.101796,70.600234,58.143953,79.577274,66.488323,83.509318,-11.250979,276.840318,-42.394232,276.658908
109,-0.733612,-0.577416,-0.006992,0.092181,0.0,21.130154,-7.266769,44.748448,-15.795135,45.58096,-24.325756,23.118496,-29.684188,-51.274761,0.0,-4.494714,27.387407,49.865854,46.269312,68.464115,59.41432,75.468106,70.334349,92.898357,0.0,68.290569,26.989574,87.417766,17.660557,85.327251,7.534446,71.086246,-1.871269,50.331974,0.0,7.873387,27.024252,56.709762,44.991696,70.500346,58.095096,79.53211,66.462363,83.429227,-12.111208,276.218404,-42.527841,276.706591
110,-0.113182,-0.037828,0.002334,0.117683,0.0,21.680867,-7.080494,45.775761,-15.570156,46.990208,-24.007221,24.93401,-29.374042,-49.888469,0.0,-3.740655,27.141121,49.556546,46.039637,68.517936,59.263043,75.891824,70.239019,93.246815,0.0,68.567128,26.8503,87.455693,17.613785,85.367352,7.628117,71.300228,-1.591014,50.694226,0.0,8.040287,26.92817,56.847393,44.898033,70.529419,58.013574,79.463691,66.386189,83.356215,-12.364323,276.130052,-42.66544,276.77375
111,0.114487,0.016709,-0.028885,0.084561,0.0,22.606396,-6.871971,46.025333,-15.250305,47.309978,-23.60297,25.769245,-28.979565,-49.167973,0.0,-3.414908,27.283086,49.413557,46.155074,68.558902,59.384767,75.875004,70.408462,93.492705,0.0,68.898709,26.742703,87.446171,17.58918,85.388798,7.72427,71.57317,-1.328876,51.097813,0.0,8.021502,26.707893,56.923173,44.698925,70.557849,57.867053,79.408523,66.305753,83.334454,-12.388309,276.084245,-42.832798,276.795795
112,1.351547,-0.242864,-0.048259,0.107891,0.0,21.287144,-8.06242,44.468045,-16.405174,46.000454,-24.514091,25.589939,-29.744259,-49.770984,0.0,-2.461594,27.624245,49.773376,46.316329,68.880745,59.449999,76.003679,70.502174,93.858613,0.0,69.170128,26.612549,87.423088,17.526855,85.406662,7.798965,71.744201,-1.060353,51.471794,0.0,7.970447,26.615588,56.963359,44.621551,70.544992,57.791605,79.285269,66.242594,83.203987,-11.187693,275.746434,-43.031988,276.808739
113,1.230892,-0.168023,-0.052998,0.01666,0.0,19.588875,-9.021595,43.2239,-17.620925,45.545128,-25.75439,25.844216,-31.081901,-50.401062,0.0,-2.309231,27.64319,50.521149,46.130164,69.310256,59.148941,76.58443,70.163597,94.359459,0.0,69.411793,26.57,87.455006,17.490555,85.342793,7.80249,71.782734,-0.967529,51.656399,0.0,8.082857,26.629717,57.110177,44.579747,70.596825,57.714541,79.242056,66.128294,83.18582,-10.115714,275.466158,-43.243899,276.713146
114,0.52557,0.321176,0.107014,-0.102913,0.0,18.058148,-9.208145,42.12592,-17.949783,44.199955,-26.225418,24.230336,-31.613788,-51.433914,0.0,-4.090075,27.745745,50.462659,46.19431,69.165377,59.057712,76.358374,69.906073,93.816685,0.0,69.471771,26.589237,87.424003,17.498222,85.27652,7.755672,71.737747,-1.069977,51.552681,0.0,8.238727,26.68407,57.339975,44.586329,70.793216,57.694855,79.365668,66.105335,83.423868,-9.730591,275.646324,-43.277332,276.469223
115,0.335495,-0.059095,0.055034,-0.115943,0.0,17.487454,-9.381683,41.386929,-18.142295,43.388958,-26.48545,23.30872,-31.891216,-52.00605,0.0,-4.675185,28.003133,50.796914,46.327592,69.324854,59.091477,76.411788,69.879101,93.99707,0.0,69.498288,26.615101,87.375493,17.479329,85.187336,7.679432,71.653416,-1.204284,51.434567,0.0,8.391906,26.674165,57.470689,44.638472,70.941319,57.817862,79.480289,66.271308,83.597733,-9.527979,275.424711,-43.355181,276.190762
116,0.11871,0.124119,0.093133,-0.100863,0.0,16.524582,-9.187775,41.184631,-17.990524,43.139442,-26.513821,23.000198,-32.101204,-52.029648,0.0,-5.090099,28.024448,50.696656,46.159655,69.169798,58.799532,76.339613,69.516477,94.003343,0.0,69.444751,26.701286,87.414012,17.543941,85.141239,7.710021,71.498645,-1.224072,51.191333,0.0,8.567833,26.7835,57.586607,44.749005,71.099054,57.909042,79.616128,66.331156,83.742698,-9.546272,275.368515,-43.399051,275.909584
117,-1.006954,0.122117,0.061168,-0.038495,0.0,17.85577,-7.822014,42.352146,-16.531094,44.450878,-25.274952,24.172634,-31.135426,-50.608521,0.0,-5.402519,27.664049,50.617085,45.86896,69.313442,58.63067,76.462077,69.471647,94.1573,0.0,69.37468,26.757271,87.341995,17.577679,85.028023,7.655274,71.284447,-1.43026,50.768715,0.0,8.667164,26.737607,57.5974,44.710065,71.072057,57.92301,79.702837,66.394907,83.865791,-10.684793,275.327031,-43.46945,275.707488
118,0.084423,0.131294,0.084664,0.127021,0.0,17.680549,-7.664475,42.236984,-16.281693,44.669288,-25.098187,24.821914,-31.047467,-50.461476,0.0,-5.611618,27.368511,50.511331,45.594615,69.184297,58.42267,76.347147,69.349924,94.349146,0.0,69.292419,26.81044,87.194137,17.687267,84.873436,7.759265,71.059387,-1.384919,50.494377,0.0,8.55915,26.54523,57.506577,44.516353,70.843493,57.79841,79.487316,66.406146,83.800607,-10.73414,275.30607,-43.518556,275.682254
119,-0.833107,-0.146398,0.07125,0.29918,0.0,19.021728,-6.518017,43.476906,-15.113045,46.72451,-24.149357,27.183929,-30.431477,-49.215443,0.0,-4.746952,26.842546,50.931122,45.144948,69.483676,58.18314,76.877398,69.326261,95.049174,0.0,69.176972,26.894429,87.052025,17.780835,84.799851,7.851529,70.765503,-1.314605,50.139725,0.0,8.330304,26.261475,57.346669,44.268216,70.573015,57.632648,79.024831,66.34589,83.490139,-11.694494,275.012925,-43.574553,275.834687
120,-0.238415,0.19728,0.112336,0.23149,0.0,19.377377,-5.936485,43.803303,-14.687931,47.20966,-24.031826,27.562305,-30.684849,-49.291832,0.0,-5.086764,26.110051,50.924824,44.558369,69.422308,57.769697,76.978496,69.050385,94.996525,0.0,69.050628,27.090854,86.920143,17.995125,84.656456,7.976291,70.441337,-1.351616,49.53733,0.0,8.087155,26.149213,57.264825,44.151829,70.447921,57.548618,78.749461,66.334997,83.408381,-12.051212,275.077908,-43.58052,275.93388
