takenoko1/special-research/HandMotion_SimilarSearch_自分用/NewProject/handData/test_key/d4_feature_d3/141.csv
frame,vel_0x_L,vel_0y_L,vel_0x_R,vel_0y_R,posFromWrist_0x_L,posFromWrist_1x_L,posFromWrist_2x_L,posFromWrist_3x_L,posFromWrist_4x_L,posFromWrist_5x_L,posFromWrist_6x_L,posFromWrist_7x_L,posFromWrist_8x_L,posFromWrist_9x_L,posFromWrist_0y_L,posFromWrist_1y_L,posFromWrist_2y_L,posFromWrist_3y_L,posFromWrist_4y_L,posFromWrist_5y_L,posFromWrist_6y_L,posFromWrist_7y_L,posFromWrist_8y_L,posFromWrist_9y_L,posFromWrist_0x_R,posFromWrist_1x_R,posFromWrist_2x_R,posFromWrist_3x_R,posFromWrist_4x_R,posFromWrist_5x_R,posFromWrist_6x_R,posFromWrist_7x_R,posFromWrist_8x_R,posFromWrist_9x_R,posFromWrist_0y_R,posFromWrist_1y_R,posFromWrist_2y_R,posFromWrist_3y_R,posFromWrist_4y_R,posFromWrist_5y_R,posFromWrist_6y_R,posFromWrist_7y_R,posFromWrist_8y_R,posFromWrist_9y_R,posFromBody_0x_L,posFromBody_0y_L,posFromBody_0x_R,posFromBody_0y_R
6,2.501426,-0.272356,0.198898,0.141606,0.0,28.970879,7.802948,63.952378,-1.219013,57.930085,-10.26408,40.66214,-16.985653,-16.323818,0.0,-11.939652,22.27609,39.138102,43.974938,54.275673,57.018515,62.949592,65.70287,69.212764,0.0,66.741955,28.190106,90.537701,19.724007,85.798542,11.30357,72.061833,3.878312,54.300648,0.0,0.814204,33.426807,54.302176,50.993996,64.103461,62.47856,75.488446,69.103132,79.703294,-29.902102,297.157979,-50.40869,293.921961
7,-0.464264,0.04299,0.185257,0.104975,0.0,30.012703,8.204396,65.218873,-0.781906,58.977883,-9.854976,41.475174,-16.622886,-14.489925,0.0,-11.766096,21.670381,38.997399,43.395559,54.348971,56.493625,62.929018,65.257206,69.262424,0.0,66.622754,28.046677,90.418614,19.638119,85.963864,11.282627,72.112851,3.91079,54.266819,0.0,0.82942,33.172902,54.273092,50.854602,63.943812,62.44771,75.23564,69.163092,79.445413,-30.956652,297.35314,-50.813719,294.179107
8,-1.096241,0.0289,0.151944,0.082005,0.0,32.341954,9.817521,67.206471,0.637345,59.966549,-8.675148,42.321774,-15.687583,-9.64175,0.0,-11.728701,20.964215,38.830499,42.78954,54.119864,56.00498,62.718127,64.795522,68.111717,0.0,66.397132,28.077873,90.294433,19.666568,85.824348,11.247802,71.88375,3.782066,53.909202,0.0,0.919933,32.824802,54.34429,50.580207,63.964461,62.256321,75.151029,69.066317,79.379191,-32.381979,297.50175,-50.990861,294.380822
9,0.22736,0.195884,-0.045514,0.100789,0.0,32.662583,9.999504,67.45427,0.719158,60.51075,-8.741169,42.082901,-16.000339,-8.987926,0.0,-10.911989,20.700393,39.246821,42.323127,54.688894,55.389515,62.669444,63.980183,67.572809,0.0,66.359311,28.232346,90.364003,19.778241,85.898472,11.238041,71.877125,3.613381,53.651928,0.0,0.91482,32.523905,54.406139,50.33202,64.126716,62.041788,75.049067,68.884919,79.242254,-32.340924,297.79306,-51.22268,294.577037
10,-0.193405,0.161231,-0.122383,0.057304,0.0,33.653824,10.294029,67.638565,1.211506,61.244957,-8.284801,42.411209,-15.66861,-9.893165,0.0,-10.758873,20.645299,39.386747,42.065109,55.004735,55.021148,62.628354,63.572518,67.7856,0.0,66.427723,28.493923,90.515477,20.015568,86.061276,11.362931,71.883786,3.536454,53.412037,0.0,0.836978,32.479309,54.368669,50.207766,64.261703,61.846879,75.003977,68.689306,79.27949,-32.65016,298.032741,-51.460894,294.712791
11,-0.583145,0.1143,-0.137077,-0.024391,0.0,34.812149,10.777096,68.170441,1.621948,62.655418,-8.038467,43.536598,-15.514607,-8.996487,0.0,-10.772026,20.153037,39.779986,41.554112,55.361109,54.615238,62.756017,63.327974,68.002023,0.0,66.535,28.698544,90.720577,20.180626,86.131542,11.433254,71.812328,3.487907,53.238476,0.0,0.840485,32.530722,54.503779,50.217992,64.494625,61.796293,75.062467,68.597569,79.465086,-33.327896,298.202203,-51.692562,294.743562
12,-0.610245,0.117832,-0.020542,-0.099468,0.0,36.263352,11.240959,68.501564,2.168907,63.53373,-7.493454,44.302208,-14.99683,-7.284897,0.0,-10.704891,19.791538,40.034583,41.236801,55.443657,54.395617,62.744877,63.165978,68.017893,0.0,66.660187,28.807606,90.8703,20.246418,86.127228,11.422325,71.718773,3.403313,53.225693,0.0,1.053203,32.459981,54.744742,50.211768,64.581422,61.817436,75.166505,68.602905,79.661441,-34.019165,298.359731,-51.794128,294.68379
13,-0.291195,-0.028307,0.030235,-0.080287,0.0,37.513676,11.273335,68.645062,2.174126,63.691899,-7.449257,44.777264,-14.91521,-5.84547,0.0,-10.477266,19.447984,39.994865,40.982847,55.376127,54.277649,62.975553,63.151986,67.697681,0.0,67.017151,28.775082,90.880531,20.145561,86.082138,11.315128,71.689133,3.365387,53.391655,0.0,1.024019,32.43859,54.93329,50.3357,64.6408,62.023175,75.324387,68.784648,79.821756,-34.369217,298.373705,-51.82275,294.645784
14,0.746922,-0.239455,0.121983,-0.227551,0.0,37.252785,9.796337,67.855888,0.789024,63.826378,-8.686512,44.927559,-15.903855,-8.259236,0.0,-10.0987,19.60725,40.793384,41.151734,55.832833,54.431666,63.58719,63.345326,68.729974,0.0,67.331257,28.620094,90.902996,19.864814,85.745487,11.028042,71.522312,3.199939,53.556232,0.0,1.178803,32.507974,55.179897,50.571217,64.700847,62.354294,75.529325,69.102021,80.004785,-33.668524,298.169111,-51.746996,294.453094
15,-0.234295,-0.184684,0.070862,-0.268293,0.0,38.076405,9.822567,67.865559,0.87838,64.492252,-8.490074,46.05669,-15.572857,-6.116203,0.0,-9.926526,19.395867,41.09238,41.139743,55.957792,54.596022,63.768527,63.653906,68.714377,0.0,67.718708,28.502861,91.003978,19.618537,85.690784,10.771579,71.499538,3.060138,53.589443,0.0,1.322916,32.670451,55.502678,50.883809,64.874699,62.729823,75.841844,69.408007,80.325516,-33.93683,298.01152,-51.710145,294.211894
16,-0.198383,-0.509144,0.011558,-0.293907,0.0,38.908607,9.652599,68.13565,0.938095,64.840049,-8.245903,46.552436,-15.176079,-7.793175,0.0,-9.51953,19.91289,41.309062,41.831705,56.489623,55.300828,64.508593,64.278239,69.867775,0.0,68.176151,28.429253,91.156941,19.472832,85.782177,10.660229,71.715832,3.080326,53.843983,0.0,1.496558,32.888047,55.920123,51.208493,65.116661,63.101387,76.222399,69.730405,80.594427,-34.160499,297.533693,-51.723873,293.949304
17,-0.238507,-0.14704,-0.165916,-0.224735,0.0,39.061947,10.065216,68.754055,1.202614,64.896092,-7.943744,47.013462,-14.917888,-6.292762,0.0,-9.942212,20.055595,40.750739,42.124019,56.273052,55.660944,64.441927,64.682494,68.989894,0.0,68.658863,28.661579,91.40681,19.61372,85.810329,10.76715,71.886394,3.207824,54.081401,0.0,1.614403,33.198615,56.216316,51.490754,65.329454,63.347562,76.569375,69.942642,80.90166,-34.417723,297.423913,-51.908506,293.761829
18,-0.258796,-0.032864,-0.130829,-0.244963,0.0,38.733524,10.39524,69.023494,1.746093,66.074878,-7.374012,48.137592,-14.387558,-6.850159,0.0,-10.279171,20.172785,40.745652,42.21683,56.429935,55.751656,64.382425,64.841354,69.810965,0.0,68.846752,28.907627,91.545856,19.806301,85.780071,10.891147,71.820133,3.253189,53.970005,0.0,1.792293,33.550839,56.481842,51.690553,65.598006,63.434975,76.89081,70.025807,81.27026,-34.691848,297.416824,-52.054664,293.542641
19,-0.629631,0.095479,-0.173973,-0.071631,0.0,38.979572,11.666519,69.596889,3.024581,66.376064,-6.174111,48.896175,-13.498215,-3.639496,0.0,-10.905493,19.659651,39.767747,41.801781,56.063038,55.590598,64.34819,64.955888,69.726268,0.0,68.969272,29.23352,91.608822,20.213871,86.072628,11.286827,71.970852,3.55307,53.941211,0.0,1.743029,33.667572,56.458414,51.645044,65.674478,63.333112,77.018708,69.996056,81.556758,-35.334394,297.53637,-52.241552,293.495077
20,0.896518,-0.076608,-0.057656,-0.022971,0.0,37.288857,10.931385,68.669472,2.330086,65.602959,-6.848705,48.269623,-14.24414,-3.943142,0.0,-11.001651,19.693738,39.494119,41.696509,56.099286,55.50006,64.674529,64.96299,70.372042,0.0,68.827343,29.494995,91.385113,20.568512,85.879612,11.611668,71.796078,3.763779,53.694271,0.0,1.66079,33.764557,56.518942,51.574574,65.896754,63.191506,77.108999,69.937343,81.670094,-34.448416,297.485709,-52.309748,293.498053
21,1.203358,0.149473,0.036576,0.042459,0.0,35.231197,9.83773,67.423748,1.182404,64.451672,-7.930481,47.246876,-15.306942,-4.176361,0.0,-11.245491,19.768999,39.195741,41.632943,55.865573,55.362727,64.572023,64.836303,70.275279,0.0,68.61494,29.699489,91.079418,20.801456,85.591472,11.790481,71.478023,3.853237,53.285122,0.0,1.502437,33.719467,56.351352,51.47749,65.884578,63.079232,76.990278,69.879101,81.63796,-33.245064,297.660324,-52.273178,293.565654
22,2.759148,-0.364031,0.089756,-0.033295,0.0,31.411205,6.7752,64.245494,-1.834912,62.521099,-10.878479,44.87273,-18.109761,-10.404179,0.0,-10.250185,20.671482,40.442815,42.117844,56.870808,55.554388,65.622929,64.8901,72.575124,0.0,68.38813,29.777263,90.714363,20.897026,85.372306,11.834312,71.226356,3.808399,52.863624,0.0,1.387877,33.764544,56.229283,51.472945,65.947155,63.063794,76.977174,69.900774,81.73555,-30.47394,297.317365,-52.171446,293.553431
23,0.862484,-0.306529,-0.031575,-0.055884,0.0,30.55648,5.933464,63.32373,-2.844304,61.439117,-11.877388,44.009536,-19.180355,-8.50169,0.0,-9.69684,20.850731,40.68936,42.105976,57.161653,55.562465,66.181152,65.012057,72.486203,0.0,68.361088,29.831749,90.611721,20.981209,85.497837,11.901558,71.253903,3.834149,52.732785,0.0,1.417974,33.708426,56.147624,51.431967,65.880291,63.047689,76.862454,69.905912,81.748554,-29.59449,297.030698,-52.186055,293.517409
24,0.365432,-0.448715,-0.06459,-0.124477,0.0,30.644554,5.209854,63.038452,-3.564972,61.334954,-12.586143,43.625153,-19.750694,-9.560199,0.0,-8.682689,21.185603,41.370429,42.420433,57.716072,55.838007,66.740043,65.247214,73.144734,0.0,68.505352,29.875717,90.747951,21.004841,85.672176,11.894325,71.337307,3.786632,52.775928,0.0,1.431634,33.785318,56.242386,51.513231,65.885652,63.103117,76.881004,69.932391,81.824656,-29.201414,296.598474,-52.223001,293.409423
25,0.177704,0.065035,-0.133438,0.03458,0.0,30.345017,5.534363,62.604881,-3.360237,59.850952,-12.443847,42.27475,-19.600891,-8.920921,0.0,-9.228834,21.498184,41.144448,42.735781,57.566488,56.041303,66.405344,65.295367,71.884692,0.0,68.780193,29.753025,91.014141,20.872307,86.204372,11.81131,71.73119,3.752392,53.158481,0.0,1.276344,33.462079,55.752941,51.277122,65.523918,62.928907,76.693222,69.76937,81.633205,-28.984383,296.67321,-52.317112,293.453704
26,-2.113952,-0.063047,-0.312287,-0.147509,0.0,32.624404,8.487281,64.333602,-0.62843,59.775558,-9.979466,43.071075,-17.34026,-4.736664,0.0,-10.682895,21.152468,39.906957,42.712587,56.713641,56.210943,65.628461,65.477827,70.20066,0.0,69.103833,29.730275,91.487561,20.923909,86.83778,11.968678,72.35645,3.98552,53.841099,0.0,1.183978,33.256969,55.339743,51.159982,65.253661,62.872516,76.407082,69.735247,81.106696,-31.046819,296.617249,-52.577883,293.313281
27,-2.612,-0.320806,-0.018962,-0.478257,0.0,36.469299,11.405743,66.257996,2.3787,59.861092,-7.011898,44.126907,-14.275841,-0.531601,0.0,-12.286467,20.437003,38.056075,42.497807,55.82304,56.230926,64.91333,65.577308,69.043482,0.0,68.995239,29.355503,91.455001,20.71471,87.141471,12.010551,73.009941,4.231258,54.66996,0.0,0.929776,33.007929,54.867526,51.000233,64.735242,62.768886,76.075902,69.615179,80.378436,-33.598526,296.299339,-52.536552,292.83792
28,-1.132748,-1.515281,0.203624,-1.365944,0.0,37.616124,12.36969,66.658207,3.913102,60.772717,-5.32648,45.767636,-12.326271,-4.572189,0.0,-13.678445,21.1097,37.481846,43.451826,55.890693,57.094839,64.736316,66.309717,71.334718,0.0,68.879139,28.905831,91.425465,20.327099,87.270344,11.835057,73.590741,4.234887,55.340092,0.0,0.607476,32.480322,54.776703,50.530004,64.751198,62.408387,76.079385,69.330053,79.882766,-34.647446,294.789353,-52.2491,291.477271
29,0.435265,-2.489011,0.425389,-3.022868,0.0,36.889194,13.140518,65.287159,4.436439,60.089779,-5.048183,45.716663,-12.317699,-1.972641,0.0,-14.898423,21.025546,37.409055,43.386618,55.937525,56.994593,64.428071,66.201765,71.206698,0.0,68.316169,27.260902,90.515854,18.74366,87.46495,10.547664,73.957901,3.244354,55.357269,0.0,0.30506,31.293886,55.109118,49.30889,66.237703,61.360125,77.358644,68.543526,81.073586,-34.083944,292.314276,-51.695474,288.468337
30,9.243404,3.116939,0.797298,-5.499664,0.0,17.977089,1.040463,52.201561,-5.772766,50.974503,-12.116935,41.315483,-16.106174,-0.256759,0.0,-3.858462,18.362819,38.034475,34.346641,51.881943,43.031725,56.428008,48.390735,59.693024,0.0,67.052021,25.393742,88.700375,16.909699,86.470722,8.678661,72.872028,1.157364,52.80946,0.0,0.759838,29.327938,56.322513,47.053517,69.095635,59.47234,79.913307,67.338639,83.557236,-24.629986,295.473792,-50.687622,283.01125
31,10.753041,4.300274,0.840729,-8.179065,0.0,1.201332,-11.336724,35.52634,-16.062218,39.038944,-19.426049,32.480106,-20.401051,-2.990387,0.0,6.438357,14.941451,36.17948,23.505788,45.067735,26.477514,44.526604,27.354024,44.122238,0.0,65.47475,22.783939,85.145565,13.946525,83.450764,5.571304,69.75349,-1.946434,49.21281,0.0,2.699815,27.05146,57.913439,44.319988,72.019654,56.936153,82.650222,65.480051,85.911274,-13.603706,299.88593,-49.573654,274.944049
32,17.480861,-1.379825,0.519104,-11.909345,0.0,-18.350383,-23.630264,7.841732,-27.106498,13.978043,-28.41695,11.331253,-27.466392,-12.932796,0.0,19.346848,17.900814,32.537934,19.224792,34.252113,15.728101,29.028448,10.739261,25.506205,0.0,64.221897,25.467544,80.210987,16.186878,76.149868,6.668632,62.170509,-2.394447,43.686172,0.0,5.543446,27.699074,64.555795,44.369795,78.934416,56.802278,88.598256,65.222873,90.221613,4.214075,298.628432,-48.71763,263.157031
33,14.295605,-10.40881,-0.517697,-15.748948,0.0,-32.511772,-31.309948,-15.604408,-31.106701,-4.135586,-27.843853,-1.80772,-22.625862,-9.553562,0.0,29.681978,19.360273,40.430884,17.677735,37.300743,12.706135,30.74406,6.534601,25.292684,0.0,62.461831,28.96122,75.2043,19.463494,68.817009,8.424157,54.487839,-3.036792,36.433686,0.0,8.150375,28.590762,71.52954,44.688242,86.376896,56.956295,94.53026,65.486904,93.327769,18.834835,288.428444,-48.910172,247.616905
34,17.76273,-17.528164,-1.697422,-17.225488,0.0,-44.967396,-39.381455,-38.976826,-34.283112,-20.402687,-25.578656,-12.602921,-15.473751,-9.737664,0.0,42.836842,20.71325,50.530721,16.609997,41.78827,10.598088,33.964666,3.760551,28.797021,0.0,60.92783,33.055436,67.87579,23.565148,58.504384,11.596951,43.555962,-1.353,27.065609,0.0,10.937826,29.645533,72.417203,45.204871,85.141481,57.193467,90.791952,65.732548,88.959533,36.859606,271.621673,-50.345553,231.11281
35,10.930549,-29.717657,-2.071529,-17.98125,0.0,-38.905849,-35.043651,-48.800663,-27.065048,-25.78791,-16.281738,-16.417213,-4.728515,-8.534156,0.0,46.410696,23.457956,59.667743,23.033855,50.062788,21.02273,44.654106,17.769965,43.831171,0.0,59.208595,34.659531,60.034012,24.781815,46.70652,12.10564,31.861931,-1.580246,17.801079,0.0,13.970623,29.169659,68.743633,44.034293,79.110058,55.515374,83.336071,63.933696,81.741823,47.923628,243.277718,-52.283609,214.505262
36,11.968254,-33.729569,-7.656086,-19.883312,0.0,-38.621704,-31.242828,-50.623684,-20.005577,-26.688263,-6.732925,-15.206451,6.386444,-4.077346,0.0,51.698037,27.288717,65.696423,29.974551,57.573675,31.488807,55.559389,31.705106,58.500808,0.0,60.964336,35.570721,58.038471,25.5061,39.179913,12.59499,24.610291,-1.372616,11.647717,0.0,15.89447,23.443939,61.586354,37.214812,69.784462,48.816764,73.18439,58.200541,71.810246,59.947946,211.341882,-59.883631,196.415683
37,5.89238,-36.845903,-5.71455,-15.489881,0.0,-34.578506,-26.983589,-42.493263,-11.85125,-15.321167,4.732659,-1.267799,20.537041,10.992188,0.0,54.714088,23.518188,76.845905,29.805164,69.341019,36.291421,69.671038,41.899655,75.514591,0.0,59.912602,30.40892,51.921776,19.332138,31.868042,6.272015,16.535912,-7.327251,2.627392,0.0,15.337308,13.188456,45.521132,25.074447,52.214827,36.261003,55.523439,46.533456,56.551423,65.798487,176.470803,-65.64002,182.900626
38,9.313568,-29.9016,-3.743523,-11.971725,0.0,-35.872856,-26.36309,-36.516655,-10.081901,-11.146225,7.225251,3.725762,23.224938,15.945008,0.0,60.575499,21.092354,71.976453,26.039124,64.494353,31.842094,63.980454,37.561955,68.752563,0.0,56.144795,24.667603,44.82256,12.122143,21.783314,-1.297382,5.574166,-14.061515,-8.258171,0.0,15.148895,3.474646,27.936776,13.157247,31.977068,23.367208,34.661865,33.642143,38.533072,74.883436,148.797102,-69.612162,173.1568
39,4.684868,-24.715936,-2.706447,-9.877176,0.0,-37.272285,-24.727798,-28.620209,-7.714004,-6.996872,9.957344,8.979744,26.123932,21.498596,0.0,61.792254,19.640602,62.134951,22.308547,56.406624,26.439946,54.487156,31.249198,57.482459,0.0,49.185573,19.410255,39.9207,5.482796,15.174465,-8.538906,-0.442726,-21.162872,-14.199818,0.0,16.589273,-6.526413,16.833594,0.441997,18.502671,9.158809,21.647138,18.84625,25.012103,79.566931,126.393676,-72.319982,165.592134
40,1.927437,-21.605648,-10.890289,-6.511742,0.0,-36.789551,-22.097923,-20.655144,-4.468208,-2.604355,13.438705,13.551613,29.463707,25.70359,0.0,61.738433,18.832339,53.114377,19.257237,48.549687,21.570352,45.298775,25.240432,47.171004,0.0,46.902259,19.705604,42.772041,6.990612,21.636028,-5.731774,7.126396,-17.427762,-6.003457,0.0,10.147199,-16.483852,6.598118,-11.881705,7.655014,-4.735348,10.575487,4.181374,12.408079,81.751928,106.921545,-82.952711,161.213909
41,0.856911,-21.149781,-9.925759,-2.852177,0.0,-32.876427,-19.861359,-18.845902,-2.118874,-0.617089,15.957985,15.876159,32.395271,28.521011,0.0,62.26717,17.339707,53.231553,17.111477,46.004248,18.780943,40.79725,22.076766,41.593991,0.0,41.628433,21.636463,43.53812,12.648354,28.675873,2.92614,16.578003,-6.742733,6.253636,0.0,2.82145,-20.987508,-1.050078,-17.200867,1.115262,-11.108189,4.230842,-3.400453,5.529329,83.047154,87.853163,-92.440155,160.443131
42,-0.129456,-13.670529,-12.534313,-3.571891,0.0,-29.066116,-17.177284,-15.227623,0.591934,3.216591,18.712944,19.004494,35.249817,31.50737,0.0,63.351045,16.81712,52.765141,15.522677,42.85407,16.085958,36.850065,18.527952,36.41901,0.0,39.337463,23.41246,47.588917,18.871651,36.727615,13.123501,27.88718,6.645962,20.183018,0.0,-1.812455,-24.754653,-4.012813,-20.30766,-0.308777,-13.910342,2.739224,-6.371562,2.962118,83.475426,76.473556,-104.41674,159.162162
43,0.655563,-11.845699,-4.052238,-5.135109,0.0,-25.090644,-15.697311,-14.318962,1.720551,4.550469,19.778985,20.175934,36.637276,32.675744,0.0,65.078846,16.470898,57.752376,15.14038,42.534864,15.421036,35.933689,17.573427,35.243523,0.0,30.391868,17.837837,35.562847,13.143356,28.01128,8.082424,21.580535,2.748321,15.151279,0.0,-1.719958,-23.487751,-7.547228,-17.787138,-3.33136,-10.64143,1.754953,-2.875729,4.277631,84.891511,67.005118,-107.708456,156.404314
44,1.147866,-9.532608,-9.463875,-5.963441,0.0,-21.618851,-15.180176,-13.740029,1.953666,5.072662,20.019195,20.590461,37.172012,32.575699,0.0,67.449129,16.53789,66.224501,15.735604,45.000656,16.257568,37.818632,18.443619,37.015092,0.0,24.69952,14.966194,27.562385,10.17612,21.42453,5.609493,16.017597,1.078331,10.956012,0.0,-4.135036,-22.355847,-10.638151,-15.311514,-4.702596,-7.353659,1.675419,0.87183,5.562076,86.517655,59.538488,-116.694053,152.506851
45,1.877357,-6.751321,-3.898018,-4.69539,0.0,-19.03482,-15.304756,-13.82975,1.663559,4.608147,19.775757,20.201798,37.264229,32.169136,0.0,69.849528,17.269509,75.181516,17.289714,48.119385,18.196531,40.562654,20.339906,39.435456,0.0,16.886158,10.939899,12.138084,3.230129,3.785236,-3.16325,-1.597756,-8.453568,-5.592602,0.0,-3.557077,-19.98565,-14.28245,-12.50507,-8.924812,-4.568518,-1.971567,3.189637,2.695579,88.670671,54.548449,-120.316412,149.572743
46,2.856537,-4.082375,-0.288729,-5.504601,0.0,-18.056785,-16.495079,-13.956367,0.46946,3.710037,18.68953,19.592308,36.254494,31.304009,0.0,72.303341,18.891773,81.282567,19.418176,49.698324,20.545973,42.458224,22.509408,41.531382,0.0,6.887198,5.602221,-7.433298,-6.408594,-18.848339,-15.982532,-25.123844,-23.254692,-28.871858,0.0,-0.082381,-16.765203,-15.767428,-9.812412,-12.804282,-2.707123,-6.189806,4.06821,-0.741194,91.54438,51.835411,-120.587969,145.437479
47,2.795586,-2.312652,-0.685776,-6.985966,0.0,-17.751023,-16.859185,-12.980233,0.234627,3.342567,18.492759,19.272285,36.007576,31.013786,0.0,73.802135,20.660953,83.865075,21.548733,51.398388,22.822872,43.836364,24.578035,42.663181,0.0,-5.134077,0.495215,-26.142866,-14.700948,-40.157959,-26.87059,-46.637764,-35.873359,-49.494684,0.0,4.791313,-11.894714,-16.43177,-5.900493,-15.965934,0.144653,-9.504476,5.928823,-3.135912,94.181351,50.625856,-121.43236,139.55461
48,2.279365,-1.167972,-9.048111,-5.915412,0.0,-17.076988,-16.768272,-11.108871,0.628624,3.942444,18.861763,19.43692,36.156143,31.067734,0.0,75.066333,22.236885,83.549308,23.241503,52.365171,24.580128,44.856882,26.168231,43.595723,0.0,-9.898573,0.858507,-28.544134,-13.495496,-46.213279,-25.001712,-51.290371,-33.424816,-50.6756,0.0,5.312752,-11.666243,-12.849424,-7.127795,-14.102856,-2.278044,-8.070235,2.594691,-2.754146,96.145569,50.182071,-130.795618,134.363385
49,2.113793,-0.387731,-8.463707,2.374019,0.0,-16.235825,-16.631447,-10.264778,0.726516,4.422683,18.861786,19.404304,36.051361,31.330673,0.0,76.688782,23.011946,83.931815,24.070397,51.764024,25.467797,45.066371,27.03207,43.821137,0.0,-10.011057,2.957732,-31.503233,-10.434637,-48.304069,-21.625488,-52.994625,-30.190487,-52.047678,0.0,3.953688,-14.5515,-17.934521,-13.339256,-20.375209,-10.688802,-15.203655,-7.333479,-10.955705,98.059616,50.240002,-139.459071,137.183066
50,1.908188,-0.525039,-6.541706,0.391711,0.0,-15.897789,-16.218888,-9.553528,1.048896,4.679397,19.055854,19.216369,36.094825,31.293251,0.0,78.268314,23.597179,83.396019,24.787048,51.613279,26.221516,45.713318,27.740527,44.306409,0.0,-11.398441,2.927937,-33.445238,-8.28515,-50.060428,-18.050588,-52.918087,-25.70969,-50.881696,0.0,5.694351,-15.768301,-18.871797,-16.956861,-22.592694,-15.74006,-17.858432,-13.341908,-13.925947,99.896742,50.059778,-146.071839,137.919592
51,1.487823,-0.804725,-6.156687,1.838294,0.0,-15.597198,-15.69912,-8.455605,1.424377,5.32132,19.255096,19.410255,36.153786,31.57077,0.0,78.966106,24.187081,82.456758,25.49722,51.554666,27.00348,46.271072,28.541652,44.908234,0.0,-10.447191,3.289301,-33.553653,-6.165058,-49.901722,-14.629079,-50.191715,-21.410751,-47.409255,0.0,4.089699,-17.394075,-21.110801,-21.06188,-25.885504,-21.620036,-21.686377,-20.548039,-18.609601,101.487545,49.776303,-152.125546,140.279136
52,1.000877,-0.978182,-6.590377,4.525009,0.0,-15.057266,-15.506469,-8.244918,1.444085,5.167603,19.216004,19.286431,36.065896,31.611992,0.0,79.39671,24.466483,83.327074,25.928374,51.452289,27.571015,46.879931,29.22098,45.564832,0.0,-9.039648,5.739973,-30.508782,-1.507531,-44.683995,-8.169989,-42.846188,-13.541004,-38.749546,0.0,-2.53717,-19.759826,-25.376366,-25.564381,-30.964365,-27.810428,-28.039692,-27.965629,-26.156792,102.803913,49.389276,-158.400432,145.3953
53,0.682114,-0.951864,-7.691615,3.181245,0.0,-14.964249,-15.603332,-8.915932,1.216782,4.506615,19.034546,18.921066,35.904236,31.408493,0.0,79.155673,24.236265,85.496539,25.899154,51.459798,27.677776,47.273472,29.402835,45.830804,0.0,-5.726726,9.958598,-23.809833,6.188359,-30.697883,2.193484,-27.164096,-1.58056,-23.060113,0.0,-8.143474,-21.455696,-29.370552,-27.836808,-33.669017,-30.582111,-31.939428,-31.108771,-31.354337,104.073561,49.286629,-165.504513,149.425762
54,0.008537,-1.458607,-2.835411,-6.32344,0.0,-15.204437,-15.362365,-8.656379,1.434471,4.357956,19.212456,18.743271,35.932434,31.312683,0.0,79.029147,24.44621,85.257454,26.312845,51.974754,28.165592,48.045909,29.848087,46.261402,0.0,-7.563057,9.854846,-16.795646,9.418854,-18.944721,8.421324,-12.100822,7.051409,-6.528825,0.0,-9.632845,-17.56177,-22.815202,-20.804899,-25.175,-21.515613,-22.815415,-20.782583,-21.386894,104.746399,48.87684,-167.675623,144.15114
55,-0.732238,-1.302297,4.148037,-2.782588,0.0,-15.177109,-15.427918,-8.685837,1.358207,4.323898,19.077346,18.620132,35.638275,31.171005,0.0,79.042806,24.783151,84.99502,26.756175,51.957642,28.761174,48.473431,30.56604,46.686578,0.0,-4.794679,11.667927,-7.586362,12.775074,-6.658521,12.934577,0.202538,12.324,5.126616,0.0,-11.333988,-17.205582,-20.016013,-18.72977,-21.157318,-18.01534,-18.66433,-16.063048,-16.850347,104.771485,48.625844,-162.770262,142.419853
56,-1.967904,-1.208166,11.131485,0.758265,0.0,-15.881492,-15.520957,-9.648696,1.243836,3.901406,18.836197,18.251564,35.078156,30.717202,0.0,78.77912,24.980104,84.394004,27.048607,51.796351,29.21764,48.965953,31.188423,47.297296,0.0,2.578406,15.397843,3.818018,16.257019,6.160715,15.733241,9.745983,14.237212,11.90621,0.0,-13.246906,-20.38713,-20.972984,-21.611422,-21.61597,-20.081293,-19.486173,-16.950167,-17.744698,103.591335,48.238705,-150.851023,143.999145
57,-3.349319,-0.818421,20.706898,-2.271928,0.0,-16.984383,-15.896324,-11.328392,0.825897,3.512306,18.23893,17.649376,34.141113,29.977982,0.0,78.768455,25.337719,83.322776,27.42006,51.415412,29.670585,48.972899,31.642263,47.64203,0.0,9.874148,18.253697,15.874468,17.448628,17.867712,14.930884,17.795124,11.246889,15.19417,0.0,-9.190055,-21.492264,-19.172436,-22.880201,-19.43479,-21.087017,-17.109638,-17.371269,-15.677344,101.033255,48.083555,-129.352886,142.390488
58,-5.513924,-0.37958,28.629595,-1.451956,0.0,-18.17736,-16.146011,-13.195587,0.530594,2.62674,17.80275,16.861382,33.569207,28.969117,0.0,77.935584,25.61412,83.302115,27.877674,51.216749,30.359683,49.188915,32.448569,48.294565,0.0,16.213692,21.289993,26.867643,18.487564,26.942133,13.713427,22.953621,7.623116,16.009483,0.0,-3.285128,-21.993807,-18.185635,-24.926671,-19.205841,-24.161157,-17.368399,-21.017101,-16.867044,96.20454,48.076994,-100.038082,141.311551
59,-7.191398,0.204036,36.552292,-0.631984,0.0,-19.18586,-16.869599,-14.438187,-0.371887,1.363449,16.733528,15.807655,32.370758,27.806373,0.0,75.501734,26.709881,85.065731,29.312463,51.55369,32.067254,49.916402,34.26263,49.351713,0.0,21.597038,24.506733,36.797544,19.373829,33.383978,12.08087,25.221474,3.365891,14.35215,0.0,4.467877,-21.891759,-18.01258,-27.750833,-20.929123,-29.303714,-20.262456,-27.887663,-21.313797,89.48378,48.403592,-63.015152,140.802129
60,-6.675568,0.930368,31.950783,-2.676732,0.0,-20.828751,-17.543495,-13.723617,-1.149444,1.061577,16.006874,15.806946,31.84433,27.573052,0.0,73.061865,28.32526,88.304362,30.892787,52.913101,33.225822,50.33052,34.754787,49.693793,0.0,21.1688,22.616294,39.486053,16.144615,33.528534,7.723526,22.806335,-1.718148,10.774063,0.0,13.786384,-18.113866,-12.338116,-26.83295,-18.10272,-31.250803,-20.445772,-32.404214,-23.865343,83.008118,49.405019,-30.864463,138.196456
61,-3.828483,2.016627,23.506187,-5.96514,0.0,-19.824624,-18.586487,-13.793931,-2.133317,0.887191,15.214965,15.702781,31.488487,27.424301,0.0,72.41088,28.745589,90.792366,31.263258,53.460172,33.361129,49.94298,34.556661,49.303122,0.0,17.093102,21.564709,41.894062,15.306873,32.963974,6.953865,22.279152,-2.302276,10.977791,0.0,24.08691,-11.43746,-2.107467,-21.090556,-10.452053,-27.179153,-14.712776,-30.478669,-19.946093,79.074017,51.696747,-7.463894,132.506417
62,-0.726929,2.011507,12.020134,-2.931084,0.0,-17.854798,-18.607475,-10.942932,-2.099236,1.770012,15.409653,16.490043,32.198204,28.238708,0.0,72.454247,28.992683,86.198944,31.396695,53.106824,33.139958,49.14209,34.008045,48.153632,0.0,12.495491,19.762409,37.551186,13.569531,26.258556,5.139363,17.059319,-3.947006,7.33429,0.0,30.455581,-7.680627,5.182698,-18.687836,-5.282358,-26.280594,-11.421391,-31.17007,-18.367353,77.889033,54.083891,4.098185,129.95097
63,3.593582,1.058625,0.534081,0.102971,0.0,-14.896683,-17.77359,-8.182297,-1.183754,3.468933,16.345642,18.071068,33.278183,29.83548,0.0,72.622782,28.965018,83.251535,30.920456,52.497927,31.979371,47.889531,32.193954,46.302095,0.0,7.375968,17.209396,26.457424,10.932586,13.412281,2.280018,7.146835,-6.652337,-0.156441,0.0,32.892401,-6.843366,9.53238,-19.624787,-2.593634,-28.555126,-10.571615,-34.478417,-19.129123,80.456429,55.387684,3.60608,130.299109
64,8.064102,-0.121365,-10.951973,3.137026,0.0,-11.761665,-16.046516,-7.636207,0.831642,4.726296,18.363167,19.272743,35.282272,31.125687,0.0,73.557375,27.746603,81.010286,29.237561,51.64237,29.812284,46.12071,29.687882,44.036973,0.0,1.734535,13.90567,8.612777,7.396042,-5.574852,-1.624169,-7.458298,-10.418267,-11.4944,0.0,31.397368,-8.925676,10.94158,-23.901411,-2.385881,-34.002747,-12.163448,-40.403708,-22.231402,87.514904,55.53736,-8.35152,133.707176
65,10.405518,-1.716451,-16.316912,2.033466,0.0,-8.257553,-14.569863,-9.666733,2.393074,4.953048,19.772072,19.492561,36.489258,31.414306,0.0,74.19588,25.920279,78.580005,27.399368,49.922176,28.18156,44.477902,28.485119,42.640932,0.0,-3.681444,12.421423,-6.318134,6.389626,-20.36392,-2.462282,-17.733484,-11.275297,-19.107542,0.0,29.277216,-9.128706,11.820177,-24.633635,-1.622122,-35.047895,-11.812101,-41.558867,-22.236228,96.786541,54.001686,-25.802313,135.921419
66,9.703033,-3.324692,-17.838764,2.173565,0.0,-8.148331,-11.667709,-10.151573,5.136498,5.049156,22.102043,19.485352,38.269409,31.701897,0.0,74.054386,24.796088,77.794898,26.472562,49.177244,27.375471,44.060654,27.857445,42.356318,0.0,-11.036093,6.810625,-25.296204,1.406387,-36.543097,-6.546793,-30.24967,-14.55015,-28.698435,0.0,27.115433,-6.675121,13.113398,-22.903926,-0.576934,-34.51384,-12.723141,-42.03198,-23.719189,105.333149,50.668513,-44.797502,138.086503
67,8.582359,-4.533363,-15.493569,-0.489697,0.0,-8.324249,-9.813011,-12.838943,6.864258,3.691659,23.514519,18.606331,38.998375,31.140931,0.0,72.454383,24.478956,84.09825,26.543402,49.616135,27.835931,45.073139,28.710434,43.554999,0.0,-17.07765,2.626494,-36.926574,-2.403911,-48.200216,-9.840898,-42.143533,-17.506239,-39.359548,0.0,26.97246,-2.848923,17.45532,-18.772113,3.712484,-30.877496,-9.653008,-39.068113,-20.714823,112.829114,45.900804,-61.377465,137.36246
68,6.167771,-4.288863,-9.574382,-2.044435,0.0,-9.668312,-9.704819,-15.7118,6.871261,2.336975,23.391289,17.504722,38.405365,30.070999,0.0,72.13577,24.256482,88.396537,27.045526,49.433533,29.089953,45.946747,30.734879,45.00002,0.0,-21.249774,-2.37113,-45.100022,-7.280331,-55.675101,-13.8412,-49.749773,-20.487288,-45.539286,0.0,27.173577,0.014709,20.02677,-15.211417,6.016874,-27.353126,-8.122865,-35.912656,-18.974027,118.234417,41.499089,-71.714315,135.205173
69,2.750244,-2.813743,-9.062256,-1.487351,0.0,-12.357445,-11.906662,-17.380852,4.428658,1.901161,21.254356,16.267502,36.74366,29.17971,0.0,74.928857,24.425276,88.486722,26.626709,48.289921,28.296292,45.015902,29.89995,44.554095,0.0,-17.176501,-5.460463,-39.622753,-8.916985,-47.4564,-13.037424,-42.873682,-17.284647,-37.664755,0.0,24.953835,0.204962,18.539215,-12.215918,5.812072,-22.76651,-7.248165,-30.657233,-16.416678,120.117399,38.564785,-81.643833,133.597261
70,-1.712494,-1.417419,-7.455729,-0.989761,0.0,-14.685516,-12.951118,-17.162773,3.471108,1.123535,20.25547,15.253624,35.511337,28.753647,0.0,77.148741,25.186467,86.095629,27.354271,48.224212,29.145731,45.655976,30.827497,45.737159,0.0,-4.054733,-0.38546,-19.806152,-1.600422,-25.342152,-3.341217,-23.013119,-5.616623,-18.992168,0.0,17.702633,-8.435798,13.597898,-17.386853,5.262784,-23.569027,-3.708464,-27.020529,-10.618909,117.539617,37.03938,-89.96485,132.499514
71,-5.471672,0.017228,4.663441,-3.28974,0.0,-16.16407,-14.509392,-15.766502,2.17099,1.481323,19.122757,15.281387,34.365006,28.688347,0.0,79.125743,26.639893,79.195008,28.62189,48.532619,30.387476,46.224253,32.065599,46.209247,0.0,7.775898,5.876537,0.841953,5.238933,-3.818501,4.081985,-4.871208,2.240383,-3.271782,0.0,13.9859,-16.539097,9.885255,-22.561712,6.321616,-24.581699,1.47603,-23.694475,-3.103926,111.281044,36.802054,-86.08831,128.95522
72,-8.231621,2.161326,14.183765,-3.777909,0.0,-18.687217,-16.085838,-15.689781,0.700356,1.462303,17.649491,14.851044,32.886589,27.681862,0.0,80.672054,27.608387,75.261106,29.340511,49.246985,31.022864,46.800958,32.533884,46.708135,0.0,18.502476,10.454624,17.620423,9.591625,15.135452,8.523365,12.034401,6.901783,11.952896,0.0,12.152425,-22.285996,6.475024,-26.176062,6.925562,-25.280539,4.600572,-21.433877,1.731642,102.341549,38.794616,-72.612419,125.008547
73,-11.190033,6.575832,20.130101,-5.374602,0.0,-22.452392,-18.416702,-20.832733,-1.789673,0.962242,15.707611,15.207733,32.210633,28.323922,0.0,81.040624,27.574925,70.260873,27.911464,54.309068,28.536323,45.104527,29.133178,44.086769,0.0,27.568656,15.588958,34.420028,13.696712,31.859527,11.479522,24.038406,8.711299,21.130268,0.0,13.876929,-23.341316,8.186382,-25.256684,12.303881,-22.451282,11.186328,-16.993343,9.63869,90.71949,45.286242,-52.914344,119.549739
74,-10.003166,4.856843,21.102596,-7.58412,0.0,-23.010315,-17.912636,-21.886299,-1.23999,0.414528,16.200073,15.767784,32.658005,28.69178,0.0,78.928772,27.920949,72.845102,28.471905,56.09631,29.28483,45.983692,29.80233,44.639916,0.0,31.721466,20.484947,44.40715,16.285183,37.367042,11.262222,25.253013,5.814708,19.130184,0.0,19.228797,-20.741479,15.92385,-21.719541,20.050519,-17.926939,18.824958,-11.552669,17.671698,80.49135,50.272681,-32.036722,112.095215
75,-7.066406,3.471398,21.23434,-8.882698,0.0,-23.029564,-18.58049,-23.437683,-2.228188,0.710632,15.437942,16.302864,32.481216,28.381325,0.0,76.061496,27.884399,77.427323,28.578097,57.658972,29.327729,46.888589,29.799551,44.814028,0.0,28.657631,20.330784,44.246613,12.480103,30.913079,3.701523,16.071408,-5.00386,7.822586,0.0,30.451033,-11.520401,26.959748,-11.929921,26.81955,-8.882399,23.919596,-4.075342,23.316112,73.408533,53.92552,-10.818793,103.393958
76,-4.101196,2.52508,12.674942,-8.815915,0.0,-23.724839,-19.788826,-25.53566,-3.809601,0.033737,14.058609,16.038139,31.738288,27.645446,0.0,72.916183,27.575344,86.099044,28.48707,58.335657,29.327191,47.323163,29.777086,45.23979,0.0,28.431,20.870618,44.241417,10.637581,26.068299,-0.661438,9.888996,-11.766571,-0.417999,0.0,38.326248,-3.487239,37.794424,-2.21014,32.734272,1.409069,29.579363,6.077131,28.580549,69.508484,56.744467,2.057296,94.87191
77,-1.934372,1.002993,4.234837,-6.508142,0.0,-24.053948,-20.976151,-26.107659,-5.201088,-0.479027,12.986045,16.121223,31.307533,27.757415,0.0,70.591885,27.235538,91.586377,28.404436,59.334285,29.287072,47.624073,29.767515,45.610336,0.0,28.970444,21.884033,44.552284,10.511341,23.146385,-2.142449,6.780624,-14.695255,-4.825275,0.0,43.449119,1.277712,43.986363,4.424781,35.319019,9.243243,33.316212,14.574518,32.164712,67.919444,58.024006,6.637465,88.640314
78,0.825142,-3.01313,-4.314285,-4.289541,0.0,-22.443856,-20.236313,-20.403122,-4.465027,-0.495049,13.317901,15.333435,30.888908,26.488174,0.0,68.913225,28.169507,97.292239,30.46154,56.569614,32.134056,50.324517,33.158323,49.127276,0.0,30.428238,23.611336,46.893059,12.18243,22.42836,-0.826722,7.743324,-13.943562,-5.041134,0.0,45.93062,3.309417,48.599253,8.592409,35.286414,15.220516,35.857272,22.014256,34.054509,69.061965,55.210506,2.640559,84.550403
79,-0.005814,-1.715797,-1.648213,-3.246235,0.0,-22.205635,-20.41127,-18.158363,-4.635521,-0.762566,13.061691,15.07933,30.471565,25.927849,0.0,67.453526,28.625744,97.340275,31.625381,57.916681,33.773536,52.059432,35.092654,51.029769,0.0,29.672287,23.620446,46.404831,11.842461,21.10627,-1.59629,6.923127,-15.240818,-6.722763,0.0,48.210893,5.262876,51.750112,11.36102,37.149338,18.649804,38.690548,26.087554,35.47303,69.364466,53.509183,1.300661,81.318642
80,-1.173523,-0.668152,-0.127716,-2.718303,0.0,-22.601074,-20.036087,-16.355232,-4.146034,-1.144547,13.507484,14.919502,30.762611,26.086212,0.0,67.020829,28.804888,97.137665,31.907235,57.990689,34.117375,52.003023,35.401351,51.0689,0.0,28.985207,22.737534,44.511727,10.931877,19.726593,-2.396759,5.491814,-16.052204,-8.23304,0.0,47.931232,7.382163,53.578746,14.011305,39.230438,21.555309,41.056608,29.152821,36.529667,68.498331,52.853885,1.480333,78.613193
81,-1.39856,-0.420125,-0.786941,-1.041538,0.0,-21.768722,-19.790176,-15.692985,-3.95272,-1.581871,13.608765,14.803322,30.724183,26.202164,0.0,66.476066,28.907357,96.922694,32.093696,58.577812,34.289566,52.137096,35.542049,51.085548,0.0,28.494186,22.277687,45.16056,10.736206,19.975845,-2.37014,5.478195,-15.837033,-7.675713,0.0,45.590558,8.239821,53.32455,15.009895,39.548231,22.399357,40.941907,29.589643,36.985934,67.360147,52.48831,0.953768,77.626205
82,-1.522705,0.173927,-1.047066,-0.646354,0.0,-20.689018,-19.316871,-14.962371,-3.583625,-1.22834,13.902329,15.0019,30.948693,26.500374,0.0,66.158699,28.803356,96.22056,31.87287,58.290091,33.992817,51.696969,35.198228,50.563905,0.0,29.074974,22.308197,46.768684,11.013496,20.276276,-1.977402,5.867866,-15.352421,-7.086777,0.0,42.015833,9.339491,54.581387,16.14007,40.044815,23.264067,40.687544,30.031832,37.403448,66.074421,52.729548,0.143681,77.047162
83,-1.223556,0.315013,-1.311195,-0.432462,0.0,-20.953789,-18.827065,-14.409485,-3.069809,-1.262123,14.351188,14.910026,31.237106,26.491653,0.0,66.053033,28.629918,95.683585,31.690923,58.268603,33.795278,51.560915,35.00684,50.302583,0.0,30.845558,22.684524,47.922271,11.747291,20.720695,-0.988816,5.679725,-14.209706,-6.371888,0.0,37.932635,10.321136,55.384234,17.248007,40.665567,24.218462,40.047037,30.66066,37.992719,65.083071,53.078981,-0.935308,76.64912
84,-1.001908,0.402607,-1.894936,-0.519877,0.0,-21.924522,-18.20684,-13.978706,-2.521751,-1.022003,14.7239,14.917969,31.359192,26.336266,0.0,65.472628,28.633585,95.423152,31.599668,58.331656,33.545929,51.623616,34.587801,50.175797,0.0,33.394135,23.387741,49.575783,13.100784,20.949852,0.888863,6.160698,-11.993065,-5.066071,0.0,33.925701,10.951096,56.262196,18.483707,39.87547,25.728451,39.05235,32.128363,38.56018,64.32233,53.496229,-2.589077,76.143884
85,-0.908546,0.684324,-2.083557,0.15269,0.0,-22.103439,-17.809868,-13.714874,-2.195847,-0.704658,14.939804,14.937767,31.437401,26.152977,0.0,65.112345,28.755333,95.450508,31.605787,58.585333,33.364927,52.089338,34.22989,50.236671,0.0,35.40422,24.060196,50.57016,14.268539,21.16127,2.381698,6.468017,-10.265923,-4.353413,0.0,31.383659,11.004936,56.438919,18.885623,38.753515,26.259931,38.071926,32.62052,38.520784,63.694525,54.136361,-4.391893,76.252382
86,-0.908272,0.843084,-1.683586,1.048047,0.0,-22.556053,-17.173965,-13.316025,-1.540787,-0.5709,15.473374,14.858803,31.763214,25.898323,0.0,64.550553,28.872449,95.715066,31.492223,59.306393,32.986453,52.691917,33.598468,50.298255,0.0,36.388,24.48468,48.780304,15.048797,21.040672,3.434097,6.767967,-8.960827,-3.780728,0.0,30.607524,9.94628,53.799237,18.004987,37.862055,25.621339,37.615757,32.232066,38.23005,63.180753,54.89205,-5.680979,77.213034
87,-0.973617,0.800101,-1.676903,0.728753,0.0,-22.828354,-16.913956,-12.652748,-1.232186,0.048179,15.786026,15.368202,32.034027,26.074218,0.0,64.866288,29.023792,95.864933,31.459667,59.447189,32.727421,52.976283,33.165238,50.416222,0.0,37.439758,24.855354,48.064362,15.651123,21.67012,4.296387,7.455482,-7.824783,-2.631832,0.0,30.370156,9.182904,51.888544,17.571092,37.592453,25.536926,37.546813,32.425864,38.300607,62.677534,55.554345,-6.887484,77.803981
88,-0.928849,0.709604,-1.211517,0.639525,0.0,-21.823013,-16.631034,-12.102584,-0.984649,0.37072,16.022873,15.696923,32.290078,26.256043,0.0,65.11129,29.21312,95.843932,31.439976,59.951487,32.51124,53.157651,32.802566,50.33859,0.0,38.09095,24.960685,47.889495,15.92189,23.053779,4.669555,8.281952,-7.357647,-1.763592,0.0,29.651016,8.48308,50.072242,17.102937,38.342504,25.332717,37.747514,32.372005,38.609148,62.341392,56.090514,-7.506294,78.270071
89,-0.748626,0.778056,-1.069771,0.304744,0.0,-20.579453,-16.684525,-11.811951,-1.033951,0.75341,16.049881,16.203392,32.450775,26.7304,0.0,65.591195,29.029368,95.548734,31.132544,59.462738,32.153093,52.590948,32.527813,49.893943,0.0,38.57872,25.361137,47.758209,16.462303,23.873154,5.260963,8.813415,-6.714649,-1.059483,0.0,28.911994,8.599109,49.525405,17.480245,39.159048,25.903724,38.366988,32.968063,39.1239,62.269993,56.652623,-7.898838,78.358868
90,-0.491364,0.561033,0.062118,-0.262093,0.0,-19.759804,-16.771774,-11.518181,-1.048988,0.706558,16.087578,16.319779,32.569039,26.915589,0.0,66.442214,28.586415,94.997532,30.604943,59.245605,31.680734,52.045452,32.16968,49.533037,0.0,37.879326,25.24411,47.524361,16.291375,23.506989,4.986237,8.310585,-7.080494,-1.288593,0.0,29.146305,9.296709,50.580948,18.075858,40.603007,26.437068,39.431454,33.420743,40.165691,62.448881,56.998088,-7.166468,77.881207
91,-0.503403,0.26607,0.617363,-0.331637,0.0,-19.565048,-16.775619,-11.17028,-0.984603,0.816788,16.231156,16.626687,32.789772,27.277817,0.0,66.799262,28.389641,94.619607,30.450055,58.669838,31.591733,51.363425,32.173731,49.266634,0.0,36.827591,25.100945,49.030587,15.807839,22.318428,4.101769,6.485985,-8.358753,-2.962726,0.0,29.859183,10.679937,54.093262,18.907186,42.304528,26.742893,40.301147,33.248583,40.91825,62.533556,57.038071,-5.961027,77.323483
92,-0.241127,0.2245,0.886048,-0.005755,0.0,-19.529251,-16.503341,-11.376709,-0.640594,0.473786,16.554154,16.33825,33.040261,27.148201,0.0,66.076368,28.194929,94.508197,30.380715,58.934945,31.623423,51.326973,32.278533,49.255444,0.0,35.802017,25.067024,49.667816,15.509399,20.411888,3.433685,4.272033,-9.432942,-5.160439,0.0,30.665563,11.87335,57.985199,19.525505,43.178586,26.816431,40.775124,32.855325,41.119587,62.820024,57.028648,-4.547384,77.083805
93,-0.159622,0.205413,0.990577,0.096726,0.0,-19.872711,-16.331863,-11.433815,-0.441009,0.759407,16.736389,16.487824,33.195099,27.306153,0.0,65.740723,28.256982,94.653094,30.554233,58.820262,31.772544,51.343355,32.400435,49.197862,0.0,34.773148,24.959153,49.358048,15.090111,17.629898,2.677941,1.806565,-10.54454,-7.454441,0.0,32.202,12.927312,61.407888,19.863032,43.347653,26.570177,40.963136,32.280985,41.157717,63.097755,57.007138,-3.119454,76.953608
94,-0.23117,0.337392,1.010422,0.821095,0.0,-19.861084,-16.213852,-11.422142,-0.253373,1.08712,16.968361,16.570655,33.435905,27.420753,0.0,65.503293,28.340851,94.912099,30.677345,58.571556,31.832392,51.573462,32.374753,49.216998,0.0,32.631134,24.72226,48.591683,14.546654,15.835144,1.853943,-0.251541,-11.630321,-9.52256,0.0,35.495402,13.041174,63.943576,19.231227,43.023327,25.475033,40.150433,31.057252,40.279923,63.237626,57.106325,-1.737991,77.536498
95,-0.202904,0.41918,-0.023895,1.25089,0.0,-20.698357,-15.954941,-11.565811,-0.057976,1.326416,17.089096,16.62648,33.466575,27.474243,0.0,65.006239,28.688883,95.219005,31.174782,58.556131,32.270203,51.786717,32.697516,49.20476,0.0,32.230774,25.103531,48.508301,14.775833,15.509857,1.991547,-0.96714,-11.585049,-10.211941,0.0,36.314899,12.826913,64.873643,18.69537,42.277432,24.703839,39.198526,30.210136,39.242171,63.362801,57.301323,-1.433807,78.563206
96,-0.133026,0.665614,-0.625168,1.453945,0.0,-20.558625,-16.257431,-11.896958,-0.342865,1.552414,16.872642,16.693222,33.355751,27.494934,0.0,64.97303,28.970138,95.160713,31.51029,58.400378,32.587199,51.895237,32.999,49.212485,0.0,32.759171,25.572372,48.411758,15.190521,15.980736,2.406029,-0.704361,-11.164021,-9.971111,0.0,37.438416,11.919089,65.008641,17.789521,41.183369,23.903244,38.329122,29.706567,38.381085,63.514166,57.698446,-1.774584,79.74866
97,0.1875,0.564331,-0.735283,2.179548,0.0,-22.000786,-16.760124,-12.49688,-0.904907,1.447334,16.348869,16.669761,32.936622,27.441925,0.0,65.140701,28.795266,95.020712,31.596926,58.067611,32.893129,51.879892,33.458991,49.408721,0.0,33.641831,25.883286,46.360703,15.236595,16.118981,2.364739,-0.505142,-11.183819,-9.666229,0.0,38.76639,10.570139,62.318652,16.318356,39.686082,22.548855,37.076547,28.686982,37.241766,63.95743,57.952719,-2.254103,81.61815
98,0.528579,1.169639,-1.251366,2.124962,0.0,-23.80236,-17.675422,-14.341964,-1.752067,0.511002,15.611641,15.902253,32.280693,26.701333,0.0,65.234463,28.228071,94.437702,31.412175,57.756599,33.19428,51.946268,34.184231,49.759031,0.0,33.623909,26.51484,44.509964,15.733063,16.204102,2.726189,-0.052848,-10.992233,-9.429222,0.0,40.964982,10.101064,60.958543,15.84242,38.670917,22.176505,36.441629,28.484971,36.511857,64.681984,58.81485,-3.309494,83.435604
99,0.92347,2.029199,-1.745258,2.975104,0.0,-27.476326,-18.181824,-17.622688,-2.059181,-1.837601,15.260559,13.94458,31.727211,24.93734,0.0,65.116593,27.189774,92.884327,30.840088,59.529854,33.237289,52.612141,34.751316,50.480041,0.0,34.468907,26.641194,41.000416,15.40147,15.133679,2.097016,-0.34703,-11.845093,-9.594566,0.0,41.34232,9.748148,57.930605,15.318943,38.095101,21.568035,35.81974,27.845199,35.822865,65.792713,60.472861,-4.867493,86.03952
100,1.686722,3.081987,-0.324486,7.686944,0.0,-30.229065,-19.574455,-22.613228,-3.129685,-5.09848,14.337433,11.150299,30.732788,22.386383,0.0,64.497861,25.310216,90.239817,29.617233,60.56444,32.988781,53.34796,35.440451,51.788552,0.0,35.836338,25.880001,37.691906,13.544094,13.497242,-0.574642,-1.698074,-15.089161,-11.326469,0.0,39.726986,5.326936,52.138411,9.31232,35.903585,14.78579,33.075503,20.732164,32.599327,67.667021,62.968182,-5.004393,93.139798
101,3.265388,4.416155,-1.104103,6.716086,0.0,-32.053688,-21.263282,-29.933807,-4.881065,-10.319572,12.367882,6.040604,28.38707,17.886269,0.0,61.730708,23.182111,86.922677,28.561017,63.034259,33.256994,56.109605,36.974677,54.931252,0.0,33.358853,23.888912,32.655796,10.812218,10.418793,-3.63612,-3.775165,-18.196998,-13.782417,0.0,39.584941,3.426876,48.33001,6.010643,34.45581,10.848393,31.336753,16.597862,31.12816,71.153103,66.816162,-5.887802,99.287709
102,3.001076,7.225799,-6.890716,8.778161,0.0,-34.074028,-22.246376,-36.31295,-5.757248,-14.079552,11.257118,2.493485,26.886658,14.679657,0.0,59.955408,21.500993,83.379605,27.958425,63.942922,33.745377,57.100476,38.347555,56.570275,0.0,33.433445,24.741096,33.390278,11.879562,12.985084,-2.189484,-1.572693,-16.413929,-11.900425,0.0,37.082203,-1.394547,44.018713,0.573451,32.883138,5.299358,28.923176,11.246497,28.930185,74.376205,73.500731,-12.556492,107.52464
103,3.347763,10.106437,-7.421643,7.169562,0.0,-34.899925,-23.499412,-42.274155,-7.048965,-18.091919,9.692917,-1.550835,25.009735,10.906242,0.0,57.861593,19.90175,80.084893,27.308026,66.398692,34.008261,59.632681,39.394978,59.494292,0.0,33.844403,24.467583,34.094674,11.91742,17.063576,-1.418998,1.584217,-14.827652,-9.374382,0.0,33.128775,-3.809945,38.682144,-1.495755,33.23535,3.654476,28.155848,10.154954,28.134803,77.997499,82.915953,-19.704604,114.002987
104,3.608963,12.253196,-7.650901,7.207996,0.0,-34.094513,-25.203895,-47.703483,-9.133209,-22.539665,7.303139,-5.839851,22.340126,6.950295,0.0,55.139622,19.260577,78.295366,27.604885,69.180264,35.119305,63.980132,41.288851,64.589936,0.0,34.355552,24.749439,36.268283,12.657199,21.6786,0.072395,5.176609,-12.645104,-6.372185,0.0,28.912074,-6.317209,34.582466,-3.415353,33.370133,2.327336,27.364306,9.438977,27.678955,81.938564,94.066336,-27.023403,120.10817
105,2.200035,15.174552,-9.408875,3.957423,0.0,-34.33136,-25.819427,-51.211944,-10.219047,-26.14595,5.894417,-9.187637,20.687279,3.877648,0.0,52.451244,19.420245,76.836223,28.350509,73.298653,36.314596,69.095611,42.861646,70.509739,0.0,33.902172,25.584126,37.408207,14.562893,26.27282,3.199036,9.742745,-8.504528,-2.077629,0.0,29.013666,-5.124327,32.873135,-0.089155,34.716243,7.264331,29.212799,15.681703,30.425904,84.367996,107.592754,-36.202881,122.417459
106,-1.036743,19.483082,-8.380623,6.042525,0.0,-36.323799,-25.710731,-53.258743,-10.065079,-29.46048,5.949097,-12.430595,20.447639,0.641281,0.0,53.707915,20.131215,78.270191,29.818737,77.074957,38.471044,74.466131,45.458585,76.957334,0.0,37.723526,27.558907,40.317524,16.829315,32.507332,5.850197,16.369686,-5.504516,3.962872,0.0,26.553517,-5.355959,30.518246,1.502956,36.462581,10.204651,32.455924,19.715382,33.166536,83.514479,124.660262,-44.400278,126.04441
107,-1.424011,20.250066,-2.977855,5.168868,0.0,-35.368996,-26.571694,-56.913643,-11.222946,-35.562653,4.433784,-18.614914,18.520683,-4.694527,0.0,53.705192,21.414765,79.831482,31.635304,84.184145,41.00475,83.240142,48.785901,85.829139,0.0,38.938465,27.347934,39.363372,16.063156,33.8031,4.657264,19.086113,-6.91919,6.486637,0.0,26.628185,-2.084997,30.271775,6.214129,39.246536,16.017192,37.336713,26.39086,37.808554,82.351742,142.023891,-47.116859,128.326841
108,-2.578469,20.426388,-2.091832,9.31077,0.0,-36.399032,-27.12957,-61.580154,-12.473785,-43.819015,2.647408,-26.932868,16.203164,-11.299713,0.0,53.082457,22.530694,80.695809,33.507416,89.926631,43.731358,91.782441,52.218606,93.926761,0.0,42.186802,28.004002,40.810879,15.894093,36.205159,3.790249,23.614609,-8.266319,10.592057,0.0,26.925761,-2.079618,30.227092,6.843409,40.131797,17.444541,40.416627,28.627139,41.739568,80.167396,159.341467,-48.814568,134.528799
109,-6.235816,21.960163,-1.837783,10.662067,0.0,-37.86818,-27.048592,-66.014557,-12.980576,-50.756527,1.654609,-34.741929,14.884895,-17.370415,0.0,52.688317,23.347485,80.906699,35.304156,93.657739,46.340202,97.822199,55.273449,99.301517,0.0,47.599136,27.371429,45.598411,14.962062,41.474029,2.769401,30.315433,-9.00911,16.034328,0.0,26.927786,-2.130142,30.941761,7.58857,42.454409,19.291767,45.56779,31.750864,47.128717,74.375073,178.023541,-50.208858,141.912777
110,-5.659562,19.525147,-2.035733,10.937208,0.0,-37.638404,-28.441955,-73.416401,-15.24337,-61.262821,-1.372879,-45.86594,11.48655,-26.087173,0.0,52.799616,24.573391,82.340346,37.949024,97.145007,50.026047,103.846891,59.549245,104.258148,0.0,50.121128,27.598011,52.891537,15.158306,49.199845,2.971333,38.543873,-8.582519,22.913761,0.0,26.579749,-0.255622,34.484555,10.162148,47.635133,22.333642,52.69238,35.08961,54.187605,69.250414,194.414522,-51.709688,149.715819
111,-6.636795,17.471711,-0.880336,12.348755,0.0,-37.854858,-29.436149,-78.556583,-18.155868,-70.648441,-5.718658,-55.652263,6.5373,-33.612934,0.0,45.033489,25.916944,79.032179,39.883677,97.562193,51.925156,105.585053,61.271389,105.153505,0.0,51.039356,28.13879,60.033645,16.02024,56.263664,3.933391,45.03955,-7.62885,28.873592,0.0,28.05785,1.97568,38.885908,12.893492,53.093554,25.312167,59.06761,38.08114,60.658066,63.126732,209.174797,-52.076911,159.353138
112,-6.92688,15.151303,0.277839,13.117881,0.0,-39.658699,-30.124672,-84.321876,-20.892929,-79.979702,-9.887855,-65.53704,1.737351,-42.010952,0.0,37.401805,28.160559,74.929704,42.213953,94.234105,53.702889,103.989781,62.349058,104.488206,0.0,52.078343,27.218468,67.342804,15.273583,63.685902,3.389145,51.577389,-7.977711,34.222458,0.0,29.065252,4.44398,44.495136,15.782973,59.900913,28.277453,66.353214,40.914959,67.6405,56.574857,221.927121,-51.424067,170.07204
113,-7.760398,14.968955,0.570591,13.892509,0.0,-42.642495,-29.967202,-89.206158,-21.868767,-85.890507,-11.961319,-71.141739,-1.083458,-47.313366,0.0,30.340126,29.860153,68.284766,42.585233,84.990093,52.22998,94.310774,58.812834,97.199743,0.0,54.327644,25.78822,72.171353,14.656826,68.723065,3.349171,55.190403,-7.6963,37.688702,0.0,27.650488,6.769401,47.744134,18.700902,64.84223,31.38209,73.069621,43.969381,73.930693,48.983695,234.762497,-50.68424,181.83097
114,-5.519005,15.991343,1.181626,19.521121,0.0,-46.859825,-28.868134,-88.874291,-21.441513,-85.9422,-12.50837,-70.907822,-2.888626,-49.160031,0.0,26.430165,30.70401,52.939691,38.40173,60.981904,42.404231,66.037064,43.275146,67.000939,0.0,54.933563,27.085109,73.320911,17.12677,70.486003,6.811248,58.343502,-3.868767,43.189064,0.0,27.337463,11.227534,50.246075,20.236178,64.708417,29.494417,71.774208,38.636961,70.385589,43.42725,249.192876,-49.540054,199.791127
115,-6.175987,13.427961,3.55553,14.749567,0.0,-48.838257,-30.066697,-74.419247,-23.486676,-70.864472,-15.381661,-57.621449,-6.335061,-41.684041,0.0,19.618958,29.732885,39.058506,33.404589,43.444712,33.239321,45.071021,30.361146,45.21874,0.0,59.681648,26.512528,74.350777,15.967575,71.683022,5.29446,59.719688,-5.809891,44.143868,0.0,28.598444,13.224604,53.689538,22.576111,66.892579,32.045722,74.117167,41.198245,72.364382,37.083487,261.600131,-46.1523,213.519988
116,-4.365143,7.347509,1.506558,13.457996,0.0,-43.544106,-26.834336,-55.518666,-22.218762,-50.578881,-16.526528,-42.528157,-10.138207,-34.137451,0.0,14.041858,26.30139,31.54668,29.716299,34.964886,29.62555,35.697122,26.984127,36.658762,0.0,64.048267,26.401485,76.045703,15.54673,73.912502,4.802822,62.015522,-6.377289,45.221019,0.0,26.161056,14.913132,55.661612,24.827074,68.625579,34.569647,75.175829,43.641338,73.489104,32.484083,268.288297,-44.880003,226.318641
117,-8.021439,5.861423,0.348655,12.294075,0.0,-41.075043,-26.239345,-31.518745,-24.09676,-27.529632,-20.69474,-26.137253,-16.318027,-35.888752,0.0,17.254226,23.427723,27.290594,27.216111,29.238598,27.458284,29.362839,25.330994,32.202741,0.0,68.245457,27.065907,78.362721,16.289315,76.108944,5.58498,64.106564,-5.611782,46.297692,0.0,22.607246,16.890528,56.898349,27.341897,69.776471,37.24912,75.521828,45.985248,74.211991,24.204769,273.691952,-44.789223,238.154948
118,-10.385628,4.644063,-0.227394,10.617218,0.0,-23.588676,-21.070083,-1.004116,-22.257579,-3.10794,-21.7126,-12.340542,-19.263153,-32.189838,0.0,12.246268,19.852375,28.593207,25.917056,31.461711,28.37529,32.80256,28.489034,35.100342,0.0,69.722134,28.293171,80.713886,17.408627,78.518131,6.692516,66.881962,-4.362556,47.946865,0.0,20.776247,19.669519,59.859614,30.42812,72.123629,40.140546,76.513786,48.169112,75.224388,13.520044,278.015749,-45.315714,248.4519
119,-12.696212,-2.738977,-0.716686,3.910221,0.0,-6.331559,-15.677823,25.648635,-19.553341,20.186737,-22.166108,2.871975,-22.118683,-32.909375,0.0,2.898812,20.371918,40.302778,32.698313,50.889058,40.825495,55.318551,46.759598,62.749892,0.0,71.324226,28.415279,84.329498,16.705971,81.883369,5.127869,68.189232,-6.342316,46.344337,0.0,17.419272,21.370521,63.579533,36.039072,78.94511,48.833115,84.550665,58.932024,85.280357,0.580731,275.057027,-46.275501,252.142376
120,-9.837651,-0.768261,-1.545673,7.775451,0.0,8.535816,-8.496254,39.759373,-14.743755,32.412884,-20.560318,11.113266,-23.722847,-40.58147,0.0,-2.634742,21.995176,49.242261,38.834995,63.613619,50.519173,70.068328,60.043606,81.094704,0.0,70.38763,29.467735,85.686458,18.37659,83.407299,7.10733,69.184993,-4.130883,47.191051,0.0,12.538471,24.360797,64.457587,39.481991,81.247166,51.89864,86.737334,61.113457,87.702332,-9.399874,274.151674,-47.964128,259.780735
121,-8.115852,2.421394,-0.390873,6.44746,0.0,14.556347,-7.026489,47.015041,-13.619854,39.815288,-20.158196,18.33641,-23.850414,-48.64745,0.0,-4.342869,25.282471,54.394184,43.166922,68.128723,54.66349,74.015909,63.919704,86.922066,0.0,70.2919,29.569038,86.378654,18.97673,84.183059,8.043102,69.522857,-2.823567,47.718727,0.0,9.832653,27.15625,65.262145,42.765186,82.333479,54.852471,88.360504,63.319835,89.630735,-17.615845,276.429671,-48.45512,266.084798
122,-3.225723,2.15241,0.081481,4.539556,0.0,23.705783,-3.188874,51.214267,-9.746018,45.321819,-17.077378,24.615738,-21.851418,-46.592572,0.0,-13.415302,26.940395,57.142003,45.626675,71.963349,57.072571,76.808064,66.181572,89.133508,0.0,69.768242,29.511258,86.34842,19.322434,84.607728,8.663979,69.918755,-1.949226,48.18615,0.0,8.563177,29.259124,65.881527,45.136625,82.493413,56.876749,89.397764,64.80581,90.668143,-20.907154,278.450303,-48.439225,270.492576
123,1.756954,-0.270134,0.44933,2.825724,0.0,18.494293,-5.618694,47.647613,-11.91576,48.060791,-19.67688,30.97261,-25.51466,-52.026295,0.0,-14.025803,30.105351,58.093565,48.663363,73.856457,59.261525,76.670979,67.96874,89.791991,0.0,69.456585,29.182937,86.222637,19.154503,84.755321,8.624782,69.852161,-1.817608,48.053501,0.0,7.934533,30.620831,65.887294,46.709666,81.967707,58.206296,89.484794,65.702994,90.774094,-19.182541,278.049993,-48.022236,273.188124
124,5.501003,1.469351,0.659637,1.227647,0.0,14.486858,-9.986229,42.71236,-17.086475,45.624218,-25.053795,30.695011,-31.043861,-56.38361,0.0,-12.528232,29.789399,57.094159,47.687904,73.215796,57.741785,76.14384,66.191502,89.016665,0.0,68.823361,28.652184,86.017124,18.908764,85.105351,8.542752,70.18166,-1.777004,48.337658,0.0,7.959382,31.404494,65.207238,47.535282,80.596181,58.894481,88.911652,66.214337,90.532897,-13.730581,279.385645,-47.411642,274.282072
125,2.634533,0.475886,0.170449,0.27169,0.0,10.435341,-12.197857,39.915894,-19.786617,44.164146,-27.847275,29.010132,-33.877327,-59.37537,0.0,-11.777323,29.350045,57.143424,47.11654,72.356119,57.163777,75.116116,65.640478,88.36379,0.0,68.7598,28.148368,86.105106,18.704589,85.670803,8.594101,70.928157,-1.411206,49.200748,0.0,7.958331,31.820333,64.673689,48.053071,79.401076,59.371107,88.271979,66.563165,90.217438,-11.193094,279.698127,-47.338239,274.390358
126,1.800453,-0.646181,0.230541,0.05371,0.0,8.908333,-13.707985,38.107041,-21.681701,42.141129,-29.84285,26.61985,-35.906891,-61.143471,0.0,-9.500659,29.586055,57.267851,47.238621,72.579396,57.328292,75.472341,65.98507,88.680236,0.0,68.679977,27.700573,86.060943,18.388595,85.683128,8.468548,71.169662,-1.293011,49.742157,0.0,8.260143,31.846306,64.295258,48.030298,78.385109,59.302861,87.545548,66.435811,89.823027,-9.517227,278.861721,-47.232284,274.253843
127,4.196205,0.516542,0.511322,0.189574,0.0,3.568039,-17.58768,32.644982,-25.607299,37.649048,-33.300007,22.434265,-38.886257,-64.819564,0.0,-8.920514,29.477572,57.417781,46.748137,71.945689,56.573887,74.66782,65.097371,87.714225,0.0,68.578834,27.23941,85.74147,17.950436,85.455986,8.266514,71.109741,-1.137772,49.943413,0.0,8.364785,31.814257,63.930523,48.094333,77.763084,59.400068,87.071107,66.468786,89.628463,-5.504568,279.136596,-46.904508,274.20175
128,-1.764095,1.465671,0.378639,0.344938,0.0,7.338604,-16.34602,36.906887,-24.678463,39.975391,-31.921406,25.38802,-36.779159,-57.799393,0.0,-2.320865,28.307871,57.533563,45.218061,71.174772,55.417018,73.994666,64.410249,86.924116,0.0,68.445236,26.96434,85.522087,17.759857,85.371437,8.263447,71.245079,-0.877911,50.309212,0.0,8.377975,31.818209,63.74337,48.107708,77.571028,59.367217,86.949458,66.35288,89.560538,-7.487211,280.346821,-46.744417,274.291242
129,-0.956726,-0.044139,0.342865,0.380753,0.0,8.545292,-15.185509,38.206089,-23.219856,41.243923,-30.353806,26.492352,-35.172455,-56.681911,0.0,-2.751179,28.246997,57.560473,45.517328,71.215589,55.984393,73.823445,65.072794,87.090508,0.0,68.508934,26.62413,85.357201,17.481056,85.332985,8.198284,71.307221,-0.622078,50.474373,0.0,8.288585,31.636416,63.40846,48.01302,77.403228,59.264464,86.800331,66.168975,89.225258,-8.730612,280.045998,-46.688227,274.415311
130,0.453289,0.071099,0.405945,0.181806,0.0,7.733917,-15.031494,37.998436,-23.019985,40.466263,-30.159279,25.4496,-34.999077,-57.112106,0.0,-3.446673,28.426049,57.24304,45.770159,70.696157,56.298036,73.410854,65.315943,86.568854,0.0,68.370918,26.40461,85.204811,17.262737,85.182403,8.066059,71.339149,-0.578098,50.482864,0.0,8.455928,31.394403,63.277746,47.90965,77.377514,59.225623,86.754191,66.130529,88.917431,-8.596029,279.867273,-46.600988,274.347293
131,2.085503,0.444146,0.274029,0.115115,0.0,4.387836,-16.457989,36.186241,-24.809853,38.150413,-32.068646,22.362899,-36.863285,-59.476067,0.0,-4.581411,28.424147,57.489695,45.492307,70.224619,55.769798,72.871513,64.61037,85.688527,0.0,68.214534,26.35984,85.089191,17.23407,85.232517,8.051822,71.471454,-0.550038,50.38908,0.0,8.722406,31.212425,62.979084,47.801846,77.348603,59.124772,86.895933,66.006831,88.687053,-6.884702,280.116736,-46.701135,274.267725
132,-5.250332,3.65292,0.21944,0.038446,0.0,4.351169,-12.823334,43.66135,-20.271675,44.862407,-26.385201,30.764545,-30.017555,-42.877796,0.0,5.906575,27.054276,56.063643,41.69105,67.941533,50.586666,69.175442,58.370614,79.710593,0.0,68.133888,26.426994,85.049309,17.338417,85.297096,8.086624,71.641937,-0.632675,50.461601,0.0,9.030676,30.945478,63.123741,47.54505,77.631395,58.923651,87.152333,65.915909,88.640456,-12.502075,283.630152,-46.848736,274.166667
133,2.96981,-1.229315,0.460167,-0.040682,0.0,-1.134247,-14.987869,38.699032,-22.055626,40.79092,-28.290836,26.144886,-32.182125,-50.208732,0.0,-0.638808,28.807259,56.338149,43.697074,67.926071,52.049719,69.027155,59.21662,80.281143,0.0,67.862778,26.517174,84.90081,17.32394,84.939262,7.885094,71.132492,-1.031788,49.964378,0.0,9.364759,31.121356,63.485908,47.766908,78.091004,59.187844,87.465803,66.226379,88.626229,-9.901886,282.279717,-46.75819,274.004865
134,-2.392284,2.786154,0.323124,-0.012868,0.0,-2.855255,-13.434494,42.854439,-19.981476,44.168495,-24.910996,30.916283,-27.425858,-33.916134,0.0,8.145015,27.744855,55.267261,40.968595,65.966285,48.411668,66.287783,54.793709,74.662991,0.0,67.564693,26.686272,84.672375,17.416019,84.584301,7.777119,70.718159,-1.400539,49.603649,0.0,9.669558,31.313856,63.923112,47.969226,78.634049,59.391015,87.8872,66.474466,88.803378,-12.630895,284.967228,-46.771791,273.893354
135,1.918201,0.222845,0.230747,0.098504,0.0,-5.485599,-15.600345,40.718365,-22.458343,41.973393,-27.096702,28.597584,-29.096889,-35.585483,0.0,9.148496,28.140688,56.127086,40.633376,65.739933,47.679778,65.947303,54.00118,74.410444,0.0,67.186867,26.855393,84.495575,17.586102,84.286583,7.816967,70.327881,-1.610195,49.225411,0.0,9.714896,31.470418,64.028977,48.009648,78.827427,59.355657,87.967574,66.468168,88.790275,-11.034336,285.105496,-46.862686,273.907281
136,-3.111488,3.957139,0.235829,0.091119,0.0,-4.438419,-13.512245,46.271931,-20.299393,46.847179,-24.269566,34.658123,-25.591736,-25.667347,0.0,19.169477,26.53388,54.730749,36.762898,63.503901,42.459386,62.481648,47.783901,68.877163,0.0,66.903408,27.027317,84.416713,17.732185,83.973827,7.856117,70.006176,-1.745396,49.080906,0.0,9.716501,31.582767,64.27304,48.058518,78.986804,59.404674,87.912962,66.589335,88.789238,-14.400467,288.995414,-46.8815,273.931179
137,5.064938,-3.858351,0.068607,0.081819,0.0,-5.298489,-16.461834,39.113273,-24.408555,39.894584,-29.770627,25.478553,-32.423871,-42.363511,0.0,8.284843,28.38974,56.930163,40.89116,65.95154,47.869191,66.300331,54.275722,74.860346,0.0,66.654648,27.296596,84.427551,17.973816,83.769585,7.974369,69.699852,-1.825115,48.85128,0.0,9.648045,31.810947,64.299568,48.194023,79.001538,59.471612,87.78173,66.665029,88.758313,-9.55767,285.07853,-47.035034,273.954465
138,-2.379651,3.594331,-0.138577,0.022662,0.0,-5.063278,-15.221672,42.357205,-23.14817,42.901326,-27.983905,30.308453,-30.130966,-31.964641,0.0,17.774621,26.487271,55.744653,36.904183,64.652348,42.760555,63.54215,48.292725,69.834393,0.0,66.633717,27.628716,84.697575,18.257412,83.827755,8.091042,69.731953,-1.954181,48.813389,0.0,9.692012,31.620509,64.395664,47.90986,79.024065,59.17547,87.727205,66.429538,88.854731,-12.126131,288.613336,-47.362421,273.917602
139,6.718552,-1.410812,-0.126331,-0.045213,0.0,-10.333626,-20.451885,33.812222,-29.739613,34.093906,-35.723751,19.377171,-38.804867,-52.547287,0.0,9.196588,27.10254,57.139892,38.453279,65.162789,44.731122,64.62808,50.8259,73.219119,0.0,66.672272,27.819969,85.017906,18.393288,83.887436,8.111469,69.732559,-2.072616,48.750939,0.0,9.732433,31.499194,64.528254,47.717569,79.043108,58.990625,87.659032,66.284806,88.837773,-5.554447,287.151676,-47.63562,273.821541
140,-3.478466,0.553284,-0.085647,0.002976,0.0,-4.450275,-18.068962,40.141983,-27.608871,38.172821,-33.543583,23.954521,-36.401882,-46.076248,0.0,14.100188,25.837373,58.082191,37.563282,66.502489,44.617167,65.746874,51.445244,73.4225,0.0,66.68161,27.89289,85.168922,18.419277,83.919067,8.059295,69.699073,-2.179356,48.725509,0.0,9.724702,31.380312,64.665933,47.589116,79.191371,58.901606,87.726192,66.228787,88.828104,-9.141855,287.661466,-47.830209,273.781023
141,5.160484,-2.7638,0.002208,-0.062676,0.0,-8.571247,-21.857391,32.512848,-31.875972,30.180657,-38.293899,13.992165,-41.542373,-58.019382,0.0,4.259877,26.833839,59.27154,40.516409,67.743252,48.797719,67.782229,56.694263,77.253211,0.0,66.575924,27.828884,85.125286,18.333664,83.837208,7.90939,69.566334,-2.409645,48.50861,0.0,9.734124,31.397812,64.784394,47.593166,79.453118,58.896517,87.969217,66.206889,88.941205,-4.074726,284.85634,-47.921356,273.677021
142,-3.593444,1.30465,-0.003147,-0.01219,0.0,-0.746281,-18.924099,40.03482,-29.429135,35.937126,-36.021046,19.199226,-39.090214,-51.717797,0.0,8.158996,24.492597,59.591247,38.453019,68.225857,47.691659,68.388532,56.509334,76.599941,0.0,66.436363,27.651066,85.053955,18.159714,83.805794,7.753327,69.493309,-2.540428,48.389946,0.0,9.772027,31.391662,64.740849,47.602059,79.524515,58.883859,88.139191,66.121316,88.974699,-7.758235,286.112389,-48.014568,273.61623
143,-3.363339,1.178618,-0.008034,0.087093,0.0,-0.695892,-15.824123,44.43964,-25.286488,41.348705,-31.038837,24.257664,-33.346882,-43.355278,0.0,7.684987,22.345498,57.967038,36.355481,66.206581,45.691007,66.938175,54.567789,73.604169,0.0,66.300179,27.433308,84.926125,18.021355,83.815201,7.72498,69.56765,-2.484363,48.523774,0.0,9.713068,31.258873,64.518646,47.481892,79.314464,58.778723,88.036216,66.032185,88.899351,-11.216847,287.239692,-48.117875,273.652008
144,-2.349541,-1.009928,0.149506,0.006718,0.0,2.942208,-13.938446,46.516972,-22.907764,43.873066,-28.897911,27.347752,-31.545753,-40.841892,0.0,8.079103,23.00708,58.087699,37.064153,67.618739,46.376103,68.463904,55.234718,74.782515,0.0,65.953949,27.232075,84.894676,17.806332,83.637245,7.483143,69.35955,-2.791454,48.197914,0.0,9.763963,31.204879,64.406532,47.406829,79.366496,58.702041,88.096596,65.973461,88.962954,-13.679352,286.164877,-48.081333,273.593839
145,3.427105,-0.153079,-0.002724,-0.120006,0.0,-3.123493,-16.065811,40.11335,-24.889824,39.185601,-31.273246,22.085976,-34.44199,-47.795219,0.0,1.870531,23.5614,56.455833,37.603506,66.0248,46.240771,67.416012,54.309573,73.964026,0.0,65.916413,26.819058,84.714043,17.361798,83.611817,7.067585,69.338883,-3.136894,48.158203,0.0,9.938532,30.79167,64.190912,47.068215,79.099907,58.455633,87.95378,65.817603,89.064904,-10.390246,285.955247,-48.222056,273.417282
146,-6.852367,1.330141,0.160847,-0.002433,0.0,1.37693,-11.530472,48.833324,-19.16882,48.001591,-24.529186,33.823482,-26.781098,-30.350487,0.0,11.090942,23.350313,55.771774,36.189755,65.866546,44.31459,66.702585,51.927959,72.308719,0.0,65.847507,26.50819,84.347935,16.97747,83.277386,6.664307,68.947163,-3.537529,47.749752,0.0,10.117991,30.468395,63.908441,46.792413,78.819968,58.234566,87.759649,65.638391,89.154443,-17.392141,287.221288,-48.210737,273.350749
147,2.368767,-1.443663,-0.00967,0.050525,0.0,-4.615174,-13.461445,42.54919,-20.758393,43.960842,-26.260048,30.79414,-29.003472,-35.27005,0.0,7.549445,25.380382,54.933722,38.060027,65.936769,45.350256,66.938163,52.053905,73.343298,0.0,65.877296,26.285511,84.115745,16.773765,83.212143,6.513279,68.939575,-3.624264,47.756172,0.0,10.091857,30.207523,63.598836,46.547608,78.35858,58.043917,87.290259,65.52887,89.186169,-15.177955,285.715458,-48.374988,273.339107
148,1.557792,-0.929924,-0.032707,-0.031271,0.0,-7.716179,-15.466472,38.489514,-22.529159,40.35854,-27.830967,28.488591,-30.48397,-35.955619,0.0,8.836088,27.613536,55.489401,40.281411,66.326018,47.452462,66.797433,53.892536,74.45546,0.0,65.904968,26.146636,83.984069,16.581218,83.020179,6.268718,68.750862,-3.898888,47.514266,0.0,10.099799,30.005859,63.49496,46.365976,78.267425,57.920084,87.049309,65.494179,89.347067,-13.778424,284.726778,-48.565956,273.24908
149,-0.120323,-0.337713,-0.198533,0.016821,0.0,-7.7574,-15.988632,38.181873,-22.88538,40.633175,-27.879455,29.514118,-30.269382,-35.459633,0.0,8.931382,27.877915,55.71857,40.71485,67.02402,47.973339,67.695309,54.388725,75.295932,0.0,66.18052,26.108632,83.730652,16.567074,82.915947,6.287751,68.71534,-3.815689,47.616578,0.0,10.020795,29.787287,63.395048,46.193828,77.99287,57.820505,86.651463,65.476568,89.388933,-14.081715,284.348912,-48.947457,273.225748
150,-3.851841,0.72075,-0.070289,0.112645,0.0,-2.760326,-12.445644,45.879341,-19.570232,46.162857,-24.096096,35.338532,-25.972252,-24.018677,0.0,16.42151,27.517268,55.298754,39.949503,66.718344,47.298605,67.315878,53.657267,74.046389,0.0,66.276741,26.295067,83.627838,16.795246,82.69796,6.483272,68.584465,-3.685032,47.614128,0.0,9.803199,29.863549,63.4484,46.191914,77.979001,57.795718,86.310255,65.477309,89.32312,-18.115088,285.032359,-49.199278,273.30109
