takenoko1/special-research/HandMotion_SimilarSearch_自分用/NewProject/handData/test_key/d4_feature_d3/142.csv
frame,vel_0x_L,vel_0y_L,vel_0x_R,vel_0y_R,posFromWrist_0x_L,posFromWrist_1x_L,posFromWrist_2x_L,posFromWrist_3x_L,posFromWrist_4x_L,posFromWrist_5x_L,posFromWrist_6x_L,posFromWrist_7x_L,posFromWrist_8x_L,posFromWrist_9x_L,posFromWrist_0y_L,posFromWrist_1y_L,posFromWrist_2y_L,posFromWrist_3y_L,posFromWrist_4y_L,posFromWrist_5y_L,posFromWrist_6y_L,posFromWrist_7y_L,posFromWrist_8y_L,posFromWrist_9y_L,posFromWrist_0x_R,posFromWrist_1x_R,posFromWrist_2x_R,posFromWrist_3x_R,posFromWrist_4x_R,posFromWrist_5x_R,posFromWrist_6x_R,posFromWrist_7x_R,posFromWrist_8x_R,posFromWrist_9x_R,posFromWrist_0y_R,posFromWrist_1y_R,posFromWrist_2y_R,posFromWrist_3y_R,posFromWrist_4y_R,posFromWrist_5y_R,posFromWrist_6y_R,posFromWrist_7y_R,posFromWrist_8y_R,posFromWrist_9y_R,posFromBody_0x_L,posFromBody_0y_L,posFromBody_0x_R,posFromBody_0y_R
6,1.410256,-1.962835,0.178414,-0.376134,0.0,8.879104,-7.560654,36.03408,-12.589977,41.352653,-16.907261,33.495758,-21.510739,19.375328,0.0,-15.312831,10.043791,23.013353,29.619387,41.009337,45.844765,50.156599,58.608328,57.690063,0.0,71.204532,25.706279,89.943592,16.542686,89.34074,8.769596,76.072505,3.080257,57.686176,0.0,6.463811,36.372166,60.198155,53.489911,70.189224,63.947566,76.04047,69.107838,77.395608,-3.11618,303.091872,-47.93098,287.558197
7,-5.34161,-1.127291,-0.152173,-0.377653,0.0,17.432476,-4.119106,43.506832,-9.695057,47.860119,-14.126747,39.769306,-18.417011,25.244877,0.0,-11.30082,9.752032,25.191747,28.962339,43.489123,45.10791,52.113951,57.83446,57.752702,0.0,71.339608,26.256031,90.044655,16.917263,89.624291,9.015175,76.180184,3.206715,57.432908,0.0,6.461514,36.769308,60.691318,53.809334,70.682733,64.139461,76.604671,69.197944,77.667816,-8.969009,302.139459,-48.594372,287.355422
8,-1.697846,0.895825,-0.034046,0.003137,0.0,16.109814,-2.096798,44.244885,-6.56718,49.284016,-11.161102,42.762143,-16.497345,28.526265,0.0,-16.178496,9.542378,22.623573,28.696454,41.255092,44.926673,50.408652,57.803301,56.982379,0.0,71.436505,26.438004,89.923931,17.118119,89.686833,9.240074,76.101712,3.4735,57.442417,0.0,6.297566,37.072218,60.699877,54.130053,70.544436,64.431528,76.339243,69.508437,77.227881,-10.991324,303.163376,-48.952887,287.486651
9,-1.885208,0.385335,-0.11816,-0.035272,0.0,17.636158,-0.705196,46.767048,-5.16196,51.814854,-9.787388,45.320149,-15.275516,30.646328,0.0,-16.399934,9.328981,22.335248,28.374092,41.069001,44.440055,50.014932,57.235407,56.362355,0.0,71.494583,26.581284,89.793526,17.225132,89.549744,9.333103,75.819992,3.537014,57.205261,0.0,6.1218,37.232572,60.64981,54.327074,70.439103,64.593265,76.279704,69.631296,77.021956,-13.11533,303.645406,-49.309845,287.548074
10,0.9982,1.742263,-0.102562,-0.02943,0.0,14.001537,-1.087796,43.654346,-4.53788,49.758259,-8.819481,44.287548,-14.451977,29.472439,0.0,-20.419898,8.185018,18.402932,27.62548,37.460344,44.069886,46.595268,57.255872,54.666455,0.0,71.442055,26.647339,89.517929,17.308765,89.452835,9.435574,75.671677,3.631931,57.175598,0.0,5.963101,37.264669,60.656071,54.386305,70.264028,64.672775,76.328252,69.743163,77.089461,-12.29916,305.472245,-49.594437,287.60322
11,-0.902092,0.021798,0.063789,-0.031258,0.0,13.844227,0.053707,45.782535,-3.689186,51.764911,-8.246281,46.035633,-14.218632,30.376522,0.0,-20.621957,7.858358,18.143815,27.364374,37.556082,43.850598,46.601455,57.218204,54.586994,0.0,71.32798,26.582966,89.313584,17.25824,89.244759,9.385449,75.398667,3.542622,56.941132,0.0,5.781666,37.250232,60.350703,54.431383,70.013444,64.7428,76.30838,69.837209,77.073073,-13.343851,305.566748,-49.673247,287.644667
12,3.293895,0.822788,-0.076011,-0.047783,0.0,6.873436,-1.915649,41.290307,-5.039474,48.24527,-9.496238,43.290505,-15.7924,27.429268,0.0,-23.536343,7.50549,15.78238,27.301141,35.258509,44.08205,44.657786,57.866051,54.42864,0.0,71.384949,26.598037,89.447799,17.284652,89.407013,9.418442,75.573074,3.558391,57.098442,0.0,5.735799,37.040825,60.079323,54.304313,69.838259,64.691226,76.337379,69.831676,77.128834,-10.152214,306.459147,-49.851516,287.666495
13,0.232064,-0.149782,0.119865,-0.136653,0.0,6.192444,-1.421219,41.679588,-4.817093,48.469642,-9.522171,43.239509,-15.962746,26.889862,0.0,-23.36669,7.014353,15.140139,26.909866,34.817747,43.876212,44.445464,57.905127,54.565554,0.0,71.295067,26.62674,89.551071,17.247185,89.412598,9.248337,75.336617,3.226982,56.649147,0.0,5.712296,36.971058,59.905445,54.190148,69.70773,64.555572,76.325683,69.665209,77.270464,-9.994056,306.378337,-49.805557,287.598814
14,0.288231,-0.377765,0.12854,-0.058256,0.0,6.328285,-0.895981,41.558693,-4.545823,47.788009,-9.521897,42.473831,-16.112996,26.035949,0.0,-23.220933,6.157826,14.246969,26.305824,34.236504,43.750637,44.420703,58.259056,55.102906,0.0,71.361832,26.653187,89.813805,17.245835,89.580025,9.176857,75.387863,3.085545,56.496872,0.0,5.60059,36.75245,59.585035,53.981927,69.502806,64.373558,76.119968,69.470955,77.161907,-9.748661,306.063456,-49.719853,287.603442
15,1.053108,-0.313865,0.123516,-0.080411,0.0,5.788421,-1.380638,40.686676,-5.411431,46.603592,-10.569866,41.115097,-17.243145,24.719559,0.0,-22.46906,5.284625,13.331865,25.639154,33.670104,43.494817,44.334388,58.420558,55.398246,0.0,71.512493,26.805062,90.245716,17.342766,89.797932,9.209038,75.498013,3.076012,56.423001,0.0,5.393627,36.583538,59.267774,53.839419,69.226633,64.253267,75.838867,69.325681,76.902716,-8.727081,305.825584,-49.627865,287.599024
16,1.138321,-0.001346,0.032799,0.008336,0.0,5.094223,-2.014801,40.054207,-6.442314,45.505691,-11.761482,39.877945,-18.52557,23.490303,0.0,-22.579322,4.752003,12.848989,25.136617,33.33964,43.072234,44.135798,58.075806,55.0921,0.0,71.790585,26.982308,90.684162,17.501885,90.091175,9.368225,75.785351,3.281525,56.662571,0.0,5.047034,36.318567,58.924886,53.643806,68.771607,64.119331,75.448988,69.194313,76.598632,-7.620975,305.901022,-49.627281,287.684144
17,1.306663,0.158341,0.219956,-0.084042,0.0,4.867401,-2.804786,39.105034,-7.547401,44.110337,-12.951244,38.097313,-19.771728,22.139649,0.0,-22.724868,4.057533,12.12189,24.529116,32.989935,42.573031,43.942346,57.666313,54.774962,0.0,71.930568,27.139881,90.866168,17.664173,90.046222,9.512615,75.735477,3.419357,56.629497,0.0,4.748619,36.190212,58.536044,53.589601,68.357274,64.131236,75.135641,69.217667,76.348506,-6.337761,306.120918,-49.430774,287.661657
18,-0.423317,0.075681,0.091438,-0.07142,0.0,6.381432,-1.773742,40.411354,-6.906074,44.680298,-12.828598,38.292641,-20.133957,22.283913,0.0,-22.785013,2.92902,11.357099,23.650902,32.872424,42.051055,43.989598,57.514334,54.833822,0.0,71.995594,27.231846,90.960811,17.804272,90.082065,9.710449,75.967563,3.670017,56.874836,0.0,4.685139,35.95204,58.201899,53.381292,68.158054,63.958594,75.279272,69.050199,76.607487,-6.782038,306.244956,-49.360296,287.638594
19,-0.643661,-0.027998,-0.02623,-0.11803,0.0,7.488098,-1.054733,42.235199,-6.53096,45.951576,-12.819649,39.050743,-20.415379,22.519295,0.0,-23.117884,2.310515,11.511932,23.212017,33.349632,41.744539,44.379058,57.363873,54.923101,0.0,72.031528,27.438251,91.326748,18.091072,90.332394,10.084614,76.395046,4.125458,57.429005,0.0,4.425195,35.742855,57.865607,53.297855,67.925231,63.998559,75.371194,69.170996,76.785847,-7.456844,306.257454,-49.417671,287.56106
20,-1.700936,-1.077828,0.030476,0.005656,0.0,10.042397,0.634232,45.690857,-5.131691,48.627915,-12.073093,41.276368,-20.06607,23.795495,0.0,-22.922988,2.643535,13.421736,23.516285,35.001035,41.968618,45.773629,57.610911,55.757559,0.0,72.076583,27.306392,92.020706,18.147193,91.298835,10.329814,77.444847,4.495513,58.260841,0.0,3.733319,35.45232,57.412631,53.155385,68.377158,63.979553,75.860813,69.262115,77.10254,-9.192908,305.188259,-49.422323,287.575349
21,-3.518222,-2.092932,0.212883,-0.1987,0.0,16.123066,3.627903,51.172725,-1.887486,54.254779,-8.843239,47.154407,-16.675232,29.492008,0.0,-21.430122,2.931144,14.921864,23.922851,37.221135,42.411603,48.197024,58.126367,57.424203,0.0,71.14849,27.339386,92.561828,18.361702,92.330062,10.607425,78.461174,4.660755,58.801643,0.0,2.480477,34.968801,56.944562,52.871888,70.006059,63.864511,77.188373,69.347787,77.647858,-12.753461,303.080741,-49.251771,287.362063
22,-1.623368,-2.744769,-0.147206,-0.497276,0.0,19.31828,4.182072,53.849179,-0.949138,57.046429,-7.542366,50.896328,-14.721382,33.293827,0.0,-19.463408,4.710384,18.7238,25.44138,41.328748,43.386161,52.080384,58.653679,60.019091,0.0,70.310932,27.552304,93.100491,18.771767,93.145329,11.105988,79.064633,5.025501,59.503155,0.0,0.606549,34.183472,56.454807,52.264918,72.140931,63.401025,79.26788,69.129425,79.786534,-14.43599,300.311729,-49.458138,286.840544
23,1.274254,-2.549699,-1.147259,-1.135924,0.0,18.374394,1.192715,52.008877,-3.920437,55.46957,-10.188778,49.317501,-16.768249,31.487835,0.0,-17.885216,7.090108,24.35582,27.290792,46.582374,44.522479,56.590721,59.138283,63.405928,0.0,69.527367,27.33593,93.453118,19.120091,93.89415,11.945744,79.635727,6.111077,60.629151,0.0,-1.815104,33.060405,55.39911,51.459138,74.193602,62.865377,80.885481,68.968072,82.096345,-13.23143,297.748491,-50.675091,285.691081
24,0.473511,-2.422431,-2.440452,-2.636409,0.0,17.272877,-4.700031,47.976139,-8.808746,50.480678,-12.74374,45.278744,-16.4328,29.928142,0.0,-16.725803,9.944854,26.869222,30.560847,47.696956,47.351697,56.84449,61.006294,63.093113,0.0,67.628929,26.281105,93.229774,18.599865,94.407326,11.984344,79.713272,6.523945,60.695526,0.0,-4.248997,31.893902,54.030647,50.277741,75.568351,61.995302,82.627189,68.528458,84.480133,-12.865745,295.316628,-53.223369,283.04524
25,10.677383,-6.699426,-4.166279,-5.042736,0.0,2.475083,-11.399974,18.102036,-11.948158,20.654744,-11.593929,20.847222,-10.885803,16.20686,0.0,-4.659007,14.644728,30.294653,33.076571,49.666363,47.576531,60.208294,58.411283,68.283655,0.0,64.248196,22.168224,90.251644,16.581802,91.84457,12.148121,78.330402,8.45565,61.119724,0.0,-6.212919,29.613373,49.883576,48.259849,74.282818,60.511797,82.999704,67.858688,86.053126,-2.327099,288.615041,-57.528385,278.000343
26,14.358502,-9.216669,-4.452244,1.803544,0.0,-14.7029,-18.00483,-5.605602,-14.775685,-1.566513,-10.605606,1.55682,-6.332497,2.859054,0.0,5.583299,18.346603,40.824371,35.257904,57.206125,48.50769,66.897766,57.954861,74.486373,0.0,59.561119,22.188515,83.040138,17.918885,83.936348,14.181221,71.991085,10.66975,58.62719,0.0,-3.45601,23.100434,38.29826,36.084557,56.848837,44.119521,63.459021,48.543901,64.658054,11.920607,279.400092,-62.091425,279.805607
27,20.838043,-15.51878,-8.881233,-13.548954,0.0,-31.812641,-23.470825,-27.423923,-16.153507,-22.674683,-7.998241,-16.944614,-0.345497,-9.837914,0.0,13.625179,19.620316,50.07294,34.585924,64.172893,46.69891,73.243337,55.248155,79.699268,0.0,55.124187,22.968578,74.000668,18.804646,73.805717,14.153114,62.937984,9.356598,50.855335,0.0,-5.720114,18.549823,27.550094,29.805318,42.865925,37.20445,49.613072,41.80062,54.188098,32.687834,263.875087,-71.043474,266.250428
28,25.089226,-21.015011,-14.679222,-20.830958,0.0,-46.655995,-25.566056,-42.655209,-13.598889,-37.022965,-1.141926,-27.440815,10.240997,-14.61406,0.0,17.421507,16.22907,51.544884,29.041688,63.648693,40.375939,72.547903,49.04435,78.659514,0.0,47.147015,24.659614,62.573021,22.126018,62.209854,18.157665,52.959183,13.562279,43.52409,0.0,-11.961722,10.489159,15.557065,20.898093,27.81299,28.848248,36.19094,34.821353,43.355273,57.744742,242.862256,-85.755014,245.42165
29,27.260261,-24.992121,-18.730888,-26.420643,0.0,-54.843601,-20.213287,-50.478275,-4.356674,-42.508392,10.637764,-29.261593,23.798172,-12.374748,0.0,14.241781,6.455511,49.620494,15.323574,59.567325,25.324918,68.205244,34.659555,73.010031,0.0,37.630966,23.133213,47.755714,23.666976,48.10287,21.897285,43.531837,18.746749,38.771919,0.0,-21.558285,0.055884,-1.475112,9.744178,10.042247,18.458791,19.633025,26.216249,29.197793,85.003544,217.925577,-104.487361,219.056449
30,21.705597,-26.933035,-18.283162,-29.391683,0.0,-46.9235,-12.643707,-32.098709,4.779694,-21.97007,20.26323,-10.093574,33.110413,3.390816,0.0,-4.317941,-8.498629,39.81422,-0.663113,49.399786,10.264308,56.067521,22.054937,57.789889,0.0,26.919468,20.697247,32.095173,21.138451,32.682175,19.342209,30.751637,16.467774,28.812378,0.0,-30.119721,-14.213698,-23.357631,-6.815739,-13.332711,1.315574,-1.786896,9.787397,8.68593,106.760771,191.108124,-122.718893,189.780348
31,22.932495,-31.591499,-19.097957,-45.335201,0.0,-36.461563,-4.099617,-19.035186,14.052636,-9.481384,29.752945,2.534386,42.586327,16.819199,0.0,-25.378419,-22.16765,20.168543,-15.74428,31.290503,-5.214729,38.084808,7.030952,39.299333,0.0,16.338478,10.181122,19.710937,9.729023,20.418125,8.307392,19.679718,6.721618,18.164165,0.0,-42.366229,-22.375904,-34.477978,-11.188743,-18.357879,1.092914,-2.009408,13.67369,12.275673,129.647123,159.553178,-141.862993,144.4817
32,20.295433,-33.447505,-20.116425,-37.638223,0.0,-23.679107,5.668168,-5.473754,23.900322,5.052315,39.032593,16.854836,51.241974,31.333283,0.0,-45.64769,-33.431161,1.459847,-27.357934,12.59667,-16.826308,19.392926,-4.242038,21.560786,0.0,5.289826,-0.709453,8.754181,0.462284,10.890358,2.094258,12.900295,4.08593,14.396359,0.0,-49.309433,-31.63526,-44.29977,-20.543868,-27.327404,-7.81599,-9.040291,5.549127,3.378841,149.872552,126.157729,-162.049422,106.895533
33,17.912087,-35.43934,-14.908104,-37.156124,0.0,-9.045364,15.894607,4.854629,34.074875,15.597496,48.448517,26.694397,59.700691,42.432632,0.0,-61.532587,-40.989621,-10.202465,-34.722399,1.097317,-24.171402,8.079591,-11.821283,10.093525,0.0,-2.656105,-12.168651,-2.579246,-12.86285,-1.305004,-11.835674,1.658524,-9.783783,2.592648,0.0,-50.915783,-37.15447,-52.098119,-27.292966,-35.270909,-15.377359,-17.325906,-2.394119,-6.389303,167.499653,90.889826,-177.242512,69.910846
34,19.73362,-38.156321,-15.379234,-31.515737,0.0,0.097778,22.142669,10.137725,39.773346,20.116241,52.85099,29.378746,62.577873,45.900055,0.0,-68.881615,-41.788547,-15.92075,-34.239819,-2.418788,-23.134625,5.323176,-10.993759,7.769845,0.0,-9.006443,-17.710693,-8.539375,-19.231339,-8.423904,-18.247822,-6.431419,-15.417469,-6.957562,0.0,-52.155096,-37.206025,-56.813114,-28.155014,-43.066534,-17.409127,-25.501531,-5.507822,-13.003803,186.886963,53.314543,-192.968056,38.976147
35,18.065986,-32.01384,-15.109852,-26.551102,0.0,6.071549,24.846245,15.111534,40.796746,23.397766,52.547333,31.508904,61.082588,47.400238,0.0,-72.934109,-40.440184,-18.294751,-31.410261,-4.354664,-19.979512,3.531617,-7.971046,6.510939,0.0,-14.211479,-20.149589,-13.876156,-21.496662,-14.614632,-20.534798,-13.559727,-17.554916,-13.411674,0.0,-54.025195,-32.252389,-56.709708,-23.736081,-46.900117,-14.371137,-33.508633,-4.618524,-20.619204,204.429491,22.104143,-208.601366,13.228485
36,15.570488,-26.388297,-19.022495,-20.833558,0.0,9.700218,24.803467,18.031998,39.257309,25.500778,49.976052,33.030831,57.594704,48.939125,0.0,-71.536148,-37.199276,-18.039667,-27.11707,-5.180946,-15.484361,2.742749,-3.615005,6.295516,0.0,-13.363346,-23.330452,-15.850582,-21.226284,-14.311489,-16.574204,-12.311108,-10.045475,-12.505463,0.0,-58.343673,-29.953822,-54.09099,-21.666577,-47.80578,-13.291338,-36.775199,-5.233953,-32.921701,219.578882,-3.122653,-228.044958,-6.443572
37,11.123726,-19.422222,-14.596012,-12.451094,0.0,12.366989,25.308174,20.245628,38.439789,26.11306,48.287087,33.584862,55.092751,50.070831,0.0,-68.374767,-34.256856,-18.400221,-23.68203,-5.916313,-12.014148,1.897035,-0.358763,5.541488,0.0,-14.126931,-27.760861,-17.372898,-23.072628,-13.747376,-15.553025,-10.380764,-6.36406,-14.151707,0.0,-62.113572,-28.011833,-53.583784,-20.6133,-48.540825,-13.763012,-39.361719,-7.96379,-47.530984,230.37014,-21.158625,-242.973438,-17.508416
38,7.226509,-15.150883,-12.473522,-6.368332,0.0,15.216408,27.176766,22.446259,39.803055,26.416992,48.918732,32.791557,54.979225,49.457932,0.0,-68.646281,-33.512338,-18.186083,-22.008347,-4.862715,-9.562681,3.798898,2.779621,7.525942,0.0,-16.185563,-33.146153,-16.138573,-24.70086,-9.636635,-12.81181,-4.042592,0.728977,-9.937867,0.0,-66.536934,-25.133184,-51.922068,-18.061891,-47.589715,-12.482043,-39.165996,-8.91684,-60.205584,237.549539,-34.857524,-255.49407,-22.424764
39,4.308632,-8.336849,-7.203267,-3.960597,0.0,16.184395,27.465523,23.614609,39.388802,26.284378,48.056007,32.156159,53.739555,48.116615,0.0,-69.483395,-33.581961,-17.134467,-21.438848,-4.040898,-8.681756,4.441213,3.933093,8.274209,0.0,-17.778362,-39.612121,-16.30363,-29.759754,-7.861553,-15.764167,-0.693077,-0.185909,-9.189239,0.0,-65.89497,-26.043589,-48.889148,-19.917479,-44.611684,-15.814108,-37.384287,-14.519066,-74.233548,241.8729,-41.995075,-262.682608,-25.186063
40,-0.15477,-7.325026,-5.551471,-3.688705,0.0,17.297127,29.282616,23.356247,41.405754,25.272766,49.988342,30.453873,55.696587,47.053436,0.0,-69.683379,-33.100493,-14.462273,-20.554668,-0.760715,-7.194009,7.836159,6.109704,11.367356,0.0,-16.821728,-44.610512,-13.860501,-32.716301,-3.029229,-16.018261,6.085224,2.071335,-6.056774,0.0,-65.586026,-26.413139,-43.716395,-20.274055,-38.421612,-16.531375,-30.530336,-15.984668,-79.826696,241.90551,-48.278356,-268.046699,-27.833023
41,-4.670402,-3.658823,-0.096211,-0.160452,0.0,19.001793,31.029281,23.939987,43.786468,24.344627,52.524238,28.524215,58.404327,44.249107,0.0,-69.667991,-35.274824,-20.749836,-22.915534,0.621061,-8.830648,10.610623,5.502197,14.221985,0.0,-16.336487,-42.968914,-12.619343,-30.4002,-1.788963,-13.56261,7.819519,4.37265,-4.346088,0.0,-63.804113,-25.791807,-44.134143,-20.340999,-39.142512,-17.488143,-32.396934,-17.812789,-81.835289,237.32309,-50.89548,-268.054928,-26.951776
42,-7.079316,-3.071731,3.432999,-0.857238,0.0,19.734444,31.293229,22.730324,44.205506,22.586014,52.947831,25.158967,59.124115,39.750641,0.0,-69.031671,-36.635945,-20.43536,-24.008554,3.065353,-9.35368,14.162476,5.614885,17.408343,0.0,-12.790432,-39.923973,-10.317627,-27.044815,0.134834,-10.001862,9.039253,8.34486,-0.44315,0.0,-62.676032,-25.942786,-44.353419,-20.532512,-40.490461,-17.683947,-35.605602,-17.691937,-81.292793,230.412271,-52.82117,-264.453432,-26.662973
43,-8.871185,-0.454038,6.38578,-0.65004,0.0,18.719147,28.354202,18.670876,40.10479,19.282974,48.300636,21.437805,54.383469,34.456902,0.0,-59.536104,-34.027447,-21.041965,-22.098632,2.443433,-8.245458,13.401846,5.868407,16.865476,0.0,-7.463894,-34.636425,-7.085655,-21.14328,3.339146,-3.834125,12.115277,14.843353,5.769276,0.0,-61.404005,-26.527656,-44.981859,-21.436316,-42.658982,-18.631717,-39.927261,-18.147958,-79.374399,221.446512,-51.803665,-258.162226,-25.84147
44,-18.228264,-1.277746,11.049511,-2.291033,0.0,19.205017,28.371872,17.368538,40.29966,19.209091,48.635514,21.325264,54.916809,33.700127,0.0,-58.34265,-33.162811,-22.362152,-21.50878,1.651262,-7.727341,13.128805,6.501541,17.336441,0.0,-2.399368,-29.132469,-2.796501,-15.596145,7.217549,1.812916,15.605404,20.891613,12.585411,0.0,-58.690166,-26.532985,-45.131264,-21.903266,-44.312324,-19.081908,-44.09353,-17.728938,-75.096362,203.494388,-50.996164,-246.836575,-26.047256
45,-19.806106,-0.646298,15.707749,-5.403439,0.0,19.581894,28.390869,15.61457,40.2098,18.691269,48.35701,20.786567,54.344764,31.747604,0.0,-53.857335,-32.647035,-22.977958,-21.655054,0.673987,-8.493053,12.248904,5.016103,16.424449,0.0,3.271225,-21.682698,-0.570466,-7.726227,9.920093,9.515682,19.145336,28.13673,18.550586,0.0,-55.483677,-26.316161,-41.91584,-22.085022,-41.627577,-19.077018,-44.222977,-16.677631,-71.057088,184.363879,-49.343173,-230.453229,-29.151406
46,-24.113823,-3.116994,18.981273,-5.782302,0.0,19.126213,30.218742,13.271713,42.029182,17.997276,50.081383,20.84349,55.867103,31.543373,0.0,-55.528598,-32.284344,-14.266155,-21.066091,2.115229,-7.826933,12.738869,6.027785,17.820465,0.0,4.119599,-16.328384,2.243775,-2.311649,13.124108,14.908001,23.099236,33.237248,25.360817,0.0,-53.067847,-24.256933,-39.019616,-20.540997,-39.541358,-17.670313,-42.455891,-15.08654,-68.981805,161.67417,-50.107646,-210.047842,-32.581187
47,-24.778794,-1.091568,23.356556,-6.059692,0.0,18.149437,31.423096,11.01194,43.584366,17.076394,51.47818,20.860497,56.721474,30.792481,0.0,-55.603755,-33.240389,-12.992478,-22.325578,2.307285,-8.967797,12.143459,5.10356,17.974946,0.0,5.187184,-12.174957,3.057907,1.978169,14.920555,18.940212,26.452126,36.569161,30.025314,0.0,-50.364142,-22.385642,-36.47075,-19.090695,-37.057218,-16.529325,-39.522363,-14.295825,-67.990609,138.906606,-48.966869,-184.680056,-36.408534
48,-30.011489,-1.751094,23.138191,-4.612181,0.0,17.828178,33.410225,12.660644,46.731491,19.664383,55.456695,24.178527,61.224655,34.34777,0.0,-65.752261,-35.247722,-12.298953,-23.647024,3.112758,-9.468092,12.329717,5.585078,19.068379,0.0,6.782341,-8.794693,3.751259,5.834702,16.035862,22.899365,28.874978,40.01492,35.467919,0.0,-49.638828,-21.793351,-35.709387,-18.806483,-35.899868,-16.547863,-37.745989,-14.622584,-70.583503,111.702004,-48.953501,-158.734978,-39.256253
49,-23.654412,-0.163564,23.257313,-3.747052,0.0,16.447609,33.062989,10.995392,46.878731,19.062905,55.713867,24.355179,61.260475,33.52945,0.0,-65.343499,-36.864675,-11.851158,-25.373405,3.289129,-10.984639,12.105106,4.107279,19.058147,0.0,6.463635,-6.796692,2.955586,8.442467,16.39793,25.616879,30.451126,42.324635,39.980553,0.0,-53.744132,-21.651621,-35.222157,-18.522574,-34.70509,-16.320696,-34.662322,-14.899949,-75.590517,91.402267,-48.37581,-132.12299,-42.26205
50,-22.488556,0.857077,27.023346,-1.99657,0.0,14.230935,32.346474,8.785927,46.886399,17.661736,55.983261,23.920395,61.731995,32.513832,0.0,-64.617369,-38.768026,-14.182822,-27.684173,2.195048,-13.034864,11.051224,2.575715,18.832505,0.0,7.705902,-7.349819,2.597408,4.569512,13.606556,18.683624,24.243965,32.863838,34.979645,0.0,-56.921524,-22.367926,-37.177336,-19.054201,-36.302345,-16.872189,-35.096705,-16.152136,-78.647733,71.612646,-47.638825,-102.400709,-44.378712
51,-19.701255,2.634316,18.90683,-0.075348,0.0,7.042923,30.666229,18.099014,46.376197,15.425468,55.874633,23.329856,61.953323,31.752914,0.0,-66.334911,-42.321788,-35.714703,-31.633977,-0.544682,-16.539181,8.996096,-0.522798,16.140242,0.0,6.381042,-7.355141,2.918964,5.206295,14.176895,19.522304,26.388176,33.757496,36.264027,0.0,-60.757132,-25.159804,-39.45361,-21.281149,-37.560065,-18.580958,-34.779234,-17.632756,-81.953677,53.4222,-46.215431,-81.98307,-45.664982
52,-17.433793,0.880789,13.607929,0.879635,0.0,3.382187,28.835015,28.592171,45.538033,14.062684,55.812539,22.806542,62.759629,31.931626,0.0,-71.039573,-44.824142,-55.260898,-33.914413,-2.935923,-18.047466,7.469886,-0.964208,15.761614,0.0,2.934139,-7.121097,3.832054,5.761036,14.880501,20.302391,27.140259,34.776077,40.94989,0.0,-64.67196,-27.142406,-42.642081,-22.736545,-40.276219,-19.386703,-37.69047,-17.777993,-84.05895,36.319959,-47.24311,-68.043589,-46.693815
53,-10.157615,2.05167,9.935509,1.084281,0.0,-1.388191,26.336563,27.780372,43.683517,11.623695,54.520202,21.292557,61.990127,30.63565,0.0,-71.411786,-47.111532,-64.10289,-36.81383,-4.201609,-20.694558,6.357211,-3.163523,14.825841,0.0,-0.246472,-6.727112,4.419102,6.404549,15.643055,21.063148,29.59362,35.426731,45.634209,0.0,-67.00116,-28.600839,-45.619037,-23.917756,-43.06767,-20.132215,-45.193002,-18.18917,-84.545271,25.726582,-47.443397,-58.543842,-47.861491
54,-6.963593,1.541587,5.561714,0.92202,0.0,-3.184158,25.137268,25.58123,42.488892,9.67186,53.511223,19.657036,61.321999,29.76416,0.0,-74.111598,-48.360811,-67.499095,-38.397994,-5.046139,-22.125389,5.664754,-4.082289,14.062439,0.0,-0.834824,-5.802406,5.224651,7.885826,16.239693,22.89529,32.584408,37.142887,50.688,0.0,-67.426793,-29.694229,-47.265932,-24.768368,-45.561473,-20.651165,-54.776511,-18.239423,-82.219694,17.340008,-48.189768,-54.405109,-49.227429
55,-5.136863,0.389101,-3.750126,2.403524,0.0,-3.124627,25.762687,25.318267,42.831871,9.550483,53.838295,19.563331,61.515724,29.978576,0.0,-80.969981,-49.755437,-65.951407,-39.08756,-4.411153,-22.286187,6.369901,-3.574873,14.799376,0.0,-4.205807,-4.450767,7.789421,13.16201,21.20866,31.838665,42.455887,48.818814,64.708672,0.0,-69.730523,-30.387013,-48.969305,-25.37648,-48.811768,-21.017741,-62.752195,-18.055024,-82.648934,10.99482,-49.751504,-59.36356,-48.774742
56,-1.520714,-1.2449,0.498997,0.778531,0.0,-3.310547,24.230552,19.435409,41.010406,9.592964,52.209045,18.730911,60.249458,29.123565,0.0,-80.006567,-47.754737,-58.858032,-36.757853,-3.834985,-19.734314,7.215541,-0.984777,16.206049,0.0,-3.274304,-3.521072,7.930973,14.079597,21.290337,32.970016,42.008972,49.931957,68.929047,0.0,-70.269851,-30.806348,-50.0958,-25.773177,-49.978413,-21.327271,-67.776913,-18.05411,-81.725031,8.784846,-52.320528,-59.553823,-49.320335
57,-0.366463,-0.368088,-0.688763,0.313951,0.0,-2.954407,24.588249,7.520577,41.330544,10.244637,52.535202,19.102661,60.547852,29.138168,0.0,-80.508588,-46.82887,-42.145725,-35.667168,-1.762302,-18.683162,8.559638,0.097411,16.936643,0.0,-1.902168,-2.486778,8.556336,15.171353,21.930886,34.121269,42.337555,50.92994,69.82845,0.0,-70.762097,-31.115119,-49.813693,-26.087067,-49.412964,-21.744104,-67.46343,-18.601058,-81.848238,8.130901,-53.615085,-60.530068,-49.932853
58,0.05056,0.184726,-0.276008,-0.076002,0.0,-0.167267,26.395569,5.673019,42.51915,9.806534,53.070625,18.153145,60.246529,27.831574,0.0,-80.771793,-46.241,-34.386748,-34.895065,-0.774523,-18.164452,9.616064,0.384637,17.503142,0.0,-1.610848,-1.932942,9.094516,15.50069,22.490226,34.245529,41.539146,50.964786,68.808345,0.0,-71.104405,-30.951752,-49.002071,-25.916488,-48.591264,-21.705727,-63.834692,-18.645198,-82.001898,8.019007,-54.13156,-60.96853,-50.710056
59,-0.562798,-0.013202,-0.019112,0.066079,0.0,0.703675,27.629014,6.226433,43.334176,9.77575,53.422028,17.906502,60.113434,27.312356,0.0,-80.457817,-45.955046,-31.494933,-34.249675,0.314278,-17.417266,10.483762,1.159561,18.133706,0.0,-1.083286,-1.596668,9.64072,15.599911,23.14666,34.175114,39.61298,50.928143,67.181797,0.0,-72.004139,-30.708727,-48.9538,-25.553914,-47.345449,-21.353138,-58.30963,-18.405921,-83.76046,7.367002,-54.678146,-61.076849,-51.177361
60,-0.259758,-1.694617,-0.003834,0.054396,0.0,-3.851463,22.664406,6.308053,39.195397,9.50512,50.437249,17.745369,58.661088,27.650185,0.0,-80.093505,-42.161625,-36.360507,-30.581762,-0.198849,-14.103837,10.360811,3.877518,18.03385,0.0,-0.886688,-1.393821,9.979649,15.628338,23.484284,34.126145,39.400143,50.948536,66.728691,0.0,-72.456257,-30.574475,-48.887178,-25.206148,-47.062719,-20.929135,-58.103186,-18.014621,-84.333236,7.066469,-56.777015,-61.121458,-51.527217
61,0.456345,0.10681,-0.081848,0.177662,0.0,0.007439,24.791542,0.216431,41.141762,9.932808,52.012116,17.856743,59.353798,27.847435,0.0,-81.605572,-42.256962,-21.492169,-30.55658,2.676059,-14.345856,11.671649,3.65321,18.84165,0.0,-1.124554,-1.23761,10.384174,15.50116,23.982491,33.797241,39.453976,50.584145,66.130692,0.0,-72.680108,-30.186985,-48.45792,-24.808932,-46.770454,-20.61104,-56.980038,-17.858176,-84.534996,7.49505,-56.992181,-61.23107,-51.671531
62,0.093819,0.900129,-0.106052,0.204727,0.0,1.345596,25.570106,0.303726,41.445328,9.431373,51.987282,17.351806,58.837623,27.381042,0.0,-82.054583,-42.861473,-19.352208,-31.381355,2.769179,-15.400275,11.781361,2.410002,18.876879,0.0,-1.36044,-0.792904,10.593898,15.708606,24.232704,33.7924,39.472973,50.414806,65.823017,0.0,-72.953863,-29.822256,-48.46126,-24.382144,-46.658778,-20.177836,-56.566607,-17.49533,-84.219275,7.600548,-56.401564,-61.325443,-51.776316
63,-0.675225,0.408164,0.043865,0.152092,0.0,2.22432,26.16401,0.585663,41.829667,10.006531,52.197098,18.147446,59.00718,27.983666,0.0,-81.773866,-43.406161,-19.452337,-31.876587,2.289792,-15.766127,11.470788,2.186249,18.651935,0.0,-1.841137,-0.541809,10.835724,15.735363,24.531486,33.67519,39.219887,50.319935,65.44265,0.0,-73.19758,-29.189291,-48.458877,-23.813633,-46.160811,-19.789328,-54.62376,-17.445696,-84.097038,6.989994,-56.307197,-61.216907,-51.938021
64,-0.374404,0.504896,-0.174934,0.067412,0.0,1.539619,25.934921,0.907585,41.58982,10.424606,52.043335,18.727752,58.972984,28.514282,0.0,-81.793527,-43.716611,-19.865879,-32.336387,2.006839,-16.287535,11.148475,1.708925,18.268841,0.0,-2.141556,-0.320904,10.828056,15.902629,24.815883,33.762245,39.554546,50.328632,65.241371,0.0,-73.304704,-28.509226,-48.05354,-23.291699,-45.614553,-19.48231,-52.007555,-17.481467,-83.940345,6.72262,-56.076976,-61.284811,-52.145284
65,-0.224831,1.738182,0.055446,-0.092526,0.0,5.375999,30.969612,1.089111,45.628189,10.591278,54.835052,18.973045,60.299423,28.409248,0.0,-81.69448,-47.038339,-15.054195,-35.680734,3.041862,-19.300252,11.586168,-0.68509,18.605868,0.0,-2.79697,-0.098968,10.811337,16.077061,25.128113,33.685375,38.814091,50.051571,63.720303,0.0,-73.094723,-27.876501,-47.848703,-22.77567,-44.157349,-19.120015,-44.465762,-17.362123,-84.09889,6.611487,-54.571173,-61.115667,-52.470189
66,-0.65847,0.830444,-0.037914,-0.198491,0.0,-0.514584,26.320335,-0.475731,41.601883,10.543373,51.825508,19.252807,58.691047,28.57267,0.0,-81.323881,-46.131022,-24.433631,-35.355563,-0.57573,-19.159498,9.181329,-0.993323,16.503539,0.0,-2.91251,0.209495,10.689457,16.483944,25.27502,34.033161,39.078438,50.224239,63.381592,0.0,-73.011155,-27.56778,-47.650804,-22.299303,-43.730857,-18.573381,-42.36981,-16.843376,-83.425183,6.085533,-53.92209,-61.021065,-52.850041
67,-0.41407,-0.363135,-0.027031,-0.026318,0.0,-4.005307,24.725898,0.013893,40.488075,10.541702,51.335014,19.47393,58.904091,28.847786,0.0,-80.434639,-45.428821,-30.280945,-34.952852,-2.021017,-18.725072,8.604549,-0.63209,16.076997,0.0,-3.187397,0.290977,10.507828,16.642879,25.31369,34.196526,39.314403,50.313297,63.24099,0.0,-72.689849,-27.061223,-47.652324,-21.927775,-43.59702,-18.364832,-41.971613,-16.752504,-82.891496,5.801943,-54.399871,-60.917616,-52.991005
68,0.129135,-0.097152,-0.176079,0.021872,0.0,-5.189244,24.287567,-0.028862,40.287712,10.422638,51.278503,19.211975,58.971313,28.764564,0.0,-81.178565,-45.340969,-30.511484,-34.97008,-1.820514,-18.803161,8.844869,-0.771133,16.487273,0.0,-2.690094,0.334602,10.151184,16.903919,25.223889,34.582214,39.222382,50.662789,63.877968,0.0,-72.833941,-27.238977,-47.220898,-22.023822,-43.434202,-18.308787,-40.993912,-16.6179,-82.690557,6.036736,-54.571216,-60.988037,-53.043326
69,0.148613,-0.355473,-0.047092,0.006459,0.0,-4.5611,24.354789,-0.458313,40.337631,10.066383,51.222107,18.710655,58.788322,28.406318,0.0,-81.399248,-45.214707,-30.110816,-34.658073,-1.674128,-18.404074,9.093681,-0.376751,16.890776,0.0,-2.706036,0.221477,9.979374,16.829933,25.226932,34.489963,39.374473,50.567299,63.619571,0.0,-72.750633,-27.1722,-47.106104,-21.982356,-43.200952,-18.27136,-39.913552,-16.604235,-82.600827,6.288397,-54.9824,-60.932081,-53.092578
70,-0.021286,-0.118227,-0.13694,-0.13837,0.0,-4.312832,24.417755,-0.254334,40.468048,10.234543,51.306244,18.624733,58.825104,28.306526,0.0,-81.3587,-45.071891,-30.792047,-34.444843,-2.221292,-18.195716,8.948579,-0.187548,16.985587,0.0,-2.285443,0.287521,9.911888,16.993377,25.109493,34.674316,39.581634,50.728077,64.448696,0.0,-72.921522,-27.435399,-46.959978,-21.96469,-43.171547,-18.082417,-40.278726,-16.319689,-82.101069,6.361656,-55.146468,-60.974476,-53.276789
71,-0.134583,-0.660476,0.196163,-0.081887,0.0,-2.007442,23.708542,-0.714363,39.726837,10.166085,50.643288,18.658928,58.231476,28.372788,0.0,-81.679253,-43.732235,-28.521657,-32.913526,-1.911861,-16.860444,9.258554,0.908719,17.469648,0.0,-2.243054,-0.125061,10.010445,16.404453,25.269802,34.108852,39.815609,50.413307,63.956154,0.0,-72.898563,-27.00261,-47.543365,-21.732904,-43.375849,-18.072018,-40.445032,-16.538669,-81.940867,6.300321,-55.845578,-60.705065,-53.39731
72,0.168892,-0.427548,-0.258648,-0.257568,0.0,-1.661281,24.228195,-0.391273,40.205727,10.290802,51.021721,18.547508,58.522751,28.023903,0.0,-81.911112,-43.5945,-25.722332,-32.659953,-2.294602,-16.637475,8.679737,1.177611,17.006891,0.0,-1.5443,-0.005676,10.08419,16.51902,25.347839,34.228786,40.338787,50.517403,64.484951,0.0,-72.894993,-26.903333,-47.535899,-21.631132,-43.383153,-17.949609,-40.750498,-16.366106,-81.114692,6.538833,-56.297289,-60.894093,-53.679041
73,-0.037331,-0.323554,-0.093018,-0.281371,0.0,-1.493144,24.503769,0.013115,40.506981,10.614647,51.243554,18.732926,58.573929,27.986916,0.0,-81.601353,-43.43837,-25.628921,-32.272259,-2.58786,-16.129189,8.524281,1.765939,17.094361,0.0,-1.051883,0.055779,9.961178,16.78727,25.308289,34.593705,40.42289,50.885926,64.748967,0.0,-72.864097,-27.090635,-47.914189,-21.700972,-43.374151,-17.900939,-41.965117,-16.17181,-80.773025,6.560703,-56.625104,-60.92791,-53.964673
74,0.079537,-0.098689,0.113205,-0.35388,0.0,-1.825298,24.506172,0.355247,40.509521,10.744972,51.241402,18.74089,58.564865,27.957367,0.0,-81.625378,-43.354575,-26.151843,-32.153896,-2.63925,-16.019669,8.496999,1.853179,17.1493,0.0,-1.061474,-0.195774,9.795216,16.682144,25.195977,34.60516,40.563835,50.985421,65.241429,0.0,-72.598205,-27.42994,-47.632193,-21.865425,-43.157542,-17.885463,-41.521884,-16.07412,-80.215483,6.680449,-56.71985,-60.774496,-54.31461
75,0.093841,-0.133449,0.011673,-0.187326,0.0,-1.85519,24.60331,0.228768,40.533211,10.640259,51.189309,18.708344,58.441979,27.923493,0.0,-81.658118,-43.32462,-26.058001,-32.070725,-2.271631,-15.89074,8.741364,2.005085,17.201701,0.0,-1.200451,-0.526268,10.037819,16.390251,25.394806,34.399475,40.96732,50.875901,64.50182,0.0,-72.42397,-27.352845,-47.36658,-21.938748,-43.225869,-18.087758,-41.150116,-16.407973,-80.476212,6.805612,-56.840374,-60.731501,-54.489011
76,-0.636703,0.387682,-0.177131,-0.339164,0.0,-2.500351,23.727219,-0.290417,39.287407,9.757919,49.960991,18.054039,57.261314,27.608185,0.0,-81.289839,-42.834964,-25.345877,-31.550972,-4.409863,-15.693682,7.038713,1.786754,15.671606,0.0,-0.732788,-0.509114,10.238033,16.623081,25.457748,34.678081,41.250103,50.987182,64.574993,0.0,-72.202382,-27.644665,-46.428091,-22.022617,-42.900487,-17.971692,-40.200901,-16.128571,-80.083211,6.200472,-56.439935,-60.877069,-54.815418
77,-0.754578,1.044996,0.311428,0.036877,0.0,-6.81863,23.207886,-0.000103,38.956238,10.453263,50.074082,18.537529,57.659569,28.135735,0.0,-80.352452,-43.586794,-29.746742,-32.638107,-5.275134,-16.894079,6.38414,0.57581,14.584663,0.0,-1.019966,-1.209835,10.367912,16.004139,25.391372,34.170364,41.162384,50.677631,63.747001,0.0,-72.189143,-27.987559,-45.978696,-22.138282,-42.743135,-17.962342,-39.170287,-16.177379,-80.326177,5.462345,-55.384197,-60.54919,-54.767799
78,0.143143,-0.459281,-0.048592,-0.095077,0.0,-8.253033,22.277481,0.119282,38.334595,10.175606,49.78299,18.548355,57.77385,28.027016,0.0,-79.338727,-43.418098,-29.534796,-32.565297,-4.766373,-16.796699,6.90075,0.854199,15.05283,0.0,-1.299854,-1.46291,10.942143,15.563198,25.756039,33.615349,41.760899,50.163677,62.903435,0.0,-71.676639,-27.757921,-45.406313,-21.864462,-42.559088,-17.773738,-37.352243,-16.137908,-80.577603,5.58605,-55.829421,-60.61722,-54.848819
79,-0.125725,0.314853,-0.006203,-0.003939,0.0,-9.356609,22.109917,0.169567,38.438851,10.447403,50.061516,18.816765,58.047501,28.369767,0.0,-80.238588,-43.683261,-28.825253,-32.754154,-4.669795,-16.883218,6.94182,0.863511,15.260039,0.0,-0.751716,-1.260006,11.307873,15.603516,25.873009,33.559777,41.897541,50.005383,62.412278,0.0,-71.567619,-27.287069,-45.243947,-21.231157,-42.614157,-17.226871,-37.778007,-15.68647,-79.932537,5.434107,-55.496287,-60.649641,-54.834477
80,0.175873,0.646131,-0.143325,0.308072,0.0,-9.885189,21.896072,0.012829,38.365151,10.361549,50.101685,18.398575,58.059586,28.020653,0.0,-81.164766,-43.935202,-29.033765,-33.008917,-4.681014,-17.175031,6.831825,0.496313,15.155274,0.0,-0.483193,-1.216427,11.491928,15.492519,25.966816,33.364322,41.856903,49.77824,62.799224,0.0,-71.656792,-27.199599,-45.315082,-21.017339,-42.498436,-16.9459,-37.861468,-15.348509,-79.27834,5.580545,-54.752917,-60.822401,-54.429166
81,1.387024,1.325121,-0.166546,0.969099,0.0,-5.249348,28.652779,2.672836,44.094566,11.083878,54.201164,18.352272,60.35463,27.447212,0.0,-81.530208,-47.571585,-25.238524,-36.337123,-0.731415,-19.835634,9.798808,-1.128236,17.930059,0.0,-1.101391,-0.900067,12.023975,15.496227,26.12923,33.090774,41.704845,49.411079,62.314327,0.0,-71.444782,-27.408451,-45.671747,-21.146737,-42.648577,-16.988236,-37.919285,-15.227429,-79.84776,6.926828,-53.235928,-61.029688,-53.268199
82,0.792252,1.403087,-0.881184,1.382913,0.0,1.74353,30.148864,1.089866,44.683868,10.314537,53.766426,18.154152,59.115966,27.360603,0.0,-82.265283,-47.842207,-18.208629,-36.151507,1.573628,-19.597729,11.407647,-0.825313,19.561752,0.0,-0.864281,-0.403038,12.780888,15.747814,26.635964,33.145168,42.042435,49.392746,63.37088,0.0,-70.827673,-27.652798,-45.904021,-21.200856,-42.831735,-16.861179,-38.584381,-14.715661,-80.526823,7.682379,-51.535979,-61.947573,-51.588424
83,0.094299,3.286566,-1.352074,2.621929,0.0,2.800918,29.99675,0.16111,44.067009,10.740372,52.956161,18.870735,58.147568,28.098015,0.0,-82.602056,-47.728857,-17.940328,-36.117988,1.334958,-19.763503,11.145567,-1.217588,19.035108,0.0,0.256497,-0.20121,12.829274,16.146069,26.976048,33.673348,42.418408,50.050095,64.454613,0.0,-70.764682,-27.661604,-45.525004,-20.962289,-42.41479,-16.539614,-37.947938,-14.330252,-81.055512,7.776163,-47.85141,-63.300162,-48.568492
84,0.910904,4.401267,-2.2439,4.519685,0.0,2.89032,28.057731,-0.629677,42.125267,10.420967,51.319404,19.245392,57.024948,28.337448,0.0,-79.592866,-46.699805,-20.395957,-35.64164,1.020642,-19.668871,10.689818,-1.541025,18.835877,0.0,1.223694,-0.382553,12.317825,16.339794,26.628227,33.985497,42.184937,50.376755,64.006725,0.0,-70.278897,-28.259397,-45.413636,-21.435315,-42.124834,-16.851971,-37.875961,-14.418363,-81.112856,8.696263,-42.672696,-65.534866,-43.27136
85,2.243088,7.236994,-2.908115,6.32649,0.0,0.883575,23.262313,-1.491555,38.286827,9.050491,48.418006,19.08213,55.020515,27.817314,0.0,-72.864977,-45.719696,-31.59332,-36.218667,-1.02024,-20.893277,8.772424,-3.354844,17.782847,0.0,2.254337,-0.622078,11.69751,16.388191,26.169697,34.059631,41.659252,50.420002,62.873657,0.0,-69.782973,-28.243761,-44.763565,-21.103024,-41.506064,-16.393832,-36.936169,-14.06967,-80.951909,10.964505,-34.482097,-68.417827,-35.991265
86,3.779548,5.368142,-3.242649,7.244244,0.0,-1.663788,18.787789,-3.999412,34.126671,7.141297,44.848046,17.12954,52.053841,26.473183,0.0,-66.800718,-40.092245,-24.970872,-30.998632,4.736183,-16.33722,13.466024,0.160163,22.670207,0.0,2.551654,-1.692559,10.555011,15.483661,25.430477,33.251072,40.674728,49.862663,62.611793,0.0,-68.218015,-26.469549,-42.736534,-18.828744,-39.291769,-14.062662,-35.152497,-12.102247,-77.747174,14.735939,-28.203303,-71.66859,-27.836369
87,3.807913,11.075698,-3.649189,8.455848,0.0,-5.067684,14.24746,-5.96521,29.827166,5.159117,40.977001,14.963985,48.589136,24.834492,0.0,-62.009074,-35.212447,-20.388385,-26.322608,8.745766,-12.167516,16.836918,3.402329,26.69545,0.0,2.226059,-1.913212,9.183277,15.41772,24.68098,33.240806,39.239937,49.935791,61.704597,0.0,-64.607579,-22.935851,-38.806009,-14.903357,-35.491197,-10.154849,-31.394058,-8.864537,-69.887474,18.471577,-16.325594,-75.390054,-18.57851
88,3.564823,16.40098,-4.358391,12.632362,0.0,-9.503391,9.609673,-8.229103,25.322554,2.379404,36.883152,12.490688,44.962858,23.090092,0.0,-57.667324,-31.531949,-17.201665,-22.919375,11.404054,-9.19452,18.937671,5.597492,29.366286,0.0,4.873615,-1.388123,8.931496,15.54158,25.079876,33.124752,38.42918,50.058105,61.57505,0.0,-63.262124,-21.455817,-36.897279,-12.590063,-32.873165,-7.0784,-29.445807,-5.279413,-64.394849,21.809555,0.695088,-79.97529,-5.326446
89,3.015147,20.405731,-3.200981,13.765562,0.0,-14.783547,5.534362,-10.43319,21.224681,-0.27586,32.941772,10.164367,41.233074,21.405029,0.0,-55.622051,-28.623205,-12.769167,-19.842315,12.977282,-6.291419,20.745746,8.143308,31.567299,0.0,5.260895,-1.504132,8.245365,14.931427,24.967243,32.323848,37.917743,49.687568,63.320205,0.0,-60.753748,-18.210529,-33.495189,-8.616955,-29.200096,-2.535391,-25.242808,-0.667132,-57.371634,24.543847,21.12413,-83.457126,8.462427
90,1.571617,23.294182,-1.560196,12.048216,0.0,-19.589997,3.629264,-12.653847,18.602657,-2.071782,30.010299,8.709411,38.182582,20.930671,0.0,-58.303982,-26.138424,0.467806,-15.960876,15.549402,-2.067635,23.471533,12.453098,34.50363,0.0,5.463867,-0.325493,6.758297,15.532104,24.232979,32.286072,36.76926,49.163589,66.129467,0.0,-53.263275,-14.198748,-25.067005,-5.237287,-21.000272,0.744364,-17.533424,2.920974,-43.834993,25.703568,43.941587,-85.429218,20.033918
91,0.754181,28.896521,-3.973698,23.155558,0.0,-25.347092,-0.56762,-15.53645,14.093624,-5.570912,25.471763,6.55001,33.853908,18.500908,0.0,-56.738179,-25.954556,-1.526636,-15.146129,13.39292,-0.708801,22.39561,14.410856,33.874757,0.0,9.862518,2.160702,8.732609,17.932125,26.084965,34.62616,38.871826,51.394432,71.740048,0.0,-53.529764,-13.798382,-24.102013,-4.097596,-18.931033,2.963872,-13.987277,6.360447,-38.518412,25.886385,72.113806,-89.97428,42.465174
92,1.270982,26.800102,-1.183422,24.231708,0.0,-31.68758,-6.241699,-20.576328,7.801684,-11.015207,19.083195,2.105152,27.758692,13.551945,0.0,-50.223508,-22.885163,0.11469,-11.174133,15.007962,3.851461,24.74215,19.492998,36.173589,0.0,12.752884,5.094624,10.223705,21.147125,27.364998,37.383122,40.430134,53.269798,71.383118,0.0,-53.831199,-14.500596,-23.477926,-4.730291,-17.285898,3.10625,-10.778448,7.953768,-29.470983,26.578594,98.021621,-91.736475,65.804595
93,1.787785,24.703681,1.410667,20.389529,0.0,-38.611462,-13.392975,-27.773483,-0.273165,-18.404669,10.844593,-4.625164,19.896932,6.083782,0.0,-38.759966,-16.930243,5.391785,-4.044887,20.394531,11.613151,30.511155,27.699526,41.400126,0.0,10.808877,7.696072,13.160454,23.335946,28.854493,37.928948,41.677357,51.071434,67.400918,0.0,-46.633701,-11.62533,-17.99633,-2.163808,-11.711435,5.692196,-4.077373,10.781171,-14.123048,27.857752,121.765707,-90.834435,85.234529
94,2.69367,23.387624,-0.10112,27.32126,0.0,-45.80238,-19.534767,-39.941173,-8.239425,-31.037098,2.131714,-17.650371,11.197449,-6.365547,0.0,-25.717787,-10.515403,12.784151,3.068959,28.281627,19.022943,38.479597,35.141073,48.96536,0.0,14.237057,13.097249,23.806424,28.307248,38.061448,41.465058,49.416195,51.985474,69.850457,0.0,-44.733641,-9.787934,-21.204184,0.295451,-14.558913,9.096713,-4.947029,15.824185,-3.632616,30.043527,144.120608,-91.44345,111.523066
95,0.237694,21.846222,0.083783,29.279162,0.0,-53.578926,-25.630148,-49.19902,-15.771647,-40.334192,-6.0504,-28.262112,2.854729,-17.894279,0.0,-11.988596,-2.76364,16.073175,11.99666,32.133482,27.952027,42.263198,43.421408,52.405666,0.0,18.870037,14.129471,36.155536,28.060054,49.18832,39.949939,58.682647,49.226955,69.372665,0.0,-45.427432,-7.330521,-25.074144,4.553487,-17.526243,14.067355,-7.064735,20.857115,0.359344,29.847725,164.818476,-91.793163,139.653874
96,-2.735085,22.401238,3.379142,23.112179,0.0,-61.357708,-30.201921,-53.389747,-21.086919,-44.350786,-11.851715,-34.174927,-3.364685,-25.983215,0.0,-2.521261,3.439522,11.62309,19.580969,28.178569,35.198978,38.439498,49.416146,48.793341,0.0,22.587147,16.885117,47.334115,31.67783,56.561062,43.358448,63.503998,51.512959,66.447236,0.0,-39.28016,-1.749834,-22.232193,12.259865,-11.113586,23.432311,4.486593,31.230894,21.382907,26.763761,186.056669,-88.7629,161.603008
97,-0.351455,19.854192,1.235768,22.30263,0.0,-67.963383,-32.092341,-59.257931,-23.711867,-52.273836,-15.044518,-43.586186,-7.275742,-36.786667,0.0,5.183181,6.179277,5.471099,24.670623,25.546078,41.419391,37.68288,55.498763,51.113064,0.0,29.673923,16.688759,61.144146,30.585892,70.398216,41.841453,74.532669,49.744446,73.75621,0.0,-33.842825,5.362141,-17.378239,21.499456,-5.353322,33.345915,10.769279,40.99169,28.45338,25.961661,204.749432,-87.977777,182.744209
98,3.583923,28.384874,0.366508,22.614632,0.0,-73.445538,-35.284532,-63.190739,-31.072294,-58.311933,-26.075821,-53.730801,-21.089561,-51.222107,0.0,11.216826,6.618186,-0.838423,17.909966,12.00557,27.026877,17.193821,33.653999,23.995086,0.0,39.148522,17.849797,74.669655,29.433174,82.64233,39.545746,84.514241,47.242241,80.987618,0.0,-31.795417,11.712089,-11.053059,29.598182,2.405808,42.235935,20.401459,50.203986,37.475176,29.067095,231.923056,-88.089758,204.147591
99,-0.458954,15.195393,2.821209,15.293082,0.0,-75.12331,-36.109125,-63.475685,-31.595335,-60.552458,-26.391083,-57.291,-21.390037,-55.221279,0.0,16.450359,9.168948,-7.885651,21.669096,6.27633,30.929071,14.221157,36.826488,23.778725,0.0,45.656788,16.880974,80.022766,25.122963,86.620308,32.968014,85.53463,39.469322,77.846363,0.0,-24.609182,17.829641,5.283291,36.368263,20.111405,48.847639,38.147762,55.924927,50.703152,27.954042,246.099669,-85.922648,218.421893
100,3.996277,12.75033,2.599846,15.64664,0.0,-75.86364,-35.976643,-70.970306,-32.732037,-70.882439,-28.682671,-67.800762,-24.561104,-63.938038,0.0,17.845091,11.765417,-7.323858,25.058366,6.759225,34.413875,16.398896,39.56376,27.79859,0.0,52.238114,19.768067,84.472904,25.091881,88.510094,30.356976,84.376557,34.463013,74.931828,0.0,-19.217481,23.268395,18.207628,41.711477,35.582823,54.312748,55.160421,61.516897,65.21855,31.174667,258.146696,-84.098454,233.36523
101,6.876434,9.377393,3.203121,11.597074,0.0,-75.346069,-34.964264,-80.360286,-33.274864,-82.805351,-30.635902,-79.595443,-27.469688,-72.755081,0.0,19.848879,15.102174,0.856861,28.406844,14.933398,37.647744,26.334377,42.214952,37.479597,0.0,57.212735,19.630795,86.332421,19.588761,91.125527,20.681317,84.358292,21.778359,71.071781,0.0,-13.49743,27.418899,32.331009,44.235957,48.229727,55.16147,63.232039,60.97227,68.979224,37.240162,266.996277,-81.706272,244.434492
102,3.697243,9.572376,4.672028,11.359507,0.0,-74.905403,-35.750862,-79.567142,-34.844261,-80.903183,-32.823189,-77.628399,-29.68943,-70.204559,0.0,16.331205,19.95325,12.23509,31.258095,22.120232,38.378597,31.738588,41.129207,39.232346,0.0,60.607613,21.070724,87.222679,17.00964,88.722816,14.393589,79.679306,12.311302,62.899235,0.0,-8.853453,29.518092,43.975444,45.667418,61.42043,56.331418,76.959019,61.953397,80.302582,40.172939,276.182395,-77.79871,255.407741
103,-0.616218,-0.300416,5.831428,11.005393,0.0,-72.694439,-36.036049,-70.279976,-32.900048,-69.07449,-28.623139,-64.909207,-23.643837,-57.567078,0.0,9.272294,22.788841,24.155452,40.447841,40.463736,53.9027,55.782864,62.524638,68.19345,0.0,62.903183,21.349801,86.706871,15.112725,86.620354,10.291146,75.12854,6.17648,56.013829,0.0,-5.413029,30.719496,50.646465,46.452908,69.52695,56.85905,84.189647,62.244081,86.152124,38.804987,275.681982,-72.719016,266.213137
104,2.074859,15.865484,5.922696,9.384037,0.0,-71.110153,-39.500061,-59.415596,-38.014503,-53.686867,-34.998779,-49.870273,-30.814773,-47.336964,0.0,11.842494,20.556354,33.256685,32.265936,43.774188,40.650555,52.396077,45.268313,57.478753,0.0,64.997394,22.372249,88.001186,15.024147,87.021068,8.757431,74.005886,3.125862,53.470504,0.0,-3.102119,31.956394,54.665651,47.543853,74.810315,57.948068,88.866154,63.500974,90.619582,40.324888,291.431014,-67.351278,275.480722
105,-0.461861,13.800439,6.268524,7.843463,0.0,-67.335113,-43.936683,-42.841243,-43.102695,-33.089355,-40.029647,-29.936874,-35.398361,-32.938236,0.0,17.542094,18.825897,41.022713,24.980598,47.451289,28.751337,50.063047,29.955421,48.699438,0.0,66.804806,22.337906,88.423153,14.328186,87.484829,7.27256,73.862377,0.880016,52.61087,0.0,-1.29009,32.054997,57.470466,48.275719,77.686057,59.246001,91.006819,65.44589,93.918326,39.446439,305.150859,-61.499342,283.243591
106,-2.021781,14.874414,5.228393,5.992544,0.0,-62.118084,-48.586293,-25.500264,-48.37555,-12.107735,-44.916504,-9.48864,-39.323937,-17.49939,0.0,23.253477,15.177017,44.672163,15.137039,46.162929,13.763056,42.422039,11.077259,36.188965,0.0,67.983387,22.943436,89.440487,14.368801,88.556065,6.648869,74.381573,-0.40987,52.229634,0.0,-0.273505,32.339543,58.560744,48.909414,78.407228,60.10049,91.588619,66.643082,95.671198,37.114369,319.978806,-56.581238,289.189668
107,-2.111069,13.711259,3.883713,4.047443,0.0,-56.742073,-51.549317,-15.371659,-52.204548,0.466255,-48.922646,2.62484,-43.047615,-8.211228,0.0,31.28928,11.335252,43.673288,5.57011,40.978191,-0.858614,32.57338,-7.642996,22.298766,0.0,68.610272,23.917648,89.473354,14.841259,88.682247,6.516197,74.267063,-1.175754,51.508038,0.0,0.323634,32.537083,58.661731,49.160504,77.960649,60.362942,90.270704,67.030937,95.282603,34.801089,333.669049,-52.899736,293.216095
108,-3.816399,10.87594,2.367531,2.505387,0.0,-51.926834,-51.450474,-11.496414,-51.873882,5.454964,-48.006935,9.209198,-41.465446,-0.906257,0.0,40.316671,9.340503,39.427947,-1.441168,32.378742,-12.77679,20.960634,-24.09175,8.074089,0.0,68.895481,24.455578,89.265278,15.268776,88.886433,6.698421,74.481686,-1.329712,52.168865,0.0,0.566906,32.318017,58.394858,49.063111,76.660321,60.309516,88.520154,67.057292,94.192955,30.847103,344.53053,-50.669792,295.707023
109,-4.351936,2.74919,1.129784,1.243493,0.0,-45.906532,-49.775208,-7.083824,-49.769062,9.244217,-45.290405,13.5634,-38.107979,4.019188,0.0,38.861436,10.939888,37.457195,-0.386088,29.836132,-12.551697,18.198513,-24.675514,5.595909,0.0,69.187671,24.5331,88.525302,15.221305,88.268245,6.553733,74.067752,-1.506638,52.186512,0.0,0.979707,32.270234,58.148955,49.262305,75.701559,60.478613,87.118803,67.039372,92.714526,26.36146,347.268321,-49.673715,296.939117
110,-6.506561,-6.365171,-0.000676,0.206716,0.0,-38.042839,-44.523777,1.382904,-46.19878,15.466919,-43.395962,16.85559,-37.786,0.43444,0.0,33.259513,13.296371,38.770293,7.063049,34.313025,-1.101504,26.061379,-9.733729,17.779833,0.0,68.764412,24.955616,88.414353,15.633236,88.081513,6.904255,73.85447,-1.1674,52.334038,0.0,1.252656,32.15276,57.915946,49.267702,74.809327,60.389235,85.916757,66.765718,90.864076,19.707362,340.89414,-49.821928,297.136823
111,-9.186219,-7.253252,-0.168239,-0.198602,0.0,-22.370475,-35.769722,13.536621,-39.046703,24.795204,-38.038868,22.425087,-34.255165,1.733185,0.0,23.155293,14.893396,40.695781,14.585447,39.505431,11.624873,35.124412,7.464587,30.607258,0.0,68.415676,25.101791,88.071384,15.799335,87.877796,7.060821,73.77808,-1.017655,52.437618,0.0,1.586072,31.891074,57.43491,49.099593,74.021009,60.229536,84.716341,66.560028,89.802451,10.402473,333.630783,-50.108837,296.928116
112,-9.673896,-8.609428,0.048248,-0.113757,0.0,-4.456982,-27.182854,27.841758,-32.304486,36.454696,-32.97242,29.956237,-30.795434,3.144905,0.0,16.286325,16.905954,43.150187,22.006785,45.685264,23.670254,45.341191,23.768549,45.713126,0.0,68.36578,24.814556,87.723988,15.439476,87.603161,6.706135,73.356663,-1.257168,52.1273,0.0,2.002962,31.566552,56.937289,48.95017,73.442927,60.229512,83.970989,66.622952,88.95962,0.606074,325.009591,-50.183092,296.802595
113,-6.530251,-9.037309,-0.028084,-0.146941,0.0,7.851013,-20.194416,37.444176,-27.626369,42.962013,-30.853729,32.217979,-31.23127,0.515511,0.0,6.510803,18.680451,44.996241,30.731525,52.794318,38.309573,56.757916,43.416752,60.994637,0.0,68.253994,24.388298,87.373066,14.933419,87.188702,6.232853,72.948841,-1.560264,51.909085,0.0,2.489468,31.704218,57.03173,49.184364,73.40479,60.530348,83.754566,66.895926,88.707752,-6.040106,315.961359,-50.327105,296.644731
114,-6.41114,-8.606995,-0.370079,0.091662,0.0,20.023819,-14.197861,48.046463,-23.59021,50.754272,-28.559292,35.640998,-30.401837,-3.227234,0.0,-1.065935,20.015371,48.467553,38.308573,60.015004,51.12928,67.836385,60.779708,75.829704,0.0,67.99593,24.113995,87.286892,14.619599,86.810383,5.950504,72.583637,-1.687683,51.677685,0.0,2.457902,31.559833,57.019429,49.017132,73.152589,60.401438,83.486385,66.775328,88.364988,-12.56195,307.346836,-50.807888,296.728865
115,-4.377457,0.329859,-0.425434,-0.088537,0.0,29.916618,-10.395321,53.238579,-19.19117,56.460525,-23.660019,40.192863,-25.157078,4.333191,0.0,-4.579238,18.977914,47.206732,37.487181,58.837348,50.736213,67.314309,60.760553,74.527338,0.0,67.88459,23.750839,87.349548,14.266262,86.77359,5.709309,72.673462,-1.692238,51.924568,0.0,2.907654,31.512396,57.140064,49.042362,72.990111,60.533398,83.41011,66.937879,88.315229,-17.021644,307.662289,-51.315559,296.625922
116,-0.593193,-1.083362,-0.348232,-0.081326,0.0,28.929313,-10.723343,53.656265,-19.154961,57.062187,-23.230099,40.614967,-24.306965,2.280224,0.0,-2.30024,19.443427,47.084183,38.210723,59.252645,51.422545,68.291584,61.441043,76.193858,0.0,67.669384,23.279079,87.447887,13.781204,86.839863,5.326504,72.728908,-1.812584,52.185322,0.0,3.245491,31.321958,57.367171,49.036423,72.838168,60.711524,83.418941,67.197231,88.113429,-17.703564,306.568361,-51.752518,296.53403
117,-0.323136,-0.229118,-0.374016,-0.113719,0.0,27.897171,-10.863887,53.405594,-19.038253,56.984894,-22.927574,40.645844,-23.68927,1.642491,0.0,-2.203724,19.310996,47.303557,38.313561,59.890069,51.906618,68.999478,62.203437,76.374107,0.0,67.477901,23.028889,87.355762,13.583714,86.742725,5.17622,72.722683,-1.881157,52.315418,0.0,3.338351,31.421141,57.505824,49.064753,72.574061,60.720045,83.445024,67.167454,88.175933,-18.12517,306.317788,-52.225004,296.398856
118,1.678688,0.978657,-0.345749,0.053402,0.0,24.172966,-13.081306,50.676613,-21.127922,54.838715,-24.545906,39.344559,-24.862861,1.839306,0.0,-2.001343,19.116421,47.350451,38.074551,59.650478,51.567102,67.830654,61.646585,74.901101,0.0,67.413082,22.749619,87.199299,13.385319,86.707089,5.075489,72.809383,-1.838081,52.489895,0.0,3.401151,31.236075,57.313706,48.940042,72.111587,60.665272,83.368613,67.145557,88.062522,-16.537142,307.265873,-52.661413,296.421686
119,0.194138,1.732717,-0.329349,-0.001433,0.0,22.20488,-13.086021,49.84449,-21.177578,53.487923,-24.810402,38.947357,-25.496372,4.532101,0.0,-3.196387,18.334883,46.159112,37.161904,58.224648,50.810906,65.938819,60.831405,72.424069,0.0,67.563789,22.352451,87.013664,13.0177,86.801857,4.801563,72.938667,-1.981247,52.624488,0.0,3.556478,31.086195,57.267604,48.884652,71.868192,60.691071,83.36092,67.177372,87.97165,-16.421717,308.954049,-53.069475,296.375712
120,0.425446,2.221545,-0.053238,0.091477,0.0,18.48349,-13.491509,49.2304,-21.581177,53.052291,-25.195816,38.964546,-25.481575,0.751899,0.0,-0.89217,17.556803,45.337622,35.522986,56.137435,48.501602,64.014207,58.023626,70.506546,0.0,67.63536,21.950809,86.554161,12.702278,86.602729,4.559944,72.641853,-2.12978,52.398399,0.0,3.578152,31.008908,57.134606,48.848454,71.473076,60.71324,83.197084,67.236986,87.821757,-16.065422,311.139137,-53.191864,296.430732
