takenoko1/special-research/HandMotion_SimilarSearch_自分用/NewProject/handData/test_key/d4_feature_d3/143.csv
frame,vel_0x_L,vel_0y_L,vel_0x_R,vel_0y_R,posFromWrist_0x_L,posFromWrist_1x_L,posFromWrist_2x_L,posFromWrist_3x_L,posFromWrist_4x_L,posFromWrist_5x_L,posFromWrist_6x_L,posFromWrist_7x_L,posFromWrist_8x_L,posFromWrist_9x_L,posFromWrist_0y_L,posFromWrist_1y_L,posFromWrist_2y_L,posFromWrist_3y_L,posFromWrist_4y_L,posFromWrist_5y_L,posFromWrist_6y_L,posFromWrist_7y_L,posFromWrist_8y_L,posFromWrist_9y_L,posFromWrist_0x_R,posFromWrist_1x_R,posFromWrist_2x_R,posFromWrist_3x_R,posFromWrist_4x_R,posFromWrist_5x_R,posFromWrist_6x_R,posFromWrist_7x_R,posFromWrist_8x_R,posFromWrist_9x_R,posFromWrist_0y_R,posFromWrist_1y_R,posFromWrist_2y_R,posFromWrist_3y_R,posFromWrist_4y_R,posFromWrist_5y_R,posFromWrist_6y_R,posFromWrist_7y_R,posFromWrist_8y_R,posFromWrist_9y_R,posFromBody_0x_L,posFromBody_0y_L,posFromBody_0x_R,posFromBody_0y_R
6,0.790844,-3.112184,0.253578,-0.067185,0.0,20.587406,-11.678055,49.812527,-21.635925,48.51154,-26.994358,35.212544,-28.658535,-4.787235,0.0,-21.251059,7.862877,35.129772,26.468536,48.321562,40.570527,54.006651,50.61459,61.145221,0.0,66.473122,22.474571,86.723808,12.69801,85.217102,4.117104,71.379112,-2.93874,51.337418,0.0,3.260089,30.241573,56.828855,48.229777,69.561753,60.462743,81.34609,67.299415,86.325088,-13.468454,321.027625,-50.393377,298.208328
7,-0.300041,-0.586011,0.079079,-0.164799,0.0,21.671459,-11.850403,50.510067,-21.687721,49.045269,-26.773098,35.658451,-28.084946,-3.742596,0.0,-21.426109,8.581442,35.708423,27.257879,48.46339,41.317793,54.373707,51.250618,61.585563,0.0,66.307983,22.085884,86.567642,12.283996,85.257133,3.756763,71.574531,-3.129868,51.609672,0.0,3.153507,30.26505,56.696388,48.314387,69.486997,60.555727,81.323427,67.334921,86.244355,-13.765875,320.429215,-50.311678,298.03113
8,0.965012,-0.448024,0.182957,-0.300972,0.0,20.756961,-13.047432,49.587398,-22.889489,47.969249,-27.751626,34.648921,-28.881947,-4.40189,0.0,-20.914569,8.584863,36.422183,27.425494,48.314127,41.57071,54.548869,51.604251,60.888215,0.0,66.085384,21.75428,86.279995,11.919948,85.135585,3.404033,71.492031,-3.412583,51.608722,0.0,3.163437,30.391441,56.555733,48.446175,69.600779,60.691973,81.614112,67.451186,86.422246,-12.797058,319.972932,-50.124916,297.721899
9,0.56948,-1.051301,0.086105,-0.219646,0.0,22.440663,-13.075676,49.170308,-23.279777,48.084515,-28.257991,34.07182,-29.454288,-5.45438,0.0,-21.081702,8.410122,36.158744,27.982347,48.632117,42.675463,55.454315,53.215616,61.376427,0.0,66.013676,21.761238,86.021747,11.990353,85.064793,3.457924,71.618786,-3.419335,51.829067,0.0,3.146344,30.474273,56.346016,48.472974,69.501978,60.689416,81.645456,67.421558,86.54151,-12.22546,318.913714,-50.036693,297.494336
10,-1.478874,-1.587924,-0.049862,-0.196354,0.0,24.474758,-11.781566,50.748562,-21.921684,49.728207,-27.140693,36.066754,-28.582317,-7.267284,0.0,-20.256359,9.485839,37.476399,29.260568,49.998098,44.03433,57.030198,54.540063,63.244463,0.0,65.947197,22.010513,86.041878,12.284615,85.12912,3.754578,71.677734,-3.126949,51.904724,0.0,3.127782,30.539469,56.162617,48.590584,69.468102,60.802679,81.613037,67.500993,86.613388,-13.702463,317.316676,-50.084684,297.288868
11,4.883515,-0.254634,-0.22546,-0.09738,0.0,13.840381,-16.283924,44.717113,-26.544445,43.834407,-31.968865,30.275425,-33.84771,-10.583748,0.0,-17.181904,10.453949,38.349315,30.588424,51.149545,45.427308,57.516235,55.890433,62.00176,0.0,66.243404,22.244099,86.343578,12.654419,85.458881,4.218075,72.021503,-2.611919,52.305508,0.0,3.058065,30.563144,55.823397,48.645974,69.15804,60.811867,81.320142,67.446121,86.646535,-8.823125,317.055752,-50.314321,297.185198
12,-2.575699,3.257828,-0.137032,-0.002668,0.0,18.234936,-13.158417,48.682216,-22.81247,46.746837,-28.080494,32.876667,-29.575482,-11.743263,0.0,-19.807223,8.273715,35.765567,27.630765,48.213906,42.192846,54.643298,52.428249,59.422742,0.0,66.58556,22.538132,86.569233,13.074852,85.73283,4.702481,72.241688,-2.116413,52.520405,0.0,2.912829,30.355156,55.613162,48.475432,68.899541,60.693863,80.996719,67.386656,86.601754,-11.405565,320.309542,-50.458094,297.178492
13,-0.032456,2.425124,-0.216098,-0.071149,0.0,18.797276,-12.723415,48.270687,-21.869671,46.253002,-27.097755,32.412999,-28.558365,-19.500263,0.0,-22.663698,7.185846,35.30066,25.277383,47.190727,39.025729,53.688747,48.701784,59.681353,0.0,66.868881,22.684272,86.712638,13.394371,86.062316,5.159889,72.646385,-1.577317,52.929657,0.0,2.900158,30.176636,55.505087,48.313782,68.653145,60.557172,80.600825,67.292092,86.548958,-11.452097,322.734712,-50.688268,297.107389
14,-3.988815,-1.38358,0.031826,-0.106779,0.0,22.788906,-8.383198,51.773014,-17.741821,49.966793,-23.757545,36.540882,-25.999363,-14.038937,0.0,-20.194793,9.203232,36.538102,26.661568,49.513543,39.751124,55.710123,48.784925,62.884718,0.0,66.978183,22.592216,86.713977,13.370315,86.13985,5.227134,72.635913,-1.426781,52.851848,0.0,2.930823,30.099695,55.399555,48.229258,68.517418,60.431473,80.344252,67.126638,86.499335,-15.462461,321.354915,-50.677991,297.004393
15,6.912838,-2.575573,0.030624,-0.229378,0.0,11.703072,-15.946163,44.316467,-25.513561,42.80603,-30.929226,29.3405,-32.682632,-16.368416,0.0,-14.551299,10.167947,38.318959,28.319023,51.327968,41.993961,57.401331,51.744796,64.2156,0.0,67.005352,22.545834,86.769253,13.302326,86.159351,5.170887,72.659031,-1.459431,52.864758,0.0,3.120767,30.096608,55.444176,48.203064,68.60309,60.364116,80.457132,67.021847,86.568397,-8.576906,318.788508,-50.67465,296.784181
16,-4.21566,1.967578,0.097767,-0.17568,0.0,20.702545,-11.808426,50.140365,-21.117268,47.808975,-26.591263,34.638199,-28.293434,-11.138329,0.0,-20.700269,7.761225,34.596916,25.73898,48.844132,39.739355,55.599219,49.742119,62.795069,0.0,66.819603,22.492069,86.537659,13.217686,86.022171,5.077526,72.476944,-1.570439,52.647514,0.0,3.267486,29.853768,55.584646,47.983911,68.787267,60.182125,80.583646,66.902101,86.537682,-12.827408,320.769937,-50.611725,296.622352
17,-4.019371,-1.259424,0.20565,-0.287744,0.0,25.92112,-7.397312,54.009636,-16.989613,52.330627,-23.290341,39.230667,-26.143284,-3.541809,0.0,-21.119616,8.342419,33.722765,26.188943,49.905164,40.170693,57.224477,50.137395,64.468986,0.0,66.698044,22.271118,86.266594,12.987614,85.911988,4.848358,72.192009,-1.857433,52.308426,0.0,3.549562,29.870131,55.749902,47.977538,69.04915,60.126672,80.846307,66.827136,86.573102,-16.905567,319.535794,-50.464863,296.359889
18,0.626861,-6.165532,0.267037,-0.238777,0.0,22.421975,-8.737941,51.997216,-18.897033,51.820908,-25.562656,38.708977,-28.924861,2.420277,0.0,-14.801178,12.265781,37.300744,31.586818,54.475424,46.255098,61.959055,56.596501,69.27843,0.0,66.369094,22.249992,86.259269,12.93322,85.712974,4.732074,71.894645,-2.053482,51.977279,0.0,3.341957,30.136622,55.834575,48.186663,69.247382,60.210802,81.164853,66.796261,86.671038,-16.350581,313.405966,-50.269701,296.156816
19,2.308411,-3.251467,-0.073769,-0.608414,0.0,20.159203,-12.237064,49.568138,-22.046253,50.421066,-27.767418,36.919945,-30.326935,3.333984,0.0,-10.810163,13.79987,40.15749,33.686405,56.819246,48.850479,64.47253,59.856761,71.013566,0.0,65.935638,22.480763,86.594994,13.168682,86.238922,4.909973,72.294159,-1.970203,52.394165,0.0,3.287888,30.558636,56.554436,48.599686,70.610781,60.575462,82.883959,67.146039,87.570779,-14.153452,310.191459,-50.454752,295.585362
20,-1.125732,3.461617,0.027981,-1.149076,0.0,15.34964,-12.82782,49.011955,-21.748696,51.911178,-26.769448,39.548973,-28.705559,4.738151,0.0,-1.357114,12.929745,41.428326,28.902885,55.225406,40.799361,60.845459,49.358561,65.298615,0.0,65.335796,22.690224,86.228702,13.297027,85.802044,4.76873,71.426205,-2.559311,51.021,0.0,2.747942,30.885197,58.037557,48.792779,73.589324,60.653502,85.685303,67.271257,89.185502,-15.414259,313.691775,-50.561846,294.474985
21,6.845031,4.070401,-0.009991,-3.134081,0.0,-4.178249,-22.879016,34.501007,-29.56549,39.990624,-32.265781,31.403389,-32.037002,-3.762153,0.0,12.021299,13.456354,42.79516,22.587869,50.92454,28.161708,52.273947,31.451684,50.692877,0.0,64.04306,22.270832,84.38134,12.616093,83.461647,3.601765,67.825104,-4.279175,45.526371,0.0,1.822946,30.959125,60.642412,48.392859,77.430657,60.256978,89.197853,67.06364,91.095554,-8.709978,317.805994,-50.712587,291.384722
22,9.258133,-3.925856,1.454659,-5.250921,0.0,-22.970935,-30.850593,4.732201,-33.996769,10.794159,-32.832779,8.039807,-28.897819,-15.770942,0.0,15.207373,17.763346,48.708354,25.792579,55.999682,30.259159,56.887332,32.849935,54.505681,0.0,59.651138,23.772319,72.73114,14.198444,66.721504,4.272651,51.356552,-5.256615,31.421127,0.0,4.251071,30.393688,66.559262,46.53075,83.552345,57.997851,93.183236,64.962964,92.440477,0.385276,313.945582,-49.420807,286.199245
23,4.944191,-1.470994,-1.139019,-15.802203,0.0,-35.992481,-32.97884,-19.398628,-32.214386,-13.394725,-27.684723,-10.171989,-20.966217,-22.137451,0.0,21.281428,19.8987,51.347283,26.716686,59.007311,30.294691,60.164353,32.038214,56.278733,0.0,58.483074,26.190811,62.243957,16.106678,54.435985,4.921028,39.588993,-6.350922,22.074371,0.0,4.044393,31.031966,65.204817,46.439756,81.483868,57.559449,88.836403,64.500887,87.063956,5.113014,312.543149,-50.776279,270.465603
24,7.038277,-2.418096,-9.380494,-24.523743,0.0,-54.444683,-36.801281,-47.269993,-32.633469,-41.232468,-25.261974,-31.855797,-16.27343,-33.058708,0.0,27.293373,22.456673,54.489922,28.713719,62.386688,31.685766,63.966115,32.525177,59.164564,0.0,55.33033,31.316552,59.670594,23.271149,47.237446,13.172047,34.356274,2.316422,23.886956,0.0,2.211418,23.794261,52.318209,38.738972,68.331202,50.498251,76.136738,59.089265,77.467818,11.816351,310.273702,-60.491713,246.090509
25,2.732414,-6.418141,-9.1837,-31.375496,0.0,-58.04425,-34.907558,-67.926246,-27.775257,-63.809097,-18.170643,-50.265564,-7.400539,-39.452705,0.0,22.308646,26.285422,56.866967,35.430275,67.823664,40.775551,72.057445,43.062527,68.245012,0.0,50.880981,29.260792,51.309311,20.800163,36.733623,10.321918,24.041473,-0.813423,15.593559,0.0,-0.167405,9.321515,33.674365,21.658877,47.004482,33.006373,55.119498,42.562941,58.509639,14.255092,304.131996,-69.969086,214.991448
26,-0.622558,-10.318827,-8.315266,-40.448409,0.0,-55.793106,-28.735314,-81.07053,-20.142975,-78.537072,-9.770348,-63.410237,1.193458,-41.419339,0.0,20.442252,31.747628,63.825967,47.209672,79.730502,57.946426,88.093681,64.416968,89.358515,0.0,41.865784,22.680851,38.243431,12.725521,21.34877,1.417809,9.877373,-10.215202,4.814152,0.0,-8.398137,-7.247801,11.588594,3.061832,24.300726,14.300358,33.337053,25.344586,39.122517,13.350174,294.139041,-78.566712,174.868911
27,0.230301,-1.858823,-11.618946,-50.316329,0.0,-57.915196,-28.567269,-81.794964,-19.919449,-79.309765,-9.637619,-64.368119,1.053817,-42.392693,0.0,28.535915,32.145893,65.182203,48.537775,81.002375,59.847597,89.684717,66.432217,90.915317,0.0,33.083439,13.682877,32.286736,1.768444,18.033646,-10.02951,6.704167,-20.817741,0.48254,0.0,-22.334816,-23.585385,-12.308142,-14.07279,1.335914,-2.552633,12.613491,9.704293,20.954063,13.029059,292.640819,-90.737074,124.913183
28,-0.422631,-1.082053,-10.882004,-47.244574,0.0,-58.025448,-28.395355,-81.840465,-19.732246,-79.364433,-9.451675,-64.625736,1.276749,-42.623943,0.0,29.144071,32.461488,65.474938,48.894236,81.445706,60.245925,89.928854,66.872115,91.434156,0.0,20.818966,4.414582,26.368676,-8.267257,11.819996,-20.005989,0.499649,-30.15866,-6.902893,0.0,-35.333956,-40.800442,-32.376191,-32.519582,-15.479204,-20.86095,-1.249525,-7.372826,7.459382,11.613172,292.512893,-102.612334,78.622736
29,-0.094391,-0.614984,-2.59124,-45.654778,0.0,-58.129039,-28.962089,-82.119117,-20.251419,-79.753452,-9.930885,-65.046283,0.853684,-43.073604,0.0,29.089865,32.373814,65.27268,48.863496,81.326021,60.256756,89.761843,66.902779,91.533006,0.0,11.417656,-7.15686,11.681328,-23.234046,-0.66719,-37.384952,-13.276657,-49.300243,-26.590209,0.0,-48.249277,-49.076245,-42.034061,-42.690801,-22.3469,-32.247004,-8.626773,-19.525709,-3.36657,9.876794,293.144625,-106.845561,34.214674
30,0.262986,-0.652863,-3.535491,-41.925442,0.0,-58.85479,-29.635186,-82.568505,-20.937928,-80.284459,-10.555252,-65.553166,0.302421,-43.822529,0.0,29.364408,32.502292,65.32912,49.061419,81.434492,60.489469,89.803884,67.176026,91.778761,0.0,6.274818,-10.559258,4.34729,-27.141678,-7.779305,-41.769402,-19.647377,-54.356404,-33.39655,0.0,-62.336362,-49.260971,-48.747066,-42.562546,-25.168202,-32.644825,-11.462186,-20.497889,-7.193429,8.326235,293.701428,-112.194597,-6.501102
31,0.626358,-0.483567,-4.045521,-33.133857,0.0,-59.505833,-30.201073,-83.02636,-21.601525,-80.804524,-11.171357,-65.858128,-0.169968,-44.093228,0.0,29.379006,32.268604,65.16332,48.753963,81.3967,60.154213,89.942834,66.858072,91.845821,0.0,6.36494,-8.153092,4.174232,-23.926735,-7.936032,-38.351017,-19.268921,-51.162094,-33.500942,0.0,-68.585442,-46.070599,-56.334629,-39.721496,-30.341652,-31.266833,-16.779501,-21.081887,-13.480133,6.859291,294.401573,-118.33342,-38.451247
32,0.626953,-0.364871,-2.610009,-22.572505,0.0,-59.865532,-30.484703,-83.420105,-21.926033,-81.225804,-11.514267,-66.203453,-0.497704,-44.611267,0.0,29.438743,32.202457,64.93288,48.66524,81.306286,60.05498,89.904858,66.745316,91.855047,0.0,8.074894,-4.863098,7.416905,-19.835151,-5.217761,-34.039924,-16.769062,-47.266101,-31.238937,0.0,-71.927744,-42.781661,-65.20255,-37.502408,-39.888484,-30.74984,-25.841658,-22.564588,-22.695592,5.223885,295.194958,-123.205788,-59.865496
33,1.0326,-0.188956,-0.964965,-17.131386,0.0,-60.182957,-30.801407,-84.067428,-22.296364,-81.887432,-11.913917,-66.879215,-0.904152,-45.198006,0.0,29.096646,32.092232,64.643875,48.623101,80.96714,60.062563,89.719063,66.794049,91.850242,0.0,9.321773,-3.261875,8.549228,-17.887173,-4.267468,-31.911267,-16.299591,-45.197949,-30.998978,0.0,-73.254217,-40.62634,-71.376943,-36.435911,-46.699499,-31.151175,-32.530157,-24.613313,-29.10589,3.995001,295.516014,-126.432237,-76.48687
34,1.074303,-0.077312,-1.366883,-12.039373,0.0,-60.397946,-30.836495,-84.458039,-22.416596,-82.441235,-12.121422,-67.415463,-1.17096,-45.625294,0.0,28.786634,31.968448,64.335815,48.504652,80.678556,59.966393,89.381511,66.734189,91.675563,0.0,10.799172,-4.224174,7.711304,-18.187626,-3.389991,-31.677086,-15.781116,-44.73254,-30.634082,0.0,-73.890926,-39.80174,-77.831516,-36.178763,-50.676639,-31.763001,-35.808295,-25.950579,-32.276085,3.0901,295.525399,-129.778324,-88.439546
35,1.084556,-0.062961,-1.879532,-9.616311,0.0,-60.641109,-30.649704,-84.999046,-22.294349,-83.026302,-12.125999,-68.174079,-1.310966,-46.13816,0.0,28.38317,31.653854,63.834983,48.235186,80.171425,59.78013,88.882518,66.634265,91.419991,0.0,9.252903,-7.458961,-0.255317,-21.237888,-4.940551,-34.423702,-16.913349,-47.099887,-31.898712,0.0,-70.890143,-40.122741,-84.993777,-36.440366,-47.921447,-31.546025,-33.308787,-25.023972,-30.242453,1.960332,295.382466,-133.87218,-98.135829
36,0.911545,-0.117881,-4.040325,-5.104907,0.0,-60.735889,-30.59436,-85.43391,-22.269905,-83.561348,-12.172394,-68.834461,-1.434311,-46.530739,0.0,28.082408,31.495316,63.59954,48.117798,79.987013,59.707955,88.574507,66.580801,91.20684,0.0,7.959858,-12.000835,-12.759269,-25.50262,-7.522533,-38.17194,-18.438125,-50.321582,-33.06237,0.0,-68.663244,-41.688042,-90.454816,-36.919175,-42.304308,-30.516343,-27.467932,-22.201619,-24.281074,0.696819,295.128264,-140.087563,-103.377057
37,1.003601,-0.146176,-5.286541,-0.692413,0.0,-60.990143,-30.922073,-86.062534,-22.710685,-84.223388,-12.686462,-69.54911,-1.934486,-47.061035,0.0,27.709744,31.423686,63.391676,48.121652,79.817792,59.772472,88.424355,66.706883,91.139385,0.0,7.829888,-18.202308,-29.207954,-31.004608,-11.269832,-42.697254,-20.606174,-53.833248,-34.188629,0.0,-66.054153,-42.95058,-95.106493,-36.611011,-32.825846,-27.989054,-18.505515,-17.272813,-14.64026,-0.114653,294.906459,-147.189177,-104.145099
38,0.776413,-0.205048,-6.456779,4.50573,0.0,-61.348079,-31.258552,-86.660248,-23.109489,-84.712017,-13.11882,-69.95549,-2.381035,-47.413009,0.0,27.693923,31.45093,63.419501,48.198975,80.005624,59.872298,88.606703,66.780749,91.222648,0.0,8.360138,-23.484203,-46.037521,-35.741936,-14.483734,-46.109493,-21.848019,-55.441166,-34.843826,0.0,-61.393992,-43.027616,-95.546616,-34.950801,-22.155412,-23.762602,-7.419572,-10.57905,-2.983635,-0.720864,294.696959,-155.02858,-99.643821
39,0.355568,-0.125378,-8.307449,8.236838,0.0,-61.57172,-31.291054,-86.97242,-23.190193,-84.956726,-13.247085,-70.211529,-2.529762,-47.561508,0.0,27.520948,31.298233,63.332346,48.081155,80.044317,59.769681,88.689325,66.65048,91.258637,0.0,10.00542,-25.467843,-58.389931,-36.855275,-17.030629,-44.919102,-20.635186,-51.217953,-31.440732,0.0,-50.392464,-39.571918,-88.031968,-30.121592,-9.921068,-17.472943,4.842362,-3.599512,9.739929,-1.193413,294.699821,-164.164146,-91.278743
40,-0.021881,-0.19796,-4.206208,24.71743,0.0,-61.350597,-31.344658,-87.179867,-23.252975,-85.084946,-13.326713,-70.118008,-2.620491,-47.42712,0.0,27.420567,31.220836,63.452229,48.070115,80.331519,59.790639,89.025569,66.647578,91.275013,0.0,8.3443,-28.611259,-69.725017,-39.542656,-19.23904,-46.509361,-21.786129,-51.317436,-32.05093,0.0,-47.855118,-40.180107,-84.615234,-29.80739,-8.0726,-16.122625,7.143053,-1.55892,12.713885,-1.656086,294.694779,-168.811146,-66.368395
41,-0.32373,-0.104123,-1.601543,23.930471,0.0,-61.160672,-31.225731,-87.108994,-23.163552,-84.982167,-13.307099,-69.833451,-2.689476,-47.28954,0.0,27.220545,30.959236,63.407385,47.877231,80.410695,59.660383,89.084244,66.567512,91.275198,0.0,7.013912,-32.126576,-76.802193,-42.478432,-19.883526,-47.619038,-21.600174,-50.159878,-31.175434,0.0,-40.467336,-36.748683,-71.526148,-25.40596,-3.265603,-10.671577,12.261847,4.340263,19.240545,-2.154647,294.525834,-170.58752,-42.502746
42,-0.627526,-0.242482,1.992302,32.966785,0.0,-60.902469,-30.874122,-86.937813,-22.746757,-84.800857,-12.879089,-69.408989,-2.354851,-46.942783,0.0,27.312319,30.847456,63.614287,47.735181,80.677185,59.518061,89.402197,66.38467,91.481321,0.0,5.037254,-33.300362,-81.990235,-43.932072,-19.5229,-48.518841,-21.940773,-50.196785,-32.177868,0.0,-37.507281,-36.87986,-63.277231,-25.501105,-2.596846,-10.620108,13.165354,4.344345,20.135173,-2.679531,294.139004,-168.492576,-9.680309
43,-0.514,-0.138358,3.450039,29.558261,0.0,-60.708366,-30.458244,-86.712135,-22.325134,-84.666114,-12.496971,-69.166774,-2.044212,-46.711303,0.0,27.289483,30.538988,63.557155,47.386501,80.735268,59.165738,89.548632,66.048982,91.52467,0.0,6.44886,-33.718953,-72.437554,-44.690621,-19.301617,-48.931034,-21.70998,-50.036419,-31.561283,0.0,-30.245167,-32.973849,-45.626706,-21.040687,1.715914,-6.225936,16.355486,8.178286,23.975264,-2.905741,293.948371,-164.754747,19.825677
44,-0.354583,-0.274875,1.731891,27.66989,0.0,-60.677193,-30.206749,-86.713292,-22.032326,-84.538765,-12.205216,-68.994965,-1.80954,-46.592217,0.0,27.512389,30.291627,63.688053,47.152997,80.965188,58.995738,89.883368,65.962913,91.70198,0.0,12.149575,-28.791286,-52.772083,-40.271793,-10.774864,-45.740478,-15.676197,-48.251152,-26.848526,0.0,-23.852146,-27.268123,-28.979573,-15.043283,8.744445,-0.411813,21.86989,13.395461,29.53182,-3.012451,293.892466,-162.774983,47.714537
45,-0.356301,-0.159638,7.444416,26.585028,0.0,-60.897503,-30.073219,-86.696262,-21.855606,-84.399822,-11.981483,-68.7728,-1.575897,-46.513023,0.0,27.656503,30.035611,63.792894,46.875516,81.124444,58.758099,89.965682,65.777787,91.80151,0.0,11.050232,-28.051185,-37.078663,-40.179783,-8.978553,-45.796199,-14.722938,-47.876106,-25.345321,0.0,-16.909368,-26.047478,-15.868596,-13.937568,11.139114,0.850087,23.484633,14.722392,31.89896,-3.004944,294.110101,-154.966759,74.676838
46,-0.046394,-0.212372,7.493203,26.500665,0.0,-61.132588,-30.061821,-86.820786,-21.831711,-84.344536,-11.925682,-68.720524,-1.521217,-46.569271,0.0,27.749598,29.89813,63.802996,46.67852,81.284105,58.563968,90.171249,65.617359,92.019019,0.0,9.436683,-25.53518,-20.963025,-38.974892,-8.406945,-45.903077,-15.080201,-48.848053,-25.643509,0.0,-15.676176,-28.829476,-9.862424,-17.337268,10.514391,-2.725645,21.55124,11.168865,29.531301,-2.596865,294.554572,-147.019083,101.834346
47,-0.019295,-0.038236,5.897975,14.958513,0.0,-61.278797,-30.147674,-86.827469,-21.896141,-84.243439,-11.939598,-68.561336,-1.478233,-46.546486,0.0,27.677647,29.5546,63.717904,46.28664,81.39333,58.189241,90.209819,65.294442,92.04798,0.0,9.374978,-22.705478,-4.546588,-36.301425,-9.4972,-43.643611,-15.142616,-46.840118,-24.464721,0.0,-10.349382,-26.841929,-0.417927,-15.211856,12.033383,-0.719856,22.883541,12.986235,31.311299,-2.206862,295.148823,-140.71181,117.425346
48,-0.038383,0.040694,6.441926,15.067952,0.0,-61.388443,-30.158272,-86.686856,-21.92022,-83.976002,-11.952919,-68.316513,-1.459008,-46.438797,0.0,27.477439,29.256999,63.580114,45.909233,81.473086,57.822789,90.223268,64.982033,91.986884,0.0,5.291038,-21.126389,-1.600846,-35.242836,-10.449349,-43.39848,-15.71576,-47.182366,-24.75412,0.0,-10.168415,-30.592611,-3.24189,-19.385875,8.101494,-4.932654,18.933572,9.178186,27.12929,-1.905189,295.691437,-133.929828,132.995218
49,-0.149598,0.02412,10.871646,14.843577,0.0,-61.451431,-30.526702,-86.735538,-22.188743,-84.017383,-12.044883,-68.091613,-1.388076,-46.249809,0.0,27.427199,29.567036,63.842775,46.184887,81.621052,58.00867,90.332664,65.051959,92.026824,0.0,-4.838905,-26.955757,-10.166416,-41.913414,-19.068431,-50.367221,-24.013218,-53.949623,-32.804317,0.0,-14.463898,-39.545489,-11.479519,-28.457641,-2.226337,-13.154931,8.729445,2.659787,17.818476,-1.692667,295.87278,-122.696062,147.996018
50,0.160378,0.240542,1.298253,0.443195,0.0,-61.611568,-30.727844,-86.690392,-22.442116,-84.02433,-12.327232,-68.167728,-1.679054,-46.40023,0.0,27.067836,29.670937,63.518895,46.241982,81.187207,58.016118,89.989234,65.077166,91.813909,0.0,-3.56614,-25.689297,-8.734303,-40.857365,-18.514641,-49.528336,-22.784283,-53.424351,-31.651017,0.0,-11.910321,-39.775176,-9.14079,-28.728571,-1.432746,-13.434099,9.484925,2.390543,17.737435,-1.264458,296.132196,-121.129978,148.458087
51,-0.030899,0.305208,0.338962,-1.845881,0.0,-61.605846,-30.824684,-86.563889,-22.486153,-84.066696,-12.298393,-68.242825,-1.538681,-46.265728,0.0,26.804816,29.786966,63.512275,46.291653,80.90413,57.984316,89.709356,64.997298,91.4182,0.0,-2.632839,-24.190144,-8.720776,-39.036346,-18.368122,-47.873108,-22.010136,-52.104607,-31.203998,0.0,-9.26145,-38.943224,-8.326617,-27.882373,-0.820403,-12.75727,10.428793,3.031229,18.373564,-1.113567,296.476069,-120.609226,146.650871
52,0.027878,0.273184,0.170448,-2.222372,0.0,-61.623814,-30.826126,-86.529625,-22.462075,-84.130188,-12.275002,-68.392514,-1.548432,-46.269379,0.0,26.486394,29.948085,63.353069,46.504247,80.541927,58.183473,89.406507,65.182944,91.063555,0.0,-3.944835,-24.12133,-8.371433,-39.0485,-17.842186,-48.063949,-20.866264,-52.427559,-30.726837,0.0,-8.858788,-39.009637,-7.629912,-27.987232,-0.20043,-12.844957,11.034539,3.156915,18.656108,-0.968565,296.804029,-120.321654,144.483275
53,-0.252228,0.231786,0.09486,-1.723627,0.0,-61.577694,-30.985611,-86.535587,-22.562805,-84.239273,-12.30645,-68.449848,-1.534195,-46.217423,0.0,26.295684,30.210006,63.374843,46.872861,80.26899,58.558496,89.05742,65.508369,90.825038,0.0,-4.998539,-24.357009,-8.541011,-39.095512,-17.425323,-48.090099,-20.300251,-52.515758,-30.449043,0.0,-9.734249,-39.097854,-7.310706,-28.087058,0.356386,-12.943634,11.350763,3.215974,18.713771,-1.106272,297.118576,-120.112273,142.842409
54,-0.171776,0.219362,-0.239994,-1.043162,0.0,-61.505298,-30.721962,-86.256901,-22.375099,-84.080749,-12.246254,-68.528309,-1.584732,-46.343216,0.0,25.874003,30.020457,62.918261,46.746001,79.828463,58.531437,88.49743,65.613716,90.565513,0.0,-6.65673,-23.850643,-9.129169,-38.416282,-17.565456,-47.47348,-19.761989,-52.025356,-30.100524,0.0,-11.269049,-38.881863,-7.922387,-27.727393,0.431969,-12.557212,11.769838,3.467693,18.943001,-1.122671,297.413295,-120.19689,141.874604
55,-0.357834,0.068642,1.049138,-0.771288,0.0,-61.296947,-30.568519,-86.11552,-22.149376,-84.015083,-11.969398,-68.474498,-1.247795,-46.057995,0.0,25.798532,29.990038,63.081899,46.728562,79.961905,58.514382,88.575273,65.565525,90.672218,0.0,-9.338036,-24.568017,-10.747433,-38.810956,-18.950238,-47.683308,-20.898526,-52.109253,-31.281498,0.0,-13.381635,-38.338027,-8.466691,-26.838649,0.646293,-11.587748,12.072157,4.358357,19.458593,-1.294911,297.553546,-118.962158,141.174925
56,-0.368911,-0.058379,0.965881,0.181077,0.0,-61.210328,-30.482186,-86.114995,-22.044388,-84.005333,-11.864068,-68.462655,-1.187027,-46.055432,0.0,25.738103,29.965215,63.086716,46.753645,79.98027,58.610984,88.519129,65.700351,90.762855,0.0,-10.784306,-25.849228,-11.166046,-40.062046,-18.723164,-48.778473,-20.951019,-53.028271,-31.205601,0.0,-15.18371,-38.852389,-8.207012,-27.315047,1.059749,-12.041392,11.991733,3.848731,19.083261,-1.457845,297.558881,-117.7903,141.419716
57,-0.33918,0.057873,0.704326,0.115424,0.0,-61.098656,-30.373078,-86.132847,-21.971901,-83.995114,-11.819458,-68.531491,-1.140748,-46.149548,0.0,25.647379,29.795957,63.016974,46.546793,79.892547,58.413555,88.355243,65.543554,90.607071,0.0,-11.004764,-26.856742,-11.22789,-41.216869,-18.250568,-49.780517,-21.028438,-53.779975,-31.172389,0.0,-15.377174,-39.700636,-8.231527,-28.076924,1.339577,-12.584264,11.985199,3.421344,18.950745,-1.619607,297.686399,-116.908556,141.604785
58,-0.305008,-0.054588,-0.154827,-0.443652,0.0,-60.924031,-30.131905,-86.032208,-21.714936,-83.923474,-11.554413,-68.39827,-0.874581,-46.160969,0.0,25.810314,29.730082,63.024496,46.452217,79.952421,58.330699,88.422119,65.497785,90.661585,0.0,-10.295894,-26.903961,-10.698635,-41.142803,-17.366123,-49.630005,-20.62104,-53.646869,-30.718471,0.0,-15.246603,-39.281234,-8.165677,-27.748955,1.760381,-12.309148,12.288048,3.59459,19.119002,-1.765405,297.685129,-116.904173,141.214451
59,-0.186127,0.022008,-0.98965,-0.483814,0.0,-60.947262,-30.120483,-86.207039,-21.721344,-84.014076,-11.564324,-68.498154,-0.865563,-46.206001,0.0,25.838435,29.716694,63.12263,46.380475,80.041983,58.206716,88.60285,65.333344,90.623472,0.0,-8.430313,-26.562779,-8.915303,-40.610012,-15.188359,-48.963639,-19.381405,-52.962239,-29.625458,0.0,-14.801086,-39.146199,-7.633494,-27.722965,2.466249,-12.330366,12.398099,3.696342,18.951831,-1.817385,297.757313,-117.759676,140.780813
60,-0.14193,-0.006916,-1.139992,-1.024267,0.0,-61.064003,-30.076011,-86.435005,-21.657966,-84.186092,-11.507835,-68.710842,-0.867233,-46.435306,0.0,25.949684,29.773492,63.106908,46.432086,80.035858,58.249855,88.630737,65.349065,90.683358,0.0,-7.015297,-25.773914,-7.233261,-39.698628,-13.316643,-48.084183,-17.947895,-52.210499,-28.533199,0.0,-14.181828,-39.153441,-6.843693,-27.735024,3.1109,-12.254486,12.76097,3.926129,19.081297,-1.846602,297.791615,-118.786955,139.797764
61,0.0206,-0.042571,-0.743443,-1.532972,0.0,-61.311219,-30.003983,-86.592854,-21.62455,-84.304699,-11.503968,-69.017979,-0.878861,-46.855912,0.0,26.261018,30.029991,63.150331,46.703109,80.158741,58.511714,88.983468,65.602712,91.128467,0.0,-5.889187,-25.10733,-6.836666,-38.910736,-12.909198,-47.297527,-17.420139,-51.501651,-28.216301,0.0,-12.200406,-38.547189,-6.653539,-27.057018,3.821393,-11.477537,13.650058,4.826715,19.902818,-1.704729,297.775208,-119.409125,138.290956
62,-0.052323,-0.119783,-1.052765,-1.676085,0.0,-61.521309,-30.069511,-86.616073,-21.673279,-84.462352,-11.564644,-69.312732,-0.957298,-47.21141,0.0,26.596544,30.467616,63.359504,47.291886,80.29989,59.185991,89.400579,66.307444,91.826481,0.0,-3.623611,-24.26374,-5.350582,-38.016552,-11.527576,-46.484092,-16.277389,-50.810611,-27.44831,0.0,-9.8969,-38.115763,-5.615497,-26.429226,4.905428,-10.659653,14.705008,5.907921,20.781088,-1.564682,297.648524,-120.26952,136.60797
63,0.044609,0.059836,-0.603252,-1.601467,0.0,-61.800224,-30.193908,-86.655956,-21.807907,-84.491077,-11.717674,-69.511871,-1.104812,-47.322601,0.0,26.658233,30.69508,63.413511,47.572567,80.290282,59.494731,89.619472,66.636302,92.357275,0.0,-2.803356,-24.186047,-4.335377,-37.861393,-10.413071,-46.223682,-15.513233,-50.426525,-27.355614,0.0,-8.065252,-37.848315,-5.016875,-25.706931,6.277257,-9.6193,15.723008,7.257409,21.692296,-1.196823,297.690783,-120.549522,134.988926
64,-0.110939,0.187277,0.298428,-1.743245,0.0,-61.96186,-30.144584,-86.43108,-21.703674,-84.4598,-11.627746,-69.400898,-1.088035,-47.537922,0.0,27.026698,30.941242,63.459737,47.919344,80.348265,59.920648,89.703922,67.11567,92.829678,0.0,-2.736798,-24.259484,-4.812195,-37.868615,-10.8681,-46.299797,-15.855389,-50.590908,-27.965058,0.0,-5.691374,-37.041589,-4.018469,-24.559522,7.145993,-8.235078,16.781935,8.752529,22.911231,-0.678326,297.841414,-119.621658,133.209035
65,-0.031196,0.148299,0.313614,0.273876,0.0,-62.023453,-30.228241,-86.394413,-21.733429,-84.400509,-11.62294,-69.26278,-1.066132,-47.562619,0.0,27.277726,31.261925,63.659402,48.330381,80.358961,60.386247,89.960211,67.604376,93.2038,0.0,-3.090638,-25.041527,-4.873639,-39.354218,-11.903046,-47.939324,-17.222157,-51.931355,-28.5206,0.0,-4.753368,-37.801552,-7.045407,-25.400291,3.900224,-8.993015,13.850469,8.250312,20.505385,0.139584,297.934771,-118.458938,133.427969
66,-0.043854,0.455323,0.580524,0.090118,0.0,-61.848187,-30.339111,-86.195721,-21.828896,-84.370869,-11.738113,-69.094585,-1.154778,-47.434868,0.0,27.076346,31.233285,63.565899,48.425427,79.939083,60.5353,89.596192,67.788269,93.146162,0.0,-3.016434,-26.216652,-4.16058,-40.509338,-11.961628,-48.739357,-17.816128,-52.099434,-28.69606,0.0,-6.013841,-37.888249,-8.267978,-25.262742,2.301475,-8.798519,12.38696,8.482049,19.438277,1.183348,298.274191,-116.790796,133.402184
67,0.137901,0.536513,0.194756,0.737109,0.0,-61.833915,-30.337303,-86.205906,-21.768562,-84.323776,-11.647201,-68.853847,-1.075058,-47.182148,0.0,26.880806,31.088306,63.402334,48.280794,79.598516,60.370006,89.276436,67.557606,92.932813,0.0,-2.544159,-27.52937,-2.20348,-41.633503,-10.736687,-49.106038,-17.416054,-51.615338,-27.793911,0.0,-7.93084,-38.306424,-8.710643,-25.40328,1.540975,-8.789683,11.037164,8.608792,18.647346,2.713428,298.672707,-115.203861,134.001296
68,0.396561,0.486012,-0.511586,2.161345,0.0,-61.985516,-30.351151,-86.447296,-21.710884,-84.520729,-11.607971,-69.067783,-1.139351,-47.412918,0.0,26.750007,31.06872,63.075687,48.393539,79.083667,60.543241,88.914826,67.737263,92.817427,0.0,1.21669,-27.246872,0.854622,-40.831157,-9.085441,-47.675457,-16.235561,-49.631675,-25.578907,0.0,-9.990828,-38.509132,-10.211079,-25.655351,-0.473601,-8.940207,9.126278,8.545145,17.713426,4.698744,299.020324,-114.126692,136.024246
69,0.610794,0.384841,-1.209755,3.827976,0.0,-62.235294,-30.403999,-86.788387,-21.711548,-84.872143,-11.588539,-69.533936,-1.183937,-47.7285,0.0,26.519357,31.052084,62.673828,48.517991,78.477636,60.71902,88.483796,67.850328,92.658284,0.0,6.774639,-26.918609,4.800282,-39.922428,-6.001281,-45.874454,-13.448387,-46.720493,-21.804817,0.0,-12.31084,-38.531368,-13.397586,-25.417588,-3.141151,-8.537507,6.770259,9.075266,16.447611,7.099016,299.006659,-113.546969,139.453716
70,0.923424,0.324709,-1.908085,3.911468,0.0,-62.691639,-30.348931,-87.033348,-21.764328,-85.246662,-11.766564,-70.136833,-1.517258,-48.321568,0.0,25.974211,31.058654,62.134067,48.592165,77.714869,60.796849,87.851347,67.871187,92.437365,0.0,15.228814,-25.102443,10.600159,-36.58636,-0.714386,-41.268905,-8.615306,-41.071941,-17.321823,0.0,-13.358781,-37.155013,-12.434865,-23.392297,-1.384814,-6.153509,8.231583,11.457647,18.062039,10.062218,298.670957,-113.415276,142.704773
71,1.19506,0.130651,-2.320461,6.066688,0.0,-63.408565,-30.43428,-87.639736,-21.858924,-85.926464,-11.941886,-71.156673,-1.89228,-49.409214,0.0,25.222932,31.167952,61.630913,48.706033,77.005123,60.932985,87.301448,67.977447,92.326166,0.0,24.361256,-20.685436,18.509651,-32.058094,3.07885,-36.547165,-4.903953,-36.24218,-12.643398,0.0,-12.340233,-35.823544,-11.219766,-21.659957,0.243074,-4.146077,9.572388,13.4855,19.490764,13.58155,297.952218,-113.411465,147.922071
72,1.612359,-0.172012,-1.288147,8.493917,0.0,-64.139431,-30.769432,-88.55571,-22.312409,-87.032158,-12.501114,-72.533776,-2.601128,-50.840413,0.0,24.281991,31.368901,61.140528,48.899818,76.06995,61.140899,86.866948,68.180544,92.497857,0.0,33.119557,-15.562797,26.725571,-26.530369,8.213825,-31.238148,-0.081527,-31.318462,-7.026146,0.0,-13.331302,-33.527812,-10.557387,-19.960339,2.519899,-3.074837,11.600581,14.033584,20.861266,17.822234,296.67627,-112.071287,155.312052
73,1.654907,-0.391423,-1.185425,8.823369,0.0,-64.879166,-31.055901,-89.458546,-22.844032,-88.251629,-13.226738,-73.992954,-3.488411,-52.194294,0.0,23.175522,31.298357,60.589269,48.773488,75.202838,61.050323,86.445636,68.167045,92.539735,0.0,43.375695,-9.846119,33.553414,-20.944587,14.255059,-25.777187,5.138432,-25.983249,-1.538314,0.0,-10.483442,-28.244522,-6.365801,-13.784514,6.227973,3.284072,15.867966,20.141119,25.110323,22.08343,294.918393,-110.650423,162.768967
74,1.442711,-0.572797,0.310044,9.912793,0.0,-65.23993,-31.65168,-90.255638,-23.790299,-89.282524,-14.436081,-75.27562,-4.75264,-53.484547,0.0,22.213735,31.385968,60.008532,48.646369,74.120501,60.811065,85.996501,67.930899,92.562114,0.0,52.784134,-3.691097,43.074325,-15.161659,22.240345,-20.776715,10.309799,-21.90802,3.136539,0.0,-7.485916,-22.715982,-0.013313,-8.224315,12.774357,8.718714,21.342523,25.543651,30.075687,25.791642,293.101884,-108.074878,171.438048
75,0.991745,-0.726605,2.952873,10.902159,0.0,-65.439606,-32.267807,-90.972885,-24.587838,-90.124821,-15.348725,-76.31575,-5.695885,-54.605507,0.0,21.440311,31.34546,59.140827,48.681777,73.057579,60.917597,85.381714,68.114224,92.607538,0.0,58.076157,0.727329,49.190563,-11.156239,30.113777,-17.809742,18.004509,-20.474213,7.786263,0.0,-4.248577,-14.033504,10.865985,0.494164,21.792363,16.275,28.739333,31.592239,36.029216,28.683907,291.260021,-103.221485,181.224949
76,0.576713,-1.001098,4.74876,13.309968,0.0,-65.400181,-32.502617,-91.465896,-25.065696,-90.668152,-15.970001,-76.998287,-6.346756,-55.309959,0.0,21.050358,31.357909,58.421411,48.705341,72.192074,60.90374,85.024241,68.064602,92.496696,0.0,61.748417,5.329777,52.628632,-5.798836,38.881943,-12.615967,26.199051,-15.894596,13.837303,0.0,-1.406304,-3.7287,19.361767,12.088742,29.481413,27.531063,35.753464,41.594398,42.930331,30.72524,289.213192,-97.008105,193.489186
77,0.009407,-0.615305,5.160588,13.11764,0.0,-64.506386,-32.965347,-91.310623,-25.93071,-91.047695,-17.052566,-77.638241,-7.404533,-55.790989,0.0,14.873377,30.856051,57.30416,47.938351,71.27971,60.116669,83.711019,67.489643,91.745551,0.0,65.342857,7.618846,58.187141,-3.292855,48.951324,-9.987031,36.056568,-13.137898,21.071582,0.0,3.60121,5.41351,30.997694,22.882257,39.209622,38.526551,45.594614,51.552554,51.958476,31.533119,287.819313,-91.049045,205.828252
78,-0.555519,-0.911758,6.168228,14.229938,0.0,-59.941532,-32.922386,-91.203277,-26.452743,-91.363048,-17.972992,-78.165447,-8.399299,-56.279091,0.0,12.70106,30.801192,54.630294,47.247933,70.103329,59.095206,82.963556,66.583173,91.115932,0.0,66.062954,9.947479,64.707584,-0.876755,57.671001,-8.190308,43.889339,-12.194069,25.949878,0.0,5.29017,11.917014,40.3637,29.123025,49.411506,43.705027,54.733169,55.051653,59.260289,31.484974,286.379576,-84.373443,219.530211
79,-0.059532,-0.92491,7.49501,13.673937,0.0,-59.570148,-30.752724,-90.188873,-25.678047,-92.486584,-18.401665,-80.849625,-9.755081,-58.677956,0.0,7.743255,29.99099,43.825577,46.525428,61.781078,58.585432,79.991188,66.258131,91.644985,0.0,65.484501,13.943916,68.469624,3.44783,63.636223,-4.035919,50.860909,-8.960895,31.126499,0.0,7.361884,21.490835,49.183758,39.783234,57.62872,53.654612,65.457338,63.006823,69.715511,31.743753,285.120174,-76.560122,232.869656
80,-0.283127,-0.426176,4.528015,12.494924,0.0,-59.101513,-28.725403,-87.86388,-24.757965,-92.002876,-18.53643,-82.059219,-10.676124,-60.2173,0.0,1.632162,30.126741,35.764739,46.021705,54.484142,57.761693,75.605907,65.292835,91.290994,0.0,68.06963,18.131619,75.52462,7.677773,70.804505,-0.059772,56.887482,-5.47903,37.160763,0.0,9.743807,26.283124,54.360258,45.462864,65.221575,59.421026,74.688111,68.072963,78.99976,31.692112,284.542345,-71.800621,245.212927
81,-0.539818,-0.0587,3.295464,9.635769,0.0,-58.7681,-28.129234,-83.95681,-24.77156,-88.719509,-19.167045,-80.210243,-11.785492,-60.114406,0.0,-3.653117,30.427268,32.352449,45.56469,50.506032,56.928372,71.734935,64.283228,89.331715,0.0,70.396694,20.228016,82.296627,9.407432,78.699337,1.041034,63.787983,-5.173165,41.783855,0.0,10.2037,28.134006,60.075432,46.481017,72.523105,59.680822,82.440134,67.716922,85.97169,31.316682,284.599566,-68.340769,254.964617
82,-1.2117,3.470947,3.188953,7.84124,0.0,-59.167299,-29.250063,-72.945459,-27.125284,-76.810804,-22.528593,-70.839197,-16.034288,-60.036089,0.0,1.544193,27.702198,29.303547,41.233455,45.497327,51.331142,65.661405,57.898706,82.666783,0.0,71.567299,24.139687,84.877442,13.104046,82.152466,3.813446,66.528614,-3.868915,43.204365,0.0,10.019363,30.497998,62.414105,48.348041,76.81755,60.943174,86.906097,68.484381,90.660671,30.288214,288.259083,-64.968584,262.994427
83,-1.551888,7.673712,3.4235,5.801068,0.0,-63.037943,-33.103117,-54.414979,-32.832601,-56.451593,-29.465532,-54.146272,-24.081327,-59.992864,0.0,7.273679,21.207141,27.889536,32.326402,39.42305,40.527042,55.98204,45.917692,70.665874,0.0,71.498863,26.376034,87.030144,15.432038,85.341545,5.807007,69.647232,-2.650326,45.899437,0.0,9.316742,32.165963,64.34572,50.100184,79.645385,62.526813,90.240978,70.050792,93.948176,28.950994,296.173387,-61.330416,269.036087
84,-3.544418,9.258165,1.870651,4.014247,0.0,-59.290232,-37.678488,-36.162912,-37.642382,-33.159605,-33.910578,-32.360727,-28.035044,-50.048418,0.0,14.594043,17.309381,34.218842,23.600402,39.720329,27.672027,47.153448,30.05968,55.216662,0.0,71.697144,26.483117,88.850739,15.601559,88.610894,5.691823,73.005822,-3.137992,48.543045,0.0,7.839857,29.927164,65.065062,47.263049,81.693967,59.463226,90.883256,67.180434,93.581551,25.767574,305.666914,-59.098767,273.285696
85,-7.682007,0.889761,3.200192,2.93843,0.0,-45.521513,-34.887205,-11.397337,-36.833708,-6.114217,-35.426519,-8.842191,-31.83716,-42.264982,0.0,14.402629,14.987505,39.895386,22.645791,45.339629,27.367314,49.057658,30.490143,54.035859,0.0,70.708134,27.535389,88.825687,17.190731,89.71162,7.220856,74.573879,-2.086109,50.645542,0.0,5.703194,29.678075,63.577001,46.471248,80.297432,58.41153,90.041252,66.382891,93.352704,18.584112,306.789693,-55.40003,276.457144
86,-8.874641,0.623902,2.941498,2.329472,0.0,-29.107401,-29.208716,12.948011,-33.822584,19.478559,-35.600447,12.07517,-35.141859,-38.664511,0.0,13.455044,12.767886,41.45336,21.715422,48.149766,27.05456,50.937476,30.989432,54.647941,0.0,69.585376,28.03894,89.171848,18.28054,90.128643,8.487831,75.322277,-1.058293,52.212856,0.0,3.857413,29.733096,61.866898,46.506632,78.714202,58.37721,89.109908,66.343729,92.342406,10.257231,307.581615,-51.910772,278.954636
87,-7.73719,-2.16253,2.594616,1.647674,0.0,-13.63852,-21.865139,30.29734,-28.272572,37.039901,-32.531617,26.929802,-34.798462,-25.825356,0.0,8.287708,13.585016,42.082029,24.841882,51.394855,31.903844,55.070462,37.155964,58.231219,0.0,68.744133,28.146148,89.366043,18.827362,90.33213,9.204242,75.817817,-0.383972,53.422599,0.0,3.321493,29.959398,60.285816,46.931339,76.863727,58.875214,87.970119,66.915402,91.494647,3.142422,305.559935,-48.693775,280.74316
88,-3.535538,-5.624784,1.936969,1.563916,0.0,-1.67862,-16.632534,35.810898,-24.147595,41.49646,-29.962383,29.798424,-33.703915,-25.050362,0.0,-1.389421,18.342923,43.794813,32.956788,56.033213,42.186252,61.830342,48.93567,68.694333,0.0,68.732609,28.18499,89.319088,19.216954,90.388012,9.79279,76.408825,0.278687,54.33704,0.0,2.970862,29.98043,58.57654,47.082528,74.864162,59.069678,86.354419,67.086599,90.410359,0.200237,300.043359,-46.163453,282.415284
89,-6.09058,-5.996224,1.279061,1.545489,0.0,12.836346,-8.932594,46.763912,-18.083771,49.337322,-25.879395,34.900005,-31.511639,-19.484905,0.0,-9.219658,20.016198,46.194273,39.857013,60.846151,53.403868,69.380046,63.50505,78.548204,0.0,68.662914,28.004837,89.167408,19.231453,90.040935,9.956119,76.35902,0.569,54.430858,0.0,2.572708,30.149515,57.468676,47.291677,73.407297,59.249113,85.005445,67.05413,89.239115,-5.445671,294.118376,-44.43972,284.032014
90,3.782547,2.064872,0.825565,1.602214,0.0,8.84547,-13.217068,42.497715,-22.874062,45.232876,-30.237728,30.50449,-35.185787,-25.154411,0.0,-7.731176,19.822932,46.24597,39.047342,59.931739,52.231537,68.060822,62.223173,76.811004,0.0,68.858757,27.631268,88.692513,18.771114,89.088616,9.551628,75.374291,0.446182,53.688744,0.0,2.438054,29.954816,57.039028,47.317352,72.685582,59.40786,83.973347,67.12744,88.187035,-1.398754,296.218029,-43.349785,285.669009
91,0.749222,3.361075,0.600483,1.110074,0.0,9.824192,-14.967499,43.95013,-24.568806,45.147319,-30.962036,31.399097,-34.602299,-17.995812,0.0,-9.294549,17.939656,45.552266,37.107008,57.498773,50.497671,64.919023,60.336365,71.66076,0.0,69.117954,27.387714,88.266758,18.345383,88.127049,9.030178,74.304554,-0.019089,52.987232,0.0,2.879286,29.922397,56.987998,47.363616,72.505852,59.468438,83.475504,67.094775,87.565493,-0.512666,299.579638,-42.612436,286.779617
92,0.885841,1.431918,0.199242,0.837953,0.0,11.564083,-15.945213,43.209629,-25.759026,44.453785,-31.44912,30.089527,-33.806614,-22.213097,0.0,-8.392091,16.946375,45.106428,35.794688,56.802339,48.935127,64.124814,58.715626,70.982481,0.0,69.32127,27.179031,87.851795,18.035969,87.571094,8.691261,73.676365,-0.282921,52.507587,0.0,2.836963,29.841517,56.794683,47.29516,72.358244,59.315359,83.063493,66.771832,86.866565,0.364145,300.92196,-42.422224,287.527974
93,-2.797371,0.946399,-0.02924,0.437749,0.0,16.618481,-12.710632,46.640247,-22.592617,48.528523,-28.214859,33.46027,-30.417538,-16.307247,0.0,-6.483954,15.350374,43.85245,34.213656,55.633429,47.620115,63.475299,57.439344,68.746153,0.0,69.251747,26.839199,87.485985,17.618157,87.084068,8.295685,73.142578,-0.542622,52.260201,0.0,2.93191,29.899191,56.754804,47.413547,72.467208,59.408219,82.797595,66.750047,86.608213,-2.519388,301.71552,-42.537626,287.812884
94,0.393551,-0.561867,-0.364826,0.361462,0.0,16.937851,-12.472721,45.059738,-22.771122,47.686409,-28.720345,32.390121,-31.146915,-20.236439,0.0,-4.946529,14.840884,43.353927,33.710538,56.553003,47.171202,64.39664,57.152303,69.960525,0.0,69.348163,26.436996,87.1833,17.133098,86.73872,7.869655,72.809269,-0.766182,52.118397,0.0,3.092819,29.590118,56.795139,47.255664,72.448795,59.333229,82.451966,66.703018,86.400349,-2.269987,300.917368,-43.046602,287.938061
95,0.62265,0.678921,-0.448689,0.012634,0.0,16.147133,-13.155041,44.911629,-23.568077,46.96154,-29.460697,31.421929,-31.81382,-19.252327,0.0,-6.896224,14.293726,42.010732,33.324919,55.383624,46.998634,63.115158,57.087577,67.838645,0.0,69.245613,26.007981,87.031197,16.543694,86.318871,7.210762,72.483239,-1.425979,51.82592,0.0,3.484342,29.45018,57.076993,47.126038,72.814407,59.219745,82.786629,66.537687,86.413885,-1.860077,301.295469,-43.708031,287.649875
96,-0.183792,1.530966,-0.703319,0.082376,0.0,15.930084,-12.464516,44.095024,-23.011528,46.721832,-29.067329,30.774536,-31.454281,-23.063942,0.0,-8.116672,13.099584,38.87144,31.94308,54.013036,45.58755,61.922658,55.831388,67.120376,0.0,69.182911,25.680771,86.962612,16.195724,86.215633,6.858925,72.620853,-1.764176,51.876468,0.0,3.738369,29.235522,57.220611,46.907416,72.776886,59.081262,82.755419,66.489385,86.543585,-2.312605,302.483257,-44.680086,287.389073
97,0.188095,1.88934,-0.868012,0.048931,0.0,15.611847,-13.323246,43.579674,-23.422462,46.130058,-29.022812,30.552498,-30.915481,-26.258205,0.0,-10.536905,12.200486,36.348219,31.167681,51.634052,45.002169,59.738337,55.412041,65.324798,0.0,69.149609,25.544838,87.007107,16.032807,86.194256,6.672478,72.815838,-1.962352,52.107479,0.0,4.114837,29.206289,57.39124,46.82525,72.728523,59.016474,82.869472,66.452619,86.62186,-2.405319,304.080996,-45.828907,287.146403
98,0.722901,2.938146,-0.800525,-0.004212,0.0,13.833709,-13.990975,42.234535,-23.628617,44.667549,-28.800076,30.026435,-30.3433,-27.951863,0.0,-14.36459,11.138231,32.245658,29.761649,48.995988,43.556123,57.077623,54.099932,62.555922,0.0,69.123207,25.256321,87.177543,15.689163,86.210083,6.300819,73.13507,-2.344677,52.361755,0.0,4.663922,29.02425,57.655359,46.567246,72.765957,58.799125,83.144176,66.279039,86.735135,-1.952951,306.762251,-46.899965,286.8853
99,3.626312,1.128329,-0.582619,-0.003902,0.0,6.086952,-17.818543,36.714821,-26.926598,38.817032,-31.751164,25.65422,-33.213604,-27.945374,0.0,-17.173185,11.37629,30.634169,29.73722,47.40027,43.475982,55.270879,54.111071,61.254531,0.0,68.917282,25.217903,87.209953,15.606937,86.01741,6.136745,73.213875,-2.608887,52.509315,0.0,5.178093,29.102005,57.908054,46.597416,72.944427,58.864234,83.512702,66.34815,86.794489,1.447106,307.683519,-47.708839,286.674337
100,-6.748684,3.578028,-0.635181,0.100974,0.0,15.491421,-10.006188,44.375645,-18.62946,45.780933,-23.873394,32.500248,-26.144142,-16.695076,0.0,-20.741,7.249659,23.499861,25.160305,43.624308,39.414214,52.694282,50.672747,57.995926,0.0,68.672161,25.218269,87.086322,15.618438,85.918911,6.125083,73.201274,-2.679051,52.543407,0.0,5.383302,29.200004,57.941597,46.656252,72.810812,58.908559,83.62389,66.347199,86.754611,-5.475225,311.107591,-48.517667,286.621355
101,3.671997,-2.295929,-0.466015,-0.013153,0.0,8.375439,-14.199738,38.204029,-22.977654,40.293972,-28.347061,27.246723,-31.032635,-23.687267,0.0,-18.52174,9.365611,25.914845,27.318864,45.513709,41.364748,54.488613,52.705211,60.959105,0.0,68.584236,25.371059,86.998718,15.764717,85.762436,6.178436,72.981308,-2.791455,52.476608,0.0,5.72078,29.406386,58.088057,46.808467,72.774787,59.030035,83.641131,66.429932,86.75839,-1.932014,308.705235,-49.112468,286.501775
102,-2.076496,-0.611305,-0.266384,0.240271,0.0,8.727127,-12.965195,40.689766,-22.220902,41.158562,-28.232666,27.753181,-31.5588,-20.272248,0.0,-17.526545,9.256091,28.106367,27.801209,46.881061,42.255684,54.816977,53.537138,59.928738,0.0,68.468433,25.312625,86.860828,15.75983,85.541576,6.169807,72.617809,-2.847588,52.211597,0.0,5.809923,29.302077,58.008967,46.696365,72.503184,58.969815,83.197985,66.425708,86.567742,-4.12064,307.988272,-49.490982,286.636388
103,-2.509403,-2.493308,-0.213158,0.311518,0.0,10.083561,-11.62341,43.006221,-21.323479,42.675624,-27.570866,28.197269,-30.942765,-17.926003,0.0,-12.133277,10.462458,32.762545,28.964253,50.179928,43.320804,57.915995,54.702183,62.637395,0.0,68.348362,25.491886,86.68317,16.012894,85.323978,6.421566,72.181652,-2.630562,51.952206,0.0,5.778579,29.366607,57.982896,46.76071,72.189678,59.0566,82.812058,66.556521,86.325582,-6.708566,305.391029,-49.782663,286.843971
104,-3.330002,-0.127972,-0.122772,0.459065,0.0,13.298183,-8.487866,47.024654,-18.735867,46.729694,-25.970089,30.382793,-30.527802,-19.536518,0.0,-13.056186,10.366536,32.915094,29.140649,50.250917,43.660851,58.410184,55.079663,62.817694,0.0,68.255321,25.477501,86.472255,16.093059,85.166439,6.554969,71.777996,-2.454438,51.641246,0.0,5.631465,29.185233,57.722198,46.576138,71.817779,58.948339,82.302765,66.571341,85.999107,-10.108852,305.180737,-49.975719,287.220716
105,2.090526,-3.882125,-0.043946,0.42877,0.0,7.583245,-12.15644,43.143746,-22.936237,43.507645,-30.577549,26.958481,-35.497089,-24.800422,0.0,-10.003789,14.27919,40.188638,33.529387,54.403064,47.745295,61.770123,58.675797,66.441813,0.0,68.265599,25.697628,86.425404,16.439324,85.033322,6.91119,71.529957,-2.150356,51.467892,0.0,5.607185,28.999797,57.414261,46.353416,71.510621,58.779353,81.923778,66.521249,85.789119,-8.074854,301.231026,-50.076193,287.5819
106,-3.160995,0.130059,-0.056579,0.532227,0.0,10.968132,-9.237339,47.637108,-20.189221,47.67279,-27.736519,30.332336,-32.446747,-17.45771,0.0,-6.001424,14.45114,40.542974,33.158205,54.679199,46.956767,62.300633,57.724532,65.907338,0.0,68.222408,25.664417,86.496631,16.475166,85.062687,7.004551,71.395832,-1.967446,51.20264,0.0,5.451524,28.858141,57.045401,46.141254,71.294235,58.537872,81.720854,66.263157,85.546835,-11.289865,301.300434,-50.186788,288.053476
107,-0.340107,0.077768,0.034836,0.327636,0.0,11.818554,-8.303661,46.521664,-19.445675,47.589306,-27.011971,30.214886,-31.749848,-17.55534,0.0,-3.764898,14.434604,40.046378,32.2123,54.719955,45.37093,62.918446,56.151762,67.492929,0.0,68.190387,25.705902,86.316524,16.578449,84.966259,7.127838,71.235569,-1.821968,51.01942,0.0,5.539333,28.805912,56.692386,46.045405,71.173203,58.431697,81.643517,66.164701,85.464126,-11.6695,301.32262,-50.19148,288.32553
108,0.120186,-0.248483,0.059909,0.245494,0.0,10.038929,-8.478676,46.140392,-19.626526,47.550327,-28.044308,29.916286,-34.126728,-16.755547,0.0,-8.066531,14.632229,39.490944,32.96894,54.156729,46.529936,62.388578,57.353869,67.782488,0.0,68.140412,25.599278,86.209397,16.536129,84.956658,7.131775,71.187333,-1.779041,50.896294,0.0,5.697538,28.824364,56.426798,46.015839,71.172117,58.374406,81.730907,66.080215,85.430596,-11.591491,301.036754,-50.173748,288.533641
109,1.986053,-0.048931,0.059761,0.099098,0.0,6.821217,-10.595283,43.802433,-21.704681,45.2402,-29.811836,28.265179,-35.450867,-17.862762,0.0,-7.601982,15.061135,39.70507,33.29124,54.548078,46.720608,62.383749,57.545653,67.714489,0.0,68.169251,25.650101,86.24302,16.556248,84.941437,7.098633,71.164925,-1.872928,50.919594,0.0,5.91433,28.983358,56.420943,46.143044,71.205276,58.424226,81.811132,66.045832,85.634606,-9.655558,300.95277,-50.164107,288.597686
110,-1.398079,1.312962,0.132706,0.090834,0.0,9.988049,-10.350254,45.697415,-20.866447,47.429615,-27.888439,30.740719,-31.993343,-16.813293,0.0,-4.734491,14.733376,40.707378,32.376049,54.245526,45.37251,62.222358,55.843701,66.742327,0.0,68.179573,25.417786,86.220314,16.234234,84.96064,6.792515,71.151032,-2.102016,50.976837,0.0,6.105535,28.942134,56.585991,46.180367,71.268744,58.499241,81.744257,66.134778,85.762641,-11.111058,302.231726,-50.088822,288.654514
111,-1.734237,2.689378,0.144173,0.058997,0.0,14.684841,-8.413216,47.967945,-18.721196,50.484752,-25.700409,33.759876,-29.590107,-12.733681,0.0,-4.264409,12.19972,38.019284,29.482265,51.863776,43.001876,60.614279,53.937133,65.059259,0.0,68.114822,25.150165,86.143181,15.920883,84.806946,6.557751,71.045196,-2.216274,51.072258,0.0,6.304717,28.872195,56.698857,46.239005,71.278735,58.650393,81.662869,66.359438,85.852536,-12.894979,304.890454,-49.994333,288.682861
112,5.922386,-0.86022,0.110287,0.184979,0.0,4.193859,-14.909855,41.400707,-25.283833,44.515125,-32.27298,28.42004,-36.300282,-21.344891,0.0,-6.607998,13.841861,39.0446,31.601465,52.460334,45.196633,60.815363,56.046267,65.950811,0.0,68.038295,24.774295,86.248844,15.503791,84.767314,6.246185,71.071712,-2.36641,51.169452,0.0,6.278782,28.744582,56.847578,46.208155,71.254776,58.688271,81.562377,66.437515,85.861676,-7.024486,304.003271,-49.935939,288.840877
113,-0.067383,1.961798,0.101703,0.222154,0.0,6.017292,-15.124054,42.116283,-25.602596,44.559872,-32.131451,29.846088,-35.323986,-17.524258,0.0,-6.683086,12.452292,38.151628,30.159358,51.587912,43.858724,59.051969,54.693007,63.172549,0.0,67.845108,24.673107,86.185341,15.371727,84.574951,6.14383,70.96106,-2.419933,51.154106,0.0,6.055381,28.686326,56.894124,46.220578,71.163706,58.730878,81.385622,66.495128,85.892019,-7.144638,305.942734,-49.887005,289.040696
114,-2.866814,2.175875,0.045857,0.223721,0.0,8.551701,-13.18531,45.29678,-22.857307,48.589566,-28.24205,34.090061,-29.891132,-15.131126,0.0,-3.502471,11.621514,38.149454,28.261385,50.028022,41.126824,57.917712,51.299019,61.47997,0.0,67.633655,24.540928,86.103824,15.321716,84.45837,6.196357,70.881923,-2.278839,51.099025,0.0,5.76224,28.535446,56.87849,46.067351,71.068377,58.622235,81.233865,66.461364,85.800123,-10.048828,308.106027,-49.878524,289.251835
115,5.371102,-1.295968,0.049221,0.272715,0.0,0.20747,-17.731831,38.843204,-28.048874,42.16753,-33.95834,28.208988,-36.291024,-23.226872,0.0,-5.359257,12.685448,37.983333,29.855385,51.11825,42.899814,58.276321,53.338523,62.892695,0.0,67.460701,24.4533,86.161239,15.342384,84.412399,6.278835,70.926681,-2.158402,51.124626,0.0,5.516473,28.487169,56.671947,45.927931,70.76218,58.464351,81.018418,66.320449,85.657677,-4.708019,306.790586,-49.859596,289.505077
116,0.905113,-1.3284,0.070244,0.246903,0.0,-2.487431,-19.35268,37.334301,-29.997494,39.682354,-36.135326,26.722423,-38.773144,-23.927525,0.0,-10.706595,13.366,39.693152,31.827237,52.15793,45.334028,58.336071,55.622486,62.725253,0.0,67.408126,24.452854,86.171104,15.400051,84.37461,6.331123,70.924552,-2.131314,51.089538,0.0,5.322749,28.387269,56.488486,45.730342,70.511449,58.21898,80.857582,66.046845,85.524431,-3.833073,305.442077,-49.819519,289.731871
117,-5.140984,2.203576,0.015289,0.141112,0.0,2.353981,-14.724323,43.605297,-24.400589,46.062458,-29.752613,32.668362,-31.448284,-17.530998,0.0,-8.50875,12.523774,39.53953,30.028805,50.311852,42.964096,57.098877,52.761602,60.793182,0.0,67.393753,24.616127,86.301933,15.578316,84.344513,6.450954,70.879761,-2.087059,50.978096,0.0,5.245438,28.317565,56.415485,45.587612,70.40015,58.036322,80.833277,65.83199,85.512736,-9.003039,307.626958,-49.833212,289.854288
118,5.799877,-1.456976,0.018482,0.084758,0.0,-6.586154,-20.227729,36.514412,-30.179477,39.532082,-35.465709,25.82753,-37.14846,-31.043243,0.0,-8.1813,14.536936,40.719987,31.992876,51.403352,44.445303,58.400007,54.019816,62.891831,0.0,67.509052,24.56995,86.572666,15.514149,84.487072,6.373833,70.959286,-2.133694,50.977993,0.0,5.311585,28.166253,56.317339,45.390678,70.238278,57.84565,80.749162,65.639935,85.446701,-3.228402,306.149947,-49.83997,289.919011
119,-0.009372,-0.998208,0.151142,0.06348,0.0,-3.430802,-19.890599,36.967541,-30.741039,38.794452,-36.957127,25.548031,-39.826229,-26.783604,0.0,-11.825785,13.814851,41.092194,32.644034,52.536126,46.289973,58.793024,56.638972,63.433679,0.0,67.510529,24.359917,86.479317,15.280472,84.402443,6.150753,70.846298,-2.30817,50.758255,0.0,5.419055,28.086372,56.172015,45.297471,70.198856,57.722272,80.778628,65.446211,85.409847,-3.264478,305.131776,-49.715532,289.962528
120,-4.748772,0.957106,0.102585,-0.007991,0.0,2.719185,-15.203648,42.785259,-25.600296,44.639568,-31.35926,30.409184,-33.643444,-18.764797,0.0,-8.865469,13.046208,40.992023,31.022185,51.87993,44.14642,58.537563,54.317466,62.457529,0.0,67.480865,24.259998,86.409462,15.17942,84.322678,6.10453,70.759552,-2.260082,50.653358,0.0,5.462405,28.085977,56.090085,45.326223,70.20781,57.758001,80.845208,65.461896,85.460483,-8.037832,306.071888,-49.637529,289.937543
