takenoko1/special-research/HandMotion_SimilarSearch_自分用/NewProject/handData/test_key/d4_feature_d3/145.csv
frame,vel_0x_L,vel_0y_L,vel_0x_R,vel_0y_R,posFromWrist_0x_L,posFromWrist_1x_L,posFromWrist_2x_L,posFromWrist_3x_L,posFromWrist_4x_L,posFromWrist_5x_L,posFromWrist_6x_L,posFromWrist_7x_L,posFromWrist_8x_L,posFromWrist_9x_L,posFromWrist_0y_L,posFromWrist_1y_L,posFromWrist_2y_L,posFromWrist_3y_L,posFromWrist_4y_L,posFromWrist_5y_L,posFromWrist_6y_L,posFromWrist_7y_L,posFromWrist_8y_L,posFromWrist_9y_L,posFromWrist_0x_R,posFromWrist_1x_R,posFromWrist_2x_R,posFromWrist_3x_R,posFromWrist_4x_R,posFromWrist_5x_R,posFromWrist_6x_R,posFromWrist_7x_R,posFromWrist_8x_R,posFromWrist_9x_R,posFromWrist_0y_R,posFromWrist_1y_R,posFromWrist_2y_R,posFromWrist_3y_R,posFromWrist_4y_R,posFromWrist_5y_R,posFromWrist_6y_R,posFromWrist_7y_R,posFromWrist_8y_R,posFromWrist_9y_R,posFromBody_0x_L,posFromBody_0y_L,posFromBody_0x_R,posFromBody_0y_R
6,0.765449,-0.315236,0.13052,-0.034679,0.0,0.284546,-15.650493,34.582237,-24.369701,34.99482,-28.947029,27.505554,-29.870018,-14.694191,0.0,-21.721523,2.79528,28.083778,17.962515,41.772165,30.101313,47.456328,39.442927,52.785981,0.0,63.752083,25.295426,86.908791,16.3755,85.268601,7.037213,71.902039,-1.664634,51.96222,0.0,15.381633,30.381994,57.234753,47.244487,71.461171,58.887305,79.943615,66.072954,83.636784,4.866863,316.184343,-41.841351,285.563684
7,-1.155899,0.313791,-0.027946,-0.089118,0.0,1.539253,-14.15324,34.750191,-22.688667,35.759766,-27.289673,28.835472,-28.531059,-14.241119,0.0,-21.907552,2.949187,27.347849,18.202465,41.273753,30.292183,46.737911,39.44184,52.079198,0.0,63.604523,25.404579,86.951866,16.458652,85.328728,7.049286,71.875168,-1.734192,51.952972,0.0,15.374173,30.476076,57.354771,47.335767,71.608112,58.948512,79.969575,66.099407,83.740117,3.587843,316.577918,-41.992418,285.55435
8,-0.86467,-0.439033,0.000824,-0.010991,0.0,4.181053,-12.968605,35.714218,-21.643043,36.684403,-26.402092,29.820534,-27.874912,-11.221504,0.0,-20.863365,2.71992,27.206651,18.218187,41.651245,30.545409,47.245079,40.011253,52.598371,0.0,63.499466,25.613125,86.870613,16.641952,85.341408,7.138218,71.799888,-1.762871,51.722969,0.0,15.300986,30.507148,57.280781,47.389612,71.615262,58.990428,79.963202,66.116623,83.783169,2.601963,316.20226,-42.112804,285.606734
9,-0.628418,-0.338417,0.005642,-0.071668,0.0,5.576981,-12.186195,35.993729,-20.8484,36.835785,-25.670608,30.03241,-27.380287,-7.532947,0.0,-20.223618,2.920473,27.461186,18.487517,42.04299,30.888087,47.527859,40.432984,52.33976,0.0,63.58041,25.780906,86.735904,16.801025,85.411342,7.235664,71.737827,-1.731434,51.525959,0.0,15.268926,30.613668,57.382941,47.519881,71.717978,59.10227,79.997832,66.193453,83.80924,1.871137,315.913336,-42.20957,285.584559
10,-0.538147,0.243235,-0.002644,-0.183572,0.0,6.501709,-11.090675,36.439682,-19.91336,36.948029,-25.095417,29.994439,-27.342933,-9.054897,0.0,-20.569211,2.806642,27.455073,18.284803,41.91734,30.630699,47.184527,40.17809,51.678697,0.0,63.623154,25.812367,86.722595,16.833973,85.503937,7.276531,71.811722,-1.679123,51.582321,0.0,15.486843,30.775356,57.455733,47.746543,71.780445,59.325387,80.14812,66.377494,83.910104,1.252687,316.192741,-42.292517,285.437157
11,1.059517,-0.437391,-0.00119,-0.15072,0.0,5.343384,-12.698662,36.024926,-21.452396,36.346802,-26.297905,29.62278,-27.919967,-10.835335,0.0,-19.963056,3.299633,28.248986,18.608684,42.254066,30.813962,47.430677,40.254698,52.215914,0.0,63.68026,25.690727,86.741478,16.739559,85.556602,7.272469,71.921036,-1.588509,51.543137,0.0,15.544814,30.858793,57.210818,47.836118,71.526552,59.43618,80.105957,66.480815,84.085141,2.260317,315.776216,-42.345594,285.307303
12,0.043808,0.767286,0.106236,-0.049919,0.0,3.673119,-13.478748,35.990639,-21.908043,36.516976,-26.526111,29.633538,-28.003475,-9.05159,0.0,-20.739592,3.284047,28.216628,18.33287,42.080238,30.355823,46.962399,39.500664,51.28305,0.0,63.727787,25.443042,86.708759,16.49501,85.418712,7.109367,71.848766,-1.65255,51.546489,0.0,15.604527,30.786372,57.045908,47.799635,71.364531,59.457249,80.091285,66.544825,84.050314,2.259361,316.583281,-42.284122,285.297163
13,-0.04644,0.458262,-0.020142,-0.077793,0.0,3.558289,-13.405369,36.598938,-22.054642,36.936676,-26.733696,29.659836,-28.1189,-12.20541,0.0,-21.388206,3.087842,27.385011,18.035665,40.800634,30.044169,46.010664,39.151935,51.252076,0.0,63.781483,25.407543,87.048626,16.542183,85.426357,7.224461,71.939266,-1.49358,51.723919,0.0,15.664375,30.743146,56.991382,47.726597,71.114108,59.41595,79.932043,66.560757,83.993935,2.185163,317.07399,-42.332022,285.251817
14,-0.674652,0.319386,0.010311,-0.108866,0.0,4.104149,-12.721607,37.102455,-21.246208,37.617737,-25.94228,30.327713,-27.4025,-12.513576,0.0,-21.970723,3.071552,26.683649,17.89706,40.324427,29.864598,45.52848,38.947862,51.241405,0.0,63.77433,25.456375,87.326569,16.604656,85.287231,7.265316,71.870224,-1.472053,51.895912,0.0,15.710848,30.699452,57.140064,47.692918,71.216244,59.395535,79.916395,66.547542,83.852663,1.479732,317.42564,-42.35249,285.175215
15,0.238152,-0.400773,-0.069454,-0.051241,0.0,4.005706,-13.080105,36.762336,-21.656891,37.449531,-26.232239,29.951522,-27.429383,-16.376725,0.0,-21.462813,3.340179,26.764864,18.212481,40.379508,30.224048,45.850237,39.337927,51.311246,0.0,63.945911,25.647526,87.632274,16.84362,85.341259,7.483188,71.939083,-1.291603,51.961521,0.0,15.704093,30.708567,57.193158,47.635639,71.282008,59.286904,79.886681,66.405924,83.889257,1.675467,317.054171,-42.464361,285.153278
16,-1.626252,0.486606,-0.083622,-0.073964,0.0,5.577942,-11.720283,37.401238,-20.117466,38.57103,-24.775005,31.28357,-26.258972,-10.911071,0.0,-22.000585,2.791217,25.432055,17.917833,39.995383,30.096162,45.755524,39.344102,51.104159,0.0,64.172745,25.996307,87.895409,17.186016,85.480728,7.723961,71.999405,-1.141422,52.165741,0.0,15.76404,30.758695,57.592942,47.68163,71.620968,59.291831,79.971353,66.388362,83.785688,-0.004938,317.568315,-42.602136,285.106852
17,0.663437,-0.270097,-0.137123,-0.146979,0.0,6.003754,-12.088737,36.808434,-20.591045,37.941857,-25.159435,30.886002,-26.45002,-16.082325,0.0,-21.764389,2.684365,24.549445,18.180446,39.438247,30.519771,45.435855,39.997014,51.100578,0.0,64.299797,26.331493,88.202591,17.586044,85.860191,8.126838,72.333069,-0.75745,52.450973,0.0,15.853999,30.790806,57.752296,47.717113,71.774456,59.294796,80.017753,66.379754,83.955292,0.591196,317.305507,-42.806562,284.967162
18,0.330323,0.184955,-0.105011,-0.09964,0.0,4.959205,-12.774834,36.306678,-20.906079,37.741287,-25.195897,31.148071,-26.302231,-14.418618,0.0,-22.232507,2.569077,23.967212,18.219299,39.531181,30.625907,45.280182,40.136064,50.795815,0.0,64.657356,26.49456,88.26844,17.756778,86.174194,8.307976,72.586395,-0.542519,52.758796,0.0,15.832633,30.733291,57.878982,47.693412,72.120455,59.254646,80.164274,66.29833,83.976188,0.839236,317.494501,-42.993856,284.871561
19,0.98767,-0.524236,-0.105183,-0.134776,0.0,4.702675,-13.952568,36.788865,-22.455093,37.656922,-26.61359,30.434281,-27.399993,-21.641166,0.0,-22.098756,2.60893,24.563993,18.551973,39.378546,31.120269,45.034872,40.633092,50.227884,0.0,65.072811,26.70179,88.416309,17.987972,86.593723,8.5364,72.875599,-0.325321,52.827999,0.0,15.824308,30.822248,57.855356,47.751334,72.27115,59.261709,80.284341,66.244607,84.237293,1.725889,316.958702,-43.200056,284.725222
20,-1.104011,0.178706,-0.025131,-0.061207,0.0,6.171158,-13.5523,38.237892,-21.787583,39.430939,-25.88261,32.45684,-26.492981,-15.962139,0.0,-22.389885,2.243565,24.677132,18.307367,40.109906,30.884765,45.357085,40.404418,50.906829,0.0,65.40398,26.752876,88.39809,17.984138,86.807407,8.516155,72.968685,-0.313717,53.023006,0.0,15.752369,30.713963,57.894209,47.743813,72.383203,59.30412,80.304595,66.28756,84.144322,0.512489,317.122603,-43.334576,284.64921
21,0.855743,-1.067801,-0.1008,-0.130281,0.0,7.263016,-14.118061,38.676018,-22.805271,39.375412,-27.082866,31.978157,-27.59983,-21.530719,0.0,-21.09809,2.562642,26.438192,18.675449,41.33107,31.295788,46.338016,40.844711,51.383617,0.0,65.694912,26.855519,88.602322,18.094002,87.181881,8.643002,73.299099,-0.181903,53.264729,0.0,15.770203,30.681877,57.76625,47.739342,72.350784,59.302329,80.321391,66.264317,84.236182,1.235784,316.027629,-43.567824,284.491756
22,-1.160042,0.679415,-0.027443,-0.081153,0.0,8.122536,-12.951084,40.307786,-21.590709,40.952454,-26.049327,33.489625,-26.777252,-15.645584,0.0,-21.965461,1.931306,26.800037,17.914029,41.45667,30.501517,46.287504,39.909786,51.082954,0.0,66.095318,26.971322,88.762494,18.22482,87.44212,8.731327,73.390698,-0.136528,53.385487,0.0,15.68805,30.775874,57.726718,47.820198,72.535245,59.348284,80.342856,66.262021,84.137938,-0.057187,316.668231,-43.728196,284.37179
23,1.026307,-0.704053,0.031643,-0.196132,0.0,8.334846,-13.603032,39.926307,-22.521412,39.904289,-27.064694,31.986808,-27.598515,-16.122597,0.0,-20.187741,1.976371,28.553032,17.52573,42.295105,29.932228,47.284736,39.452202,51.736434,0.0,66.337166,26.93232,88.828308,18.186402,87.540024,8.723008,73.526001,-0.092937,53.595726,0.0,15.748294,30.907984,57.728114,48.012786,72.647125,59.550455,80.602171,66.446111,84.352829,0.841256,315.920005,-43.824417,284.131485
24,-0.452935,1.758466,0.029354,-0.077669,0.0,7.180184,-13.541439,39.44719,-22.056461,39.799096,-26.411419,32.467873,-26.770431,-7.785965,0.0,-22.0446,0.560669,26.965417,15.689434,41.204062,27.980409,46.357615,37.403089,51.2656,0.0,66.491307,27.079388,88.824841,18.349457,87.603688,8.879837,73.593785,0.049302,53.61105,0.0,15.658706,30.744752,57.558621,47.852753,72.517226,59.421828,80.638109,66.365057,84.395782,0.278577,317.643631,-43.904807,284.018976
25,2.594582,-0.059428,0.195157,-0.265292,0.0,4.380684,-16.695328,37.082909,-24.916237,36.858696,-28.599838,29.689522,-28.312157,-9.567284,0.0,-19.960166,0.841238,26.962329,14.934707,40.014081,26.727406,45.088224,36.27765,50.220683,0.0,66.62107,27.11515,88.608238,18.478591,87.578063,9.130302,73.655914,0.450634,53.757339,0.0,15.694941,30.881084,57.517767,47.986813,72.468455,59.537487,80.65493,66.466624,84.36482,2.776514,317.556622,-43.806295,283.726103
26,-2.927399,-5.768526,0.411369,-0.953328,0.0,7.575692,-12.655334,40.48153,-21.061752,39.948647,-26.094944,30.807221,-27.770817,-7.640716,0.0,-17.486618,4.151937,30.107241,19.04973,43.529718,31.059123,49.265466,40.679566,55.22637,0.0,66.218399,26.863392,88.535019,18.279728,87.647713,9.187855,73.982735,0.802666,54.217666,0.0,15.749801,31.015688,57.466996,48.215772,72.228321,59.810721,80.83991,66.739203,84.259388,-0.225655,311.760398,-43.469696,282.745077
27,4.965981,-1.554246,0.711101,-2.539881,0.0,-4.085816,-18.887238,34.127403,-27.012612,34.955177,-31.553032,26.455169,-32.681488,-11.558418,0.0,-3.197794,4.494961,32.539849,15.788185,42.903692,24.51032,46.752608,31.739947,50.708438,0.0,65.373814,27.074307,87.804394,18.326832,86.715832,9.025349,73.288136,0.321488,52.68488,0.0,15.270754,29.979887,58.27274,47.174647,73.26469,59.022674,81.947082,66.352473,84.795802,4.685166,310.190489,-42.813755,280.189533
28,4.987564,0.391646,1.029923,-5.326133,0.0,-18.565167,-26.37537,23.131279,-31.523678,28.186798,-33.242535,22.557312,-31.887486,-10.17041,0.0,7.364984,3.85903,33.891948,9.464325,40.694077,12.901551,40.044414,15.342853,39.131347,0.0,64.782955,27.182957,85.687054,18.285667,84.115185,8.742302,70.344532,-0.464745,49.584148,0.0,15.003114,28.497506,59.504154,45.566876,75.923379,57.844216,84.743128,66.076695,86.535829,9.624842,310.579684,-41.83172,274.860949
29,6.750847,-5.467443,2.275143,-8.07441,0.0,-27.18552,-33.175999,6.859405,-35.613476,15.33625,-34.5844,12.932029,-30.304665,-12.68779,0.0,21.999461,4.866747,35.671484,5.546027,38.209031,4.471224,33.89385,3.229398,30.054716,0.0,62.958137,25.488784,81.07933,16.182369,77.25167,6.149883,62.289871,-3.62922,41.920051,0.0,16.80246,25.249929,59.581836,41.740685,79.296075,54.262199,88.078441,63.400321,86.267215,16.284434,305.136113,-39.647832,266.810411
30,2.383529,-10.796516,2.263801,-15.054504,0.0,-34.567165,-31.982849,-5.193969,-30.23386,6.120118,-26.274868,7.454041,-20.164398,-9.115287,0.0,30.558377,7.523867,34.909051,6.78017,37.652116,4.589574,33.22324,2.048545,28.82093,0.0,59.826256,29.588608,75.445404,19.026455,68.088547,6.790627,52.893768,-6.22871,33.895168,0.0,23.973733,23.13231,68.366426,36.745583,86.462446,48.073338,92.904631,57.360526,87.350688,18.577789,294.435595,-37.474205,251.851905
31,15.866112,-21.385502,-2.523399,-26.742423,0.0,-49.225056,-40.878296,-32.155517,-35.108047,-15.515144,-26.216732,-7.937347,-15.331569,-11.452446,0.0,40.819628,9.406675,43.048719,7.205372,45.165153,4.545757,39.563329,1.775448,33.621753,0.0,58.441864,31.454201,70.664131,20.247242,61.406021,6.830429,43.510437,-7.537342,25.35379,0.0,28.934291,19.578906,68.885474,32.419657,92.017277,44.05572,93.011446,54.3012,84.770693,34.219969,273.307092,-40.221536,225.366481
32,10.817665,-33.970173,-4.763901,-35.249723,0.0,-47.072971,-39.868091,-50.459587,-31.027553,-28.052627,-19.409271,-16.90187,-6.439773,-11.110244,0.0,41.13968,12.876035,49.863976,13.960693,54.233509,14.858322,50.082968,15.021084,46.959187,0.0,57.969109,32.788479,65.543907,22.295208,53.489994,9.016766,35.795128,-5.406693,20.656013,0.0,29.969513,15.175047,61.533853,27.820845,85.344164,40.153632,87.563535,51.597527,80.718601,44.678003,239.954979,-45.345068,190.734818
33,10.556706,-41.650783,-6.674332,-42.618201,0.0,-44.193592,-35.781224,-61.381771,-26.41919,-37.448273,-14.649971,-24.175736,-1.997978,-14.369545,0.0,40.785752,14.543664,52.144345,21.2095,60.655639,27.837206,60.814658,33.252344,63.401309,0.0,59.888947,34.659542,60.392853,24.112725,46.171257,10.763775,29.289872,-3.57859,16.063637,0.0,26.384697,8.883358,51.32107,20.96976,74.147115,33.8629,77.89996,46.630212,73.230072,54.874798,199.329151,-52.379311,149.141572
34,11.82653,-44.629431,-9.239628,-47.637745,0.0,-49.356342,-32.854168,-66.799495,-23.053116,-42.638946,-11.414909,-27.307365,0.392395,-16.018226,0.0,37.550821,13.528357,51.586269,24.784936,65.605465,36.354261,70.048395,46.459262,76.529027,0.0,60.639863,39.079468,62.068371,28.641953,45.204163,15.462204,28.853634,1.359101,17.814389,0.0,21.741937,1.355737,30.928176,13.336724,57.60005,27.209683,63.941286,41.661799,64.212401,66.160743,155.941548,-62.159524,102.745655
35,16.112686,-44.623188,-9.691263,-45.079334,0.0,-53.07835,-35.344173,-77.857074,-27.344719,-51.546959,-16.875801,-34.642593,-5.672218,-23.619461,0.0,34.68173,8.307706,47.171226,21.452383,65.688001,35.271888,71.622876,47.729616,79.811753,0.0,62.014387,37.178487,64.749762,28.272872,47.269095,17.448012,30.466336,6.674017,20.536941,0.0,10.214769,-7.454823,1.70475,6.574913,37.601406,22.917409,48.722733,39.862175,54.010483,81.559644,112.974812,-72.564572,59.322773
36,6.281754,-33.382588,-5.341243,-37.184724,0.0,-54.513302,-33.449902,-76.344646,-27.26564,-51.610611,-18.661583,-35.058952,-8.978439,-24.786118,0.0,24.71932,0.113229,27.062872,13.912739,47.879553,28.650039,56.075827,42.177322,67.385613,0.0,61.457545,37.018835,66.008211,29.661377,47.212217,20.641714,32.340191,11.817987,24.210556,0.0,-0.622132,-14.81227,-19.29173,-0.996769,19.664013,16.319748,38.113074,34.961004,47.464204,86.934729,81.390955,-78.812484,23.93678
37,4.616707,-28.650456,-3.759962,-31.693582,0.0,-58.413288,-32.485783,-72.038647,-27.570328,-52.773629,-20.664437,-37.221726,-12.684563,-28.547241,0.0,11.83798,-5.710187,11.394273,7.260947,33.290271,21.593067,43.329208,35.363282,55.431486,0.0,59.694711,36.266618,67.986511,29.873788,49.934222,22.385307,34.304683,15.443,26.859723,0.0,-8.354337,-20.122054,-33.179429,-7.080105,12.956999,10.656701,32.371233,30.353381,41.843252,90.373095,54.111676,-83.750787,-6.385625
38,1.461742,-29.300718,-2.481915,-26.032177,0.0,-57.122909,-32.868278,-73.820457,-30.370834,-53.182205,-25.552528,-39.659592,-19.295288,-32.469841,0.0,2.90979,-10.651243,-5.368297,2.685525,21.109316,17.672603,33.075898,32.280528,45.796384,0.0,54.482717,34.51066,71.164112,30.474958,54.432449,25.327263,37.94632,20.866928,31.674528,0.0,-13.156172,-22.981635,-44.757409,-10.380213,9.401454,7.751406,29.093151,27.887767,38.333143,90.268513,25.800317,-87.799026,-31.428443
39,0.050514,-24.207101,-1.592537,-14.110457,0.0,-54.49308,-33.145774,-79.58171,-33.653595,-54.575248,-31.767814,-44.114822,-28.149078,-39.313797,0.0,-4.341319,-13.520796,-20.682967,0.22011,9.821478,15.456938,24.022146,30.436766,37.484131,0.0,52.723188,31.579382,70.975159,30.761438,65.286609,28.731011,40.363369,27.187717,35.178251,0.0,-15.421739,-23.368934,-50.003968,-10.576932,1.626225,7.783003,25.980998,28.006921,35.88427,88.737138,2.528318,-90.973452,-44.603798
40,-2.349586,-18.927118,0.437697,-8.015869,0.0,-53.208481,-33.648308,-80.861275,-36.6446,-58.794365,-37.059837,-46.883995,-35.464966,-44.389481,0.0,-10.386376,-15.777601,-32.012525,-2.022999,-2.751778,12.863938,14.656503,27.692108,27.981655,0.0,52.624462,29.823174,71.635225,31.26121,76.145273,31.013677,44.8675,30.641859,39.072134,0.0,-17.932137,-23.192434,-52.717009,-9.824305,-0.559374,8.797875,24.516485,29.02825,35.163473,85.042488,-15.790651,-91.880819,-52.011518
41,-1.503136,-14.547317,3.44308,1.779051,0.0,-53.049888,-33.950203,-83.051101,-38.598358,-63.20755,-40.970855,-50.128807,-41.386253,-49.318519,0.0,-13.475977,-18.579822,-44.191034,-5.648582,-13.255819,8.787516,7.971312,23.900787,21.043176,0.0,49.064842,28.834606,71.122427,31.042554,76.812556,31.188555,43.266575,30.852694,37.275316,0.0,-18.504953,-23.905506,-54.983021,-11.295194,-8.588913,6.212663,18.995091,25.372085,30.030253,82.646564,-30.040029,-89.330527,-49.934528
42,-1.365532,-13.708505,1.053772,14.980871,0.0,-50.952232,-33.978149,-86.883705,-40.354385,-63.24749,-44.256363,-51.475799,-45.890716,-51.680854,0.0,-12.273851,-23.164951,-58.779914,-10.077012,-17.715223,5.021377,4.308944,21.06829,17.802224,0.0,46.307173,27.569584,69.416514,28.255171,71.861481,26.934243,37.671353,25.152976,31.193064,0.0,-16.669024,-25.630043,-58.395278,-14.892853,-13.76647,0.897147,12.914317,18.598443,23.515291,80.883047,-43.383259,-88.67474,-34.588382
43,-1.773136,-6.284308,-1.335537,28.18269,0.0,-50.815189,-32.576854,-84.68343,-38.593037,-62.226768,-42.799187,-50.879207,-45.185417,-51.488205,0.0,-13.615787,-27.341903,-68.039324,-15.831537,-21.43866,-1.351655,1.054459,14.781319,14.358913,0.0,44.351458,26.028111,66.517485,22.899062,61.29205,18.25074,28.081833,13.542704,20.825381,0.0,-12.424349,-28.366043,-62.953779,-20.617283,-16.092046,-7.148672,6.274166,8.707324,15.618587,79.173946,-49.007248,-89.946242,-5.745373
44,-3.924476,-4.603994,-2.047474,23.676744,0.0,-48.787846,-31.197934,-78.558644,-35.327878,-58.406479,-38.157372,-46.59676,-39.931893,-45.98069,0.0,-15.225712,-32.299819,-74.511131,-22.945789,-22.910912,-8.899864,-0.49839,7.532174,11.709419,0.0,42.246283,23.032036,61.364439,15.380717,42.646271,7.22366,18.914326,-0.275979,10.780638,0.0,-10.048107,-29.219748,-59.980524,-24.033291,-8.377029,-12.202214,5.260892,2.29807,13.013128,75.603201,-52.826002,-91.639985,18.716611
45,-4.463746,0.590396,-5.147003,20.154057,0.0,-46.859973,-29.262577,-74.251842,-30.821239,-56.011848,-31.907707,-42.759922,-32.703872,-40.049995,0.0,-15.438671,-37.525602,-81.386518,-31.088303,-33.239552,-17.921001,-2.197459,-1.269131,9.767134,0.0,40.902071,19.698452,57.119757,8.435927,24.691681,-1.999969,8.955677,-10.748228,0.820479,0.0,-4.553562,-29.94426,-58.225189,-26.81219,-6.137293,-16.132209,3.644796,-2.398624,10.29493,71.444595,-51.435583,-96.481848,39.670691
46,-6.595253,4.677112,-8.106022,12.340146,0.0,-45.398128,-27.536441,-71.002704,-26.499538,-55.301891,-25.313415,-36.951496,-24.681587,-32.557868,0.0,-15.977024,-41.917322,-84.532201,-38.566951,-42.57664,-27.022956,-3.267588,-10.957635,7.486172,0.0,45.459876,16.676411,54.564703,3.255255,17.5509,-8.37244,5.33503,-17.544496,-1.986207,0.0,0.2374,-30.109528,-55.351553,-27.233111,1.533955,-16.061343,6.296514,-1.812025,12.783528,65.040687,-45.954357,-104.396525,52.814951
47,-7.621444,7.453528,-5.665208,1.210858,0.0,-43.561398,-26.779598,-70.13086,-23.150631,-61.05233,-19.253861,-33.030453,-16.540032,-26.468102,0.0,-18.024371,-44.343094,-85.272305,-44.100875,-56.152678,-34.666984,-6.561923,-19.87579,3.177618,0.0,51.641681,15.290382,54.918125,1.811908,17.355251,-9.389969,6.844608,-17.899853,0.603984,0.0,3.68642,-28.313045,-50.165639,-24.281472,6.98898,-12.026658,10.081206,3.096907,17.180484,57.538502,-37.982558,-109.942474,54.54408
48,-6.358464,9.969289,-3.295784,-10.182995,0.0,-44.349105,-27.091529,-71.610305,-21.107231,-61.752548,-14.836624,-30.362503,-9.824249,-23.084449,0.0,-19.864187,-45.819287,-86.590704,-48.202205,-56.612074,-41.199659,-8.122149,-28.493005,-0.675747,0.0,57.37318,15.634163,58.761818,4.17699,28.606292,-4.989361,17.056663,-11.770214,10.386955,0.0,5.56328,-24.048945,-41.900421,-17.012448,10.992426,-3.084853,16.761544,13.140661,24.637198,51.12129,-28.470982,-113.297006,43.903372
49,-5.548576,12.711069,-2.318779,-11.442209,0.0,-45.694817,-27.590973,-74.078339,-19.614899,-61.493042,-11.111092,-27.207802,-3.557533,-19.033607,0.0,-22.394052,-46.501358,-86.189789,-51.052486,-54.824868,-46.506088,-9.556481,-36.056467,-4.233386,0.0,59.554756,18.745399,65.552181,10.512645,42.679859,3.553802,30.564399,-1.727074,23.316398,0.0,5.148441,-19.579203,-32.599815,-10.336043,13.225648,4.374665,21.249206,20.838887,29.41718,45.574047,-16.857591,-115.614452,31.363485
50,-2.970405,11.870807,1.127517,-11.953663,0.0,-46.889557,-29.630379,-76.440548,-20.073098,-54.024033,-9.144402,-21.791428,1.203208,-12.551606,0.0,-24.014056,-45.142867,-84.441231,-51.221948,-38.954334,-48.48924,-7.747917,-40.262158,-4.926386,0.0,61.806851,24.43467,74.182354,18.677307,51.425171,13.114071,37.755089,8.506806,31.490582,0.0,3.265689,-18.039327,-27.995414,-6.59676,13.43072,9.403,23.430737,26.941068,32.622983,42.612368,-6.595793,-114.478209,17.800813
51,0.176651,11.740853,1.815903,-10.595587,0.0,-43.60904,-30.221879,-76.812893,-19.570702,-41.825215,-7.310143,-15.840363,4.761062,-6.82544,0.0,-23.993703,-43.97886,-83.845296,-50.571303,-26.750495,-48.608609,-10.059334,-42.100202,-8.711026,0.0,61.709919,29.896214,84.4701,25.941181,66.339684,21.387074,43.108875,17.031841,36.307812,0.0,1.3418,-17.090315,-27.224633,-4.279964,11.946624,12.409431,25.07307,30.609476,34.464486,42.919825,3.156839,-112.5315,5.217005
52,7.760078,13.978836,1.392906,-9.657511,0.0,-42.795822,-31.308174,-78.297707,-19.288811,-30.187386,-5.68721,-11.510193,8.054466,-2.906273,0.0,-21.293247,-42.834748,-83.020441,-50.370373,-13.82811,-49.471084,-9.974588,-44.393168,-10.229926,0.0,59.39637,33.3769,90.261978,31.270329,70.002457,28.018067,47.338154,24.453404,40.659497,0.0,-1.219058,-17.659599,-32.969064,-3.526937,9.282828,13.81789,24.571199,32.382083,34.539803,50.9114,15.050555,-110.907097,-6.525626
53,10.183411,13.558124,7.107067,-12.434427,0.0,-39.414139,-31.046357,-77.25166,-18.439682,-22.270729,-3.642472,-4.812058,11.34629,4.226417,0.0,-18.36716,-42.119876,-81.001505,-50.532684,-11.665758,-49.754555,-10.770272,-44.745744,-10.866171,0.0,57.32951,32.502777,87.960068,31.183937,64.230446,28.486931,42.2333,25.661568,37.086193,0.0,-10.672614,-17.569468,-35.121276,-2.645252,8.419323,15.581475,24.567154,34.882103,35.754192,61.488608,27.1277,-103.406233,-20.441032
54,12.304618,11.447334,2.827813,-8.060417,0.0,-37.193458,-30.935028,-75.912357,-18.116249,-17.17797,-2.598129,-1.182678,13.191147,7.603821,0.0,-13.446226,-40.624379,-79.674395,-49.737956,-11.149277,-48.977049,-10.711862,-43.774342,-10.402554,0.0,55.533451,32.109672,86.996086,30.661388,55.911472,28.069702,35.57658,25.583129,32.635128,0.0,-12.343352,-21.504538,-46.669474,-6.660449,5.994785,12.036093,22.040154,31.939869,34.023235,74.124538,37.516614,-100.247108,-29.559869
55,10.85138,8.937959,-0.786393,-5.345832,0.0,-35.304589,-30.05436,-74.60479,-17.171906,-13.790016,-1.645661,0.233436,14.015579,8.373207,0.0,-9.53934,-40.102558,-78.468391,-49.407585,-11.5738,-48.342094,-10.996477,-42.540001,-10.031503,0.0,51.780407,29.454758,83.394619,27.975804,51.83733,26.018441,33.572777,24.470238,31.485947,0.0,-13.383451,-23.548199,-56.174647,-9.334464,4.861924,8.781995,20.040491,27.906832,31.744275,85.340962,45.675332,-100.668457,-35.684942
56,8.743927,6.904523,-2.408214,-4.020774,0.0,-37.311424,-30.68042,-75.739975,-17.148331,-14.861984,-0.823677,0.19368,15.582435,9.009819,0.0,-5.604097,-39.321087,-75.948258,-49.294928,-6.910328,-48.143727,-6.340334,-41.56703,-5.312456,0.0,48.691337,27.349651,78.98473,26.33583,41.452434,25.282333,33.872257,24.721939,32.567425,0.0,-13.839236,-24.31541,-63.037735,-10.415299,5.537957,7.309965,18.424014,25.791073,30.211958,94.35672,52.156401,-102.80484,-40.12917
57,1.438087,3.184759,-1.208882,-2.277913,0.0,-38.26316,-29.87027,-74.570251,-16.347976,-14.283783,0.079468,1.162766,16.47844,10.624718,0.0,-3.849737,-38.860726,-74.719987,-48.646511,-3.54317,-46.705245,-3.136754,-39.171262,-1.722682,0.0,46.221444,26.199813,77.119285,25.043974,40.12869,24.14043,33.061407,23.765837,31.78586,0.0,-13.462108,-24.599277,-64.174065,-11.234861,6.492866,6.122908,18.307468,24.348524,29.970905,95.955505,55.361445,-103.853024,-42.386798
58,-0.996437,1.453438,-6.075319,3.4445,0.0,-39.213157,-29.532875,-74.157211,-15.801338,-15.621162,0.569092,-0.05175,16.800911,10.156929,0.0,-1.823953,-37.725395,-73.354006,-47.359416,-2.308502,-45.22996,-1.172356,-37.36589,0.482172,0.0,43.981731,28.285397,80.814411,27.509944,41.547584,27.049656,35.777602,26.667775,34.804797,0.0,-5.766114,-27.083372,-70.458091,-14.430396,3.982024,2.32443,15.286156,20.143489,26.964462,95.080198,56.903369,-109.807213,-38.853812
59,-2.278518,1.374608,-1.092637,0.85213,0.0,-39.865609,-29.263161,-73.849663,-15.514138,-17.27472,0.749015,-0.6129,16.69384,10.01358,0.0,-0.984012,-37.058368,-72.837674,-46.551444,-1.782753,-44.340581,-0.058484,-36.354796,1.710789,0.0,44.266177,28.411175,80.985054,27.568235,42.07588,27.238884,36.325116,26.903657,34.693303,0.0,-5.330272,-27.002381,-70.538547,-14.433279,3.709061,2.311865,15.102135,20.2835,26.83044,92.940835,58.326513,-110.760695,-37.953146
60,-2.904145,0.893176,0.972406,0.830563,0.0,-39.504638,-28.646164,-72.978012,-14.741432,-18.04731,1.598786,-0.046165,17.559242,10.373177,0.0,-0.371367,-36.720722,-72.266099,-46.122661,-1.912805,-43.972968,0.901951,-35.970924,2.589115,0.0,44.843837,27.71714,79.959926,26.755698,42.128097,26.240616,36.141913,25.72255,34.343302,0.0,-5.667876,-26.660586,-68.90384,-14.483378,3.79316,2.252898,15.581415,20.477892,27.25496,90.175741,59.408401,-109.649238,-36.933871
61,-1.895874,0.75598,2.687318,0.919883,0.0,-39.792801,-28.517395,-72.66394,-14.468628,-18.43341,2.001686,-0.178024,18.122154,9.963959,0.0,-0.413494,-36.593529,-72.378893,-45.927172,-1.28586,-43.895732,2.225163,-35.960946,3.418601,0.0,45.493943,25.955813,77.332821,24.334635,40.835625,23.349037,34.160475,22.672103,32.439684,0.0,-6.519904,-26.758708,-67.265346,-14.895333,3.904906,1.953514,15.935104,20.565255,27.554463,88.464941,60.431121,-106.776846,-35.747248
62,-1.764885,0.586598,2.687318,0.919882,0.0,-38.810348,-28.142418,-71.762329,-13.96978,-18.327759,2.606781,0.16555,18.916168,10.064942,0.0,-0.72303,-36.51116,-72.486141,-45.958282,-1.322379,-44.266598,2.816127,-36.5903,3.237672,0.0,46.144049,24.194485,74.705715,21.913572,39.543154,20.457458,32.179037,19.621655,30.536065,0.0,-7.371931,-26.856828,-65.626851,-15.307287,4.016653,1.654131,16.288793,20.65262,27.853966,86.987119,61.22852,-103.802465,-34.616565
63,-1.229645,0.829079,2.687318,0.919883,0.0,-38.705017,-27.988266,-71.572494,-13.71817,-19.097122,2.923165,-0.043807,19.394555,9.298188,0.0,-1.804149,-36.985638,-73.670057,-46.360888,-1.692313,-44.923931,3.738975,-37.461295,3.278601,0.0,46.794155,22.433158,72.078609,19.492509,38.250683,17.56588,30.197598,16.571208,28.632447,0.0,-8.22396,-26.95495,-63.988357,-15.719242,4.128399,1.354747,16.642481,20.739983,28.153468,86.085113,62.219499,-100.787508,-33.534782
64,-0.77584,1.13333,-0.646864,2.26421,0.0,-38.640564,-28.086228,-72.212792,-13.652916,-19.363175,2.987571,-0.346985,19.56047,8.882766,0.0,-2.771161,-37.860283,-74.952162,-47.148743,-2.458691,-45.807289,3.469348,-38.433604,2.377477,0.0,47.677555,22.990546,73.129096,20.203558,38.617497,18.354446,30.828825,17.322493,29.137136,0.0,-8.223591,-26.834574,-64.264485,-15.141068,4.07083,2.060472,16.393749,21.418671,27.912109,85.658346,63.443809,-101.085299,-31.179592
65,-0.275688,1.512255,-1.956576,3.254671,0.0,-40.045533,-28.472832,-73.642342,-14.221642,-20.027482,2.190788,-1.481049,18.638649,7.870193,0.0,-3.801009,-38.582262,-75.798655,-47.713604,-2.830435,-46.287658,3.062024,-38.936543,1.906896,0.0,48.097649,24.367519,75.547142,22.222006,40.389379,20.794304,33.119916,19.938427,31.322725,0.0,-8.274181,-26.689886,-64.928655,-14.703046,3.509796,2.505188,15.984562,21.644874,27.704531,85.683444,64.963029,-102.741089,-27.917956
66,-0.559136,2.582631,-2.02427,4.301739,0.0,-41.205208,-28.91542,-75.167541,-14.91394,-21.503906,1.168213,-2.914261,17.270714,6.739678,0.0,-5.332685,-39.415918,-76.343609,-48.404258,-4.691741,-46.832741,1.015936,-39.453567,0.480357,0.0,49.543265,25.783224,78.495861,24.420744,42.314811,23.532177,35.719507,22.933381,33.654169,0.0,-7.661591,-26.380758,-65.527032,-13.925764,2.945721,3.34871,15.389682,22.264867,27.294643,85.375791,67.63727,-104.513876,-23.524607
67,-0.010689,2.836604,-2.736153,5.913383,0.0,-43.692627,-29.555442,-78.105652,-16.250381,-22.724556,-1.003463,-4.608169,14.25483,5.661393,0.0,-5.552319,-40.007573,-75.265725,-48.152625,-4.185986,-45.679898,0.059787,-37.548863,0.666732,0.0,50.514736,27.751865,82.281303,27.348186,44.995285,27.081516,39.336731,26.792278,37.069244,0.0,-7.433156,-25.782853,-65.402918,-12.863839,2.190219,4.374486,14.810614,23.028631,26.95106,85.782858,70.762144,-106.832273,-17.322954
68,-0.370926,3.844698,-2.695576,7.778632,0.0,-46.89315,-30.208374,-80.051605,-17.594718,-24.201438,-3.173423,-6.965377,11.347756,3.038819,0.0,-5.153066,-39.517083,-71.45423,-46.664916,-2.578913,-43.099194,0.312284,-34.160871,2.4678,0.0,52.065731,29.53608,86.426995,30.41367,47.73531,30.948738,43.27216,31.071556,40.789639,0.0,-6.142351,-24.766837,-64.59132,-11.044914,1.426095,6.314801,14.439105,24.669326,26.859607,85.840959,74.983099,-109.098822,-9.168065
69,0.190499,3.518026,0.70261,8.937384,0.0,-50.798355,-31.220673,-83.300034,-19.544998,-28.817253,-6.09375,-10.95195,7.75502,-1.767243,0.0,-1.513009,-36.830107,-63.365445,-42.063627,2.770136,-36.938491,5.052023,-26.968702,8.504582,0.0,54.211933,28.881066,87.318878,30.166157,48.386009,31.025837,44.574475,31.521561,42.022499,0.0,-5.82759,-23.915916,-61.906777,-9.932795,0.896634,7.641805,14.946761,26.149681,27.687032,86.504282,78.921821,-107.923388,0.190015
70,0.80706,4.529831,2.57515,11.269036,0.0,-55.494347,-33.132431,-87.840202,-22.321197,-35.349197,-9.877487,-17.262428,2.889107,-8.662582,0.0,3.916205,-32.962524,-50.816835,-35.705323,10.610271,-28.929697,12.719597,-17.93093,17.613132,0.0,58.352199,27.021595,85.821018,28.228592,47.320358,29.040161,43.693577,29.725822,40.930687,0.0,-6.363287,-23.416553,-56.590294,-8.802249,0.83042,9.26045,15.66398,28.233913,28.649616,88.075659,83.868295,-104.583921,11.875694
71,1.085678,4.901618,2.843925,13.842213,0.0,-60.072853,-35.132583,-93.410522,-25.477821,-43.00367,-14.172386,-25.719589,-2.424797,-17.603279,0.0,11.042277,-27.246221,-33.561268,-26.410867,21.440781,-17.394072,24.301486,-4.888743,30.046349,0.0,61.205246,25.218201,84.297673,26.057442,46.685017,26.648014,42.983963,27.445507,39.796749,0.0,-7.547925,-22.546075,-49.346754,-7.307426,1.484882,11.269006,17.036754,30.752255,30.417197,89.917007,88.952793,-100.984326,25.900787
72,0.209015,7.419084,5.10513,15.948594,0.0,-62.397263,-37.850441,-98.44717,-29.04055,-52.343033,-18.368248,-35.559357,-7.086502,-28.345161,0.0,17.011645,-20.161152,-14.208616,-15.827829,32.583309,-5.077693,37.670567,8.374838,44.136366,0.0,65.588779,21.807415,81.835865,21.738452,44.141601,21.793327,39.800239,22.53844,35.838741,0.0,-10.106233,-21.213199,-42.323917,-5.336977,2.828663,13.74671,18.733291,33.668795,32.508492,90.600569,96.245184,-95.404649,41.722688
73,-0.840958,9.732859,5.406738,17.905841,0.0,-63.170494,-40.937416,-103.562679,-32.910232,-62.600212,-22.712288,-45.38665,-11.871322,-37.23555,0.0,22.623702,-12.085927,6.02747,-4.273098,45.114727,8.073218,51.316043,22.215149,58.099561,0.0,69.230598,19.150257,80.769871,18.00103,43.727875,17.443577,38.263195,17.955837,32.800747,0.0,-12.530091,-19.246461,-33.678668,-2.994469,5.568115,16.146869,20.612683,36.045914,34.106315,90.168777,105.626451,-89.588745,59.276937
74,-2.523124,13.661581,4.523277,19.164241,0.0,-62.487328,-43.588784,-106.777531,-36.305992,-70.75779,-26.514107,-55.038208,-16.13015,-45.586991,0.0,24.878815,-4.393073,23.789988,6.112278,55.659789,19.564216,63.04157,33.96167,69.856086,0.0,69.007748,17.89555,80.800015,15.898384,47.007706,14.620274,39.722775,14.49781,31.937473,0.0,-11.641262,-16.541361,-23.174529,-0.263242,9.549337,18.65383,22.985708,38.142155,35.903708,87.958392,118.64794,-84.752729,77.801086
75,-6.751557,18.740638,4.829475,19.715369,0.0,-61.304077,-43.662346,-105.744518,-36.938049,-76.133938,-27.487907,-61.768387,-17.214843,-51.035202,0.0,26.614094,2.159943,36.936923,15.32762,63.414339,29.901872,71.874985,44.4292,77.843385,0.0,66.622513,16.99189,80.883774,13.372891,51.937169,10.581906,42.807427,9.12584,31.204274,0.0,-10.421914,-12.547258,-13.729852,3.104897,15.316028,20.983858,27.35487,39.188089,39.267365,81.269783,136.653982,-79.860306,96.781859
76,-7.364158,20.266183,4.943299,20.284769,0.0,-57.758126,-42.918297,-103.064759,-36.569481,-81.475388,-27.405304,-67.770012,-17.168198,-54.546318,0.0,24.916569,8.285368,45.923899,22.917974,69.144672,37.87162,78.272729,51.858756,83.786917,0.0,61.81168,16.685211,78.381592,12.527298,57.984993,9.065483,48.433639,6.630638,34.212662,0.0,-9.641499,-9.118115,-7.742847,4.761871,17.453458,20.280855,28.398675,35.806248,38.082751,74.174704,156.159076,-74.647928,116.305539
77,-7.158966,20.539157,6.261635,23.219155,0.0,-55.355622,-40.854882,-99.501847,-34.930916,-86.276677,-26.240822,-72.765862,-16.364525,-56.724266,0.0,22.156615,13.417969,51.057191,28.990793,72.105239,44.062055,81.649581,57.261675,86.93176,0.0,57.546489,18.550724,73.037841,15.201793,58.255989,11.815681,49.967868,8.487785,36.063972,0.0,-4.159236,-6.953466,7.116513,6.98157,31.40471,23.02374,43.391768,39.332135,51.369699,67.511107,175.835571,-67.890924,138.662032
78,-5.99437,20.633406,3.777969,21.70209,0.0,-56.99794,-37.622772,-97.383648,-32.114479,-90.42334,-24.23584,-77.625709,-15.142548,-59.847542,0.0,16.718627,16.596991,48.931915,32.691001,69.234858,47.463602,80.767945,59.689084,87.413414,0.0,56.291851,20.345947,74.16671,16.192509,65.480621,11.609699,56.188602,6.778393,39.38974,0.0,-2.008481,-3.179868,16.345594,11.591318,38.729951,27.815344,51.319563,43.468554,59.508619,62.091625,195.595928,-63.538067,159.491073
79,-5.79023,19.6536,6.11087,21.652233,0.0,-59.294929,-32.678787,-92.872558,-27.26429,-91.269561,-20.177353,-79.636894,-12.389534,-61.065811,0.0,12.135141,19.53084,42.451098,34.889686,61.287716,48.091468,74.512592,58.118537,82.777427,0.0,57.009991,24.139389,72.345818,19.380581,66.48642,13.766041,56.072457,7.404774,38.421673,0.0,-2.258349,4.228124,26.250334,20.251652,46.996274,36.370066,61.752141,50.967765,70.950828,56.88787,214.522488,-56.840722,180.416266
80,-1.649162,13.944416,2.356167,20.08174,0.0,-60.843075,-29.108414,-90.36961,-24.476509,-92.007385,-18.510612,-81.355671,-12.116501,-62.600372,0.0,4.748162,20.350206,32.62315,35.933689,52.66747,48.78159,68.731901,57.932186,79.826165,0.0,60.634323,27.323948,74.906536,22.519867,71.021633,16.602974,60.521816,9.730053,43.186375,0.0,-1.64865,9.239887,35.041136,26.977162,54.405003,43.616712,69.168464,57.742538,77.783733,55.808819,227.81063,-53.914444,199.841732
81,-11.473549,13.315081,1.651783,17.914733,0.0,-56.69973,-26.103481,-72.787948,-22.945576,-74.22282,-18.625523,-67.173672,-14.35104,-55.088505,0.0,7.943289,21.845567,24.620432,37.367249,42.907953,49.216992,58.756011,57.167049,71.970648,0.0,66.717613,28.911553,80.180031,23.097611,73.737396,16.360771,61.760925,8.800873,43.007641,0.0,-0.596744,14.948367,46.290702,34.778079,66.07036,52.668594,80.927929,67.2687,90.366232,44.719974,240.597355,-51.877957,217.228109
82,-7.409065,11.199845,-1.3003,13.615237,0.0,-52.129852,-25.820538,-52.802799,-25.762241,-53.963768,-24.269863,-51.953304,-22.617554,-47.077847,0.0,3.163264,20.484019,19.923252,36.824562,38.526625,49.080561,54.555056,57.450879,68.279925,0.0,70.558021,30.233413,88.462326,22.242061,83.725936,13.877071,68.886886,5.261707,46.825824,0.0,-2.409933,21.617374,47.561106,41.439467,65.277485,57.398021,78.175948,68.725343,87.450971,37.500612,251.47767,-52.988554,230.523816
83,-13.229942,8.873164,0.598777,12.607409,0.0,-35.655694,-21.360032,-24.363602,-24.308957,-25.078549,-25.556832,-27.682744,-26.336792,-31.017964,0.0,1.906679,19.251851,22.484177,36.078332,40.458783,48.709095,55.241968,57.371048,66.937533,0.0,71.128487,31.581894,88.995552,22.97786,84.834847,14.191933,69.763779,5.221951,48.397374,0.0,-1.561359,25.881932,52.443464,44.900639,70.43804,59.49688,82.5202,69.369363,90.073893,24.406838,260.207752,-52.253609,242.988143
84,-10.118935,6.358464,-1.482147,9.799062,0.0,-22.881226,-19.51854,-0.808102,-25.129349,-0.126698,-29.175728,-5.4799,-32.411545,-16.379826,0.0,-0.541674,15.632895,25.448358,34.533795,44.563124,49.342655,57.787221,60.662852,68.169849,0.0,72.659065,29.87423,91.653099,20.538597,89.719528,11.388668,74.936806,2.64782,53.182182,0.0,-1.51233,25.850587,54.84038,44.075085,73.226405,57.807043,83.368107,66.852231,88.417463,14.441328,266.538864,-53.582331,252.759853
85,-17.229527,8.590137,0.495815,8.001408,0.0,-1.742706,-12.431144,29.81416,-19.966495,31.434849,-25.944774,22.96613,-30.86911,5.416832,0.0,-3.95483,14.148958,30.298272,33.106928,46.866019,48.030718,56.982786,59.948992,65.082995,0.0,71.983098,29.163128,91.74757,19.744778,90.042332,10.773846,75.548047,2.33408,54.313969,0.0,-1.615415,27.698728,56.933374,45.14848,74.101557,57.926703,84.082584,66.120501,88.601714,-2.634041,275.127096,-52.932358,260.759356
86,0.924065,4.598924,0.270962,6.065014,0.0,0.935658,-12.288185,34.363506,-20.635185,36.188816,-27.846771,28.381153,-33.748833,10.201504,0.0,-13.476101,11.289667,32.209916,30.796869,50.299736,46.855237,60.68639,60.292028,67.526916,0.0,71.324204,29.195618,91.604805,19.842236,90.587609,10.976933,76.190598,2.876518,56.560753,0.0,-0.653517,29.182059,58.198084,46.534259,73.166063,58.738005,82.444655,66.264602,86.550786,-1.576321,279.738141,-52.527741,266.836491
87,-4.396957,5.551918,-0.015507,3.733356,0.0,4.93539,-10.241421,39.648983,-17.868668,42.722202,-23.951397,35.51762,-28.747055,17.224697,0.0,-15.010513,11.094573,32.905349,29.807948,49.128417,45.046987,58.616504,57.76425,64.045205,0.0,71.480015,28.36496,91.853611,19.350941,90.556172,11.034691,76.6722,3.838154,58.149342,0.0,0.738473,30.216897,60.349443,47.961261,72.577569,60.111087,80.868587,67.343802,84.894849,-5.830358,285.311539,-52.400328,270.591327
88,-0.861557,6.402665,-0.396709,2.462187,0.0,4.205326,-9.350521,40.217113,-16.399887,43.448833,-21.659661,35.656345,-25.816498,18.216579,0.0,-19.690786,9.261734,28.122311,27.55107,43.118436,42.431092,52.130019,55.128792,57.725496,0.0,71.996933,27.896542,92.153938,19.18499,90.879158,11.286736,77.091637,4.764805,59.364098,0.0,1.856192,31.206027,61.381218,49.177349,71.34955,61.212578,79.031758,68.188287,83.230935,-6.536819,291.748442,-52.641941,273.087752
89,4.063247,2.075283,-0.487301,1.402524,0.0,-2.115658,-14.245731,34.616307,-21.502567,38.344105,-26.146099,30.594075,-29.361591,13.563092,0.0,-19.365448,9.930936,27.367437,28.018262,41.971842,42.76368,51.061231,55.278907,56.765894,0.0,72.454388,27.766834,92.336941,19.261688,90.629528,11.641789,76.928913,5.477463,59.889874,0.0,3.380798,32.383621,62.011234,50.235035,70.007258,62.022275,77.374687,68.744363,82.090973,-2.329731,293.874897,-52.985401,274.541448
90,3.270516,1.197205,0.009373,0.895418,0.0,-5.141224,-17.658566,30.027637,-25.005707,34.200153,-29.149212,25.376369,-31.867298,9.02528,0.0,-17.882265,10.125968,27.690194,27.98751,42.042052,42.403637,50.898073,54.583412,56.044464,0.0,72.739609,27.338104,92.074814,18.649761,90.010803,10.932518,75.769455,4.787212,59.01844,0.0,4.942565,32.888183,62.398582,50.731792,69.625393,62.431952,76.682823,69.022326,81.919863,1.107966,295.127708,-52.808847,275.492472
91,2.860771,0.956452,-0.029835,0.78638,0.0,-8.961662,-21.029572,27.341801,-29.129128,31.572956,-33.200352,22.297565,-35.509964,5.121494,0.0,-17.578675,10.079829,28.660947,28.063759,43.163489,42.721454,51.830727,55.126137,56.931731,0.0,73.057331,27.558483,92.050106,18.725498,89.740734,10.797375,75.291218,4.442848,58.593029,0.0,5.533293,33.181262,62.109651,50.905458,69.637755,62.557045,76.761492,69.149766,82.03767,4.155418,296.139257,-52.652001,276.333949
92,-4.055809,1.563879,-0.248749,0.540649,0.0,-1.906036,-15.789448,30.823368,-23.63736,34.422787,-28.318874,24.322552,-31.728962,7.016498,0.0,-18.062107,8.975311,26.449405,26.878633,42.015486,41.570859,50.630953,54.008466,55.760733,0.0,73.085759,28.219426,92.089497,19.278534,90.103649,11.040551,75.094151,4.272789,58.119816,0.0,5.858793,33.460375,61.034243,50.913771,69.32825,62.393567,76.894701,68.930503,82.299208,0.287087,297.750014,-52.713272,276.921476
93,8.480072,-3.589885,-0.198063,0.303084,0.0,-12.921021,-23.7701,20.064136,-31.754276,24.483639,-36.45417,15.953785,-39.594738,-1.377766,0.0,-13.657932,11.362928,27.806358,29.878542,44.415577,45.193298,53.920225,58.113967,59.847449,0.0,73.076752,28.225434,91.964768,19.256985,90.076378,10.955109,74.852463,4.096367,58.014817,0.0,6.158603,33.590099,60.569052,50.981424,68.94163,62.409066,76.811732,68.886487,82.318103,8.939764,294.1968,-52.73873,277.261231
94,-5.519737,2.778892,-0.11705,0.332056,0.0,-3.694245,-18.058308,27.374622,-25.930504,31.081386,-30.440289,20.330486,-33.477688,3.488537,0.0,-15.203705,10.177159,25.70992,28.351442,41.877128,43.028082,51.139838,55.139017,56.18691,0.0,73.143357,28.063706,91.990494,19.046768,90.190476,10.725071,74.793206,3.88908,57.989914,0.0,6.133619,33.468933,60.019696,50.852749,68.737434,62.270227,76.658802,68.736743,82.183549,3.584147,296.992139,-52.69166,277.609734
95,9.085979,-2.070195,-0.260284,0.119018,0.0,-17.38583,-25.994156,16.593453,-34.012939,20.714813,-38.588974,11.378174,-41.299084,-5.779861,0.0,-13.64573,11.846742,25.829024,30.401469,42.666138,45.696527,52.771297,58.38168,59.044793,0.0,73.040932,28.208599,91.975502,19.250702,90.601089,10.931511,74.929046,4.059837,58.158302,0.0,6.186576,33.674364,59.764803,50.982462,68.550256,62.338202,76.494027,68.787353,82.049946,12.815597,294.933432,-52.806473,277.74024
96,-5.617905,3.153643,-0.193737,-0.01193,0.0,-8.485656,-19.466148,24.175507,-27.030944,27.750252,-31.448661,16.420945,-34.244075,-0.451309,0.0,-16.213831,10.485529,22.85342,28.561171,39.391798,43.081916,49.17767,54.849643,54.573334,0.0,73.026523,28.112915,91.916805,19.221634,90.902355,10.993641,75.127086,4.224151,58.393764,0.0,6.297356,33.820169,59.569721,51.146026,68.240182,62.490861,76.285631,68.911755,82.002324,7.32419,298.096838,-52.873712,277.738073
97,7.559762,-3.194781,-0.161625,0.07268,0.0,-19.367455,-27.178334,16.029579,-35.187939,19.938217,-39.791234,10.39849,-42.460923,-6.949059,0.0,-13.816853,11.491751,23.688927,30.274004,40.93399,45.580671,51.588887,58.165343,58.024095,0.0,72.984306,28.04813,91.957054,19.244888,91.178856,11.16021,75.47374,4.578941,58.738884,0.0,6.438629,33.986661,59.613317,51.370501,68.190511,62.75088,76.189437,69.168353,81.822396,15.017212,294.911218,-52.902077,277.819914
98,-8.681271,2.47939,-0.222336,0.067209,0.0,-7.105488,-20.234379,25.973408,-28.06422,30.124981,-32.434525,19.458858,-35.120728,2.214329,0.0,-15.353264,10.105307,23.846749,28.649511,40.306112,43.353556,49.89926,55.235793,54.86324,0.0,72.953888,28.059929,92.286118,19.321072,91.606361,11.348351,76.037613,4.911896,59.146912,0.0,6.459093,34.02176,59.648181,51.42746,68.108346,62.839554,76.040174,69.273502,81.75578,6.475748,297.399485,-52.984606,277.896
99,5.832642,-3.051421,-0.198486,0.154055,0.0,-15.544659,-27.295418,18.699497,-35.270531,23.391002,-39.493172,14.683193,-41.895459,-3.020222,0.0,-13.531973,11.569594,25.814957,30.659944,42.74776,46.056248,52.785549,58.630978,58.78712,0.0,72.911499,27.987808,92.388313,19.341202,91.971931,11.53426,76.577316,5.318779,59.60733,0.0,6.636959,33.98224,59.550912,51.536783,67.944472,63.050419,75.813303,69.496507,81.50143,12.427895,294.359879,-53.063587,278.06187
100,-7.669419,2.615525,-0.14637,0.080387,0.0,-2.966663,-21.836597,27.53532,-29.813427,32.575367,-33.598343,22.88007,-35.621761,5.401165,0.0,-14.940093,9.687059,25.631497,28.443771,42.23328,43.193227,51.228784,55.044107,55.509619,0.0,73.083664,27.842846,92.594581,19.207729,92.308479,11.537876,77.050369,5.575847,59.947998,0.0,6.741379,33.75811,59.563854,51.495546,67.804163,63.162545,75.660507,69.645449,81.264604,4.873449,296.983969,-53.094984,278.150822
101,-2.265129,0.820119,-0.094608,0.093465,0.0,0.769673,-22.127781,28.81287,-30.057838,34.238239,-33.247421,25.64954,-34.28627,8.203823,0.0,-16.178978,9.243271,26.658011,27.805865,42.678612,42.522655,51.221597,54.399273,55.713902,0.0,73.217319,27.879135,92.752704,19.244842,92.565113,11.63166,77.311809,5.787563,60.175403,0.0,6.713468,33.612923,59.694185,51.463275,67.826517,63.272473,75.524842,69.855685,81.138325,2.721914,297.806512,-53.075998,278.246711
102,-10.277733,2.411193,-0.127648,0.090712,0.0,13.54192,-13.008716,40.88007,-20.339916,45.667294,-23.258194,35.418652,-24.034263,18.017933,0.0,-17.804002,9.13117,27.358335,27.061328,43.204516,40.876427,50.07031,51.571351,53.660886,0.0,73.37122,27.704853,92.907887,19.086937,92.788456,11.599606,77.555523,5.934815,60.449925,0.0,6.491956,33.423657,59.702126,51.364301,67.688578,63.271114,75.320793,69.932749,81.222453,-7.473089,300.218804,-53.120916,278.338522
103,8.814801,-2.417602,-0.101772,0.175568,0.0,1.039363,-21.218056,32.136108,-28.995266,36.709671,-32.021142,27.350349,-32.634865,9.447555,0.0,-16.409542,10.28153,28.08158,28.756895,44.665234,43.200205,52.183964,54.508187,56.82594,0.0,73.489219,27.643753,92.969627,19.121647,93.001877,11.762523,77.741524,6.247982,60.694794,0.0,6.187799,33.317534,59.372305,51.350198,67.503723,63.3465,75.104803,70.118853,81.23489,1.408179,297.802298,-53.156221,278.515186
104,-3.634484,2.34717,-0.128002,0.008448,0.0,4.962742,-18.387817,36.740135,-25.837578,41.973404,-28.017837,32.012695,-27.726402,14.809319,0.0,-17.456483,10.028971,28.028327,27.891698,43.776028,41.545269,50.626248,51.994081,54.161089,0.0,73.52576,27.720749,93.013469,19.262649,93.290004,11.912086,77.775936,6.364517,60.779308,0.0,5.963521,33.139989,59.149781,51.174233,67.54533,63.219219,75.065159,70.088162,81.446459,-2.164129,300.14279,-53.222047,278.516956
105,-1.423096,1.551368,-0.071171,0.019809,0.0,5.735104,-17.224605,38.440522,-24.464675,43.837166,-26.520584,33.939469,-26.046958,16.186776,0.0,-20.056571,8.825986,25.936334,26.405563,41.876696,40.145351,48.938486,50.821812,53.12378,0.0,73.371872,27.723026,92.956489,19.334907,93.436432,11.986152,77.825111,6.358806,60.886001,0.0,5.89998,33.061764,58.848649,51.05823,67.70782,63.092026,75.164689,70.0274,81.683445,-3.542239,301.6812,-53.248232,278.523807
106,-2.768955,-1.990253,-0.043682,-0.001865,0.0,7.752869,-14.188122,42.558346,-21.152767,47.414372,-23.508831,36.668553,-23.52721,19.034077,0.0,-17.988142,10.498644,28.220296,28.091695,44.66222,41.661978,50.928405,51.943409,54.799749,0.0,73.122951,27.653984,92.724918,19.309227,93.454502,11.947563,77.77074,6.242683,60.874134,0.0,5.873218,32.65762,58.47648,50.737523,67.823924,62.848211,75.367897,69.856895,81.831264,-6.278492,299.662165,-53.259212,278.49316
107,11.093994,-2.348294,0.157596,-0.20343,0.0,-7.292129,-24.438251,29.59766,-31.979793,35.505215,-34.299659,26.615445,-34.110683,9.020176,0.0,-16.775241,11.076665,27.832232,29.342647,44.230795,43.723713,52.057166,54.978071,56.80308,0.0,72.811821,27.344044,92.223702,18.990109,93.245591,11.548668,77.465538,5.724369,60.611092,0.0,6.185218,32.310631,58.227637,50.468846,68.063144,62.64709,75.681725,69.69275,82.068903,4.834865,297.276521,-53.082253,278.25238
108,-5.223106,1.560495,0.088566,-0.127107,0.0,-0.05135,-20.078419,35.406315,-27.354424,41.498257,-29.212028,31.881351,-28.624958,14.802876,0.0,-17.649059,10.598482,27.729071,28.30834,43.132415,42.078435,50.793974,52.763318,54.87102,0.0,72.572491,27.171787,91.792797,18.738773,92.956753,11.191395,77.120442,5.242138,60.313671,0.0,6.463588,31.926704,58.16312,50.110854,68.228401,62.334373,75.878165,69.393878,82.151426,-0.384579,298.77956,-52.990025,278.067817
109,-4.754391,1.262166,0.196461,-0.285065,0.0,7.041756,-15.031883,39.704842,-22.341259,44.787415,-24.853203,34.900383,-25.09243,17.488701,0.0,-19.78277,9.267588,26.646315,26.727035,42.296611,40.475517,49.980536,51.20207,54.037674,0.0,72.260673,27.020634,91.376724,18.472023,92.213859,10.80693,76.543785,4.703796,59.747291,0.0,6.792793,31.901498,58.316916,50.003347,68.422384,62.143725,76.273776,69.152731,82.35009,-5.1511,299.981912,-52.805694,277.722938
110,-3.503643,-2.08462,0.053627,-0.201738,0.0,10.460987,-11.575618,43.328121,-18.453483,47.763508,-21.374645,37.74432,-22.406204,20.647511,0.0,-17.605845,10.581217,28.455899,28.185716,44.299054,41.931741,52.074135,52.532026,56.228949,0.0,72.247558,26.910255,91.209022,18.344822,91.719887,10.641849,76.203483,4.477409,59.424888,0.0,6.893495,31.803648,58.288572,49.840906,68.51491,61.941159,76.502659,68.946027,82.585062,-8.671183,297.838385,-52.768507,277.462293
111,10.197865,-2.249741,0.124546,-0.180386,0.0,-3.598904,-20.294529,31.143768,-27.863983,36.133026,-31.148243,28.101928,-32.528584,10.893974,0.0,-16.177002,10.766024,27.2202,29.11075,43.731704,43.815561,53.224619,55.537123,58.230577,0.0,72.257526,26.855164,91.091709,18.262356,91.23785,10.49295,75.861065,4.226269,59.040882,0.0,7.032841,31.999163,58.248917,49.851861,68.660703,61.79612,76.700138,68.735495,82.756013,1.503245,295.542742,-52.667398,277.236005
112,-6.074753,1.691159,0.069168,0.038705,0.0,6.593754,-15.182728,37.821281,-22.455071,42.411552,-25.227528,33.688042,-26.222683,17.132172,0.0,-16.42808,9.987536,27.374711,27.797195,43.275528,41.900446,52.390247,52.987362,56.370321,0.0,72.307468,26.965736,91.118626,18.340782,90.853764,10.514454,75.463886,4.146664,58.624981,0.0,6.879367,32.081241,58.114326,49.749788,68.615539,61.53914,76.671251,68.438563,82.701747,-4.599066,297.191259,-52.625788,277.232068
113,3.800903,-1.83936,0.191071,-0.185695,0.0,1.17516,-17.228885,33.469162,-25.038231,37.19014,-28.879406,29.370552,-30.985553,12.281639,0.0,-15.576294,9.687207,26.644883,27.997378,44.009507,42.92228,53.580302,54.988187,58.309,0.0,72.212963,26.994632,91.024532,18.323833,90.372402,10.426712,75.09058,3.958316,58.210865,0.0,7.071719,32.392055,58.104334,49.905559,68.811892,61.5166,76.918931,68.309059,82.846538,-0.828118,295.324244,-52.464672,277.018718
114,1.60104,-1.64676,0.203167,-0.055736,0.0,-0.565773,-19.381714,31.228123,-27.055916,35.700451,-30.538811,28.254696,-32.218963,11.589672,0.0,-13.53033,10.658603,27.627197,29.244576,44.953905,44.266821,54.673469,56.327998,59.402736,0.0,72.144538,26.740905,90.757896,18.062004,90.127716,10.201915,74.959854,3.785465,58.101402,0.0,7.127306,32.398588,58.055922,49.91024,68.837581,61.50688,76.96785,68.300611,82.847144,0.728491,293.655229,-52.305936,276.940727
115,11.483357,-2.618192,0.1902,0.02244,0.0,-15.320538,-29.405056,19.054046,-38.216114,23.370826,-42.092297,17.217659,-43.867619,0.126709,0.0,-11.772432,11.220531,28.448612,30.595353,45.979603,46.477065,56.380065,59.55805,61.572546,0.0,71.948914,26.649456,90.397957,17.962086,89.902336,10.109139,74.784485,3.675454,57.929055,0.0,7.155489,32.406826,57.933051,49.861247,68.713401,61.415984,76.933776,68.190844,82.766732,12.136368,291.014745,-52.191216,276.940875
116,-5.539399,0.815019,0.141404,-0.050969,0.0,-5.993064,-26.3054,25.339531,-34.917297,29.570412,-37.976818,22.50071,-38.835285,5.86995,0.0,-10.831554,11.123225,29.9376,30.076859,46.713705,45.348428,56.53659,57.701956,60.447626,0.0,71.758667,26.409977,90.201667,17.717021,89.823555,9.902915,74.760566,3.509559,57.848716,0.0,7.225638,32.291316,57.925357,49.754122,68.748771,61.301363,76.966022,68.053721,82.749035,6.488845,291.799312,-52.157936,276.859454
117,8.202919,-1.679896,0.09177,-0.106618,0.0,-17.697109,-33.362068,16.852295,-42.656742,20.973999,-46.163085,14.627244,-47.194427,-2.613945,0.0,-10.238625,11.475759,30.332544,31.023556,47.700316,47.008601,57.871029,60.164637,62.435842,0.0,71.503017,26.375381,89.959591,17.701091,89.783077,9.902034,74.798893,3.503322,57.857517,0.0,7.40832,32.301677,57.860667,49.747503,68.796764,61.268796,77.103269,68.00048,82.842451,14.542373,290.074567,-52.215557,276.707987
118,-3.570762,1.289818,0.0848,-0.026047,0.0,-12.146336,-31.527226,21.210937,-40.31535,25.711395,-42.722271,18.489715,-42.569744,1.758591,0.0,-9.494731,11.538608,31.024803,30.527737,47.852062,45.704518,57.388956,57.882539,61.082026,0.0,71.323323,26.257519,89.794613,17.60685,89.865818,9.828633,74.758976,3.435116,57.839093,0.0,7.441135,32.184599,57.737994,49.617025,68.757392,61.121719,77.107715,67.845981,82.889925,10.793163,291.312656,-52.309205,276.630211
119,7.619888,-2.060586,0.018929,0.009695,0.0,-23.050255,-37.611488,14.024941,-47.119514,17.891647,-50.233063,11.33281,-50.620457,-6.182693,0.0,-8.411147,11.840975,31.861026,31.433602,49.377099,47.36506,59.183595,60.382899,63.354305,0.0,71.167477,26.31776,89.816631,17.690392,90.064762,9.897732,74.774998,3.476898,57.84502,0.0,7.464773,32.118798,57.629869,49.505651,68.764654,60.958994,77.04552,67.647391,82.938547,18.224996,289.181057,-52.478331,276.568893
120,-5.45311,1.520665,0.052196,-0.039631,0.0,-15.009658,-33.745639,20.091843,-42.495895,24.317688,-44.605007,17.057946,-43.942051,0.316132,0.0,-8.373516,11.672384,31.7263,30.663847,48.885714,45.815027,58.197491,57.908746,61.553058,0.0,71.095871,26.333977,89.913964,17.703015,90.219956,9.900948,74.779747,3.475972,57.842583,0.0,7.505058,32.119662,57.52619,49.521422,68.819673,60.938789,77.022647,67.580095,82.940584,12.559341,290.619054,-52.63868,276.446594
