takenoko1/special-research/HandMotion_SimilarSearch_自分用/NewProject/handData/test_key/d4_feature_d3/147.csv
frame,vel_0x_L,vel_0y_L,vel_0x_R,vel_0y_R,posFromWrist_0x_L,posFromWrist_1x_L,posFromWrist_2x_L,posFromWrist_3x_L,posFromWrist_4x_L,posFromWrist_5x_L,posFromWrist_6x_L,posFromWrist_7x_L,posFromWrist_8x_L,posFromWrist_9x_L,posFromWrist_0y_L,posFromWrist_1y_L,posFromWrist_2y_L,posFromWrist_3y_L,posFromWrist_4y_L,posFromWrist_5y_L,posFromWrist_6y_L,posFromWrist_7y_L,posFromWrist_8y_L,posFromWrist_9y_L,posFromWrist_0x_R,posFromWrist_1x_R,posFromWrist_2x_R,posFromWrist_3x_R,posFromWrist_4x_R,posFromWrist_5x_R,posFromWrist_6x_R,posFromWrist_7x_R,posFromWrist_8x_R,posFromWrist_9x_R,posFromWrist_0y_R,posFromWrist_1y_R,posFromWrist_2y_R,posFromWrist_3y_R,posFromWrist_4y_R,posFromWrist_5y_R,posFromWrist_6y_R,posFromWrist_7y_R,posFromWrist_8y_R,posFromWrist_9y_R,posFromBody_0x_L,posFromBody_0y_L,posFromBody_0x_R,posFromBody_0y_R
6,0.169327,0.070544,0.256737,-0.048165,0.0,9.206016,-7.47353,45.649177,-17.494217,46.190254,-25.493775,28.52877,-31.372421,-15.30851,0.0,-3.740494,12.261187,35.101577,29.415303,49.757408,42.720331,58.496931,53.081889,64.767463,0.0,66.703926,26.05632,86.230911,18.301643,86.543953,9.254414,71.861664,0.083439,47.721153,0.0,9.500066,27.279022,54.714644,44.330966,67.005928,57.13652,75.417544,65.629795,82.812316,-5.334589,292.891393,-43.040331,278.20428
7,-3.413956,-0.251238,0.053982,0.063072,0.0,15.324509,-3.192501,49.653237,-12.894482,50.268906,-21.369724,33.270172,-28.251434,-6.949047,0.0,-3.746607,11.60562,34.333254,28.936947,49.496339,42.680329,58.328587,53.370993,64.262975,0.0,66.463794,25.96352,86.312221,18.293712,86.737804,9.341858,72.06435,0.20113,47.665455,0.0,9.206183,27.434917,54.417106,44.505695,66.613504,57.294354,75.418841,65.751246,82.700931,-9.037817,292.840167,-43.275621,278.467364
8,3.020004,-1.380961,0.267517,0.070753,0.0,13.282563,-4.163337,46.548455,-14.189998,46.608582,-23.536251,29.75338,-31.786182,-7.332183,0.0,-6.880466,12.17586,32.342766,29.879962,48.771797,43.845843,58.226834,54.63448,64.854049,0.0,66.22269,25.722599,86.011082,18.041771,86.589718,9.131,71.917179,0.058536,47.387775,0.0,9.102085,27.611969,54.425615,44.642819,66.642675,57.365404,75.514456,65.736562,82.682345,-6.211384,291.592454,-43.201675,278.671365
9,2.108941,-0.364488,0.135578,0.026504,0.0,4.418998,-7.779042,42.598114,-16.490708,43.889648,-24.421658,30.291687,-31.231099,-5.829941,0.0,-3.386899,13.676506,31.937251,30.286971,46.673234,42.731421,55.248723,52.202464,61.872752,0.0,66.058548,25.471161,85.842384,17.776314,86.554413,8.927261,71.902977,-0.089859,47.293167,0.0,9.078026,27.630098,54.274635,44.694059,66.689185,57.413433,75.612564,65.762188,82.646479,-4.258066,291.321747,-43.22172,278.79165
10,1.121772,-0.086401,0.100491,0.159414,0.0,3.139572,-9.128025,41.637406,-17.938385,43.387436,-25.740955,29.897736,-32.363708,-6.239044,0.0,-2.839037,13.668651,32.103051,30.25848,47.042896,42.772176,55.584225,52.303611,62.307055,0.0,66.038326,25.240757,85.924404,17.498199,86.585346,8.678936,71.851421,-0.283894,47.099475,0.0,8.906262,27.637002,54.024522,44.662826,66.529388,57.314065,75.436663,65.589312,82.453362,-3.277136,291.30701,-43.262071,279.022728
11,2.460251,-0.075533,-0.035054,0.00599,0.0,0.151245,-12.103809,39.383995,-21.081093,41.318138,-28.565735,28.374367,-34.736481,-6.904587,0.0,-2.701211,13.605986,32.335973,30.202521,47.503752,42.776288,55.958309,52.349936,62.691414,0.0,66.082398,25.203598,86.083947,17.418286,86.740197,8.601094,71.981346,-0.350063,47.186737,0.0,8.871361,27.788661,53.862859,44.79575,66.486459,57.3843,75.365625,65.607405,82.376075,-0.941071,291.297223,-43.421311,279.094464
12,-1.158714,1.971937,-0.090042,0.032851,0.0,-3.036415,-12.629643,40.053909,-21.071697,43.927093,-27.152229,30.678726,-31.384232,-6.906761,0.0,1.391756,12.627675,32.902423,28.868886,46.964869,41.158058,55.053913,50.77566,60.832356,0.0,66.129479,25.14473,86.271378,17.343258,86.803093,8.532314,72.045227,-0.407192,47.328255,0.0,8.88528,27.792391,53.626479,44.814263,66.541528,57.358229,75.381038,65.534515,82.30048,-2.205871,293.327498,-43.617439,279.185653
13,-0.371361,-0.405564,-0.06364,0.088439,0.0,-1.595398,-12.228023,40.404144,-21.036495,44.258034,-27.556103,29.988922,-32.076324,-11.773601,0.0,1.343985,12.735726,33.741141,28.997499,47.891458,41.163985,56.106881,50.584468,62.219925,0.0,66.321659,25.441623,86.642063,17.56723,86.896808,8.612342,71.9519,-0.491948,47.076427,0.0,8.750046,27.88351,53.593282,44.84562,66.549963,57.326181,75.232824,65.482323,82.140201,-2.667069,292.98764,-43.770916,279.339798
14,0.693947,-4.563615,-0.183209,0.013857,0.0,8.451347,-10.0597,41.499275,-21.068676,42.683807,-30.333149,25.513023,-37.729157,-19.668949,0.0,-7.898952,13.814111,35.477044,32.83241,52.544043,47.150811,62.532864,57.86972,69.955436,0.0,66.59507,25.808258,87.134354,17.923142,87.037468,8.862808,71.936142,-0.380516,47.086945,0.0,8.646108,28.046025,53.726403,44.958598,66.729743,57.386671,75.222216,65.539541,82.054874,-2.046936,288.493439,-44.027939,279.423069
15,-0.364517,-0.259364,-0.128517,0.059602,0.0,9.944915,-9.653252,41.743377,-20.921883,42.796074,-30.526635,24.945213,-38.186245,-22.946011,0.0,-7.981031,13.908354,36.089954,32.998173,53.158941,47.201261,63.267743,57.786369,70.732133,0.0,66.798866,26.092758,87.370262,18.233173,87.120735,9.11562,71.869148,-0.215183,47.176392,0.0,8.494337,27.968601,53.814236,44.907036,66.876005,57.375901,75.135505,65.610702,81.946193,-2.459037,288.308999,-44.20404,279.557595
16,-1.051232,-0.104334,-0.130646,0.069407,0.0,11.846718,-8.258079,42.523568,-19.650203,43.508057,-29.702819,24.839447,-37.826122,-25.691299,0.0,-8.405231,13.999424,36.543734,33.068322,53.545462,47.107982,63.772504,57.558943,71.116283,0.0,67.036698,26.429947,87.568268,18.573063,87.116295,9.326752,71.679062,-0.157814,47.118302,0.0,8.294538,27.645104,54.170685,44.580673,67.236356,57.11077,75.079473,65.462143,81.864991,-3.546112,288.265684,-44.370529,279.688021
17,2.415047,-2.280899,-0.085018,0.10694,0.0,14.157326,-9.28228,40.687408,-21.479885,39.848076,-33.037754,20.812546,-42.947319,-31.588154,0.0,-12.80769,15.437405,36.857512,34.885907,54.952012,49.005226,65.690915,59.18609,74.263404,0.0,67.33984,26.869938,87.715794,18.997044,87.116627,9.617535,71.511623,-0.007118,46.942852,0.0,7.998123,27.424012,54.597441,44.326779,67.522235,56.902967,74.876042,65.337048,81.645838,-1.151567,286.049169,-44.476049,279.859345
18,0.780808,-0.022206,-0.123756,-0.079066,0.0,13.074142,-10.278603,40.096435,-22.427811,39.270538,-33.81054,20.766632,-43.507805,-31.026066,0.0,-12.807788,15.442766,36.881916,34.924057,54.825215,49.101162,65.616865,59.395252,74.243743,0.0,67.507015,27.071514,87.644542,19.239315,87.128139,9.84843,71.587314,0.198566,47.245708,0.0,7.926308,27.248234,54.883557,44.227683,67.939705,56.888457,75.020255,65.400319,81.76892,-0.387445,286.082421,-44.616491,279.835737
19,-1.660698,0.529942,-0.018734,0.005706,0.0,9.54982,-11.283944,41.933052,-22.549462,41.977546,-32.222317,24.59436,-39.842194,-26.426411,0.0,-4.141155,16.553742,38.704368,34.969036,54.477671,48.290366,64.146415,58.241359,73.289415,0.0,67.641288,27.278114,87.680259,19.401569,87.045318,9.953418,71.55178,0.260902,47.173462,0.0,7.756272,27.05661,55.105586,44.075839,68.06517,56.795287,75.048672,65.337864,81.789779,-2.061721,286.652986,-44.648803,279.882066
20,3.085327,0.034642,-0.070782,-0.117054,0.0,5.572105,-15.23925,38.675239,-26.510136,38.6082,-35.471123,22.304901,-41.996407,-27.253155,0.0,-3.247367,16.513271,38.810715,34.890996,54.533321,48.287501,63.995768,58.421559,73.443063,0.0,67.798313,27.501331,87.778873,19.565483,87.003719,10.029339,71.498508,0.28727,47.000942,0.0,7.678935,27.027377,55.452463,44.055424,68.304502,56.79483,75.252918,65.337259,81.91533,1.008339,286.71268,-44.734852,279.790064
21,-2.569725,2.30518,-0.049164,-0.098072,0.0,6.955948,-14.239037,41.618339,-24.866856,42.292236,-32.813793,27.031242,-37.97683,-20.898903,0.0,-1.245604,14.817086,37.778804,32.829298,53.496716,46.248132,61.979346,56.587016,70.883422,0.0,67.802639,27.625065,87.943989,19.649792,86.931805,10.116657,71.549275,0.394787,46.981693,0.0,7.557336,27.171972,55.315253,44.169205,68.074926,56.887073,75.221252,65.385992,81.921468,-1.577196,289.038216,-44.799826,279.712348
22,3.673874,1.256955,-0.071503,-0.543391,0.0,-2.167534,-19.011979,36.631416,-29.374569,37.632179,-36.000584,23.632186,-39.517994,-25.478611,0.0,1.775904,13.43621,37.2147,31.236495,52.386987,44.612721,60.628209,55.080379,69.519268,0.0,67.794926,27.565716,88.181134,19.526928,87.048077,9.974499,71.747075,0.245282,46.851368,0.0,7.571391,27.221088,55.045416,44.202982,67.894948,56.853653,75.400081,65.215091,82.047784,2.080943,290.311668,-44.887064,279.185454
23,-4.096207,1.415912,0.466061,-0.823825,0.0,1.882255,-15.583214,41.082298,-25.408745,42.239204,-31.409626,29.098503,-33.974075,-21.86911,0.0,0.47533,12.249812,37.543954,29.60353,52.01646,42.721146,59.219176,52.826576,67.876213,0.0,67.476769,26.87352,88.030678,18.5816,86.673958,9.018128,71.608818,-0.596638,46.900726,0.0,7.142485,26.333093,54.434013,43.315913,67.734817,56.063236,75.637326,64.531515,81.55409,-2.034548,291.742119,-44.440287,278.376168
24,-2.412895,5.438655,0.766502,-2.15173,0.0,0.674675,-14.721028,39.590446,-23.482693,43.093963,-29.138592,32.522026,-31.8326,-12.618943,0.0,3.263423,9.078336,34.866172,21.127138,46.635801,29.808678,50.752404,35.970936,54.197707,0.0,66.89264,25.39888,86.540795,16.822266,85.337883,7.181283,70.835152,-2.359073,46.539528,0.0,6.845144,24.490065,53.96019,41.498327,68.683452,54.616547,76.802124,63.672962,81.993778,-4.476814,297.20318,-43.703156,276.246844
25,1.221405,0.922292,0.344296,-4.348761,0.0,-10.340058,-16.113659,26.942482,-20.597363,33.265571,-22.286156,26.935913,-21.136151,-10.453675,0.0,13.581768,8.389868,33.095738,17.805731,42.085536,24.616295,44.896353,29.507508,50.729198,0.0,66.65871,24.476177,84.27618,15.240498,82.17358,5.101135,67.641849,-4.832703,43.455608,0.0,7.210238,22.295295,54.006404,38.828993,69.798912,52.038987,78.002096,61.499138,81.478656,-3.281776,298.171,-43.385227,271.943611
26,7.306434,-2.251408,-0.161259,-5.5482,0.0,-22.096458,-18.89178,6.377518,-19.804252,11.376389,-18.130188,11.2901,-14.227638,-13.369056,0.0,17.726444,9.587505,33.273938,16.965802,39.169867,22.148687,43.548219,25.479258,50.144929,0.0,65.228005,24.278183,81.639633,15.23037,77.774575,5.402939,62.89682,-4.270031,40.483795,0.0,7.439764,19.54508,52.837987,35.409107,70.409438,48.556943,79.212144,58.638191,81.816381,4.010793,295.966347,-43.560351,266.442166
27,8.653244,-13.00949,-3.786638,-12.645206,0.0,-24.592277,-19.043483,-7.661842,-15.851017,-1.861061,-10.627498,1.852204,-3.605003,-8.068588,0.0,26.475464,12.772171,42.854181,18.87489,48.729498,23.441037,52.226843,26.425977,57.110152,0.0,64.829172,25.423422,78.011129,16.435873,72.881516,6.786203,58.335869,-2.664396,38.619839,0.0,8.700318,14.760022,50.858115,29.900352,69.408988,43.356273,78.660935,54.609496,80.461188,12.627468,282.991817,-47.383558,253.83192
28,18.549454,-18.772212,-7.932587,-19.763355,0.0,-41.61161,-26.038387,-29.35334,-18.447384,-20.699638,-9.104359,-12.147995,1.280651,-7.830162,0.0,38.604604,12.129671,47.565293,16.884144,53.184827,21.384032,56.746628,25.122772,60.603398,0.0,65.771548,28.418867,73.848731,19.520457,68.051274,9.880743,54.288998,0.488005,37.324173,0.0,11.385399,8.734355,48.296954,23.036855,66.667047,36.944024,76.198724,49.565191,77.832757,31.006307,264.298303,-55.48676,234.147263
29,22.440399,-30.523537,-8.091373,-24.339987,0.0,-53.081634,-31.24633,-46.66587,-20.291816,-37.954536,-7.723983,-26.373481,5.586708,-16.398834,0.0,35.672929,9.455062,50.056798,17.674561,58.759098,26.48979,64.857952,34.8062,72.241782,0.0,63.731718,28.040308,66.112616,18.294164,58.184967,7.950171,44.87146,-1.929056,29.60638,0.0,12.861814,1.666551,43.712246,13.269546,60.195839,25.78139,68.710671,38.352044,69.039325,53.017038,234.299607,-64.007801,210.332117
30,15.033188,-32.031396,-9.278046,-26.573286,0.0,-53.36158,-30.957825,-45.881401,-18.886825,-36.261337,-5.710876,-23.081863,7.499794,-9.543091,0.0,26.885413,2.064705,46.060311,9.205757,54.782989,18.40145,60.481083,27.875568,64.019628,0.0,60.847447,27.656702,57.745898,17.040556,48.203001,6.1497,35.578572,-4.062767,22.315464,0.0,10.912742,-7.108671,34.571119,1.526179,48.737444,12.368178,55.759831,24.617681,55.941797,67.44671,203.465941,-73.889363,184.956561
31,13.943985,-36.349911,-10.403972,-29.879611,0.0,-55.858223,-32.291542,-40.943642,-18.641807,-27.553985,-4.305405,-14.53775,9.972222,-2.398887,0.0,17.990291,-7.303314,36.623477,-1.803872,44.712596,6.82121,48.267536,16.805621,50.7234,0.0,58.80154,27.17288,48.352106,14.406309,37.573431,1.813842,25.398536,-9.753159,12.403198,0.0,6.422969,-17.438378,22.96973,-12.303973,33.298583,-3.495978,37.636938,7.792627,36.879594,80.606083,169.159039,-85.077947,157.119959
32,6.427448,-29.23916,-8.488249,-25.670579,0.0,-56.897598,-29.52214,-34.036686,-14.785697,-19.009689,-0.059108,-4.441394,14.436253,7.39444,0.0,2.218766,-20.9377,16.721249,-18.405711,21.854348,-11.580842,24.566639,-2.348242,26.919348,0.0,54.747454,25.69289,39.9795,12.467479,27.704859,-0.910269,15.257332,-13.711172,2.803745,0.0,0.478078,-25.368798,11.232737,-23.661078,18.494595,-17.825247,20.208663,-8.701821,18.774336,86.206192,142.845768,-94.393535,134.375269
33,4.252465,-28.501693,-5.50581,-21.558606,0.0,-55.838196,-27.070313,-28.093403,-12.052162,-13.682808,2.929149,1.393512,17.899349,12.998108,0.0,-14.045514,-32.673045,0.413305,-33.180892,3.060005,-28.77567,4.525641,-21.058289,5.733831,0.0,50.567019,22.582088,32.078213,9.138988,18.097235,-4.671106,4.695373,-18.364225,-7.432182,0.0,-7.153785,-31.615167,0.614401,-33.237888,5.9833,-30.680905,5.353211,-24.092871,2.544302,89.785172,118.093405,-100.57283,116.565993
34,1.794365,-22.053863,-5.423378,-15.666518,0.0,-53.798195,-24.71196,-23.614025,-9.920677,-9.815209,4.886959,5.04285,19.724201,16.944923,0.0,-28.170155,-42.467901,-12.556005,-45.305055,-12.048364,-42.602625,-10.932809,-35.941368,-10.714527,0.0,49.471808,23.656998,28.053097,10.607174,13.649969,-3.181601,0.079445,-17.284052,-10.869095,0.0,-14.106517,-38.811258,-8.411681,-42.239289,-4.585623,-41.092982,-6.333777,-35.560521,-9.324238,91.106083,99.869173,-106.469662,104.729106
35,0.662017,-13.291042,-4.029751,-8.419906,0.0,-53.202507,-23.101135,-22.235309,-8.403396,-9.518348,6.345852,4.863247,21.236287,15.682091,0.0,-36.405208,-47.717624,-18.590143,-52.057943,-19.415972,-51.086446,-18.670104,-46.052781,-19.072464,0.0,49.282482,25.752342,27.032799,13.244637,12.875187,-0.486477,-0.5961,-14.915417,-10.474079,0.0,-17.438286,-43.373669,-11.676114,-47.990969,-9.821916,-47.524618,-11.828378,-42.439552,-14.442619,91.441131,89.85861,-110.826382,99.589679
36,0.821549,-5.523167,-2.781658,3.118933,0.0,-53.397606,-22.679146,-23.342526,-8.800003,-10.536644,5.303364,3.080189,19.562244,12.4655,0.0,-37.290684,-49.384194,-17.720858,-54.767848,-18.39617,-54.625936,-17.702555,-50.318555,-19.454019,0.0,49.300804,27.865364,27.813198,16.14386,13.862144,2.732601,0.685299,-11.607078,-8.131706,0.0,-15.922251,-44.296961,-9.816371,-49.354534,-9.49086,-49.08884,-11.273942,-44.169656,-13.762529,92.1091,86.619748,-113.76162,104.992917
37,0.625488,8.038552,-1.477581,13.437457,0.0,-53.928291,-23.533836,-24.634815,-9.724926,-11.115955,4.425556,2.783627,18.532745,12.385334,0.0,-35.296264,-48.082934,-16.393926,-54.223797,-17.13368,-54.573412,-16.495159,-50.760299,-18.269468,0.0,50.02367,30.312115,28.943298,17.695141,14.306076,3.839127,1.306503,-10.356514,-7.329586,0.0,-11.91857,-44.006888,-5.734915,-49.525355,-7.386189,-48.885732,-9.032331,-43.519689,-11.748299,92.601946,95.857857,-115.371843,119.629931
38,0.429428,21.600269,-1.240219,23.853042,0.0,-54.794563,-25.665207,-26.112178,-11.178165,-11.256282,3.712429,3.973561,18.147789,15.441594,0.0,-30.421945,-43.813844,-14.609345,-50.425788,-15.628501,-50.928871,-15.047914,-47.378013,-15.518808,0.0,49.569248,33.727237,30.972965,19.983559,14.707031,5.481571,1.727096,-8.736305,-7.118431,0.0,-5.195389,-41.788214,-0.68601,-47.810682,-5.165724,-46.85402,-6.981754,-41.262446,-9.318211,92.751886,117.450216,-116.89155,143.475063
39,2.666932,24.102335,-2.996613,25.309043,0.0,-55.493615,-28.012688,-28.42043,-13.287587,-12.564229,1.947246,3.478992,16.496131,15.271053,0.0,-21.72587,-37.827494,-8.911172,-43.749519,-9.59469,-43.668987,-9.079219,-39.967735,-8.893051,0.0,49.688359,36.673405,34.788723,22.648636,16.094662,7.847878,2.556004,-6.504135,-6.87743,0.0,2.56116,-36.35721,5.72882,-42.463548,-2.308577,-41.178411,-4.099252,-35.484566,-5.310289,95.189107,140.600208,-120.117874,167.831763
40,2.247367,22.054363,-2.637405,20.00386,0.0,-55.512634,-29.099212,-28.006221,-14.590702,-11.196796,0.777775,4.948551,15.463715,16.93578,0.0,-16.463111,-34.813721,-5.064726,-40.084638,-5.068255,-39.154334,-4.522822,-34.64735,-4.636428,0.0,49.717323,37.632568,39.114841,23.897175,16.019748,9.172359,2.679737,-4.973396,-6.572708,0.0,8.63364,-32.437096,9.680921,-38.094625,-1.140647,-36.553261,-2.544376,-30.849869,-3.946092,97.231819,161.380395,-122.959934,186.561447
41,1.378762,12.20303,-1.039673,5.505766,0.0,-56.036202,-31.497666,-28.339817,-16.153485,-11.286839,-0.109143,6.206691,15.162368,19.698818,0.0,-12.748965,-30.12492,-4.470427,-34.403446,-4.885936,-32.917314,-4.7862,-28.183688,-3.32236,0.0,51.048889,38.207947,40.025822,24.242294,15.905014,9.589665,2.686371,-4.256206,-7.075329,0.0,12.749984,-30.290979,11.693157,-35.70451,0.324739,-33.904659,-1.301579,-28.011475,-2.570104,98.290089,172.418688,-124.320099,190.902476
42,1.424297,0.655413,-0.313997,-5.485493,0.0,-55.99221,-31.099617,-29.682701,-16.56015,-12.698525,-0.953453,4.389358,14.237297,16.914597,0.0,-12.806628,-25.539582,-5.418574,-29.529782,-5.538691,-28.576072,-5.141469,-24.769128,-4.143583,0.0,51.520981,38.321211,39.918726,24.348501,15.828375,9.729469,2.921814,-4.111553,-7.216908,0.0,12.691794,-30.768847,11.079849,-36.177186,-0.084036,-34.279062,-1.993634,-28.168315,-3.184883,99.152596,172.228923,-125.195886,184.571805
43,1.175205,-12.26793,0.411678,-16.476751,0.0,-56.066333,-30.422046,-30.215297,-16.92913,-13.818718,-2.268425,2.013725,12.431351,12.45203,0.0,-15.383043,-25.685402,-6.496678,-29.406645,-6.40052,-28.839492,-5.716816,-25.597343,-6.121297,0.0,51.133598,37.972361,38.793554,24.215796,15.789831,9.591774,3.386067,-4.539436,-6.997444,0.0,8.459068,-33.8707,7.840996,-39.512653,-2.366974,-37.676471,-4.62054,-31.32039,-5.790429,99.765758,160.055308,-125.346251,168.189369
44,-1.148575,-18.108129,1.349385,-19.265802,0.0,-56.495624,-29.980579,-29.030696,-16.734787,-13.32978,-2.512619,1.721695,12.279328,11.27615,0.0,-22.494382,-30.096672,-11.306806,-34.496238,-11.593674,-34.946182,-11.234765,-32.499045,-12.678684,0.0,51.24876,36.660123,37.50464,23.183378,15.997747,8.912624,3.991847,-4.96859,-6.399857,0.0,2.644125,-38.343263,2.415822,-43.996109,-5.33652,-42.459219,-7.274689,-36.157669,-9.255719,97.988016,142.881352,-124.626033,149.85774
45,-0.690605,-18.305681,1.188388,-16.73241,0.0,-56.604023,-29.680675,-28.861919,-16.469787,-14.213768,-2.489914,0.639427,12.125817,10.213818,0.0,-26.263269,-33.796195,-14.630405,-39.020654,-15.229748,-39.948552,-14.657418,-37.551352,-16.065022,0.0,51.024971,36.21298,32.943873,22.68286,15.420164,8.478928,3.533695,-5.450969,-7.491794,0.0,-2.427924,-41.665207,-2.466012,-47.831742,-6.93404,-46.678415,-9.620013,-40.605015,-11.753635,96.7015,125.807468,-124.033556,134.357127
46,0.135247,-8.354597,0.294148,-7.141423,0.0,-57.487965,-28.724339,-28.376599,-16.35006,-14.65313,-2.942322,-0.858285,11.230155,7.642993,0.0,-30.734016,-40.271318,-16.705502,-46.774504,-17.167654,-48.330077,-16.927677,-45.925911,-19.568004,0.0,49.369056,34.472963,32.647138,21.430269,15.394998,7.436302,3.520477,-6.525902,-7.635636,0.0,-7.81377,-44.3884,-5.437343,-50.650636,-9.272633,-49.515858,-11.793449,-43.292108,-13.595211,96.326495,118.774398,-124.24966,128.537231
47,0.810287,-3.813341,-0.502115,-3.100198,0.0,-58.20306,-29.776508,-29.238155,-17.304039,-15.062233,-4.090233,-1.284348,9.601387,6.94614,0.0,-29.949842,-45.762504,-13.214998,-52.139973,-13.331089,-52.529815,-13.382889,-48.599167,-16.251569,0.0,48.940361,33.105743,31.65002,20.199039,15.445323,6.27951,3.564662,-7.687306,-7.789422,0.0,-6.256527,-42.812301,-3.452891,-47.913139,-6.524425,-45.827938,-7.513308,-38.86285,-9.11788,96.923275,115.71451,-124.965282,126.190486
48,-0.721355,10.746264,-0.589257,11.460284,0.0,-57.784035,-30.998337,-30.537896,-18.054566,-16.648751,-4.487755,-1.703133,9.376602,7.705719,0.0,-29.291468,-46.61822,-12.667232,-53.1778,-13.316699,-53.259675,-13.50011,-48.725138,-15.958579,0.0,49.343788,32.04102,32.998512,18.904896,15.556515,4.976658,4.051518,-8.667732,-7.671123,0.0,-2.007092,-41.151778,-0.016561,-45.680195,-3.34581,-43.075896,-3.880118,-35.809194,-5.434567,96.110962,126.100884,-125.645497,137.29088
49,-0.188233,21.624618,-1.251983,13.770941,0.0,-58.389976,-31.189545,-32.147804,-18.071915,-17.336265,-4.262192,-1.738678,9.428307,8.867317,0.0,-23.612716,-43.078693,-8.828129,-48.856692,-9.209846,-47.990012,-9.886161,-42.563281,-11.476055,0.0,47.121116,31.681343,32.258514,18.132202,15.112861,3.742298,3.289718,-10.279187,-9.222084,0.0,6.129074,-34.410207,8.561787,-37.234721,4.921353,-33.105964,4.53826,-24.886818,4.098369,95.923078,145.908085,-126.897131,149.244404
50,1.258324,23.889165,-1.562428,19.083273,0.0,-59.103585,-31.981316,-36.793556,-19.107537,-19.141114,-5.375588,-2.506508,7.922584,7.689102,0.0,-14.195431,-36.059962,0.095726,-40.421659,-0.659154,-38.567769,-1.799549,-32.799071,-3.190699,0.0,45.730476,30.258728,34.119186,16.593144,15.179581,2.241303,2.322556,-11.497387,-10.141834,0.0,13.18877,-28.628535,17.174988,-30.368093,10.83156,-25.438514,10.031991,-16.527078,10.092407,97.241307,167.193041,-128.399654,165.723468
51,-0.053559,24.729336,-1.758865,19.093709,0.0,-59.712593,-32.656494,-36.58461,-19.430305,-18.474975,-5.46492,-1.748405,7.896882,8.392296,0.0,-7.56487,-32.481754,3.396248,-35.862793,3.64982,-32.873943,2.589763,-26.109612,1.456964,0.0,45.614605,30.946197,35.667263,16.740806,14.653084,1.866188,1.606716,-12.165104,-10.500458,0.0,19.500391,-25.766792,22.094705,-26.962743,12.610645,-21.410733,12.502124,-12.113097,12.700183,97.388105,188.965211,-129.958162,181.860011
52,-0.878791,21.906934,-1.122208,17.609303,0.0,-60.743294,-33.620682,-34.297303,-20.278336,-16.982094,-5.995995,-0.783509,7.753349,10.077735,0.0,-5.348684,-31.483787,2.159832,-34.493527,1.937642,-31.215302,0.843462,-24.081666,0.08692,0.0,45.028965,31.374687,37.391293,17.105976,14.415436,2.132755,1.094879,-11.733261,-10.337082,0.0,20.035798,-26.891674,20.31633,-28.44516,9.541427,-23.105448,9.093255,-14.003882,9.445887,97.120766,208.326404,-130.468918,196.923573
53,0.431144,9.653331,-1.652721,5.615052,0.0,-62.218208,-33.625671,-32.494331,-20.8171,-15.129478,-6.874855,-0.414596,6.468911,10.001129,0.0,-2.213802,-31.646357,3.458233,-33.821306,3.637013,-29.637814,2.923561,-21.723906,2.215123,0.0,45.000938,31.641666,36.779606,17.750953,14.451908,2.880535,0.5583,-10.945656,-10.218796,0.0,19.357939,-27.056721,18.18699,-28.340685,7.245114,-22.729907,7.586791,-13.394233,8.397191,98.384691,215.966277,-131.288858,200.525167
54,0.056969,2.333808,-0.536957,4.461739,0.0,-62.726028,-34.089455,-31.326439,-21.674858,-15.02282,-7.86454,-1.010765,5.527725,9.228836,0.0,-3.449947,-32.948415,1.201218,-35.369846,1.218718,-31.254848,1.266056,-23.318883,0.320064,0.0,46.845348,32.610569,36.994377,18.776939,14.736065,4.058361,0.93996,-9.394673,-8.915669,0.0,15.002608,-31.726411,11.717597,-34.349853,0.575884,-29.593194,1.05892,-20.721055,1.107777,99.410614,217.334441,-130.856861,204.021262
55,-1.503456,-0.170802,-0.280895,-1.104024,0.0,-63.587105,-34.429688,-27.196976,-21.805618,-13.360428,-7.783928,-0.233048,6.071159,10.848106,0.0,-8.485124,-36.456072,-5.238831,-39.840415,-4.735614,-36.287951,-4.422157,-28.479105,-5.479262,0.0,47.793686,34.271244,35.550945,20.054626,14.694065,5.062042,1.279655,-8.537625,-8.590416,0.0,12.443622,-35.242911,5.527786,-38.548769,-3.85078,-33.949302,-2.350121,-25.167417,-2.414441,98.959065,216.897056,-130.085849,202.650655
56,-0.256828,-3.793884,-1.023651,-2.994055,0.0,-63.807656,-34.834534,-26.749764,-22.421517,-13.132485,-8.249314,-0.101738,5.876312,11.408409,0.0,-10.241182,-37.360036,-6.649309,-41.193131,-6.76866,-37.924793,-6.1702,-30.298691,-7.523472,0.0,48.26873,35.068061,33.840065,21.123985,15.43436,6.429004,1.981727,-6.82742,-8.107441,0.0,10.986683,-36.330731,2.109876,-39.891075,-4.21139,-35.462446,-3.200882,-26.729048,-3.6998,99.8638,213.148161,-129.947937,199.701589
57,-0.473122,-2.824439,-1.474778,-1.588331,0.0,-64.117127,-34.685509,-26.463936,-21.944916,-13.109963,-7.494164,0.475204,6.80928,12.415237,0.0,-10.403153,-37.711223,-7.648282,-41.899803,-7.552619,-38.744839,-6.940536,-31.088492,-8.288004,0.0,49.286785,35.917855,33.278195,22.060055,16.057766,7.403801,2.77113,-5.818748,-7.958324,0.0,10.304007,-36.648672,1.938851,-40.59445,-3.59175,-36.267203,-3.252246,-27.486196,-3.956769,100.259182,210.424458,-130.554211,198.213994
58,-0.437759,-0.79532,-1.365314,-0.480641,0.0,-64.700707,-34.957879,-26.209717,-21.949196,-13.076157,-7.205361,0.915412,7.363105,13.110122,0.0,-10.766049,-37.979777,-8.075682,-42.678254,-7.681319,-39.72572,-7.458845,-32.126801,-8.966135,0.0,50.078224,36.349708,35.071953,22.608604,16.532535,8.051399,3.333435,-4.998287,-7.7692,0.0,10.496953,-36.721019,3.691254,-40.79336,-2.994068,-36.295904,-3.206612,-27.262807,-4.013851,100.597682,209.716913,-131.143266,197.821128
59,-0.779274,-0.271171,-1.549954,-0.270257,0.0,-64.732041,-35.100495,-25.671799,-21.90873,-12.80436,-6.995179,1.379653,7.700752,13.645546,0.0,-10.726565,-38.066671,-8.096023,-42.930369,-7.413063,-39.97161,-7.241681,-32.347163,-8.877388,0.0,51.208947,36.752724,37.303002,23.188111,17.127262,8.803883,3.948555,-4.07999,-7.212112,0.0,11.113321,-36.34155,5.282896,-40.443284,-2.249987,-35.77951,-2.835505,-26.57944,-3.528406,100.549651,209.518864,-131.961977,197.623993
60,-0.692986,-0.175791,-1.456764,-0.062714,0.0,-64.53875,-34.989075,-25.641266,-21.754326,-12.945007,-6.81118,1.53083,7.887749,13.878227,0.0,-10.603262,-38.362135,-8.392005,-43.083238,-7.54369,-39.974907,-7.267048,-32.258551,-8.846117,0.0,52.193539,37.061955,39.91737,23.7808,17.943798,9.622891,4.865982,-3.067337,-6.278664,0.0,11.253149,-36.359358,7.053503,-40.360872,-1.744214,-35.454851,-2.521158,-26.044347,-3.175675,100.496384,209.367563,-132.779022,197.585769
61,-0.399742,-0.193279,-0.781231,-0.092415,0.0,-64.554222,-34.875687,-25.7425,-21.684654,-13.22596,-6.871468,1.27066,7.695648,13.678368,0.0,-10.627221,-38.478263,-8.468204,-43.125636,-7.656125,-39.945008,-7.33485,-32.170964,-8.648306,0.0,52.802273,37.175572,41.104912,24.073483,18.143395,9.992375,5.078316,-2.670399,-6.091507,0.0,10.54434,-36.316653,7.786961,-40.409038,-1.604511,-35.569843,-2.545698,-26.261882,-3.218592,100.573866,209.175167,-133.083029,197.494237
62,-0.305672,-0.050882,-0.673942,-0.278705,0.0,-64.481094,-34.805466,-25.363975,-21.711616,-13.090576,-7.02388,1.383934,7.482971,13.688278,0.0,-10.879435,-38.72829,-8.468588,-43.360534,-7.716591,-40.183488,-7.47406,-32.389586,-8.686925,0.0,53.203045,37.034477,41.431835,23.947517,18.196472,9.923629,5.057945,-2.691193,-6.124386,0.0,10.167613,-36.30282,7.86809,-40.334022,-1.523777,-35.468362,-2.508314,-26.162031,-3.166363,100.659296,209.114847,-133.365869,197.206094
63,-0.169739,-0.37259,-0.566563,-0.281618,0.0,-64.225639,-34.569992,-24.988586,-21.440025,-12.750755,-6.734047,1.783791,7.815148,13.999123,0.0,-10.66621,-38.756127,-8.627496,-43.275603,-7.88265,-40.034422,-7.502873,-32.168408,-8.62368,0.0,53.575184,36.847057,39.952492,23.603657,18.212402,9.516335,4.966473,-3.180702,-6.31842,0.0,9.513688,-36.540128,6.713949,-40.51,-1.504525,-35.704385,-2.481972,-26.43902,-3.275588,100.78811,208.746764,-133.633879,196.928983
64,-0.141792,-0.309431,-0.025005,-0.54501,0.0,-63.900856,-34.38929,-24.986183,-21.236252,-12.629219,-6.524345,1.951241,8.031967,14.261879,0.0,-10.725355,-38.624031,-8.922848,-43.186398,-8.166517,-40.003362,-7.738562,-32.177424,-8.707957,0.0,53.046283,36.401493,39.275058,22.92128,17.801674,8.68642,4.542034,-4.064667,-6.769925,0.0,9.231699,-36.766392,6.643147,-40.637798,-1.645364,-35.784512,-2.480822,-26.497175,-3.283059,100.859882,208.435021,-133.44532,196.381661
65,-0.039276,-0.350483,-0.091736,-0.437514,0.0,-64.185837,-34.298012,-24.830498,-21.180244,-12.642838,-6.574013,1.685326,7.865135,13.933571,0.0,-11.051521,-38.597663,-9.004939,-43.046916,-8.0773,-39.793053,-7.402454,-31.825891,-8.150375,0.0,52.993824,35.902805,38.500465,22.315853,17.642635,8.075844,4.277572,-4.641701,-7.027233,0.0,8.32366,-37.161311,5.588462,-40.925431,-1.854982,-36.058757,-2.612993,-26.75896,-3.344995,100.965139,208.079734,-133.392523,195.939343
66,-0.697151,-0.38683,0.088108,-0.924712,0.0,-64.403023,-33.766709,-24.76648,-20.638985,-12.678703,-6.165184,1.429436,8.039795,13.464775,0.0,-11.379143,-38.620831,-8.927047,-42.831851,-7.701363,-39.352117,-6.816022,-31.138201,-7.495339,0.0,52.929016,35.377647,37.171234,21.491192,17.340431,7.184715,4.156883,-5.501793,-7.128548,0.0,7.951798,-37.700207,4.015419,-41.140446,-2.086028,-35.997032,-2.468893,-26.405674,-2.94631,100.382298,207.697822,-133.190105,195.019549
67,-1.383042,-0.294537,0.44363,-0.638055,0.0,-64.433601,-32.646858,-24.537551,-19.469375,-12.51892,-5.242996,1.199341,8.453705,12.853775,0.0,-11.9748,-38.762586,-8.505798,-42.444133,-6.82384,-38.447103,-5.644938,-29.695538,-6.312411,0.0,53.294403,34.20536,36.797733,20.244038,16.993458,6.056042,3.976536,-6.478901,-7.083961,0.0,6.92773,-38.493329,3.075035,-41.597016,-2.609313,-36.119434,-2.71624,-26.215495,-2.754488,99.092559,207.436016,-132.653172,194.414225
68,-2.08905,-0.327783,0.929821,-0.664669,0.0,-64.370521,-31.709679,-25.008224,-18.424919,-13.124222,-4.524284,0.537506,8.643723,11.778603,0.0,-12.543374,-38.521439,-8.113572,-41.348694,-5.973204,-36.652859,-4.397902,-27.343021,-4.661477,0.0,53.977615,32.972591,38.018555,19.11747,17.249863,5.301876,4.475922,-6.820038,-6.371818,0.0,5.907551,-39.272163,1.551813,-41.669622,-3.281849,-35.591826,-2.632642,-25.227019,-2.12004,97.128153,207.113472,-131.598707,193.754795
69,-3.162506,-0.724641,1.503765,-0.943521,0.0,-64.038506,-30.134788,-25.304169,-16.61808,-13.771362,-3.069626,-0.147995,9.462868,10.089638,0.0,-12.366224,-37.590576,-6.671762,-39.078983,-3.318998,-33.36854,-1.15724,-23.242559,-0.742141,0.0,55.791928,31.494621,37.167755,17.436127,17.419579,3.877636,4.706886,-7.873157,-6.046234,0.0,4.646644,-39.504863,-0.663138,-40.884121,-3.173675,-33.999456,-1.585627,-22.958396,-0.309938,94.178724,206.374138,-129.881865,192.796581
70,-3.773552,-2.647932,2.826004,-1.863035,0.0,-63.947456,-28.742386,-26.873909,-15.239662,-15.37516,-2.06131,-1.65081,9.887444,7.461319,0.0,-10.019202,-33.849686,-2.655317,-33.19423,1.952264,-26.058896,5.016887,-14.907278,6.338235,0.0,57.527825,29.005394,36.335335,14.425942,18.204231,0.957196,5.872032,-10.443798,-4.747833,0.0,4.011974,-38.535419,-0.131689,-38.200077,-0.08587,-29.9541,2.595617,-17.899654,4.387527,90.781517,203.615839,-126.679516,190.823179
71,-4.105293,-2.064637,2.637314,-1.679204,0.0,-64.723,-28.118157,-29.172501,-15.090271,-17.971024,-2.532395,-4.677704,8.689773,3.597725,0.0,-7.521744,-29.291024,2.257669,-26.050733,8.017982,-17.280606,12.154296,-5.01017,15.004473,0.0,60.56987,26.857681,39.192616,12.278767,22.14838,-0.844791,9.254814,-11.626419,-0.645985,0.0,2.953547,-35.963785,5.221467,-33.616751,6.633785,-23.818961,9.528571,-10.626739,11.232017,87.24321,201.285033,-123.475216,188.877806
72,-5.087654,-1.521876,3.042526,-1.401277,0.0,-65.103699,-27.124077,-34.653649,-15.162392,-24.060723,-3.659684,-10.754265,6.729606,-3.105858,0.0,-4.080282,-23.251587,9.058649,-16.840066,15.972089,-6.113526,21.456526,7.28498,25.540513,0.0,63.653138,25.033997,44.326813,10.504212,30.234856,-2.43227,16.930081,-12.636692,6.365628,0.0,1.969505,-31.47626,12.501754,-26.948324,16.766953,-15.768684,19.905048,-1.407452,20.919656,82.907891,199.34955,-119.680355,187.062922
73,-5.780754,0.103642,3.09684,0.058453,0.0,-65.245812,-26.467141,-39.619767,-15.931229,-30.275093,-5.483597,-17.619141,4.163452,-11.088936,0.0,-0.427276,-15.490375,16.230342,-6.262641,24.676576,6.002819,31.364405,20.166177,36.723661,0.0,66.592793,23.73048,50.71629,9.522022,41.083157,-3.284225,27.109841,-13.568653,13.895817,0.0,1.362436,-25.05234,16.248126,-18.139035,27.100774,-5.727153,31.226702,9.531015,32.244731,77.97024,198.926041,-115.740412,186.594224
74,-5.963929,2.424839,4.316426,2.276787,0.0,-66.000434,-25.769806,-46.793701,-16.912216,-38.35762,-7.830482,-26.301109,0.830956,-20.049774,0.0,2.791737,-7.747762,22.16084,4.493615,32.403418,18.271713,40.170385,32.706094,46.496122,0.0,68.245536,22.266437,59.426914,8.839828,52.661556,-3.709992,38.021141,-14.196808,22.051094,0.0,-0.838953,-17.521963,23.878378,-8.190019,37.845975,5.257232,43.078261,20.938453,44.259954,73.020389,200.611524,-110.409908,188.131655
75,-7.180549,5.792683,4.260887,5.245488,0.0,-65.299393,-24.049645,-53.128166,-16.507485,-47.038399,-8.691353,-36.253807,-1.07087,-28.491852,0.0,4.078837,-1.660357,25.64733,12.75661,38.703281,27.412465,47.694042,41.4408,54.604407,0.0,68.930923,22.158828,70.080436,10.023227,65.177684,-1.792797,50.374969,-12.088131,31.602298,0.0,-4.001946,-10.05829,30.222751,1.280197,46.276326,15.338901,52.669087,30.890915,54.871317,66.902779,205.657407,-105.086082,192.630343
76,-9.187912,8.387262,5.66225,6.987293,0.0,-65.875878,-24.359093,-66.706558,-18.166077,-63.629448,-11.902313,-53.191017,-5.545784,-42.755528,0.0,5.319353,8.003026,24.495833,23.385215,36.677905,37.084692,46.523699,48.644233,54.861968,0.0,68.283337,21.698914,76.945885,10.967663,74.289013,0.392235,60.281204,-9.165985,39.646179,0.0,-6.573702,-2.064822,33.618431,11.074159,52.611882,25.291969,60.837519,39.883146,63.981936,58.690499,213.412422,-98.4482,198.985389
77,-6.859474,8.368947,6.290806,8.198306,0.0,-67.399556,-25.208702,-75.656411,-20.583207,-75.941872,-15.853318,-66.954895,-10.720276,-54.514126,0.0,5.029126,14.141635,20.645373,30.68583,33.949438,44.158992,46.094929,54.285479,57.077758,0.0,67.701725,21.144024,80.860279,11.938557,78.821594,2.753746,65.369385,-6.114429,43.963692,0.0,-8.440812,5.24487,34.555185,20.094041,55.041279,34.442787,65.351227,47.504419,69.90464,52.731858,221.182439,-91.256561,206.584765
78,-6.258179,8.823269,7.660275,8.751824,0.0,-68.549973,-23.440041,-81.722466,-20.003494,-84.26207,-17.049454,-76.291889,-13.862846,-62.409428,0.0,2.32625,17.45042,15.363256,35.136071,29.597887,48.633859,43.912311,57.680949,56.834437,0.0,67.413425,21.918937,85.326873,14.015647,83.755966,6.118801,71.992607,-1.63797,52.056255,0.0,-9.515504,12.098203,40.628647,28.915693,57.96715,43.654281,69.112099,55.652176,75.18729,47.347979,229.409668,-82.721986,214.740549
79,-5.787232,8.677069,5.909488,8.952649,0.0,-67.058452,-24.375137,-78.100273,-21.650848,-79.902717,-19.386817,-73.173603,-16.720893,-61.499279,0.0,-1.298265,18.288521,12.334818,36.124424,26.636325,49.653618,41.914871,58.7364,55.144872,0.0,67.968842,23.30381,88.878639,16.234829,88.351822,9.544419,77.810646,3.20945,58.668995,0.0,-9.128576,17.151202,42.904248,35.214716,59.770867,49.901533,71.572037,60.628778,77.79538,42.244886,237.605442,-76.128359,223.211903
80,-9.303966,8.5031,5.7109,8.611922,0.0,-59.22769,-23.232096,-64.56823,-22.088127,-65.05156,-21.456877,-60.470844,-20.331202,-54.224785,0.0,-5.48138,18.517726,10.107555,36.707181,23.535324,50.528948,38.882376,60.07442,52.528322,0.0,69.415283,24.425216,90.126159,17.858871,91.153999,11.853469,80.980785,6.310821,62.7663,0.0,-7.774784,21.681706,43.966047,40.347584,60.876311,54.596924,72.995088,64.133744,78.974356,33.433931,245.720074,-69.924448,231.435357
81,-11.854317,6.612617,5.141475,8.318596,0.0,-41.923536,-16.45194,-33.413566,-17.273163,-32.375358,-18.67602,-31.834797,-19.799978,-33.964268,0.0,-10.086047,14.671824,12.608014,34.160186,29.105174,49.931636,44.445508,61.934601,57.105583,0.0,70.553066,26.089325,92.643597,19.502896,93.631108,13.327103,83.565296,7.625588,64.921154,0.0,-6.023963,24.860012,44.90469,43.821736,60.607634,57.679911,73.110796,66.468341,79.166325,21.98735,251.953911,-64.375237,239.375173
82,-14.068416,6.812306,4.586151,7.953935,0.0,-21.248389,-9.482809,-0.949345,-11.479214,2.035595,-14.268683,-1.261597,-17.062277,-12.048317,0.0,-13.364339,13.531231,16.639439,33.407189,33.931524,49.653648,47.485332,62.529442,57.998679,0.0,71.256306,28.183594,96.028485,21.376923,97.144215,14.913872,87.145718,9.059018,68.169583,0.0,-4.787868,27.299412,46.519524,46.354577,61.10055,59.924613,73.570737,68.486838,79.819064,8.241034,258.362251,-59.466986,246.925142
83,-11.520127,5.940216,3.346115,7.282201,0.0,-2.245622,-5.857607,25.891468,-9.276935,30.438549,-13.428262,23.519131,-17.378488,2.09927,0.0,-13.674276,13.397036,22.061817,33.775753,39.540178,50.313551,51.310585,63.819669,60.637546,0.0,71.247151,28.715561,95.932194,21.447979,96.465947,14.569245,85.632237,8.471077,66.280987,0.0,-4.515523,28.455356,47.068017,46.840788,60.972443,59.799272,73.455586,67.806238,78.959919,-3.067217,263.963899,-55.908995,253.868775
84,-10.89347,4.751855,3.304001,6.135793,0.0,15.354806,0.334115,46.504131,-4.649849,49.20647,-10.693457,38.96133,-16.562777,8.162647,0.0,-13.516047,15.711429,25.438008,36.964791,43.339459,53.350534,54.088254,66.302035,64.060199,0.0,71.010144,29.314476,95.531811,21.96983,95.826084,14.797703,84.664433,8.278622,65.655018,0.0,-3.540114,29.863055,47.593858,47.916084,61.092535,60.600866,73.37384,68.467251,79.037007,-13.814054,268.423116,-52.458361,259.71193
85,-1.496991,5.561853,2.634465,4.933191,0.0,21.074513,0.290108,53.603314,-5.781852,56.132183,-12.740261,44.189564,-19.451351,7.355507,0.0,-13.727363,15.705588,26.769397,37.120989,44.537695,53.217197,54.730403,65.848293,65.030743,0.0,70.200393,30.153225,95.27909,22.823055,95.192482,15.40686,83.771415,8.563556,65.009628,0.0,-2.436177,30.822199,48.446891,48.813169,61.407697,61.446489,73.577876,69.313096,78.984927,-15.192736,273.671925,-49.705587,264.332077
86,-1.05011,8.181769,1.909,4.205598,0.0,27.686886,3.937443,58.076146,-2.526741,59.854535,-9.906475,46.698132,-16.68964,9.152665,0.0,-19.087138,12.871466,25.125082,33.259872,41.818442,48.734216,51.777746,60.78634,61.51628,0.0,69.909679,30.554066,95.392696,23.203342,95.329823,15.566357,83.469852,8.453499,64.768719,0.0,-2.04815,30.820458,48.548174,48.839698,61.772778,61.517576,73.61521,69.505844,78.899131,-16.174181,281.560312,-47.727922,268.244293
87,2.64029,3.958301,1.150349,3.25274,0.0,26.211811,3.414413,55.218784,-2.714321,58.049045,-9.867039,46.254421,-16.568264,9.886871,0.0,-19.410526,12.668121,24.125713,32.680318,40.733659,47.840576,50.041891,59.526903,59.594322,0.0,69.668586,30.972793,95.25309,23.568134,95.068885,15.722156,82.986122,8.35524,64.335136,0.0,-1.216891,30.715976,48.905944,48.797794,62.113653,61.443747,73.686705,69.406734,78.676015,-13.512113,285.311298,-46.555795,271.289718
88,2.970794,2.929316,0.273594,2.321433,0.0,22.961117,1.708054,52.889111,-4.447139,57.04089,-11.401863,46.090817,-18.120815,13.100659,0.0,-19.831096,12.1046,23.877192,31.48157,40.445383,46.332507,49.042831,57.925566,57.736771,0.0,69.798992,31.310657,95.184894,23.859649,95.289516,15.865436,83.013439,8.295364,64.050373,0.0,-0.4871,30.61331,49.233764,48.554719,62.69544,60.969207,73.788309,68.734914,78.495641,-10.534584,288.051244,-46.275466,273.421781
89,2.609047,2.269945,0.034195,1.531027,0.0,19.914654,0.68105,49.738186,-5.528743,55.188252,-12.5564,45.165608,-19.661453,18.010998,0.0,-19.559542,10.761121,23.652828,29.529207,40.221971,44.310354,48.55299,56.140016,55.996064,0.0,69.685237,31.486793,95.039257,23.962474,95.175098,15.812919,82.855487,8.057201,63.71696,0.0,0.183942,30.528329,49.406134,48.300814,63.134795,60.498904,73.784789,68.107852,78.291359,-7.933943,290.169027,-46.249677,274.800646
90,-2.372108,0.611551,-0.307057,1.045373,0.0,21.869396,3.697311,51.909382,-1.983742,56.995251,-8.86433,48.094265,-16.074932,25.735096,0.0,-19.190632,11.314664,23.928396,29.922558,40.682258,44.686575,48.674343,56.486869,55.320132,0.0,70.198059,31.425968,94.994522,23.763817,95.007408,15.477573,82.63401,7.603294,63.337395,0.0,0.517024,30.358861,49.66351,47.994952,63.76555,60.012805,73.917664,67.488816,78.301214,-10.321838,290.659504,-46.572521,275.724945
91,6.087753,-2.807939,-0.499924,0.468513,0.0,10.844891,-4.129989,42.416668,-9.12054,49.533222,-14.986553,42.890888,-21.417812,21.084011,0.0,-13.410621,14.639602,26.798542,33.707969,43.912323,48.213252,51.094748,59.719873,57.684901,0.0,70.54406,31.131466,94.658593,23.381573,94.7967,15.044861,82.438591,7.163887,62.984597,0.0,1.327905,30.576074,50.626322,48.138645,64.449374,60.015842,74.364637,67.32372,78.592688,-4.23935,287.707884,-47.07771,276.049777
92,2.142987,2.993833,-0.417331,0.314445,0.0,10.225936,-7.156392,40.161231,-12.7687,47.090194,-18.062737,40.139739,-23.25729,18.065437,0.0,-15.489202,12.615201,25.400834,31.03509,42.56215,45.163362,50.138852,56.477482,56.287427,0.0,70.678699,30.578098,94.215923,22.724807,94.412944,14.323208,81.953418,6.430366,62.441997,0.0,1.948398,30.613668,51.262364,48.073054,65.214042,59.864517,74.83278,67.070926,78.876629,-2.08727,290.548851,-47.485948,276.211356
93,-0.258271,0.90531,-0.30423,0.182114,0.0,11.448853,-7.726845,40.60833,-13.088093,46.48494,-17.34898,40.35521,-20.998775,18.685318,0.0,-15.227775,12.483303,26.35289,30.505581,43.34974,44.287173,51.228858,55.169473,56.349931,0.0,70.626903,30.101017,93.809521,22.143322,93.861019,13.653408,81.249287,5.679382,61.703808,0.0,2.424371,30.531121,51.290238,47.932708,65.639713,59.732643,75.158835,66.978252,79.131041,-2.323597,291.297979,-47.768234,276.237288
94,5.82779,0.404033,-0.228905,0.17815,0.0,3.753456,-14.886246,33.303154,-20.365586,39.51979,-23.779702,33.655517,-26.03135,12.271888,0.0,-14.751902,12.459146,27.281369,30.318069,43.528705,43.85066,51.031985,54.412438,55.898968,0.0,70.669613,29.476673,93.517262,21.420181,93.580525,12.934227,80.731396,5.024117,61.177494,0.0,2.710102,30.268039,51.549355,47.749593,66.07903,59.663989,75.361957,67.006101,79.1324,3.53488,291.554632,-47.966452,276.268058
95,4.889236,2.581488,-0.241596,0.060861,0.0,0.635834,-20.8965,28.009346,-27.085155,34.344681,-29.511269,28.335892,-30.029411,6.713379,0.0,-16.240136,10.424631,25.792703,27.564767,41.798496,40.723878,49.988688,51.014795,54.052211,0.0,70.612885,28.737637,93.277954,20.567471,93.308533,12.106098,80.340202,4.290802,60.714523,0.0,3.075714,30.068919,51.703349,47.666033,66.251499,59.660791,75.415099,66.992405,79.022558,8.458065,293.977959,-48.174099,276.170758
96,-1.217514,1.688281,-0.184101,0.007892,0.0,4.443031,-20.040836,30.350761,-26.558224,35.87146,-28.550182,29.894989,-28.207066,9.107048,0.0,-16.653283,8.667782,24.099284,25.224809,40.175312,38.23404,49.08812,48.561969,52.519393,0.0,70.458698,28.210659,93.068836,19.998505,93.05714,11.60067,80.020031,3.848522,60.412754,0.0,3.269055,29.913468,51.528718,47.513299,66.245657,59.567189,75.297613,66.955638,78.814706,7.267708,295.517816,-48.331043,276.030226
97,-0.278824,-2.773297,-0.18758,-0.091415,0.0,1.80542,-19.071041,29.836739,-25.258861,34.850304,-27.968971,28.926773,-28.978981,7.56546,0.0,-14.386599,10.502769,26.237664,27.563074,41.775648,40.762163,50.492546,51.21857,54.165325,0.0,70.234451,27.90842,92.954109,19.701473,92.759994,11.331573,79.767082,3.543789,60.136184,0.0,3.460184,29.743,51.128106,47.368753,66.121205,59.47754,75.260216,66.925627,78.690884,6.971947,292.606893,-48.53556,275.801185
98,0.389534,-0.473082,-0.042732,-0.17016,0.0,-0.229683,-17.754536,28.276657,-23.976814,32.85553,-27.624023,25.704163,-30.145832,2.499939,0.0,-15.5738,10.485849,24.561016,28.103057,40.340333,41.628237,49.070323,52.323124,53.801578,0.0,70.1529,27.594039,92.843147,19.351547,92.423767,11.008998,79.469078,3.300624,59.936531,0.0,3.741828,29.594379,51.214693,47.298914,66.185179,59.50518,75.281163,66.986699,78.447057,7.303419,292.011471,-48.636354,275.508685
99,-4.503616,0.04793,-0.12085,-0.168467,0.0,4.644447,-11.738034,32.955803,-17.627621,36.645424,-21.882706,29.053436,-25.609349,5.424797,0.0,-17.061688,10.624134,23.395268,28.428433,39.502628,42.073063,48.581766,52.839235,53.610918,0.0,70.043381,27.454914,92.70932,19.154365,92.134369,10.764416,79.240356,3.013092,59.732643,0.0,4.009862,29.462344,51.225239,47.202558,66.197874,59.454099,75.305232,66.959924,78.237957,2.72291,291.934912,-48.834097,275.215729
100,-4.610756,-1.03879,-0.155274,-0.115708,0.0,9.662338,-7.569374,36.951805,-12.95668,41.170509,-17.375622,33.222702,-21.499592,10.523872,0.0,-14.922765,11.48013,24.177522,29.729625,40.042574,43.538277,48.375458,54.353874,53.322296,0.0,69.917611,27.422642,92.608155,19.088929,91.963738,10.643612,79.080987,2.822663,59.505501,0.0,4.125088,29.312118,51.136109,47.07513,66.190106,59.372589,75.351372,66.936002,78.020781,-1.984703,290.761932,-49.086228,274.965831
101,-3.572067,1.055142,-0.088954,-0.14478,0.0,14.572013,-4.172471,40.434425,-9.2398,45.067337,-13.863373,36.483741,-18.421315,13.530738,0.0,-16.923133,9.978595,23.237371,28.553946,38.858089,42.903655,47.062101,54.195385,52.082384,0.0,69.724605,27.264324,92.375255,18.899906,91.686664,10.445137,78.989124,2.63895,59.463237,0.0,4.230434,29.005366,50.964752,46.885655,66.215053,59.311678,75.376184,66.979165,77.884214,-5.684234,291.681819,-49.302646,274.685796
102,0.783805,0.353867,0.008834,-0.096812,0.0,14.020478,-4.16423,39.029984,-9.188564,43.402474,-13.752067,34.842453,-18.285724,12.821206,0.0,-17.133838,9.435944,22.22748,28.045394,38.173351,42.516542,46.254282,53.868182,51.403179,0.0,69.63905,26.942231,92.039601,18.543606,91.409581,10.157353,78.895146,2.480301,59.522152,0.0,4.234015,28.729465,50.888391,46.649311,66.10184,59.202837,75.205011,66.999481,77.67131,-5.014121,291.904278,-49.407504,274.457576
103,-1.666282,1.539635,0.099987,-0.04393,0.0,18.256622,-4.131592,41.131805,-9.098992,46.767265,-12.892994,38.184242,-16.190586,19.183204,0.0,-16.555001,7.631931,21.818434,25.914549,37.333299,40.551039,45.190026,52.288483,49.594065,0.0,69.278527,26.462563,91.563218,18.058697,91.109002,9.764855,78.887078,2.206387,59.636239,0.0,4.316255,28.35532,50.706228,46.35995,65.964965,59.060317,75.082549,67.004496,77.627481,-6.786638,293.303499,-49.413752,274.273232
104,-0.661125,-0.16023,0.000172,-0.106692,0.0,18.645996,-3.475113,41.933441,-8.51516,47.342147,-12.360558,38.938842,-15.745354,20.577461,0.0,-16.076152,7.337443,21.556538,25.595052,37.296224,40.38209,45.261064,52.335265,49.709489,0.0,69.032696,26.037014,91.334622,17.618557,90.859005,9.429531,78.95097,2.040974,59.860211,0.0,4.430654,28.013321,50.410999,46.173636,65.836449,59.055068,75.0783,67.089945,77.8092,-7.558925,292.990622,-49.524742,274.013893
105,-0.477379,-2.27223,-0.04224,-0.166454,0.0,14.601104,-1.996765,42.69294,-7.348355,46.952522,-12.387383,38.46112,-17.420803,18.457123,0.0,-16.277482,8.820318,23.615309,27.312306,39.326528,42.210668,47.23126,54.263891,52.440019,0.0,68.830376,25.578804,91.053223,17.191509,90.642746,9.103546,79.026787,1.837566,60.082787,0.0,4.650806,27.692762,50.28562,45.960251,65.804598,59.005791,75.162169,67.158612,78.148987,-8.147712,290.57326,-49.67839,273.702307
106,0.828769,-3.739568,-0.063698,-0.180756,0.0,9.378216,-2.586147,41.53323,-8.326572,44.695279,-14.219444,36.205662,-20.425151,15.544774,0.0,-13.522352,11.686291,26.551134,30.716742,42.596978,45.653587,50.166121,57.619334,56.02116,0.0,68.626694,25.318943,90.893921,16.988743,90.573738,8.993843,79.181534,1.814438,60.363419,0.0,4.926262,27.605571,50.215348,45.962005,65.661856,59.115435,75.166665,67.335131,78.417219,-7.410908,286.680366,-49.834053,273.368225
107,-0.764877,-0.715144,-0.16262,-0.310629,0.0,7.92548,-3.10144,42.833691,-9.001762,46.591587,-15.080967,38.10458,-21.398884,16.742375,0.0,-13.069388,12.14501,27.933886,31.116416,43.60908,46.08064,50.957478,58.212052,57.043858,0.0,68.469474,25.278385,90.856315,16.96701,90.651878,8.97385,79.344108,1.754596,60.568107,0.0,5.206955,27.508956,50.18719,45.975478,65.621249,59.23386,75.25698,67.527397,78.75382,-8.263773,285.78684,-50.084661,272.879214
108,2.667297,-1.991771,-0.091324,-0.207161,0.0,0.276959,-5.603794,39.520169,-11.618007,43.14758,-18.313053,35.053059,-25.537754,12.460637,0.0,-12.260693,13.674986,29.206648,32.741192,45.03949,47.699649,52.233438,59.746994,59.320286,0.0,68.521454,25.255417,90.87268,16.965637,90.833519,8.955345,79.573517,1.689937,60.769867,0.0,5.20146,27.369314,50.035877,45.946802,65.433503,59.325523,75.262427,67.693198,79.053384,-5.676013,283.620217,-50.255522,272.497201
109,6.460946,0.054908,-0.178677,-0.071951,0.0,-8.791432,-14.500912,33.336078,-20.988202,37.82928,-26.822113,29.625125,-32.314717,6.403576,0.0,-12.187074,13.899462,30.345511,32.996184,45.390875,47.888395,52.280776,59.846585,59.330784,0.0,68.729244,25.780804,91.159939,17.556885,91.245655,9.493733,79.953335,2.140263,61.260624,0.0,5.130076,27.680276,49.984883,46.217268,65.208768,59.55022,75.11509,67.910818,79.123964,0.686016,283.536054,-50.533116,272.286179
110,4.676033,2.687946,0.029972,0.045967,0.0,-11.953709,-20.364602,29.275669,-26.751755,34.715412,-30.954838,27.024524,-34.283615,5.0014,0.0,-14.591141,11.987249,27.758021,30.703478,43.056315,45.386664,50.46571,57.179251,56.812022,0.0,68.843834,26.176644,91.370934,17.976929,91.538429,9.877613,80.190033,2.492901,61.630348,0.0,4.985456,27.888437,49.888911,46.418871,65.083563,59.711648,74.879797,68.023093,79.113948,5.26454,286.106699,-50.600653,272.214845
111,3.877544,1.876052,0.084252,0.116733,0.0,-16.653763,-25.763889,25.504692,-31.797741,31.765457,-34.369526,25.614533,-35.365025,4.390846,0.0,-14.922506,11.387628,26.971332,29.449006,42.057477,43.478983,49.729669,54.682089,55.15201,0.0,68.992172,26.477966,91.671112,18.291996,91.809265,10.148151,80.335899,2.727676,61.897865,0.0,4.72729,27.93743,49.70797,46.43647,64.994346,59.685515,74.661385,67.978064,78.956744,9.032112,287.896001,-50.626373,272.244828
112,1.207489,3.189927,0.12165,0.099603,0.0,-14.635918,-27.736221,25.033516,-33.950649,31.345253,-35.393532,25.550491,-34.692375,5.243317,0.0,-17.890947,9.339466,24.574836,26.798358,39.669379,40.441481,47.782568,51.335551,52.563433,0.0,69.140717,26.691456,91.899422,18.525193,92.015877,10.362259,80.498543,2.941418,62.102372,0.0,4.552623,28.085631,49.552063,46.560996,64.940488,59.751045,74.502428,67.976817,78.855708,10.093185,291.031634,-50.651139,272.290137
113,-2.912533,0.405713,-0.039859,-0.037692,0.0,-8.513408,-25.321644,29.636799,-31.47195,35.15102,-32.292984,30.086758,-30.531303,10.786366,0.0,-17.603573,9.303749,25.100097,26.442107,40.498007,39.605714,48.909426,50.038248,52.375526,0.0,69.211727,27.139835,92.29478,18.987476,92.27251,10.770504,80.698391,3.275104,62.354702,0.0,4.664613,28.387417,49.647751,46.776295,65.079969,59.844263,74.524238,67.977768,78.866601,7.009701,291.403158,-50.861949,272.218256
114,-0.147423,-0.07189,0.246219,-0.016253,0.0,-7.820148,-24.268032,29.849087,-30.39648,34.830197,-31.33612,29.432019,-29.802154,8.527348,0.0,-17.5375,9.424249,24.625953,26.638313,40.306285,39.824458,48.934509,50.220881,52.354963,0.0,69.138954,27.058365,92.363754,18.896736,92.173805,10.649243,80.586388,3.088795,62.164101,0.0,4.653239,28.318121,49.689482,46.699354,65.16973,59.773929,74.58752,67.920093,78.862093,6.681707,291.286882,-50.796301,272.157617
115,0.518418,-0.066271,0.31881,-0.060886,0.0,-6.94653,-23.920315,29.21513,-30.304505,34.057743,-31.509384,28.400814,-30.193955,7.55785,0.0,-17.135331,9.35746,24.842265,26.536338,40.456289,39.764722,49.012278,50.208569,52.695468,0.0,68.948433,26.937183,92.315689,18.798488,92.034736,10.546268,80.5643,2.94849,62.124458,0.0,4.758055,28.344872,49.701178,46.725401,65.10152,59.814475,74.67817,67.979658,78.854152,7.008499,291.158253,-50.669117,272.034373
116,-0.36715,-0.588654,0.370319,-0.02817,0.0,-4.370761,-22.691333,29.549847,-29.283405,34.272297,-30.79906,28.245198,-29.798378,7.529538,0.0,-16.514147,9.536091,25.338899,26.727011,40.745256,40.037498,49.371109,50.536636,53.054917,0.0,68.81274,26.897598,92.038776,18.75388,91.770802,10.45126,80.41016,2.751812,61.956883,0.0,4.825831,28.397544,49.691309,46.729562,64.939413,59.81135,74.770474,67.987611,78.929314,6.441026,290.492207,-50.499121,271.928811
117,1.062516,-2.936281,0.481476,0.102406,0.0,-7.605778,-22.179028,28.070652,-28.787098,32.818371,-31.503353,26.220096,-31.985241,3.183162,0.0,-13.725092,11.212343,27.246801,28.901749,42.640413,42.57618,51.086177,53.452589,55.542655,0.0,68.538174,26.956592,91.787029,18.816879,91.529446,10.464889,80.169468,2.679943,61.768467,0.0,4.821201,28.353875,49.676132,46.612262,64.709504,59.655567,74.724791,67.829135,78.838863,7.325552,287.474378,-50.195635,271.949669
118,2.47324,-0.658433,0.641189,0.252115,0.0,-11.678765,-22.900875,24.852813,-29.666932,30.019615,-33.408623,22.699379,-35.382512,-3.448265,0.0,-15.082204,11.498199,26.56026,29.633368,41.957059,43.694258,50.231651,54.940984,55.898548,0.0,68.38464,26.81638,91.418622,18.721379,91.294728,10.383923,79.896046,2.595978,61.526562,0.0,4.615856,28.109985,49.419942,46.335298,64.371803,59.400735,74.469107,67.629422,78.56684,9.638478,286.734777,-49.71476,272.120616
119,-8.625504,0.669634,0.620511,0.162194,0.0,3.215378,-14.498222,34.91423,-21.292797,39.942947,-25.32716,31.695259,-27.655174,7.390434,0.0,-14.087097,10.520245,26.613995,28.746521,41.467328,42.91566,50.002581,54.269251,55.399493,0.0,68.135398,26.666793,91.027702,18.567329,91.113121,10.209938,79.608581,2.365848,61.100372,0.0,4.494207,27.722538,49.10762,45.930005,64.067793,59.017882,74.170371,67.300662,78.316615,0.889486,287.327937,-49.217737,272.206336
120,-2.399483,-2.495915,0.586715,0.129972,0.0,4.004128,-10.604965,36.991127,-17.020168,42.059212,-22.361274,33.796257,-26.491642,6.127625,0.0,-12.148677,11.997352,28.436868,30.626278,43.209876,44.966601,51.252447,56.527377,57.359835,0.0,67.971382,26.615765,90.77623,18.569287,91.058075,10.25932,79.496887,2.440739,60.893441,0.0,4.384057,27.465842,48.901374,45.675372,63.774936,58.781156,73.864311,67.108458,78.012506,-1.617554,284.774563,-48.738579,272.278849
