takenoko1/special-research/HandMotion_SimilarSearch_自分用/NewProject/handData/test_key/d4_feature_d3/153.csv
frame,vel_0x_L,vel_0y_L,vel_0x_R,vel_0y_R,posFromWrist_0x_L,posFromWrist_1x_L,posFromWrist_2x_L,posFromWrist_3x_L,posFromWrist_4x_L,posFromWrist_5x_L,posFromWrist_6x_L,posFromWrist_7x_L,posFromWrist_8x_L,posFromWrist_9x_L,posFromWrist_0y_L,posFromWrist_1y_L,posFromWrist_2y_L,posFromWrist_3y_L,posFromWrist_4y_L,posFromWrist_5y_L,posFromWrist_6y_L,posFromWrist_7y_L,posFromWrist_8y_L,posFromWrist_9y_L,posFromWrist_0x_R,posFromWrist_1x_R,posFromWrist_2x_R,posFromWrist_3x_R,posFromWrist_4x_R,posFromWrist_5x_R,posFromWrist_6x_R,posFromWrist_7x_R,posFromWrist_8x_R,posFromWrist_9x_R,posFromWrist_0y_R,posFromWrist_1y_R,posFromWrist_2y_R,posFromWrist_3y_R,posFromWrist_4y_R,posFromWrist_5y_R,posFromWrist_6y_R,posFromWrist_7y_R,posFromWrist_8y_R,posFromWrist_9y_R,posFromBody_0x_L,posFromBody_0y_L,posFromBody_0x_R,posFromBody_0y_R
7,-2.621155,-2.426643,-1.220352,0.251337,0.0,33.257584,-15.961109,46.848038,-24.401081,44.353523,-27.107746,29.17186,-26.280808,0.178459,0.0,14.487104,14.72036,39.506296,35.363572,51.486234,50.879647,58.882599,61.835467,67.081671,0.0,74.226814,19.234818,83.472656,7.321381,75.491089,-1.388317,59.981735,-7.45285,39.347305,0.0,27.552898,46.92741,61.887547,62.943825,71.390478,70.41849,80.172029,71.637776,84.039556,-18.091089,338.796797,-48.510767,322.894399
8,-1.036812,-0.574365,0.00198,0.682119,0.0,35.502594,-15.346733,47.198021,-24.057564,44.212463,-26.895264,29.168083,-26.184505,3.024387,0.0,12.461048,15.266295,39.638565,36.225805,52.291385,51.841163,59.719465,62.64126,67.354274,0.0,74.305172,19.072666,83.488323,7.559006,75.355854,-0.975861,60.130634,-6.797653,40.250301,0.0,26.611785,45.783374,60.710363,61.838728,70.292507,69.539103,79.004787,71.035772,83.135642,-18.651695,338.296347,-48.032581,323.650433
9,-1.211975,0.78008,0.293049,0.503155,0.0,36.570488,-13.242508,48.239593,-21.95533,45.071091,-25.112137,29.234894,-24.921227,1.674854,0.0,12.385997,15.127332,38.117468,35.968072,50.870768,51.519295,58.444937,62.366212,66.359278,0.0,73.5214,18.60585,83.318847,7.251205,75.1837,-1.096642,60.531395,-6.524082,41.098595,0.0,25.767237,44.897724,59.921056,61.004072,69.377551,68.963428,78.093029,70.759316,82.607157,-19.506151,339.148295,-47.382013,324.225456
10,-2.596424,-0.929603,0.351425,0.442133,0.0,38.103618,-12.10136,52.829899,-21.076046,48.787044,-24.294514,32.416134,-24.169899,4.546646,0.0,13.406496,17.184189,38.823855,37.765885,51.11604,52.710671,58.768053,62.821436,68.4344,0.0,72.84819,18.269669,83.059776,6.973011,75.000366,-1.25869,60.8218,-6.414299,41.562355,0.0,25.051846,43.979002,59.254732,60.292534,68.58764,68.607721,77.320359,70.732849,82.131173,-21.821583,338.287115,-46.749596,324.736012
11,6.26334,-2.840284,0.504421,0.390732,0.0,27.869476,-19.495709,46.01033,-28.478932,42.491432,-31.337505,27.689644,-30.672226,-1.97739,0.0,17.358411,18.28778,41.651999,39.020036,54.429802,54.167301,61.911556,64.515237,71.693043,0.0,72.302777,17.86155,82.653912,6.647003,74.748402,-1.493751,60.881138,-6.439853,41.682026,0.0,24.309507,43.13759,58.604068,59.54013,67.858022,68.079644,76.776782,70.437707,81.913206,-15.378954,335.508038,-46.065886,325.187951
12,3.131069,1.430349,0.503975,0.30874,0.0,25.944569,-21.335998,39.088223,-30.065884,37.255177,-32.862545,23.425015,-32.165359,-5.712742,0.0,16.41242,15.18497,38.567727,36.198401,52.60777,52.228869,59.786564,63.630107,67.419508,0.0,71.60091,17.490624,82.148243,6.352238,74.486653,-1.677612,61.107731,-6.390724,42.048237,0.0,23.941548,42.63882,58.377567,59.076026,67.188104,67.826479,76.036592,70.411994,81.526636,-12.139893,336.988794,-45.453919,325.547098
13,-2.797085,1.216582,0.51582,0.298933,0.0,31.645031,-18.021669,41.456875,-26.762987,39.834057,-29.739721,25.646622,-29.232942,-2.854723,0.0,14.722787,14.357163,36.432138,35.317197,50.891491,51.378665,58.249695,62.80816,65.966434,0.0,70.991272,17.263698,81.726356,6.234134,74.255928,-1.671524,61.063133,-6.281468,42.005264,0.0,23.52692,42.046263,58.237444,58.562189,66.79426,67.525274,75.590174,70.365682,81.403197,-14.819962,338.243556,-44.821083,325.884211
14,6.763298,-2.034898,0.477127,0.167344,0.0,23.215657,-25.368936,35.747738,-34.299917,33.974751,-37.013025,20.869561,-36.073602,-8.909586,0.0,17.131534,14.751043,40.150488,36.196634,54.084568,52.526716,60.882028,64.247364,69.06339,0.0,70.778137,17.209476,81.234604,6.24773,73.920936,-1.63797,60.795181,-6.279007,41.817055,0.0,23.278053,41.984056,58.076781,58.480234,66.509516,67.475095,75.392992,70.36888,81.519436,-7.974444,336.226272,-44.261736,326.069169
15,2.903504,1.129699,0.290073,0.146534,0.0,21.095226,-26.251482,29.917064,-35.173903,28.519489,-38.207514,14.989242,-37.532679,-16.32577,0.0,16.152506,12.190575,38.742196,33.994133,54.077738,51.062737,60.996131,63.61767,67.233997,0.0,70.815525,17.266388,80.975796,6.396973,73.793919,-1.459007,60.655209,-6.10976,41.742611,0.0,23.174349,41.803645,57.982859,58.281533,66.273457,67.322349,75.163108,70.296743,81.617359,-5.018949,337.377133,-43.919672,326.236865
16,-5.82795,1.917708,0.174145,0.045782,0.0,30.398266,-19.441778,35.730961,-28.391916,34.208119,-31.732149,20.619438,-31.483904,-6.994715,0.0,12.758284,11.094012,36.466311,32.864459,51.701187,50.027961,58.444592,62.62202,64.086962,0.0,70.86644,17.36943,80.970749,6.514995,73.710388,-1.34277,60.55426,-5.999439,41.666061,0.0,23.337197,41.609934,57.792247,58.124909,66.116289,67.247977,75.09186,70.320764,81.738341,-10.795727,339.316019,-43.694355,326.303825
17,3.132775,-1.346714,0.320023,0.024342,0.0,25.447574,-23.293917,34.180217,-32.185284,32.763244,-35.142626,20.039268,-34.464152,-8.354199,0.0,14.218335,11.803066,39.299784,33.800039,53.597147,51.045342,59.90652,63.771274,65.856153,0.0,70.719909,17.27132,80.863426,6.390312,73.459007,-1.488991,60.148246,-6.160996,41.234092,0.0,23.616865,41.377913,57.563659,57.888343,66.099975,67.037087,75.169678,70.151864,81.818283,-7.622034,337.982349,-43.333414,326.341211
18,3.613872,-0.916315,-0.054532,-0.056996,0.0,19.665882,-27.319301,31.631527,-36.175077,30.222313,-38.842563,17.76852,-37.840691,-12.920866,0.0,15.415954,12.340326,41.26698,34.415333,54.951593,51.670565,61.196067,64.534424,67.534345,0.0,70.813397,17.267796,80.978589,6.291848,73.350438,-1.659336,59.992894,-6.343826,41.095128,0.0,23.88359,41.339986,57.568822,57.775501,66.080919,66.88255,75.213286,69.950212,81.770303,-3.992466,337.073753,-43.37225,326.291934
19,-6.136082,2.238539,-0.036632,0.048462,0.0,27.1092,-20.698207,36.790947,-29.394579,35.211514,-32.308925,21.426888,-31.602378,-8.360578,0.0,12.39521,11.738519,38.187795,33.319238,52.346738,50.230311,59.072655,62.735004,64.751266,0.0,71.074699,17.214741,81.029915,6.226902,73.205154,-1.67767,59.880867,-6.275494,41.028442,0.0,24.189489,41.372776,57.66724,57.794717,66.036285,66.901038,75.021427,69.963859,81.483139,-10.110564,339.310254,-43.390898,326.338358
20,-0.602485,-1.016794,0.044678,0.072198,0.0,27.684677,-20.88636,39.03289,-29.36043,37.234874,-31.90131,24.285507,-30.921845,-3.828924,0.0,13.235188,12.992509,40.270191,34.63467,53.103526,51.387019,59.519962,63.651429,65.669198,0.0,71.068702,17.163105,80.881713,6.132236,73.001999,-1.746209,59.751342,-6.286972,40.97937,0.0,24.373826,41.547098,57.703525,57.966767,65.996531,67.056205,74.939695,70.10838,81.179735,-10.692569,338.283528,-43.32574,326.400624
21,-2.526673,-1.1883,0.083828,0.078436,0.0,31.108338,-19.587215,44.014046,-28.224958,40.567303,-30.857265,25.622246,-29.937263,-3.214594,0.0,14.432837,15.410284,42.539321,36.684845,54.603221,52.695065,61.634012,64.062316,69.014291,0.0,71.009182,17.153045,80.678318,6.092285,72.833438,-1.780003,59.662983,-6.306164,40.955577,0.0,24.369479,41.787775,57.931667,58.137111,66.015451,67.159488,74.893011,70.163263,81.020307,-13.193184,337.083245,-43.215854,326.467077
22,3.947251,-0.888626,-0.133667,0.129515,0.0,25.340057,-23.296749,39.986435,-32.063382,36.705391,-34.741654,21.625625,-33.82782,-9.773758,0.0,17.000938,15.614518,43.904148,36.808173,55.941526,52.837481,63.05048,64.391872,70.679373,0.0,71.160656,17.37664,80.678249,6.334716,72.880222,-1.519776,59.849407,-6.060414,41.254039,0.0,24.286128,42.02964,58.11046,58.342345,65.940671,67.334316,74.794396,70.334324,80.96204,-9.220241,336.188253,-43.323829,326.590226
23,-6.865139,1.853994,0.068767,0.101703,0.0,34.952602,-16.228272,45.804851,-25.101563,42.473888,-28.120686,26.323024,-27.485401,-3.391308,0.0,14.431084,14.950133,40.630154,35.934059,53.318888,51.740016,60.983657,62.853546,67.954167,0.0,71.240708,17.355366,80.63617,6.322758,72.916741,-1.532055,59.936508,-6.113182,41.296303,0.0,24.361093,42.304231,58.214966,58.58222,65.848527,67.558186,74.634191,70.560627,80.888803,-16.059751,338.035368,-43.229433,326.68505
24,-0.713208,-1.135256,0.017544,0.056736,0.0,35.729737,-15.781597,48.303475,-24.676712,44.309761,-27.590263,28.909035,-26.837722,0.076516,0.0,15.682702,16.629312,43.052782,37.637876,54.449932,53.163893,61.6103,63.869328,69.461778,0.0,71.199016,17.420242,80.677128,6.429474,73.000889,-1.419422,60.080486,-6.040718,41.448612,0.0,24.195306,42.448345,58.339245,58.70503,65.811502,67.684775,74.636883,70.70584,80.993495,-16.747382,336.893958,-43.186312,326.735632
25,-2.367473,-1.32677,0.023323,-0.232589,0.0,37.153644,-13.92461,52.943653,-23.344723,46.701816,-26.85347,29.125179,-26.774288,-2.04467,0.0,17.014598,20.360766,45.510659,40.708774,56.57826,54.990792,64.498565,64.383265,74.826729,0.0,71.226093,17.333267,80.565022,6.324348,73.010067,-1.576103,60.049541,-6.321465,41.412518,0.0,24.421967,42.735768,58.656025,58.922021,65.941042,67.83878,74.770832,70.77768,81.255613,-19.09168,335.568368,-43.139814,326.504223
26,9.808044,-0.686146,-0.051155,-0.209247,0.0,22.40807,-22.486358,40.851643,-31.968544,36.478146,-35.311924,20.534695,-34.972927,-15.191402,0.0,20.783374,17.945522,46.391405,38.718151,58.055712,53.857228,65.584421,64.534331,74.985625,0.0,71.396519,17.304211,80.530529,6.385586,73.189625,-1.486279,60.248279,-6.277245,41.611599,0.0,24.797742,43.105171,59.006878,59.227808,66.228588,68.058006,74.901249,70.918965,81.498626,-9.268713,334.886263,-43.176046,326.299017
27,-7.037063,1.003679,0.002872,-0.172148,0.0,33.283207,-15.129639,47.423504,-24.770932,42.806499,-28.563847,25.717312,-28.569168,-8.047898,0.0,16.709946,17.524755,43.438488,38.363889,56.292689,53.452812,64.523907,63.761092,73.694844,0.0,71.458054,17.265656,80.428276,6.389351,73.371987,-1.492607,60.406838,-6.325664,41.6605,0.0,25.009386,43.308207,59.236725,59.383827,66.43838,68.163118,75.070223,70.985334,81.735439,-16.291248,335.896843,-43.158646,326.13377
28,-1.617279,-2.06108,0.00079,-0.158229,0.0,32.153904,-14.311924,51.997478,-23.730915,46.323909,-27.331112,29.391368,-27.191861,-3.169808,0.0,19.879816,20.954138,46.884222,41.100345,58.822578,55.208919,66.010128,64.644901,76.181928,0.0,71.375027,17.297356,80.271915,6.444569,73.469685,-1.458424,60.498768,-6.334625,41.732609,0.0,25.121981,43.462632,59.4437,59.464325,66.642946,68.180852,75.240258,70.964759,81.981143,-17.91192,333.847347,-43.161249,325.987125
29,5.892997,0.78097,0.046864,-0.25971,0.0,14.674107,-20.771553,44.263493,-29.158207,40.570004,-32.018726,25.026181,-31.425407,-11.54068,0.0,27.752179,18.937851,47.057407,37.945233,58.565659,51.702063,65.477333,61.330175,75.403971,0.0,71.164352,17.23423,80.036018,6.369792,73.538154,-1.585522,60.569572,-6.522721,41.698104,0.0,25.398253,43.696048,59.701879,59.621665,66.881574,68.285939,75.417223,71.038587,82.262528,-12.039185,334.64533,-43.134647,325.744428
30,3.735958,3.974664,-0.00206,-0.136679,0.0,2.434742,-24.878849,35.852509,-31.082405,36.829583,-32.117385,25.410714,-29.652225,-8.572723,0.0,31.323736,15.373246,43.630593,31.660115,54.18811,43.73941,58.10689,52.305983,65.023221,0.0,71.088867,17.17519,79.941307,6.298072,73.646621,-1.681961,60.680374,-6.643765,41.629211,0.0,25.30522,43.797369,59.919932,59.674907,67.064406,68.284199,75.518012,71.005045,82.325081,-8.337605,338.639044,-43.171085,325.626799
31,2.097657,0.13737,-0.142525,-0.712945,0.0,1.342357,-26.12201,33.924934,-32.751561,33.522217,-34.014233,21.689644,-31.778389,-16.371666,0.0,27.978222,16.023132,43.279999,31.610962,53.47845,42.956698,57.352572,51.015844,65.139077,0.0,70.837624,17.011722,79.97747,6.085968,73.730255,-1.797878,60.958946,-6.651959,41.910828,0.0,24.844648,43.578896,61.076196,59.486333,67.921661,68.218755,76.063503,71.060805,82.549494,-6.302112,338.804745,-43.375774,324.942185
32,5.583526,-1.215224,0.806808,-2.517404,0.0,-12.392601,-31.621307,28.809769,-38.182182,28.669693,-39.110973,17.063897,-36.596019,-25.179851,0.0,35.906741,16.909264,47.306312,31.232111,55.932066,41.651308,58.937459,49.38651,66.498253,0.0,68.860245,16.896058,78.517685,5.594147,72.374657,-2.650406,58.845452,-8.006229,39.21999,0.0,23.87019,42.89217,65.595425,58.624655,71.654598,67.4809,78.993918,70.598456,84.274035,-0.885372,337.646275,-42.735752,322.481535
33,4.050568,5.165793,0.87228,-5.377992,0.0,-28.346661,-34.955967,11.985065,-38.490944,16.061794,-37.211243,9.418373,-33.130199,-26.414887,0.0,34.947584,12.454724,42.329994,24.752467,50.564399,34.208678,53.057806,41.669363,59.713303,0.0,65.381619,17.050828,76.328396,5.700772,70.67165,-3.047195,54.649144,-9.524803,32.882607,0.0,21.776086,41.268752,71.367323,56.810392,78.35264,66.015847,84.713797,69.855475,87.79066,2.884947,342.916476,-42.143721,317.207951
34,4.374481,-7.862866,1.687306,-1.112507,0.0,-29.690414,-34.252601,-4.638393,-35.465229,1.038849,-32.442924,-1.72689,-26.722309,-26.077938,0.0,31.890569,19.827366,43.818871,31.094532,52.520257,39.019579,54.424035,44.576166,61.071887,0.0,57.547989,18.612362,69.525787,8.092552,60.284969,-1.151802,43.602379,-9.490505,23.463467,0.0,25.852476,34.110989,71.236423,46.637406,78.719783,54.789856,82.033495,59.120116,81.091159,6.942089,335.189967,-40.773754,316.231801
35,11.766827,-13.560341,-4.311211,-11.00119,0.0,-37.072266,-38.269444,-26.02969,-37.618469,-20.356648,-32.891361,-19.951458,-25.901665,-37.421402,0.0,31.839797,23.63644,50.566338,37.404571,60.962477,47.30751,65.194072,54.281428,71.057558,0.0,47.161072,20.372475,63.44817,11.718251,53.675381,3.091919,38.171887,-5.835861,20.272232,0.0,23.705843,26.384744,67.499169,36.698764,75.830547,44.307151,77.377033,49.448569,74.022903,18.44327,321.732848,-45.350611,305.333833
36,13.72348,-16.954366,-10.186473,-20.475997,0.0,-46.577454,-36.535858,-47.117661,-32.225246,-40.060169,-25.040852,-34.408138,-16.279541,-34.408722,0.0,34.172678,28.075653,56.414423,41.179041,67.770188,50.359277,72.303447,56.092222,75.567215,0.0,34.395687,22.348159,57.836906,16.519649,50.724186,9.434177,37.928054,0.964508,22.67847,0.0,15.532724,18.401574,59.293302,27.23008,68.925835,34.599893,70.336906,40.645888,66.298281,31.946903,304.942646,-55.756931,285.022
37,17.386894,-17.304256,-17.138844,-28.765095,0.0,-50.033123,-38.093971,-66.270149,-31.20536,-58.265476,-22.012161,-48.029789,-11.601642,-35.133785,0.0,27.672336,30.691017,56.465775,43.071703,67.759431,51.279963,72.850283,55.691375,75.331946,0.0,20.96814,24.356483,54.29393,22.650055,52.886192,18.635204,45.526359,12.430893,34.082245,0.0,1.731667,10.473117,44.382948,18.793034,56.069164,26.348197,59.051079,33.348508,56.601947,49.222858,287.918536,-73.006714,256.537051
38,32.109204,-28.60468,-21.284134,-32.702685,0.0,-47.547604,-41.243924,-82.676857,-36.579049,-79.264424,-29.188363,-69.748421,-20.009171,-54.483307,0.0,20.093213,31.743886,59.102789,45.478561,72.032633,54.679508,78.65849,59.762444,80.881887,0.0,4.682774,24.478237,44.228771,27.994274,47.342869,28.582455,48.955776,26.547981,48.852253,0.0,-11.646794,1.568899,25.791196,8.992972,36.959586,16.028678,40.45561,22.879244,37.235116,81.408246,259.539606,-94.214664,224.060116
39,19.898254,-17.786959,-18.710392,-36.680659,0.0,-44.623192,-39.854942,-79.063088,-35.855438,-76.898277,-29.163025,-68.503143,-20.874229,-53.819687,0.0,15.270024,25.791504,52.029427,37.859597,63.395023,46.092656,69.777175,50.829444,70.384317,0.0,7.267307,22.363083,39.099964,24.010609,43.85558,23.453636,43.847351,21.360352,41.119366,0.0,-24.277754,-1.168855,9.483271,4.662762,16.802319,9.618269,20.512932,14.165699,16.172792,101.466333,242.110756,-112.765223,187.737566
40,29.386345,-22.523982,-19.120207,-33.900199,0.0,-29.535164,-36.152161,-74.963596,-37.396317,-78.700699,-35.860062,-76.142258,-31.940735,-65.738251,0.0,0.639277,17.521717,35.81514,27.897787,48.041882,35.446268,54.495085,40.381423,57.206039,0.0,4.472365,20.078997,32.972189,22.562756,39.557289,23.168627,40.414137,22.759739,38.570965,0.0,-33.860476,-5.466085,-4.293834,-0.806735,1.255941,3.062238,4.726136,6.607998,-0.176653,130.864443,220.150827,-131.873665,154.40142
41,24.943313,-18.857439,-19.530022,-31.119739,0.0,-12.763916,-33.387611,-65.638916,-39.229454,-75.150901,-41.64965,-77.646354,-40.885208,-72.636383,0.0,-14.482343,6.139497,13.42767,15.187587,24.424486,22.538962,31.301506,28.613498,37.881086,0.0,-3.702055,17.625979,25.845446,23.650715,34.447999,27.727427,38.656134,30.746144,41.207051,0.0,-40.394958,-11.322794,-15.540118,-7.415518,-9.679547,-3.639415,-6.904777,0.206141,-11.813218,155.523696,201.957424,-151.687747,123.945717
42,24.463486,-22.840576,-14.046581,-24.219055,0.0,0.786049,-29.250252,-58.046058,-39.548996,-75.021812,-45.890579,-81.879089,-48.393287,-80.647545,0.0,-26.482461,-3.584439,-6.116237,4.289362,2.927253,11.6659,10.471443,18.836568,19.816324,0.0,-10.531111,12.42465,19.610945,20.560742,29.301201,26.810286,35.391947,31.847741,39.428227,0.0,-42.196718,-14.516037,-29.068226,-11.339676,-24.324899,-7.997136,-21.960985,-4.275741,-24.69717,179.659361,180.044658,-166.062149,100.654472
43,12.35051,-18.373002,-9.071411,-23.227943,0.0,12.001579,-25.641724,-48.599831,-38.197998,-68.610054,-46.861244,-78.801315,-51.90049,-83.294151,0.0,-33.614713,-11.778878,-27.572009,-5.282605,-21.406268,1.528774,-13.512027,8.912622,-0.531097,0.0,-13.089025,9.970224,23.161303,19.303551,33.59436,26.694208,39.517462,32.605488,40.238182,0.0,-42.383154,-17.391432,-42.066224,-14.414364,-38.230825,-10.595938,-34.50944,-5.952888,-31.214629,191.459164,162.97604,-175.684267,78.730913
44,11.741844,-22.769686,-9.752541,-25.457138,0.0,25.283157,-25.812698,-51.162277,-42.432381,-75.963799,-54.525398,-90.4403,-62.436951,-99.208305,0.0,-45.32915,-22.176185,-44.378354,-14.676356,-38.871285,-6.128105,-29.3713,3.880927,-11.507671,0.0,-28.995191,9.739352,28.306017,25.556889,48.998967,39.008921,62.493479,50.1213,69.449547,0.0,-51.33116,-21.965001,-52.671159,-15.473014,-45.647729,-8.302151,-38.756071,-0.555531,-27.790223,201.994646,141.797181,-186.64317,54.864602
45,-5.20871,-15.359748,3.595305,-25.203218,0.0,20.988762,-28.044456,-56.416214,-43.85131,-80.273323,-54.754028,-92.07978,-61.524215,-100.140678,0.0,-47.044829,-27.420382,-55.129984,-19.098137,-51.988209,-9.312172,-40.75216,1.96315,-21.219702,0.0,-37.129715,11.008369,32.244885,30.416519,58.558708,47.007523,76.566776,60.630432,87.61092,0.0,-53.923442,-24.274729,-56.02098,-15.806926,-49.67833,-6.648765,-41.285448,2.904091,-25.863795,195.953859,128.498183,-183.879942,31.722134
46,-23.315712,-12.168635,18.198795,-19.946006,0.0,20.896935,-32.217018,-65.010704,-47.0671,-86.706356,-56.951156,-97.695213,-62.517196,-104.029049,0.0,-45.608404,-31.356032,-58.80488,-22.957852,-56.04452,-12.711594,-44.914453,-0.831179,-26.282044,0.0,-36.654556,17.134838,41.644432,35.39581,65.816346,50.492375,81.468235,62.468697,92.443955,0.0,-52.33516,-27.578191,-61.870109,-18.276399,-56.37502,-8.289845,-44.818468,2.23965,-27.827558,172.436989,118.90505,-165.882305,14.35163
47,-33.175964,-5.571054,29.148491,-18.579341,0.0,15.782639,-38.138924,-76.437664,-51.532288,-95.094292,-60.166992,-105.173515,-64.286385,-108.96191,0.0,-43.752224,-32.138027,-59.448406,-23.554183,-55.528682,-13.556408,-45.227206,-2.077679,-27.221972,0.0,-32.074379,26.452343,50.866757,43.697445,73.251446,57.002758,86.939713,66.946862,98.497673,0.0,-48.312553,-32.305234,-60.033627,-22.991821,-53.678948,-12.155649,-42.059002,-0.291332,-25.922508,139.113447,116.070814,-136.881392,-1.490893
48,-31.735904,0.954358,35.101948,-10.100496,0.0,9.530782,-44.464934,-86.203867,-56.843491,-103.397218,-64.199437,-112.60524,-66.397907,-112.886993,0.0,-38.941795,-29.699557,-53.043283,-21.401567,-48.551496,-12.035817,-39.25566,-1.390258,-23.724582,0.0,-26.812162,34.736939,59.887997,50.987286,80.652534,62.541916,92.671108,70.62513,103.314342,0.0,-46.439845,-32.677089,-54.538841,-23.509901,-47.934761,-12.931355,-37.007748,-1.272448,-22.869923,107.350478,120.01476,-101.806509,-8.601801
49,-25.54753,10.736168,39.348793,-5.385105,0.0,0.920051,-48.630107,-94.862908,-59.768074,-111.668808,-65.885412,-118.827644,-66.607164,-115.302978,0.0,-34.814295,-24.982447,-45.806734,-16.936436,-39.984911,-8.484066,-31.407382,0.566092,-19.108251,0.0,-22.133394,41.61747,69.265388,58.330696,84.868114,69.36105,96.238083,76.534355,106.329803,0.0,-44.129713,-29.290395,-46.183881,-20.523411,-40.910337,-10.815724,-30.375939,-0.327346,-18.377587,82.35235,133.828506,-61.908314,-10.909328
50,-20.379579,16.339937,36.728291,7.689735,0.0,-4.095378,-52.553961,-100.775125,-62.817581,-117.239202,-68.187268,-124.047866,-68.241939,-118.361355,0.0,-29.065997,-19.904954,-36.917101,-13.419043,-31.173115,-7.019794,-25.05574,-0.073481,-15.436609,0.0,-12.645316,48.406231,77.613693,63.745571,88.739845,72.810653,96.982967,77.952953,104.39907,0.0,-42.418059,-25.195156,-44.512797,-17.529571,-39.367197,-9.882564,-29.315514,-1.896358,-18.92811,62.220358,152.436088,-24.932436,-0.951948
51,-7.082043,22.038246,32.852142,15.761286,0.0,-12.228996,-53.034348,-104.001766,-62.499047,-119.810864,-67.416161,-124.602699,-67.412178,-117.728691,0.0,-23.871758,-12.258247,-29.300076,-6.949317,-24.151759,-2.463575,-19.422363,1.859361,-12.114381,0.0,0.814035,51.745663,78.266384,65.718544,88.724968,73.088368,95.174881,76.545113,99.800491,0.0,-39.129726,-17.1338,-39.771168,-11.668086,-37.252949,-7.477811,-31.105578,-3.793158,-22.129282,54.988753,175.807489,7.770144,16.142493
52,3.603767,24.888226,14.787857,22.551805,0.0,-18.328102,-52.621284,-108.668598,-60.96199,-123.679527,-65.196144,-125.51033,-65.27108,-117.311039,0.0,-18.226832,-6.788482,-20.920545,-2.471078,-16.345951,0.957638,-12.94359,3.770023,-8.360141,0.0,10.543646,53.910633,80.994526,66.732269,88.46505,73.040875,92.342743,75.637352,94.680725,0.0,-36.453262,-9.366997,-35.645395,-5.617406,-35.675148,-4.53108,-31.378073,-4.808817,-24.84754,58.604936,201.000197,22.570417,38.99878
53,11.503826,20.421232,0.218288,24.904233,0.0,-21.405263,-52.237276,-108.590941,-60.265961,-124.427756,-64.559208,-125.845643,-65.235311,-117.916294,0.0,-13.447279,-1.907255,-13.596613,1.30426,-9.814487,3.666846,-7.626512,5.248239,-4.901785,0.0,19.027199,55.472306,84.877545,66.515923,90.543778,71.47371,91.735417,73.137921,90.879468,0.0,-32.132679,-3.917113,-31.969658,-1.365301,-32.590549,-2.22441,-29.37644,-4.811663,-24.524133,70.172872,221.012592,22.852815,63.494176
54,6.502981,13.539266,-14.35128,27.256663,0.0,-28.856886,-49.878552,-101.002746,-56.142425,-113.693854,-59.297227,-112.371712,-59.770102,-105.046703,0.0,-7.095624,4.490616,-4.522811,6.227877,-2.463829,7.011985,-1.831383,6.700894,-1.431239,0.0,26.264694,56.43068,89.91544,65.069504,94.961151,68.386872,93.352902,69.046818,88.396717,0.0,-26.167978,-0.78415,-28.743959,1.088227,-27.999153,-0.557804,-25.100681,-3.801698,-21.159063,76.847085,233.326692,8.672767,89.525673
55,14.406015,2.470103,-28.400883,26.119164,0.0,-27.947735,-47.197847,-91.484827,-53.854214,-102.731543,-57.396281,-101.327968,-58.358807,-96.31525,0.0,-6.541903,5.849232,-2.345297,7.107532,-1.090334,7.319647,-0.848868,6.322751,-1.029954,0.0,27.309746,56.692097,98.127926,63.697243,104.474064,65.835846,101.153012,65.560353,92.168233,0.0,-22.225702,1.595248,-23.997852,3.118285,-23.301789,1.191796,-20.554081,-2.375291,-17.544391,91.485072,234.342971,-19.496144,114.191013
56,22.309049,-8.59906,-32.750129,23.427119,0.0,-18.677811,-44.19516,-80.037186,-53.401326,-91.540821,-58.856369,-92.714413,-61.001427,-91.721936,0.0,-11.786116,2.168594,-7.064072,3.943227,-5.694,4.589834,-4.678965,4.113812,-3.69793,0.0,28.300518,50.794887,99.707416,56.199211,106.49699,57.69881,103.269939,57.182156,91.588692,0.0,-17.881685,1.812714,-18.341145,3.483668,-17.233077,2.318721,-14.331382,-0.115696,-11.346484,113.893942,224.518453,-52.146452,136.392674
57,20.633514,-16.631276,-30.880007,13.862521,0.0,-10.541771,-40.070869,-71.360447,-50.572414,-83.455433,-57.154427,-86.961948,-60.244446,-88.72245,0.0,-21.28638,-3.936014,-16.702446,-0.601838,-14.964317,1.785945,-12.091107,3.415514,-7.672649,0.0,25.690709,44.912865,95.227213,49.790152,102.891217,51.379612,100.653062,51.121815,88.53029,0.0,-15.721487,0.551299,-14.498268,2.267787,-13.272835,1.785147,-10.703565,0.372271,-7.803685,134.189169,207.112759,-83.364746,149.480777
58,5.623993,-23.332689,-29.009884,4.297926,0.0,-3.62574,-37.283386,-69.799427,-49.00169,-80.953297,-56.306191,-85.411297,-59.842575,-88.400448,0.0,-28.409068,-9.589772,-23.664237,-4.202931,-21.954242,0.106019,-17.831852,3.705537,-10.948521,0.0,19.480319,39.046028,84.687315,44.470064,93.656745,46.87825,93.302379,47.37933,82.993026,0.0,-15.745112,-2.188998,-12.469224,-0.529362,-11.421066,-0.40893,-9.670635,-0.911395,-6.915997,139.111273,183.119504,-113.076519,153.118137
59,4.161232,-21.054588,-27.139761,-5.266671,0.0,5.191864,-36.373901,-74.819882,-49.103497,-87.725727,-56.926071,-92.26466,-60.307755,-94.04195,0.0,-39.242214,-18.175239,-35.791208,-9.91974,-31.679603,-2.239706,-23.77263,4.815051,-12.706289,0.0,9.669348,33.194378,68.087723,40.238949,78.793574,44.194725,81.21789,45.954701,74.9769,0.0,-17.952558,-6.408177,-12.254011,-4.907775,-11.677769,-4.263508,-11.232588,-3.966689,-8.683417,142.428234,161.737645,-141.060551,147.524195
60,-13.360039,-14.554646,-23.168712,-14.745122,0.0,3.706925,-41.662102,-87.061889,-53.143867,-100.296867,-59.554046,-104.771301,-61.013603,-103.013592,0.0,-44.136378,-22.231735,-40.431903,-12.35417,-33.757567,-2.968867,-25.178033,5.710999,-12.90097,0.0,-3.030596,26.083946,48.278217,35.994243,60.100793,42.859439,66.306352,47.408752,65.323934,0.0,-22.571705,-11.820248,-13.687164,-9.40891,-11.518366,-7.231899,-11.57726,-4.979476,-8.42325,128.183258,147.118924,-165.1142,132.714998
61,-26.426285,-5.937858,-20.502022,-22.475069,0.0,-5.461418,-45.694564,-103.180126,-52.998264,-113.255127,-55.735427,-113.417369,-54.296447,-105.363659,0.0,-42.248199,-21.869661,-36.673613,-10.815603,-29.176526,0.077886,-20.82758,10.056425,-7.799756,0.0,-19.660223,20.954956,38.416088,34.885036,53.721582,45.598091,64.384546,53.733627,68.269861,0.0,-30.729749,-14.955545,-20.466031,-10.827811,-16.828327,-6.673163,-15.564713,-2.455539,-10.979587,100.642862,140.405231,-186.730333,109.464094
62,-31.159629,2.893168,-10.109591,-21.80387,0.0,-14.308171,-51.152893,-114.326992,-56.918644,-122.918702,-58.248517,-121.591668,-55.321255,-110.266674,0.0,-34.594693,-16.353881,-26.401741,-5.500634,-18.163464,4.907941,-10.469758,13.878491,0.46611,0.0,-31.472273,18.513096,31.807978,35.042456,51.518312,48.130669,66.261918,58.470852,74.036405,0.0,-36.717376,-18.80277,-25.181367,-13.00715,-22.851604,-6.728466,-19.970359,-0.190658,-13.647507,68.400485,142.184492,-197.922672,86.546317
63,-24.48507,15.612221,2.313401,-19.72523,0.0,-24.155182,-55.116623,-122.217544,-58.458234,-129.242328,-57.743522,-124.939356,-52.918579,-110.005468,0.0,-28.265035,-10.712024,-17.476892,-0.467278,-8.039021,9.211253,-0.67505,17.019994,7.801491,0.0,-39.026182,19.223842,28.585081,37.595392,50.604472,52.18293,67.614306,63.566711,79.224921,0.0,-40.540854,-23.658783,-26.211629,-17.233404,-23.739242,-9.582101,-21.315836,-1.440774,-15.010963,43.268188,156.478932,-196.256498,65.503306
64,-18.456367,21.76673,14.900556,-15.148663,0.0,-30.727627,-59.048332,-130.152077,-61.471224,-136.896389,-59.81416,-132.495157,-54.111248,-115.791773,0.0,-19.608665,-3.666709,-4.862771,5.492977,4.119098,13.429646,8.788232,19.242879,13.079058,0.0,-41.518959,20.373791,29.282112,39.059372,55.449772,54.014774,73.994167,65.797588,86.744488,0.0,-42.746427,-25.373356,-27.593975,-18.100361,-27.981378,-9.525304,-24.64225,-0.497425,-17.537531,24.43194,176.84958,-181.735823,48.958561
65,-5.097473,26.626431,28.441029,-10.151293,0.0,-34.050991,-55.855912,-131.740414,-57.26845,-136.930001,-54.860424,-128.910822,-49.301022,-108.029909,0.0,-12.983438,4.385786,5.829369,11.949131,13.193538,17.820805,16.697892,21.261785,17.804595,0.0,-38.51492,26.490635,44.346851,43.321254,64.390697,55.985424,81.650219,65.326515,94.128181,0.0,-42.671412,-30.353057,-42.983529,-21.874558,-34.202985,-11.310316,-27.599995,0.201634,-18.72307,19.312409,202.205395,-153.316852,37.536652
66,5.019905,25.830469,29.233245,-6.17627,0.0,-37.574627,-54.492462,-127.824635,-56.341856,-134.287033,-54.662281,-126.525336,-49.993366,-106.199335,0.0,-5.586208,12.387806,15.497267,17.931801,21.517024,21.290128,23.56271,22.098342,21.86403,0.0,-33.244514,34.560105,59.42648,48.825566,78.799016,58.249043,91.893643,63.872407,98.554986,0.0,-42.215088,-31.765708,-44.236377,-21.840596,-32.217227,-10.157158,-24.681294,2.393934,-14.761979,24.77805,227.445937,-123.637871,30.770455
67,15.810608,22.195062,28.167922,0.777484,0.0,-41.252747,-50.561211,-121.804539,-51.125639,-127.87856,-48.457947,-118.707064,-43.116417,-97.195467,0.0,-0.137561,15.55181,21.429159,19.133217,25.339881,20.663794,25.518765,19.873623,21.747581,0.0,-26.140114,40.079647,73.978975,52.59593,91.083074,59.986295,100.200227,63.300905,101.648546,0.0,-43.398171,-29.692204,-45.020799,-19.084221,-28.486965,-7.393741,-20.394265,4.763473,-10.458318,41.265061,249.550359,-94.793546,31.457299
68,18.376705,12.152413,25.072036,6.323798,0.0,-43.335034,-46.382263,-110.692681,-46.230045,-115.609194,-43.276165,-106.144993,-38.054444,-86.090264,0.0,3.7467,17.326863,23.503998,19.258027,25.616622,19.289427,24.630165,17.232916,20.220345,0.0,-16.642284,42.583786,87.873144,53.503458,104.129385,59.471426,110.894137,61.665728,106.807509,0.0,-46.214391,-23.835684,-46.958335,-12.318957,-28.861154,-0.835773,-18.217273,10.56619,-7.228136,60.130028,261.797114,-69.233248,37.875439
69,20.942802,2.109765,17.695113,10.64825,0.0,-43.821487,-41.95562,-94.489059,-41.655075,-97.478937,-39.116935,-88.839123,-34.807445,-72.883724,0.0,6.066576,17.712963,21.721782,18.30623,22.347246,17.167028,20.896907,14.176221,17.282322,0.0,-6.543669,45.953504,101.436103,55.957157,114.258121,60.841907,118.504978,61.800098,110.91822,0.0,-46.340022,-19.53888,-47.477403,-7.88779,-25.826745,3.17604,-14.144694,13.928674,-3.007643,81.380201,264.012615,-51.230764,48.629425
70,21.70871,-9.204572,9.364872,14.551899,0.0,-39.301952,-38.420792,-81.206772,-40.007801,-85.892023,-39.541305,-81.457512,-37.028504,-72.360535,0.0,4.585289,14.519794,16.17008,15.559146,16.16979,15.066088,15.508826,13.063139,14.503794,0.0,3.720045,45.661108,104.220073,56.070167,123.132797,61.738517,126.784034,63.540985,116.447605,0.0,-44.437746,-10.395225,-32.922874,0.475815,-20.758766,9.393942,-10.526133,17.28868,-0.300981,103.131248,254.860336,-41.823555,63.233617
71,21.261108,-16.980092,5.535083,16.779643,0.0,-28.946216,-34.278099,-73.349064,-38.920818,-81.316171,-41.223999,-81.175026,-40.875824,-74.99295,0.0,-4.343672,8.915414,5.038445,11.29554,5.739924,11.921856,6.736662,11.208997,8.266028,0.0,10.586684,45.922102,106.155556,56.458981,125.001812,62.764149,128.325268,65.595829,119.331505,0.0,-41.70524,-5.466116,-26.602158,4.187947,-17.884957,11.3972,-7.870118,17.345027,0.604472,124.583513,237.961523,-36.097315,80.094539
72,11.733742,-22.208757,1.080317,15.623308,0.0,-18.074306,-36.294342,-71.113735,-44.047519,-82.482221,-48.612739,-83.957245,-49.998322,-81.218376,0.0,-13.458003,2.923783,-10.440383,6.993907,-7.650728,8.699435,-4.899383,8.520383,-2.068806,0.0,14.737696,46.042791,107.750169,56.425535,125.734915,62.737066,127.755415,65.719911,118.930303,0.0,-37.077584,-2.196295,-21.130892,6.545241,-14.791144,12.480407,-5.578103,16.961097,1.346517,136.529486,215.668331,-34.804767,95.633412
73,5.113918,-21.767027,-0.448267,14.099293,0.0,-11.046512,-39.213478,-80.47221,-48.25217,-94.00169,-53.468856,-95.698963,-55.206539,-91.549118,0.0,-20.601339,-4.21864,-19.14837,2.36932,-14.608289,6.802259,-10.079896,9.23767,-5.132849,0.0,15.219663,43.663724,103.103156,53.227724,117.643097,58.902881,118.012984,61.416344,109.858464,0.0,-31.565296,-0.932078,-18.387295,7.835717,-12.214308,13.55944,-3.71644,17.704936,2.619832,142.020423,193.790997,-34.876015,109.622398
74,-4.441223,-19.787783,2.140023,11.29921,0.0,-6.884273,-44.025284,-95.79443,-54.265148,-112.005306,-59.970176,-114.09011,-61.686893,-106.941478,0.0,-27.104739,-9.569764,-23.883707,-0.731169,-17.048505,6.044321,-11.033187,10.886887,-4.232009,0.0,13.022243,37.617325,91.352685,45.941013,99.936477,50.86422,99.015909,53.075521,92.320562,0.0,-28.945856,-0.480957,-16.905792,8.996151,-9.177359,15.266244,-1.249643,19.741496,4.828208,138.066753,173.932639,-32.248439,120.851033
75,-14.406212,-12.681145,4.728314,8.499129,0.0,-9.03479,-48.031654,-106.286853,-57.398483,-121.891307,-62.085662,-121.890014,-62.877227,-112.828491,0.0,-29.222611,-13.262859,-25.4933,-2.820944,-17.387978,5.970289,-10.148946,12.854608,-2.10354,0.0,8.145436,27.903591,72.498754,34.565403,72.615054,38.621084,70.764191,40.69744,66.316596,0.0,-29.219267,-0.842935,-16.686385,10.026542,-5.680299,17.600814,1.822286,23.070776,7.971643,124.139865,161.245693,-27.040801,129.344361
76,-24.213043,-3.981408,7.16841,8.203345,0.0,-15.701935,-50.368835,-112.616695,-56.197883,-123.778541,-57.868263,-118.243,-56.451462,-105.481292,0.0,-26.872241,-14.510649,-24.264404,-3.488601,-16.091651,6.648482,-8.535111,14.828769,-1.338094,0.0,2.284412,15.542736,47.613979,21.090717,36.501011,24.812542,35.401714,27.359974,35.10133,0.0,-30.585541,-1.850092,-18.25843,10.831646,-3.062135,20.268628,3.954898,27.34546,11.042369,100.355461,157.277796,-19.443752,137.561217
77,-22.659668,1.105456,10.094593,7.835664,0.0,-21.277427,-47.801353,-109.990574,-50.389686,-117.417148,-49.764702,-107.936165,-46.683929,-95.904808,0.0,-26.99644,-13.679167,-18.915917,-2.093363,-11.99272,9.27122,-4.708147,18.924933,5.631749,0.0,-4.530029,0.82243,16.828445,4.873924,-7.30204,8.249611,-7.022255,11.525619,-1.499474,0.0,-32.962333,-3.203562,-21.70869,11.924771,-1.180952,23.85232,6.02116,33.188192,14.807774,78.352386,158.393515,-8.692566,145.407144
78,-19.736709,4.41434,-9.866705,5.467369,0.0,-25.973763,-48.013939,-107.821301,-50.775444,-114.427254,-50.166882,-106.935356,-46.863682,-96.468659,0.0,-29.533425,-9.513195,-13.862529,1.85024,-7.247486,12.171932,-0.364958,20.344686,9.367204,0.0,-1.834476,5.373871,24.958651,8.981598,-10.407122,10.545882,-24.119515,11.662862,-16.856536,0.0,-33.863959,-4.68979,-23.397665,12.964502,1.524065,27.145388,12.063944,38.11112,21.06786,59.36792,162.827275,-17.807028,150.893933
79,-11.14476,7.950439,-12.025847,1.121233,0.0,-29.456864,-47.18628,-108.076069,-50.112935,-113.936463,-49.768582,-106.242371,-46.889523,-96.459355,0.0,-30.186627,-6.290224,-11.022374,4.794117,-4.462084,14.341324,1.476996,21.398618,10.500868,0.0,2.495373,11.2989,38.262286,15.475113,7.248486,17.075782,-9.805152,17.868807,-3.915995,0.0,-33.024282,-3.668626,-22.524803,13.834873,1.552296,27.879987,12.988564,38.74303,22.209001,49.015017,170.714176,-29.041018,151.951628
80,-5.805909,7.896878,-13.601617,-0.90899,0.0,-30.738235,-47.474121,-110.278324,-51.068927,-117.576622,-51.045387,-110.153251,-48.338733,-99.50362,0.0,-29.006565,-2.179987,-8.022824,8.310815,-1.608784,16.663694,3.530135,22.078489,11.188952,0.0,7.751232,19.841354,56.923647,25.032932,33.924223,26.96068,16.177123,27.51619,18.634225,0.0,-31.37091,-1.929967,-20.747153,14.471551,0.891351,27.292915,12.446802,36.934521,21.945481,44.070121,178.509898,-41.781622,150.941482
81,-0.134124,5.76571,-15.252894,-2.604404,0.0,-33.059464,-49.72181,-113.604149,-55.088963,-123.893361,-56.287205,-118.796597,-54.316979,-109.489758,0.0,-28.615462,1.036678,-4.889015,11.177701,1.839927,18.419209,6.706551,22.379263,13.690721,0.0,13.957318,31.461674,81.787033,37.989945,69.403748,40.247498,50.506508,40.287907,48.496399,0.0,-29.240401,0.035408,-18.201163,14.858816,-0.386051,26.003901,11.143393,34.018796,20.515722,44.771199,184.13637,-56.199314,148.19784
82,3.996482,3.680139,-17.250561,-4.433383,0.0,-35.582679,-52.9514,-123.588031,-60.217083,-135.07117,-62.704113,-132.885543,-61.651794,-120.412342,0.0,-25.800619,3.992695,-0.793653,13.996287,7.00777,20.502668,12.000921,23.588608,15.943833,0.0,22.44207,45.260548,113.009343,53.589592,114.13995,56.456292,93.735295,55.976578,85.561535,0.0,-27.870555,2.826872,-15.205082,15.974189,-2.350956,25.05455,9.054883,30.877379,18.139047,49.396762,187.66241,-72.820794,143.610358
83,5.675904,3.699294,0.804497,-3.980728,0.0,-36.501045,-53.207016,-126.239857,-60.351803,-138.429428,-62.883545,-134.200093,-62.01614,-120.257,0.0,-22.352093,4.797044,-1.595383,14.231111,6.789396,20.717264,12.082111,24.152686,16.472651,0.0,23.957211,42.356381,110.631237,51.769409,126.544224,56.955517,120.09779,58.873455,109.017231,0.0,-28.935107,6.17593,-13.270306,17.218151,-5.446454,24.103285,2.619792,28.053237,12.628169,55.585745,191.158314,-71.503218,139.42624
84,4.374344,2.533756,1.253254,-1.950202,0.0,-38.593369,-52.661293,-125.785366,-59.531891,-138.398976,-61.85669,-133.75454,-60.570683,-118.785965,0.0,-20.700949,6.048181,-0.898679,15.263923,6.773155,21.721003,12.828302,25.17032,17.432054,0.0,27.118378,40.387528,108.625054,50.020981,125.984619,55.66127,122.931725,57.910114,110.225807,0.0,-32.139515,7.550557,-13.357861,19.16366,-6.279307,26.153189,1.238065,29.716744,11.647326,60.3662,193.389817,-69.843853,137.173785
85,3.564949,2.573744,1.077702,-1.752038,0.0,-43.119805,-51.902253,-125.152542,-58.149102,-136.369767,-60.202664,-131.389229,-58.694149,-116.373688,0.0,-19.933971,7.86005,2.239404,16.58931,8.738561,22.81122,14.617509,26.25635,18.829887,0.0,32.474041,37.145553,106.847568,46.435524,124.017208,52.274036,121.953037,54.938553,108.444385,0.0,-36.62207,8.552858,-13.897961,21.977756,-6.958796,30.198428,1.64237,34.30646,12.464648,64.28987,195.519644,-68.40743,134.97783
86,1.88546,3.856079,1.265567,-1.458668,0.0,-48.540665,-50.464875,-123.96904,-56.164559,-133.591588,-57.89209,-127.885849,-56.155678,-112.976269,0.0,-16.768114,10.962921,7.80004,19.643177,13.48461,25.860887,19.091017,29.344759,23.261479,0.0,39.616642,32.529534,103.541245,40.891892,119.932984,46.643956,118.853989,49.728802,105.27752,0.0,-40.465311,8.382229,-14.156758,24.09808,-6.575746,34.232162,3.525967,39.643437,15.029463,66.481448,198.715827,-66.835745,132.859266
87,-0.994721,5.963583,2.126072,0.136098,0.0,-53.998718,-48.067657,-121.605469,-52.493065,-129.805229,-53.330429,-122.986896,-50.912132,-106.780598,0.0,-11.738457,14.572418,15.32933,23.351239,21.169066,29.628366,26.671868,33.0145,30.217021,0.0,46.28872,27.333596,98.040974,33.562855,112.578358,38.329617,111.947262,41.320027,98.674954,0.0,-41.942381,5.416721,-13.268441,22.812831,-4.258185,35.508283,7.591429,43.771081,19.65016,65.792284,203.798546,-64.404116,132.1145
88,-2.724884,7.497056,2.250458,3.485156,0.0,-59.828716,-44.525162,-119.115921,-47.579361,-124.794434,-47.976242,-117.41732,-45.659683,-100.54977,0.0,-4.912777,19.561616,26.314135,29.217936,32.310569,35.682883,37.362469,38.772627,38.676963,0.0,52.683689,21.968708,93.26041,25.102043,104.605145,28.038105,103.781353,30.413464,89.495968,0.0,-40.751956,1.240405,-12.0413,19.813947,-1.213309,34.827041,12.234362,45.913846,24.750757,63.297192,210.265278,-61.923866,134.569332
89,-4.091423,8.519889,3.613014,6.133532,0.0,-64.415932,-41.361626,-114.654636,-42.609673,-118.650993,-41.885353,-110.288864,-38.889587,-92.409405,0.0,2.513353,24.003164,37.553699,34.439131,44.269278,41.266467,49.491894,44.32,48.949132,0.0,57.706101,16.709221,88.47852,15.749394,95.804295,15.8573,92.761906,16.898484,77.318402,0.0,-35.376619,-2.156917,-6.502164,16.873109,6.667773,33.700368,20.125621,47.462979,32.612857,59.383684,217.655919,-58.132937,139.573616
90,-5.114342,9.13133,5.62135,8.436496,0.0,-66.671047,-37.429115,-109.328911,-36.705642,-112.386909,-34.606498,-103.134292,-30.786941,-83.796821,0.0,10.062934,26.699125,47.579767,38.893682,56.723002,46.941132,62.911406,50.767817,61.289322,0.0,59.985672,13.865638,81.177154,8.251636,83.5662,3.948532,76.547836,1.400047,57.368534,0.0,-25.893393,-2.871301,4.059954,14.921259,19.358705,31.565452,31.549706,45.99351,41.700066,54.437914,225.590995,-52.343015,146.813858
91,-5.313354,10.457544,5.994861,18.667495,0.0,-64.552769,-34.632385,-104.276196,-31.72918,-105.08131,-27.780922,-94.837006,-22.550789,-74.246132,0.0,11.041863,27.984545,52.951287,41.136568,64.908389,49.76972,72.776466,54.059756,71.448524,0.0,57.857518,14.345833,70.114369,8.336609,66.372174,2.813221,57.925427,-1.389335,39.041451,0.0,-17.070895,-4.198589,14.864523,12.814681,33.237604,30.309597,47.274584,46.455169,57.333504,49.288456,234.911402,-46.184258,164.344216
92,-2.570984,18.796072,3.098008,19.142727,0.0,-62.840927,-32.892174,-98.609379,-30.300064,-96.379269,-26.344826,-82.268681,-21.187203,-66.146782,0.0,18.004024,24.560423,49.541972,32.022306,53.025338,35.491605,54.648373,35.626813,49.27773,0.0,59.125957,16.250518,67.91756,8.307071,61.43526,0.238849,50.62009,-6.711045,28.313564,0.0,-9.161408,0.779352,26.151522,16.899939,45.554946,33.096393,58.743488,47.847937,67.323609,46.854361,252.725069,-42.949361,182.504538
93,-6.52581,10.632544,2.059902,19.530284,0.0,-56.504826,-35.1152,-83.576432,-33.186676,-83.277397,-28.86707,-70.644081,-23.246727,-59.825798,0.0,20.795464,23.492821,44.917867,31.507789,49.529215,35.528223,52.427001,36.708718,51.337712,0.0,60.366028,18.391765,66.511688,9.489807,58.00383,-0.290383,44.288086,-9.519917,20.172844,0.0,-2.092943,8.461783,40.216018,23.053578,59.603005,36.922733,70.16603,48.791199,74.894556,40.511582,262.579394,-40.706428,201.256603
94,-6.475067,18.181322,1.014141,21.968623,0.0,-54.816468,-37.813443,-64.730198,-35.489731,-61.943951,-29.921689,-50.153801,-22.83355,-46.385388,0.0,26.038778,18.47455,41.047598,20.915877,41.595151,19.981075,40.487929,17.351791,35.107888,0.0,60.510097,23.013038,66.207287,13.66872,55.926967,2.960918,41.661701,-7.7356,17.528583,0.0,3.128548,18.382295,50.898407,33.423362,69.017818,46.036563,79.962881,55.46075,83.458967,34.222647,280.216108,-39.506155,222.680618
95,-5.961319,12.957496,-2.713211,22.83119,0.0,-44.574246,-38.720684,-44.07763,-37.921154,-39.38554,-33.156453,-30.570179,-26.457138,-34.534642,0.0,29.729427,15.462686,38.874453,14.934535,37.965117,12.001193,34.325819,8.05649,28.433212,0.0,63.039448,27.227485,71.019047,18.762405,61.727772,9.043121,47.690334,-0.948189,26.269615,0.0,3.510499,24.894975,57.839845,40.83498,74.767671,53.433546,86.036775,62.177046,90.516767,28.327824,292.827749,-42.15287,245.165953
96,-12.36335,7.113216,-3.460591,15.3493,0.0,-26.942677,-31.305645,-13.975434,-33.583981,-9.672856,-31.992714,-4.251812,-28.454899,-16.084946,0.0,30.367518,15.400318,40.851466,15.768708,39.842341,13.739207,35.087596,10.708003,28.898933,0.0,68.645577,29.327889,81.656456,18.013459,74.939988,6.588776,58.838768,-4.234588,34.853451,0.0,2.453295,33.529313,62.996548,49.086638,77.488456,59.58028,86.020584,65.474888,89.082602,15.890677,299.792431,-45.687258,260.366719
97,-10.894959,-1.027503,-1.147979,15.302629,0.0,-13.849296,-27.757782,11.080456,-31.451534,13.560871,-31.348846,12.304928,-29.252861,-2.736145,0.0,29.997844,18.862948,49.196875,25.615282,57.621459,29.822782,58.795013,32.465712,57.221934,0.0,70.228981,30.658687,85.150703,19.142578,78.561447,8.128635,62.494812,-1.857525,39.932533,0.0,1.838236,38.180057,66.261588,53.815521,79.320331,63.603468,87.575225,68.302563,90.318289,4.837841,298.713638,-46.993114,275.618058
98,-1.136238,7.243558,-0.043179,13.252268,0.0,-11.180855,-26.013977,22.585968,-31.932598,26.823944,-33.674023,23.242836,-32.669895,3.986595,0.0,27.698839,17.386496,54.528183,25.414605,62.913098,30.873477,62.802108,34.412912,58.690544,0.0,70.657116,31.803234,87.83701,20.123303,81.665875,9.451298,66.410763,0.21563,44.7598,0.0,0.969889,41.130554,65.995951,57.938423,78.013915,68.204047,87.809951,73.110352,92.812228,3.462833,305.914344,-47.275063,288.827474
99,-6.046108,0.426226,-1.330902,9.458632,0.0,1.853794,-18.092972,32.092243,-26.615616,33.967563,-31.199421,27.720623,-33.004898,6.904049,0.0,22.006797,19.385357,54.878703,34.373256,68.067381,46.042429,70.942566,54.719918,72.373743,0.0,71.599857,31.07793,90.159771,20.007774,85.356388,10.092796,70.371265,1.742844,49.063145,0.0,-0.783773,41.108274,64.495588,57.381348,76.14095,67.096948,85.973962,71.640185,90.894285,-2.866058,306.32161,-48.888748,298.267146
100,2.098938,2.5126,-0.094128,6.495835,0.0,-2.924721,-20.588974,31.59827,-30.861866,32.388187,-36.586521,26.139896,-39.280815,4.282757,0.0,17.34448,21.031709,54.522008,39.370605,69.092622,53.508288,73.289897,64.203002,76.302885,0.0,71.196053,29.98914,90.580559,19.136914,85.98674,9.627743,71.704193,1.935414,50.755097,0.0,-0.777982,41.511838,61.593207,57.870979,72.792793,67.330488,83.415161,71.509163,88.190913,-1.076071,308.873693,-49.291827,304.802464
101,4.836113,11.824129,-0.04533,3.578387,0.0,-19.85186,-28.363884,23.333416,-36.037628,26.08984,-38.92368,21.547336,-38.662342,0.875232,0.0,24.350448,19.102145,48.561389,33.689234,59.359807,44.646647,60.902666,52.658726,62.943344,0.0,70.558125,28.484196,90.353863,17.877251,86.235775,8.701035,72.636257,1.502026,52.323315,0.0,0.814846,41.203666,59.593161,58.107755,70.099265,67.812943,81.212252,72.054789,86.010913,3.423598,320.769267,-49.673601,308.452296
102,7.228798,3.191163,-0.418167,1.807805,0.0,-29.475048,-34.766854,15.949596,-43.009644,18.160457,-45.78376,13.112079,-45.270253,-8.567356,0.0,19.31091,17.957464,46.142118,33.700658,57.23637,45.281762,59.069814,53.647881,61.375661,0.0,70.100819,27.717133,90.25787,17.357735,86.516018,8.450203,73.084683,1.536873,53.423664,0.0,1.845831,40.978993,58.278334,58.244112,68.283111,68.202132,79.817112,72.579544,84.912262,10.302292,324.041351,-50.441872,310.341022
103,-1.884201,3.96676,-0.693249,0.596286,0.0,-27.52858,-32.45929,16.165592,-40.024006,18.746349,-42.530434,13.338512,-42.185349,-7.240597,0.0,16.272073,17.907064,42.441601,33.180695,52.605942,44.115149,54.2322,51.708856,56.414114,0.0,69.75499,27.279923,90.187752,17.013565,86.548554,8.235421,73.372239,1.571469,54.131699,0.0,3.157249,40.662251,57.300208,58.25939,67.093861,68.487679,79.207204,72.993347,84.132158,8.088622,328.084932,-51.46459,311.014129
104,0.430309,5.196384,0.010689,0.09843,0.0,-25.911884,-31.681858,15.961075,-39.604019,17.423996,-42.608723,9.541901,-42.806385,-10.288559,0.0,8.208963,15.068162,37.883964,29.96272,47.506024,40.749702,49.3348,48.361428,51.601138,0.0,69.461495,26.576546,89.851822,16.290138,86.337364,7.589653,73.25631,1.116669,54.216316,0.0,4.309117,40.06263,56.760288,57.988935,66.459202,68.561273,78.747781,73.270656,84.017166,8.171471,333.354882,-51.801361,311.186125
105,0.235588,0.040878,0.120609,0.256796,0.0,-26.292091,-31.928684,15.544876,-40.135437,17.050484,-43.346798,8.670113,-43.808453,-11.756538,0.0,7.920911,14.861262,37.616425,30.139092,47.288849,41.32324,49.392673,49.368689,51.985313,0.0,69.03217,26.047646,89.512517,15.770096,85.725575,7.13237,72.77686,0.758069,53.925992,0.0,5.647816,39.818666,56.704909,57.862025,66.4048,68.638979,78.376525,73.500379,83.675352,8.037535,333.46337,-52.050276,311.510531
106,0.440323,-3.712891,-0.25352,0.273505,0.0,-18.712097,-30.536957,17.3237,-41.712044,16.557815,-47.28178,4.767998,-49.867962,-17.37204,0.0,1.020512,14.718568,38.82977,34.03637,50.842794,48.65909,55.115527,59.519653,59.253163,0.0,68.58831,25.797683,89.178726,15.529369,85.130012,6.932292,72.350784,0.621105,53.75592,0.0,7.068433,39.980588,57.03105,57.992282,66.686579,68.782944,78.248837,73.656225,83.488063,8.121758,329.802677,-52.659896,311.836234
107,-7.394474,5.53212,-0.24194,0.278889,0.0,-8.568352,-23.691502,23.78619,-34.435364,21.983608,-40.070595,8.606998,-42.813069,-12.424164,0.0,-4.205228,11.858364,34.080794,30.975723,45.090707,45.497568,49.066952,56.291676,53.165895,0.0,68.226643,25.610481,88.945209,15.270435,84.623577,6.651306,71.884724,0.340908,53.441975,0.0,8.333082,39.92652,57.259366,57.915131,67.053933,68.700433,78.35863,73.570009,83.50565,0.363453,335.367688,-53.265667,312.148014
108,2.384193,-2.929032,-0.189583,0.274604,0.0,-12.231926,-27.680328,21.003536,-38.61153,19.68401,-43.960853,7.603237,-46.239612,-13.433624,0.0,-0.383952,12.112652,37.770887,31.301395,49.274458,46.309438,53.385516,57.887825,57.126974,0.0,68.061093,25.257591,88.423886,14.974411,84.048374,6.462135,71.224514,0.218136,52.943562,0.0,9.214076,39.907031,57.585755,57.821382,67.341134,68.555876,78.363224,73.426242,83.471465,2.373522,332.463696,-53.829374,312.447658
109,-0.554683,-3.598369,-0.001098,0.319324,0.0,-10.140896,-29.006859,21.391868,-39.90738,21.41629,-44.84285,10.342689,-46.765171,-10.777062,0.0,1.510724,13.43931,40.098371,33.350508,51.849635,48.857543,56.880095,60.750067,60.695974,0.0,67.514064,24.67646,87.657543,14.445785,83.055004,6.046073,70.095027,-0.075165,51.898235,0.0,9.959477,39.843045,57.878735,57.624805,67.442417,68.256732,78.278922,73.093246,83.318719,1.471579,328.87768,-54.177732,312.779335
110,-9.026345,5.092346,-0.072911,0.343011,0.0,2.190892,-20.222786,29.917008,-30.425663,29.629143,-35.519909,16.436531,-37.855934,-3.743076,0.0,-6.107881,9.888835,34.106618,29.97901,45.828069,45.587983,50.969235,57.565043,55.115232,0.0,67.099022,23.832882,86.960861,13.749527,82.216416,5.583618,69.122338,-0.275184,51.061089,0.0,10.633051,39.59676,58.037076,57.332738,67.370749,67.958576,78.077863,72.811566,83.255858,-7.842133,333.953002,-54.53801,313.105322
111,1.927826,-2.545623,-0.087192,0.360388,0.0,-2.130512,-23.550556,27.093155,-33.222862,27.365456,-37.592754,15.733223,-39.186939,-4.213474,0.0,-2.5239,10.615192,36.249665,30.812529,49.38856,46.704998,54.434569,59.185127,58.203727,0.0,67.096172,23.347904,86.586857,13.397587,81.525638,5.399963,68.136921,-0.309746,50.185695,0.0,10.940456,39.38918,58.070915,57.05065,67.422842,67.657642,77.896873,72.539506,83.129096,-6.136362,331.366367,-54.847257,313.424698
112,-1.212021,-1.885463,0.16769,0.453297,0.0,0.519413,-22.716442,28.558342,-31.978202,29.868348,-36.174934,18.199219,-37.770813,-2.546024,0.0,-2.98893,11.485873,35.856748,32.170631,49.948982,48.382634,55.963003,60.932936,60.06328,0.0,66.859566,22.426346,85.920456,12.633705,80.827286,4.899513,67.382378,-0.460945,49.479149,0.0,11.310156,39.075031,58.068865,56.770279,67.200911,67.447864,77.508426,72.399864,82.705921,-7.487578,329.446077,-54.818762,313.843168
113,-7.578003,5.237658,-0.096417,0.334194,0.0,12.704499,-14.141464,35.549653,-22.869678,34.952065,-27.382347,20.737107,-29.560592,1.533875,0.0,-9.866271,9.012139,29.773974,29.757832,43.373094,45.829093,49.359339,58.15639,54.175588,0.0,66.97585,22.046814,85.842076,12.378811,80.468823,4.870915,66.975895,-0.186801,49.288136,0.0,11.646016,39.135398,58.020254,56.795324,67.238084,67.418766,77.211579,72.296419,82.718505,-15.150101,334.657769,-54.999699,314.151396
114,6.76759,-2.429694,-0.277187,0.263489,0.0,1.161758,-21.50259,28.665905,-30.250477,28.75478,-34.278763,15.780453,-35.728031,-3.60997,0.0,-4.185751,10.479972,33.594423,31.161728,47.671541,47.411324,52.948719,60.153917,57.622027,0.0,67.441017,21.975369,86.183304,12.352192,80.627106,4.948197,67.24324,0.036312,49.553375,0.0,11.939466,39.162963,57.728632,56.832559,67.158488,67.429078,76.934887,72.245314,82.632425,-8.429718,332.207561,-55.324093,314.394371
115,2.19215,-1.806977,-0.005379,0.194007,0.0,0.747013,-24.019661,27.169075,-32.978908,26.771553,-36.83725,14.524246,-37.948666,-4.23056,0.0,-1.644327,12.177564,35.492704,32.676342,49.571329,48.822333,55.459947,61.307562,59.94436,0.0,67.811371,21.945534,86.28035,12.312001,80.692589,4.960568,67.36068,0.130989,49.563149,0.0,12.0243,39.229172,57.383151,56.919233,67.105087,67.448666,76.804076,72.156295,82.623854,-6.257172,330.405222,-55.349076,314.593016
116,-5.935993,5.141117,0.156098,0.157488,0.0,10.624145,-17.260563,34.126476,-26.370701,32.820362,-30.782318,18.118069,-32.515617,-0.862507,0.0,-9.897554,9.194229,29.574433,29.483907,42.947597,45.321653,49.279953,57.448335,54.104612,0.0,67.92382,21.833816,86.085983,12.198543,80.616714,4.861255,67.37812,0.101349,49.526893,0.0,12.362075,39.244721,56.989925,56.983997,66.925233,67.48232,76.752613,72.113478,82.629313,-12.196461,335.561727,-55.196274,314.765892
117,-3.647953,2.102774,0.163902,0.101049,0.0,13.002148,-13.210499,38.871849,-22.606751,35.776863,-27.622616,20.40715,-30.050171,2.514118,0.0,-11.426284,8.891652,29.894943,28.329829,42.792739,43.505388,49.022306,55.018815,53.635346,0.0,67.982643,21.990223,86.091408,12.334293,80.443428,4.916531,67.182221,0.051453,49.339119,0.0,12.639272,39.460637,56.47416,57.140756,66.793877,67.496732,76.623492,71.981232,82.748022,-15.841827,337.680794,-55.029785,314.883234
118,6.563759,-3.743285,0.333859,0.106828,0.0,1.275158,-20.857785,33.022201,-30.57074,31.974792,-35.188317,18.902092,-37.130711,-0.110115,0.0,-4.982789,10.503881,33.647688,30.260703,47.430985,45.921805,53.902132,57.979228,57.952403,0.0,67.781444,21.981594,85.923076,12.269222,80.308445,4.734077,67.033985,-0.235096,49.161174,0.0,12.863599,39.434505,55.980021,57.12638,66.514555,67.442059,76.47954,71.872231,82.698733,-9.264175,333.950971,-54.682033,315.003524
119,-7.366631,3.664195,0.44712,0.107125,0.0,13.078514,-12.854324,40.0429,-22.537617,38.68943,-27.596134,24.790283,-30.27404,6.316956,0.0,-11.227991,9.168862,29.228928,28.523516,42.450272,43.656368,49.376951,55.05647,53.607052,0.0,67.552471,21.937832,85.550297,12.219818,80.051136,4.637329,66.714695,-0.370056,48.96777,0.0,12.884161,39.448559,55.801599,57.122539,66.3811,67.392831,76.468252,71.776171,82.692916,-16.611489,337.630918,-54.215596,315.126401
120,-1.685211,0.679638,0.187054,0.167331,0.0,14.002304,-11.001297,41.83802,-20.488163,40.658249,-25.493511,25.782532,-28.097054,6.644211,0.0,-11.304957,9.508402,29.181799,29.258975,41.668017,44.420628,48.517323,55.826398,53.511141,0.0,67.609772,22.072037,85.483566,12.345566,80.097244,4.724132,66.823563,-0.300797,49.101242,0.0,12.935945,39.454042,55.637442,57.113252,66.289042,67.38547,76.487938,71.768762,82.738994,-18.271963,338.31281,-54.003805,315.295986
